AlexandreBanks6/ExpertPlaybackApp/resources/Motions/P_02/PC1/Data_PC1_4.csv
Task Time,PC1 Time,PC2 Time,Gaze Calib,s_T_psm1,Tx,Ty,Tz,R00,R01,R02,R10,R11,R12,R20,R21,R22,s_T_psm3,Tx,Ty,Tz,R00,R01,R02,R10,R11,R12,R20,R21,R22,cart_T_ecm,Tx,Ty,Tz,R00,R01,R02,R10,R11,R12,R20,R21,R22,ecm_T_psm1,Tx,Ty,Tz,R00,R01,R02,R10,R11,R12,R20,R21,R22,ecm_T_psm3,Tx,Ty,Tz,R00,R01,R02,R10,R11,R12,R20,R21,R22,psm1_joints,q1,q2,q3,q4,q5,q6,jaw,psm3_joints,q1,q2,q3,q4,q5,q6,jaw,ecm_joints,q1,q2,q3,q4,ecmi_T_ecm,Tx,Ty,Tz,R00,R01,R02,R10,R11,R12,R20,R21,R22,Sample #,Task Duration (s),Collisions (binary),Collisions (increments),Cumulative Collision Time (s),Clutch Press,MTMR Angle,MTML Angle
""
lci_T_si,,,,,-0.06325326,0.014099291,0.23646986,0.99321187,-0.021149708,0.11438049,0.061731156,-0.73758954,-0.6724217,0.09858737,0.67491806,-0.7312771
rci_T_si,,,,,-0.0730827,0.018441333,0.2456533,0.991962,-0.042163182,0.11930484,0.052885953,-0.7184059,-0.6936109,0.114954144,0.6943452,-0.71040154
ecm_T_lc,,,,,-4.4061628e-05,-0.00034663224,-0.01840835,-0.99912,0.030754527,0.028518902,-0.031987965,-0.99852574,-0.043852776,0.027128186,-0.04472645,0.9986309
ecm_T_rc,,,,,-0.0043358393,0.01870579,-0.007592615,-0.99555075,-0.052743673,-0.078081585,0.04863213,-0.9973746,0.053654674,-0.08070653,0.04961868,0.9955021
cart_T_ecmi,,,,,0.10635596,1.3404362,0.44018698,0.9956651,0.012106441,-0.09221999,-0.051438015,-0.7544026,-0.6543935,-0.07749338,0.65630037,-0.75050956
ecmac_T_ecmrep_psm1,,,,,0.01038242,-0.2501324,-0.30762842,0.998145,0.0496832,0.035188068,-0.04731537,0.99675006,-0.06519635,-0.03831287,0.06341047,0.99725187
ecmac_T_ecmrep_psm3,,,,,-0.018947443,-0.4527795,-0.5580277,0.99342906,-0.031421527,0.110051684,0.0051236153,0.97282016,0.23150527,-0.11433475,-0.2294202,0.9665888
""
0,13:58:36.544291,13:58:26.318772,0,,0.10693755,5.5521727e-05,0.017766133,0.967096,-0.25415444,0.0114490315,0.04701963,0.22278109,0.9737339,-0.25002939,-0.9411558,0.22740099,,0.06322456,-0.008317739,0.017769814,-0.8210873,0.26039118,0.50794876,0.27085662,-0.605578,0.74827266,0.5024461,0.7519785,0.4267037,,0.10636617,1.3404384,0.44018188,0.995665,0.012105509,-0.0922208,-0.051439244,-0.7544026,-0.6543934,-0.07749338,0.65630037,-0.75050956,,-0.074065536,0.25937232,-0.08037949,-0.9367859,0.3498496,-0.00612357,-0.1709788,-0.4424175,0.8803596,0.30528426,0.8257554,0.47426733,,-0.028905774,0.40299636,-0.34476325,0.7482234,-0.28801933,-0.59766763,0.6629092,0.28830087,0.69096595,-0.026703462,-0.91319627,0.40664414,,1.1932162881978063,0.3439859676837081,0.21323063097000003,4.264883760531741,0.2266799531108657,-1.3075982642045316,-0.40868685346796696,,-0.9339255319457184,-0.213819305088654,0.21203934046000003,-3.7679185944734184,-0.8743369619990534,1.395960790808782,0.877484323273348,,-0.04931645967666478,-0.06459245395474515,0.08431779928,-0.06509005378220696,,1.0453165e-05,-4.7683716e-06,1.5497208e-06,1.0,-9.313226e-07,-8.158386e-07,9.23872e-07,1.0,-1.1920929e-07,8.08388e-07,5.9604645e-08,1.0,44,0.133,0,1,0.104,False,-0.2557075953271921,1.0518324369961412
0.12442465597996488,13:58:36.601342,13:58:26.392101,0,,0.10699482,0.0001591444,0.018360019,0.97073424,-0.23990117,0.011075128,0.045856923,0.23042822,0.9720081,-0.23573793,-0.9430538,0.23468569,,0.06322072,-0.0083189905,0.017766654,-0.8210554,0.2604622,0.5079641,0.27076134,-0.60568666,0.74821925,0.50254977,0.7518666,0.42677897,,0.10636617,1.3404384,0.44018188,0.995665,0.012105509,-0.0922208,-0.051439244,-0.7544026,-0.6543934,-0.07749338,0.65630037,-0.75050956,,-0.0741769,0.2598392,-0.080748715,-0.9418164,0.33606496,-0.0065022274,-0.16258463,-0.4385392,0.88388324,0.2941907,0.8335129,0.4676624,,-0.028901562,0.40299344,-0.3447626,0.74818844,-0.28807148,-0.5976863,0.66294324,0.2881412,0.6909999,-0.026839329,-0.91323024,0.40655893,,1.1945600437179213,0.3454378414640623,0.21272637416,4.2588027521706895,0.21260639363502531,-1.3141732216948645,-0.40983026193090666,,-0.9339023637470958,-0.21382702782152824,0.21204063675,-3.7679185944734184,-0.8744735984988189,1.3960722087124786,0.877484323273348,,-0.04931645967666478,-0.06459245395474515,0.08431779928,-0.06509005378220696,,1.0453165e-05,-4.7683716e-06,1.5497208e-06,1.0,-9.313226e-07,-8.158386e-07,9.23872e-07,1.0,-1.1920929e-07,8.08388e-07,5.9604645e-08,1.0,56,0.17,0,1,0.104,False,-0.2552905512975445,1.0516393161930233
0.18147541797952726,13:58:36.634548,13:58:26.392101,0,,0.10691106,0.0002798736,0.018770888,0.97192,-0.23522453,0.0064094476,0.04913479,0.22950625,0.9720661,-0.2301248,-0.9444556,0.23461941,,0.0632263,-0.008322731,0.017767131,-0.8210611,0.26047423,0.50794876,0.27078432,-0.60562205,0.74826324,0.5025282,0.7519144,0.4267202,,0.10636617,1.3404384,0.44018188,0.995665,0.012105509,-0.0922208,-0.051439244,-0.7544026,-0.6543934,-0.07749338,0.65630037,-0.75050956,,-0.07412981,0.26020432,-0.080983,-0.9434459,0.33152136,-0.0018521178,-0.15647404,-0.44035584,0.8840829,0.29227677,0.8343742,0.4673264,,-0.0289069,0.4029913,-0.34476608,0.7481945,-0.28809255,-0.5976685,0.66293764,0.28821388,0.690975,-0.026808368,-0.9132007,0.40662742,,1.1959346901695334,0.3464417967377115,0.21241526456,4.2529314337531225,0.2083706621422967,-1.3126795564436489,-0.4088501975341009,,-0.9339255319457184,-0.2138501960201509,0.21204193304000002,-3.7679185944734184,-0.8744735984988189,1.3959905299723379,0.8773209792072139,,-0.04931645967666478,-0.06459245395474515,0.08431779928,-0.06509005378220696,,1.0453165e-05,-4.7683716e-06,1.5497208e-06,1.0,-9.313226e-07,-8.158386e-07,9.23872e-07,1.0,-1.1920929e-07,8.08388e-07,5.9604645e-08,1.0,68,0.208,0,1,0.104,False,-0.25540970673458663,1.0514461953899055
0.21468437899602577,13:58:36.673827,13:58:26.392101,0,,0.10687145,0.0004133284,0.019172668,0.9737086,-0.22779247,0.0014882945,0.05231361,0.22996598,0.97179157,-0.22170909,-0.946164,0.23583657,,0.063228264,-0.008322239,0.017766893,-0.82106376,0.26046744,0.5079478,0.2707852,-0.60562456,0.74826086,0.50252324,0.7519146,0.4267255,,0.10636617,1.3404384,0.44018188,0.995665,0.012105509,-0.0922208,-0.051439244,-0.7544026,-0.6543934,-0.07749338,0.65630037,-0.75050956,,-0.07412542,0.2605711,-0.08119806,-0.94594824,0.32430446,0.002919138,-0.1486158,-0.44145545,0.8848901,0.28826246,0.83662635,0.46579078,,-0.02890886,0.40299112,-0.34476557,0.7481976,-0.2880857,-0.59766793,0.66293424,0.2882136,0.69097835,-0.026804958,-0.9132029,0.40662262,,1.1972398320252773,0.3475461475387256,0.21211322899,4.24580197567465,0.2016754736537901,-1.3126108760118014,-0.40852350940183235,,-0.9339332546785927,-0.2138501960201509,0.21204322933000003,-3.7679185944734184,-0.8744735984988189,1.3959905299723379,0.8773209792072139,,-0.04931645967666478,-0.06459245395474515,0.08431779928,-0.06509005378220696,,1.0453165e-05,-4.7683716e-06,1.5497208e-06,1.0,-9.313226e-07,-8.158386e-07,9.23872e-07,1.0,-1.1920929e-07,8.08388e-07,5.9604645e-08,1.0,81,0.248,0,1,0.104,False,-0.25540970673458663,1.0520738380000385
0.25395145296351984,13:58:36.713111,13:58:26.494378,0,,0.10693349,0.00052025914,0.019691482,0.97814107,-0.20794278,2.708286e-05,0.050717235,0.23869485,0.9697693,-0.20166305,-0.9485698,0.2440235,,0.063228264,-0.008322239,0.017766893,-0.82106376,0.26050895,0.5079265,0.2707852,-0.60556346,0.7483103,0.50252324,0.75194955,0.42666405,,0.10636617,1.3404384,0.44018188,0.995665,0.012105509,-0.0922208,-0.051439244,-0.7544026,-0.6543934,-0.07749338,0.65630037,-0.75050956,,-0.07423417,0.26099077,-0.0815087,-0.95233595,0.30503088,0.0035270057,-0.13678703,-0.4373397,0.88883257,0.27266386,0.8459847,0.45821857,,-0.02890886,0.40299112,-0.34476557,0.7481976,-0.28813452,-0.5976444,0.66293424,0.28827006,0.6909548,-0.026804958,-0.9131697,0.4066972,,1.1987225967371284,0.34878178479860156,0.21167249039000002,4.237204687991784,0.1821364541873321,-1.320364950423976,-0.4088501975341009,,-0.9339255319457184,-0.21384247328727668,0.21204322933000003,-3.7679185944734184,-0.8744735984988189,1.3959088512321975,0.8771576351410795,,-0.04931645967666478,-0.06459245395474515,0.08431779928,-0.06509005378220696,,1.0453165e-05,-4.7683716e-06,1.5497208e-06,1.0,-9.313226e-07,-8.158386e-07,9.23872e-07,1.0,-1.1920929e-07,8.08388e-07,5.9604645e-08,1.0,89,0.272,0,1,0.104,False,-0.25624379479388093,1.0514461953899055
0.29322229098761454,13:58:36.735025,13:58:26.494378,0,,0.10689512,0.0005353093,0.019975454,0.97967994,-0.20045651,-0.006673876,0.0553104,0.23803136,0.96968126,-0.19279039,-0.9503464,0.24428195,,0.06322605,-0.008324012,0.017764926,-0.82105744,0.26047787,0.50795263,0.27079016,-0.60561585,0.7482661,0.5025309,0.7519181,0.42671043,,0.10636617,1.3404384,0.44018188,0.995665,0.012105509,-0.0922208,-0.051439244,-0.7544026,-0.6543934,-0.07749338,0.65630037,-0.75050956,,-0.074222974,0.26119095,-0.08171399,-0.9545944,0.2977352,0.01016673,-0.12755516,-0.4393297,0.8892239,0.26921982,0.8475512,0.45735934,,-0.02890635,0.4029888,-0.34476602,0.7481903,-0.28809693,-0.5976717,0.6629425,0.28821984,0.6909678,-0.026804872,-0.9131974,0.40663502,,1.1995952655519158,0.34922970330530656,0.21142101013000003,4.228607400308919,0.17585117519812185,-1.3199770937820934,-0.40917688566636934,,-0.9339178092128442,-0.21385791875302512,0.21204322933000003,-3.7679185944734184,-0.8744735984988189,1.3959905299723379,0.8773209792072139,,-0.04931645967666478,-0.06459245395474515,0.08431779928,-0.06509005378220696,,1.0453165e-05,-4.7683716e-06,1.5497208e-06,1.0,-9.313226e-07,-8.158386e-07,9.23872e-07,1.0,-1.1920929e-07,8.08388e-07,5.9604645e-08,1.0,97,0.297,0,1,0.104,False,-0.25558843989015,1.052122118200818
0.3151472039753571,13:58:36.768143,13:58:26.494378,0,,0.106858656,0.00058594346,0.020251334,0.98071235,-0.19503814,-0.012792069,0.059334345,0.23471501,0.9702516,-0.18623358,-0.95229673,0.2417604,,0.0632284,-0.008329183,0.017764151,-0.8210338,0.26051268,0.507973,0.27071872,-0.6057235,0.7482048,0.50260794,0.7518194,0.42679363,,0.10636617,1.3404384,0.44018188,0.995665,0.012105509,-0.0922208,-0.051439244,-0.7544026,-0.6543934,-0.07749338,0.65630037,-0.75050956,,-0.07421188,0.2614124,-0.08188959,-0.9561414,0.29243964,0.016513098,-0.12025578,-0.44333705,0.88825154,0.2670808,0.8473083,0.45906046,,-0.028908245,0.40298516,-0.34477,0.7481645,-0.28811452,-0.5976955,0.66296756,0.28807613,0.69100374,-0.026906364,-0.9132372,0.4065389,,1.2004447661680804,0.34982435373662185,0.21119675196,4.2216876321739285,0.17147880720562775,-1.3164933996039485,-0.4096669178647724,,-0.9339255319457184,-0.213888809684522,0.21204452562,-3.7679185944734184,-0.8746102349985843,1.3961019478760344,0.8773209792072139,,-0.04931645967666478,-0.06459245395474515,0.08431779928,-0.06509005378220696,,1.0453165e-05,-4.7683716e-06,1.5497208e-06,1.0,-9.313226e-07,-8.158386e-07,9.23872e-07,1.0,-1.1920929e-07,8.08388e-07,5.9604645e-08,1.0,114,0.35,0,1,0.104,False,-0.25535012901606535,1.0515910359922438
0.34827428200514987,13:58:36.814683,13:58:26.631718,0,,0.10689382,0.0006453097,0.02072443,0.98330486,-0.18100592,-0.018667307,0.06234076,0.23872015,0.9690853,-0.17095391,-0.9540701,0.2460188,,0.06324235,-0.008313432,0.017777205,-0.81958675,0.25942698,0.51085734,0.27214208,-0.60835695,0.7455472,0.5041987,0.7500664,0.4280001,,0.10636617,1.3404384,0.44018188,0.995665,0.012105509,-0.0922208,-0.051439244,-0.7544026,-0.6543934,-0.07749338,0.65630037,-0.75050956,,-0.074290834,0.2617674,-0.082199976,-0.96011037,0.27876118,0.021915432,-0.1080358,-0.44210088,0.89043534,0.25790763,0.85254854,0.45458183,,-0.02892445,0.40300274,-0.34476364,0.7464756,-0.28668407,-0.60048854,0.6648831,0.28534907,0.69029444,-0.02654757,-0.9145426,0.4036175,,1.2016108988320884,0.35085919994176795,0.2107897169,4.211412824943188,0.1587716127274418,-1.3199352416439363,-0.4108103263277124,,-0.9339178092128442,-0.21390425515027048,0.21204711820000002,-3.763934485547212,-0.8748835079981152,1.3963247836834272,0.8773209792072139,,-0.04931645967666478,-0.06459245395474515,0.08431779928,-0.06509005378220696,,1.0453165e-05,-4.7683716e-06,1.5497208e-06,1.0,-9.313226e-07,-8.158386e-07,9.23872e-07,1.0,-1.1920929e-07,8.08388e-07,5.9604645e-08,1.0,122,0.375,0,1,0.104,False,-0.25636295023092304,1.0517358765945823
0.394779552007094,13:58:36.849764,13:58:26.631718,0,,0.10694678,0.0006901622,0.020996794,0.9862838,-0.16336066,-0.023612399,0.06373048,0.24493468,0.9674427,-0.15225862,-0.955678,0.2519862,,0.06323877,-0.0083132535,0.017774642,-0.8197093,0.25961635,0.5105644,0.27186587,-0.60822505,0.7457555,0.5041483,0.75010777,0.42798686,,0.10636617,1.3404384,0.44018188,0.995665,0.012105509,-0.0922208,-0.051439244,-0.7544026,-0.6543934,-0.07749338,0.65630037,-0.75050956,,-0.07436854,0.26197836,-0.082368635,-0.96483827,0.2615337,0.02621421,-0.09479388,-0.43925196,0.8933487,0.24515544,0.85945207,0.4485989,,-0.028920658,0.40300107,-0.3447621,0.7466215,-0.28688532,-0.60021096,0.6647109,0.28543052,0.6904266,-0.026754735,-0.91445404,0.40380433,,1.2025530722427438,0.35139979124296367,0.21054860696000002,4.200928327768961,0.1422385962558235,-1.3258115367099825,-0.40999360599704104,,-0.93391008647997,-0.21389653241739626,0.21204841449000003,-3.764353865434181,-0.8750201444978807,1.3964362015871234,0.8773209792072139,,-0.04931645967666478,-0.06459245395474515,0.08431779928,-0.06509005378220696,,1.0453165e-05,-4.7683716e-06,1.5497208e-06,1.0,-9.313226e-07,-8.158386e-07,9.23872e-07,1.0,-1.1920929e-07,8.08388e-07,5.9604645e-08,1.0,135,0.416,0,1,0.104,False,-0.2552309735790237,1.0514461953899055
0.42988116800552234,13:58:36.883508,13:58:26.631718,0,,0.1068766,0.00081160665,0.0212055,0.98673,-0.1603415,-0.02558554,0.06474632,0.24404517,0.96760005,-0.14890242,-0.9564166,0.25118825,,0.06324102,-0.008321524,0.017773151,-0.8197815,0.2596572,0.5104277,0.27181596,-0.60808283,0.74588966,0.5040579,0.750209,0.42791593,,0.10636617,1.3404384,0.44018188,0.995665,0.012105509,-0.0922208,-0.051439244,-0.7544026,-0.6543934,-0.07749338,0.65630037,-0.75050956,,-0.07431544,0.26221013,-0.08245047,-0.9655774,0.25857615,0.028258728,-0.09183763,-0.44053596,0.89302516,0.24336399,0.8596897,0.4491186,,-0.028922169,0.40299526,-0.34476835,0.7467053,-0.28694552,-0.6000779,0.664617,0.28558537,0.69045293,-0.026748901,-0.9143868,0.40395695,,1.203557027516393,0.3520407780715243,0.21042157054000002,4.1982023585036625,0.1392325932609838,-1.3240137727497856,-0.41097367039384647,,-0.9339178092128442,-0.21393514608176736,0.21204841449000003,-3.764563555377666,-0.8750201444978807,1.3964362015871234,0.8773209792072139,,-0.04931645967666478,-0.06459245395474515,0.08431779928,-0.06509005378220696,,1.0453165e-05,-4.7683716e-06,1.5497208e-06,1.0,-9.313226e-07,-8.158386e-07,9.23872e-07,1.0,-1.1920929e-07,8.08388e-07,5.9604645e-08,1.0,143,0.44,0,1,0.104,False,-0.2550522404234603,1.05105995378367
0.46363955398555845,13:58:36.913461,13:58:26.631718,0,,0.10680242,0.00087991357,0.021415696,0.98677945,-0.15972036,-0.027494565,0.06654699,0.24462005,0.9673326,-0.147777,-0.9563737,0.25201496,,0.06324278,-0.008328959,0.017771602,-0.81977725,0.25968337,0.5104212,0.2718496,-0.6080036,0.745942,0.50404656,0.7502641,0.42783257,,0.10636617,1.3404384,0.44018188,0.995665,0.012105509,-0.0922208,-0.051439244,-0.7544026,-0.6543934,-0.07749338,0.65630037,-0.75050956,,-0.07425999,0.26240316,-0.08256884,-0.96568483,0.2579701,0.030070923,-0.08974609,-0.44010273,0.8934513,0.243718,0.8600936,0.44815233,,-0.028923254,0.4029899,-0.3447739,0.7466998,-0.28698236,-0.60006714,0.6646245,0.28567025,0.69041055,-0.026714327,-0.9143487,0.40404543,,1.2043601917353124,0.3525273102426004,0.2102712009,4.1958957691253325,0.13868604726192205,-1.3240581735758434,-0.4096669178647723,,-0.9339178092128442,-0.2139737597461385,0.21204841449000003,-3.764563555377666,-0.8750201444978807,1.3963545228469831,0.8771576351410795,,-0.04931645967666478,-0.06459245395474515,0.08431779928,-0.06509005378220696,,1.0453165e-05,-4.7683716e-06,1.5497208e-06,1.0,-9.313226e-07,-8.158386e-07,9.23872e-07,1.0,-1.1920929e-07,8.08388e-07,5.9604645e-08,1.0,160,0.493,0,1,0.104,False,-0.25481392954937654,1.0513496349883464
0.49356641597114503,13:58:36.962923,13:58:26.631718,0,,0.106885284,0.0005994141,0.022488102,0.99101794,-0.1322554,-0.019800533,0.054616913,0.26513147,0.9626641,-0.122067794,-0.955099,0.26997343,,0.06324795,-0.008324921,0.017776191,-0.81933427,0.25930163,0.51132554,0.27236333,-0.608758,0.7451389,0.50448924,0.7497843,0.42815197,,0.10636617,1.3404384,0.44018188,0.995665,0.012105509,-0.0922208,-0.051439244,-0.7544026,-0.6543934,-0.07749338,0.65630037,-0.75050956,,-0.0744537,0.26289615,-0.08354612,-0.97271436,0.23109385,0.020553611,-0.081931956,-0.42504206,0.9014579,0.21705753,0.8751771,0.43237847,,-0.028929105,0.40299523,-0.3447729,0.7461816,-0.2865045,-0.6009394,0.6652142,0.28491628,0.6901542,-0.026514864,-0.91473377,0.40318617,,1.206036024769019,0.35316057433828685,0.20916157666000001,4.193589179747002,0.10903592681282148,-1.3424351120869529,-0.41505727204720366,,-0.9339178092128442,-0.21398148247901272,0.21204841449000003,-3.763305415716759,-0.8750201444978807,1.3963545228469831,0.8771576351410795,,-0.04931645967666478,-0.06459245395474515,0.08431779928,-0.06509005378220696,,1.0453165e-05,-4.7683716e-06,1.5497208e-06,1.0,-9.313226e-07,-8.158386e-07,9.23872e-07,1.0,-1.1920929e-07,8.08388e-07,5.9604645e-08,1.0,168,0.518,0,1,0.104,False,-0.2550522404234603,1.0513013547875674
0.5429993139696307,13:58:36.983322,13:58:26.631718,0,,0.10669103,0.00044173002,0.022378668,0.9903041,-0.13530159,-0.03148544,0.0673981,0.2697744,0.9605619,-0.1214716,-0.9533706,0.27627775,,0.06327008,-0.008323252,0.017775118,-0.81894183,0.25812423,0.5125487,0.27433294,-0.6083909,0.7447159,0.5040592,0.75048804,0.4274247,,0.10636617,1.3404384,0.44018188,0.995665,0.012105509,-0.0922208,-0.051439244,-0.7544026,-0.6543934,-0.07749338,0.65630037,-0.75050956,,-0.074254274,0.26271394,-0.08358624,-0.97170466,0.23408765,0.03151283,-0.07191429,-0.4202869,0.904537,0.22498536,0.8766766,0.42522898,,-0.028951086,0.40299258,-0.34477112,0.7456949,-0.2854285,-0.6020546,0.66583264,0.2858416,0.6891745,-0.024617791,-0.91478145,0.40319824,,1.2062368158237489,0.35202533260577584,0.20919268762,4.1818465429118685,0.11395484080437733,-1.3496316274855062,-0.42763476513954335,,-0.9339255319457184,-0.21399692794476116,0.21204971078,-3.761418206225398,-0.8733805065006953,1.3949358292624852,0.8773209792072137,,-0.04931645967666478,-0.06459245395474515,0.08431779928,-0.06509005378220696,,1.0453165e-05,-4.7683716e-06,1.5497208e-06,1.0,-9.313226e-07,-8.158386e-07,9.23872e-07,1.0,-1.1920929e-07,8.08388e-07,5.9604645e-08,1.0,185,0.571,0,1,0.104,False,-0.25481392954937654,1.0506737121774343
0.5634582719649188,13:58:37.036817,13:58:26.809085,0,,0.10615711,-1.9446015e-05,0.022097439,0.98919994,-0.14330812,-0.03076316,0.06780121,0.26131108,0.9628704,-0.12994839,-0.9545572,0.2682054,,0.06327041,-0.008337423,0.017769277,-0.8189483,0.25768661,0.5127583,0.2744905,-0.6087778,0.74434173,0.50396276,0.75032485,0.42782488,,0.10636617,1.3404384,0.44018188,0.995665,0.012105509,-0.0922208,-0.051439244,-0.7544026,-0.6543934,-0.07749338,0.65630037,-0.75050956,,-0.07370881,0.2622052,-0.08372947,-0.96977735,0.24193178,0.031637114,-0.07715341,-0.4270792,0.9009166,0.2314719,0.8712476,0.43283758,,-0.028949875,0.4029802,-0.34478012,0.7456996,-0.2849512,-0.60227484,0.6658342,0.28555354,0.6892924,-0.024432983,-0.9150202,0.4026674,,1.206993643645423,0.3485037664151294,0.20924194664,4.1849918920641365,0.11928366429522952,-1.3436854044719557,-0.42404119568458887,,-0.9339023637470958,-0.21406643254062918,0.21204971078,-3.761418206225398,-0.8732438700009298,1.395559520020054,0.8765042588765424,,-0.04931645967666478,-0.06459245395474515,0.08431779928,-0.06509005378220696,,1.0453165e-05,-4.7683716e-06,1.5497208e-06,1.0,-9.313226e-07,-8.158386e-07,9.23872e-07,1.0,-1.1920929e-07,8.08388e-07,5.9604645e-08,1.0,193,0.596,0,1,0.104,False,-0.254694774112334,1.0511565141852286
0.6168988900026307,13:58:37.063465,13:58:26.809085,0,,0.106320545,4.544854e-06,0.022198498,0.98923796,-0.14308986,-0.030555952,0.067641556,0.26205942,0.9626782,-0.12974201,-0.9543847,0.26891792,,0.063351914,-0.008319974,0.017778277,-0.8189974,0.2576425,0.5127022,0.27455565,-0.60863876,0.7444314,0.50384754,0.75045276,0.42773616,,0.10630227,1.3404406,0.4401862,0.9956686,0.012158325,-0.092174985,-0.051369537,-0.75440174,-0.6543999,-0.07749338,0.65630037,-0.75050956,,-0.07382636,0.26227915,-0.083777316,-0.9698461,0.24170125,0.03128964,-0.077191025,-0.42640516,0.9012326,0.2311711,0.87164164,0.43220454,,-0.02897414,0.40298736,-0.34477112,0.7457208,-0.2849024,-0.6022716,0.665816,0.2857294,0.68923706,-0.024278572,-0.91498053,0.40276694,,1.2069009708509322,0.3490984168464447,0.2091563915,4.185201582007621,0.11942030079499495,-1.3439601798559333,-0.4243678838168574,,-0.9338946410142215,-0.21406643254062918,0.21204971078,-3.761418206225398,-0.8731072335011645,1.3954481021163576,0.8765042588765424,,-0.04931645967666478,-0.06459245395474515,0.08431779928,-0.06509005378220696,,-5.362183e-05,-4.4703484e-06,2.7418137e-06,1.0,5.1613897e-05,4.5139343e-05,-5.1617622e-05,1.0,5.3346157e-06,-4.5143068e-05,-5.364418e-06,1.0,210,0.649,0,1,0.104,False,-0.25540970673458663,1.0511565141852286
0.6435899590142071,13:58:37.114857,13:58:26.809085,0,,0.106470786,-1.9744039e-05,0.022208497,0.9899662,-0.13778639,-0.031334944,0.06669335,0.26011345,0.963272,-0.12457512,-0.9556966,0.26669297,,0.06335595,-0.008345857,0.01777339,-0.81898016,0.25759655,0.51275295,0.2746693,-0.6085737,0.74444264,0.50381374,0.7505213,0.4276557,,0.10630227,1.3404406,0.4401862,0.9956686,0.012158325,-0.092174985,-0.051369537,-0.75440174,-0.6543999,-0.07749338,0.65630037,-0.75050956,,-0.07397747,0.26226106,-0.08378718,-0.9710954,0.23649685,0.032295804,-0.07452734,-0.42895824,0.9002447,0.22675858,0.8718165,0.43418485,,-0.02897587,0.40296924,-0.34479055,0.7456989,-0.28486785,-0.60231507,0.66584474,0.28582674,0.68916893,-0.024164325,-0.91496086,0.40281844,,1.2063681022826107,0.3493069306340488,0.20912657683000002,4.18373375240323,0.11491129630273542,-1.341835285096622,-0.42485791601526035,,-0.9338869182813473,-0.214197718999491,0.21204841449000003,-3.761418206225398,-0.8731072335011645,1.3954481021163576,0.8765042588765424,,-0.04931645967666478,-0.06459245395474515,0.08431779928,-0.06509005378220696,,-5.362183e-05,-4.4703484e-06,2.7418137e-06,1.0,5.1613897e-05,4.5139343e-05,-5.1617622e-05,1.0,5.3346157e-06,-4.5143068e-05,-5.364418e-06,1.0,218,0.674,0,1,0.104,False,-0.2551118181419816,1.051494475590685
0.694993045006413,13:58:37.144268,13:58:26.809085,0,,0.10656179,0.0001308024,0.022309229,0.9900106,-0.13754252,-0.031000681,0.0664324,0.26111588,0.9630188,-0.124361254,-0.9554583,0.26764476,,0.06336218,-0.008353084,0.01777625,-0.8189867,0.2575541,0.5127637,0.27470663,-0.60856533,0.7444357,0.50378263,0.75054264,0.4276549,,0.10630227,1.3404406,0.4401862,0.9956686,0.012158325,-0.092174985,-0.051369537,-0.75440174,-0.6543999,-0.07749338,0.65630037,-0.75050956,,-0.07407354,0.26243657,-0.08375464,-0.9711675,0.23625916,0.031864386,-0.074584104,-0.42805913,0.90066785,0.22643088,0.87232274,0.43333828,,-0.028981816,0.40296715,-0.34479827,0.74570584,-0.28482836,-0.60232514,0.6658387,0.28585413,0.6891634,-0.024116158,-0.9149646,0.40281287,,1.2064298841456045,0.35030316317482374,0.20910713248,4.183943442346714,0.11504793280250085,-1.3419467030003185,-0.42485791601526035,,-0.93391008647997,-0.21424405539673635,0.21204711820000002,-3.761418206225398,-0.8731072335011645,1.3954481021163576,0.8765042588765424,,-0.04931645967666478,-0.06459245395474515,0.08431779928,-0.06509005378220696,,-5.362183e-05,-4.4703484e-06,2.7418137e-06,1.0,5.1613897e-05,4.5139343e-05,-5.1617622e-05,1.0,5.3346157e-06,-4.5143068e-05,-5.364418e-06,1.0,231,0.715,0,1,0.104,False,-0.2549926627049395,1.0509151131813312
0.7244031089940108,13:58:37.182633,13:58:26.973404,0,,0.106701866,0.00019039214,0.022500351,0.99012375,-0.13675486,-0.030872427,0.06619337,0.26189122,0.96282464,-0.123585746,-0.9553592,0.26835695,,0.063361436,-0.008381009,0.017767787,-0.8189576,0.25753194,0.5128213,0.2748234,-0.60848653,0.74445707,0.5037663,0.75061417,0.42754868,,0.10630227,1.3404406,0.4401862,0.9956686,0.012158325,-0.092174985,-0.051369537,-0.75440174,-0.6543999,-0.07749338,0.65630037,-0.75050956,,-0.07422968,0.26260132,-0.08384511,-0.97136146,0.23548752,0.031662695,-0.07425706,-0.4274456,0.9009862,0.22570509,0.8728321,0.43269077,,-0.028978305,0.4029455,-0.34481752,0.7456703,-0.28481874,-0.6023737,0.6658824,0.28595832,0.689078,-0.024008555,-0.91493505,0.40288642,,1.2061982021593778,0.3512530593183534,0.20896324429000002,4.183943442346714,0.11491129630273542,-1.341998642576903,-0.42485791601526035,,-0.9338791955484731,-0.21437534185559817,0.21204582191000002,-3.761418206225398,-0.8731072335011645,1.3954481021163576,0.8765042588765424,,-0.04931645967666478,-0.06459245395474515,0.08431779928,-0.06509005378220696,,-5.362183e-05,-4.4703484e-06,2.7418137e-06,1.0,5.1613897e-05,4.5139343e-05,-5.1617622e-05,1.0,5.3346157e-06,-4.5143068e-05,-5.364418e-06,1.0,239,0.739,0,1,0.104,False,-0.25600548391979716,1.0508668329805522
0.7627517199725844,13:58:37.209054,13:58:26.973404,0,,0.10661995,0.0001231134,0.022478327,0.9900844,-0.1364547,-0.033362847,0.068426035,0.26105824,0.9628947,-0.12268187,-0.95563,0.26780674,,0.06337698,-0.008384779,0.017766893,-0.8186125,0.2566508,0.5138131,0.2762452,-0.60839045,0.74400926,0.50354946,0.7509938,0.42713732,,0.10630227,1.3404406,0.4401862,0.9956686,0.012158325,-0.092174985,-0.051369537,-0.75440174,-0.6543999,-0.07749338,0.65630037,-0.75050956,,-0.074147925,0.2625398,-0.083880514,-0.9713473,0.23519179,0.034195557,-0.07198352,-0.42826226,0.9007829,0.2265014,0.87251145,0.43292132,,-0.028993387,0.40294093,-0.3448204,0.7452486,-0.28398687,-0.60328764,0.6664006,0.2864334,0.6883794,-0.022688964,-0.915045,0.4027131,,1.2063989932141075,0.350758804414403,0.20895287397,4.1814271630249005,0.11477465980296998,-1.3417238671929255,-0.4251846041475289,,-0.9338791955484731,-0.21441395551996928,0.21204582191000002,-3.759950376621006,-0.8720141415030409,1.394556758886786,0.8765042588765424,,-0.04931645967666478,-0.06459245395474515,0.08431779928,-0.06509005378220696,,-5.362183e-05,-4.4703484e-06,2.7418137e-06,1.0,5.1613897e-05,4.5139343e-05,-5.1617622e-05,1.0,5.3346157e-06,-4.5143068e-05,-5.364418e-06,1.0,256,0.792,0,1,0.104,False,-0.25558843989015,1.0510116735828905
0.7891654379782267,13:58:37.257575,13:58:26.973404,0,,0.106621176,8.915365e-05,0.022471458,0.9901022,-0.1361672,-0.034003615,0.06892057,0.26066545,0.96296597,-0.122260794,-0.9557783,0.26747006,,0.06340668,-0.008392185,0.017756999,-0.81838197,0.2529913,0.5159907,0.27951297,-0.60928625,0.74205303,0.50211895,0.7515091,0.42791438,,0.10630227,1.3404406,0.4401862,0.9956686,0.012158325,-0.092174985,-0.051369537,-0.75440174,-0.6543999,-0.07749338,0.65630037,-0.75050956,,-0.07414943,0.26250973,-0.08389771,-0.9713918,0.23490907,0.034867536,-0.07133544,-0.42866722,0.9006418,0.2265155,0.8723888,0.43316117,,-0.02902142,0.40292522,-0.34482178,0.7449271,-0.28033966,-0.6053869,0.6668707,0.28683397,0.687757,-0.019160038,-0.91604364,0.4006207,,1.206314043152491,0.3506275179555412,0.20894120736000002,4.180798093194446,0.11463802330320454,-1.3415307705490886,-0.4253479482136633,,-0.9338560273498504,-0.2144525691843404,0.21204452562,-3.7578534771861607,-0.8687348655086704,1.3953132362839757,0.8761775707442739,,-0.04931645967666478,-0.06459245395474515,0.08431779928,-0.06509005378220696,,-5.362183e-05,-4.4703484e-06,2.7418137e-06,1.0,5.1613897e-05,4.5139343e-05,-5.1617622e-05,1.0,5.3346157e-06,-4.5143068e-05,-5.364418e-06,1.0,264,0.817,0,1,0.104,False,-0.25558843989015,1.050963393382111
0.8377071029972285,13:58:37.286959,13:58:26.973404,0,,0.106605396,7.6413155e-05,0.022507891,0.99009055,-0.13625455,-0.033990506,0.06893505,0.26069236,0.9629576,-0.12234629,-0.95575845,0.2675018,,0.06341403,-0.008396268,0.017755568,-0.8184724,0.25267684,0.51600134,0.2799269,-0.6089238,0.74219453,0.5017408,0.75190854,0.4276561,,0.10630227,1.3404406,0.4401862,0.9956686,0.012158325,-0.092174985,-0.051369537,-0.75440174,-0.6543999,-0.07749338,0.65630037,-0.75050956,,-0.0741376,0.26252487,-0.083934724,-0.9713716,0.23499484,0.0348512,-0.071380444,-0.42863017,0.90065587,0.22658776,0.87238383,0.4331332,,-0.029028285,0.402921,-0.34482458,0.74502397,-0.2800911,-0.6053827,0.6667781,0.28739777,0.68761146,-0.018608216,-0.91594297,0.40087685,,1.2064067159469818,0.3506043497569185,0.20890491124000002,4.180798093194446,0.11463802330320454,-1.3415307705490886,-0.4253479482136633,,-0.9338714728155988,-0.21446801465008886,0.21204452562,-3.7578534771861607,-0.8681883195096086,1.3950309221494712,0.8758508826120054,,-0.04931645967666478,-0.06459245395474515,0.08431779928,-0.06509005378220696,,-5.362183e-05,-4.4703484e-06,2.7418137e-06,1.0,5.1613897e-05,4.5139343e-05,-5.1617622e-05,1.0,5.3346157e-06,-4.5143068e-05,-5.364418e-06,1.0,281,0.87,0,1,0.104,False,-0.25600548391979716,1.0506254319766548
0.8670410320046358,13:58:37.346119,13:58:26.973404,0,,0.106603846,1.1533499e-05,0.022469744,0.9900894,-0.13624428,-0.034066174,0.06895939,0.26032946,0.96305394,-0.1223422,-0.9558588,0.2671448,,0.06340539,-0.008397803,0.017748654,-0.8186283,0.25300464,0.5155932,0.2798451,-0.608238,0.7427876,0.5015319,0.75235325,0.42711854,,0.10630227,1.3404406,0.4401862,0.9956686,0.012158325,-0.092174985,-0.051369537,-0.75440174,-0.6543999,-0.07749338,0.65630037,-0.75050956,,-0.074134186,0.26245108,-0.08394925,-0.97137016,0.2349842,0.034963593,-0.07135942,-0.4289692,0.9004961,0.22660068,0.87222004,0.4334562,,-0.029018933,0.40291536,-0.34482214,0.7452046,-0.28050727,-0.6049676,0.66657734,0.2880927,0.68751526,-0.018566275,-0.9155972,0.4016678,,1.2062136476251262,0.3502799949762011,0.20890750382000003,4.180798093194446,0.11463802330320454,-1.3415307705490886,-0.4253479482136633,,-0.9338251364183535,-0.21446029191721463,0.21204452562,-3.75827285707313,-0.8680516830098431,1.3945111105450718,0.8766676029426768,,-0.04931645967666478,-0.06459245395474515,0.08431779928,-0.06509005378220696,,-5.362183e-05,-4.4703484e-06,2.7418137e-06,1.0,5.1613897e-05,4.5139343e-05,-5.1617622e-05,1.0,5.3346157e-06,-4.5143068e-05,-5.364418e-06,1.0,306,0.948,0,1,0.104,False,-0.25600548391979716,1.051108233984449
0.9262385530164465,13:58:37.410777,13:58:27.205237,0,,0.10659114,8.136034e-06,0.022472784,0.9900806,-0.13630953,-0.034062557,0.06897237,0.26031977,0.96305573,-0.12240653,-0.9558522,0.2671391,,0.06341347,-0.008415446,0.017749071,-0.8184726,0.25278258,0.51594913,0.2801036,-0.6085063,0.74247026,0.5016418,0.75221086,0.42724037,,0.10630227,1.3404406,0.4401862,0.9956686,0.012158325,-0.092174985,-0.051369537,-0.75440174,-0.6543999,-0.07749338,0.65630037,-0.75050956,,-0.07412193,0.26245108,-0.083954915,-0.9713548,0.2350482,0.03496059,-0.07139172,-0.42896932,0.9004935,0.22665639,0.87220275,0.4334619,,-0.029025761,0.40290555,-0.34483743,0.74502134,-0.2802543,-0.60531044,0.6667867,0.28785864,0.68741035,-0.01840587,-0.9157483,0.40133065,,1.2062677067552456,0.35024138131182997,0.20890361495,4.180798093194446,0.11463802330320454,-1.3415307705490886,-0.4253479482136633,,-0.9338405818841019,-0.21456068744457954,0.21204322933000003,-3.7578534771861607,-0.8680516830098431,1.3945927892852124,0.8765042588765425,,-0.04931645967666478,-0.06459245395474515,0.08431779928,-0.06509005378220696,,-5.362183e-05,-4.4703484e-06,2.7418137e-06,1.0,5.1613897e-05,4.5139343e-05,-5.1617622e-05,1.0,5.3346157e-06,-4.5143068e-05,-5.364418e-06,1.0,314,0.973,0,1,0.104,False,-0.25576717304571295,1.0506254319766548
0.9908428519847803,13:58:37.439387,13:58:27.205237,0,,0.10660487,3.170967e-05,0.022485092,0.99009055,-0.13629317,-0.03383726,0.06876791,0.2604692,0.9630299,-0.12244086,-0.95581377,0.26726064,,0.06341405,-0.008412331,0.017750442,-0.81847703,0.25273988,0.51596296,0.28009105,-0.6085769,0.7424171,0.5016415,0.7521681,0.42731595,,0.10630227,1.3404406,0.4401862,0.9956686,0.012158325,-0.092174985,-0.051369537,-0.75440174,-0.6543999,-0.07749338,0.65630037,-0.75050956,,-0.074136116,0.2624763,-0.083947286,-0.97136706,0.2350324,0.034723993,-0.07156825,-0.42883256,0.90054464,0.22654794,0.8722743,0.4333747,,-0.029026693,0.40290833,-0.34483555,0.74502665,-0.28020287,-0.60532767,0.6667804,0.28779072,0.68744487,-0.018416332,-0.9157854,0.40124553,,1.20627542948812,0.3503881132364402,0.20890361495,4.1810077831379315,0.11463802330320454,-1.3415307705490886,-0.4253479482136633,,-0.9338483046169762,-0.2145452419788311,0.21204322933000003,-3.7578534771861607,-0.8680516830098431,1.3946744680253529,0.8763409148104082,,-0.04931645967666478,-0.06459245395474515,0.08431779928,-0.06509005378220696,,-5.362183e-05,-4.4703484e-06,2.7418137e-06,1.0,5.1613897e-05,4.5139343e-05,-5.1617622e-05,1.0,5.3346157e-06,-4.5143068e-05,-5.364418e-06,1.0,327,1.014,0,1,0.104,False,-0.25600548391979716,1.0505288715750958
1.0194998109946027,13:58:37.478946,13:58:27.205237,0,,0.10660895,3.5196543e-05,0.022492751,0.9900933,-0.13627458,-0.03383202,0.06876202,0.26050237,0.9630214,-0.12242201,-0.9558074,0.26729217,,0.063411124,-0.00841108,0.01774913,-0.8184726,0.2527143,0.5159827,0.2800825,-0.60863626,0.7423717,0.5016537,0.7521287,0.42737103,,0.10630227,1.3404406,0.4401862,0.9956686,0.012158325,-0.092174985,-0.051369537,-0.75440174,-0.6543999,-0.07749338,0.65630037,-0.75050956,,-0.07414082,0.2624838,-0.08395032,-0.97137177,0.2350142,0.034715503,-0.07156037,-0.4288042,0.90055877,0.22653024,0.8722931,0.433346,,-0.029023748,0.40290818,-0.34483376,0.74502164,-0.28016955,-0.6053493,0.66678566,0.28772947,0.68746537,-0.018430028,-0.9158148,0.4011777,,1.20627542948812,0.35042672690081134,0.20889842979000003,4.1810077831379315,0.11463802330320454,-1.3415307705490886,-0.4253479482136633,,-0.9338251364183535,-0.21455296471170532,0.21204322933000003,-3.7578534771861607,-0.8680516830098431,1.3947561467654936,0.8761775707442739,,-0.04931645967666478,-0.06459245395474515,0.08431779928,-0.06509005378220696,,-5.362183e-05,-4.4703484e-06,2.7418137e-06,1.0,5.1613897e-05,4.5139343e-05,-5.1617622e-05,1.0,5.3346157e-06,-4.5143068e-05,-5.364418e-06,1.0,336,1.042,0,1,0.104,False,-0.25624379479388093,1.0507219923782136
1.0590366609976627,13:58:37.510248,13:58:27.205237,0,,0.106596015,1.2934208e-05,0.022479802,0.99006593,-0.13645545,-0.033902388,0.06884579,0.26023826,0.9630868,-0.12259574,-0.9558536,0.2670474,,0.0634108,-0.008426473,0.017743647,-0.8184556,0.25257707,0.5160767,0.280147,-0.60877347,0.7422348,0.50164527,0.75206375,0.42749527,,0.10630227,1.3404406,0.4401862,0.9956686,0.012158325,-0.092174985,-0.051369537,-0.75440174,-0.6543999,-0.07749338,0.65630037,-0.75050956,,-0.074127324,0.2624591,-0.08395653,-0.9713255,0.23519124,0.03481094,-0.07161086,-0.42902514,0.9004495,0.2267126,0.8721368,0.43356532,,-0.029021822,0.40289554,-0.34484392,0.7450011,-0.2800174,-0.60544497,0.6668102,0.28761917,0.6874877,-0.018370943,-0.915896,0.40099508,,1.2062599840223716,0.3502877177090753,0.20889972608000001,4.1810077831379315,0.11477465980296998,-1.3413971522323633,-0.42551129227979745,,-0.933809690952605,-0.21461474657469912,0.21204322933000003,-3.7578534771861607,-0.8680516830098431,1.3950011829859152,0.8766676029426766,,-0.04931645967666478,-0.06459245395474515,0.08431779928,-0.06509005378220696,,-5.362183e-05,-4.4703484e-06,2.7418137e-06,1.0,5.1613897e-05,4.5139343e-05,-5.1617622e-05,1.0,5.3346157e-06,-4.5143068e-05,-5.364418e-06,1.0,349,1.083,0,1,0.104,False,-0.2557075953271921,1.0504805913743163
1.090382382972166,13:58:37.548942,13:58:27.205237,0,,0.10660422,2.7924776e-05,0.022487655,0.99007165,-0.13641748,-0.033888545,0.06883265,0.26032135,0.96306527,-0.12255701,-0.9558363,0.26712674,,0.06341594,-0.008425906,0.017746985,-0.8184664,0.25250795,0.5160934,0.28015062,-0.60884416,0.7421755,0.5016256,0.7520298,0.4275781,,0.10630227,1.3404406,0.4401862,0.9956686,0.012158325,-0.092174985,-0.051369537,-0.75440174,-0.6543999,-0.07749338,0.65630037,-0.75050956,,-0.07413582,0.26247516,-0.08395175,-0.9713353,0.2351541,0.034788918,-0.07159543,-0.42895305,0.9004851,0.22667557,0.8721822,0.43349323,,-0.029027278,0.40289804,-0.34484524,0.7450134,-0.27994058,-0.6054653,0.6667968,0.28756177,0.68752474,-0.0183574,-0.9159375,0.40090087,,1.2062677067552456,0.350380390503566,0.20889972608000001,4.1810077831379315,0.11477465980296998,-1.3413971522323633,-0.425837980412066,,-0.9338405818841019,-0.21461474657469912,0.21204322933000003,-3.7578534771861607,-0.8680516830098431,1.3950828617260558,0.876830947008811,,-0.04931645967666478,-0.06459245395474515,0.08431779928,-0.06509005378220696,,-5.362183e-05,-4.4703484e-06,2.7418137e-06,1.0,5.1613897e-05,4.5139343e-05,-5.1617622e-05,1.0,5.3346157e-06,-4.5143068e-05,-5.364418e-06,1.0,362,1.124,0,1,0.104,False,-0.2556480176086704,1.0501909101696396
1.129072533978615,13:58:37.591581,13:58:27.205237,0,,0.10659074,1.0669231e-05,0.022481874,0.99004424,-0.13666216,-0.033702213,0.06873168,0.26042834,0.9630436,-0.12283461,-0.9557723,0.2672286,,0.063410014,-0.008421481,0.017746031,-0.8184393,0.25263226,0.51607555,0.28002807,-0.6089075,0.74216974,0.5017382,0.7519367,0.42760956,,0.10630227,1.3404406,0.4401862,0.9956686,0.012158325,-0.092174985,-0.051369537,-0.75440174,-0.6543999,-0.07749338,0.65630037,-0.75050956,,-0.07412234,0.26245898,-0.08396004,-0.9712841,0.23539436,0.034593098,-0.07185308,-0.42881995,0.90052795,0.2268134,0.87218285,0.43341982,,-0.02902161,0.40290022,-0.3448409,0.7449844,-0.28005064,-0.6054502,0.66682476,0.28743538,0.6875504,-0.018521128,-0.9159435,0.40087956,,1.20627542948812,0.35027227224332685,0.20889713350000003,4.181217473081416,0.11491129630273542,-1.3415902488762002,-0.4253479482136633,,-0.9338174136854792,-0.21459157837607645,0.21204322933000003,-3.7578534771861607,-0.8681883195096086,1.3951126008896118,0.8756875385458711,,-0.04931645967666478,-0.06459245395474515,0.08431779928,-0.06509005378220696,,-5.362183e-05,-4.4703484e-06,2.7418137e-06,1.0,5.1613897e-05,4.5139343e-05,-5.1617622e-05,1.0,5.3346157e-06,-4.5143068e-05,-5.364418e-06,1.0,375,1.165,0,1,0.104,False,-0.2549926627049395,1.05105995378367
1.1716492639970966,13:58:37.627772,13:58:27.205237,0,,0.1065906,2.771616e-06,0.022477582,0.9900442,-0.13666078,-0.03371124,0.06873453,0.26038507,0.96305513,-0.12283395,-0.9557843,0.26718605,,0.06341492,-0.008425534,0.017747581,-0.8184448,0.2526449,0.51606077,0.28005096,-0.6088432,0.74221385,0.50171655,0.7519845,0.42755097,,0.10630227,1.3404406,0.4401862,0.9956686,0.012158325,-0.092174985,-0.051369537,-0.75440174,-0.6543999,-0.07749338,0.65630037,-0.75050956,,-0.074122,0.26245025,-0.083962075,-0.971284,0.23539294,0.034606513,-0.0718505,-0.42886043,0.9005089,0.22681479,0.87216336,0.43345836,,-0.029026352,0.40289888,-0.34484527,0.7449902,-0.28007227,-0.605433,0.66681904,0.28750777,0.68752575,-0.018490199,-0.9159142,0.40094802,,1.2062522612894973,0.3502336585789557,0.20889713350000003,4.181217473081416,0.11491129630273542,-1.3415902488762002,-0.4253479482136633,,-0.9338405818841019,-0.21461474657469912,0.21204322933000003,-3.7578534771861607,-0.8681883195096086,1.3950309221494712,0.8761775707442738,,-0.04931645967666478,-0.06459245395474515,0.08431779928,-0.06509005378220696,,-5.362183e-05,-4.4703484e-06,2.7418137e-06,1.0,5.1613897e-05,4.5139343e-05,-5.1617622e-05,1.0,5.3346157e-06,-4.5143068e-05,-5.364418e-06,1.0,384,1.194,0,1,0.104,False,-0.2541585746456452,1.050963393382111
1.2078745989711024,13:58:37.660636,13:58:27.205237,0,,0.10658905,-2.3841858e-07,0.022477478,0.99004304,-0.13667098,-0.033702184,0.068736866,0.26045045,0.96303725,-0.12284149,-0.95576495,0.2672515,,0.06341434,-0.008428693,0.01774615,-0.8184403,0.25264537,0.5160675,0.2800635,-0.6088333,0.74221724,0.5017168,0.75199234,0.42753682,,0.10630227,1.3404406,0.4401862,0.9956686,0.012158325,-0.092174985,-0.051369537,-0.75440174,-0.6543999,-0.07749338,0.65630037,-0.75050956,,-0.07412054,0.26244798,-0.083964124,-0.97128206,0.23540305,0.034590684,-0.07185366,-0.4287982,0.90053827,0.22682187,0.8721912,0.43339857,,-0.02902542,0.4028961,-0.34484717,0.7449849,-0.28007424,-0.6054386,0.6668253,0.28751954,0.6875147,-0.018479737,-0.9159099,0.4009583,,1.2062522612894973,0.3502182131132073,0.20889583721000002,4.181217473081416,0.11491129630273542,-1.341671927616341,-0.4251846041475291,,-0.9338328591512277,-0.2146301920404476,0.21204322933000003,-3.7578534771861607,-0.8681883195096086,1.3950309221494712,0.8765042588765425,,-0.04931645967666478,-0.06459245395474515,0.08431779928,-0.06509005378220696,,-5.362183e-05,-4.4703484e-06,2.7418137e-06,1.0,5.1613897e-05,4.5139343e-05,-5.1617622e-05,1.0,5.3346157e-06,-4.5143068e-05,-5.364418e-06,1.0,397,1.235,0,1,0.104,False,-0.24277923040812777,1.0507702725789931
1.2407649380038492,13:58:37.701101,13:58:27.205237,0,,0.10657373,-5.018711e-05,0.02244927,0.99005073,-0.13663128,-0.033637665,0.06870579,0.26078084,0.9629501,-0.12279703,-0.95568055,0.26757362,,0.063411325,-0.008424655,0.017747283,-0.8184402,0.2526193,0.5160804,0.28004247,-0.6089026,0.7421684,0.5017287,0.751945,0.42760617,,0.10630227,1.3404406,0.4401862,0.9956686,0.012158325,-0.092174985,-0.051369537,-0.75440174,-0.6543999,-0.07749338,0.65630037,-0.75050956,,-0.07410397,0.26239255,-0.08397745,-0.9712949,0.23536462,0.034493,-0.07184802,-0.42849624,0.90068245,0.2267689,0.87235,0.4331067,,-0.029022813,0.4028995,-0.3448443,0.74498516,-0.28003892,-0.60545456,0.66682434,0.28744653,0.68754625,-0.018503895,-0.9159436,0.40088016,,1.206175033960755,0.349932471996861,0.20889713350000003,4.181217473081416,0.11477465980296998,-1.3422956183739094,-0.4211010024941719,,-0.9338251364183535,-0.2146070238418249,0.21204193304000002,-3.7578534771861607,-0.8681883195096086,1.3951126008896118,0.8761775707442738,,-0.04931645967666478,-0.06459245395474515,0.08431779928,-0.06509005378220696,,-5.362183e-05,-4.4703484e-06,2.7418137e-06,1.0,5.1613897e-05,4.5139343e-05,-5.1617622e-05,1.0,5.3346157e-06,-4.5143068e-05,-5.364418e-06,1.0,410,1.276,0,1,0.104,False,0.1354201267633912,1.0513496349883464
1.2812368649756536,13:58:37.743858,13:58:27.524804,0,,0.10654257,-8.1941485e-05,0.022436216,0.98914784,-0.14305526,-0.033495124,0.07043926,0.26166782,0.962584,-0.12893811,-0.95449734,0.2689048,,0.063413665,-0.008429006,0.017747164,-0.8184403,0.2525611,0.5161088,0.2800635,-0.60895455,0.74211776,0.5017168,0.7519225,0.42765963,,0.10630227,1.3404406,0.4401862,0.9956686,0.012158325,-0.092174985,-0.051369537,-0.75440174,-0.6543999,-0.07749338,0.65630037,-0.75050956,,-0.07407259,0.26236144,-0.08399151,-0.969756,0.24166676,0.03421262,-0.07455707,-0.42677486,0.90127933,0.23241034,0.8714703,0.43188545,,-0.029024826,0.40289688,-0.34484798,0.7449849,-0.27997532,-0.60548437,0.6668253,0.28740722,0.6875617,-0.018479737,-0.9159754,0.4008087,,1.2059587974402768,0.3498475219352445,0.20890102237000002,4.182685302685807,0.12119657529194568,-1.343693359061035,-0.3902289739947933,,-0.9338328591512277,-0.2146301920404476,0.21204193304000002,-3.7578534771861607,-0.8681883195096086,1.3951942796297523,0.876830947008811,,-0.04931645967666478,-0.06459245395474515,0.08431779928,-0.06509005378220696,,-5.362183e-05,-4.4703484e-06,2.7418137e-06,1.0,5.1613897e-05,4.5139343e-05,-5.1617622e-05,1.0,5.3346157e-06,-4.5143068e-05,-5.364418e-06,1.0,419,1.304,0,1,0.104,False,0.3892212076629926,1.0508185527797727
1.323968224984128,13:58:37.772132,13:58:27.524804,0,,0.10651132,-0.00013166666,0.02240567,0.98812026,-0.15043485,-0.03142973,0.07078309,0.26396084,0.9619326,-0.13641198,-0.9527298,0.2714733,,0.06341597,-0.008429214,0.017747402,-0.8184647,0.25254393,0.5160786,0.28016406,-0.6087761,0.74222624,0.50162095,0.75207275,0.42750788,,0.10630227,1.3404406,0.4401862,0.9956686,0.012158325,-0.092174985,-0.051369537,-0.75440174,-0.6543999,-0.07749338,0.65630037,-0.75050956,,-0.074039936,0.26230532,-0.0840044,-0.96800333,0.24890253,0.031891823,-0.07918264,-0.42357177,0.9023952,0.23811692,0.87099624,0.42972764,,-0.029027117,0.4028967,-0.3448483,0.7450112,-0.2799852,-0.6054475,0.6667997,0.28762937,0.6874936,-0.018343551,-0.9159026,0.40098113,,1.2056498881253077,0.3496621763462631,0.20891268898,4.18604034178156,0.12816503677998314,-1.3465169162446327,-0.3564167523049975,,-0.9338405818841019,-0.2146301920404476,0.21204193304000002,-3.7578534771861607,-0.8680516830098431,1.3950011829859152,0.8766676029426766,,-0.04931645967666478,-0.06459245395474515,0.08431779928,-0.06509005378220696,,-5.362183e-05,-4.4703484e-06,2.7418137e-06,1.0,5.1613897e-05,4.5139343e-05,-5.1617622e-05,1.0,5.3346157e-06,-4.5143068e-05,-5.364418e-06,1.0,432,1.345,0,1,0.104,False,0.5510342911661188,1.0507219923782136
1.3522325279773213,13:58:37.812131,13:58:27.524804,0,,0.10651848,-0.0001706034,0.022363901,0.9873971,-0.15562761,-0.028758477,0.069709666,0.26454002,0.9618519,-0.14208297,-0.95173466,0.27205476,,0.06341398,-0.008426368,0.017747223,-0.8184637,0.25255686,0.5160738,0.2801497,-0.60878104,0.7422277,0.5016305,0.75206447,0.42751133,,0.10630227,1.3404406,0.4401862,0.9956686,0.012158325,-0.092174985,-0.051369537,-0.75440174,-0.6543999,-0.07749338,0.65630037,-0.75050956,,-0.074044116,0.26224825,-0.083998315,-0.9667669,0.25398925,0.029175732,-0.08369641,-0.42225817,0.90260345,0.24157125,0.8701652,0.4294832,,-0.02902532,0.40289822,-0.34484574,0.7450104,-0.27999687,-0.60544306,0.66680014,0.28761825,0.68749785,-0.018360786,-0.91590255,0.40098053,,1.2052637514815965,0.3495386126202755,0.20893602220000002,4.189814760764281,0.13294731427177356,-1.347312750748666,-0.2896090292560771,,-0.9338328591512277,-0.21461474657469912,0.21204193304000002,-3.7578534771861607,-0.8680516830098431,1.3950011829859152,0.8763409148104082,,-0.04931645967666478,-0.06459245395474515,0.08431779928,-0.06509005378220696,,-5.362183e-05,-4.4703484e-06,2.7418137e-06,1.0,5.1613897e-05,4.5139343e-05,-5.1617622e-05,1.0,5.3346157e-06,-4.5143068e-05,-5.364418e-06,1.0,445,1.386,0,1,0.104,False,0.6915781291572363,1.051108233984449
1.3922189209843054,13:58:37.855732,13:58:27.652916,0,,0.10658285,-0.00023971498,0.022262737,0.9864569,-0.16262299,-0.02136759,0.06471074,0.26616156,0.9617538,-0.15071607,-0.95011145,0.27308035,,0.063413754,-0.008430973,0.017745435,-0.8184584,0.25242782,0.51614535,0.28016898,-0.6089492,0.74208236,0.50162846,0.7519716,0.42767704,,0.10630227,1.3404406,0.4401862,0.9956686,0.012158325,-0.092174985,-0.051369537,-0.75440174,-0.6543999,-0.07749338,0.65630037,-0.75050956,,-0.07410034,0.2621269,-0.08396265,-0.9651382,0.26083794,0.021720547,-0.09310048,-0.41967085,0.9028891,0.2446232,0.86939055,0.4293245,,-0.029024605,0.40289438,-0.34484875,0.7450039,-0.27984807,-0.60551983,0.66680783,0.28746727,0.6875535,-0.018343398,-0.9159954,0.4007691,,1.2044065281325576,0.34932237609979727,0.20899694783000003,4.1986217383906315,0.1388226837616875,-1.3489182497421301,-0.23472542303495914,,-0.9338251364183535,-0.2146379147733218,0.21204193304000002,-3.7578534771861607,-0.8680516830098431,1.3952462192063368,0.8765042588765425,,-0.04931645967666478,-0.06459245395474515,0.08431779928,-0.06509005378220696,,-5.362183e-05,-4.4703484e-06,2.7418137e-06,1.0,5.1613897e-05,4.5139343e-05,-5.1617622e-05,1.0,5.3346157e-06,-4.5143068e-05,-5.364418e-06,1.0,454,1.415,0,1,0.104,False,0.7742720024644307,1.0505288715750958
1.4357744950102642,13:58:37.887484,13:58:27.652916,0,,0.106603354,-0.0002863109,0.022074416,0.98569477,-0.16784605,-0.015281118,0.060027868,0.26490062,0.96240544,-0.15748799,-0.9495554,0.2711866,,0.06341131,-0.008437648,0.017738283,-0.81912535,0.25285473,0.5148768,0.27978417,-0.60746914,0.74343944,0.5007539,0.7530246,0.42684844,,0.10630227,1.3404406,0.4401862,0.9956686,0.012158325,-0.092174985,-0.051369537,-0.75440174,-0.6543999,-0.07749338,0.65630037,-0.75050956,,-0.07410387,0.26196688,-0.08385113,-0.9638574,0.26594588,0.015865581,-0.10104783,-0.42002672,0.9018686,0.24651219,0.8676695,0.4317191,,-0.029021027,0.4028851,-0.34485063,0.74577683,-0.28047663,-0.60427624,0.66594714,0.2890788,0.6877121,-0.0182037,-0.9152958,0.40237087,,1.2037578185711229,0.3488744575930922,0.20914472489000002,4.206170576356074,0.14292177875465073,-1.3476050986650108,-0.1764115914250215,,-0.9338328591512277,-0.2146301920404476,0.21204193304000002,-3.7595309967340373,-0.8676417735105469,1.3947486080149667,0.8765042588765424,,-0.04931645967666478,-0.06459245395474515,0.08431779928,-0.06509005378220696,,-5.362183e-05,-4.4703484e-06,2.7418137e-06,1.0,5.1613897e-05,4.5139343e-05,-5.1617622e-05,1.0,5.3346157e-06,-4.5143068e-05,-5.364418e-06,1.0,467,1.456,0,1,0.104,False,0.881750206676374,1.0506737121774343
1.4675734720076434,13:58:37.929122,13:58:27.652916,0,,0.10661306,-0.00036473572,0.0217264,0.98444915,-0.1756662,-0.0011613518,0.04843512,0.26506826,0.9630123,-0.16886085,-0.948093,0.26945457,,0.06342161,-0.008424655,0.017746806,-0.8184255,0.25212184,0.51634705,0.28081134,-0.6084965,0.74221087,0.5013229,0.7524406,0.42721015,,0.10630227,1.3404406,0.4401862,0.9956686,0.012158325,-0.092174985,-0.051369537,-0.75440174,-0.6543999,-0.07749338,0.65630037,-0.75050956,,-0.07408215,0.26167813,-0.08364251,-0.96184427,0.27359015,0.0020010567,-0.11719474,-0.41860133,0.90057665,0.24722654,0.86598,0.43469262,,-0.029032977,0.4028979,-0.34484416,0.74495536,-0.27962092,-0.60568446,0.66688114,0.28813595,0.68720245,-0.017636724,-0.9158547,0.40112233,,1.2028079224275932,0.3479322841824368,0.20941953837000002,4.222107012060898,0.14784069274620656,-1.3472054912304916,-0.06435756205690613,,-0.9338405818841019,-0.2146070238418249,0.21204193304000002,-3.7574340972991918,-0.867368500511016,1.3945257722075737,0.8765042588765424,,-0.04931645967666478,-0.06459245395474515,0.08431779928,-0.06509005378220696,,-5.362183e-05,-4.4703484e-06,2.7418137e-06,1.0,5.1613897e-05,4.5139343e-05,-5.1617622e-05,1.0,5.3346157e-06,-4.5143068e-05,-5.364418e-06,1.0,480,1.497,0,1,0.104,False,0.9981054909479523,1.05105995378367
1.50921125698369,13:58:37.960754,13:58:27.652916,0,,0.10661027,-0.00045190752,0.021320328,0.9834873,-0.1806213,0.011342268,0.036794096,0.26092133,0.9646585,-0.17719735,-0.9483123,0.2632586,,0.06343584,-0.00840649,0.017760158,-0.8169175,0.25082564,0.51935756,0.28249803,-0.6110554,0.73946345,0.50283253,0.7507982,0.42832398,,0.10630227,1.3404406,0.4401862,0.9956686,0.012158325,-0.092174985,-0.051369537,-0.75440174,-0.6543999,-0.07749338,0.65630037,-0.75050956,,-0.07404265,0.2613451,-0.08339753,-0.96040773,0.27842587,-0.009796063,-0.1313881,-0.42164618,0.897191,0.2456707,0.8629563,0.4415341,,-0.029049663,0.40291697,-0.3448359,0.7431951,-0.27799708,-0.6085874,0.6688584,0.2855663,0.6863529,-0.017012037,-0.91715294,0.39817217,,1.20194297634568,0.3467584287855547,0.20973842571,4.23657561816133,0.14989024024268818,-1.3424241393148333,0.03250546916072139,,-0.9338251364183535,-0.2146070238418249,0.21204322933000003,-3.7532402984295015,-0.867368500511016,1.3946074509477142,0.8763409148104081,,-0.04931645967666478,-0.06459245395474515,0.08431779928,-0.06509005378220696,,-5.362183e-05,-4.4703484e-06,2.7418137e-06,1.0,5.1613897e-05,4.5139343e-05,-5.1617622e-05,1.0,5.3346157e-06,-4.5143068e-05,-5.364418e-06,1.0,489,1.526,0,1,0.104,False,1.0368310079866236,1.0499495091657423
1.5408792599919252,13:58:37.994626,13:58:27.652916,0,,0.10657788,-0.0006290376,0.020534858,0.9815012,-0.18888688,0.031257957,0.016708136,0.24714696,0.9688338,-0.19072534,-0.9503895,0.24573097,,0.0634468,-0.008396521,0.017766654,-0.81591123,0.24975032,0.52145344,0.28350353,-0.61321044,0.7372916,0.5038994,0.7493984,0.4295199,,0.10630227,1.3404406,0.4401862,0.9956686,0.012158325,-0.092174985,-0.051369537,-0.75440174,-0.6543999,-0.07749338,0.65630037,-0.75050956,,-0.073939614,0.26069564,-0.08293173,-0.9576868,0.28646624,-0.027804624,-0.15529947,-0.4330008,0.8879146,0.24231815,0.8546621,0.4591672,,-0.029061867,0.4029264,-0.34483096,0.7420233,-0.2766441,-0.6106304,0.67016536,0.2833862,0.6859815,-0.016728515,-0.9182376,0.39567646,,1.2004447661680804,0.34438754979316777,0.21035157088000003,4.2611093415490195,0.15262297023799698,-1.3274999619592438,0.1785350642847674,,-0.9338174136854792,-0.21462246930757334,0.21204841449000003,-3.750304639220718,-0.8675051370107815,1.3952906200323947,0.8755241944797367,,-0.04931645967666478,-0.06459245395474515,0.08431779928,-0.06509005378220696,,-5.362183e-05,-4.4703484e-06,2.7418137e-06,1.0,5.1613897e-05,4.5139343e-05,-5.1617622e-05,1.0,5.3346157e-06,-4.5143068e-05,-5.364418e-06,1.0,502,1.567,0,1,0.104,False,1.0447548445499213,1.0488873447485942
1.5747593169799075,13:58:38.035054,13:58:27.831383,0,,0.10654366,-0.00085788965,0.019451335,0.97866666,-0.19785298,0.055370957,-0.008877844,0.22852817,0.97349674,-0.20526308,-0.95322037,0.22189641,,0.063453235,-0.008350685,0.017762601,-0.8132732,0.25139618,0.52477306,0.28122622,-0.6197138,0.7327118,0.50941,0.74347484,0.43329722,,0.10630227,1.3404406,0.4401862,0.9956686,0.012158325,-0.092174985,-0.051369537,-0.75440174,-0.6543999,-0.07749338,0.65630037,-0.75050956,,-0.073807456,0.25981092,-0.08227797,-0.9541774,0.29514134,-0.049367514,-0.1839687,-0.44845867,0.87466586,0.23601076,0.84366846,0.48220587,,-0.029071085,0.40294608,-0.3447899,0.73903644,-0.27725497,-0.61396646,0.6733194,0.27479312,0.6863889,-0.021590972,-0.9206619,0.38976327,,1.1985063602166501,0.3411903383832388,0.21120323341000002,4.291095003467307,0.15385269873588595,-1.3075112868763872,0.3348553355752726,,-0.933809690952605,-0.21464563750619603,0.21210545125000002,-3.7456914604640583,-0.8732438700009298,1.3980915609644113,0.8748708182151996,,-0.04931645967666478,-0.06459245395474515,0.08431779928,-0.06509005378220696,,-5.362183e-05,-4.4703484e-06,2.7418137e-06,1.0,5.1613897e-05,4.5139343e-05,-5.1617622e-05,1.0,5.3346157e-06,-4.5143068e-05,-5.364418e-06,1.0,515,1.608,0,1,0.104,False,1.0456485103277364,1.0483079823392407
1.6151878829696216,13:58:38.069554,13:58:27.831383,0,,0.106498934,-0.0010597259,0.018388093,0.97557193,-0.20595938,0.076422155,-0.032008767,0.21089777,0.9769839,-0.21733628,-0.9555642,0.19915333,,0.06352697,-0.008289874,0.01771617,-0.8077737,0.25185084,0.5329848,0.28159264,-0.62946254,0.7242117,0.5178872,0.7350838,0.43754375,,0.10630227,1.3404406,0.4401862,0.9956686,0.012158325,-0.092174985,-0.051369537,-0.75440174,-0.6543999,-0.07749338,0.65630037,-0.75050956,,-0.07366604,0.2589603,-0.08162247,-0.95057845,0.30294162,-0.068022095,-0.20915897,-0.46289033,0.8613855,0.22946277,0.83304197,0.50337654,,-0.029144138,0.4029299,-0.34471443,0.732739,-0.27621904,-0.62192976,0.68002075,0.26256263,0.6845675,-0.02579506,-0.92453444,0.38022456,,1.196776468052824,0.33813213616504595,0.21205100707000002,4.317725626289842,0.1541259717354168,-1.2887029762310291,0.43596531251239123,,-0.9337556318224854,-0.2148618740266743,0.21224026541000002,-3.733319753798472,-0.8795291489901401,1.3992145262675593,0.8748708182151996,,-0.04931645967666478,-0.06459245395474515,0.08431779928,-0.06509005378220696,,-5.362183e-05,-4.4703484e-06,2.7418137e-06,1.0,5.1613897e-05,4.5139343e-05,-5.1617622e-05,1.0,5.3346157e-06,-4.5143068e-05,-5.364418e-06,1.0,524,1.636,0,1,0.104,False,1.0470187978537204,1.0482597021384612
1.6496568039874546,13:58:38.101818,13:58:27.831383,0,,0.10642318,-0.0013001561,0.017161697,0.97136474,-0.21713087,0.09646132,-0.053948954,0.19382212,0.97955215,-0.23138738,-0.9567064,0.17655802,,0.063617975,-0.008263022,0.017678738,-0.80216014,0.24876687,0.5428206,0.2852054,-0.6390504,0.71433365,0.52459216,0.7278254,0.4416709,,0.10630227,1.3404406,0.4401862,0.9956686,0.012158325,-0.092174985,-0.051369537,-0.75440174,-0.6543999,-0.07749338,0.65630037,-0.75050956,,-0.07347911,0.2579745,-0.0808736,-0.94564885,0.3136911,-0.08570959,-0.23471184,-0.47598186,0.8475563,0.22507466,0.82160765,0.52373874,,-0.02923279,0.4029015,-0.34467274,0.72626984,-0.2717892,-0.6313975,0.68690616,0.25179148,0.6817338,-0.026307365,-0.9288335,0.36956224,,1.1947994484370223,0.33461056997439953,0.21303229860000003,4.3443562491123755,0.15699533823049108,-1.2707047459136538,0.5204141947038137,,-0.933670681760869,-0.21519395154026597,0.21234267232,-3.719270527585009,-0.8822618789854489,1.40029938197952,0.8742174419506626,,-0.04931645967666478,-0.06459245395474515,0.08431779928,-0.06509005378220696,,-5.362183e-05,-4.4703484e-06,2.7418137e-06,1.0,5.1613897e-05,4.5139343e-05,-5.1617622e-05,1.0,5.3346157e-06,-4.5143068e-05,-5.364418e-06,1.0,537,1.677,0,1,0.104,False,1.0468400646981575,1.042948880052721
1.6819554009707645,13:58:38.145254,13:58:27.831383,0,,0.10626963,-0.0016663224,0.014620438,0.9599558,-0.24588332,0.1342618,-0.096612856,0.15929165,0.98249274,-0.26296538,-0.9561212,0.12915742,,0.06372286,-0.008287489,0.017643392,-0.79337156,0.24501926,0.5572496,0.29030296,-0.6523283,0.70013714,0.53505665,0.7172403,0.44640875,,0.10630227,1.3404406,0.4401862,0.9956686,0.012158325,-0.092174985,-0.051369537,-0.75440174,-0.6543999,-0.07749338,0.65630037,-0.75050956,,-0.07309147,0.2560307,-0.07923437,-0.93244106,0.3412799,-0.11866632,-0.28706774,-0.50028265,0.81689006,0.21942148,0.7957671,0.5644545,,-0.029331831,0.4028465,-0.3446759,0.7161842,-0.266123,-0.6451812,0.69736665,0.23636264,0.6766184,-0.027566988,-0.93451124,0.35486448,,1.1908763001369163,0.32795357423681804,0.21514136243,4.3986659444748675,0.1672430757128991,-1.2324225280706245,0.6546830170661913,,-0.9334312770417681,-0.21595850209481418,0.21244896810000002,-3.697882153349587,-0.8869075199774739,1.4003303686587323,0.8711139046941113,,-0.04931645967666478,-0.06459245395474515,0.08431779928,-0.06509005378220696,,-5.362183e-05,-4.4703484e-06,2.7418137e-06,1.0,5.1613897e-05,4.5139343e-05,-5.1617622e-05,1.0,5.3346157e-06,-4.5143068e-05,-5.364418e-06,1.0,550,1.718,0,1,0.104,False,1.0474954196018889,1.0397623868012766
1.7253898209892213,13:58:38.181984,13:58:27.831383,0,,0.10615623,-0.0018468946,0.012975767,0.9518962,-0.26297027,0.15729046,-0.12291153,0.14252773,0.9821296,-0.28068912,-0.9542183,0.10334945,,0.06379846,-0.008364357,0.017610967,-0.78408384,0.24196516,0.5715464,0.2946891,-0.66531837,0.68593717,0.54623306,0.7062609,0.45036075,,0.10633886,1.3404396,0.44018918,0.9956655,0.012113061,-0.09221425,-0.05142928,-0.75440246,-0.6543943,-0.07749338,0.65630037,-0.75050956,,-0.07285294,0.25481543,-0.078130946,-0.92345154,0.3576378,-0.13904105,-0.31810594,-0.5108913,0.798623,0.2145829,0.78171945,0.58555007,,-0.029430086,0.40276662,-0.34472075,0.70561546,-0.26115498,-0.65871453,0.70796627,0.22067633,0.67088425,-0.02984206,-0.93973404,0.34060156,,1.1883355210212965,0.32394547587509553,0.21654654079000002,4.431587265601937,0.1725718992037513,-1.2127542767134596,0.7156103537342776,,-0.9330605858638052,-0.2169779028342118,0.21251896776,-3.676074399227196,-0.892509616467857,1.3996710633412897,0.86801036743756,,-0.04931645967666478,-0.06459245395474515,0.08431779928,-0.06509005378220696,,-1.7374754e-05,-1.3113022e-06,-2.1457672e-06,1.0,6.582588e-06,5.7555735e-06,-6.5863132e-06,0.99999994,6.854534e-07,-5.759299e-06,-7.1525574e-07,1.0,559,1.747,0,1,0.104,False,1.0477337304759726,1.0423695176433674
1.7621050319867209,13:58:38.210690,13:58:27.831383,0,,0.106162414,-0.0019558668,0.011041254,0.9431897,-0.27806732,0.1818564,-0.15110177,0.12847915,0.9801332,-0.29590777,-0.9519305,0.07916361,,0.06380737,-0.008475371,0.017575085,-0.77983195,0.2404316,0.5779747,0.2968348,-0.6708671,0.6795781,0.55113614,0.7015199,0.4517949,,0.10633886,1.3404396,0.44018918,0.9956655,0.012113061,-0.09221425,-0.05142928,-0.75440246,-0.6543943,-0.07749338,0.65630037,-0.75050956,,-0.07267558,0.25345787,-0.07675986,-0.9141086,0.3720457,-0.16120635,-0.3489276,-0.5192815,0.7801258,0.20653096,0.769369,0.6044967,,-0.029427713,0.4026773,-0.3447963,0.70077395,-0.25878945,-0.6647886,0.7127251,0.21395655,0.6680161,-0.030639645,-0.94193983,0.33438092,,1.185539891720827,0.31989104111612765,0.21822912521,4.465347346502947,0.1753046291990601,-1.1954614158937935,0.7691872074263211,,-0.9326898946858425,-0.21777334432025694,0.21253841211000002,-3.6664286618269086,-0.8949690734636349,1.39947125962403,0.8688270877682314,,-0.04931645967666478,-0.06459245395474515,0.08431779928,-0.06509005378220696,,-1.7374754e-05,-1.3113022e-06,-2.1457672e-06,1.0,6.582588e-06,5.7555735e-06,-6.5863132e-06,0.99999994,6.854534e-07,-5.759299e-06,-7.1525574e-07,1.0,572,1.788,0,1,0.104,False,1.0468996424166788,1.0463767743080625
1.7907859609695151,13:58:38.260667,13:58:27.831383,0,,0.10620204,-0.0021015406,0.0079150945,0.9281533,-0.30478078,0.21363558,-0.18961287,0.106723785,0.9760414,-0.32027864,-0.9464242,0.041265577,,0.06375329,-0.008705877,0.017479837,-0.78024185,0.24290916,0.5763833,0.29563284,-0.6688598,0.6820761,0.55120206,0.70258224,0.4500603,,0.10633886,1.3404396,0.44018918,0.9956655,0.012113061,-0.09221425,-0.05142928,-0.75440246,-0.6543943,-0.07749338,0.65630037,-0.75050956,,-0.07241762,0.25128567,-0.074521415,-0.8978732,0.39748582,-0.18928465,-0.39325958,-0.530837,0.75070566,0.19791555,0.7484765,0.63293946,,-0.029348738,0.40248287,-0.34494156,0.70125896,-0.26149195,-0.6632178,0.71220183,0.21560873,0.66804296,-0.031692322,-0.94081604,0.33743262,,1.1808676383319214,0.31362018202225733,0.22101225984000003,4.51462448322181,0.18363945568475198,-1.1672994072391147,0.8353415542107041,,-0.9322033625147663,-0.21888541785414528,0.21253581953000003,-3.6689449411487227,-0.8966087114608202,1.3988479847050135,0.8720939690909169,,-0.04931645967666478,-0.06459245395474515,0.08431779928,-0.06509005378220696,,-1.7374754e-05,-1.3113022e-06,-2.1457672e-06,1.0,6.582588e-06,5.7555735e-06,-6.5863132e-06,0.99999994,6.854534e-07,-5.759299e-06,-7.1525574e-07,1.0,585,1.829,0,1,0.104,False,1.047316686446326,1.0480665813353434
1.8407946400111541,13:58:38.296174,13:58:27.831383,0,,0.10627654,-0.0022773147,0.0055812597,0.91869617,-0.32258397,0.22789703,-0.20922159,0.09193021,0.9735373,-0.3349982,-0.9420661,0.016964257,,0.06373093,-0.008787341,0.01744777,-0.7820926,0.24490592,0.57302034,0.2941371,-0.66557914,0.6859211,0.5493764,0.7050004,0.44850847,,0.10633886,1.3404396,0.44018918,0.9956655,0.012113061,-0.09221425,-0.05142928,-0.75440246,-0.6543943,-0.07749338,0.65630037,-0.75050956,,-0.072271585,0.24961178,-0.07289046,-0.8875919,0.4143658,-0.20120054,-0.4172784,-0.53830546,0.7321926,0.19508821,0.7338448,0.65070146,,-0.02931775,0.4024159,-0.3449937,0.7033762,-0.26393607,-0.6599998,0.71009785,0.21912766,0.6691369,-0.03198515,-0.9393193,0.3415496,,1.1771993402166647,0.30911010602371025,0.22300595386000002,4.540416346270407,0.1911544631718512,-1.1498222360417953,0.8645801420487401,,-0.9321415806517725,-0.21918660443624002,0.21252804179,-3.6739774997923518,-0.8966087114608202,1.3984395910043106,0.8732373775538568,,-0.04931645967666478,-0.06459245395474515,0.08431779928,-0.06509005378220696,,-1.7374754e-05,-1.3113022e-06,-2.1457672e-06,1.0,6.582588e-06,5.7555735e-06,-6.5863132e-06,0.99999994,6.854534e-07,-5.759299e-06,-7.1525574e-07,1.0,594,1.857,0,1,0.104,False,1.047316686446326,1.0494667071579475
1.8762145090149716,13:58:38.319886,13:58:28.128101,0,,0.10631461,-0.0024039596,0.0044392347,0.91942716,-0.32642362,0.21931991,-0.20401806,0.08085692,0.9756221,-0.33619964,-0.9417589,0.0077456236,,0.06372297,-0.008805491,0.01744616,-0.7831345,0.24589638,0.5711699,0.29321057,-0.6639726,0.68787205,0.5483864,0.7061696,0.4478804,,0.10633886,1.3404396,0.44018918,0.9956655,0.012113061,-0.09221425,-0.05142928,-0.75440246,-0.6543943,-0.07749338,0.65630037,-0.75050956,,-0.072202876,0.24876212,-0.07211907,-0.8880581,0.41784725,-0.1917196,-0.41419595,-0.54625046,0.72804683,0.19948542,0.7259574,0.6581728,,-0.029308414,0.402406,-0.34500822,0.7045706,-0.26514414,-0.6582392,0.7089011,0.22083676,0.66984355,-0.032241683,-0.93857855,0.34355605,,1.1752918251967313,0.30688595895593357,0.22398594910000003,4.536222547400715,0.1959367406636416,-1.1415517303902265,0.870950560627977,,-0.9321801943161436,-0.21921749536773694,0.21252026405000002,-3.67670346905765,-0.8966087114608202,1.39835791226417,0.8737274097522597,,-0.04931645967666478,-0.06459245395474515,0.08431779928,-0.06509005378220696,,-1.7374754e-05,-1.3113022e-06,-2.1457672e-06,1.0,6.582588e-06,5.7555735e-06,-6.5863132e-06,0.99999994,6.854534e-07,-5.759299e-06,-7.1525574e-07,1.0,607,1.898,0,1,0.104,False,1.047316686446326,1.049418426957168
1.900021958979778,13:58:38.362220,13:58:28.128101,0,,0.10642968,-0.0027389526,0.0023184866,0.9170004,-0.3392475,0.20981301,-0.20119782,0.06080401,0.9776615,-0.34442675,-0.93873,-0.012498707,,0.063732244,-0.008779727,0.017469704,-0.7837493,0.24649088,0.5700695,0.29246557,-0.66325986,0.6888761,0.54790574,0.706632,0.44773915,,0.10633886,1.3404396,0.44018918,0.9956655,0.012113061,-0.09221425,-0.05142928,-0.75440246,-0.6543943,-0.07749338,0.65630037,-0.75050956,,-0.07212221,0.24710746,-0.07074843,-0.88477147,0.4297544,-0.1802516,-0.41739938,-0.5587565,0.71663725,0.2072613,0.7092971,0.673751,,-0.029321685,0.40243825,-0.3449988,0.7052792,-0.26582867,-0.65720344,0.70817894,0.22152913,0.67037857,-0.032616135,-0.9382217,0.34449416,,1.1712682813692603,0.30249172395049984,0.22577223672000002,4.538109756892076,0.20782411614323493,-1.1239643888048674,0.8719306250247828,,-0.9323423717065024,-0.21906304071025245,0.21251378260000003,-3.6781712986620416,-0.8967453479605857,1.3983059726875857,0.875034162281334,,-0.04931645967666478,-0.06459245395474515,0.08431779928,-0.06509005378220696,,-1.7374754e-05,-1.3113022e-06,-2.1457672e-06,1.0,6.582588e-06,5.7555735e-06,-6.5863132e-06,0.99999994,6.854534e-07,-5.759299e-06,-7.1525574e-07,1.0,620,1.939,0,1,0.104,False,1.0467209092611154,1.049418426957168
1.942315704014618,13:58:38.407328,13:58:28.128101,0,,0.10665338,-0.003341347,7.535517e-05,0.91561264,-0.3493525,0.19901337,-0.1972481,0.04101795,0.97949505,-0.3503522,-0.9360931,-0.03135276,,0.06373935,-0.00877098,0.017480612,-0.78379834,0.24636964,0.5700545,0.29253545,-0.6632397,0.6888658,0.5477982,0.7066932,0.4477742,,0.10633886,1.3404396,0.44018918,0.9956655,0.012113061,-0.09221425,-0.05142928,-0.75440246,-0.6543943,-0.07749338,0.65630037,-0.75050956,,-0.07214529,0.24516673,-0.0694532,-0.8827091,0.43900165,-0.1676372,-0.41828197,-0.5714371,0.7060452,0.21416089,0.6933521,0.6880392,,-0.029330406,0.40245122,-0.3449972,0.7053333,-0.26571554,-0.65719116,0.7081304,0.22160563,0.67040455,-0.032499634,-0.9382357,0.3444671,,1.1661558322065237,0.29720165193165604,0.22758185756000002,4.537690377005107,0.21902830912400104,-1.1085970348658052,0.8737274097522597,,-0.9324041535694961,-0.2190167043130071,0.21250989373,-3.6781712986620416,-0.8966087114608202,1.3982762335240295,0.8751975063474682,,-0.04931645967666478,-0.06459245395474515,0.08431779928,-0.06509005378220696,,-1.7374754e-05,-1.3113022e-06,-2.1457672e-06,1.0,6.582588e-06,5.7555735e-06,-6.5863132e-06,0.99999994,6.854534e-07,-5.759299e-06,-7.1525574e-07,1.0,629,1.968,0,1,0.104,False,1.0461847097944261,1.0499012289649627
1.9874212719732895,13:58:38.436262,13:58:28.246845,0,,0.10676271,-0.003568247,-0.0006149113,0.9155251,-0.35057673,0.19725572,-0.19727889,0.03603944,0.9796846,-0.35056362,-0.93584037,-0.03616652,,0.06370818,-0.008780308,0.017479122,-0.7842901,0.2479754,0.5686802,0.2898494,-0.66398966,0.6892786,0.5485218,0.70542616,0.4488848,,0.10633886,1.3404396,0.44018918,0.9956655,0.012113061,-0.09221425,-0.05142928,-0.75440246,-0.6543943,-0.07749338,0.65630037,-0.75050956,,-0.07219384,0.24453662,-0.06907837,-0.88260245,0.4400563,-0.16541892,-0.41844073,-0.57495505,0.70308894,0.21429028,0.68976605,0.6915942,,-0.029298652,0.40244877,-0.34500405,0.7059407,-0.26713613,-0.6559619,0.7073977,0.21995398,0.67172074,-0.03515945,-0.9382209,0.34424597,,1.164518612837188,0.29559532349381734,0.22809000324000003,4.537900066948591,0.22039467412165545,-1.1055455981556006,0.873400721619991,,-0.9323732626379992,-0.21904759524450398,0.21250989373,-3.6804778880403717,-0.8990681684565982,1.4002817557905654,0.8748708182151997,,-0.04931645967666478,-0.06459245395474515,0.08431779928,-0.06509005378220696,,-1.7374754e-05,-1.3113022e-06,-2.1457672e-06,1.0,6.582588e-06,5.7555735e-06,-6.5863132e-06,0.99999994,6.854534e-07,-5.759299e-06,-7.1525574e-07,1.0,642,2.009,0,1,0.104,False,1.0472571087278046,1.0499012289649627
2.0163751369691454,13:58:38.476191,13:58:28.246845,0,,0.107016355,-0.0039287508,-0.0019412637,0.9153722,-0.35265768,0.19423251,-0.1979383,0.02590555,0.979872,-0.3505911,-0.9353938,-0.046091437,,0.06369163,-0.008791141,0.017470658,-0.78510517,0.25043675,0.5664726,0.28834206,-0.66165805,0.692147,0.54815006,0.7067463,0.44725952,,0.10633886,1.3404396,0.44018918,0.9956655,0.012113061,-0.09221425,-0.05142928,-0.75440246,-0.6543943,-0.07749338,0.65630037,-0.75050956,,-0.07232837,0.24338065,-0.06830433,-0.8824661,0.44180074,-0.1614487,-0.41894725,-0.5821783,0.6968153,0.21386161,0.6825544,0.69884384,,-0.029280651,0.40243793,-0.34500864,0.70689136,-0.26986995,-0.65381557,0.70639324,0.22199512,0.6721062,-0.036237415,-0.936957,0.34756073,,1.1612673422971396,0.2927688032618512,0.22914129443000003,4.53873882672253,0.22271749461766793,-1.0984550411029779,0.8727473453554542,,-0.932365539905125,-0.21906304071025245,0.21251119002000002,-3.6829941673621858,-0.8998879874551907,1.398663258488808,0.8748708182151996,,-0.04931645967666478,-0.06459245395474515,0.08431779928,-0.06509005378220696,,-1.7374754e-05,-1.3113022e-06,-2.1457672e-06,1.0,6.582588e-06,5.7555735e-06,-6.5863132e-06,0.99999994,6.854534e-07,-5.759299e-06,-7.1525574e-07,1.0,655,2.05,0,1,0.104,False,1.0471975310092834,1.0499977893665218
2.0563208789681084,13:58:38.513565,13:58:28.246845,0,,0.10716663,-0.0041614473,-0.0031035393,0.9148643,-0.35712916,0.1883671,-0.19707315,0.012218088,0.98031247,-0.3523997,-0.9339751,-0.05920288,,0.0636919,-0.008784525,0.017473817,-0.785155,0.25077596,0.56625336,0.28803203,-0.66156447,0.6923655,0.5482416,0.70671356,0.447199,,0.10633886,1.3404396,0.44018918,0.9956655,0.012113061,-0.09221425,-0.05142928,-0.75440246,-0.6543943,-0.07749338,0.65630037,-0.75050956,,-0.0723723,0.24243324,-0.06757764,-0.88176215,0.4457307,-0.15433626,-0.41946855,-0.59132564,0.68875253,0.21573517,0.6720551,0.7083786,,-0.029281687,0.402444,-0.34500468,0.7069539,-0.2702102,-0.65360737,0.7063146,0.22197619,0.6721951,-0.03654868,-0.93686336,0.34778038,,1.1588346814417587,0.2904674288653323,0.23010573419000002,4.538948516666014,0.2266799531108657,-1.086820629604592,0.8717672809586482,,-0.9323887081037477,-0.21903214977875554,0.21251248631000003,-3.6832038573056702,-0.9001612604547217,1.3985593793356386,0.8751975063474683,,-0.04931645967666478,-0.06459245395474515,0.08431779928,-0.06509005378220696,,-1.7374754e-05,-1.3113022e-06,-2.1457672e-06,1.0,6.582588e-06,5.7555735e-06,-6.5863132e-06,0.99999994,6.854534e-07,-5.759299e-06,-7.1525574e-07,1.0,664,2.079,0,1,0.104,False,1.047316686446326,1.0506737121774343
2.0936725519713946,13:58:38.540543,13:58:28.246845,0,,0.107138634,-0.004499972,-0.0039660633,0.9137138,-0.3620059,0.18460435,-0.19501697,0.007912278,0.98076785,-0.3565044,-0.93214226,-0.06336787,,0.06369466,-0.0087803975,0.017476976,-0.78508455,0.25069395,0.5663875,0.2880938,-0.6616963,0.6922139,0.5483102,0.70661926,0.44726396,,0.10633886,1.3404396,0.44018918,0.9956655,0.012113061,-0.09221425,-0.05142928,-0.75440246,-0.6543943,-0.07749338,0.65630037,-0.75050956,,-0.07227073,0.24161163,-0.06716052,-0.8801643,0.45028582,-0.15017816,-0.42058218,-0.59314036,0.68650943,0.22004873,0.66740334,0.7114431,,-0.029285017,0.40244848,-0.34500283,0.70687294,-0.2701105,-0.6537362,0.70639646,0.22183743,0.6721549,-0.036532935,-0.936925,0.347616,,1.1571511256751779,0.2878957588182155,0.23076424951000002,4.538948516666014,0.23255532260077963,-1.0844238703311686,0.8714405928263798,,-0.9324041535694961,-0.2190167043130071,0.21251248631000003,-3.6829941673621858,-0.9001612604547217,1.3985593793356386,0.8751975063474683,,-0.04931645967666478,-0.06459245395474515,0.08431779928,-0.06509005378220696,,-1.7374754e-05,-1.3113022e-06,-2.1457672e-06,1.0,6.582588e-06,5.7555735e-06,-6.5863132e-06,0.99999994,6.854534e-07,-5.759299e-06,-7.1525574e-07,1.0,677,2.12,0,1,0.104,False,1.047912463631536,1.0495632675595068
2.1206718279863708,13:58:38.588022,13:58:28.368797,0,,0.10715756,-0.0050860047,-0.0048478097,0.9137214,-0.3632958,0.18201521,-0.19541924,-0.00014543533,0.9807197,-0.35626486,-0.9316739,-0.07112798,,0.06369579,-0.008784361,0.017473102,-0.7850789,0.2508294,0.5663353,0.28811374,-0.6615139,0.6923798,0.54830784,0.7067419,0.447073,,0.10633886,1.3404396,0.44018918,0.9956655,0.012113061,-0.09221425,-0.05142928,-0.75440246,-0.6543943,-0.07749338,0.65630037,-0.75050956,,-0.07222089,0.24058956,-0.066888176,-0.8802061,0.45129904,-0.14685515,-0.4207265,-0.5988247,0.6814677,0.21960524,0.6616179,0.7169626,,-0.029285487,0.40244302,-0.3450042,0.7068662,-0.2702695,-0.65367776,0.7064042,0.2220202,0.6720864,-0.036514807,-0.9368359,0.34785807,,1.154957869538898,0.28449775635355673,0.23133072824000003,4.538948516666014,0.23364841459890315,-1.0800060954516033,0.8719306250247827,,-0.9323964308366219,-0.21903987251162976,0.21251507889000001,-3.6829941673621858,-0.9001612604547217,1.398314343115217,0.8747074741490654,,-0.04931645967666478,-0.06459245395474515,0.08431779928,-0.06509005378220696,,-1.7374754e-05,-1.3113022e-06,-2.1457672e-06,1.0,6.582588e-06,5.7555735e-06,-6.5863132e-06,0.99999994,6.854534e-07,-5.759299e-06,-7.1525574e-07,1.0,686,2.148,0,1,0.104,False,1.0467209092611154,1.0491287457524916
2.1681554379756562,13:58:38.611155,13:58:28.368797,0,,0.10720905,-0.005538717,-0.0054857284,0.91338176,-0.36531168,0.17966992,-0.19495015,-0.005046785,0.98080003,-0.35739094,-0.9308716,-0.07582733,,0.06368771,-0.008785047,0.017470658,-0.78504336,0.25095102,0.5663306,0.2880049,-0.66156137,0.6923797,0.5484157,0.7066543,0.4470791,,0.10633886,1.3404396,0.44018918,0.9956655,0.012113061,-0.09221425,-0.05142928,-0.75440246,-0.6543943,-0.07749338,0.65630037,-0.75050956,,-0.072223246,0.23982693,-0.0667067,-0.8797465,0.45309055,-0.14406627,-0.42110232,-0.6018885,0.6785301,0.22072373,0.6576011,0.72030675,,-0.029277189,0.40244156,-0.34500343,0.70682824,-0.2703786,-0.65367365,0.70643437,0.22190706,0.672092,-0.036664505,-0.9368312,0.3478549,,1.15309669091621,0.2820419272995533,0.23173387443000001,4.538948516666014,0.23624450809444655,-1.0775490261739638,0.8716039368925139,,-0.9323578171722509,-0.21903987251162976,0.21251378260000003,-3.6829941673621858,-0.9002978969544871,1.3983440822787727,0.8738907538183939,,-0.04931645967666478,-0.06459245395474515,0.08431779928,-0.06509005378220696,,-1.7374754e-05,-1.3113022e-06,-2.1457672e-06,1.0,6.582588e-06,5.7555735e-06,-6.5863132e-06,0.99999994,6.854534e-07,-5.759299e-06,-7.1525574e-07,1.0,699,2.189,0,1,0.104,False,1.047614575038931,1.048742504146256
2.1912282779812813,13:58:38.658195,13:58:28.368797,0,,0.10762234,-0.005977154,-0.006218657,0.9124329,-0.37095052,0.17280622,-0.19218859,-0.015624553,0.9812335,-0.36128905,-0.9285212,-0.085549,,0.06369343,-0.008785479,0.017475605,-0.7849761,0.2507997,0.5664908,0.28808865,-0.6617442,0.69217014,0.548468,0.7065368,0.44720072,,0.10633886,1.3404396,0.44018918,0.9956655,0.012113061,-0.09221425,-0.05142928,-0.75440246,-0.6543943,-0.07749338,0.65630037,-0.75050956,,-0.07257601,0.23899688,-0.066412084,-0.8783495,0.4581789,-0.13628767,-0.4215589,-0.6080373,0.67273974,0.22536716,0.6483539,0.7272186,,-0.029283304,0.40244484,-0.34500644,0.70675063,-0.27020428,-0.65382963,0.70651424,0.22173029,0.67206645,-0.036621395,-0.9369233,0.3476112,,1.14951334286257,0.2803274806014755,0.23223424237,4.53873882672253,0.24416942508084208,-1.0684923039616494,0.8706238724957083,,-0.9323887081037477,-0.21904759524450398,0.21251248631000003,-3.6827844774187013,-0.9002978969544871,1.3984257610189132,0.8743807860167969,,-0.04931645967666478,-0.06459245395474515,0.08431779928,-0.06509005378220696,,-1.7374754e-05,-1.3113022e-06,-2.1457672e-06,1.0,6.582588e-06,5.7555735e-06,-6.5863132e-06,0.99999994,6.854534e-07,-5.759299e-06,-7.1525574e-07,1.0,712,2.23,0,1,0.104,False,1.0464825983870312,1.048742504146256
2.238299101998564,13:58:38.690327,13:58:28.368797,0,,0.108092114,-0.0058984607,-0.0063892454,0.9118473,-0.3737047,0.16993913,-0.18997647,-0.017154515,0.98163855,-0.36392778,-0.92738914,-0.08663759,,0.06370312,-0.008787461,0.01748079,-0.7849955,0.25074717,0.5664874,0.2881074,-0.661754,0.692153,0.5484306,0.7065463,0.4472316,,0.10633886,1.3404396,0.44018918,0.9956655,0.012113061,-0.09221425,-0.05142928,-0.75440246,-0.6543943,-0.07749338,0.65630037,-0.75050956,,-0.07302476,0.23892336,-0.066190295,-0.87745064,0.4607673,-0.1333188,-0.42161307,-0.6083213,0.67244893,0.22874182,0.6462497,0.7280374,,-0.029293291,0.40244707,-0.34501097,0.706772,-0.2701523,-0.653828,0.70649475,0.22173932,0.672084,-0.036585655,-0.9369362,0.34758034,,1.1473973140550322,0.2814086632038669,0.23242350071000004,4.53873882672253,0.24977152157122512,-1.0658727088808333,0.8709505606279769,,-0.9324427672338673,-0.21906304071025245,0.21251248631000003,-3.6827844774187013,-0.9002978969544871,1.3984257610189132,0.8743807860167969,,-0.04931645967666478,-0.06459245395474515,0.08431779928,-0.06509005378220696,,-1.7374754e-05,-1.3113022e-06,-2.1457672e-06,1.0,6.582588e-06,5.7555735e-06,-6.5863132e-06,0.99999994,6.854534e-07,-5.759299e-06,-7.1525574e-07,1.0,721,2.259,0,1,0.104,False,1.0468400646981575,1.0490321853509326
2.2704607119667344,13:58:38.724447,13:58:28.368797,0,,0.108594105,-0.0056251287,-0.006390348,0.91086143,-0.37722778,0.16742364,-0.1867719,-0.015017509,0.9822884,-0.3680322,-0.92599875,-0.08413458,,0.063715026,-0.008779608,0.017494619,-0.783693,0.24961309,0.56878674,0.28910536,-0.6638891,0.6896878,0.54976636,0.70494306,0.44812065,,0.10633886,1.3404396,0.44018918,0.9956655,0.012113061,-0.09221425,-0.05142928,-0.75440246,-0.6543943,-0.07749338,0.65630037,-0.75050956,,-0.073516466,0.2391063,-0.06596346,-0.8759845,0.46419817,-0.13103923,-0.42187154,-0.6056496,0.6746947,0.23382819,0.64630383,0.72637165,,-0.02930698,0.40246144,-0.3450117,0.7052811,-0.2687231,-0.65602326,0.70799,0.21940468,0.6712762,-0.036452856,-0.9378963,0.34499523,,1.1456442536925833,0.2835169692785302,0.23254016681000003,4.53873882672253,0.2570132560587935,-1.0656519522662014,0.8704605284295741,,-0.9324350445009931,-0.21909393164174934,0.21251119002000002,-3.6794294383229493,-0.900571169954018,1.3986485968263063,0.8743807860167969,,-0.04931645967666478,-0.06459245395474515,0.08431779928,-0.06509005378220696,,-1.7374754e-05,-1.3113022e-06,-2.1457672e-06,1.0,6.582588e-06,5.7555735e-06,-6.5863132e-06,0.99999994,6.854534e-07,-5.759299e-06,-7.1525574e-07,1.0,734,2.3,0,1,0.104,False,1.0468996424166788,1.0492253061540504
2.3045593929709867,13:58:38.761604,13:58:28.558938,0,,0.10918334,-0.005075574,-0.006425172,0.9107888,-0.37766007,0.1668436,-0.18496147,-0.011936933,0.98267317,-0.3691248,-0.92586744,-0.080724746,,0.06371038,-0.008784227,0.0174914,-0.783822,0.24986014,0.5685006,0.2888648,-0.66369724,0.68997324,0.5497089,0.7050361,0.4480446,,0.10633886,1.3404396,0.44018918,0.9956655,0.012113061,-0.09221425,-0.05142928,-0.75440246,-0.6543943,-0.07749338,0.65630037,-0.75050956,,-0.074084036,0.23947062,-0.06552121,-0.8757562,0.4647016,-0.13078019,-0.42122984,-0.6032321,0.6772566,0.23583142,0.6482002,0.72403044,,-0.029301735,0.40245685,-0.34501386,0.7054315,-0.26899076,-0.65575176,0.70783114,0.21955425,0.6713948,-0.03662591,-0.93778455,0.34528053,,1.1442155481108518,0.28671418068845916,0.23279164707000002,4.53873882672253,0.26070244155246036,-1.0658831585012256,0.8711139046941112,,-0.9324195990352446,-0.21910937710749778,0.21251119002000002,-3.679848818209918,-0.9007078064537835,1.398678335989862,0.8742174419506625,,-0.04931645967666478,-0.06459245395474515,0.08431779928,-0.06509005378220696,,-1.7374754e-05,-1.3113022e-06,-2.1457672e-06,1.0,6.582588e-06,5.7555735e-06,-6.5863132e-06,0.99999994,6.854534e-07,-5.759299e-06,-7.1525574e-07,1.0,743,2.328,0,1,0.104,False,1.0466613315425946,1.0490321853509326
2.341715587012004,13:58:38.790019,13:58:28.558938,0,,0.1094523,-0.0046229064,-0.0064683706,0.9104731,-0.37843582,0.16680837,-0.1831612,-0.0073500574,0.98305535,-0.37079728,-0.9255984,-0.07600692,,0.063715406,-0.008794405,0.017491043,-0.7838219,0.24987033,0.5684963,0.28891432,-0.6636217,0.6900252,0.54968315,0.70510375,0.44796997,,0.10633886,1.3404396,0.44018918,0.9956655,0.012113061,-0.09221425,-0.05142928,-0.75440246,-0.6543943,-0.07749338,0.65630037,-0.75050956,,-0.07433483,0.2397704,-0.065165766,-0.87523067,0.46557555,-0.13118942,-0.4209677,-0.5995784,0.68065554,0.23823823,0.6509571,0.72076166,,-0.029305976,0.4024506,-0.34502235,0.7054303,-0.26901263,-0.6557441,0.7078352,0.21964958,0.67135936,-0.03657023,-0.937756,0.3453641,,1.1438989160630086,0.28885337769461933,0.23301720153000002,4.5385291367790455,0.2637084445473001,-1.0683343523825468,0.8711139046941112,,-0.9324350445009931,-0.21916343623761736,0.21251119002000002,-3.679848818209918,-0.9007078064537835,1.3985966572497213,0.8743807860167968,,-0.04931645967666478,-0.06459245395474515,0.08431779928,-0.06509005378220696,,-1.7374754e-05,-1.3113022e-06,-2.1457672e-06,1.0,6.582588e-06,5.7555735e-06,-6.5863132e-06,0.99999994,6.854534e-07,-5.759299e-06,-7.1525574e-07,1.0,756,2.369,0,1,0.104,False,1.0468400646981575,1.0486459437446969
2.3701228110003285,13:58:38.831292,13:58:28.558938,0,,0.10961735,-0.0042521805,-0.006486997,0.910533,-0.37845796,0.16643098,-0.18175754,-0.004860401,0.98333126,-0.37134063,-0.9256057,-0.07321331,,0.06370394,-0.008803718,0.017490804,-0.7840043,0.25065282,0.56789994,0.2875322,-0.6641586,0.6900859,0.55014753,0.70431995,0.44863233,,0.10633886,1.3404396,0.44018918,0.9956655,0.012113061,-0.09221425,-0.05142928,-0.75440246,-0.6543943,-0.07749338,0.65630037,-0.75050956,,-0.074486904,0.24002934,-0.06489218,-0.87519866,0.4656678,-0.13107564,-0.42027488,-0.5977135,0.6827208,0.23957542,0.65260404,0.71882653,,-0.029293915,0.4024469,-0.34503004,0.705664,-0.26967695,-0.65521955,0.7075276,0.21861474,0.6720211,-0.037987955,-0.93780696,0.34507245,,1.1439220842616313,0.29050604252970336,0.23318571923000003,4.537900066948591,0.2650748095449545,-1.0693668526793705,0.870950560627977,,-0.9324350445009931,-0.21920977263486272,0.21251248631000003,-3.6808972679273406,-0.9020741714514379,1.3997108362866857,0.8743807860167968,,-0.04931645967666478,-0.06459245395474515,0.08431779928,-0.06509005378220696,,-1.7374754e-05,-1.3113022e-06,-2.1457672e-06,1.0,6.582588e-06,5.7555735e-06,-6.5863132e-06,0.99999994,6.854534e-07,-5.759299e-06,-7.1525574e-07,1.0,769,2.41,0,1,0.104,False,1.0470783755722417,1.048983905150153
2.4114075649995357,13:58:38.878821,13:58:28.692258,0,,0.10988784,-0.0036076307,-0.0066667497,0.9104204,-0.3785408,0.16685769,-0.18055755,-0.000708133,0.983564,-0.37220103,-0.9255843,-0.0689933,,0.06366396,-0.008804657,0.017510831,-0.78363436,0.256293,0.5658895,0.28291824,-0.66374105,0.6923908,0.5530589,0.7026819,0.44762015,,0.10633886,1.3404396,0.44018918,0.9956655,0.012113061,-0.09221425,-0.05142928,-0.75440246,-0.6543943,-0.07749338,0.65630037,-0.75050956,,-0.07472069,0.24038304,-0.064308085,-0.8749702,0.46586412,-0.13190064,-0.41993657,-0.594579,0.6856596,0.24099888,0.6553216,0.7158723,,-0.029256072,0.40246812,-0.34504104,0.7053418,-0.2751499,-0.6532882,0.7075347,0.21678197,0.67260706,-0.043446664,-0.93664193,0.3475835,,1.143914361528757,0.2930931580425686,0.23361349493000003,4.537900066948591,0.2668510840419052,-1.070978642907705,0.8707872165618428,,-0.9324427672338673,-0.2192638317649823,0.21251378260000003,-3.6821554075882474,-0.9075396314420554,1.3979599681838597,0.8743807860167967,,-0.04931645967666478,-0.06459245395474515,0.08431779928,-0.06509005378220696,,-1.7374754e-05,-1.3113022e-06,-2.1457672e-06,1.0,6.582588e-06,5.7555735e-06,-6.5863132e-06,0.99999994,6.854534e-07,-5.759299e-06,-7.1525574e-07,1.0,778,2.439,0,1,0.104,False,1.0470783755722417,1.0488873447485942
2.4589413260109723,13:58:38.901879,13:58:28.692258,0,,0.11005324,-0.0032390058,-0.00683628,0.9105231,-0.37807667,0.16734904,-0.18018669,0.001443088,0.98363125,-0.3721295,-0.92577314,-0.06681052,,0.063675895,-0.008797713,0.017521203,-0.78265965,0.2555384,0.56757724,0.28360644,-0.6652974,0.69061327,0.5540858,0.70148396,0.44822896,,0.10633886,1.3404396,0.44018918,0.9956655,0.012113061,-0.09221425,-0.05142928,-0.75440246,-0.6543943,-0.07749338,0.65630037,-0.75050956,,-0.07485863,0.24054086,-0.06392332,-0.8750689,0.46548057,-0.13259812,-0.41961545,-0.5931086,0.6871281,0.24119972,0.65692466,0.7143337,,-0.029269405,0.40247908,-0.34504074,0.70422745,-0.27417684,-0.6548975,0.708646,0.21504687,0.67199385,-0.043411493,-0.937327,0.3457362,,1.1438294114671406,0.294483249959929,0.23391812308,4.537900066948591,0.26726099354120153,-1.0718846477997785,0.8701338402973054,,-0.9324504899667415,-0.21928699996360496,0.21251507889000001,-3.6796391282664334,-0.9078129044415864,1.3980194465109717,0.8743807860167969,,-0.04931645967666478,-0.06459245395474515,0.08431779928,-0.06509005378220696,,-1.7374754e-05,-1.3113022e-06,-2.1457672e-06,1.0,6.582588e-06,5.7555735e-06,-6.5863132e-06,0.99999994,6.854534e-07,-5.759299e-06,-7.1525574e-07,1.0,791,2.48,0,1,0.104,False,1.0468996424166788,1.04927358635483
2.4820125109981745,13:58:38.943216,13:58:28.692258,0,,0.11072311,-0.0024104416,-0.006780371,0.91126436,-0.37581542,0.16840452,-0.17922817,0.006253183,0.9837874,-0.37077558,-0.9266735,-0.06165859,,0.06367926,-0.008799739,0.017522633,-0.7822607,0.25520214,0.56827796,0.2839976,-0.66582453,0.68994415,0.5544486,0.701106,0.44837153,,0.10633886,1.3404396,0.44018918,0.9956655,0.012113061,-0.09221425,-0.05142928,-0.75440246,-0.6543943,-0.07749338,0.65630037,-0.75050956,,-0.07550736,0.241171,-0.06335722,-0.87591016,0.46345186,-0.13414072,-0.418035,-0.59018844,0.69059706,0.24089019,0.6609765,0.71069115,,-0.029272746,0.4024788,-0.3450432,0.7037692,-0.2737698,-0.65556,0.7091095,0.2144922,0.6716821,-0.043273762,-0.937573,0.34508577,,1.142848624392114,0.2989238213626081,0.23420330688000002,4.537690377005107,0.26808081253979416,-1.073124906402941,0.8706238724957086,,-0.9324350445009931,-0.21931789089510184,0.21251507889000001,-3.678590678549011,-0.9078129044415864,1.3979377677708311,0.8742174419506625,,-0.04931645967666478,-0.06459245395474515,0.08431779928,-0.06509005378220696,,-1.7374754e-05,-1.3113022e-06,-2.1457672e-06,1.0,6.582588e-06,5.7555735e-06,-6.5863132e-06,0.99999994,6.854534e-07,-5.759299e-06,-7.1525574e-07,1.0,800,2.509,0,1,0.104,False,1.0473762641648467,1.0486459437446969
2.523324445995968,13:58:38.976495,13:58:28.692258,0,,0.11114843,-0.0020295978,-0.0066981614,0.9117418,-0.37441865,0.16893071,-0.17890485,0.008237809,0.9838318,-0.36975664,-0.9272232,-0.059474707,,0.06368158,-0.008800752,0.017522097,-0.782263,0.2551923,0.56827945,0.28400517,-0.66582364,0.689942,0.55444163,0.70111054,0.44837308,,0.10633886,1.3404396,0.44018918,0.9956655,0.012113061,-0.09221425,-0.05142928,-0.75440246,-0.6543943,-0.07749338,0.65630037,-0.75050956,,-0.07592784,0.24149287,-0.0631285,-0.87647444,0.4621706,-0.1348736,-0.41714093,-0.589121,0.69204766,0.24038722,0.6628234,0.70913976,,-0.02927492,0.40247756,-0.3450438,0.70377153,-0.27376053,-0.65556145,0.7091078,0.21449772,0.6716821,-0.04326362,-0.9375745,0.34508312,,1.1419759555773268,0.30130242308786925,0.23428367686,4.537690377005107,0.2684907220390905,-1.0732958026337491,0.8702971843634398,,-0.9324427672338673,-0.21932561362797606,0.21251637518000002,-3.678590678549011,-0.9078129044415864,1.3979377677708311,0.8742174419506625,,-0.04931645967666478,-0.06459245395474515,0.08431779928,-0.06509005378220696,,-1.7374754e-05,-1.3113022e-06,-2.1457672e-06,1.0,6.582588e-06,5.7555735e-06,-6.5863132e-06,0.99999994,6.854534e-07,-5.759299e-06,-7.1525574e-07,1.0,813,2.55,0,1,0.104,False,1.0467209092611154,1.0489356249493738
2.5565584049909376,13:58:39.014184,13:58:28.692258,0,,0.1116805,-0.0018574297,-0.00665614,0.9121369,-0.3733084,0.16925424,-0.17829786,0.010449052,0.98392093,-0.36907452,-0.9276485,-0.057029247,,0.0636919,-0.00879582,0.017525375,-0.78228605,0.25515315,0.5682652,0.2839962,-0.66584706,0.68992305,0.5544137,0.7011025,0.44842014,,0.10633886,1.3404396,0.44018918,0.9956655,0.012113061,-0.09221425,-0.05142928,-0.75440246,-0.6543943,-0.07749338,0.65630037,-0.75050956,,-0.07645646,0.241627,-0.062997885,-0.87691647,0.46116868,-0.13542882,-0.4162525,-0.5877891,0.69371307,0.24031515,0.664701,0.70740455,,-0.029285824,0.40248168,-0.34504142,0.70379776,-0.27371925,-0.65555054,0.70908225,0.2144833,0.6717137,-0.04325634,-0.9375898,0.34504232,,1.1401611133518839,0.3031249880461862,0.23431738040000002,4.537690377005107,0.2701303600362758,-1.0743877812576845,0.8707872165618427,,-0.9324968263639869,-0.21931016816222762,0.21252026405000002,-3.678590678549011,-0.9078129044415864,1.3979377677708311,0.8742174419506625,,-0.04931645967666478,-0.06459245395474515,0.08431779928,-0.06509005378220696,,-1.7374754e-05,-1.3113022e-06,-2.1457672e-06,1.0,6.582588e-06,5.7555735e-06,-6.5863132e-06,0.99999994,6.854534e-07,-5.759299e-06,-7.1525574e-07,1.0,826,2.591,0,1,0.104,False,1.0471379532907625,1.0486942239454764
2.5942864199751057,13:58:39.057481,13:58:28.692258,0,,0.11195101,-0.0019906312,-0.006739527,0.91229874,-0.37336063,0.16826418,-0.17746276,0.009872377,0.9840778,-0.3690771,-0.92763376,-0.057251155,,0.06370465,-0.008792125,0.01752448,-0.78228647,0.2551958,0.56824553,0.28389516,-0.66592246,0.6898918,0.5544649,0.7010153,0.44849312,,0.10633886,1.3404396,0.44018918,0.9956655,0.012113061,-0.09221425,-0.05142928,-0.75440246,-0.6543943,-0.07749338,0.65630037,-0.75050956,,-0.07672128,0.24146044,-0.062999085,-0.87705386,0.46120313,-0.13441798,-0.4156343,-0.58821005,0.69372696,0.24088302,0.6643046,0.7075837,,-0.02929866,0.40248135,-0.34503797,0.7038003,-0.27374795,-0.6555358,0.7090728,0.21436524,0.67176133,-0.043369204,-0.9376084,0.34497756,,1.1386551804414102,0.3031249880461862,0.23434071362000003,4.537270997118139,0.2719066345332265,-1.0742843179430672,0.87029718436344,,-0.9325508854941065,-0.21931016816222762,0.21252933808000002,-3.678590678549011,-0.9079495409413517,1.3979675069343867,0.8743807860167967,,-0.04931645967666478,-0.06459245395474515,0.08431779928,-0.06509005378220696,,-1.7374754e-05,-1.3113022e-06,-2.1457672e-06,1.0,6.582588e-06,5.7555735e-06,-6.5863132e-06,0.99999994,6.854534e-07,-5.759299e-06,-7.1525574e-07,1.0,835,2.619,0,1,0.104,False,1.0468400646981575,1.0487907843470352
2.6375963729806244,13:58:39.086301,13:58:28.692258,0,,0.1121514,-0.0021725595,-0.006825477,0.9125822,-0.372975,0.16758105,-0.17768492,0.007393688,0.9840595,-0.36826864,-0.9278119,-0.059524894,,0.06371623,-0.00878834,0.017507613,-0.7824483,0.2553358,0.5679598,0.28375068,-0.6656866,0.6901789,0.55431044,0.70118845,0.4484134,,0.10633886,1.3404396,0.44018918,0.9956655,0.012113061,-0.09221425,-0.05142928,-0.75440246,-0.6543943,-0.07749338,0.65630037,-0.75050956,,-0.076917455,0.24125864,-0.06303689,-0.87742,0.46076742,-0.13351956,-0.41528016,-0.59020466,0.69224334,0.2401593,0.6628362,0.709205,,-0.029308807,0.40246767,-0.34502593,0.7039859,-0.2739201,-0.65526456,0.7088861,0.21461804,0.6718777,-0.043409206,-0.93750036,0.34526622,,1.1373886522500374,0.30278518779972036,0.23434330620000002,4.537270997118139,0.2721799075327574,-1.0725468639870868,0.8702971843634397,,-0.9325663309598549,-0.21931016816222762,0.21255007872,-3.6790100584359795,-0.9079495409413517,1.3979675069343867,0.8743807860167967,,-0.04931645967666478,-0.06459245395474515,0.08431779928,-0.06509005378220696,,-1.7374754e-05,-1.3113022e-06,-2.1457672e-06,1.0,6.582588e-06,5.7555735e-06,-6.5863132e-06,0.99999994,6.854534e-07,-5.759299e-06,-7.1525574e-07,1.0,848,2.66,0,1,0.104,False,1.0464825983870312,1.0490321853509326
2.66643657599343,13:58:39.127499,13:58:28.692258,0,,0.11243458,-0.0022630692,-0.0068483204,0.9126517,-0.3729073,0.1673526,-0.17689992,0.008738637,0.98419,-0.3684741,-0.9278275,-0.05799213,,0.063768685,-0.008760177,0.017494977,-0.7811351,0.25422823,0.5702595,0.28440082,-0.66821194,0.68746567,0.5558273,0.69918597,0.4496609,,0.10633886,1.3404396,0.44018918,0.9956655,0.012113061,-0.09221425,-0.05142928,-0.75440246,-0.6543943,-0.07749338,0.65630037,-0.75050956,,-0.077199526,0.24116349,-0.0630539,-0.8774475,0.46073917,-0.13343643,-0.41482937,-0.5892082,0.6933616,0.24083701,0.66374177,0.70812744,,-0.029361663,0.40246552,-0.34499586,0.7024913,-0.2724516,-0.6574771,0.7103514,0.21173935,0.67124313,-0.0436675,-0.93858224,0.34228143,,1.13596766940118,0.3030554834503182,0.23433034330000002,4.537061307174653,0.2740928185294736,-1.074025035898696,0.8701338402973056,,-0.9326667264872198,-0.21931789089510184,0.21259933774000003,-3.6756550193402275,-0.908632723440179,1.3985245964528688,0.8743807860167967,,-0.04931645967666478,-0.06459245395474515,0.08431779928,-0.06509005378220696,,-1.7374754e-05,-1.3113022e-06,-2.1457672e-06,1.0,6.582588e-06,5.7555735e-06,-6.5863132e-06,0.99999994,6.854534e-07,-5.759299e-06,-7.1525574e-07,1.0,857,2.689,0,1,0.104,False,1.0458272434832998,1.048742504146256
2.707612505008001,13:58:39.157984,13:58:28.961353,0,,0.1126811,-0.0022329688,-0.006804034,0.9125397,-0.37265655,0.16851777,-0.17604978,0.013998181,0.9842816,-0.36915797,-0.9278638,-0.052832335,,0.06381133,-0.008749776,0.017488241,-0.78071284,0.25369772,0.57107335,0.2848673,-0.6689032,0.6865997,0.55618143,0.69871753,0.449951,,0.10633886,1.3404396,0.44018918,0.9956655,0.012113061,-0.09221425,-0.05142928,-0.75440246,-0.6543943,-0.07749338,0.65630037,-0.75050956,,-0.07744822,0.24120474,-0.06304467,-0.87724644,0.46064,-0.13509072,-0.4146373,-0.5852949,0.69678247,0.24189797,0.66726357,0.7044464,,-0.02940409,0.40246022,-0.34498385,0.70200545,-0.27183154,-0.6582522,0.71084416,0.21104553,0.67093986,-0.043461435,-0.93891823,0.34138498,,1.1349791595932792,0.3037891430733695,0.23430701008000002,4.537061307174653,0.2762790025257206,-1.07891151448318,0.8704605284295741,,-0.9327902902132074,-0.21934105909372453,0.21262915241000002,-3.6743968796793203,-0.908632723440179,1.3984429177127282,0.8742174419506625,,-0.04931645967666478,-0.06459245395474515,0.08431779928,-0.06509005378220696,,-1.7374754e-05,-1.3113022e-06,-2.1457672e-06,1.0,6.582588e-06,5.7555735e-06,-6.5863132e-06,0.99999994,6.854534e-07,-5.759299e-06,-7.1525574e-07,1.0,870,2.73,0,1,0.104,False,1.0464825983870312,1.0489356249493738
2.738097726018168,13:58:39.192992,13:58:28.961353,0,,0.112908885,-0.002186045,-0.006732151,0.91242605,-0.37198305,0.17060876,-0.17522034,0.021649003,0.98429096,-0.36983308,-0.9279871,-0.0454261,,0.063858524,-0.008733921,0.017488003,-0.7800853,0.25361934,0.57196516,0.28466555,-0.6701949,0.68542266,0.5571645,0.6975071,0.4506123,,0.10633886,1.3404396,0.44018918,0.9956655,0.012113061,-0.09221425,-0.05142928,-0.75440246,-0.6543943,-0.07749338,0.65630037,-0.75050956,,-0.07768048,0.2412776,-0.063046604,-0.877045,0.4601954,-0.13788508,-0.41445497,-0.5796621,0.70158315,0.24293858,0.6724672,0.69912,,-0.02945204,0.4024627,-0.34497067,0.7013024,-0.2715473,-0.65911835,0.711495,0.20935807,0.6707787,-0.044156414,-0.93937814,0.34002787,,1.1339288679223847,0.30476220741552185,0.23424478816000002,4.537061307174653,0.2781919135224367,-1.087577415527159,0.8716039368925141,,-0.9329601903364403,-0.2193642272923472,0.21266415224000002,-3.672929050074929,-0.9095891789385371,1.3986510918576194,0.8747074741490655,,-0.04931645967666478,-0.06459245395474515,0.08431779928,-0.06509005378220696,,-1.7374754e-05,-1.3113022e-06,-2.1457672e-06,1.0,6.582588e-06,5.7555735e-06,-6.5863132e-06,0.99999994,6.854534e-07,-5.759299e-06,-7.1525574e-07,1.0,883,2.771,0,1,0.104,False,1.0467804869796362,1.048983905150153
2.7731047369888984,13:58:39.237397,13:58:28.961353,0,,0.11324845,-0.0021979809,-0.0065165013,0.9132623,-0.36834204,0.17400032,-0.17509001,0.03074792,0.9840721,-0.3678253,-0.92918175,-0.03641233,,0.06389623,-0.008725859,0.017492712,-0.7788343,0.25283876,0.5740118,0.28528297,-0.6722219,0.68317735,0.55859697,0.695838,0.4514187,,0.10633886,1.3404396,0.44018918,0.9956655,0.012113061,-0.09221425,-0.05142928,-0.75440246,-0.6543943,-0.07749338,0.65630037,-0.75050956,,-0.07803945,0.24139628,-0.06318446,-0.878067,0.45694205,-0.14213483,-0.41306916,-0.57377577,0.7072165,0.24160346,0.679695,0.6925623,,-0.029490495,0.40246645,-0.34496668,0.6998799,-0.27047035,-0.6610703,0.71287936,0.20698239,0.67004573,-0.044397615,-0.94021493,0.33767554,,1.1329789717788552,0.30558853983306383,0.23406330756000002,4.5364322373442,0.27750873102360957,-1.0950248425424518,0.8725840012893198,,-0.9330837540624279,-0.21947234555258635,0.21269267062000002,-3.6687352512052382,-0.9105456344368951,1.3987775872623698,0.8743807860167968,,-0.04931645967666478,-0.06459245395474515,0.08431779928,-0.06509005378220696,,-1.7374754e-05,-1.3113022e-06,-2.1457672e-06,1.0,6.582588e-06,5.7555735e-06,-6.5863132e-06,0.99999994,6.854534e-07,-5.759299e-06,-7.1525574e-07,1.0,892,2.799,0,1,0.104,False,1.0468400646981575,1.049080465551712
2.8175239610136487,13:58:39.258792,13:58:28.961353,0,,0.11338721,-0.0022350848,-0.006399229,0.91417634,-0.3651587,0.17590007,-0.17627347,0.03260401,0.98380095,-0.36497858,-0.93037426,-0.03456214,,0.06392126,-0.008744426,0.017485023,-0.7788913,0.2531546,0.57379526,0.28511617,-0.67196894,0.68349576,0.5586026,0.69596744,0.45121223,,0.10633886,1.3404396,0.44018918,0.9956655,0.012113061,-0.09221425,-0.05142928,-0.75440246,-0.6543943,-0.07749338,0.65630037,-0.75050956,,-0.07818986,0.24143979,-0.06328377,-0.87928396,0.45394158,-0.14421096,-0.41211972,-0.57330513,0.7081515,0.23878254,0.68209845,0.69117624,,-0.029513307,0.40244728,-0.34497863,0.6999477,-0.2708141,-0.66085774,0.7128038,0.2071864,0.67006314,-0.044541806,-0.94007105,0.33805695,,1.132554221470773,0.30592834007952974,0.23393497485000003,4.536222547400715,0.27477600102830074,-1.0972888151762543,0.8720939690909169,,-0.9331378131925475,-0.2195572956142028,0.21270304094000003,-3.6699933908661455,-0.9105456344368951,1.3984508723018076,0.8750341622813339,,-0.04931645967666478,-0.06459245395474515,0.08431779928,-0.06509005378220696,,-1.7374754e-05,-1.3113022e-06,-2.1457672e-06,1.0,6.582588e-06,5.7555735e-06,-6.5863132e-06,0.99999994,6.854534e-07,-5.759299e-06,-7.1525574e-07,1.0,905,2.84,0,1,0.104,False,1.0464825983870312,1.049080465551712
2.8389246099977754,13:58:39.304021,13:58:29.096626,0,,0.113745436,-0.0023829788,-0.005930379,0.9153911,-0.3577341,0.1846225,-0.18221933,0.04073888,0.98241353,-0.35896417,-0.93293446,-0.02789411,,0.06394747,-0.008793451,0.017496109,-0.7788839,0.25335768,0.5737157,0.28499916,-0.67188394,0.6836282,0.5586727,0.6959756,0.45111275,,0.106305495,1.3404402,0.440194,0.99566656,0.012128787,-0.09220061,-0.05140852,-0.7544022,-0.65439624,-0.07749338,0.65630037,-0.75050956,,-0.078564905,0.24161908,-0.063698225,-0.8812353,0.44702795,-0.15359159,-0.41268358,-0.569199,0.7111292,0.23047046,0.69005686,0.6860793,,-0.029504903,0.40242565,-0.34502518,0.69993126,-0.27101284,-0.66079366,0.71281207,0.20721094,0.6700467,-0.04466758,-0.94000834,0.33821464,,1.1317973936490988,0.3068550680244367,0.23348127335000002,4.539158206609499,0.26739763004096695,-1.1053209916808242,0.8724206572231854,,-0.933222763254164,-0.2197735321346811,0.21271600384000003,-3.6699933908661455,-0.9109555439361915,1.3982133748319128,0.8738907538183939,,-0.04931645967666478,-0.06459245395474515,0.08431779928,-0.06509005378220696,,-5.09955e-05,1.013279e-06,-3.0994415e-06,1.0,2.2228807e-05,1.944229e-05,-2.2232533e-05,1.0,2.2947788e-06,-1.9446015e-05,-2.2947788e-06,1.0,914,2.869,0,1,0.104,False,1.0469592201351996,1.0486459437446969
2.8841381240054034,13:58:39.334923,13:58:29.096626,0,,0.11421184,-0.0024533719,-0.0056151003,0.91831243,-0.34723985,0.19007063,-0.18598033,0.04540655,0.9815037,-0.34944767,-0.93667644,-0.022882402,,0.06396014,-0.008817472,0.017485678,-0.77885383,0.2534661,0.57370865,0.2850185,-0.6717753,0.68372685,0.5587048,0.696041,0.45097217,,0.106305495,1.3404402,0.440194,0.99566656,0.012128787,-0.09220061,-0.05140852,-0.7544022,-0.65439624,-0.07749338,0.65630037,-0.75050956,,-0.07906132,0.24175413,-0.06393743,-0.88516444,0.4370778,-0.15952086,-0.40935743,-0.5686122,0.7135171,0.22115697,0.696881,0.6822364,,-0.029514806,0.40240285,-0.34504026,0.699897,-0.27113438,-0.66078013,0.7128457,0.20731004,0.6699803,-0.04466832,-0.9399514,0.33837262,,1.1303995789988641,0.3080675370856899,0.23314683053000002,4.538319446835561,0.25837962105644785,-1.1113627234199126,0.8711139046941112,,-0.9332382087199125,-0.21991254132641713,0.21272507787000003,-3.6699933908661455,-0.9110921804359569,1.3980797565151875,0.8743807860167967,,-0.04931645967666478,-0.06459245395474515,0.08431779928,-0.06509005378220696,,-5.09955e-05,1.013279e-06,-3.0994415e-06,1.0,2.2228807e-05,1.944229e-05,-2.2232533e-05,1.0,2.2947788e-06,-1.9446015e-05,-2.2947788e-06,1.0,927,2.91,0,1,0.104,False,1.0464825983870312,1.0491770259532711
