AlexandreBanks6/ExpertPlaybackApp/resources/Motions/P_02/PC1/Data_PC1_7.csv
Task Time,PC1 Time,PC2 Time,Gaze Calib,s_T_psm1,Tx,Ty,Tz,R00,R01,R02,R10,R11,R12,R20,R21,R22,s_T_psm3,Tx,Ty,Tz,R00,R01,R02,R10,R11,R12,R20,R21,R22,cart_T_ecm,Tx,Ty,Tz,R00,R01,R02,R10,R11,R12,R20,R21,R22,ecm_T_psm1,Tx,Ty,Tz,R00,R01,R02,R10,R11,R12,R20,R21,R22,ecm_T_psm3,Tx,Ty,Tz,R00,R01,R02,R10,R11,R12,R20,R21,R22,psm1_joints,q1,q2,q3,q4,q5,q6,jaw,psm3_joints,q1,q2,q3,q4,q5,q6,jaw,ecm_joints,q1,q2,q3,q4,ecmi_T_ecm,Tx,Ty,Tz,R00,R01,R02,R10,R11,R12,R20,R21,R22,Sample #,Task Duration (s),Collisions (binary),Collisions (increments),Cumulative Collision Time (s),Clutch Press,MTMR Angle,MTML Angle
""
lci_T_si,,,,,-0.058645472,0.02625499,0.22826408,0.99565005,-0.029675543,0.08831943,0.036406916,-0.74864405,-0.6619718,0.085764185,0.6623077,-0.7443071
rci_T_si,,,,,-0.06823406,0.030414503,0.23744373,0.99434865,-0.048808113,0.094279215,0.02809092,-0.73544073,-0.6770065,0.10238019,0.6758289,-0.7299134
ecm_T_lc,,,,,-4.4061628e-05,-0.00034663224,-0.01840835,-0.99912,0.030754527,0.028518902,-0.031987965,-0.99852574,-0.043852776,0.027128186,-0.04472645,0.9986309
ecm_T_rc,,,,,-0.0043358393,0.01870579,-0.007592615,-0.99555075,-0.052743673,-0.078081585,0.04863213,-0.9973746,0.053654674,-0.08070653,0.04961868,0.9955021
cart_T_ecmi,,,,,0.106224485,1.3404018,0.4402494,0.9955829,0.012822853,-0.09300707,-0.05147165,-0.7539449,-0.65491813,-0.07852013,0.6568125,-0.7499546
ecmac_T_ecmrep_psm1,,,,,0.01038242,-0.2501324,-0.30762842,0.998145,0.0496832,0.035188068,-0.04731537,0.99675006,-0.06519635,-0.03831287,0.06341047,0.99725187
ecmac_T_ecmrep_psm3,,,,,-0.018947443,-0.4527795,-0.5580277,0.99342906,-0.031421527,0.110051684,0.0051236153,0.97282016,0.23150527,-0.11433475,-0.2294202,0.9665888
""
0,14:42:43.998968,14:42:33.819420,0,,0.07947078,0.008698046,0.015918165,-0.35355836,0.8127341,-0.46309784,0.774472,0.53197694,0.3423353,0.52458495,-0.23762086,-0.8175248,,NaN,NaN,NaN,NaN,NaN,NaN,NaN,NaN,NaN,NaN,NaN,NaN,,0.10628597,1.3403988,0.44024926,0.995579,0.012766437,-0.093056075,-0.05154615,-0.7539458,-0.65491116,-0.07852013,0.6568125,-0.7499546,,-0.05076288,0.25548267,-0.08515776,0.34400854,-0.7738328,0.53182787,0.93586826,0.23659909,-0.26109675,0.07621524,0.5875403,0.80559766,,NaN,NaN,NaN,NaN,NaN,NaN,NaN,NaN,NaN,NaN,NaN,NaN,,1.288144120687774,0.2562634449653919,0.21346396317000002,2.1876951803740425,-0.08252844585832604,-0.3121830128604136,-0.401826402690327,,NaN,NaN,NaN,NaN,NaN,NaN,NaN,,-0.050095312855367245,-0.06378742083726276,0.08431779928,-0.06541713947960498,,6.137416e-05,2.9802322e-06,-3.695488e-06,1.0,-5.6117773e-05,-4.9147755e-05,5.6117773e-05,0.9999999,-5.90086e-06,4.914403e-05,5.90086e-06,0.99999994,43,0.129,0,0,0.0,False,-0.2585077480976805,1.0504805913743163
0.11973715398926288,14:42:44.045629,14:42:33.901571,0,,0.07964499,0.0091894865,0.01571019,-0.3539714,0.8125938,-0.46302864,0.7745986,0.5321615,0.34176147,0.52411926,-0.23768759,-0.81780404,,NaN,NaN,NaN,NaN,NaN,NaN,NaN,NaN,NaN,NaN,NaN,NaN,,0.10628597,1.3403988,0.44024926,0.995579,0.012766437,-0.093056075,-0.05154615,-0.7539458,-0.65491116,-0.07852013,0.6568125,-0.7499546,,-0.05090379,0.25571892,-0.084668405,0.34445772,-0.7736814,0.5317574,0.9356701,0.2366988,-0.2617158,0.0766183,0.58769953,0.8054433,,NaN,NaN,NaN,NaN,NaN,NaN,NaN,NaN,NaN,NaN,NaN,NaN,,1.288175011619271,0.25836402830718097,0.21382951695000002,2.187485490430558,-0.08075217136137532,-0.3140398393091699,-0.40166305862419266,,NaN,NaN,NaN,NaN,NaN,NaN,NaN,,-0.050095312855367245,-0.06378742083726276,0.08431779928,-0.06541713947960498,,6.137416e-05,2.9802322e-06,-3.695488e-06,1.0,-5.6117773e-05,-4.9147755e-05,5.6117773e-05,0.9999999,-5.90086e-06,4.914403e-05,5.90086e-06,0.99999994,58,0.174,0,0,0.0,False,-0.259282258438454,1.0503840309727575
0.16639521002070978,14:42:44.090677,14:42:33.901571,0,,0.07977949,0.009642005,0.015580669,-0.35384792,0.8127668,-0.4628192,0.7740596,0.5322362,0.34286505,0.5249984,-0.2369277,-0.8174607,,NaN,NaN,NaN,NaN,NaN,NaN,NaN,NaN,NaN,NaN,NaN,NaN,,0.106227584,1.3404024,0.4402498,0.99558187,0.012808376,-0.09301965,-0.05149077,-0.7539451,-0.65491635,-0.07852013,0.6568125,-0.7499546,,-0.05096133,0.25597852,-0.08427044,0.34421107,-0.77393603,0.5315466,0.9358413,0.23721033,-0.26063818,0.07562894,0.58715785,0.80593175,,NaN,NaN,NaN,NaN,NaN,NaN,NaN,NaN,NaN,NaN,NaN,NaN,,1.2882059025507677,0.26027154332711444,0.21411210817,2.187485490430558,-0.08061553486160986,-0.3148863658741314,-0.40149971455805833,,NaN,NaN,NaN,NaN,NaN,NaN,NaN,,-0.050095312855367245,-0.06378742083726276,0.08431779928,-0.06541713947960498,,3.0249357e-06,-2.3841858e-07,-8.34465e-07,0.99999994,-1.4401972e-05,-1.2617558e-05,1.4401972e-05,0.9999999,-1.5199184e-06,1.2606382e-05,1.5199184e-06,1.0,70,0.211,0,0,0.0,False,-0.2586269035347226,1.0501909101696396
0.2114086840301752,14:42:44.131298,14:42:33.901571,0,,0.07999343,0.010200068,0.015512869,-0.3535011,0.81233454,-0.46384206,0.7728129,0.53300226,0.34448338,0.52706456,-0.236688,-0.81619966,,NaN,NaN,NaN,NaN,NaN,NaN,NaN,NaN,NaN,NaN,NaN,NaN,,0.106227584,1.3404024,0.4402498,0.99558187,0.012808376,-0.09301965,-0.05149077,-0.7539451,-0.65491635,-0.07852013,0.6568125,-0.7499546,,-0.051149286,0.25635564,-0.08384117,0.34367397,-0.7734938,0.53253686,0.93622535,0.23795652,-0.2585706,0.073282145,0.5874385,0.805944,,NaN,NaN,NaN,NaN,NaN,NaN,NaN,NaN,NaN,NaN,NaN,NaN,,1.2883680799411266,0.26284321337423117,0.21437914391000001,2.187485490430558,-0.08143535386020251,-0.31715829309701304,-0.4014997145580584,,NaN,NaN,NaN,NaN,NaN,NaN,NaN,,-0.050095312855367245,-0.06378742083726276,0.08431779928,-0.06541713947960498,,3.0249357e-06,-2.3841858e-07,-8.34465e-07,0.99999994,-1.4401972e-05,-1.2617558e-05,1.4401972e-05,0.9999999,-1.5199184e-06,1.2606382e-05,1.5199184e-06,1.0,85,0.256,0,0,0.0,False,-0.2589843698458485,1.05014262996886
0.2520507579902187,14:42:44.179378,14:42:34.030793,0,,0.080328524,0.011117473,0.015575692,-0.35192466,0.81038404,-0.46842986,0.7688196,0.5357134,0.34918138,0.53391516,-0.2372526,-0.81157005,,NaN,NaN,NaN,NaN,NaN,NaN,NaN,NaN,NaN,NaN,NaN,NaN,,0.106227584,1.3404024,0.4402498,0.99558187,0.012808376,-0.09301965,-0.05149077,-0.7539451,-0.65491635,-0.07852013,0.6568125,-0.7499546,,-0.051454026,0.25708884,-0.08326896,0.3414731,-0.7714101,0.5369568,0.93759775,0.23968907,-0.251912,0.065624796,0.5894706,0.80511975,,NaN,NaN,NaN,NaN,NaN,NaN,NaN,NaN,NaN,NaN,NaN,NaN,,1.288870057577951,0.2671602210509227,0.21467210545,2.1876951803740425,-0.08662754085128925,-0.32272586157341654,-0.401826402690327,,NaN,NaN,NaN,NaN,NaN,NaN,NaN,,-0.050095312855367245,-0.06378742083726276,0.08431779928,-0.06541713947960498,,3.0249357e-06,-2.3841858e-07,-8.34465e-07,0.99999994,-1.4401972e-05,-1.2617558e-05,1.4401972e-05,0.9999999,-1.5199184e-06,1.2606382e-05,1.5199184e-06,1.0,101,0.304,0,0,0.0,False,-0.2589843698458485,1.0500943497680806
0.3001442310051061,14:42:44.222489,14:42:34.030793,0,,0.080594204,0.011960551,0.01577565,-0.3504028,0.80839205,-0.47299054,0.76466537,0.5385346,0.3539313,0.54083705,-0.23766105,-0.80685353,,NaN,NaN,NaN,NaN,NaN,NaN,NaN,NaN,NaN,NaN,NaN,NaN,,0.106227584,1.3404024,0.4402498,0.99558187,0.012808376,-0.09301965,-0.05149077,-0.7539451,-0.65491635,-0.07852013,0.6568125,-0.7499546,,-0.051701944,0.25785556,-0.082854204,0.33931574,-0.7692918,0.5413455,0.93889475,0.24160737,-0.24515806,0.05780502,0.5914524,0.80426526,,NaN,NaN,NaN,NaN,NaN,NaN,NaN,NaN,NaN,NaN,NaN,NaN,,1.2897427263927386,0.2711992103441421,0.21482636396000002,2.1876951803740425,-0.09181972784237599,-0.3278033576089766,-0.4044399077484754,,NaN,NaN,NaN,NaN,NaN,NaN,NaN,,-0.050095312855367245,-0.06378742083726276,0.08431779928,-0.06541713947960498,,3.0249357e-06,-2.3841858e-07,-8.34465e-07,0.99999994,-1.4401972e-05,-1.2617558e-05,1.4401972e-05,0.9999999,-1.5199184e-06,1.2606382e-05,1.5199184e-06,1.0,116,0.351,0,0,0.0,False,-0.2583885926606384,1.0502874705711984
0.3432298880070448,14:42:44.275212,14:42:34.030793,0,,0.08088723,0.013265014,0.016229868,-0.35132235,0.8049925,-0.47807902,0.7562174,0.5450417,0.36202866,0.5520033,-0.23434304,-0.8002348,,NaN,NaN,NaN,NaN,NaN,NaN,NaN,NaN,NaN,NaN,NaN,NaN,,0.106227584,1.3404024,0.4402498,0.99558187,0.012808376,-0.09301965,-0.05149077,-0.7539451,-0.65491635,-0.07852013,0.6568125,-0.7499546,,-0.05197807,0.25913784,-0.08233144,0.33913517,-0.76589745,0.54624945,0.93971753,0.24877203,-0.23461336,0.043798197,0.5928858,0.8040946,,NaN,NaN,NaN,NaN,NaN,NaN,NaN,NaN,NaN,NaN,NaN,NaN,,1.291820141535905,0.2773465057120248,0.21496377070000003,2.1837110714478367,-0.10015455432806786,-0.33260524658345475,-0.40084633829352123,,NaN,NaN,NaN,NaN,NaN,NaN,NaN,,-0.050095312855367245,-0.06378742083726276,0.08431779928,-0.06541713947960498,,3.0249357e-06,-2.3841858e-07,-8.34465e-07,0.99999994,-1.4401972e-05,-1.2617558e-05,1.4401972e-05,0.9999999,-1.5199184e-06,1.2606382e-05,1.5199184e-06,1.0,136,0.412,0,0,0.0,False,-0.2580311263495121,1.0505288715750958
0.39594738301821053,14:42:44.331352,14:42:34.170425,0,,0.081019014,0.014303103,0.016699076,-0.3557765,0.8036581,-0.47702897,0.74818105,0.55079687,0.36992967,0.560043,-0.2252918,-0.7972424,,NaN,NaN,NaN,NaN,NaN,NaN,NaN,NaN,NaN,NaN,NaN,NaN,,0.106227584,1.3404024,0.4402498,0.99558187,0.012808376,-0.09301965,-0.05149077,-0.7539451,-0.65491635,-0.07852013,0.6568125,-0.7499546,,-0.052104324,0.26022995,-0.08200496,0.34271336,-0.76499325,0.54528236,0.93888956,0.25904378,-0.22667749,0.03215474,0.5896453,0.807022,,NaN,NaN,NaN,NaN,NaN,NaN,NaN,NaN,NaN,NaN,NaN,NaN,,1.2941215159324237,0.28217321375841514,0.21500006682000003,2.176371923425878,-0.10562001431868547,-0.3301088201989714,-0.40084633829352134,,NaN,NaN,NaN,NaN,NaN,NaN,NaN,,-0.050095312855367245,-0.06378742083726276,0.08431779928,-0.06541713947960498,,3.0249357e-06,-2.3841858e-07,-8.34465e-07,0.99999994,-1.4401972e-05,-1.2617558e-05,1.4401972e-05,0.9999999,-1.5199184e-06,1.2606382e-05,1.5199184e-06,1.0,155,0.469,0,0,0.0,False,-0.2580907040680329,1.0499495091657423
0.45209488400723785,14:42:44.389040,14:42:34.170425,0,,0.081149,0.015707642,0.017393857,-0.355086,0.796506,-0.4893792,0.7354514,0.5611754,0.37972802,0.5770832,-0.22507867,-0.7850571,,NaN,NaN,NaN,NaN,NaN,NaN,NaN,NaN,NaN,NaN,NaN,NaN,,0.106227584,1.3404024,0.4402498,0.99558187,0.012808376,-0.09301965,-0.05149077,-0.7539451,-0.65491635,-0.07852013,0.6568125,-0.7499546,,-0.05223118,0.2617472,-0.08161243,0.34035662,-0.75749713,0.5570955,0.9402315,0.26720968,-0.21110104,0.011047107,0.59564847,0.8031693,,NaN,NaN,NaN,NaN,NaN,NaN,NaN,NaN,NaN,NaN,NaN,NaN,,1.2972878364108558,0.2884595183180339,0.21502210375000003,2.1721781245561878,-0.12051339279311848,-0.3403442434945755,-0.40280646708713264,,NaN,NaN,NaN,NaN,NaN,NaN,NaN,,-0.050095312855367245,-0.06378742083726276,0.08431779928,-0.06541713947960498,,3.0249357e-06,-2.3841858e-07,-8.34465e-07,0.99999994,-1.4401972e-05,-1.2617558e-05,1.4401972e-05,0.9999999,-1.5199184e-06,1.2606382e-05,1.5199184e-06,1.0,171,0.518,0,0,0.0,False,-0.2587460589717643,1.0503840309727575
0.5098051929962821,14:42:44.439739,14:42:34.313687,0,,0.08138201,0.016934901,0.017979503,-0.3536441,0.79563636,-0.49183184,0.73245364,0.56257993,0.38342598,0.58176243,-0.22464772,-0.7817199,,NaN,NaN,NaN,NaN,NaN,NaN,NaN,NaN,NaN,NaN,NaN,NaN,,0.106227584,1.3404024,0.4402498,0.99558187,0.012808376,-0.09301965,-0.05149077,-0.7539451,-0.65491635,-0.07852013,0.6568125,-0.7499546,,-0.05245958,0.26305696,-0.081243925,0.33847946,-0.75660896,0.55944127,0.9409567,0.2685737,-0.20607927,0.005670207,0.59616363,0.8028429,,NaN,NaN,NaN,NaN,NaN,NaN,NaN,NaN,NaN,NaN,NaN,NaN,,1.3000216838483314,0.29452958635717436,0.21503895552000002,2.1721781245561878,-0.12065002929288392,-0.34456179881832893,-0.401826402690327,,NaN,NaN,NaN,NaN,NaN,NaN,NaN,,-0.050095312855367245,-0.06378742083726276,0.08431779928,-0.06541713947960498,,3.0249357e-06,-2.3841858e-07,-8.34465e-07,0.99999994,-1.4401972e-05,-1.2617558e-05,1.4401972e-05,0.9999999,-1.5199184e-06,1.2606382e-05,1.5199184e-06,1.0,187,0.568,0,0,0.0,False,-0.2580311263495121,1.049804668563404
0.5604595959885046,14:42:44.484724,14:42:34.313687,0,,0.081572056,0.01789388,0.018410534,-0.35175687,0.7971914,-0.49066573,0.72969747,0.5618411,0.38971287,0.58635193,-0.22095346,-0.77934015,,NaN,NaN,NaN,NaN,NaN,NaN,NaN,NaN,NaN,NaN,NaN,NaN,,0.106227584,1.3404024,0.4402498,0.99558187,0.012808376,-0.09301965,-0.05149077,-0.7539451,-0.65491635,-0.07852013,0.6568125,-0.7499546,,-0.052644134,0.26406306,-0.08093521,0.3361735,-0.75844646,0.55834246,0.9417999,0.27037817,-0.19977133,0.000552246,0.5930047,0.8051988,,NaN,NaN,NaN,NaN,NaN,NaN,NaN,NaN,NaN,NaN,NaN,NaN,,1.3020373171285038,0.2992172852118286,0.21508173309000003,2.1728071943866416,-0.12201639429053832,-0.34352929852150527,-0.40215309082259554,,NaN,NaN,NaN,NaN,NaN,NaN,NaN,,-0.050095312855367245,-0.06378742083726276,0.08431779928,-0.06541713947960498,,3.0249357e-06,-2.3841858e-07,-8.34465e-07,0.99999994,-1.4401972e-05,-1.2617558e-05,1.4401972e-05,0.9999999,-1.5199184e-06,1.2606382e-05,1.5199184e-06,1.0,202,0.613,0,0,0.0,False,-0.25725661600873906,1.05014262996886
0.6054550480330363,14:42:44.535040,14:42:34.313687,0,,0.08177439,0.01937884,0.018830255,-0.34754792,0.8020529,-0.4857173,0.72104865,0.55975264,0.40836978,0.5994158,-0.20829783,-0.77286017,,NaN,NaN,NaN,NaN,NaN,NaN,NaN,NaN,NaN,NaN,NaN,NaN,,0.106227584,1.3404024,0.4402498,0.99558187,0.012808376,-0.09301965,-0.05149077,-0.7539451,-0.65491635,-0.07852013,0.6568125,-0.7499546,,-0.05282079,0.265462,-0.08027646,0.33073965,-0.76426095,0.5536393,0.9436087,0.27690518,-0.18145563,-0.0146261435,0.5824334,0.8127468,,NaN,NaN,NaN,NaN,NaN,NaN,NaN,NaN,NaN,NaN,NaN,NaN,,1.3047788872988535,0.3056425989631834,0.21539673156000003,2.1736459541605795,-0.1324007682727118,-0.33448978665959334,-0.40198974675646126,,NaN,NaN,NaN,NaN,NaN,NaN,NaN,,-0.050095312855367245,-0.06378742083726276,0.08431779928,-0.06541713947960498,,3.0249357e-06,-2.3841858e-07,-8.34465e-07,0.99999994,-1.4401972e-05,-1.2617558e-05,1.4401972e-05,0.9999999,-1.5199184e-06,1.2606382e-05,1.5199184e-06,1.0,222,0.674,0,0,0.0,False,-0.25815028178655464,1.0499495091657423
0.6557703170110472,14:42:44.590232,14:42:34.313687,0,,0.08193397,0.020541832,0.018875241,-0.3480047,0.80719554,-0.47678915,0.7171467,0.55677444,0.4191693,0.6038156,-0.19605505,-0.77263784,,NaN,NaN,NaN,NaN,NaN,NaN,NaN,NaN,NaN,NaN,NaN,NaN,,0.106227584,1.3404024,0.4402498,0.99558187,0.012808376,-0.09301965,-0.05149077,-0.7539451,-0.65491635,-0.07852013,0.6568125,-0.7499546,,-0.05294026,0.2663737,-0.07954533,0.33074155,-0.77035916,0.54512084,0.9434982,0.28248227,-0.17324825,-0.0205236,0.57162094,0.8202611,,NaN,NaN,NaN,NaN,NaN,NaN,NaN,NaN,NaN,NaN,NaN,NaN,,1.3066323431886675,0.3103920796808315,0.21588932176000003,2.171758744669219,-0.13390376977013163,-0.32403449208304913,-0.4018264026903269,,NaN,NaN,NaN,NaN,NaN,NaN,NaN,,-0.050095312855367245,-0.06378742083726276,0.08431779928,-0.06541713947960498,,3.0249357e-06,-2.3841858e-07,-8.34465e-07,0.99999994,-1.4401972e-05,-1.2617558e-05,1.4401972e-05,0.9999999,-1.5199184e-06,1.2606382e-05,1.5199184e-06,1.0,238,0.722,0,0,0.0,False,-0.2575545046013441,1.0499977893665218
0.7109928189893253,14:42:44.646261,14:42:34.495332,0,,0.08219425,0.021951377,0.018813983,-0.34761858,0.8106197,-0.47122905,0.71422076,0.5545365,0.42705727,0.6074948,-0.18810868,-0.77172875,,NaN,NaN,NaN,NaN,NaN,NaN,NaN,NaN,NaN,NaN,NaN,NaN,,0.106227584,1.3404024,0.4402498,0.99558187,0.012808376,-0.09301965,-0.05149077,-0.7539451,-0.65491635,-0.07852013,0.6568125,-0.7499546,,-0.053143572,0.26740244,-0.07856622,0.32998988,-0.7744146,0.53980434,0.94364864,0.28586853,-0.16675252,-0.025177503,0.5644123,0.825109,,NaN,NaN,NaN,NaN,NaN,NaN,NaN,NaN,NaN,NaN,NaN,NaN,,1.3084549081469845,0.31614551567212873,0.21658154062,2.171129674838765,-0.13390376977013163,-0.31905208893447484,-0.40002961796284986,,NaN,NaN,NaN,NaN,NaN,NaN,NaN,,-0.050095312855367245,-0.06378742083726276,0.08431779928,-0.06541713947960498,,3.0249357e-06,-2.3841858e-07,-8.34465e-07,0.99999994,-1.4401972e-05,-1.2617558e-05,1.4401972e-05,0.9999999,-1.5199184e-06,1.2606382e-05,1.5199184e-06,1.0,257,0.781,0,0,0.0,False,-0.25826943722359585,1.0499012289649627
0.7670059190131724,14:42:44.695982,14:42:34.495332,0,,0.08275375,0.023812085,0.018879697,-0.3475343,0.8119906,-0.4689253,0.71202976,0.5539305,0.43147945,0.6101093,-0.18393494,-0.77067155,,NaN,NaN,NaN,NaN,NaN,NaN,NaN,NaN,NaN,NaN,NaN,NaN,,0.106227584,1.3404024,0.4402498,0.99558187,0.012808376,-0.09301965,-0.05149077,-0.7539451,-0.65491635,-0.07852013,0.6568125,-0.7499546,,-0.053637505,0.26885167,-0.07736812,0.32964113,-0.7760975,0.537596,0.94367385,0.28808823,-0.1627415,-0.02857181,0.56096154,0.82734865,,NaN,NaN,NaN,NaN,NaN,NaN,NaN,NaN,NaN,NaN,NaN,NaN,,1.3103469777011694,0.324547849039285,0.21734635172000003,2.1707102949517965,-0.1310344032750574,-0.32082011373111574,-0.401826402690327,,NaN,NaN,NaN,NaN,NaN,NaN,NaN,,-0.050095312855367245,-0.06378742083726276,0.08431779928,-0.06541713947960498,,3.0249357e-06,-2.3841858e-07,-8.34465e-07,0.99999994,-1.4401972e-05,-1.2617558e-05,1.4401972e-05,0.9999999,-1.5199184e-06,1.2606382e-05,1.5199184e-06,1.0,273,0.83,0,0,0.0,False,-0.2585077480976805,1.049804668563404
0.8167463369900361,14:42:44.747778,14:42:34.495332,0,,0.08389611,0.026773244,0.019238412,-0.34947565,0.8154571,-0.46140695,0.7051129,0.5531939,0.4436129,0.6169948,-0.17031218,-0.7683172,,NaN,NaN,NaN,NaN,NaN,NaN,NaN,NaN,NaN,NaN,NaN,NaN,,0.106227584,1.3404024,0.4402498,0.99558187,0.012808376,-0.09301965,-0.05149077,-0.7539451,-0.65491635,-0.07852013,0.6568125,-0.7499546,,-0.05469264,0.27131823,-0.07563464,0.33083698,-0.78053963,0.53038174,0.9429055,0.29629594,-0.15211174,-0.038420722,0.55042404,0.83400077,,NaN,NaN,NaN,NaN,NaN,NaN,NaN,NaN,NaN,NaN,NaN,NaN,,1.312640629364814,0.338788568459355,0.21834708760000002,2.1673552558560436,-0.13035122077623018,-0.31851844734467816,-0.40264312302099836,,NaN,NaN,NaN,NaN,NaN,NaN,NaN,,-0.050095312855367245,-0.06378742083726276,0.08431779928,-0.06541713947960498,,3.0249357e-06,-2.3841858e-07,-8.34465e-07,0.99999994,-1.4401972e-05,-1.2617558e-05,1.4401972e-05,0.9999999,-1.5199184e-06,1.2606382e-05,1.5199184e-06,1.0,296,0.899,0,0,0.0,False,-0.25815028178655464,1.0497563883626244
0.8685469650081359,14:42:44.815778,14:42:34.495332,0,,0.085410595,0.03000313,0.019762143,-0.341861,0.8227494,-0.4541083,0.70350295,0.5444403,0.45680228,0.62306863,-0.16330373,-0.76492965,,NaN,NaN,NaN,NaN,NaN,NaN,NaN,NaN,NaN,NaN,NaN,NaN,,0.106227584,1.3404024,0.4402498,0.99558187,0.012808376,-0.09301965,-0.05149077,-0.7539451,-0.65491635,-0.07852013,0.6568125,-0.7499546,,-0.056120466,0.2740897,-0.073823504,0.32275936,-0.78862447,0.5233525,0.9454819,0.29404545,-0.14000449,-0.04347846,0.54000807,0.8405361,,NaN,NaN,NaN,NaN,NaN,NaN,NaN,NaN,NaN,NaN,NaN,NaN,,1.3144323033916343,0.3551067030225914,0.21933745316000003,2.1753234737084557,-0.12679867178232873,-0.31937334433727105,-0.4021530908225954,,NaN,NaN,NaN,NaN,NaN,NaN,NaN,,-0.050095312855367245,-0.06378742083726276,0.08431779928,-0.06541713947960498,,3.0249357e-06,-2.3841858e-07,-8.34465e-07,0.99999994,-1.4401972e-05,-1.2617558e-05,1.4401972e-05,0.9999999,-1.5199184e-06,1.2606382e-05,1.5199184e-06,1.0,312,0.949,0,0,0.0,False,-0.25791197091247,1.0499495091657423
0.9365413680206984,14:42:44.866927,14:42:34.700891,0,,0.086766355,0.032662556,0.020139903,-0.32796085,0.8315382,-0.4483143,0.7052802,0.5312474,0.46942103,0.6285074,-0.16223559,-0.76069593,,NaN,NaN,NaN,NaN,NaN,NaN,NaN,NaN,NaN,NaN,NaN,NaN,,0.106227584,1.3404024,0.4402498,0.99558187,0.012808376,-0.09301965,-0.05149077,-0.7539451,-0.65491635,-0.07852013,0.6568125,-0.7499546,,-0.057400756,0.27633512,-0.07228325,0.3085854,-0.79794586,0.51774263,0.9501138,0.28453845,-0.12775645,-0.04537497,0.5313382,0.84594375,,NaN,NaN,NaN,NaN,NaN,NaN,NaN,NaN,NaN,NaN,NaN,NaN,,1.315389922268038,0.3685828718881132,0.22022670810000003,2.1904211496393415,-0.12379266878748904,-0.32084439333690556,-0.40247977895486403,,NaN,NaN,NaN,NaN,NaN,NaN,NaN,,-0.050095312855367245,-0.06378742083726276,0.08431779928,-0.06541713947960498,,3.0249357e-06,-2.3841858e-07,-8.34465e-07,0.99999994,-1.4401972e-05,-1.2617558e-05,1.4401972e-05,0.9999999,-1.5199184e-06,1.2606382e-05,1.5199184e-06,1.0,328,0.998,0,0,0.0,False,-0.2583290149421176,1.0500943497680806
0.9876438219798729,14:42:44.913062,14:42:34.700891,0,,0.08801852,0.034926057,0.020396337,-0.31328806,0.8395871,-0.44378373,0.7089236,0.5177023,0.4789694,0.63188434,-0.16455343,-0.7573932,,NaN,NaN,NaN,NaN,NaN,NaN,NaN,NaN,NaN,NaN,NaN,NaN,,0.106227584,1.3404024,0.4402498,0.99558187,0.012808376,-0.09301965,-0.05149077,-0.7539451,-0.65491635,-0.07852013,0.6568125,-0.7499546,,-0.05858379,0.2782023,-0.07091538,0.2938551,-0.8063041,0.5133448,0.95481634,0.27258176,-0.11842695,-0.0444403,0.5249504,0.8499719,,NaN,NaN,NaN,NaN,NaN,NaN,NaN,NaN,NaN,NaN,NaN,NaN,,1.3157528907131266,0.38013608026795304,0.22105503741000002,2.2067769652311346,-0.11942030079499495,-0.323674657593926,-0.4026431230209983,,NaN,NaN,NaN,NaN,NaN,NaN,NaN,,-0.050095312855367245,-0.06378742083726276,0.08431779928,-0.06541713947960498,,3.0249357e-06,-2.3841858e-07,-8.34465e-07,0.99999994,-1.4401972e-05,-1.2617558e-05,1.4401972e-05,0.9999999,-1.5199184e-06,1.2606382e-05,1.5199184e-06,1.0,344,1.047,0,0,0.0,False,-0.2587460589717643,1.0502874705711984
1.033827615028713,14:42:44.966309,14:42:34.828743,0,,0.08918921,0.036866814,0.020512655,-0.29716036,0.846637,-0.44147623,0.7153902,0.50364006,0.4843176,0.6323863,-0.17190787,-0.7553379,,NaN,NaN,NaN,NaN,NaN,NaN,NaN,NaN,NaN,NaN,NaN,NaN,,0.106227584,1.3404024,0.4402498,0.99558187,0.012808376,-0.09301965,-0.05149077,-0.7539451,-0.65491635,-0.07852013,0.6568125,-0.7499546,,-0.059687607,0.27973443,-0.06965649,0.27798083,-0.81333077,0.51109654,0.95977885,0.25698453,-0.11306416,-0.039385337,0.5219693,0.8520545,,NaN,NaN,NaN,NaN,NaN,NaN,NaN,NaN,NaN,NaN,NaN,NaN,,1.315598436055642,0.3901061284085769,0.22186003350000003,2.2252296802577725,-0.11231520280719205,-0.3294683885861399,-0.4026431230209983,,NaN,NaN,NaN,NaN,NaN,NaN,NaN,,-0.050095312855367245,-0.06378742083726276,0.08431779928,-0.06541713947960498,,3.0249357e-06,-2.3841858e-07,-8.34465e-07,0.99999994,-1.4401972e-05,-1.2617558e-05,1.4401972e-05,0.9999999,-1.5199184e-06,1.2606382e-05,1.5199184e-06,1.0,360,1.096,0,0,0.0,False,-0.25910352528289105,1.0505771517758753
1.0870326660224237,14:42:45.014080,14:42:34.828743,0,,0.09016159,0.03883013,0.020216957,-0.27980775,0.85224617,-0.44202262,0.72131944,0.49045926,0.48902756,0.6335659,-0.1820059,-0.7519762,,NaN,NaN,NaN,NaN,NaN,NaN,NaN,NaN,NaN,NaN,NaN,NaN,,0.106227584,1.3404024,0.4402498,0.99558187,0.012808376,-0.09301965,-0.05149077,-0.7539451,-0.65491635,-0.07852013,0.6568125,-0.7499546,,-0.060563896,0.28102016,-0.068085976,0.26081803,-0.81869555,0.51157755,0.96474975,0.24030551,-0.1072899,-0.035097133,0.52152747,0.85251236,,NaN,NaN,NaN,NaN,NaN,NaN,NaN,NaN,NaN,NaN,NaN,NaN,,1.3154671495967802,0.39876331196058257,0.22306299062,2.2445211550583486,-0.10671310631680898,-0.3371403147630346,-0.40198974675646115,,NaN,NaN,NaN,NaN,NaN,NaN,NaN,,-0.050095312855367245,-0.06378742083726276,0.08431779928,-0.06541713947960498,,3.0249357e-06,-2.3841858e-07,-8.34465e-07,0.99999994,-1.4401972e-05,-1.2617558e-05,1.4401972e-05,0.9999999,-1.5199184e-06,1.2606382e-05,1.5199184e-06,1.0,401,1.222,0,0,0.0,False,-0.25922268071993226,1.0508668329805522
1.1348426560289226,14:42:45.141835,14:42:34.944597,0,,0.09408942,0.042831123,0.020170152,-0.22691415,0.8628165,-0.45172715,0.73800987,0.45498836,0.49832416,0.6354929,-0.2203024,-0.74001056,,NaN,NaN,NaN,NaN,NaN,NaN,NaN,NaN,NaN,NaN,NaN,NaN,,0.106227584,1.3404024,0.4402498,0.99558187,0.012808376,-0.09301965,-0.05149077,-0.7539451,-0.65491635,-0.07852013,0.6568125,-0.7499546,,-0.06432887,0.28396612,-0.0651561,0.20856968,-0.82783914,0.5207504,0.9777677,0.18829188,-0.09228471,-0.02165618,0.52842075,0.84870636,,NaN,NaN,NaN,NaN,NaN,NaN,NaN,NaN,NaN,NaN,NaN,NaN,,1.3083158989552484,0.42217091530235706,0.22492705564,2.305331238668861,-0.09400591183862303,-0.37127069318770534,-0.40476659588074393,,NaN,NaN,NaN,NaN,NaN,NaN,NaN,,-0.050095312855367245,-0.06378742083726276,0.08431779928,-0.06541713947960498,,3.0249357e-06,-2.3841858e-07,-8.34465e-07,0.99999994,-1.4401972e-05,-1.2617558e-05,1.4401972e-05,0.9999999,-1.5199184e-06,1.2606382e-05,1.5199184e-06,1.0,417,1.272,0,0,0.0,False,-0.25952056931253775,1.0502874705711984
1.2625749179860577,14:42:45.192145,14:42:34.944597,0,,0.095446244,0.044356048,0.018205479,-0.20517543,0.86858535,-0.45106798,0.74665236,0.43688196,0.5016417,0.6327821,-0.23386657,-0.7381689,,NaN,NaN,NaN,NaN,NaN,NaN,NaN,NaN,NaN,NaN,NaN,NaN,,0.106227584,1.3404024,0.4402498,0.99558187,0.012808376,-0.09301965,-0.05149077,-0.7539451,-0.65491635,-0.07852013,0.6568125,-0.7499546,,-0.065486945,0.28382954,-0.062574126,0.18740845,-0.83330005,0.52008563,0.9822048,0.16561356,-0.088577114,-0.012321921,0.5274307,0.8495087,,NaN,NaN,NaN,NaN,NaN,NaN,NaN,NaN,NaN,NaN,NaN,NaN,,1.3027246403543098,0.42675049589677216,0.22730315521000002,2.331332791660942,-0.08936027084659805,-0.3785710877394278,-0.403623187417804,,NaN,NaN,NaN,NaN,NaN,NaN,NaN,,-0.050095312855367245,-0.06378742083726276,0.08431779928,-0.06541713947960498,,3.0249357e-06,-2.3841858e-07,-8.34465e-07,0.99999994,-1.4401972e-05,-1.2617558e-05,1.4401972e-05,0.9999999,-1.5199184e-06,1.2606382e-05,1.5199184e-06,1.0,433,1.321,0,0,0.0,False,-0.2593418361569748,1.0508185527797727
1.3128655930049717,14:42:45.237742,14:42:34.944597,0,,0.09769448,0.046264708,0.018536374,-0.18565065,0.8765033,-0.4441574,0.7497884,0.41851696,0.51250476,0.6350995,-0.23787716,-0.7348899,,NaN,NaN,NaN,NaN,NaN,NaN,NaN,NaN,NaN,NaN,NaN,NaN,,0.106265135,1.3404,0.44024622,0.99558127,0.012799476,-0.093027376,-0.051502522,-0.7539453,-0.6549153,-0.07852013,0.6568125,-0.7499546,,-0.06771693,0.28545773,-0.061415713,0.16790614,-0.8415804,0.5133712,0.9857467,0.14890054,-0.078308135,-0.010538659,0.51920235,0.85458636,,NaN,NaN,NaN,NaN,NaN,NaN,NaN,NaN,NaN,NaN,NaN,NaN,,1.29819139615714,0.4393462732146324,0.22793185586000003,2.354188995500755,-0.0851245393538694,-0.38235175771457913,-0.4032964992855354,,NaN,NaN,NaN,NaN,NaN,NaN,NaN,,-0.050095312855367245,-0.06378742083726276,0.08431779928,-0.06541713947960498,,4.0810555e-05,-2.3841858e-07,-1.1920929e-07,0.99999994,-2.3253262e-05,-2.0362437e-05,2.3256987e-05,1.0,-2.413988e-06,2.0366162e-05,2.4437904e-06,1.0,445,1.358,0,0,0.0,False,-0.259282258438454,1.050335750771978
1.3584996570134535,14:42:45.274529,14:42:35.131951,0,,0.099249296,0.04725957,0.018627003,-0.17347388,0.88220036,-0.43775472,0.7505899,0.4062016,0.52116716,0.6375905,-0.23816538,-0.7326361,,NaN,NaN,NaN,NaN,NaN,NaN,NaN,NaN,NaN,NaN,NaN,NaN,,0.106265135,1.3404,0.44024622,0.99558127,0.012799476,-0.093027376,-0.051502522,-0.7539453,-0.6549153,-0.07852013,0.6568125,-0.7499546,,-0.069236614,0.2862463,-0.06071994,0.15562189,-0.8476922,0.5071487,0.98775584,0.13923733,-0.070366025,-0.010965295,0.5118896,0.85898125,,NaN,NaN,NaN,NaN,NaN,NaN,NaN,NaN,NaN,NaN,NaN,NaN,,1.294098347733801,0.4465670284520323,0.22832203915000002,2.368867291544672,-0.08498790285410396,-0.3824631756182756,-0.4032964992855354,,NaN,NaN,NaN,NaN,NaN,NaN,NaN,,-0.050095312855367245,-0.06378742083726276,0.08431779928,-0.06541713947960498,,4.0810555e-05,-2.3841858e-07,-1.1920929e-07,0.99999994,-2.3253262e-05,-2.0362437e-05,2.3256987e-05,1.0,-2.413988e-06,2.0366162e-05,2.4437904e-06,1.0,478,1.46,0,0,0.0,False,-0.2587460589717643,1.050335750771978
1.3952817700337619,14:42:45.375636,14:42:35.131951,0,,0.10322465,0.049446374,0.018067926,-0.14113042,0.89731354,-0.4182231,0.75286764,0.37160352,0.5432324,0.6428629,-0.23819996,-0.7280028,,NaN,NaN,NaN,NaN,NaN,NaN,NaN,NaN,NaN,NaN,NaN,NaN,,0.106265135,1.3404,0.44024622,0.99558127,0.012799476,-0.093027376,-0.051502522,-0.7539453,-0.6549153,-0.07852013,0.6568125,-0.7499546,,-0.07307957,0.2874783,-0.058572397,0.12309308,-0.86402774,0.4881641,0.99233437,0.11260823,-0.050910886,-0.010982876,0.49068877,0.8712657,,NaN,NaN,NaN,NaN,NaN,NaN,NaN,NaN,NaN,NaN,NaN,NaN,,1.281371283957079,0.46208972152922356,0.22982443926,2.4087083808067313,-0.08621763135199292,-0.37941844598149377,-0.4054199721452812,,NaN,NaN,NaN,NaN,NaN,NaN,NaN,,-0.050095312855367245,-0.06378742083726276,0.08431779928,-0.06541713947960498,,4.0810555e-05,-2.3841858e-07,-1.1920929e-07,0.99999994,-2.3253262e-05,-2.0362437e-05,2.3256987e-05,1.0,-2.413988e-06,2.0366162e-05,2.4437904e-06,1.0,494,1.51,0,0,0.0,False,-0.2593418361569748,1.0505288715750958
1.49639763799496,14:42:45.420499,14:42:35.278155,0,,0.10436697,0.04979177,0.017592788,-0.12676112,0.9024562,-0.41170886,0.75529075,0.35687172,0.54970783,0.6430145,-0.24127828,-0.7268543,,NaN,NaN,NaN,NaN,NaN,NaN,NaN,NaN,NaN,NaN,NaN,NaN,,0.106265135,1.3404,0.44024622,0.99558127,0.012799476,-0.093027376,-0.051502522,-0.7539453,-0.6549153,-0.07852013,0.6568125,-0.7499546,,-0.07417212,0.28741303,-0.057900045,0.10884768,-0.86947924,0.48182777,0.9940228,0.09930674,-0.045352153,-0.008415987,0.48388425,0.87509155,,NaN,NaN,NaN,NaN,NaN,NaN,NaN,NaN,NaN,NaN,NaN,NaN,,1.27658318957506,0.4649703008913093,0.23036369590000003,2.4259029561724623,-0.08621763135199292,-0.37786654991882307,-0.40460325181460965,,NaN,NaN,NaN,NaN,NaN,NaN,NaN,,-0.050095312855367245,-0.06378742083726276,0.08431779928,-0.06541713947960498,,4.0810555e-05,-2.3841858e-07,-1.1920929e-07,0.99999994,-2.3253262e-05,-2.0362437e-05,2.3256987e-05,1.0,-2.413988e-06,2.0366162e-05,2.4437904e-06,1.0,510,1.559,0,0,0.0,False,-0.2596993024681016,1.0506254319766548
1.5412596630048938,14:42:45.476676,14:42:35.278155,0,,0.10559504,0.050301462,0.017674133,-0.11714492,0.905956,-0.40684244,0.75679284,0.34670392,0.554131,0.6430721,-0.24298182,-0.72623557,,NaN,NaN,NaN,NaN,NaN,NaN,NaN,NaN,NaN,NaN,NaN,NaN,,0.106265135,1.3404,0.44024622,0.99558127,0.012799476,-0.093027376,-0.051502522,-0.7539453,-0.6549153,-0.07852013,0.6568125,-0.7499546,,-0.075383276,0.28783205,-0.05753663,0.09931308,-0.8732219,0.47709584,0.9950334,0.09039997,-0.041670017,-0.006742282,0.47886467,0.8778628,,NaN,NaN,NaN,NaN,NaN,NaN,NaN,NaN,NaN,NaN,NaN,NaN,,1.2727913277338156,0.4697738407390769,0.23054647279,2.4378552829510802,-0.08430472035527677,-0.3786096131691673,-0.40460325181460965,,NaN,NaN,NaN,NaN,NaN,NaN,NaN,,-0.050095312855367245,-0.06378742083726276,0.08431779928,-0.06541713947960498,,4.0810555e-05,-2.3841858e-07,-1.1920929e-07,0.99999994,-2.3253262e-05,-2.0362437e-05,2.3256987e-05,1.0,-2.413988e-06,2.0366162e-05,2.4437904e-06,1.0,526,1.608,0,0,0.0,False,-0.26005676877922745,1.0503840309727575
1.5974446550244465,14:42:45.519665,14:42:35.278155,0,,0.10613388,0.05064699,0.017604426,-0.11207455,0.9073268,-0.40521255,0.7579738,0.34175315,0.5555905,0.6425848,-0.24487293,-0.7260317,,NaN,NaN,NaN,NaN,NaN,NaN,NaN,NaN,NaN,NaN,NaN,NaN,,0.106265135,1.3404,0.44024622,0.99558127,0.012799476,-0.093027376,-0.051502522,-0.7539453,-0.6549153,-0.07852013,0.6568125,-0.7499546,,-0.07590279,0.28804034,-0.057218343,0.0943365,-0.8746373,0.47551042,0.99552673,0.085380994,-0.04045569,-0.005215494,0.47719976,0.87877935,,NaN,NaN,NaN,NaN,NaN,NaN,NaN,NaN,NaN,NaN,NaN,NaN,,1.2712390584260966,0.47205976966984736,0.23078499015000004,2.443936291312131,-0.08252844585832604,-0.37964965221651803,-0.4050932840130125,,NaN,NaN,NaN,NaN,NaN,NaN,NaN,,-0.050095312855367245,-0.06378742083726276,0.08431779928,-0.06541713947960498,,4.0810555e-05,-2.3841858e-07,-1.1920929e-07,0.99999994,-2.3253262e-05,-2.0362437e-05,2.3256987e-05,1.0,-2.413988e-06,2.0366162e-05,2.4437904e-06,1.0,555,1.697,0,0,0.0,False,-0.2594014138754961,1.0506737121774343
1.6404261239804327,14:42:45.613425,14:42:35.425009,0,,0.106812686,0.051103264,0.017644957,-0.11154539,0.91067696,-0.39777505,0.75465506,0.33805516,0.5623297,0.64657056,-0.23745766,-0.7249554,,NaN,NaN,NaN,NaN,NaN,NaN,NaN,NaN,NaN,NaN,NaN,NaN,,0.106265135,1.3404,0.44024622,0.99558127,0.012799476,-0.093027376,-0.051502522,-0.7539453,-0.6549153,-0.07852013,0.6568125,-0.7499546,,-0.07656553,0.28840196,-0.05690111,0.093406186,-0.8786352,0.46826854,0.99557436,0.08731281,-0.034759305,-0.010345096,0.46944287,0.8829022,,NaN,NaN,NaN,NaN,NaN,NaN,NaN,NaN,NaN,NaN,NaN,NaN,,1.2693469888719116,0.4750870809565434,0.23100017429000003,2.445404120916523,-0.0864909043515238,-0.3741315282853861,-0.40476659588074404,,NaN,NaN,NaN,NaN,NaN,NaN,NaN,,-0.050095312855367245,-0.06378742083726276,0.08431779928,-0.06541713947960498,,4.0810555e-05,-2.3841858e-07,-1.1920929e-07,0.99999994,-2.3253262e-05,-2.0362437e-05,2.3256987e-05,1.0,-2.413988e-06,2.0366162e-05,2.4437904e-06,1.0,567,1.735,0,0,0.0,False,-0.2593418361569748,1.0506254319766548
1.7341914069838822,14:42:45.655076,14:42:35.425009,0,,0.10704084,0.051180795,0.017656133,-0.11335568,0.9118179,-0.3946371,0.75219214,0.33826002,0.56549746,0.6491207,-0.23274057,-0.7242059,,NaN,NaN,NaN,NaN,NaN,NaN,NaN,NaN,NaN,NaN,NaN,NaN,,0.106265135,1.3404,0.44024622,0.99558127,0.012799476,-0.093027376,-0.051502522,-0.7539453,-0.6549153,-0.07852013,0.6568125,-0.7499546,,-0.07679089,0.2884642,-0.05684172,0.09494053,-0.8800973,0.46520424,0.99538434,0.09050606,-0.031917527,-0.014013272,0.46608725,0.88462776,,NaN,NaN,NaN,NaN,NaN,NaN,NaN,NaN,NaN,NaN,NaN,NaN,,1.2684743200571242,0.4758052951138463,0.23103258154000003,2.443936291312131,-0.0899068168456598,-0.37126440195283494,-0.40460325181460977,,NaN,NaN,NaN,NaN,NaN,NaN,NaN,,-0.050095312855367245,-0.06378742083726276,0.08431779928,-0.06541713947960498,,4.0810555e-05,-2.3841858e-07,-1.1920929e-07,0.99999994,-2.3253262e-05,-2.0362437e-05,2.3256987e-05,1.0,-2.413988e-06,2.0366162e-05,2.4437904e-06,1.0,583,1.784,0,0,0.0,False,-0.2602355019347904,1.0501909101696396
1.7758385210181586,14:42:45.707725,14:42:35.425009,0,,0.10727359,0.05113864,0.017526895,-0.11440474,0.9131276,-0.391292,0.7507554,0.33741876,0.5679041,0.65059817,-0.22879368,-0.7241378,,NaN,NaN,NaN,NaN,NaN,NaN,NaN,NaN,NaN,NaN,NaN,NaN,,0.106265135,1.3404,0.44024622,0.99558127,0.012799476,-0.093027376,-0.051502522,-0.7539453,-0.6549153,-0.07852013,0.6568125,-0.7499546,,-0.07701536,0.2883442,-0.056752976,0.09582934,-0.88171184,0.46195346,0.99526685,0.09240068,-0.030100422,-0.016144913,0.46265146,0.88639325,,NaN,NaN,NaN,NaN,NaN,NaN,NaN,NaN,NaN,NaN,NaN,NaN,,1.2671073963383865,0.47589024517546274,0.23110906265000003,2.4435169114251623,-0.09263954684096863,-0.36830093521764146,-0.40476659588074404,,NaN,NaN,NaN,NaN,NaN,NaN,NaN,,-0.050095312855367245,-0.06378742083726276,0.08431779928,-0.06541713947960498,,4.0810555e-05,-2.3841858e-07,-1.1920929e-07,0.99999994,-2.3253262e-05,-2.0362437e-05,2.3256987e-05,1.0,-2.413988e-06,2.0366162e-05,2.4437904e-06,1.0,599,1.833,0,0,0.0,False,-0.2590439475643693,1.05105995378367
1.8284580300096422,14:42:45.748855,14:42:35.425009,0,,0.1076483,0.05142179,0.017654523,-0.11344579,0.91347516,-0.39075962,0.75113714,0.33628926,0.5680692,0.65032536,-0.22906904,-0.7242958,,NaN,NaN,NaN,NaN,NaN,NaN,NaN,NaN,NaN,NaN,NaN,NaN,,0.106265135,1.3404,0.44024622,0.99558127,0.012799476,-0.093027376,-0.051502522,-0.7539453,-0.6549153,-0.07852013,0.6568125,-0.7499546,,-0.077387445,0.28863585,-0.05663742,0.09490668,-0.88208044,0.46143994,0.99536365,0.0913562,-0.030086571,-0.015616623,0.46215597,0.8866612,,NaN,NaN,NaN,NaN,NaN,NaN,NaN,NaN,NaN,NaN,NaN,NaN,,1.2664200731125805,0.4779908285172518,0.23115961796000004,2.444984741029554,-0.09099990884378334,-0.3696379500619985,-0.40476659588074404,,NaN,NaN,NaN,NaN,NaN,NaN,NaN,,-0.050095312855367245,-0.06378742083726276,0.08431779928,-0.06541713947960498,,4.0810555e-05,-2.3841858e-07,-1.1920929e-07,0.99999994,-2.3253262e-05,-2.0362437e-05,2.3256987e-05,1.0,-2.413988e-06,2.0366162e-05,2.4437904e-06,1.0,632,1.935,0,0,0.0,False,-0.26017592421626956,1.0503840309727575
1.8696237840340473,14:42:45.853051,14:42:35.636588,0,,0.10819501,0.052176237,0.017951205,-0.107039936,0.9151309,-0.38868725,0.75066125,0.33072895,0.5719496,0.6519588,-0.23055097,-0.7223545,,NaN,NaN,NaN,NaN,NaN,NaN,NaN,NaN,NaN,NaN,NaN,NaN,,0.106265135,1.3404,0.44024622,0.99558127,0.012799476,-0.093027376,-0.051502522,-0.7539453,-0.6549153,-0.07852013,0.6568125,-0.7499546,,-0.07792558,0.28939283,-0.056331623,0.08838852,-0.8838311,0.4593801,0.99594665,0.086133294,-0.025910929,-0.016667036,0.4598083,0.8878618,,NaN,NaN,NaN,NaN,NaN,NaN,NaN,NaN,NaN,NaN,NaN,NaN,,1.266335123050964,0.48229239072819485,0.23134628372000002,2.451694819221059,-0.0894969073463635,-0.37029179582167526,-0.40525662807914675,,NaN,NaN,NaN,NaN,NaN,NaN,NaN,,-0.050095312855367245,-0.06378742083726276,0.08431779928,-0.06541713947960498,,4.0810555e-05,-2.3841858e-07,-1.1920929e-07,0.99999994,-2.3253262e-05,-2.0362437e-05,2.3256987e-05,1.0,-2.413988e-06,2.0366162e-05,2.4437904e-06,1.0,644,1.973,0,0,0.0,False,-0.2599376133421849,1.0509151131813312
1.973817192018032,14:42:45.895337,14:42:35.636588,0,,0.10832952,0.052283987,0.017915487,-0.10146619,0.91572165,-0.38879085,0.7519242,0.3264824,0.57272977,0.65139437,-0.23422854,-0.72168016,,NaN,NaN,NaN,NaN,NaN,NaN,NaN,NaN,NaN,NaN,NaN,NaN,,0.106265135,1.3404,0.44024622,0.99558127,0.012799476,-0.093027376,-0.051502522,-0.7539453,-0.6549153,-0.07852013,0.6568125,-0.7499546,,-0.078053184,0.2894493,-0.05622435,0.08291861,-0.88431716,0.45946455,0.99644357,0.0805063,-0.024878103,-0.014989661,0.45989338,0.8878476,,NaN,NaN,NaN,NaN,NaN,NaN,NaN,NaN,NaN,NaN,NaN,NaN,,1.2660030455373723,0.4829024866252586,0.23143443144000003,2.4575661376386257,-0.08813054234870908,-0.37140597485863946,-0.40525662807914675,,NaN,NaN,NaN,NaN,NaN,NaN,NaN,,-0.050095312855367245,-0.06378742083726276,0.08431779928,-0.06541713947960498,,4.0810555e-05,-2.3841858e-07,-1.1920929e-07,0.99999994,-2.3253262e-05,-2.0362437e-05,2.3256987e-05,1.0,-2.413988e-06,2.0366162e-05,2.4437904e-06,1.0,660,2.022,0,0,0.0,False,-0.2589247921273281,1.0505771517758753
2.01608601299813,14:42:45.943910,14:42:35.784813,0,,0.10841864,0.05225925,0.017833352,-0.10321721,0.91577256,-0.3882094,0.75163436,0.32743615,0.57256585,0.6514539,-0.2326929,-0.7221232,,NaN,NaN,NaN,NaN,NaN,NaN,NaN,NaN,NaN,NaN,NaN,NaN,,0.106265135,1.3404,0.44024622,0.99558127,0.012799476,-0.093027376,-0.051502522,-0.7539453,-0.6549153,-0.07852013,0.6568125,-0.7499546,,-0.078137144,0.28937566,-0.056171194,0.08464924,-0.884441,0.45891017,0.9962925,0.082226865,-0.025300356,-0.015358071,0.4593504,0.8881224,,NaN,NaN,NaN,NaN,NaN,NaN,NaN,NaN,NaN,NaN,NaN,NaN,,1.2654161178389312,0.48285615022801326,0.23148498675,2.4560983080342336,-0.08867708834777085,-0.3710419819839943,-0.4050932840130125,,NaN,NaN,NaN,NaN,NaN,NaN,NaN,,-0.050095312855367245,-0.06378742083726276,0.08431779928,-0.06541713947960498,,4.0810555e-05,-2.3841858e-07,-1.1920929e-07,0.99999994,-2.3253262e-05,-2.0362437e-05,2.3256987e-05,1.0,-2.413988e-06,2.0366162e-05,2.4437904e-06,1.0,697,2.135,0,0,0.0,False,-0.259580147031059,1.0499977893665218
2.064668887993321,14:42:46.054039,14:42:35.879305,0,,0.10842064,0.051842555,0.017617315,-0.103924036,0.9164372,-0.38644874,0.75607175,0.3252384,0.5679575,0.64618534,-0.23315853,-0.7266922,,NaN,NaN,NaN,NaN,NaN,NaN,NaN,NaN,NaN,NaN,NaN,NaN,,0.106265135,1.3404,0.44024622,0.99558127,0.012799476,-0.093027376,-0.051502522,-0.7539453,-0.6549153,-0.07852013,0.6568125,-0.7499546,,-0.07813925,0.28891838,-0.05627699,0.085888185,-0.8851515,0.4573074,0.99626815,0.08024016,-0.03180129,-0.00854546,0.45833215,0.8887399,,NaN,NaN,NaN,NaN,NaN,NaN,NaN,NaN,NaN,NaN,NaN,NaN,,1.2642808761064201,0.4812884354545457,0.23141239451000004,2.4560983080342336,-0.08362153785644955,-0.36961029009120366,-0.404766595880744,,NaN,NaN,NaN,NaN,NaN,NaN,NaN,,-0.050095312855367245,-0.06378742083726276,0.08431779928,-0.06541713947960498,,4.0810555e-05,-2.3841858e-07,-1.1920929e-07,0.99999994,-2.3253262e-05,-2.0362437e-05,2.3256987e-05,1.0,-2.413988e-06,2.0366162e-05,2.4437904e-06,1.0,713,2.186,0,0,0.0,False,-0.25868648125324345,1.0503840309727575
2.174807589035481,14:42:46.101329,14:42:35.879305,0,,0.10830645,0.051607683,0.017641932,-0.10354817,0.9177365,-0.38345468,0.75955313,0.321867,0.56522644,0.6421503,-0.23272602,-0.7303983,,NaN,NaN,NaN,NaN,NaN,NaN,NaN,NaN,NaN,NaN,NaN,NaN,,0.106265135,1.3404,0.44024622,0.99558127,0.012799476,-0.093027376,-0.051502522,-0.7539453,-0.6549153,-0.07852013,0.6568125,-0.7499546,,-0.0780358,0.28875756,-0.05645656,0.085925795,-0.88660115,0.4544834,0.9962964,0.077930875,-0.036335666,-0.0032030467,0.45592234,0.8900138,,NaN,NaN,NaN,NaN,NaN,NaN,NaN,NaN,NaN,NaN,NaN,NaN,,1.2644276080310306,0.48049299396850054,0.23125424713000003,2.456517687921203,-0.07883926036465913,-0.366322187588209,-0.4050932840130126,,NaN,NaN,NaN,NaN,NaN,NaN,NaN,,-0.050095312855367245,-0.06378742083726276,0.08431779928,-0.06541713947960498,,4.0810555e-05,-2.3841858e-07,-1.1920929e-07,0.99999994,-2.3253262e-05,-2.0362437e-05,2.3256987e-05,1.0,-2.413988e-06,2.0366162e-05,2.4437904e-06,1.0,729,2.235,0,0,0.0,False,-0.259580147031059,1.0501909101696396
2.2220984090236016,14:42:46.150383,14:42:35.879305,0,,0.10813287,0.05120489,0.01791291,-0.100293726,0.92119926,-0.37594298,0.76258284,0.31386596,0.56564635,0.63906866,-0.22995687,-0.7339694,,NaN,NaN,NaN,NaN,NaN,NaN,NaN,NaN,NaN,NaN,NaN,NaN,,0.106265135,1.3404,0.44024622,0.99558127,0.012799476,-0.093027376,-0.051502522,-0.7539453,-0.6549153,-0.07852013,0.6568125,-0.7499546,,-0.07789668,0.28862962,-0.056936223,0.08301016,-0.8905423,0.44726247,0.9965478,0.07357338,-0.03846372,0.0013469565,0.44891128,0.8935753,,NaN,NaN,NaN,NaN,NaN,NaN,NaN,NaN,NaN,NaN,NaN,NaN,,1.2648446356062386,0.47951992962634826,0.23080054563000002,2.459663037073471,-0.07515007487099225,-0.35781376862819303,-0.40672672467435544,,NaN,NaN,NaN,NaN,NaN,NaN,NaN,,-0.050095312855367245,-0.06378742083726276,0.08431779928,-0.06541713947960498,,4.0810555e-05,-2.3841858e-07,-1.1920929e-07,0.99999994,-2.3253262e-05,-2.0362437e-05,2.3256987e-05,1.0,-2.413988e-06,2.0366162e-05,2.4437904e-06,1.0,762,2.336,0,0,0.0,False,-0.259282258438454,1.050335750771978
2.2711426410241984,14:42:46.252635,14:42:35.879305,0,,0.10753463,0.05025986,0.019098103,-0.09658266,0.93546194,-0.3399746,0.75986254,0.28991675,0.58185685,0.6428692,-0.20213668,-0.73882335,,NaN,NaN,NaN,NaN,NaN,NaN,NaN,NaN,NaN,NaN,NaN,NaN,,0.106265135,1.3404,0.44024622,0.99558127,0.012799476,-0.093027376,-0.051502522,-0.7539453,-0.6549153,-0.07852013,0.6568125,-0.7499546,,-0.07741857,0.288689,-0.05849298,0.07894305,-0.9076006,0.412346,0.9968746,0.07312096,-0.0299062,-0.0030082501,0.41341814,0.91053635,,NaN,NaN,NaN,NaN,NaN,NaN,NaN,NaN,NaN,NaN,NaN,NaN,,1.2671537327356317,0.47749657361330144,0.22930462697000004,2.4619696264518005,-0.08020562536231354,-0.3158740495063451,-0.4057466602775497,,NaN,NaN,NaN,NaN,NaN,NaN,NaN,,-0.050095312855367245,-0.06378742083726276,0.08431779928,-0.06541713947960498,,4.0810555e-05,-2.3841858e-07,-1.1920929e-07,0.99999994,-2.3253262e-05,-2.0362437e-05,2.3256987e-05,1.0,-2.413988e-06,2.0366162e-05,2.4437904e-06,1.0,778,2.386,0,0,0.0,False,-0.25856732581620134,1.0499012289649627
2.3734047359903343,14:42:46.308871,14:42:36.161693,0,,0.10724959,0.050061792,0.01986438,-0.10154755,0.9467961,-0.3053933,0.7525795,0.27387726,0.59884524,0.65062463,-0.16902146,-0.7403509,,NaN,NaN,NaN,NaN,NaN,NaN,NaN,NaN,NaN,NaN,NaN,NaN,,0.106265135,1.3404,0.44024622,0.99558127,0.012799476,-0.093027376,-0.051502522,-0.7539453,-0.6549153,-0.07852013,0.6568125,-0.7499546,,-0.0771957,0.28903994,-0.05922431,0.083078034,-0.9218216,0.3786066,0.9964449,0.08217401,-0.018575743,-0.0139881,0.37880382,0.9253713,,NaN,NaN,NaN,NaN,NaN,NaN,NaN,NaN,NaN,NaN,NaN,NaN,,1.2689376840295776,0.47752746454479833,0.22858129715000003,2.4556789281472646,-0.08963354384612894,-0.27657654171689444,-0.40394987555007256,,NaN,NaN,NaN,NaN,NaN,NaN,NaN,,-0.050095312855367245,-0.06378742083726276,0.08431779928,-0.06541713947960498,,4.0810555e-05,-2.3841858e-07,-1.1920929e-07,0.99999994,-2.3253262e-05,-2.0362437e-05,2.3256987e-05,1.0,-2.413988e-06,2.0366162e-05,2.4437904e-06,1.0,798,2.448,0,0,0.0,False,-0.2594014138754961,1.049514987358727
2.42961968499003,14:42:46.362212,14:42:36.161693,0,,0.10700055,0.050004795,0.020549461,-0.11153899,0.9605146,-0.25489336,0.74218553,0.25108337,0.6213838,0.6608477,-0.11986968,-0.7408857,,NaN,NaN,NaN,NaN,NaN,NaN,NaN,NaN,NaN,NaN,NaN,NaN,,0.10625858,1.3404006,0.44024694,0.9955811,0.012796587,-0.09302989,-0.051506337,-0.75394535,-0.6549149,-0.07852013,0.6568125,-0.7499546,,-0.07699051,0.28944534,-0.05979947,0.09193822,-0.9397964,0.32913545,0.9953352,0.09644015,-0.0026592293,-0.029242741,0.3278446,0.94427896,,NaN,NaN,NaN,NaN,NaN,NaN,NaN,NaN,NaN,NaN,NaN,NaN,,1.2709533173097503,0.4778054829282704,0.22789296716000002,2.442258771764255,-0.10452692232056193,-0.2080736595169966,-0.4029698111532669,,NaN,NaN,NaN,NaN,NaN,NaN,NaN,,-0.050095312855367245,-0.06378742083726276,0.08431779928,-0.06541713947960498,,3.4198165e-05,-3.5762787e-07,-4.7683716e-07,0.99999994,-2.612546e-05,-2.2884458e-05,2.6129186e-05,1.0,-2.7120113e-06,2.2877008e-05,2.7418137e-06,1.0,827,2.537,0,0,0.0,False,-0.25880563669028556,1.0499495091657423
2.482975413033273,14:42:46.459007,14:42:36.298999,0,,0.10693401,0.049672022,0.021739632,-0.13368171,0.9809034,-0.14127132,0.73234886,0.19381961,0.65276265,0.66767836,-0.016197473,-0.7442737,,NaN,NaN,NaN,NaN,NaN,NaN,NaN,NaN,NaN,NaN,NaN,NaN,,0.10625858,1.3404006,0.44024694,0.9955811,0.012796587,-0.09302989,-0.051506337,-0.75394535,-0.6549149,-0.07852013,0.6568125,-0.7499546,,-0.07702026,0.28996462,-0.06092248,0.11316789,-0.9695301,0.21726575,0.99266624,0.11968274,0.01702097,-0.042505305,0.21374615,0.97596407,,NaN,NaN,NaN,NaN,NaN,NaN,NaN,NaN,NaN,NaN,NaN,NaN,,1.27190321345328,0.4789021109964103,0.22685723145000003,2.4206607075853492,-0.11176865680813029,-0.09998840670524291,-0.4028064670871326,,NaN,NaN,NaN,NaN,NaN,NaN,NaN,,-0.050095312855367245,-0.06378742083726276,0.08431779928,-0.06541713947960498,,3.4198165e-05,-3.5762787e-07,-4.7683716e-07,0.99999994,-2.612546e-05,-2.2884458e-05,2.6129186e-05,1.0,-2.7120113e-06,2.2877008e-05,2.7418137e-06,1.0,847,2.599,0,0,0.0,False,-0.2591631030014119,1.049514987358727
2.579759426997043,14:42:46.514251,14:42:36.298999,0,,0.107089594,0.04940763,0.02255544,-0.1416722,0.982001,-0.1249115,0.7347894,0.18887469,0.65146834,0.6633352,0.00051128864,-0.74832225,,NaN,NaN,NaN,NaN,NaN,NaN,NaN,NaN,NaN,NaN,NaN,NaN,,0.10625858,1.3404006,0.44024694,0.9955811,0.012796587,-0.09302989,-0.051506337,-0.75394535,-0.6549149,-0.07852013,0.6568125,-0.7499546,,-0.07724254,0.29028937,-0.061700143,0.12152883,-0.97198313,0.20119524,0.99185055,0.12672901,0.01312174,-0.038251385,0.19796094,0.9794633,,NaN,NaN,NaN,NaN,NaN,NaN,NaN,NaN,NaN,NaN,NaN,NaN,,1.2722430136997458,0.4804543803041294,0.22603149472000003,2.412692489732937,-0.10521010481938914,-0.084099993646125,-0.4034598433516698,,NaN,NaN,NaN,NaN,NaN,NaN,NaN,,-0.050095312855367245,-0.06378742083726276,0.08431779928,-0.06541713947960498,,3.4198165e-05,-3.5762787e-07,-4.7683716e-07,0.99999994,-2.612546e-05,-2.2884458e-05,2.6129186e-05,1.0,-2.7120113e-06,2.2877008e-05,2.7418137e-06,1.0,863,2.648,0,0,0.0,False,-0.25963972474957986,1.0496598279610654
2.635011548001785,14:42:46.565348,14:42:36.298999,0,,0.107124,0.049040243,0.023039326,-0.144183,0.98057836,-0.13295525,0.74408764,0.19600771,0.63868195,0.652338,-0.006843269,-0.75789726,,NaN,NaN,NaN,NaN,NaN,NaN,NaN,NaN,NaN,NaN,NaN,NaN,,0.10625858,1.3404006,0.44024694,0.9955811,0.012796587,-0.09302989,-0.051506337,-0.75394535,-0.6549149,-0.07852013,0.6568125,-0.7499546,,-0.077324435,0.29032272,-0.062302206,0.1251484,-0.96978456,0.20941764,0.99184555,0.12741742,-0.0026762234,-0.024088092,0.20804489,0.9778226,,NaN,NaN,NaN,NaN,NaN,NaN,NaN,NaN,NaN,NaN,NaN,NaN,,1.2725828139462116,0.48091002154370865,0.22541057181000002,2.410595590298092,-0.0901800898451907,-0.09431399454921725,-0.4042765636823411,,NaN,NaN,NaN,NaN,NaN,NaN,NaN,,-0.050095312855367245,-0.06378742083726276,0.08431779928,-0.06541713947960498,,3.4198165e-05,-3.5762787e-07,-4.7683716e-07,0.99999994,-2.612546e-05,-2.2884458e-05,2.6129186e-05,1.0,-2.7120113e-06,2.2877008e-05,2.7418137e-06,1.0,888,2.725,0,0,0.0,False,-0.25922268071993226,1.0487907843470352
2.686110769980587,14:42:46.643548,14:42:36.468129,0,,0.10688395,0.04812944,0.023457155,-0.14414756,0.978493,-0.14755586,0.7533278,0.20519839,0.6248128,0.64165324,-0.021092698,-0.76670486,,NaN,NaN,NaN,NaN,NaN,NaN,NaN,NaN,NaN,NaN,NaN,NaN,,0.10625858,1.3404006,0.44024694,0.9955811,0.012796587,-0.09302989,-0.051506337,-0.75394535,-0.6549149,-0.07852013,0.6568125,-0.7499546,,-0.07714809,0.28990442,-0.06322724,0.12620565,-0.9663639,0.22408229,0.9919537,0.12521495,-0.018684916,-0.010002024,0.2246374,0.9743911,,NaN,NaN,NaN,NaN,NaN,NaN,NaN,NaN,NaN,NaN,NaN,NaN,,1.2727063776721992,0.4787399336060516,0.22453557606000002,2.411014970185061,-0.07760953186677018,-0.10979188105828402,-0.4042765636823411,,NaN,NaN,NaN,NaN,NaN,NaN,NaN,,-0.050095312855367245,-0.06378742083726276,0.08431779928,-0.06541713947960498,,3.4198165e-05,-3.5762787e-07,-4.7683716e-07,0.99999994,-2.612546e-05,-2.2884458e-05,2.6129186e-05,1.0,-2.7120113e-06,2.2877008e-05,2.7418137e-06,1.0,904,2.775,0,0,0.0,False,-0.25922268071993226,1.0486942239454764
2.7643137800041586,14:42:46.687663,14:42:36.468129,0,,0.106621124,0.047433868,0.023656026,-0.14064915,0.97864145,-0.14992861,0.7558542,0.20394674,0.6221658,0.6394547,-0.025817096,-0.76839525,,NaN,NaN,NaN,NaN,NaN,NaN,NaN,NaN,NaN,NaN,NaN,NaN,,0.10625858,1.3404006,0.44024694,0.9955811,0.012796587,-0.09302989,-0.051506337,-0.75394535,-0.6549149,-0.07852013,0.6568125,-0.7499546,,-0.076925695,0.28950843,-0.0638487,0.12296611,-0.96622515,0.22646925,0.99239004,0.12119723,-0.02175365,-0.0064285225,0.22742079,0.9737754,,NaN,NaN,NaN,NaN,NaN,NaN,NaN,NaN,NaN,NaN,NaN,NaN,,1.2726832094735765,0.476345886415042,0.22397428249,2.414579699224298,-0.07624316686911577,-0.11131445379595105,-0.40411321961620683,,NaN,NaN,NaN,NaN,NaN,NaN,NaN,,-0.050095312855367245,-0.06378742083726276,0.08431779928,-0.06541713947960498,,3.4198165e-05,-3.5762787e-07,-4.7683716e-07,0.99999994,-2.612546e-05,-2.2884458e-05,2.6129186e-05,1.0,-2.7120113e-06,2.2877008e-05,2.7418137e-06,1.0,916,2.812,0,0,0.0,False,-0.25779281547542787,1.0491770259532711
2.808427867013961,14:42:46.723991,14:42:36.596519,0,,0.10649585,0.047133207,0.023802012,-0.13808602,0.97846,-0.15345378,0.7567807,0.20418762,0.6209594,0.6389174,-0.030385062,-0.7686751,,NaN,NaN,NaN,NaN,NaN,NaN,NaN,NaN,NaN,NaN,NaN,NaN,,0.10625858,1.3404006,0.44024694,0.9955811,0.012796587,-0.09302989,-0.051506337,-0.75394535,-0.6549149,-0.07852013,0.6568125,-0.7499546,,-0.076822154,0.2893764,-0.06416374,0.12048302,-0.9657137,0.2299586,0.99270165,0.11842298,-0.022791058,-0.005222746,0.23102622,0.97293353,,NaN,NaN,NaN,NaN,NaN,NaN,NaN,NaN,NaN,NaN,NaN,NaN,,1.2728222186653126,0.47539599027151236,0.22368391353000003,2.417095978546112,-0.07596989386958489,-0.11447772424840412,-0.40443990774847544,,NaN,NaN,NaN,NaN,NaN,NaN,NaN,,-0.050095312855367245,-0.06378742083726276,0.08431779928,-0.06541713947960498,,3.4198165e-05,-3.5762787e-07,-4.7683716e-07,0.99999994,-2.612546e-05,-2.2884458e-05,2.6129186e-05,1.0,-2.7120113e-06,2.2877008e-05,2.7418137e-06,1.0,928,2.849,0,0,0.0,False,-0.2587460589717643,1.048549383343138
2.8447289949981496,14:42:46.769672,14:42:36.596519,0,,0.106337145,0.047004595,0.024092615,-0.13500859,0.97734475,-0.1630022,0.75937504,0.20773561,0.61660004,0.6364922,-0.040533513,-0.7702173,,NaN,NaN,NaN,NaN,NaN,NaN,NaN,NaN,NaN,NaN,NaN,NaN,,0.10625858,1.3404006,0.44024694,0.9955811,0.012796587,-0.09302989,-0.051506337,-0.75394535,-0.6549149,-0.07852013,0.6568125,-0.7499546,,-0.07668915,0.28946966,-0.064479634,0.117681585,-0.96375656,0.23942506,0.9930503,0.1145658,-0.026940342,-0.0014659918,0.24093151,0.970541,,NaN,NaN,NaN,NaN,NaN,NaN,NaN,NaN,NaN,NaN,NaN,NaN,,1.2738647876033329,0.4753342084085186,0.22337539651000002,2.4198219478114114,-0.07200743537638712,-0.12416146392670475,-0.40329649928553546,,NaN,NaN,NaN,NaN,NaN,NaN,NaN,,-0.050095312855367245,-0.06378742083726276,0.08431779928,-0.06541713947960498,,3.4198165e-05,-3.5762787e-07,-4.7683716e-07,0.99999994,-2.612546e-05,-2.2884458e-05,2.6129186e-05,1.0,-2.7120113e-06,2.2877008e-05,2.7418137e-06,1.0,949,2.914,0,0,0.0,False,-0.2584481703791588,1.0480183011345638
2.8904151910101064,14:42:46.830856,14:42:36.596519,0,,0.10615241,0.047311097,0.024450794,-0.13161904,0.97726965,-0.16619375,0.75805515,0.20725688,0.61838263,0.6387714,-0.04459311,-0.76810324,,NaN,NaN,NaN,NaN,NaN,NaN,NaN,NaN,NaN,NaN,NaN,NaN,,0.10625858,1.3404006,0.44024694,0.9955811,0.012796587,-0.09302989,-0.051506337,-0.75394535,-0.6549149,-0.07852013,0.6568125,-0.7499546,,-0.07651896,0.28993842,-0.0645671,0.11409366,-0.9634133,0.24252321,0.9934628,0.11157134,-0.02415645,-0.0037859944,0.24369387,0.9698448,,NaN,NaN,NaN,NaN,NaN,NaN,NaN,NaN,NaN,NaN,NaN,NaN,,1.2759808164108704,0.4765930138670172,0.22327039702,2.422128537189741,-0.07255398137544887,-0.1266562269569793,-0.4039498755500726,,NaN,NaN,NaN,NaN,NaN,NaN,NaN,,-0.050095312855367245,-0.06378742083726276,0.08431779928,-0.06541713947960498,,3.4198165e-05,-3.5762787e-07,-4.7683716e-07,0.99999994,-2.612546e-05,-2.2884458e-05,2.6129186e-05,1.0,-2.7120113e-06,2.2877008e-05,2.7418137e-06,1.0,965,2.964,0,0,0.0,False,-0.2561842170753601,1.0481631417369022
2.951624804001767,14:42:46.877139,14:42:36.596519,0,,0.10595801,0.04748395,0.024621591,-0.13088928,0.97653234,-0.17103326,0.75905114,0.2096869,0.6163384,0.6377378,-0.049150914,-0.76868373,,NaN,NaN,NaN,NaN,NaN,NaN,NaN,NaN,NaN,NaN,NaN,NaN,,0.10625858,1.3404006,0.44024694,0.9955811,0.012796587,-0.09302989,-0.051506337,-0.75394535,-0.6549149,-0.07852013,0.6568125,-0.7499546,,-0.07633084,0.29018417,-0.064599775,0.11347565,-0.9622679,0.2473131,0.99353814,0.11048008,-0.026003279,-0.00230105,0.24866574,0.9685866,,NaN,NaN,NaN,NaN,NaN,NaN,NaN,NaN,NaN,NaN,NaN,NaN,,1.2776025903144574,0.47710271423671596,0.22323798977000003,2.422128537189741,-0.06982125138014007,-0.1310899110147029,-0.40247977895486403,,NaN,NaN,NaN,NaN,NaN,NaN,NaN,,-0.050095312855367245,-0.06378742083726276,0.08431779928,-0.06541713947960498,,3.4198165e-05,-3.5762787e-07,-4.7683716e-07,0.99999994,-2.612546e-05,-2.2884458e-05,2.6129186e-05,1.0,-2.7120113e-06,2.2877008e-05,2.7418137e-06,1.0,977,3.001,0,0,0.0,False,-0.2546351963938136,1.0488390645478147
2.997895286011044,14:42:46.916550,14:42:36.773343,0,,0.10585959,0.047495842,0.024685517,-0.1291379,0.9767288,-0.17124304,0.75909734,0.20848373,0.61668944,0.63803965,-0.050352186,-0.76835537,,NaN,NaN,NaN,NaN,NaN,NaN,NaN,NaN,NaN,NaN,NaN,NaN,,0.10625858,1.3404006,0.44024694,0.9955811,0.012796587,-0.09302989,-0.051506337,-0.75394535,-0.6549149,-0.07852013,0.6568125,-0.7499546,,-0.07623681,0.29023638,-0.06464817,0.11171025,-0.9624233,0.24751201,0.993738,0.108782016,-0.025519479,-0.0023643135,0.24881288,0.9685487,,NaN,NaN,NaN,NaN,NaN,NaN,NaN,NaN,NaN,NaN,NaN,NaN,,1.2781740725471502,0.47702548690797375,0.22319650849000003,2.4235963667941327,-0.06982125138014007,-0.1309265535344218,-0.4014997145580584,,NaN,NaN,NaN,NaN,NaN,NaN,NaN,,-0.050095312855367245,-0.06378742083726276,0.08431779928,-0.06541713947960498,,3.4198165e-05,-3.5762787e-07,-4.7683716e-07,0.99999994,-2.612546e-05,-2.2884458e-05,2.6129186e-05,1.0,-2.7120113e-06,2.2877008e-05,2.7418137e-06,1.0,1006,3.09,0,0,0.0,False,-0.25576717304571295,1.048742504146256
3.0373185810167342,14:42:47.009540,14:42:36.773343,0,,0.10587929,0.046980888,0.025034025,-0.13576595,0.9761837,-0.16921237,0.7710214,0.21135993,0.6007105,0.62216854,-0.048910335,-0.78135407,,NaN,NaN,NaN,NaN,NaN,NaN,NaN,NaN,NaN,NaN,NaN,NaN,,0.10625858,1.3404006,0.44024694,0.9955811,0.012796587,-0.09302989,-0.051506337,-0.75394535,-0.6549149,-0.07852013,0.6568125,-0.7499546,,-0.076299936,0.2900699,-0.06524425,0.11987398,-0.96187574,0.24581558,0.9926457,0.11191585,-0.046145346,0.016875431,0.24953939,0.9682176,,NaN,NaN,NaN,NaN,NaN,NaN,NaN,NaN,NaN,NaN,NaN,NaN,,1.278166349814276,0.4768401413189923,0.22260151138000003,2.4177250483765658,-0.049872322414385765,-0.13118453440654912,-0.4008463382935213,,NaN,NaN,NaN,NaN,NaN,NaN,NaN,,-0.050095312855367245,-0.06378742083726276,0.08431779928,-0.06541713947960498,,3.4198165e-05,-3.5762787e-07,-4.7683716e-07,0.99999994,-2.612546e-05,-2.2884458e-05,2.6129186e-05,1.0,-2.7120113e-06,2.2877008e-05,2.7418137e-06,1.0,1039,3.192,0,0,0.0,False,-0.2548735072678969,1.0482597021384612
3.130282349011395,14:42:47.107760,14:42:36.889863,0,,0.10587498,0.045650825,0.025860772,-0.14165558,0.98334104,-0.11390286,0.7986255,0.18151149,0.57380384,0.5849197,-0.009683222,-0.8110334,,NaN,NaN,NaN,NaN,NaN,NaN,NaN,NaN,NaN,NaN,NaN,NaN,,0.10625858,1.3404006,0.44024694,0.9955811,0.012796587,-0.09302989,-0.051506337,-0.75394535,-0.6549149,-0.07852013,0.6568125,-0.7499546,,-0.0764028,0.2895933,-0.066732496,0.12938434,-0.9728717,0.19178182,0.9896208,0.11449194,-0.086845875,0.062532425,0.20102778,0.9775876,,NaN,NaN,NaN,NaN,NaN,NaN,NaN,NaN,NaN,NaN,NaN,NaN,,1.2781122906841564,0.47584390877821736,0.22114318513000003,2.4135312495068755,-0.004099094992963213,-0.08062320775360535,-0.39888620949990994,,NaN,NaN,NaN,NaN,NaN,NaN,NaN,,-0.050095312855367245,-0.06378742083726276,0.08431779928,-0.06541713947960498,,3.4198165e-05,-3.5762787e-07,-4.7683716e-07,0.99999994,-2.612546e-05,-2.2884458e-05,2.6129186e-05,1.0,-2.7120113e-06,2.2877008e-05,2.7418137e-06,1.0,1055,3.242,0,0,0.0,False,-0.254694774112334,1.0482597021384612
3.2285081149893813,14:42:47.152629,14:42:37.017872,0,,0.10573383,0.044982,0.026397198,-0.13937794,0.983737,-0.11329204,0.7997294,0.1792927,0.5729634,0.5839578,-0.010744512,-0.8117129,,NaN,NaN,NaN,NaN,NaN,NaN,NaN,NaN,NaN,NaN,NaN,NaN,,0.10625858,1.3404006,0.44024694,0.9955811,0.012796587,-0.09302989,-0.051506337,-0.75394535,-0.6549149,-0.07852013,0.6568125,-0.7499546,,-0.076324485,0.28943434,-0.06758314,0.12722227,-0.9732733,0.19118987,0.9897974,0.1121079,-0.08793694,0.064152785,0.20042677,0.977606,,NaN,NaN,NaN,NaN,NaN,NaN,NaN,NaN,NaN,NaN,NaN,NaN,,1.278197240745773,0.474523321456725,0.22032263356,2.415837838885205,-0.003689185493666892,-0.0792422079217428,-0.4003563060951184,,NaN,NaN,NaN,NaN,NaN,NaN,NaN,,-0.050095312855367245,-0.06378742083726276,0.08431779928,-0.06541713947960498,,3.4198165e-05,-3.5762787e-07,-4.7683716e-07,0.99999994,-2.612546e-05,-2.2884458e-05,2.6129186e-05,1.0,-2.7120113e-06,2.2877008e-05,2.7418137e-06,1.0,1076,3.307,0,0,0.0,False,-0.23342552860032528,1.0489356249493738
3.273331994016189,14:42:47.219318,14:42:37.017872,0,,0.105291635,0.043344885,0.027456328,-0.13438272,0.98533344,-0.10516239,0.8063705,0.17041786,0.5663254,0.575941,-0.008695498,-0.81744504,,NaN,NaN,NaN,NaN,NaN,NaN,NaN,NaN,NaN,NaN,NaN,NaN,,0.10625858,1.3404006,0.44024694,0.9955811,0.012796587,-0.09302989,-0.051506337,-0.75394535,-0.6549149,-0.07852013,0.6568125,-0.7499546,,-0.076018535,0.28888237,-0.06948027,0.12305187,-0.9753355,0.18324551,0.9895684,0.10665147,-0.0968497,0.07491755,0.1932515,0.97828484,,NaN,NaN,NaN,NaN,NaN,NaN,NaN,NaN,NaN,NaN,NaN,NaN,,1.2785756546566098,0.4706465095538643,0.21852597562000003,2.421080087472318,0.0038258219934323326,-0.0695245170377769,-0.3912090383915988,,NaN,NaN,NaN,NaN,NaN,NaN,NaN,,-0.050095312855367245,-0.06378742083726276,0.08431779928,-0.06541713947960498,,3.4198165e-05,-3.5762787e-07,-4.7683716e-07,0.99999994,-2.612546e-05,-2.2884458e-05,2.6129186e-05,1.0,-2.7120113e-06,2.2877008e-05,2.7418137e-06,1.0,1088,3.345,0,0,0.0,False,-0.0785830381641599,1.04927358635483
3.340047817036975,14:42:47.258327,14:42:37.017872,0,,0.10485664,0.04230036,0.028205007,-0.12810196,0.9859628,-0.107084595,0.809967,0.16631724,0.5623987,0.5723142,-0.014690638,-0.81990284,,NaN,NaN,NaN,NaN,NaN,NaN,NaN,NaN,NaN,NaN,NaN,NaN,,0.10625858,1.3404006,0.44024694,0.9955811,0.012796587,-0.09302989,-0.051506337,-0.75394535,-0.6549149,-0.07852013,0.6568125,-0.7499546,,-0.07567607,0.28858015,-0.07075784,0.117178746,-0.9756914,0.18519032,0.9898443,0.09963269,-0.10139818,0.08048232,0.1951913,0.9774574,,NaN,NaN,NaN,NaN,NaN,NaN,NaN,NaN,NaN,NaN,NaN,NaN,,1.279579609930259,0.467850880253395,0.21732820366000002,2.427161095833369,0.007105097987802903,-0.06950314830185245,-0.36556402000851695,,NaN,NaN,NaN,NaN,NaN,NaN,NaN,,-0.050095312855367245,-0.06378742083726276,0.08431779928,-0.06541713947960498,,3.4198165e-05,-3.5762787e-07,-4.7683716e-07,0.99999994,-2.612546e-05,-2.2884458e-05,2.6129186e-05,1.0,-2.7120113e-06,2.2877008e-05,2.7418137e-06,1.0,1109,3.409,0,0,0.0,False,0.09836278584330849,1.0486459437446969
3.379066691035405,14:42:47.326430,14:42:37.153507,0,,0.10397486,0.040744558,0.029414847,-0.11688001,0.986278,-0.116595715,0.81664103,0.16225424,0.55386925,0.5651873,-0.030480623,-0.82439935,,NaN,NaN,NaN,NaN,NaN,NaN,NaN,NaN,NaN,NaN,NaN,NaN,,0.10625858,1.3404006,0.44024694,0.9955811,0.012796587,-0.09302989,-0.051506337,-0.75394535,-0.6549149,-0.07852013,0.6568125,-0.7499546,,-0.074939534,0.28819555,-0.07275067,0.106739834,-0.9750428,0.19467433,0.99010694,0.08629933,-0.11063762,0.09107615,0.20455784,0.97460824,,NaN,NaN,NaN,NaN,NaN,NaN,NaN,NaN,NaN,NaN,NaN,NaN,,1.2823829619636025,0.4633021905904768,0.21548099041000002,2.4376455930075958,0.014483468975136688,-0.07519300014089697,-0.2936926309094341,,NaN,NaN,NaN,NaN,NaN,NaN,NaN,,-0.050095312855367245,-0.06378742083726276,0.08431779928,-0.06541713947960498,,3.4198165e-05,-3.5762787e-07,-4.7683716e-07,0.99999994,-2.612546e-05,-2.2884458e-05,2.6129186e-05,1.0,-2.7120113e-06,2.2877008e-05,2.7418137e-06,1.0,1142,3.512,0,0,0.0,False,0.3734926899734403,1.0498529487641832
3.447163855016697,14:42:47.426151,14:42:37.153507,0,,0.10219781,0.038445458,0.031188503,-0.09923392,0.9851936,-0.13980682,0.8283118,0.15964249,0.53704184,0.55140936,-0.06251091,-0.8318895,,NaN,NaN,NaN,NaN,NaN,NaN,NaN,NaN,NaN,NaN,NaN,NaN,,0.10625858,1.3404006,0.44024694,0.9955811,0.012796587,-0.09302989,-0.051506337,-0.75394535,-0.6549149,-0.07852013,0.6568125,-0.7499546,,-0.073377624,0.2876264,-0.07572155,0.09054943,-0.9718017,0.21772061,0.9897488,0.06356902,-0.12789194,0.11044532,0.22706926,0.9675957,,NaN,NaN,NaN,NaN,NaN,NaN,NaN,NaN,NaN,NaN,NaN,NaN,,1.2887928302492089,0.45525510293553484,0.21280026269000002,2.4535820287124195,0.029103574450038815,-0.09046354418217711,-0.0527601333613722,,NaN,NaN,NaN,NaN,NaN,NaN,NaN,,-0.050095312855367245,-0.06378742083726276,0.08431779928,-0.06541713947960498,,3.4198165e-05,-3.5762787e-07,-4.7683716e-07,0.99999994,-2.612546e-05,-2.2884458e-05,2.6129186e-05,1.0,-2.7120113e-06,2.2877008e-05,2.7418137e-06,1.0,1158,3.562,0,0,0.0,False,0.5733759356115065,1.0494667071579475
3.5468767060083337,14:42:47.476557,14:42:37.346275,0,,0.101181805,0.036780268,0.03247194,-0.094396085,0.9842178,-0.14968173,0.8333479,0.16037333,0.5289724,0.54462904,-0.074804015,-0.8353345,,NaN,NaN,NaN,NaN,NaN,NaN,NaN,NaN,NaN,NaN,NaN,NaN,,0.106251895,1.3403986,0.4402436,0.99558175,0.012806047,-0.09302167,-0.051493846,-0.7539452,-0.65491605,-0.07852013,0.6568125,-0.7499546,,-0.07251227,0.2872087,-0.07785611,0.08637949,-0.9699386,0.2275034,0.98910284,0.05616522,-0.13609198,0.11922308,0.23677982,0.9642205,,NaN,NaN,NaN,NaN,NaN,NaN,NaN,NaN,NaN,NaN,NaN,NaN,,1.292306673706981,0.449895526320823,0.21087008688000003,2.4575661376386257,0.03511558043971819,-0.09520257446453852,0.07889518394285687,,NaN,NaN,NaN,NaN,NaN,NaN,NaN,,-0.050095312855367245,-0.06378742083726276,0.08431779928,-0.06541713947960498,,2.79136e-05,-1.0728836e-06,3.9339066e-06,1.0,-1.6715378e-05,-1.4644116e-05,1.6719103e-05,1.0,-1.758337e-06,1.4636666e-05,1.758337e-06,0.99999994,1175,3.614,0,0,0.0,False,0.6098374993463791,1.0498529487641832
3.5973099429975264,14:42:47.529852,14:42:37.346275,0,,0.09993067,0.034681365,0.034030452,-0.09324715,0.9830772,-0.15768337,0.8379911,0.16301508,0.52076584,0.537658,-0.08357732,-0.8390106,,NaN,NaN,NaN,NaN,NaN,NaN,NaN,NaN,NaN,NaN,NaN,NaN,,0.106251895,1.3403986,0.4402436,0.99558175,0.012806047,-0.09302167,-0.051493846,-0.7539452,-0.65491605,-0.07852013,0.6568125,-0.7499546,,-0.07145205,0.28664318,-0.08049352,0.085895985,-0.9680864,0.23543693,0.9880988,0.05250992,-0.14458047,0.1276036,0.24505383,0.9610754,,NaN,NaN,NaN,NaN,NaN,NaN,NaN,NaN,NaN,NaN,NaN,NaN,,1.2962684356714582,0.4428060575422849,0.20847843183000003,2.4577758275821098,0.040171130931039495,-0.09679299595694868,0.1888257404512268,,NaN,NaN,NaN,NaN,NaN,NaN,NaN,,-0.050095312855367245,-0.06378742083726276,0.08431779928,-0.06541713947960498,,2.79136e-05,-1.0728836e-06,3.9339066e-06,1.0,-1.6715378e-05,-1.4644116e-05,1.6719103e-05,1.0,-1.758337e-06,1.4636666e-05,1.758337e-06,0.99999994,1191,3.664,0,0,0.0,False,0.6291406801471937,1.0493218665556094
3.6505796380224638,14:42:47.579944,14:42:37.346275,0,,0.098356254,0.032262385,0.03566186,-0.093709886,0.9816805,-0.16589728,0.8415601,0.16713838,0.51365495,0.531973,-0.09147795,-0.8418056,,NaN,NaN,NaN,NaN,NaN,NaN,NaN,NaN,NaN,NaN,NaN,NaN,,0.106251895,1.3403986,0.4402436,0.99558175,0.012806047,-0.09302167,-0.051493846,-0.7539452,-0.65491605,-0.07852013,0.6568125,-0.7499546,,-0.070086494,0.28588697,-0.08341842,0.08688898,-0.9659859,0.24356021,0.98713917,0.050552685,-0.15165995,0.13418876,0.2536054,0.95795494,,NaN,NaN,NaN,NaN,NaN,NaN,NaN,NaN,NaN,NaN,NaN,NaN,,1.3010796982521,0.4335619462918382,0.20588325925000003,2.4560983080342336,0.04249395142705198,-0.09656345307613325,0.24044246534965907,,NaN,NaN,NaN,NaN,NaN,NaN,NaN,,-0.050095312855367245,-0.06378742083726276,0.08431779928,-0.06541713947960498,,2.79136e-05,-1.0728836e-06,3.9339066e-06,1.0,-1.6715378e-05,-1.4644116e-05,1.6719103e-05,1.0,-1.758337e-06,1.4636666e-05,1.758337e-06,0.99999994,1208,3.716,0,0,0.0,False,0.6959273026092716,1.0496115477602863
3.7006558179855347,14:42:47.631290,14:42:37.346275,0,,0.09615697,0.029245988,0.037517175,-0.09486705,0.98049855,-0.17211252,0.84624213,0.17048524,0.50478625,0.52428496,-0.09776127,-0.8459126,,NaN,NaN,NaN,NaN,NaN,NaN,NaN,NaN,NaN,NaN,NaN,NaN,,0.106251895,1.3403986,0.4402436,0.99558175,0.012806047,-0.09302167,-0.051493846,-0.7539452,-0.65491605,-0.07852013,0.6568125,-0.7499546,,-0.06813579,0.28483218,-0.08694828,0.08875621,-0.96424204,0.24971896,0.98574084,0.049048856,-0.16096354,0.14295939,0.2604447,0.95484614,,NaN,NaN,NaN,NaN,NaN,NaN,NaN,NaN,NaN,NaN,NaN,NaN,,1.3079143168457887,0.42062636872751213,0.20284605178,2.453372338768935,0.04549995442189167,-0.0907650942032577,0.31117044598580196,,NaN,NaN,NaN,NaN,NaN,NaN,NaN,,-0.050095312855367245,-0.06378742083726276,0.08431779928,-0.06541713947960498,,2.79136e-05,-1.0728836e-06,3.9339066e-06,1.0,-1.6715378e-05,-1.4644116e-05,1.6719103e-05,1.0,-1.758337e-06,1.4636666e-05,1.758337e-06,0.99999994,1224,3.767,0,0,0.0,False,0.7636075908491655,1.049370146756389
3.752017863036599,14:42:47.681574,14:42:37.550540,0,,0.09405315,0.026640594,0.038967893,-0.097454965,0.9797572,-0.17486688,0.8500705,0.17331925,0.4973336,0.51757395,-0.100181535,-0.84975344,,NaN,NaN,NaN,NaN,NaN,NaN,NaN,NaN,NaN,NaN,NaN,NaN,,0.106251895,1.3403986,0.4402436,0.99558175,0.012806047,-0.09302167,-0.051493846,-0.7539452,-0.65491605,-0.07852013,0.6568125,-0.7499546,,-0.06623662,0.28382632,-0.089897886,0.091949455,-0.9632283,0.2524611,0.9843513,0.04965072,-0.16907789,0.15032573,0.26405704,0.95272034,,NaN,NaN,NaN,NaN,NaN,NaN,NaN,NaN,NaN,NaN,NaN,NaN,,1.3145326989189992,0.40818504606713646,0.20040254513000003,2.4493882298427287,0.04768613841813872,-0.0818478657039868,0.3802649859606021,,NaN,NaN,NaN,NaN,NaN,NaN,NaN,,-0.050095312855367245,-0.06378742083726276,0.08431779928,-0.06541713947960498,,2.79136e-05,-1.0728836e-06,3.9339066e-06,1.0,-1.6715378e-05,-1.4644116e-05,1.6719103e-05,1.0,-1.758337e-06,1.4636666e-05,1.758337e-06,0.99999994,1245,3.831,0,0,0.0,False,0.8164530271773218,1.049804668563404
3.802321812021546,14:42:47.750143,14:42:37.550540,0,,0.09121732,0.02350524,0.040406838,-0.10450569,0.97953695,-0.17200547,0.8569967,0.17645183,0.4841709,0.5046141,-0.09680948,-0.8579001,,NaN,NaN,NaN,NaN,NaN,NaN,NaN,NaN,NaN,NaN,NaN,NaN,,0.106251895,1.3403986,0.4402436,0.99558175,0.012806047,-0.09302167,-0.051493846,-0.7539452,-0.65491605,-0.07852013,0.6568125,-0.7499546,,-0.06362642,0.28242236,-0.09323834,0.100145504,-0.96313107,0.24969855,0.98134875,0.054225095,-0.18442956,0.1640899,0.26351115,0.9505979,,NaN,NaN,NaN,NaN,NaN,NaN,NaN,NaN,NaN,NaN,NaN,NaN,,1.3235374054503448,0.39142671573006926,0.19780607626000002,2.4412103220468326,0.05547441890476882,-0.06369506417251415,0.4736977917894098,,NaN,NaN,NaN,NaN,NaN,NaN,NaN,,-0.050095312855367245,-0.06378742083726276,0.08431779928,-0.06541713947960498,,2.79136e-05,-1.0728836e-06,3.9339066e-06,1.0,-1.6715378e-05,-1.4644116e-05,1.6719103e-05,1.0,-1.758337e-06,1.4636666e-05,1.758337e-06,0.99999994,1278,3.934,0,0,0.0,False,0.9033769184995095,1.0495632675595068
3.8708926209947094,14:42:47.850469,14:42:37.700343,0,,0.084684625,0.017363131,0.0413049,-0.1286254,0.9791199,-0.15741614,0.87941486,0.18598196,0.43822405,0.45835048,-0.08206733,-0.8849745,,NaN,NaN,NaN,NaN,NaN,NaN,NaN,NaN,NaN,NaN,NaN,NaN,,0.106251895,1.3403986,0.4402436,0.99558175,0.012806047,-0.09302167,-0.051493846,-0.7539452,-0.65491605,-0.07852013,0.6568125,-0.7499546,,-0.057403523,0.27844432,-0.09840157,0.12827225,-0.9634033,0.23537281,0.9688558,0.071043134,-0.23721573,0.2118128,0.2584705,0.94251174,,NaN,NaN,NaN,NaN,NaN,NaN,NaN,NaN,NaN,NaN,NaN,NaN,,1.3423113690675847,0.35124533658547913,0.19470405429,2.4196122578679264,0.09045336284472158,-0.016991927849340255,0.6649736932326508,,NaN,NaN,NaN,NaN,NaN,NaN,NaN,,-0.050095312855367245,-0.06378742083726276,0.08431779928,-0.06541713947960498,,2.79136e-05,-1.0728836e-06,3.9339066e-06,1.0,-1.6715378e-05,-1.4644116e-05,1.6719103e-05,1.0,-1.758337e-06,1.4636666e-05,1.758337e-06,0.99999994,1311,4.036,0,0,0.0,False,0.9347147984415729,1.049370146756389
3.9712368749896996,14:42:47.950388,14:42:37.833026,0,,0.0776075,0.011226207,0.040321723,-0.17246698,0.9743583,-0.14450239,0.8985692,0.21572612,0.3821462,0.4035203,-0.06393778,-0.91273403,,NaN,NaN,NaN,NaN,NaN,NaN,NaN,NaN,NaN,NaN,NaN,NaN,,0.106251895,1.3403986,0.4402436,0.99558175,0.012806047,-0.09302167,-0.051493846,-0.7539452,-0.65491605,-0.07852013,0.6568125,-0.7499546,,-0.050505206,0.2732605,-0.10217719,0.1765419,-0.9588401,0.22239304,0.948675,0.10552241,-0.29812878,0.26239038,0.26361093,0.92825675,,NaN,NaN,NaN,NaN,NaN,NaN,NaN,NaN,NaN,NaN,NaN,NaN,,1.3594403905826147,0.30493983027162896,0.19371368873000003,2.3839649674755576,0.1311710397748228,0.02601180140027079,0.7327614806783768,,NaN,NaN,NaN,NaN,NaN,NaN,NaN,,-0.050095312855367245,-0.06378742083726276,0.08431779928,-0.06541713947960498,,2.79136e-05,-1.0728836e-06,3.9339066e-06,1.0,-1.6715378e-05,-1.4644116e-05,1.6719103e-05,1.0,-1.758337e-06,1.4636666e-05,1.758337e-06,0.99999994,1344,4.138,0,0,0.0,False,0.9425790572863493,1.0443972860761046
4.071157356025651,14:42:48.052374,14:42:37.833026,0,,0.07564172,0.009848952,0.038713828,-0.21800618,0.96885586,-0.11743768,0.9020654,0.2459659,0.35465324,0.37249362,-0.028619885,-0.9275934,,NaN,NaN,NaN,NaN,NaN,NaN,NaN,NaN,NaN,NaN,NaN,NaN,,0.106251895,1.3403986,0.4402436,0.99558175,0.012806047,-0.09302167,-0.051493846,-0.7539452,-0.65491605,-0.07852013,0.6568125,-0.7499546,,-0.04848303,0.27120462,-0.10200191,0.22425123,-0.95473075,0.1954496,0.9320327,0.15153317,-0.32916975,0.2846514,0.25598216,0.9238218,,NaN,NaN,NaN,NaN,NaN,NaN,NaN,NaN,NaN,NaN,NaN,NaN,,1.362583542862424,0.2916181160635917,0.19484794248,2.3437044983265287,0.1612310697232197,0.05230403895448782,0.7500759516886103,,NaN,NaN,NaN,NaN,NaN,NaN,NaN,,-0.050095312855367245,-0.06378742083726276,0.08431779928,-0.06541713947960498,,2.79136e-05,-1.0728836e-06,3.9339066e-06,1.0,-1.6715378e-05,-1.4644116e-05,1.6719103e-05,1.0,-1.758337e-06,1.4636666e-05,1.758337e-06,0.99999994,1360,4.189,0,0,0.0,False,0.966886766442931,1.0411625126238806
4.173130402981769,14:42:48.109405,14:42:37.975388,0,,0.075193666,0.010412872,0.0369616,-0.24083059,0.9657172,-0.09690669,0.90254986,0.25955343,0.34356344,0.35693774,-0.004722506,-0.9341163,,NaN,NaN,NaN,NaN,NaN,NaN,NaN,NaN,NaN,NaN,NaN,NaN,,0.106251895,1.3403986,0.4402436,0.99558175,0.012806047,-0.09302167,-0.051493846,-0.7539452,-0.65491605,-0.07852013,0.6568125,-0.7499546,,-0.047892224,0.2705061,-0.10034297,0.24811706,-0.95278573,0.1750352,0.922723,0.17742245,-0.342204,0.2949919,0.24641564,0.9231788,,NaN,NaN,NaN,NaN,NaN,NaN,NaN,NaN,NaN,NaN,NaN,NaN,,1.362514038266556,0.2902280241462313,0.19673274814000002,2.322945193921561,0.17858390519343065,0.06690488171452019,0.7602032837889356,,NaN,NaN,NaN,NaN,NaN,NaN,NaN,,-0.050095312855367245,-0.06378742083726276,0.08431779928,-0.06541713947960498,,2.79136e-05,-1.0728836e-06,3.9339066e-06,1.0,-1.6715378e-05,-1.4644116e-05,1.6719103e-05,1.0,-1.758337e-06,1.4636666e-05,1.758337e-06,0.99999994,1381,4.253,0,0,0.0,False,0.98470050428072,1.0432868414581769
4.230159515980631,14:42:48.179713,14:42:37.975388,0,,0.07342933,0.010410428,0.033857092,-0.26620468,0.9607069,-0.07859603,0.90450764,0.27714887,0.32412118,0.33316833,0.015191913,-0.942745,,NaN,NaN,NaN,NaN,NaN,NaN,NaN,NaN,NaN,NaN,NaN,NaN,,0.106251895,1.3403986,0.4402436,0.99558175,0.012806047,-0.09302167,-0.051493846,-0.7539452,-0.65491605,-0.07852013,0.6568125,-0.7499546,,-0.045914866,0.26852325,-0.09812728,0.27515727,-0.94854695,0.15667525,0.9092563,0.20381439,-0.36292246,0.31231633,0.2423187,0.9185533,,NaN,NaN,NaN,NaN,NaN,NaN,NaN,NaN,NaN,NaN,NaN,NaN,,1.363989080245533,0.28078312184105475,0.19979199254000002,2.3015568196861396,0.20017247215637027,0.08311585134867833,0.7742508734764836,,NaN,NaN,NaN,NaN,NaN,NaN,NaN,,-0.050095312855367245,-0.06378742083726276,0.08431779928,-0.06541713947960498,,2.79136e-05,-1.0728836e-06,3.9339066e-06,1.0,-1.6715378e-05,-1.4644116e-05,1.6719103e-05,1.0,-1.758337e-06,1.4636666e-05,1.758337e-06,0.99999994,1418,4.368,0,0,0.0,False,1.0004290219702723,1.049080465551712
4.300431744020898,14:42:48.284078,14:42:37.975388,0,,0.07095992,0.010130942,0.028836831,-0.3021274,0.9518138,-0.052625857,0.90816647,0.30417395,0.28759673,0.2897461,0.03909783,-0.95630467,,NaN,NaN,NaN,NaN,NaN,NaN,NaN,NaN,NaN,NaN,NaN,NaN,,0.106251895,1.3403986,0.4402436,0.99558175,0.012806047,-0.09302167,-0.051493846,-0.7539452,-0.65491605,-0.07852013,0.6568125,-0.7499546,,-0.04310991,0.26510024,-0.094693,0.31415963,-0.94037217,0.13039918,0.884533,0.24004099,-0.39997715,0.34482622,0.24099906,0.90720135,,NaN,NaN,NaN,NaN,NaN,NaN,NaN,NaN,NaN,NaN,NaN,NaN,,1.3641744258345143,0.2661639885101477,0.20458567296000002,2.273038987372244,0.23843069209069356,0.10166119105928278,0.7940155054787315,,NaN,NaN,NaN,NaN,NaN,NaN,NaN,,-0.050095312855367245,-0.06378742083726276,0.08431779928,-0.06541713947960498,,2.79136e-05,-1.0728836e-06,3.9339066e-06,1.0,-1.6715378e-05,-1.4644116e-05,1.6719103e-05,1.0,-1.758337e-06,1.4636666e-05,1.758337e-06,0.99999994,1451,4.47,0,0,0.0,False,1.0023355089629455,1.049708108161845
4.404837950016372,14:42:48.385516,14:42:38.259568,0,,0.070068926,0.0116182715,0.02381353,-0.3316383,0.94313556,-0.022612073,0.9096292,0.32602876,0.25744912,0.25018167,0.06481142,-0.96602726,,NaN,NaN,NaN,NaN,NaN,NaN,NaN,NaN,NaN,NaN,NaN,NaN,,0.106251895,1.3403986,0.4402436,0.99558175,0.012806047,-0.09302167,-0.051493846,-0.7539452,-0.65491605,-0.07852013,0.6568125,-0.7499546,,-0.041813187,0.26299232,-0.08999037,0.34641802,-0.93272895,0.10005649,0.8605248,0.2734994,-0.42976183,0.37348592,0.23497833,0.8973814,,NaN,NaN,NaN,NaN,NaN,NaN,NaN,NaN,NaN,NaN,NaN,NaN,,1.3616259239860202,0.2633220228124331,0.20988620277000003,2.247876194154101,0.2772354580240787,0.11412502608540265,0.8087164714308166,,NaN,NaN,NaN,NaN,NaN,NaN,NaN,,-0.050095312855367245,-0.06378742083726276,0.08431779928,-0.06541713947960498,,2.79136e-05,-1.0728836e-06,3.9339066e-06,1.0,-1.6715378e-05,-1.4644116e-05,1.6719103e-05,1.0,-1.758337e-06,1.4636666e-05,1.758337e-06,0.99999994,1467,4.52,0,0,0.0,False,1.0180044489339775,1.0511565141852286
4.506284288014285,14:42:48.441998,14:42:38.259568,0,,0.06974985,0.0122921765,0.021698475,-0.34215358,0.9394879,-0.017129086,0.9096892,0.3357572,0.24440292,0.23536491,0.06804122,-0.9695225,,NaN,NaN,NaN,NaN,NaN,NaN,NaN,NaN,NaN,NaN,NaN,NaN,,0.106251895,1.3403986,0.4402436,0.99558175,0.012806047,-0.09302167,-0.051493846,-0.7539452,-0.65491605,-0.07852013,0.6568125,-0.7499546,,-0.041321356,0.2621401,-0.08797513,0.35794595,-0.9289625,0.09435729,0.85115284,0.2830636,-0.44205633,0.38394466,0.23854476,0.89201057,,NaN,NaN,NaN,NaN,NaN,NaN,NaN,NaN,NaN,NaN,NaN,NaN,,1.3603902867261444,0.2624339085318973,0.21212748818000002,2.238649836640782,0.2914456539996845,0.11201229795728007,0.8152502340761877,,NaN,NaN,NaN,NaN,NaN,NaN,NaN,,-0.050095312855367245,-0.06378742083726276,0.08431779928,-0.06541713947960498,,2.79136e-05,-1.0728836e-06,3.9339066e-06,1.0,-1.6715378e-05,-1.4644116e-05,1.6719103e-05,1.0,-1.758337e-06,1.4636666e-05,1.758337e-06,0.99999994,1488,4.585,0,0,0.0,False,1.0464825983870312,1.0507702725789931
4.562747333024163,14:42:48.504721,14:42:38.259568,0,,0.06946256,0.012816787,0.019347385,-0.35315263,0.9353908,-0.018093929,0.9101715,0.34797812,0.22471994,0.21649736,0.062891886,-0.9742554,,NaN,NaN,NaN,NaN,NaN,NaN,NaN,NaN,NaN,NaN,NaN,NaN,,0.106251895,1.3403986,0.4402436,0.99558175,0.012806047,-0.09302167,-0.051493846,-0.7539452,-0.65491605,-0.07852013,0.6568125,-0.7499546,,-0.040850062,0.26102066,-0.0858751,0.370257,-0.9240662,0.09492864,0.83948547,0.28910214,-0.46009138,0.3977108,0.25004324,0.8827822,,NaN,NaN,NaN,NaN,NaN,NaN,NaN,NaN,NaN,NaN,NaN,NaN,,1.3583592079802231,0.2608275800940586,0.21451136549000002,2.229423479127463,0.30866185297013,0.10124079169715344,0.83060457629281,,NaN,NaN,NaN,NaN,NaN,NaN,NaN,,-0.050095312855367245,-0.06378742083726276,0.08431779928,-0.06541713947960498,,2.79136e-05,-1.0728836e-06,3.9339066e-06,1.0,-1.6715378e-05,-1.4644116e-05,1.6719103e-05,1.0,-1.758337e-06,1.4636666e-05,1.758337e-06,0.99999994,1521,4.687,0,0,0.0,False,1.0461847097944261,1.0507702725789931
4.625489158031996,14:42:48.612931,14:42:38.400993,0,,0.070019394,0.013758466,0.015919924,-0.3639116,0.93002677,-0.0511712,0.911741,0.3669169,0.18466279,0.19051704,0.020546079,-0.9814689,,NaN,NaN,NaN,NaN,NaN,NaN,NaN,NaN,NaN,NaN,NaN,NaN,,0.10625793,1.3404015,0.44024268,0.9955805,0.012788188,-0.09303719,-0.051517427,-0.75394547,-0.65491384,-0.07852013,0.6568125,-0.7499546,,-0.04113167,0.25950938,-0.08262162,0.3828909,-0.91503036,0.12694094,0.82402515,0.27618432,-0.49467647,0.41758487,0.29400966,0.85975647,,NaN,NaN,NaN,NaN,NaN,NaN,NaN,NaN,NaN,NaN,NaN,NaN,,1.3521655762150953,0.2616230215801037,0.21787394175000002,2.220616501501113,0.3312068754314276,0.0483884092479267,0.858699755667906,,NaN,NaN,NaN,NaN,NaN,NaN,NaN,,-0.050095312855367245,-0.06378742083726276,0.08431779928,-0.06541713947960498,,3.3833086e-05,-3.8146973e-06,2.1457672e-06,1.0,-3.4481287e-05,-3.0204654e-05,3.4481287e-05,1.0,-3.6358833e-06,3.0200928e-05,3.6358833e-06,0.99999994,1554,4.79,0,0,0.0,False,1.0477337304759726,1.0509151131813312
4.733679010008927,14:42:48.706916,14:42:38.508229,0,,0.07120427,0.014488965,0.01436989,-0.3475712,0.9321239,-0.10168227,0.91928923,0.36011165,0.15883008,0.18466634,-0.038270652,-0.9820559,,NaN,NaN,NaN,NaN,NaN,NaN,NaN,NaN,NaN,NaN,NaN,NaN,,0.10625793,1.3404015,0.44024268,0.9955805,0.012788188,-0.09303719,-0.051517427,-0.75394547,-0.65491384,-0.07852013,0.6568125,-0.7499546,,-0.042176735,0.25903985,-0.08088163,0.36729208,-0.9132281,0.17638297,0.82569,0.23284292,-0.513829,0.42817354,0.33436298,0.8395647,,NaN,NaN,NaN,NaN,NaN,NaN,NaN,NaN,NaN,NaN,NaN,NaN,,1.3450915529023055,0.26613309757865083,0.21942560088000002,2.2407467360756272,0.33434951492603276,-0.010614211974219523,0.8729106894215882,,NaN,NaN,NaN,NaN,NaN,NaN,NaN,,-0.050095312855367245,-0.06378742083726276,0.08431779928,-0.06541713947960498,,3.3833086e-05,-3.8146973e-06,2.1457672e-06,1.0,-3.4481287e-05,-3.0204654e-05,3.4481287e-05,1.0,-3.6358833e-06,3.0200928e-05,3.6358833e-06,0.99999994,1570,4.84,0,0,0.0,False,1.0469592201351996,1.0496598279610654
4.827647080994211,14:42:48.753178,14:42:38.508229,0,,0.07188974,0.014824688,0.013879508,-0.34374002,0.93272626,-0.10892407,0.9209893,0.35749665,0.1548382,0.18336174,-0.04709381,-0.9819169,,NaN,NaN,NaN,NaN,NaN,NaN,NaN,NaN,NaN,NaN,NaN,NaN,,0.10625793,1.3404015,0.44024268,0.9955805,0.012788188,-0.09303719,-0.051517427,-0.75394547,-0.65491384,-0.07852013,0.6568125,-0.7499546,,-0.042813137,0.25896543,-0.08023937,0.3636275,-0.9133033,0.18344519,0.8260708,0.22512256,-0.5166496,0.43056017,0.33940673,0.83631396,,NaN,NaN,NaN,NaN,NaN,NaN,NaN,NaN,NaN,NaN,NaN,NaN,,1.342767010307164,0.2679942762013389,0.21976652515000003,2.243053325453957,0.33462278792556366,-0.01974003045693362,0.8740540978845284,,NaN,NaN,NaN,NaN,NaN,NaN,NaN,,-0.050095312855367245,-0.06378742083726276,0.08431779928,-0.06541713947960498,,3.3833086e-05,-3.8146973e-06,2.1457672e-06,1.0,-3.4481287e-05,-3.0204654e-05,3.4481287e-05,1.0,-3.6358833e-06,3.0200928e-05,3.6358833e-06,0.99999994,1591,4.904,0,0,0.0,False,1.0464825983870312,1.0492253061540504
4.873947445012163,14:42:48.819818,14:42:38.672057,0,,0.07218972,0.015212521,0.013178393,-0.33770025,0.9338108,-0.11813523,0.9226423,0.3532405,0.15476528,0.18625176,-0.056732267,-0.9808628,,NaN,NaN,NaN,NaN,NaN,NaN,NaN,NaN,NaN,NaN,NaN,NaN,,0.10625793,1.3404015,0.44024268,0.9955805,0.012788188,-0.09303719,-0.051517427,-0.75394547,-0.65491384,-0.07852013,0.6568125,-0.7499546,,-0.043048505,0.25880095,-0.079433456,0.35746408,-0.91386205,0.19255027,0.82909554,0.21561581,-0.5158589,0.42990696,0.34404358,0.8347539,,NaN,NaN,NaN,NaN,NaN,NaN,NaN,NaN,NaN,NaN,NaN,NaN,,1.3408131588899852,0.2692144679954664,0.22048337352000003,2.2493440237584927,0.3307969659321313,-0.02854542521395592,0.8740540978845283,,NaN,NaN,NaN,NaN,NaN,NaN,NaN,,-0.050095312855367245,-0.06378742083726276,0.08431779928,-0.06541713947960498,,3.3833086e-05,-3.8146973e-06,2.1457672e-06,1.0,-3.4481287e-05,-3.0204654e-05,3.4481287e-05,1.0,-3.6358833e-06,3.0200928e-05,3.6358833e-06,0.99999994,1603,4.942,0,0,0.0,False,1.0470187978537204,1.049418426957168
4.9405859030084684,14:42:48.856820,14:42:38.672057,0,,0.07208669,0.015356451,0.012849584,-0.33772418,0.93378127,-0.11829993,0.92259526,0.35330305,0.15490296,0.18644127,-0.05682844,-0.9808212,,NaN,NaN,NaN,NaN,NaN,NaN,NaN,NaN,NaN,NaN,NaN,NaN,,0.10625793,1.3404015,0.44024268,0.9955805,0.012788188,-0.09303719,-0.051517427,-0.75394547,-0.65491384,-0.07852013,0.6568125,-0.7499546,,-0.04291735,0.2586992,-0.07909895,0.35747287,-0.91382354,0.19271658,0.82918304,0.21560161,-0.5157242,0.42973092,0.34415472,0.8347987,,NaN,NaN,NaN,NaN,NaN,NaN,NaN,NaN,NaN,NaN,NaN,NaN,,1.3408594952872306,0.269029122406485,0.22085411246000003,2.2493440237584927,0.3305236929326004,-0.028485946886844193,0.8740540978845283,,NaN,NaN,NaN,NaN,NaN,NaN,NaN,,-0.050095312855367245,-0.06378742083726276,0.08431779928,-0.06541713947960498,,3.3833086e-05,-3.8146973e-06,2.1457672e-06,1.0,-3.4481287e-05,-3.0204654e-05,3.4481287e-05,1.0,-3.6358833e-06,3.0200928e-05,3.6358833e-06,0.99999994,1624,5.007,0,0,0.0,False,1.0469592201351996,1.049418426957168
4.977565389999654,14:42:48.920239,14:42:38.672057,0,,0.071805924,0.015825137,0.011940077,-0.3351363,0.934477,-0.12015124,0.9235152,0.3510698,0.15449831,0.18655661,-0.05918348,-0.98065996,,NaN,NaN,NaN,NaN,NaN,NaN,NaN,NaN,NaN,NaN,NaN,NaN,,0.10625793,1.3404015,0.44024268,0.9955805,0.012788188,-0.09303719,-0.051517427,-0.75394547,-0.65491384,-0.07852013,0.6568125,-0.7499546,,-0.04255616,0.25847146,-0.07812767,0.3549189,-0.91443336,0.19453578,0.8299123,0.21236268,-0.515895,0.4304395,0.34454852,0.834271,,NaN,NaN,NaN,NaN,NaN,NaN,NaN,NaN,NaN,NaN,NaN,NaN,,1.3411066227392057,0.2688360540846294,0.2219118851,2.252279682967276,0.330387056432835,-0.029109637644412822,0.8742174419506625,,NaN,NaN,NaN,NaN,NaN,NaN,NaN,,-0.050095312855367245,-0.06378742083726276,0.08431779928,-0.06541713947960498,,3.3833086e-05,-3.8146973e-06,2.1457672e-06,1.0,-3.4481287e-05,-3.0204654e-05,3.4481287e-05,1.0,-3.6358833e-06,3.0200928e-05,3.6358833e-06,0.99999994,1636,5.045,0,0,0.0,False,1.0466613315425946,1.04927358635483
5.041007400024682,14:42:48.958031,14:42:38.824628,0,,0.0717401,0.016053647,0.011510611,-0.33437765,0.9347055,-0.12048747,0.923801,0.35037518,0.1543664,0.18650305,-0.05968979,-0.98063946,,NaN,NaN,NaN,NaN,NaN,NaN,NaN,NaN,NaN,NaN,NaN,NaN,,0.10625793,1.3404015,0.44024268,0.9955805,0.012788188,-0.09303719,-0.051517427,-0.75394547,-0.65491384,-0.07852013,0.6568125,-0.7499546,,-0.042451873,0.25836822,-0.07765921,0.3541769,-0.91465104,0.19486466,0.8300817,0.21150167,-0.5159762,0.43072397,0.34450045,0.83414406,,NaN,NaN,NaN,NaN,NaN,NaN,NaN,NaN,NaN,NaN,NaN,NaN,,1.3409830590132181,0.2689364496119943,0.22240188272000003,2.253118442741214,0.330387056432835,-0.029354673864834535,0.8743807860167968,,NaN,NaN,NaN,NaN,NaN,NaN,NaN,,-0.050095312855367245,-0.06378742083726276,0.08431779928,-0.06541713947960498,,3.3833086e-05,-3.8146973e-06,2.1457672e-06,1.0,-3.4481287e-05,-3.0204654e-05,3.4481287e-05,1.0,-3.6358833e-06,3.0200928e-05,3.6358833e-06,0.99999994,1657,5.109,0,0,0.0,False,1.0472571087278046,1.0492253061540504
5.078784665034618,14:42:49.023431,14:42:38.824628,0,,0.071611166,0.016557321,0.010300532,-0.3308263,0.9357061,-0.12250741,0.9257796,0.34697357,0.15013796,0.18299192,-0.06374526,-0.9810456,,NaN,NaN,NaN,NaN,NaN,NaN,NaN,NaN,NaN,NaN,NaN,NaN,,0.10625793,1.3404015,0.44024268,0.9955805,0.012788188,-0.09303719,-0.051517427,-0.75394547,-0.65491384,-0.07852013,0.6568125,-0.7499546,,-0.04221957,0.2579696,-0.07642563,0.35095695,-0.91548795,0.19675124,0.8292493,0.20626569,-0.5194227,0.43494222,0.34545085,0.83155817,,NaN,NaN,NaN,NaN,NaN,NaN,NaN,NaN,NaN,NaN,NaN,NaN,,1.3402107857257957,0.26894417234486856,0.22371761707,2.2575219315543893,0.33325642292790925,-0.03177612858259993,0.8745441300829311,,NaN,NaN,NaN,NaN,NaN,NaN,NaN,,-0.050095312855367245,-0.06378742083726276,0.08431779928,-0.06541713947960498,,3.3833086e-05,-3.8146973e-06,2.1457672e-06,1.0,-3.4481287e-05,-3.0204654e-05,3.4481287e-05,1.0,-3.6358833e-06,3.0200928e-05,3.6358833e-06,0.99999994,1669,5.147,0,0,0.0,False,1.0473762641648467,1.0491287457524916
5.144198203983251,14:42:49.060237,14:42:38.935985,0,,0.071541704,0.01685001,0.009627119,-0.33004814,0.93593615,-0.122848675,0.9263566,0.34615612,0.14845687,0.18147099,-0.06480375,-0.98125875,,NaN,NaN,NaN,NaN,NaN,NaN,NaN,NaN,NaN,NaN,NaN,NaN,,0.10625793,1.3404015,0.44024268,0.9955805,0.012788188,-0.09303719,-0.051517427,-0.75394547,-0.65491384,-0.07852013,0.6568125,-0.7499546,,-0.04209213,0.25775716,-0.075730935,0.3503096,-0.9156728,0.19704457,0.828689,0.20495321,-0.5208346,0.4365292,0.34574205,0.83060503,,NaN,NaN,NaN,NaN,NaN,NaN,NaN,NaN,NaN,NaN,NaN,NaN,,1.3398014808834617,0.26897506327636544,0.22445390979000002,2.2585703812718116,0.3344861514257982,-0.03261553223558661,0.8742174419506625,,NaN,NaN,NaN,NaN,NaN,NaN,NaN,,-0.050095312855367245,-0.06378742083726276,0.08431779928,-0.06541713947960498,,3.3833086e-05,-3.8146973e-06,2.1457672e-06,1.0,-3.4481287e-05,-3.0204654e-05,3.4481287e-05,1.0,-3.6358833e-06,3.0200928e-05,3.6358833e-06,0.99999994,1694,5.224,0,0,0.0,False,1.0468400646981575,1.0493218665556094
5.1809696719865315,14:42:49.143927,14:42:38.935985,0,,0.071428016,0.017409235,0.008308962,-0.32666427,0.9371941,-0.12230126,0.92824394,0.34248555,0.1451441,0.17791474,-0.06611198,-0.98182255,,NaN,NaN,NaN,NaN,NaN,NaN,NaN,NaN,NaN,NaN,NaN,NaN,,0.10625793,1.3404015,0.44024268,0.9955805,0.012788188,-0.09303719,-0.051517427,-0.75394547,-0.65491384,-0.07852013,0.6568125,-0.7499546,,-0.041865364,0.2573305,-0.074378245,0.3472564,-0.9169697,0.19641669,0.8277608,0.20128866,-0.5237317,0.44070965,0.3444552,0.8289304,,NaN,NaN,NaN,NaN,NaN,NaN,NaN,NaN,NaN,NaN,NaN,NaN,,1.3388901984043033,0.26907545880373035,0.22588631024000003,2.2627641801415024,0.3373555179208725,-0.03250494600899462,0.8732373775538569,,NaN,NaN,NaN,NaN,NaN,NaN,NaN,,-0.050095312855367245,-0.06378742083726276,0.08431779928,-0.06541713947960498,,3.3833086e-05,-3.8146973e-06,2.1457672e-06,1.0,-3.4481287e-05,-3.0204654e-05,3.4481287e-05,1.0,-3.6358833e-06,3.0200928e-05,3.6358833e-06,0.99999994,1727,5.326,0,0,0.0,False,0.9490730286051421,1.049418426957168
5.264689106028527,14:42:49.244457,14:42:39.039460,0,,0.07162076,0.017713234,0.007091686,-0.3218024,0.9399433,-0.11379694,0.93374777,0.3349566,0.12617135,0.15671098,-0.06565535,-0.9854598,,NaN,NaN,NaN,NaN,NaN,NaN,NaN,NaN,NaN,NaN,NaN,NaN,,0.10625793,1.3404015,0.44024268,0.9955805,0.012788188,-0.09303719,-0.051517427,-0.75394547,-0.65491384,-0.07852013,0.6568125,-0.7499546,,-0.04196057,0.2567695,-0.07324356,0.34410608,-0.92001945,0.1874973,0.818121,0.19580424,-0.5406835,0.4607266,0.33944798,0.82006466,,NaN,NaN,NaN,NaN,NaN,NaN,NaN,NaN,NaN,NaN,NaN,NaN,,1.3370058515829926,0.2696237728378003,0.22711130429,2.270313018106945,0.35757771988615766,-0.029800291823032843,0.8002225799918341,,NaN,NaN,NaN,NaN,NaN,NaN,NaN,,-0.050095312855367245,-0.06378742083726276,0.08431779928,-0.06541713947960498,,3.3833086e-05,-3.8146973e-06,2.1457672e-06,1.0,-3.4481287e-05,-3.0204654e-05,3.4481287e-05,1.0,-3.6358833e-06,3.0200928e-05,3.6358833e-06,0.99999994,1743,5.376,0,0,0.0,False,-0.25624379479388093,1.0501909101696396
5.365217661019415,14:42:49.290190,14:42:39.039460,0,,0.071714774,0.017747372,0.0070216507,-0.31884676,0.94078004,-0.11519357,0.9357027,0.33180273,0.119864404,0.15098765,-0.069568545,-0.9860847,,NaN,NaN,NaN,NaN,NaN,NaN,NaN,NaN,NaN,NaN,NaN,NaN,,0.10625793,1.3404015,0.44024268,0.9955805,0.012788188,-0.09303719,-0.051517427,-0.75394547,-0.65491384,-0.07852013,0.6568125,-0.7499546,,-0.0420481,0.25674844,-0.07316106,0.3416349,-0.92069393,0.18870145,0.8158472,0.19085202,-0.54586524,0.46656078,0.34043816,0.8163473,,NaN,NaN,NaN,NaN,NaN,NaN,NaN,NaN,NaN,NaN,NaN,NaN,,1.3367201104666462,0.2700716913445053,0.22718778540000004,2.274087437089667,0.36331645287630615,-0.03235619653462796,0.7329248247445109,,NaN,NaN,NaN,NaN,NaN,NaN,NaN,,-0.050095312855367245,-0.06378742083726276,0.08431779928,-0.06541713947960498,,3.3833086e-05,-3.8146973e-06,2.1457672e-06,1.0,-3.4481287e-05,-3.0204654e-05,3.4481287e-05,1.0,-3.6358833e-06,3.0200928e-05,3.6358833e-06,0.99999994,1760,5.429,0,0,0.0,False,-0.25826943722359585,1.0504805913743163
5.410957887012046,14:42:49.343450,14:42:39.177175,0,,0.0718251,0.017726794,0.006995544,-0.31596598,0.9421861,-0.111583516,0.9395126,0.32710102,0.101591885,0.13221756,-0.072734535,-0.9885485,,NaN,NaN,NaN,NaN,NaN,NaN,NaN,NaN,NaN,NaN,NaN,NaN,,0.10625793,1.3404015,0.44024268,0.9955805,0.012788188,-0.09303719,-0.051517427,-0.75394547,-0.65491384,-0.07852013,0.6568125,-0.7499546,,-0.04215699,0.2567139,-0.07314603,0.3402256,-0.9220455,0.18460397,0.8065304,0.18519568,-0.5614367,0.48348236,0.33990386,0.8066661,,NaN,NaN,NaN,NaN,NaN,NaN,NaN,NaN,NaN,NaN,NaN,NaN,,1.3367432786652689,0.27077446003605976,0.22724222958,2.2789103057898106,0.38258219934323323,-0.03352730521080327,0.6120502158051443,,NaN,NaN,NaN,NaN,NaN,NaN,NaN,,-0.050095312855367245,-0.06378742083726276,0.08431779928,-0.06541713947960498,,3.3833086e-05,-3.8146973e-06,2.1457672e-06,1.0,-3.4481287e-05,-3.0204654e-05,3.4481287e-05,1.0,-3.6358833e-06,3.0200928e-05,3.6358833e-06,0.99999994,1772,5.466,0,0,0.0,False,-0.2583885926606384,1.05105995378367
5.4641555459820665,14:42:49.385601,14:42:39.177175,0,,0.07192381,0.017770201,0.0070205033,-0.31231043,0.94325155,-0.11286561,0.9427315,0.32238108,0.08560231,0.11713031,-0.07966748,-0.98991597,,NaN,NaN,NaN,NaN,NaN,NaN,NaN,NaN,NaN,NaN,NaN,NaN,,0.10625793,1.3404015,0.44024268,0.9955805,0.012788188,-0.09303719,-0.051517427,-0.75394547,-0.65491384,-0.07852013,0.6568125,-0.7499546,,-0.042255547,0.25676137,-0.073129214,0.33776286,-0.922793,0.18538995,0.799137,0.17708984,-0.574473,0.49728897,0.3421876,0.79725236,,NaN,NaN,NaN,NaN,NaN,NaN,NaN,NaN,NaN,NaN,NaN,NaN,,1.3369131787885018,0.2716625743165956,0.22727334054000004,2.2841525543769237,0.39829539681625886,-0.03833584760211661,0.45458653605169913,,NaN,NaN,NaN,NaN,NaN,NaN,NaN,,-0.050095312855367245,-0.06378742083726276,0.08431779928,-0.06541713947960498,,3.3833086e-05,-3.8146973e-06,2.1457672e-06,1.0,-3.4481287e-05,-3.0204654e-05,3.4481287e-05,1.0,-3.6358833e-06,3.0200928e-05,3.6358833e-06,0.99999994,1797,5.543,0,0,0.0,False,-0.25856732581620134,1.0504805913743163
5.506347113987431,14:42:49.457080,14:42:39.278584,0,,0.0720995,0.01780586,0.007050872,-0.3069327,0.94434386,-0.118351094,0.9465609,0.31584024,0.0653252,0.099069566,-0.09197608,-0.9908207,,NaN,NaN,NaN,NaN,NaN,NaN,NaN,NaN,NaN,NaN,NaN,NaN,,0.10625793,1.3404015,0.44024268,0.9955805,0.012788188,-0.09303719,-0.051517427,-0.75394547,-0.65491384,-0.07852013,0.6568125,-0.7499546,,-0.042431507,0.2568051,-0.073115535,0.33381528,-0.92325544,0.19017565,0.79025054,0.16411296,-0.590399,0.5138788,0.34737062,0.7843865,,NaN,NaN,NaN,NaN,NaN,NaN,NaN,NaN,NaN,NaN,NaN,NaN,,1.3368359514597594,0.27282098424772927,0.22729408118000002,2.2914917023988823,0.4168779607843588,-0.047852849435131156,0.18163860154131853,,NaN,NaN,NaN,NaN,NaN,NaN,NaN,,-0.050095312855367245,-0.06378742083726276,0.08431779928,-0.06541713947960498,,3.3833086e-05,-3.8146973e-06,2.1457672e-06,1.0,-3.4481287e-05,-3.0204654e-05,3.4481287e-05,1.0,-3.6358833e-06,3.0200928e-05,3.6358833e-06,0.99999994,1830,5.646,0,0,0.0,False,-0.2587460589717643,1.0505288715750958
5.57784276700113,14:42:49.559224,14:42:39.429561,0,,0.07229315,0.017810345,0.0071039647,-0.30026144,0.94594675,-0.12258777,0.95113534,0.3066233,0.036382616,0.07200429,-0.10567328,-0.99179065,,NaN,NaN,NaN,NaN,NaN,NaN,NaN,NaN,NaN,NaN,NaN,NaN,,0.10625793,1.3404015,0.44024268,0.9955805,0.012788188,-0.09303719,-0.051517427,-0.75394547,-0.65491384,-0.07852013,0.6568125,-0.7499546,,-0.04262812,0.25683948,-0.07313789,0.32923996,-0.9242276,0.1934022,0.7760719,0.14818968,-0.61298627,0.53787863,0.3519136,0.7660571,,NaN,NaN,NaN,NaN,NaN,NaN,NaN,NaN,NaN,NaN,NaN,NaN,,1.3368977333227534,0.27420335343221547,0.22731482182,2.3009277498556857,0.44461517023674324,-0.057728800423577004,-0.14602959512404567,,NaN,NaN,NaN,NaN,NaN,NaN,NaN,,-0.050095312855367245,-0.06378742083726276,0.08431779928,-0.06541713947960498,,3.3833086e-05,-3.8146973e-06,2.1457672e-06,1.0,-3.4481287e-05,-3.0204654e-05,3.4481287e-05,1.0,-3.6358833e-06,3.0200928e-05,3.6358833e-06,0.99999994,1863,5.748,0,0,0.0,False,-0.25820985950507547,1.050335750771978
5.679993298021145,14:42:49.667667,14:42:39.501736,0,,0.072567746,0.017907113,0.007130772,-0.29303813,0.9473866,-0.12879148,0.9550885,0.29625678,0.0061522424,0.043983966,-0.121204406,-0.9916526,,NaN,NaN,NaN,NaN,NaN,NaN,NaN,NaN,NaN,NaN,NaN,NaN,,0.10625793,1.3404015,0.44024268,0.9955805,0.012788188,-0.09303719,-0.051517427,-0.75394547,-0.65491384,-0.07852013,0.6568125,-0.7499546,,-0.042900175,0.25692567,-0.0730743,0.32415876,-0.9249503,0.19846413,0.7607915,0.13020542,-0.63580096,0.5622432,0.35709026,0.7459015,,NaN,NaN,NaN,NaN,NaN,NaN,NaN,NaN,NaN,NaN,NaN,NaN,,1.33678189232964,0.27611859118502313,0.22739519180000003,2.3107831771994585,0.47344547168725115,-0.06972127574370264,-0.3497196455934919,,NaN,NaN,NaN,NaN,NaN,NaN,NaN,,-0.050095312855367245,-0.06378742083726276,0.08431779928,-0.06541713947960498,,3.3833086e-05,-3.8146973e-06,2.1457672e-06,1.0,-3.4481287e-05,-3.0204654e-05,3.4481287e-05,1.0,-3.6358833e-06,3.0200928e-05,3.6358833e-06,0.99999994,1896,5.85,0,0,0.0,False,-0.2596993024681016,1.0499977893665218
5.78841887798626,14:42:49.768870,14:42:39.591929,0,,0.07304038,0.018378556,0.006990254,-0.2899298,0.94665956,-0.14062855,0.9567996,0.29005527,-0.020061195,0.021799058,-0.14036962,-0.98985916,,NaN,NaN,NaN,NaN,NaN,NaN,NaN,NaN,NaN,NaN,NaN,NaN,,0.10628889,1.3403981,0.44024757,0.9955794,0.012772092,-0.093051165,-0.051538683,-0.75394577,-0.6549119,-0.07852013,0.6568125,-0.7499546,,-0.043371588,0.2571795,-0.07262149,0.3227061,-0.9230968,0.2091725,0.74765515,0.11309012,-0.654387,0.5804072,0.3675636,0.7266529,,NaN,NaN,NaN,NaN,NaN,NaN,NaN,NaN,NaN,NaN,NaN,NaN,,1.3359015007819783,0.279485702718185,0.22772056059,2.31455759618218,0.49708358614667236,-0.08989503922472966,-0.39888620949990994,,NaN,NaN,NaN,NaN,NaN,NaN,NaN,,-0.050095312855367245,-0.06378742083726276,0.08431779928,-0.06541713947960498,,6.445125e-05,2.3841858e-06,-2.1457672e-06,1.0,-5.0492585e-05,-4.422292e-05,5.0492585e-05,1.0,-5.3048134e-06,4.4219196e-05,5.3048134e-06,0.99999994,1925,5.941,0,0,0.0,False,-0.26005676877922745,1.050335750771978
5.889636859006714,14:42:49.854267,14:42:39.667837,0,,0.0738302,0.018811598,0.0070777684,-0.29181778,0.94650006,-0.13776799,0.95624775,0.29183924,-0.020499647,0.020803273,-0.1377224,-0.9902524,,NaN,NaN,NaN,NaN,NaN,NaN,NaN,NaN,NaN,NaN,NaN,NaN,,0.10628889,1.3403981,0.44024757,0.9955794,0.012772092,-0.093051165,-0.051538683,-0.75394577,-0.6549119,-0.07852013,0.6568125,-0.7499546,,-0.044149127,0.25755194,-0.072346285,0.3246379,-0.92305857,0.20633253,0.7466229,0.11616692,-0.65502626,0.5806586,0.36669895,0.7268889,,NaN,NaN,NaN,NaN,NaN,NaN,NaN,NaN,NaN,NaN,NaN,NaN,,1.3340017084949192,0.2830999417033221,0.22770370882000002,2.3107831771994585,0.4992697701429194,-0.09273954930569975,-0.3993762416983128,,NaN,NaN,NaN,NaN,NaN,NaN,NaN,,-0.050095312855367245,-0.06378742083726276,0.08431779928,-0.06541713947960498,,6.445125e-05,2.3841858e-06,-2.1457672e-06,1.0,-5.0492585e-05,-4.422292e-05,5.0492585e-05,1.0,-5.3048134e-06,4.4219196e-05,5.3048134e-06,0.99999994,1958,6.043,0,0,0.0,False,-0.25963972474957986,1.0506254319766548
5.975019367004279,14:42:49.956761,14:42:39.830970,0,,0.07399096,0.018708214,0.0074084997,-0.29318115,0.94560117,-0.14100814,0.95580137,0.2933074,-0.020361632,0.022104919,-0.14074534,-0.989799,,NaN,NaN,NaN,NaN,NaN,NaN,NaN,NaN,NaN,NaN,NaN,NaN,,0.10628889,1.3403981,0.44024757,0.9955794,0.012772092,-0.093051165,-0.051538683,-0.75394577,-0.6549119,-0.07852013,0.6568125,-0.7499546,,-0.044336487,0.25768474,-0.07265153,0.32588884,-0.9218955,0.2095356,0.74715096,0.11534108,-0.65457004,0.5792771,0.3698718,0.72638345,,NaN,NaN,NaN,NaN,NaN,NaN,NaN,NaN,NaN,NaN,NaN,NaN,,1.3337931947073152,0.28353241474427865,0.22733426617000002,2.3088959677080974,0.4981766781447959,-0.09715732418526493,-0.40019296202898413,,NaN,NaN,NaN,NaN,NaN,NaN,NaN,,-0.050095312855367245,-0.06378742083726276,0.08431779928,-0.06541713947960498,,6.445125e-05,2.3841858e-06,-2.1457672e-06,1.0,-5.0492585e-05,-4.422292e-05,5.0492585e-05,1.0,-5.3048134e-06,4.4219196e-05,5.3048134e-06,0.99999994,1970,6.081,0,0,0.0,False,-0.2596993024681016,1.0505288715750958
6.0775226210244,14:42:50.001502,14:42:39.830970,0,,0.074021325,0.018596023,0.0076431036,-0.29388648,0.94543654,-0.14064305,0.9555792,0.29404736,-0.020112693,0.022340626,-0.14030637,-0.9898561,,NaN,NaN,NaN,NaN,NaN,NaN,NaN,NaN,NaN,NaN,NaN,NaN,,0.10628889,1.3403981,0.44024757,0.9955794,0.012772092,-0.093051165,-0.051538683,-0.75394577,-0.6549119,-0.07852013,0.6568125,-0.7499546,,-0.044387404,0.25775087,-0.07289969,0.32656714,-0.9217351,0.20918486,0.7471471,0.116191864,-0.65442395,0.5788999,0.37000522,0.72661614,,NaN,NaN,NaN,NaN,NaN,NaN,NaN,NaN,NaN,NaN,NaN,NaN,,1.3339013129675543,0.2835169692785302,0.22707241559000002,2.3080572079341595,0.4980400416450304,-0.09704590628156848,-0.40019296202898413,,NaN,NaN,NaN,NaN,NaN,NaN,NaN,,-0.050095312855367245,-0.06378742083726276,0.08431779928,-0.06541713947960498,,6.445125e-05,2.3841858e-06,-2.1457672e-06,1.0,-5.0492585e-05,-4.422292e-05,5.0492585e-05,1.0,-5.3048134e-06,4.4219196e-05,5.3048134e-06,0.99999994,1991,6.145,0,0,0.0,False,-0.25975888018662197,1.050963393382111
6.122260279022157,14:42:50.061734,14:42:39.932784,0,,0.07411994,0.018340006,0.008177727,-0.2951073,0.9450785,-0.14049324,0.9552017,0.2952658,-0.02019763,0.022394687,-0.14015982,-0.9898757,,NaN,NaN,NaN,NaN,NaN,NaN,NaN,NaN,NaN,NaN,NaN,NaN,,0.10628889,1.3403981,0.44024757,0.9955794,0.012772092,-0.093051165,-0.051538683,-0.75394577,-0.6549119,-0.07852013,0.6568125,-0.7499546,,-0.044532795,0.25790074,-0.073463134,0.3277664,-0.9213436,0.20903377,0.7469163,0.11722078,-0.65450394,0.5785199,0.37065512,0.7265876,,NaN,NaN,NaN,NaN,NaN,NaN,NaN,NaN,NaN,NaN,NaN,NaN,,1.3340403221592902,0.2835710284086498,0.22647223332000002,2.3065893783297677,0.4981766781447959,-0.09756571788596777,-0.39937624169831276,,NaN,NaN,NaN,NaN,NaN,NaN,NaN,,-0.050095312855367245,-0.06378742083726276,0.08431779928,-0.06541713947960498,,6.445125e-05,2.3841858e-06,-2.1457672e-06,1.0,-5.0492585e-05,-4.422292e-05,5.0492585e-05,1.0,-5.3048134e-06,4.4219196e-05,5.3048134e-06,0.99999994,2003,6.183,0,0,0.0,False,-0.2599376133421849,1.0507702725789931
