AlexandreBanks6/ExpertPlaybackApp/resources/Motions/P_02/PC1/Data_PC1_2.csv
Task Time,PC1 Time,PC2 Time,Gaze Calib,s_T_psm1,Tx,Ty,Tz,R00,R01,R02,R10,R11,R12,R20,R21,R22,s_T_psm3,Tx,Ty,Tz,R00,R01,R02,R10,R11,R12,R20,R21,R22,cart_T_ecm,Tx,Ty,Tz,R00,R01,R02,R10,R11,R12,R20,R21,R22,ecm_T_psm1,Tx,Ty,Tz,R00,R01,R02,R10,R11,R12,R20,R21,R22,ecm_T_psm3,Tx,Ty,Tz,R00,R01,R02,R10,R11,R12,R20,R21,R22,psm1_joints,q1,q2,q3,q4,q5,q6,jaw,psm3_joints,q1,q2,q3,q4,q5,q6,jaw,ecm_joints,q1,q2,q3,q4,ecmi_T_ecm,Tx,Ty,Tz,R00,R01,R02,R10,R11,R12,R20,R21,R22,Sample #,Task Duration (s),Collisions (binary),Collisions (increments),Cumulative Collision Time (s),Clutch Press,MTMR Angle,MTML Angle
""
lci_T_si,,,,,-0.06325326,0.014099291,0.23646986,0.99321187,-0.021149708,0.11438049,0.061731156,-0.73758954,-0.6724217,0.09858737,0.67491806,-0.7312771
rci_T_si,,,,,-0.0730827,0.018441333,0.2456533,0.991962,-0.042163182,0.11930484,0.052885953,-0.7184059,-0.6936109,0.114954144,0.6943452,-0.71040154
ecm_T_lc,,,,,-4.4061628e-05,-0.00034663224,-0.01840835,-0.99912,0.030754527,0.028518902,-0.031987965,-0.99852574,-0.043852776,0.027128186,-0.04472645,0.9986309
ecm_T_rc,,,,,-0.0043358393,0.01870579,-0.007592615,-0.99555075,-0.052743673,-0.078081585,0.04863213,-0.9973746,0.053654674,-0.08070653,0.04961868,0.9955021
cart_T_ecmi,,,,,0.10635596,1.3404362,0.44018698,0.9956651,0.012106441,-0.09221999,-0.051438015,-0.7544026,-0.6543935,-0.07749338,0.65630037,-0.75050956
ecmac_T_ecmrep_psm1,,,,,0.01038242,-0.2501324,-0.30762842,0.998145,0.0496832,0.035188068,-0.04731537,0.99675006,-0.06519635,-0.03831287,0.06341047,0.99725187
ecmac_T_ecmrep_psm3,,,,,-0.018947443,-0.4527795,-0.5580277,0.99342906,-0.031421527,0.110051684,0.0051236153,0.97282016,0.23150527,-0.11433475,-0.2294202,0.9665888
""
0,13:54:29.182647,13:54:18.936746,0,,0.11838138,0.0014270544,0.024920762,0.8066431,0.5200671,-0.28081524,0.4651894,-0.26556373,0.84443736,0.36458978,-0.8117919,-0.45614487,,0.07607962,-0.025778249,0.015702307,-0.04800773,0.115815535,0.99210984,-0.12958348,-0.9855833,0.10878316,0.9904057,-0.12333855,0.06232339,,0.106323235,1.3404373,0.44018862,0.99566615,0.012122035,-0.09220646,-0.051417433,-0.75440234,-0.6543954,-0.07749338,0.65630037,-0.75050956,,-0.08606311,0.26462302,-0.08377025,-0.8247436,-0.44656882,0.34694996,0.5550082,-0.7568618,0.3451465,0.1084615,0.47721744,0.87206626,,-0.040205665,0.39061067,-0.35863617,-0.037997536,-0.034048826,-0.9986976,0.77464145,-0.63235116,-0.00791396,-0.6312581,-0.7739333,0.050403416,,1.1645649492344334,0.38426774235566313,0.20740121484000001,3.5726972570893256,-0.07282725437497976,-0.6365171233273976,-0.4047665958807439,,-0.9136379126851306,-0.2821268773611698,0.21773264614,-1.5542218611072944,-1.0650815156716082,0.05089837050657681,0.8784643876701539,,-0.04931645967666478,-0.06459899893944013,0.08431779928,-0.06509005378220696,,-3.2760203e-05,-1.1920929e-07,1.1920929e-06,1.0,1.5512109e-05,1.3563782e-05,-1.5515834e-05,1.0,1.5795231e-06,-1.3571233e-05,-1.6093254e-06,1.0,34,0.102,0,0,0.0,False,-0.252847864838182,1.0520738380000385
0.12513390398817137,13:54:29.205369,13:54:18.936746,0,,0.118329346,0.0013867319,0.025285184,0.8064532,0.52011204,-0.28127712,0.46462235,-0.2631675,0.8454991,0.3657313,-0.81254315,-0.45388806,,0.076079905,-0.025779784,0.015702128,-0.04800898,0.11589253,0.99210083,-0.12957689,-0.9855756,0.10885992,0.99040645,-0.12332696,0.06233347,,0.106323235,1.3404373,0.44018862,0.99566615,0.012122035,-0.09220646,-0.051417433,-0.75440234,-0.6543954,-0.07749338,0.65630037,-0.75050956,,-0.0860476,0.26483527,-0.084073335,-0.82468057,-0.44647422,0.3472215,0.5553433,-0.75556034,0.3474513,0.10721876,0.47936344,0.8710424,,-0.040205825,0.39060968,-0.3586374,-0.037996836,-0.03412692,-0.99869496,0.77464575,-0.6323465,-0.007864311,-0.6312529,-0.7739336,0.050463438,,1.165167322398623,0.38473110632811663,0.20706288315000002,3.5722778772023567,-0.07392034637310328,-0.6381578210421837,-0.40623669247595245,,-0.9136379126851306,-0.282134600094044,0.21773264614,-1.5542218611072944,-1.0650815156716082,0.05081669176643622,0.8776476673394824,,-0.04931645967666478,-0.06459899893944013,0.08431779928,-0.06509005378220696,,-3.2760203e-05,-1.1920929e-07,1.1920929e-06,1.0,1.5512109e-05,1.3563782e-05,-1.5515834e-05,1.0,1.5795231e-06,-1.3571233e-05,-1.6093254e-06,1.0,42,0.126,0,0,0.0,False,-0.25344364202339253,1.052749760810951
0.14784209802746773,13:54:29.233823,13:54:19.025282,0,,0.11822161,0.0013474971,0.02579458,0.80537695,0.5210943,-0.28253984,0.4649709,-0.25972942,0.84637016,0.36765483,-0.8130199,-0.45147383,,0.076072685,-0.025779009,0.015699029,-0.04797216,0.1158242,0.99211055,-0.12957203,-0.9855833,0.108796895,0.9904089,-0.123330414,0.062288124,,0.106323235,1.3404373,0.44018862,0.99566615,0.012122035,-0.09220646,-0.051417433,-0.75440234,-0.6543954,-0.07749338,0.65630037,-0.75050956,,-0.08599062,0.2651463,-0.08448884,-0.8237855,-0.44730964,0.34826934,0.5569193,-0.753336,0.34975103,0.105916835,0.48207775,0.86970264,,-0.040198408,0.39060828,-0.35863504,-0.03803397,-0.03405821,-0.99869585,0.774646,-0.6323453,-0.007936664,-0.6312503,-0.77393764,0.050433658,,1.1662098913366432,0.38536437042380306,0.20659751504,3.5701809777675115,-0.07528671137075768,-0.639739040429858,-0.40476659588074393,,-0.9135992990207595,-0.2821268773611698,0.21773134985000003,-1.5542218611072944,-1.0650815156716082,0.05089837050657675,0.877484323273348,,-0.04931645967666478,-0.06459899893944013,0.08431779928,-0.06509005378220696,,-3.2760203e-05,-1.1920929e-07,1.1920929e-06,1.0,1.5512109e-05,1.3563782e-05,-1.5515834e-05,1.0,1.5795231e-06,-1.3571233e-05,-1.6093254e-06,1.0,50,0.151,0,0,0.0,False,-0.2540989969271239,1.0522186786023768
0.17630168999312446,13:54:29.255759,13:54:19.025282,0,,0.11816417,0.0013259351,0.026130348,0.8055173,0.5202118,-0.2837633,0.46457925,-0.25715232,0.8473716,0.36784232,-0.8144031,-0.44882035,,0.076063424,-0.025785103,0.01569444,-0.047907993,0.115489066,0.9921527,-0.12964216,-0.98561037,0.10846749,0.9904028,-0.123428255,0.06219086,,0.106323235,1.3404373,0.44018862,0.99566615,0.012122035,-0.09220646,-0.051417433,-0.75440234,-0.6543954,-0.07749338,0.65630037,-0.75050956,,-0.08596645,0.26535395,-0.084758654,-0.8239542,-0.44622624,0.34925866,0.5567429,-0.75227576,0.3523046,0.10553127,0.48473015,0.86827403,,-0.040188354,0.39060238,-0.35863772,-0.038092185,-0.03371418,-0.9987053,0.7745967,-0.6324024,-0.0081957625,-0.63130736,-0.77390605,0.05020448,,1.1668354326994554,0.38586634806062764,0.20629288689000003,3.5701809777675115,-0.07542334787052313,-0.6420779847303786,-0.40541997214528114,,-0.91354523989064,-0.28214232282691826,0.21772875727000002,-1.55401217116381,-1.0650815156716082,0.05106172798685782,0.8784643876701539,,-0.04931645967666478,-0.06459899893944013,0.08431779928,-0.06509005378220696,,-3.2760203e-05,-1.1920929e-07,1.1920929e-06,1.0,1.5512109e-05,1.3563782e-05,-1.5515834e-05,1.0,1.5795231e-06,-1.3571233e-05,-1.6093254e-06,1.0,61,0.184,0,0,0.0,False,-0.25403941920860307,1.052025557799259
0.19826619798550382,13:54:29.286204,13:54:19.025282,0,,0.11811362,0.0012911856,0.026727438,0.80562395,0.52038795,-0.2831371,0.46242097,-0.2536186,0.84961414,0.3703202,-0.8153981,-0.44495955,,0.07605503,-0.025792837,0.015691698,-0.04785221,0.11514813,0.992195,-0.12970793,-0.9856386,0.108131595,0.99039686,-0.12352121,0.062100604,,0.106323235,1.3404373,0.44018862,0.99566615,0.012122035,-0.09220646,-0.051417433,-0.75440234,-0.6543954,-0.07749338,0.65630037,-0.75050956,,-0.08597471,0.2657237,-0.0852314,-0.8243594,-0.44620696,0.34832594,0.55675197,-0.75028676,0.3565067,0.10226857,0.48782077,0.8669325,,-0.04017921,0.39059702,-0.35864276,-0.03814239,-0.03336478,-0.99871516,0.77455074,-0.63245535,-0.008452343,-0.6313607,-0.7738779,0.04996607,,1.1677698833772365,0.3868007987384088,0.20575622283000003,3.570390667710996,-0.07815607786583194,-0.644341957364181,-0.40460325181460977,,-0.9134989034933946,-0.2821654910255409,0.21772486840000002,-1.5538024812203255,-1.0650815156716082,0.05122508546713905,0.877484323273348,,-0.04931645967666478,-0.06459899893944013,0.08431779928,-0.06509005378220696,,-3.2760203e-05,-1.1920929e-07,1.1920929e-06,1.0,1.5512109e-05,1.3563782e-05,-1.5515834e-05,1.0,1.5795231e-06,-1.3571233e-05,-1.6093254e-06,1.0,69,0.208,0,0,0.0,False,-0.2533840643048717,1.0525083598070537
0.22869749600067735,13:54:29.314439,13:54:19.025282,0,,0.11805467,0.0012605637,0.027319208,0.8046797,0.52099943,-0.28469318,0.46187449,-0.24804011,0.8515562,0.3730449,-0.8167225,-0.44022936,,0.076048374,-0.025795177,0.01568824,-0.047817886,0.115152754,0.99219614,-0.12968984,-0.9856399,0.108141586,0.9904009,-0.123506606,0.062065355,,0.106323235,1.3404373,0.44018862,0.99566615,0.012122035,-0.09220646,-0.051417433,-0.75440234,-0.6543954,-0.07749338,0.65630037,-0.75050956,,-0.085973985,0.2660934,-0.08569822,-0.823698,-0.44653195,0.34947222,0.5581787,-0.74699885,0.36114985,0.09979042,0.49254638,0.8645461,,-0.04017211,0.39059365,-0.35864288,-0.038178124,-0.03337068,-0.9987136,0.7745595,-0.63244426,-0.00847704,-0.6313478,-0.77388674,0.049993113,,1.1687352249865146,0.38774297214906417,0.20522604022000002,3.5687131481631202,-0.08034226186207899,-0.648195103974737,-0.4050932840130125,,-0.9134602898290235,-0.28217321375841514,0.21772357211,-1.5538024812203255,-1.0650815156716082,0.051225085467139025,0.8771576351410797,,-0.04931645967666478,-0.06459899893944013,0.08431779928,-0.06509005378220696,,-3.2760203e-05,-1.1920929e-07,1.1920929e-06,1.0,1.5512109e-05,1.3563782e-05,-1.5515834e-05,1.0,1.5795231e-06,-1.3571233e-05,-1.6093254e-06,1.0,77,0.233,0,0,0.0,False,-0.25278828711966117,1.0527014806101715
0.2569482889957726,13:54:29.340216,13:54:19.025282,0,,0.118019745,0.0012187511,0.027902335,0.80432767,0.52127266,-0.2851873,0.45980895,-0.24205229,0.85439223,0.3763411,-0.81834316,-0.43437535,,0.07603481,-0.02579838,0.015681446,-0.047748,0.11484188,0.99223554,-0.12966022,-0.98567647,0.10784328,0.9904082,-0.12350413,0.061954487,,0.106323235,1.3404373,0.44018862,0.99566615,0.012122035,-0.09220646,-0.051417433,-0.75440234,-0.6543954,-0.07749338,0.65630037,-0.75050956,,-0.085996635,0.266448,-0.086163804,-0.82372326,-0.44648042,0.34947848,0.5588166,-0.7435844,0.3671596,0.09593717,0.4977323,0.86200845,,-0.040157754,0.39058784,-0.3586419,-0.038250294,-0.03305967,-0.9987212,0.77457285,-0.6324245,-0.008731059,-0.63132703,-0.77391624,0.049797546,,1.1695847256026792,0.38863880916247423,0.20469974648000003,3.568293768276151,-0.08375817435621499,-0.6528424217351176,-0.4042765636823412,,-0.9133830625002812,-0.28218093649128934,0.21772097953000003,-1.5538024812203255,-1.0650815156716082,0.05155180042770133,0.8784643876701537,,-0.04931645967666478,-0.06459899893944013,0.08431779928,-0.06509005378220696,,-3.2760203e-05,-1.1920929e-07,1.1920929e-06,1.0,1.5512109e-05,1.3563782e-05,-1.5515834e-05,1.0,1.5795231e-06,-1.3571233e-05,-1.6093254e-06,1.0,88,0.265,0,0,0.0,False,-0.25266913168261906,1.0527014806101715
0.2827180330059491,13:54:29.371303,13:54:19.151255,0,,0.11798176,0.0011961907,0.028489262,0.80424196,0.5210573,-0.2858219,0.45745444,-0.23574394,0.8574147,0.37938142,-0.82031953,-0.42795524,,0.076026216,-0.025801167,0.015678167,-0.047688473,0.11475613,0.9922483,-0.12974587,-0.9856743,0.10776012,0.99039984,-0.12360105,0.061894424,,0.106323235,1.3404373,0.44018862,0.99566615,0.012122035,-0.09220646,-0.051417433,-0.75440234,-0.6543954,-0.07749338,0.65630037,-0.75050956,,-0.086016074,0.26681966,-0.08661977,-0.82399684,-0.44589952,0.34957516,0.5590575,-0.740143,0.37368852,0.09210809,0.5033508,0.85915893,,-0.04014872,0.39058462,-0.35864246,-0.03830259,-0.03296541,-0.99872226,0.774514,-0.6324951,-0.008826709,-0.631396,-0.77386254,0.049758375,,1.170503730814712,0.38961959623750075,0.20417993419000002,3.568293768276151,-0.08703745035058556,-0.6580095510998976,-0.40591000434368385,,-0.9133367261030358,-0.28218093649128934,0.21771838695,-1.553592791276841,-1.0650815156716082,0.05147012168756068,0.878627731736288,,-0.04931645967666478,-0.06459899893944013,0.08431779928,-0.06509005378220696,,-3.2760203e-05,-1.1920929e-07,1.1920929e-06,1.0,1.5512109e-05,1.3563782e-05,-1.5515834e-05,1.0,1.5795231e-06,-1.3571233e-05,-1.6093254e-06,1.0,96,0.29,0,0,0.0,False,-0.25344364202339253,1.0527014806101715
0.313811469997745,13:54:29.396424,13:54:19.151255,0,,0.11788161,0.0012221485,0.028884351,0.80454165,0.5207859,-0.2854728,0.45575953,-0.23321307,0.85900795,0.38078332,-0.82121485,-0.4249828,,0.07607182,-0.025791883,0.015671074,-0.04762026,0.11501142,0.992222,-0.12968862,-0.9856528,0.108025745,0.9904107,-0.12353566,0.06185271,,0.1062864,1.340444,0.44017825,0.9956681,0.012151332,-0.09218105,-0.051378768,-0.75440186,-0.654399,-0.07749338,0.65630037,-0.75050956,,-0.08592315,0.26711395,-0.086914405,-0.82449615,-0.44546393,0.3489528,0.55867237,-0.73883635,0.3768369,0.08995175,0.5056509,0.85803604,,-0.040159993,0.39059022,-0.35863772,-0.038381852,-0.03318851,-0.9987118,0.7745457,-0.63245744,-0.008749451,-0.6313523,-0.7738838,0.049980905,,1.1712064995062665,0.39034553312767784,0.20382215815000002,3.5687131481631202,-0.08867708834777085,-0.6597763283808817,-0.4042765636823411,,-0.9133290033701617,-0.2822118274227863,0.21771579437000002,-1.553592791276841,-1.0650815156716082,0.05122508546713905,0.877484323273348,,-0.04931645967666478,-0.06459899893944013,0.08431779928,-0.06509005378220696,,-6.89812e-05,-1.2397766e-05,7.867813e-06,1.0,4.4655055e-05,3.905222e-05,-4.4662505e-05,1.0,4.5895576e-06,-3.9055943e-05,-4.61936e-06,1.0,104,0.315,0,0,0.0,False,-0.25302659799374494,1.0527014806101715
0.3389041710179299,13:54:29.421272,13:54:19.151255,0,,0.117828086,0.0011539608,0.029454753,0.8052077,0.51911306,-0.28663933,0.45454878,-0.22989345,0.860543,0.38082266,-0.8232076,-0.4210742,,0.07607162,-0.025798604,0.015672565,-0.04762525,0.114833206,0.99224246,-0.12966233,-0.98567545,0.10784973,0.9904138,-0.12351993,0.06183258,,0.1062864,1.340444,0.44017825,0.9956681,0.012151332,-0.09218105,-0.051378768,-0.75440186,-0.654399,-0.07749338,0.65630037,-0.75050956,,-0.08592681,0.26744115,-0.08738958,-0.8251964,-0.44351482,0.3497793,0.5577609,-0.7375867,0.3806162,0.089183636,0.5091763,0.85602903,,-0.04015946,0.39058796,-0.35864422,-0.038379047,-0.033011455,-0.99871784,0.7745628,-0.63243496,-0.008860744,-0.63133156,-0.77390975,0.049841695,,1.17201738645806,0.3912182019424652,0.20329197554000003,3.5695519079370577,-0.08881372484753629,-0.6630137388229485,-0.4041132196162067,,-0.9133290033701617,-0.28224271835428316,0.21771320179000003,-1.553592791276841,-1.0650815156716082,0.05138844294742012,0.8774843232733482,,-0.04931645967666478,-0.06459899893944013,0.08431779928,-0.06509005378220696,,-6.89812e-05,-1.2397766e-05,7.867813e-06,1.0,4.4655055e-05,3.905222e-05,-4.4662505e-05,1.0,4.5895576e-06,-3.9055943e-05,-4.61936e-06,1.0,112,0.339,0,0,0.0,False,-0.2529074425567037,1.0526532004093918
0.3637284280266613,13:54:29.446981,13:54:19.151255,0,,0.11779721,0.0011047572,0.029862598,0.80527234,0.51879936,-0.28702542,0.45379838,-0.22774982,0.8615085,0.3815801,-0.8240008,-0.418831,,0.07607208,-0.02580814,0.015670538,-0.047607575,0.11463758,0.9922659,-0.12972647,-0.98568845,0.10765359,0.9904063,-0.12359783,0.061797768,,0.1062864,1.340444,0.44017825,0.9956681,0.012151332,-0.09218105,-0.051378768,-0.75440186,-0.654399,-0.07749338,0.65630037,-0.75050956,,-0.08593678,0.26767442,-0.08772898,-0.82535464,-0.44306645,0.349974,0.55769426,-0.73648715,0.3828365,0.088129334,0.51115435,0.8549587,,-0.040159058,0.39058128,-0.35865128,-0.038391374,-0.032808844,-0.99872404,0.7745208,-0.63248444,-0.008995313,-0.6313823,-0.7738779,0.049693078,,1.1725734232250042,0.3918360205724032,0.20291345886,3.5695519079370577,-0.0894969073463635,-0.664580296548121,-0.40541997214528114,,-0.9133212806372875,-0.2822813320186543,0.21771320179000003,-1.5533831013333563,-1.0650815156716082,0.051388442947420176,0.8778110114056166,,-0.04931645967666478,-0.06459899893944013,0.08431779928,-0.06509005378220696,,-6.89812e-05,-1.2397766e-05,7.867813e-06,1.0,4.4655055e-05,3.905222e-05,-4.4662505e-05,1.0,4.5895576e-06,-3.9055943e-05,-4.61936e-06,1.0,120,0.364,0,0,0.0,False,-0.2533840643048717,1.0525083598070537
0.38948730000993237,13:54:29.470674,13:54:19.151255,0,,0.11777732,0.0010516495,0.03028588,0.8052513,0.5187786,-0.28712213,0.45259944,-0.22496551,0.8628697,0.3830458,-0.8247784,-0.41595268,,0.07607226,-0.025813073,0.015671134,-0.04761133,0.11462549,0.99226713,-0.12970671,-0.98569226,0.10764235,0.9904088,-0.12357855,0.061797805,,0.1062864,1.340444,0.44017825,0.9956681,0.012151332,-0.09218105,-0.051378768,-0.75440186,-0.654399,-0.07749338,0.65630037,-0.75050956,,-0.085959285,0.2679145,-0.08808144,-0.8255084,-0.4428932,0.3498306,0.55776155,-0.73490894,0.38576013,0.08624309,0.5135703,0.8537023,,-0.04015895,0.39057916,-0.35865578,-0.03838927,-0.032798413,-0.99872446,0.7745336,-0.6324687,-0.009001292,-0.6313667,-0.7738912,0.049683485,,1.1731062917933257,0.39246928466808956,0.20252068299000003,3.5695519079370577,-0.09099990884378334,-0.6666218492130829,-0.4044399077484754,,-0.9133212806372875,-0.28230450021727693,0.21771190550000002,-1.5533831013333563,-1.0650815156716082,0.051388442947420176,0.8778110114056166,,-0.04931645967666478,-0.06459899893944013,0.08431779928,-0.06509005378220696,,-6.89812e-05,-1.2397766e-05,7.867813e-06,1.0,4.4655055e-05,3.905222e-05,-4.4662505e-05,1.0,4.5895576e-06,-3.9055943e-05,-4.61936e-06,1.0,135,0.409,0,0,0.0,False,-0.2527287094011399,1.0518807171969207
0.41317766602151096,13:54:29.509096,13:54:19.151255,0,,0.11772446,0.000921309,0.03108196,0.8042959,0.5195165,-0.28846246,0.45193383,-0.21959627,0.8646,0.38582876,-0.82576025,-0.4114076,,0.0760736,-0.025824234,0.015671015,-0.047620077,0.1146783,0.9922605,-0.12966058,-0.9856924,0.10769661,0.9904143,-0.12352839,0.061807994,,0.1062864,1.340444,0.44017825,0.9956681,0.012151332,-0.09218105,-0.051378768,-0.75440186,-0.654399,-0.07749338,0.65630037,-0.75050956,,-0.085987106,0.2683438,-0.0887659,-0.8248448,-0.44338313,0.35077408,0.5591378,-0.73155767,0.39011315,0.083641894,0.5179138,0.85133386,,-0.04015948,0.39057305,-0.3586652,-0.03838436,-0.03285565,-0.99872273,0.7745635,-0.63243264,-0.008963587,-0.6313304,-0.7739182,0.049724307,,1.1740948016012265,0.39353502180473254,0.20176624221000003,3.567874388389182,-0.09318609284003039,-0.670066602122936,-0.4050932840130125,,-0.9133212806372875,-0.2823585593473965,0.21771060921000002,-1.5533831013333563,-1.0650815156716082,0.05130676420727959,0.8776476673394824,,-0.04931645967666478,-0.06459899893944013,0.08431779928,-0.06509005378220696,,-6.89812e-05,-1.2397766e-05,7.867813e-06,1.0,4.4655055e-05,3.905222e-05,-4.4662505e-05,1.0,4.5895576e-06,-3.9055943e-05,-4.61936e-06,1.0,143,0.433,0,0,0.0,False,-0.25332448658635043,1.052749760810951
0.4515922029968351,13:54:29.538272,13:54:19.317542,0,,0.117706925,0.00083474815,0.031667933,0.8038642,0.5206219,-0.28767204,0.44893715,-0.21377507,0.86761487,0.39020222,-0.8265913,-0.40557265,,0.076076284,-0.025831938,0.015671015,-0.04763344,0.1148185,0.99224377,-0.12962994,-0.98568124,0.10783614,0.9904177,-0.12348774,0.06183529,,0.1062864,1.340444,0.44017825,0.9956681,0.012151332,-0.09218105,-0.051378768,-0.75440186,-0.654399,-0.07749338,0.65630037,-0.75050956,,-0.086028576,0.26866594,-0.08926158,-0.8249205,-0.44424048,0.34950903,0.55979043,-0.7277834,0.3961894,0.07836347,0.52247655,0.849045,,-0.040161602,0.3905687,-0.35867175,-0.038373563,-0.032999534,-0.99871844,0.77458394,-0.63240904,-0.008865705,-0.631306,-0.77393144,0.049828697,,1.1748207384914036,0.3942764041606581,0.20121920783000002,3.5676646984456974,-0.09810500683158624,-0.6742234316039212,-0.40476659588074404,,-0.9133290033701617,-0.28239717301176764,0.21771060921000002,-1.5533831013333563,-1.0650815156716082,0.05114340672699852,0.8776476673394822,,-0.04931645967666478,-0.06459899893944013,0.08431779928,-0.06509005378220696,,-6.89812e-05,-1.2397766e-05,7.867813e-06,1.0,4.4655055e-05,3.905222e-05,-4.4662505e-05,1.0,4.5895576e-06,-3.9055943e-05,-4.61936e-06,1.0,155,0.47,0,0,0.0,False,-0.25320533114930877,1.0527014806101715
0.48078292701393366,13:54:29.571261,13:54:19.317542,0,,0.11769135,0.00077459216,0.032229498,0.80242586,0.5226222,-0.2880603,0.44699967,-0.20659411,0.87035054,0.39535296,-0.82715476,-0.3993884,,0.07607617,-0.02583836,0.015669405,-0.047613285,0.11463094,0.99226636,-0.12970725,-0.98569167,0.10764749,0.99040854,-0.12357852,0.06180048,,0.1062864,1.340444,0.44017825,0.9956681,0.012151332,-0.09218105,-0.051378768,-0.75440186,-0.654399,-0.07749338,0.65630037,-0.75050956,,-0.086068906,0.2689917,-0.0897214,-0.8240402,-0.44597623,0.34937522,0.5617938,-0.7228504,0.40233698,0.07311329,0.5278187,0.8462044,,-0.040160883,0.39056402,-0.35867637,-0.03838727,-0.032803874,-0.99872434,0.7745334,-0.632469,-0.008996264,-0.6313671,-0.77389073,0.049686458,,1.1755698435802033,0.39506412291382903,0.20070717328,3.5657774889543368,-0.10316055732290753,-0.6790039518424749,-0.4029698111532669,,-0.9133212806372875,-0.28242034121039034,0.21771060921000002,-1.5531734113898719,-1.0650815156716082,0.05114340672699852,0.8776476673394822,,-0.04931645967666478,-0.06459899893944013,0.08431779928,-0.06509005378220696,,-6.89812e-05,-1.2397766e-05,7.867813e-06,1.0,4.4655055e-05,3.905222e-05,-4.4662505e-05,1.0,4.5895576e-06,-3.9055943e-05,-4.61936e-06,1.0,163,0.495,0,0,0.0,False,-0.25308617571226666,1.0523635192047154
0.513727440033108,13:54:29.598655,13:54:19.317542,0,,0.11765073,0.0007331073,0.032723054,0.80194235,0.5234442,-0.28791425,0.44530427,-0.2024954,0.87218094,0.39823672,-0.8276484,-0.39548165,,0.07607798,-0.02584143,0.015669882,-0.047604866,0.11444798,0.99228793,-0.12980247,-0.9856995,0.10746086,0.9903964,-0.1236856,0.061779723,,0.1062864,1.340444,0.44017825,0.9956681,0.012151332,-0.09218105,-0.051378768,-0.75440186,-0.654399,-0.07749338,0.65630037,-0.75050956,,-0.08607725,0.2692877,-0.0901205,-0.8238844,-0.44663224,0.34890416,0.56244326,-0.7201345,0.4062805,0.069799975,0.53096694,0.8445129,,-0.040162515,0.39056262,-0.35867926,-0.038387787,-0.03261142,-0.99873066,0.77447253,-0.63254184,-0.009113767,-0.6314417,-0.7738393,0.04953853,,1.1763652850662485,0.39579778253688036,0.20026124952000002,3.565148419123883,-0.10616656031774722,-0.6815351611097279,-0.4050932840130126,,-0.9133290033701617,-0.28242806394326453,0.21771060921000002,-1.5529637214463874,-1.0650815156716082,0.05114340672699852,0.8776476673394822,,-0.04931645967666478,-0.06459899893944013,0.08431779928,-0.06509005378220696,,-6.89812e-05,-1.2397766e-05,7.867813e-06,1.0,4.4655055e-05,3.905222e-05,-4.4662505e-05,1.0,4.5895576e-06,-3.9055943e-05,-4.61936e-06,1.0,178,0.54,0,0,0.0,False,-0.25278828711966117,1.0524600796062742
0.5411618670332246,13:54:29.637755,13:54:19.317542,0,,0.117560685,0.00070624053,0.03329195,0.7999289,0.52665484,-0.2876603,0.44438905,-0.19773847,0.87373775,0.40327674,-0.82676125,-0.39221644,,0.076079234,-0.025841296,0.015670776,-0.047611985,0.11444625,0.99228776,-0.12980476,-0.98569953,0.10745811,0.9903958,-0.12368724,0.061786775,,0.1062864,1.340444,0.44017825,0.9956681,0.012151332,-0.09218105,-0.051378768,-0.75440186,-0.654399,-0.07749338,0.65630037,-0.75050956,,-0.08604325,0.2696465,-0.090570584,-0.8223926,-0.4497797,0.34838003,0.56516564,-0.71611655,0.40959108,0.06525497,0.5337371,0.843129,,-0.040163852,0.39056328,-0.35867962,-0.038380496,-0.032609545,-0.99873096,0.77447164,-0.632543,-0.009109228,-0.63144326,-0.77383846,0.049532484,,1.1775623086617533,0.3965623330914286,0.19975828900000003,3.562003069971615,-0.11081220130977221,-0.6828110342727644,-0.4050932840130126,,-0.9133367261030358,-0.28242806394326453,0.21771060921000002,-1.5529637214463874,-1.0650815156716082,0.05114340672699852,0.8776476673394822,,-0.04931645967666478,-0.06459899893944013,0.08431779928,-0.06509005378220696,,-6.89812e-05,-1.2397766e-05,7.867813e-06,1.0,4.4655055e-05,3.905222e-05,-4.4662505e-05,1.0,4.5895576e-06,-3.9055943e-05,-4.61936e-06,1.0,186,0.564,0,0,0.0,False,-0.25397984149008224,1.0520738380000385
0.5802520849974826,13:54:29.672142,13:54:19.461493,0,,0.117467076,0.000701949,0.03368427,0.79759943,0.53006524,-0.2878644,0.44459307,-0.19409716,0.8744502,0.407642,-0.8254436,-0.3904752,,0.07607673,-0.025841534,0.015668988,-0.047597766,0.11436866,0.9922974,-0.12980008,-0.98570824,0.10738309,0.99039716,-0.123688996,0.061762564,,0.1062864,1.340444,0.44017825,0.9956681,0.012151332,-0.09218105,-0.051378768,-0.75440186,-0.654399,-0.07749338,0.65630037,-0.75050956,,-0.08598807,0.26990595,-0.09087445,-0.82049024,-0.4531984,0.348435,0.5682968,-0.71266073,0.41128263,0.061923325,0.5354679,0.8422824,,-0.04016118,0.39056197,-0.35867888,-0.038395073,-0.03253172,-0.9987329,0.7744735,-0.6325399,-0.009169972,-0.63144016,-0.77384424,0.04948137,,1.1785817094011508,0.3970411425296305,0.19941866102000003,3.5582286509888936,-0.11450138680343909,-0.6830699004785834,-0.4050932840130125,,-0.9133212806372875,-0.28242806394326453,0.21771060921000002,-1.5529637214463874,-1.0650815156716082,0.05122508546713905,0.8778110114056166,,-0.04931645967666478,-0.06459899893944013,0.08431779928,-0.06509005378220696,,-6.89812e-05,-1.2397766e-05,7.867813e-06,1.0,4.4655055e-05,3.905222e-05,-4.4662505e-05,1.0,4.5895576e-06,-3.9055943e-05,-4.61936e-06,1.0,198,0.601,0,0,0.0,False,-0.2543373078012081,1.0522669588031563
0.6146505250362679,13:54:29.703367,13:54:19.461493,0,,0.11734013,0.0006926209,0.034124985,0.7964942,0.53259295,-0.28625458,0.44210184,-0.19001094,0.876608,0.41248384,-0.824767,-0.3868029,,0.07607691,-0.025846466,0.015669525,-0.04760151,0.11435656,0.9922986,-0.12978041,-0.9857122,0.10737183,0.9903995,-0.123669684,0.061762616,,0.1062864,1.340444,0.44017825,0.9956681,0.012151332,-0.09218105,-0.051378768,-0.75440186,-0.654399,-0.07749338,0.65630037,-0.75050956,,-0.08590453,0.27019498,-0.09122077,-0.81992686,-0.45566475,0.34653938,0.5696665,-0.7092557,0.4152546,0.056568157,0.53789026,0.84111476,,-0.040161073,0.39055985,-0.35868335,-0.038392965,-0.03252129,-0.99873334,0.77448624,-0.6325242,-0.009175947,-0.6314246,-0.7738576,0.04947177,,1.1798714057911464,0.3974504473719644,0.19903625547,3.5567608213845023,-0.12010348329382216,-0.6843009569770101,-0.40394987555007256,,-0.9133212806372875,-0.2824512321418872,0.21770931292,-1.5529637214463874,-1.0650815156716082,0.05122508546713905,0.8778110114056166,,-0.04931645967666478,-0.06459899893944013,0.08431779928,-0.06509005378220696,,-6.89812e-05,-1.2397766e-05,7.867813e-06,1.0,4.4655055e-05,3.905222e-05,-4.4662505e-05,1.0,4.5895576e-06,-3.9055943e-05,-4.61936e-06,1.0,206,0.626,0,0,0.0,False,-0.25254997624557696,1.0526049202086123
0.6458668290288188,13:54:29.731022,13:54:19.461493,0,,0.11724663,0.000687629,0.034351483,0.79443306,0.53565425,-0.2862702,0.44265044,-0.18791878,0.87678224,0.4158566,-0.82326245,-0.38639653,,0.07607932,-0.025852606,0.015669703,-0.04761363,0.11458185,0.992272,-0.12975627,-0.98569083,0.10759562,0.9904021,-0.123630375,0.061800025,,0.1062864,1.340444,0.44017825,0.9956681,0.012151332,-0.09218105,-0.051378768,-0.75440186,-0.654399,-0.07749338,0.65630037,-0.75050956,,-0.085833475,0.27034456,-0.09140143,-0.8181861,-0.45879737,0.34652057,0.57239044,-0.7068246,0.41565394,0.05422833,0.53842735,0.8409253,,-0.04016304,0.3905565,-0.35868868,-0.038382873,-0.03275023,-0.99872625,0.77450246,-0.63250655,-0.009024387,-0.63140535,-0.7738623,0.04964255,,1.1806591245443172,0.39758173383082623,0.19883921939000002,3.5534057822887495,-0.1229728497888964,-0.6835947558021965,-0.40394987555007256,,-0.9133290033701617,-0.2824821230733841,0.21770931292,-1.5529637214463874,-1.0650815156716082,0.05098004924671731,0.8776476673394824,,-0.04931645967666478,-0.06459899893944013,0.08431779928,-0.06509005378220696,,-6.89812e-05,-1.2397766e-05,7.867813e-06,1.0,4.4655055e-05,3.905222e-05,-4.4662505e-05,1.0,4.5895576e-06,-3.9055943e-05,-4.61936e-06,1.0,225,0.683,0,0,0.0,False,-0.2524903985270561,1.052122118200818
0.6735279639833607,13:54:29.784995,13:54:19.461493,0,,0.11718303,0.0007044226,0.03472756,0.78539383,0.550066,-0.28387308,0.44226372,-0.17780212,0.8790842,0.43308118,-0.8159742,-0.3829189,,0.07608286,-0.025861964,0.015671492,-0.047635358,0.1145542,0.9922742,-0.12972131,-0.9856986,0.10756763,0.9904056,-0.12359503,0.061814222,,0.1062864,1.340444,0.44017825,0.9956681,0.012151332,-0.09218105,-0.051378768,-0.75440186,-0.654399,-0.07749338,0.65630037,-0.75050956,,-0.085806005,0.27060786,-0.09167653,-0.81086427,-0.4735572,0.34386432,0.58384436,-0.6950432,0.41957203,0.040309206,0.5409792,0.8400694,,-0.04016608,0.3905527,-0.35869762,-0.038364086,-0.032725614,-0.9987278,0.77452624,-0.6324774,-0.009027264,-0.63137734,-0.7738872,0.049611263,,1.1817557526124571,0.39764351569382,0.1985397764,3.5408243856796786,-0.13868604726192205,-0.6830335078981924,-0.40394987555007267,,-0.91334444883591,-0.2825284594706295,0.21770801663000003,-1.5529637214463874,-1.0650815156716082,0.05098004924671734,0.877974355471751,,-0.04931645967666478,-0.06459899893944013,0.08431779928,-0.06509005378220696,,-6.89812e-05,-1.2397766e-05,7.867813e-06,1.0,4.4655055e-05,3.905222e-05,-4.4662505e-05,1.0,4.5895576e-06,-3.9055943e-05,-4.61936e-06,1.0,233,0.708,0,0,0.0,False,-0.252847864838182,1.0526532004093918
0.7274278990225866,13:54:29.804495,13:54:19.461493,0,,0.11719023,0.0007317811,0.034871325,0.78142935,0.5582681,-0.27875605,0.43882522,-0.17406112,0.88155264,0.44362214,-0.81119645,-0.3809986,,0.0760819,-0.025863633,0.015670478,-0.04762949,0.114632934,0.9922654,-0.12971249,-0.9856911,0.10764715,0.9904071,-0.1235818,0.06181728,,0.1062864,1.340444,0.44017825,0.9956681,0.012151332,-0.09218105,-0.051378768,-0.75440186,-0.654399,-0.07749338,0.65630037,-0.75050956,,-0.08582627,0.2707229,-0.091765024,-0.80803216,-0.4820743,0.3386568,0.58838326,-0.6894367,0.42247158,0.029819727,0.54063064,0.84073144,,-0.040164903,0.39055106,-0.3586985,-0.038370673,-0.032805588,-0.99872494,0.77453136,-0.6324717,-0.008982137,-0.6313706,-0.77388847,0.049677324,,1.1821727801876654,0.39760490202944887,0.19844385094000003,3.5364208968665034,-0.14989024024268818,-0.6812483264077365,-0.40460325181460965,,-0.9133367261030358,-0.2825361822035037,0.21770801663000003,-1.5529637214463874,-1.0650815156716082,0.05089837050657678,0.8778110114056168,,-0.04931645967666478,-0.06459899893944013,0.08431779928,-0.06509005378220696,,-6.89812e-05,-1.2397766e-05,7.867813e-06,1.0,4.4655055e-05,3.905222e-05,-4.4662505e-05,1.0,4.5895576e-06,-3.9055943e-05,-4.61936e-06,1.0,241,0.732,0,0,0.0,False,-0.252847864838182,1.0528946014132892
0.7469833890208974,13:54:29.839696,13:54:19.634492,0,,0.117237,0.0008048266,0.03505461,0.76921785,0.57877403,-0.27078503,0.43651447,-0.16648579,0.8841592,0.46664655,-0.7983127,-0.3807071,,0.07608304,-0.025869861,0.015669763,-0.04763449,0.114535764,0.9922764,-0.12968609,-0.9857049,0.107551634,0.9904103,-0.123561114,0.06180724,,0.1062864,1.340444,0.44017825,0.9956681,0.012151332,-0.09218105,-0.051378768,-0.75440186,-0.654399,-0.07749338,0.65630037,-0.75050956,,-0.08588844,0.27089655,-0.09184923,-0.798167,-0.503508,0.33077055,0.6023529,-0.67613506,0.4242786,0.010017917,0.5378858,0.8429582,,-0.040165532,0.39054707,-0.35870343,-0.038367867,-0.032710105,-0.99872816,0.7745485,-0.6324499,-0.009041767,-0.6313498,-0.7739103,0.049601316,,1.1826747578244898,0.39744272463909014,0.19835440693000003,3.5211135309921326,-0.17175208020515864,-0.674611449215566,-0.4050932840130127,,-0.9133367261030358,-0.28256707313500057,0.21770801663000003,-1.5529637214463874,-1.0650815156716082,0.05098004924671731,0.8776476673394824,,-0.04931645967666478,-0.06459899893944013,0.08431779928,-0.06509005378220696,,-6.89812e-05,-1.2397766e-05,7.867813e-06,1.0,4.4655055e-05,3.905222e-05,-4.4662505e-05,1.0,4.5895576e-06,-3.9055943e-05,-4.61936e-06,1.0,249,0.757,0,0,0.0,False,-0.2524308208085344,1.052025557799259
0.7822013670229353,13:54:29.864147,13:54:19.634492,0,,0.117302224,0.0008992404,0.035263523,0.7557224,0.60313034,-0.25518107,0.42885548,-0.16128469,0.88885885,0.4949411,-0.78116643,-0.38054225,,0.07608198,-0.025874913,0.015669465,-0.04763113,0.11452539,0.99227774,-0.12966403,-0.9857087,0.107543126,0.9904134,-0.12354013,0.061800234,,0.1062864,1.340444,0.44017825,0.9956681,0.012151332,-0.09218105,-0.051378768,-0.75440186,-0.654399,-0.07749338,0.65630037,-0.75050956,,-0.085970856,0.27110237,-0.09193675,-0.7876817,-0.5292498,0.31536052,0.6158378,-0.6619703,0.42724597,-0.017360555,0.53074473,0.8473539,,-0.04016409,0.3905443,-0.35870752,-0.03837305,-0.03270155,-0.9987283,0.7745622,-0.632433,-0.009052284,-0.6313327,-0.77392447,0.049597766,,1.1832848537215537,0.3971338153241212,0.19827144437000002,3.506435234948216,-0.2012655641544938,-0.6632053867389262,-0.402969811153267,,-0.9133290033701617,-0.28259024133362326,0.21770672034000002,-1.5529637214463874,-1.0650815156716082,0.05098004924671734,0.877974355471751,,-0.04931645967666478,-0.06459899893944013,0.08431779928,-0.06509005378220696,,-6.89812e-05,-1.2397766e-05,7.867813e-06,1.0,4.4655055e-05,3.905222e-05,-4.4662505e-05,1.0,4.5895576e-06,-3.9055943e-05,-4.61936e-06,1.0,272,0.827,0,0,0.0,False,-0.2538011083345184,1.0521703984015973
0.8066132960375398,13:54:29.925297,13:54:19.634492,0,,0.11733048,0.0011011809,0.0358025,0.7103918,0.66574043,-0.22832665,0.4114789,-0.12967041,0.90214777,0.5709891,-0.73483014,-0.36605504,,0.076084055,-0.02589126,0.01567179,-0.04761477,0.11421805,0.992314,-0.12981248,-0.98572326,0.10723059,0.9903947,-0.123708814,0.061761916,,0.1062864,1.340444,0.44017825,0.9956681,0.012151332,-0.09218105,-0.051378768,-0.75440186,-0.654399,-0.07749338,0.65630037,-0.75050956,,-0.086045295,0.27160808,-0.092202775,-0.7503978,-0.59513086,0.28761503,0.65487856,-0.6103733,0.4456214,-0.089650504,0.52274626,0.8477613,,-0.040165223,0.39053747,-0.35872266,-0.03837708,-0.032379225,-0.9987386,0.774467,-0.63254666,-0.009252081,-0.6314492,-0.77384514,0.049351934,,1.1851460323442418,0.39560471421502474,0.19807570458,3.4575774781163218,-0.28065137051821465,-0.6464986838939559,-0.40591000434368396,,-0.9133367261030358,-0.28265202319661703,0.21770283147000002,-1.5525443415594185,-1.0650815156716082,0.05089837050657678,0.8778110114056168,,-0.04931645967666478,-0.06459899893944013,0.08431779928,-0.06509005378220696,,-6.89812e-05,-1.2397766e-05,7.867813e-06,1.0,4.4655055e-05,3.905222e-05,-4.4662505e-05,1.0,4.5895576e-06,-3.9055943e-05,-4.61936e-06,1.0,280,0.851,0,0,0.0,False,-0.2548735072678969,1.0522186786023768
0.8677995559992269,13:54:29.953997,13:54:19.634492,0,,0.11725855,0.0011555105,0.035965964,0.69306004,0.6876503,-0.21634416,0.40559074,-0.12385985,0.90562403,0.5959563,-0.715399,-0.364747,,0.07608327,-0.025897875,0.015671253,-0.047612656,0.114203654,0.99231577,-0.12978387,-0.9857283,0.10721834,0.9903985,-0.123681426,0.061754934,,0.1062864,1.340444,0.44017825,0.9956681,0.012151332,-0.09218105,-0.051378768,-0.75440186,-0.654399,-0.07749338,0.65630037,-0.75050956,,-0.08598799,0.27175975,-0.09229534,-0.7357252,-0.6186419,0.2756638,0.66766346,-0.5941397,0.44857943,-0.113727234,0.51408184,0.8501682,,-0.040163938,0.3905337,-0.35872802,-0.038381558,-0.032367192,-0.9987388,0.77448493,-0.6325245,-0.009264583,-0.63142693,-0.77386373,0.04934518,,1.1860032556932807,0.39476293633173426,0.19802903814000003,3.439334453033169,-0.3075687609720064,-0.6341057694622068,-0.4031331552194012,,-0.9133290033701617,-0.28268291412811397,0.21770153518000002,-1.5525443415594185,-1.0650815156716082,0.05089837050657678,0.8778110114056168,,-0.04931645967666478,-0.06459899893944013,0.08431779928,-0.06509005378220696,,-6.89812e-05,-1.2397766e-05,7.867813e-06,1.0,4.4655055e-05,3.905222e-05,-4.4662505e-05,1.0,4.5895576e-06,-3.9055943e-05,-4.61936e-06,1.0,288,0.876,0,0,0.0,False,-0.25451604095677105,1.0525566400078332
0.8964910529903136,13:54:29.981332,13:54:19.778924,0,,0.11706692,0.0012265593,0.036238953,0.6570078,0.72723633,-0.19866547,0.40112585,-0.114100486,0.9088889,0.63830924,-0.6768371,-0.36667827,,0.07608421,-0.02591382,0.015669703,-0.04761804,0.114084005,0.99232924,-0.12971562,-0.98574984,0.10710308,0.9904073,-0.12362039,0.061737955,,0.1062864,1.340444,0.44017825,0.9956681,0.012151332,-0.09218105,-0.051378768,-0.75440186,-0.654399,-0.07749338,0.65630037,-0.75050956,,-0.08582167,0.27200127,-0.092469364,-0.7040638,-0.6614746,0.2583516,0.6937822,-0.5630864,0.44899884,-0.15152706,0.49536353,0.8553681,,-0.0401636,0.39052394,-0.35874075,-0.03838183,-0.03225272,-0.9987425,0.7745285,-0.63247,-0.009340688,-0.63137347,-0.7739131,0.049256008,,1.1874396840078865,0.3931179942295244,0.19794866816,3.39907398388414,-0.3510191678974165,-0.6070061075810822,-0.40476659588074393,,-0.9133212806372875,-0.2827601414568562,0.21770023889,-1.5525443415594185,-1.0650815156716082,0.05098004924671731,0.8776476673394824,,-0.04931645967666478,-0.06459899893944013,0.08431779928,-0.06509005378220696,,-6.89812e-05,-1.2397766e-05,7.867813e-06,1.0,4.4655055e-05,3.905222e-05,-4.4662505e-05,1.0,4.5895576e-06,-3.9055943e-05,-4.61936e-06,1.0,296,0.9,0,0,0.0,False,-0.25546928445310746,1.0527980410117301
0.9238386389915831,13:54:30.007326,13:54:19.778924,0,,0.11674997,0.0012883395,0.036536977,0.61343646,0.7679988,-0.18404731,0.3995254,-0.100762576,0.9111675,0.68123055,-0.63247514,-0.3686465,,0.07608895,-0.025929332,0.015669525,-0.047492202,0.11405833,0.99233824,-0.12973893,-0.985748,0.107091725,0.9904102,-0.12365869,0.061613142,,0.1062864,1.340444,0.44017825,0.9956681,0.012151332,-0.09218105,-0.051378768,-0.75440186,-0.654399,-0.07749338,0.65630037,-0.75050956,,-0.08553334,0.27225775,-0.09267956,-0.6648961,-0.7059374,0.24406062,0.7227483,-0.52557325,0.4487847,-0.18854219,0.4747896,0.8596666,,-0.0401672,0.39051515,-0.35875392,-0.038505435,-0.032223687,-0.9987387,0.774504,-0.6324984,-0.009453106,-0.631396,-0.7738911,0.049312,,1.18914640797309,0.391140974613723,0.19785533528000002,3.3493774672783077,-0.3944695748228266,-0.5761492236534915,-0.4054199721452809,,-0.9133367261030358,-0.2828296460527242,0.21769894260000003,-1.5523346516159338,-1.0649448791718428,0.05078695260288049,0.8778110114056168,,-0.04931645967666478,-0.06459899893944013,0.08431779928,-0.06509005378220696,,-6.89812e-05,-1.2397766e-05,7.867813e-06,1.0,4.4655055e-05,3.905222e-05,-4.4662505e-05,1.0,4.5895576e-06,-3.9055943e-05,-4.61936e-06,1.0,304,0.925,0,0,0.0,False,-0.25588632848275505,1.0518324369961412
0.9498341230209917,13:54:30.026839,13:54:19.778924,0,,0.11649522,0.0013403594,0.036742255,0.58009416,0.7947111,-0.17867574,0.40165925,-0.08824885,0.9115273,0.70863295,-0.60053843,-0.3703957,,0.07609343,-0.025957659,0.015667439,-0.0475147,0.11512041,0.9922145,-0.12962028,-0.9856479,0.10815136,0.99042463,-0.123472124,0.061754704,,0.1062864,1.340444,0.44017825,0.9956681,0.012151332,-0.09218105,-0.051378768,-0.75440186,-0.654399,-0.07749338,0.65630037,-0.75050956,,-0.085298225,0.27244306,-0.09282143,-0.63430506,-0.73524576,0.23889488,0.7438467,-0.49626866,0.44767115,-0.21059227,0.46166125,0.8616959,,-0.04016946,0.39049807,-0.35877693,-0.038492806,-0.033303138,-0.9987038,0.7745808,-0.6324142,-0.008765771,-0.63130254,-0.77391416,0.05013937,,1.1902662042398526,0.38987444642235014,0.19779181707000001,3.310165447846701,-0.42084041927755655,-0.5548089257203633,-0.405419972145281,,-0.9133367261030358,-0.28296865524446024,0.21769764631000002,-1.5523346516159338,-1.0649448791718428,0.04964345024091257,0.8774843232733482,,-0.04931645967666478,-0.06459899893944013,0.08431779928,-0.06509005378220696,,-6.89812e-05,-1.2397766e-05,7.867813e-06,1.0,4.4655055e-05,3.905222e-05,-4.4662505e-05,1.0,4.5895576e-06,-3.9055943e-05,-4.61936e-06,1.0,319,0.97,0,0,0.0,False,-0.25582675076423333,1.0517358765945823
0.9692711530369706,13:54:30.073774,13:54:19.778924,0,,0.11595249,0.0014320761,0.037212864,0.5146035,0.84363276,-0.15318921,0.3938411,-0.07387003,0.9162054,0.7616249,-0.5318148,-0.3702711,,0.076102406,-0.026011258,0.015662491,-0.047467794,0.1141175,0.99233264,-0.12992656,-0.98571783,0.10714186,0.9903868,-0.123844385,0.06161674,,0.1062864,1.340444,0.44017825,0.9956681,0.012151332,-0.09218105,-0.051378768,-0.75440186,-0.654399,-0.07749338,0.65630037,-0.75050956,,-0.08480106,0.27284545,-0.09316105,-0.5744732,-0.79014677,0.21365541,0.77572525,-0.4422617,0.45017213,-0.26121044,0.42434973,0.8670043,,-0.040174134,0.3904648,-0.35881996,-0.03851426,-0.032266792,-0.998737,0.77438337,-0.6326465,-0.009423231,-0.6315434,-0.7737682,0.04935278,,1.1925830241021198,0.38718693538212,0.19764792888000002,3.2376127274010558,-0.47945747767693053,-0.5015381694451809,-0.4062366924759525,,-0.9133367261030358,-0.28319261449781274,0.21769635002,-1.5512862018985112,-1.0649448791718428,0.04964345024091257,0.8778110114056168,,-0.04931645967666478,-0.06459899893944013,0.08431779928,-0.06509005378220696,,-6.89812e-05,-1.2397766e-05,7.867813e-06,1.0,4.4655055e-05,3.905222e-05,-4.4662505e-05,1.0,4.5895576e-06,-3.9055943e-05,-4.61936e-06,1.0,327,0.995,0,0,0.0,False,-0.25576717304571295,1.0523635192047154
1.0162811760092154,13:54:30.094792,13:54:19.778924,0,,0.115648106,0.0014663786,0.037432715,0.48419636,0.8630524,-0.14385565,0.38961947,-0.06546521,0.9186462,0.78342235,-0.50085425,-0.3679601,,0.07610823,-0.026036128,0.015660524,-0.04749491,0.1139702,0.9923482,-0.12982345,-0.98574704,0.10699858,0.990399,-0.123747975,0.06161397,,0.1062864,1.340444,0.44017825,0.9956681,0.012151332,-0.09218105,-0.051378768,-0.75440186,-0.654399,-0.07749338,0.65630037,-0.75050956,,-0.08451845,0.2730292,-0.09332993,-0.5464393,-0.8122196,0.20421416,0.7882318,-0.41637227,0.45312777,-0.28301015,0.4085749,0.8677395,,-0.04017799,0.39044952,-0.35884014,-0.038495738,-0.03212771,-0.99874216,0.7744507,-0.6325629,-0.00950221,-0.6314619,-0.7738424,0.0492323,,1.1937491567661278,0.3858972389921245,0.19757663293000002,3.2036429565565636,-0.5047352301335369,-0.4782304588367043,-0.4064000365420867,,-0.91334444883591,-0.28331617822380034,0.21769635002,-1.5512862018985112,-1.0649448791718428,0.04972512898105316,0.8783010436040195,,-0.04931645967666478,-0.06459899893944013,0.08431779928,-0.06509005378220696,,-6.89812e-05,-1.2397766e-05,7.867813e-06,1.0,4.4655055e-05,3.905222e-05,-4.4662505e-05,1.0,4.5895576e-06,-3.9055943e-05,-4.61936e-06,1.0,360,1.096,0,0,0.0,False,-0.25672041654204936,1.0523635192047154
1.0372794340364635,13:54:30.194627,13:54:19.934126,0,,0.11388205,0.0016541183,0.03834884,0.33071473,0.93915355,-0.09283529,0.355105,-0.032696083,0.93425435,0.8743731,-0.34193802,-0.34431127,,0.076139644,-0.026140839,0.015654802,-0.047229245,0.11424146,0.9923297,-0.1294407,-0.9857619,0.107324734,0.9904618,-0.12337881,0.06134428,,0.1062864,1.340444,0.44017825,0.9956681,0.012151332,-0.09218105,-0.051378768,-0.75440186,-0.654399,-0.07749338,0.65630037,-0.75050956,,-0.08284442,0.27384987,-0.0940494,-0.40346524,-0.90234774,0.15160598,0.82887125,-0.29025993,0.47824848,-0.3875413,0.31861848,0.8650399,,-0.040201284,0.3903863,-0.35892645,-0.038792405,-0.03243133,-0.9987209,0.77467215,-0.63229084,-0.009557585,-0.6311721,-0.77405196,0.04965173,,1.1993790290314374,0.3792325205216688,0.19743144845000002,3.027713093973047,-0.6256585324259518,-0.3442587195845079,-0.40934022973250384,,-0.9134216761646523,-0.2838336013263734,0.21769505373000003,-1.5510765119550265,-1.0645349696725466,0.04898248156926108,0.8774843232733482,,-0.04931645967666478,-0.06459899893944013,0.08431779928,-0.06509005378220696,,-6.89812e-05,-1.2397766e-05,7.867813e-06,1.0,4.4655055e-05,3.905222e-05,-4.4662505e-05,1.0,4.5895576e-06,-3.9055943e-05,-4.61936e-06,1.0,364,1.109,0,0,0.0,False,-0.2575545046013441,1.052025557799259
1.1371024760301225,13:54:30.218336,13:54:19.934126,0,,0.113208756,0.0016261339,0.038509503,0.28749636,0.9544503,-0.07981526,0.3428827,-0.024754375,0.939052,0.8943027,-0.29734132,-0.33438125,,0.07614152,-0.026155204,0.015654385,-0.0472227,0.114032,0.99235415,-0.12948754,-0.98577857,0.10711455,0.990456,-0.12343907,0.061316855,,0.1062864,1.340444,0.44017825,0.9956681,0.012151332,-0.09218105,-0.051378768,-0.75440186,-0.654399,-0.07749338,0.65630037,-0.75050956,,-0.082190804,0.27396366,-0.09424878,-0.3627276,-0.9216465,0.13782784,0.83469003,-0.25555068,0.48783854,-0.41439265,0.29199603,0.8619844,,-0.040202092,0.39037818,-0.3589384,-0.038795054,-0.032216415,-0.99872774,0.774642,-0.6323257,-0.009693342,-0.63120896,-0.7740325,0.049487296,,1.2010548620651442,0.3767844142005396,0.19743922619,2.9775971974802458,-0.6555819258745833,-0.3045842742687065,-0.407706789071161,,-0.9134216761646523,-0.2838953831893672,0.21769375744000002,-1.5508668220115422,-1.0645349696725466,0.04898248156926108,0.8774843232733482,,-0.04931645967666478,-0.06459899893944013,0.08431779928,-0.06509005378220696,,-6.89812e-05,-1.2397766e-05,7.867813e-06,1.0,4.4655055e-05,3.905222e-05,-4.4662505e-05,1.0,4.5895576e-06,-3.9055943e-05,-4.61936e-06,1.0,376,1.146,0,0,0.0,False,-0.25779281547542787,1.0523635192047154
1.1608450100175105,13:54:30.245474,13:54:19.934126,0,,0.11277312,0.0015613288,0.03854488,0.26562166,0.9615241,-0.07011734,0.33683372,-0.024411812,0.9412476,0.90332067,-0.27363372,-0.33035812,,0.07614267,-0.026161447,0.01565367,-0.047227703,0.11409693,0.9923464,-0.12946114,-0.98577493,0.107180074,0.9904591,-0.12340826,0.061327003,,0.1062864,1.340444,0.44017825,0.9956681,0.012151332,-0.09218105,-0.051378768,-0.75440186,-0.654399,-0.07749338,0.65630037,-0.75050956,,-0.08176259,0.27395704,-0.094357476,-0.34200165,-0.9309612,0.12785214,0.83703315,-0.23996578,0.4917234,-0.42709526,0.2751867,0.86131406,,-0.040202722,0.39037418,-0.35894334,-0.03879225,-0.032284077,-0.99872565,0.77465904,-0.6323055,-0.009649665,-0.63118815,-0.7740462,0.049537707,,1.2021360446675355,0.3750236311052164,0.19745607796000003,2.9503375048272575,-0.6706119408487817,-0.27893299147904793,-0.40852350940183235,,-0.9134216761646523,-0.2839262741208641,0.21769375744000002,-1.5508668220115422,-1.0645349696725466,0.04890080282912043,0.8776476673394826,,-0.04931645967666478,-0.06459899893944013,0.08431779928,-0.06509005378220696,,-6.89812e-05,-1.2397766e-05,7.867813e-06,1.0,4.4655055e-05,3.905222e-05,-4.4662505e-05,1.0,4.5895576e-06,-3.9055943e-05,-4.61936e-06,1.0,384,1.171,0,0,0.0,False,-0.25791197091247,1.0525083598070537
1.1879845000221394,13:54:30.268280,13:54:19.934126,0,,0.11211498,0.0014511794,0.038551822,0.23403177,0.9706977,-0.05454462,0.33142045,-0.02691044,0.94309926,0.91399646,-0.23879239,-0.32800695,,0.07614375,-0.026170954,0.015652418,-0.047082763,0.11400982,0.9923633,-0.12950662,-0.9857767,0.10710867,0.99046016,-0.12347454,0.06117812,,0.1062864,1.340444,0.44017825,0.9956681,0.012151332,-0.09218105,-0.051378768,-0.75440186,-0.654399,-0.07749338,0.65630037,-0.75050956,,-0.08111152,0.27390715,-0.09449511,-0.3117516,-0.94351786,0.112182945,0.84136313,-0.21926284,0.4939958,-0.44149628,0.24839057,0.8621967,,-0.04020301,0.39036807,-0.3589508,-0.038933065,-0.032191128,-0.99872315,0.774619,-0.63235205,-0.009814696,-0.6312287,-0.774012,0.04955526,,1.2036728685095064,0.3724751292567223,0.19748848521,2.9092382759042907,-0.6876915033194617,-0.23756169682976636,-0.40738010093889243,,-0.9134216761646523,-0.2839648877852352,0.21769246115000002,-1.5506571320680576,-1.064398333172781,0.04878938492542392,0.8776476673394826,,-0.04931645967666478,-0.06459899893944013,0.08431779928,-0.06509005378220696,,-6.89812e-05,-1.2397766e-05,7.867813e-06,1.0,4.4655055e-05,3.905222e-05,-4.4662505e-05,1.0,4.5895576e-06,-3.9055943e-05,-4.61936e-06,1.0,392,1.195,0,0,0.0,False,-0.2579715486309908,1.0518324369961412
1.2107790290028788,13:54:30.302766,13:54:20.080628,0,,0.11140944,0.0013130158,0.03849359,0.20542797,0.9781369,-0.032365642,0.32820323,-0.03769785,0.9438546,0.921999,-0.20451665,-0.32877192,,0.07614943,-0.026184872,0.015653312,-0.046945203,0.11316483,0.9924665,-0.12964553,-0.9858484,0.10627779,0.9904485,-0.12367946,0.060952168,,0.1062864,1.340444,0.44017825,0.9956681,0.012151332,-0.09218105,-0.051378768,-0.75440186,-0.654399,-0.07749338,0.65630037,-0.75050956,,-0.08040777,0.2737953,-0.09460692,-0.28415364,-0.9545254,0.0902108,0.8454509,-0.20508026,0.49310744,-0.45218313,0.21638706,0.8652786,,-0.04020775,0.39036086,-0.35896313,-0.03905879,-0.03132747,-0.99874574,0.7745204,-0.6324626,-0.010451487,-0.6313419,-0.77395713,0.04896699,,1.2053564242760872,0.36974128181924687,0.19754292939,2.870445636359654,-0.7005353342974131,-0.1896795508979252,-0.40672672467435533,,-0.913444844363275,-0.2840189469153548,0.21769116486,-1.5502377521810884,-1.0642616966730156,0.04924971820271165,0.8771576351410797,,-0.04931645967666478,-0.06459899893944013,0.08431779928,-0.06509005378220696,,-6.89812e-05,-1.2397766e-05,7.867813e-06,1.0,4.4655055e-05,3.905222e-05,-4.4662505e-05,1.0,4.5895576e-06,-3.9055943e-05,-4.61936e-06,1.0,400,1.22,0,0,0.0,False,-0.25779281547542787,1.0515427557914643
1.2452708199853078,13:54:30.325906,13:54:20.080628,0,,0.11090563,0.0012345761,0.038420185,0.18539087,0.982316,-0.026181787,0.32862988,-0.036868185,0.9437388,0.92608464,-0.18356472,-0.3296535,,0.076149866,-0.026194409,0.015651345,-0.046927877,0.11215849,0.99258155,-0.12970993,-0.9859474,0.10527636,0.99044096,-0.1238071,0.06081648,,0.1062864,1.340444,0.44017825,0.9956681,0.012151332,-0.09218105,-0.051378768,-0.75440186,-0.654399,-0.07749338,0.65630037,-0.75050956,,-0.07990161,0.27370963,-0.0946497,-0.26459983,-0.96068066,0.08413996,0.84932405,-0.1908225,0.4921742,-0.45676646,0.2016913,0.8664208,,-0.040207334,0.3903542,-0.35897022,-0.039070744,-0.030309077,-0.9987767,0.7744783,-0.63250303,-0.011102443,-0.6313928,-0.77396464,0.04818609,,1.2065766160702147,0.36797277599104944,0.19759996615000003,2.842347183932728,-0.7058641577882654,-0.16434281643764026,-0.40852350940183246,,-0.9134371216304008,-0.2840575605797259,0.21769116486,-1.5500280622376041,-1.0642616966730156,0.050066505604117184,0.8776476673394826,,-0.04931645967666478,-0.06459899893944013,0.08431779928,-0.06509005378220696,,-6.89812e-05,-1.2397766e-05,7.867813e-06,1.0,4.4655055e-05,3.905222e-05,-4.4662505e-05,1.0,4.5895576e-06,-3.9055943e-05,-4.61936e-06,1.0,408,1.244,0,0,0.0,False,-0.25815028178655464,1.052025557799259
1.2684066650108434,13:54:30.348375,13:54:20.080628,0,,0.11024069,0.001168713,0.03839685,0.1625943,0.9866404,-0.010186769,0.31940615,-0.04286296,0.946648,0.9335646,-0.1571733,-0.32210836,,0.076151654,-0.026212081,0.015651584,-0.046941623,0.111708745,0.99263155,-0.12963739,-0.98600423,0.10483235,0.9904497,-0.12376103,0.060766265,,0.1062864,1.340444,0.44017825,0.9956681,0.012151332,-0.09218105,-0.051378768,-0.75440186,-0.654399,-0.07749338,0.65630037,-0.75050956,,-0.07923962,0.27367333,-0.09473612,-0.24289677,-0.9676953,0.06757922,0.84830964,-0.1781072,0.49864677,-0.4705018,0.17844778,0.8641669,,-0.040207896,0.39034498,-0.3589854,-0.03906303,-0.029862922,-0.9987904,0.7745252,-0.6324406,-0.011382545,-0.6313357,-0.774033,0.04783463,,1.2084609628915255,0.3656327879301594,0.19768422500000002,2.811103382353534,-0.721577355261291,-0.12816963783235114,-0.408850197534101,,-0.9134371216304008,-0.28415023337421663,0.21768857228000002,-1.5500280622376041,-1.0642616966730156,0.05047489930482013,0.8776476673394822,,-0.04931645967666478,-0.06459899893944013,0.08431779928,-0.06509005378220696,,-6.89812e-05,-1.2397766e-05,7.867813e-06,1.0,4.4655055e-05,3.905222e-05,-4.4662505e-05,1.0,4.5895576e-06,-3.9055943e-05,-4.61936e-06,1.0,441,1.346,0,0,0.0,False,-0.2580311263495121,1.0521703984015973
1.2908266650047153,13:54:30.446120,13:54:20.244312,0,,0.10796955,0.0010465533,0.03818752,0.0964665,0.9953226,0.005211003,0.31131202,-0.035144217,0.9496577,0.9453989,-0.08998791,-0.31324616,,0.07616443,-0.02630815,0.01565367,-0.046960235,0.11166224,0.99263597,-0.12967166,-0.98600507,0.10478175,0.9904444,-0.123796076,0.060782462,,0.1062864,1.340444,0.44017825,0.9956681,0.012151332,-0.09218105,-0.051378768,-0.75440186,-0.654399,-0.07749338,0.65630037,-0.75050956,,-0.076963164,0.27354097,-0.09486681,-0.17846973,-0.9825973,0.051488493,0.85287195,-0.12838838,0.5060888,-0.49067098,0.13423462,0.86094314,,-0.040214043,0.39029506,-0.35906827,-0.03904163,-0.02981334,-0.9987927,0.774505,-0.6324651,-0.011395797,-0.63136184,-0.7740149,0.04778305,,1.215565877135812,0.3590530195213201,0.19796681622,2.7127587988592916,-0.7422094667258725,-0.043633858797665404,-0.4086868534679666,,-0.9134525670961492,-0.28457498368229894,0.21767560938000002,-1.5491893024636658,-1.0642616966730156,0.049576433163273925,0.8781376995378851,,-0.04931645967666478,-0.06459899893944013,0.08431779928,-0.06509005378220696,,-6.89812e-05,-1.2397766e-05,7.867813e-06,1.0,4.4655055e-05,3.905222e-05,-4.4662505e-05,1.0,4.5895576e-06,-3.9055943e-05,-4.61936e-06,1.0,449,1.371,0,0,0.0,False,-0.25815028178655464,1.0517358765945823
1.388583188992925,13:54:30.476198,13:54:20.244312,0,,0.10727129,0.0010033101,0.038110837,0.07791701,0.9969157,0.009385385,0.31068727,-0.03322576,0.94993114,0.9473133,-0.071099885,-0.31231794,,0.07616886,-0.026348129,0.01565361,-0.046991464,0.1114803,0.9926549,-0.12950698,-0.98604524,0.104607254,0.99046445,-0.12363994,0.060773183,,0.1062864,1.340444,0.44017825,0.9956681,0.012151332,-0.09218105,-0.051378768,-0.75440186,-0.654399,-0.07749338,0.65630037,-0.75050956,,-0.07626224,0.2734879,-0.09490156,-0.16021594,-0.9859503,0.047253307,0.85446054,-0.11456325,0.50672716,-0.49419433,0.121561855,0.86081046,,-0.040215626,0.39027366,-0.35910228,-0.039024103,-0.0296448,-0.99879843,0.7746116,-0.63233274,-0.01149696,-0.6312321,-0.7741295,0.047639422,,1.2178209151350856,0.35713778176851246,0.19804588991000002,2.684240966545396,-0.7449421967211813,-0.018780489704801118,-0.40852350940183235,,-0.9134525670961492,-0.28476805200415456,0.21767042422000002,-1.5491893024636658,-1.0642616966730156,0.04965811190341454,0.8776476673394824,,-0.04931645967666478,-0.06459899893944013,0.08431779928,-0.06509005378220696,,-6.89812e-05,-1.2397766e-05,7.867813e-06,1.0,4.4655055e-05,3.905222e-05,-4.4662505e-05,1.0,4.5895576e-06,-3.9055943e-05,-4.61936e-06,1.0,457,1.396,0,0,0.0,False,-0.2580907040680329,1.0519289973977002
1.4186909970012493,13:54:30.499276,13:54:20.244312,0,,0.1068347,0.0009887516,0.038102612,0.064546004,0.9978281,0.013146609,0.30571377,-0.03231275,0.9515749,0.9499332,-0.057401277,-0.3071355,,0.07617615,-0.026383132,0.01565677,-0.047022708,0.11129421,0.99267435,-0.12947524,-0.9860692,0.10442048,0.99046713,-0.12361643,0.060777485,,0.1062864,1.340444,0.44017825,0.9956681,0.012151332,-0.09218105,-0.051378768,-0.75440186,-0.654399,-0.07749338,0.65630037,-0.75050956,,-0.07582748,0.27349025,-0.09494464,-0.14730373,-0.9881537,0.043057136,0.85302794,-0.10488517,0.51121664,-0.50064456,0.11203306,0.8583726,,-0.04022071,0.39025718,-0.35913378,-0.038995568,-0.029460592,-0.998805,0.7746342,-0.63230336,-0.011593123,-0.6312062,-0.77416056,0.04747821,,1.219172393388075,0.35597937183737877,0.19809644522000003,2.6641107319708817,-0.7512274757103916,-0.0008317039326973807,-0.4106469822615779,,-0.9134757352947719,-0.2849302293945133,0.21766523906000002,-1.5489796125201816,-1.0642616966730156,0.04957643316327395,0.877484323273348,,-0.04931645967666478,-0.06459899893944013,0.08431779928,-0.06509005378220696,,-6.89812e-05,-1.2397766e-05,7.867813e-06,1.0,4.4655055e-05,3.905222e-05,-4.4662505e-05,1.0,4.5895576e-06,-3.9055943e-05,-4.61936e-06,1.0,465,1.421,0,0,0.0,False,-0.25868648125324345,1.0515427557914643
1.4417598550207913,13:54:30.517818,13:54:20.244312,0,,0.10647726,0.00096429884,0.038054213,0.05347654,0.9984588,0.014839932,0.3037998,-0.030424356,0.95224994,0.9512339,-0.04641466,-0.3049587,,0.07638361,-0.026321411,0.015679419,-0.04711144,0.111465245,0.9926509,-0.1294663,-0.98605347,0.104579926,0.9904641,-0.12358782,0.060885392,,0.1062864,1.340444,0.44017825,0.9956681,0.012151332,-0.09218105,-0.051378768,-0.75440186,-0.654399,-0.07749338,0.65630037,-0.75050956,,-0.075467855,0.27345532,-0.09495714,-0.13646893,-0.989788,0.041181266,0.8529235,-0.096250944,0.51308596,-0.5038826,0.10514476,0.8573488,,-0.040433206,0.39028394,-0.35909513,-0.03890779,-0.029634267,-0.99880326,0.7746467,-0.6322912,-0.011415968,-0.6311962,-0.77416384,0.047557138,,1.2202458532575922,0.3549522483651069,0.19815607456,2.646496776718182,-0.7540968422054658,0.013269810625168355,-0.40819682126956386,,-0.9134834580276461,-0.28498428852463287,0.21766394277000004,-1.5489796125201816,-1.0642616966730156,0.04957643316327395,0.877484323273348,,-0.04931645967666478,-0.06459899893944013,0.08431779928,-0.06509005378220696,,-6.89812e-05,-1.2397766e-05,7.867813e-06,1.0,4.4655055e-05,3.905222e-05,-4.4662505e-05,1.0,4.5895576e-06,-3.9055943e-05,-4.61936e-06,1.0,469,1.433,0,0,0.0,False,-0.25820985950507547,1.0519772775984795
1.460281265026424,13:54:30.546153,13:54:20.244312,0,,0.10602378,0.00092950463,0.038013324,0.03325899,0.99931717,0.016088381,0.29683083,-0.025247417,0.95459616,0.9543507,-0.026973393,-0.29746813,,0.07638618,-0.026344784,0.01569146,-0.047142126,0.11139909,0.992657,-0.12937841,-0.9860718,0.10451582,0.9904741,-0.12350109,0.060898155,,0.10628712,1.3404423,0.4401856,0.9956678,0.012146562,-0.09218519,-0.051385064,-0.7544019,-0.65439844,-0.07749338,0.65630037,-0.75050956,,-0.07501302,0.27341595,-0.09498619,-0.11684638,-0.9923726,0.03928818,0.8506146,-0.07957887,0.5197326,-0.5126419,0.09414797,0.85342515,,-0.04043515,0.3902757,-0.35911706,-0.038883395,-0.029581798,-0.99880576,0.77470464,-0.6322199,-0.011434598,-0.63112664,-0.77422404,0.04750001,,1.2213733722572289,0.35370888837235676,0.19825070373000003,2.6175595645173177,-0.7620217591918613,0.03516933092612701,-0.4098302619309066,,-0.9134989034933946,-0.285092406784872,0.21765746132000002,-1.5489796125201816,-1.0642616966730156,0.049576433163273786,0.8768309470088111,,-0.04931645967666478,-0.06459899893944013,0.08431779928,-0.06509005378220696,,-6.874651e-05,-6.3180923e-06,3.4570694e-06,1.0,3.991276e-05,3.4902245e-05,-3.9916486e-05,0.99999994,4.142523e-06,-3.4909695e-05,-4.142523e-06,1.0,481,1.47,0,0,0.0,False,-0.25868648125324345,1.0517841567953616
1.48863286501728,13:54:30.571132,13:54:20.244312,0,,0.10564622,0.00088363886,0.03792329,0.014785856,0.99973226,0.017798014,0.29258746,-0.021346759,0.9560004,0.9561244,-0.008927815,-0.29282495,,0.07635622,-0.02637785,0.015717626,-0.047009222,0.11056921,0.99275607,-0.1297901,-0.9861057,0.1036827,0.9904265,-0.123975724,0.06070686,,0.10628712,1.3404423,0.4401856,0.9956678,0.012146562,-0.09218519,-0.051385064,-0.7544019,-0.65439844,-0.07749338,0.65630037,-0.75050956,,-0.07462996,0.27333835,-0.09498361,-0.098755874,-0.99441695,0.037178576,0.84939086,-0.06477076,0.5237747,-0.51844233,0.08330497,0.85104513,,-0.040405568,0.39028403,-0.35915864,-0.03898191,-0.028709998,-0.9988274,0.7744338,-0.6325403,-0.012042801,-0.6314528,-0.77399516,0.046891622,,1.2220452500172865,0.3526354285028396,0.19834662919,2.590509561807814,-0.7666674001838863,0.05611007508132343,-0.4085235094018324,,-0.9134293988975266,-0.28516963411361423,0.21761338746000003,-1.5479311628027588,-1.0642616966730156,0.049494754423133364,0.8769942910749453,,-0.04931645967666478,-0.06459899893944013,0.08431779928,-0.06509005378220696,,-6.874651e-05,-6.3180923e-06,3.4570694e-06,1.0,3.991276e-05,3.4902245e-05,-3.9916486e-05,0.99999994,4.142523e-06,-3.4909695e-05,-4.142523e-06,1.0,489,1.494,0,0,0.0,False,-0.2583885926606384,1.0517358765945823
1.5136346410145052,13:54:30.597514,13:54:20.393603,0,,0.10542104,0.00084236264,0.037863746,0.0011566058,0.9998159,0.019154176,0.28992757,-0.018666748,0.9568664,0.9570479,0.004446607,-0.28989592,,0.07634117,-0.026390292,0.015731633,-0.04696955,0.110382736,0.9927787,-0.1298542,-0.98611665,0.103498474,0.99042,-0.12405512,0.060651116,,0.10628712,1.3404423,0.4401856,0.9956678,0.012146562,-0.09218519,-0.051385064,-0.7544019,-0.65439844,-0.07749338,0.65630037,-0.75050956,,-0.07440133,0.27327776,-0.094986886,-0.085358664,-0.99571514,0.035570953,0.8485874,-0.053944513,0.5262978,-0.5221239,0.07510914,0.8495559,,-0.04039109,0.39029112,-0.35917646,-0.03901618,-0.02851648,-0.99883157,0.77439016,-0.63259095,-0.012188719,-0.63150424,-0.7739609,0.046764165,,1.2223001002021359,0.3520098871400274,0.19840107337000001,2.5707987071202685,-0.7692634936794297,0.07145897115432653,-0.409503573798638,,-0.9133985079660296,-0.2852005250451111,0.21759135053000003,-1.5477214728592743,-1.0642616966730156,0.049494754423133364,0.8769942910749453,,-0.04931645967666478,-0.06459899893944013,0.08431779928,-0.06509005378220696,,-6.874651e-05,-6.3180923e-06,3.4570694e-06,1.0,3.991276e-05,3.4902245e-05,-3.9916486e-05,0.99999994,4.142523e-06,-3.4909695e-05,-4.142523e-06,1.0,514,1.571,1,1,0.015,False,-0.25785239319394915,1.0521703984015973
1.5400199859868735,13:54:30.666897,13:54:20.393603,0,,0.10476827,0.00067928433,0.03767012,-0.041427396,0.9989518,0.019469239,0.27924773,-0.007133171,0.9601925,0.95932496,0.045215018,-0.2786597,,0.076318756,-0.0264289,0.015736043,-0.046903353,0.11023942,0.9927977,-0.12968585,-0.9861517,0.103374645,0.99044514,-0.123903096,0.060550317,,0.10628712,1.3404423,0.4401856,0.9956678,0.012146562,-0.09218519,-0.051385064,-0.7544019,-0.65439844,-0.07749338,0.65630037,-0.75050956,,-0.07373773,0.27305567,-0.09500942,-0.043507032,-0.9984653,0.03426667,0.8438978,-0.01837026,0.5361893,-0.53473693,0.052245576,0.8434019,,-0.04036656,0.39027742,-0.3592114,-0.03909614,-0.028386252,-0.99883217,0.7744915,-0.63246393,-0.012340757,-0.631375,-0.7740695,0.046711806,,1.2227480187088409,0.3501100948529681,0.19856570220000003,2.5087304838488493,-0.7782815026639488,0.11630309452280835,-0.4086868534679667,,-0.9132981124386648,-0.28536270243546985,0.21756801731000003,-1.5477214728592743,-1.0642616966730156,0.04957643316327395,0.877484323273348,,-0.04931645967666478,-0.06459899893944013,0.08431779928,-0.06509005378220696,,-6.874651e-05,-6.3180923e-06,3.4570694e-06,1.0,3.991276e-05,3.4902245e-05,-3.9916486e-05,0.99999994,4.142523e-06,-3.4909695e-05,-4.142523e-06,1.0,518,1.584,1,1,0.028,False,-0.25826943722359585,1.0517358765945823
1.6094020410091616,13:54:30.688194,13:54:20.393603,0,,0.10452454,0.0006311089,0.03760518,-0.056497052,0.998193,0.02046261,0.2703497,-0.0044344515,0.9627519,0.96110296,0.05992471,-0.26961085,,0.07631892,-0.026445352,0.015738726,-0.046933323,0.110453404,0.9927725,-0.12951371,-0.9861514,0.103594005,0.9904663,-0.12371555,0.06058859,,0.10628712,1.3404423,0.4401856,0.9956678,0.012146562,-0.09218519,-0.051385064,-0.7544019,-0.65439844,-0.07749338,0.65630037,-0.75050956,,-0.073490314,0.27298716,-0.09501492,-0.028932987,-0.9990536,0.032477066,0.83903706,-0.006613479,0.54403406,-0.5433044,0.04298999,0.8384344,,-0.04036582,0.39027104,-0.3592268,-0.039080482,-0.028616693,-0.9988262,0.7746027,-0.63233066,-0.0121909445,-0.63123953,-0.7741699,0.046878353,,1.2228715824348284,0.3493764352299168,0.19865644250000003,2.485664590065552,-0.7862064196503443,0.1343637140371607,-0.4099936059970408,,-0.9132981124386648,-0.2854476524970863,0.21756283215000002,-1.5479311628027588,-1.0642616966730156,0.04949475442313342,0.8773209792072139,,-0.04931645967666478,-0.06459899893944013,0.08431779928,-0.06509005378220696,,-6.874651e-05,-6.3180923e-06,3.4570694e-06,1.0,3.991276e-05,3.4902245e-05,-3.9916486e-05,0.99999994,4.142523e-06,-3.4909695e-05,-4.142523e-06,1.0,531,1.624,1,1,0.068,False,-0.2579715486309908,1.0517358765945823
1.6306639040121809,13:54:30.726073,13:54:20.393603,0,,0.10428268,0.0005875975,0.037460133,-0.07177131,0.99727494,0.017075688,0.26597357,0.0026359037,0.9639767,0.9613048,0.07372755,-0.26543808,,0.07632209,-0.026467972,0.015740395,-0.04692304,0.1101298,0.992809,-0.12963635,-0.98616964,0.10326634,0.99045074,-0.12385839,0.060550913,,0.10628712,1.3404423,0.4401856,0.9956678,0.012146562,-0.09218519,-0.051385064,-0.7544019,-0.65439844,-0.07749338,0.65630037,-0.75050956,,-0.07323689,0.27286923,-0.09495745,-0.013877322,-0.9992741,0.035478637,0.83654004,0.007833715,0.54784983,-0.54773,0.037281986,0.8358241,,-0.04036754,0.39026025,-0.3592469,-0.03908059,-0.028280428,-0.9988358,0.77452433,-0.63242257,-0.012398121,-0.6313357,-0.77410716,0.046619326,,1.222995146160816,0.3486504983397397,0.19878736779000003,2.4628083862257384,-0.7890757861454185,0.14781179867390187,-0.40836016533569813,,-0.913305835171539,-0.285540325291577,0.21755894328000003,-1.5475117829157896,-1.0642616966730156,0.049413075682992774,0.8774843232733482,,-0.04931645967666478,-0.06459899893944013,0.08431779928,-0.06509005378220696,,-6.874651e-05,-6.3180923e-06,3.4570694e-06,1.0,3.991276e-05,3.4902245e-05,-3.9916486e-05,0.99999994,4.142523e-06,-3.4909695e-05,-4.142523e-06,1.0,539,1.65,1,1,0.094,False,-0.25725661600873906,1.0516875963938028
1.6685773420031182,13:54:30.750204,13:54:20.393603,0,,0.10418043,0.0005772263,0.03735189,-0.07605856,0.99693024,0.018577717,0.26210177,0.002013078,0.9650381,0.9620382,0.07826866,-0.2614505,,0.07632395,-0.026482321,0.015739918,-0.04691689,0.11016352,0.99280554,-0.12968329,-0.98616016,0.10329773,0.9904449,-0.12390375,0.06055393,,0.10628712,1.3404423,0.4401856,0.9956678,0.012146562,-0.09218519,-0.051385064,-0.7544019,-0.65439844,-0.07749338,0.65630037,-0.75050956,,-0.07312502,0.27279446,-0.09489285,-0.009790386,-0.9993864,0.03362925,0.8343012,0.0103750555,0.5512113,-0.55122197,0.033453494,0.8336877,,-0.040368333,0.39025214,-0.35925886,-0.039082848,-0.028310237,-0.99883485,0.7744942,-0.63245994,-0.012378769,-0.6313726,-0.77407557,0.04664445,,1.2230105916265646,0.34814852070291513,0.19890792276000002,2.45546923820378,-0.7929016081388509,0.1550971157245704,-0.4083601653356982,,-0.913305835171539,-0.2856021071545708,0.21755764699000002,-1.5473020929723051,-1.0642616966730156,0.049168039462571006,0.8776476673394824,,-0.04931645967666478,-0.06459899893944013,0.08431779928,-0.06509005378220696,,-6.874651e-05,-6.3180923e-06,3.4570694e-06,1.0,3.991276e-05,3.4902245e-05,-3.9916486e-05,0.99999994,4.142523e-06,-3.4909695e-05,-4.142523e-06,1.0,548,1.678,1,1,0.122,False,-0.25767366003838577,1.0522669588031563
1.6927062289905734,13:54:30.779685,13:54:20.564921,0,,0.10398319,0.00054454803,0.03714256,-0.08685432,0.9961304,0.013437852,0.25636363,0.009314187,0.96653545,0.9626702,0.08739276,-0.25618076,,0.076326326,-0.026511498,0.01574105,-0.04690464,0.109095626,0.99292403,-0.12977728,-0.98625875,0.102232784,0.9904331,-0.12406367,0.06041825,,0.10628712,1.3404423,0.4401856,0.9956678,0.012146562,-0.09218519,-0.051385064,-0.7544019,-0.65439844,-0.07749338,0.65630037,-0.75050956,,-0.072909504,0.27264038,-0.09477626,0.00072995544,-0.9992669,0.03827672,0.8308734,0.021905567,0.5560301,-0.5564609,0.031397235,0.8302803,,-0.040368754,0.39023763,-0.3592843,-0.03908729,-0.027227668,-0.99886477,0.77443373,-0.63252014,-0.0130632995,-0.6314464,-0.7740652,0.045809526,,1.2229719779621933,0.3473144655524989,0.19910495884,2.4386940427250186,-0.7975472491308759,0.16272422523685526,-0.4083601653356981,,-0.913305835171539,-0.2857256708805584,0.21755246183000002,-1.5468827130853362,-1.0642616966730156,0.04982146938369564,0.8776476673394824,,-0.04931645967666478,-0.06459899893944013,0.08431779928,-0.06509005378220696,,-6.874651e-05,-6.3180923e-06,3.4570694e-06,1.0,3.991276e-05,3.4902245e-05,-3.9916486e-05,0.99999994,4.142523e-06,-3.4909695e-05,-4.142523e-06,1.0,557,1.706,1,1,0.15,False,-0.25785239319394915,1.052122118200818
1.7221932930406183,13:54:30.808664,13:54:20.564921,0,,0.10382536,0.00048333406,0.03695689,-0.09593493,0.99530303,0.01296974,0.25200558,0.01168078,0.9676552,0.9629588,0.096100375,-0.2519427,,0.07632703,-0.026545607,0.015741289,-0.047051445,0.10849853,0.9929825,-0.12965494,-0.9863372,0.101628885,0.99044216,-0.12396321,0.06047597,,0.10628712,1.3404423,0.4401856,0.9956678,0.012146562,-0.09218519,-0.051385064,-0.7544019,-0.65439844,-0.07749338,0.65630037,-0.75050956,,-0.07273626,0.27247876,-0.09469253,0.009615388,-0.9992175,0.038365003,0.8281817,0.029458653,0.559685,-0.56037724,0.026391603,0.8278169,,-0.04036708,0.39021993,-0.35931343,-0.038950972,-0.026638888,-0.998886,0.7745226,-0.63240564,-0.013336683,-0.6313458,-0.7741792,0.045265235,,1.222817523304709,0.34648813313495685,0.19926310622,2.4244351265680706,-0.8010997981247774,0.17321721356603442,-0.4088501975341009,,-0.9132903897057905,-0.2858878482709171,0.21754727667,-1.5468827130853362,-1.064398333172781,0.050341280988094705,0.8768309470088109,,-0.04931645967666478,-0.06459899893944013,0.08431779928,-0.06509005378220696,,-6.874651e-05,-6.3180923e-06,3.4570694e-06,1.0,3.991276e-05,3.4902245e-05,-3.9916486e-05,0.99999994,4.142523e-06,-3.4909695e-05,-4.142523e-06,1.0,570,1.747,1,1,0.191,False,-0.2571374605716965,1.052122118200818
1.7511744390358217,13:54:30.850397,13:54:20.564921,0,,0.103703424,0.0004350245,0.03657259,-0.10302818,0.9945174,0.017896451,0.25237846,0.008733577,0.9675891,0.9621279,0.10420563,-0.25189468,,0.07633501,-0.026603214,0.015743136,-0.046923984,0.10794028,0.9930494,-0.1297206,-0.9863844,0.101086244,0.99043953,-0.12407547,0.06028717,,0.10628712,1.3404423,0.4401856,0.9956678,0.012146562,-0.09218519,-0.051385064,-0.7544019,-0.65439844,-0.07749338,0.65630037,-0.75050956,,-0.072579235,0.27219436,-0.09444895,0.016763322,-0.9992996,0.033456706,0.8282179,0.03262408,0.55945575,-0.5601554,0.018331103,0.82818466,,-0.040371142,0.39019045,-0.35936347,-0.03907268,-0.026070531,-0.99889624,0.7744711,-0.63245904,-0.013787338,-0.6314015,-0.77415496,0.044902742,,1.2224236639281234,0.34542239599831387,0.19957032695000002,2.414160319337329,-0.8004166156259501,0.18589207995032347,-0.4086868534679667,,-0.913305835171539,-0.2861426984557665,0.21753820264,-1.5462536432548826,-1.0642616966730156,0.05022986308439839,0.8778110114056168,,-0.04931645967666478,-0.06459899893944013,0.08431779928,-0.06509005378220696,,-6.874651e-05,-6.3180923e-06,3.4570694e-06,1.0,3.991276e-05,3.4902245e-05,-3.9916486e-05,0.99999994,4.142523e-06,-3.4909695e-05,-4.142523e-06,1.0,579,1.776,1,1,0.22,False,-0.25791197091247,1.0523152390039359
1.7928882280248217,13:54:30.878703,13:54:20.564921,0,,0.103648424,0.0004196465,0.036237046,-0.10447919,0.9943505,0.018738568,0.2530691,0.008359789,0.967412,0.96178997,0.10581659,-0.25251302,,0.07634014,-0.026645295,0.015748024,-0.04695347,0.1075775,0.99308735,-0.12966028,-0.9864292,0.10072589,0.99044615,-0.124034405,0.060264796,,0.10628712,1.3404423,0.4401856,0.9956678,0.012146562,-0.09218519,-0.051385064,-0.7544019,-0.65439844,-0.07749338,0.65630037,-0.75050956,,-0.07249259,0.27196392,-0.09421389,0.018258855,-0.9992993,0.032673527,0.82857573,0.033412807,0.5588791,-0.55957913,0.016867999,0.82860523,,-0.040373743,0.390172,-0.35940185,-0.03904827,-0.025711099,-0.9989065,0.77451164,-0.6324048,-0.013998824,-0.6313533,-0.7742113,0.044607855,,1.2220761409487833,0.3445728953821492,0.19985291817000003,2.4120634199024837,-0.8002799791261846,0.18847606047126558,-0.4083601653356981,,-0.9133212806372875,-0.2863357667776221,0.21752912861,-1.546043953311398,-1.0642616966730156,0.05031154182453895,0.877974355471751,,-0.04931645967666478,-0.06459899893944013,0.08431779928,-0.06509005378220696,,-6.874651e-05,-6.3180923e-06,3.4570694e-06,1.0,3.991276e-05,3.4902245e-05,-3.9916486e-05,0.99999994,4.142523e-06,-3.4909695e-05,-4.142523e-06,1.0,592,1.817,1,1,0.261,False,-0.2570778828531757,1.0519772775984795
1.8211923009948805,13:54:30.923193,13:54:20.727509,0,,0.10356514,0.00044764578,0.035716042,-0.10865613,0.99396044,0.01537567,0.2513741,0.012508178,0.9678091,0.9617717,0.10902345,-0.25121513,,0.07634142,-0.026691012,0.015751064,-0.046981372,0.10746622,0.993098,-0.1294735,-0.9864642,0.10062326,0.9904692,-0.12385231,0.06025947,,0.10628712,1.3404423,0.4401856,0.9956678,0.012146562,-0.09218519,-0.051385064,-0.7544019,-0.65439844,-0.07749338,0.65630037,-0.75050956,,-0.072358705,0.271645,-0.093814485,0.02236921,-0.9991048,0.035905354,0.82747036,0.038657818,0.560177,-0.5610636,0.017179897,0.8275944,,-0.0403721,0.39015055,-0.3594423,-0.039035883,-0.025615579,-0.9989094,0.7746319,-0.6322561,-0.014058167,-0.63120645,-0.7743359,0.04452332,,1.221512381448965,0.34349171277975776,0.20033254547,2.4055630316544634,-0.8023295266226663,0.190310686506993,-0.4083601653356981,,-0.9133135579044132,-0.28655200329810043,0.21751875829000003,-1.546043953311398,-1.0642616966730156,0.05031154182453895,0.877974355471751,,-0.04931645967666478,-0.06459899893944013,0.08431779928,-0.06509005378220696,,-6.874651e-05,-6.3180923e-06,3.4570694e-06,1.0,3.991276e-05,3.4902245e-05,-3.9916486e-05,0.99999994,4.142523e-06,-3.4909695e-05,-4.142523e-06,1.0,601,1.846,1,1,0.29,False,-0.25761408231986493,1.0517841567953616
1.8656992809846997,13:54:30.949266,13:54:20.727509,0,,0.10352516,0.00048077106,0.035245165,-0.11099015,0.99374104,0.012645401,0.2521281,0.015847713,0.967564,0.9613077,0.110578336,-0.25230914,,0.07634307,-0.026720561,0.015756428,-0.047028236,0.10764623,0.9930763,-0.12925088,-0.98647434,0.1008098,0.9904961,-0.12361488,0.060305517,,0.10628712,1.3404423,0.4401856,0.9956678,0.012146562,-0.09218519,-0.051385064,-0.7544019,-0.65439844,-0.07749338,0.65630037,-0.75050956,,-0.072272584,0.2713611,-0.093445115,0.024757197,-0.9989433,0.0387205,0.82783055,0.04219917,0.5593888,-0.5604317,0.018205112,0.82800055,,-0.040372174,0.3901395,-0.35947028,-0.039007545,-0.025816316,-0.99890536,0.77477634,-0.63208216,-0.013919325,-0.6310309,-0.7744712,0.044657845,,1.2209795128806433,0.34263448943071884,0.20075513601000003,2.4024176825021955,-0.8020562536231354,0.1900061719594595,-0.40852350940183235,,-0.9133212806372875,-0.2866987352227107,0.21750968426000003,-1.5462536432548826,-1.0642616966730156,0.05022986308439839,0.8778110114056168,,-0.04931645967666478,-0.06459899893944013,0.08431779928,-0.06509005378220696,,-6.874651e-05,-6.3180923e-06,3.4570694e-06,1.0,3.991276e-05,3.4902245e-05,-3.9916486e-05,0.99999994,4.142523e-06,-3.4909695e-05,-4.142523e-06,1.0,614,1.886,1,1,0.33,False,-0.2579715486309908,1.052122118200818
1.8917746979859658,13:54:30.983592,13:54:20.727509,0,,0.10348731,0.0005547404,0.034506127,-0.11356139,0.99347776,0.01027251,0.2547226,0.019119654,0.966825,0.960323,0.11241064,-0.25523272,,0.076335564,-0.026757978,0.015771389,-0.046995673,0.107043356,0.9931431,-0.12942916,-0.98651266,0.10020414,0.99047434,-0.123832285,0.06021636,,0.10628712,1.3404423,0.4401856,0.9956678,0.012146562,-0.09218519,-0.051385064,-0.7544019,-0.65439844,-0.07749338,0.65630037,-0.75050956,,-0.07216161,0.270931,-0.092848696,0.027482744,-0.99876696,0.041342724,0.829239,0.04587457,0.55700827,-0.55821806,0.018974883,0.82947725,,-0.040363528,0.39013347,-0.3595099,-0.039025277,-0.025194205,-0.99892056,0.77466106,-0.6322145,-0.014318677,-0.63117135,-0.77438366,0.044189315,,1.2201686259288498,0.341437465835214,0.20142013278,2.3994820232934124,-0.8002799791261846,0.18978292031351457,-0.4083601653356981,,-0.9133135579044132,-0.28683774441444676,0.21748635104000003,-1.545624573424429,-1.0642616966730156,0.05022986308439839,0.8778110114056168,,-0.04931645967666478,-0.06459899893944013,0.08431779928,-0.06509005378220696,,-6.874651e-05,-6.3180923e-06,3.4570694e-06,1.0,3.991276e-05,3.4902245e-05,-3.9916486e-05,0.99999994,4.142523e-06,-3.4909695e-05,-4.142523e-06,1.0,623,1.915,1,1,0.359,False,-0.25737577144578117,1.0525083598070537
1.9260982520063408,13:54:31.015256,13:54:20.727509,0,,0.10345478,0.0006392747,0.033807263,-0.11611868,0.9931882,0.009670243,0.25962764,0.020953927,0.9654814,0.9587022,0.11462108,-0.2602924,,0.07633272,-0.026779614,0.015785694,-0.04676243,0.10721038,0.99313605,-0.12931609,-0.98650706,0.10040586,0.9905002,-0.12373313,0.059995487,,0.10628712,1.3404423,0.4401856,0.9956678,0.012146562,-0.09218519,-0.051385064,-0.7544019,-0.65439844,-0.07749338,0.65630037,-0.75050956,,-0.07205949,0.27053508,-0.09227471,0.030320127,-0.99864084,0.042392414,0.83196187,0.048721254,0.5526895,-0.5540037,0.018511256,0.83230835,,-0.04036055,0.3901346,-0.3595358,-0.039267283,-0.025369948,-0.9989066,0.7747143,-0.6321475,-0.01439912,-0.631091,-0.77443266,0.044477176,,1.2195044709016665,0.34043351056156484,0.20203975940000002,2.3971754339150824,-0.7959076111336906,0.19054652062267885,-0.4085235094018324,,-0.9133367261030358,-0.2869304172089374,0.21746690669000002,-1.545624573424429,-1.0639884236734847,0.050007027277005456,0.877484323273348,,-0.04931645967666478,-0.06459899893944013,0.08431779928,-0.06509005378220696,,-6.874651e-05,-6.3180923e-06,3.4570694e-06,1.0,3.991276e-05,3.4902245e-05,-3.9916486e-05,0.99999994,4.142523e-06,-3.4909695e-05,-4.142523e-06,1.0,636,1.956,1,1,0.4,False,-0.2580311263495121,1.0522186786023768
1.9577652890002355,13:54:31.055707,13:54:20.727509,0,,0.10340513,0.00078484416,0.03280948,-0.119529285,0.99278826,0.00917194,0.26670286,0.02320904,0.96349925,0.9563379,0.11761257,-0.26755384,,0.0763219,-0.02681201,0.015810192,-0.04705326,0.104162626,0.9934466,-0.12924501,-0.98682284,0.09734664,0.9904957,-0.123817354,0.05989573,,0.10628712,1.3404423,0.4401856,0.9956678,0.012146562,-0.09218519,-0.051385064,-0.7544019,-0.65439844,-0.07749338,0.65630037,-0.75050956,,-0.07190982,0.2699886,-0.09143914,0.03413873,-0.9984685,0.043533176,0.8358602,0.05240353,0.54643536,-0.54787976,0.01773304,0.8363691,,-0.040349882,0.39013967,-0.3595761,-0.03898307,-0.022313492,-0.9989907,0.774782,-0.632023,-0.016117007,-0.6310255,-0.77462834,0.041926287,,1.2186549702855018,0.339097477774324,0.20293679208,2.394239774706299,-0.7894856956447149,0.1916808208799109,-0.4088501975341009,,-0.9133367261030358,-0.28706170366779926,0.21743709202000003,-1.545624573424429,-1.0642616966730156,0.05300694024917754,0.877484323273348,,-0.04931645967666478,-0.06459899893944013,0.08431779928,-0.06509005378220696,,-6.874651e-05,-6.3180923e-06,3.4570694e-06,1.0,3.991276e-05,3.4902245e-05,-3.9916486e-05,0.99999994,4.142523e-06,-3.4909695e-05,-4.142523e-06,1.0,645,1.985,1,1,0.429,False,-0.25826943722359585,1.0525566400078332
1.9982067930395715,13:54:31.084042,13:54:20.890570,0,,0.103393234,0.0008620918,0.03226553,-0.12106936,0.9926032,0.009005964,0.27146003,0.024380833,0.96214074,0.9548045,0.11893053,-0.27240402,,0.07631272,-0.026846059,0.01582402,-0.046665475,0.104012966,0.99348056,-0.12905625,-0.98685634,0.09725748,0.99053866,-0.12367612,0.059475645,,0.10628712,1.3404423,0.4401856,0.9956678,0.012146562,-0.09218519,-0.051385064,-0.7544019,-0.65439844,-0.07749338,0.65630037,-0.75050956,,-0.07184336,0.26968846,-0.09098363,0.035951506,-0.9983788,0.044128153,0.838486,0.054160025,0.5422249,-0.5437358,0.017507039,0.8390738,,-0.040339697,0.39013466,-0.35961226,-0.039385468,-0.022176055,-0.99897796,0.77487093,-0.63190347,-0.016522415,-0.63089126,-0.7747298,0.042071395,,1.2181607153815515,0.338410154548518,0.20341901196,2.393401014932361,-0.7851133276522209,0.19170931252781026,-0.40770678907116104,,-0.9133290033701617,-0.2872084355924095,0.21741116622000003,-1.545624573424429,-1.0638517871737194,0.05308108023879102,0.877974355471751,,-0.04931645967666478,-0.06459899893944013,0.08431779928,-0.06509005378220696,,-6.874651e-05,-6.3180923e-06,3.4570694e-06,1.0,3.991276e-05,3.4902245e-05,-3.9916486e-05,0.99999994,4.142523e-06,-3.4909695e-05,-4.142523e-06,1.0,658,2.026,1,1,0.471,False,-0.25767366003838577,1.0524600796062742
2.0265308269881643,13:54:31.126565,13:54:20.890570,0,,0.10335803,0.0011011064,0.030850515,-0.12456692,0.9921763,0.008321226,0.28226548,0.0273957,0.958945,0.95121455,0.121801615,-0.28346995,,0.076307274,-0.026899599,0.015843272,-0.046576485,0.104077555,0.99347794,-0.12883392,-0.98687667,0.09734599,0.99057174,-0.12345949,0.05937396,,0.10628712,1.3404423,0.4401856,0.9956678,0.012146562,-0.09218519,-0.051385064,-0.7544019,-0.65439844,-0.07749338,0.65630037,-0.75050956,,-0.07166523,0.26893643,-0.08977395,0.040078785,-0.9981469,0.045787465,0.84438,0.05833437,0.53255934,-0.53424346,0.017317686,0.8451533,,-0.040332373,0.39012364,-0.35966787,-0.03949261,-0.02225949,-0.9989719,0.77500445,-0.6317387,-0.016561795,-0.63072056,-0.77486175,0.042200215,,1.216971414518921,0.3367343215148113,0.20470363535000002,2.3915138054410003,-0.7752754996691091,0.19144670377502127,-0.40803347720342953,,-0.9133367261030358,-0.2874478403115105,0.21738135155000002,-1.545624573424429,-1.0637151506739537,0.05288798359495395,0.8778110114056168,,-0.04931645967666478,-0.06459899893944013,0.08431779928,-0.06509005378220696,,-6.874651e-05,-6.3180923e-06,3.4570694e-06,1.0,3.991276e-05,3.4902245e-05,-3.9916486e-05,0.99999994,4.142523e-06,-3.4909695e-05,-4.142523e-06,1.0,667,2.054,1,1,0.498,False,-0.25761408231986493,1.0524600796062742
2.0690422669867985,13:54:31.153938,13:54:20.890570,0,,0.103348896,0.0011985153,0.030268624,-0.12657757,0.99192315,0.008161366,0.2876518,0.028830253,0.95730096,0.94933367,0.12352046,-0.28897795,,0.07630346,-0.026931234,0.01585728,-0.046588883,0.10382979,0.99350333,-0.12882411,-0.9869023,0.09709894,0.99057245,-0.12346327,0.059354454,,0.10628712,1.3404423,0.4401856,0.9956678,0.012146562,-0.09218519,-0.051385064,-0.7544019,-0.65439844,-0.07749338,0.65630037,-0.75050956,,-0.07159731,0.26862627,-0.08927659,0.042410813,-0.99802077,0.046431825,0.8472693,0.06055533,0.52770054,-0.52946776,0.016960049,0.8481605,,-0.040327713,0.39011943,-0.3597021,-0.039481055,-0.022011321,-0.99897784,0.77501166,-0.63172597,-0.016710235,-0.63071245,-0.7748792,0.042000238,,1.2164771596149706,0.3361010574191249,0.20522474393,2.390255665780093,-0.7700833126780223,0.19162347540214753,-0.40803347720342953,,-0.91334444883591,-0.2875791267703723,0.2173619072,-1.5454148834809445,-1.0637151506739537,0.05288798359495395,0.8778110114056168,,-0.04931645967666478,-0.06459899893944013,0.08431779928,-0.06509005378220696,,-6.874651e-05,-6.3180923e-06,3.4570694e-06,1.0,3.991276e-05,3.4902245e-05,-3.9916486e-05,0.99999994,4.142523e-06,-3.4909695e-05,-4.142523e-06,1.0,680,2.096,0,1,0.501,False,-0.25761408231986493,1.0521703984015973
2.0964435230125673,13:54:31.194301,13:54:20.890570,0,,0.103377536,0.0014154017,0.029099971,-0.12972292,0.9914999,0.009991944,0.29929876,0.02954775,0.95370173,0.94530004,0.12670755,-0.3005879,,0.07628905,-0.02699735,0.015888035,-0.046627913,0.103682116,0.9935169,-0.12857807,-0.9869478,0.096962154,0.99060255,-0.123223156,0.059350558,,0.10628712,1.3404423,0.4401856,0.9956678,0.012146562,-0.09218519,-0.051385064,-0.7544019,-0.65439844,-0.07749338,0.65630037,-0.75050956,,-0.07150707,0.26801732,-0.08825941,0.04625391,-0.997887,0.04562974,0.8534872,0.06321338,0.5172656,-0.51905704,0.015018844,0.85460764,,-0.0403117,0.39011258,-0.35977438,-0.039462455,-0.021884458,-0.99898136,0.77517015,-0.63152945,-0.016786536,-0.6305188,-0.77504295,0.041885883,,1.215388254279705,0.3350275975496077,0.20627603512000003,2.389416906006155,-0.7588791196972562,0.19269704981661123,-0.4088501975341009,,-0.9133367261030358,-0.2878648678867186,0.21731653705,-1.5454148834809445,-1.0637151506739537,0.05288798359495395,0.8778110114056168,,-0.04931645967666478,-0.06459899893944013,0.08431779928,-0.06509005378220696,,-6.874651e-05,-6.3180923e-06,3.4570694e-06,1.0,3.991276e-05,3.4902245e-05,-3.9916486e-05,0.99999994,4.142523e-06,-3.4909695e-05,-4.142523e-06,1.0,689,2.124,0,1,0.501,False,-0.25767366003838577,1.0525566400078332
2.136797004030086,13:54:31.224961,13:54:21.035504,0,,0.10342352,0.001661256,0.02799946,-0.13244528,0.99113756,0.0102293715,0.30828413,0.03138309,0.95077646,0.9420292,0.12907942,-0.30970868,,0.07627557,-0.027058862,0.01592213,-0.046660274,0.10336972,0.9935479,-0.12846276,-0.986993,0.09665472,0.9906161,-0.123123854,0.059332527,,0.10628712,1.3404423,0.4401856,0.9956678,0.012146562,-0.09218519,-0.051385064,-0.7544019,-0.65439844,-0.07749338,0.65630037,-0.75050956,,-0.07143985,0.2674743,-0.08727235,0.0495284,-0.997704,0.046191506,0.8581921,0.06617041,0.50904596,-0.5109337,0.014428952,0.859499,,-0.040297262,0.39011085,-0.3598445,-0.039439693,-0.021580605,-0.99898887,0.7752455,-0.6314322,-0.016965909,-0.6304276,-0.77513075,0.04163376,,1.2143379626088104,0.3341935423991914,0.20729880793000002,2.388578146232217,-0.7502710202120335,0.19237537857526288,-0.4081968212695639,,-0.91334444883591,-0.288119718071568,0.21726987061000003,-1.54520519353746,-1.0637151506739537,0.05288798359495395,0.8778110114056168,,-0.04931645967666478,-0.06459899893944013,0.08431779928,-0.06509005378220696,,-6.874651e-05,-6.3180923e-06,3.4570694e-06,1.0,3.991276e-05,3.4902245e-05,-3.9916486e-05,0.99999994,4.142523e-06,-3.4909695e-05,-4.142523e-06,1.0,702,2.165,0,1,0.501,False,-0.2585077480976805,1.0524600796062742
2.167410510010086,13:54:31.266637,13:54:21.035504,0,,0.10347203,0.0019106269,0.026827842,-0.13674754,0.99055326,0.010209955,0.31778264,0.03410374,0.94754994,0.93825066,0.13281967,-0.31944445,,0.07626095,-0.027111657,0.015951097,-0.046723507,0.10376328,0.993504,-0.12805659,-0.98700583,0.09706226,0.9906656,-0.122689426,0.05940395,,0.10628712,1.3404423,0.4401856,0.9956678,0.012146562,-0.09218519,-0.051385064,-0.7544019,-0.65439844,-0.07749338,0.65630037,-0.75050956,,-0.07136817,0.26688692,-0.08622971,0.054438077,-0.99740756,0.04705971,0.8630151,0.07070372,0.5002059,-0.5022364,0.013382999,0.86462677,,-0.04028181,0.39010948,-0.35990447,-0.039410166,-0.022012059,-0.99898064,0.7755069,-0.6311185,-0.01668765,-0.6301078,-0.77537405,0.041942988,,1.2131718299448024,0.33331315085152985,0.20838121008000002,2.385852176966918,-0.7408431017282181,0.19293709597440656,-0.407706789071161,,-0.9133367261030358,-0.28835912279066894,0.21722838933000002,-1.545624573424429,-1.0637151506739537,0.05272462611467285,0.8778110114056166,,-0.04931645967666478,-0.06459899893944013,0.08431779928,-0.06509005378220696,,-6.874651e-05,-6.3180923e-06,3.4570694e-06,1.0,3.991276e-05,3.4902245e-05,-3.9916486e-05,0.99999994,4.142523e-06,-3.4909695e-05,-4.142523e-06,1.0,715,2.207,1,2,0.533,False,-0.2583290149421176,1.0525083598070537
2.2091460269875824,13:54:31.309571,13:54:21.035504,0,,0.103517964,0.0020881742,0.025850907,-0.13965987,0.9901455,0.010339044,0.32700738,0.036263764,0.9443257,0.93464506,0.13526534,-0.3288497,,0.07625763,-0.027157567,0.015978158,-0.04679141,0.10373069,0.9935042,-0.12789682,-0.98702955,0.09703112,0.9906831,-0.12252563,0.059451334,,0.10628712,1.3404423,0.4401856,0.9956678,0.012146562,-0.09218519,-0.051385064,-0.7544019,-0.65439844,-0.07749338,0.65630037,-0.75050956,,-0.07131472,0.2663741,-0.085379906,0.057940543,-0.9971775,0.04774836,0.86768705,0.07395509,0.49157897,-0.49372274,0.012948282,0.869523,,-0.040277883,0.39010876,-0.3599577,-0.03935563,-0.021993706,-0.9989832,0.77561307,-0.63098866,-0.016663905,-0.62998056,-0.7754802,0.041891564,,1.2121755974040276,0.3324868184339878,0.20926268728000003,2.3848037272494955,-0.731825092743699,0.1925262072423905,-0.40917688566636956,,-0.913375339767407,-0.2885599138453988,0.21719598208000002,-1.545624573424429,-1.0637151506739537,0.052642947374532206,0.877974355471751,,-0.04931645967666478,-0.06459899893944013,0.08431779928,-0.06509005378220696,,-6.874651e-05,-6.3180923e-06,3.4570694e-06,1.0,3.991276e-05,3.4902245e-05,-3.9916486e-05,0.99999994,4.142523e-06,-3.4909695e-05,-4.142523e-06,1.0,724,2.235,1,2,0.561,False,-0.2570778828531757,1.0518807171969207
2.2520797140314244,13:54:31.335875,13:54:21.035504,0,,0.10352177,0.0021534264,0.02539882,-0.140627,0.99001586,0.009629816,0.33081922,0.037819427,0.94293594,0.9331573,0.13578796,-0.33283487,,0.076257706,-0.02717971,0.015987456,-0.04682179,0.10359354,0.993517,-0.12781575,-0.9870534,0.096895985,0.99069214,-0.12245014,0.059456497,,0.10628712,1.3404423,0.4401856,0.9956678,0.012146562,-0.09218519,-0.051385064,-0.7544019,-0.65439844,-0.07749338,0.65630037,-0.75050956,,-0.071273096,0.26612484,-0.08499938,0.0591525,-0.9970555,0.048799567,0.86960894,0.075472966,0.48793864,-0.49018493,0.013573753,0.8715128,,-0.04027729,0.39010504,-0.35998145,-0.03933201,-0.021863077,-0.99898696,0.7756666,-0.63092107,-0.0167316,-0.62991613,-0.7755389,0.041773852,,1.211750847095945,0.331977118064289,0.20966712976000002,2.384594037306011,-0.7282725437497977,0.19150795276951654,-0.4064000365420868,,-0.9133907852331554,-0.2886603093727637,0.21718431547000003,-1.545624573424429,-1.0637151506739537,0.05272462611467285,0.8774843232733482,,-0.04931645967666478,-0.06459899893944013,0.08431779928,-0.06509005378220696,,-6.874651e-05,-6.3180923e-06,3.4570694e-06,1.0,3.991276e-05,3.4902245e-05,-3.9916486e-05,0.99999994,4.142523e-06,-3.4909695e-05,-4.142523e-06,1.0,737,2.277,1,2,0.603,False,-0.2583885926606384,1.0518324369961412
2.2783818230382167,13:54:31.380152,13:54:21.185330,0,,0.10342407,0.002210334,0.024325982,-0.14320135,0.98965526,0.008701809,0.33983418,0.04091178,0.9395951,0.92951924,0.13750845,-0.34217757,,0.07626193,-0.027233936,0.01599729,-0.046698097,0.10052929,0.9938376,-0.12790436,-0.987335,0.09386164,0.9906865,-0.12273285,0.05896482,,0.10628712,1.3404423,0.4401856,0.9956678,0.012146562,-0.09218519,-0.051385064,-0.7544019,-0.65439844,-0.07749338,0.65630037,-0.75050956,,-0.07107084,0.2654644,-0.08417071,0.06231598,-0.99677646,0.050530683,0.8740875,0.078944005,0.47931078,-0.4817548,0.014299519,0.8761894,,-0.040278625,0.39008456,-0.36003277,-0.039448075,-0.018773649,-0.99904525,0.77560097,-0.63094443,-0.018768754,-0.6299896,-0.77560085,0.039450403,,1.210986296541397,0.3301468303730978,0.21058619937000003,2.3831262077016193,-0.7200743537638712,0.19086710531813283,-0.4070534128066239,,-0.9134139534317781,-0.28889199135899046,0.21716746370000004,-1.5449955035939755,-1.0635785141741885,0.055145249155333836,0.877320979207214,,-0.04931645967666478,-0.06459899893944013,0.08431779928,-0.06509005378220696,,-6.874651e-05,-6.3180923e-06,3.4570694e-06,1.0,3.991276e-05,3.4902245e-05,-3.9916486e-05,0.99999994,4.142523e-06,-3.4909695e-05,-4.142523e-06,1.0,746,2.304,1,2,0.63,False,-0.2570778828531757,1.0520738380000385
2.32265395502327,13:54:31.409962,13:54:21.185330,0,,0.10331085,0.0021952093,0.023746163,-0.14488705,0.9894145,0.008161262,0.34568906,0.042889792,0.9373684,0.9270959,0.1386338,-0.34824413,,0.0762694,-0.027268074,0.01599437,-0.046055567,0.10073253,0.9938471,-0.12777176,-0.9873247,0.094150454,0.99073374,-0.12264928,0.058342572,,0.10628712,1.3404423,0.4401856,0.9956678,0.012146562,-0.09218519,-0.051385064,-0.7544019,-0.65439844,-0.07749338,0.65630037,-0.75050956,,-0.070902705,0.26507562,-0.08375863,0.06439007,-0.9965903,0.05159145,0.8769569,0.081181064,0.47366264,-0.47623587,0.014744301,0.87919396,,-0.04028337,0.3900634,-0.36006033,-0.040099893,-0.01898418,-0.99901533,0.77563405,-0.63089246,-0.019144718,-0.6299078,-0.775638,0.0400235,,1.2107623372880445,0.32887257944885073,0.21105804893000002,2.381868068040712,-0.7146088937732535,0.19082104113786635,-0.407706789071161,,-0.9134371216304008,-0.2890541687493492,0.21716227854000003,-1.5447858136504908,-1.0628953316753613,0.05466983837699238,0.8771576351410796,,-0.04931645967666478,-0.06459899893944013,0.08431779928,-0.06509005378220696,,-6.874651e-05,-6.3180923e-06,3.4570694e-06,1.0,3.991276e-05,3.4902245e-05,-3.9916486e-05,0.99999994,4.142523e-06,-3.4909695e-05,-4.142523e-06,1.0,768,2.375,1,2,0.701,False,-0.25791197091247,1.0519289973977002
2.3524697000393644,13:54:31.474950,13:54:21.185330,0,,0.103042796,0.0022225678,0.02268891,-0.14501649,0.9894168,0.004951261,0.3516822,0.046866562,0.9349455,0.92481875,0.13732378,-0.3547569,,0.076304145,-0.027331658,0.016005099,-0.04622583,0.101005696,0.9938114,-0.12764567,-0.9873164,0.09440834,0.99074197,-0.12249145,0.058532473,,0.10628712,1.3404423,0.4401856,0.9956678,0.012146562,-0.09218519,-0.051385064,-0.7544019,-0.65439844,-0.07749338,0.65630037,-0.75050956,,-0.07053328,0.2644106,-0.082976565,0.0649055,-0.9963554,0.055345725,0.8799597,0.083302334,0.46768758,-0.47059348,0.018346509,0.8821594,,-0.040314425,0.39003512,-0.3601203,-0.039940476,-0.019271106,-0.9990162,0.77572703,-0.63078713,-0.018845484,-0.62980336,-0.7757166,0.040143054,,1.210677387226428,0.32643991859347005,0.21198100741000003,2.381868068040712,-0.710099889280994,0.18787935897714952,-0.40754344500502676,,-0.913583853555011,-0.28937080079719235,0.21716098225000002,-1.5445761237070064,-1.0628953316753613,0.05401640845586775,0.8781376995378853,,-0.04931645967666478,-0.06459899893944013,0.08431779928,-0.06509005378220696,,-6.874651e-05,-6.3180923e-06,3.4570694e-06,1.0,3.991276e-05,3.4902245e-05,-3.9916486e-05,0.99999994,4.142523e-06,-3.4909695e-05,-4.142523e-06,1.0,777,2.403,1,2,0.729,False,-0.25826943722359585,1.052122118200818
2.417458798037842,13:54:31.508069,13:54:21.185330,0,,0.102887265,0.0023302138,0.02197823,-0.14575183,0.98931825,0.002412632,0.35494092,0.050015237,0.9335499,0.92345726,0.13692294,-0.3584395,,0.07633609,-0.027368255,0.016017139,-0.04624725,0.10096915,0.99381405,-0.12761363,-0.987324,0.0943713,0.9907451,-0.12245968,0.058546066,,0.10628712,1.3404423,0.4401856,0.9956678,0.012146562,-0.09218519,-0.051385064,-0.7544019,-0.65439844,-0.07749338,0.65630037,-0.75050956,,-0.07030701,0.26402947,-0.08238971,0.065859266,-0.9961309,0.058187746,0.88153964,0.085405774,0.46432075,-0.4674938,0.02071498,0.8837536,,-0.04034473,0.39002243,-0.36015806,-0.039921753,-0.019237317,-0.9990176,0.7757489,-0.63075995,-0.01885365,-0.6297776,-0.7757395,0.040104374,,1.2106851099593021,0.3252274495322168,0.21264600418000001,2.3810293082667737,-0.7073671592856852,0.18597771586378326,-0.4078701331372953,,-0.9137383082124956,-0.2895561463861738,0.21716098225000002,-1.544366433763522,-1.0627586951755958,0.05374163307189034,0.8778110114056168,,-0.04931645967666478,-0.06459899893944013,0.08431779928,-0.06509005378220696,,-6.874651e-05,-6.3180923e-06,3.4570694e-06,1.0,3.991276e-05,3.4902245e-05,-3.9916486e-05,0.99999994,4.142523e-06,-3.4909695e-05,-4.142523e-06,1.0,790,2.445,1,2,0.771,False,-0.25815028178655464,1.0518324369961412
2.450569251028355,13:54:31.542023,13:54:21.323491,0,,0.10280028,0.0024389923,0.02148956,-0.14632629,0.9892352,0.0015256926,0.35769862,0.051472247,0.9324174,0.9223016,0.13698292,-0.36138004,,0.07636,-0.027393438,0.01603049,-0.04648309,0.09830466,0.99407023,-0.12777203,-0.9875566,0.091685876,0.9907137,-0.12275234,0.058465272,,0.10628712,1.3404423,0.4401856,0.9956678,0.012146562,-0.09218519,-0.051385064,-0.7544019,-0.65439844,-0.07749338,0.65630037,-0.75050956,,-0.070170306,0.26379266,-0.08196142,0.066619135,-0.99601346,0.059322204,0.88287234,0.08654255,0.46156994,-0.46486375,0.021624545,0.8851181,,-0.04036798,0.39001775,-0.36018676,-0.03967346,-0.016547322,-0.99907565,0.7756676,-0.63081336,-0.020353958,-0.6298935,-0.77575815,0.03786177,,1.2107005554250505,0.32459418543653035,0.21311526116,2.3806099283798052,-0.7047710657901419,0.18524931427594094,-0.40738010093889243,,-0.9138618719384831,-0.2896719873792871,0.21715968596000002,-1.5439470538765527,-1.0628953316753613,0.05597669821924128,0.8771576351410795,,-0.04931645967666478,-0.06459899893944013,0.08431779928,-0.06509005378220696,,-6.874651e-05,-6.3180923e-06,3.4570694e-06,1.0,3.991276e-05,3.4902245e-05,-3.9916486e-05,0.99999994,4.142523e-06,-3.4909695e-05,-4.142523e-06,1.0,799,2.472,1,2,0.798,False,-0.25773323775690704,1.0517358765945823
2.4844568470143713,13:54:31.573781,13:54:21.323491,0,,0.10272564,0.0025606006,0.020994142,-0.14766419,0.9890374,-0.00046370178,0.36150146,0.054408915,0.93078256,0.9206041,0.13727564,-0.36557296,,0.076391935,-0.027410336,0.016041577,-0.046116203,0.09857414,0.9940606,-0.12765697,-0.9875418,0.092005506,0.99074566,-0.12265569,0.058125354,,0.10628712,1.3404423,0.4401856,0.9956678,0.012146562,-0.09218519,-0.051385064,-0.7544019,-0.65439844,-0.07749338,0.65630037,-0.75050956,,-0.07004488,0.2635605,-0.08151852,0.06821998,-0.99576306,0.061660312,0.884665,0.088948384,0.45766357,-0.46120906,0.023326922,0.8869848,,-0.040399566,0.3900145,-0.36020723,-0.040048886,-0.016825192,-0.99905604,0.77571124,-0.63075584,-0.02047311,-0.62981594,-0.775799,0.038312558,,1.2107005554250505,0.3240767623339573,0.21358840701,2.3795614786623824,-0.700808607296944,0.18357009113141537,-0.4075434450050267,,-0.914031772061716,-0.289772382906652,0.21716098225000002,-1.5439470538765527,-1.0623487856762996,0.05561270534459639,0.8776476673394824,,-0.04931645967666478,-0.06459899893944013,0.08431779928,-0.06509005378220696,,-6.874651e-05,-6.3180923e-06,3.4570694e-06,1.0,3.991276e-05,3.4902245e-05,-3.9916486e-05,0.99999994,4.142523e-06,-3.4909695e-05,-4.142523e-06,1.0,808,2.501,1,2,0.827,False,-0.25719703829021734,1.0519289973977002
2.5162695350009017,13:54:31.606613,13:54:21.323491,0,,0.102658555,0.0026654452,0.020566255,-0.14781661,0.98901415,-0.0011178926,0.36425173,0.055491336,0.9296458,0.91949487,0.13700989,-0.3684528,,0.07642216,-0.02742336,0.016057849,-0.046133257,0.09835121,0.99408185,-0.12772864,-0.9875536,0.09177773,0.99073565,-0.12273854,0.058121335,,0.10628712,1.3404423,0.4401856,0.9956678,0.012146562,-0.09218519,-0.051385064,-0.7544019,-0.65439844,-0.07749338,0.65630037,-0.75050956,,-0.06993396,0.26335996,-0.08113636,0.06855525,-0.9956841,0.06255722,0.8860047,0.089586675,0.4549395,-0.45858032,0.024237499,0.88832235,,-0.040430225,0.3900179,-0.36022717,-0.04002596,-0.016595071,-0.9990608,0.77566737,-0.6308057,-0.020597914,-0.6298714,-0.77576333,0.03812086,,1.2107160008907991,0.32358250743000694,0.21400192352000003,2.379771168605867,-0.6982125138014007,0.18259665332315111,-0.4072167568727582,,-0.914201672184949,-0.28984188750252005,0.21716098225000002,-1.5437373639330683,-1.062212149176534,0.05558296618104028,0.8771576351410797,,-0.04931645967666478,-0.06459899893944013,0.08431779928,-0.06509005378220696,,-6.874651e-05,-6.3180923e-06,3.4570694e-06,1.0,3.991276e-05,3.4902245e-05,-3.9916486e-05,0.99999994,4.142523e-06,-3.4909695e-05,-4.142523e-06,1.0,821,2.542,1,2,0.868,False,-0.25815028178655464,1.0518324369961412
2.5491209430037998,13:54:31.642472,13:54:21.323491,0,,0.10247529,0.0028160363,0.020047665,-0.14903791,0.9888185,-0.005069226,0.36905923,0.060380396,0.9274423,0.91737825,0.13635324,-0.37393177,,0.07636451,-0.027445182,0.016066074,-0.04651042,0.09537455,0.9943543,-0.12796459,-0.9877989,0.08876033,0.9906876,-0.12311363,0.058147512,,0.1063447,1.3404384,0.44018498,0.9956648,0.012102649,-0.09222328,-0.051443018,-0.75440264,-0.654393,-0.07749338,0.65630037,-0.75050956,,-0.06974657,0.26313826,-0.08066314,0.070129976,-0.9952847,0.06700919,0.8882651,0.09287561,0.44984365,-0.453946,0.0279744,0.89058995,,-0.04042653,0.39001703,-0.36024743,-0.039620485,-0.013643535,-0.99912167,0.7755471,-0.6309014,-0.022139272,-0.6300452,-0.77574307,0.035577822,,1.2108627328154093,0.32298785699869165,0.21449062485000003,2.378932408831929,-0.6931569633100794,0.17863754836666473,-0.40754344500502676,,-0.9143561268424335,-0.2899113920983881,0.21716227854000003,-1.5433179840460993,-1.062485422176065,0.05809280671236902,0.8778110114056167,,-0.04931645967666478,-0.06459899893944013,0.08431779928,-0.06509005378220696,,-1.1172146e-05,-2.9802322e-06,1.1920929e-06,1.0,-3.773719e-06,-3.3006072e-06,3.7662685e-06,0.99999994,-4.172325e-07,3.2931566e-06,3.874302e-07,1.0,830,2.571,1,2,0.897,False,-0.2585077480976805,1.0522669588031563
2.584932984027546,13:54:31.674630,13:54:21.464444,0,,0.102396905,0.0028560758,0.019779727,-0.14928488,0.98876923,-0.0070354715,0.37180933,0.06272617,0.9261873,0.91622686,0.13564992,-0.37699795,,0.07637687,-0.027450293,0.016072035,-0.046427667,0.09503609,0.99439055,-0.12804586,-0.987818,0.08842957,0.99068093,-0.123221815,0.058031064,,0.1063447,1.3404384,0.44018498,0.9956648,0.012102649,-0.09222328,-0.051443018,-0.75440264,-0.654393,-0.07749338,0.65630037,-0.75050956,,-0.06964161,0.26299503,-0.08044404,0.07056354,-0.9951023,0.06922612,0.88958085,0.09417482,0.4469642,-0.45129445,0.03004286,0.89186925,,-0.04043901,0.3900179,-0.36025503,-0.039696332,-0.013295785,-0.99912333,0.77548933,-0.63096267,-0.022414587,-0.6301115,-0.77569926,0.035357643,,1.2110017420071453,0.3225244930262382,0.21473303108000003,2.378932408831929,-0.6904242333147707,0.17649086903287686,-0.40770678907116104,,-0.9144256314383015,-0.28993456029701076,0.21716227854000003,-1.5431082941026149,-1.0623487856762996,0.05822642502909417,0.8779743554717511,,-0.04931645967666478,-0.06459899893944013,0.08431779928,-0.06509005378220696,,-1.1172146e-05,-2.9802322e-06,1.1920929e-06,1.0,-3.773719e-06,-3.3006072e-06,3.7662685e-06,0.99999994,-4.172325e-07,3.2931566e-06,3.874302e-07,1.0,843,2.612,1,2,0.938,False,-0.257435349164302,1.0516393161930233
