AlexandreBanks6/ExpertPlaybackApp/resources/Motions/P_02/PC1/Data_PC1_3.csv
Task Time,PC1 Time,PC2 Time,Gaze Calib,s_T_psm1,Tx,Ty,Tz,R00,R01,R02,R10,R11,R12,R20,R21,R22,s_T_psm3,Tx,Ty,Tz,R00,R01,R02,R10,R11,R12,R20,R21,R22,cart_T_ecm,Tx,Ty,Tz,R00,R01,R02,R10,R11,R12,R20,R21,R22,ecm_T_psm1,Tx,Ty,Tz,R00,R01,R02,R10,R11,R12,R20,R21,R22,ecm_T_psm3,Tx,Ty,Tz,R00,R01,R02,R10,R11,R12,R20,R21,R22,psm1_joints,q1,q2,q3,q4,q5,q6,jaw,psm3_joints,q1,q2,q3,q4,q5,q6,jaw,ecm_joints,q1,q2,q3,q4,ecmi_T_ecm,Tx,Ty,Tz,R00,R01,R02,R10,R11,R12,R20,R21,R22,Sample #,Task Duration (s),Collisions (binary),Collisions (increments),Cumulative Collision Time (s),Clutch Press,MTMR Angle,MTML Angle
""
lci_T_si,,,,,-0.06325326,0.014099291,0.23646986,0.99321187,-0.021149708,0.11438049,0.061731156,-0.73758954,-0.6724217,0.09858737,0.67491806,-0.7312771
rci_T_si,,,,,-0.0730827,0.018441333,0.2456533,0.991962,-0.042163182,0.11930484,0.052885953,-0.7184059,-0.6936109,0.114954144,0.6943452,-0.71040154
ecm_T_lc,,,,,-4.4061628e-05,-0.00034663224,-0.01840835,-0.99912,0.030754527,0.028518902,-0.031987965,-0.99852574,-0.043852776,0.027128186,-0.04472645,0.9986309
ecm_T_rc,,,,,-0.0043358393,0.01870579,-0.007592615,-0.99555075,-0.052743673,-0.078081585,0.04863213,-0.9973746,0.053654674,-0.08070653,0.04961868,0.9955021
cart_T_ecmi,,,,,0.10635596,1.3404362,0.44018698,0.9956651,0.012106441,-0.09221999,-0.051438015,-0.7544026,-0.6543935,-0.07749338,0.65630037,-0.75050956
ecmac_T_ecmrep_psm1,,,,,0.01038242,-0.2501324,-0.30762842,0.998145,0.0496832,0.035188068,-0.04731537,0.99675006,-0.06519635,-0.03831287,0.06341047,0.99725187
ecmac_T_ecmrep_psm3,,,,,-0.018947443,-0.4527795,-0.5580277,0.99342906,-0.031421527,0.110051684,0.0051236153,0.97282016,0.23150527,-0.11433475,-0.2294202,0.9665888
""
0,13:55:46.377882,13:55:36.174411,0,,0.11931197,-0.0014918,0.026463613,0.8463279,0.4226701,-0.32415915,0.42061037,-0.15689477,0.8935719,0.32682723,-0.89259964,-0.31056395,,0.07425316,-0.028521053,-0.007429898,-0.3497384,0.26391727,0.8989053,-0.031175375,-0.9622474,0.27038497,0.9363286,0.06654039,0.34476256,,0.106277056,1.3404417,0.44018015,0.9956698,0.012175478,-0.092160106,-0.051346898,-0.7544015,-0.65440196,-0.07749338,0.65630037,-0.75050956,,-0.08718365,0.26341477,-0.086773254,-0.861862,-0.33882812,0.37734523,0.4949009,-0.72441804,0.479887,0.1107565,0.6003449,0.79203475,,-0.03594436,0.3698645,-0.34877643,0.2598522,-0.20084338,-0.94453096,0.8160346,-0.47730038,0.32599357,-0.51629865,-0.85548013,0.0398676,,1.1545717328951868,0.379549152569512,0.20462715424000003,3.646717807139363,-0.060120059896793795,-0.807296034007229,-0.4243678838168574,,-0.8476703284735049,-0.32513477673772606,0.23824773168000002,-2.1073839320194696,-1.3920526596103073,0.39862840301169156,0.8769942910749452,,-0.04931645967666478,-0.06459899893944013,0.08431779928,-0.06509005378220696,,-7.83205e-05,-9.655952e-06,8.821487e-06,1.0,6.867945e-05,6.005913e-05,-6.868318e-05,1.0,7.0929527e-06,-6.0062855e-05,-7.0929527e-06,1.0,37,0.11,0,0,0.0,False,-0.25439688551972894,1.0513496349883464
0.12138842104468495,13:55:46.405175,13:55:36.174411,0,,0.119337395,-0.001470089,0.026503056,0.846309,0.42277178,-0.32407582,0.42050508,-0.15674555,0.8936477,0.32701164,-0.8925777,-0.31043288,,0.07413547,-0.028387986,-0.007460177,-0.35096505,0.26660258,0.8976339,-0.03163755,-0.9614415,0.27318385,0.93585396,0.06747913,0.34586692,,0.106277056,1.3404417,0.44018015,0.9956698,0.012175478,-0.092160106,-0.051346898,-0.7544015,-0.65440196,-0.07749338,0.65630037,-0.75050956,,-0.08721215,0.263456,-0.08678602,-0.8618639,-0.33892727,0.37725177,0.49494424,-0.7242959,0.48002672,0.11054777,0.60043633,0.7919946,,-0.035833944,0.36992228,-0.34864625,0.26114804,-0.20365614,-0.9435708,0.81553763,-0.47640446,0.32853785,-0.5164301,-0.85531455,0.041677155,,1.1545485646965643,0.3797808345557387,0.20460382102000002,3.646717807139363,-0.060120059896793795,-0.807296034007229,-0.4243678838168574,,-0.8473150827612905,-0.3246714127652726,0.23824902797000003,-2.1130455604935516,-1.3934190246079619,0.40145783559160775,0.876830947008811,,-0.04931645967666478,-0.06459899893944013,0.08431779928,-0.06509005378220696,,-7.83205e-05,-9.655952e-06,8.821487e-06,1.0,6.867945e-05,6.005913e-05,-6.868318e-05,1.0,7.0929527e-06,-6.0062855e-05,-7.0929527e-06,1.0,44,0.132,0,0,0.0,False,-0.2552309735790237,1.0513013547875674
0.14866366604110226,13:55:46.434198,13:55:36.174411,0,,0.11934489,-0.0014838874,0.026546136,0.84640104,0.42280453,-0.32379258,0.4202546,-0.15684536,0.89374804,0.32709536,-0.8925446,-0.3104397,,0.07403196,-0.028285794,-0.007487774,-0.35211283,0.2681825,0.8967133,-0.031517923,-0.9609246,0.2750102,0.9354267,0.06857216,0.34680638,,0.106277056,1.3404417,0.44018015,0.9956698,0.012175478,-0.092160106,-0.051346898,-0.7544015,-0.65440196,-0.07749338,0.65630037,-0.75050956,,-0.08722414,0.26347372,-0.08682656,-0.86197054,-0.3389658,0.37697342,0.49480748,-0.72435045,0.48008537,0.11032835,0.6003487,0.7920916,,-0.035735704,0.36996457,-0.34854388,0.2623202,-0.20536579,-0.94287485,0.81537503,-0.4753983,0.33039367,-0.51609266,-0.8554656,0.04274357,,1.1545331192308157,0.37983489368585827,0.20455974716000003,3.646927497082847,-0.06025669639655924,-0.8071846161035326,-0.4243678838168574,,-0.8470370643778184,-0.32439339438180054,0.23824643539,-2.119965328628541,-1.3943754801063197,0.40648505540479174,0.8771576351410795,,-0.04931645967666478,-0.06459899893944013,0.08431779928,-0.06509005378220696,,-7.83205e-05,-9.655952e-06,8.821487e-06,1.0,6.867945e-05,6.005913e-05,-6.868318e-05,1.0,7.0929527e-06,-6.0062855e-05,-7.0929527e-06,1.0,52,0.156,0,0,0.0,False,-0.2548735072678969,1.0506737121774343
0.17770682100672275,13:55:46.454399,13:55:36.174411,0,,0.119350955,-0.0015106648,0.026533186,0.8463797,0.42284653,-0.3237935,0.42031792,-0.15697351,0.8936957,0.32706913,-0.8925023,-0.31058922,,0.07394506,-0.0282275,-0.0075270534,-0.35166067,0.26580456,0.8975983,-0.0316267,-0.96166795,0.27238673,0.9355931,0.06739971,0.34658733,,0.106277056,1.3404417,0.44018015,0.9956698,0.012175478,-0.092160106,-0.051346898,-0.7544015,-0.65440196,-0.07749338,0.65630037,-0.75050956,,-0.08722968,0.2634448,-0.08683404,-0.86194503,-0.33901525,0.37698728,0.49483865,-0.7244205,0.4799476,0.110387765,0.60023636,0.7921685,,-0.035649754,0.36997208,-0.34847283,0.26186296,-0.20284025,-0.94354844,0.8154053,-0.47649536,0.32873446,-0.516277,-0.8554578,0.040620536,,1.1544250009705765,0.3797190526927449,0.20455845087000002,3.646927497082847,-0.06025669639655924,-0.8071846161035326,-0.4243678838168574,,-0.8466354822683587,-0.32409220779970577,0.23824513910000003,-2.120175018572026,-1.3942388436065543,0.4096407871067178,0.877484323273348,,-0.04931645967666478,-0.06459899893944013,0.08431779928,-0.06509005378220696,,-7.83205e-05,-9.655952e-06,8.821487e-06,1.0,6.867945e-05,6.005913e-05,-6.868318e-05,1.0,7.0929527e-06,-6.0062855e-05,-7.0929527e-06,1.0,60,0.181,0,0,0.0,False,-0.25493308498641865,1.0508668329805522
0.19790810003178194,13:55:46.483891,13:55:36.274948,0,,0.119357675,-0.0015234351,0.026533842,0.8463656,0.4228568,-0.32381707,0.42033774,-0.1569494,0.8936906,0.3270803,-0.8925016,-0.3105793,,0.073781,-0.02813176,-0.0076054335,-0.35103574,0.26800016,0.89719,-0.031440884,-0.960999,0.27475896,0.9358341,0.068241835,0.3457711,,0.106277056,1.3404417,0.44018015,0.9956698,0.012175478,-0.092160106,-0.051346898,-0.7544015,-0.65440196,-0.07749338,0.65630037,-0.75050956,,-0.08723678,0.26343536,-0.08684235,-0.8619315,-0.33902487,0.37700963,0.49486148,-0.7244024,0.47995132,0.11039124,0.6002527,0.79215556,,-0.03548608,0.36997527,-0.34834865,0.26120633,-0.20514789,-0.94323146,0.81563187,-0.4756946,0.3293316,-0.5162518,-0.8553531,0.043070726,,1.1543632191075828,0.37968816176124803,0.20455196942,3.646927497082847,-0.06025669639655924,-0.8072662948436732,-0.42420453975072303,,-0.8459018226453074,-0.32365201202587496,0.23824384281000002,-2.1224816079503555,-1.3939655706070233,0.4098263450000278,0.8769942910749453,,-0.04931645967666478,-0.06459899893944013,0.08431779928,-0.06509005378220696,,-7.83205e-05,-9.655952e-06,8.821487e-06,1.0,6.867945e-05,6.005913e-05,-6.868318e-05,1.0,7.0929527e-06,-6.0062855e-05,-7.0929527e-06,1.0,68,0.204,0,0,0.0,False,-0.2549926627049395,1.050963393382111
0.22737690701615065,13:55:46.505763,13:55:36.274948,0,,0.11935201,-0.0015081167,0.026552364,0.8463826,0.42282164,-0.3238183,0.42029077,-0.1568529,0.89372957,0.3270964,-0.8925352,-0.31046572,,0.07367189,-0.028066136,-0.007657647,-0.35098526,0.27105916,0.89629024,-0.031140745,-0.96003497,0.2781424,0.935863,0.06971282,0.34539908,,0.106277056,1.3404417,0.44018015,0.9956698,0.012175478,-0.092160106,-0.051346898,-0.7544015,-0.65440196,-0.07749338,0.65630037,-0.75050956,,-0.0872325,0.26345932,-0.08684656,-0.86195135,-0.33898395,0.37700102,0.49483615,-0.72435063,0.48005557,0.11034979,0.6003383,0.7920965,,-0.03537735,0.3699783,-0.34826434,0.26113233,-0.20839374,-0.94254017,0.81580704,-0.47431082,0.33088988,-0.5160124,-0.85533696,0.0461512,,1.1544481691691992,0.3797731118228645,0.20454289539,3.646927497082847,-0.06025669639655924,-0.8072662948436732,-0.42420453975072303,,-0.8454539041386024,-0.323412607306774,0.23824513910000003,-2.125836647046108,-1.3939655706070233,0.4098263450000278,0.8769942910749453,,-0.04931645967666478,-0.06459899893944013,0.08431779928,-0.06509005378220696,,-7.83205e-05,-9.655952e-06,8.821487e-06,1.0,6.867945e-05,6.005913e-05,-6.868318e-05,1.0,7.0929527e-06,-6.0062855e-05,-7.0929527e-06,1.0,75,0.226,0,0,0.0,False,-0.2546351963938136,1.0510116735828905
0.24925454903859645,13:55:46.528454,13:55:36.274948,0,,0.11934082,-0.0015044808,0.026565745,0.8464016,0.42276734,-0.32383958,0.42027676,-0.15680781,0.8937441,0.3270653,-0.8925689,-0.31040168,,0.07352548,-0.027993761,-0.0077331066,-0.3511031,0.27646875,0.89459026,-0.030219167,-0.95826304,0.28428632,0.9358491,0.07278013,0.34480378,,0.106277056,1.3404417,0.44018015,0.9956698,0.012175478,-0.092160106,-0.051346898,-0.7544015,-0.65440196,-0.07749338,0.65630037,-0.75050956,,-0.087222554,0.26347136,-0.086855166,-0.8619676,-0.3389254,0.3770164,0.49480426,-0.7243366,0.48010957,0.11036545,0.6003882,0.79205644,,-0.03522984,0.3699697,-0.3481617,0.26118597,-0.21418305,-0.9412266,0.8162902,-0.47143507,0.33379525,-0.5152205,-0.8554967,0.051703285,,1.154502228299319,0.3797731118228645,0.20453122878000002,3.646927497082847,-0.06025669639655924,-0.8072662948436732,-0.42420453975072303,,-0.8448824219059098,-0.32323498445066684,0.23824773168000002,-2.1325467252376127,-1.393828934107258,0.4102866782773153,0.877320979207214,,-0.04931645967666478,-0.06459899893944013,0.08431779928,-0.06509005378220696,,-7.83205e-05,-9.655952e-06,8.821487e-06,1.0,6.867945e-05,6.005913e-05,-6.868318e-05,1.0,7.0929527e-06,-6.0062855e-05,-7.0929527e-06,1.0,83,0.25,0,0,0.0,False,-0.2545756186752919,1.0507219923782136
0.27190490101929754,13:55:46.553819,13:55:36.274948,0,,0.11933847,-0.0015168786,0.026561826,0.8463991,0.422763,-0.3238518,0.42030743,-0.15686068,0.8937204,0.32703233,-0.8925616,-0.31045726,,0.0734621,-0.027968742,-0.007763624,-0.3515227,0.27960712,0.89344937,-0.029642433,-0.95720273,0.28789625,0.93570995,0.07471812,0.3447667,,0.106277056,1.3404417,0.44018015,0.9956698,0.012175478,-0.092160106,-0.051346898,-0.7544015,-0.65440196,-0.07749338,0.65630037,-0.75050956,,-0.087220185,0.26345956,-0.08686064,-0.8619611,-0.33892325,0.37703326,0.49480566,-0.7243714,0.48005566,0.110410094,0.6003475,0.7920811,,-0.035165746,0.36996448,-0.34812376,0.26157543,-0.21755914,-0.94034374,0.81652343,-0.4696159,0.33578327,-0.5146531,-0.8556453,0.054802153,,1.154502228299319,0.37972677542561917,0.20452993249,3.646927497082847,-0.06025669639655924,-0.8072662948436732,-0.42420453975072303,,-0.8446739081183058,-0.3232427071835411,0.23824773168000002,-2.137159903994272,-1.3939655706070233,0.4111332048422769,0.8766676029426768,,-0.04931645967666478,-0.06459899893944013,0.08431779928,-0.06509005378220696,,-7.83205e-05,-9.655952e-06,8.821487e-06,1.0,6.867945e-05,6.005913e-05,-6.868318e-05,1.0,7.0929527e-06,-6.0062855e-05,-7.0929527e-06,1.0,91,0.274,0,0,0.0,False,-0.2545756186752919,1.0504805913743163
0.2973174310172908,13:55:46.575185,13:55:36.274948,0,,0.11934166,-0.0015176088,0.026563033,0.8463947,0.42277774,-0.32384405,0.42030525,-0.15686229,0.8937212,0.3270465,-0.89255434,-0.31046316,,0.073451936,-0.027981825,-0.0077807307,-0.3509213,0.28011972,0.8935252,-0.029202878,-0.9570178,0.28855553,0.93594956,0.07516688,0.34401822,,0.106277056,1.3404417,0.44018015,0.9956698,0.012175478,-0.092160106,-0.051346898,-0.7544015,-0.65440196,-0.07749338,0.65630037,-0.75050956,,-0.087223485,0.26345968,-0.08686173,-0.86195815,-0.33893868,0.37702614,0.4948136,-0.7243684,0.480052,0.11039762,0.6003424,0.7920867,,-0.03515309,0.36994436,-0.3481258,0.2609245,-0.21812408,-0.9403937,0.81688404,-0.46920094,0.33548614,-0.5144112,-0.85572916,0.05575606,,1.1544867828335703,0.37973449815849336,0.20452863620000003,3.646927497082847,-0.06025669639655924,-0.8072662948436732,-0.42420453975072303,,-0.844581235323815,-0.3232813208479122,0.23824902797000003,-2.1367405241073034,-1.3932823881081962,0.41008604288295125,0.8771576351410797,,-0.04931645967666478,-0.06459899893944013,0.08431779928,-0.06509005378220696,,-7.83205e-05,-9.655952e-06,8.821487e-06,1.0,6.867945e-05,6.005913e-05,-6.868318e-05,1.0,7.0929527e-06,-6.0062855e-05,-7.0929527e-06,1.0,106,0.32,0,0,0.0,False,-0.2544564632382502,1.0503840309727575
0.3186957300058566,13:55:46.614948,13:55:36.404697,0,,0.119348064,-0.0015142262,0.026588783,0.8465021,0.422684,-0.32368565,0.42010736,-0.15687233,0.8938124,0.32702294,-0.89259696,-0.31036556,,0.07356079,-0.028109632,-0.007766813,-0.34724957,0.27452928,0.8966892,-0.03026706,-0.95897305,0.28187695,0.9372842,0.070741594,0.34131217,,0.106277056,1.3404417,0.44018015,0.9956698,0.012175478,-0.092160106,-0.051346898,-0.7544015,-0.65440196,-0.07749338,0.65630037,-0.75050956,,-0.087232254,0.2634789,-0.08687811,-0.86206824,-0.33884162,0.3768617,0.49464488,-0.72440004,0.4801781,0.11029431,0.60035896,0.79208857,,-0.035253532,0.36987656,-0.3482428,0.25722572,-0.21201238,-0.9428073,0.8170215,-0.47329813,0.32933983,-0.5160531,-0.85500854,0.051474225,,1.1544945055664446,0.3798194482201098,0.20450789556,3.6471371870263325,-0.06025669639655924,-0.8072662948436732,-0.42420453975072303,,-0.844581235323815,-0.3232813208479122,0.23824902797000003,-2.1180781191371807,-1.3909595676121838,0.39879888340394765,0.876830947008811,,-0.04931645967666478,-0.06459899893944013,0.08431779928,-0.06509005378220696,,-7.83205e-05,-9.655952e-06,8.821487e-06,1.0,6.867945e-05,6.005913e-05,-6.868318e-05,1.0,7.0929527e-06,-6.0062855e-05,-7.0929527e-06,1.0,110,0.332,0,0,0.0,False,-0.2533840643048717,1.0503840309727575
0.35843213100451976,13:55:46.634577,13:55:36.404697,0,,0.119344845,-0.001526773,0.026592225,0.84649193,0.42281651,-0.32353905,0.42006412,-0.15704414,0.89380264,0.3271046,-0.89250404,-0.3105468,,0.0736124,-0.02816128,-0.007749766,-0.34604675,0.27396274,0.8973272,-0.031471252,-0.9592685,0.28073743,0.9376893,0.068908334,0.34057367,,0.106277056,1.3404417,0.44018015,0.9956698,0.012175478,-0.092160106,-0.051346898,-0.7544015,-0.65440196,-0.07749338,0.65630037,-0.75050956,,-0.087229736,0.2634719,-0.08688926,-0.8620672,-0.33898717,0.376733,0.4946667,-0.7244734,0.4800449,0.11020398,0.60018826,0.7922305,,-0.035302788,0.3698579,-0.34829617,0.2560772,-0.21125364,-0.9432902,0.8165928,-0.47493386,0.32804573,-0.5173013,-0.854289,0.050888464,,1.1544867828335703,0.37976538908999025,0.20449882153,3.6471371870263325,-0.060393332896324675,-0.8070731981998363,-0.4243678838168574,,-0.8445966807895635,-0.3232195389849184,0.23824902797000003,-2.108642071680377,-1.3906862946126528,0.3907348885430607,0.876177570744274,,-0.04931645967666478,-0.06459899893944013,0.08431779928,-0.06509005378220696,,-7.83205e-05,-9.655952e-06,8.821487e-06,1.0,6.867945e-05,6.005913e-05,-6.868318e-05,1.0,7.0929527e-06,-6.0062855e-05,-7.0929527e-06,1.0,118,0.357,0,0,0.0,False,-0.2326510182595518,1.0501909101696396
0.378085557022132,13:55:46.656563,13:55:36.404697,0,,0.11933616,-0.0015385151,0.026594356,0.84649944,0.42278218,-0.32356444,0.4200914,-0.1570799,0.89378357,0.32705033,-0.892514,-0.31057525,,0.07361111,-0.02815675,-0.007742524,-0.34630486,0.27798045,0.89599097,-0.032238692,-0.9580523,0.28477454,0.93756795,0.06973329,0.34073985,,0.106277056,1.3404417,0.44018015,0.9956698,0.012175478,-0.092160106,-0.051346898,-0.7544015,-0.65440196,-0.07749338,0.65630037,-0.75050956,,-0.08722162,0.26346487,-0.08689938,-0.86206865,-0.33895308,0.37676048,0.49465108,-0.7245053,0.4800129,0.11026312,0.600169,0.7922368,,-0.03530252,0.36986655,-0.3482961,0.25639898,-0.21540733,-0.9422628,0.8161202,-0.47407758,0.33045152,-0.51788735,-0.8537272,0.054245263,,1.154502228299319,0.3797036072269965,0.20449104379000002,3.6471371870263325,-0.060393332896324675,-0.8070731981998363,-0.4220810668909777,,-0.8445657898580666,-0.3231268661904277,0.23824902797000003,-2.1065451722455317,-1.3915061136112454,0.38454238179343214,0.8763409148104081,,-0.04931645967666478,-0.06459899893944013,0.08431779928,-0.06509005378220696,,-7.83205e-05,-9.655952e-06,8.821487e-06,1.0,6.867945e-05,6.005913e-05,-6.868318e-05,1.0,7.0929527e-06,-6.0062855e-05,-7.0929527e-06,1.0,126,0.382,0,0,0.0,False,-0.07447217558620833,1.0505771517758753
0.40005784801905975,13:55:46.678864,13:55:36.404697,0,,0.11933705,-0.0015362799,0.026600033,0.8465001,0.42267886,-0.32369763,0.42007995,-0.15676841,0.89384353,0.3270632,-0.8926177,-0.31026348,,0.07358214,-0.028134994,-0.007742256,-0.3472495,0.2799541,0.89501035,-0.03288406,-0.9574481,0.28672585,0.93719614,0.070133954,0.3416794,,0.106277056,1.3404417,0.44018015,0.9956698,0.012175478,-0.092160106,-0.051346898,-0.7544015,-0.65440196,-0.07749338,0.65630037,-0.75050956,,-0.08722299,0.26347026,-0.08690207,-0.8620709,-0.33883157,0.3768646,0.49465096,-0.7243355,0.48026922,0.11024602,0.6004426,0.7920319,,-0.03527531,0.36988154,-0.34827748,0.2574179,-0.21744779,-0.94151604,0.815581,-0.47365737,0.33237976,-0.5182313,-0.85344315,0.055418413,,1.154509951032193,0.37972677542561917,0.20448715492000002,3.6471371870263325,-0.060393332896324675,-0.8073999131603984,-0.4175074330392179,,-0.8444808397964502,-0.3230650843274339,0.23824902797000003,-2.1080130018499235,-1.392599205609369,0.38388182896033257,0.8761775707442739,,-0.04931645967666478,-0.06459899893944013,0.08431779928,-0.06509005378220696,,-7.83205e-05,-9.655952e-06,8.821487e-06,1.0,6.867945e-05,6.005913e-05,-6.868318e-05,1.0,7.0929527e-06,-6.0062855e-05,-7.0929527e-06,1.0,134,0.405,0,0,0.0,False,0.10223533754717584,1.0505288715750958
0.422371112043038,13:55:46.704536,13:55:36.404697,0,,0.11935048,-0.0015299916,0.02661474,0.8464368,0.4225182,-0.32407293,0.41970778,-0.15483248,0.89435565,0.32770452,-0.8930316,-0.3083902,,0.0735353,-0.028112091,-0.007766664,-0.34732425,0.2805377,0.8947985,-0.03280613,-0.95725334,0.28738454,0.9371711,0.070460856,0.34168062,,0.106277056,1.3404417,0.44018015,0.9956698,0.012175478,-0.092160106,-0.051346898,-0.7544015,-0.65440196,-0.07749338,0.65630037,-0.75050956,,-0.087237604,0.2634841,-0.08690766,-0.86208004,-0.33857793,0.37707165,0.49479714,-0.7231483,0.4819049,0.10951637,0.60201454,0.7909391,,-0.035228074,0.36987844,-0.34824473,0.257489,-0.21807219,-0.9413522,0.81560946,-0.4733486,0.33274966,-0.51815116,-0.8534551,0.055979677,,1.1544945055664446,0.37978855728861294,0.20447808089000002,3.6471371870263325,-0.06107651539515188,-0.8092931858461332,-0.3979061451031043,,-0.8442800487417202,-0.32298785699869165,0.23825162055000002,-2.109480831454315,-1.3927358421091345,0.38472835552529444,0.8765042588765425,,-0.04931645967666478,-0.06459899893944013,0.08431779928,-0.06509005378220696,,-7.83205e-05,-9.655952e-06,8.821487e-06,1.0,6.867945e-05,6.005913e-05,-6.868318e-05,1.0,7.0929527e-06,-6.0062855e-05,-7.0929527e-06,1.0,142,0.43,0,0,0.0,False,0.33035842176421193,1.0499977893665218
0.44800908101024106,13:55:46.731232,13:55:36.404697,0,,0.119367,-0.0015300512,0.026621208,0.84624165,0.4230198,-0.32392785,0.41855288,-0.15161595,0.89544725,0.32967934,-0.89334595,-0.30536002,,0.0734958,-0.028111659,-0.0077938735,-0.34691173,0.28033763,0.89502126,-0.032654136,-0.95731604,0.28719276,0.93732923,0.07040453,0.3412583,,0.106277056,1.3404417,0.44018015,0.9956698,0.012175478,-0.092160106,-0.051346898,-0.7544015,-0.65440196,-0.07749338,0.65630037,-0.75050956,,-0.08725466,0.2634876,-0.08691101,-0.8621086,-0.33895716,0.37666547,0.49524066,-0.72096264,0.48471594,0.107263796,0.6044178,0.78941345,,-0.035186272,0.36986032,-0.34822965,0.25705358,-0.21786375,-0.94151944,0.81577355,-0.47340524,0.33226648,-0.5181091,-0.85347694,0.056036975,,1.1544790601006962,0.3797499436242418,0.20447419202000003,3.6471371870263325,-0.06339933589116437,-0.8121364484114467,-0.3662173962730543,,-0.8440560894883677,-0.32295696606719476,0.23825291684000002,-2.1092711415108303,-1.3924625691096035,0.38483223467846356,0.8761775707442738,,-0.04931645967666478,-0.06459899893944013,0.08431779928,-0.06509005378220696,,-7.83205e-05,-9.655952e-06,8.821487e-06,1.0,6.867945e-05,6.005913e-05,-6.868318e-05,1.0,7.0929527e-06,-6.0062855e-05,-7.0929527e-06,1.0,153,0.463,0,0,0.0,False,0.42157190881991413,1.0505771517758753
0.47468377504264936,13:55:46.766887,13:55:36.571163,0,,0.11937648,-0.0015238225,0.026627645,0.84608614,0.4238305,-0.32327396,0.4175893,-0.15009147,0.8961537,0.33129665,-0.8932191,-0.30397752,,0.07346098,-0.028126158,-0.007819891,-0.34659052,0.280143,0.89520663,-0.032557458,-0.957379,0.28699398,0.9374514,0.070323855,0.3409392,,0.106277056,1.3404417,0.44018015,0.9956698,0.012175478,-0.092160106,-0.051346898,-0.7544015,-0.65440196,-0.07749338,0.65630037,-0.75050956,,-0.087264545,0.26349613,-0.08691085,-0.86213654,-0.33973354,0.3759012,0.4955904,-0.7197695,0.48612967,0.10540766,0.6054032,0.78890824,,-0.035148196,0.3698349,-0.34822792,0.2567162,-0.21765834,-0.941659,0.8158892,-0.47348318,0.33187124,-0.51809424,-0.8534861,0.05603428,,1.154502228299319,0.37973449815849336,0.20447289573000002,3.6471371870263325,-0.06531224688788054,-0.8131903174441947,-0.3227678746813357,,-0.8438398529678895,-0.32298785699869165,0.23825421313000003,-2.1088517616238613,-1.3923259326098383,0.38472081677476727,0.8761775707442738,,-0.04931645967666478,-0.06459899893944013,0.08431779928,-0.06509005378220696,,-7.83205e-05,-9.655952e-06,8.821487e-06,1.0,6.867945e-05,6.005913e-05,-6.868318e-05,1.0,7.0929527e-06,-6.0062855e-05,-7.0929527e-06,1.0,165,0.5,0,0,0.0,False,0.5672394306038404,1.0503840309727575
0.5103588520432822,13:55:46.798492,13:55:36.571163,0,,0.119370036,-0.0015182048,0.026642606,0.8461945,0.423227,-0.32378033,0.4173517,-0.14858896,0.8965148,0.33131906,-0.8937563,-0.30236983,,0.07343632,-0.028115109,-0.007797301,-0.34655398,0.27985352,0.8953113,-0.032605946,-0.9574762,0.28666386,0.93746316,0.07015213,0.34094203,,0.106318116,1.340439,0.4401841,0.995668,0.012149359,-0.09218276,-0.051381372,-0.7544019,-0.65439874,-0.07749338,0.65630037,-0.75050956,,-0.08729527,0.26350728,-0.0869126,-0.86223793,-0.33904436,0.37629062,0.49544483,-0.7189595,0.48747474,0.10526215,0.6067505,0.787892,,-0.035165668,0.3698574,-0.3482254,0.2566916,-0.21737938,-0.94173014,0.81586146,-0.47364143,0.33171356,-0.5181501,-0.8534694,0.055771682,,1.154502228299319,0.3797499436242418,0.20447419202000003,3.647346876969817,-0.06544888338764597,-0.8148758318235907,-0.2675575803279494,,-0.8437549029062731,-0.32298785699869165,0.23825291684000002,-2.1084323817368924,-1.3923259326098383,0.38463913803462674,0.8763409148104082,,-0.04931645967666478,-0.06459899893944013,0.08431779928,-0.06509005378220696,,-3.759563e-05,-4.4107437e-06,3.8146973e-06,1.0,4.2695552e-05,3.7331134e-05,-4.2699277e-05,1.0,4.3809414e-06,-3.7338585e-05,-4.4107437e-06,1.0,173,0.525,0,0,0.0,False,0.6632787128597455,1.0503840309727575
0.5419648110400885,13:55:46.825803,13:55:36.571163,0,,0.119364016,-0.0015289783,0.026636675,0.8471664,0.42256358,-0.32210097,0.41582733,-0.14991781,0.89700174,0.3307516,-0.89384824,-0.30271897,,0.07343248,-0.028112054,-0.0078018904,-0.3464334,0.28002492,0.8953043,-0.0325315,-0.9574186,0.28686458,0.9375104,0.07025397,0.34079137,,0.106318116,1.340439,0.4401841,0.995668,0.012149359,-0.09218276,-0.051381372,-0.7544019,-0.65439874,-0.07749338,0.65630037,-0.75050956,,-0.08728901,0.26349553,-0.08691583,-0.8631927,-0.33841246,0.374667,0.4938848,-0.7199892,0.48753807,0.10476724,0.60588163,0.7886262,,-0.035161644,0.3698556,-0.34822038,0.2565621,-0.21756336,-0.9417229,0.8159259,-0.4735456,0.3316919,-0.5181128,-0.8534757,0.056021705,,1.154509951032193,0.3796727162954996,0.20447419202000003,3.6492340864611776,-0.06572215638717686,-0.8140812448352139,-0.2063035555275946,,-0.8437317347076504,-0.3229724115329432,0.23825421313000003,-2.1084323817368924,-1.3921892961100728,0.3844460413907897,0.8761775707442739,,-0.04931645967666478,-0.06459899893944013,0.08431779928,-0.06509005378220696,,-3.759563e-05,-4.4107437e-06,3.8146973e-06,1.0,4.2695552e-05,3.7331134e-05,-4.2699277e-05,1.0,4.3809414e-06,-3.7338585e-05,-4.4107437e-06,1.0,181,0.548,0,0,0.0,False,0.7503813373374961,1.0506254319766548
0.5692943350295536,13:55:46.850148,13:55:36.571163,0,,0.11932048,-0.0015519857,0.026616096,0.8499236,0.41635156,-0.32292613,0.41527408,-0.15208527,0.8968932,0.32431054,-0.89639366,-0.302161,,0.073437855,-0.028116077,-0.007801056,-0.34637338,0.27950352,0.89549047,-0.032620043,-0.95759356,0.28627,0.93752944,0.069945484,0.3408023,,0.106318116,1.340439,0.4401841,0.995668,0.012149359,-0.09218276,-0.051381372,-0.7544019,-0.65439874,-0.07749338,0.65630037,-0.75050956,,-0.087244354,0.26346654,-0.08691963,-0.8653302,-0.33204675,0.37543118,0.4891045,-0.72302806,0.48785985,0.109455,0.60578495,0.7880636,,-0.03516677,0.36985356,-0.34822428,0.25650692,-0.21700384,-0.94186705,0.8158887,-0.47383586,0.33136874,-0.51819867,-0.85345703,0.055508792,,1.1545176737650673,0.37965727082975115,0.20447678460000002,3.653637575274353,-0.06025669639655924,-0.8151891326373077,-0.11532091069080108,,-0.8437394574405246,-0.3229724115329432,0.23825550942,-2.107803311906439,-1.3921892961100728,0.3844460413907897,0.8761775707442739,,-0.04931645967666478,-0.06459899893944013,0.08431779928,-0.06509005378220696,,-3.759563e-05,-4.4107437e-06,3.8146973e-06,1.0,4.2695552e-05,3.7331134e-05,-4.2699277e-05,1.0,4.3809414e-06,-3.7338585e-05,-4.4107437e-06,1.0,196,0.594,0,0,0.0,False,0.8305729464668068,1.0510116735828905
0.5936578260152601,13:55:46.887912,13:55:36.571163,0,,0.11928485,-0.0015792847,0.026598126,0.85350275,0.40924057,-0.32257587,0.41349083,-0.15517643,0.89718753,0.31710938,-0.8991343,-0.30166084,,0.073440045,-0.028120786,-0.007803768,-0.34637642,0.2796388,0.895447,-0.032597363,-0.95754856,0.28642315,0.9375291,0.07002112,0.34078774,,0.106318116,1.340439,0.4401841,0.995668,0.012149359,-0.09218276,-0.051381372,-0.7544019,-0.65439874,-0.07749338,0.65630037,-0.75050956,,-0.087207936,0.26343575,-0.08692749,-0.8682466,-0.32479355,0.37504265,0.48286456,-0.72685045,0.48839557,0.113972194,0.6051426,0.7879167,,-0.035168353,0.36984855,-0.34822688,0.2565084,-0.21714856,-0.94183326,0.8159006,-0.47376445,0.3314415,-0.5181792,-0.8534599,0.05564708,,1.1544790601006962,0.37965727082975115,0.20447548831,3.6597185836354034,-0.05465459990617618,-0.8159183659022546,-0.02629839464761885,,-0.8437394574405246,-0.3229955797315659,0.23825810200000003,-2.107803311906439,-1.3921892961100728,0.3842826839105086,0.8765042588765425,,-0.04931645967666478,-0.06459899893944013,0.08431779928,-0.06509005378220696,,-3.759563e-05,-4.4107437e-06,3.8146973e-06,1.0,4.2695552e-05,3.7331134e-05,-4.2699277e-05,1.0,4.3809414e-06,-3.7338585e-05,-4.4107437e-06,1.0,204,0.619,0,0,0.0,False,0.9577713755092128,1.0506254319766548
0.6313166820327751,13:55:46.921233,13:55:36.571163,0,,0.11917502,-0.0016556084,0.02654323,0.86020815,0.39396068,-0.32378528,0.41141486,-0.1610055,0.89711475,0.30129674,-0.90491563,-0.3005796,,0.073445395,-0.028117731,-0.007809043,-0.3462596,0.2797718,0.89545065,-0.032557636,-0.9575058,0.2865705,0.9375737,0.07007408,0.34065425,,0.106318116,1.340439,0.4401841,0.995668,0.012149359,-0.09218276,-0.051381372,-0.7544019,-0.65439874,-0.07749338,0.65630037,-0.75050956,,-0.08709549,0.26334697,-0.08694692,-0.8734512,-0.30919582,0.37613964,0.47059307,-0.7343826,0.4891056,0.12500101,0.6042186,0.78695273,,-0.035173375,0.36984506,-0.34822154,0.25638536,-0.21728869,-0.94183445,0.81594515,-0.47371313,0.33140525,-0.51816994,-0.8534527,0.055842537,,1.1544558919020735,0.3795028161722666,0.20447808089000002,3.671041840583568,-0.04167413242845934,-0.8180084777787962,0.08444888219142233,,-0.8437471801733988,-0.32298013426581745,0.23826458345,-2.107593621962954,-1.3920526596103073,0.38392622978639035,0.8763409148104081,,-0.04931645967666478,-0.06459899893944013,0.08431779928,-0.06509005378220696,,-3.759563e-05,-4.4107437e-06,3.8146973e-06,1.0,4.2695552e-05,3.7331134e-05,-4.2699277e-05,1.0,4.3809414e-06,-3.7338585e-05,-4.4107437e-06,1.0,212,0.644,0,0,0.0,False,1.014310630385673,1.0509151131813312
0.6647377740009688,13:55:46.942414,13:55:36.571163,0,,0.11906192,-0.001719594,0.026495025,0.86661136,0.37949282,-0.32399058,0.4097929,-0.17081136,0.89604306,0.28470063,-0.90929025,-0.30354065,,0.073442385,-0.028117642,-0.007815361,-0.34621042,0.27961457,0.8955188,-0.03258872,-0.9575596,0.28638712,0.9375907,0.069966495,0.34062937,,0.106318116,1.340439,0.4401841,0.995668,0.012149359,-0.09218276,-0.051381372,-0.7544019,-0.65439874,-0.07749338,0.65630037,-0.75050956,,-0.08698008,0.26327202,-0.08696347,-0.8782669,-0.2946525,0.37659958,0.4581588,-0.74400723,0.4863577,0.1368863,0.59969425,0.7884345,,-0.03516979,0.36984012,-0.3482181,0.25633708,-0.2171185,-0.94188684,0.8159375,-0.4738135,0.33128044,-0.5182058,-0.8534403,0.055699166,,1.1544481691691992,0.3794333115763986,0.20448196976000002,3.6821554075882474,-0.02773720945238441,-0.8156510756122167,0.21251063004069737,,-0.8437162892419019,-0.3229724115329432,0.23826847232000004,-2.1073839320194696,-1.3920526596103073,0.38392622978639035,0.8763409148104081,,-0.04931645967666478,-0.06459899893944013,0.08431779928,-0.06509005378220696,,-3.759563e-05,-4.4107437e-06,3.8146973e-06,1.0,4.2695552e-05,3.7331134e-05,-4.2699277e-05,1.0,4.3809414e-06,-3.7338585e-05,-4.4107437e-06,1.0,220,0.667,0,0,0.0,False,1.0409418705645752,1.0506737121774343
0.6859143220353872,13:55:46.968995,13:55:36.774348,0,,0.11898759,-0.0017740726,0.026455939,0.8718517,0.36675018,-0.32460594,0.40738297,-0.17513502,0.8963073,0.27187103,-0.913686,-0.3020996,,0.07344139,-0.02811718,-0.0078219175,-0.34616774,0.27967378,0.8955168,-0.032621264,-0.9575441,0.28643525,0.9376054,0.06994191,0.34059417,,0.106318116,1.340439,0.4401841,0.995668,0.012149359,-0.09218276,-0.051381372,-0.7544019,-0.65439874,-0.07749338,0.65630037,-0.75050956,,-0.08690389,0.26320854,-0.086977035,-0.8823106,-0.28167084,0.37708023,0.4476662,-0.7496046,0.48753253,0.14533737,0.5989612,0.78747857,,-0.03516821,0.36983493,-0.34821427,0.25629556,-0.21717605,-0.9418849,0.81592786,-0.4738332,0.33127606,-0.5182416,-0.8534147,0.05575864,,1.154370941840457,0.37936380698053057,0.20448585863000002,3.6918011449885357,-0.017489471969976376,-0.8175547979183438,0.2904257495867485,,-0.8436931210432792,-0.322964688800069,0.23827365748,-2.1071742420759856,-1.3920526596103073,0.3836811935659686,0.8765042588765426,,-0.04931645967666478,-0.06459899893944013,0.08431779928,-0.06509005378220696,,-3.759563e-05,-4.4107437e-06,3.8146973e-06,1.0,4.2695552e-05,3.7331134e-05,-4.2699277e-05,1.0,4.3809414e-06,-3.7338585e-05,-4.4107437e-06,1.0,228,0.692,0,0,0.0,False,1.046244287512947,1.0504805913743163
0.7124689519987442,13:55:46.992887,13:55:36.774348,0,,0.118890874,-0.0018674731,0.026381105,0.88028264,0.3478391,-0.32266167,0.40063283,-0.18065381,0.8982524,0.25415722,-0.91998494,-0.29838228,,0.073449396,-0.028129026,-0.0078270435,-0.34595427,0.2791763,0.89575446,-0.032657564,-0.95771086,0.28587312,0.93768287,0.06964594,0.34044138,,0.106318116,1.340439,0.4401841,0.995668,0.012149359,-0.09218276,-0.051381372,-0.7544019,-0.65439874,-0.07749338,0.65630037,-0.75050956,,-0.08680305,0.26309323,-0.08699166,-0.88917893,-0.26240164,0.37484154,0.43055868,-0.75708944,0.4913602,0.15485485,0.59829843,0.78616726,,-0.035174835,0.36982346,-0.3482217,0.25607875,-0.21664204,-0.94206685,0.81594914,-0.47411135,0.33082545,-0.51831526,-0.85339594,0.055359032,,1.1542010417172242,0.37909351132993274,0.2045027104,3.708366650523813,-0.005055550491321297,-0.8210778492033326,0.40525662807914675,,-0.843685398310405,-0.32298785699869165,0.23827884264000002,-2.106125792358563,-1.3919160231105419,0.38324306070171,0.8761775707442739,,-0.04931645967666478,-0.06459899893944013,0.08431779928,-0.06509005378220696,,-3.759563e-05,-4.4107437e-06,3.8146973e-06,1.0,4.2695552e-05,3.7331134e-05,-4.2699277e-05,1.0,4.3809414e-06,-3.7338585e-05,-4.4107437e-06,1.0,243,0.738,0,0,0.0,False,1.0466017538240733,1.050963393382111
0.7363853330025449,13:55:47.032254,13:55:36.774348,0,,0.118700445,-0.0020243078,0.026253834,0.88939196,0.31947145,-0.32698596,0.3971999,-0.18594885,0.8986963,0.22630513,-0.9291723,-0.29227555,,0.073457025,-0.028132692,-0.007829368,-0.3458247,0.27970788,0.8956387,-0.032626003,-0.9575417,0.2864426,0.93773174,0.06983796,0.3402673,,0.106318116,1.340439,0.4401841,0.995668,0.012149359,-0.09218276,-0.051381372,-0.7544019,-0.65439874,-0.07749338,0.65630037,-0.75050956,,-0.086605676,0.26289976,-0.08701758,-0.89565223,-0.2334389,0.37856746,0.4092276,-0.76590526,0.49590513,0.17418325,0.59907883,0.7815144,,-0.035181932,0.36981872,-0.3482237,0.2559432,-0.2172001,-0.9419752,0.8159916,-0.4739238,0.3309894,-0.5183154,-0.85335827,0.05593587,,1.1539616369981232,0.37862242462460505,0.20453511765000001,3.7268193655504516,0.01776274496950726,-0.8285763304615186,0.5101235185373539,,-0.8437008437761535,-0.3229955797315659,0.23828273151,-2.105706412471594,-1.3917793866107764,0.3822331766564674,0.8765042588765424,,-0.04931645967666478,-0.06459899893944013,0.08431779928,-0.06509005378220696,,-3.759563e-05,-4.4107437e-06,3.8146973e-06,1.0,4.2695552e-05,3.7331134e-05,-4.2699277e-05,1.0,4.3809414e-06,-3.7338585e-05,-4.4107437e-06,1.0,247,0.75,0,0,0.0,False,1.0467804869796362,1.050432311173537
0.7757402900024317,13:55:47.058942,13:55:36.774348,0,,0.11842115,-0.0022484213,0.026072204,0.8983459,0.2856744,-0.3337136,0.3966884,-0.2012052,0.89563084,0.18871391,-0.9369667,-0.29407576,,0.07345591,-0.028130963,-0.007831216,-0.34581718,0.28008026,0.8955252,-0.032632202,-0.95742315,0.2868379,0.93773425,0.06997064,0.340233,,0.106318116,1.340439,0.4401841,0.995668,0.012149359,-0.09218276,-0.051381372,-0.7544019,-0.65439874,-0.07749338,0.65630037,-0.75050956,,-0.08631653,0.26262376,-0.087055445,-0.9009502,-0.19948615,0.38534927,0.3836748,-0.7810472,0.49270567,0.20268802,0.59175205,0.7802225,,-0.035180762,0.36981818,-0.34822124,0.25593594,-0.21759088,-0.94188696,0.8159896,-0.47379386,0.33118019,-0.51832205,-0.85333085,0.056291033,,1.153606391285909,0.37790421046730216,0.20458956183000002,3.7469496001249656,0.050418868413447525,-0.8283329039387184,0.6007794752418791,,-0.8436931210432792,-0.32298785699869165,0.23828402780000002,-2.105706412471594,-1.3917793866107764,0.3818247829557646,0.8761775707442738,,-0.04931645967666478,-0.06459899893944013,0.08431779928,-0.06509005378220696,,-3.759563e-05,-4.4107437e-06,3.8146973e-06,1.0,4.2695552e-05,3.7331134e-05,-4.2699277e-05,1.0,4.3809414e-06,-3.7338585e-05,-4.4107437e-06,1.0,259,0.787,0,0,0.0,False,1.0468400646981575,1.0504805913743163
0.8024105920339935,13:55:47.082922,13:55:36.774348,0,,0.118182935,-0.0024374574,0.025895327,0.9033728,0.25939223,-0.34151605,0.398285,-0.2121723,0.8923855,0.15901756,-0.94217753,-0.29498285,,0.07345471,-0.028127596,-0.007835686,-0.34573257,0.28034186,0.895476,-0.03252402,-0.95733327,0.28715008,0.9377693,0.07015276,0.34009913,,0.106318116,1.340439,0.4401841,0.995668,0.012149359,-0.09218276,-0.051381372,-0.7544019,-0.65439874,-0.07749338,0.65630037,-0.75050956,,-0.08606773,0.26237544,-0.08706997,-0.9030435,-0.1731399,0.39310935,0.36507815,-0.7915883,0.490006,0.22634117,0.58601236,0.7780483,,-0.03517938,0.3698163,-0.348216,0.25584096,-0.21787438,-0.9418472,0.8160656,-0.47362408,0.33123586,-0.51824933,-0.8533528,0.05662735,,1.1532897592380655,0.37718599630999927,0.20466345036000003,3.7603697565079752,0.0770629858677084,-0.8287412439828339,0.6505994154128343,,-0.843685398310405,-0.32298013426581745,0.23828662038000004,-2.105916102415078,-1.3916427501110111,0.3817133650520683,0.8761775707442738,,-0.04931645967666478,-0.06459899893944013,0.08431779928,-0.06509005378220696,,-3.759563e-05,-4.4107437e-06,3.8146973e-06,1.0,4.2695552e-05,3.7331134e-05,-4.2699277e-05,1.0,4.3809414e-06,-3.7338585e-05,-4.4107437e-06,1.0,267,0.811,0,0,0.0,False,1.0467209092611154,1.0502874705711984
0.8264179420075379,13:55:47.111409,13:55:36.894480,0,,0.11777758,-0.0027778447,0.025574505,0.91237265,0.21257281,-0.34984124,0.39465964,-0.22979453,0.8896281,0.108719096,-0.94974065,-0.29355228,,0.0734684,-0.028140157,-0.007836282,-0.34559244,0.27970418,0.8957294,-0.032716244,-0.9575552,0.28638744,0.93781424,0.06966859,0.34007466,,0.106318116,1.340439,0.4401841,0.995668,0.012149359,-0.09218276,-0.051381372,-0.7544019,-0.65439874,-0.07749338,0.65630037,-0.75050956,,-0.08564297,0.2619258,-0.08709224,-0.9072486,-0.12631881,0.40117767,0.3288078,-0.8077953,0.48923635,0.26226968,0.57576936,0.7744057,,-0.03519204,0.36980763,-0.3482265,0.25571102,-0.21717927,-0.942043,0.8159867,-0.47407344,0.33078712,-0.5184377,-0.8532805,0.055989597,,1.1526951088067503,0.37566461793377703,0.20480993113,3.7884682089349018,0.11914702779546407,-0.8300597473045445,0.7195306113215002,,-0.8437008437761535,-0.3229955797315659,0.23829180554,-2.1044482728106866,-1.3916427501110111,0.3810599351309438,0.8768309470088109,,-0.04931645967666478,-0.06459899893944013,0.08431779928,-0.06509005378220696,,-3.759563e-05,-4.4107437e-06,3.8146973e-06,1.0,4.2695552e-05,3.7331134e-05,-4.2699277e-05,1.0,4.3809414e-06,-3.7338585e-05,-4.4107437e-06,1.0,275,0.835,0,0,0.0,False,1.0460059766388632,1.0503840309727575
0.8548642340465449,13:55:47.139545,13:55:36.894480,0,,0.11728555,-0.0031820685,0.0251759,0.91981274,0.15609074,-0.35997245,0.3889615,-0.24230868,0.88881683,0.05151157,-0.95756054,-0.28359202,,0.07347518,-0.028140068,-0.007844567,-0.34569934,0.28049308,0.89544153,-0.03279504,-0.9573058,0.28721076,0.93777204,0.069922656,0.34013873,,0.106318116,1.340439,0.4401841,0.995668,0.012149359,-0.09218276,-0.051381372,-0.7544019,-0.65439874,-0.07749338,0.65630037,-0.75050956,,-0.08512625,0.26138064,-0.08710653,-0.9092933,-0.0697167,0.41027462,0.28649312,-0.819923,0.49562886,0.30183998,0.56821287,0.76552385,,-0.03519799,0.36979988,-0.3482221,0.25582674,-0.21800442,-0.941821,0.81592256,-0.473822,0.3313051,-0.5184815,-0.8532097,0.056658402,,1.1520077855809443,0.3736026482563591,0.20501733753,3.820760460231518,0.16628662021454105,-0.8384411477080829,0.7747409056748865,,-0.8437085665090277,-0.32300330246444015,0.23830347215000003,-2.1044482728106866,-1.3917793866107764,0.38019120815295343,0.8765042588765425,,-0.04931645967666478,-0.06459899893944013,0.08431779928,-0.06509005378220696,,-3.759563e-05,-4.4107437e-06,3.8146973e-06,1.0,4.2695552e-05,3.7331134e-05,-4.2699277e-05,1.0,4.3809414e-06,-3.7338585e-05,-4.4107437e-06,1.0,290,0.881,0,0,0.0,False,1.0464825983870312,1.0507702725789931
0.883039758016821,13:55:47.179874,13:55:36.894480,0,,0.116420075,-0.0038256645,0.02453643,0.924776,0.0692561,-0.37415624,0.3786726,-0.26406685,0.88706005,-0.03736797,-0.96201473,-0.27042815,,0.07348904,-0.028145373,-0.007851243,-0.34560174,0.28101283,0.8953162,-0.032943964,-0.9571524,0.28770465,0.9378028,0.0699361,0.34005117,,0.106318116,1.340439,0.4401841,0.995668,0.012149359,-0.09218276,-0.051381372,-0.7544019,-0.65439874,-0.07749338,0.65630037,-0.75050956,,-0.08422142,0.26051304,-0.08713312,-0.90594745,0.016502434,0.4230684,0.21995643,-0.83546907,0.5035976,0.36177117,0.5492896,0.75326127,,-0.035210736,0.3697898,-0.34822324,0.25573733,-0.21853256,-0.94172287,0.81585926,-0.47379205,0.33150375,-0.51862514,-0.85309124,0.057125505,,1.1511891758962765,0.3698339546137375,0.20539066905000003,3.870247286893866,0.23911387458952077,-0.8453074604678938,0.83174798475575,,-0.8437240119747761,-0.32300330246444015,0.23831513876000002,-2.103399823093264,-1.3917793866107764,0.3786393120902827,0.876340914810408,,-0.04931645967666478,-0.06459899893944013,0.08431779928,-0.06509005378220696,,-3.759563e-05,-4.4107437e-06,3.8146973e-06,1.0,4.2695552e-05,3.7331134e-05,-4.2699277e-05,1.0,4.3809414e-06,-3.7338585e-05,-4.4107437e-06,1.0,298,0.906,0,0,0.0,False,1.0468400646981575,1.0506254319766548
0.9233628640067764,13:55:47.200717,13:55:36.894480,0,,0.11592917,-0.004157543,0.024130791,0.9246434,0.0280369,-0.37980068,0.37214458,-0.27834192,0.88545704,-0.08088899,-0.96007276,-0.2678008,,0.07349637,-0.028145716,-0.007850051,-0.34557602,0.28132018,0.89522964,-0.03301418,-0.95705944,0.28800574,0.9378098,0.06997275,0.34002432,,0.106318116,1.340439,0.4401841,0.995668,0.012149359,-0.09218276,-0.051381372,-0.7544019,-0.65439874,-0.07749338,0.65630037,-0.75050956,,-0.08370313,0.2600175,-0.08709428,-0.90180063,0.05692831,0.4283863,0.18636739,-0.8431367,0.50436854,0.38990107,0.5346771,0.74973166,,-0.03521811,0.36978975,-0.34822422,0.25571606,-0.21884778,-0.94165546,0.8158255,-0.47374892,0.33164847,-0.5186888,-0.8530344,0.057396393,,1.1509034347799303,0.367439907422728,0.20566418624000002,3.8952003901685246,0.2740928185294736,-0.8431192375213266,0.8497158320305207,,-0.8437471801733988,-0.3229955797315659,0.23831773134000003,-2.102980443206295,-1.3917793866107764,0.37790420342901765,0.8761775707442738,,-0.04931645967666478,-0.06459899893944013,0.08431779928,-0.06509005378220696,,-3.759563e-05,-4.4107437e-06,3.8146973e-06,1.0,4.2695552e-05,3.7331134e-05,-4.2699277e-05,1.0,4.3809414e-06,-3.7338585e-05,-4.4107437e-06,1.0,306,0.93,0,0,0.0,False,1.0464825983870312,1.0503840309727575
0.9441614700481296,13:55:47.231247,13:55:36.894480,0,,0.11514696,-0.0046978593,0.023355156,0.921268,-0.02818337,-0.3879059,0.36384386,-0.28993538,0.8851864,-0.13741523,-0.9566312,-0.25685397,,0.07351139,-0.028171897,-0.007850945,-0.34526283,0.2811121,0.8954157,-0.03316927,-0.9571454,0.28770214,0.93791974,0.06963265,0.339791,,0.106318116,1.340439,0.4401841,0.995668,0.012149359,-0.09218276,-0.051381372,-0.7544019,-0.65439874,-0.07749338,0.65630037,-0.75050956,,-0.08286513,0.25913408,-0.08694361,-0.8932227,0.1122096,0.4353874,0.14301202,-0.8471596,0.5117305,0.42626372,0.51935494,0.7406549,,-0.035231095,0.3697736,-0.34824616,0.25540543,-0.21860257,-0.94179666,0.8158003,-0.47405645,0.33127084,-0.51888144,-0.8529264,0.05725944,,1.1506331391293323,0.36293755415705503,0.20620603546000002,3.9266538816912027,0.3191828634520689,-0.8475423646454828,0.8686637437020969,,-0.8437471801733988,-0.3230496388616855,0.23832032392000002,-2.1008835437714497,-1.3916427501110111,0.3761592107225101,0.8765042588765424,,-0.04931645967666478,-0.06459899893944013,0.08431779928,-0.06509005378220696,,-3.759563e-05,-4.4107437e-06,3.8146973e-06,1.0,4.2695552e-05,3.7331134e-05,-4.2699277e-05,1.0,4.3809414e-06,-3.7338585e-05,-4.4107437e-06,1.0,314,0.954,0,0,0.0,False,1.047435841883368,1.0507219923782136
0.9747382079949602,13:55:47.257767,13:55:37.046905,0,,0.11445986,-0.005173996,0.022466853,0.9204256,-0.06743102,-0.3850582,0.3512006,-0.28995773,0.890271,-0.17168254,-0.954661,-0.2432028,,0.07352456,-0.02819857,-0.007850021,-0.3450727,0.2813564,0.8954124,-0.03337282,-0.9570865,0.28787446,0.9379825,0.069455236,0.33965406,,0.106318116,1.340439,0.4401841,0.995668,0.012149359,-0.09218276,-0.051381372,-0.7544019,-0.65439874,-0.07749338,0.65630037,-0.75050956,,-0.08210911,0.25822046,-0.08665793,-0.8894325,0.15106842,0.4313794,0.11096434,-0.84419465,0.5244257,0.44339234,0.514309,0.7340909,,-0.035242386,0.3697589,-0.34826943,0.2552249,-0.21883231,-0.94179225,0.81572455,-0.47420445,0.33124554,-0.5190893,-0.85278517,0.057478108,,1.1507026437252004,0.35797955965180295,0.20683343982000002,3.9526554346832836,0.3415912494136011,-0.8570752756566559,0.8743807860167969,,-0.8437471801733988,-0.32311142072467924,0.23832162021000003,-2.0989963342800886,-1.3916427501110111,0.37411724221899606,0.8769942910749453,,-0.04931645967666478,-0.06459899893944013,0.08431779928,-0.06509005378220696,,-3.759563e-05,-4.4107437e-06,3.8146973e-06,1.0,4.2695552e-05,3.7331134e-05,-4.2699277e-05,1.0,4.3809414e-06,-3.7338585e-05,-4.4107437e-06,1.0,322,0.978,0,0,0.0,False,1.046244287512947,1.0503840309727575
1.0012548849917948,13:55:47.281748,13:55:37.046905,0,,0.11390856,-0.005547285,0.021820605,0.91853917,-0.09332922,-0.3841554,0.34448212,-0.2877858,0.8935946,-0.19395301,-0.95313644,-0.23219237,,0.07353153,-0.028214455,-0.007850587,-0.34499076,0.28217918,0.895185,-0.03344497,-0.95682883,0.28872132,0.93801,0.06966689,0.3395346,,0.106318116,1.340439,0.4401841,0.995668,0.012149359,-0.09218276,-0.051381372,-0.7544019,-0.65439874,-0.07749338,0.65630037,-0.75050956,,-0.08150868,0.2575378,-0.086472526,-0.8855953,0.17674933,0.42951202,0.09131859,-0.84044874,0.53414124,0.45539194,0.5122554,0.728157,,-0.03524814,0.36974928,-0.3482827,0.25514603,-0.21968763,-0.9416145,0.8157005,-0.47398853,0.3316136,-0.5191659,-0.85268533,0.058263008,,1.1510038303072951,0.3541336386804391,0.20727936358000001,3.9677531106141695,0.3564846278880341,-0.8658709988138027,0.8745441300829311,,-0.8437471801733988,-0.3231577571219246,0.23832291650000004,-2.0981575745061507,-1.3916427501110111,0.37240198867604424,0.8758508826120053,,-0.04931645967666478,-0.06459899893944013,0.08431779928,-0.06509005378220696,,-3.759563e-05,-4.4107437e-06,3.8146973e-06,1.0,4.2695552e-05,3.7331134e-05,-4.2699277e-05,1.0,4.3809414e-06,-3.7338585e-05,-4.4107437e-06,1.0,330,1.003,0,0,0.0,False,1.0467804869796362,1.0508185527797727
1.0252319650026038,13:55:47.305467,13:55:37.046905,0,,0.11304074,-0.0060707927,0.020905674,0.9141327,-0.12617217,-0.38528162,0.33648285,-0.29398292,0.8946246,-0.22614299,-0.94744647,-0.22628471,,0.0735625,-0.028246999,-0.007843494,-0.34479606,0.2823831,0.89519566,-0.0337348,-0.95678914,0.28881902,0.93807125,0.069384545,0.33942327,,0.106318116,1.340439,0.4401841,0.995668,0.012149359,-0.09218276,-0.051381372,-0.7544019,-0.65439874,-0.07749338,0.65630037,-0.75050956,,-0.08057161,0.2565788,-0.08621465,-0.87832993,0.20870498,0.4300916,0.06427924,-0.8399408,0.53885776,0.47371376,0.50094086,0.7243297,,-0.035277285,0.36973462,-0.34831437,0.25496718,-0.21986592,-0.9416213,0.81557786,-0.47423047,0.33156928,-0.5194463,-0.8525048,0.05840458,,1.1517992717933403,0.34854238007950056,0.20792621229000002,3.9876736552452,0.37889301384956636,-0.8678077869919034,0.8745441300829311,,-0.8438166847692669,-0.32323498445066684,0.23832680537000003,-2.095641295184336,-1.3916427501110111,0.3697882689915463,0.8765042588765424,,-0.04931645967666478,-0.06459899893944013,0.08431779928,-0.06509005378220696,,-3.759563e-05,-4.4107437e-06,3.8146973e-06,1.0,4.2695552e-05,3.7331134e-05,-4.2699277e-05,1.0,4.3809414e-06,-3.7338585e-05,-4.4107437e-06,1.0,338,1.028,0,0,0.0,False,1.0463038652314682,1.0510116735828905
1.0489199830335565,13:55:47.328916,13:55:37.046905,0,,0.112422645,-0.0064177215,0.020318508,0.90980136,-0.14520948,-0.3888132,0.33420917,-0.29916352,0.8937591,-0.24610107,-0.94308823,-0.22364911,,0.0735769,-0.028255135,-0.007841289,-0.3448248,0.28334102,0.8948819,-0.0337362,-0.956479,0.28984457,0.93806064,0.06975582,0.33937648,,0.106318116,1.340439,0.4401841,0.995668,0.012149359,-0.09218276,-0.051381372,-0.7544019,-0.65439874,-0.07749338,0.65630037,-0.75050956,,-0.07990968,0.25595775,-0.086061925,-0.8721592,0.22708148,0.43332705,0.04959937,-0.8401398,0.54009724,0.48670137,0.49254352,0.72147256,,-0.035291217,0.36973053,-0.3483226,0.2549968,-0.22087432,-0.9413773,0.8155716,-0.47386825,0.3321022,-0.51944166,-0.85244554,0.05930393,,1.1525715450807628,0.3448200228341244,0.20834491396000002,3.9971097027020033,0.3939230288237648,-0.8680569815978472,0.8740540978845283,,-0.8438707438993864,-0.323273598115038,0.23833069424000003,-2.095431605240852,-1.3916427501110111,0.36848140914929717,0.8765042588765424,,-0.04931645967666478,-0.06459899893944013,0.08431779928,-0.06509005378220696,,-3.759563e-05,-4.4107437e-06,3.8146973e-06,1.0,4.2695552e-05,3.7331134e-05,-4.2699277e-05,1.0,4.3809414e-06,-3.7338585e-05,-4.4107437e-06,1.0,346,1.052,0,0,0.0,False,1.0471379532907625,1.0509151131813312
1.0724093040334992,13:55:47.345894,13:55:37.046905,0,,0.11180754,-0.006672412,0.019758135,0.90763324,-0.16588843,-0.38559422,0.32586023,-0.30060744,0.89635384,-0.26460725,-0.9392104,-0.21878499,,0.0735757,-0.028241456,-0.00783667,-0.34567717,0.28573522,0.89379114,-0.033528835,-0.955663,0.29254758,0.9377543,0.07115933,0.33993125,,0.106318116,1.340439,0.4401841,0.995668,0.012149359,-0.09218276,-0.051381372,-0.7544019,-0.65439874,-0.07749338,0.65630037,-0.75050956,,-0.07925075,0.2554235,-0.08586807,-0.86845016,0.2472418,0.4297276,0.031223685,-0.8377803,0.545114,0.49479228,0.48682198,0.71985066,,-0.035291433,0.36974174,-0.3483134,0.25585794,-0.22344318,-0.940537,0.8155219,-0.47253996,0.33411083,-0.5190961,-0.85251343,0.061319698,,1.1536372822174057,0.34132162484210066,0.20877139337000003,4.01220737863289,0.4047173123052346,-0.8697529455976354,0.8742174419506625,,-0.8439556939610029,-0.32333537997803175,0.23833328682000002,-2.0989963342800886,-1.3921892961100728,0.3690904382443639,0.8765042588765424,,-0.04931645967666478,-0.06459899893944013,0.08431779928,-0.06509005378220696,,-3.759563e-05,-4.4107437e-06,3.8146973e-06,1.0,4.2695552e-05,3.7331134e-05,-4.2699277e-05,1.0,4.3809414e-06,-3.7338585e-05,-4.4107437e-06,1.0,354,1.077,0,0,0.0,False,1.0464825983870312,1.0504805913743163
1.0894024380249903,13:55:47.374749,13:55:37.046905,0,,0.11121988,-0.0068674833,0.019218788,0.9054456,-0.18219826,-0.3833695,0.3202454,-0.29955906,0.8987253,-0.27858806,-0.9365192,-0.21288633,,0.07354298,-0.028196692,-0.007827163,-0.3483003,0.28853977,0.8918698,-0.0335657,-0.9546754,0.29575044,0.9367818,0.073073834,0.34219873,,0.106318116,1.340439,0.4401841,0.995668,0.012149359,-0.09218276,-0.051381372,-0.7544019,-0.65439874,-0.07749338,0.65630037,-0.75050956,,-0.07861949,0.25494665,-0.08564801,-0.8650818,0.26323894,0.4270114,0.01788488,-0.8345197,0.5506878,0.5013119,0.48402706,0.71721977,,-0.035262994,0.36977696,-0.34828004,0.25855815,-0.22648042,-0.939071,0.81499153,-0.47073904,0.33792534,-0.5185908,-0.8527083,0.062866226,,1.1548806422101558,0.3381475816307944,0.20919916907000002,4.022691875807116,0.41264222929163014,-0.8736014643275298,0.8747074741490654,,-0.8440483667554936,-0.32342805277252246,0.23833587940000003,-2.1080130018499235,-1.3943754801063197,0.37446698926969124,0.8763409148104082,,-0.04931645967666478,-0.06459899893944013,0.08431779928,-0.06509005378220696,,-3.759563e-05,-4.4107437e-06,3.8146973e-06,1.0,4.2695552e-05,3.7331134e-05,-4.2699277e-05,1.0,4.3809414e-06,-3.7338585e-05,-4.4107437e-06,1.0,362,1.102,0,0,0.0,False,1.0469592201351996,1.0506737121774343
1.1182483910233714,13:55:47.396002,13:55:37.046905,0,,0.110265434,-0.007071331,0.018433124,0.9022453,-0.20616552,-0.3787469,0.31121033,-0.2966694,0.9028485,-0.29849887,-0.9324608,-0.20350772,,0.07351686,-0.028135493,-0.007831037,-0.3506995,0.28951555,0.89061236,-0.03207472,-0.95416856,0.29754594,0.9359386,0.07578322,0.3439126,,0.106318116,1.340439,0.4401841,0.995668,0.012149359,-0.09218276,-0.051381372,-0.7544019,-0.65439874,-0.07749338,0.65630037,-0.75050956,,-0.07759978,0.25431654,-0.08528338,-0.8602295,0.28677434,0.42162266,-0.0018876703,-0.82864714,0.55976814,0.50990355,0.48073316,0.71336806,,-0.035240985,0.36980876,-0.34822574,0.26091647,-0.22774415,-0.93811256,0.81534135,-0.4683013,0.34045902,-0.5168569,-0.85371333,0.06350171,,1.1573364712641592,0.33356027830350504,0.20986027697,4.038628311511939,0.4230266032738036,-0.879618862804241,0.8745441300829311,,-0.844272326008846,-0.3236288438272523,0.23834495343000003,-2.122271918006871,-1.3953319356046778,0.3864369019948234,0.8766676029426769,,-0.04931645967666478,-0.06459899893944013,0.08431779928,-0.06509005378220696,,-3.759563e-05,-4.4107437e-06,3.8146973e-06,1.0,4.2695552e-05,3.7331134e-05,-4.2699277e-05,1.0,4.3809414e-06,-3.7338585e-05,-4.4107437e-06,1.0,370,1.127,0,0,0.0,False,1.04642302066851,1.0510116735828905
1.1395124880364165,13:55:47.429399,13:55:37.046905,0,,0.10930662,-0.007144764,0.01771459,0.8973652,-0.22638808,-0.3787929,0.30738622,-0.29520896,0.9046354,-0.31662184,-0.9282242,-0.19532177,,0.07358188,-0.028175741,-0.007843941,-0.34988642,0.288242,0.89134496,-0.030456722,-0.9544836,0.29670432,0.93629694,0.07666555,0.34273973,,0.106318116,1.340439,0.4401841,0.995668,0.012149359,-0.09218276,-0.051381372,-0.7544019,-0.65439874,-0.07749338,0.65630037,-0.75050956,,-0.07657856,0.25382876,-0.08488311,-0.85373306,0.30652693,0.42092887,-0.016497875,-0.82389057,0.5665087,0.5204495,0.4767028,0.70843965,,-0.03530149,0.36976916,-0.34825376,0.25996125,-0.22654192,-0.93866867,0.8163924,-0.4675698,0.33894232,-0.5156778,-0.8544339,0.06339707,,1.1601938824276223,0.3297143573321412,0.21052916261000001,4.048693428799196,0.4345040692541006,-0.8844039572668688,0.8742174419506624,,-0.8445348989265697,-0.3239145849435986,0.23836569407000002,-2.1241591274982317,-1.393555661107727,0.389072406253798,0.8766676029426768,,-0.04931645967666478,-0.06459899893944013,0.08431779928,-0.06509005378220696,,-3.759563e-05,-4.4107437e-06,3.8146973e-06,1.0,4.2695552e-05,3.7331134e-05,-4.2699277e-05,1.0,4.3809414e-06,-3.7338585e-05,-4.4107437e-06,1.0,378,1.152,0,0,0.0,False,1.0475549973204097,1.051108233984449
1.1728488290100358,13:55:47.454322,13:55:37.046905,0,,0.108702876,-0.0071493387,0.017301619,0.89455724,-0.23756737,-0.3785882,0.30468452,-0.29559773,0.9054221,-0.3270086,-0.925302,-0.19204605,,0.073658384,-0.028245047,-0.007835597,-0.34941113,0.2859273,0.89227647,-0.03071326,-0.9552839,0.29409072,0.936466,0.07535398,0.34256858,,0.106318116,1.340439,0.4401841,0.995668,0.012149359,-0.09218276,-0.051381372,-0.7544019,-0.65439874,-0.07749338,0.65630037,-0.75050956,,-0.07593817,0.25357896,-0.084633,-0.85001296,0.31735712,0.4204312,-0.02525376,-0.8217764,0.5692502,0.52615607,0.47325262,0.70653504,,-0.035373386,0.36973098,-0.3483178,0.25949115,-0.22406189,-0.93939376,0.8163451,-0.4688216,0.33732328,-0.51598936,-0.8544019,0.06125677,,1.1621554565776753,0.32750565573011303,0.21093230880000002,4.054984127103732,0.4406527117435454,-0.8853338259261799,0.8745441300829311,,-0.8447279672484254,-0.32412309873120265,0.23838254584000002,-2.119755638685057,-1.3932823881081962,0.38737935312387495,0.8766676029426768,,-0.04931645967666478,-0.06459899893944013,0.08431779928,-0.06509005378220696,,-3.759563e-05,-4.4107437e-06,3.8146973e-06,1.0,4.2695552e-05,3.7331134e-05,-4.2699277e-05,1.0,4.3809414e-06,-3.7338585e-05,-4.4107437e-06,1.0,411,1.253,0,0,0.0,False,1.0471379532907625,1.0508185527797727
1.1978125190362334,13:55:47.549531,13:55:37.285915,0,,0.10588374,-0.0072236955,0.0151297,0.87699544,-0.30338907,-0.37260443,0.28638157,-0.29263857,0.9123312,-0.3858298,-0.9068173,-0.16975781,,0.073792316,-0.028325438,-0.007821381,-0.35412356,0.2882465,0.8896687,-0.027156144,-0.9540835,0.29830727,0.93480426,0.08147779,0.3456911,,0.106318116,1.340439,0.4401841,0.995668,0.012149359,-0.09218276,-0.051381372,-0.7544019,-0.65439874,-0.07749338,0.65630037,-0.75050956,,-0.0729259,0.252212,-0.083318464,-0.82737774,0.38114634,0.41252095,-0.07702202,-0.80454564,0.5888751,0.55633956,0.45544896,0.69501984,,-0.035502084,0.3696852,-0.34839487,0.2640796,-0.22703491,-0.93739915,0.8173557,-0.4632965,0.3424704,-0.51204646,-0.856628,0.06322113,,1.1703492761572276,0.3166243251103307,0.21307507617000002,4.094825216365792,0.4780911126792762,-0.8942991441418909,0.8745441300829311,,-0.8458014271179425,-0.32541279512119814,0.23843569373000004,-2.144708741959715,-1.3946487531058507,0.4067895699523253,0.8769942910749453,,-0.04931645967666478,-0.06459899893944013,0.08431779928,-0.06509005378220696,,-3.759563e-05,-4.4107437e-06,3.8146973e-06,1.0,4.2695552e-05,3.7331134e-05,-4.2699277e-05,1.0,4.3809414e-06,-3.7338585e-05,-4.4107437e-06,1.0,419,1.278,0,0,0.0,False,1.047316686446326,1.0513496349883464
1.2930395220173523,13:55:47.575970,13:55:37.285915,0,,0.105426535,-0.00735119,0.014694095,0.872799,-0.31488338,-0.37292138,0.2839237,-0.29392415,0.912686,-0.3970003,-0.9024728,-0.16713396,,0.07385274,-0.028406546,-0.0078065097,-0.3541476,0.28656158,0.89020324,-0.027080148,-0.9546393,0.29653072,0.9347974,0.080908954,0.34584337,,0.106318116,1.340439,0.4401841,0.995668,0.012149359,-0.09218276,-0.051381372,-0.7544019,-0.65439874,-0.07749338,0.65630037,-0.75050956,,-0.07243256,0.2518487,-0.0831193,-0.8221938,0.39212778,0.4125932,-0.08605207,-0.80215335,0.590885,0.5626654,0.4503175,0.6932689,,-0.035557818,0.36964828,-0.3484722,0.26409882,-0.22526847,-0.9378198,0.8173924,-0.4638678,0.34160843,-0.51197803,-0.8567851,0.061625786,,1.1712296677048892,0.3143229507138118,0.21346137059000003,4.1013256046138125,0.48628930266520254,-0.8947766341129934,0.8745441300829311,,-0.8459944954397981,-0.32575259536766404,0.23843958260000003,-2.143031222411839,-1.3946487531058507,0.4068712486924658,0.8771576351410795,,-0.04931645967666478,-0.06459899893944013,0.08431779928,-0.06509005378220696,,-3.759563e-05,-4.4107437e-06,3.8146973e-06,1.0,4.2695552e-05,3.7331134e-05,-4.2699277e-05,1.0,4.3809414e-06,-3.7338585e-05,-4.4107437e-06,1.0,427,1.302,0,0,0.0,False,1.0468400646981575,1.0511565141852286
1.3194700290332548,13:55:47.605538,13:55:37.285915,0,,0.10491852,-0.0075830817,0.014089584,0.86862165,-0.3267558,-0.3724609,0.28092155,-0.29443854,0.9134489,-0.40814164,-0.89807385,-0.16396305,,0.07391524,-0.028530747,-0.0077955723,-0.35399738,0.28561106,0.8905683,-0.026826352,-0.95493776,0.2955914,0.93486154,0.08074805,0.34570733,,0.106318116,1.340439,0.4401841,0.995668,0.012149359,-0.09218276,-0.051381372,-0.7544019,-0.65439874,-0.07749338,0.65630037,-0.75050956,,-0.071875274,0.25129783,-0.08286775,-0.8170468,0.40350172,0.4118505,-0.095472254,-0.7991301,0.59352857,0.5686119,0.44562036,0.6914499,,-0.035612207,0.36958528,-0.34858412,0.26392564,-0.22428831,-0.9381034,0.8175613,-0.46404707,0.34096003,-0.5117975,-0.8569452,0.06089553,,1.171916990930695,0.3111875211668766,0.21395655337000002,4.108035682805316,0.4939409466520672,-0.8966870634925433,0.8743807860167968,,-0.8461489500972826,-0.32627001847023707,0.23843958260000003,-2.1407246330335092,-1.3945121166060852,0.40545297094652033,0.8768309470088111,,-0.04931645967666478,-0.06459899893944013,0.08431779928,-0.06509005378220696,,-3.759563e-05,-4.4107437e-06,3.8146973e-06,1.0,4.2695552e-05,3.7331134e-05,-4.2699277e-05,1.0,4.3809414e-06,-3.7338585e-05,-4.4107437e-06,1.0,435,1.327,0,0,0.0,False,1.0471379532907625,1.0512047943860081
1.3490472169942223,13:55:47.626150,13:55:37.285915,0,,0.104659446,-0.007724747,0.013728201,0.86637694,-0.33323383,-0.37194917,0.27972806,-0.29317078,0.91422266,-0.4136946,-0.8961061,-0.16078165,,0.07393664,-0.028600618,-0.0077981353,-0.35401762,0.28590804,0.890465,-0.026584923,-0.95481765,0.296001,0.9348608,0.081116766,0.34562305,,0.106318116,1.340439,0.4401841,0.995668,0.012149359,-0.09218276,-0.051381372,-0.7544019,-0.65439874,-0.07749338,0.65630037,-0.75050956,,-0.07158661,0.25096434,-0.082715325,-0.81431127,0.40979263,0.41105613,-0.09993311,-0.7966033,0.596185,0.5717609,0.44440207,0.6896349,,-0.0356283,0.3695441,-0.34864235,0.26392886,-0.2246269,-0.9380215,0.8176891,-0.463708,0.34111485,-0.5115917,-0.85704005,0.061289042,,1.172156395649796,0.3094190153386792,0.21424821862,4.110971342014101,0.49790340514526504,-0.8996731464793177,0.8745441300829311,,-0.8461798410287795,-0.32657120505233184,0.23844087889,-2.14030525314654,-1.3945121166060852,0.4045545048049741,0.8766676029426766,,-0.04931645967666478,-0.06459899893944013,0.08431779928,-0.06509005378220696,,-3.759563e-05,-4.4107437e-06,3.8146973e-06,1.0,4.2695552e-05,3.7331134e-05,-4.2699277e-05,1.0,4.3809414e-06,-3.7338585e-05,-4.4107437e-06,1.0,443,1.352,0,0,0.0,False,1.047435841883368,1.0513496349883464
1.369651060027536,13:55:47.655840,13:55:37.439012,0,,0.104439035,-0.007824585,0.013347864,0.863732,-0.3409449,-0.3711113,0.2782333,-0.2913721,0.91525316,-0.42018247,-0.89378905,-0.15680534,,0.07395947,-0.028710127,-0.007804334,-0.35386106,0.28643858,0.89035684,-0.026180834,-0.95461035,0.29670456,0.9349315,0.081682086,0.34529862,,0.106318116,1.340439,0.4401841,0.995668,0.012149359,-0.09218276,-0.051381372,-0.7544019,-0.65439874,-0.07749338,0.65630037,-0.75050956,,-0.07133342,0.25064808,-0.08251763,-0.8110957,0.41729143,0.4098678,-0.10521936,-0.79339486,0.59954435,0.57537174,0.44316185,0.6874263,,-0.035642684,0.36947897,-0.34873238,0.2637383,-0.22522235,-0.9379323,0.81794125,-0.4631851,0.34122086,-0.51128685,-0.8571665,0.062059008,,1.1722490684442868,0.30788219149670853,0.21457877257000002,4.114745760996821,0.5029589556365863,-0.9030605002548203,0.8740540978845283,,-0.8461721182959053,-0.32703456902478534,0.23843828631000002,-2.1392568034291175,-1.3943754801063197,0.40272783335832585,0.8771576351410795,,-0.04931645967666478,-0.06459899893944013,0.08431779928,-0.06509005378220696,,-3.759563e-05,-4.4107437e-06,3.8146973e-06,1.0,4.2695552e-05,3.7331134e-05,-4.2699277e-05,1.0,4.3809414e-06,-3.7338585e-05,-4.4107437e-06,1.0,451,1.377,0,0,0.0,False,1.0463634429499895,1.0511565141852286
1.3993297970155254,13:55:47.678203,13:55:37.439012,0,,0.104408205,-0.007716015,0.01319766,0.8616792,-0.35030192,-0.36714795,0.27483022,-0.28606382,0.91795194,-0.42658815,-0.8918835,-0.1502218,,0.07397888,-0.028794855,-0.007804811,-0.35363346,0.28586495,0.8906315,-0.026182592,-0.95480806,0.2960676,0.9350175,0.081380546,0.3451367,,0.106318116,1.340439,0.4401841,0.995668,0.012149359,-0.09218276,-0.051381372,-0.7544019,-0.65439874,-0.07749338,0.65630037,-0.75050956,,-0.07128523,0.25063187,-0.08233676,-0.8085304,0.4265654,0.4053648,-0.11190922,-0.7877527,0.6057409,0.57771534,0.44439584,0.6846586,,-0.035655968,0.36943206,-0.34880438,0.2635042,-0.22461002,-0.9381449,0.8179861,-0.46347514,0.34071913,-0.5113358,-0.8571704,0.061600223,,1.1722027320470414,0.30795169609257655,0.21478358639000003,4.121246149244842,0.5080145061279076,-0.907918071352853,0.8745441300829311,,-0.8461489500972826,-0.3273434783397543,0.23843439744000003,-2.136950214050788,-1.3943754801063197,0.40109425855551456,0.877484323273348,,-0.04931645967666478,-0.06459899893944013,0.08431779928,-0.06509005378220696,,-3.759563e-05,-4.4107437e-06,3.8146973e-06,1.0,4.2695552e-05,3.7331134e-05,-4.2699277e-05,1.0,4.3809414e-06,-3.7338585e-05,-4.4107437e-06,1.0,492,1.503,0,0,0.0,False,1.0468996424166788,1.0507702725789931
1.4217032450251281,13:55:47.796597,13:55:37.542207,0,,0.106033996,-0.0054418147,0.014148027,0.86418146,-0.37077725,-0.34016845,0.25729445,-0.2553603,0.93198204,-0.43242335,-0.8929252,-0.12527883,,0.07400243,-0.028914005,-0.0077835917,-0.35649714,0.29010057,0.8881167,-0.025591224,-0.9532482,0.3011031,0.9339459,0.084614545,0.34725422,,0.106318116,1.340439,0.4401841,0.995668,0.012149359,-0.09218276,-0.051381372,-0.7544019,-0.65439874,-0.07749338,0.65630037,-0.75050956,,-0.07293108,0.25289586,-0.081396565,-0.8109461,0.44789353,0.3765073,-0.12902674,-0.7645146,0.63156116,0.5707175,0.46358258,0.6777704,,-0.035673022,0.36938503,-0.34891704,0.26640865,-0.2292347,-0.93620396,0.8177283,-0.4604302,0.34543377,-0.510242,-0.85758704,0.06478912,,1.1706581854721965,0.3217985561360611,0.21488080814000002,4.148925221784799,0.514026512117587,-0.9209883331295516,0.8732373775538569,,-0.8464192457478805,-0.328192978955919,0.23842791599000002,-2.146176571564107,-1.3965616641025669,0.4045921985576094,0.8773209792072136,,-0.04931645967666478,-0.06459899893944013,0.08431779928,-0.06509005378220696,,-3.759563e-05,-4.4107437e-06,3.8146973e-06,1.0,4.2695552e-05,3.7331134e-05,-4.2699277e-05,1.0,4.3809414e-06,-3.7338585e-05,-4.4107437e-06,1.0,500,1.527,0,0,0.0,False,1.0464825983870312,1.0506254319766548
1.5401006520260125,13:55:47.827973,13:55:37.542207,0,,0.10642891,-0.0050997436,0.01431331,0.8637942,-0.37282965,-0.3389065,0.25630778,-0.2539503,0.93263894,-0.4337809,-0.89247257,-0.12380177,,0.07395616,-0.028873116,-0.0077955127,-0.3583631,0.29038167,0.8872735,-0.024086982,-0.95295626,0.30214936,0.93327147,0.086907536,0.34849876,,0.106318116,1.340439,0.4401841,0.995668,0.012149359,-0.09218276,-0.051381372,-0.7544019,-0.65439874,-0.07749338,0.65630037,-0.75050956,,-0.07333039,0.25324467,-0.08125816,-0.8104574,0.44993123,0.37512758,-0.13064587,-0.7630698,0.632974,0.5710433,0.46398962,0.6772172,,-0.035628803,0.36940175,-0.34887558,0.2682204,-0.22975367,-0.9355592,0.8181646,-0.45837414,0.34713095,-0.50859076,-0.858549,0.065031014,,1.1697314575272897,0.3243470579845552,0.21488340072000003,4.151860880993582,0.5170325151124266,-0.9201723774052505,0.8730740334877226,,-0.8465196412752454,-0.3284092154763973,0.23842661970000004,-2.158967658116663,-1.3971082101016286,0.4159828213512303,0.8769942910749453,,-0.04931645967666478,-0.06459899893944013,0.08431779928,-0.06509005378220696,,-3.759563e-05,-4.4107437e-06,3.8146973e-06,1.0,4.2695552e-05,3.7331134e-05,-4.2699277e-05,1.0,4.3809414e-06,-3.7338585e-05,-4.4107437e-06,1.0,508,1.552,0,0,0.0,False,1.045946398920342,1.0506737121774343
1.5714817290427163,13:55:47.854414,13:55:37.542207,0,,0.10713592,-0.0046797693,0.014484644,0.8639054,-0.37914988,-0.331531,0.25030208,-0.2480044,0.9358646,-0.4370542,-0.89148146,-0.11935049,,0.07399994,-0.028938249,-0.0078080297,-0.3570393,0.28562623,0.88934827,-0.021685451,-0.95438004,0.29780617,0.93383765,0.08704272,0.34694508,,0.106318116,1.340439,0.4401841,0.995668,0.012149359,-0.09218276,-0.051381372,-0.7544019,-0.65439874,-0.07749338,0.65630037,-0.75050956,,-0.07403866,0.25364256,-0.08104451,-0.8104198,0.45628968,0.36745003,-0.13731687,-0.75768214,0.63801396,0.56952953,0.46660203,0.6766969,,-0.035666507,0.369352,-0.34892476,0.2666832,-0.22494484,-0.93716586,0.81973976,-0.45844057,0.34330598,-0.5068598,-0.85978603,0.06213784,,1.1674918649937644,0.3278454559765789,0.21491191910000002,4.16150661839387,0.5209949736056244,-0.9216882430694948,0.8737274097522596,,-0.8467049868642268,-0.3288030748529827,0.23842532341000003,-2.1614839374384767,-1.3945121166060852,0.4229322213366007,0.8771576351410795,,-0.04931645967666478,-0.06459899893944013,0.08431779928,-0.06509005378220696,,-3.759563e-05,-4.4107437e-06,3.8146973e-06,1.0,4.2695552e-05,3.7331134e-05,-4.2699277e-05,1.0,4.3809414e-06,-3.7338585e-05,-4.4107437e-06,1.0,516,1.577,0,0,0.0,False,1.0460059766388632,1.0507702725789931
1.5979071960318834,13:55:47.878266,13:55:37.679814,0,,0.10761665,-0.0045295507,0.014487445,0.8641312,-0.3819148,-0.3277475,0.24733278,-0.24488854,0.93747324,-0.43829656,-0.8911626,-0.11715582,,0.07404602,-0.02899696,-0.0077923536,-0.35726005,0.28565308,0.88925105,-0.021403909,-0.95433784,0.2979617,0.9337597,0.0874165,0.34706083,,0.106318116,1.340439,0.4401841,0.995668,0.012149359,-0.09218276,-0.051381372,-0.7544019,-0.65439874,-0.07749338,0.65630037,-0.75050956,,-0.07451303,0.25373656,-0.0809038,-0.8106073,0.45909673,0.36351883,-0.1403745,-0.7550145,0.6405062,0.56851625,0.46817023,0.67646575,,-0.035709646,0.36932915,-0.34898335,0.26689008,-0.2250102,-0.9370913,0.819847,-0.45810598,0.34349647,-0.5065774,-0.85994726,0.06220999,,1.165576627240957,0.32952901174315985,0.21497284473000003,4.16611979715053,0.5231811576018714,-0.9230625358279348,0.8740540978845283,,-0.8468980551860824,-0.32909653870220323,0.23842532341000003,-2.1616936273819616,-1.3945121166060852,0.42285054259646004,0.8766676029426768,,-0.04931645967666478,-0.06459899893944013,0.08431779928,-0.06509005378220696,,-3.759563e-05,-4.4107437e-06,3.8146973e-06,1.0,4.2695552e-05,3.7331134e-05,-4.2699277e-05,1.0,4.3809414e-06,-3.7338585e-05,-4.4107437e-06,1.0,524,1.602,0,0,0.0,False,1.0457080880462577,1.050963393382111
1.6217688890174031,13:55:47.907499,13:55:37.679814,0,,0.10829793,-0.004476309,0.014363229,0.8637124,-0.38783562,-0.32184565,0.2422869,-0.24043566,0.93994033,-0.44192553,-0.889817,-0.11369982,,0.07411637,-0.029081434,-0.0077811778,-0.35730296,0.2853762,0.8893228,-0.021211147,-0.9544112,0.29774055,0.93374765,0.08752009,0.34706706,,0.10631196,1.3404402,0.44019073,0.995668,0.012149705,-0.092182465,-0.051380914,-0.7544019,-0.6543988,-0.07749338,0.65630037,-0.75050956,,-0.07517077,0.253662,-0.080709085,-0.8099814,0.4649821,0.35738185,-0.14653713,-0.75053084,0.6443837,0.567853,0.46956912,0.67605317,,-0.03576795,0.3692828,-0.34905657,0.26692018,-0.22473964,-0.9371477,0.81994265,-0.458024,0.34337747,-0.5064066,-0.8600617,0.06201778,,1.1624103067625247,0.3310581128522563,0.21512580695000003,4.174088015002941,0.527690162094131,-0.92575918176823,0.8732373775538569,,-0.8472687463640451,-0.32944406168154333,0.23842791599000002,-2.1604354877210548,-1.3943754801063197,0.42167730107093626,0.8768309470088111,,-0.04931645967666478,-0.06459899893944013,0.08431779928,-0.06509005378220696,,-4.4301152e-05,-1.013279e-06,-1.3113022e-06,1.0,4.303828e-05,3.7632883e-05,-4.3042004e-05,1.0,4.440546e-06,-3.7640333e-05,-4.440546e-06,1.0,532,1.627,0,0,0.0,False,1.0455293548906948,1.0507219923782136
1.6509611640358344,13:55:47.927939,13:55:37.679814,0,,0.10875367,-0.004495099,0.014186457,0.86315507,-0.3936476,-0.31623542,0.23712204,-0.23692921,0.9421452,-0.4457987,-0.8882039,-0.11116418,,0.074174024,-0.029110476,-0.007751614,-0.35762605,0.28530347,0.88921624,-0.021226406,-0.9544268,0.29768932,0.93362355,0.0875867,0.34738386,,0.10631196,1.3404402,0.44019073,0.995668,0.012149705,-0.092182465,-0.051380914,-0.7544019,-0.6543988,-0.07749338,0.65630037,-0.75050956,,-0.07560768,0.2535118,-0.08054831,-0.8091974,0.47070694,0.35161692,-0.15294383,-0.746586,0.6474701,0.56728095,0.4701535,0.6761272,,-0.03582599,0.36928582,-0.34909737,0.26725394,-0.2246727,-0.9370686,0.81986815,-0.45796728,0.3436309,-0.50635123,-0.8601094,0.061808422,,1.159939032242773,0.33167593148219426,0.21528265804000002,4.1818465429118685,0.5313793475877979,-0.9277873202863467,0.8732373775538569,,-0.8475467647475172,-0.32959851633902787,0.23842791599000002,-2.16022579777757,-1.3945121166060852,0.4213803252739299,0.8763409148104082,,-0.04931645967666478,-0.06459899893944013,0.08431779928,-0.06509005378220696,,-4.4301152e-05,-1.013279e-06,-1.3113022e-06,1.0,4.303828e-05,3.7632883e-05,-4.3042004e-05,1.0,4.440546e-06,-3.7640333e-05,-4.440546e-06,1.0,565,1.728,0,0,0.0,False,1.045946398920342,1.0510116735828905
1.671427579014562,13:55:48.027355,13:55:37.810145,0,,0.11069612,-0.004711345,0.013130426,0.85363024,-0.42860737,-0.29599154,0.2159852,-0.22583982,0.94991934,-0.47398913,-0.87480974,-0.100210965,,0.074298404,-0.029110119,-0.007684827,-0.35802472,0.28473955,0.8892365,-0.021664172,-0.95464385,0.29696098,0.9334607,0.08705488,0.34795472,,0.10631196,1.3404402,0.44019073,0.995668,0.012149705,-0.092182465,-0.051380914,-0.7544019,-0.6543988,-0.07749338,0.65630037,-0.75050956,,-0.077444516,0.2525699,-0.07972733,-0.79759145,0.50450754,0.33063573,-0.1869882,-0.7279319,0.6596594,0.57348347,0.46431372,0.67492926,,-0.0359559,0.36932766,-0.34913337,0.26769608,-0.22404662,-0.93709224,0.8195492,-0.45846307,0.34373054,-0.5066339,-0.86000854,0.060888458,,1.1483008738013165,0.33331315085152985,0.21623672748000003,4.220010112626053,0.5603462855380713,-0.9331118780785022,0.8730740334877225,,-0.848156860644581,-0.32960623907190206,0.23843439744000003,-2.158338588286209,-1.3946487531058507,0.42002152585509633,0.8766676029426769,,-0.04931645967666478,-0.06459899893944013,0.08431779928,-0.06509005378220696,,-4.4301152e-05,-1.013279e-06,-1.3113022e-06,1.0,4.303828e-05,3.7632883e-05,-4.3042004e-05,1.0,4.440546e-06,-3.7640333e-05,-4.440546e-06,1.0,573,1.753,0,0,0.0,False,1.0449931554240055,1.0507702725789931
1.7708651220309548,13:55:48.058391,13:55:37.810145,0,,0.11132344,-0.004634917,0.012881145,0.8518588,-0.43653682,-0.28943402,0.2099952,-0.22158623,0.9522612,-0.4798318,-0.87197196,-0.09708965,,0.07428533,-0.029108271,-0.007693678,-0.3582411,0.28687334,0.88846326,-0.021331519,-0.95388997,0.29939768,0.9333854,0.0883044,0.347842,,0.10631196,1.3404402,0.44019073,0.995668,0.012149705,-0.092182465,-0.051380914,-0.7544019,-0.6543988,-0.07749338,0.65630037,-0.75050956,,-0.0780425,0.25243604,-0.079434074,-0.79543245,0.5122419,0.3238756,-0.19526075,-0.72252804,0.6631941,0.57372504,0.46428594,0.674743,,-0.0359422,0.36932272,-0.34912702,0.26789483,-0.22633785,-0.9364847,0.8196848,-0.45726654,0.34499875,-0.5063094,-0.8600456,0.06302636,,1.1451113851242618,0.3345178971799089,0.21651802241,4.2302849198567944,0.5666315645272816,-0.9345615583422121,0.8724206572231854,,-0.8481336924459584,-0.32966029820202164,0.23843569373000004,-2.1604354877210548,-1.3946487531058507,0.419531453414253,0.8769942910749454,,-0.04931645967666478,-0.06459899893944013,0.08431779928,-0.06509005378220696,,-4.4301152e-05,-1.013279e-06,-1.3113022e-06,1.0,4.303828e-05,3.7632883e-05,-4.3042004e-05,1.0,4.440546e-06,-3.7640333e-05,-4.440546e-06,1.0,581,1.777,0,0,0.0,False,1.040584404253449,1.0501909101696396
1.8018936809967272,13:55:48.078627,13:55:37.810145,0,,0.11179106,-0.0045615435,0.012765825,0.8525679,-0.4384747,-0.28437257,0.20595402,-0.21820983,0.95392203,-0.48032367,-0.8718512,-0.095733166,,0.07428272,-0.029119387,-0.007697314,-0.35828176,0.28770065,0.8881793,-0.021213144,-0.9535982,0.30033416,0.93337244,0.08876327,0.34775984,,0.10631196,1.3404402,0.44019073,0.995668,0.012149705,-0.092182465,-0.051380914,-0.7544019,-0.6543988,-0.07749338,0.65630037,-0.75050956,,-0.07849459,0.25239503,-0.07925722,-0.7962032,0.5142524,0.3187552,-0.19864891,-0.7198309,0.66511816,0.57148844,0.46624884,0.6752873,,-0.035938486,0.36931413,-0.34913453,0.26792812,-0.22722368,-0.9362606,0.8197405,-0.45682448,0.34545177,-0.50620157,-0.860047,0.06386834,,1.1430108017824727,0.33558363431655186,0.21665413286000001,4.235527168443907,0.5673147470261087,-0.9358537565219593,0.8712772487602455,,-0.8481182469802099,-0.32972208006501547,0.23843569373000004,-2.1608548676080233,-1.3946487531058507,0.41895970223326895,0.8761775707442738,,-0.04931645967666478,-0.06459899893944013,0.08431779928,-0.06509005378220696,,-4.4301152e-05,-1.013279e-06,-1.3113022e-06,1.0,4.303828e-05,3.7632883e-05,-4.3042004e-05,1.0,4.440546e-06,-3.7640333e-05,-4.440546e-06,1.0,589,1.802,0,0,0.0,False,1.038737494979297,1.0503840309727575
1.8221338940202259,13:55:48.100058,13:55:37.810145,0,,0.1122655,-0.0044715255,0.012703136,0.85307854,-0.4424925,-0.27650908,0.200643,-0.21099666,0.95667267,-0.48166308,-0.87159675,-0.09121376,,0.0742923,-0.029141426,-0.0076959133,-0.35815194,0.28787637,0.8881747,-0.02131772,-0.95355296,0.3004706,0.9334198,0.08868039,0.34765366,,0.10631196,1.3404402,0.44019073,0.995668,0.012149705,-0.092182465,-0.051380914,-0.7544019,-0.6543988,-0.07749338,0.65630037,-0.75050956,,-0.07895807,0.25240093,-0.07910799,-0.7967301,0.5184265,0.31057227,-0.20354053,-0.7140764,0.6698255,0.56902754,0.4704561,0.67444694,,-0.035946585,0.3693027,-0.34915408,0.267802,-0.22739343,-0.93625546,0.8197106,-0.45689166,0.34543383,-0.50631666,-0.85996646,0.0640403,,1.1400684405573933,0.33734441741187504,0.21678635444000002,4.245592285731165,0.5684078390242323,-0.9422992540810888,0.86801036743756,,-0.8481182469802099,-0.32978386192800924,0.23843569373000004,-2.1595967279471164,-1.3946487531058507,0.4175711636508795,0.8769942910749453,,-0.04931645967666478,-0.06459899893944013,0.08431779928,-0.06509005378220696,,-4.4301152e-05,-1.013279e-06,-1.3113022e-06,1.0,4.303828e-05,3.7632883e-05,-4.3042004e-05,1.0,4.440546e-06,-3.7640333e-05,-4.440546e-06,1.0,597,1.827,0,0,0.0,False,1.0374267851718342,1.05105995378367
1.8435246050357819,13:55:48.125610,13:55:37.810145,0,,0.112947896,-0.004339248,0.012672573,0.85497594,-0.44528133,-0.26597103,0.19342247,-0.20207837,0.9600792,-0.4812524,-0.87228954,-0.0866448,,0.074302554,-0.029156595,-0.0076928437,-0.35805514,0.2877205,0.88826424,-0.02142033,-0.9536184,0.30025518,0.93345463,0.0884811,0.34761107,,0.10631196,1.3404402,0.44019073,0.995668,0.012149705,-0.092182465,-0.051380914,-0.7544019,-0.6543988,-0.07749338,0.65630037,-0.75050956,,-0.0796304,0.2524508,-0.07893594,-0.79885876,0.52151656,0.2997418,-0.20877108,-0.7077192,0.6749431,0.564127,0.4766068,0.67424524,,-0.03595599,0.36929616,-0.34916872,0.2677098,-0.22721499,-0.9363252,0.81967497,-0.45707574,0.3452748,-0.5064231,-0.85991573,0.06387878,,1.1381300346059628,0.33863411380187053,0.21683302088000003,4.251253914205247,0.5673147470261087,-0.9450834541578429,0.8655602064455457,,-0.8481336924459584,-0.32982247559238037,0.23843569373000004,-2.1585482782296936,-1.3946487531058507,0.41675437624947387,0.8763409148104083,,-0.04931645967666478,-0.06459899893944013,0.08431779928,-0.06509005378220696,,-4.4301152e-05,-1.013279e-06,-1.3113022e-06,1.0,4.303828e-05,3.7632883e-05,-4.3042004e-05,1.0,4.440546e-06,-3.7640333e-05,-4.440546e-06,1.0,605,1.852,0,0,0.0,False,1.0377842514829605,1.0506737121774343
1.8691168540390208,13:55:48.149217,13:55:37.810145,0,,0.11336309,-0.0042666197,0.012695923,0.8561356,-0.44760182,-0.25823322,0.18750218,-0.19658971,0.9623904,-0.48153383,-0.87235606,-0.08438122,,0.07431504,-0.029175103,-0.0076919794,-0.35789555,0.2878736,0.888279,-0.021383971,-0.9535683,0.3004168,0.93351674,0.08852303,0.34743372,,0.10631196,1.3404402,0.44019073,0.995668,0.012149705,-0.092182465,-0.051380914,-0.7544019,-0.6543988,-0.07749338,0.65630037,-0.75050956,,-0.08004371,0.25250292,-0.07886772,-0.8001504,0.52398473,0.29188922,-0.21345031,-0.70354366,0.6778387,0.56053394,0.48006907,0.67478544,,-0.03596718,0.36928576,-0.34918502,0.2675428,-0.22737451,-0.9363342,0.8197275,-0.4570323,0.34520763,-0.5064264,-0.85989666,0.06410942,,1.1364310333736336,0.3397616328015073,0.21684079862000002,4.2583833722837205,0.5664949280275161,-0.9471920239004434,0.8655602064455458,,-0.848156860644581,-0.32988425745537414,0.23843699002000002,-2.1577095184557553,-1.3945121166060852,0.41574449220423115,0.8771576351410797,,-0.04931645967666478,-0.06459899893944013,0.08431779928,-0.06509005378220696,,-4.4301152e-05,-1.013279e-06,-1.3113022e-06,1.0,4.303828e-05,3.7632883e-05,-4.3042004e-05,1.0,4.440546e-06,-3.7640333e-05,-4.440546e-06,1.0,613,1.877,0,0,0.0,False,1.0375459406088763,1.0504805913743163
1.8927262680372223,13:55:48.178479,13:55:37.969464,0,,0.11398858,-0.0041784197,0.012749255,0.8579889,-0.4480485,-0.25121212,0.18249966,-0.19125715,0.96442443,-0.4801551,-0.87331164,-0.08232781,,0.07434052,-0.029213488,-0.0076858997,-0.35772014,0.28753728,0.88845855,-0.021554857,-0.95370376,0.29997438,0.9335801,0.08815637,0.34735683,,0.10631196,1.3404402,0.44019073,0.995668,0.012149705,-0.092182465,-0.051380914,-0.7544019,-0.6543988,-0.07749338,0.65630037,-0.75050956,,-0.08066874,0.25257745,-0.0787925,-0.8022667,0.52466995,0.28476226,-0.2163758,-0.70015174,0.6804183,0.5563718,0.4842613,0.6752343,,-0.03599037,0.36926785,-0.34922108,0.26737455,-0.22699599,-0.9364741,0.81967103,-0.4573729,0.34489048,-0.50660664,-0.8598156,0.06377216,,1.1338902542580136,0.34152241589683047,0.21682913201,4.264045000757803,0.5654018360293926,-0.9494861515363539,0.8650701742471429,,-0.8482031970418263,-0.33000009844848754,0.23843828631000002,-2.1556126190209106,-1.3945121166060852,0.4141109174014199,0.8765042588765426,,-0.04931645967666478,-0.06459899893944013,0.08431779928,-0.06509005378220696,,-4.4301152e-05,-1.013279e-06,-1.3113022e-06,1.0,4.303828e-05,3.7632883e-05,-4.3042004e-05,1.0,4.440546e-06,-3.7640333e-05,-4.440546e-06,1.0,638,1.953,0,0,0.0,False,1.0374863628903555,1.0506254319766548
1.9219903270131908,13:55:48.250135,13:55:37.969464,0,,0.11474134,-0.0040919185,0.012906924,0.85906625,-0.45306122,-0.23820294,0.17157601,-0.18356425,0.9679183,-0.4822519,-0.87237597,-0.07995948,,0.07437982,-0.029328167,-0.0076906085,-0.3573607,0.288411,0.8883199,-0.021238476,-0.95338976,0.30099326,0.9337249,0.08869669,0.3468294,,0.10631196,1.3404402,0.44019073,0.995668,0.012149705,-0.092182465,-0.051380914,-0.7544019,-0.6543988,-0.07749338,0.65630037,-0.75050956,,-0.08143048,0.25271407,-0.07878465,-0.80344087,0.5297815,0.27168778,-0.22600411,-0.69354534,0.6840446,0.550822,0.48818687,0.67695546,,-0.036020886,0.3691994,-0.34931648,0.2669816,-0.22793728,-0.9363575,0.819916,-0.45685598,0.34499323,-0.50641733,-0.8598414,0.06491729,,1.1307471019782043,0.34361527650574536,0.21673191026000002,4.278094226971266,0.5655384725291581,-0.9505777143217371,0.8644167979826058,,-0.8482340879733232,-0.3304557396880668,0.23844087889,-2.1533060296425806,-1.3942388436065543,0.4107026107285452,0.8756875385458709,,-0.04931645967666478,-0.06459899893944013,0.08431779928,-0.06509005378220696,,-4.4301152e-05,-1.013279e-06,-1.3113022e-06,1.0,4.303828e-05,3.7632883e-05,-4.3042004e-05,1.0,4.440546e-06,-3.7640333e-05,-4.440546e-06,1.0,646,1.978,0,0,0.0,False,1.0382012955126076,1.0504805913743163
1.9936392580275424,13:55:48.273229,13:55:37.969464,0,,0.11484821,-0.0041254163,0.012943476,0.8587947,-0.4535225,-0.23830447,0.17176339,-0.18334636,0.9679264,-0.4826687,-0.872182,-0.07955834,,0.07440239,-0.029380172,-0.0076887608,-0.3573351,0.2882568,0.8883804,-0.021145612,-0.953434,0.30085963,0.9337369,0.08872247,0.34679073,,0.10631196,1.3404402,0.44019073,0.995668,0.012149705,-0.092182465,-0.051380914,-0.7544019,-0.6543988,-0.07749338,0.65630037,-0.75050956,,-0.081541285,0.25270844,-0.078824304,-0.80312526,0.53022784,0.27175033,-0.22612661,-0.69323415,0.6843195,0.55123186,0.48814428,0.6766525,,-0.03603982,0.3691711,-0.34936187,0.2669485,-0.22778352,-0.9364044,0.81997156,-0.45683905,0.34488365,-0.5063449,-0.8598911,0.06482351,,1.1301910652112601,0.3438237902933494,0.21669042898000002,4.2783039169147505,0.5666315645272816,-0.9508973063703245,0.86572355051168,,-0.8482804243705686,-0.33067197620854505,0.23844217518000002,-2.1524672698686427,-1.3942388436065543,0.40996750206728005,0.8768309470088111,,-0.04931645967666478,-0.06459899893944013,0.08431779928,-0.06509005378220696,,-4.4301152e-05,-1.013279e-06,-1.3113022e-06,1.0,4.303828e-05,3.7632883e-05,-4.3042004e-05,1.0,4.440546e-06,-3.7640333e-05,-4.440546e-06,1.0,654,2.002,0,0,0.0,False,1.0380225623570447,1.0504805913743163
2.0167343840003014,13:55:48.310035,13:55:38.091340,0,,0.11488019,-0.0041536987,0.012944996,0.8584814,-0.45442396,-0.23771538,0.17117552,-0.1830416,0.96808815,-0.4834343,-0.87177676,-0.079351634,,0.0744352,-0.029417366,-0.007679522,-0.357318,0.28858843,0.88827956,-0.02096659,-0.9533051,0.3012803,0.9337474,0.089028776,0.34668377,,0.10631196,1.3404402,0.44019073,0.995668,0.012149705,-0.092182465,-0.051380914,-0.7544019,-0.6543988,-0.07749338,0.65630037,-0.75050956,,-0.08157404,0.25268686,-0.07884121,-0.80275613,0.53109413,0.2711488,-0.22705925,-0.69269955,0.684552,0.5513862,0.48796147,0.67665863,,-0.036070667,0.36915562,-0.34939864,0.26691797,-0.22815117,-0.9363236,0.8200719,-0.45655227,0.34502482,-0.50619847,-0.85994595,0.06523835,,1.1299516604921591,0.3437851766289783,0.21668005866,4.279352366632173,0.5673147470261087,-0.9509643234479633,0.8649068301810087,,-0.8484039880965561,-0.330841876331778,0.23844347147000003,-2.1520478899816733,-1.394102207106789,0.4090392967621782,0.8758508826120054,,-0.04931645967666478,-0.06459899893944013,0.08431779928,-0.06509005378220696,,-4.4301152e-05,-1.013279e-06,-1.3113022e-06,1.0,4.303828e-05,3.7632883e-05,-4.3042004e-05,1.0,4.440546e-06,-3.7640333e-05,-4.440546e-06,1.0,662,2.027,0,0,0.0,False,1.0380821400755655,1.0510116735828905
2.0535424980334938,13:55:48.329328,13:55:38.091340,0,,0.11488442,-0.0041726083,0.012938604,0.85839105,-0.4553751,-0.23621652,0.16985734,-0.18219486,0.96848,-0.4840592,-0.87145776,-0.07904571,,0.07446944,-0.029439688,-0.007668078,-0.35719833,0.28835186,0.8884045,-0.020990103,-0.95339143,0.30100548,0.9337927,0.08887103,0.34660232,,0.10631196,1.3404402,0.44019073,0.995668,0.012149705,-0.092182465,-0.051380914,-0.7544019,-0.6543988,-0.07749338,0.65630037,-0.75050956,,-0.08157816,0.25266826,-0.07884854,-0.80264276,0.5320333,0.26963893,-0.22845687,-0.6918128,0.68498355,0.5509738,0.48819622,0.6768252,,-0.0361042,0.36914957,-0.34942394,0.26679644,-0.22789514,-0.93642056,0.8200837,-0.45670256,0.34479776,-0.5062434,-0.85993403,0.06504648,,1.1298667104305427,0.34367705836873913,0.21667746608000002,4.2810298861800495,0.5673147470261087,-0.951209359668385,0.8647434861148744,,-0.8485275518225438,-0.33091910366052024,0.23844606405000002,-2.1507897503207665,-1.3939655706070233,0.4080294127169355,0.8773209792072139,,-0.04931645967666478,-0.06459899893944013,0.08431779928,-0.06509005378220696,,-4.4301152e-05,-1.013279e-06,-1.3113022e-06,1.0,4.303828e-05,3.7632883e-05,-4.3042004e-05,1.0,4.440546e-06,-3.7640333e-05,-4.440546e-06,1.0,670,2.053,0,0,0.0,False,1.0377842514829605,1.0510116735828905
2.0728305330267176,13:55:48.356727,13:55:38.091340,0,,0.11487244,-0.0041965544,0.012926683,0.8582968,-0.4562384,-0.23488937,0.16901714,-0.18085352,0.96887827,-0.48452008,-0.87128556,-0.07811397,,0.07451099,-0.029454038,-0.0076509714,-0.35720932,0.2879594,0.8885274,-0.021141768,-0.95353836,0.30052906,0.9337851,0.08856678,0.3467007,,0.10631196,1.3404402,0.44019073,0.995668,0.012149705,-0.092182465,-0.051380914,-0.7544019,-0.6543988,-0.07749338,0.65630037,-0.75050956,,-0.08156575,0.25264293,-0.07885654,-0.80252796,0.532913,0.26823974,-0.22938737,-0.69065547,0.68583995,0.55075425,0.48887494,0.67651385,,-0.03614609,0.36915162,-0.34944555,0.26681873,-0.227466,-0.93651855,0.8199994,-0.45698982,0.34461766,-0.5063682,-0.85989505,0.06458854,,1.12984354223192,0.3435148809783804,0.21667746608000002,4.282078335897472,0.5673147470261087,-0.9522711832902123,0.863926765784203,,-0.8486974519457767,-0.33096544005776557,0.23844995292,-2.149531610659859,-1.3939655706070233,0.4072126253155299,0.8760142266781397,,-0.04931645967666478,-0.06459899893944013,0.08431779928,-0.06509005378220696,,-4.4301152e-05,-1.013279e-06,-1.3113022e-06,1.0,4.303828e-05,3.7632883e-05,-4.3042004e-05,1.0,4.440546e-06,-3.7640333e-05,-4.440546e-06,1.0,678,2.077,0,0,0.0,False,1.0374267851718342,1.05105995378367
2.1002274909988046,13:55:48.380436,13:55:38.091340,0,,0.11485681,-0.004209429,0.012917995,0.8580716,-0.45763493,-0.23298767,0.16761623,-0.17926005,0.96941763,-0.48540485,-0.8708824,-0.077110976,,0.074552946,-0.02948004,-0.007632792,-0.3568394,0.28492624,0.8896531,-0.021718532,-0.95462346,0.29702276,0.9339132,0.08666757,0.34683535,,0.10631196,1.3404402,0.44019073,0.995668,0.012149705,-0.092182465,-0.051380914,-0.7544019,-0.6543988,-0.07749338,0.65630037,-0.75050956,,-0.08154972,0.2526282,-0.078859985,-0.80225766,0.5343081,0.26626593,-0.23101261,-0.68913364,0.6868246,0.55046874,0.4894995,0.6762946,,-0.036187656,0.36914843,-0.34947762,0.26647964,-0.22419637,-0.9374031,0.8197628,-0.4588017,0.34276798,-0.50692946,-0.85978895,0.061526548,,1.1298512649647943,0.34337587178664436,0.21668005866,4.283965545388832,0.5674513835258741,-0.9531993885953143,0.8652335183132772,,-0.8487978474731417,-0.33096544005776557,0.23845124921000002,-2.1453378117901685,-1.3939655706070233,0.4067225528746865,0.8766676029426768,,-0.04931645967666478,-0.06459899893944013,0.08431779928,-0.06509005378220696,,-4.4301152e-05,-1.013279e-06,-1.3113022e-06,1.0,4.303828e-05,3.7632883e-05,-4.3042004e-05,1.0,4.440546e-06,-3.7640333e-05,-4.440546e-06,1.0,711,2.179,0,0,0.0,False,1.0379034069200026,1.0513013547875674
2.123934036004357,13:55:48.477760,13:55:38.248251,0,,0.11478531,-0.0042191297,0.012788966,0.85782224,-0.46037468,-0.22846492,0.16434063,-0.17548463,0.9706685,-0.48696327,-0.8702071,-0.0748764,,0.07460368,-0.029505923,-0.007613778,-0.3567511,0.28643742,0.88920313,-0.021577418,-0.954107,0.29868788,0.9339502,0.087370664,0.34655923,,0.10631196,1.3404402,0.44019073,0.995668,0.012149705,-0.092182465,-0.051380914,-0.7544019,-0.6543988,-0.07749338,0.65630037,-0.75050956,,-0.08146642,0.25253892,-0.07877667,-0.80195045,0.537074,0.2615854,-0.23448823,-0.68573695,0.68904287,0.5494458,0.49123955,0.67586464,,-0.036238033,0.36914498,-0.34951013,0.26637855,-0.22580041,-0.93704677,0.8198573,-0.45811698,0.34345713,-0.5068298,-0.8597343,0.06309158,,1.1299979968894045,0.34283528048544865,0.21678894702,4.287949654315039,0.5670414740265779,-0.9556422120490041,0.8652335183132772,,-0.8490140839936199,-0.331081281050879,0.23845384179000004,-2.1444990520162306,-1.3936922976074926,0.4040493548630767,0.8769942910749452,,-0.04931645967666478,-0.06459899893944013,0.08431779928,-0.06509005378220696,,-4.4301152e-05,-1.013279e-06,-1.3113022e-06,1.0,4.303828e-05,3.7632883e-05,-4.3042004e-05,1.0,4.440546e-06,-3.7640333e-05,-4.440546e-06,1.0,719,2.203,0,0,0.0,False,1.0379034069200026,1.0508185527797727
2.2212659360375255,13:55:48.504961,13:55:38.248251,0,,0.11476368,-0.0041619837,0.012709275,0.8578253,-0.46064684,-0.22790411,0.1643306,-0.17432126,0.9708798,-0.4869613,-0.8702969,-0.07383892,,0.07460706,-0.029536411,-0.007616043,-0.35667825,0.28609478,0.88934267,-0.02154395,-0.9542211,0.29832536,0.9339788,0.08724633,0.3465135,,0.10631196,1.3404402,0.44019073,0.995668,0.012149705,-0.092182465,-0.051380914,-0.7544019,-0.6543988,-0.07749338,0.65630037,-0.75050956,,-0.0814356,0.25253022,-0.078681484,-0.801954,0.53738594,0.26093325,-0.23449458,-0.68491125,0.6898615,0.549438,0.49204975,0.6752814,,-0.03623903,0.36912677,-0.34953487,0.26630113,-0.22544031,-0.9371555,0.8198903,-0.45824105,0.34321275,-0.5068171,-0.85976267,0.062806234,,1.130152451546889,0.3428430032183229,0.21688487248000002,4.287949654315039,0.5669048375268124,-0.9567559752474162,0.8637634217180685,,-0.8489909157949973,-0.3311971220439923,0.23845254550000003,-2.143869982185777,-1.3936922976074926,0.403804318642655,0.8765042588765424,,-0.04931645967666478,-0.06459899893944013,0.08431779928,-0.06509005378220696,,-4.4301152e-05,-1.013279e-06,-1.3113022e-06,1.0,4.303828e-05,3.7632883e-05,-4.3042004e-05,1.0,4.440546e-06,-3.7640333e-05,-4.440546e-06,1.0,727,2.228,0,0,0.0,False,1.038260873231129,1.051108233984449
2.248451745021157,13:55:48.524928,13:55:38.248251,0,,0.11475584,-0.00413695,0.012678176,0.8578018,-0.46076244,-0.22775872,0.16435263,-0.1739681,0.9709394,-0.48699516,-0.8703064,-0.07350266,,0.074608214,-0.029557317,-0.0076162815,-0.3566833,0.2860535,0.88935393,-0.021451652,-0.9542262,0.2983158,0.93397903,0.0873262,0.34649283,,0.10631196,1.3404402,0.44019073,0.995668,0.012149705,-0.092182465,-0.051380914,-0.7544019,-0.6543988,-0.07749338,0.65630037,-0.75050956,,-0.08142411,0.25252885,-0.07864249,-0.80192673,0.5375117,0.26075786,-0.23449937,-0.68464744,0.6901217,0.54947567,0.4922795,0.6750832,,-0.036238696,0.36911553,-0.34955254,0.26629964,-0.2254066,-0.937164,0.81993926,-0.4581713,0.343189,-0.5067387,-0.8598086,0.062808864,,1.1302142334098828,0.34285844868407134,0.21692376118,4.287949654315039,0.5669048375268124,-0.9570826902079784,0.8653968623794114,,-0.848983193062123,-0.33128979483848303,0.23844995292,-2.143869982185777,-1.3936922976074926,0.403804318642655,0.8765042588765424,,-0.04931645967666478,-0.06459899893944013,0.08431779928,-0.06509005378220696,,-4.4301152e-05,-1.013279e-06,-1.3113022e-06,1.0,4.303828e-05,3.7632883e-05,-4.3042004e-05,1.0,4.440546e-06,-3.7640333e-05,-4.440546e-06,1.0,735,2.252,0,0,0.0,False,1.0382012955126076,1.0511565141852286
2.268438138999045,13:55:48.550495,13:55:38.248251,0,,0.11474435,-0.0040397495,0.012552589,0.85784924,-0.46122628,-0.22663833,0.16382964,-0.17255741,0.9712794,-0.48708782,-0.87034154,-0.07246578,,0.07461422,-0.02958113,-0.0076141655,-0.3567096,0.2860682,0.8893386,-0.021348357,-0.95421076,0.2983725,0.9339713,0.08744657,0.34648317,,0.10631196,1.3404402,0.44019073,0.995668,0.012149705,-0.092182465,-0.051380914,-0.7544019,-0.6543988,-0.07749338,0.65630037,-0.75050956,,-0.08139787,0.2525195,-0.07848573,-0.8019796,0.5380159,0.2595526,-0.23495504,-0.6835918,0.69101256,0.5492038,0.49319482,0.67463624,,-0.03624318,0.36910415,-0.34957394,0.26631925,-0.22543377,-0.9371519,0.8199898,-0.45806336,0.34321225,-0.5066466,-0.85985905,0.0628623,,1.1303686880673673,0.34293567601281355,0.21707801969,4.288578724145492,0.5666315645272816,-0.9580850355026941,0.8649068301810087,,-0.8489986385278715,-0.3313979130987222,0.23844736034000003,-2.143869982185777,-1.3936922976074926,0.40372263990251445,0.8763409148104081,,-0.04931645967666478,-0.06459899893944013,0.08431779928,-0.06509005378220696,,-4.4301152e-05,-1.013279e-06,-1.3113022e-06,1.0,4.303828e-05,3.7632883e-05,-4.3042004e-05,1.0,4.440546e-06,-3.7640333e-05,-4.440546e-06,1.0,743,2.278,0,0,0.0,False,1.0381417177940864,1.0510116735828905
2.294003307004459,13:55:48.576446,13:55:38.248251,0,,0.114747316,-0.0039054304,0.012400687,0.8580332,-0.46148545,-0.22541128,0.16290465,-0.17168406,0.9715897,-0.48707408,-0.8703768,-0.07213253,,0.07462364,-0.029623881,-0.007612109,-0.35677642,0.28649732,0.8891737,-0.021127373,-0.9540438,0.29892164,0.9339508,0.0878624,0.34643328,,0.10631196,1.3404402,0.44019073,0.995668,0.012149705,-0.092182465,-0.051380914,-0.7544019,-0.6543988,-0.07749338,0.65630037,-0.75050956,,-0.08138243,0.25252002,-0.07828352,-0.8021897,0.5383015,0.2583083,-0.23564821,-0.6829484,0.69141257,0.54859966,0.49377415,0.67470396,,-0.036249734,0.36908245,-0.34961143,0.26637205,-0.2259114,-0.93702185,0.8200957,-0.4576757,0.34347624,-0.5064473,-0.8599401,0.06335694,,1.1305231427248517,0.343121021601795,0.21727116690000003,4.2896271738629155,0.5660850185282198,-0.9582111150688923,0.8650701742471429,,-0.8490218067264942,-0.331598704153452,0.23844347147000003,-2.1440796721292616,-1.3936922976074926,0.4033142462018116,0.8768309470088109,,-0.04931645967666478,-0.06459899893944013,0.08431779928,-0.06509005378220696,,-4.4301152e-05,-1.013279e-06,-1.3113022e-06,1.0,4.303828e-05,3.7632883e-05,-4.3042004e-05,1.0,4.440546e-06,-3.7640333e-05,-4.440546e-06,1.0,751,2.303,0,0,0.0,False,1.038558761823734,1.0508668329805522
2.3199116000323556,13:55:48.604948,13:55:38.248251,0,,0.11476615,-0.003803566,0.012279883,0.8582664,-0.46112818,-0.22525443,0.16279586,-0.17162108,0.97161907,-0.48669943,-0.8705785,-0.07222697,,0.07463372,-0.029655352,-0.007609129,-0.35673678,0.28657138,0.8891657,-0.02109316,-0.9540169,0.2990098,0.93396676,0.08791256,0.3463776,,0.10631196,1.3404402,0.44019073,0.995668,0.012149705,-0.092182465,-0.051380914,-0.7544019,-0.6543988,-0.07749338,0.65630037,-0.75050956,,-0.08138667,0.25251603,-0.07812449,-0.8024609,0.53796726,0.25816214,-0.23549286,-0.6830495,0.69136566,0.5482696,0.4939986,0.67480797,,-0.03625782,0.36906737,-0.3496399,0.26632875,-0.22599159,-0.9370148,0.82012236,-0.45762807,0.34347618,-0.506427,-0.8599444,0.06346124,,1.130569479122097,0.34330636719077634,0.21742283283000002,4.2896271738629155,0.5656751090289234,-0.9580402188380841,0.8653968623794114,,-0.8490372521922426,-0.33172999061231384,0.23844087889,-2.143450602298808,-1.3936922976074926,0.40249745880040594,0.8760142266781397,,-0.04931645967666478,-0.06459899893944013,0.08431779928,-0.06509005378220696,,-4.4301152e-05,-1.013279e-06,-1.3113022e-06,1.0,4.303828e-05,3.7632883e-05,-4.3042004e-05,1.0,4.440546e-06,-3.7640333e-05,-4.440546e-06,1.0,772,2.367,0,0,0.0,False,1.0381417177940864,1.0506737121774343
2.3483901240397245,13:55:48.665886,13:55:38.471391,0,,0.11484225,-0.0034311563,0.011689201,0.8592771,-0.45915484,-0.22543211,0.16232091,-0.17316934,0.97142386,-0.48507193,-0.87131476,-0.0742701,,0.07464858,-0.029740348,-0.007611692,-0.356611,0.28712842,0.88903654,-0.020731509,-0.95379925,0.29972875,0.93402284,0.08845559,0.34608784,,0.10631196,1.3404402,0.44019073,0.995668,0.012149705,-0.092182465,-0.051380914,-0.7544019,-0.6543988,-0.07749338,0.65630037,-0.75050956,,-0.081395045,0.25240287,-0.0774313,-0.8036367,0.5360317,0.2585305,-0.23481967,-0.6847816,0.68987966,0.5468343,0.49370456,0.67618644,,-0.036266364,0.36901906,-0.3497109,0.2661731,-0.22661194,-0.93690926,0.8203437,-0.4571216,0.343622,-0.5061503,-0.8600505,0.064226195,,1.1305772018549713,0.34371567203311026,0.21810986653000003,4.28941748391943,0.5638988345319728,-0.9559383561689061,0.8644167979826058,,-0.8490295294593684,-0.33208523632452813,0.23843569373000004,-2.1428215324683544,-1.393555661107727,0.4011608597946012,0.8760142266781397,,-0.04931645967666478,-0.06459899893944013,0.08431779928,-0.06509005378220696,,-4.4301152e-05,-1.013279e-06,-1.3113022e-06,1.0,4.303828e-05,3.7632883e-05,-4.3042004e-05,1.0,4.440546e-06,-3.7640333e-05,-4.440546e-06,1.0,780,2.392,0,0,0.0,False,1.0380225623570447,1.050335750771978
2.4093950780224986,13:55:48.693526,13:55:38.471391,0,,0.11488201,-0.0033104122,0.011512965,0.8596899,-0.45839077,-0.2254132,0.16207203,-0.17371133,0.9713687,-0.48442328,-0.8716091,-0.075045645,,0.07464707,-0.029748172,-0.007609606,-0.35678843,0.28753346,0.8888343,-0.020684093,-0.9536524,0.30019894,0.93395627,0.088722825,0.34619948,,0.10631196,1.3404402,0.44019073,0.995668,0.012149705,-0.092182465,-0.051380914,-0.7544019,-0.6543988,-0.07749338,0.65630037,-0.75050956,,-0.08141424,0.2523756,-0.07721657,-0.8041169,0.53528476,0.25858495,-0.2345965,-0.68541527,0.68932605,0.5462238,0.4936356,0.67673,,-0.036264516,0.36901695,-0.34971866,0.26635233,-0.22705,-0.9367522,0.82033306,-0.45686713,0.34398562,-0.50607324,-0.86007017,0.064569,,1.130530865457726,0.3439087403549659,0.21831856922,4.28941748391943,0.5632156520331455,-0.9551362304300023,0.8650701742471429,,-0.8490372521922426,-0.3321392954546477,0.23843310115000002,-2.143450602298808,-1.3936922976074926,0.40127227769829754,0.8763409148104081,,-0.04931645967666478,-0.06459899893944013,0.08431779928,-0.06509005378220696,,-4.4301152e-05,-1.013279e-06,-1.3113022e-06,1.0,4.303828e-05,3.7632883e-05,-4.3042004e-05,1.0,4.440546e-06,-3.7640333e-05,-4.440546e-06,1.0,792,2.428,0,0,0.0,False,1.038260873231129,1.0506254319766548
2.437032738002017,13:55:48.724131,13:55:38.471391,0,,0.11495419,-0.003131941,0.011239141,0.8602397,-0.4572467,-0.22563925,0.16176286,-0.17493036,0.97120136,-0.48354983,-0.8719661,-0.07651657,,0.074652664,-0.029749662,-0.0076005757,-0.35694802,0.28752622,0.8887726,-0.020737708,-0.9536548,0.3001876,0.93389404,0.08872035,0.34636778,,0.10631196,1.3404402,0.44019073,0.995668,0.012149705,-0.092182465,-0.051380914,-0.7544019,-0.6543988,-0.07749338,0.65630037,-0.75050956,,-0.08145469,0.25232592,-0.07688803,-0.80475676,0.53414696,0.25894704,-0.23427626,-0.6866148,0.68824035,0.5454183,0.4932009,0.6776959,,-0.03627083,0.3690231,-0.3497247,0.2665205,-0.2270424,-0.93670624,0.82027143,-0.45686963,0.34412917,-0.50608456,-0.8600709,0.064471275,,1.1303841335331157,0.3442022042041864,0.21864004914000001,4.28941748391943,0.562395833034553,-0.9535692568662777,0.8644167979826057,,-0.849083588589488,-0.33215474092039615,0.23842921228000002,-2.1436602922422923,-1.393828934107258,0.4014653743421346,0.8761775707442739,,-0.04931645967666478,-0.06459899893944013,0.08431779928,-0.06509005378220696,,-4.4301152e-05,-1.013279e-06,-1.3113022e-06,1.0,4.303828e-05,3.7632883e-05,-4.3042004e-05,1.0,4.440546e-06,-3.7640333e-05,-4.440546e-06,1.0,796,2.441,0,0,0.0,False,1.0383204509496498,1.050432311173537
2.467640921007842,13:55:48.747019,13:55:38.471391,0,,0.11504747,-0.0029545724,0.010911599,0.8611162,-0.45528555,-0.22626089,0.16133066,-0.177335,0.9708371,-0.48213214,-0.87250644,-0.0792546,,0.07464706,-0.029741287,-0.007594824,-0.3571993,0.28810185,0.88848513,-0.020662218,-0.95344484,0.30085897,0.9337996,0.089108646,0.34652263,,0.10631196,1.3404402,0.44019073,0.995668,0.012149705,-0.092182465,-0.051380914,-0.7544019,-0.6543988,-0.07749338,0.65630037,-0.75050956,,-0.08151095,0.2522391,-0.07651825,-0.80577755,0.5321808,0.25981942,-0.23370352,-0.6888601,0.68618834,0.5441555,0.49219444,0.67944056,,-0.036266405,0.36903304,-0.3497206,0.26677376,-0.22766589,-0.9364828,0.8202608,-0.45650014,0.34464443,-0.50596833,-0.86010224,0.064963154,,1.130113837882518,0.34443388619041315,0.21900689921000002,4.289207793975946,0.5610294680368985,-0.9509031817666428,0.8642534539164715,,-0.8491067567881107,-0.33215474092039615,0.23842402712000002,-2.1449184319031995,-1.3939655706070233,0.4019851859465339,0.8760142266781396,,-0.04931645967666478,-0.06459899893944013,0.08431779928,-0.06509005378220696,,-4.4301152e-05,-1.013279e-06,-1.3113022e-06,1.0,4.303828e-05,3.7632883e-05,-4.3042004e-05,1.0,4.440546e-06,-3.7640333e-05,-4.440546e-06,1.0,808,2.479,0,0,0.0,False,1.038260873231129,1.050963393382111
