AlexandreBanks6/ExpertPlaybackApp/resources/Motions/P_02/PC1/Data_PC1_5.csv
Task Time,PC1 Time,PC2 Time,Gaze Calib,s_T_psm1,Tx,Ty,Tz,R00,R01,R02,R10,R11,R12,R20,R21,R22,s_T_psm3,Tx,Ty,Tz,R00,R01,R02,R10,R11,R12,R20,R21,R22,cart_T_ecm,Tx,Ty,Tz,R00,R01,R02,R10,R11,R12,R20,R21,R22,ecm_T_psm1,Tx,Ty,Tz,R00,R01,R02,R10,R11,R12,R20,R21,R22,ecm_T_psm3,Tx,Ty,Tz,R00,R01,R02,R10,R11,R12,R20,R21,R22,psm1_joints,q1,q2,q3,q4,q5,q6,jaw,psm3_joints,q1,q2,q3,q4,q5,q6,jaw,ecm_joints,q1,q2,q3,q4,ecmi_T_ecm,Tx,Ty,Tz,R00,R01,R02,R10,R11,R12,R20,R21,R22,Sample #,Task Duration (s),Collisions (binary),Collisions (increments),Cumulative Collision Time (s),Clutch Press,MTMR Angle,MTML Angle
""
lci_T_si,,,,,-0.06325326,0.014099291,0.23646986,0.99321187,-0.021149708,0.11438049,0.061731156,-0.73758954,-0.6724217,0.09858737,0.67491806,-0.7312771
rci_T_si,,,,,-0.0730827,0.018441333,0.2456533,0.991962,-0.042163182,0.11930484,0.052885953,-0.7184059,-0.6936109,0.114954144,0.6943452,-0.71040154
ecm_T_lc,,,,,-4.4061628e-05,-0.00034663224,-0.01840835,-0.99912,0.030754527,0.028518902,-0.031987965,-0.99852574,-0.043852776,0.027128186,-0.04472645,0.9986309
ecm_T_rc,,,,,-0.0043358393,0.01870579,-0.007592615,-0.99555075,-0.052743673,-0.078081585,0.04863213,-0.9973746,0.053654674,-0.08070653,0.04961868,0.9955021
cart_T_ecmi,,,,,0.10635596,1.3404362,0.44018698,0.9956651,0.012106441,-0.09221999,-0.051438015,-0.7544026,-0.6543935,-0.07749338,0.65630037,-0.75050956
ecmac_T_ecmrep_psm1,,,,,0.01038242,-0.2501324,-0.30762842,0.998145,0.0496832,0.035188068,-0.04731537,0.99675006,-0.06519635,-0.03831287,0.06341047,0.99725187
ecmac_T_ecmrep_psm3,,,,,-0.018947443,-0.4527795,-0.5580277,0.99342906,-0.031421527,0.110051684,0.0051236153,0.97282016,0.23150527,-0.11433475,-0.2294202,0.9665888
""
0,14:00:21.141423,14:00:10.913922,0,,0.116085276,0.005043298,0.017759293,0.9684669,0.23888299,-0.070758276,0.022753082,0.19801691,0.9799344,0.24810106,-0.95064414,0.18633753,,0.06723901,-0.021259256,-0.00020641088,-0.42193887,0.17805725,0.8889674,0.22016455,-0.9310507,0.2909851,0.8794857,0.31849718,0.35364452,,0.10639961,1.3404368,0.44018248,0.9956626,0.012071169,-0.092250586,-0.051484566,-0.7544032,-0.6543892,-0.07749338,0.65630037,-0.75050956,,-0.08305371,0.26272064,-0.07624716,-0.9868609,-0.14046448,0.0798458,0.13921198,-0.4883719,0.86145973,-0.08201006,0.8612564,0.5015095,,-0.030295057,0.38057935,-0.3463332,0.31940055,-0.1420044,-0.93691945,0.90772206,-0.23802225,0.3455229,-0.27207345,-0.96082264,0.052876085,,1.1799872467842598,0.3747765036532412,0.21548358299000003,4.048483738855712,-0.20017247215637027,-1.246874540871409,-0.412933799187458,,-0.865185486632246,-0.30051470433469835,0.22809778098000003,-2.8603805190723968,-1.1752105344825532,1.1011615061987639,0.797282386801417,,-0.04931645967666478,-0.06459245395474515,0.08431779928,-0.06509005378220696,,4.3775886e-05,-2.861023e-06,-9.536743e-07,0.99999994,-3.5092235e-05,-3.068149e-05,3.508851e-05,1.0,-3.606081e-06,3.068149e-05,3.6358833e-06,1.0,37,0.111,0,0,0.0,False,-0.26255903295711036,0.9709148204897686
0.12790263601345941,14:00:21.169498,14:00:10.913922,0,,0.115973145,0.005007416,0.018337563,0.9670711,0.24357471,-0.073788114,0.023756519,0.20226821,0.97904193,0.25339487,-0.9485563,0.18982133,,0.067257784,-0.02125854,-0.00020617247,-0.42184117,0.17806633,0.889012,0.22013743,-0.9310691,0.2909467,0.8795394,0.31843817,0.3535642,,0.10639961,1.3404368,0.44018248,0.9956626,0.012071169,-0.092250586,-0.051484566,-0.7544032,-0.6543892,-0.07749338,0.65630037,-0.75050956,,-0.08299892,0.2630798,-0.076712206,-0.9859546,-0.1452149,0.082499415,0.1435153,-0.48400494,0.8632164,-0.085421756,0.86293215,0.49804747,,-0.030313775,0.3805777,-0.34633288,0.31930032,-0.14200649,-0.9369533,0.90774167,-0.23808278,0.34542972,-0.2721257,-0.9608073,0.05288529,,1.1812614977085067,0.3754020450160534,0.21496765957000002,4.044080250042536,-0.20495474964816068,-1.2491008197525764,-0.4147305839149349,,-0.8652472684952398,-0.3005224270675726,0.22810685501000003,-2.8599611391854274,-1.1752105344825532,1.100753112498061,0.7961389783384769,,-0.04931645967666478,-0.06459245395474515,0.08431779928,-0.06509005378220696,,4.3775886e-05,-2.861023e-06,-9.536743e-07,0.99999994,-3.5092235e-05,-3.068149e-05,3.508851e-05,1.0,-3.606081e-06,3.068149e-05,3.6358833e-06,1.0,45,0.135,0,0,0.0,False,-0.26249945523859,0.9719287047061373
0.15601843199692667,14:00:21.202330,14:00:10.992368,0,,0.115860924,0.0049602687,0.018921182,0.96518093,0.2503698,-0.07576662,0.023359664,0.20599243,0.9782747,0.26053777,-0.9459821,0.1929715,,0.0672948,-0.02126313,-0.00019097328,-0.42040434,0.17522663,0.890256,0.21972491,-0.93230915,0.2872642,0.8803301,0.3163786,0.35344514,,0.10639961,1.3404368,0.44018248,0.9956626,0.012071169,-0.092250586,-0.051484566,-0.7544032,-0.6543892,-0.07749338,0.65630037,-0.75050956,,-0.08294486,0.263434,-0.07718872,-0.9847739,-0.15211965,0.08414269,0.14800783,-0.479803,0.8648022,-0.09118149,0.86408836,0.49501234,,-0.030351665,0.38058382,-0.34634516,0.3178269,-0.13890289,-0.937919,0.90802443,-0.24013409,0.3432598,-0.2729061,-0.9607505,0.049806137,,1.182612975961496,0.3759349135843749,0.21444655099,4.039886451172846,-0.212196484135729,-1.2507917936897384,-0.41456723984880073,,-0.8652627139609883,-0.3005224270675726,0.22811204017000003,-2.8555576503722526,-1.175347170982319,1.1002927792207735,0.7972823868014169,,-0.04931645967666478,-0.06459245395474515,0.08431779928,-0.06509005378220696,,4.3775886e-05,-2.861023e-06,-9.536743e-07,0.99999994,-3.5092235e-05,-3.068149e-05,3.508851e-05,1.0,-3.606081e-06,3.068149e-05,3.6358833e-06,1.0,56,0.169,0,0,0.0,False,-0.2629164992682367,0.9707699798874305
0.1888535920297727,14:00:21.231684,14:00:10.992368,0,,0.11574353,0.004909441,0.019522041,0.96288943,0.2584433,-0.077786945,0.023337744,0.20740399,0.9779769,0.26888496,-0.9434992,0.19367567,,0.06730919,-0.02126468,-0.00019299984,-0.41992694,0.17542529,0.89044213,0.22018053,-0.9321366,0.2874752,0.8804441,0.3167767,0.352804,,0.10639961,1.3404368,0.44018248,0.9956626,0.012071169,-0.092250586,-0.051484566,-0.7544032,-0.6543892,-0.07749338,0.65630037,-0.75050956,,-0.08288743,0.26379701,-0.07768095,-0.9832995,-0.16035235,0.086076565,0.15359297,-0.47745186,0.8651294,-0.09762812,0.8639021,0.4941072,,-0.030365659,0.3805796,-0.34634554,0.31731004,-0.13915032,-0.9380573,0.9083021,-0.23973124,0.3428064,-0.27258328,-0.9608153,0.050321404,,1.1840339588103534,0.37644461395407375,0.21391118322000002,4.034644202585733,-0.22039467412165545,-1.2498242312777925,-0.41326048731972653,,-0.8652781594267367,-0.3005224270675726,0.22811592904000003,-2.85450920065483,-1.174800624983257,1.0989486414644416,0.7958122902062085,,-0.04931645967666478,-0.06459245395474515,0.08431779928,-0.06509005378220696,,4.3775886e-05,-2.861023e-06,-9.536743e-07,0.99999994,-3.5092235e-05,-3.068149e-05,3.508851e-05,1.0,-3.606081e-06,3.068149e-05,3.6358833e-06,1.0,64,0.193,0,0,0.0,False,-0.26202283349042155,0.9713493422967838
0.21817011100938544,14:00:21.253774,14:00:10.992368,0,,0.11562778,0.0048538297,0.020111427,0.9605152,0.26626623,-0.080701545,0.024027467,0.2095893,0.97749424,0.2771879,-0.94083726,0.19491601,,0.06731201,-0.021262698,-0.00019526482,-0.4198985,0.17590906,0.89036006,0.2203033,-0.93193936,0.28802007,0.8804269,0.31708854,0.35256657,,0.10639961,1.3404368,0.44018248,0.9956626,0.012071169,-0.092250586,-0.051484566,-0.7544032,-0.6543892,-0.07749338,0.65630037,-0.75050956,,-0.08283065,0.26414883,-0.07816765,-0.9817186,-0.16833131,0.088843316,0.1596867,-0.47439122,0.8657096,-0.103579536,0.86407036,0.49259898,,-0.030368371,0.38057834,-0.34634268,0.31727484,-0.13967434,-0.9379913,0.9083483,-0.23942204,0.34289995,-0.27247012,-0.9608164,0.050910365,,1.1854086052619652,0.37692342339227564,0.21338359319000003,4.028772884168166,-0.22818295460828555,-1.249517637537498,-0.41326048731972653,,-0.865285882159611,-0.30051470433469835,0.22811852162000001,-2.85450920065483,-1.1746639884834915,1.0983471511199019,0.7964656664707457,,-0.04931645967666478,-0.06459245395474515,0.08431779928,-0.06509005378220696,,4.3775886e-05,-2.861023e-06,-9.536743e-07,0.99999994,-3.5092235e-05,-3.068149e-05,3.508851e-05,1.0,-3.606081e-06,3.068149e-05,3.6358833e-06,1.0,76,0.23,0,0,0.0,False,-0.2632143878608417,0.9713493422967838
0.2402119460166432,14:00:21.294716,14:00:10.992368,0,,0.11555694,0.004806906,0.020704553,0.95651144,0.27990246,-0.08210026,0.020785153,0.2153418,0.9763175,0.2909533,-0.93556535,0.20015916,,0.06731376,-0.021264337,-0.0001977086,-0.41982237,0.1758257,0.89041245,0.22029826,-0.93197703,0.28790212,0.8804646,0.31702417,0.35253066,,0.10639961,1.3404368,0.44018248,0.9956626,0.012071169,-0.092250586,-0.051484566,-0.7544032,-0.6543892,-0.07749338,0.65630037,-0.75050956,,-0.08281869,0.2645077,-0.07864732,-0.97915316,-0.18224604,0.08969645,0.16650017,-0.46718088,0.8683431,-0.11634762,0.86517537,0.48778564,,-0.030369759,0.3805752,-0.34634283,0.31719598,-0.13958277,-0.9380316,0.90836847,-0.23948626,0.34280184,-0.2724949,-0.9608137,0.050828498,,1.1868604790423196,0.37736361916610645,0.21287285493000002,4.023320945637569,-0.2429396965829531,-1.2527584283445696,-0.41375051951812947,,-0.8652781594267367,-0.3005224270675726,0.22812111420000003,-2.8542995107113454,-1.1746639884834915,1.0982654723797614,0.7966290105368798,,-0.04931645967666478,-0.06459245395474515,0.08431779928,-0.06509005378220696,,4.3775886e-05,-2.861023e-06,-9.536743e-07,0.99999994,-3.5092235e-05,-3.068149e-05,3.508851e-05,1.0,-3.606081e-06,3.068149e-05,3.6358833e-06,1.0,87,0.263,0,0,0.0,False,-0.2626781883941529,0.9718321443045785
0.2812366080470383,14:00:21.324765,14:00:10.992368,0,,0.115461275,0.004741937,0.021310836,0.9527635,0.2915014,-0.08525497,0.019134857,0.22253793,0.97473615,0.30310947,-0.9303246,0.20644826,,0.06732037,-0.021264859,-0.00019562244,-0.41961592,0.17535065,0.8906034,0.22025633,-0.93216956,0.28731036,0.88057345,0.3167212,0.35253105,,0.10639961,1.3404368,0.44018248,0.9956626,0.012071169,-0.092250586,-0.051484566,-0.7544032,-0.6543892,-0.07749338,0.65630037,-0.75050956,,-0.08278377,0.26486278,-0.079150975,-0.97664267,-0.19409044,0.09218452,0.1734367,-0.4588202,0.8714377,-0.12684162,0.86707145,0.48176578,,-0.03037649,0.38057595,-0.34634444,0.31698355,-0.13906859,-0.9381798,0.9084141,-0.23978649,0.3424707,-0.27258977,-0.9608134,0.05032351,,1.188320075555548,0.37775747854269187,0.21233878345,4.017239937276517,-0.25551025456137366,-1.2573735119100813,-0.4108103263277123,,-0.865285882159611,-0.3005224270675726,0.22812241049,-2.853670440880892,-1.1746639884834915,1.0982654723797614,0.7966290105368798,,-0.04931645967666478,-0.06459245395474515,0.08431779928,-0.06509005378220696,,4.3775886e-05,-2.861023e-06,-9.536743e-07,0.99999994,-3.5092235e-05,-3.068149e-05,3.508851e-05,1.0,-3.606081e-06,3.068149e-05,3.6358833e-06,1.0,95,0.287,0,0,0.0,False,-0.2626186106756321,0.9723149463123728
0.3112655210425146,14:00:21.347237,14:00:10.992368,0,,0.11529164,0.004689589,0.02186653,0.9514025,0.2951319,-0.08792229,0.02051793,0.22412294,0.97434485,0.3072657,-0.92879826,0.20717564,,0.06731838,-0.021262683,-0.00019925833,-0.4196812,0.17544326,0.89055437,0.22026357,-0.93212944,0.28743476,0.8805405,0.31678775,0.3525534,,0.10639961,1.3404368,0.44018248,0.9956626,0.012071169,-0.092250586,-0.051484566,-0.7544032,-0.6543892,-0.07749338,0.65630037,-0.75050956,,-0.082670055,0.26519713,-0.07961529,-0.9756506,-0.19780545,0.09475726,0.17727344,-0.45677945,0.8717377,-0.1291513,0.8673094,0.48072278,,-0.030374316,0.38057426,-0.34634063,0.31705096,-0.13916972,-0.938142,0.90839785,-0.23972027,0.34256032,-0.2725657,-0.96081525,0.05041793,,1.1897873948016506,0.3781667833850258,0.21183582293000003,4.012836448463342,-0.25933607655480595,-1.256785851550939,-0.4127704551213234,,-0.8652781594267367,-0.30051470433469835,0.22812500307000003,-2.8538801308243764,-1.1746639884834915,1.0983471511199019,0.7969556986691484,,-0.04931645967666478,-0.06459245395474515,0.08431779928,-0.06509005378220696,,4.3775886e-05,-2.861023e-06,-9.536743e-07,0.99999994,-3.5092235e-05,-3.068149e-05,3.508851e-05,1.0,-3.606081e-06,3.068149e-05,3.6358833e-06,1.0,103,0.312,0,0,0.0,False,-0.26333354329788383,0.972121825509255
0.33371423999778926,14:00:21.375847,14:00:11.192566,0,,0.115149185,0.00463295,0.022388116,0.9493981,0.30080643,-0.09032516,0.021704398,0.22406644,0.9743321,0.31332427,-0.9269896,0.20619944,,0.067325816,-0.0212669,-0.0001975298,-0.41939858,0.17495354,0.8907839,0.22022393,-0.9323344,0.2867999,0.8806851,0.3164555,0.3524907,,0.10639961,1.3404368,0.44018248,0.9956626,0.012071169,-0.092250586,-0.051484566,-0.7544032,-0.6543892,-0.07749338,0.65630037,-0.75050956,,-0.082580194,0.2655046,-0.080054514,-0.97420734,-0.20362729,0.09724178,0.18224442,-0.45587227,0.8711874,-0.1330677,0.8664389,0.48122406,,-0.030381573,0.38057262,-0.3463452,0.3167593,-0.1386373,-0.9383194,0.90846586,-0.24005,0.34214884,-0.27267817,-0.96080995,0.04990919,,1.19113887305464,0.37849886089861745,0.21136526966000002,4.0075941998762294,-0.264938173045189,-1.2543413647430404,-0.41326048731972653,,-0.8652781594267367,-0.3005301498004468,0.22812629936000003,-2.8530413710504385,-1.1746639884834915,1.0981837936396208,0.7971190427352828,,-0.04931645967666478,-0.06459245395474515,0.08431779928,-0.06509005378220696,,4.3775886e-05,-2.861023e-06,-9.536743e-07,0.99999994,-3.5092235e-05,-3.068149e-05,3.508851e-05,1.0,-3.606081e-06,3.068149e-05,3.6358833e-06,1.0,126,0.381,0,0,0.0,False,-0.26202283349042155,0.972121825509255
0.3623313049902208,14:00:21.435884,14:00:11.192566,0,,0.11504024,0.004535198,0.023298785,0.94300216,0.31933683,-0.093652785,0.01680769,0.23535857,0.9717631,0.3323618,-0.9179491,0.21657619,,0.06730612,-0.021305636,-0.00021415949,-0.41883838,0.1739772,0.89123863,0.2202493,-0.9327033,0.28557783,0.88094515,0.3159058,0.35233355,,0.10635878,1.3404375,0.44018373,0.99566346,0.012083302,-0.092240065,-0.051468555,-0.75440294,-0.6543907,-0.07749338,0.65630037,-0.75050956,,-0.08252393,0.2660357,-0.0808108,-0.9698172,-0.22262372,0.099464506,0.19138299,-0.44223213,0.8762438,-0.15108627,0.86883223,0.47149074,,-0.03031786,0.38054097,-0.34637126,0.31616828,-0.13757639,-0.9386748,0.9086368,-0.24059203,0.34131303,-0.27279428,-0.9608268,0.0489394,,1.1933939110539136,0.37904717493268736,0.21056805131000003,3.999835671967302,-0.28584355750930146,-1.2619614049999375,-0.41326048731972653,,-0.8653322185568563,-0.3005610407319437,0.22814963258,-2.851363851502562,-1.174527351983726,1.0977456607753622,0.7971190427352828,,-0.04931645967666478,-0.06459245395474515,0.08431779928,-0.06509005378220696,,2.991408e-06,-3.0994415e-06,1.3113022e-06,1.0,-2.3022294e-05,-2.013892e-05,2.3018569e-05,0.99999994,-2.3543835e-06,2.0131469e-05,2.3543835e-06,1.0,130,0.393,0,0,0.0,False,-0.26273776611267374,0.97168730370224
0.4224085590103641,14:00:21.459648,14:00:11.192566,0,,0.11495261,0.004477948,0.02380906,0.93992794,0.32798672,-0.09465824,0.01480177,0.23786938,0.97118425,0.34105185,-0.9142445,0.21872514,,0.06732379,-0.021302849,-0.00021982193,-0.41881335,0.17425549,0.8911961,0.22050321,-0.9325259,0.28596115,0.8808936,0.31627607,0.35213032,,0.10635878,1.3404375,0.44018373,0.99566346,0.012083302,-0.092240065,-0.051468555,-0.75440294,-0.6543907,-0.07749338,0.65630037,-0.75050956,,-0.08248754,0.26633292,-0.08123703,-0.9676526,-0.23151694,0.10024147,0.19573851,-0.4382752,0.8772692,-0.15916935,0.868513,0.4694149,,-0.03033506,0.3805356,-0.3463661,0.31613055,-0.13790058,-0.93863994,0.9087228,-0.2402195,0.34134647,-0.2725515,-0.96087354,0.049372684,,1.1946372710466637,0.37938697517915326,0.21011953497000002,3.9958515630410965,-0.2954081124928823,-1.2624117044953849,-0.41309714325359215,,-0.8653940004198502,-0.3005610407319437,0.22816129919000003,-2.851363851502562,-1.1742540789841953,1.0972777887475476,0.7963023224046113,,-0.04931645967666478,-0.06459245395474515,0.08431779928,-0.06509005378220696,,2.991408e-06,-3.0994415e-06,1.3113022e-06,1.0,-2.3022294e-05,-2.013892e-05,2.3018569e-05,0.99999994,-2.3543835e-06,2.0131469e-05,2.3543835e-06,1.0,142,0.43,0,0,0.0,False,-0.2631548101423209,0.9725080671154906
0.44612746499478817,14:00:21.494843,14:00:11.192566,0,,0.114810325,0.004421562,0.024284884,0.9380484,0.33218023,-0.098597586,0.017743006,0.23812833,0.9710715,0.34604967,-0.9126616,0.21748197,,0.06734555,-0.02129972,-0.00021576881,-0.41880807,0.17448014,0.8911545,0.22047657,-0.93246394,0.2861836,0.88090277,0.31633484,0.35205457,,0.10635878,1.3404375,0.44018373,0.99566346,0.012083302,-0.092240065,-0.051468555,-0.75440294,-0.6543907,-0.07749338,0.65630037,-0.75050956,,-0.08239344,0.2666104,-0.081641965,-0.9661823,-0.23583467,0.10427765,0.20132197,-0.43721673,0.8765335,-0.16112506,0.8678845,0.46990973,,-0.03035728,0.38053808,-0.34636578,0.3161263,-0.13813359,-0.9386071,0.908716,-0.24016409,0.3414035,-0.272579,-0.96085393,0.049602024,,1.1958651855736653,0.37966499356262534,0.20968657411000002,3.9895608647365606,-0.29909729798654916,-1.2599751722765653,-0.4122804229229209,,-0.8654866732143408,-0.3005610407319437,0.22816907693000002,-2.851154161559078,-1.1742540789841953,1.0967877163067041,0.7976090749336856,,-0.04931645967666478,-0.06459245395474515,0.08431779928,-0.06509005378220696,,2.991408e-06,-3.0994415e-06,1.3113022e-06,1.0,-2.3022294e-05,-2.013892e-05,2.3018569e-05,0.99999994,-2.3543835e-06,2.0131469e-05,2.3543835e-06,1.0,150,0.455,0,0,0.0,False,-0.261427056305211,0.9717355839030195
0.4813649519928731,14:00:21.515523,14:00:11.192566,0,,0.114764795,0.004380062,0.02460058,0.9352507,0.33951217,-0.10018824,0.017714866,0.2377842,0.97115636,0.3535426,-0.91004956,0.21637335,,0.06736149,-0.02129826,-0.00021088123,-0.41871032,0.17412952,0.891269,0.22044036,-0.93260074,0.28576553,0.8809583,0.31612477,0.3521043,,0.10635878,1.3404375,0.44018373,0.99566346,0.012083302,-0.092240065,-0.051468555,-0.75440294,-0.6543907,-0.07749338,0.65630037,-0.75050956,,-0.082379736,0.26678935,-0.08190888,-0.964122,-0.24339105,0.10596953,0.2063609,-0.4360667,0.87593436,-0.1669848,0.86637557,0.4706479,,-0.030373672,0.3805411,-0.34636727,0.31602648,-0.13775577,-0.9386962,0.9087325,-0.24037148,0.34121376,-0.27263996,-0.9608563,0.049219385,,1.196606567929591,0.37981172548723563,0.20941046434000002,3.984737996036416,-0.3063390324741175,-1.2575822092066993,-0.4127704551213238,,-0.8655484550773346,-0.3005610407319437,0.22817296580000002,-2.8507347816721085,-1.1742540789841953,1.0967877163067044,0.7979357630659542,,-0.04931645967666478,-0.06459245395474515,0.08431779928,-0.06509005378220696,,2.991408e-06,-3.0994415e-06,1.3113022e-06,1.0,-2.3022294e-05,-2.013892e-05,2.3018569e-05,0.99999994,-2.3543835e-06,2.0131469e-05,2.3543835e-06,1.0,158,0.479,0,0,0.0,False,-0.26202283349042155,0.9715907433006812
0.5020431239972822,14:00:21.544576,14:00:11.192566,0,,0.114740275,0.0043150187,0.0251645,0.92824996,0.3571899,-0.10376623,0.014617845,0.24372643,0.9697337,0.37166974,-0.90167224,0.22101757,,0.067384794,-0.021295443,-0.00020605326,-0.41863436,0.17361483,0.8914051,0.22039975,-0.93278885,0.28518227,0.8810045,0.3158527,0.35223275,,0.10635878,1.3404375,0.44018373,0.99566346,0.012083302,-0.092240065,-0.051468555,-0.75440294,-0.6543907,-0.07749338,0.65630037,-0.75050956,,-0.08241154,0.2671134,-0.082374536,-0.9589913,-0.26162118,0.109041825,0.21628761,-0.42683965,0.87808174,-0.18318142,0.86565715,0.4659209,,-0.030397473,0.38054392,-0.34636766,0.3159495,-0.13720551,-0.9388027,0.90874135,-0.24063864,0.34100172,-0.27269953,-0.9608682,0.048654668,,1.1978885415867122,0.38007429840495927,0.20893991107,3.9759310184100665,-0.32519486944174825,-1.2598491463669546,-0.4121170788567865,,-0.8656411278718253,-0.3005610407319437,0.22818074354000004,-2.8503154017851395,-1.1742540789841953,1.0969510737869854,0.797282386801417,,-0.04931645967666478,-0.06459245395474515,0.08431779928,-0.06509005378220696,,2.991408e-06,-3.0994415e-06,1.3113022e-06,1.0,-2.3022294e-05,-2.013892e-05,2.3018569e-05,0.99999994,-2.3543835e-06,2.0131469e-05,2.3543835e-06,1.0,169,0.513,0,0,0.0,False,-0.2620824112089424,0.9721701057100345
0.5310204910347238,14:00:21.569089,14:00:11.192566,0,,0.11468117,0.0042322576,0.025737122,0.92155415,0.37268642,-0.10882447,0.013399154,0.24959856,0.9682566,0.38801855,-0.8937591,0.22502482,,0.06741633,-0.021301255,-0.00020438433,-0.4173482,0.17249638,0.89222497,0.22138001,-0.93294144,0.2839212,0.8813689,0.31601495,0.35117415,,0.10635878,1.3404375,0.44018373,0.99566346,0.012083302,-0.092240065,-0.051468555,-0.75440294,-0.6543907,-0.07749338,0.65630037,-0.75050956,,-0.08241027,0.26743135,-0.08286151,-0.9539399,-0.2776383,0.11364678,0.2264387,-0.41787785,0.87983155,-0.19678445,0.8650405,0.46149844,,-0.030428544,0.38053855,-0.34637374,0.31456885,-0.13609977,-0.9394271,0.90940875,-0.240449,0.33935228,-0.27207008,-0.9610729,0.04813256,,1.1992014061753302,0.38025964399394063,0.20844861716000002,3.966285281009778,-0.3415912494136011,-1.261752922329669,-0.41064698226157814,,-0.8656642960704479,-0.3005610407319437,0.22818333612000002,-2.847379742576356,-1.1730243504863063,1.0952132039924525,0.7974457308675513,,-0.04931645967666478,-0.06459245395474515,0.08431779928,-0.06509005378220696,,2.991408e-06,-3.0994415e-06,1.3113022e-06,1.0,-2.3022294e-05,-2.013892e-05,2.3018569e-05,0.99999994,-2.3543835e-06,2.0131469e-05,2.3543835e-06,1.0,177,0.537,0,0,0.0,False,-0.2621419889274632,0.9730391493240649
0.5555822630412877,14:00:21.600996,14:00:11.401379,0,,0.11451807,0.0041441917,0.026264489,0.91839874,0.378882,-0.1139833,0.017260373,0.24944627,0.96823466,0.3952794,-0.891193,0.2225514,,0.067444056,-0.021311477,-0.00021260977,-0.4157756,0.17360796,0.89274347,0.22300981,-0.9321814,0.2851392,0.8817013,0.31764463,0.34886196,,0.10635878,1.3404375,0.44018373,0.99566346,0.012083302,-0.092240065,-0.051468555,-0.75440294,-0.6543907,-0.07749338,0.65630037,-0.75050956,,-0.08230131,0.26771992,-0.08332769,-0.95139265,-0.28405425,0.11901745,0.23425947,-0.41656548,0.8784052,-0.19993617,0.8635892,0.46285975,,-0.030454569,0.380523,-0.3463784,0.31286123,-0.13741267,-0.93980616,0.9103543,-0.23880714,0.33797362,-0.2708743,-0.9612954,0.050380707,,1.2005606071611938,0.3803909304528024,0.20796250841000002,3.957478303383428,-0.34705670940421873,-1.2577862786226557,-0.41195373479065234,,-0.8656411278718253,-0.3005687634648179,0.2281859287,-2.844234393424088,-1.17111143948959,1.0905495612153613,0.798425795264357,,-0.04931645967666478,-0.06459245395474515,0.08431779928,-0.06509005378220696,,2.991408e-06,-3.0994415e-06,1.3113022e-06,1.0,-2.3022294e-05,-2.013892e-05,2.3018569e-05,0.99999994,-2.3543835e-06,2.0131469e-05,2.3543835e-06,1.0,189,0.574,0,0,0.0,False,-0.26273776611267374,0.9731357097256239
0.5874968570424244,14:00:21.627404,14:00:11.401379,0,,0.11442975,0.004091248,0.026630953,0.914631,0.38694912,-0.1171341,0.019537628,0.24708518,0.9687967,0.40381718,-0.88838017,0.21843168,,0.067439236,-0.02131319,-0.0002090931,-0.4160175,0.17358917,0.8926344,0.22238538,-0.9323844,0.2849633,0.88174486,0.31705868,0.3492844,,0.10635878,1.3404375,0.44018373,0.99566346,0.012083302,-0.092240065,-0.051468555,-0.75440294,-0.6543907,-0.07749338,0.65630037,-0.75050956,,-0.082250245,0.2679256,-0.083643906,-0.94840366,-0.29241788,0.122565314,0.24175933,-0.4168285,0.8762456,-0.20514119,0.86066586,0.46601644,,-0.03044999,0.3805256,-0.3463816,0.31314105,-0.13732374,-0.93972594,0.9100938,-0.23940577,0.3382516,-0.27142578,-0.9611592,0.050009713,,1.2015027805718492,0.38045271231579625,0.2076397322,3.9495100855310166,-0.35429844389178705,-1.251962808466886,-0.4122804229229209,,-0.865633405138951,-0.30058420893056637,0.2281859287,-2.844444083367573,-1.1717946219884174,1.0910249719937029,0.7982624511982227,,-0.04931645967666478,-0.06459245395474515,0.08431779928,-0.06509005378220696,,2.991408e-06,-3.0994415e-06,1.3113022e-06,1.0,-2.3022294e-05,-2.013892e-05,2.3018569e-05,0.99999994,-2.3543835e-06,2.0131469e-05,2.3543835e-06,1.0,197,0.598,0,0,0.0,False,-0.26196325577190027,0.9726529077178292
0.6139163820189424,14:00:21.657953,14:00:11.401379,0,,0.11426065,0.004004389,0.027407914,0.904214,0.4069396,-0.12960395,0.024195269,0.25416756,0.96685743,0.42639372,-0.8773819,0.21997574,,0.06744157,-0.021324575,-0.0002105236,-0.41601688,0.17370762,0.8926117,0.2224375,-0.93232787,0.28510743,0.881732,0.31716,0.34922495,,0.10635878,1.3404375,0.44018373,0.99566346,0.012083302,-0.092240065,-0.051468555,-0.75440294,-0.6543907,-0.07749338,0.65630037,-0.75050956,,-0.08215936,0.2683799,-0.08429594,-0.9400861,-0.3131699,0.13476902,0.26058683,-0.4051166,0.8763419,-0.21984673,0.85895586,0.46245244,,-0.030451383,0.3805182,-0.34639058,0.313138,-0.137455,-0.93970776,0.91011006,-0.23930474,0.33827928,-0.2713747,-0.9611656,0.05016378,,1.2035724729821413,0.38055310784316115,0.20698380946000003,3.9295895408999866,-0.3739740998580105,-1.2506208035599022,-0.41244376698905527,,-0.865633405138951,-0.30063826806068594,0.2281859287,-2.844444083367573,-1.1717946219884174,1.0908616145134218,0.7979357630659542,,-0.04931645967666478,-0.06459245395474515,0.08431779928,-0.06509005378220696,,2.991408e-06,-3.0994415e-06,1.3113022e-06,1.0,-2.3022294e-05,-2.013892e-05,2.3018569e-05,0.99999994,-2.3543835e-06,2.0131469e-05,2.3543835e-06,1.0,205,0.623,0,0,0.0,False,-0.2622015666459845,0.9719769849069169
0.6444334129919298,14:00:21.686973,14:00:11.401379,0,,0.11418041,0.0039660037,0.02786778,0.8964103,0.42151275,-0.1370244,0.025292903,0.26000094,0.96527696,0.44250304,-0.86875,0.22240612,,0.06744881,-0.02133505,-0.000210464,-0.41580322,0.17321363,0.8928072,0.22243875,-0.9325096,0.28451174,0.8818325,0.316896,0.349211,,0.10635878,1.3404375,0.44018373,0.99566346,0.012083302,-0.092240065,-0.051468555,-0.75440294,-0.6543907,-0.07749338,0.65630037,-0.75050956,,-0.08212494,0.2686577,-0.08467147,-0.93384457,-0.32833868,0.14187343,0.27236617,-0.39567044,0.8770756,-0.23184273,0.8576938,0.45892304,,-0.030457841,0.38051194,-0.34639958,0.3129162,-0.1369265,-0.9398588,0.9101703,-0.23956418,0.33793342,-0.27142856,-0.96117646,0.049662933,,1.20483127844064,0.3805917215075323,0.2066156631,3.9172178342343997,-0.3891407513319744,-1.2509952997115272,-0.4121170788567865,,-0.865633405138951,-0.30068460445793127,0.22818722499000002,-2.843815013537119,-1.1717946219884174,1.0908616145134218,0.7979357630659542,,-0.04931645967666478,-0.06459245395474515,0.08431779928,-0.06509005378220696,,2.991408e-06,-3.0994415e-06,1.3113022e-06,1.0,-2.3022294e-05,-2.013892e-05,2.3018569e-05,0.99999994,-2.3543835e-06,2.0131469e-05,2.3543835e-06,1.0,216,0.657,0,0,0.0,False,-0.26255903295711036,0.9722183859108142
0.6734846290200949,14:00:21.712606,14:00:11.401379,0,,0.114007294,0.003936425,0.028474107,0.8872468,0.43780953,-0.14531347,0.027666286,0.2639413,0.9641418,0.46046472,-0.85945207,0.22206837,,0.067454144,-0.021350875,-0.00021272898,-0.41580775,0.1733887,0.8927711,0.22251219,-0.93242687,0.28472537,0.88181174,0.31704363,0.3491292,,0.10635878,1.3404375,0.44018373,0.99566346,0.012083302,-0.092240065,-0.051468555,-0.75440294,-0.6543907,-0.07749338,0.65630037,-0.75050956,,-0.082012,0.2690427,-0.08515881,-0.9263931,-0.34533957,0.15012144,0.28638262,-0.38727996,0.87635565,-0.24450125,0.854842,0.45767272,,-0.030461816,0.38050112,-0.34641188,0.31291753,-0.13712026,-0.9398301,0.9101917,-0.23941699,0.3379801,-0.2713552,-0.9611855,0.049887944,,1.2067465161934476,0.38065350337052606,0.20613214693,3.9017007784165445,-0.40581040430335813,-1.2476121579781343,-0.41326048731972653,,-0.8656411278718253,-0.30076183178667354,0.22818852128000003,-2.843815013537119,-1.1717946219884174,1.090616578293,0.7974457308675512,,-0.04931645967666478,-0.06459245395474515,0.08431779928,-0.06509005378220696,,2.991408e-06,-3.0994415e-06,1.3113022e-06,1.0,-2.3022294e-05,-2.013892e-05,2.3018569e-05,0.99999994,-2.3543835e-06,2.0131469e-05,2.3543835e-06,1.0,224,0.68,0,0,0.0,False,-0.26148663402373185,0.9720735453084759
0.699127594998572,14:00:21.741012,14:00:11.535542,0,,0.11383131,0.00396204,0.029046968,0.8754847,0.45847297,-0.15273878,0.030920103,0.2622752,0.96449745,0.4822557,-0.84912556,0.2154418,,0.06746517,-0.021369338,-0.00021088123,-0.41560462,0.1730117,0.8929388,0.22254835,-0.9325572,0.28426972,0.8818985,0.31686598,0.3490716,,0.10635878,1.3404375,0.44018373,0.99566346,0.012083302,-0.092240065,-0.051468555,-0.75440294,-0.6543907,-0.07749338,0.65630037,-0.75050956,,-0.08189143,0.26944715,-0.08558506,-0.9167008,-0.36694098,0.15815818,0.30369598,-0.3826066,0.87257147,-0.25966987,0.8479189,0.46217427,,-0.030471645,0.38049173,-0.34642866,0.31270498,-0.13671981,-0.93995917,0.9102598,-0.23959051,0.33767375,-0.271372,-0.9611993,0.04952939,,1.208785317672243,0.380684394302023,0.20571992671000003,3.882199613672484,-0.42575933326911247,-1.236327547187031,-0.41244376698905527,,-0.8656565733375737,-0.30084678184829,0.22818852128000003,-2.8431859437066658,-1.1717946219884174,1.090453220812719,0.7977724189998198,,-0.04931645967666478,-0.06459245395474515,0.08431779928,-0.06509005378220696,,2.991408e-06,-3.0994415e-06,1.3113022e-06,1.0,-2.3022294e-05,-2.013892e-05,2.3018569e-05,0.99999994,-2.3543835e-06,2.0131469e-05,2.3543835e-06,1.0,232,0.705,0,0,0.0,False,-0.2629164992682367,0.9731357097256239
0.7275243060430512,14:00:21.763362,14:00:11.535542,0,,0.113756716,0.003998935,0.029422149,0.8654375,0.47620645,-0.1557093,0.027901739,0.26449445,0.9639833,0.5002394,-0.838612,0.21561638,,0.067469716,-0.021384269,-0.00021183491,-0.4155328,0.17281961,0.8930094,0.22260082,-0.9326077,0.2840629,0.881919,0.31682217,0.34905928,,0.10635878,1.3404375,0.44018373,0.99566346,0.012083302,-0.092240065,-0.051468555,-0.75440294,-0.6543907,-0.07749338,0.65630037,-0.75050956,,-0.08185236,0.2697254,-0.08584722,-0.90852296,-0.3855366,0.16108248,0.31371757,-0.374768,0.87242776,-0.27598432,0.8431551,0.46143493,,-0.030475013,0.38048258,-0.34644088,0.31262803,-0.13652134,-0.94001365,0.9102961,-0.23963115,0.33754703,-0.2713389,-0.96121734,0.04935943,,1.2101831323224777,0.38069983976777144,0.20548659451,3.8710860466678043,-0.4452983527355704,-1.2326465979795271,-0.4108103263277123,,-0.8656565733375737,-0.300916286444158,0.22818852128000003,-2.8429762537631813,-1.1717946219884174,1.090453220812719,0.7977724189998198,,-0.04931645967666478,-0.06459245395474515,0.08431779928,-0.06509005378220696,,2.991408e-06,-3.0994415e-06,1.3113022e-06,1.0,-2.3022294e-05,-2.013892e-05,2.3018569e-05,0.99999994,-2.3543835e-06,2.0131469e-05,2.3543835e-06,1.0,240,0.729,0,0,0.0,False,-0.26196325577190027,0.9729425889225058
0.7498667160398327,14:00:21.793895,14:00:11.535542,0,,0.11365701,0.004057139,0.030107692,0.84484494,0.5087828,-0.16546036,0.02202791,0.2759236,0.960927,0.5345576,-0.81547916,0.22190508,,0.06747738,-0.021410868,-0.00021541119,-0.4153839,0.17266667,0.89310825,0.22269182,-0.93264073,0.28388336,0.88196623,0.31680864,0.3489524,,0.10635878,1.3404375,0.44018373,0.99566346,0.012083302,-0.092240065,-0.051468555,-0.75440294,-0.6543907,-0.07749338,0.65630037,-0.75050956,,-0.081817634,0.27022538,-0.086329035,-0.891508,-0.41985956,0.1700924,0.33281702,-0.35233128,0.8746974,-0.3073212,0.83640933,0.45384258,,-0.030480424,0.3804648,-0.34646168,0.31246927,-0.13636586,-0.940089,0.9103658,-0.23964173,0.33735135,-0.27128774,-0.96123683,0.04926215,,1.2125231203833675,0.3806921170348972,0.20507178171,3.8490686026019287,-0.48287339017106656,-1.2325545232755815,-0.41179039072451795,,-0.8656488506046995,-0.3010398501701456,0.22818981757000004,-2.842556873876212,-1.1717946219884174,1.090208184592297,0.7982624511982226,,-0.04931645967666478,-0.06459245395474515,0.08431779928,-0.06509005378220696,,2.991408e-06,-3.0994415e-06,1.3113022e-06,1.0,-2.3022294e-05,-2.013892e-05,2.3018569e-05,0.99999994,-2.3543835e-06,2.0131469e-05,2.3543835e-06,1.0,263,0.799,0,0,0.0,False,-0.2622015666459845,0.9731839899264032
0.7804098679916933,14:00:21.859050,14:00:11.653134,0,,0.113248356,0.0042023063,0.031601474,0.799472,0.57155526,-0.18484908,0.019002289,0.2835042,0.9587826,0.60040283,-0.7700324,0.21579269,,0.06749227,-0.021460518,-0.00021898746,-0.4151273,0.17202285,0.8933518,0.22272678,-0.9328617,0.28312868,0.8820782,0.316508,0.3489422,,0.10635878,1.3404375,0.44018373,0.99566346,0.012083302,-0.092240065,-0.051468555,-0.75440294,-0.6543907,-0.07749338,0.65630037,-0.75050956,,-0.08155104,0.27133673,-0.08738414,-0.85279846,-0.4864854,0.18991262,0.37590188,-0.31936392,0.8698876,-0.36253637,0.8132273,0.45522383,,-0.030491382,0.38043407,-0.34650213,0.31220132,-0.13568233,-0.9402769,0.9104483,-0.23993492,0.33692,-0.27131936,-0.9612604,0.048623748,,1.2178518060665826,0.38047588051441894,0.20416048984000001,3.7932910776350455,-0.5524213685516758,-1.2089227000510308,-0.412933799187458,,-0.8656411278718253,-0.30127153215637237,0.22819111386000002,-2.841718114102274,-1.1719312584881827,1.0901562450157123,0.7985891393304911,,-0.04931645967666478,-0.06459245395474515,0.08431779928,-0.06509005378220696,,2.991408e-06,-3.0994415e-06,1.3113022e-06,1.0,-2.3022294e-05,-2.013892e-05,2.3018569e-05,0.99999994,-2.3543835e-06,2.0131469e-05,2.3543835e-06,1.0,271,0.824,0,0,0.0,False,-0.2622015666459845,0.9732322701271827
0.8455671720439568,14:00:21.887741,14:00:11.653134,0,,0.11313952,0.0042297244,0.032099828,0.7816764,0.59421307,-0.18945411,0.013714999,0.28731552,0.9577377,0.6235335,-0.7512394,0.21643797,,0.06750631,-0.021486282,-0.00021719933,-0.41477647,0.17132041,0.8936497,0.22276387,-0.9331105,0.28227848,0.88223386,0.3161555,0.34886822,,0.10635878,1.3404375,0.44018373,0.99566346,0.012083302,-0.092240065,-0.051468555,-0.75440294,-0.6543907,-0.07749338,0.65630037,-0.75050956,,-0.08149004,0.27169055,-0.08774752,-0.8374711,-0.5107344,0.19440293,0.38794556,-0.30508217,0.8697259,-0.38489005,0.80378807,0.45363465,,-0.030503696,0.3804205,-0.34652513,0.3118355,-0.13493368,-0.940506,0.9105577,-0.24027951,0.3363785,-0.2713731,-0.9612797,0.047937218,,1.2195121936345408,0.3802673667268149,0.20387530604,3.77588681232583,-0.5798853050045292,-1.2024550557354596,-0.41244376698905527,,-0.8656488506046995,-0.3013873731494857,0.22819111386000002,-2.8406696643848517,-1.1719312584881827,1.0899928875354312,0.7989158274627597,,-0.04931645967666478,-0.06459245395474515,0.08431779928,-0.06509005378220696,,2.991408e-06,-3.0994415e-06,1.3113022e-06,1.0,-2.3022294e-05,-2.013892e-05,2.3018569e-05,0.99999994,-2.3543835e-06,2.0131469e-05,2.3543835e-06,1.0,279,0.848,0,0,0.0,False,-0.2618441003348577,0.9734253909303006
0.8742552869953215,14:00:21.911301,14:00:11.653134,0,,0.11297311,0.0042764843,0.032795385,0.7543494,0.6262244,-0.19697727,0.0045967996,0.2950077,0.9554837,0.65645707,-0.7216741,0.21966013,,0.06750675,-0.02150242,-0.0002207756,-0.41484112,0.17158891,0.89356816,0.22285417,-0.9329859,0.28261876,0.88218063,0.3163774,0.34880155,,0.10635878,1.3404375,0.44018373,0.99566346,0.012083302,-0.092240065,-0.051468555,-0.75440294,-0.6543907,-0.07749338,0.65630037,-0.75050956,,-0.08139024,0.27219138,-0.0882504,-0.81371206,-0.54521984,0.20151435,0.40397844,-0.2811853,0.8704805,-0.41794035,0.78972787,0.44906092,,-0.03050265,0.38040897,-0.34653693,0.31189844,-0.13523026,-0.9404425,0.9105675,-0.24005876,0.33650944,-0.2712677,-0.96129316,0.048262335,,1.2218830726269276,0.3798735073502294,0.20350456710000003,3.750514329164203,-0.620739618434396,-1.1949515844146472,-0.41113701445998085,,-0.8656411278718253,-0.301464600478228,0.22819111386000002,-2.840879354328336,-1.1719312584881827,1.0898295300551502,0.7985891393304911,,-0.04931645967666478,-0.06459245395474515,0.08431779928,-0.06509005378220696,,2.991408e-06,-3.0994415e-06,1.3113022e-06,1.0,-2.3022294e-05,-2.013892e-05,2.3018569e-05,0.99999994,-2.3543835e-06,2.0131469e-05,2.3543835e-06,1.0,287,0.873,0,0,0.0,False,-0.26255903295711036,0.9735219513318596
0.8977871090173721,14:00:21.931537,14:00:11.653134,0,,0.11282042,0.0042932034,0.033268288,0.73542815,0.6468874,-0.20169818,-0.002033949,0.2997704,0.95400906,0.67759967,-0.70119494,0.22177523,,0.06751009,-0.021518648,-0.00022274256,-0.41484022,0.1716228,0.893562,0.22292861,-0.9329486,0.28268322,0.88216233,0.31646907,0.34876487,,0.10635878,1.3404375,0.44018373,0.99566346,0.012083302,-0.092240065,-0.051468555,-0.75440294,-0.6543907,-0.07749338,0.65630037,-0.75050956,,-0.08128346,0.27252227,-0.08860585,-0.7971106,-0.56762016,0.2059662,0.4137511,-0.2649923,0.8709702,-0.43980077,0.7794783,0.4460816,,-0.030504636,0.38039842,-0.34654972,0.31189406,-0.13527529,-0.9404375,0.91059077,-0.23996584,0.33651283,-0.27119476,-0.96131,0.048336502,,1.2235897965921314,0.3794564797750213,0.20325049426000003,3.733319753798472,-0.6482035548872495,-1.1892190487603411,-0.4121170788567865,,-0.8656411278718253,-0.3015418278069702,0.22819111386000002,-2.840879354328336,-1.1719312584881827,1.0897478513150096,0.7987524833966255,,-0.04931645967666478,-0.06459245395474515,0.08431779928,-0.06509005378220696,,2.991408e-06,-3.0994415e-06,1.3113022e-06,1.0,-2.3022294e-05,-2.013892e-05,2.3018569e-05,0.99999994,-2.3543835e-06,2.0131469e-05,2.3543835e-06,1.0,295,0.897,0,0,0.0,False,-0.26178452261633733,0.9741013137412129
0.9180539580411278,14:00:21.961084,14:00:11.653134,0,,0.11249103,0.0043164194,0.033897653,0.71028477,0.67217726,-0.20898162,-0.0062353313,0.30288142,0.9530077,0.70388687,-0.6756039,0.21932325,,0.06751748,-0.021539778,-0.00022357702,-0.4145443,0.17110282,0.893799,0.222961,-0.93313473,0.2820424,0.8822931,0.31620157,0.3486764,,0.10635878,1.3404375,0.44018373,0.99566346,0.012083302,-0.092240065,-0.051468555,-0.75440294,-0.6543907,-0.07749338,0.65630037,-0.75050956,,-0.081015766,0.27296874,-0.08908972,-0.77474666,-0.595163,0.2134213,0.42900562,-0.24686682,0.86891365,-0.4644586,0.7647469,0.4465875,,-0.030510414,0.38038582,-0.3465673,0.3115855,-0.13472034,-0.9406194,0.9106832,-0.2402275,0.33607557,-0.27123886,-0.9613226,0.04783616,,1.226192357570745,0.37862242462460505,0.20290049596,3.7056406812585143,-0.6808596783311898,-1.1749236595381214,-0.4152206161133376,,-0.8656256824060768,-0.3016345006014609,0.22819111386000002,-2.840040594554398,-1.1719312584881827,1.0895844938347283,0.7990791715288941,,-0.04931645967666478,-0.06459245395474515,0.08431779928,-0.06509005378220696,,2.991408e-06,-3.0994415e-06,1.3113022e-06,1.0,-2.3022294e-05,-2.013892e-05,2.3018569e-05,0.99999994,-2.3543835e-06,2.0131469e-05,2.3543835e-06,1.0,310,0.943,1,1,0.0,False,-0.26273776611267374,0.9735219513318596
0.9475934630027041,14:00:21.999113,14:00:11.653134,0,,0.11216442,0.004327774,0.034498587,0.6808782,0.7010334,-0.2120308,-0.015961826,0.30363756,0.95265377,0.7322227,-0.64525694,0.21792987,,0.06752262,-0.021557078,-0.00022178888,-0.4144015,0.17089555,0.8939049,0.22300585,-0.93320024,0.28179026,0.88234895,0.31612045,0.3486088,,0.10635878,1.3404375,0.44018373,0.99566346,0.012083302,-0.092240065,-0.051468555,-0.75440294,-0.6543907,-0.07749338,0.65630037,-0.75050956,,-0.08074845,0.27338746,-0.08955996,-0.74849313,-0.62677854,0.21657954,0.44164607,-0.22752592,0.86785984,-0.49467844,0.74523866,0.44711587,,-0.030514486,0.38037774,-0.34658304,0.31143516,-0.13450217,-0.9407004,0.91073686,-0.24030568,0.33587432,-0.27123147,-0.96133363,0.047656447,,1.228771750350736,0.37748718289209404,0.20261660845,3.6781712986620416,-0.720347626763402,-1.1579978097761408,-0.4121170788567865,,-0.8656256824060768,-0.3017117279302031,0.22818852128000003,-2.839621214667429,-1.1719312584881827,1.0894211363544473,0.7990791715288941,,-0.04931645967666478,-0.06459245395474515,0.08431779928,-0.06509005378220696,,2.991408e-06,-3.0994415e-06,1.3113022e-06,1.0,-2.3022294e-05,-2.013892e-05,2.3018569e-05,0.99999994,-2.3543835e-06,2.0131469e-05,2.3543835e-06,1.0,331,1.008,0,1,0.015,False,-0.26243987752006825,0.9737150721349774
0.9856327240122482,14:00:22.065143,14:00:11.852160,0,,0.11114457,0.0043305904,0.035856023,0.60257846,0.7617923,-0.23784813,-0.033730507,0.32207763,0.94611204,0.7973466,-0.5620841,0.21977255,,0.06756495,-0.021570131,-0.00020879507,-0.4123688,0.16756378,0.8954743,0.22328372,-0.9343697,0.27766487,0.88323057,0.31444538,0.34789056,,0.10635878,1.3404375,0.44018373,0.99566346,0.012083302,-0.092240065,-0.051468555,-0.75440294,-0.6543907,-0.07749338,0.65630037,-0.75050956,,-0.07986456,0.27432823,-0.09066292,-0.6773658,-0.69473535,0.2419058,0.47459823,-0.16144691,0.86526954,-0.5620784,0.70091206,0.43907878,,-0.03055683,0.38037685,-0.34660134,0.309313,-0.1309517,-0.9419008,0.9113863,-0.24193716,0.3329286,-0.27147838,-0.96141464,0.044513278,,1.2348881547871218,0.37371076651659824,0.20203068537000002,3.5945050112117167,-0.8131238101041361,-1.1212241334731783,-0.4127704551213236,,-0.8656179596732027,-0.3017271733959516,0.22818981757000004,-2.834169276136831,-1.1712480759893555,1.0882922956549812,0.7987524833966255,,-0.04931645967666478,-0.06459245395474515,0.08431779928,-0.06509005378220696,,2.991408e-06,-3.0994415e-06,1.3113022e-06,1.0,-2.3022294e-05,-2.013892e-05,2.3018569e-05,0.99999994,-2.3543835e-06,2.0131469e-05,2.3543835e-06,1.0,339,1.032,0,1,0.015,False,-0.2626781883941529,0.9730391493240649
1.0516626460012048,14:00:22.090711,14:00:11.852160,0,,0.11080313,0.004277587,0.036147013,0.58405995,0.775145,-0.2408823,-0.038833797,0.32310283,0.94556665,0.8107811,-0.5429133,0.21881312,,0.06755655,-0.021570697,-0.00021380186,-0.41241255,0.16781728,0.8954067,0.22330448,-0.9342788,0.2779538,0.8832048,0.3145801,0.34783387,,0.10635878,1.3404375,0.44018373,0.99566346,0.012083302,-0.092240065,-0.051468555,-0.75440294,-0.6543907,-0.07749338,0.65630037,-0.75050956,,-0.07955439,0.27449492,-0.09094587,-0.66037905,-0.70984054,0.24500193,0.4804181,-0.14860913,0.8643575,-0.5771465,0.6885069,0.4391586,,-0.030547986,0.3803734,-0.34659913,0.30935746,-0.13122267,-0.9418485,0.9113806,-0.24180587,0.33303955,-0.27144682,-0.9614107,0.044789333,,1.2365330968893316,0.3723052291334894,0.20189846379,3.5745844665806867,-0.8348490135668412,-1.1084910899340215,-0.41326048731972653,,-0.8655793460088315,-0.3017271733959516,0.22818981757000004,-2.834378966080316,-1.1712480759893555,1.0882106169148407,0.7987524833966255,,-0.04931645967666478,-0.06459245395474515,0.08431779928,-0.06509005378220696,,2.991408e-06,-3.0994415e-06,1.3113022e-06,1.0,-2.3022294e-05,-2.013892e-05,2.3018569e-05,0.99999994,-2.3543835e-06,2.0131469e-05,2.3543835e-06,1.0,352,1.073,0,1,0.015,False,-0.2631548101423209,0.9736667919341979
1.0772247530403547,14:00:22.129322,14:00:11.852160,0,,0.11003856,0.0042435527,0.036693588,0.5441613,0.7999461,-0.25293198,-0.043289542,0.32784495,0.9437392,0.83786297,-0.50259715,0.21302977,,0.06756475,-0.02157545,-0.00020998716,-0.41186762,0.1668438,0.8958394,0.2233374,-0.93462855,0.27674878,0.88345087,0.31405842,0.34768072,,0.10635878,1.3404375,0.44018373,0.99566346,0.012083302,-0.092240065,-0.051468555,-0.75440294,-0.6543907,-0.07749338,0.65630037,-0.75050956,,-0.078847356,0.27486247,-0.09144534,-0.6234182,-0.73827153,0.2574973,0.49663734,-0.11952966,0.85968834,-0.60390484,0.66382813,0.4411702,,-0.030556144,0.3803731,-0.34660524,0.30879053,-0.13018164,-0.94217896,0.9115411,-0.24231406,0.33222997,-0.27155343,-0.9614243,0.043841623,,1.2397534764978833,0.3694400952371521,0.20169235368000002,3.5230007404834933,-0.875156780997646,-1.0764395957449828,-0.41326048731972653,,-0.8655639005430831,-0.3017348961288258,0.22818852128000003,-2.832911136475924,-1.17111143948959,1.0880175202710038,0.7985891393304911,,-0.04931645967666478,-0.06459245395474515,0.08431779928,-0.06509005378220696,,2.991408e-06,-3.0994415e-06,1.3113022e-06,1.0,-2.3022294e-05,-2.013892e-05,2.3018569e-05,0.99999994,-2.3543835e-06,2.0131469e-05,2.3543835e-06,1.0,360,1.098,0,1,0.015,False,-0.26202283349042155,0.9731357097256239
1.1158358600223437,14:00:22.157059,14:00:11.852160,0,,0.1094577,0.0042201728,0.03704469,0.51337105,0.817248,-0.26183197,-0.048264414,0.33211917,0.9420017,0.8568084,-0.47095928,0.20994428,,0.067606755,-0.021594584,-0.00019961596,-0.40978765,0.1636578,0.8973796,0.22402956,-0.93558586,0.27292854,0.8842424,0.31288248,0.34672728,,0.10635878,1.3404375,0.44018373,0.99566346,0.012083302,-0.092240065,-0.051468555,-0.75440294,-0.6543907,-0.07749338,0.65630037,-0.75050956,,-0.07830393,0.27510127,-0.0917753,-0.5947495,-0.7584173,0.26660126,0.5067124,-0.096202195,0.8567308,-0.62411183,0.6446304,0.44151565,,-0.030597508,0.38036692,-0.34662738,0.30660102,-0.1268385,-0.94334924,0.91232514,-0.24343035,0.32924834,-0.2714012,-0.96158916,0.04108197,,1.2419544553670372,0.36717733450500434,0.20160031709,3.483159651221434,-0.9057633569451047,-1.0516453427972656,-0.41358717545199486,,-0.8655561778102088,-0.30177350979319695,0.22818722499000002,-2.827668887888811,-1.1700183474914667,1.0867177833407295,0.798425795264357,,-0.04931645967666478,-0.06459245395474515,0.08431779928,-0.06509005378220696,,2.991408e-06,-3.0994415e-06,1.3113022e-06,1.0,-2.3022294e-05,-2.013892e-05,2.3018569e-05,0.99999994,-2.3543835e-06,2.0131469e-05,2.3543835e-06,1.0,373,1.139,1,2,0.025,False,-0.26232072208302704,0.9733288305287418
1.143562106997706,14:00:22.196559,14:00:11.978479,0,,0.10863599,0.004201561,0.037442163,0.47101492,0.8375297,-0.27692768,-0.055835515,0.34160924,0.9381819,0.88035643,-0.42643535,0.20766678,,0.067593895,-0.02162157,-0.00021034479,-0.40995067,0.16440246,0.89716905,0.22420602,-0.9352789,0.2738342,0.88412213,0.3134094,0.34655815,,0.10635878,1.3404375,0.44018373,0.99566346,0.012083302,-0.092240065,-0.051468555,-0.75440294,-0.6543907,-0.07749338,0.65630037,-0.75050956,,-0.07752523,0.27538458,-0.09215861,-0.55508983,-0.7826248,0.28173354,0.51836836,-0.06059097,0.85300815,-0.65051484,0.6195379,0.43932137,,-0.03058182,0.38034526,-0.34664452,0.306762,-0.12764984,-0.9431875,0.9123349,-0.24291311,0.3296031,-0.27118638,-0.9616126,0.04194289,,1.2447114710031353,0.3639801230950754,0.20155494694,3.4261239865936433,-0.9463443973754405,-1.0187175828797095,-0.4139138635842634,,-0.8654866732143408,-0.30189707351918454,0.22818463241000003,-2.828297957719265,-1.1700183474914667,1.0863910683801674,0.798425795264357,,-0.04931645967666478,-0.06459245395474515,0.08431779928,-0.06509005378220696,,2.991408e-06,-3.0994415e-06,1.3113022e-06,1.0,-2.3022294e-05,-2.013892e-05,2.3018569e-05,0.99999994,-2.3543835e-06,2.0131469e-05,2.3543835e-06,1.0,381,1.164,1,2,0.05,False,-0.2618441003348577,0.9741495939419924
1.1830584010458551,14:00:22.224505,14:00:11.978479,0,,0.10805695,0.0041840672,0.03770329,0.4393832,0.8517,-0.2855689,-0.06350604,0.34655508,0.9358773,0.8960521,-0.3930735,0.20635843,,0.06759277,-0.021646261,-0.00021547079,-0.40977418,0.16427979,0.8972721,0.2242851,-0.9353073,0.2736721,0.8841838,0.31338865,0.34641925,,0.10635878,1.3404375,0.44018373,0.99566346,0.012083302,-0.092240065,-0.051468555,-0.75440294,-0.6543907,-0.07749338,0.65630037,-0.75050956,,-0.07697478,0.27556837,-0.09241744,-0.525346,-0.79980224,0.29039282,0.52431333,-0.03548863,0.85078555,-0.6701546,0.5992136,0.43799078,,-0.030578485,0.38032824,-0.34666285,0.3065753,-0.12752406,-0.9432652,0.9124075,-0.24293092,0.32938898,-0.2711533,-0.96162474,0.041877292,,1.2464027495025904,0.3616787486985565,0.20155624323000002,3.3833472381228002,-0.976541063823603,-0.9911537915177401,-0.4135871754519953,,-0.8654403368170954,-0.3020051917794237,0.22818333612000002,-2.8278785778322955,-1.1700183474914667,1.0861460321597458,0.7989158274627598,,-0.04931645967666478,-0.06459245395474515,0.08431779928,-0.06509005378220696,,2.991408e-06,-3.0994415e-06,1.3113022e-06,1.0,-2.3022294e-05,-2.013892e-05,2.3018569e-05,0.99999994,-2.3543835e-06,2.0131469e-05,2.3543835e-06,1.0,394,1.204,1,2,0.09,False,-0.2607121236829584,0.9747289563513459
1.2110219910391606,14:00:22.261509,14:00:11.978479,0,,0.10743053,0.004202217,0.03792341,0.40717024,0.86346316,-0.2977311,-0.0656459,0.35279948,0.93339324,0.9109901,-0.36050522,0.20033216,,0.06758991,-0.02172184,-0.00023192167,-0.4095139,0.16420013,0.89740556,0.22472663,-0.9352032,0.27366576,0.88419235,0.31374097,0.34607852,,0.10635878,1.3404375,0.44018373,0.99566346,0.012083302,-0.092240065,-0.051468555,-0.75440294,-0.6543907,-0.07749338,0.65630037,-0.75050956,,-0.07637225,0.27575395,-0.092626475,-0.49479613,-0.81447196,0.30300525,0.5339351,-0.009831744,0.8454683,-0.68563116,0.5801196,0.43973988,,-0.030568777,0.38027522,-0.34671837,0.30628508,-0.12748596,-0.9433646,0.9126144,-0.24256957,0.32908207,-0.27078488,-0.961721,0.042050082,,1.2478082868856994,0.35944687889790555,0.20157828016,3.331134442195154,-1.0012722702811476,-0.9565300139438083,-0.4134238313858607,,-0.8653322185568563,-0.30234499202588955,0.22817944725000003,-2.8274591979453265,-1.169881710991701,1.085707899295487,0.7995692037272969,,-0.04931645967666478,-0.06459245395474515,0.08431779928,-0.06509005378220696,,2.991408e-06,-3.0994415e-06,1.3113022e-06,1.0,-2.3022294e-05,-2.013892e-05,2.3018569e-05,0.99999994,-2.3543835e-06,2.0131469e-05,2.3543835e-06,1.0,407,1.245,1,2,0.131,False,-0.2616653671792948,0.9749220771544638
1.2480183740262873,14:00:22.302591,14:00:11.978479,0,,0.10646601,0.0042073876,0.038244322,0.35183376,0.88114804,-0.3158974,-0.075531065,0.36309832,0.92868423,0.9330102,-0.3028825,0.19430423,,0.067592315,-0.021819562,-0.00024491549,-0.40910792,0.16328016,0.8977585,0.2249571,-0.93544525,0.2726473,0.88432163,0.31349945,0.34596696,,0.10635878,1.3404375,0.44018373,0.99566346,0.012083302,-0.092240065,-0.051468555,-0.75440294,-0.6543907,-0.07749338,0.65630037,-0.75050956,,-0.075443394,0.27601072,-0.092949964,-0.44213906,-0.8373362,0.32152936,0.5434024,0.035134178,0.83873683,-0.71360135,0.54555815,0.43947625,,-0.030563066,0.38021293,-0.34679464,0.30585346,-0.1265324,-0.943633,0.9127959,-0.24279115,0.32841447,-0.27066082,-0.96179104,0.041239765,,1.2493373879947958,0.35593303544013344,0.20166902046000001,3.2422259061577154,-1.0449959502060886,-0.8961276264983632,-0.4122804229229211,,-0.8652163775637429,-0.30278518779972036,0.22817296580000002,-2.8264107482279037,-1.1700183474914667,1.085737638459043,0.7997325477934312,,-0.04931645967666478,-0.06459245395474515,0.08431779928,-0.06509005378220696,,2.991408e-06,-3.0994415e-06,1.3113022e-06,1.0,-2.3022294e-05,-2.013892e-05,2.3018569e-05,0.99999994,-2.3543835e-06,2.0131469e-05,2.3543835e-06,1.0,420,1.286,1,2,0.172,False,-0.26136747858668974,0.9744392751466691
1.2891088600154035,14:00:22.342382,14:00:12.123666,0,,0.10586733,0.0042086095,0.038343623,0.32033288,0.8900149,-0.3244386,-0.07885966,0.36635092,0.9271289,0.94401693,-0.2714048,0.18754044,,0.06759082,-0.021920547,-0.00026071072,-0.40880138,0.16264929,0.89801264,0.22536565,-0.9355247,0.27203652,0.88435936,0.31359026,0.34578815,,0.10635878,1.3404375,0.44018373,0.99566346,0.012083302,-0.092240065,-0.051468555,-0.75440294,-0.6543907,-0.07749338,0.65630037,-0.75050956,,-0.07485729,0.27610272,-0.093077555,-0.4119518,-0.84910274,0.33063617,0.5495094,0.05795027,0.83347535,-0.72686666,0.5250394,0.4427172,,-0.030552993,0.38014707,-0.34687215,0.3055168,-0.1259091,-0.9438254,0.9130048,-0.24268134,0.32791457,-0.27033624,-0.96190053,0.040812396,,1.24989342476174,0.35385562029696704,0.20176883479000002,3.1851902415299245,-1.0660379711699663,-0.8526687150038533,-0.4139138635842634,,-0.8650928138377554,-0.3032408290392996,0.22816518806000002,-2.8257816783974503,-1.1700183474914667,1.085737638459043,0.7997325477934312,,-0.04931645967666478,-0.06459245395474515,0.08431779928,-0.06509005378220696,,2.991408e-06,-3.0994415e-06,1.3113022e-06,1.0,-2.3022294e-05,-2.013892e-05,2.3018569e-05,0.99999994,-2.3543835e-06,2.0131469e-05,2.3543835e-06,1.0,429,1.315,1,2,0.201,False,-0.26202283349042155,0.9738599127373155
1.3288894229917787,14:00:22.375562,14:00:12.123666,0,,0.10499346,0.004273802,0.0383894,0.27730083,0.90168875,-0.3317554,-0.07359168,0.36421606,0.9284022,0.9579606,-0.23303238,0.16735408,,0.067580834,-0.021989763,-0.00027543306,-0.40859994,0.16227777,0.8981714,0.22551945,-0.9356043,0.27163523,0.88441336,0.3135454,0.345691,,0.10635878,1.3404375,0.44018373,0.99566346,0.012083302,-0.092240065,-0.051468555,-0.75440294,-0.6543907,-0.07749338,0.65630037,-0.75050956,,-0.07399042,0.27621925,-0.093148015,-0.37033454,-0.86447763,0.33989817,0.5644993,0.08114805,0.82143503,-0.73769426,0.49607807,0.4579451,,-0.030536817,0.38009965,-0.34692314,0.30530086,-0.12553035,-0.9439457,0.9131068,-0.24271679,0.32760423,-0.27023575,-0.9619411,0.040520966,,1.2502100568095833,0.35146157310595744,0.20192957475,3.0937654261706724,-1.0828442606411155,-0.7732129270360407,-0.41505727204720344,,-0.8649615273788935,-0.3035497383542686,0.22816000290000002,-2.825362298510481,-1.170154983991232,1.0857673776225987,0.7998958918595656,,-0.04931645967666478,-0.06459245395474515,0.08431779928,-0.06509005378220696,,2.991408e-06,-3.0994415e-06,1.3113022e-06,1.0,-2.3022294e-05,-2.013892e-05,2.3018569e-05,0.99999994,-2.3543835e-06,2.0131469e-05,2.3543835e-06,1.0,442,1.356,1,2,0.242,False,-0.26106958999408425,0.9742944345443307
1.3620757500175387,14:00:22.413459,14:00:12.123666,0,,0.10403605,0.004296869,0.03829871,0.23455437,0.91352594,-0.33234704,-0.06285468,0.35542122,0.93259037,0.9700689,-0.19785362,0.14078489,,0.06755287,-0.022059321,-0.0002914071,-0.4082676,0.1615864,0.89844716,0.22565441,-0.93580073,0.27084517,0.88453233,0.31331602,0.3455944,,0.10635878,1.3404375,0.44018373,0.99566346,0.012083302,-0.092240065,-0.051468555,-0.75440294,-0.6543907,-0.07749338,0.65630037,-0.75050956,,-0.07302845,0.27621776,-0.09315211,-0.3286715,-0.87989324,0.34316602,0.5823721,0.09723394,0.8070863,-0.74351716,0.46511656,0.48046726,,-0.030502647,0.3800532,-0.3469736,0.30495003,-0.12480813,-0.94415486,0.9132385,-0.24293141,0.32707763,-0.2701868,-0.9619809,0.03989765,,1.2502641159397028,0.3489902985862056,0.20212272196000003,2.995630532619915,-1.0907691776275112,-0.6795177941515278,-0.41440389578266656,,-0.8647452908584152,-0.3038432022034891,0.22814704000000002,-2.8247332286800275,-1.1702916204909974,1.0860421530065762,0.7995692037272969,,-0.04931645967666478,-0.06459245395474515,0.08431779928,-0.06509005378220696,,2.991408e-06,-3.0994415e-06,1.3113022e-06,1.0,-2.3022294e-05,-2.013892e-05,2.3018569e-05,0.99999994,-2.3543835e-06,2.0131469e-05,2.3543835e-06,1.0,451,1.385,1,2,0.271,False,-0.2621419889274632,0.973811632536536
1.3999826340004802,14:00:22.446511,14:00:12.123666,0,,0.10338115,0.0042920858,0.03819017,0.20588064,0.9196986,-0.33431664,-0.05857715,0.35260522,0.93393683,0.9768224,-0.17269626,0.12646782,,0.06749505,-0.022123232,-0.0003091693,-0.40773436,0.16096628,0.8988006,0.2258702,-0.9359678,0.27008694,0.8847232,0.31313616,0.3452687,,0.10635878,1.3404375,0.44018373,0.99566346,0.012083302,-0.092240065,-0.051468555,-0.75440294,-0.6543907,-0.07749338,0.65630037,-0.75050956,,-0.072366536,0.27617064,-0.09313384,-0.30067432,-0.8885394,0.34654394,0.5912633,0.111442894,0.79874164,-0.7483333,0.4450598,0.4918527,,-0.030439045,0.38001165,-0.34701803,0.30438715,-0.12416347,-0.94442147,0.91344935,-0.24309723,0.32636493,-0.27010885,-0.9620224,0.039421365,,1.2502872841383255,0.34732991101824734,0.20228994337000003,2.930836340083197,-1.0966445471174249,-0.6204921408392484,-0.41571064831174076,,-0.8643977678790752,-0.3040826069225901,0.22812111420000003,-2.823894468906089,-1.1702916204909974,1.0861238317467166,0.7994058596611626,,-0.04931645967666478,-0.06459245395474515,0.08431779928,-0.06509005378220696,,2.991408e-06,-3.0994415e-06,1.3113022e-06,1.0,-2.3022294e-05,-2.013892e-05,2.3018569e-05,0.99999994,-2.3543835e-06,2.0131469e-05,2.3543835e-06,1.0,464,1.426,1,2,0.312,False,-0.2618441003348577,0.9721701057100345
1.4330096250050701,14:00:22.485823,14:00:12.273139,0,,0.102434084,0.004300058,0.037982896,0.164583,0.92459786,-0.34355676,-0.05551836,0.35643795,0.932668,0.9847995,-0.13442767,0.10999572,,0.06744353,-0.02215898,-0.00033187866,-0.40760732,0.16107619,0.89883846,0.22605245,-0.93588376,0.27022567,0.8847352,0.31333074,0.34506136,,0.10635878,1.3404375,0.44018373,0.99566346,0.012083302,-0.092240065,-0.051468555,-0.75440294,-0.6543907,-0.07749338,0.65630037,-0.75050956,,-0.07140405,0.27608052,-0.093060024,-0.2602691,-0.89699703,0.3572903,0.60058683,0.1393417,0.7873242,-0.75601286,0.41950002,0.5024583,,-0.030383218,0.3799799,-0.34703597,0.30424708,-0.12429712,-0.944449,0.9135396,-0.24290197,0.3262577,-0.26996142,-0.9620545,0.03964812,,1.2503336205355708,0.34520615947783556,0.2025842012,2.8375243152325837,-1.1048427371033516,-0.5434816713564389,-0.4158739923778749,,-0.8641197494956031,-0.3042138933814519,0.22810815130000003,-2.824104158849574,-1.1702916204909974,1.0862871892269979,0.7980991071320884,,-0.04931645967666478,-0.06459245395474515,0.08431779928,-0.06509005378220696,,2.991408e-06,-3.0994415e-06,1.3113022e-06,1.0,-2.3022294e-05,-2.013892e-05,2.3018569e-05,0.99999994,-2.3543835e-06,2.0131469e-05,2.3543835e-06,1.0,473,1.454,1,2,0.34,False,-0.261427056305211,0.9722666661115937
1.4723469750024378,14:00:22.513654,14:00:12.273139,0,,0.10171193,0.0043097883,0.037754193,0.13619298,0.9295,-0.3427556,-0.04964763,0.3519483,0.9347017,0.98943746,-0.11028284,0.09408027,,0.06737596,-0.022215664,-0.00035268068,-0.40724745,0.16072536,0.8990644,0.22623737,-0.93596196,0.26979983,0.88485366,0.3132774,0.34480602,,0.10635878,1.3404375,0.44018373,0.99566346,0.012083302,-0.092240065,-0.051468555,-0.75440294,-0.6543907,-0.07749338,0.65630037,-0.75050956,,-0.070663214,0.27596793,-0.092948645,-0.23230562,-0.90432817,0.3580848,0.6092669,0.15168113,0.778323,-0.75817406,0.39897802,0.5157408,,-0.03031016,0.37994072,-0.34707257,0.30386546,-0.123938166,-0.94461906,0.9136936,-0.24294636,0.325793,-0.26986995,-0.9620896,0.0394185,,1.2505189661245522,0.3438083448276009,0.20282660743000003,2.770842913204505,-1.1045694641038206,-0.4803218048147555,-0.4152206161133378,,-0.863911235707999,-0.30432973437456523,0.22809778098000003,-2.823684778962605,-1.1702916204909974,1.0862871892269979,0.7980991071320884,,-0.04931645967666478,-0.06459245395474515,0.08431779928,-0.06509005378220696,,2.991408e-06,-3.0994415e-06,1.3113022e-06,1.0,-2.3022294e-05,-2.013892e-05,2.3018569e-05,0.99999994,-2.3543835e-06,2.0131469e-05,2.3543835e-06,1.0,486,1.495,1,2,0.381,False,-0.26178452261633733,0.97168730370224
1.5001727460185066,14:00:22.553841,14:00:12.273139,0,,0.10079815,0.004347652,0.03733395,0.10224139,0.93753046,-0.33254093,-0.03833288,0.33775762,0.9404521,0.9940208,-0.08340594,0.07047093,,0.06736653,-0.022241876,-0.00034838915,-0.40697896,0.16076131,0.8991795,0.22627129,-0.9359676,0.26975155,0.88496846,0.31324184,0.34454343,,0.106346555,1.3404378,0.44018942,0.9956665,0.012128051,-0.09220125,-0.051409494,-0.7544022,-0.6543962,-0.07749338,0.65630037,-0.75050956,,-0.06970851,0.2757524,-0.09269152,-0.19864942,-0.915328,0.35030413,0.6222301,0.15836361,0.766649,-0.75721073,0.37026414,0.5380858,,-0.030290142,0.37992868,-0.34709328,0.30355534,-0.12392182,-0.94472086,0.9137913,-0.2429847,0.32549018,-0.26988804,-0.962082,0.039479375,,1.2509977755627542,0.3420861753966489,0.20320642040000003,2.690951044736901,-1.0976010026157832,-0.3948506439064057,-0.41587399237787515,,-0.8637953947148856,-0.30442240716905594,0.22808481808000003,-2.8230557091321513,-1.1702916204909974,1.0857971167861544,0.7974457308675513,,-0.04931645967666478,-0.06459245395474515,0.08431779928,-0.06509005378220696,,-9.637326e-06,2.3841858e-07,-1.9073486e-06,1.0,2.1494925e-05,1.8797815e-05,-2.1502376e-05,0.99999994,2.2351742e-06,-1.880154e-05,-2.2351742e-06,1.0,495,1.524,1,2,0.41,False,-0.2622611443645053,0.9714459026983429
1.5402766350307502,14:00:22.579074,14:00:12.273139,0,,0.100375324,0.0043786913,0.03708087,0.08848032,0.94066894,-0.32758713,-0.030884743,0.33130968,0.94301635,0.99559903,-0.073321015,0.058366537,,0.06737559,-0.022249356,-0.00034213066,-0.4067428,0.1599794,0.8994258,0.22610374,-0.936286,0.26878545,0.88511986,0.3126902,0.34465566,,0.106346555,1.3404378,0.44018942,0.9956665,0.012128051,-0.09220125,-0.051409494,-0.7544022,-0.6543962,-0.07749338,0.65630037,-0.75050956,,-0.069262534,0.27562693,-0.0925207,-0.18490227,-0.91960305,0.34661412,0.6294512,0.16003834,0.76038074,-0.75472003,0.3587728,0.5492538,,-0.030299207,0.37992898,-0.347103,0.30331814,-0.12307031,-0.9449084,0.9138038,-0.24352437,0.32505152,-0.2701124,-0.96205485,0.038596753,,1.2514456940694592,0.3412443975133584,0.20342678970000003,2.656981273892408,-1.0909058141272765,-0.3575921400940163,-0.4153839601794722,,-0.863810840180634,-0.3044532981005528,0.22808352179000002,-2.822216949358213,-1.170428256990763,1.0859902134299915,0.797282386801417,,-0.04931645967666478,-0.06459245395474515,0.08431779928,-0.06509005378220696,,-9.637326e-06,2.3841858e-07,-1.9073486e-06,1.0,2.1494925e-05,1.8797815e-05,-2.1502376e-05,0.99999994,2.2351742e-06,-1.880154e-05,-2.2351742e-06,1.0,508,1.565,1,2,0.451,False,-0.26136747858668974,0.9697560956710616
1.5655690190033056,14:00:22.625810,14:00:12.273139,0,,0.09924137,0.0044717044,0.036408767,0.05552943,0.9486212,-0.3115036,-0.019836426,0.31297147,0.94955534,0.99826,-0.046549186,0.03619623,,0.06738244,-0.02225165,-0.00033420324,-0.40685204,0.16083218,0.8992243,0.22612709,-0.93601084,0.2697224,0.88506365,0.3130762,0.3444494,,0.106346555,1.3404378,0.44018942,0.9956665,0.012128051,-0.09220125,-0.051409494,-0.7544022,-0.6543962,-0.07749338,0.65630037,-0.75050956,,-0.06806691,0.27530223,-0.0920611,-0.15206617,-0.93060845,0.33293217,0.640911,0.1635837,0.74998236,-0.7524021,0.32742682,0.57156163,,-0.030306613,0.37993369,-0.3471092,0.30343032,-0.123973295,-0.9447543,0.91378146,-0.24315558,0.32539022,-0.27006197,-0.9620322,0.03950373,,1.253059745240172,0.33902025044558176,0.20402956455000001,2.5827510338988864,-1.0809313496443995,-0.27302027700431686,-0.41587399237787503,,-0.8638648993107536,-0.30446874356630127,0.22807963292000002,-2.822426639301698,-1.170428256990763,1.085173426028586,0.7953222580078056,,-0.04931645967666478,-0.06459245395474515,0.08431779928,-0.06509005378220696,,-9.637326e-06,2.3841858e-07,-1.9073486e-06,1.0,2.1494925e-05,1.8797815e-05,-2.1502376e-05,0.99999994,2.2351742e-06,-1.880154e-05,-2.2351742e-06,1.0,517,1.594,1,2,0.48,False,-0.26148663402373185,0.9702871778796358
1.6122933230362833,14:00:22.653991,14:00:12.273139,0,,0.09884167,0.0044964105,0.036095574,0.046239384,0.9527381,-0.30025336,-0.011550218,0.30106464,0.95353365,0.9988637,-0.040622875,0.024925232,,0.067384645,-0.022253826,-0.00032430887,-0.4066441,0.16035315,0.89940387,0.22607727,-0.93619406,0.26912788,0.885172,0.31277415,0.34444556,,0.106346555,1.3404378,0.44018942,0.9956665,0.012128051,-0.09220125,-0.051409494,-0.7544022,-0.6543962,-0.07749338,0.65630037,-0.75050956,,-0.06763834,0.2751314,-0.09184754,-0.14265008,-0.93560827,0.32293665,0.647927,0.15837699,0.74505526,-0.7482256,0.31552157,0.58361334,,-0.030309597,0.37994066,-0.34711626,0.303217,-0.1234559,-0.9448905,0.91382235,-0.24344966,0.3250554,-0.27016327,-0.9620244,0.038998686,,1.2538011275960976,0.33803946337055524,0.20427197078000003,2.561782039550434,-1.0725965231587076,-0.2418361549644371,-0.416037336444009,,-0.8638726220436279,-0.30446874356630127,0.22807185518000003,-2.821797569471244,-1.170428256990763,1.085173426028586,0.7953222580078056,,-0.04931645967666478,-0.06459245395474515,0.08431779928,-0.06509005378220696,,-9.637326e-06,2.3841858e-07,-1.9073486e-06,1.0,2.1494925e-05,1.8797815e-05,-2.1502376e-05,0.99999994,2.2351742e-06,-1.880154e-05,-2.2351742e-06,1.0,530,1.635,1,2,0.521,False,-0.261427056305211,0.9703837382811948
1.6405039090313949,14:00:22.692660,14:00:12.273139,0,,0.09786694,0.0045490414,0.035441265,0.021242566,0.9594826,-0.2809662,0.0025072396,0.28097755,0.95971096,0.99977124,-0.021091208,0.0035628676,,0.067372575,-0.02226761,-0.00030070543,-0.40652904,0.16023108,0.89947766,0.22622956,-0.93618894,0.2690178,0.88518596,0.3128521,0.34433895,,0.106346555,1.3404378,0.44018942,0.9956665,0.012128051,-0.09220125,-0.051409494,-0.7544022,-0.6543962,-0.07749338,0.65630037,-0.75050956,,-0.066603966,0.27478126,-0.09141339,-0.11747485,-0.9447626,0.30597928,0.6601486,0.15588768,0.73478085,-0.74189186,0.28831005,0.6053708,,-0.030298892,0.3799548,-0.34714028,0.30309072,-0.12334252,-0.9449458,0.9139,-0.2433667,0.32489914,-0.27004224,-0.9620599,0.038960543,,1.2556623062187857,0.3358848208986466,0.20480863484000003,2.507472344187942,-1.0571565986852127,-0.17266595920142996,-0.4155473042456064,,-0.8638648993107536,-0.3045073572306724,0.22804204051000002,-2.8215878795277596,-1.1702916204909974,1.0850620081248894,0.7956489461400743,,-0.04931645967666478,-0.06459245395474515,0.08431779928,-0.06509005378220696,,-9.637326e-06,2.3841858e-07,-1.9073486e-06,1.0,2.1494925e-05,1.8797815e-05,-2.1502376e-05,0.99999994,2.2351742e-06,-1.880154e-05,-2.2351742e-06,1.0,539,1.663,1,2,0.549,False,-0.26178452261633733,0.9706251392850918
1.6791342550422996,14:00:22.726444,14:00:12.516134,0,,0.0969743,0.0046051294,0.034681305,-0.0015370324,0.96616054,-0.25793743,0.019221574,0.2579186,0.96597534,0.9998141,-0.003473267,-0.018967718,,0.06736617,-0.022282213,-0.00028955936,-0.4064463,0.16005471,0.89954644,0.22626755,-0.936237,0.26881853,0.8852142,0.31279856,0.3443148,,0.106346555,1.3404378,0.44018942,0.9956665,0.012128051,-0.09220125,-0.051409494,-0.7544022,-0.6543962,-0.07749338,0.65630037,-0.75050956,,-0.065640986,0.27436057,-0.090890765,-0.09434812,-0.953749,0.28541428,0.6736994,0.14990868,0.72364116,-0.7329581,0.26055762,0.6283965,,-0.030292578,0.37995735,-0.34715852,0.30300322,-0.123158894,-0.94499785,0.91393393,-0.24341613,0.32476664,-0.2700256,-0.96207094,0.03880322,,1.2573999211154863,0.3336992874952411,0.2054101134,2.4615502465648316,-1.038300761717582,-0.1079147858336445,-0.4160373364440093,,-0.8638494538450052,-0.304561416360792,0.22802648503000003,-2.821378189584275,-1.1702916204909974,1.0850620081248894,0.7956489461400743,,-0.04931645967666478,-0.06459245395474515,0.08431779928,-0.06509005378220696,,-9.637326e-06,2.3841858e-07,-1.9073486e-06,1.0,2.1494925e-05,1.8797815e-05,-2.1502376e-05,0.99999994,2.2351742e-06,-1.880154e-05,-2.2351742e-06,1.0,552,1.704,1,2,0.59,False,-0.26232072208302704,0.9705285788835332
1.7129080410231836,14:00:22.765098,14:00:12.516134,0,,0.09633687,0.0047176033,0.034057274,-0.018123582,0.9701079,-0.24199684,0.030950814,0.24246494,0.96966624,0.9993566,0.010083795,-0.034420073,,0.067367665,-0.022302851,-0.00026464462,-0.40625384,0.15944913,0.89974093,0.22628848,-0.9364305,0.26812565,0.8852972,0.3125282,0.34434697,,0.106346555,1.3404378,0.44018942,0.9956665,0.012128051,-0.09220125,-0.051409494,-0.7544022,-0.6543962,-0.07749338,0.65630037,-0.75050956,,-0.06494346,0.27406088,-0.09040908,-0.077474006,-0.9594149,0.2711473,0.6829129,0.14707804,0.7155404,-0.72637993,0.24060579,0.64380205,,-0.030295,0.37996745,-0.3471892,0.30280268,-0.12251813,-0.9451454,0.9139922,-0.24367395,0.3244091,-0.27005333,-0.96208745,0.03819549,,1.258766844834224,0.332286027379258,0.20594548117000003,2.429887065098668,-1.0242272022417416,-0.06384928661879363,-0.41636402457627775,,-0.8638803447765021,-0.30463864368953425,0.22800185552000002,-2.8207491197538217,-1.1702916204909974,1.08514368686503,0.7958122902062085,,-0.04931645967666478,-0.06459245395474515,0.08431779928,-0.06509005378220696,,-9.637326e-06,2.3841858e-07,-1.9073486e-06,1.0,2.1494925e-05,1.8797815e-05,-2.1502376e-05,0.99999994,2.2351742e-06,-1.880154e-05,-2.2351742e-06,1.0,561,1.733,1,2,0.619,False,-0.26243987752006825,0.9703837382811948
1.7515902669983916,14:00:22.796157,14:00:12.516134,0,,0.095783174,0.004819855,0.033419833,-0.032713056,0.97120434,-0.23599176,0.04247397,0.23725569,0.9705181,0.9985619,0.021725073,-0.049012363,,0.06736321,-0.022317544,-0.0002475977,-0.40622598,0.15946373,0.8997509,0.22646853,-0.93636554,0.26820064,0.8852639,0.3127155,0.34426245,,0.106346555,1.3404378,0.44018942,0.9956665,0.012128051,-0.09220125,-0.051409494,-0.7544022,-0.6543962,-0.07749338,0.65630037,-0.75050956,,-0.064328246,0.27374107,-0.08991653,-0.0625601,-0.9617738,0.2666035,0.6916638,0.15079623,0.70630145,-0.719505,0.22858627,0.65579027,,-0.030291181,0.37997472,-0.34721062,0.30276558,-0.12255511,-0.9451525,0.9140548,-0.24348354,0.32437566,-0.26988298,-0.96213096,0.03830365,,1.259902086566735,0.330911380927646,0.20648473781,2.4036758221631027,-1.0104269157654322,-0.03516159096339716,-0.4166907127085465,,-0.8638957902422506,-0.3046927028196538,0.22798111488000003,-2.8207491197538217,-1.170154983991232,1.0850322689613336,0.7958122902062085,,-0.04931645967666478,-0.06459245395474515,0.08431779928,-0.06509005378220696,,-9.637326e-06,2.3841858e-07,-1.9073486e-06,1.0,2.1494925e-05,1.8797815e-05,-2.1502376e-05,0.99999994,2.2351742e-06,-1.880154e-05,-2.2351742e-06,1.0,574,1.774,1,2,0.66,False,-0.2622015666459845,0.9699009362734001
1.7826798800379038,14:00:22.826555,14:00:12.516134,0,,0.09507165,0.0049316734,0.032468155,-0.04966946,0.9715945,-0.23138124,0.057204247,0.2340543,0.9705391,0.9971262,0.03497015,-0.0672048,,0.06736314,-0.02233623,-0.0002335906,-0.4059735,0.15915202,0.89992,0.22661655,-0.93643266,0.26784095,0.8853419,0.31267327,0.3441003,,0.106346555,1.3404378,0.44018942,0.9956665,0.012128051,-0.09220125,-0.051409494,-0.7544022,-0.6543962,-0.07749338,0.65630037,-0.75050956,,-0.06352542,0.27322802,-0.089197695,-0.045139927,-0.9635285,0.26377118,0.7025009,0.15710928,0.6941248,-0.7102499,0.21663222,0.6697877,,-0.030291146,0.3799768,-0.3472339,0.302497,-0.12223685,-0.9452797,0.91416806,-0.2435174,0.32403094,-0.26980057,-0.9621629,0.03808174,,1.2612612875525984,0.32871812479136625,0.20728714132,2.374528920018754,-0.9930740802952212,-0.005695217497782568,-0.4166907127085463,,-0.8638957902422506,-0.30476220741552185,0.22796426311,-2.820120049923368,-1.1700183474914667,1.084757493577356,0.7958122902062086,,-0.04931645967666478,-0.06459245395474515,0.08431779928,-0.06509005378220696,,-9.637326e-06,2.3841858e-07,-1.9073486e-06,1.0,2.1494925e-05,1.8797815e-05,-2.1502376e-05,0.99999994,2.2351742e-06,-1.880154e-05,-2.2351742e-06,1.0,583,1.802,1,2,0.688,False,-0.26196325577190027,0.9698526560726206
1.8130766050308011,14:00:22.860058,14:00:12.663842,0,,0.094575204,0.004993126,0.03175895,-0.06157729,0.9725123,-0.22456205,0.068778634,0.22858864,0.9710904,0.9957298,0.044352025,-0.08096406,,0.06735959,-0.022368535,-0.00022017956,-0.40578032,0.15890294,0.9000511,0.22684248,-0.93644726,0.26759863,0.8853726,0.31275627,0.34394586,,0.106346555,1.3404378,0.44018942,0.9956665,0.012128051,-0.09220125,-0.051409494,-0.7544022,-0.6543962,-0.07749338,0.65630037,-0.75050956,,-0.06296138,0.27282783,-0.088673376,-0.03283466,-0.9654989,0.25832862,0.7107786,0.15915297,0.6851745,-0.70264906,0.20611194,0.6810302,,-0.03028662,0.37997165,-0.34726837,0.30228642,-0.12199645,-0.9453781,0.91428906,-0.24342543,0.32375848,-0.26962647,-0.9622167,0.037955813,,1.2621802927646313,0.3270500144905338,0.20786917553000003,2.355447135161662,-0.9795470668184426,0.017171087194605028,-0.41701740084081484,,-0.8638803447765021,-0.30489349387438364,0.22794352247000002,-2.8197006700363993,-1.169881710991701,1.084564396933519,0.7953222580078056,,-0.04931645967666478,-0.06459245395474515,0.08431779928,-0.06509005378220696,,-9.637326e-06,2.3841858e-07,-1.9073486e-06,1.0,2.1494925e-05,1.8797815e-05,-2.1502376e-05,0.99999994,2.2351742e-06,-1.880154e-05,-2.2351742e-06,1.0,596,1.843,1,2,0.729,False,-0.26160578946077395,0.9692732936632671
1.846578511991538,14:00:22.898499,14:00:12.663842,0,,0.09386593,0.005024597,0.030712917,-0.08058794,0.97287065,-0.21686047,0.088472694,0.22369106,0.97063625,0.9928132,0.059035316,-0.10409945,,0.06735893,-0.022400886,-0.00020843744,-0.40570742,0.15867426,0.90012443,0.22695982,-0.93648136,0.26737946,0.8853759,0.31277007,0.34392473,,0.106346555,1.3404378,0.44018942,0.9956665,0.012128051,-0.09220125,-0.051409494,-0.7544022,-0.6543962,-0.07749338,0.65630037,-0.75050956,,-0.062153943,0.27219218,-0.08793701,-0.013089338,-0.967408,0.25288424,0.7244534,0.16514243,0.6692498,-0.6891995,0.19196288,0.6986804,,-0.030284833,0.37996483,-0.34730208,0.30220547,-0.121768296,-0.94543344,0.9143445,-0.24340455,0.32361758,-0.26952916,-0.9622508,0.037779987,,1.2634004845587588,0.3245015126420397,0.20867676420000003,2.3275583726782205,-0.9564554983580831,0.04751206303452821,-0.4153839601794722,,-0.8638803447765021,-0.3050325030661197,0.22792667070000003,-2.8194909800929144,-1.169881710991701,1.084564396933519,0.7953222580078056,,-0.04931645967666478,-0.06459245395474515,0.08431779928,-0.06509005378220696,,-9.637326e-06,2.3841858e-07,-1.9073486e-06,1.0,2.1494925e-05,1.8797815e-05,-2.1502376e-05,0.99999994,2.2351742e-06,-1.880154e-05,-2.2351742e-06,1.0,605,1.872,1,2,0.758,False,-0.26232072208302704,0.9698526560726206
1.8850152720115148,14:00:22.936798,14:00:12.663842,0,,0.09335466,0.005064428,0.030017659,-0.09610728,0.9719273,-0.21475738,0.09662917,0.22384726,0.96982217,0.9906696,0.07245511,-0.11543006,,0.06736162,-0.022450522,-0.00018286705,-0.40531585,0.15801066,0.90041745,0.22747539,-0.93653715,0.26674542,0.885423,0.31293908,0.34364974,,0.106346555,1.3404378,0.44018942,0.9956665,0.012128051,-0.09220125,-0.051409494,-0.7544022,-0.6543962,-0.07749338,0.65630037,-0.75050956,,-0.061577093,0.2717856,-0.08743872,0.0027858932,-0.9677592,0.25186172,0.7298276,0.17414814,0.661078,-0.6836256,0.18197395,0.7067825,,-0.030286461,0.37996015,-0.34735772,0.301776,-0.12112165,-0.9456536,0.91460705,-0.24321237,0.32301965,-0.26911935,-0.96238106,0.037383065,,1.2642268169763007,0.322895184204201,0.20925620583,2.3030246492905313,-0.9447047593782553,0.06937643827075246,-0.4168540567746806,,-0.8638957902422506,-0.30523329412084954,0.22789296716000002,-2.8186522203189766,-1.1694718014924048,1.0843118219625705,0.7951589139416713,,-0.04931645967666478,-0.06459245395474515,0.08431779928,-0.06509005378220696,,-9.637326e-06,2.3841858e-07,-1.9073486e-06,1.0,2.1494925e-05,1.8797815e-05,-2.1502376e-05,0.99999994,2.2351742e-06,-1.880154e-05,-2.2351742e-06,1.0,618,1.913,1,2,0.799,False,-0.2620824112089424,0.9698043758718411
1.9233187300269492,14:00:22.971078,14:00:12.663842,0,,0.092777535,0.0051433295,0.029079184,-0.119683005,0.97015977,-0.21087003,0.11204836,0.22423883,0.9680712,0.986469,0.092234,-0.1355426,,0.067357294,-0.02248913,-0.00016379356,-0.4052808,0.15797526,0.90043944,0.2277605,-0.9364505,0.26680636,0.8853657,0.31321612,0.34354484,,0.106346555,1.3404378,0.44018942,0.9956665,0.012128051,-0.09220125,-0.051409494,-0.7544022,-0.6543962,-0.07749338,0.65630037,-0.75050956,,-0.060910188,0.27125078,-0.08673926,0.027077783,-0.96789694,0.2498846,0.7396425,0.18755859,0.6463364,-0.672455,0.16732393,0.7209764,,-0.03028128,0.37995663,-0.34740058,0.30172667,-0.12111909,-0.9456697,0.91470337,-0.2429289,0.32296023,-0.26884717,-0.96245295,0.037489913,,1.265060872126717,0.3212425193691169,0.21000286887000003,2.2701033281634606,-0.9231161924153157,0.09841097010697886,-0.4163640245762778,,-0.8639035129751248,-0.3053954715112082,0.22786574507000001,-2.8186522203189766,-1.1693351649926393,1.084200404058874,0.7951589139416713,,-0.04931645967666478,-0.06459245395474515,0.08431779928,-0.06509005378220696,,-9.637326e-06,2.3841858e-07,-1.9073486e-06,1.0,2.1494925e-05,1.8797815e-05,-2.1502376e-05,0.99999994,2.2351742e-06,-1.880154e-05,-2.2351742e-06,1.0,627,1.942,1,2,0.828,False,-0.26297607698675796,0.9699009362734001
1.9576013100449927,14:00:23.000549,14:00:12.663842,0,,0.092413634,0.0052411705,0.028245702,-0.13851228,0.9692816,-0.20324296,0.126546,0.22086096,0.9670607,0.9822426,0.10823019,-0.15325081,,0.06735147,-0.022551104,-0.00012665987,-0.40487728,0.1571145,0.9007715,0.22804652,-0.9366461,0.26587382,0.8854767,0.31306422,0.34339723,,0.106346555,1.3404378,0.44018942,0.9956665,0.012128051,-0.09220125,-0.051409494,-0.7544022,-0.6543962,-0.07749338,0.65630037,-0.75050956,,-0.060465023,0.27079028,-0.08608623,0.04662399,-0.96866,0.24397552,0.7485452,0.1956074,0.63357544,-0.6614426,0.15308689,0.7342058,,-0.030274702,0.37995636,-0.34747276,0.30129528,-0.120236166,-0.9459199,0.9148987,-0.24305755,0.3223095,-0.26866624,-0.9625312,0.03677182,,1.2654006723731828,0.3201304458352286,0.21066527306000002,2.2468277444366787,-0.9034405364490923,0.12279776834427258,-0.4165273686424121,,-0.8638957902422506,-0.3056425989631834,0.22781778234000002,-2.8176037706015538,-1.1691985284928739,1.0840889861551775,0.7951589139416713,,-0.04931645967666478,-0.06459245395474515,0.08431779928,-0.06509005378220696,,-9.637326e-06,2.3841858e-07,-1.9073486e-06,1.0,2.1494925e-05,1.8797815e-05,-2.1502376e-05,0.99999994,2.2351742e-06,-1.880154e-05,-2.2351742e-06,1.0,636,1.969,1,2,0.855,False,-0.2618441003348577,0.9694664144663849
1.9870687749935314,14:00:23.029964,14:00:12.663842,0,,0.092230245,0.005325809,0.02779819,-0.14783381,0.9689209,-0.19833729,0.1316418,0.21803394,0.96702194,0.980212,0.11684902,-0.15978342,,0.06733819,-0.02258046,-0.00010114908,-0.40479317,0.15716726,0.90080017,0.2284119,-0.9365101,0.26603937,0.8854209,0.31344453,0.34319398,,0.106346555,1.3404378,0.44018942,0.9956665,0.012128051,-0.09220125,-0.051409494,-0.7544022,-0.6543962,-0.07749338,0.65630037,-0.75050956,,-0.060237043,0.2705666,-0.08571333,0.056236416,-0.9692111,0.2397235,0.751431,0.19918345,0.629029,-0.6574108,0.14476134,0.7394966,,-0.030261906,0.37996417,-0.34751102,0.3011915,-0.12033447,-0.94594043,0.9150324,-0.24267153,0.32222083,-0.2683271,-0.9626163,0.03701933,,1.2655628497635416,0.3196361909312782,0.21105545635000003,2.234665727714576,-0.8955156194626968,0.13659185748473968,-0.4153839601794721,,-0.8638880675093763,-0.30575071722342256,0.22778148622000002,-2.8176037706015538,-1.168925255493343,1.0838661503477847,0.7951589139416713,,-0.04931645967666478,-0.06459245395474515,0.08431779928,-0.06509005378220696,,-9.637326e-06,2.3841858e-07,-1.9073486e-06,1.0,2.1494925e-05,1.8797815e-05,-2.1502376e-05,0.99999994,2.2351742e-06,-1.880154e-05,-2.2351742e-06,1.0,649,2.011,1,2,0.897,False,-0.2626781883941529,0.9696595352695028
2.0164616770343855,14:00:23.069607,14:00:12.866851,0,,0.091899164,0.005520001,0.026858464,-0.16671535,0.9662966,-0.19615538,0.14358836,0.22061163,0.9647345,0.97549385,0.1326704,-0.17552847,,0.06731869,-0.022634596,-4.36306e-05,-0.40469643,0.15727518,0.9008247,0.22899087,-0.9362831,0.26634026,0.8853157,0.31406775,0.3428958,,0.106346555,1.3404378,0.44018942,0.9956665,0.012128051,-0.09220125,-0.051409494,-0.7544022,-0.6543962,-0.07749338,0.65630037,-0.75050956,,-0.059811596,0.27010697,-0.08491447,0.07581086,-0.9680539,0.23900713,0.7580968,0.21166228,0.6168373,-0.6477205,0.13442758,0.7499249,,-0.03024424,0.37998676,-0.3475871,0.3010649,-0.120517194,-0.9459575,0.9152342,-0.2420394,0.32212314,-0.26778036,-0.9627526,0.037431885,,1.265817699948391,0.31875579938361664,0.21187082276000002,2.211809523874763,-0.8776162379934239,0.1544225719363116,-0.4144038957826665,,-0.8639189584408732,-0.3059515082781524,0.22770889398000002,-2.8176037706015538,-1.1685153459940467,1.0834502178965548,0.7949955698755371,,-0.04931645967666478,-0.06459245395474515,0.08431779928,-0.06509005378220696,,-9.637326e-06,2.3841858e-07,-1.9073486e-06,1.0,2.1494925e-05,1.8797815e-05,-2.1502376e-05,0.99999994,2.2351742e-06,-1.880154e-05,-2.2351742e-06,1.0,658,2.04,1,2,0.926,False,-0.2621419889274632,0.9700457768757385
2.0561305379960686,14:00:23.099684,14:00:12.866851,0,,0.09166011,0.005694598,0.02595441,-0.17944568,0.9654304,-0.18905967,0.15909997,0.21812919,0.9628638,0.97081745,0.14270234,-0.19274253,,0.067304626,-0.02267234,1.1205673e-05,-0.40454048,0.15692069,0.9009566,0.22920826,-0.93632704,0.26599848,0.8853307,0.314114,0.34281465,,0.106346555,1.3404378,0.44018942,0.9956665,0.012128051,-0.09220125,-0.051409494,-0.7544022,-0.6543962,-0.07749338,0.65630037,-0.75050956,,-0.0594817,0.26965222,-0.08414682,0.08936062,-0.96822864,0.23355505,0.76720256,0.21645033,0.6037793,-0.63514954,0.12522994,0.76216966,,-0.030232878,0.38001508,-0.34764796,0.30089334,-0.120166525,-0.94605666,0.9153419,-0.24198133,0.32186058,-0.26760492,-0.962811,0.03718288,,1.265995322804498,0.317805903240087,0.21263044870000003,2.200695956870083,-0.8584871280262623,0.16749330320814987,-0.41587399237787503,,-0.8639575721052444,-0.3060827947370142,0.22764667206000003,-2.817184390714585,-1.1683787094942812,1.0833387999928585,0.7949955698755371,,-0.04931645967666478,-0.06459245395474515,0.08431779928,-0.06509005378220696,,-9.637326e-06,2.3841858e-07,-1.9073486e-06,1.0,2.1494925e-05,1.8797815e-05,-2.1502376e-05,0.99999994,2.2351742e-06,-1.880154e-05,-2.2351742e-06,1.0,671,2.081,1,2,0.967,False,-0.26190367805337944,0.9704320184819739
2.0862058390048333,14:00:23.140502,14:00:12.866851,0,,0.09119427,0.0059515983,0.024726167,-0.2012099,0.9613455,-0.18796152,0.17629674,0.22429292,0.95844245,0.9635527,0.15971111,-0.21461219,,0.06728044,-0.022723228,8.2194805e-05,-0.404262,0.15663236,0.9011317,0.22985393,-0.93621206,0.26584604,0.88529044,0.31460026,0.3424724,,0.106346555,1.3404378,0.44018942,0.9956665,0.012128051,-0.09220125,-0.051409494,-0.7544022,-0.6543962,-0.07749338,0.65630037,-0.75050956,,-0.0588926,0.26905528,-0.083103605,0.11219524,-0.9656326,0.23444803,0.77625394,0.23246644,0.5859942,-0.6203564,0.116245456,0.7756578,,-0.030212086,0.38005134,-0.3477284,0.3005754,-0.11993485,-0.94618714,0.91561204,-0.24147646,0.32147118,-0.2670375,-0.9629666,0.037231904,,1.2667367051604237,0.3164389795213493,0.21369988795000003,2.177420373143301,-0.8337559215687176,0.18253019963967998,-0.41571064831174065,,-0.8639884630367413,-0.30625269486024714,0.22755982063000002,-2.8167650108276154,-1.1678321634952193,1.0829748071182133,0.7954856020739399,,-0.04931645967666478,-0.06459245395474515,0.08431779928,-0.06509005378220696,,-9.637326e-06,2.3841858e-07,-1.9073486e-06,1.0,2.1494925e-05,1.8797815e-05,-2.1502376e-05,0.99999994,2.2351742e-06,-1.880154e-05,-2.2351742e-06,1.0,680,2.11,1,2,0.996,False,-0.2622015666459845,0.9696112550687233
2.1270243910257705,14:00:23.170081,14:00:12.866851,0,,0.09050071,0.0062167794,0.023681998,-0.21480094,0.9577704,-0.19114542,0.18444797,0.23197386,0.95507425,0.9590826,0.16989446,-0.22648719,,0.06725094,-0.022772089,0.00014072657,-0.40410033,0.15624353,0.90127176,0.22998704,-0.93629634,0.26543394,0.8853297,0.31454295,0.3424236,,0.106346555,1.3404378,0.44018942,0.9956665,0.012128051,-0.09220125,-0.051409494,-0.7544022,-0.6543962,-0.07749338,0.65630037,-0.75050956,,-0.05809446,0.2685956,-0.08221294,0.12637609,-0.96284324,0.23866698,0.78000766,0.24509938,0.5757728,-0.6128761,0.11339816,0.7819998,,-0.030184953,0.38007873,-0.34780043,0.30040175,-0.11953736,-0.9462926,0.91569555,-0.24152288,0.32119828,-0.2669465,-0.9630044,0.03690594,,1.2686519429132312,0.3145160190356674,0.21471488302000002,2.159806417890601,-0.8199556350924082,0.19104324648035748,-0.41440389578266645,,-0.8639652948381186,-0.3064225949834801,0.2274859321,-2.8163456309406465,-1.1678321634952193,1.0829748071182133,0.7954856020739399,,-0.04931645967666478,-0.06459245395474515,0.08431779928,-0.06509005378220696,,-9.637326e-06,2.3841858e-07,-1.9073486e-06,1.0,2.1494925e-05,1.8797815e-05,-2.1502376e-05,0.99999994,2.2351742e-06,-1.880154e-05,-2.2351742e-06,1.0,689,2.138,1,2,1.024,False,-0.2626186106756321,0.9695146946671644
2.15660167200258,14:00:23.199537,14:00:12.866851,0,,0.089642346,0.0064509064,0.023091972,-0.215922,0.95635754,-0.19687068,0.18707153,0.23841086,0.95297647,0.9583224,0.16893965,-0.2303856,,0.06721868,-0.022837996,0.00020128489,-0.40400356,0.15583114,0.90138656,0.23021236,-0.9363477,0.26505694,0.8853153,0.3145944,0.34241354,,0.106346555,1.3404378,0.44018942,0.9956665,0.012128051,-0.09220125,-0.051409494,-0.7544022,-0.6543962,-0.07749338,0.65630037,-0.75050956,,-0.057177003,0.26841912,-0.08169635,0.12763798,-0.9611659,0.24468073,0.7815238,0.24936223,0.5718732,-0.61067915,0.11823108,0.78300214,,-0.0301541,0.3800993,-0.34788805,0.30029124,-0.1191292,-0.9463791,0.91578954,-0.24145745,0.32097942,-0.2667483,-0.9630714,0.036589727,,1.271949549850525,0.31236137656375873,0.21540580559000003,2.1549835491904568,-0.815583267099914,0.18960152080572668,-0.4148939279810693,,-0.8639344039066217,-0.30666972243545526,0.22740556212000002,-2.816135940997162,-1.1678321634952193,1.0831381645984943,0.7951589139416713,,-0.04931645967666478,-0.06459245395474515,0.08431779928,-0.06509005378220696,,-9.637326e-06,2.3841858e-07,-1.9073486e-06,1.0,2.1494925e-05,1.8797815e-05,-2.1502376e-05,0.99999994,2.2351742e-06,-1.880154e-05,-2.2351742e-06,1.0,703,2.183,1,2,1.069,False,-0.2621419889274632,0.96811456884456
2.186027201008983,14:00:23.242414,14:00:13.017638,0,,0.08866522,0.0068599433,0.022182241,-0.2177064,0.95671386,-0.19313896,0.20016712,0.23744477,0.9505539,0.955268,0.16828156,-0.24319613,,0.067179516,-0.022978455,0.0002619624,-0.4035833,0.15429692,0.90183854,0.23084228,-0.93661743,0.26355186,0.885343,0.31454766,0.34238487,,0.106346555,1.3404378,0.44018942,0.9956665,0.012128051,-0.09220125,-0.051409494,-0.7544022,-0.6543962,-0.07749338,0.65630037,-0.75050956,,-0.05610566,0.2681682,-0.0808367,0.13007328,-0.9614839,0.2421356,0.78941643,0.2481879,0.5614485,-0.59991884,0.11811638,0.7912938,,-0.030111164,0.38008192,-0.3480391,0.29982707,-0.11758241,-0.94671965,0.91609204,-0.24145623,0.3201161,-0.26623136,-0.9632618,0.03532119,,1.2768766534242804,0.30936495620855964,0.21671116962000003,2.152676959812127,-0.7937214271374435,0.19382791605225097,-0.4132604873197265,,-0.863810840180634,-0.3072412046681479,0.22730574779,-2.8152971812232237,-1.167695526995454,1.0838435340962036,0.7935254732803285,,-0.04931645967666478,-0.06459245395474515,0.08431779928,-0.06509005378220696,,-9.637326e-06,2.3841858e-07,-1.9073486e-06,1.0,2.1494925e-05,1.8797815e-05,-2.1502376e-05,0.99999994,2.2351742e-06,-1.880154e-05,-2.2351742e-06,1.0,712,2.212,1,2,1.098,False,-0.26249945523859,0.9680180084430012
2.2289328839979135,14:00:23.271806,14:00:13.017638,0,,0.08798997,0.00719738,0.021210298,-0.22449826,0.9562535,-0.18756314,0.21617809,0.23655182,0.94726455,0.9501934,0.17211217,-0.25982666,,0.06715737,-0.023042172,0.00026649237,-0.40349764,0.15430258,0.901876,0.23111881,-0.93652636,0.2636331,0.8853099,0.31481597,0.34222394,,0.106346555,1.3404378,0.44018942,0.9956665,0.012128051,-0.09220125,-0.051409494,-0.7544022,-0.6543962,-0.07749338,0.65630037,-0.75050956,,-0.055330694,0.2678096,-0.07995051,0.13776688,-0.9614202,0.23809987,0.79837996,0.25006297,0.54777545,-0.5861823,0.114628844,0.802029,,-0.030085135,0.38005507,-0.3480954,0.2997258,-0.1176201,-0.94674706,0.9161983,-0.24118274,0.3200181,-0.26597962,-0.9633257,0.03547465,,1.2784598136634964,0.3083069418047909,0.21741505509000003,2.150999440264251,-0.7806043231599613,0.1987324366642419,-0.4134238313858608,,-0.8636949991875207,-0.30751150031874575,0.2272785257,-2.8152971812232237,-1.167695526995454,1.083761855356063,0.7933621292141944,,-0.04931645967666478,-0.06459245395474515,0.08431779928,-0.06509005378220696,,-9.637326e-06,2.3841858e-07,-1.9073486e-06,1.0,2.1494925e-05,1.8797815e-05,-2.1502376e-05,0.99999994,2.2351742e-06,-1.880154e-05,-2.2351742e-06,1.0,726,2.257,1,2,1.143,False,-0.26255903295711036,0.967583486635986
2.258330923039466,14:00:23.314755,14:00:13.017638,0,,0.08767991,0.007676974,0.01972334,-0.23650885,0.9558207,-0.17455806,0.2428593,0.2321062,0.94188416,0.9407884,0.1803709,-0.28702536,,0.06710942,-0.02319096,0.00028061867,-0.40308335,0.15367131,0.9021689,0.2317085,-0.93654394,0.26305246,0.88534445,0.3150724,0.34189826,,0.106346555,1.3404378,0.44018942,0.9956665,0.012128051,-0.09220125,-0.051409494,-0.7544022,-0.6543962,-0.07749338,0.65630037,-0.75050956,,-0.05486542,0.2672025,-0.078553334,0.15136816,-0.96190995,0.2276332,0.81272155,0.25218967,0.5252466,-0.56264675,0.10549679,0.8199385,,-0.030028436,0.37999502,-0.34822887,0.29926974,-0.11701659,-0.94696605,0.9164863,-0.24090065,0.3194053,-0.26550046,-0.96346974,0.035149828,,1.2790699095605602,0.30741110479138084,0.21873727089000003,2.1486928508859213,-0.7506809297113297,0.20692173307080997,-0.41342383138586075,,-0.8634247035369229,-0.3081370416815579,0.22721371120000003,-2.8146681113927703,-1.167695526995454,1.083761855356063,0.7933621292141944,,-0.04931645967666478,-0.06459245395474515,0.08431779928,-0.06509005378220696,,-9.637326e-06,2.3841858e-07,-1.9073486e-06,1.0,2.1494925e-05,1.8797815e-05,-2.1502376e-05,0.99999994,2.2351742e-06,-1.880154e-05,-2.2351742e-06,1.0,740,2.301,0,2,1.159,False,-0.26243987752006825,0.9678731678406627
2.3012589950230904,14:00:23.363461,14:00:13.159002,0,,0.08758825,0.007977441,0.018467322,-0.24347664,0.95559096,-0.16602741,0.261721,0.22955915,0.93744576,0.93392783,0.18479328,-0.3059907,,0.06703981,-0.023272261,0.00026786327,-0.40278345,0.15370554,0.9022971,0.2321952,-0.9363918,0.263165,0.8853534,0.31550765,0.3414734,,0.106346555,1.3404378,0.44018942,0.9956665,0.012128051,-0.09220125,-0.051409494,-0.7544022,-0.6543962,-0.07749338,0.65630037,-0.75050956,,-0.054644722,0.26660383,-0.07742677,0.15948859,-0.96217895,0.22085066,0.82265496,0.25320342,0.509045,-0.54571253,0.10049703,0.8319244,,-0.02995239,0.37995002,-0.34829062,0.29893696,-0.117102906,-0.9470605,0.91671246,-0.24045756,0.31908998,-0.26509422,-0.96356994,0.03546804,,1.2785988228552325,0.3065075450450966,0.21985726545000003,2.149531610659859,-0.7303220912462791,0.21049511423476208,-0.41260711105518943,,-0.8630617350918343,-0.30845367372940113,0.22717352621000003,-2.8146681113927703,-1.1675588904956888,1.0837321161925073,0.79319878514806,,-0.04931645967666478,-0.06459245395474515,0.08431779928,-0.06509005378220696,,-9.637326e-06,2.3841858e-07,-1.9073486e-06,1.0,2.1494925e-05,1.8797815e-05,-2.1502376e-05,0.99999994,2.2351742e-06,-1.880154e-05,-2.2351742e-06,1.0,749,2.331,1,3,1.176,False,-0.26202283349042155,0.9672938054313094
2.34997924300842,14:00:23.391958,14:00:13.159002,0,,0.087711744,0.008059427,0.017588705,-0.24818566,0.95554465,-0.15918049,0.27394375,0.22684506,0.93461,0.92917097,0.18835032,-0.3180653,,0.066965416,-0.023332417,0.00024032593,-0.40202972,0.15284652,0.9027789,0.23235977,-0.9366612,0.26205853,0.8856528,0.31512493,0.34105024,,0.106346555,1.3404378,0.44018942,0.9956665,0.012128051,-0.09220125,-0.051409494,-0.7544022,-0.6543962,-0.07749338,0.65630037,-0.75050956,,-0.05468058,0.2660808,-0.07670629,0.16497353,-0.9625516,0.21512358,0.8288952,0.25351337,0.4986619,-0.5345245,0.09604889,0.8396774,,-0.029871667,0.37990415,-0.34832656,0.29814836,-0.11619443,-0.9474209,0.9169621,-0.24081989,0.31809798,-0.26511902,-0.96358943,0.034745824,,1.2771778400063751,0.3058433900179133,0.22056763237000002,2.1505800603772816,-0.717888169767624,0.2135880409011588,-0.41326048731972653,,-0.8626060938522551,-0.3086621875170052,0.22714889670000002,-2.8134099717318635,-1.1675588904956888,1.0838137949326478,0.7930354410819258,,-0.04931645967666478,-0.06459245395474515,0.08431779928,-0.06509005378220696,,-9.637326e-06,2.3841858e-07,-1.9073486e-06,1.0,2.1494925e-05,1.8797815e-05,-2.1502376e-05,0.99999994,2.2351742e-06,-1.880154e-05,-2.2351742e-06,1.0,763,2.375,1,3,1.22,False,-0.2622611443645053,0.967486926234427
2.3784473779960535,14:00:23.432725,14:00:13.159002,0,,0.087849915,0.008082047,0.016299397,-0.2588116,0.9547765,-0.14635038,0.29653665,0.2227333,0.92868495,0.9192837,0.19695616,-0.34077236,,0.06691926,-0.023407727,0.00023156404,-0.40161458,0.15231004,0.9030544,0.23263842,-0.9367604,0.261456,0.88576794,0.31508985,0.34078345,,0.106346555,1.3404378,0.44018942,0.9956665,0.012128051,-0.09220125,-0.051409494,-0.7544022,-0.6543962,-0.07749338,0.65630037,-0.75050956,,-0.05469309,0.26524177,-0.07571745,0.17712958,-0.96273196,0.20438266,0.83979064,0.25613394,0.4786931,-0.5132025,0.086847946,0.8538622,,-0.029819714,0.37986293,-0.34838554,0.2977056,-0.11565142,-0.9476266,0.91715574,-0.24083789,0.31752554,-0.26494667,-0.9636503,0.034371577,,1.2752394340549449,0.30459230729228887,0.22153466471000002,2.149531610659859,-0.6932935998098448,0.22122191114345346,-0.4134238313858607,,-0.862328075468783,-0.30896337409909996,0.22711908203000003,-2.8127809019014096,-1.1675588904956888,1.0838954736727884,0.79319878514806,,-0.04931645967666478,-0.06459245395474515,0.08431779928,-0.06509005378220696,,-9.637326e-06,2.3841858e-07,-1.9073486e-06,1.0,2.1494925e-05,1.8797815e-05,-2.1502376e-05,0.99999994,2.2351742e-06,-1.880154e-05,-2.2351742e-06,1.0,772,2.405,1,3,1.25,False,-0.2632143878608417,0.9677283272383244
2.41923639603192,14:00:23.464608,14:00:13.159002,0,,0.08768436,0.008005932,0.015050605,-0.26792344,0.95542765,-0.1239967,0.3244946,0.2106707,0.92212844,0.9071495,0.20682356,-0.3664749,,0.066877045,-0.02346769,0.00022238493,-0.40133306,0.15196659,0.9032374,0.2327404,-0.93685246,0.26103514,0.8858688,0.314982,0.34062108,,0.106346555,1.3404378,0.44018942,0.9956665,0.012128051,-0.09220125,-0.051409494,-0.7544022,-0.6543962,-0.07749338,0.65630037,-0.75050956,,-0.054410074,0.26436839,-0.07485157,0.18814556,-0.96466786,0.18443751,0.8531669,0.2535573,0.45586726,-0.48652595,0.07158657,0.8707284,,-0.02977271,0.37982884,-0.34843126,0.29740927,-0.11529362,-0.9477632,0.9172608,-0.2409364,0.31714705,-0.26491567,-0.9636685,0.03409761,,1.2746679518222521,0.302360437491638,0.22243040110000004,2.1512091302077354,-0.663233569861448,0.23624248255827296,-0.4134238313858607,,-0.8620809480168078,-0.3092027788182009,0.22709574881000003,-2.8123615220144407,-1.167695526995454,1.0840068915764847,0.79319878514806,,-0.04931645967666478,-0.06459245395474515,0.08431779928,-0.06509005378220696,,-9.637326e-06,2.3841858e-07,-1.9073486e-06,1.0,2.1494925e-05,1.8797815e-05,-2.1502376e-05,0.99999994,2.2351742e-06,-1.880154e-05,-2.2351742e-06,1.0,786,2.45,1,3,1.295,False,-0.26297607698675796,0.9689353322578107
2.4511132609914057,14:00:23.504676,14:00:13.326303,0,,0.0873637,0.008012474,0.013951674,-0.27323455,0.95590144,-0.10768239,0.3500552,0.20307279,0.9144521,0.8959935,0.21216509,-0.3901049,,0.06683677,-0.02356328,0.00019264221,-0.4007354,0.15101965,0.90366143,0.23308897,-0.93706286,0.25996673,0.88604766,0.31481153,0.34031326,,0.106346555,1.3404378,0.44018942,0.9956665,0.012128051,-0.09220125,-0.051409494,-0.7544022,-0.6543962,-0.07749338,0.65630037,-0.75050956,,-0.05398488,0.26366246,-0.07405695,0.19521874,-0.9658663,0.17027013,0.8652256,0.25135556,0.43382606,-0.4618163,0.06263109,0.8847616,,-0.029723162,0.37975857,-0.3484965,0.29677427,-0.11432228,-0.9480799,0.9175232,-0.2410782,0.31627914,-0.26471916,-0.96374875,0.033347536,,1.2751235930618314,0.3002212404854778,0.22327817476000003,2.1554029290774257,-0.6360429064081253,0.2442914535746931,-0.41375051951812936,,-0.8617488705032161,-0.3096043609276606,0.22708278591000003,-2.811313072297018,-1.167695526995454,1.084170249056766,0.7945055376771344,,-0.04931645967666478,-0.06459245395474515,0.08431779928,-0.06509005378220696,,-9.637326e-06,2.3841858e-07,-1.9073486e-06,1.0,2.1494925e-05,1.8797815e-05,-2.1502376e-05,0.99999994,2.2351742e-06,-1.880154e-05,-2.2351742e-06,1.0,800,2.494,1,3,1.339,False,-0.26196325577190027,0.9674386460336475
2.4911785480217077,14:00:23.552087,14:00:13.326303,0,,0.08699986,0.008052692,0.012936413,-0.27864632,0.9561727,-0.0899455,0.37181157,0.19375384,0.9078631,0.88550115,0.21952993,-0.409505,,0.06681193,-0.023663476,0.00018876791,-0.40041807,0.15031302,0.90391994,0.2333513,-0.937205,0.2592179,0.8861221,0.31472653,0.34019804,,0.106346555,1.3404378,0.44018942,0.9956665,0.012128051,-0.09220125,-0.051409494,-0.7544022,-0.6543962,-0.07749338,0.65630037,-0.75050956,,-0.05352386,0.26303887,-0.07330641,0.20222199,-0.9671064,0.15430978,0.8748708,0.24920468,0.415329,-0.44012207,0.051012453,0.8964878,,-0.029691093,0.37970594,-0.34857938,0.29643363,-0.11360254,-0.94827294,0.91768545,-0.24114063,0.31576037,-0.26453832,-0.96381825,0.032769207,,1.2758418072191344,0.2982519436025506,0.22409743004000002,2.157499828512271,-0.6119948824494077,0.2560465387380988,-0.41554730424560643,,-0.8615558021813605,-0.31003683396861714,0.22705556382000003,-2.8106840024665645,-1.1678321634952193,1.084363345700603,0.7936888173464629,,-0.04931645967666478,-0.06459245395474515,0.08431779928,-0.06509005378220696,,-9.637326e-06,2.3841858e-07,-1.9073486e-06,1.0,2.1494925e-05,1.8797815e-05,-2.1502376e-05,0.99999994,2.2351742e-06,-1.880154e-05,-2.2351742e-06,1.0,809,2.523,1,3,1.368,False,-0.26196325577190027,0.9682594094468986
2.538599593040999,14:00:23.582798,14:00:13.326303,0,,0.08691116,0.008115649,0.0121658,-0.28262553,0.95570487,-0.082165085,0.3855118,0.19160397,0.9025898,0.87835264,0.22341932,-0.42258784,,0.06678844,-0.023745507,0.00015944242,-0.39991543,0.1494377,0.9042875,0.23351388,-0.9374488,0.2581878,0.8863063,0.31441706,0.34000444,,0.106346555,1.3404378,0.44018942,0.9956665,0.012128051,-0.09220125,-0.051409494,-0.7544022,-0.6543962,-0.07749338,0.65630037,-0.75050956,,-0.053359535,0.26258183,-0.07269829,0.20725268,-0.967076,0.14768314,0.8806119,0.25017533,0.40241143,-0.42610914,0.04665068,0.9034682,,-0.029659213,0.37964112,-0.34863344,0.29590553,-0.11268669,-0.9485471,0.9178664,-0.24142577,0.31501567,-0.26450178,-0.9638544,0.03199211,,1.275586957034285,0.29729432472614675,0.22473131585000003,2.158757968173178,-0.5968282309754439,0.2594431482749246,-0.4165273686424121,,-0.8613009519965111,-0.3103920796808315,0.22705426753000002,-2.8096355527491417,-1.167968799994985,1.0844747636042993,0.7933621292141944,,-0.04931645967666478,-0.06459245395474515,0.08431779928,-0.06509005378220696,,-9.637326e-06,2.3841858e-07,-1.9073486e-06,1.0,2.1494925e-05,1.8797815e-05,-2.1502376e-05,0.99999994,2.2351742e-06,-1.880154e-05,-2.2351742e-06,1.0,823,2.567,1,3,1.412,False,-0.2618441003348577,0.9680662886437805
2.5692614660365507,14:00:23.625542,14:00:13.326303,0,,0.08679244,0.007927924,0.0113404095,-0.28163883,0.9568993,-0.0708758,0.3978258,0.18366888,0.8988883,0.8731632,0.2249656,-0.4324077,,0.066743076,-0.023856461,0.00011128187,-0.39849386,0.14726076,0.90527165,0.23375466,-0.9381245,0.25550202,0.88688284,0.31342757,0.3394139,,0.106346555,1.3404378,0.44018942,0.9956665,0.012128051,-0.09220125,-0.051409494,-0.7544022,-0.6543962,-0.07749338,0.65630037,-0.75050956,,-0.053167056,0.2619018,-0.07221754,0.20711495,-0.9686349,0.13729456,0.88639146,0.24518733,0.39267462,-0.41402122,0.040367935,0.9093717,,-0.029601775,0.3795479,-0.348702,0.2944219,-0.110383056,-0.94927937,0.91831106,-0.24235678,0.31299847,-0.26461402,-0.96388733,0.03001083,,1.2747837928153656,0.2951087913227412,0.22532112780000002,2.1646292865907446,-0.5864438569932704,0.2653508458587355,-0.4160373364440092,,-0.8608144198254349,-0.3108399981875365,0.22705167495000003,-2.8064902035968737,-1.167968799994985,1.0843114061240182,0.7936888173464629,,-0.04931645967666478,-0.06459245395474515,0.08431779928,-0.06509005378220696,,-9.637326e-06,2.3841858e-07,-1.9073486e-06,1.0,2.1494925e-05,1.8797815e-05,-2.1502376e-05,0.99999994,2.2351742e-06,-1.880154e-05,-2.2351742e-06,1.0,832,2.597,1,3,1.442,False,-0.2620824112089424,0.9686456510531343
2.6120595650281757,14:00:23.656685,14:00:13.326303,0,,0.086880356,0.0076033324,0.011194408,-0.2795789,0.95770603,-0.06807822,0.40136248,0.18099196,0.8978585,0.87220633,0.22369827,-0.43498886,,0.06671383,-0.023882277,5.6505203e-05,-0.39738965,0.14565694,0.90601635,0.23360017,-0.938739,0.25337747,0.887419,0.3123352,0.33901963,,0.106303595,1.3404393,0.44018742,0.9956677,0.0121451765,-0.09218639,-0.051386893,-0.754402,-0.65439826,-0.07749338,0.65630037,-0.75050956,,-0.053210195,0.26156017,-0.07231971,0.20524737,-0.96939486,0.13471109,0.8883311,0.24229115,0.3900806,-0.4107814,0.03960503,0.91087323,,-0.029524257,0.37949452,-0.348699,0.29327333,-0.1086244,-0.9498376,0.918558,-0.24341075,0.3114521,-0.265032,-0.96382153,0.028391933,,1.2742045878497987,0.2937804812683746,0.22532501667000002,2.168194015629982,-0.5849408554958505,0.2661672174215889,-0.41636402457627786,,-0.8604668968460949,-0.3110253437765179,0.22705167495000003,-2.8039739242750596,-1.1681054364947503,1.0842594665474334,0.7940155054787315,,-0.04931645967666478,-0.06459245395474515,0.08431779928,-0.06509005378220696,,-5.2332878e-05,-2.6226044e-06,2.503395e-06,1.0,3.8534403e-05,3.369525e-05,-3.8538128e-05,1.0,3.993511e-06,-3.37027e-05,-3.993511e-06,1.0,846,2.642,1,3,1.487,False,-0.26190367805337944,0.9688387718562521
