AlexandreBanks6/ExpertPlaybackApp/resources/Motions/P_04/PC1/Data_PC1_9.csv
Task Time,PC1 Time,PC2 Time,Gaze Calib,s_T_psm1,Tx,Ty,Tz,R00,R01,R02,R10,R11,R12,R20,R21,R22,s_T_psm3,Tx,Ty,Tz,R00,R01,R02,R10,R11,R12,R20,R21,R22,cart_T_ecm,Tx,Ty,Tz,R00,R01,R02,R10,R11,R12,R20,R21,R22,ecm_T_psm1,Tx,Ty,Tz,R00,R01,R02,R10,R11,R12,R20,R21,R22,ecm_T_psm3,Tx,Ty,Tz,R00,R01,R02,R10,R11,R12,R20,R21,R22,psm1_joints,q1,q2,q3,q4,q5,q6,jaw,psm3_joints,q1,q2,q3,q4,q5,q6,jaw,ecm_joints,q1,q2,q3,q4,ecmi_T_ecm,Tx,Ty,Tz,R00,R01,R02,R10,R11,R12,R20,R21,R22,Sample #,Task Duration (s),Collisions (binary),Collisions (increments),Cumulative Collision Time (s),Clutch Press,MTMR Angle,MTML Angle
""
lci_T_si,,,,,-0.06091442,0.024665864,0.22852185,0.99137235,-0.028050909,0.12803915,0.064119875,-0.7481916,-0.6603772,0.11432199,0.66288954,-0.7399378
rci_T_si,,,,,-0.070449755,0.028832521,0.23726377,0.99015677,-0.04510285,0.13249657,0.05696979,-0.73481125,-0.6758749,0.12784386,0.6767704,-0.72500885
ecm_T_lc,,,,,-4.4061628e-05,-0.00034663224,-0.01840835,-0.99912,0.030754527,0.028518902,-0.031987965,-0.99852574,-0.043852776,0.027128186,-0.04472645,0.9986309
ecm_T_rc,,,,,-0.0043358393,0.01870579,-0.007592615,-0.99555075,-0.052743673,-0.078081585,0.04863213,-0.9973746,0.053654674,-0.08070653,0.04961868,0.9955021
cart_T_ecmi,,,,,0.10511527,1.3401165,0.4406436,0.9942844,0.013551921,-0.10590021,-0.05987073,-0.75049466,-0.658159,-0.08839686,0.6607376,-0.74539375
ecmac_T_ecmrep_psm1,,,,,0.006928962,-0.26080152,-0.2999526,0.99741316,0.06053514,0.03876121,-0.0592658,0.9976933,-0.033100393,-0.040675536,0.030717555,0.99870014
ecmac_T_ecmrep_psm3,,,,,-0.019041438,-0.46633056,-0.5465172,0.99408877,-0.01321918,0.10776258,-0.016145537,0.96352404,0.2671344,-0.107363135,-0.2672952,0.95761496
""
0,19:19:40.245594,19:19:30.418307,0,,0.12853436,0.006007433,0.032439217,0.6445975,0.43084425,-0.63155925,0.6698648,0.0798628,0.7381755,0.36847672,-0.89888537,-0.23712808,,0.023594692,-0.003036514,0.023846984,-0.6243222,0.5981406,0.5024436,0.21802574,-0.48421305,0.84735036,0.7501244,0.6385652,0.17189491,,0.10513644,1.3401171,0.4406461,0.9942825,0.013527784,-0.10592138,-0.05990271,-0.7504951,-0.6581556,-0.08839686,0.6607376,-0.74539375,,-0.096736394,0.26538968,-0.083781734,-0.64950395,-0.33452412,0.6828164,0.71931434,-0.56138283,0.4091897,0.24643758,0.75692993,0.6052484,,0.008493246,0.41213396,-0.34463412,0.5374789,-0.6345439,-0.55540115,0.819794,0.23882852,0.5204793,-0.19762133,-0.7350612,0.6485606,,1.238471502840762,0.5808653531347965,0.20869361597000002,3.333860411460453,0.24567242657826194,-0.9066054568416073,-0.3990495535660441,,-0.7395906818987329,-0.1708654648422173,0.19097073909,-3.562632139802069,-0.9654735073426023,1.0907971058812431,0.86572355051168,,-0.06277949319423604,-0.05761550026989781,0.08432494304,-0.06639839657179906,,2.0790845e-05,1.3709068e-06,-4.529953e-06,0.99999994,-2.3975968e-05,-2.1249056e-05,2.3972243e-05,1.0,-2.8014183e-06,2.1249056e-05,2.8312206e-06,1.0,34,0.101,1,1,0.0,False,-0.25546928445310746,1.0398589472028357
0.12866625399328768,19:19:40.271158,19:19:30.490602,0,,0.12850715,0.006061539,0.032496095,0.6412054,0.43940923,-0.6291064,0.66841996,0.08286551,0.7391536,0.37692213,-0.8944566,-0.24057616,,0.023620851,-0.0030874163,0.023842812,-0.62471116,0.59832317,0.50174224,0.21765225,-0.4836638,0.84775996,0.749909,0.6388104,0.17192385,,0.10513644,1.3401171,0.4406461,0.9942825,0.013527784,-0.10592138,-0.05990271,-0.7504951,-0.6581556,-0.08839686,0.6607376,-0.74539375,,-0.09671278,0.26546893,-0.083789855,-0.6470423,-0.34335646,0.6807662,0.7240515,-0.55649835,0.40750343,0.23892637,0.7565817,0.60868573,,0.008469995,0.41210192,-0.34467566,0.53790396,-0.6347746,-0.55472565,0.8194629,0.23929593,0.520786,-0.19783813,-0.7347099,0.64889246,,1.2389734804775865,0.5808112940046769,0.20866769017000003,3.32861816287334,0.23774750959186638,-0.9031653318124157,-0.39888620949990994,,-0.7397142456247204,-0.17116665142431203,0.19096944280000003,-3.563680589519491,-0.9658834168418985,1.0910496808521917,0.8655602064455457,,-0.06277949319423604,-0.05761550026989781,0.08432494304,-0.06639839657179906,,2.0790845e-05,1.3709068e-06,-4.529953e-06,0.99999994,-2.3975968e-05,-2.1249056e-05,2.3972243e-05,1.0,-2.8014183e-06,2.1249056e-05,2.8312206e-06,1.0,46,0.138,1,1,0.037,False,-0.25540970673458663,1.0400520680059533
0.15421120898099616,19:19:40.309596,19:19:30.490602,0,,0.12844452,0.0061189234,0.03254108,0.6358912,0.44649675,-0.6295099,0.66852385,0.08890334,0.73835766,0.38563973,-0.8903576,-0.24196097,,0.023656588,-0.0031205267,0.023845851,-0.62482125,0.59851146,0.5013804,0.21757105,-0.48325598,0.8480134,0.74984074,0.6389426,0.17172986,,0.10513644,1.3401171,0.4406461,0.9942825,0.013527784,-0.10592138,-0.05990271,-0.7504951,-0.6581556,-0.08839686,0.6607376,-0.74539375,,-0.09665261,0.26554388,-0.083790705,-0.6426319,-0.3505588,0.6812729,0.73018676,-0.5495385,0.40599844,0.23205939,0.758364,0.60912436,,0.008435692,0.41208404,-0.34470543,0.5380238,-0.63499355,-0.55435866,0.81937534,0.2395946,0.5207864,-0.19787467,-0.73442334,0.6492057,,1.2396685264362668,0.5806722848129409,0.2086508384,3.3208596349644117,0.23036913860453262,-0.9033563492634917,-0.3998662738967156,,-0.7398841457479534,-0.17139061067766453,0.19096944280000003,-3.5638902794629757,-0.9661566898414293,1.0907007654786005,0.8653968623794115,,-0.06277949319423604,-0.05761550026989781,0.08432494304,-0.06639839657179906,,2.0790845e-05,1.3709068e-06,-4.529953e-06,0.99999994,-2.3975968e-05,-2.1249056e-05,2.3972243e-05,1.0,-2.8014183e-06,2.1249056e-05,2.8312206e-06,1.0,58,0.175,1,1,0.074,False,-0.2544564632382502,1.0402451888090711
0.19266589294420555,19:19:40.345790,19:19:30.582359,0,,0.12833132,0.006208271,0.03259088,0.63179034,0.45311323,-0.62891096,0.66639805,0.09691143,0.73927116,0.39592218,-0.88616943,-0.24072617,,0.023685556,-0.0031414926,0.02385211,-0.62499106,0.59904605,0.5005296,0.21667594,-0.4828684,0.8484632,0.74995846,0.6387346,0.17198959,,0.10513644,1.3401171,0.4406461,0.9942825,0.013527784,-0.10592138,-0.05990271,-0.7504951,-0.6581556,-0.08839686,0.6607376,-0.74539375,,-0.09654132,0.26564756,-0.08377875,-0.63967913,-0.35721862,0.680592,0.7356822,-0.54104525,0.40748218,0.22267082,0.76135725,0.60889477,,0.008407253,0.41207573,-0.3447264,0.5382225,-0.63552266,-0.55355895,0.8190432,0.23955424,0.52132714,-0.19870782,-0.7339787,0.649454,,1.240711095374287,0.580401989162343,0.20864176437,3.3145689366598767,0.22025803762189,-0.9045861582462617,-0.3992128976321786,,-0.7400694913369348,-0.17154506533514904,0.19097333167000002,-3.564729039236914,-0.9671131453397875,1.0907455821432104,0.866213582710083,,-0.06277949319423604,-0.05761550026989781,0.08432494304,-0.06639839657179906,,2.0790845e-05,1.3709068e-06,-4.529953e-06,0.99999994,-2.3975968e-05,-2.1249056e-05,2.3972243e-05,1.0,-2.8014183e-06,2.1249056e-05,2.8312206e-06,1.0,70,0.212,1,1,0.111,False,-0.2552309735790237,1.0398106670020562
0.22882292896974832,19:19:40.379866,19:19:30.582359,0,,0.12827443,0.0062758774,0.03262697,0.62604374,0.46506622,-0.6259252,0.6655964,0.09949741,0.7396497,0.40626398,-0.8796667,-0.24725674,,0.02369031,-0.0031553954,0.023856342,-0.6261272,0.600068,0.4978786,0.21481141,-0.48107198,0.84995645,0.749547,0.63913083,0.17231083,,0.10513644,1.3401171,0.4406461,0.9942825,0.013527784,-0.10592138,-0.05990271,-0.7504951,-0.6581556,-0.08839686,0.6607376,-0.74539375,,-0.09648554,0.26572388,-0.0837656,-0.63504046,-0.3696449,0.67829657,0.7422565,-0.5351978,0.4032599,0.21395987,0.7595564,0.6142436,,0.008402757,0.4120718,-0.34474048,0.5394782,-0.63666016,-0.5510237,0.81787276,0.24068964,0.52264005,-0.2001184,-0.7326202,0.6505538,,1.241398418600093,0.580193475374739,0.20863657921000003,3.30639102886398,0.21096675563784006,-0.8985616368575757,-0.3985595213676415,,-0.7402316687272935,-0.17159140173239437,0.19097462796000003,-3.5680840783326664,-0.968206237337911,1.0913102104122194,0.8655602064455457,,-0.06277949319423604,-0.05761550026989781,0.08432494304,-0.06639839657179906,,2.0790845e-05,1.3709068e-06,-4.529953e-06,0.99999994,-2.3975968e-05,-2.1249056e-05,2.3972243e-05,1.0,-2.8014183e-06,2.1249056e-05,2.8312206e-06,1.0,91,0.278,1,1,0.177,False,-0.2552905512975445,1.0398589472028357
0.262889435980469,19:19:40.438819,19:19:30.582359,0,,0.12822118,0.0063767284,0.032686815,0.6115611,0.49028134,-0.6209806,0.66381204,0.10912031,0.7398962,0.43051884,-0.8647062,-0.25872102,,0.02372346,-0.0031746924,0.023863494,-0.6261484,0.60014457,0.4977596,0.21472228,-0.48098627,0.85002744,0.7495549,0.6391233,0.17230433,,0.10513644,1.3401171,0.4406461,0.9942825,0.013527784,-0.10592138,-0.05990271,-0.7504951,-0.6581556,-0.08839686,0.6607376,-0.74539375,,-0.09643437,0.26584062,-0.08374717,-0.6231582,-0.3958073,0.67454463,0.757783,-0.51894647,0.39554965,0.1934911,0.75764847,0.6233218,,0.008369996,0.41206464,-0.34476042,0.5395026,-0.63673955,-0.550908,0.8178369,0.24071817,0.5226831,-0.20019946,-0.7325418,0.6506172,,1.242394651140868,0.5796374386077948,0.20861583857000002,3.286680174176435,0.18924155217513502,-0.8892591004043227,-0.39757945697083563,,-0.7404015688505264,-0.17173813365700466,0.19097462796000003,-3.5680840783326664,-0.968479510337442,1.0911246525189096,0.8660502386439486,,-0.06277949319423604,-0.05761550026989781,0.08432494304,-0.06639839657179906,,2.0790845e-05,1.3709068e-06,-4.529953e-06,0.99999994,-2.3975968e-05,-2.1249056e-05,2.3972243e-05,1.0,-2.8014183e-06,2.1249056e-05,2.8312206e-06,1.0,99,0.302,1,1,0.201,False,-0.2552905512975445,1.0403900294114095
0.32187693199375644,19:19:40.467202,19:19:30.679643,0,,0.12822188,0.006403208,0.032704145,0.60058993,0.50524557,-0.61969215,0.6634696,0.11760455,0.7389028,0.44620597,-0.85492456,-0.26458302,,0.023732621,-0.003203541,0.023858309,-0.62630796,0.600324,0.4973424,0.21435413,-0.4807613,0.85024756,0.7495269,0.63912416,0.17242274,,0.10513644,1.3401171,0.4406461,0.9942825,0.013527784,-0.10592138,-0.05990271,-0.7504951,-0.6581556,-0.08839686,0.6607376,-0.74539375,,-0.0964357,0.26587182,-0.08374199,-0.61384416,-0.41130736,0.67381126,0.7684835,-0.5066446,0.39082524,0.18063354,0.7577186,0.6270837,,0.008362728,0.41204467,-0.34478262,0.53968096,-0.6369283,-0.550515,0.8176445,0.24081305,0.52294034,-0.20050433,-0.7323465,0.6507431,,1.2427190059215854,0.5791895201010898,0.20859898680000002,3.2724212580194867,0.17557790219859098,-0.8860401478283151,-0.3990495535660442,,-0.7404401825148975,-0.17190803378023758,0.19097592425,-3.5687131481631202,-0.9688894198367383,1.0913772274898583,0.8658868945778143,,-0.06277949319423604,-0.05761550026989781,0.08432494304,-0.06639839657179906,,2.0790845e-05,1.3709068e-06,-4.529953e-06,0.99999994,-2.3975968e-05,-2.1249056e-05,2.3972243e-05,1.0,-2.8014183e-06,2.1249056e-05,2.8312206e-06,1.0,116,0.355,1,1,0.254,False,-0.2559459062012759,1.0399072274036147
0.35027509497012943,19:19:40.521018,19:19:30.679643,0,,0.12823947,0.0064741373,0.032772347,0.5815595,0.5392152,-0.6091267,0.6552656,0.13323739,0.7435554,0.48209485,-0.8315615,-0.2758438,,0.023746014,-0.0032667518,0.023847103,-0.6265904,0.60049194,0.4967835,0.21420652,-0.48018754,0.85060894,0.7493331,0.6393976,0.17225164,,0.10513644,1.3401171,0.4406461,0.9942825,0.013527784,-0.10592138,-0.05990271,-0.7504951,-0.6581556,-0.08839686,0.6607376,-0.74539375,,-0.09645705,0.26596949,-0.08374249,-0.59888214,-0.446763,0.6646375,0.7872576,-0.48062032,0.38630244,0.14685266,0.7545906,0.6395525,,0.008353425,0.41200173,-0.3448313,0.53998744,-0.63714856,-0.5499593,0.81743425,0.24131857,0.52303594,-0.20053619,-0.73198843,0.65113604,,1.2433291018186492,0.5781083374986984,0.20854843149000002,3.2487262944057353,0.14005241225957646,-0.8737339558559202,-0.3993762416983129,,-0.7404633507135202,-0.1722632794924519,0.19097203538000002,-3.5695519079370577,-0.9691626928362691,1.0915183845571106,0.86572355051168,,-0.06277949319423604,-0.05761550026989781,0.08432494304,-0.06639839657179906,,2.0790845e-05,1.3709068e-06,-4.529953e-06,0.99999994,-2.3975968e-05,-2.1249056e-05,2.3972243e-05,1.0,-2.8014183e-06,2.1249056e-05,2.8312206e-06,1.0,137,0.421,1,1,0.32,False,-0.25576717304571295,1.0399555076043943
0.40408953797305003,19:19:40.591747,19:19:30.825959,0,,0.12797621,0.0064469725,0.032771274,0.55849266,0.57609546,-0.5968246,0.65052164,0.14224753,0.74604785,0.51469153,-0.8049096,-0.2953184,,0.023759507,-0.0033712834,0.023829162,-0.6269481,0.6007217,0.49605387,0.21391638,-0.47951812,0.85105956,0.7491167,0.6396842,0.1721288,,0.10513644,1.3401171,0.4406461,0.9942825,0.013527784,-0.10592138,-0.05990271,-0.7504951,-0.6581556,-0.08839686,0.6607376,-0.74539375,,-0.09619638,0.2659583,-0.083787,-0.57943076,-0.48572233,0.6544722,0.80652213,-0.45738497,0.37459445,0.11739686,0.74489784,0.65676874,,0.008346589,0.41193223,-0.34491223,0.5403776,-0.6374358,-0.5492428,0.817141,0.24187692,0.5232362,-0.20068032,-0.731554,0.6515798,,1.2449508757222363,0.5759768632254124,0.20847065409,3.2208375319222937,0.10794283481469795,-0.852778187856257,-0.4003563060951184,,-0.740455627980646,-0.17284248445801875,0.19096296135000002,-3.5708100475979654,-0.9697092388353309,1.0919640561718962,0.86572355051168,,-0.06277949319423604,-0.05761550026989781,0.08432494304,-0.06639839657179906,,2.0790845e-05,1.3709068e-06,-4.529953e-06,0.99999994,-2.3975968e-05,-2.1249056e-05,2.3972243e-05,1.0,-2.8014183e-06,2.1249056e-05,2.8312206e-06,1.0,145,0.446,1,1,0.345,False,-0.2561842170753601,1.0398106670020562
0.4748196269501932,19:19:40.611167,19:19:30.825959,0,,0.12786731,0.00645265,0.03277959,0.55390096,0.5823221,-0.59505826,0.6482061,0.14692748,0.7471554,0.52251554,-0.79957056,-0.29608154,,0.023761865,-0.0033985972,0.02382505,-0.6269979,0.6008828,0.49579567,0.21359766,-0.47944075,0.8511832,0.74916595,0.63959086,0.17226115,,0.10513644,1.3401171,0.4406461,0.9942825,0.013527784,-0.10592138,-0.05990271,-0.7504951,-0.6581556,-0.08839686,0.6607376,-0.74539375,,-0.096088745,0.2659721,-0.083800465,-0.5757508,-0.492251,0.6528399,0.81024176,-0.450563,0.374835,0.10963261,0.7447697,0.6582543,,0.008345908,0.41191468,-0.3449337,0.54043704,-0.63759047,-0.54900473,0.8170279,0.24181864,0.5234397,-0.20098059,-0.73143846,0.65161693,,1.2455995852836712,0.5753822127940971,0.20844991345000002,3.215385593391696,0.09947137182924065,-0.8510160384559344,-0.3998662738967157,,-0.740455627980646,-0.17299693911550323,0.19096166506,-3.5712294274849343,-0.9701191483346272,1.0922166311428447,0.8655602064455457,,-0.06277949319423604,-0.05761550026989781,0.08432494304,-0.06639839657179906,,2.0790845e-05,1.3709068e-06,-4.529953e-06,0.99999994,-2.3975968e-05,-2.1249056e-05,2.3972243e-05,1.0,-2.8014183e-06,2.1249056e-05,2.8312206e-06,1.0,158,0.486,1,1,0.385,False,-0.2556480176086704,1.0400037878051738
0.4942405459587462,19:19:40.652897,19:19:30.825959,0,,0.12753882,0.006469667,0.032831594,0.5345555,0.6042227,-0.59090185,0.6455662,0.15930572,0.74690425,0.54543054,-0.7807281,-0.3049081,,0.023775827,-0.003448218,0.023819566,-0.6270157,0.6007886,0.4958873,0.21386242,-0.47935015,0.8511677,0.7490754,0.6397472,0.17207402,,0.10513644,1.3401171,0.4406461,0.9942825,0.013527784,-0.10592138,-0.05990271,-0.7504951,-0.6581556,-0.08839686,0.6607376,-0.74539375,,-0.0957667,0.26603168,-0.083860904,-0.5589363,-0.51539254,0.64958507,0.8244128,-0.42954272,0.36856008,0.08907142,0.74152786,0.6649833,,0.008334848,0.41188347,-0.34497356,0.5404514,-0.6375162,-0.54907686,0.81708574,0.24200837,0.5232617,-0.20070663,-0.73144037,0.6516992,,1.2475843276323468,0.5738067752877553,0.20837343234000003,3.192529389551883,0.0770629858677084,-0.8419731998856048,-0.40198974675646126,,-0.7404710734463944,-0.17328268023184956,0.19095518361000002,-3.5712294274849343,-0.9701191483346272,1.0922166311428447,0.8655602064455457,,-0.06277949319423604,-0.05761550026989781,0.08432494304,-0.06639839657179906,,2.0790845e-05,1.3709068e-06,-4.529953e-06,0.99999994,-2.3975968e-05,-2.1249056e-05,2.3972243e-05,1.0,-2.8014183e-06,2.1249056e-05,2.8312206e-06,1.0,183,0.564,0,1,0.392,False,-0.2555288621716292,1.0395692659981588
0.5359264489961788,19:19:40.723469,19:19:30.947460,0,,0.12696807,0.0064050704,0.032888725,0.5216849,0.62066823,-0.5853337,0.64008063,0.16885206,0.7495237,0.5640403,-0.76567596,-0.3091902,,0.023777254,-0.0034654588,0.023822308,-0.626977,0.6008635,0.4958455,0.21383666,-0.47930044,0.85120213,0.7491152,0.63971406,0.17202377,,0.10513644,1.3401171,0.4406461,0.9942825,0.013527784,-0.10592138,-0.05990271,-0.7504951,-0.6581556,-0.08839686,0.6607376,-0.74539375,,-0.09520785,0.26604328,-0.08400485,-0.5482452,-0.5328501,0.64459133,0.83334774,-0.41296506,0.36741173,0.07041832,0.73860043,0.6704556,,0.008333962,0.41187698,-0.3449898,0.54041016,-0.63758975,-0.54903203,0.81710273,0.24199699,0.5232405,-0.20074867,-0.73138005,0.65175396,,1.2505344115903005,0.5714590644939911,0.20822176641,3.177222023677513,0.055884328404065146,-0.8333613712675592,-0.4003563060951184,,-0.7404710734463944,-0.17337535302634025,0.19094870216,-3.5712294274849343,-0.9702557848343927,1.0921646915662602,0.8652335183132772,,-0.06277949319423604,-0.05761550026989781,0.08432494304,-0.06639839657179906,,2.0790845e-05,1.3709068e-06,-4.529953e-06,0.99999994,-2.3975968e-05,-2.1249056e-05,2.3972243e-05,1.0,-2.8014183e-06,2.1249056e-05,2.8312206e-06,1.0,191,0.589,0,1,0.392,False,-0.25630337251240265,1.0392313045927026
0.6064957429771312,19:19:40.753383,19:19:30.947460,0,,0.12670535,0.006338954,0.032888427,0.51894057,0.62344146,-0.5848258,0.63930357,0.17109886,0.74967736,0.5674429,-0.7629193,-0.30977827,,0.023775984,-0.0034648776,0.02382499,-0.6269768,0.6009062,0.49579406,0.21382946,-0.47923356,0.85124165,0.7491175,0.639724,0.17197683,,0.10513644,1.3401171,0.4406461,0.9942825,0.013527784,-0.10592138,-0.05990271,-0.7504951,-0.6581556,-0.08839686,0.6607376,-0.74539375,,-0.094949454,0.26600385,-0.084076054,-0.5458922,-0.535789,0.64415205,0.83516264,-0.40955186,0.36711115,0.06711955,0.7383749,0.67104214,,0.008334935,0.4118797,-0.34499067,0.54041004,-0.6376363,-0.5489781,0.817101,0.24203469,0.5232257,-0.20075597,-0.731327,0.65181124,,1.2517314351858053,0.5704242182888449,0.20815176675000002,3.1736572946382764,0.05151196041157105,-0.831756288112647,-0.40068299422738696,,-0.7404710734463944,-0.17336763029346602,0.19094610958000002,-3.5712294274849343,-0.9702557848343927,1.0920830128261196,0.8650701742471429,,-0.06277949319423604,-0.05761550026989781,0.08432494304,-0.06639839657179906,,2.0790845e-05,1.3709068e-06,-4.529953e-06,0.99999994,-2.3975968e-05,-2.1249056e-05,2.3972243e-05,1.0,-2.8014183e-06,2.1249056e-05,2.8312206e-06,1.0,204,0.63,0,1,0.392,False,-0.2555288621716292,1.0390381837895846
0.636429205944296,19:19:40.793007,19:19:30.947460,0,,0.12648673,0.006290987,0.032917812,0.5154276,0.6277986,-0.58326924,0.6372416,0.17427379,0.7507009,0.57293755,-0.7586154,-0.31023392,,0.02377554,-0.00346528,0.023826122,-0.6269768,0.6008658,0.49584314,0.21382946,-0.47930306,0.8512025,0.7491175,0.63971,0.17202911,,0.10513644,1.3401171,0.4406461,0.9942825,0.013527784,-0.10592138,-0.05990271,-0.7504951,-0.6581556,-0.08839686,0.6607376,-0.74539375,,-0.09473713,0.26599616,-0.0841523,-0.5430397,-0.54041886,0.6426938,0.8374633,-0.40447,0.3675041,0.061344206,0.7378018,0.6722242,,0.008335284,0.41188052,-0.3449916,0.54041004,-0.6375915,-0.5490302,0.817101,0.24199195,0.5232455,-0.20075597,-0.7313802,0.6517515,,1.2527971723224485,0.5695361040083091,0.20807528564000002,3.1694634957685857,0.04481677192306447,-0.829563960437145,-0.4005196501612527,,-0.7404710734463944,-0.17336763029346602,0.19094481329000002,-3.5712294274849343,-0.9702557848343927,1.0921646915662602,0.8652335183132772,,-0.06277949319423604,-0.05761550026989781,0.08432494304,-0.06639839657179906,,2.0790845e-05,1.3709068e-06,-4.529953e-06,0.99999994,-2.3975968e-05,-2.1249056e-05,2.3972243e-05,1.0,-2.8014183e-06,2.1249056e-05,2.8312206e-06,1.0,212,0.654,0,1,0.392,False,-0.2552905512975445,1.039086463990364
0.6760325579671189,19:19:40.821198,19:19:30.947460,0,,0.126312,0.006263986,0.032971576,0.51318717,0.63162166,-0.5811133,0.63370353,0.17778629,0.752869,0.57884234,-0.7546164,-0.30902332,,0.023775462,-0.003466919,0.023826957,-0.626977,0.6009039,0.49579647,0.21383666,-0.47923094,0.85124135,0.7491152,0.6397281,0.17197147,,0.10513644,1.3401171,0.4406461,0.9942825,0.013527784,-0.10592138,-0.05990271,-0.7504951,-0.6581556,-0.08839686,0.6607376,-0.74539375,,-0.09456997,0.26601878,-0.08422784,-0.5415558,-0.54447275,0.64052063,0.83890235,-0.39932418,0.36984184,0.054406572,0.7376243,0.67301583,,0.0083353575,0.4118804,-0.34499344,0.54041016,-0.6376346,-0.54898,0.81710273,0.24203973,0.5232207,-0.20074867,-0.7313268,0.6518137,,1.2537239002673553,0.5688487807825031,0.20799880453000003,3.166947216446771,0.037165127936199804,-0.828061924758298,-0.40002961796284986,,-0.7404710734463944,-0.17337535302634025,0.190943517,-3.5712294274849343,-0.9702557848343927,1.0920830128261196,0.8650701742471429,,-0.06277949319423604,-0.05761550026989781,0.08432494304,-0.06639839657179906,,2.0790845e-05,1.3709068e-06,-4.529953e-06,0.99999994,-2.3975968e-05,-2.1249056e-05,2.3972243e-05,1.0,-2.8014183e-06,2.1249056e-05,2.8312206e-06,1.0,229,0.708,0,1,0.392,False,-0.25576717304571295,1.0395209857973793
0.7042477149516344,19:19:40.872685,19:19:31.073609,0,,0.1261662,0.0062833875,0.033125535,0.50849193,0.63958544,-0.576512,0.6283213,0.18219632,0.756318,0.58876824,-0.7468165,-0.30921984,,0.0237743,-0.0034750402,0.023832023,-0.62693655,0.6009136,0.49583602,0.2137607,-0.47933865,0.8511997,0.7491707,0.6396384,0.17206317,,0.10513644,1.3401171,0.4406461,0.9942825,0.013527784,-0.10592138,-0.05990271,-0.7504951,-0.6581556,-0.08839686,0.6607376,-0.74539375,,-0.0944397,0.266142,-0.08434263,-0.53811395,-0.552987,0.6361123,0.84177303,-0.39111006,0.3720901,0.043028932,0.73568904,0.6759513,,0.008336397,0.4118808,-0.345003,0.540368,-0.6376304,-0.5490263,0.8171077,0.24190755,0.52327406,-0.20084184,-0.7313742,0.6517318,,1.254781914671124,0.5684935350702889,0.20788084214000002,3.161914657803143,0.025414388956371922,-0.8236257456692612,-0.40149971455805833,,-0.7404710734463944,-0.17341396669071135,0.19093703555000002,-3.5712294274849343,-0.9703924213341582,1.0921944307298161,0.8650701742471429,,-0.06277949319423604,-0.05761550026989781,0.08432494304,-0.06639839657179906,,2.0790845e-05,1.3709068e-06,-4.529953e-06,0.99999994,-2.3975968e-05,-2.1249056e-05,2.3972243e-05,1.0,-2.8014183e-06,2.1249056e-05,2.8312206e-06,1.0,254,0.785,0,1,0.392,False,-0.25558843989015,1.0385071015810106
0.7557440519449301,19:19:40.945192,19:19:31.073609,0,,0.12614484,0.0063079447,0.033446506,0.4986284,0.6544587,-0.5683776,0.6188434,0.19036603,0.7620982,0.60696155,-0.7317406,-0.31008565,,0.023772545,-0.0035024434,0.023833692,-0.6270703,0.60117143,0.49535406,0.21336445,-0.4790378,0.85146844,0.7491718,0.6396215,0.17212185,,0.10513644,1.3401171,0.4406461,0.9942825,0.013527784,-0.10592138,-0.05990271,-0.7504951,-0.6581556,-0.08839686,0.6607376,-0.74539375,,-0.094449714,0.26637682,-0.08456361,-0.5305388,-0.56894225,0.6283576,0.8473671,-0.3754763,0.37548172,0.022305973,0.7316572,0.68130773,,0.008339245,0.41186857,-0.3450275,0.54051924,-0.637899,-0.54856527,0.81692314,0.24201697,0.5235116,-0.20118539,-0.7311037,0.65192926,,1.2554846833626785,0.5685630396661568,0.20765399139000001,3.15205923045937,0.004782277491790415,-0.8161946973272661,-0.4003563060951184,,-0.7404710734463944,-0.17355297588244742,0.19092925781000003,-3.571858497315388,-0.9708023308334544,1.0923653269606244,0.8644167979826058,,-0.06277949319423604,-0.05761550026989781,0.08432494304,-0.06639839657179906,,2.0790845e-05,1.3709068e-06,-4.529953e-06,0.99999994,-2.3975968e-05,-2.1249056e-05,2.3972243e-05,1.0,-2.8014183e-06,2.1249056e-05,2.8312206e-06,1.0,262,0.81,0,1,0.392,False,-0.2559459062012759,1.0387002223841284
0.828229657956399,19:19:40.974158,19:19:31.213209,0,,0.12617512,0.006321311,0.033593312,0.49242404,0.6627992,-0.56410587,0.61260146,0.1964584,0.765587,0.61825377,-0.72256565,-0.309291,,0.023770578,-0.0035222173,0.023834288,-0.62728584,0.60136044,0.49485147,0.21314852,-0.4785806,0.8517796,0.7490528,0.6397861,0.1720278,,0.10513644,1.3401171,0.4406461,0.9942825,0.013527784,-0.10592138,-0.05990271,-0.7504951,-0.6581556,-0.08839686,0.6607376,-0.74539375,,-0.094494,0.26648435,-0.084659144,-0.5257705,-0.577898,0.6241788,0.85057676,-0.36510772,0.37843823,0.009193807,0.7298837,0.6835095,,0.008342049,0.41185936,-0.34504488,0.54075503,-0.63812405,-0.54807085,0.8167355,0.24236822,0.5236418,-0.20131348,-0.7307909,0.6522404,,1.255600524355792,0.56853214873466,0.20755676964000003,3.1461879120418033,-0.008334826485691867,-0.8131763801456225,-0.3997029298305814,,-0.7404710734463944,-0.1736456486769381,0.19092277636000002,-3.572487567145841,-0.9709389673332198,1.0923950661241801,0.8642534539164716,,-0.06277949319423604,-0.05761550026989781,0.08432494304,-0.06639839657179906,,2.0790845e-05,1.3709068e-06,-4.529953e-06,0.99999994,-2.3975968e-05,-2.1249056e-05,2.3972243e-05,1.0,-2.8014183e-06,2.1249056e-05,2.8312206e-06,1.0,279,0.863,0,1,0.392,False,-0.2552905512975445,1.0383622609786725
0.8572269879514351,19:19:41.023625,19:19:31.213209,0,,0.1261907,0.0063308477,0.033770427,0.48772827,0.6671754,-0.5630255,0.6048572,0.20679548,0.7690146,0.6294988,-0.7156202,-0.30268595,,0.023775477,-0.0035477877,0.02383238,-0.6272485,0.6012985,0.49497405,0.21317288,-0.47872114,0.85169446,0.74907714,0.63973916,0.17209667,,0.10513644,1.3401171,0.4406461,0.9942825,0.013527784,-0.10592138,-0.05990271,-0.7504951,-0.6581556,-0.08839686,0.6607376,-0.74539375,,-0.09452689,0.26660997,-0.08478097,-0.5225605,-0.5825099,0.62258554,0.8525891,-0.35295644,0.3853747,-0.004738985,0.7321912,0.68108267,,0.008338545,0.4118443,-0.34506595,0.5407145,-0.6380514,-0.5481955,0.8167646,0.24226381,0.5236448,-0.20130436,-0.73088896,0.6521333,,1.2558244836091443,0.5685089805360373,0.20743491838000003,3.142203803115597,-0.022271749461766795,-0.8162688909734672,-0.39953958576444704,,-0.7404710734463944,-0.17379238060154836,0.19091888749000002,-3.572487567145841,-0.9710756038329852,1.0925881627680172,0.8640901098503373,,-0.06277949319423604,-0.05761550026989781,0.08432494304,-0.06639839657179906,,2.0790845e-05,1.3709068e-06,-4.529953e-06,0.99999994,-2.3975968e-05,-2.1249056e-05,2.3972243e-05,1.0,-2.8014183e-06,2.1249056e-05,2.8312206e-06,1.0,287,0.888,0,1,0.392,False,-0.25535012901606535,1.0382657005771132
0.9066877539735287,19:19:41.053791,19:19:31.213209,0,,0.12616672,0.006309703,0.033875242,0.4836951,0.6710492,-0.56190014,0.6044712,0.20816946,0.76894736,0.63297194,-0.7115886,-0.3049394,,0.023777239,-0.0035664588,0.023832202,-0.62724715,0.601275,0.49500424,0.21326599,-0.47868392,0.8516921,0.74905175,0.639789,0.17202166,,0.10513644,1.3401171,0.4406461,0.9942825,0.013527784,-0.10592138,-0.05990271,-0.7504951,-0.6581556,-0.08839686,0.6607376,-0.74539375,,-0.09451449,0.26666573,-0.0848745,-0.51891685,-0.58670783,0.62169063,0.85478765,-0.34937105,0.38376805,-0.00795899,0.7305572,0.6828051,,0.008337679,0.41183454,-0.3450819,0.5407113,-0.63803464,-0.5482181,0.8167896,0.2423278,0.5235761,-0.2012112,-0.73088235,0.65216947,,1.2560561655953713,0.5685630396661568,0.2073415855,3.1378003143024222,-0.025414388956371922,-0.813624600448309,-0.3997029298305813,,-0.7404633507135202,-0.1738927761289133,0.19091370233000002,-3.572487567145841,-0.9710756038329852,1.0925881627680172,0.8640901098503373,,-0.06277949319423604,-0.05761550026989781,0.08432494304,-0.06639839657179906,,2.0790845e-05,1.3709068e-06,-4.529953e-06,0.99999994,-2.3975968e-05,-2.1249056e-05,2.3972243e-05,1.0,-2.8014183e-06,2.1249056e-05,2.8312206e-06,1.0,300,0.929,0,1,0.392,False,-0.2566608388235285,1.0378311787700982
0.9368588999495842,19:19:41.093813,19:19:31.213209,0,,0.12612018,0.006305754,0.034028843,0.48240066,0.6759783,-0.55708396,0.6007397,0.2075387,0.77203596,0.63749605,-0.70709324,-0.30597025,,0.023782648,-0.003589198,0.023831487,-0.627214,0.60129267,0.49502486,0.21327601,-0.47869378,0.85168403,0.74907666,0.639765,0.17200214,,0.10513644,1.3401171,0.4406461,0.9942825,0.013527784,-0.10592138,-0.05990271,-0.7504951,-0.6581556,-0.08839686,0.6607376,-0.74539375,,-0.09448383,0.26676783,-0.08499453,-0.51824266,-0.5920862,0.6171373,0.85512036,-0.34699398,0.3851809,-0.013917337,0.72734386,0.6861321,,0.008333417,0.41182187,-0.34510112,0.5406754,-0.6380494,-0.5482363,0.8168125,0.24230038,0.5235531,-0.20121488,-0.73087853,0.6521726,,1.256527252300699,0.5686402669948991,0.20722232682000002,3.1367518645849994,-0.03128975844628586,-0.808588594368941,-0.40019296202898424,,-0.7404710734463944,-0.1740240625877751,0.19090981346000002,-3.572487567145841,-0.9712122403327507,1.092617901931573,0.8636000776519344,,-0.06277949319423604,-0.05761550026989781,0.08432494304,-0.06639839657179906,,2.0790845e-05,1.3709068e-06,-4.529953e-06,0.99999994,-2.3975968e-05,-2.1249056e-05,2.3972243e-05,1.0,-2.8014183e-06,2.1249056e-05,2.8312206e-06,1.0,308,0.953,0,1,0.392,False,-0.25588632848275505,1.038024299573216
0.9768833139678463,19:19:41.121335,19:19:31.213209,0,,0.12608495,0.0063239634,0.034130707,0.4781338,0.68118304,-0.55441624,0.5984344,0.20936543,0.77333206,0.64285636,-0.70153797,-0.30753878,,0.023783982,-0.0036024004,0.023832798,-0.62726355,0.6013394,0.49490535,0.21316539,-0.47863513,0.8517447,0.7490667,0.639765,0.17204568,,0.10513644,1.3401171,0.4406461,0.9942825,0.013527784,-0.10592138,-0.05990271,-0.7504951,-0.6581556,-0.08839686,0.6607376,-0.74539375,,-0.0944583,0.2668511,-0.08506058,-0.51463753,-0.59774125,0.614698,0.8571784,-0.34209788,0.38498604,-0.019835182,0.72503406,0.6884273,,0.008332581,0.41181615,-0.34511313,0.5407308,-0.63809854,-0.54812455,0.8167535,0.24232496,0.5236338,-0.2013057,-0.7308275,0.6522018,,1.2569056662115359,0.5686557124606475,0.20715751232000001,3.1323483757718247,-0.037165127936199804,-0.8049411268719628,-0.4014997145580582,,-0.7404787961792687,-0.17409356718364313,0.19090592459000003,-3.5726972570893256,-0.9713488768325161,1.0927293198352692,0.8636000776519344,,-0.06277949319423604,-0.05761550026989781,0.08432494304,-0.06639839657179906,,2.0790845e-05,1.3709068e-06,-4.529953e-06,0.99999994,-2.3975968e-05,-2.1249056e-05,2.3972243e-05,1.0,-2.8014183e-06,2.1249056e-05,2.8312206e-06,1.0,325,1.007,0,1,0.392,False,-0.25600548391979716,1.0375414975654216
1.0043073169654235,19:19:41.173530,19:19:31.397413,0,,0.12604296,0.006363824,0.034324512,0.47194117,0.69002366,-0.54876083,0.59080696,0.21447301,0.77778435,0.654384,-0.6912803,-0.3064522,,0.023783889,-0.0036145449,0.023834229,-0.6272609,0.6013271,0.49492353,0.21322274,-0.478611,0.85174394,0.7490525,0.6397946,0.1719974,,0.10513644,1.3401171,0.4406461,0.9942825,0.013527784,-0.10592138,-0.05990271,-0.7504951,-0.6581556,-0.08839686,0.6607376,-0.74539375,,-0.09443434,0.26701245,-0.085180186,-0.5099631,-0.60734475,0.6091551,0.8595221,-0.33174714,0.38880026,-0.034050316,0.72185606,0.691205,,0.00833309,0.4118113,-0.34512433,0.5407269,-0.6380904,-0.54813784,0.81677,0.24236374,0.5235901,-0.20124908,-0.7308218,0.6522257,,1.2575080393757254,0.5686248215291506,0.20704214251000003,3.1266867472977427,-0.051375323911805604,-0.8001330003192015,-0.3997029298305813,,-0.7404710734463944,-0.17415534904663693,0.19090073943000002,-3.5726972570893256,-0.9713488768325161,1.0927293198352692,0.8636000776519344,,-0.06277949319423604,-0.05761550026989781,0.08432494304,-0.06639839657179906,,2.0790845e-05,1.3709068e-06,-4.529953e-06,0.99999994,-2.3975968e-05,-2.1249056e-05,2.3972243e-05,1.0,-2.8014183e-06,2.1249056e-05,2.8312206e-06,1.0,334,1.035,0,1,0.392,False,-0.25719703829021734,1.0373000965615242
1.0565788669628091,19:19:41.204422,19:19:31.397413,0,,0.12602325,0.006362915,0.034411505,0.46827227,0.692231,-0.5491238,0.5893186,0.21837059,0.77782893,0.65834975,-0.6878447,-0.30568773,,0.023784429,-0.0036228448,0.02383542,-0.6272205,0.60133463,0.49496555,0.21315405,-0.47871605,0.85170203,0.7491059,0.6397089,0.17208362,,0.10513644,1.3401171,0.4406461,0.9942825,0.013527784,-0.10592138,-0.05990271,-0.7504951,-0.6581556,-0.08839686,0.6607376,-0.74539375,,-0.09442355,0.267071,-0.085246585,-0.50677764,-0.6097197,0.609441,0.861224,-0.32663652,0.38936073,-0.038335208,0.72218454,0.6906373,,0.008332812,0.41180813,-0.3451321,0.5406847,-0.63808465,-0.5481861,0.81677675,0.24223655,0.52363837,-0.20133491,-0.73086894,0.65214634,,1.2578015032249459,0.5686634351935218,0.20696047624000002,3.1229123283150213,-0.057523966401250425,-0.7990397741796097,-0.40002961796284986,,-0.7404710734463944,-0.17420168544388226,0.19089814685,-3.5726972570893256,-0.9714855133322816,1.0928407377389657,0.8626200132551287,,-0.06277949319423604,-0.05761550026989781,0.08432494304,-0.06639839657179906,,2.0790845e-05,1.3709068e-06,-4.529953e-06,0.99999994,-2.3975968e-05,-2.1249056e-05,2.3972243e-05,1.0,-2.8014183e-06,2.1249056e-05,2.8312206e-06,1.0,347,1.076,0,1,0.392,False,-0.2550522404234603,1.0373483767623035
1.08748717099661,19:19:41.244727,19:19:31.397413,0,,0.12604041,0.0063723624,0.034519136,0.4659592,0.69853026,-0.5430813,0.584279,0.21801242,0.7817216,0.6644546,-0.68156147,-0.3065517,,0.023693647,-0.0036598444,0.023846686,-0.6271149,0.60141724,0.49499905,0.21315116,-0.4787317,0.851694,0.74919516,0.6396196,0.17202699,,0.10517159,1.3401153,0.44064677,0.99428123,0.013511757,-0.10593543,-0.05992394,-0.7504954,-0.65815336,-0.08839686,0.6607376,-0.74539375,,-0.09448298,0.26714873,-0.085313566,-0.505292,-0.6166232,0.6037018,0.8616984,-0.32289442,0.39142692,-0.046430986,0.71799374,0.6944992,,0.008390374,0.41180566,-0.3451685,0.5405813,-0.6381638,-0.548196,0.81683147,0.24215205,0.5235921,-0.20139076,-0.73082787,0.6521751,,1.257940512416682,0.568671157926396,0.20690343948000003,3.121234808767145,-0.06367260889069525,-0.7945977196942546,-0.40084633829352145,,-0.7404633507135202,-0.17423257637537917,0.19089555427000002,-3.5726972570893256,-0.9716221498320471,1.0927887981623812,0.8626200132551287,,-0.06277949319423604,-0.05761550026989781,0.08432494304,-0.06639839657179906,,5.5786222e-05,3.7550926e-06,-7.5101852e-06,0.99999994,-3.989041e-05,-3.5353005e-05,3.9886683e-05,1.0,-4.708767e-06,3.5353005e-05,4.7385693e-06,1.0,360,1.117,0,1,0.392,False,-0.2571374605716965,1.037396656963083
1.1277924079913646,19:19:41.275178,19:19:31.397413,0,,0.12604918,0.00636898,0.03462413,0.45985585,0.703605,-0.5417309,0.5818687,0.22208467,0.78237283,0.6707915,-0.67499506,-0.30727884,,0.023699857,-0.0036612153,0.023846984,-0.6271334,0.6013901,0.49500853,0.21316524,-0.47873914,0.8516863,0.74917567,0.6396396,0.17203784,,0.10517159,1.3401153,0.44064677,0.99428123,0.013511757,-0.10593543,-0.05992394,-0.7504954,-0.65815336,-0.08839686,0.6607376,-0.74539375,,-0.09450238,0.26721653,-0.0853919,-0.49996406,-0.6221558,0.6024601,0.86440295,-0.31565377,0.39136964,-0.05332408,0.71643907,0.69560885,,0.008384232,0.41180456,-0.34516975,0.54060096,-0.6381384,-0.54820615,0.81682384,0.2421683,0.5235965,-0.2013689,-0.7308447,0.6521631,,1.2580254624782985,0.5686943261250187,0.20682825466000002,3.115153800406094,-0.07050443387896727,-0.7925390103354777,-0.4010096823596556,,-0.7404942416450171,-0.17424802184112761,0.19089685056000003,-3.5726972570893256,-0.9716221498320471,1.0927887981623812,0.8626200132551287,,-0.06277949319423604,-0.05761550026989781,0.08432494304,-0.06639839657179906,,5.5786222e-05,3.7550926e-06,-7.5101852e-06,0.99999994,-3.989041e-05,-3.5353005e-05,3.9886683e-05,1.0,-4.708767e-06,3.5353005e-05,4.7385693e-06,1.0,369,1.146,0,1,0.392,False,-0.25672041654204936,1.0373483767623035
1.158247796993237,19:19:41.314182,19:19:31.534523,0,,0.12607357,0.0063871294,0.034769237,0.45889232,0.708234,-0.53649056,0.57357204,0.22500652,0.78764665,0.678552,-0.6691611,-0.30296957,,0.02370599,-0.0036641806,0.023848116,-0.6271522,0.6013607,0.49502048,0.2131865,-0.4787439,0.85167825,0.74915385,0.6396636,0.17204338,,0.10517159,1.3401153,0.44064677,0.99428123,0.013511757,-0.10593543,-0.05992394,-0.7504954,-0.65815336,-0.08839686,0.6607376,-0.74539375,,-0.09454045,0.26732665,-0.08548357,-0.50013715,-0.6272203,0.59704065,0.86352646,-0.30973965,0.39797407,-0.064690225,0.71460205,0.6965336,,0.008378166,0.41180336,-0.34517285,0.5406208,-0.6381113,-0.5482182,0.8168179,0.24218962,0.5235959,-0.20133972,-0.73086125,0.65215343,,1.2581644716700344,0.568740662522264,0.20674269952000002,3.1155731802930626,-0.08184526335949882,-0.7904790534610442,-0.4010096823596555,,-0.740525132576514,-0.17427119003975028,0.19089685056000003,-3.5726972570893256,-0.9716221498320471,1.0927887981623812,0.8626200132551287,,-0.06277949319423604,-0.05761550026989781,0.08432494304,-0.06639839657179906,,5.5786222e-05,3.7550926e-06,-7.5101852e-06,0.99999994,-3.989041e-05,-3.5353005e-05,3.9886683e-05,1.0,-4.708767e-06,3.5353005e-05,4.7385693e-06,1.0,382,1.187,0,1,0.392,False,-0.2561246393568388,1.0372518163607447
1.1972109419875778,19:19:41.349199,19:19:31.534523,0,,0.12607178,0.006375015,0.03487122,0.45841768,0.71038294,-0.53404963,0.57156163,0.22450498,0.78924954,0.6805662,-0.66704834,-0.30311063,,0.02370761,-0.0036652833,0.023848355,-0.62715703,0.60135275,0.49502406,0.21319363,-0.4787445,0.8516762,0.74914795,0.6396706,0.17204347,,0.10517159,1.3401153,0.44064677,0.99428123,0.013511757,-0.10593543,-0.05992394,-0.7504954,-0.65815336,-0.08839686,0.6607376,-0.74539375,,-0.094549425,0.26738635,-0.08556665,-0.49995288,-0.62959003,0.59469616,0.86341286,-0.30876788,0.39897448,-0.06756727,0.71293676,0.6979655,,0.008376581,0.4118028,-0.34517387,0.5406258,-0.6381041,-0.54822165,0.81681687,0.2421962,0.52359456,-0.2013306,-0.73086536,0.65215164,,1.2583034808617706,0.5688873944468743,0.20666103325000001,3.115363490349578,-0.08457799335480763,-0.7881690166469753,-0.4005196501612527,,-0.7405328553093883,-0.1742789127726245,0.19089685056000003,-3.5726972570893256,-0.9716221498320471,1.0927887981623812,0.8626200132551287,,-0.06277949319423604,-0.05761550026989781,0.08432494304,-0.06639839657179906,,5.5786222e-05,3.7550926e-06,-7.5101852e-06,0.99999994,-3.989041e-05,-3.5353005e-05,3.9886683e-05,1.0,-4.708767e-06,3.5353005e-05,4.7385693e-06,1.0,395,1.228,0,1,0.392,False,-0.25600548391979716,1.0367207341521705
1.2322334429481998,19:19:41.393799,19:19:31.534523,0,,0.126094,0.006378323,0.034973085,0.4578473,0.71175593,-0.53270924,0.5704178,0.22441721,0.79010165,0.6819086,-0.66561276,-0.30324945,,0.023709606,-0.0036676377,0.023848176,-0.627162,0.6013022,0.49507916,0.21320787,-0.47881204,0.8516347,0.7491396,0.63966763,0.17209038,,0.10517159,1.3401153,0.44064677,0.99428123,0.013511757,-0.10593543,-0.05992394,-0.7504954,-0.65815336,-0.08839686,0.6607376,-0.74539375,,-0.09458163,0.2674565,-0.08563683,-0.49956918,-0.6311028,0.5934138,0.8634913,-0.3079174,0.39946175,-0.06937899,0.7119664,0.6987778,,0.008374721,0.41180128,-0.34517583,0.5406309,-0.6380504,-0.5482791,0.8168175,0.24216506,0.5236079,-0.20131418,-0.7309226,0.65209264,,1.25835753999189,0.5691963037618433,0.20659103359000003,3.114944110462609,-0.08608099485222749,-0.7868617409661742,-0.4003563060951185,,-0.7405405780422625,-0.17429435823837297,0.19089685056000003,-3.5726972570893256,-0.9716221498320471,1.0928704769025217,0.862783357321263,,-0.06277949319423604,-0.05761550026989781,0.08432494304,-0.06639839657179906,,5.5786222e-05,3.7550926e-06,-7.5101852e-06,0.99999994,-3.989041e-05,-3.5353005e-05,3.9886683e-05,1.0,-4.708767e-06,3.5353005e-05,4.7385693e-06,1.0,404,1.257,0,1,0.392,False,-0.256065061638318,1.03676901435295
1.2768435420002788,19:19:41.426475,19:19:31.534523,0,,0.12612781,0.0064008236,0.03504473,0.45591706,0.71478355,-0.5303054,0.5685767,0.22449204,0.7914063,0.6847335,-0.66233504,-0.30405962,,0.023713224,-0.0036711097,0.023848236,-0.62717175,0.6013246,0.49503964,0.21322921,-0.47874093,0.85166925,0.74912536,0.6396998,0.17203286,,0.10517159,1.3401153,0.44064677,0.99428123,0.013511757,-0.10593543,-0.05992394,-0.7504954,-0.65815336,-0.08839686,0.6607376,-0.74539375,,-0.09462149,0.2675201,-0.08567078,-0.4980123,-0.6344388,0.59116083,0.86410147,-0.3057682,0.399793,-0.07288602,0.7099248,0.70049584,,0.008371276,0.4117992,-0.3451788,0.540641,-0.63807905,-0.5482358,0.8168171,0.24222603,0.5235803,-0.20128864,-0.73087734,0.65215117,,1.2583420945261417,0.5694202630151958,0.20655862634000002,3.113266590914733,-0.08936027084659805,-0.78418771127746,-0.4003563060951185,,-0.7405560235080109,-0.17431752643699563,0.19089685056000003,-3.5726972570893256,-0.9716221498320471,1.0927887981623812,0.8626200132551287,,-0.06277949319423604,-0.05761550026989781,0.08432494304,-0.06639839657179906,,5.5786222e-05,3.7550926e-06,-7.5101852e-06,0.99999994,-3.989041e-05,-3.5353005e-05,3.9886683e-05,1.0,-4.708767e-06,3.5353005e-05,4.7385693e-06,1.0,417,1.297,0,1,0.392,False,-0.2561246393568388,1.0370104153568473
1.3095429909881204,19:19:41.460753,19:19:31.668828,0,,0.12616238,0.0063991696,0.035159677,0.45193943,0.7192316,-0.5276897,0.5664816,0.22556445,0.7926029,0.689093,-0.6571351,-0.30549005,,0.023714833,-0.003676951,0.023846745,-0.6272619,0.6013615,0.4948805,0.21319443,-0.47857463,0.8517715,0.7490598,0.6397895,0.1719847,,0.10517159,1.3401153,0.44064677,0.99428123,0.013511757,-0.10593543,-0.05992394,-0.7504954,-0.65815336,-0.08839686,0.6607376,-0.74539375,,-0.09466747,0.26759493,-0.08575258,-0.49458528,-0.6393378,0.58875513,0.86563104,-0.3016408,0.39961946,-0.077899225,0.70729065,0.7026177,,0.008370097,0.4117948,-0.34518307,0.54073864,-0.6381322,-0.5480776,0.81675303,0.24238284,0.5236077,-0.20128633,-0.73077893,0.6522622,,1.258318926327519,0.5696364995356741,0.20647955265,3.1094921719320117,-0.09414254833838846,-0.7807781570889286,-0.40133637049192394,,-0.7405637462408852,-0.17434841736849252,0.19089685056000003,-3.572906947032811,-0.9716221498320471,1.0927887981623812,0.8626200132551287,,-0.06277949319423604,-0.05761550026989781,0.08432494304,-0.06639839657179906,,5.5786222e-05,3.7550926e-06,-7.5101852e-06,0.99999994,-3.989041e-05,-3.5353005e-05,3.9886683e-05,1.0,-4.708767e-06,3.5353005e-05,4.7385693e-06,1.0,430,1.338,0,1,0.392,False,-0.2559459062012759,1.0372035361599652
1.3437638679752126,19:19:41.507720,19:19:31.668828,0,,0.12617086,0.0063660294,0.035238683,0.45310792,0.71905476,-0.5269282,0.56521684,0.2253606,0.7935632,0.68936414,-0.6573986,-0.30430934,,0.023715936,-0.003680855,0.023845732,-0.6272626,0.60135484,0.49488777,0.21321592,-0.47856677,0.8517705,0.7490531,0.63980174,0.17196864,,0.10517159,1.3401153,0.44064677,0.99428123,0.013511757,-0.10593543,-0.05992394,-0.7504954,-0.65815336,-0.08839686,0.6607376,-0.74539375,,-0.09468525,0.26762328,-0.085831925,-0.4958275,-0.6391441,0.58792,0.8648359,-0.3019622,0.40109554,-0.07882825,0.70732856,0.70247597,,0.0083692735,0.41179186,-0.34518594,0.540739,-0.6381271,-0.5480832,0.8167582,0.24239796,0.52359265,-0.20126441,-0.7307784,0.65226954,,1.2583266490603933,0.5697600632616616,0.20640047896000002,3.1109600015364034,-0.09496236733698112,-0.7809264370681557,-0.40002961796284986,,-0.7405637462408852,-0.1743715855671152,0.19089685056000003,-3.572906947032811,-0.9716221498320471,1.0927887981623812,0.8626200132551287,,-0.06277949319423604,-0.05761550026989781,0.08432494304,-0.06639839657179906,,5.5786222e-05,3.7550926e-06,-7.5101852e-06,0.99999994,-3.989041e-05,-3.5353005e-05,3.9886683e-05,1.0,-4.708767e-06,3.5353005e-05,4.7385693e-06,1.0,443,1.379,0,1,0.392,False,-0.2555288621716292,1.0368172945537295
1.3907861589686945,19:19:41.539832,19:19:31.668828,0,,0.1261901,0.0063521415,0.03535703,0.4496808,0.72441894,-0.52249795,0.5616639,0.22550526,0.79604083,0.69449306,-0.65143263,-0.3054747,,0.02371715,-0.003682971,0.023846567,-0.62722576,0.60140604,0.49487212,0.21311857,-0.47861588,0.8517673,0.7491116,0.6397168,0.17202944,,0.10517159,1.3401153,0.44064677,0.99428123,0.013511757,-0.10593543,-0.05992394,-0.7504954,-0.65815336,-0.08839686,0.6607376,-0.74539375,,-0.094716854,0.2676919,-0.08592603,-0.49308664,-0.64507,0.58373815,0.8657855,-0.29803875,0.40198055,-0.085329026,0.70360327,0.7054512,,0.008368086,0.41179135,-0.34518814,0.54070115,-0.63816744,-0.5480735,0.81675535,0.24229492,0.5236448,-0.20137765,-0.7307773,0.65223587,,1.25835753999189,0.5698372905904039,0.20631103495000003,3.10802434232762,-0.10138428282595681,-0.7760981892951266,-0.40084633829352134,,-0.7405714689737594,-0.17438703103286365,0.19089685056000003,-3.572906947032811,-0.9717587863318125,1.092818537325937,0.8624566691889944,,-0.06277949319423604,-0.05761550026989781,0.08432494304,-0.06639839657179906,,5.5786222e-05,3.7550926e-06,-7.5101852e-06,0.99999994,-3.989041e-05,-3.5353005e-05,3.9886683e-05,1.0,-4.708767e-06,3.5353005e-05,4.7385693e-06,1.0,452,1.408,0,1,0.392,False,-0.25546928445310746,1.0370104153568473
1.4228793079964817,19:19:41.570433,19:19:31.668828,0,,0.12620679,0.006334394,0.03546664,0.44791126,0.7263175,-0.52138084,0.55850023,0.22808088,0.7975316,0.69817823,-0.64841473,-0.3034886,,0.023718406,-0.0036827326,0.023847103,-0.62723035,0.6014003,0.49487332,0.2131185,-0.47861904,0.8517655,0.74910784,0.6397198,0.17203483,,0.10517159,1.3401153,0.44064677,0.99428123,0.013511757,-0.10593543,-0.05992394,-0.7504954,-0.65815336,-0.08839686,0.6607376,-0.74539375,,-0.09474522,0.2677519,-0.08601662,-0.4918319,-0.64715195,0.582491,0.8659909,-0.2941748,0.40437734,-0.09033943,0.7033175,0.7051122,,0.008366775,0.41179177,-0.3451882,0.54070604,-0.63816196,-0.5480751,0.81675255,0.24229647,0.5236484,-0.20137583,-0.7307816,0.6522316,,1.258388430923387,0.5699376861177688,0.20622418352000002,3.1067662026667127,-0.10630319681751266,-0.776089403028943,-0.4010096823596555,,-0.7405791917066336,-0.17438703103286365,0.19089685056000003,-3.572906947032811,-0.9717587863318125,1.092818537325937,0.8624566691889944,,-0.06277949319423604,-0.05761550026989781,0.08432494304,-0.06639839657179906,,5.5786222e-05,3.7550926e-06,-7.5101852e-06,0.99999994,-3.989041e-05,-3.5353005e-05,3.9886683e-05,1.0,-4.708767e-06,3.5353005e-05,4.7385693e-06,1.0,465,1.449,0,1,0.392,False,-0.25642252794944387,1.036431052947494
1.4535056349704973,19:19:41.612995,19:19:31.836458,0,,0.12620813,0.006293118,0.035618037,0.4445482,0.729773,-0.5194305,0.55621725,0.2296488,0.7986763,0.7021391,-0.6439664,-0.30382243,,0.023718406,-0.0036827326,0.023847103,-0.62723035,0.6014408,0.4948242,0.2131185,-0.47854948,0.8518046,0.74910784,0.6397338,0.17198262,,0.10517159,1.3401153,0.44064677,0.99428123,0.013511757,-0.10593543,-0.05992394,-0.7504954,-0.65815336,-0.08839686,0.6607376,-0.74539375,,-0.09476352,0.2678232,-0.086155206,-0.4889836,-0.6509677,0.5806342,0.8670909,-0.2901503,0.40492743,-0.0951235,0.7014655,0.7063269,,0.008366775,0.41179177,-0.3451882,0.54070604,-0.6382067,-0.548023,0.81675255,0.24233924,0.5236286,-0.20137583,-0.7307283,0.6522913,,1.2584965491836262,0.5700689725766306,0.20608936936000002,3.1036208535144447,-0.11094883780953764,-0.7737714116257948,-0.4010096823596555,,-0.7405791917066336,-0.17438703103286365,0.19089685056000003,-3.572906947032811,-0.9717587863318125,1.0927368585857964,0.8622933251228603,,-0.06277949319423604,-0.05761550026989781,0.08432494304,-0.06639839657179906,,5.5786222e-05,3.7550926e-06,-7.5101852e-06,0.99999994,-3.989041e-05,-3.5353005e-05,3.9886683e-05,1.0,-4.708767e-06,3.5353005e-05,4.7385693e-06,1.0,478,1.49,0,1,0.392,False,-0.2564821056679656,1.03676901435295
1.496013323951047,19:19:41.657725,19:19:31.836458,0,,0.12619184,0.0062348694,0.035806984,0.44119486,0.7340527,-0.5162494,0.55367756,0.23007064,0.8003179,0.70624936,-0.6389319,-0.30492258,,0.023722101,-0.0036845356,0.023846328,-0.6272398,0.60154617,0.49468398,0.21313271,-0.47834185,0.8519176,0.74909586,0.63979,0.17182595,,0.10517159,1.3401153,0.44064677,0.99428123,0.013511757,-0.10593543,-0.05992394,-0.7504954,-0.65815336,-0.08839686,0.6607376,-0.74539375,,-0.094768785,0.26790783,-0.086334564,-0.48617086,-0.6557103,0.5776521,0.8681014,-0.28660887,0.40528417,-0.10018877,0.69849795,0.7085639,,0.008363256,0.41178983,-0.34518933,0.540716,-0.6383266,-0.5478735,0.81675047,0.24248071,0.5235664,-0.20135759,-0.7305767,0.6524667,,1.2587127857041043,0.5702079817683666,0.20591437021000003,3.100475504362177,-0.1158677518010935,-0.7698420458328641,-0.4011730264257899,,-0.740594637172382,-0.1744024764986121,0.19089814685,-3.572906947032811,-0.9717587863318125,1.0924918223653746,0.8621299810567259,,-0.06277949319423604,-0.05761550026989781,0.08432494304,-0.06639839657179906,,5.5786222e-05,3.7550926e-06,-7.5101852e-06,0.99999994,-3.989041e-05,-3.5353005e-05,3.9886683e-05,1.0,-4.708767e-06,3.5353005e-05,4.7385693e-06,1.0,487,1.519,0,1,0.392,False,-0.2551713958605024,1.0366724539513914
1.5407946999766864,19:19:41.681599,19:19:31.836458,0,,0.12617406,0.00620991,0.035947382,0.4372504,0.7376246,-0.51451135,0.55224353,0.23132108,0.800948,0.70981616,-0.6343504,-0.30620322,,0.02372624,-0.0036851615,0.02384758,-0.6272536,0.6015269,0.49468988,0.2131397,-0.47834876,0.851912,0.7490823,0.63980293,0.17183673,,0.10517159,1.3401153,0.44064677,0.99428123,0.013511757,-0.10593543,-0.05992394,-0.7504954,-0.65815336,-0.08839686,0.6607376,-0.74539375,,-0.09476629,0.26798448,-0.08645611,-0.48266917,-0.65966856,0.5760797,0.8695852,-0.2827338,0.40482485,-0.104173,0.6963469,0.7101049,,0.0083590485,0.41179013,-0.34519047,0.5407307,-0.6383084,-0.5478802,0.81674385,0.2424904,0.5235722,-0.20134485,-0.7305894,0.65245646,,1.2589367449574569,0.5703469909601027,0.20579640782000003,3.096491395435971,-0.11969357379452583,-0.7669673807497861,-0.40133637049192417,,-0.7406178053710047,-0.17441019923148632,0.19089814685,-3.572906947032811,-0.9717587863318125,1.0924918223653746,0.8621299810567259,,-0.06277949319423604,-0.05761550026989781,0.08432494304,-0.06639839657179906,,5.5786222e-05,3.7550926e-06,-7.5101852e-06,0.99999994,-3.989041e-05,-3.5353005e-05,3.9886683e-05,1.0,-4.708767e-06,3.5353005e-05,4.7385693e-06,1.0,500,1.56,0,1,0.392,False,-0.25636295023092304,1.0360930915420377
1.5645876929629594,19:19:41.720966,19:19:31.922517,0,,0.12615143,0.006170273,0.036131084,0.43440905,0.7427919,-0.50945914,0.54804206,0.23089373,0.8039514,0.71479964,-0.62844896,-0.3067791,,0.023733262,-0.0036866665,0.023849547,-0.62727666,0.6014941,0.4947006,0.21315372,-0.4783594,0.85190254,0.74905896,0.6398258,0.17185298,,0.10517159,1.3401153,0.44064677,0.99428123,0.013511757,-0.10593543,-0.05992394,-0.7504954,-0.65815336,-0.08839686,0.6607376,-0.74539375,,-0.094763935,0.26807955,-0.08661974,-0.48052335,-0.66541654,0.5712426,0.86993617,-0.27926925,0.40647227,-0.11094289,0.692264,0.7130653,,0.008351946,0.41179034,-0.3451927,0.5407553,-0.6382775,-0.547892,0.8167334,0.2425082,0.5235802,-0.20132117,-0.73061043,0.65244013,,1.2592224860738033,0.5704319410217192,0.20563955673000003,3.0941848060576413,-0.12638876228303242,-0.7616712609489427,-0.4011730264257899,,-0.7406564190353758,-0.1744256446972348,0.19089814685,-3.572906947032811,-0.9717587863318125,1.0924918223653746,0.8621299810567259,,-0.06277949319423604,-0.05761550026989781,0.08432494304,-0.06639839657179906,,5.5786222e-05,3.7550926e-06,-7.5101852e-06,0.99999994,-3.989041e-05,-3.5353005e-05,3.9886683e-05,1.0,-4.708767e-06,3.5353005e-05,4.7385693e-06,1.0,513,1.601,0,1,0.392,False,-0.2557075953271921,1.0365758935498322
1.6040302600013092,19:19:41.763606,19:19:31.922517,0,,0.12609845,0.006091729,0.036481827,0.4281764,0.74985677,-0.5043605,0.54002714,0.23518737,0.8081198,0.7245933,-0.61838627,-0.30424148,,0.023740359,-0.0036864728,0.023850739,-0.6272994,0.601423,0.494758,0.21316063,-0.4784422,0.8518543,0.7490379,0.63983065,0.17192689,,0.10517159,1.3401153,0.44064677,0.99428123,0.013511757,-0.10593543,-0.05992394,-0.7504954,-0.65815336,-0.08839686,0.6607376,-0.74539375,,-0.09474985,0.26825938,-0.08693514,-0.47565135,-0.6732695,0.56609535,0.87082845,-0.26958612,0.41107318,-0.1241516,0.68849945,0.71453124,,0.008344769,0.41179067,-0.34519306,0.5407797,-0.6382035,-0.547954,0.8167213,0.2424782,0.52361304,-0.20130478,-0.730685,0.6523617,,1.2598016910393701,0.5705477820148326,0.20533881745000002,3.0889425574705283,-0.1395058662605147,-0.7573460839250499,-0.40002961796284997,,-0.7406950326997469,-0.174433367430109,0.19089944314,-3.572906947032811,-0.9717587863318125,1.092573501105515,0.8622933251228602,,-0.06277949319423604,-0.05761550026989781,0.08432494304,-0.06639839657179906,,5.5786222e-05,3.7550926e-06,-7.5101852e-06,0.99999994,-3.989041e-05,-3.5353005e-05,3.9886683e-05,1.0,-4.708767e-06,3.5353005e-05,4.7385693e-06,1.0,522,1.629,0,1,0.392,False,-0.25558843989015,1.036431052947494
1.6466622309526429,19:19:41.796314,19:19:31.922517,0,,0.12604553,0.006020561,0.036667585,0.42646116,0.75256693,-0.50177044,0.53727716,0.23550719,0.80985785,0.7276428,-0.6149628,-0.30390245,,0.023748815,-0.0036842525,0.023854196,-0.62728924,0.60152555,0.4946464,0.21304862,-0.4783765,0.85191923,0.7490783,0.6397835,0.17192629,,0.10517159,1.3401153,0.44064677,0.99428123,0.013511757,-0.10593543,-0.05992394,-0.7504954,-0.65815336,-0.08839686,0.6607376,-0.74539375,,-0.09471893,0.26833367,-0.087124586,-0.47436917,-0.6762942,0.5635601,0.87091,-0.2671462,0.41249087,-0.12841225,0.68648314,0.71571726,,0.008335916,0.41179386,-0.34519282,0.54077077,-0.6383038,-0.54784596,0.8166984,0.24245994,0.52365726,-0.20142174,-0.73060346,0.65241694,,1.260180104950207,0.5705786729463295,0.20515474427000002,3.0874747278661365,-0.14374159775324336,-0.7547089163118665,-0.4016630586241927,,-0.7407490918298665,-0.174433367430109,0.19090073943000002,-3.572906947032811,-0.9718954228315779,1.09243988278879,0.8618032929244573,,-0.06277949319423604,-0.05761550026989781,0.08432494304,-0.06639839657179906,,5.5786222e-05,3.7550926e-06,-7.5101852e-06,0.99999994,-3.989041e-05,-3.5353005e-05,3.9886683e-05,1.0,-4.708767e-06,3.5353005e-05,4.7385693e-06,1.0,535,1.67,0,1,0.392,False,-0.2564821056679656,1.036431052947494
1.679339195950888,19:19:41.836859,19:19:32.068600,0,,0.1259846,0.005926326,0.03690666,0.42229697,0.75732476,-0.49812078,0.5342132,0.2360209,0.811733,0.7323124,-0.6088951,-0.30490202,,0.023753613,-0.0036834627,0.023853302,-0.627392,0.60155433,0.49448103,0.212985,-0.47823006,0.85201734,0.74901044,0.6398659,0.17191571,,0.10517159,1.3401153,0.44064677,0.99428123,0.013511757,-0.10593543,-0.05992394,-0.7504954,-0.65815336,-0.08839686,0.6607376,-0.74539375,,-0.09468638,0.26842704,-0.087369464,-0.4708288,-0.68161196,0.56011194,0.87193894,-0.26285934,0.4130708,-0.13432333,0.682869,0.7180857,,0.008331205,0.41179296,-0.34519163,0.54088247,-0.63834727,-0.5476851,0.81661916,0.24260126,0.5237154,-0.2014432,-0.7305186,0.65250534,,1.2606048552582894,0.5706095638778264,0.2049175232,3.0834906189399307,-0.1496169672431573,-0.749999625193061,-0.40149971455805844,,-0.7407799827613634,-0.174433367430109,0.19090333201,-3.573116636976295,-0.9718954228315779,1.09243988278879,0.8618032929244573,,-0.06277949319423604,-0.05761550026989781,0.08432494304,-0.06639839657179906,,5.5786222e-05,3.7550926e-06,-7.5101852e-06,0.99999994,-3.989041e-05,-3.5353005e-05,3.9886683e-05,1.0,-4.708767e-06,3.5353005e-05,4.7385693e-06,1.0,548,1.711,0,1,0.392,False,-0.2557075953271921,1.0366241737506119
1.7199257829925045,19:19:41.870826,19:19:32.068600,0,,0.12593536,0.0058604777,0.037074447,0.4207754,0.7593819,-0.49627295,0.5325473,0.23609978,0.812804,0.73439854,-0.60629684,-0.30506194,,0.023756132,-0.0036838204,0.023851156,-0.6273967,0.6015464,0.4944846,0.21299212,-0.4782306,0.85201526,0.7490044,0.6398729,0.17191577,,0.10517159,1.3401153,0.44064677,0.99428123,0.013511757,-0.10593543,-0.05992394,-0.7504954,-0.65815336,-0.08839686,0.6607376,-0.74539375,,-0.0946571,0.26849306,-0.0875418,-0.46959648,-0.6839148,0.55833656,0.8721667,-0.2611287,0.4136871,-0.13712902,0.6812286,0.7191128,,0.008328921,0.4117907,-0.34519085,0.5408874,-0.63834006,-0.54768854,0.8166181,0.24260785,0.523714,-0.20143408,-0.7305227,0.65250355,,1.2609523782376295,0.5706790684736943,0.20474900550000003,3.082022789335539,-0.15234969723846611,-0.7477712671191326,-0.4011730264257898,,-0.7407877054942377,-0.17444109016298323,0.19090592459000003,-3.573116636976295,-0.9718954228315779,1.09243988278879,0.8618032929244573,,-0.06277949319423604,-0.05761550026989781,0.08432494304,-0.06639839657179906,,5.5786222e-05,3.7550926e-06,-7.5101852e-06,0.99999994,-3.989041e-05,-3.5353005e-05,3.9886683e-05,1.0,-4.708767e-06,3.5353005e-05,4.7385693e-06,1.0,557,1.74,0,1,0.392,False,-0.25582675076423333,1.0361896519435967
1.7538728489889763,19:19:41.903117,19:19:32.068600,0,,0.12587231,0.0057692975,0.03729558,0.4176712,0.76316416,-0.49308318,0.5297765,0.23633873,0.81454337,0.7381649,-0.6014352,-0.30559465,,0.023757838,-0.0036832094,0.02385056,-0.62740123,0.6015408,0.4944858,0.21299201,-0.47823375,0.85201347,0.74900067,0.6398759,0.17192107,,0.10517159,1.3401153,0.44064677,0.99428123,0.013511757,-0.10593543,-0.05992394,-0.7504954,-0.65815336,-0.08839686,0.6607376,-0.74539375,,-0.09462051,0.2685767,-0.0877717,-0.46700656,-0.68815315,0.55529284,0.87276596,-0.25782043,0.4144975,-0.14207192,0.6782137,0.7210005,,0.008327261,0.41179028,-0.34519,0.5408923,-0.6383346,-0.54769015,0.8166153,0.2426094,0.5237176,-0.20143226,-0.730527,0.6524993,,1.2613771285457118,0.570702236672317,0.20452604362000001,3.079087130126756,-0.15726861123002195,-0.743841901326202,-0.4010096823596554,,-0.7407954282271119,-0.17444109016298323,0.19090722088,-3.573116636976295,-0.9718954228315779,1.09243988278879,0.8618032929244573,,-0.06277949319423604,-0.05761550026989781,0.08432494304,-0.06639839657179906,,5.5786222e-05,3.7550926e-06,-7.5101852e-06,0.99999994,-3.989041e-05,-3.5353005e-05,3.9886683e-05,1.0,-4.708767e-06,3.5353005e-05,4.7385693e-06,1.0,570,1.781,0,1,0.392,False,-0.25558843989015,1.0358999707389198
1.7861900209682062,19:19:41.943026,19:19:32.068600,0,,0.12582225,0.005709514,0.03740734,0.41529176,0.7641486,-0.49356803,0.53008914,0.23765258,0.8139576,0.73928225,-0.599665,-0.30637172,,0.023757838,-0.0036832094,0.02385056,-0.62740123,0.6015004,0.49453494,0.21299201,-0.4783033,0.8519745,0.74900067,0.6398618,0.17197338,,0.10517159,1.3401153,0.44064677,0.99428123,0.013511757,-0.10593543,-0.05992394,-0.7504954,-0.65815336,-0.08839686,0.6607376,-0.74539375,,-0.09458451,0.26860955,-0.08789899,-0.46474043,-0.68925416,0.5558282,0.8738356,-0.25569472,0.41355962,-0.14292534,0.6779004,0.7211265,,0.008327261,0.41179028,-0.34519,0.5408923,-0.6382898,-0.5477423,0.8166153,0.24256662,0.52373743,-0.20143226,-0.7305803,0.65243965,,1.2616474241963096,0.570702236672317,0.20440030349000002,3.076361160861457,-0.1580884302286146,-0.743255072644164,-0.4011730264257898,,-0.7407954282271119,-0.17444109016298323,0.19090722088,-3.573116636976295,-0.9718954228315779,1.0925215615289305,0.8619666369905916,,-0.06277949319423604,-0.05761550026989781,0.08432494304,-0.06639839657179906,,5.5786222e-05,3.7550926e-06,-7.5101852e-06,0.99999994,-3.989041e-05,-3.5353005e-05,3.9886683e-05,1.0,-4.708767e-06,3.5353005e-05,4.7385693e-06,1.0,583,1.822,0,1,0.392,False,-0.2548735072678969,1.0362379321443762
1.8260817669797689,19:19:41.986083,19:19:32.068600,0,,0.12575941,0.0056339353,0.037599742,0.40731788,0.7697051,-0.4915749,0.5283617,0.24043097,0.81426466,0.74493355,-0.591394,-0.30875096,,0.02376007,-0.0036806017,0.023847938,-0.6274055,0.60153735,0.49448454,0.21298485,-0.47823954,0.85201204,0.74899906,0.63987476,0.1719319,,0.10517159,1.3401153,0.44064677,0.99428123,0.013511757,-0.10593543,-0.05992394,-0.7504954,-0.65815336,-0.08839686,0.6607376,-0.74539375,,-0.094544575,0.2686854,-0.08809728,-0.45745534,-0.69549173,0.55409914,0.8766522,-0.24828134,0.41211325,-0.1490489,0.67427564,0.723282,,0.008325177,0.41178912,-0.34518638,0.540897,-0.63833076,-0.5476899,0.8166108,0.24260591,0.5237262,-0.20143774,-0.73053145,0.65249264,,1.2620103926413984,0.570632732076449,0.20421104515000002,3.0681832530655604,-0.16423707271805943,-0.7386496606785279,-0.4003563060951184,,-0.7408031509599861,-0.174433367430109,0.19091110975000003,-3.573116636976295,-0.9718954228315779,1.09243988278879,0.8618032929244573,,-0.06277949319423604,-0.05761550026989781,0.08432494304,-0.06639839657179906,,5.5786222e-05,3.7550926e-06,-7.5101852e-06,0.99999994,-3.989041e-05,-3.5353005e-05,3.9886683e-05,1.0,-4.708767e-06,3.5353005e-05,4.7385693e-06,1.0,592,1.85,0,1,0.392,False,-0.25546928445310746,1.0358999707389198
1.869101966964081,19:19:42.015070,19:19:32.231471,0,,0.12573281,0.0056068003,0.037671298,0.40469858,0.7721363,-0.48992285,0.5268824,0.24100056,0.8150544,0.74740475,-0.58798313,-0.30929253,,0.023761768,-0.0036799759,0.023847282,-0.62741,0.6015316,0.49448577,0.21298476,-0.47824273,0.8520103,0.74899536,0.63987774,0.17193726,,0.10517159,1.3401153,0.44064677,0.99428123,0.013511757,-0.10593543,-0.05992394,-0.7504954,-0.65815336,-0.08839686,0.6607376,-0.74539375,,-0.09452649,0.26871446,-0.088170715,-0.45516264,-0.6982272,0.5525448,0.877317,-0.24565513,0.4122722,-0.15212423,0.6724078,0.7243797,,0.008323517,0.4117887,-0.34518552,0.5409019,-0.6383253,-0.5476915,0.8166081,0.24260746,0.5237298,-0.20143594,-0.73053575,0.6524884,,1.2621648472988827,0.570563227480581,0.20414234178000001,3.0656669737437463,-0.16737971221266457,-0.7363320851139318,-0.4005196501612528,,-0.7408108736928604,-0.174433367430109,0.19091240604,-3.573116636976295,-0.9718954228315779,1.09243988278879,0.8618032929244573,,-0.06277949319423604,-0.05761550026989781,0.08432494304,-0.06639839657179906,,5.5786222e-05,3.7550926e-06,-7.5101852e-06,0.99999994,-3.989041e-05,-3.5353005e-05,3.9886683e-05,1.0,-4.708767e-06,3.5353005e-05,4.7385693e-06,1.0,605,1.891,0,1,0.392,False,-0.2555288621716292,1.0362379321443762
1.8981430719722994,19:19:42.059809,19:19:32.231471,0,,0.1256233,0.0055232346,0.037828684,0.40102315,0.77484655,-0.48866445,0.5248084,0.24289533,0.81582963,0.7508372,-0.5836218,-0.30923948,,0.023768142,-0.003677979,0.02384597,-0.6274281,0.601509,0.4944904,0.21298456,-0.4782554,0.8520032,0.7489803,0.6398896,0.1719588,,0.10517159,1.3401153,0.44064677,0.99428123,0.013511757,-0.10593543,-0.05992394,-0.7504954,-0.65815336,-0.08839686,0.6607376,-0.74539375,,-0.09443699,0.2687626,-0.088353544,-0.45194188,-0.7012798,0.55132127,0.8782276,-0.24142039,0.41283473,-0.15641247,0.67076284,0.72499126,,0.008317226,0.41178787,-0.34518304,0.54092133,-0.6383033,-0.54769796,0.816597,0.24261364,0.5237442,-0.20142867,-0.7305529,0.6524714,,1.2627363295315754,0.5703161000286058,0.20396734263000002,3.061892554761025,-0.17188871670492406,-0.7341255116144801,-0.40084633829352123,,-0.7408417646243572,-0.174433367430109,0.19091629491,-3.573116636976295,-0.9718954228315779,1.09243988278879,0.8618032929244573,,-0.06277949319423604,-0.05761550026989781,0.08432494304,-0.06639839657179906,,5.5786222e-05,3.7550926e-06,-7.5101852e-06,0.99999994,-3.989041e-05,-3.5353005e-05,3.9886683e-05,1.0,-4.708767e-06,3.5353005e-05,4.7385693e-06,1.0,618,1.932,0,1,0.392,False,-0.2551118181419816,1.035803410337361
1.9428622049745172,19:19:42.096011,19:19:32.231471,0,,0.1254811,0.005459249,0.03796053,0.39786252,0.77678335,-0.48817286,0.5236629,0.24463198,0.81604683,0.7533143,-0.58031255,-0.30944288,,0.02377243,-0.003675267,0.023845553,-0.62744147,0.6015346,0.49444234,0.21297723,-0.47819796,0.8520373,0.7489712,0.63990843,0.17192814,,0.10517159,1.3401153,0.44064677,0.99428123,0.013511757,-0.10593543,-0.05992394,-0.7504954,-0.65815336,-0.08839686,0.6607376,-0.74539375,,-0.094311595,0.26880917,-0.08850783,-0.44909757,-0.7034644,0.55086225,0.8791629,-0.23798186,0.4128404,-0.15932329,0.6697033,0.7253369,,0.008312869,0.41178843,-0.34518048,0.5409358,-0.6383332,-0.5476487,0.8165869,0.24265602,0.52374023,-0.20143053,-0.7305127,0.6525159,,1.2634931573532493,0.5700303589122595,0.20381956557000003,3.0583278257217876,-0.1750313561995292,-0.732379687230868,-0.4011730264257898,,-0.7408649328229799,-0.1744256446972348,0.19091888749000002,-3.573116636976295,-0.9718954228315779,1.0923582040486495,0.8616399488583231,,-0.06277949319423604,-0.05761550026989781,0.08432494304,-0.06639839657179906,,5.5786222e-05,3.7550926e-06,-7.5101852e-06,0.99999994,-3.989041e-05,-3.5353005e-05,3.9886683e-05,1.0,-4.708767e-06,3.5353005e-05,4.7385693e-06,1.0,627,1.961,0,1,0.392,False,-0.2549926627049395,1.035803410337361
1.979070482950192,19:19:42.125096,19:19:32.231471,0,,0.1253934,0.0054263324,0.03804466,0.39470044,0.7790769,-0.48708373,0.5224479,0.2457827,0.8164797,0.7558172,-0.57674086,-0.31001663,,0.023779161,-0.003673792,0.023847103,-0.62746406,0.6015062,0.49444818,0.21297696,-0.47821385,0.8520285,0.7489524,0.6399233,0.17195508,,0.10517159,1.3401153,0.44064677,0.99428123,0.013511757,-0.10593543,-0.05992394,-0.7504954,-0.65815336,-0.08839686,0.6607376,-0.74539375,,-0.09423427,0.26884463,-0.088600636,-0.44625735,-0.7060546,0.54985565,0.88006425,-0.23481292,0.41273454,-0.1622999,0.66809416,0.7261604,,0.008305965,0.41178975,-0.3451799,0.54096013,-0.6383057,-0.5476568,0.8165731,0.24266377,0.5237583,-0.20142144,-0.73053414,0.65249467,,1.263964244058577,0.5698295678575297,0.20373271414000002,3.054972786626035,-0.17817399569413436,-0.7301437904064125,-0.4005196501612527,,-0.740903546487351,-0.1744256446972348,0.19092018378000003,-3.573116636976295,-0.9718954228315779,1.0923582040486495,0.8616399488583231,,-0.06277949319423604,-0.05761550026989781,0.08432494304,-0.06639839657179906,,5.5786222e-05,3.7550926e-06,-7.5101852e-06,0.99999994,-3.989041e-05,-3.5353005e-05,3.9886683e-05,1.0,-4.708767e-06,3.5353005e-05,4.7385693e-06,1.0,640,2.002,0,1,0.392,False,-0.25535012901606535,1.0361896519435967
2.0081493299803697,19:19:42.164310,19:19:32.369084,0,,0.12517637,0.0053253174,0.038240016,0.38935527,0.7827825,-0.4854418,0.52022994,0.24803321,0.81721497,0.7601073,-0.5707284,-0.31065398,,0.023789745,-0.0036707222,0.02384609,-0.62749565,0.6014664,0.49445638,0.21297657,-0.47823605,0.8520161,0.748926,0.63994396,0.17199281,,0.10517159,1.3401153,0.44064677,0.99428123,0.013511757,-0.10593543,-0.05992394,-0.7504954,-0.65815336,-0.08839686,0.6607376,-0.74539375,,-0.094042435,0.26890934,-0.08883408,-0.44146916,-0.7102476,0.5483186,0.88150644,-0.22924112,0.41278914,-0.16748533,0.6655801,0.72729075,,0.008295392,0.41178936,-0.34517667,0.54099417,-0.6382672,-0.54766804,0.81655365,0.2426746,0.5237835,-0.20140873,-0.7305642,0.652465,,1.265091763058214,0.5693275902207051,0.20351104855000002,3.0491014682084687,-0.1837760921845174,-0.7263924437562649,-0.40084633829352123,,-0.7409576056174706,-0.1744256446972348,0.19092536894,-3.573116636976295,-0.9718954228315779,1.0923582040486495,0.8616399488583231,,-0.06277949319423604,-0.05761550026989781,0.08432494304,-0.06639839657179906,,5.5786222e-05,3.7550926e-06,-7.5101852e-06,0.99999994,-3.989041e-05,-3.5353005e-05,3.9886683e-05,1.0,-4.708767e-06,3.5353005e-05,4.7385693e-06,1.0,649,2.031,0,1,0.392,False,-0.2561246393568388,1.0363827727467145
2.047379931958858,19:19:42.196510,19:19:32.369084,0,,0.1249249,0.005200878,0.038415194,0.38608754,0.78483784,-0.48473263,0.51886994,0.24970062,0.81757176,0.76269925,-0.5671675,-0.31082264,,0.023795296,-0.0036678016,0.023846269,-0.6275135,0.6014864,0.49440953,0.21296918,-0.47818178,0.8520484,0.7489131,0.6399659,0.1719675,,0.10517159,1.3401153,0.44064677,0.99428123,0.013511757,-0.10593543,-0.05992394,-0.7504954,-0.65815336,-0.08839686,0.6607376,-0.74539375,,-0.093815334,0.2689444,-0.089071974,-0.43853897,-0.71257824,0.54764575,0.88236445,-0.22568883,0.4129134,-0.1706356,0.66430175,0.72772706,,0.008289723,0.41179034,-0.34517416,0.5410135,-0.63829166,-0.5476205,0.81654084,0.24271853,0.52378315,-0.20140877,-0.73052824,0.6525052,,1.266335123050964,0.5686866033921445,0.20328290151000003,3.0451173592822625,-0.1874652776781843,-0.7239559115374453,-0.4010096823596555,,-0.7409884965489675,-0.17441792196436054,0.19092796152000002,-3.573116636976295,-0.9718954228315779,1.0922765253085087,0.8618032929244573,,-0.06277949319423604,-0.05761550026989781,0.08432494304,-0.06639839657179906,,5.5786222e-05,3.7550926e-06,-7.5101852e-06,0.99999994,-3.989041e-05,-3.5353005e-05,3.9886683e-05,1.0,-4.708767e-06,3.5353005e-05,4.7385693e-06,1.0,662,2.072,0,1,0.392,False,-0.2552309735790237,1.0356585697350225
2.0795140609843656,19:19:42.236820,19:19:32.369084,0,,0.12470625,0.0051004738,0.038547277,0.38016504,0.78813004,-0.4840716,0.51806706,0.25211582,0.8173398,0.7662121,-0.5615056,-0.31245863,,0.023801796,-0.003666401,0.023844719,-0.62762064,0.60154986,0.49419624,0.2129055,-0.47796884,0.85218376,0.74884135,0.64006525,0.1719099,,0.10517159,1.3401153,0.44064677,0.99428123,0.013511757,-0.10593543,-0.05992394,-0.7504954,-0.65815336,-0.08839686,0.6607376,-0.74539375,,-0.093615524,0.26896706,-0.0892588,-0.43303898,-0.71631795,0.54714334,0.8843507,-0.22021598,0.41161728,-0.17435913,0.66211295,0.7288384,,0.00828335,0.41178903,-0.34517214,0.54112995,-0.63837427,-0.54740906,0.81645876,0.24290423,0.52382493,-0.2014284,-0.7303943,0.65264904,,1.267362246523236,0.5680456165635838,0.20310660607000003,3.038407281090758,-0.19170100917091293,-0.7205019565228563,-0.4011730264257899,,-0.7410271102133386,-0.17441792196436054,0.19093185039000002,-3.5733263269197795,-0.9718954228315779,1.0921948465683682,0.8616399488583231,,-0.06277949319423604,-0.05761550026989781,0.08432494304,-0.06639839657179906,,5.5786222e-05,3.7550926e-06,-7.5101852e-06,0.99999994,-3.989041e-05,-3.5353005e-05,3.9886683e-05,1.0,-4.708767e-06,3.5353005e-05,4.7385693e-06,1.0,675,2.113,0,1,0.392,False,-0.2552905512975445,1.0360930915420377
2.119819577957969,19:19:42.270228,19:19:32.369084,0,,0.12442881,0.0049809515,0.038710177,0.3716154,0.79379964,-0.48143935,0.5153081,0.25499254,0.818191,0.77224314,-0.552142,-0.31429225,,0.023810536,-0.0036625415,0.023847818,-0.62756294,0.60146654,0.49437085,0.21296139,-0.47814968,0.8520683,0.7488739,0.6400084,0.17197996,,0.10517159,1.3401153,0.44064677,0.99428123,0.013511757,-0.10593543,-0.05992394,-0.7504954,-0.65815336,-0.08839686,0.6607376,-0.74539375,,-0.09336116,0.26899844,-0.08948706,-0.42526332,-0.7227736,0.5447471,0.8866814,-0.21199913,0.4109167,-0.18151382,0.6577649,0.73102534,,0.00827418,0.41179267,-0.34517026,0.5410668,-0.6382776,-0.5475842,0.8165086,0.24277331,0.523808,-0.2013961,-0.7305223,0.6525157,,1.2686519429132312,0.5671266113515511,0.20289660709000001,3.0291809235774387,-0.19962592615730848,-0.714366433069026,-0.4003563060951184,,-0.7410734466105839,-0.17441019923148632,0.19093314668000003,-3.573116636976295,-0.9718954228315779,1.0921948465683682,0.8616399488583231,,-0.06277949319423604,-0.05761550026989781,0.08432494304,-0.06639839657179906,,5.5786222e-05,3.7550926e-06,-7.5101852e-06,0.99999994,-3.989041e-05,-3.5353005e-05,3.9886683e-05,1.0,-4.708767e-06,3.5353005e-05,4.7385693e-06,1.0,684,2.141,0,1,0.392,False,-0.2550522404234603,1.0360930915420377
2.153274646960199,19:19:42.304068,19:19:32.519489,0,,0.1242114,0.004880011,0.038799465,0.36635068,0.79735,-0.4796038,0.5129402,0.2569839,0.8190553,0.7763243,-0.5460696,-0.31484675,,0.023816012,-0.003661275,0.023848712,-0.627581,0.6014438,0.4943756,0.21296117,-0.47816235,0.8520613,0.74885875,0.64002025,0.17200151,,0.10517159,1.3401153,0.44064677,0.99428123,0.013511757,-0.10593543,-0.05992394,-0.7504954,-0.65815336,-0.08839686,0.6607376,-0.74539375,,-0.0931583,0.26899186,-0.08964273,-0.4205404,-0.7268292,0.5430148,0.8878693,-0.20657286,0.4111153,-0.18663846,0.6550168,0.7322015,,0.008268586,0.41179353,-0.3451696,0.54108626,-0.6382556,-0.5475906,0.8164975,0.2427795,0.5238224,-0.20138882,-0.73053944,0.6524988,,1.2695941163238866,0.5662771107353864,0.20275531148000003,3.0235192951033567,-0.20550129564722242,-0.7104739293516263,-0.40084633829352123,,-0.7411043375420808,-0.17441019923148632,0.19093444297,-3.573116636976295,-0.9718954228315779,1.0921948465683682,0.8616399488583231,,-0.06277949319423604,-0.05761550026989781,0.08432494304,-0.06639839657179906,,5.5786222e-05,3.7550926e-06,-7.5101852e-06,0.99999994,-3.989041e-05,-3.5353005e-05,3.9886683e-05,1.0,-4.708767e-06,3.5353005e-05,4.7385693e-06,1.0,697,2.182,0,1,0.392,False,-0.2551713958605024,1.0361413717428172
2.1871146799530834,19:19:42.347181,19:19:32.519489,0,,0.12390928,0.004760906,0.03890404,0.3554859,0.80385673,-0.47691074,0.5076071,0.26240206,0.8206584,0.7848341,-0.5338158,-0.3147633,,0.023822695,-0.0036575198,0.023849547,-0.62751424,0.60137194,0.4945478,0.21301717,-0.47833687,0.85194933,0.74889886,0.6399574,0.17206073,,0.10517159,1.3401153,0.44064677,0.99428123,0.013511757,-0.10593543,-0.05992394,-0.7504954,-0.65815336,-0.08839686,0.6607376,-0.74539375,,-0.09287353,0.26898524,-0.0898305,-0.4108214,-0.73430014,0.54039717,0.89004964,-0.19456431,0.4122576,-0.19757882,0.65034455,0.73349476,,0.008261688,0.41179544,-0.3451667,0.54101336,-0.6381699,-0.54776245,0.8165529,0.24264547,0.5237982,-0.20136018,-0.7306588,0.6523739,,1.2708529217823854,0.5649256324823971,0.20259586781000002,3.012405728098677,-0.21766194412634665,-0.7045599941895322,-0.3997029298305814,,-0.7411352284735777,-0.1744024764986121,0.19093703555000002,-3.572906947032811,-0.9718954228315779,1.0921948465683682,0.8616399488583231,,-0.06277949319423604,-0.05761550026989781,0.08432494304,-0.06639839657179906,,5.5786222e-05,3.7550926e-06,-7.5101852e-06,0.99999994,-3.989041e-05,-3.5353005e-05,3.9886683e-05,1.0,-4.708767e-06,3.5353005e-05,4.7385693e-06,1.0,710,2.223,0,1,0.392,False,-0.2548735072678969,1.0363827727467145
2.2302050379803404,19:19:42.388829,19:19:32.519489,0,,0.12354384,0.004577026,0.038930073,0.34565404,0.8092731,-0.47497353,0.5034241,0.26723203,0.82167584,0.7918884,-0.5231288,-0.31503785,,0.023854189,-0.0036671981,0.023851097,-0.6275632,0.60142845,0.49441692,0.21303444,-0.47815263,0.8520484,0.7488529,0.64004207,0.17194602,,0.10510952,1.3401191,0.44064778,0.9942841,0.013547914,-0.10590372,-0.05987604,-0.7504947,-0.6581584,-0.08839686,0.6607376,-0.74539375,,-0.09246543,0.26888034,-0.09001591,-0.40195975,-0.7405686,0.53850394,0.89204955,-0.1840338,0.41277015,-0.2065817,0.64628917,0.73459804,,0.008288908,0.41179326,-0.34517685,0.54104286,-0.6382283,-0.5476653,0.81654775,0.242785,0.52374154,-0.20130174,-0.7305615,0.652501,,1.2723743001586076,0.5629177219350987,0.20244549817000002,3.0019212309244505,-0.22845622760781642,-0.6989434506629968,-0.40019296202898424,,-0.7412201785351942,-0.1744024764986121,0.19094610958000002,-3.572906947032811,-0.9718954228315779,1.0919498103479466,0.8618032929244573,,-0.06277949319423604,-0.05761550026989781,0.08432494304,-0.06639839657179906,,-6.2398612e-06,7.1525574e-07,-4.172325e-06,0.99999994,-3.9823353e-06,-3.5241246e-06,3.97861e-06,1.0,-4.7683716e-07,3.5241246e-06,4.7683716e-07,1.0,719,2.252,0,1,0.392,False,-0.2548735072678969,1.0365758935498322
2.2718897799495608,19:19:42.416532,19:19:32.646285,0,,0.12338006,0.004497066,0.03893079,0.3420933,0.8109423,-0.4747046,0.5025945,0.26894093,0.8216261,0.79395884,-0.51965684,-0.31557232,,0.023862176,-0.0036654994,0.023853064,-0.6275903,0.6014751,0.4943257,0.21303414,-0.47803247,0.852116,0.7488303,0.64008796,0.1718739,,0.10510952,1.3401191,0.44064778,0.9942841,0.013547914,-0.10590372,-0.05987604,-0.7504947,-0.6581584,-0.08839686,0.6607376,-0.74539375,,-0.09230606,0.2688277,-0.090087004,-0.3986634,-0.74250466,0.5382883,0.8929596,-0.1804966,0.41236407,-0.20902303,0.6450642,0.73498404,,0.008280693,0.411795,-0.3451763,0.541072,-0.63828474,-0.5475707,0.8165311,0.24287985,0.52372354,-0.20129083,-0.7304807,0.65259486,,1.2729612278570486,0.5621145577161794,0.20238457254000003,2.9979371219982447,-0.23159886710242156,-0.6970342687991038,-0.39953958576444704,,-0.7412665149324396,-0.1744024764986121,0.19094740587000003,-3.572906947032811,-0.9718954228315779,1.0917864528676655,0.8614766047921888,,-0.06277949319423604,-0.05761550026989781,0.08432494304,-0.06639839657179906,,-6.2398612e-06,7.1525574e-07,-4.172325e-06,0.99999994,-3.9823353e-06,-3.5241246e-06,3.97861e-06,1.0,-4.7683716e-07,3.5241246e-06,4.7683716e-07,1.0,732,2.293,0,1,0.392,False,-0.25540970673458663,1.0363827727467145
2.2996049549547024,19:19:42.461677,19:19:32.646285,0,,0.123008534,0.004351869,0.038959935,0.33142567,0.8161638,-0.47332165,0.49731767,0.27519977,0.8227638,0.801768,-0.5080763,-0.31468445,,0.023889858,-0.0036619976,0.023860991,-0.6276439,0.6015743,0.49413696,0.21293566,-0.47786665,0.8522335,0.74881345,0.6401185,0.17183352,,0.10510952,1.3401191,0.44064778,0.9942841,0.013547914,-0.10590372,-0.05987604,-0.7504947,-0.6581584,-0.08839686,0.6607376,-0.74539375,,-0.09194581,0.26875362,-0.09024416,-0.38906732,-0.7485952,0.5368723,0.8947033,-0.16827278,0.41375136,-0.21939129,0.64131856,0.73524004,,0.008252237,0.41180056,-0.34517705,0.54113144,-0.638394,-0.54738456,0.81647277,0.24297898,0.5237685,-0.20136774,-0.73035216,0.6527149,,1.2743590425072833,0.560276547292114,0.20226142499000002,2.9868235549935647,-0.24362287908178032,-0.692211896422393,-0.40068299422738707,,-0.7414286923227983,-0.17441792196436054,0.19095129474000003,-3.572906947032811,-0.9720320593313434,1.0914894770706591,0.8619666369905916,,-0.06277949319423604,-0.05761550026989781,0.08432494304,-0.06639839657179906,,-6.2398612e-06,7.1525574e-07,-4.172325e-06,0.99999994,-3.9823353e-06,-3.5241246e-06,3.97861e-06,1.0,-4.7683716e-07,3.5241246e-06,4.7683716e-07,1.0,741,2.321,0,1,0.392,False,-0.2557075953271921,1.0361896519435967
2.3447134029702283,19:19:42.488755,19:19:32.646285,0,,0.12287701,0.004296705,0.03898664,0.32956597,0.8173392,-0.47259134,0.49497607,0.27667475,0.82368064,0.8039806,-0.5053786,-0.3133808,,0.02390116,-0.003659986,0.023865819,-0.6276845,0.60156363,0.49409834,0.21293513,-0.47782564,0.85225666,0.7487795,0.64015925,0.17182982,,0.10510952,1.3401191,0.44064778,0.9942841,0.013547914,-0.10590372,-0.05987604,-0.7504947,-0.6581584,-0.08839686,0.6607376,-0.74539375,,-0.09182008,0.26873565,-0.090314314,-0.38754004,-0.7499726,0.53605396,0.89452916,-0.16541117,0.41527912,-0.22277863,0.6404532,0.73497576,,0.008240439,0.41180447,-0.34517762,0.5411752,-0.6383892,-0.5473469,0.8164478,0.24303569,0.5237811,-0.20135137,-0.7303375,0.65273637,,1.2749150792742274,0.559658728662176,0.20220049936,2.9849363455022044,-0.24758533757497808,-0.6911861031989919,-0.3998662738967156,,-0.7414981969186663,-0.17441792196436054,0.19095129474000003,-3.572906947032811,-0.9720320593313434,1.0914077983305184,0.8621299810567259,,-0.06277949319423604,-0.05761550026989781,0.08432494304,-0.06639839657179906,,-6.2398612e-06,7.1525574e-07,-4.172325e-06,0.99999994,-3.9823353e-06,-3.5241246e-06,3.97861e-06,1.0,-4.7683716e-07,3.5241246e-06,4.7683716e-07,1.0,754,2.362,0,1,0.392,False,-0.25546928445310746,1.0363827727467145
2.371805229980964,19:19:42.519944,19:19:32.646285,0,,0.12264705,0.00424397,0.039070323,0.31690562,0.82276666,-0.471832,0.4924243,0.2824431,0.8232522,0.8106102,-0.49323493,-0.31564263,,0.0239087,-0.0036586598,0.023868978,-0.62771165,0.6014892,0.49415448,0.21293482,-0.47791424,0.85220695,0.7487569,0.64016294,0.17191437,,0.10510952,1.3401191,0.44064778,0.9942841,0.013547914,-0.10590372,-0.05987604,-0.7504947,-0.6581584,-0.08839686,0.6607376,-0.74539375,,-0.09160213,0.26876137,-0.09043472,-0.37572947,-0.75634515,0.5355085,0.89756656,-0.15317859,0.4134133,-0.23065469,0.63598615,0.73642385,,0.008232573,0.41180706,-0.345178,0.5412044,-0.6383115,-0.54740864,0.81643116,0.24300219,0.52382255,-0.20134047,-0.73041654,0.65265125,,1.2758649754177571,0.5588246735117598,0.20210716648000002,2.971516189119195,-0.2560568005604354,-0.6853400167916411,-0.4003563060951185,,-0.7415445333159116,-0.17441792196436054,0.19095129474000003,-3.572906947032811,-0.9720320593313434,1.0914894770706591,0.8622933251228602,,-0.06277949319423604,-0.05761550026989781,0.08432494304,-0.06639839657179906,,-6.2398612e-06,7.1525574e-07,-4.172325e-06,0.99999994,-3.9823353e-06,-3.5241246e-06,3.97861e-06,1.0,-4.7683716e-07,3.5241246e-06,4.7683716e-07,1.0,763,2.391,0,1,0.392,False,-0.25672041654204936,1.0360448113412584
2.402919218002353,19:19:42.557947,19:19:32.776703,0,,0.122510634,0.004236847,0.039143667,0.30950925,0.8278845,-0.46777225,0.48801374,0.28390634,0.8253725,0.81611675,-0.48373982,-0.31614745,,0.023910034,-0.0036567524,0.02386868,-0.62771595,0.6014857,0.49415326,0.2129276,-0.47792006,0.85220563,0.74875534,0.6401619,0.17192516,,0.10510952,1.3401191,0.44064778,0.9942841,0.013547914,-0.10590372,-0.05987604,-0.7504947,-0.6581584,-0.08839686,0.6607376,-0.74539375,,-0.09147421,0.26881045,-0.09050731,-0.36911705,-0.76232535,0.53161323,0.8982818,-0.14589792,0.414492,-0.2384165,0.6305346,0.7386364,,0.008231186,0.41180763,-0.34517622,0.5412091,-0.6383077,-0.5474084,0.8164267,0.24299872,0.5238312,-0.20134595,-0.730421,0.6526446,,1.2765136849791918,0.5583304186078094,0.20205661117,2.964177041097236,-0.2642549905463618,-0.6787366213099963,-0.40019296202898424,,-0.7415522560487858,-0.17441019923148632,0.19095259103,-3.572906947032811,-0.9720320593313434,1.0914894770706591,0.8613132607260544,,-0.06277949319423604,-0.05761550026989781,0.08432494304,-0.06639839657179906,,-6.2398612e-06,7.1525574e-07,-4.172325e-06,0.99999994,-3.9823353e-06,-3.5241246e-06,3.97861e-06,1.0,-4.7683716e-07,3.5241246e-06,4.7683716e-07,1.0,776,2.432,0,1,0.392,False,-0.2555288621716292,1.0365276133490526
2.4410110939643346,19:19:42.598506,19:19:32.776703,0,,0.12234706,0.0042534173,0.039295956,0.28788516,0.83826286,-0.46307364,0.48142722,0.2913242,0.82665473,0.8278586,-0.46091792,-0.31969467,,0.023908447,-0.003656365,0.023867965,-0.6276697,0.60159314,0.49408126,0.21281597,-0.47789842,0.85224557,0.74882585,0.6400771,0.17193374,,0.10510952,1.3401191,0.44064778,0.9942841,0.013547914,-0.10590372,-0.05987604,-0.7504947,-0.6581584,-0.08839686,0.6607376,-0.74539375,,-0.09132622,0.26893112,-0.09062461,-0.34908053,-0.7746233,0.5273534,0.9021045,-0.12544513,0.4128814,-0.2536736,0.6198567,0.74258155,,0.00823282,0.41180736,-0.3451755,0.54116136,-0.63840723,-0.54733956,0.81642586,0.24292539,0.5238664,-0.20147745,-0.7303584,0.652674,,1.2772087309378721,0.5577975500394878,0.20198013006,2.942369286974846,-0.279831551519622,-0.6663616952491667,-0.40084633829352134,,-0.7415445333159116,-0.17441019923148632,0.19095388732000002,-3.572906947032811,-0.9721686958311089,1.0914375374940746,0.8613132607260545,,-0.06277949319423604,-0.05761550026989781,0.08432494304,-0.06639839657179906,,-6.2398612e-06,7.1525574e-07,-4.172325e-06,0.99999994,-3.9823353e-06,-3.5241246e-06,3.97861e-06,1.0,-4.7683716e-07,3.5241246e-06,4.7683716e-07,1.0,789,2.473,0,1,0.392,False,-0.25624379479388093,1.0360930915420377
2.481569106981624,19:19:42.639676,19:19:32.776703,0,,0.12220245,0.004250437,0.039446995,0.2686927,0.8496255,-0.45380643,0.4708111,0.2951732,0.8313902,0.8403219,-0.43704566,-0.32070237,,0.02390565,-0.003658481,0.02386731,-0.627708,0.6017497,0.49384165,0.21264827,-0.4777149,0.85239035,0.7488413,0.64006686,0.17190456,,0.10510952,1.3401191,0.44064778,0.9942841,0.013547914,-0.10590372,-0.05987604,-0.7504947,-0.6581584,-0.08839686,0.6607376,-0.74539375,,-0.09119779,0.26903582,-0.09075221,-0.33170378,-0.7881559,0.5184427,0.9033452,-0.10695946,0.41536376,-0.27191907,0.60611045,0.7474558,,0.008235759,0.41180605,-0.34517702,0.5412058,-0.63857037,-0.5471052,0.8163587,0.24299236,0.52394015,-0.20163026,-0.7301935,0.65281135,,1.2777338767733193,0.5571025040808076,0.20190364895000001,2.9239165719482076,-0.29882402498701827,-0.6509562853755047,-0.40068299422738707,,-0.7415368105830374,-0.17441792196436054,0.19095388732000002,-3.573116636976295,-0.9723053323308741,1.0913855979174896,0.8616399488583231,,-0.06277949319423604,-0.05761550026989781,0.08432494304,-0.06639839657179906,,-6.2398612e-06,7.1525574e-07,-4.172325e-06,0.99999994,-3.9823353e-06,-3.5241246e-06,3.97861e-06,1.0,-4.7683716e-07,3.5241246e-06,4.7683716e-07,1.0,798,2.502,0,1,0.392,False,-0.25540970673458663,1.0360930915420377
2.5227474279818125,19:19:42.667075,19:19:32.776703,0,,0.122058116,0.004218042,0.039552733,0.24848972,0.85988957,-0.44591746,0.4614033,0.29969484,0.8350389,0.85168046,-0.41324645,-0.32228482,,0.023907725,-0.0036591515,0.023866296,-0.62771285,0.60174185,0.49384525,0.2126554,-0.4777155,0.85238826,0.74883527,0.6400739,0.1719046,,0.10510952,1.3401191,0.44064778,0.9942841,0.013547914,-0.10590372,-0.05987604,-0.7504947,-0.6581584,-0.08839686,0.6607376,-0.74539375,,-0.09106632,0.2690883,-0.09086632,-0.3131605,-0.8005607,0.5109139,0.9047729,-0.08798558,0.41670686,-0.28864607,0.59275717,0.7518792,,0.008233824,0.41180465,-0.3451771,0.54121083,-0.63856316,-0.54710865,0.8163576,0.24299894,0.5239387,-0.20162115,-0.7301976,0.65280956,,1.278065954286911,0.556253003464643,0.20184013074,2.9042057172606626,-0.3164501334567601,-0.6360933033578228,-0.40068299422738685,,-0.7415445333159116,-0.1744256446972348,0.19095518361000002,-3.573116636976295,-0.9723053323308741,1.0913855979174896,0.8616399488583231,,-0.06277949319423604,-0.05761550026989781,0.08432494304,-0.06639839657179906,,-6.2398612e-06,7.1525574e-07,-4.172325e-06,0.99999994,-3.9823353e-06,-3.5241246e-06,3.97861e-06,1.0,-4.7683716e-07,3.5241246e-06,4.7683716e-07,1.0,811,2.543,0,1,0.392,False,-0.2552905512975445,1.0362862123451555
2.550149395945482,19:19:42.710170,19:19:32.938720,0,,0.121838175,0.0041303188,0.03964196,0.22122303,0.8727641,-0.43513554,0.45033133,0.30434832,0.8393889,0.86502135,-0.38164738,-0.32570425,,0.023908976,-0.003658928,0.023866892,-0.6277173,0.6017361,0.49384645,0.21265529,-0.47771865,0.8523865,0.7488315,0.6400769,0.1719099,,0.10510952,1.3401191,0.44064778,0.9942841,0.013547914,-0.10590372,-0.05987604,-0.7504947,-0.6581584,-0.08839686,0.6607376,-0.74539375,,-0.09086036,0.26909152,-0.091013305,-0.28786513,-0.8163391,0.5007237,0.9065628,-0.063763425,0.41722664,-0.30867055,0.5740425,0.7584179,,0.008232513,0.4118051,-0.34517717,0.5412157,-0.6385577,-0.54711026,0.8163548,0.24300049,0.5239423,-0.20161933,-0.7302019,0.6528053,,1.2784134772662512,0.5548629115472826,0.20175976076000002,2.8771557145511584,-0.3379020639199342,-0.6148434704310187,-0.40068299422738696,,-0.7415522560487858,-0.1744256446972348,0.19095518361000002,-3.573116636976295,-0.9723053323308741,1.0913855979174896,0.8616399488583231,,-0.06277949319423604,-0.05761550026989781,0.08432494304,-0.06639839657179906,,-6.2398612e-06,7.1525574e-07,-4.172325e-06,0.99999994,-3.9823353e-06,-3.5241246e-06,3.97861e-06,1.0,-4.7683716e-07,3.5241246e-06,4.7683716e-07,1.0,824,2.584,0,1,0.392,False,-0.2559459062012759,1.0360448113412584
2.5932159289950505,19:19:42.741984,19:19:32.938720,0,,0.12159072,0.0040032864,0.03973405,0.197758,0.8840851,-0.42342055,0.43873423,0.3064432,0.84475136,0.8765865,-0.35282546,-0.32727686,,0.023910236,-0.0036587194,0.023867428,-0.62772185,0.6016901,0.49389675,0.21265528,-0.4777915,0.85234565,0.7488277,0.6400658,0.17196763,,0.10510952,1.3401191,0.44064778,0.9942841,0.013547914,-0.10590372,-0.05987604,-0.7504947,-0.6581584,-0.08839686,0.6607376,-0.74539375,,-0.090629004,0.26906866,-0.09119162,-0.26619244,-0.830402,0.4894631,0.90663093,-0.043243315,0.41970265,-0.32735592,0.55548406,0.7643792,,0.008231202,0.4118055,-0.34517726,0.54122055,-0.6385075,-0.547164,0.81635207,0.24295925,0.5239658,-0.20161751,-0.73025954,0.65274143,,1.2788459503072076,0.5533415331710604,0.20164957611,2.8538801308243764,-0.35826090238498487,-0.5937498720725212,-0.4021530908225954,,-0.7415599787816601,-0.1744256446972348,0.19095518361000002,-3.573116636976295,-0.9723053323308741,1.09146727665763,0.8618032929244572,,-0.06277949319423604,-0.05761550026989781,0.08432494304,-0.06639839657179906,,-6.2398612e-06,7.1525574e-07,-4.172325e-06,0.99999994,-3.9823353e-06,-3.5241246e-06,3.97861e-06,1.0,-4.7683716e-07,3.5241246e-06,4.7683716e-07,1.0,833,2.612,0,1,0.392,False,-0.25624379479388093,1.0361896519435967
2.625041600957047,19:19:42.780300,19:19:32.938720,0,,0.121392526,0.0039032996,0.0398262,0.18074915,0.8912965,-0.41583642,0.4283802,0.30924577,0.84903324,0.88533616,-0.33159822,-0.32591796,,0.023906596,-0.0036600009,0.02386558,-0.6277974,0.6017528,0.49372435,0.21259202,-0.47762585,0.8524542,0.74878234,0.6401304,0.17192441,,0.10510952,1.3401191,0.44064778,0.9942841,0.013547914,-0.10590372,-0.05987604,-0.7504947,-0.6581584,-0.08839686,0.6607376,-0.74539375,,-0.090445474,0.269064,-0.091346756,-0.25060183,-0.8395864,0.48196834,0.9054873,-0.027158054,0.4235034,-0.34247836,0.542547,0.76704067,,0.008235054,0.41180372,-0.3451775,0.541303,-0.6385838,-0.54699343,0.8162894,0.24309139,0.524002,-0.2016498,-0.73014885,0.6528553,,1.2792320869509188,0.5521831232399267,0.20155235436000002,2.8371049353456144,-0.3747939188566031,-0.5796148758041296,-0.40084633829352123,,-0.7415445333159116,-0.1744256446972348,0.19095518361000002,-3.5733263269197795,-0.9723053323308741,1.09146727665763,0.8618032929244572,,-0.06277949319423604,-0.05761550026989781,0.08432494304,-0.06639839657179906,,-6.2398612e-06,7.1525574e-07,-4.172325e-06,0.99999994,-3.9823353e-06,-3.5241246e-06,3.97861e-06,1.0,-4.7683716e-07,3.5241246e-06,4.7683716e-07,1.0,846,2.653,0,1,0.392,False,-0.2555288621716292,1.0365276133490526
2.663363200961612,19:19:42.817349,19:19:32.938720,0,,0.12113124,0.0037841648,0.0399466,0.16153167,0.89889896,-0.40729314,0.41769078,0.3116498,0.8534688,0.8941151,-0.30798492,-0.32512063,,0.023907851,-0.0036597624,0.023866177,-0.62780184,0.60174716,0.4937255,0.21259199,-0.477629,0.8524525,0.7487786,0.6401334,0.17192984,,0.10510952,1.3401191,0.44064778,0.9942841,0.013547914,-0.10590372,-0.05987604,-0.7504947,-0.6581584,-0.08839686,0.6607376,-0.74539375,,-0.09020288,0.26906654,-0.09154196,-0.23283288,-0.8494162,0.47358307,0.90419656,-0.009776716,0.4270047,-0.3580746,0.52763295,0.7703156,,0.008233743,0.41180417,-0.34517756,0.5413078,-0.6385783,-0.54699504,0.8162867,0.24309294,0.52400565,-0.20164797,-0.73015314,0.65285105,,1.2798653510466054,0.5508934268499311,0.20142142907000002,2.8176037706015538,-0.3918734813272832,-0.5628288819371572,-0.4016630586241928,,-0.7415522560487858,-0.1744256446972348,0.19095518361000002,-3.5733263269197795,-0.9723053323308741,1.09146727665763,0.8618032929244572,,-0.06277949319423604,-0.05761550026989781,0.08432494304,-0.06639839657179906,,-6.2398612e-06,7.1525574e-07,-4.172325e-06,0.99999994,-3.9823353e-06,-3.5241246e-06,3.97861e-06,1.0,-4.7683716e-07,3.5241246e-06,4.7683716e-07,1.0,868,2.723,0,1,0.392,False,-0.25642252794944387,1.0365758935498322
2.700417646963615,19:19:42.891754,19:19:33.123802,0,,0.12076515,0.0036052912,0.040246233,0.13435203,0.9077568,-0.39740005,0.40412918,0.3159765,0.85839295,0.9047812,-0.2759279,-0.32439905,,0.023907356,-0.0036624894,0.023867607,-0.62776047,0.6017638,0.4937579,0.21249467,-0.47774458,0.85241205,0.7488409,0.6400316,0.1720376,,0.10510952,1.3401191,0.44064778,0.9942841,0.013547914,-0.10590372,-0.05987604,-0.7504947,-0.6581584,-0.08839686,0.6607376,-0.74539375,,-0.08987665,0.26914927,-0.091919474,-0.20746024,-0.86126167,0.4638843,0.9023442,0.014659189,0.4307668,-0.3778031,0.5079503,0.7741133,,0.008234218,0.41180408,-0.34518063,0.54126513,-0.63857955,-0.5470359,0.81628656,0.24294564,0.5240741,-0.20176303,-0.73020107,0.65276194,,1.2809388109161226,0.5495960077270614,0.20112846753000002,2.7892956282311427,-0.4130521387909265,-0.5404950249754971,-0.40133637049192417,,-0.7415522560487858,-0.17444109016298323,0.19095388732000002,-3.5733263269197795,-0.9724419688306396,1.0915786945613266,0.8618032929244572,,-0.06277949319423604,-0.05761550026989781,0.08432494304,-0.06639839657179906,,-6.2398612e-06,7.1525574e-07,-4.172325e-06,0.99999994,-3.9823353e-06,-3.5241246e-06,3.97861e-06,1.0,-4.7683716e-07,3.5241246e-06,4.7683716e-07,1.0,877,2.752,0,1,0.392,False,-0.25677999426057063,1.0359965311404788
2.7748020769795403,19:19:42.916166,19:19:33.123802,0,,0.12067959,0.0035701245,0.04036607,0.12818505,0.91087526,-0.39226845,0.39800885,0.31503433,0.8615929,0.90838176,-0.26656967,-0.32215375,,0.023910463,-0.0036688074,0.023866475,-0.62776625,0.60174704,0.49377117,0.21253045,-0.47773468,0.85240865,0.74882597,0.6400548,0.17201617,,0.10510952,1.3401191,0.44064778,0.9942841,0.013547914,-0.10590372,-0.05987604,-0.7504947,-0.6581584,-0.08839686,0.6607376,-0.74539375,,-0.08980513,0.26920703,-0.09203975,-0.20195042,-0.8653422,0.45869264,0.90046877,0.020143246,0.43445396,-0.3851909,0.5007765,0.77514565,,0.008231536,0.4117996,-0.34518546,0.5412706,-0.63856554,-0.54704684,0.8162924,0.24297234,0.5240526,-0.2017247,-0.73020446,0.65277,,1.2812477202310915,0.5493488802750863,0.20103902352000003,2.7832146198700918,-0.42097705577732203,-0.5327259267188557,-0.4016630586241927,,-0.7415599787816601,-0.17447970382735434,0.19095388732000002,-3.5733263269197795,-0.9724419688306396,1.0915786945613266,0.8618032929244572,,-0.06277949319423604,-0.05761550026989781,0.08432494304,-0.06639839657179906,,-6.2398612e-06,7.1525574e-07,-4.172325e-06,0.99999994,-3.9823353e-06,-3.5241246e-06,3.97861e-06,1.0,-4.7683716e-07,3.5241246e-06,4.7683716e-07,1.0,890,2.793,0,1,0.392,False,-0.2556480176086704,1.036431052947494
2.7992295989533886,19:19:42.953553,19:19:33.123802,0,,0.12062363,0.003499627,0.04055129,0.12019631,0.9136398,-0.38834888,0.39214796,0.3156769,0.8640417,0.9120157,-0.25614494,-0.32033885,,0.023909144,-0.0036807433,0.023865461,-0.6278534,0.601874,0.49350545,0.21223783,-0.4776367,0.85253644,0.7488359,0.64000845,0.1721454,,0.10510952,1.3401191,0.44064778,0.9942841,0.013547914,-0.10590372,-0.05987604,-0.7504947,-0.6581584,-0.08839686,0.6607376,-0.74539375,,-0.089771114,0.26928157,-0.0922287,-0.19462211,-0.86911124,0.45471737,0.89887434,0.027528917,0.43734092,-0.3926158,0.49385,0.77586406,,0.008233497,0.4117928,-0.34519526,0.5413698,-0.63869184,-0.54680115,0.81616277,0.24296835,0.52425635,-0.20198289,-0.73009527,0.65281224,,1.2813867294228276,0.5492870984120924,0.20087957985000002,2.7752464020176797,-0.42876533626395213,-0.5254766400666133,-0.4014997145580582,,-0.7415599787816601,-0.17454148569034814,0.19095259103,-3.5737457068067484,-0.9727152418301706,1.0918015303687194,0.8618032929244572,,-0.06277949319423604,-0.05761550026989781,0.08432494304,-0.06639839657179906,,-6.2398612e-06,7.1525574e-07,-4.172325e-06,0.99999994,-3.9823353e-06,-3.5241246e-06,3.97861e-06,1.0,-4.7683716e-07,3.5241246e-06,4.7683716e-07,1.0,903,2.833,0,1,0.392,False,-0.2557075953271921,1.0360448113412584
2.8365852999850176,19:19:43.000227,19:19:33.123802,0,,0.12059863,0.0034273118,0.040746912,0.11039768,0.9172285,-0.38275814,0.38523418,0.3155165,0.86720467,0.91619146,-0.24318898,-0.31851557,,0.023912385,-0.0036941692,0.023863316,-0.6278557,0.60177106,0.49362794,0.21230946,-0.47774985,0.8524552,0.7488136,0.64002085,0.17219636,,0.10510952,1.3401191,0.44064778,0.9942841,0.013547914,-0.10590372,-0.05987604,-0.7504947,-0.6581584,-0.08839686,0.6607376,-0.74539375,,-0.08976898,0.26936063,-0.0924233,-0.18559363,-0.87398803,0.44911015,0.8969325,0.03599354,0.44070008,-0.40133166,0.48461264,0.77722806,,0.008231105,0.41178387,-0.34520572,0.541371,-0.63858545,-0.5469242,0.81618005,0.242933,0.52424586,-0.20190986,-0.7302001,0.6527176,,1.2813095020940852,0.5492948211449667,0.20071883989000003,2.765600664617392,-0.4379199817482366,-0.5158063145351581,-0.4010096823596555,,-0.7415599787816601,-0.17461871301909038,0.19095129474000003,-3.5737457068067484,-0.9727152418301706,1.0919648878490007,0.8614766047921887,,-0.06277949319423604,-0.05761550026989781,0.08432494304,-0.06639839657179906,,-6.2398612e-06,7.1525574e-07,-4.172325e-06,0.99999994,-3.9823353e-06,-3.5241246e-06,3.97861e-06,1.0,-4.7683716e-07,3.5241246e-06,4.7683716e-07,1.0,912,2.862,0,1,0.392,False,-0.25540970673458663,1.0362379321443762
2.88330062298337,19:19:43.024432,19:19:33.123802,0,,0.12058754,0.0033812374,0.04082705,0.106044546,0.91907394,-0.37954858,0.38302395,0.31449175,0.8685549,0.91763127,-0.23748179,-0.31867734,,0.023915485,-0.0037004724,0.023862123,-0.6278615,0.60175425,0.49364126,0.21234524,-0.47773987,0.85245186,0.74879867,0.64004403,0.17217493,,0.10510952,1.3401191,0.44064778,0.9942841,0.013547914,-0.10590372,-0.05987604,-0.7504947,-0.6581584,-0.08839686,0.6607376,-0.74539375,,-0.08976797,0.2693809,-0.092514165,-0.18150453,-0.8764396,0.445993,0.896427,0.039007444,0.44147155,-0.4043202,0.47992924,0.77858406,,0.008228424,0.4117794,-0.34521055,0.5413765,-0.63857144,-0.54693514,0.8161859,0.24295971,0.5242244,-0.20187151,-0.73020345,0.65272564,,1.2812399974982174,0.5492716529463441,0.2006397662,2.7611971758042166,-0.44106262124284173,-0.5105483043255018,-0.40019296202898413,,-0.7415677015145343,-0.1746573266834615,0.19095129474000003,-3.5737457068067484,-0.9727152418301706,1.0919648878490007,0.8614766047921887,,-0.06277949319423604,-0.05761550026989781,0.08432494304,-0.06639839657179906,,-6.2398612e-06,7.1525574e-07,-4.172325e-06,0.99999994,-3.9823353e-06,-3.5241246e-06,3.97861e-06,1.0,-4.7683716e-07,3.5241246e-06,4.7683716e-07,1.0,925,2.903,0,1,0.392,False,-0.2549926627049395,1.0360930915420377
2.9074352979660034,19:19:43.064240,19:19:33.272471,0,,0.12057496,0.0033172965,0.040924624,0.10306629,0.92024684,-0.37752178,0.38084322,0.3141114,0.8696508,0.9188773,-0.23340833,-0.31809556,,0.023916591,-0.0037043914,0.02386117,-0.62786216,0.6017475,0.49364853,0.21236669,-0.47773206,0.8524509,0.74879193,0.6400562,0.17215887,,0.10510952,1.3401191,0.44064778,0.9942841,0.013547914,-0.10590372,-0.05987604,-0.7504947,-0.6581584,-0.08839686,0.6607376,-0.74539375,,-0.08976796,0.26939973,-0.09262998,-0.17876138,-0.878031,0.44396606,0.8957626,0.04142331,0.4425985,-0.40700576,0.4768077,0.7791025,,0.008227602,0.41177645,-0.3452134,0.5413769,-0.6385663,-0.54694074,0.816191,0.24297479,0.5242093,-0.20184961,-0.7302029,0.652733,,1.281201383833846,0.5492407620148472,0.20053476671,2.758261516595433,-0.44393198773791603,-0.5072283834661901,-0.3998662738967155,,-0.7415677015145343,-0.17468049488208418,0.19095129474000003,-3.5737457068067484,-0.9727152418301706,1.0919648878490007,0.8614766047921887,,-0.06277949319423604,-0.05761550026989781,0.08432494304,-0.06639839657179906,,-6.2398612e-06,7.1525574e-07,-4.172325e-06,0.99999994,-3.9823353e-06,-3.5241246e-06,3.97861e-06,1.0,-4.7683716e-07,3.5241246e-06,4.7683716e-07,1.0,934,2.932,0,1,0.392,False,-0.25546928445310746,1.0358516905381403
2.947310816962272,19:19:43.099171,19:19:33.272471,0,,0.120551094,0.0032881051,0.04101862,0.09697588,0.9222943,-0.37412357,0.37644434,0.31398225,0.87161046,0.9213497,-0.22536194,-0.31674385,,0.023914449,-0.003706105,0.02385974,-0.62785333,0.60175663,0.4936486,0.212374,-0.47772312,0.85245407,0.7487973,0.64005435,0.17214262,,0.10510952,1.3401191,0.44064778,0.9942841,0.013547914,-0.10590372,-0.05987604,-0.7504947,-0.6581584,-0.08839686,0.6607376,-0.74539375,,-0.089754924,0.26944226,-0.09272096,-0.17314157,-0.8808808,0.44053495,0.89439774,0.046665132,0.44483152,-0.41240117,0.4710323,0.77977806,,0.008229949,0.41177464,-0.34521422,0.54136723,-0.6385756,-0.5469394,0.81619835,0.24297673,0.5241971,-0.20184594,-0.73019415,0.652744,,1.2811782156352234,0.5491944256176018,0.20046606334000003,2.752180508234382,-0.4496707207280645,-0.501160292928551,-0.40002961796284975,,-0.7415522560487858,-0.1746882176149584,0.19095129474000003,-3.5737457068067484,-0.9727152418301706,1.0919648878490007,0.8614766047921887,,-0.06277949319423604,-0.05761550026989781,0.08432494304,-0.06639839657179906,,-6.2398612e-06,7.1525574e-07,-4.172325e-06,0.99999994,-3.9823353e-06,-3.5241246e-06,3.97861e-06,1.0,-4.7683716e-07,3.5241246e-06,4.7683716e-07,1.0,947,2.973,0,1,0.392,False,-0.2559459062012759,1.036334492545935
2.9822387739550322,19:19:43.141839,19:19:33.272471,0,,0.12050647,0.003260523,0.041058555,0.08651213,0.9253724,-0.3690542,0.3751108,0.31292504,0.8725651,0.9229341,-0.21392375,-0.32004553,,0.023915254,-0.003706254,0.023861468,-0.62785786,0.60179126,0.49360064,0.21237393,-0.4776567,0.8524914,0.7487935,0.6400714,0.17209584,,0.10510952,1.3401191,0.44064778,0.9942841,0.013547914,-0.10590372,-0.05987604,-0.7504947,-0.6581584,-0.08839686,0.6607376,-0.74539375,,-0.08971576,0.26945037,-0.092773356,-0.1629558,-0.88513523,0.43586808,0.8948614,0.05346477,0.44313043,-0.41553396,0.4622522,0.783361,,0.008228988,0.41177592,-0.3452152,0.5413721,-0.6386148,-0.5468888,0.81619555,0.24302109,0.5241809,-0.20184413,-0.73014516,0.65279937,,1.2811009883064812,0.5490785846244884,0.20042717464,2.7408572512862177,-0.45281336022266966,-0.4905114858696175,-0.40019296202898424,,-0.7415599787816601,-0.1746882176149584,0.19094999845000002,-3.5737457068067484,-0.9727152418301706,1.0918832091088602,0.861639948858323,,-0.06277949319423604,-0.05761550026989781,0.08432494304,-0.06639839657179906,,-6.2398612e-06,7.1525574e-07,-4.172325e-06,0.99999994,-3.9823353e-06,-3.5241246e-06,3.97861e-06,1.0,-4.7683716e-07,3.5241246e-06,4.7683716e-07,1.0,956,3.001,0,1,0.392,False,-0.25582675076423333,1.0360930915420377
