AlexandreBanks6/ExpertPlaybackApp/resources/Motions/P_04/PC1/Data_PC1_7.csv
Task Time,PC1 Time,PC2 Time,Gaze Calib,s_T_psm1,Tx,Ty,Tz,R00,R01,R02,R10,R11,R12,R20,R21,R22,s_T_psm3,Tx,Ty,Tz,R00,R01,R02,R10,R11,R12,R20,R21,R22,cart_T_ecm,Tx,Ty,Tz,R00,R01,R02,R10,R11,R12,R20,R21,R22,ecm_T_psm1,Tx,Ty,Tz,R00,R01,R02,R10,R11,R12,R20,R21,R22,ecm_T_psm3,Tx,Ty,Tz,R00,R01,R02,R10,R11,R12,R20,R21,R22,psm1_joints,q1,q2,q3,q4,q5,q6,jaw,psm3_joints,q1,q2,q3,q4,q5,q6,jaw,ecm_joints,q1,q2,q3,q4,ecmi_T_ecm,Tx,Ty,Tz,R00,R01,R02,R10,R11,R12,R20,R21,R22,Sample #,Task Duration (s),Collisions (binary),Collisions (increments),Cumulative Collision Time (s),Clutch Press,MTMR Angle,MTML Angle
""
lci_T_si,,,,,-0.06091442,0.024665864,0.22852185,0.99137235,-0.028050909,0.12803915,0.064119875,-0.7481916,-0.6603772,0.11432199,0.66288954,-0.7399378
rci_T_si,,,,,-0.070449755,0.028832521,0.23726377,0.99015677,-0.04510285,0.13249657,0.05696979,-0.73481125,-0.6758749,0.12784386,0.6767704,-0.72500885
ecm_T_lc,,,,,-4.4061628e-05,-0.00034663224,-0.01840835,-0.99912,0.030754527,0.028518902,-0.031987965,-0.99852574,-0.043852776,0.027128186,-0.04472645,0.9986309
ecm_T_rc,,,,,-0.0043358393,0.01870579,-0.007592615,-0.99555075,-0.052743673,-0.078081585,0.04863213,-0.9973746,0.053654674,-0.08070653,0.04961868,0.9955021
cart_T_ecmi,,,,,0.10511527,1.3401165,0.4406436,0.9942844,0.013551921,-0.10590021,-0.05987073,-0.75049466,-0.658159,-0.08839686,0.6607376,-0.74539375
ecmac_T_ecmrep_psm1,,,,,0.006928962,-0.26080152,-0.2999526,0.99741316,0.06053514,0.03876121,-0.0592658,0.9976933,-0.033100393,-0.040675536,0.030717555,0.99870014
ecmac_T_ecmrep_psm3,,,,,-0.019041438,-0.46633056,-0.5465172,0.99408877,-0.01321918,0.10776258,-0.016145537,0.96352404,0.2671344,-0.107363135,-0.2672952,0.95761496
""
0,19:16:38.483771,19:16:28.699431,0,,0.12310114,0.0004798472,0.033885032,0.8806131,0.34999484,-0.319412,0.22236545,0.29000756,0.9308326,0.41841847,-0.89072955,0.1775577,,0.015316144,-0.008769542,0.024028778,-0.5589355,0.3578397,0.7480253,0.4972425,-0.577266,0.647699,0.66358185,0.73397195,0.14472137,,0.10512091,1.3401179,0.4406405,0.9942851,0.0135604795,-0.1058927,-0.05985939,-0.7504945,-0.6581602,-0.08839686,0.6607376,-0.74539375,,-0.09170539,0.26247784,-0.08912302,-0.90804815,-0.24611242,0.33893546,0.41350266,-0.39763653,0.8190853,-0.066813946,0.8839196,0.46284127,,0.016982246,0.4102956,-0.34975284,0.46798563,-0.40063423,-0.7877066,0.87938166,0.29948577,0.37012988,0.08762022,-0.86591023,0.49246544,,1.2605662415939183,0.5395564549905696,0.20327253119000002,3.7349972733463477,-0.11053892831024133,-1.106783173929394,-0.4060733484098181,,-0.6830525545265352,-0.18244956415355404,0.18483150965000003,-3.395509254844903,-0.6956164203058572,1.222945473566915,0.8765042588765425,,-0.06277949319423604,-0.05761550026989781,0.08432494304,-0.06639839657179906,,5.7965517e-06,-3.1590462e-06,8.34465e-07,1.0,8.497387e-06,7.5399876e-06,-8.5011125e-06,1.0,1.013279e-06,-7.532537e-06,-1.013279e-06,1.0,36,0.107,0,0,0.0,False,-0.2579715486309908,1.0510116735828905
0.12846883799647912,19:16:38.509829,19:16:28.699431,0,,0.12312978,0.00046762824,0.03411144,0.8771989,0.35926804,-0.31850958,0.22058937,0.287655,0.9319844,0.4264531,-0.8877955,0.17307988,,0.015318394,-0.008768767,0.024029732,-0.5588058,0.35776326,0.7481587,0.4973088,-0.577383,0.6475437,0.66364145,0.7339171,0.14472622,,0.10512091,1.3401179,0.4406405,0.9942851,0.0135604795,-0.1058927,-0.05985939,-0.7504945,-0.6581602,-0.08839686,0.6607376,-0.74539375,,-0.09175714,0.26262006,-0.08929428,-0.90553707,-0.2557246,0.33853728,0.4177196,-0.3977417,0.8168916,-0.07424889,0.8811393,0.46699107,,0.016979884,0.41029656,-0.34975263,0.46784782,-0.40054747,-0.78783256,0.87945217,0.29938802,0.37004143,0.08764848,-0.86598414,0.49233037,,1.2609523782376295,0.5399734825657777,0.20310271720000003,3.7299647147027195,-0.1179172992975751,-1.1010933220903496,-0.4064000365420867,,-0.6830602772594094,-0.18244956415355404,0.18483150965000003,-3.3952995649014186,-0.6956164203058572,1.222945473566915,0.8765042588765425,,-0.06277949319423604,-0.05761550026989781,0.08432494304,-0.06639839657179906,,5.7965517e-06,-3.1590462e-06,8.34465e-07,1.0,8.497387e-06,7.5399876e-06,-8.5011125e-06,1.0,1.013279e-06,-7.532537e-06,-1.013279e-06,1.0,44,0.132,0,0,0.0,False,-0.2575545046013441,1.051494475590685
0.1545458260225132,19:16:38.537866,19:16:28.699431,0,,0.12312751,0.00045911968,0.034245074,0.87571156,0.36226472,-0.3192073,0.2199746,0.28917557,0.9316591,0.42981416,-0.8860822,0.17354527,,0.015318759,-0.008770078,0.024029434,-0.55880547,0.35776067,0.74816024,0.49731502,-0.5773787,0.6475427,0.6636371,0.73392177,0.14472266,,0.10512091,1.3401179,0.4406405,0.9942851,0.0135604795,-0.1058927,-0.05985939,-0.7504945,-0.6581602,-0.08839686,0.6607376,-0.74539375,,-0.0917687,0.26270375,-0.08939821,-0.9044225,-0.2588115,0.3391703,0.41958055,-0.39557528,0.8169898,-0.077278964,0.88121325,0.4663595,,0.01697961,0.4102956,-0.3497536,0.46784756,-0.40054554,-0.7878337,0.8794516,0.2993944,0.3700377,0.087656036,-0.86598283,0.49233136,,1.261238119353976,0.5402206100177529,0.20299901400000003,3.727658125324389,-0.1209233022924148,-1.1012558478935262,-0.40607334840981835,,-0.6830602772594094,-0.18245728688642826,0.18483150965000003,-3.3952995649014186,-0.6956164203058572,1.222945473566915,0.8765042588765425,,-0.06277949319423604,-0.05761550026989781,0.08432494304,-0.06639839657179906,,5.7965517e-06,-3.1590462e-06,8.34465e-07,1.0,8.497387e-06,7.5399876e-06,-8.5011125e-06,1.0,1.013279e-06,-7.532537e-06,-1.013279e-06,1.0,55,0.166,0,0,0.0,False,-0.2575545046013441,1.050963393382111
0.1825729970005341,19:16:38.569336,19:16:28.808140,0,,0.12313087,0.00042167306,0.034532934,0.8716085,0.37295926,-0.31811935,0.21557797,0.2911996,0.9320563,0.44025525,-0.8809677,0.17341033,,0.015318759,-0.008770078,0.024029434,-0.55880547,0.35776067,0.74816024,0.49731502,-0.5773787,0.6475427,0.6636371,0.73392177,0.14472266,,0.10512091,1.3401179,0.4406405,0.9942851,0.0135604795,-0.1058927,-0.05985939,-0.7504945,-0.6581602,-0.08839686,0.6607376,-0.74539375,,-0.09180255,0.26286957,-0.08963405,-0.9015792,-0.2698711,0.33811915,0.42350465,-0.39103124,0.8171526,-0.08831072,0.8799228,0.46683726,,0.01697961,0.4102956,-0.3497536,0.46784756,-0.40054554,-0.7878337,0.8794516,0.2993944,0.3700377,0.087656036,-0.86598283,0.49233136,,1.2619022743811592,0.5405295193327219,0.20276957067,3.7226255666807613,-0.1321274952731809,-1.0993889876629297,-0.40591000434368407,,-0.6830602772594094,-0.18245728688642826,0.18483150965000003,-3.3952995649014186,-0.6956164203058572,1.222945473566915,0.8765042588765425,,-0.06277949319423604,-0.05761550026989781,0.08432494304,-0.06639839657179906,,5.7965517e-06,-3.1590462e-06,8.34465e-07,1.0,8.497387e-06,7.5399876e-06,-8.5011125e-06,1.0,1.013279e-06,-7.532537e-06,-1.013279e-06,1.0,67,0.202,0,0,0.0,False,-0.2580907040680329,1.0506737121774343
0.2140131380292587,19:16:38.608453,19:16:28.808140,0,,0.1230926,0.00038531423,0.034728736,0.86833924,0.38131842,-0.3171484,0.2136079,0.289575,0.9330155,0.44761428,-0.87791944,0.16999659,,0.015320137,-0.008770838,0.024029613,-0.5586722,0.35768816,0.7482945,0.49738753,-0.57748884,0.6473889,0.66369504,0.7338705,0.14471728,,0.10512091,1.3401179,0.4406405,0.9942851,0.0135604795,-0.1058927,-0.05985939,-0.7504945,-0.6581602,-0.08839686,0.6607376,-0.74539375,,-0.09178573,0.2629758,-0.08980601,-0.89915246,-0.27855548,0.3375377,0.42711848,-0.390488,0.8155298,-0.09536589,0.8774543,0.47008443,,0.016978262,0.41029522,-0.34975433,0.46770605,-0.4004634,-0.78795946,0.8795234,0.29930276,0.36994115,0.087690555,-0.8660525,0.49220267,,1.2625200930110971,0.5406067466614641,0.20260364555000002,3.718012387924101,-0.1395058662605147,-1.094679280705572,-0.40591000434368407,,-0.6830602772594094,-0.18246500961930248,0.18483150965000003,-3.3950898749579337,-0.6956164203058572,1.222945473566915,0.8765042588765425,,-0.06277949319423604,-0.05761550026989781,0.08432494304,-0.06639839657179906,,5.7965517e-06,-3.1590462e-06,8.34465e-07,1.0,8.497387e-06,7.5399876e-06,-8.5011125e-06,1.0,1.013279e-06,-7.532537e-06,-1.013279e-06,1.0,75,0.226,0,0,0.0,False,-0.25826943722359585,1.050963393382111
0.25316518504405394,19:16:38.628888,19:16:28.808140,0,,0.123061255,0.0003424585,0.034938008,0.8632406,0.39314455,-0.31662732,0.2111392,0.28853124,0.9339005,0.4585147,-0.87303317,0.16606367,,0.015319258,-0.008772358,0.024028838,-0.5586686,0.3576922,0.74829525,0.4973938,-0.57748175,0.6473903,0.6636933,0.7338741,0.14470707,,0.10512091,1.3401179,0.4406405,0.9942851,0.0135604795,-0.1058927,-0.05985939,-0.7504945,-0.6581602,-0.08839686,0.6607376,-0.74539375,,-0.09177742,0.26308605,-0.08999144,-0.8952844,-0.29084638,0.3374525,0.43281293,-0.3884063,0.81351924,-0.10554045,0.8743849,0.47361618,,0.016979279,0.41029388,-0.34975526,0.4677024,-0.40046808,-0.7879593,0.8795247,0.2993089,0.36993304,0.08769684,-0.8660482,0.49220905,,1.2631842480382804,0.5405835784628414,0.20242864640000002,3.710882929845628,-0.15016351324221905,-1.0893375125630143,-0.4054199721452809,,-0.6830525545265352,-0.1824727323521767,0.18483150965000003,-3.3950898749579337,-0.6956164203058572,1.222945473566915,0.8765042588765425,,-0.06277949319423604,-0.05761550026989781,0.08432494304,-0.06639839657179906,,5.7965517e-06,-3.1590462e-06,8.34465e-07,1.0,8.497387e-06,7.5399876e-06,-8.5011125e-06,1.0,1.013279e-06,-7.532537e-06,-1.013279e-06,1.0,86,0.26,0,0,0.0,False,-0.25767366003838577,1.050963393382111
0.2735373800387606,19:16:38.659785,19:16:28.808140,0,,0.12305779,0.00030438602,0.035209656,0.8567284,0.40873992,-0.31456006,0.20371225,0.29213673,0.93442893,0.47383296,-0.86463153,0.16701642,,0.015320718,-0.0087774545,0.024027646,-0.55866694,0.3576819,0.7483014,0.4974187,-0.5774648,0.6473863,0.663676,0.73389244,0.14469285,,0.10512091,1.3401179,0.4406405,0.9942851,0.0135604795,-0.1058927,-0.05985939,-0.7504945,-0.6581602,-0.08839686,0.6607376,-0.74539375,,-0.091802895,0.26324075,-0.09021653,-0.8906646,-0.30704138,0.33532405,0.43786636,-0.38066205,0.81447494,-0.122432366,0.8722511,0.4734853,,0.016978182,0.41029012,-0.34975904,0.46770126,-0.4004604,-0.78796387,0.8795223,0.29933432,0.36991817,0.08772704,-0.866043,0.4922129,,1.2640105804558224,0.540568132997093,0.20222253629000003,3.703963161710638,-0.16765298521219543,-1.0875728681313785,-0.4068900687404897,,-0.6830525545265352,-0.18250362328367362,0.18483150965000003,-3.3950898749579337,-0.6956164203058572,1.222945473566915,0.8765042588765425,,-0.06277949319423604,-0.05761550026989781,0.08432494304,-0.06639839657179906,,5.7965517e-06,-3.1590462e-06,8.34465e-07,1.0,8.497387e-06,7.5399876e-06,-8.5011125e-06,1.0,1.013279e-06,-7.532537e-06,-1.013279e-06,1.0,94,0.284,0,0,0.0,False,-0.25880563669028556,1.051108233984449
0.30448065703967586,19:16:38.696187,19:16:28.915717,0,,0.12304209,0.000259161,0.035481185,0.85178965,0.4217692,-0.31074905,0.19423097,0.29664358,0.93502784,0.48654765,-0.85680413,0.17075726,,0.015321679,-0.008783758,0.024024487,-0.5586617,0.3576756,0.7483083,0.49744982,-0.57744086,0.6473838,0.6636571,0.7339144,0.14466843,,0.10512091,1.3401179,0.4406405,0.9942851,0.0135604795,-0.1058927,-0.05985939,-0.7504945,-0.6581602,-0.08839686,0.6607376,-0.74539375,,-0.0918165,0.26339054,-0.09044762,-0.88743377,-0.32058978,0.33118495,0.4395925,-0.3725438,0.81729406,-0.1386352,0.8708808,0.47153684,,0.01697782,0.41028413,-0.34976286,0.46769643,-0.40045738,-0.7879682,0.87952125,0.29936588,0.36989522,0.087763526,-0.86603343,0.4922231,,1.2648832492706097,0.5405372420655961,0.20201253731000002,3.7006081226148857,-0.1844592746833446,-1.0879172092808953,-0.40656338060822095,,-0.6830448317936609,-0.18254995968091897,0.18483280594,-3.3950898749579337,-0.6956164203058572,1.222945473566915,0.8765042588765425,,-0.06277949319423604,-0.05761550026989781,0.08432494304,-0.06639839657179906,,5.7965517e-06,-3.1590462e-06,8.34465e-07,1.0,8.497387e-06,7.5399876e-06,-8.5011125e-06,1.0,1.013279e-06,-7.532537e-06,-1.013279e-06,1.0,121,0.367,0,0,0.0,False,-0.25826943722359585,1.0505771517758753
0.34090301900869235,19:16:38.782364,19:16:28.915717,0,,0.12267917,0.0001847446,0.036100328,0.8369272,0.44744456,-0.31519204,0.19278504,0.2979748,0.93490374,0.5122369,-0.84321064,0.1631226,,0.015323348,-0.0087993,0.024019957,-0.5585143,0.35759452,0.748457,0.4975908,-0.577496,0.6472262,0.6636755,0.7339105,0.14460406,,0.10512091,1.3401179,0.4406405,0.9942851,0.0135604795,-0.1058927,-0.05985939,-0.7504945,-0.6581602,-0.08839686,0.6607376,-0.74539375,,-0.09152112,0.2637653,-0.090988815,-0.87530386,-0.34742263,0.33636382,0.45634833,-0.3633578,0.8122298,-0.15996659,0.864447,0.47659424,,0.016977327,0.41027224,-0.34977397,0.46754164,-0.40037385,-0.7881025,0.8795922,0.2993435,0.36974463,0.08787729,-0.8660798,0.49212125,,1.2680727379476644,0.5402283327506271,0.20150957679000003,3.677961608718557,-0.20796075264300035,-1.0771662400795885,-0.40672672467435533,,-0.6830216635950384,-0.18263490974253543,0.18483280594,-3.394880185014449,-0.6956164203058572,1.222945473566915,0.8765042588765425,,-0.06277949319423604,-0.05761550026989781,0.08432494304,-0.06639839657179906,,5.7965517e-06,-3.1590462e-06,8.34465e-07,1.0,8.497387e-06,7.5399876e-06,-8.5011125e-06,1.0,1.013279e-06,-7.532537e-06,-1.013279e-06,1.0,141,0.427,0,0,0.0,False,-0.25922268071993226,1.050963393382111
0.42702764802379534,19:16:38.838086,19:16:29.052200,0,,0.12256777,0.00013016164,0.03640817,0.82783276,0.46454114,-0.31447434,0.18658507,0.30065706,0.93530285,0.5290356,-0.8329506,0.16221735,,0.015241891,-0.008838825,0.024013579,-0.5582897,0.35754085,0.7486502,0.49772948,-0.57760376,0.64702344,0.6637605,0.7338517,0.14451167,,0.105163865,1.3401133,0.4406428,0.9942821,0.013523029,-0.105925545,-0.05990901,-0.7504952,-0.6581549,-0.08839686,0.6607376,-0.74539375,,-0.09147963,0.2639335,-0.09125746,-0.868203,-0.3653205,0.33580425,0.46343055,-0.3550835,0.8118792,-0.17735757,0.8604979,0.47758523,,0.017021699,0.41024783,-0.34980464,0.46733928,-0.4003272,-0.7882462,0.8796938,0.2992556,0.36957395,0.0879366,-0.8661317,0.49201927,,1.2694164934677796,0.5399271461685323,0.20126717056,3.6674771115443305,-0.22654331661110025,-1.0730400350958513,-0.40787013313729537,,-0.683013940862164,-0.18265035520828388,0.18483021336000002,-3.3946704950709647,-0.6956164203058572,1.222945473566915,0.8765042588765425,,-0.06277949319423604,-0.05761550026989781,0.08432494304,-0.06639839657179906,,4.858151e-05,2.4437904e-06,-2.503395e-06,0.99999994,-2.8692186e-05,-2.5428832e-05,2.8692186e-05,1.0,-3.3974648e-06,2.5428832e-05,3.427267e-06,1.0,153,0.464,0,0,0.0,False,-0.2583885926606384,1.050432311173537
0.4828014300437644,19:16:38.871545,19:16:29.052200,0,,0.1225556,9.0539455e-05,0.036650404,0.8184444,0.48152003,-0.3135075,0.17975011,0.30367053,0.93566775,0.54574573,-0.8221451,0.16198412,,0.015246987,-0.00883881,0.024015129,-0.55816585,0.35750967,0.7487574,0.49780178,-0.57766914,0.6469095,0.6638105,0.73381543,0.14446627,,0.105163865,1.3401133,0.4406428,0.9942821,0.013523029,-0.105925545,-0.05990901,-0.7504952,-0.6581549,-0.08839686,0.6607376,-0.74539375,,-0.09149356,0.26406762,-0.09146293,-0.8608395,-0.38315722,0.33488202,0.4699628,-0.34620997,0.81195664,-0.19516757,0.8563464,0.47810084,,0.017016482,0.4102486,-0.34980538,0.4672079,-0.40028968,-0.7883432,0.8797597,0.29919496,0.36946607,0.08797485,-0.86617005,0.491945,,1.2701810440223278,0.5397109096480541,0.20109606028000002,3.657621684200558,-0.2452625170789656,-1.0696191996098228,-0.40803347720342953,,-0.6830371090607867,-0.1826580779411581,0.18483021336000002,-3.3944608051274803,-0.6956164203058572,1.2228637948267744,0.8763409148104081,,-0.06277949319423604,-0.05761550026989781,0.08432494304,-0.06639839657179906,,4.858151e-05,2.4437904e-06,-2.503395e-06,0.99999994,-2.8692186e-05,-2.5428832e-05,2.8692186e-05,1.0,-3.3974648e-06,2.5428832e-05,3.427267e-06,1.0,164,0.498,0,0,0.0,False,-0.25719703829021734,1.0501909101696396
0.5162550240056589,19:16:38.909703,19:16:29.052200,0,,0.12250304,4.272163e-05,0.036778018,0.81383353,0.4870793,-0.31690443,0.1801596,0.30699074,0.93450487,0.55246466,-0.8176248,0.16208726,,0.015246987,-0.00883881,0.024015129,-0.55816585,0.35750967,0.7487574,0.49780178,-0.57766914,0.6469095,0.6638105,0.73381543,0.14446627,,0.105163865,1.3401133,0.4406428,0.9942821,0.013523029,-0.105925545,-0.05990901,-0.7504952,-0.6581549,-0.08839686,0.6607376,-0.74539375,,-0.091456175,0.26412004,-0.091594025,-0.8569144,-0.38899752,0.33819917,0.4749537,-0.34091923,0.811291,-0.20029157,0.85583586,0.4768944,,0.017016482,0.4102486,-0.34980538,0.4672079,-0.40028968,-0.7883432,0.8797597,0.29919496,0.36946607,0.08797485,-0.86617005,0.491945,,1.2706212397961585,0.5395487322576954,0.20097680160000003,3.6509116060090534,-0.25086461356934864,-1.069870111226563,-0.4055833162114155,,-0.6830371090607867,-0.1826580779411581,0.18483021336000002,-3.3944608051274803,-0.6956164203058572,1.2228637948267744,0.8763409148104081,,-0.06277949319423604,-0.05761550026989781,0.08432494304,-0.06639839657179906,,4.858151e-05,2.4437904e-06,-2.503395e-06,0.99999994,-2.8692186e-05,-2.5428832e-05,2.8692186e-05,1.0,-3.3974648e-06,2.5428832e-05,3.427267e-06,1.0,176,0.533,0,0,0.0,False,-0.25761408231986493,1.0507219923782136
0.5543989380239509,19:16:38.935656,19:16:29.052200,0,,0.12247771,1.7434359e-05,0.036898956,0.8086078,0.49618652,-0.31615198,0.17870873,0.30482882,0.9354906,0.56055003,-0.8129441,0.15781409,,0.015245743,-0.008839078,0.024014652,-0.5581626,0.35763857,0.7486982,0.49780184,-0.5775607,0.6470062,0.66381305,0.73383796,0.14433978,,0.105163865,1.3401133,0.4406428,0.9942821,0.013523029,-0.105925545,-0.05990901,-0.7504952,-0.6581549,-0.08839686,0.6607376,-0.74539375,,-0.09144422,0.2641836,-0.09170229,-0.852594,-0.39861238,0.3379225,0.47951135,-0.33970213,0.8091176,-0.2077313,0.8518865,0.48076716,,0.017017772,0.41024822,-0.34980538,0.4672045,-0.40042502,-0.78827643,0.8797617,0.29925507,0.3694128,0.08797359,-0.8660867,0.4920919,,1.2710228219056183,0.5394174457988336,0.20088476501000002,3.644411217761033,-0.2587895305557442,-1.0638979452530137,-0.40656338060822117,,-0.6830293863279125,-0.1826580779411581,0.18483021336000002,-3.3944608051274803,-0.6956164203058572,1.2227004373464934,0.8760142266781396,,-0.06277949319423604,-0.05761550026989781,0.08432494304,-0.06639839657179906,,4.858151e-05,2.4437904e-06,-2.503395e-06,0.99999994,-2.8692186e-05,-2.5428832e-05,2.8692186e-05,1.0,-3.3974648e-06,2.5428832e-05,3.427267e-06,1.0,184,0.558,0,0,0.0,False,-0.25880563669028556,1.0508668329805522
0.5803425890044309,19:16:38.970844,19:16:29.052200,0,,0.12247969,9.953976e-06,0.03701614,0.80097616,0.5080414,-0.31675035,0.17662467,0.3049998,0.93583065,0.5720495,-0.805524,0.15456498,,0.015247397,-0.008836769,0.024015903,-0.5578972,0.35743997,0.74899083,0.4979279,-0.5778463,0.64665407,0.6639417,0.73370993,0.14439952,,0.105163865,1.3401133,0.4406428,0.9942821,0.013523029,-0.105925545,-0.05990901,-0.7504952,-0.6581549,-0.08839686,0.6607376,-0.74539375,,-0.09145828,0.26425683,-0.09179302,-0.84625214,-0.41113538,0.33885834,0.48598558,-0.33501884,0.8072053,-0.21834673,0.8477795,0.4833163,,0.017015899,0.41025025,-0.349804,0.46692222,-0.40020192,-0.78855693,0.8799069,0.29902267,0.36925507,0.0880198,-0.86627007,0.49176076,,1.2714861858780717,0.539193486545481,0.20079791358000001,3.6316201312084773,-0.2739561820297081,-1.0589633232955022,-0.4050932840130126,,-0.6830293863279125,-0.18265035520828388,0.18483021336000002,-3.394041425240511,-0.6956164203058572,1.2227821160866337,0.8765042588765424,,-0.06277949319423604,-0.05761550026989781,0.08432494304,-0.06639839657179906,,4.858151e-05,2.4437904e-06,-2.503395e-06,0.99999994,-2.8692186e-05,-2.5428832e-05,2.8692186e-05,1.0,-3.3974648e-06,2.5428832e-05,3.427267e-06,1.0,196,0.595,0,0,0.0,False,-0.2583290149421176,1.0510116735828905
0.6155299750389531,19:16:39.003200,19:16:29.052200,0,,0.12250726,2.4333596e-05,0.03723176,0.78736216,0.5281423,-0.3180035,0.16766289,0.31293935,0.93485737,0.5932535,-0.7893887,0.15784672,,0.01524616,-0.008837022,0.024015486,-0.55789405,0.35744658,0.74899,0.49792796,-0.57784367,0.6466565,0.66394424,0.73370886,0.14439291,,0.105163865,1.3401133,0.4406428,0.9942821,0.013523029,-0.105925545,-0.05990901,-0.7504952,-0.6581549,-0.08839686,0.6607376,-0.74539375,,-0.091506764,0.26441148,-0.0919386,-0.8352299,-0.43240324,0.33973294,0.4941235,-0.31903395,0.80873936,-0.24131517,0.8433533,0.48012727,,0.01701719,0.41024986,-0.349804,0.46691886,-0.4002085,-0.7885556,0.8799088,0.2990224,0.36925068,0.088018544,-0.86626714,0.49176618,,1.2720422226450159,0.5389849727578769,0.20072532134,3.6217647038647045,-0.2941783839949933,-1.058482506615982,-0.4044399077484755,,-0.6830216635950384,-0.18265035520828388,0.18483021336000002,-3.394041425240511,-0.6956164203058572,1.2227821160866337,0.8765042588765424,,-0.06277949319423604,-0.05761550026989781,0.08432494304,-0.06639839657179906,,4.858151e-05,2.4437904e-06,-2.503395e-06,0.99999994,-2.8692186e-05,-2.5428832e-05,2.8692186e-05,1.0,-3.3974648e-06,2.5428832e-05,3.427267e-06,1.0,211,0.641,0,0,0.0,False,-0.25815028178655464,1.051108233984449
0.6478867650148459,19:16:39.042133,19:16:29.246763,0,,0.122448966,1.1920929e-05,0.03738092,0.7777724,0.5402715,-0.32121095,0.1654267,0.3170684,0.9338639,0.6063858,-0.77947044,0.15723175,,0.015247762,-0.00883805,0.024015605,-0.55789685,0.35743743,0.7489923,0.49793416,-0.57784206,0.6466531,0.66393733,0.73371446,0.144396,,0.105163865,1.3401133,0.4406428,0.9942821,0.013523029,-0.105925545,-0.05990901,-0.7504952,-0.6581549,-0.08839686,0.6607376,-0.74539375,,-0.09146434,0.2645048,-0.092062294,-0.82711214,-0.44528288,0.34294114,0.50165534,-0.30975512,0.8077089,-0.25343117,0.8401041,0.47958076,,0.017015625,0.41024932,-0.34980497,0.46692196,-0.4002,-0.78855807,0.8799063,0.29902902,0.36925137,0.08802735,-0.86626875,0.4917617,,1.2727218231379476,0.5386528952442853,0.20063458104,3.6102317569730555,-0.3072954879724756,-1.0563626555758845,-0.40656338060822117,,-0.6830293863279125,-0.1826580779411581,0.18483021336000002,-3.394041425240511,-0.6956164203058572,1.2227821160866337,0.8765042588765424,,-0.06277949319423604,-0.05761550026989781,0.08432494304,-0.06639839657179906,,4.858151e-05,2.4437904e-06,-2.503395e-06,0.99999994,-2.8692186e-05,-2.5428832e-05,2.8692186e-05,1.0,-3.3974648e-06,2.5428832e-05,3.427267e-06,1.0,219,0.665,0,0,0.0,False,-0.25815028178655464,1.0507702725789931
0.6868496790411882,19:16:39.066274,19:16:29.246763,0,,0.12226638,-3.33786e-06,0.037524268,0.7675769,0.5525963,-0.32475048,0.16519028,0.31899738,0.93324864,0.61930424,-0.7699856,0.15357149,,0.015247166,-0.0088365,0.024015903,-0.5577611,0.35737655,0.74912244,0.49799407,-0.5779578,0.64650345,0.6640064,0.73365295,0.14439104,,0.105163865,1.3401133,0.4406428,0.9942821,0.013523029,-0.105925545,-0.05990901,-0.7504952,-0.6581549,-0.08839686,0.6607376,-0.74539375,,-0.091297895,0.2645966,-0.09219639,-0.81828624,-0.45840624,0.34680158,0.5105434,-0.30240098,0.8049218,-0.26410803,0.8357137,0.48148686,,0.017016115,0.41025043,-0.3498038,0.46677753,-0.40012816,-0.78868,0.8799811,0.2989245,0.3691577,0.08804539,-0.866338,0.49163646,,1.2739651831306977,0.5379964629499763,0.20053606300000001,3.596601910646562,-0.31945613645159976,-1.0510204715947746,-0.4055833162114153,,-0.6830216635950384,-0.18265035520828388,0.18483021336000002,-3.3938317352970264,-0.6956164203058572,1.2227821160866337,0.8765042588765424,,-0.06277949319423604,-0.05761550026989781,0.08432494304,-0.06639839657179906,,4.858151e-05,2.4437904e-06,-2.503395e-06,0.99999994,-2.8692186e-05,-2.5428832e-05,2.8692186e-05,1.0,-3.3974648e-06,2.5428832e-05,3.427267e-06,1.0,231,0.701,0,0,0.0,False,-0.2580311263495121,1.0511565141852286
0.7109766509965993,19:16:39.103472,19:16:29.246763,0,,0.122126356,-3.1292439e-06,0.037622347,0.75780225,0.5661352,-0.32438615,0.16179559,0.3185854,0.93398374,0.63210577,-0.7602593,0.14982653,,0.015248537,-0.00883729,0.024016082,-0.5576277,0.35730392,0.7492564,0.49806637,-0.5780678,0.64634943,0.66406417,0.7336017,0.1443856,,0.105163865,1.3401133,0.4406428,0.9942821,0.013523029,-0.105925545,-0.05990901,-0.7504952,-0.6581549,-0.08839686,0.6607376,-0.74539375,,-0.09116857,0.26466787,-0.09228254,-0.8100005,-0.47285977,0.346847,0.5170033,-0.296659,0.8029328,-0.27677932,0.829697,0.48476398,,0.017014768,0.41025004,-0.34980455,0.46663594,-0.40004587,-0.78880554,0.88005275,0.29883295,0.369061,0.088079765,-0.86640763,0.49150765,,1.2750154748015923,0.5372936942584218,0.20049198914000002,3.585488343641882,-0.33366633242720556,-1.0438436615779372,-0.40656338060822117,,-0.6830216635950384,-0.1826580779411581,0.18483021336000002,-3.393622045353542,-0.6956164203058572,1.2227821160866337,0.8765042588765424,,-0.06277949319423604,-0.05761550026989781,0.08432494304,-0.06639839657179906,,4.858151e-05,2.4437904e-06,-2.503395e-06,0.99999994,-2.8692186e-05,-2.5428832e-05,2.8692186e-05,1.0,-3.3974648e-06,2.5428832e-05,3.427267e-06,1.0,243,0.738,0,0,0.0,False,-0.25791197091247,1.05105995378367
0.7481467520119622,19:16:39.147115,19:16:29.362266,0,,0.12192789,2.0712614e-06,0.03777699,0.74122113,0.5846813,-0.32975566,0.15415676,0.32985073,0.93136156,0.6533198,-0.7411789,0.15435967,,0.015248537,-0.00883729,0.024016082,-0.5576277,0.3573651,0.7492272,0.49806637,-0.57801497,0.64639664,0.66406417,0.7336135,0.14432567,,0.105163865,1.3401133,0.4406428,0.9942821,0.013523029,-0.105925545,-0.05990901,-0.7504952,-0.6581549,-0.08839686,0.6607376,-0.74539375,,-0.09098661,0.264783,-0.09241279,-0.7959739,-0.49273768,0.35161793,0.5262344,-0.2761782,0.80424064,-0.29917043,0.825188,0.47912616,,0.017014768,0.41025004,-0.34980455,0.46663594,-0.4001103,-0.7887729,0.88005275,0.29886308,0.36903659,0.088079765,-0.86636746,0.49157843,,1.2765909123079342,0.5361507297930366,0.20043884125000003,3.5680840783326664,-0.3586708118842812,-1.0448540151183192,-0.40656338060822117,,-0.6830216635950384,-0.1826580779411581,0.18483021336000002,-3.393622045353542,-0.6956164203058572,1.2227004373464934,0.876340914810408,,-0.06277949319423604,-0.05761550026989781,0.08432494304,-0.06639839657179906,,4.858151e-05,2.4437904e-06,-2.503395e-06,0.99999994,-2.8692186e-05,-2.5428832e-05,2.8692186e-05,1.0,-3.3974648e-06,2.5428832e-05,3.427267e-06,1.0,258,0.784,0,0,0.0,False,-0.25779281547542787,1.0511565141852286
0.791822059021797,19:16:39.184055,19:16:29.362266,0,,0.121642485,-1.9282103e-05,0.03786795,0.7265477,0.59840477,-0.33769795,0.15459326,0.33651048,0.9289035,0.66949916,-0.7270985,0.15198159,,0.015250169,-0.008836694,0.024015367,-0.55763084,0.35741973,0.74919885,0.49806637,-0.5779649,0.64644146,0.6640616,0.73362637,0.14427237,,0.105163865,1.3401133,0.4406428,0.9942821,0.013523029,-0.105925545,-0.05990901,-0.7504952,-0.6581549,-0.08839686,0.6607376,-0.74539375,,-0.09071296,0.26483887,-0.09252318,-0.7829963,-0.50751364,0.35964808,0.5379773,-0.2622878,0.8011152,-0.31224558,0.82075274,0.47840115,,0.017013198,0.41024953,-0.34980366,0.46663934,-0.40016815,-0.7887415,0.88005084,0.29889348,0.36901656,0.08808102,-0.86633027,0.49164376,,1.278166349814276,0.5348687561359153,0.20038439707000003,3.5487926035320903,-0.3741107363577759,-1.0413301321562263,-0.40541997214528114,,-0.6830293863279125,-0.1826580779411581,0.18483150965000003,-3.393622045353542,-0.6956164203058572,1.2226187586063526,0.8761775707442738,,-0.06277949319423604,-0.05761550026989781,0.08432494304,-0.06639839657179906,,4.858151e-05,2.4437904e-06,-2.503395e-06,0.99999994,-2.8692186e-05,-2.5428832e-05,2.8692186e-05,1.0,-3.3974648e-06,2.5428832e-05,3.427267e-06,1.0,266,0.808,0,0,0.0,False,-0.25791197091247,1.05105995378367
0.8287698310450651,19:16:39.207957,19:16:29.362266,0,,0.12146467,-2.4035573e-05,0.037901685,0.7181821,0.6052339,-0.34337455,0.15825853,0.33846062,0.9275768,0.6776197,-0.7205111,0.14729291,,0.015254155,-0.008838005,0.024016142,-0.55736715,0.35726783,0.7494675,0.49821082,-0.5781876,0.646131,0.66417456,0.7335249,0.14426814,,0.105163865,1.3401133,0.4406428,0.9942821,0.013523029,-0.105925545,-0.05990901,-0.7504952,-0.6581549,-0.08839686,0.6607376,-0.74539375,,-0.09053978,0.26486456,-0.09256936,-0.7753422,-0.51488197,0.36570618,0.54645467,-0.25666562,0.7971888,-0.31659397,0.817936,0.48036334,,0.017009212,0.4102491,-0.34980515,0.4663595,-0.39999697,-0.78899384,0.88019216,0.2987106,0.36882752,0.08815095,-0.86647236,0.49138072,,1.2790158504304405,0.5341891556429835,0.20036106385000002,3.536001516979534,-0.37957619634839357,-1.036873416008369,-0.40574666027754946,,-0.6830371090607867,-0.18267352340690654,0.18483150965000003,-3.3932026654665735,-0.6956164203058572,1.2226187586063526,0.8761775707442738,,-0.06277949319423604,-0.05761550026989781,0.08432494304,-0.06639839657179906,,4.858151e-05,2.4437904e-06,-2.503395e-06,0.99999994,-2.8692186e-05,-2.5428832e-05,2.8692186e-05,1.0,-3.3974648e-06,2.5428832e-05,3.427267e-06,1.0,274,0.832,0,0,0.0,False,-0.25773323775690704,1.0508668329805522
0.8525945240398869,19:16:39.242481,19:16:29.362266,0,,0.121218786,-2.6196241e-05,0.037960157,0.70630974,0.61748356,-0.3461795,0.15906428,0.33808127,0.9275774,0.68980056,-0.7102217,0.14057049,,0.015256487,-0.008841567,0.024015725,-0.55736905,0.35725346,0.74947286,0.4982294,-0.5781775,0.64612556,0.664159,0.7335398,0.1442641,,0.105163865,1.3401133,0.4406428,0.9942821,0.013523029,-0.105925545,-0.05990901,-0.7504952,-0.6581549,-0.08839686,0.6607376,-0.74539375,,-0.09030135,0.2649113,-0.092638925,-0.76473135,-0.52810913,0.3691703,0.5556783,-0.25047362,0.7927702,-0.32620174,0.8113961,0.48500383,,0.0170071,0.4102467,-0.34980798,0.46636203,-0.39998463,-0.78899854,0.8801884,0.29872996,0.3688208,0.08817485,-0.8664714,0.49137816,,1.2803209922861845,0.5331543094378375,0.20033643434,3.520274771218195,-0.3910536623286906,-1.0275143120978698,-0.40607334840981824,,-0.6830448317936609,-0.18269669160552923,0.18483150965000003,-3.3932026654665735,-0.6956164203058572,1.2226187586063526,0.8761775707442738,,-0.06277949319423604,-0.05761550026989781,0.08432494304,-0.06639839657179906,,4.858151e-05,2.4437904e-06,-2.503395e-06,0.99999994,-2.8692186e-05,-2.5428832e-05,2.8692186e-05,1.0,-3.3974648e-06,2.5428832e-05,3.427267e-06,1.0,286,0.869,0,0,0.0,False,-0.25815028178655464,1.0507219923782136
0.8871934460476041,19:16:39.274705,19:16:29.495211,0,,0.120954365,-1.08629465e-05,0.03801082,0.6918294,0.6295688,-0.3535745,0.16312124,0.3407436,0.92589706,0.7033942,-0.6982383,0.13304037,,0.015258841,-0.008843549,0.024014413,-0.5573713,0.35724175,0.7494768,0.49824184,-0.5781718,0.64612114,0.66414773,0.7335501,0.1442637,,0.105163865,1.3401133,0.4406428,0.9942821,0.013523029,-0.105925545,-0.05990901,-0.7504952,-0.6581549,-0.08839686,0.6607376,-0.74539375,,-0.09004295,0.26496637,-0.092692904,-0.7515327,-0.54121464,0.37720734,0.56835055,-0.24088806,0.7867341,-0.3349273,0.80564237,0.48863488,,0.017004982,0.41024432,-0.349809,0.46636486,-0.39997423,-0.7890022,0.8801853,0.29874292,0.36881778,0.088191204,-0.86647177,0.4913746,,1.2816184114090543,0.5321117404998171,0.20032606402000003,3.499725156756712,-0.4015746728106295,-1.0190984909935266,-0.40591000434368385,,-0.6830525545265352,-0.18271213707127767,0.18483280594,-3.3932026654665735,-0.6956164203058572,1.2226187586063526,0.8761775707442738,,-0.06277949319423604,-0.05761550026989781,0.08432494304,-0.06639839657179906,,4.858151e-05,2.4437904e-06,-2.503395e-06,0.99999994,-2.8692186e-05,-2.5428832e-05,2.8692186e-05,1.0,-3.3974648e-06,2.5428832e-05,3.427267e-06,1.0,301,0.915,0,0,0.0,False,-0.25731619372725945,1.0510116735828905
0.9194225330138579,19:16:39.314010,19:16:29.495211,0,,0.1206103,1.3872981e-05,0.03807877,0.6706001,0.6476151,-0.36178723,0.16677506,0.34359983,0.924189,0.72282875,-0.6800983,0.122411996,,0.015262954,-0.008845963,0.02401203,-0.5572402,0.35727978,0.7495562,0.49832642,-0.5781704,0.6460571,0.66419435,0.7335326,0.14413793,,0.105163865,1.3401133,0.4406428,0.9942821,0.013523029,-0.105925545,-0.05990901,-0.7504952,-0.6581549,-0.08839686,0.6607376,-0.74539375,,-0.08970671,0.265043,-0.09276146,-0.73222965,-0.5608564,0.38636753,0.5849009,-0.22723636,0.77862346,-0.34889922,0.7961179,0.49443462,,0.017001232,0.41024065,-0.34980983,0.46622604,-0.40001038,-0.7890659,0.88025373,0.29872456,0.3686692,0.08824186,-0.8664614,0.4913838,,1.283294244442761,0.5306521439865888,0.20032606402000003,3.471207324442816,-0.41810768928224773,-1.005780282126541,-0.40607334840981846,,-0.6830602772594094,-0.18273530526990034,0.18483539852000003,-3.392992975523088,-0.6956164203058572,1.2224554011260715,0.8765042588765424,,-0.06277949319423604,-0.05761550026989781,0.08432494304,-0.06639839657179906,,4.858151e-05,2.4437904e-06,-2.503395e-06,0.99999994,-2.8692186e-05,-2.5428832e-05,2.8692186e-05,1.0,-3.3974648e-06,2.5428832e-05,3.427267e-06,1.0,326,0.992,1,1,0.067,False,-0.25773323775690704,1.0507702725789931
0.9587246479932219,19:16:39.388453,19:16:29.495211,0,,0.11993237,4.632771e-05,0.03821133,0.6081463,0.6959507,-0.38185126,0.1746104,0.35197067,0.9195802,0.77438307,-0.6259145,0.09252939,,0.015279993,-0.008846514,0.024012864,-0.55700403,0.35718578,0.7497765,0.49848273,-0.5783036,0.6458174,0.66427517,0.7334734,0.14406651,,0.105163865,1.3401133,0.4406428,0.9942821,0.013523029,-0.105925545,-0.05990901,-0.7504952,-0.6581549,-0.08839686,0.6607376,-0.74539375,,-0.089044794,0.26518095,-0.09290643,-0.6750007,-0.61399794,0.40912166,0.62765646,-0.18637384,0.7558519,-0.38784197,0.76698846,0.51118225,,0.016984247,0.4102392,-0.34981054,0.46597612,-0.39990503,-0.7892669,0.88037646,0.29861683,0.36846346,0.088337995,-0.86654717,0.4912153,,1.2860049236816138,0.5270919641315712,0.20037273046,3.391525145918697,-0.4631977342048431,-0.9668070479229263,-0.4057466602775497,,-0.6831375045881517,-0.18276619620139725,0.18483928739000002,-3.3925735956361196,-0.6956164203058572,1.2222920436457905,0.8765042588765425,,-0.06277949319423604,-0.05761550026989781,0.08432494304,-0.06639839657179906,,4.858151e-05,2.4437904e-06,-2.503395e-06,0.99999994,-2.8692186e-05,-2.5428832e-05,2.8692186e-05,1.0,-3.3974648e-06,2.5428832e-05,3.427267e-06,1.0,334,1.017,1,1,0.092,False,-0.2571374605716965,1.051108233984449
1.0331687800353393,19:16:39.424751,19:16:29.642706,0,,0.11972928,4.7251582e-05,0.038268432,0.57905114,0.71806717,-0.38610747,0.17453891,0.35342133,0.91903734,0.7963892,-0.59956044,0.079318315,,0.015284963,-0.008849032,0.024012089,-0.55687594,0.3570335,0.74994415,0.49856716,-0.5784632,0.64560914,0.66431916,0.7334217,0.14412715,,0.105163865,1.3401133,0.4406428,0.9942821,0.013523029,-0.105925545,-0.05990901,-0.7504952,-0.6581549,-0.08839686,0.6607376,-0.74539375,,-0.08884861,0.26522747,-0.09296856,-0.64829475,-0.6385709,0.41465783,0.64347136,-0.16838488,0.74672025,-0.40701175,0.7509152,0.5200651,,0.01697949,0.41023678,-0.3498123,0.46584064,-0.3997412,-0.78942984,0.8804429,0.2985084,0.36839244,0.088389814,-0.86666006,0.49100664,,1.2865764059143063,0.525670981282714,0.20040513771000001,3.357135995187235,-0.4850595741673136,-0.9462031061667199,-0.4070534128066239,,-0.6831529500539001,-0.18278936440001992,0.18484058368000003,-3.392363905692635,-0.6956164203058572,1.222373722385931,0.8763409148104082,,-0.06277949319423604,-0.05761550026989781,0.08432494304,-0.06639839657179906,,4.858151e-05,2.4437904e-06,-2.503395e-06,0.99999994,-2.8692186e-05,-2.5428832e-05,2.8692186e-05,1.0,-3.3974648e-06,2.5428832e-05,3.427267e-06,1.0,352,1.074,1,1,0.149,False,-0.2568991496976123,1.0511565141852286
1.069461985025555,19:16:39.476660,19:16:29.642706,0,,0.119236425,1.9982457e-05,0.038340107,0.5040379,0.76772964,-0.39564705,0.17291406,0.35911873,0.9171339,0.8461952,-0.5306832,0.048258156,,0.015293926,-0.008867182,0.02400899,-0.5567429,0.3570339,0.7500427,0.49872625,-0.5784136,0.6455307,0.66431135,0.73346055,0.14396553,,0.105163865,1.3401133,0.4406428,0.9942821,0.013523029,-0.105925545,-0.05990901,-0.7504952,-0.6581549,-0.08839686,0.6607376,-0.74539375,,-0.08836705,0.26527357,-0.093090065,-0.5788052,-0.6946216,0.42718297,0.6785192,-0.11966341,0.72477055,-0.45232314,0.70935285,0.5405759,,0.016971726,0.410224,-0.34982628,0.46570176,-0.39974773,-0.78950846,0.8805021,0.2985666,0.36820382,0.08853223,-0.866637,0.49102172,,1.287317788270232,0.5220412968318284,0.20052698897000001,3.269695288754188,-0.5372547170777118,-0.8937583393976789,-0.4057466602775497,,-0.6831683955196486,-0.1829052053931333,0.18484058368000003,-3.3921542157491507,-0.6956164203058572,1.2222103649056497,0.8766676029426769,,-0.06277949319423604,-0.05761550026989781,0.08432494304,-0.06639839657179906,,4.858151e-05,2.4437904e-06,-2.503395e-06,0.99999994,-2.8692186e-05,-2.5428832e-05,2.8692186e-05,1.0,-3.3974648e-06,2.5428832e-05,3.427267e-06,1.0,365,1.115,1,1,0.19,False,-0.25642252794944387,1.0505771517758753
1.121346504020039,19:16:39.516501,19:16:29.642706,0,,0.1188494,-3.6597252e-05,0.03835623,0.4506667,0.7988782,-0.39836264,0.16827175,0.36222607,0.9167753,0.8766892,-0.48019332,0.028814614,,0.0153015405,-0.008886479,0.02400583,-0.5567316,0.35708997,0.7500243,0.49872124,-0.57838166,0.64556324,0.6643245,0.7334585,0.14391507,,0.105163865,1.3401133,0.4406428,0.9942821,0.013523029,-0.105925545,-0.05990901,-0.7504952,-0.6581549,-0.08839686,0.6607376,-0.74539375,,-0.08798635,0.2652568,-0.09317968,-0.52901447,-0.7305295,0.4318221,0.6975543,-0.084546134,0.7115265,-0.48328224,0.67762715,0.5543101,,0.016965343,0.4102108,-0.3498413,0.46568948,-0.3998047,-0.7894868,0.8805097,0.29857498,0.36817893,0.08852135,-0.86660784,0.49107513,,1.2876266975852009,0.5192842811957302,0.20062291443000002,3.2086755152001913,-0.5736000260153189,-0.8540746919771417,-0.4062366924759522,,-0.683183840985397,-0.1830287691191209,0.18484058368000003,-3.3921542157491507,-0.6957530568056227,1.2221584253290652,0.8763409148104081,,-0.06277949319423604,-0.05761550026989781,0.08432494304,-0.06639839657179906,,4.858151e-05,2.4437904e-06,-2.503395e-06,0.99999994,-2.8692186e-05,-2.5428832e-05,2.8692186e-05,1.0,-3.3974648e-06,2.5428832e-05,3.427267e-06,1.0,378,1.156,1,1,0.231,False,-0.2575545046013441,1.0506737121774343
1.1612189860315993,19:16:39.556580,19:16:29.761624,0,,0.11855057,-0.0001116544,0.03834416,0.4138545,0.8192986,-0.3968299,0.16214523,0.36260098,0.9177307,0.8957864,-0.44415104,0.017218709,,0.015313581,-0.008905701,0.024003327,-0.5567407,0.3570158,0.75005305,0.49882048,-0.57832736,0.64553523,0.6642424,0.73353744,0.14389162,,0.105163865,1.3401133,0.4406428,0.9942821,0.013523029,-0.105925545,-0.05990901,-0.7504952,-0.6581549,-0.08839686,0.6607376,-0.74539375,,-0.08769126,0.26520413,-0.093251996,-0.49460074,-0.7544361,0.43150476,0.7072201,-0.06077348,0.7043766,-0.50518304,0.653554,0.5636109,,0.016954513,0.41019765,-0.34985647,0.4657019,-0.39974114,-0.78951174,0.8804903,0.29867798,0.36814162,0.088648416,-0.8666017,0.49106312,,1.287773429509811,0.5171296387238217,0.20069291409,3.1673665963337405,-0.5998342339702836,-0.8242695442329507,-0.4057466602775497,,-0.6832224546497682,-0.18315233284510848,0.18484058368000003,-3.3921542157491507,-0.6957530568056227,1.2221584253290652,0.8763409148104081,,-0.06277949319423604,-0.05761550026989781,0.08432494304,-0.06639839657179906,,4.858151e-05,2.4437904e-06,-2.503395e-06,0.99999994,-2.8692186e-05,-2.5428832e-05,2.8692186e-05,1.0,-3.3974648e-06,2.5428832e-05,3.427267e-06,1.0,387,1.185,1,1,0.26,False,-0.25779281547542787,1.0507702725789931
1.2012931640492752,19:16:39.588670,19:16:29.761624,0,,0.11806272,-0.00022806227,0.038317427,0.35796383,0.84599566,-0.39516193,0.15312806,0.36428776,0.91861105,0.92109364,-0.38933992,0.0008561313,,0.015341595,-0.008929245,0.02400291,-0.55664563,0.3567287,0.75026006,0.49902242,-0.5784416,0.64527667,0.6641704,0.7335869,0.14397146,,0.105163865,1.3401133,0.4406428,0.9942821,0.013523029,-0.105925545,-0.05990901,-0.7504952,-0.6581549,-0.08839686,0.6607376,-0.74539375,,-0.087208554,0.265118,-0.09336079,-0.44196886,-0.7864135,0.4315291,0.7196254,-0.023636479,0.6939601,-0.53553975,0.61724806,0.5763697,,0.016927788,0.41018242,-0.34987628,0.46560508,-0.3994553,-0.78971344,0.8805202,0.29869363,0.36805746,0.08885988,-0.86672807,0.49080175,,1.2879201614344216,0.5139710409782638,0.20079661729,3.103201473627476,-0.6365894524071871,-0.7784524525513443,-0.40509328401301237,,-0.6833382956428815,-0.1833222329683414,0.18484187997,-3.3919445258056657,-0.6957530568056227,1.222240104069206,0.8761775707442737,,-0.06277949319423604,-0.05761550026989781,0.08432494304,-0.06639839657179906,,4.858151e-05,2.4437904e-06,-2.503395e-06,0.99999994,-2.8692186e-05,-2.5428832e-05,2.8692186e-05,1.0,-3.3974648e-06,2.5428832e-05,3.427267e-06,1.0,400,1.226,1,1,0.301,False,-0.2571374605716965,1.0507702725789931
1.2333677480346523,19:16:39.629611,19:16:29.761624,0,,0.11757897,-0.00037904084,0.038232997,0.3095083,0.8651475,-0.394619,0.14568275,0.36695513,0.9187603,0.9396707,-0.34185314,-0.012461454,,0.015381418,-0.008953981,0.024009407,-0.55643374,0.35653728,0.7505082,0.49920383,-0.5786071,0.644988,0.66421163,0.7335496,0.14397173,,0.105163865,1.3401133,0.4406428,0.9942821,0.013523029,-0.105925545,-0.05990901,-0.7504952,-0.6581549,-0.08839686,0.6607376,-0.74539375,,-0.08672558,0.26496732,-0.09345007,-0.3959847,-0.81011283,0.4323347,0.7283931,0.0095749535,0.68509257,-0.5591419,0.58619577,0.58628905,,0.016888704,0.4101712,-0.3499005,0.46538204,-0.39925373,-0.78994685,0.8806242,0.2985988,0.36788553,0.088997506,-0.86685365,0.49055502,,1.2879201614344216,0.5109514524244421,0.20089124646000003,3.045956119056201,-0.6658296633569913,-0.7381915943920571,-0.4062366924759524,,-0.6835236412318629,-0.18351530129019702,0.18484058368000003,-3.391525145918697,-0.6958896933053882,1.2221064857524806,0.8763409148104082,,-0.06277949319423604,-0.05761550026989781,0.08432494304,-0.06639839657179906,,4.858151e-05,2.4437904e-06,-2.503395e-06,0.99999994,-2.8692186e-05,-2.5428832e-05,2.8692186e-05,1.0,-3.3974648e-06,2.5428832e-05,3.427267e-06,1.0,409,1.254,1,1,0.329,False,-0.2571374605716965,1.0505771517758753
1.27428100904217,19:16:39.660685,19:16:29.886693,0,,0.11727925,-0.0004748851,0.038155958,0.2803892,0.8768732,-0.3904804,0.13869566,0.36551952,0.9204124,0.94981325,-0.31223166,-0.019130856,,0.015422195,-0.008972846,0.024015844,-0.5565103,0.35636908,0.7505313,0.49932688,-0.57854295,0.6449503,0.6640549,0.7336819,0.14402056,,0.105163865,1.3401133,0.4406428,0.9942821,0.013523029,-0.105925545,-0.05990901,-0.7504952,-0.6581549,-0.08839686,0.6607376,-0.74539375,,-0.08642394,0.26485565,-0.09348881,-0.36835423,-0.8248075,0.42896116,0.7311179,0.028009111,0.6816759,-0.57426625,0.5647194,0.5927143,,0.016848413,0.41016284,-0.34991965,0.46546784,-0.39910236,-0.7899728,0.88056016,0.29876256,0.36790586,0.08918219,-0.86686695,0.490498,,1.2878429341056792,0.5090284919387601,0.20097550531000002,3.0117766582682233,-0.6848221368243875,-0.7102893372768891,-0.4046032518146099,,-0.6837321550194669,-0.1836697559476815,0.18484058368000003,-3.391525145918697,-0.6958896933053882,1.2220248070123398,0.876177570744274,,-0.06277949319423604,-0.05761550026989781,0.08432494304,-0.06639839657179906,,4.858151e-05,2.4437904e-06,-2.503395e-06,0.99999994,-2.8692186e-05,-2.5428832e-05,2.8692186e-05,1.0,-3.3974648e-06,2.5428832e-05,3.427267e-06,1.0,422,1.295,1,1,0.37,False,-0.25672041654204936,1.05105995378367
1.305382429040037,19:16:39.697198,19:16:29.886693,0,,0.11695044,-0.0005296618,0.038064256,0.24645826,0.8876813,-0.38894725,0.13742805,0.36526117,0.9207051,0.95936006,-0.2803676,-0.03197074,,0.0154706985,-0.008990653,0.024023592,-0.5563329,0.35627657,0.75070673,0.4995873,-0.57850313,0.6447843,0.6640077,0.7337582,0.1438491,,0.105163865,1.3401133,0.4406428,0.9942821,0.013523029,-0.105925545,-0.05990901,-0.7504952,-0.6581549,-0.08839686,0.6607376,-0.74539375,,-0.086090185,0.26476553,-0.09349219,-0.3356391,-0.8387658,0.42874047,0.73784524,0.04885532,0.6731995,-0.58560294,0.5422962,0.6024816,,0.016800264,0.41015527,-0.34993845,0.46528396,-0.39901966,-0.79012287,0.880632,0.29885793,0.3676564,0.089432344,-0.86687213,0.4904433,,1.2876730339824463,0.507406718035173,0.20107013448000002,2.968790219853896,-0.698622423300697,-0.677472941606442,-0.40591000434368407,,-0.6839715597385679,-0.18383193333804024,0.18484187997,-3.391105766031728,-0.6958896933053882,1.2216164133116372,0.8766676029426768,,-0.06277949319423604,-0.05761550026989781,0.08432494304,-0.06639839657179906,,4.858151e-05,2.4437904e-06,-2.503395e-06,0.99999994,-2.8692186e-05,-2.5428832e-05,2.8692186e-05,1.0,-3.3974648e-06,2.5428832e-05,3.427267e-06,1.0,431,1.324,1,1,0.399,False,-0.25725661600873906,1.0508668329805522
1.3419147010426968,19:16:39.728401,19:16:29.886693,0,,0.116634265,-0.00055228174,0.037906036,0.21156293,0.90017647,-0.3806879,0.136965,0.35835475,0.92348397,0.96771973,-0.24751593,-0.04747808,,0.015521385,-0.009010576,0.02403295,-0.5561391,0.35607734,0.75094485,0.49965727,-0.5787808,0.6444809,0.6641175,0.7336359,0.14396603,,0.105163865,1.3401133,0.4406428,0.9942821,0.013523029,-0.105925545,-0.05990901,-0.7504952,-0.6581549,-0.08839686,0.6607376,-0.74539375,,-0.08576095,0.26465395,-0.093423896,-0.301812,-0.85478115,0.42220694,0.7444041,0.06539078,0.66451985,-0.5956275,0.51485264,0.61656684,,0.016749874,0.41014782,-0.34995994,0.46507737,-0.39879686,-0.79035693,0.88074046,0.29863465,0.36757806,0.089439,-0.86705154,0.49012473,,1.2873100655373577,0.5058776169260765,0.20122828186000002,2.9239165719482076,-0.7106464352800558,-0.6358134574263378,-0.4049299399468782,,-0.6842264099234173,-0.1840172789270216,0.18484317626000002,-3.3906863861447585,-0.6961629663049191,1.2215125341584678,0.8763409148104083,,-0.06277949319423604,-0.05761550026989781,0.08432494304,-0.06639839657179906,,4.858151e-05,2.4437904e-06,-2.503395e-06,0.99999994,-2.8692186e-05,-2.5428832e-05,2.8692186e-05,1.0,-3.3974648e-06,2.5428832e-05,3.427267e-06,1.0,444,1.365,1,1,0.44,False,-0.25779281547542787,1.0502874705711984
1.3730203250306658,19:16:39.765199,19:16:29.886693,0,,0.11647937,-0.0005314201,0.03777875,0.18881449,0.9080898,-0.37379366,0.13558418,0.35288817,0.92578995,0.97260773,-0.22548307,-0.05649224,,0.015543707,-0.009024002,0.024035513,-0.5563139,0.35601526,0.75084484,0.49967176,-0.5786522,0.644585,0.6639601,0.73376745,0.14402154,,0.105163865,1.3401133,0.4406428,0.9942821,0.013523029,-0.105925545,-0.05990901,-0.7504952,-0.6581549,-0.08839686,0.6607376,-0.74539375,,-0.0855933,0.26458943,-0.09333247,-0.279749,-0.8650936,0.41635755,0.74750453,0.07588099,0.65990835,-0.60247606,0.49583787,0.62543374,,0.016728057,0.41014084,-0.34997258,0.46526584,-0.3987539,-0.7902677,0.8806317,0.29881883,0.3676889,0.089529485,-0.86700785,0.49018553,,1.2868467015649043,0.5050976209057798,0.20137735521000003,2.894979359747343,-0.7187079887662168,-0.6076766137111405,-0.4042765636823412,,-0.6843422509165307,-0.18411767445438654,0.18484317626000002,-3.390896076088244,-0.6961629663049191,1.2215125341584678,0.8763409148104083,,-0.06277949319423604,-0.05761550026989781,0.08432494304,-0.06639839657179906,,4.858151e-05,2.4437904e-06,-2.503395e-06,0.99999994,-2.8692186e-05,-2.5428832e-05,2.8692186e-05,1.0,-3.3974648e-06,2.5428832e-05,3.427267e-06,1.0,453,1.394,1,1,0.469,False,-0.25826943722359585,1.05105995378367
1.4099136340082623,19:16:39.795491,19:16:29.886693,0,,0.116413936,-0.000496909,0.037612036,0.17173934,0.91432476,-0.3667636,0.13497886,0.3469447,0.92812186,0.97585154,-0.20890036,-0.063830495,,0.0155533925,-0.009030364,0.024035037,-0.55592084,0.35576633,0.7512538,0.49991176,-0.5789731,0.64411056,0.6641086,0.73363507,0.14401156,,0.105163865,1.3401133,0.4406428,0.9942821,0.013523029,-0.105925545,-0.05990901,-0.7504952,-0.6581549,-0.08839686,0.6607376,-0.74539375,,-0.08551004,0.2645052,-0.093193755,-0.26312742,-0.8732097,0.41020575,0.7498644,0.08241422,0.65643835,-0.60701513,0.4803256,0.63310343,,0.016718766,0.4101362,-0.34997773,0.4648496,-0.3984787,-0.7906514,0.8808377,0.2985703,0.36739722,0.08966507,-0.86722,0.4897853,,1.2861593783390983,0.5045493068717098,0.20155365065000003,2.873381295568437,-0.7240368122570688,-0.5847085627149319,-0.40656338060822106,,-0.6843654191151534,-0.18417173358450611,0.18484447255000003,-3.39026700625779,-0.6961629663049191,1.2215125341584678,0.8763409148104083,,-0.06277949319423604,-0.05761550026989781,0.08432494304,-0.06639839657179906,,4.858151e-05,2.4437904e-06,-2.503395e-06,0.99999994,-2.8692186e-05,-2.5428832e-05,2.8692186e-05,1.0,-3.3974648e-06,2.5428832e-05,3.427267e-06,1.0,466,1.435,1,1,0.51,False,-0.25773323775690704,1.0504805913743163
1.440188239037525,19:16:39.830991,19:16:29.886693,0,,0.116417885,-0.00046005845,0.037335858,0.15351433,0.9187716,-0.36371925,0.13723627,0.34469163,0.9286302,0.9785701,-0.1924735,-0.0731737,,0.015552878,-0.009033166,0.024033964,-0.55591685,0.3559518,0.7511689,0.49992424,-0.5788041,0.64425284,0.66410255,0.73367846,0.14381808,,0.105163865,1.3401133,0.4406428,0.9942821,0.013523029,-0.105925545,-0.05990901,-0.7504952,-0.6581549,-0.08839686,0.6607376,-0.74539375,,-0.08548464,0.26434654,-0.092966124,-0.24518907,-0.8793769,0.40814042,0.75402886,0.09163556,0.6504179,-0.60936266,0.46722502,0.6406075,,0.016719507,0.41013393,-0.3499796,0.4648456,-0.39867514,-0.7905547,0.8808384,0.29867283,0.36731225,0.089678936,-0.8670944,0.4900051,,1.2848928501477255,0.50400099283764,0.20180124204000002,2.850105711841655,-0.7266329057526123,-0.5647039784539167,-0.4064000365420869,,-0.6843576963822792,-0.18418717905025456,0.18484447255000003,-3.39026700625779,-0.6961629663049191,1.221267497938046,0.8761775707442738,,-0.06277949319423604,-0.05761550026989781,0.08432494304,-0.06639839657179906,,4.858151e-05,2.4437904e-06,-2.503395e-06,0.99999994,-2.8692186e-05,-2.5428832e-05,2.8692186e-05,1.0,-3.3974648e-06,2.5428832e-05,3.427267e-06,1.0,475,1.463,1,1,0.538,False,-0.2575545046013441,1.0509151131813312
1.4756054150057025,19:16:39.879176,19:16:30.091308,0,,0.11649074,-0.00038029253,0.037034795,0.12904295,0.9230716,-0.3623348,0.13753152,0.34519908,0.92839795,0.9820554,-0.16963568,-0.082405925,,0.01555565,-0.009033091,0.024033427,-0.5556501,0.3558698,0.7514051,0.5000614,-0.57897556,0.64399225,0.6642226,0.733583,0.14375114,,0.105163865,1.3401133,0.4406428,0.9942821,0.013523029,-0.105925545,-0.05990901,-0.7504952,-0.6581549,-0.08839686,0.6607376,-0.74539375,,-0.08552341,0.2642003,-0.0926843,-0.22120161,-0.8859259,0.4076827,0.75748765,0.107214734,0.6439856,-0.61423314,0.45126528,0.6473618,,0.016716799,0.41013318,-0.34997925,0.46456233,-0.39857638,-0.79077095,0.8809817,0.29851332,0.36709815,0.08973903,-0.8671947,0.48981652,,1.28305483972366,0.5037075289884194,0.20211494422,2.8197006700363993,-0.7319617292434645,-0.5420626424182703,-0.4047665958807438,,-0.6843576963822792,-0.18419490178312878,0.18484576884,-3.389847626370821,-0.6961629663049191,1.2211858191979055,0.8763409148104081,,-0.06277949319423604,-0.05761550026989781,0.08432494304,-0.06639839657179906,,4.858151e-05,2.4437904e-06,-2.503395e-06,0.99999994,-2.8692186e-05,-2.5428832e-05,2.8692186e-05,1.0,-3.3974648e-06,2.5428832e-05,3.427267e-06,1.0,488,1.504,1,1,0.579,False,-0.2564821056679656,1.050963393382111
1.5238647590158507,19:16:39.912301,19:16:30.091308,0,,0.11652778,-0.00036236644,0.036908522,0.11469726,0.9252358,-0.3616393,0.13909456,0.3454979,0.92805386,0.98361427,-0.1567473,-0.08906761,,0.015556663,-0.009032585,0.024033904,-0.55551684,0.35579935,0.75153685,0.50012684,-0.5790897,0.64383876,0.6642847,0.73352706,0.14374937,,0.105163865,1.3401133,0.4406428,0.9942821,0.013523029,-0.105925545,-0.05990901,-0.7504952,-0.6581549,-0.08839686,0.6607376,-0.74539375,,-0.08554679,0.26412725,-0.09257586,-0.20703219,-0.8893604,0.40764657,0.7602168,0.11602555,0.63922495,-0.6157988,0.4422399,0.65208566,,0.016715722,0.41013375,-0.34997904,0.46442083,-0.3984956,-0.79089475,0.8810536,0.29841542,0.3670051,0.08976527,-0.8672655,0.48968634,,1.2820354389842623,0.5036457471254256,0.20223161032000003,2.8014576449532456,-0.7333280942411188,-0.5285332948799408,-0.40541997214528114,,-0.6843576963822792,-0.18419490178312878,0.18484576884,-3.389637936427336,-0.6961629663049191,1.2211858191979055,0.8763409148104081,,-0.06277949319423604,-0.05761550026989781,0.08432494304,-0.06639839657179906,,4.858151e-05,2.4437904e-06,-2.503395e-06,0.99999994,-2.8692186e-05,-2.5428832e-05,2.8692186e-05,1.0,-3.3974648e-06,2.5428832e-05,3.427267e-06,1.0,497,1.533,1,1,0.608,False,-0.2579715486309908,1.0505288715750958
1.5570168200065382,19:16:39.945903,19:16:30.091308,0,,0.116596684,-0.0003632903,0.036820263,0.102627195,0.9278867,-0.35845983,0.13697901,0.3437467,0.9290183,0.98524326,-0.14444405,-0.09182331,,0.01554855,-0.009043552,0.024041772,-0.55540794,0.35575178,0.7516399,0.50018716,-0.57916677,0.64372253,0.66433036,0.7334893,0.14373136,,0.10512277,1.3401142,0.4406459,0.9942854,0.013564504,-0.10588918,-0.05985406,-0.7504944,-0.6581608,-0.08839686,0.6607376,-0.74539375,,-0.08557276,0.26406077,-0.092507966,-0.19529597,-0.8933274,0.4047537,0.76018596,0.12287096,0.6379812,-0.6196586,0.43228325,0.6550988,,0.016760603,0.4101374,-0.34999138,0.4642657,-0.39842173,-0.7910231,0.88113016,0.29833707,0.36688504,0.08981653,-0.86732644,0.48956907,,1.2810160382448648,0.5035994107281803,0.20234568384,2.786989038852813,-0.7378370987333784,-0.5153817702016537,-0.40541997214528114,,-0.6843576963822792,-0.18419490178312878,0.18484576884,-3.3894282464838517,-0.6961629663049191,1.221104140457765,0.8761775707442739,,-0.06277949319423604,-0.05761550026989781,0.08432494304,-0.06639839657179906,,7.390976e-06,3.2782555e-06,-1.0728836e-06,0.99999994,1.2494624e-05,1.1079013e-05,-1.2498349e-05,1.0,1.4901161e-06,-1.1079013e-05,-1.4603138e-06,1.0,510,1.574,1,1,0.649,False,-0.25695872741613357,1.0509151131813312
1.590620266040787,19:16:39.978769,19:16:30.198814,0,,0.11657378,-0.0003298968,0.036762863,0.0875288,0.9289327,-0.35975313,0.13567975,0.34665677,0.9281273,0.98687875,-0.13004911,-0.09569493,,0.01555483,-0.009041004,0.02403891,-0.5552841,0.35572296,0.75174505,0.50025237,-0.5792365,0.64360905,0.6643847,0.73344815,0.1436896,,0.10512277,1.3401142,0.4406459,0.9942854,0.013564504,-0.10588918,-0.05985406,-0.7504944,-0.6581608,-0.08839686,0.6607376,-0.74539375,,-0.085542805,0.26404768,-0.09244579,-0.18050686,-0.8956917,0.40639096,0.76087934,0.13466594,0.63476586,-0.62328154,0.4237941,0.6572052,,0.016754527,0.41013554,-0.34998763,0.4641343,-0.39838582,-0.79111826,0.8811963,0.29826984,0.3667808,0.089846425,-0.867366,0.4894934,,1.2803982196149268,0.5035839652624319,0.20243253527000002,2.767697564052237,-0.7416629207268107,-0.5035224437031136,-0.40591000434368407,,-0.6843808645809019,-0.18419490178312878,0.184850954,-3.389218556540367,-0.6961629663049191,1.2210224617176244,0.8763409148104082,,-0.06277949319423604,-0.05761550026989781,0.08432494304,-0.06639839657179906,,7.390976e-06,3.2782555e-06,-1.0728836e-06,0.99999994,1.2494624e-05,1.1079013e-05,-1.2498349e-05,1.0,1.4901161e-06,-1.1079013e-05,-1.4603138e-06,1.0,519,1.603,1,1,0.678,False,-0.25719703829021734,1.0507219923782136
1.623487348027993,19:16:40.009852,19:16:30.198814,0,,0.11649203,-0.0002874881,0.036682963,0.07033729,0.93169415,-0.35636818,0.13529125,0.345042,0.92878544,0.9883061,-0.11354181,-0.1017808,,0.015557364,-0.009040736,0.024035513,-0.55515045,0.3557727,0.75182015,0.50032395,-0.5792413,0.6435492,0.6644426,0.73342025,0.14356448,,0.10512277,1.3401142,0.4406459,0.9942854,0.013564504,-0.10588918,-0.05985406,-0.7504944,-0.6581608,-0.08839686,0.6607376,-0.74539375,,-0.08545173,0.26402828,-0.09236708,-0.16357775,-0.90016454,0.4036659,0.76218265,0.14447473,0.6310346,-0.6263545,0.41089037,0.6624569,,0.016752327,0.4101325,-0.34998566,0.46399248,-0.39843234,-0.791178,0.8812676,0.2982382,0.3666353,0.08988013,-0.8673555,0.4895058,,1.2799657465739702,0.5034604015364442,0.20253494218,2.7450510501559084,-0.7446689237216504,-0.48416375061269595,-0.4018264026903272,,-0.6843808645809019,-0.184202624516003,0.18485484287,-3.3890088665968827,-0.6961629663049191,1.2208591042373431,0.8763409148104081,,-0.06277949319423604,-0.05761550026989781,0.08432494304,-0.06639839657179906,,7.390976e-06,3.2782555e-06,-1.0728836e-06,0.99999994,1.2494624e-05,1.1079013e-05,-1.2498349e-05,1.0,1.4901161e-06,-1.1079013e-05,-1.4603138e-06,1.0,532,1.643,1,1,0.718,False,-0.25767366003838577,1.0513013547875674
1.654543562035542,19:16:40.042892,19:16:30.198814,0,,0.116371304,-0.0002475232,0.036654294,0.056140758,0.9328042,-0.35598308,0.13280645,0.34640032,0.9286384,0.9895507,-0.09941134,-0.104435265,,0.015562378,-0.009039991,0.02403301,-0.5550231,0.35587072,0.75186783,0.50039536,-0.57919896,0.6435318,0.6644953,0.7334062,0.14339277,,0.10512277,1.3401142,0.4406459,0.9942854,0.013564504,-0.10588918,-0.05985406,-0.7504944,-0.6581608,-0.08839686,0.6607376,-0.74539375,,-0.08532714,0.26404294,-0.0923316,-0.14969584,-0.90263146,0.40354374,0.7617039,0.15494262,0.6291263,-0.63039535,0.40155843,0.66434366,,0.01674755,0.4101302,-0.34998372,0.46385738,-0.39853036,-0.79120785,0.881335,0.2982369,0.3664742,0.08991629,-0.86731094,0.48957816,,1.2799271329095991,0.5032982241460855,0.20260364555000002,2.7261789552423012,-0.7490412917141446,-0.47071525013740234,-0.40394987555007233,,-0.6844040327795246,-0.18421034724887722,0.18485873174000003,-3.3887991766533982,-0.6961629663049191,1.2206140680169217,0.8765042588765425,,-0.06277949319423604,-0.05761550026989781,0.08432494304,-0.06639839657179906,,7.390976e-06,3.2782555e-06,-1.0728836e-06,0.99999994,1.2494624e-05,1.1079013e-05,-1.2498349e-05,1.0,1.4901161e-06,-1.1079013e-05,-1.4603138e-06,1.0,541,1.672,1,1,0.747,False,-0.25672041654204936,1.050963393382111
1.687574414012488,19:16:40.079002,19:16:30.198814,0,,0.11622977,-0.00022047758,0.036626756,0.042640246,0.9344814,-0.35344875,0.12890747,0.3456677,0.92946047,0.9907394,-0.08519459,-0.10572225,,0.015571579,-0.009038918,0.024034739,-0.5549083,0.35575813,0.7520059,0.50046647,-0.5793252,0.6433628,0.6645375,0.73336107,0.14342733,,0.10512277,1.3401142,0.4406459,0.9942854,0.013564504,-0.10588918,-0.05985406,-0.7504944,-0.6581608,-0.08839686,0.6607376,-0.74539375,,-0.085182555,0.26404962,-0.092307776,-0.13655986,-0.90575886,0.4011886,0.7601169,0.16390237,0.6287753,-0.6352745,0.39081568,0.6661001,,0.01673818,0.41013125,-0.3499836,0.46373585,-0.3984082,-0.79134065,0.88139474,0.29814675,0.36640385,0.08995736,-0.8673981,0.48941624,,1.2799734693068445,0.503004760296865,0.20266975634,2.708145620102632,-0.7546433882045276,-0.4555288798675761,-0.40721675687275816,,-0.6844426464438956,-0.18421806998175144,0.18486002803,-3.3885894867099133,-0.6961629663049191,1.2206140680169217,0.8765042588765425,,-0.06277949319423604,-0.05761550026989781,0.08432494304,-0.06639839657179906,,7.390976e-06,3.2782555e-06,-1.0728836e-06,0.99999994,1.2494624e-05,1.1079013e-05,-1.2498349e-05,1.0,1.4901161e-06,-1.1079013e-05,-1.4603138e-06,1.0,554,1.713,1,1,0.788,False,-0.2583885926606384,1.051108233984449
1.7236677650362253,19:16:40.110447,19:16:30.328571,0,,0.11600001,-0.00020849705,0.03649634,0.024017379,0.93773675,-0.34651512,0.12827602,0.34085926,0.9313218,0.99144757,-0.06681749,-0.11210266,,0.01558239,-0.009038918,0.024036646,-0.55479616,0.35569775,0.75211716,0.5005438,-0.5793973,0.6432377,0.66457295,0.73333335,0.14340515,,0.10512277,1.3401142,0.4406459,0.9942854,0.013564504,-0.10588918,-0.05985406,-0.7504944,-0.6581608,-0.08839686,0.6607376,-0.74539375,,-0.084940545,0.2639792,-0.092227705,-0.118145876,-0.9110454,0.39501634,0.76080936,0.17259043,0.625605,-0.6381306,0.37444478,0.672741,,0.016727246,0.41013172,-0.34998447,0.46361738,-0.39834213,-0.7914433,0.881452,0.2980931,0.3663098,0.09000717,-0.86744684,0.48932064,,1.2800429739027124,0.5023406052696817,0.20278382986000001,2.6823537570540354,-0.7575127546996018,-0.4299923416900315,-0.4057466602775496,,-0.6844967055740152,-0.1842335154474999,0.18486132432000002,-3.388379796766429,-0.6961629663049191,1.220532389276781,0.8766676029426768,,-0.06277949319423604,-0.05761550026989781,0.08432494304,-0.06639839657179906,,7.390976e-06,3.2782555e-06,-1.0728836e-06,0.99999994,1.2494624e-05,1.1079013e-05,-1.2498349e-05,1.0,1.4901161e-06,-1.1079013e-05,-1.4603138e-06,1.0,563,1.742,1,1,0.817,False,-0.25636295023092304,1.0508668329805522
1.7551598270074464,19:16:40.150356,19:16:30.328571,0,,0.115717754,-0.00020217896,0.036288857,0.0018065572,0.93798196,-0.34667885,0.12890217,0.34356886,0.9302391,0.9916556,-0.04636821,-0.12028727,,0.015591852,-0.009039961,0.024034977,-0.55467725,0.35589373,0.7521121,0.5006274,-0.5792496,0.64330566,0.66460913,0.7333549,0.14312655,,0.10512277,1.3401142,0.4406459,0.9942854,0.013564504,-0.10588918,-0.05985406,-0.7504944,-0.6581608,-0.08839686,0.6607376,-0.74539375,,-0.084638834,0.26385462,-0.09210033,-0.096061975,-0.9132309,0.39595637,0.7622264,0.188339,0.6193055,-0.6401429,0.3613001,0.6779965,,0.016718054,0.41012874,-0.34998444,0.46349183,-0.3985459,-0.7914142,0.8815124,0.298165,0.36610585,0.090062045,-0.8673285,0.4895202,,1.2800893102999578,0.5014370455233974,0.20294327353000002,2.651319645418326,-0.7591523926967871,-0.40839899929081497,-0.40525662807914675,,-0.6845353192383863,-0.18425668364612258,0.18486521319000002,-3.3881701068229444,-0.6961629663049191,1.2201239955760783,0.8761775707442739,,-0.06277949319423604,-0.05761550026989781,0.08432494304,-0.06639839657179906,,7.390976e-06,3.2782555e-06,-1.0728836e-06,0.99999994,1.2494624e-05,1.1079013e-05,-1.2498349e-05,1.0,1.4901161e-06,-1.1079013e-05,-1.4603138e-06,1.0,576,1.783,1,1,0.858,False,-0.25791197091247,1.0512047943860081
1.795069289044477,19:16:40.183417,19:16:30.328571,0,,0.11546533,-0.00021371245,0.036112785,-0.017249878,0.9366659,-0.3497986,0.127368,0.3490591,0.9284046,0.9917055,-0.028538287,-0.12532249,,0.015602149,-0.009042807,0.024035871,-0.55456114,0.3558348,0.75222564,0.5007171,-0.57931066,0.6431809,0.6646384,0.7333354,0.14309065,,0.10512277,1.3401142,0.4406459,0.9942854,0.013564504,-0.10588918,-0.05985406,-0.7504944,-0.6581608,-0.08839686,0.6607376,-0.74539375,,-0.08437071,0.2637369,-0.09200491,-0.07718891,-0.91348374,0.39948636,0.7618248,0.20443797,0.61467725,-0.64316785,0.35178488,0.6801342,,0.016707864,0.41012695,-0.3499872,0.46336937,-0.3984826,-0.7915178,0.8815703,0.2981238,0.366,0.09012568,-0.8673718,0.48943186,,1.2801202012314548,0.5005566539757358,0.20307808769000002,2.624689022595791,-0.7622950321913923,-0.3930945040438695,-0.40394987555007245,,-0.6845816556356317,-0.18428757457761946,0.18486650948000002,-3.3879604168794604,-0.6961629663049191,1.2200423168359378,0.8760142266781396,,-0.06277949319423604,-0.05761550026989781,0.08432494304,-0.06639839657179906,,7.390976e-06,3.2782555e-06,-1.0728836e-06,0.99999994,1.2494624e-05,1.1079013e-05,-1.2498349e-05,1.0,1.4901161e-06,-1.1079013e-05,-1.4603138e-06,1.0,585,1.811,1,1,0.886,False,-0.2566608388235285,1.0507702725789931
1.8281335690408014,19:16:40.213625,19:16:30.433768,0,,0.11520021,-0.00020302832,0.035902053,-0.034557357,0.9356877,-0.35113242,0.12487313,0.35263163,0.92739296,0.9915707,-0.011798769,-0.12902826,,0.015619412,-0.009043656,0.024036646,-0.5544608,0.35580435,0.752314,0.50080645,-0.57933265,0.64309144,0.66465485,0.7333327,0.14302818,,0.10512277,1.3401142,0.4406459,0.9942854,0.013564504,-0.10588918,-0.05985406,-0.7504944,-0.6581608,-0.08839686,0.6607376,-0.74539375,,-0.084085524,0.2636128,-0.09187047,-0.060076334,-0.91404366,0.40114215,0.7605248,0.21837379,0.6114858,-0.64652365,0.3418144,0.6820338,,0.01669066,0.41012534,-0.3499882,0.46326384,-0.39845106,-0.79159546,0.8816186,0.29811367,0.36589184,0.09019543,-0.86738974,0.48938715,,1.2802746558889393,0.49959131236645776,0.20325697571,2.6001552992081023,-0.7659842176850592,-0.37726265844199786,-0.40394987555007256,,-0.6846666056972481,-0.18431846550911637,0.18487039835000002,-3.387750726935976,-0.6961629663049191,1.2198789593556565,0.8763409148104081,,-0.06277949319423604,-0.05761550026989781,0.08432494304,-0.06639839657179906,,7.390976e-06,3.2782555e-06,-1.0728836e-06,0.99999994,1.2494624e-05,1.1079013e-05,-1.2498349e-05,1.0,1.4901161e-06,-1.1079013e-05,-1.4603138e-06,1.0,598,1.852,1,1,0.927,False,-0.25791197091247,1.0506254319766548
1.8583384560188279,19:16:40.250161,19:16:30.433768,0,,0.11489935,-0.00017470121,0.035636723,-0.05295141,0.93507487,-0.35047212,0.12458536,0.3544085,0.9267541,0.9907949,0.005409226,-0.13526309,,0.015644826,-0.009047218,0.02404046,-0.554378,0.3556652,0.75244075,0.50091416,-0.5794109,0.64293706,0.6646428,0.7333384,0.14305489,,0.10512277,1.3401142,0.4406459,0.9942854,0.013564504,-0.10588918,-0.05985406,-0.7504944,-0.6581608,-0.08839686,0.6607376,-0.74539375,,-0.08375859,0.2634663,-0.091687806,-0.041726097,-0.9150897,0.4010857,0.7604647,0.23128425,0.60679567,-0.64803725,0.33033076,0.6862429,,0.016665185,0.4101241,-0.34999296,0.4631777,-0.39830965,-0.791717,0.88165367,0.2980941,0.36582333,0.090295196,-0.86746144,0.48924172,,1.2805603970052855,0.4985641888941859,0.20347215985000003,2.573734366329052,-0.7670773096831827,-0.3580752774209407,-0.40476659588074404,,-0.68479789215611,-0.18437252463923595,0.18487299093,-3.3875410369924905,-0.6961629663049191,1.219797280615516,0.8761775707442739,,-0.06277949319423604,-0.05761550026989781,0.08432494304,-0.06639839657179906,,7.390976e-06,3.2782555e-06,-1.0728836e-06,0.99999994,1.2494624e-05,1.1079013e-05,-1.2498349e-05,1.0,1.4901161e-06,-1.1079013e-05,-1.4603138e-06,1.0,607,1.881,1,1,0.956,False,-0.25683957197909146,1.05105995378367
1.8948795100441203,19:16:40.283592,19:16:30.433768,0,,0.11444764,-0.00010663271,0.03521326,-0.0749414,0.9327227,-0.35272056,0.12549263,0.3597246,0.92458093,0.9892599,0.025025502,-0.14400819,,0.015695676,-0.009052746,0.024047315,-0.55421275,0.355328,0.75272185,0.5011232,-0.57962406,0.642582,0.664623,0.73333347,0.14317197,,0.10512277,1.3401142,0.4406459,0.9942854,0.013564504,-0.10588918,-0.05985406,-0.7504944,-0.6581608,-0.08839686,0.6607376,-0.74539375,,-0.08326412,0.26324832,-0.09137797,-0.019674608,-0.9144995,0.40410832,0.7609091,0.24849412,0.5993897,-0.6485601,0.31928244,0.690962,,0.016614225,0.4101217,-0.3500007,0.4630057,-0.39796406,-0.7919914,0.88172436,0.29801866,0.36571443,0.090487026,-0.8676459,0.48887894,,1.2813017793612111,0.49699647412071835,0.20381956557000003,2.5414421150324356,-0.7666674001838863,-0.3379081673567487,-0.4049299399468783,,-0.6850604650738336,-0.18447292016660086,0.18487947238000002,-3.387121657105522,-0.6961629663049191,1.2197156018753754,0.8763409148104082,,-0.06277949319423604,-0.05761550026989781,0.08432494304,-0.06639839657179906,,7.390976e-06,3.2782555e-06,-1.0728836e-06,0.99999994,1.2494624e-05,1.1079013e-05,-1.2498349e-05,1.0,1.4901161e-06,-1.1079013e-05,-1.4603138e-06,1.0,620,1.922,1,1,0.997,False,-0.25636295023092304,1.0506254319766548
1.9282888100133277,19:16:40.321022,19:16:30.433768,0,,0.114073694,-3.3587217e-05,0.03487438,-0.09289795,0.9308223,-0.3534678,0.12651652,0.3631608,0.9230969,0.98760486,0.041034266,-0.15150136,,0.015731849,-0.009063192,0.024053156,-0.5542752,0.35511428,0.7527766,0.50110424,-0.5797685,0.64246637,0.66458523,0.7333228,0.14340205,,0.10512277,1.3401142,0.4406459,0.9942854,0.013564504,-0.10588918,-0.05985406,-0.7504944,-0.6581608,-0.08839686,0.6607376,-0.74539375,,-0.082855254,0.26308808,-0.09111885,-0.0016155139,-0.9140751,0.40554184,0.7612109,0.26187146,0.59328014,-0.6485024,0.30966133,0.69538087,,0.016578177,0.41011754,-0.3500123,0.46307233,-0.39774388,-0.792063,0.88168913,0.29795966,0.3658474,0.09048926,-0.86776716,0.48866332,,1.282019993518514,0.4958303414567104,0.20410474937000003,2.5150211821533848,-0.7654376716859974,-0.3204515332182496,-0.40591000434368396,,-0.6852535333956892,-0.18458103842684,0.18488206496,-3.387121657105522,-0.6962996028046845,1.2198270197790717,0.8763409148104082,,-0.06277949319423604,-0.05761550026989781,0.08432494304,-0.06639839657179906,,7.390976e-06,3.2782555e-06,-1.0728836e-06,0.99999994,1.2494624e-05,1.1079013e-05,-1.2498349e-05,1.0,1.4901161e-06,-1.1079013e-05,-1.4603138e-06,1.0,634,1.967,1,1,1.042,False,-0.25779281547542787,1.0503840309727575
1.9657338520046324,19:16:40.364657,19:16:30.563461,0,,0.113366544,9.75132e-05,0.034187287,-0.121681616,0.9276597,-0.35304493,0.12843204,0.3674131,0.92114764,0.9842249,0.06674442,-0.1638487,,0.015791625,-0.009083442,0.024059415,-0.55411714,0.35478094,0.75305015,0.50138754,-0.57988906,0.6421365,0.6645034,0.7333888,0.14344376,,0.10512277,1.3401142,0.4406459,0.9942854,0.013564504,-0.10588918,-0.05985406,-0.7504944,-0.6581608,-0.08839686,0.6607376,-0.74539375,,-0.0820777,0.26274872,-0.090599604,0.0274172,-0.9133369,0.4062807,0.76140845,0.28242376,0.5835187,-0.64769244,0.2933471,0.7031657,,0.01651907,0.4101063,-0.3500324,0.46291012,-0.39741337,-0.7923237,0.8817448,0.29799128,0.3656875,0.09077646,-0.8679077,0.48836035,,1.2835568173604845,0.4933590669369586,0.20468030213000002,2.471405673908604,-0.7624316686911576,-0.29014955230320544,-0.40541997214528125,,-0.6855469972449098,-0.18477410674869563,0.18488725012,-3.386702277218553,-0.6962996028046845,1.2196636622987906,0.8760142266781394,,-0.06277949319423604,-0.05761550026989781,0.08432494304,-0.06639839657179906,,7.390976e-06,3.2782555e-06,-1.0728836e-06,0.99999994,1.2494624e-05,1.1079013e-05,-1.2498349e-05,1.0,1.4901161e-06,-1.1079013e-05,-1.4603138e-06,1.0,648,2.012,1,1,1.087,False,-0.25826943722359585,1.051108233984449
2.009362292010337,19:16:40.414041,19:16:30.563461,0,,0.11267911,0.00014576316,0.03364435,-0.15174901,0.9221394,-0.35585225,0.12824711,0.3753475,0.9179689,0.9800637,0.09366384,-0.17522031,,0.015820421,-0.009104706,0.024055839,-0.55402166,0.3548032,0.7531098,0.50158215,-0.57974505,0.6421145,0.66443604,0.7334919,0.14322846,,0.10512277,1.3401142,0.4406459,0.9942854,0.013564504,-0.10588918,-0.05985406,-0.7504944,-0.6581608,-0.08839686,0.6607376,-0.74539375,,-0.081337735,0.26244438,-0.090239726,0.057715908,-0.91022134,0.4100805,0.7595751,0.3065972,0.57362336,-0.64785373,0.27837977,0.709077,,0.016491784,0.41008937,-0.35004863,0.4628128,-0.3974522,-0.7923611,0.88177496,0.29814982,0.36548546,0.09097931,-0.8678355,0.48845094,,1.2849700774764676,0.49121214719792416,0.20508733719000002,2.427370785776854,-0.7603821211946761,-0.2629882255890332,-0.4062366924759526,,-0.6856628382380231,-0.18493628413905433,0.18489243528000002,-3.386492587275068,-0.6962996028046845,1.2193369473382283,0.8763409148104082,,-0.06277949319423604,-0.05761550026989781,0.08432494304,-0.06639839657179906,,7.390976e-06,3.2782555e-06,-1.0728836e-06,0.99999994,1.2494624e-05,1.1079013e-05,-1.2498349e-05,1.0,1.4901161e-06,-1.1079013e-05,-1.4603138e-06,1.0,657,2.041,1,1,1.116,False,-0.25785239319394915,1.050963393382111
2.0587196070118807,19:16:40.443025,19:16:30.563461,0,,0.11220961,0.00019721687,0.033171833,-0.17069763,0.9191372,-0.35503346,0.12853849,0.37801495,0.9168329,0.9769032,0.11086576,-0.18267077,,0.015833817,-0.009119056,0.024053335,-0.5537544,0.35476446,0.75332475,0.501694,-0.5799061,0.64188164,0.66457444,0.7333833,0.14314236,,0.10512277,1.3401142,0.4406459,0.9942854,0.013564504,-0.10588918,-0.05985406,-0.7504944,-0.6581608,-0.08839686,0.6607376,-0.74539375,,-0.08082136,0.2621818,-0.08990693,0.07688161,-0.908854,0.40996778,0.75835943,0.32024938,0.5677423,-0.6472868,0.267254,0.7138593,,0.016479367,0.4100786,-0.35005963,0.46252835,-0.39739567,-0.7925555,0.88192123,0.29797974,0.3652712,0.0910083,-0.8679198,0.48829573,,1.2859199736199973,0.4894977004998463,0.20545677984000002,2.399062643406443,-0.758195937198429,-0.24296268843064583,-0.40721675687275827,,-0.6857014519023942,-0.18504440239929348,0.18489502786,-3.3860732073880992,-0.69643623930445,1.2192033290215032,0.8761775707442738,,-0.06277949319423604,-0.05761550026989781,0.08432494304,-0.06639839657179906,,7.390976e-06,3.2782555e-06,-1.0728836e-06,0.99999994,1.2494624e-05,1.1079013e-05,-1.2498349e-05,1.0,1.4901161e-06,-1.1079013e-05,-1.4603138e-06,1.0,671,2.086,1,1,1.161,False,-0.25695872741613357,1.0509151131813312
2.0876814990187995,19:16:40.492562,19:16:30.717926,0,,0.11150943,0.00035884976,0.032357454,-0.19255081,0.9145393,-0.3557271,0.12733623,0.3827325,0.91504174,0.97299004,0.13089503,-0.19014943,,0.015834793,-0.009128921,0.024051309,-0.55373764,0.3548605,0.75329185,0.50163925,-0.57990044,0.6419296,0.6646297,0.73334134,0.14310074,,0.10512277,1.3401142,0.4406459,0.9942854,0.013564504,-0.10588918,-0.05985406,-0.7504944,-0.6581608,-0.08839686,0.6607376,-0.74539375,,-0.08003665,0.26177916,-0.08927313,0.09894721,-0.90609825,0.41133365,0.7556399,0.337377,0.56141347,-0.6474703,0.25526986,0.7180665,,0.016479049,0.41007176,-0.35006708,0.46250883,-0.3974873,-0.79252094,0.8819392,0.2979363,0.36526325,0.09093321,-0.86789274,0.4883578,,1.2875417475235844,0.48673296213087397,0.20616066531000002,2.3650928725619504,-0.7568295722007747,-0.22022667534656581,-0.4064000365420868,,-0.68569372916952,-0.18510618426228728,0.18489502786,-3.3860732073880992,-0.6965728758042155,1.2191513894449184,0.8761775707442738,,-0.06277949319423604,-0.05761550026989781,0.08432494304,-0.06639839657179906,,7.390976e-06,3.2782555e-06,-1.0728836e-06,0.99999994,1.2494624e-05,1.1079013e-05,-1.2498349e-05,1.0,1.4901161e-06,-1.1079013e-05,-1.4603138e-06,1.0,685,2.131,1,1,1.206,False,-0.25826943722359585,1.0507219923782136
2.137278451002203,19:16:40.527323,19:16:30.717926,0,,0.110979915,0.0005482137,0.03165953,-0.2069143,0.9099249,-0.35947573,0.12532961,0.38905215,0.9126506,0.9702983,0.1437875,-0.194541,,0.015836596,-0.0091404095,0.02404821,-0.55359393,0.3548413,0.75340647,0.5017601,-0.57991856,0.64181876,0.6646582,0.7333362,0.1429942,,0.10512277,1.3401142,0.4406459,0.9942854,0.013564504,-0.10588918,-0.05985406,-0.7504944,-0.6581608,-0.08839686,0.6607376,-0.74539375,,-0.07943213,0.26146907,-0.088688545,0.11341104,-0.90254104,0.4154006,0.752873,0.35088876,0.55682975,-0.6483211,0.24959323,0.7192934,,0.016478093,0.4100631,-0.3500754,0.4623576,-0.39746687,-0.7926194,0.8820091,0.2979249,0.36510375,0.09102443,-0.867906,0.48831725,,1.28883144391358,0.48458604239183956,0.20680751402000003,2.3420269787786525,-0.7568295722007747,-0.2080565430656221,-0.4055833162114154,,-0.6856782837037716,-0.1851756888581553,0.18489502786,-3.385863517444615,-0.6965728758042155,1.2190697107047779,0.8766676029426768,,-0.06277949319423604,-0.05761550026989781,0.08432494304,-0.06639839657179906,,7.390976e-06,3.2782555e-06,-1.0728836e-06,0.99999994,1.2494624e-05,1.1079013e-05,-1.2498349e-05,1.0,1.4901161e-06,-1.1079013e-05,-1.4603138e-06,1.0,694,2.16,1,1,1.235,False,-0.2585077480976805,1.0507702725789931
2.1720058729988523,19:16:40.563036,19:16:30.717926,0,,0.110640705,0.0006721765,0.031170607,-0.21472628,0.9071771,-0.36183146,0.12665787,0.39320952,0.91068333,0.9684267,0.14971884,-0.19933355,,0.015841037,-0.009147368,0.024047315,-0.553461,0.35474852,0.7535478,0.5018621,-0.58001,0.6416564,0.6646919,0.7333089,0.14297807,,0.10512277,1.3401142,0.4406459,0.9942854,0.013564504,-0.10588918,-0.05985406,-0.7504944,-0.6581608,-0.08839686,0.6607376,-0.74539375,,-0.07904056,0.26124424,-0.08828162,0.12142066,-0.9002305,0.41814113,0.7528821,0.35805172,0.5522386,-0.64685816,0.24775782,0.72124237,,0.016474089,0.41005838,-0.3500809,0.46221745,-0.39736772,-0.79275084,0.8820751,0.29786533,0.3649929,0.091096625,-0.86797184,0.48818672,,1.2897195581941159,0.4831187231457369,0.20724177117000003,2.3296552721130657,-0.7543701152049966,-0.20230258501880433,-0.40607334840981824,,-0.6856860064366458,-0.18522202525540063,0.18489502786,-3.3856538275011303,-0.6965728758042155,1.2190697107047779,0.8766676029426768,,-0.06277949319423604,-0.05761550026989781,0.08432494304,-0.06639839657179906,,7.390976e-06,3.2782555e-06,-1.0728836e-06,0.99999994,1.2494624e-05,1.1079013e-05,-1.2498349e-05,1.0,1.4901161e-06,-1.1079013e-05,-1.4603138e-06,1.0,708,2.205,1,1,1.28,False,-0.25624379479388093,1.050963393382111
2.2077356340014376,19:16:40.605212,19:16:30.717926,0,,0.11023711,0.00089874864,0.030440658,-0.22184083,0.90536255,-0.36208433,0.13026398,0.39552578,0.9091703,0.9663425,0.15452453,-0.20567992,,0.01584398,-0.009159528,0.02404511,-0.55344653,0.35483274,0.75351876,0.50181973,-0.57999855,0.6416998,0.6647359,0.7332771,0.14293617,,0.10512277,1.3401142,0.4406459,0.9942854,0.013564504,-0.10588918,-0.05985406,-0.7504944,-0.6581608,-0.08839686,0.6607376,-0.74539375,,-0.07855641,0.26093552,-0.08763561,0.1288545,-0.89881223,0.4189667,0.7544063,0.36306262,0.5468608,-0.64363635,0.24560563,0.7248518,,0.016471935,0.41005006,-0.35009027,0.46220073,-0.3974489,-0.7927199,0.8820899,0.29783478,0.36498198,0.09103788,-0.86794513,0.48824513,,1.2908316317280042,0.4812034853929292,0.20791454568,2.318332015164901,-0.7498611107127372,-0.19519778214223205,-0.4064000365420868,,-0.6856860064366458,-0.1852992525841429,0.18489502786,-3.3856538275011303,-0.6967095123039809,1.2190177711281933,0.8763409148104082,,-0.06277949319423604,-0.05761550026989781,0.08432494304,-0.06639839657179906,,7.390976e-06,3.2782555e-06,-1.0728836e-06,0.99999994,1.2494624e-05,1.1079013e-05,-1.2498349e-05,1.0,1.4901161e-06,-1.1079013e-05,-1.4603138e-06,1.0,717,2.233,1,1,1.308,False,-0.257435349164302,1.0505288715750958
2.2498875530436635,19:16:40.644787,19:16:30.868121,0,,0.109845206,0.0011253357,0.02970101,-0.22747807,0.9025304,-0.36563945,0.13202384,0.40060103,0.9066911,0.96479183,0.1579792,-0.21028349,,0.015844338,-0.009160794,0.024044871,-0.55344605,0.35483015,0.7535203,0.5018259,-0.5799944,0.6416988,0.6647316,0.73328173,0.14293264,,0.10512277,1.3401142,0.4406459,0.9942854,0.013564504,-0.10588918,-0.05985406,-0.7504944,-0.6581608,-0.08839686,0.6607376,-0.74539375,,-0.07808293,0.26061982,-0.08698126,0.13468829,-0.8961302,0.42285892,0.75487053,0.3692411,0.5420623,-0.6418953,0.2461943,0.72619474,,0.016471662,0.41004914,-0.35009122,0.46220043,-0.397447,-0.79272103,0.88208926,0.29784116,0.36497828,0.09104543,-0.8679439,0.48824602,,1.2918433097345274,0.4792187430442535,0.20860935712000003,2.3086862777646133,-0.7475382902167248,-0.1923545195769184,-0.4057466602775497,,-0.6856860064366458,-0.18530697531701712,0.18489502786,-3.3856538275011303,-0.6967095123039809,1.2190177711281933,0.8763409148104082,,-0.06277949319423604,-0.05761550026989781,0.08432494304,-0.06639839657179906,,7.390976e-06,3.2782555e-06,-1.0728836e-06,0.99999994,1.2494624e-05,1.1079013e-05,-1.2498349e-05,1.0,1.4901161e-06,-1.1079013e-05,-1.4603138e-06,1.0,731,2.278,1,1,1.353,False,-0.25683957197909146,1.0507219923782136
2.289492928015534,19:16:40.676888,19:16:30.868121,0,,0.109609924,0.0013034642,0.029141963,-0.2318413,0.9006355,-0.3675662,0.13536686,0.40405595,0.9046627,0.96328884,0.15998189,-0.21559307,,0.015844077,-0.009162225,0.024042845,-0.5535791,0.3548983,0.75339055,0.5017674,-0.57987595,0.64185154,0.66466504,0.7333424,0.14293079,,0.10512277,1.3401142,0.4406459,0.9942854,0.013564504,-0.10588918,-0.05985406,-0.7504944,-0.6581608,-0.08839686,0.6607376,-0.74539375,,-0.07778531,0.26038405,-0.08647582,0.13931768,-0.8943022,0.42522246,0.75649023,0.37321106,0.53706247,-0.63899386,0.24685434,0.72852576,,0.016472183,0.41004676,-0.35009146,0.46234182,-0.3975261,-0.7925989,0.882017,0.29794553,0.36506766,0.091027364,-0.8678718,0.48837745,,1.2923993465014716,0.47793676938713225,0.20912787312000003,2.302185889516593,-0.7437124682232924,-0.19057349647198452,-0.4037865314839383,,-0.6856860064366458,-0.18531469804989134,0.18489632415,-3.385863517444615,-0.6967095123039809,1.2190177711281933,0.8763409148104082,,-0.06277949319423604,-0.05761550026989781,0.08432494304,-0.06639839657179906,,7.390976e-06,3.2782555e-06,-1.0728836e-06,0.99999994,1.2494624e-05,1.1079013e-05,-1.2498349e-05,1.0,1.4901161e-06,-1.1079013e-05,-1.4603138e-06,1.0,754,2.352,1,1,1.427,False,-0.25767366003838577,1.0505771517758753
2.321542367048096,19:16:40.752138,19:16:30.868121,0,,0.10904586,0.0017359853,0.0274802,-0.2424418,0.8980753,-0.36699092,0.14529333,0.4076209,0.9015182,0.95922446,0.16524437,-0.22930866,,0.015846536,-0.009159185,0.024044633,-0.5530426,0.35462445,0.75391334,0.50202006,-0.580334,0.64123964,0.66492087,0.73311245,0.14292085,,0.10512277,1.3401142,0.4406459,0.9942854,0.013564504,-0.10588918,-0.05985406,-0.7504944,-0.6581608,-0.08839686,0.6607376,-0.74539375,,-0.077039294,0.25960663,-0.0850247,0.15068246,-0.892136,0.42589697,0.76148134,0.37947938,0.5254917,-0.63042915,0.24513023,0.7365258,,0.016469428,0.4100495,-0.3500897,0.46177188,-0.3972103,-0.7930894,0.8823059,0.29754698,0.36469448,0.09112095,-0.8681531,0.48785982,,1.293233401651888,0.47407540295002,0.21061731033000003,2.287088213585707,-0.7333280942411188,-0.18115361306212957,-0.40525662807914686,,-0.6856782837037716,-0.18530697531701712,0.18489632415,-3.3850247576706765,-0.6967095123039809,1.2190177711281933,0.8763409148104082,,-0.06277949319423604,-0.05761550026989781,0.08432494304,-0.06639839657179906,,7.390976e-06,3.2782555e-06,-1.0728836e-06,0.99999994,1.2494624e-05,1.1079013e-05,-1.2498349e-05,1.0,1.4901161e-06,-1.1079013e-05,-1.4603138e-06,1.0,768,2.397,1,1,1.472,False,-0.25719703829021734,1.0508668329805522
2.396848492033314,19:16:40.798818,19:16:31.007738,0,,0.10876234,0.0019324273,0.026650712,-0.24623117,0.8963134,-0.36877108,0.1487545,0.410927,0.8994505,0.9577277,0.16661635,-0.23451379,,0.015847772,-0.0091589615,0.02404511,-0.55304575,0.35467944,0.7538851,0.50202,-0.58028436,0.6412847,0.6649183,0.73312515,0.14286762,,0.10512277,1.3401142,0.4406459,0.9942854,0.013564504,-0.10588918,-0.05985406,-0.7504944,-0.6581608,-0.08839686,0.6607376,-0.74539375,,-0.07666577,0.25920427,-0.08431364,0.15474577,-0.890383,0.42810258,0.76317143,0.38291028,0.52052766,-0.6273939,0.24616623,0.73876864,,0.01646814,0.4100499,-0.35008973,0.46177524,-0.39726847,-0.7930582,0.882304,0.297577,0.3646746,0.09112217,-0.86811614,0.4879253,,1.2935963700969766,0.4720211560054763,0.21136138079000003,2.2812168951681406,-0.7300488182467484,-0.17933531204311265,-0.4050932840130126,,-0.6856860064366458,-0.18530697531701712,0.18489632415,-3.3850247576706765,-0.6967095123039809,1.2189360923880528,0.876177570744274,,-0.06277949319423604,-0.05761550026989781,0.08432494304,-0.06639839657179906,,7.390976e-06,3.2782555e-06,-1.0728836e-06,0.99999994,1.2494624e-05,1.1079013e-05,-1.2498349e-05,1.0,1.4901161e-06,-1.1079013e-05,-1.4603138e-06,1.0,777,2.426,1,1,1.501,False,-0.25719703829021734,1.051108233984449
2.4435121309943497,19:16:40.825907,19:16:31.007738,0,,0.10869268,0.0020305216,0.026387542,-0.24720562,0.89620376,-0.36838526,0.14891884,0.4108082,0.8994776,0.957451,0.16749643,-0.23501575,,0.015846536,-0.009159185,0.024044633,-0.5530426,0.35468605,0.7538843,0.50202006,-0.5802816,0.6412871,0.66492087,0.73312414,0.14286096,,0.10512277,1.3401142,0.4406459,0.9942854,0.013564504,-0.10588918,-0.05985406,-0.7504944,-0.6581608,-0.08839686,0.6607376,-0.74539375,,-0.07656593,0.25910228,-0.08406192,0.15574916,-0.89036757,0.42777067,0.7631425,0.38341844,0.5201959,-0.6271807,0.24542993,0.7391945,,0.016469428,0.4100495,-0.3500897,0.46177188,-0.39727506,-0.7930569,0.8823059,0.29757679,0.3646702,0.09112095,-0.8681132,0.48793072,,1.2936735974257187,0.47151917836865165,0.21162582395,2.2795393756202644,-0.7299121817469829,-0.1776497976637168,-0.4050932840130126,,-0.6856782837037716,-0.18530697531701712,0.18489632415,-3.3850247576706765,-0.6967095123039809,1.2189360923880528,0.876177570744274,,-0.06277949319423604,-0.05761550026989781,0.08432494304,-0.06639839657179906,,7.390976e-06,3.2782555e-06,-1.0728836e-06,0.99999994,1.2494624e-05,1.1079013e-05,-1.2498349e-05,1.0,1.4901161e-06,-1.1079013e-05,-1.4603138e-06,1.0,791,2.471,0,1,1.504,False,-0.25683957197909146,1.0507219923782136
2.4706095950095914,19:16:40.876071,19:16:31.007738,0,,0.108603895,0.0022854507,0.025917947,-0.24874234,0.89534175,-0.3694455,0.1499801,0.4124385,0.8985547,0.95688725,0.1680991,-0.23687434,,0.01584763,-0.009163059,0.024043739,-0.5530413,0.35473984,0.75386,0.5020388,-0.5802165,0.6413314,0.6649078,0.73314965,0.14279057,,0.10512277,1.3401142,0.4406459,0.9942854,0.013564504,-0.10588918,-0.05985406,-0.7504944,-0.6581608,-0.08839686,0.6607376,-0.74539375,,-0.076419696,0.2589781,-0.083555385,0.15737818,-0.88950247,0.4289725,0.763604,0.38506034,0.5183025,-0.6262117,0.24599563,0.73982775,,0.01646861,0.41004667,-0.35009256,0.46177095,-0.39733407,-0.7930279,0.8823041,0.29762566,0.36463478,0.09114363,-0.86806947,0.48800433,,1.2938666657475744,0.4709863098003302,0.21214304366000003,2.277232786241935,-0.7286824532490939,-0.1774273776948761,-0.40525662807914686,,-0.6856782837037716,-0.18533014351563978,0.18489632415,-3.3850247576706765,-0.6967095123039809,1.2188544136479122,0.8760142266781397,,-0.06277949319423604,-0.05761550026989781,0.08432494304,-0.06639839657179906,,7.390976e-06,3.2782555e-06,-1.0728836e-06,0.99999994,1.2494624e-05,1.1079013e-05,-1.2498349e-05,1.0,1.4901161e-06,-1.1079013e-05,-1.4603138e-06,1.0,800,2.5,0,1,1.504,False,-0.25779281547542787,1.0507702725789931
2.5207643730100244,19:16:40.910490,19:16:31.007738,0,,0.10860055,0.0024831295,0.025737345,-0.2497707,0.8947015,-0.370302,0.14962211,0.41349077,0.89813066,0.95667535,0.16892137,-0.23714498,,0.01584959,-0.009165369,0.02404356,-0.55304354,0.35472807,0.7538638,0.5020511,-0.5802108,0.6413269,0.66489667,0.7331599,0.14279018,,0.10512277,1.3401142,0.4406459,0.9942854,0.013564504,-0.10588918,-0.05985406,-0.7504944,-0.6581608,-0.08839686,0.6607376,-0.74539375,,-0.07638987,0.25900283,-0.0832904,0.15840662,-0.8889043,0.4298332,0.7632346,0.38641462,0.5178385,-0.6264027,0.24603455,0.7396531,,0.016466776,0.41004518,-0.35009447,0.46177372,-0.39732364,-0.7930315,0.8823009,0.29763862,0.3646318,0.09115996,-0.8680698,0.4880007,,1.2939979522064362,0.47119482358793424,0.21240748682000002,2.275764956637543,-0.7285458167493284,-0.1775387955985726,-0.40525662807914686,,-0.6856860064366458,-0.18534558898138823,0.18489632415,-3.3850247576706765,-0.6967095123039809,1.2188544136479122,0.8760142266781397,,-0.06277949319423604,-0.05761550026989781,0.08432494304,-0.06639839657179906,,7.390976e-06,3.2782555e-06,-1.0728836e-06,0.99999994,1.2494624e-05,1.1079013e-05,-1.2498349e-05,1.0,1.4901161e-06,-1.1079013e-05,-1.4603138e-06,1.0,823,2.573,1,2,1.523,False,-0.2575545046013441,1.0510116735828905
2.5551731820451096,19:16:40.979431,19:16:31.203168,0,,0.108618826,0.0026282668,0.02559793,-0.2506172,0.8941066,-0.37116572,0.1502246,0.41467547,0.8974836,0.95635945,0.16916658,-0.23824164,,0.01584924,-0.009167574,0.024041355,-0.5529028,0.3547269,0.75396764,0.50212836,-0.5802586,0.6412232,0.6649553,0.7331226,0.14270824,,0.10512277,1.3401142,0.4406459,0.9942854,0.013564504,-0.10588918,-0.05985406,-0.7504944,-0.6581608,-0.08839686,0.6607376,-0.74539375,,-0.07638789,0.25901565,-0.08308874,0.15930526,-0.88828766,0.43077478,0.7634985,0.38747692,0.5166543,-0.6258529,0.24659017,0.7399334,,0.016467445,0.4100422,-0.35009524,0.46162456,-0.3973166,-0.7931219,0.882375,0.2975827,0.36449814,0.091198176,-0.8680922,0.48795372,,1.2940133976721846,0.47139561464266405,0.21260193032000002,2.2749261968636048,-0.7275893612509704,-0.1783187209244475,-0.40525662807914686,,-0.6856705609708973,-0.18536103444713667,0.18489762044000002,-3.3848150677271924,-0.6967095123039809,1.2187727349077715,0.8761775707442739,,-0.06277949319423604,-0.05761550026989781,0.08432494304,-0.06639839657179906,,7.390976e-06,3.2782555e-06,-1.0728836e-06,0.99999994,1.2494624e-05,1.1079013e-05,-1.2498349e-05,1.0,1.4901161e-06,-1.1079013e-05,-1.4603138e-06,1.0,837,2.618,1,2,1.568,False,-0.2570778828531757,1.0512047943860081
2.624132745026145,19:16:41.027121,19:16:31.203168,0,,0.108540624,0.0025921762,0.025542244,-0.25545985,0.8913268,-0.37453482,0.14655903,0.4186129,0.896261,0.9556467,0.17406724,-0.23757082,,0.015852086,-0.009168349,0.02404195,-0.5529087,0.35471117,0.7539707,0.50213444,-0.5802598,0.64121735,0.66494584,0.73312926,0.14271803,,0.10512277,1.3401142,0.4406459,0.9942854,0.013564504,-0.10588918,-0.05985406,-0.7504944,-0.6581608,-0.08839686,0.6607376,-0.74539375,,-0.07630608,0.2589544,-0.08308022,0.16403604,-0.885851,0.43400472,0.7604875,0.3937852,0.5163255,-0.6282921,0.24535918,0.7382736,,0.016464593,0.41004202,-0.3500962,0.46163103,-0.39730152,-0.7931256,0.8823706,0.2975895,0.36450326,0.091208175,-0.86809677,0.48794374,,1.2939670612749392,0.4710558143961982,0.21263693015000001,2.2671676689546776,-0.7301854547465138,-0.17636513823449657,-0.40525662807914686,,-0.6856860064366458,-0.18536875718001092,0.18489762044000002,-3.3848150677271924,-0.6967095123039809,1.2187727349077715,0.8761775707442739,,-0.06277949319423604,-0.05761550026989781,0.08432494304,-0.06639839657179906,,7.390976e-06,3.2782555e-06,-1.0728836e-06,0.99999994,1.2494624e-05,1.1079013e-05,-1.2498349e-05,1.0,1.4901161e-06,-1.1079013e-05,-1.4603138e-06,1.0,846,2.647,1,2,1.597,False,-0.2564821056679656,1.0510116735828905
2.671832667023409,19:16:41.050885,19:16:31.203168,0,,0.10850775,0.0025454313,0.025473222,-0.2562682,0.8906916,-0.37549266,0.14732641,0.41991848,0.89552414,0.9553122,0.17417441,-0.23883408,,0.015854478,-0.009168662,0.024042606,-0.5526412,0.3545669,0.7542346,0.5022698,-0.5804838,0.6409085,0.6650659,0.73302174,0.14271104,,0.10512277,1.3401142,0.4406459,0.9942854,0.013564504,-0.10588918,-0.05985406,-0.7504944,-0.6581608,-0.08839686,0.6607376,-0.74539375,,-0.07626844,0.25887462,-0.08306442,0.16490556,-0.8851752,0.43505278,0.76085925,0.3948455,0.5149663,-0.627614,0.24609312,0.738606,,0.016462162,0.41004217,-0.35009676,0.4613472,-0.39713728,-0.79337305,0.882513,0.29739994,0.36431322,0.09126673,-0.86823684,0.48768345,,1.2938975566790714,0.4706774004853612,0.21265637450000002,2.266119219237255,-0.7295022722476866,-0.17684054901283813,-0.4050932840130126,,-0.6856860064366458,-0.18537647991288514,0.18489762044000002,-3.3843956878402226,-0.6967095123039809,1.2187727349077715,0.8761775707442739,,-0.06277949319423604,-0.05761550026989781,0.08432494304,-0.06639839657179906,,7.390976e-06,3.2782555e-06,-1.0728836e-06,0.99999994,1.2494624e-05,1.1079013e-05,-1.2498349e-05,1.0,1.4901161e-06,-1.1079013e-05,-1.4603138e-06,1.0,860,2.692,0,2,1.603,False,-0.25683957197909146,1.050335750771978
2.6955911469995044,19:16:41.087333,19:16:31.203168,0,,0.1085987,0.002486676,0.02537717,-0.2498585,0.8939275,-0.3721075,0.15392992,0.41607988,0.8962048,0.95596874,0.16664591,-0.24156326,,0.01594337,-0.009141192,0.02404511,-0.5526043,0.35449034,0.7542976,0.5022606,-0.58059347,0.6408163,0.6651035,0.7329719,0.14279191,,0.105113655,1.3401166,0.44064516,0.99428403,0.013547043,-0.10590449,-0.05987719,-0.7504947,-0.6581583,-0.08839686,0.6607376,-0.74539375,,-0.07633932,0.2587668,-0.08302351,0.15875039,-0.8877863,0.43201125,0.7659423,0.38684183,0.5135035,-0.6230014,0.24937679,0.74140435,,0.01638315,0.41004992,-0.35007456,0.46132395,-0.39705944,-0.7934255,0.8825288,0.2973152,0.36434403,0.09123123,-0.86830145,0.48757502,,1.293889833946197,0.4701985910471593,0.21267063369000003,2.2763940264679965,-0.724993267755427,-0.18051733983482005,-0.4050932840130126,,-0.6856782837037716,-0.18536875718001092,0.18489762044000002,-3.3841859978967386,-0.6967095123039809,1.2187727349077715,0.8761775707442739,,-0.06277949319423604,-0.05761550026989781,0.08432494304,-0.06639839657179906,,-1.7471611e-06,8.940697e-07,-1.0728836e-06,0.99999994,-4.8466027e-06,-4.298985e-06,4.839152e-06,1.0,-5.9604645e-07,4.2915344e-06,5.662441e-07,1.0,869,2.721,0,2,1.603,False,-0.2566608388235285,1.0505288715750958
2.732007748039905,19:16:41.128451,19:16:31.354290,0,,0.10851808,0.002367884,0.025192618,-0.24645865,0.8950756,-0.37161472,0.15992177,0.41574645,0.8953099,0.95586765,0.16122757,-0.24560648,,0.015939146,-0.009144753,0.024042606,-0.55259085,0.35451156,0.75429755,0.5022733,-0.5805741,0.64082384,0.6651051,0.7329769,0.14275831,,0.105113655,1.3401166,0.44064516,0.99428403,0.013547043,-0.10590449,-0.05987719,-0.7504947,-0.6581583,-0.08839686,0.6607376,-0.74539375,,-0.076245636,0.25855783,-0.08297637,0.15563394,-0.88839686,0.4318901,0.7701781,0.38290876,0.5101045,-0.61854976,0.25324273,0.7438174,,0.01638776,0.4100465,-0.3500764,0.46130976,-0.3970819,-0.7934225,0.88253516,0.29732704,0.36431903,0.09124147,-0.86828715,0.4875986,,1.2939361703434424,0.46909424024614516,0.21271211497000003,2.281845964998594,-0.720620899762933,-0.18408271275310556,-0.4050932840130126,,-0.6856473927722746,-0.18538420264575936,0.18489762044000002,-3.3841859978967386,-0.6967095123039809,1.2187727349077715,0.8761775707442739,,-0.06277949319423604,-0.05761550026989781,0.08432494304,-0.06639839657179906,,-1.7471611e-06,8.940697e-07,-1.0728836e-06,0.99999994,-4.8466027e-06,-4.298985e-06,4.839152e-06,1.0,-5.9604645e-07,4.2915344e-06,5.662441e-07,1.0,883,2.766,0,2,1.603,False,-0.25630337251240265,1.0507702725789931
2.773135174997151,19:16:41.167609,19:16:31.354290,0,,0.10837032,0.0022146404,0.02492264,-0.24113095,0.89654106,-0.37157726,0.16956976,0.4159066,0.8934583,0.9555636,0.15243214,-0.25231427,,0.015931569,-0.00914517,0.024040163,-0.55270904,0.35461792,0.75416094,0.50220287,-0.58045065,0.64099085,0.66506016,0.7330233,0.1427302,,0.105113655,1.3401166,0.44064516,0.99428403,0.013547043,-0.10590449,-0.05987719,-0.7504947,-0.6581583,-0.08839686,0.6607376,-0.74539375,,-0.07607808,0.2582684,-0.08289665,0.15077588,-0.8889625,0.43244916,0.7769088,0.37705728,0.5042227,-0.6112932,0.25994894,0.7474939,,0.016395558,0.41004494,-0.3500756,0.46143493,-0.39719787,-0.7932916,0.88247377,0.29741752,0.36439386,0.091202356,-0.8682031,0.48775554,,1.294229634192663,0.46748791180830646,0.21278081834,2.290233562737975,-0.7132425287755991,-0.19042599451327452,-0.40476659588074404,,-0.6856087791079035,-0.18537647991288514,0.18489762044000002,-3.3843956878402226,-0.6967095123039809,1.2187727349077715,0.8761775707442739,,-0.06277949319423604,-0.05761550026989781,0.08432494304,-0.06639839657179906,,-1.7471611e-06,8.940697e-07,-1.0728836e-06,0.99999994,-4.8466027e-06,-4.298985e-06,4.839152e-06,1.0,-5.9604645e-07,4.2915344e-06,5.662441e-07,1.0,892,2.794,0,2,1.603,False,-0.2570778828531757,1.0507702725789931
2.812321752018761,19:16:41.193850,19:16:31.354290,0,,0.108155996,0.0021003932,0.024751484,-0.23823014,0.8967013,-0.37305892,0.17247581,0.41707402,0.89235723,0.9557711,0.14824274,-0.2540189,,0.01593075,-0.009143412,0.02404046,-0.55243605,0.35449198,0.75442004,0.50232583,-0.5806777,0.64068884,0.665194,0.73290443,0.14271683,,0.105113655,1.3401166,0.44064516,0.99428403,0.013547043,-0.10590449,-0.05987719,-0.7504947,-0.6581583,-0.08839686,0.6607376,-0.74539375,,-0.075852655,0.2580767,-0.08286999,0.14799419,-0.88865125,0.4340469,0.77908975,0.37509623,0.5023166,-0.6091936,0.26382154,0.74785113,,0.01639625,0.4100462,-0.35007423,0.46114486,-0.3970506,-0.793534,0.8826211,0.29721478,0.3642023,0.09124329,-0.8683399,0.48750433,,1.294816561891104,0.4660900971580718,0.21283137365000002,2.293378911890243,-0.7116028907784139,-0.1936416203808644,-0.4049299399468782,,-0.685593333642155,-0.18536875718001092,0.18489762044000002,-3.383976307953254,-0.6967095123039809,1.2187727349077715,0.8761775707442739,,-0.06277949319423604,-0.05761550026989781,0.08432494304,-0.06639839657179906,,-1.7471611e-06,8.940697e-07,-1.0728836e-06,0.99999994,-4.8466027e-06,-4.298985e-06,4.839152e-06,1.0,-5.9604645e-07,4.2915344e-06,5.662441e-07,1.0,915,2.868,0,2,1.603,False,-0.25535012901606535,1.0505288715750958
2.8385586200165562,19:16:41.269095,19:16:31.354290,0,,0.107463285,0.0019146204,0.02446258,-0.23150668,0.89661545,-0.377472,0.17833152,0.42055118,0.8895699,0.9563484,0.13862619,-0.25725526,,0.015930235,-0.009146184,0.024039388,-0.55243206,0.35449338,0.75442237,0.50233835,-0.5806664,0.6406892,0.6651879,0.73291266,0.14270315,,0.105113655,1.3401166,0.44064516,0.99428403,0.013547043,-0.10590449,-0.05987719,-0.7504947,-0.6581583,-0.08839686,0.6607376,-0.74539375,,-0.07514287,0.25777045,-0.08285423,0.14149998,-0.88745224,0.43864137,0.7835595,0.37120074,0.4982414,-0.60498947,0.27320045,0.74789655,,0.016396994,0.41004393,-0.3500761,0.46114087,-0.39705333,-0.793535,0.88262177,0.2972273,0.36419052,0.09125719,-0.8683344,0.48751158,,1.297434568335466,0.4629237766796398,0.21291692879000002,2.2992502303078095,-0.7077770687849816,-0.2008452586913923,-0.4049299399468782,,-0.6855856109092808,-0.18538420264575936,0.18489762044000002,-3.383976307953254,-0.6967095123039809,1.2187727349077715,0.8761775707442739,,-0.06277949319423604,-0.05761550026989781,0.08432494304,-0.06639839657179906,,-1.7471611e-06,8.940697e-07,-1.0728836e-06,0.99999994,-4.8466027e-06,-4.298985e-06,4.839152e-06,1.0,-5.9604645e-07,4.2915344e-06,5.662441e-07,1.0,924,2.897,0,2,1.603,False,-0.2566012611050077,1.0507219923782136
2.913807766046375,19:16:41.299201,19:16:31.354290,0,,0.107166894,0.0018998235,0.024434969,-0.22473633,0.89898014,-0.3759361,0.1812664,0.41764095,0.8903475,0.95741105,0.13194878,-0.2568141,,0.0159325,-0.0091454685,0.024040341,-0.55230165,0.35441592,0.7545542,0.5024028,-0.5807832,0.6405328,0.66524744,0.7328576,0.142708,,0.105113655,1.3401166,0.44064516,0.99428403,0.013547043,-0.10590449,-0.05987719,-0.7504947,-0.6581583,-0.08839686,0.6607376,-0.74539375,,-0.07484609,0.2577518,-0.08287439,0.13478708,-0.8892544,0.4371031,0.7861952,0.36447176,0.49905652,-0.60309994,0.27638197,0.74825364,,0.016394624,0.41004485,-0.35007593,0.46100244,-0.39696553,-0.7936593,0.8826913,0.29712957,0.36410165,0.09128384,-0.86840796,0.4873755,,1.2989713921774368,0.4619198214059906,0.21292081766,2.3067990682732527,-0.7061374307877962,-0.20316241841743632,-0.40460325181460965,,-0.685593333642155,-0.18538420264575936,0.18489762044000002,-3.3837666180097696,-0.6967095123039809,1.2187727349077715,0.8761775707442739,,-0.06277949319423604,-0.05761550026989781,0.08432494304,-0.06639839657179906,,-1.7471611e-06,8.940697e-07,-1.0728836e-06,0.99999994,-4.8466027e-06,-4.298985e-06,4.839152e-06,1.0,-5.9604645e-07,4.2915344e-06,5.662441e-07,1.0,938,2.942,0,2,1.603,False,-0.25642252794944387,1.0505771517758753
2.9439181960187852,19:16:41.344365,19:16:31.354290,0,,0.10670081,0.0018728375,0.024399132,-0.22376369,0.8978348,-0.37923896,0.18156376,0.42069358,0.8888484,0.9575825,0.1300359,-0.2571503,,0.015933514,-0.009145007,0.024040818,-0.55216813,0.354345,0.7546853,0.5024673,-0.5808972,0.6403788,0.6653097,0.73280144,0.14270622,,0.105113655,1.3401166,0.44064516,0.99428403,0.013547043,-0.10590449,-0.05987719,-0.7504947,-0.6581583,-0.08839686,0.6607376,-0.74539375,,-0.07438032,0.25772482,-0.08291414,0.13381556,-0.8877946,0.44035676,0.7864946,0.36548316,0.4978436,-0.60292584,0.27971902,0.74715304,,0.016393544,0.4100454,-0.35007575,0.4608606,-0.3968843,-0.7937823,0.8827628,0.29703164,0.36400837,0.09130925,-0.8684786,0.48724484,,1.301041084587729,0.46059151135162396,0.21293118798000002,2.305331238668861,-0.7055908847887344,-0.20475159239418972,-0.40411321961620683,,-0.685593333642155,-0.18538420264575936,0.18489762044000002,-3.383556928066285,-0.6967095123039809,1.2187727349077715,0.8761775707442739,,-0.06277949319423604,-0.05761550026989781,0.08432494304,-0.06639839657179906,,-1.7471611e-06,8.940697e-07,-1.0728836e-06,0.99999994,-4.8466027e-06,-4.298985e-06,4.839152e-06,1.0,-5.9604645e-07,4.2915344e-06,5.662441e-07,1.0,947,2.971,0,2,1.603,False,-0.25737577144578117,1.0502874705711984
2.9890387240448035,19:16:41.379006,19:16:31.354290,0,,0.106553145,0.0018209517,0.024312258,-0.21812959,0.89886266,-0.3800856,0.18789336,0.42085803,0.887454,0.9576614,0.1221644,-0.260692,,0.01593642,-0.009144023,0.024042606,-0.5515035,0.35420167,0.7552383,0.502894,-0.58116925,0.63979673,0.66553843,0.73265505,0.14239101,,0.105113655,1.3401166,0.44064516,0.99428403,0.013547043,-0.10590449,-0.05987719,-0.7504947,-0.6581583,-0.08839686,0.6607376,-0.74539375,,-0.07422699,0.25763345,-0.08290048,0.12847434,-0.888018,0.44149557,0.7910192,0.36027235,0.49446177,-0.5981496,0.2857058,0.74872506,,0.016390434,0.4100471,-0.35007578,0.4601579,-0.396715,-0.79427445,0.8831025,0.29678446,0.3633854,0.091567874,-0.8686404,0.48690772,,1.3017824669436544,0.459765178934082,0.21293896572,2.313089766577788,-0.7006719707971786,-0.21096796291105613,-0.4050932840130125,,-0.6855778881764066,-0.18538420264575936,0.18489632415,-3.3825084783488624,-0.6965728758042155,1.2184162807836534,0.8761775707442738,,-0.06277949319423604,-0.05761550026989781,0.08432494304,-0.06639839657179906,,-1.7471611e-06,8.940697e-07,-1.0728836e-06,0.99999994,-4.8466027e-06,-4.298985e-06,4.839152e-06,1.0,-5.9604645e-07,4.2915344e-06,5.662441e-07,1.0,961,3.016,0,2,1.603,False,-0.2564821056679656,1.0502874705711984
