AlexandreBanks6/ExpertPlaybackApp/resources/Motions/P_04/PC1/Data_PC1_6.csv
Task Time,PC1 Time,PC2 Time,Gaze Calib,s_T_psm1,Tx,Ty,Tz,R00,R01,R02,R10,R11,R12,R20,R21,R22,s_T_psm3,Tx,Ty,Tz,R00,R01,R02,R10,R11,R12,R20,R21,R22,cart_T_ecm,Tx,Ty,Tz,R00,R01,R02,R10,R11,R12,R20,R21,R22,ecm_T_psm1,Tx,Ty,Tz,R00,R01,R02,R10,R11,R12,R20,R21,R22,ecm_T_psm3,Tx,Ty,Tz,R00,R01,R02,R10,R11,R12,R20,R21,R22,psm1_joints,q1,q2,q3,q4,q5,q6,jaw,psm3_joints,q1,q2,q3,q4,q5,q6,jaw,ecm_joints,q1,q2,q3,q4,ecmi_T_ecm,Tx,Ty,Tz,R00,R01,R02,R10,R11,R12,R20,R21,R22,Sample #,Task Duration (s),Collisions (binary),Collisions (increments),Cumulative Collision Time (s),Clutch Press,MTMR Angle,MTML Angle
""
lci_T_si,,,,,-0.06091442,0.024665864,0.22852185,0.99137235,-0.028050909,0.12803915,0.064119875,-0.7481916,-0.6603772,0.11432199,0.66288954,-0.7399378
rci_T_si,,,,,-0.070449755,0.028832521,0.23726377,0.99015677,-0.04510285,0.13249657,0.05696979,-0.73481125,-0.6758749,0.12784386,0.6767704,-0.72500885
ecm_T_lc,,,,,-4.4061628e-05,-0.00034663224,-0.01840835,-0.99912,0.030754527,0.028518902,-0.031987965,-0.99852574,-0.043852776,0.027128186,-0.04472645,0.9986309
ecm_T_rc,,,,,-0.0043358393,0.01870579,-0.007592615,-0.99555075,-0.052743673,-0.078081585,0.04863213,-0.9973746,0.053654674,-0.08070653,0.04961868,0.9955021
cart_T_ecmi,,,,,0.10511527,1.3401165,0.4406436,0.9942844,0.013551921,-0.10590021,-0.05987073,-0.75049466,-0.658159,-0.08839686,0.6607376,-0.74539375
ecmac_T_ecmrep_psm1,,,,,0.006928962,-0.26080152,-0.2999526,0.99741316,0.06053514,0.03876121,-0.0592658,0.9976933,-0.033100393,-0.040675536,0.030717555,0.99870014
ecmac_T_ecmrep_psm3,,,,,-0.019041438,-0.46633056,-0.5465172,0.99408877,-0.01321918,0.10776258,-0.016145537,0.96352404,0.2671344,-0.107363135,-0.2672952,0.95761496
""
0,19:14:33.527375,19:14:23.717156,0,,0.12651944,0.0014265776,0.022148803,0.97124845,-0.1576334,-0.17840348,0.20485696,0.17161402,0.9636297,-0.12128372,-0.9724711,0.19897205,,0.04173565,-0.059449643,0.051558435,-0.7375659,0.3476216,0.5789263,0.38098842,-0.4936182,0.7817858,0.5575342,0.7971827,0.23163623,,0.10517279,1.3401134,0.44064823,0.9942816,0.013516738,-0.105931066,-0.059917342,-0.75049525,-0.6581541,-0.08839686,0.6607376,-0.74539375,,-0.09392651,0.25515237,-0.079520926,-0.94460416,0.26172018,0.19805433,0.034258142,-0.5215167,0.85255307,0.32641897,0.8121101,0.48366082,,-0.009673985,0.40548703,-0.40713432,0.66132075,-0.40052012,-0.63422275,0.74907285,0.396932,0.5304101,0.0393034,-0.82585025,0.5625181,,1.2117971834931904,0.5286596789050388,0.21358062927000002,4.127956227436346,0.32765432643752623,-1.1028353234421107,-0.41375051951812925,,-0.8903770412679664,-0.5103413565273782,0.16445771972,-3.8096468932268386,-1.0582496906833363,1.3975190183487636,0.8753608504136025,,-0.06277949319423604,-0.05761550026989781,0.08432494304,-0.06639839657179906,,5.696714e-05,6.1392784e-06,-7.5101852e-06,0.99999994,-3.4943223e-05,-3.0972064e-05,3.4943223e-05,1.0,-4.1127205e-06,3.0972064e-05,4.1127205e-06,1.0,35,0.105,0,0,0.0,False,-0.2598780356236645,1.0507219923782136
0.1297062020166777,19:14:33.558610,19:14:23.717156,0,,0.12650344,0.0013957918,0.022139043,0.97123355,-0.1577004,-0.17842562,0.20487416,0.1714668,0.96365225,-0.1213743,-0.97248626,0.19884303,,0.041735448,-0.05945553,0.051559687,-0.73756003,0.3476563,0.57891285,0.3810215,-0.4935352,0.7818221,0.55751926,0.7972189,0.23154739,,0.10517279,1.3401134,0.44064823,0.9942816,0.013516738,-0.105931066,-0.059917342,-0.75049525,-0.6581541,-0.08839686,0.6607376,-0.74539375,,-0.09391092,0.25512365,-0.07953609,-0.9445795,0.26178208,0.19809026,0.03421048,-0.52163315,0.85248375,0.3264954,0.8120154,0.48376825,,-0.009673641,0.4054852,-0.40714005,0.6613149,-0.400562,-0.63420236,0.74907607,0.3970012,0.5303537,0.03933958,-0.82579666,0.56259423,,1.2117894607603164,0.5284975015146801,0.21356766637000002,4.127956227436346,0.32765432643752623,-1.1028353234421107,-0.41375051951812925,,-0.8903770412679664,-0.5103799701917494,0.16445642343000003,-3.8096468932268386,-1.0582496906833363,1.397437339608623,0.8755241944797367,,-0.06277949319423604,-0.05761550026989781,0.08432494304,-0.06639839657179906,,5.696714e-05,6.1392784e-06,-7.5101852e-06,0.99999994,-3.4943223e-05,-3.0972064e-05,3.4943223e-05,1.0,-4.1127205e-06,3.0972064e-05,4.1127205e-06,1.0,43,0.129,0,0,0.0,False,-0.26017592421626956,1.0499495091657423
0.1609105989919044,19:14:33.581413,19:14:23.806677,0,,0.12648273,0.001363039,0.022127137,0.9712143,-0.15780604,-0.17843701,0.20489666,0.17138454,0.9636621,-0.12149042,-0.97248363,0.198785,,0.041734915,-0.059460342,0.05155933,-0.7375527,0.3477003,0.5788958,0.38104728,-0.49345312,0.7818613,0.5575113,0.7972505,0.2314575,,0.10517279,1.3401134,0.44064823,0.9942816,0.013516738,-0.105931066,-0.059917342,-0.75049525,-0.6581541,-0.08839686,0.6607376,-0.74539375,,-0.09389053,0.25509217,-0.0795515,-0.9445477,0.26188338,0.19810784,0.034149688,-0.52168834,0.8524524,0.32659367,0.8119473,0.48381627,,-0.009672855,0.40548253,-0.40714404,0.66130716,-0.4006126,-0.6341785,0.74908155,0.39706492,0.5302983,0.03936586,-0.82574147,0.5626734,,1.2117971834931904,0.5283121559256987,0.21355470347000002,4.127956227436346,0.32765432643752623,-1.1029170021822514,-0.41358717545199497,,-0.8903693185350922,-0.5104108611232463,0.16445642343000003,-3.8096468932268386,-1.0582496906833363,1.3973556608684825,0.875687538545871,,-0.06277949319423604,-0.05761550026989781,0.08432494304,-0.06639839657179906,,5.696714e-05,6.1392784e-06,-7.5101852e-06,0.99999994,-3.4943223e-05,-3.0972064e-05,3.4943223e-05,1.0,-4.1127205e-06,3.0972064e-05,4.1127205e-06,1.0,55,0.165,0,0,0.0,False,-0.2594014138754961,1.0502391903704191
0.18371640099212527,19:14:33.620824,19:14:23.806677,0,,0.12646881,0.0013272613,0.022139087,0.9711744,-0.15798682,-0.17849419,0.20498793,0.1713677,0.9636457,-0.1216552,-0.9724573,0.19881335,,0.041736253,-0.059462473,0.051561594,-0.73755586,0.3476817,0.57890296,0.3810619,-0.49345118,0.7818554,0.55749714,0.7972599,0.23145962,,0.10517279,1.3401134,0.44064823,0.9942816,0.013516738,-0.105931066,-0.059917342,-0.75049525,-0.6581541,-0.08839686,0.6607376,-0.74539375,,-0.09387941,0.2550743,-0.079585746,-0.94448763,0.2620597,0.19816113,0.034107774,-0.52167636,0.8524614,0.32677174,0.81189805,0.4837786,,-0.009674307,0.40548325,-0.407147,0.66131103,-0.4005951,-0.6341855,0.7490771,0.39707592,0.5302964,0.03938566,-0.8257447,0.5626673,,1.2117894607603164,0.5282040376654595,0.21352229622000002,4.127956227436346,0.32779096293729165,-1.1030284200859477,-0.41358717545199497,,-0.8903847640008407,-0.5104263065889948,0.16445512714000002,-3.8096468932268386,-1.0582496906833363,1.3973556608684827,0.8760142266781397,,-0.06277949319423604,-0.05761550026989781,0.08432494304,-0.06639839657179906,,5.696714e-05,6.1392784e-06,-7.5101852e-06,0.99999994,-3.4943223e-05,-3.0972064e-05,3.4943223e-05,1.0,-4.1127205e-06,3.0972064e-05,4.1127205e-06,1.0,66,0.199,0,0,0.0,False,-0.26017592421626956,1.0499012289649627
0.22317043697694317,19:14:33.648270,19:14:23.806677,0,,0.1264674,0.0012811571,0.022178203,0.9711894,-0.15772647,-0.1786427,0.20505963,0.17118451,0.963663,-0.12141431,-0.9725318,0.19859591,,0.04173736,-0.059464708,0.05156219,-0.7375563,0.3476699,0.57890946,0.38107586,-0.4934463,0.78185165,0.5574871,0.79726803,0.23145592,,0.10517279,1.3401134,0.44064823,0.9942816,0.013516738,-0.105931066,-0.059917342,-0.75049525,-0.6581541,-0.08839686,0.6607376,-0.74539375,,-0.09388389,0.25506657,-0.079645574,-0.94452375,0.26180065,0.19833136,0.034322243,-0.52187145,0.85233337,0.3266449,0.81185627,0.48393437,,-0.00967536,0.4054825,-0.40714923,0.6613118,-0.40058437,-0.63419145,0.7490755,0.3970866,0.5302906,0.0394028,-0.82574475,0.562666,,1.211743124363071,0.5281654240010885,0.21346266688,4.127746537492862,0.32765432643752623,-1.1029170021822514,-0.41358717545199497,,-0.8903924867337148,-0.5104417520547432,0.16445512714000002,-3.8096468932268386,-1.0582496906833363,1.3973556608684827,0.8760142266781397,,-0.06277949319423604,-0.05761550026989781,0.08432494304,-0.06639839657179906,,5.696714e-05,6.1392784e-06,-7.5101852e-06,0.99999994,-3.4943223e-05,-3.0972064e-05,3.4943223e-05,1.0,-4.1127205e-06,3.0972064e-05,4.1127205e-06,1.0,78,0.236,0,0,0.0,False,-0.26041423509035333,1.0499977893665218
0.25059245398733765,19:14:33.687540,19:14:23.806677,0,,0.12645476,0.0012054592,0.022258699,0.9713538,-0.15751135,-0.17793712,0.20428303,0.17092073,0.96387476,-0.1214081,-0.9726131,0.19820142,,0.04179537,-0.05942685,0.05154538,-0.7376255,0.34784544,0.57871586,0.38095614,-0.49324667,0.78203595,0.55747736,0.79731494,0.23131761,,0.105171055,1.3401158,0.44063938,0.99427986,0.0134952925,-0.10594987,-0.059945755,-0.7504957,-0.65815103,-0.08839686,0.6607376,-0.74539375,,-0.093877584,0.25507465,-0.0797609,-0.9447138,0.26158804,0.19770588,0.03376739,-0.5221324,0.85219574,0.32615286,0.811757,0.4844325,,-0.009731093,0.40548775,-0.4071136,0.6614038,-0.40077984,-0.63397205,0.74900025,0.397215,0.53030074,0.039289378,-0.8255881,0.5629037,,1.2117354016301967,0.5281190876038431,0.21335766739000003,4.128375607323315,0.3271077804384644,-1.1024713305674656,-0.41391386358426363,,-0.8903924867337148,-0.5104649202533659,0.16445383085,-3.809856583170323,-1.0582496906833363,1.3973556608684827,0.8760142266781397,,-0.06277949319423604,-0.05761550026989781,0.08432494304,-0.06639839657179906,,5.5871904e-05,-1.4901161e-06,-2.2649765e-06,0.99999994,-5.6244433e-05,-4.9851835e-05,5.6240708e-05,1.0,-6.645918e-06,4.9851835e-05,6.7055225e-06,1.0,89,0.269,0,0,0.0,False,-0.2599376133421849,1.0499495091657423
0.28988077997928485,19:14:33.721269,19:14:23.806677,0,,0.12644304,0.0011634976,0.02231446,0.97140837,-0.15725768,-0.17786384,0.20412987,0.17068675,0.9639487,-0.12122935,-0.97269523,0.1979076,,0.04178983,-0.059439696,0.051549494,-0.7377419,0.34801492,0.5784655,0.38087407,-0.4929099,0.7822882,0.55737936,0.79744923,0.2310906,,0.105171055,1.3401158,0.44063938,0.99427986,0.0134952925,-0.10594987,-0.059945755,-0.7504957,-0.65815103,-0.08839686,0.6607376,-0.74539375,,-0.09387332,0.25508156,-0.07983119,-0.9447924,0.26133424,0.19766572,0.033772446,-0.52236986,0.85205,0.32592446,0.811686,0.48470515,,-0.009725396,0.40548542,-0.40712684,0.6615328,-0.40097693,-0.6337127,0.7488874,0.39748168,0.53026026,0.03926707,-0.82536405,0.56323373,,1.2117740152945677,0.5281113648709689,0.21328637144,4.128375607323315,0.32683450743893355,-1.102166816019932,-0.41375051951812925,,-0.8903847640008407,-0.5105344248492338,0.16444734940000003,-3.810275963057292,-1.0582496906833363,1.3973556608684825,0.875687538545871,,-0.06277949319423604,-0.05761550026989781,0.08432494304,-0.06639839657179906,,5.5871904e-05,-1.4901161e-06,-2.2649765e-06,0.99999994,-5.6244433e-05,-4.9851835e-05,5.6240708e-05,1.0,-6.645918e-06,4.9851835e-05,6.7055225e-06,1.0,101,0.306,0,0,0.0,False,-0.2602355019347904,1.050432311173537
0.32359170500421897,19:14:33.757903,19:14:23.953826,0,,0.12642014,0.0010994375,0.022406057,0.97136986,-0.15743876,-0.17791381,0.20422107,0.17072722,0.96392226,-0.12138398,-0.9726588,0.19799158,,0.041783717,-0.059467323,0.051558793,-0.7377441,0.3480441,0.5784451,0.38087037,-0.49287143,0.78231424,0.557379,0.7974603,0.23105347,,0.105171055,1.3401158,0.44063938,0.99427986,0.0134952925,-0.10594987,-0.059945755,-0.7504957,-0.65815103,-0.08839686,0.6607376,-0.74539375,,-0.09386247,0.25509667,-0.079943776,-0.94473475,0.26151228,0.19770582,0.033737242,-0.5223088,0.8520888,0.32609516,0.8116679,0.4846206,,-0.009718954,0.40548015,-0.40715545,0.66153526,-0.40100878,-0.63369,0.74888545,0.3975074,0.53024375,0.039264064,-0.82533616,0.5632748,,1.2118435198904358,0.5281190876038431,0.21317359421,4.128375607323315,0.326971143938699,-1.1021965551834882,-0.4135871754519951,,-0.8903770412679664,-0.5107120477053411,0.16443697908000002,-3.8104856530007765,-1.0583863271831018,1.3975487575123193,0.8755241944797367,,-0.06277949319423604,-0.05761550026989781,0.08432494304,-0.06639839657179906,,5.5871904e-05,-1.4901161e-06,-2.2649765e-06,0.99999994,-5.6244433e-05,-4.9851835e-05,5.6240708e-05,1.0,-6.645918e-06,4.9851835e-05,6.7055225e-06,1.0,109,0.33,0,0,0.0,False,-0.2607121236829584,1.0502874705711984
0.3602249489631504,19:14:33.779325,19:14:23.953826,0,,0.12640308,0.0010535568,0.022459373,0.9712096,-0.15785013,-0.17842351,0.2048588,0.17111748,0.96371764,-0.12159163,-0.9725235,0.19852793,,0.041780744,-0.05948379,0.051564395,-0.7377252,0.34801567,0.5784863,0.38096234,-0.4928149,0.7823051,0.55734116,0.79750764,0.23098117,,0.105171055,1.3401158,0.44063938,0.99427986,0.0134952925,-0.10594987,-0.059945755,-0.7504957,-0.65815103,-0.08839686,0.6607376,-0.74539375,,-0.09385282,0.25509927,-0.08001545,-0.94452757,0.26192412,0.19814989,0.034074765,-0.52191436,0.85231704,0.32665968,0.81178886,0.48403752,,-0.009715783,0.40547693,-0.4071725,0.6615159,-0.40098777,-0.63372356,0.74889743,0.39757952,0.5301728,0.0393627,-0.82531166,0.5633039,,1.2118666880890585,0.5281036421380947,0.21310100197,4.127956227436346,0.32751768993776076,-1.102805584278555,-0.41391386358426363,,-0.8903693185350922,-0.5108201659655802,0.16443049763,-3.8104856530007765,-1.0583863271831018,1.3975487575123193,0.8755241944797367,,-0.06277949319423604,-0.05761550026989781,0.08432494304,-0.06639839657179906,,5.5871904e-05,-1.4901161e-06,-2.2649765e-06,0.99999994,-5.6244433e-05,-4.9851835e-05,5.6240708e-05,1.0,-6.645918e-06,4.9851835e-05,6.7055225e-06,1.0,121,0.366,0,0,0.0,False,-0.26005676877922745,1.0496598279610654
0.38167086499743164,19:14:33.813384,19:14:23.953826,0,,0.1263425,0.0009447336,0.0225946,0.97047263,-0.16076413,-0.17982647,0.20710798,0.17319763,0.962865,-0.12364862,-0.9716776,0.20137912,,0.04177978,-0.05951061,0.0515725,-0.73770136,0.34795108,0.5785556,0.38111532,-0.49272949,0.7822844,0.55726814,0.7975886,0.23087782,,0.105171055,1.3401158,0.44063938,0.99427986,0.0134952925,-0.10594987,-0.059945755,-0.7504957,-0.65815103,-0.08839686,0.6607376,-0.74539375,,-0.093810804,0.255112,-0.08019398,-0.94349307,0.26482362,0.19922177,0.034380402,-0.51970136,0.853656,0.3296041,0.8122678,0.48122984,,-0.009714374,0.40547046,-0.40719974,0.6614922,-0.40093538,-0.6337814,0.7489094,0.39769888,0.5300664,0.039531786,-0.8252796,0.563339,,1.2119593608835493,0.528080473939472,0.21293378056,4.127327157605893,0.3305236929326004,-1.105665171860579,-0.4147305839149349,,-0.8903770412679664,-0.5109977888216873,0.16442271989,-3.8104856530007765,-1.0583863271831018,1.3975487575123193,0.8755241944797367,,-0.06277949319423604,-0.05761550026989781,0.08432494304,-0.06639839657179906,,5.5871904e-05,-1.4901161e-06,-2.2649765e-06,0.99999994,-5.6244433e-05,-4.9851835e-05,5.6240708e-05,1.0,-6.645918e-06,4.9851835e-05,6.7055225e-06,1.0,132,0.4,0,0,0.0,False,-0.26017592421626956,1.05014262996886
0.41573369898833334,19:14:33.851475,19:14:23.953826,0,,0.12627472,0.00085513294,0.022716835,0.9700768,-0.16203105,-0.18082196,0.2084193,0.17368713,0.9624938,-0.12454742,-0.97137976,0.20226029,,0.041779377,-0.05952234,0.051575065,-0.7376898,0.34792596,0.5785855,0.3811815,-0.49269113,0.7822763,0.5572382,0.7976233,0.23083034,,0.105171055,1.3401158,0.44063938,0.99427986,0.0134952925,-0.10594987,-0.059945755,-0.7504957,-0.65815103,-0.08839686,0.6607376,-0.74539375,,-0.09375949,0.2551305,-0.08035079,-0.9429538,0.26607373,0.20010704,0.03475947,-0.5190929,0.85401076,0.33110395,0.81224835,0.48023206,,-0.009713687,0.40546682,-0.40721118,0.6614806,-0.40091556,-0.63380605,0.74891585,0.39775062,0.5300184,0.039604146,-0.8252643,0.56335634,,1.2121833201369017,0.5280264148093524,0.21278081834,4.12669808777544,0.33189005793025483,-1.1065343146771216,-0.4142405517165322,,-0.8903770412679664,-0.5110750161504296,0.16442012731000002,-3.8104856530007765,-1.0583863271831018,1.3975487575123193,0.8755241944797367,,-0.06277949319423604,-0.05761550026989781,0.08432494304,-0.06639839657179906,,5.5871904e-05,-1.4901161e-06,-2.2649765e-06,0.99999994,-5.6244433e-05,-4.9851835e-05,5.6240708e-05,1.0,-6.645918e-06,4.9851835e-05,6.7055225e-06,1.0,140,0.424,0,0,0.0,False,-0.26041423509035333,1.0495632675595068
0.4538138679927215,19:14:33.867542,19:14:23.953826,0,,0.12620959,0.00077462196,0.02282682,0.9696439,-0.16224033,-0.1829439,0.21057877,0.17377207,0.9620083,-0.12428601,-0.97132957,0.20266137,,0.041778788,-0.059523456,0.051576257,-0.7376886,0.34801796,0.5785316,0.38118812,-0.4925595,0.78235596,0.5572352,0.7976644,0.2306953,,0.105171055,1.3401158,0.44063938,0.99427986,0.0134952925,-0.10594987,-0.059945755,-0.7504957,-0.65815103,-0.08839686,0.6607376,-0.74539375,,-0.09370922,0.25514734,-0.08049226,-0.94245845,0.26628032,0.20215546,0.03654713,-0.5189887,0.8539994,0.33231965,0.81224716,0.47939357,,-0.009713165,0.4054673,-0.40721273,0.6614794,-0.4010171,-0.63374305,0.7489165,0.39784238,0.5299486,0.03961138,-0.8251707,0.5634929,,1.212430447588877,0.527980078412107,0.21264211531000002,4.124601188340594,0.33284651342861293,-1.107232561262856,-0.4140772076503978,,-0.8903770412679664,-0.5110827388833038,0.16441883102000002,-3.8104856530007765,-1.0583863271831018,1.3973854000320383,0.8758508826120053,,-0.06277949319423604,-0.05761550026989781,0.08432494304,-0.06639839657179906,,5.5871904e-05,-1.4901161e-06,-2.2649765e-06,0.99999994,-5.6244433e-05,-4.9851835e-05,5.6240708e-05,1.0,-6.645918e-06,4.9851835e-05,6.7055225e-06,1.0,148,0.449,0,0,0.0,False,-0.260652545964438,1.0495632675595068
0.46984211198287085,19:14:33.893602,19:14:24.123444,0,,0.12610267,0.00069352984,0.022973359,0.96920973,-0.1628491,-0.18469551,0.21246895,0.1739766,0.9615556,-0.12445575,-0.97119117,0.20322022,,0.04177898,-0.05952584,0.051576376,-0.7376863,0.34810743,0.5784808,0.38120133,-0.492424,0.78243476,0.55722916,0.7977091,0.23055556,,0.105171055,1.3401158,0.44063938,0.99427986,0.0134952925,-0.10594987,-0.059945755,-0.7504957,-0.65815103,-0.08839686,0.6607376,-0.74539375,,-0.0936211,0.2551899,-0.08066518,-0.9419299,0.26688018,0.20382129,0.037845816,-0.5187221,0.8541048,0.33367026,0.81222063,0.47849956,,-0.009713254,0.40546617,-0.40721482,0.6614771,-0.40111667,-0.6336825,0.74891776,0.3979393,0.529874,0.039625853,-0.8250756,0.5636311,,1.213364898266658,0.5277870100902514,0.21242304230000003,4.122713978849233,0.33366633242720556,-1.107737711204753,-0.4140772076503979,,-0.8903770412679664,-0.5110981843490523,0.16441883102000002,-3.8104856530007765,-1.0583863271831018,1.3972220425517572,0.8755241944797367,,-0.06277949319423604,-0.05761550026989781,0.08432494304,-0.06639839657179906,,5.5871904e-05,-1.4901161e-06,-2.2649765e-06,0.99999994,-5.6244433e-05,-4.9851835e-05,5.6240708e-05,1.0,-6.645918e-06,4.9851835e-05,6.7055225e-06,1.0,156,0.473,0,0,0.0,False,-0.26101001227556386,1.0505288715750958
0.4957026100018993,19:14:33.923138,19:14:24.123444,0,,0.1258566,0.0006313026,0.023038357,0.96877825,-0.1624254,-0.18731362,0.2148993,0.17335647,0.9611274,-0.12363945,-0.97137296,0.20284915,,0.041778073,-0.05952566,0.05157733,-0.737755,0.34819576,0.57834005,0.3811249,-0.49228096,0.782562,0.55719054,0.7977588,0.23047668,,0.105171055,1.3401158,0.44063938,0.99427986,0.0134952925,-0.10594987,-0.059945755,-0.7504957,-0.65815103,-0.08839686,0.6607376,-0.74539375,,-0.093385644,0.25519663,-0.08077994,-0.9414803,0.26645106,0.20644298,0.040206883,-0.5193182,0.8536346,0.33466142,0.81198055,0.47821468,,-0.009712455,0.40546718,-0.40721518,0.66155267,-0.40121594,-0.63354075,0.7488535,0.3980446,0.52988577,0.03957885,-0.82497656,0.5637794,,1.2141062806225835,0.5273777052479175,0.21235952409000003,4.11977831964045,0.33352969592744014,-1.1078713295214788,-0.41456723984880084,,-0.8903847640008407,-0.5110904616161781,0.16441753473,-3.8106953429442614,-1.0583863271831018,1.3972220425517572,0.8755241944797367,,-0.06277949319423604,-0.05761550026989781,0.08432494304,-0.06639839657179906,,5.5871904e-05,-1.4901161e-06,-2.2649765e-06,0.99999994,-5.6244433e-05,-4.9851835e-05,5.6240708e-05,1.0,-6.645918e-06,4.9851835e-05,6.7055225e-06,1.0,164,0.497,0,0,0.0,False,-0.26053339052739544,1.0499012289649627
0.5254815130028874,19:14:33.947646,19:14:24.123444,0,,0.12564754,0.00060124695,0.023141816,0.9687568,-0.16109331,-0.18857056,0.21588133,0.1734437,0.96089154,-0.12208685,-0.9715792,0.20280182,,0.041776348,-0.059526734,0.051577806,-0.7378197,0.34828836,0.5782017,0.38105446,-0.49213117,0.78269064,0.5571531,0.7978108,0.2303873,,0.105171055,1.3401158,0.44063938,0.99427986,0.0134952925,-0.10594987,-0.059945755,-0.7504957,-0.65815103,-0.08839686,0.6607376,-0.74539375,,-0.093189515,0.25525165,-0.08089748,-0.94157356,0.26515135,0.2076872,0.041977778,-0.51944125,0.85347444,0.33418122,0.8123272,0.4779617,,-0.009710736,0.40546724,-0.40721637,0.6616239,-0.40131995,-0.63340044,0.7487928,0.3981547,0.5298888,0.0395364,-0.8248728,0.5639342,,1.2152801360194658,0.5270765186658228,0.21223767283000003,4.11747173026212,0.33189005793025483,-1.1079228532595113,-0.41440389578266645,,-0.8903847640008407,-0.5110904616161781,0.16441623844000003,-3.810905032887746,-1.0583863271831018,1.3972220425517572,0.8755241944797367,,-0.06277949319423604,-0.05761550026989781,0.08432494304,-0.06639839657179906,,5.5871904e-05,-1.4901161e-06,-2.2649765e-06,0.99999994,-5.6244433e-05,-4.9851835e-05,5.6240708e-05,1.0,-6.645918e-06,4.9851835e-05,6.7055225e-06,1.0,175,0.531,0,0,0.0,False,-0.26136747858668974,1.05014262996886
0.5499821010162123,19:14:33.975585,19:14:24.123444,0,,0.12545459,0.00059618056,0.023242801,0.9682168,-0.16038373,-0.19191948,0.21926156,0.17510271,0.9598247,-0.12033467,-0.971399,0.20470339,,0.04177658,-0.05952663,0.051579416,-0.7378224,0.34828156,0.57820225,0.38105512,-0.49213398,0.7826884,0.55714893,0.79781204,0.23039308,,0.105171055,1.3401158,0.44063938,0.99427986,0.0134952925,-0.10594987,-0.059945755,-0.7504957,-0.65815103,-0.08839686,0.6607376,-0.74539375,,-0.093008086,0.2553229,-0.08099475,-0.94106996,0.26449805,0.21077983,0.045674335,-0.51811993,0.8540876,0.33511373,0.8133834,0.4755063,,-0.009711134,0.40546867,-0.4072171,0.661627,-0.4013132,-0.63340145,0.7487899,0.39815503,0.5298926,0.039539065,-0.82487595,0.5639294,,1.2163922095533541,0.526945232206961,0.21213915479000003,4.113068241448945,0.3317534214304894,-1.1102617975600317,-0.4144038957826667,,-0.8903924867337148,-0.5110904616161781,0.16441494215000002,-3.810905032887746,-1.0583863271831018,1.3972220425517572,0.8755241944797367,,-0.06277949319423604,-0.05761550026989781,0.08432494304,-0.06639839657179906,,5.5871904e-05,-1.4901161e-06,-2.2649765e-06,0.99999994,-5.6244433e-05,-4.9851835e-05,5.6240708e-05,1.0,-6.645918e-06,4.9851835e-05,6.7055225e-06,1.0,183,0.555,0,0,0.0,False,-0.2608312791200009,1.0497563883626244
0.5779335189727135,19:14:34.001130,19:14:24.123444,0,,0.1253733,0.0005867034,0.023296043,0.9682321,-0.16024724,-0.19195603,0.21934141,0.17568576,0.95969987,-0.12006533,-0.9713162,0.20525351,,0.041775763,-0.05952788,0.051579,-0.73781854,0.34828582,0.57820463,0.38106105,-0.49212727,0.7826898,0.55715007,0.79781425,0.23038256,,0.105171055,1.3401158,0.44063938,0.99427986,0.0134952925,-0.10594987,-0.059945755,-0.7504957,-0.65815103,-0.08839686,0.6607376,-0.74539375,,-0.092933044,0.25535467,-0.08104852,-0.9411089,0.2643787,0.2107556,0.04591396,-0.5176383,0.8543667,0.33497155,0.81372875,0.47501534,,-0.009710214,0.40546772,-0.40721795,0.66162276,-0.40131798,-0.6334029,0.7487934,0.3981599,0.52988404,0.039543636,-0.82487124,0.56393594,,1.2168632962586818,0.5268680048782187,0.21208341432000002,4.1126488615619765,0.3312068754314276,-1.110714592086792,-0.41489392798106917,,-0.8903847640008407,-0.5110981843490523,0.16441494215000002,-3.810905032887746,-1.0583863271831018,1.3972220425517572,0.8755241944797367,,-0.06277949319423604,-0.05761550026989781,0.08432494304,-0.06639839657179906,,5.5871904e-05,-1.4901161e-06,-2.2649765e-06,0.99999994,-5.6244433e-05,-4.9851835e-05,5.6240708e-05,1.0,-6.645918e-06,4.9851835e-05,6.7055225e-06,1.0,191,0.58,0,0,0.0,False,-0.260652545964438,1.049804668563404
0.6034642710001208,19:14:34.030097,19:14:24.123444,0,,0.12528563,0.00057016313,0.02338922,0.96821016,-0.156917,-0.1947968,0.2213526,0.1747894,0.9594017,-0.11649804,-0.9720214,0.20396692,,0.041776095,-0.059528925,0.051580608,-0.7378201,0.34832376,0.5781797,0.38106838,-0.4920624,0.782727,0.557143,0.79783773,0.23031849,,0.105171055,1.3401158,0.44063938,0.99427986,0.0134952925,-0.10594987,-0.059945755,-0.7504957,-0.65815103,-0.08839686,0.6607376,-0.74539375,,-0.09285596,0.25540835,-0.08113694,-0.9413607,0.26110134,0.21369617,0.049800668,-0.518897,0.8533849,0.33370623,0.8139853,0.47546622,,-0.0097106565,0.40546858,-0.40721968,0.66162467,-0.40136096,-0.6333736,0.7487912,0.39820865,0.52985054,0.039553538,-0.8248268,0.56400025,,1.2174965603543682,0.5268757276110929,0.21198748886000002,4.108455062692285,0.32915732793494606,-1.1100234684130323,-0.41456723984880084,,-0.8903924867337148,-0.5111059070819265,0.16441364586,-3.810905032887746,-1.0583863271831018,1.3971403638116167,0.8753608504136026,,-0.06277949319423604,-0.05761550026989781,0.08432494304,-0.06639839657179906,,5.5871904e-05,-1.4901161e-06,-2.2649765e-06,0.99999994,-5.6244433e-05,-4.9851835e-05,5.6240708e-05,1.0,-6.645918e-06,4.9851835e-05,6.7055225e-06,1.0,199,0.605,0,0,0.0,False,-0.2604738128088746,1.0492253061540504
0.6324422509642318,19:14:34.060931,19:14:24.269319,0,,0.12522094,0.00052960217,0.02346693,0.9680494,-0.15719134,-0.19537386,0.22211252,0.17588222,0.9590264,-0.11638786,-0.97177994,0.20517686,,0.041777138,-0.059527762,0.051581264,-0.7377554,0.34823117,0.57831806,0.3811389,-0.49221218,0.7825985,0.55718046,0.79778576,0.23040783,,0.105171055,1.3401158,0.44063938,0.99427986,0.0134952925,-0.10594987,-0.059945755,-0.7504957,-0.65815103,-0.08839686,0.6607376,-0.74539375,,-0.092801176,0.255433,-0.08122783,-0.9411799,0.26139596,0.21413226,0.05044228,-0.51791686,0.85394245,0.33411983,0.81451476,0.4742675,,-0.009711809,0.40546957,-0.407219,0.66155344,-0.40125695,-0.6335139,0.74885195,0.39809853,0.52984744,0.039595988,-0.82493055,0.56384546,,1.2178209151350856,0.5268293912138476,0.21189674856000001,4.1076163029183475,0.3292939644347115,-1.1112783886786968,-0.4142405517165323,,-0.8903924867337148,-0.5111059070819265,0.16441364586,-3.8106953429442614,-1.0583863271831018,1.3971403638116167,0.8753608504136026,,-0.06277949319423604,-0.05761550026989781,0.08432494304,-0.06639839657179906,,5.5871904e-05,-1.4901161e-06,-2.2649765e-06,0.99999994,-5.6244433e-05,-4.9851835e-05,5.6240708e-05,1.0,-6.645918e-06,4.9851835e-05,6.7055225e-06,1.0,207,0.628,0,0,0.0,False,-0.26005676877922745,1.049514987358727
0.66327983798692,19:14:34.082203,19:14:24.269319,0,,0.12521142,0.00050342083,0.023484185,0.9681087,-0.15355858,-0.1979521,0.22373863,0.17442226,0.958915,-0.11272241,-0.9726236,0.20321667,,0.041776594,-0.05952675,0.051582396,-0.73768795,0.34814537,0.57845587,0.38120866,-0.49235913,0.7824721,0.55722207,0.7977325,0.23049137,,0.105171055,1.3401158,0.44063938,0.99427986,0.0134952925,-0.10594987,-0.059945755,-0.7504957,-0.65815103,-0.08839686,0.6607376,-0.74539375,,-0.09279457,0.2554256,-0.081259064,-0.9415386,0.25780797,0.21688749,0.05410744,-0.51969624,0.85263604,0.332532,0.81452495,0.47536474,,-0.009711433,0.40547118,-0.4072187,0.66147906,-0.40115967,-0.6336532,0.74891555,0.39798805,0.5298405,0.039635755,-0.82503116,0.5636955,,1.2179444788610732,0.5267676093508538,0.21186045244,4.103841883935626,0.32724441693822987,-1.1101788713042344,-0.4147305839149349,,-0.8903847640008407,-0.5111059070819265,0.16441234957,-3.8104856530007765,-1.0583863271831018,1.3971403638116167,0.8753608504136026,,-0.06277949319423604,-0.05761550026989781,0.08432494304,-0.06639839657179906,,5.5871904e-05,-1.4901161e-06,-2.2649765e-06,0.99999994,-5.6244433e-05,-4.9851835e-05,5.6240708e-05,1.0,-6.645918e-06,4.9851835e-05,6.7055225e-06,1.0,222,0.674,0,0,0.0,False,-0.2596993024681016,1.050046069567301
0.6845278220134787,19:14:34.124683,19:14:24.269319,0,,0.12518586,0.00034980476,0.023658589,0.9681295,-0.15326041,-0.19808123,0.22397356,0.1758843,0.9585931,-0.11207497,-0.9724072,0.20460507,,0.041774534,-0.059526794,0.051581264,-0.737751,0.34824726,0.578314,0.38113087,-0.49221033,0.78260356,0.5571917,0.7977799,0.23040095,,0.105171055,1.3401158,0.44063938,0.99427986,0.0134952925,-0.10594987,-0.059945755,-0.7504957,-0.65815103,-0.08839686,0.6607376,-0.74539375,,-0.09279319,0.2554303,-0.081492804,-0.94161445,0.25755164,0.21686263,0.054715797,-0.51848114,0.8533367,0.33221743,0.81538,0.47411716,,-0.009709272,0.40547037,-0.4072182,0.6615484,-0.40127245,-0.6335094,0.7488571,0.39809272,0.5298446,0.039583422,-0.82492584,0.5638533,,1.2179522015939475,0.5267135502207342,0.21162582395,4.103212814105173,0.32683450743893355,-1.1118049073565186,-0.41375051951812936,,-0.8903770412679664,-0.5110981843490523,0.16441234957,-3.8106953429442614,-1.0583863271831018,1.3971403638116167,0.8753608504136026,,-0.06277949319423604,-0.05761550026989781,0.08432494304,-0.06639839657179906,,5.5871904e-05,-1.4901161e-06,-2.2649765e-06,0.99999994,-5.6244433e-05,-4.9851835e-05,5.6240708e-05,1.0,-6.645918e-06,4.9851835e-05,6.7055225e-06,1.0,230,0.699,0,0,0.0,False,-0.2590439475643693,1.0492253061540504
0.7269756229943596,19:14:34.146385,19:14:24.269319,0,,0.12484439,0.00024926662,0.023688704,0.96758896,-0.15502751,-0.1993434,0.2255942,0.17590186,0.9582097,-0.113483995,-0.972124,0.205174,,0.04177532,-0.059527718,0.05158168,-0.7378213,0.3483735,0.5781483,0.38106176,-0.4920023,0.782768,0.5571459,0.7978531,0.23025808,,0.105171055,1.3401158,0.44063938,0.99427986,0.0134952925,-0.10594987,-0.059945755,-0.7504957,-0.65815103,-0.08839686,0.6607376,-0.74539375,,-0.092461035,0.25538877,-0.08161758,-0.9408669,0.25928044,0.21804386,0.054985575,-0.5182129,0.85348225,0.3342844,0.8150025,0.47331268,,-0.009710046,0.4054702,-0.40721917,0.66162586,-0.4014147,-0.63333833,0.74879056,0.39824677,0.5298228,0.039546303,-0.82478225,0.5640659,,1.21941952084005,0.5257018722142108,0.21151304672000001,4.101954674444265,0.3273810534379953,-1.1124956151917258,-0.4132604873197264,,-0.8903924867337148,-0.5110981843490523,0.16441234957,-3.810905032887746,-1.0583863271831018,1.3970586850714761,0.8751975063474682,,-0.06277949319423604,-0.05761550026989781,0.08432494304,-0.06639839657179906,,5.5871904e-05,-1.4901161e-06,-2.2649765e-06,0.99999994,-5.6244433e-05,-4.9851835e-05,5.6240708e-05,1.0,-6.645918e-06,4.9851835e-05,6.7055225e-06,1.0,238,0.723,0,0,0.0,False,-0.2599971910607066,1.0490321853509326
0.7486817470053211,19:14:34.174486,19:14:24.269319,0,,0.124703616,0.00019396842,0.023630902,0.96751136,-0.15580219,-0.19911599,0.22552674,0.17586589,0.95823216,-0.114276975,-0.97200656,0.20528978,,0.04177532,-0.059527718,0.05158168,-0.7378213,0.3483735,0.5781483,0.38106176,-0.4920023,0.782768,0.5571459,0.7978531,0.23025808,,0.105171055,1.3401158,0.44063938,0.99427986,0.0134952925,-0.10594987,-0.059945755,-0.7504957,-0.65815103,-0.08839686,0.6607376,-0.74539375,,-0.09231762,0.25531417,-0.08162683,-0.94071287,0.2600372,0.21780711,0.054405157,-0.5181322,0.85356843,0.33481243,0.81481266,0.47326627,,-0.009710046,0.4054702,-0.40721917,0.66162586,-0.4014147,-0.63333833,0.74879056,0.39824677,0.5298228,0.039546303,-0.82478225,0.5640659,,1.2199060530111263,0.525022271721279,0.21151175043000003,4.1021643643877495,0.32724441693822987,-1.1127925909887324,-0.4134238313858609,,-0.8903924867337148,-0.5110981843490523,0.16441234957,-3.810905032887746,-1.0583863271831018,1.3970586850714761,0.8751975063474682,,-0.06277949319423604,-0.05761550026989781,0.08432494304,-0.06639839657179906,,5.5871904e-05,-1.4901161e-06,-2.2649765e-06,0.99999994,-5.6244433e-05,-4.9851835e-05,5.6240708e-05,1.0,-6.645918e-06,4.9851835e-05,6.7055225e-06,1.0,246,0.748,0,0,0.0,False,-0.2598184579051428,1.0494667071579475
0.776826542976778,19:14:34.195736,19:14:24.269319,0,,0.1244552,0.00015875697,0.023727387,0.96710205,-0.15661857,-0.2004596,0.22711042,0.17656085,0.95773023,-0.11460501,-0.9717493,0.20632207,,0.04177214,-0.05952785,0.051582813,-0.7378158,0.34838703,0.5781472,0.38106033,-0.4919966,0.7827723,0.5571542,0.7978507,0.23024645,,0.105171055,1.3401158,0.44063938,0.99427986,0.0134952925,-0.10594987,-0.059945755,-0.7504957,-0.65815103,-0.08839686,0.6607376,-0.74539375,,-0.09208188,0.25536212,-0.08174677,-0.94020605,0.26085222,0.2190177,0.05536994,-0.5174157,0.85394096,0.33607557,0.81500745,0.47203398,,-0.009706987,0.40547144,-0.40721992,0.66161966,-0.4014282,-0.63333625,0.74879634,0.3982461,0.52981514,0.03954097,-0.824776,0.5640754,,1.2211803039353732,0.5246206896118194,0.21139508433,4.100486844839874,0.3273810534379953,-1.1137207962938342,-0.41375051951812936,,-0.8903770412679664,-0.5110981843490523,0.16440975699000002,-3.810905032887746,-1.0583863271831018,1.3970586850714761,0.8751975063474682,,-0.06277949319423604,-0.05761550026989781,0.08432494304,-0.06639839657179906,,5.5871904e-05,-1.4901161e-06,-2.2649765e-06,0.99999994,-5.6244433e-05,-4.9851835e-05,5.6240708e-05,1.0,-6.645918e-06,4.9851835e-05,6.7055225e-06,1.0,254,0.771,0,0,0.0,False,-0.260652545964438,1.049804668563404
0.7980651949765161,19:14:34.218027,19:14:24.269319,0,,0.12422542,0.00010937452,0.023777261,0.9670858,-0.155947,-0.20106053,0.22758897,0.17677113,0.9575778,-0.11378971,-0.9718191,0.20644471,,0.04177199,-0.05952861,0.051582456,-0.7377814,0.34841946,0.57817155,0.38098228,-0.49213123,0.78272563,0.5572531,0.7977535,0.2303437,,0.105171055,1.3401158,0.44063938,0.99427986,0.0134952925,-0.10594987,-0.059945755,-0.7504957,-0.65815103,-0.08839686,0.6607376,-0.74539375,,-0.09186058,0.2553676,-0.08184014,-0.94025165,0.2602006,0.21959627,0.056272626,-0.5173318,0.8539328,0.33579794,0.815269,0.47177985,,-0.009706775,0.4054708,-0.4072204,0.66157943,-0.4014447,-0.63336784,0.74883807,0.39809147,0.52987236,0.039423883,-0.82484263,0.5639862,,1.2223309911336326,0.5240414846462526,0.21130304774000003,4.0990190152354815,0.32587805194057545,-1.1139654166757038,-0.4140772076503979,,-0.8903770412679664,-0.5111059070819265,0.16441105328000002,-3.810905032887746,-1.0585229636828672,1.3971701029751726,0.8751975063474682,,-0.06277949319423604,-0.05761550026989781,0.08432494304,-0.06639839657179906,,5.5871904e-05,-1.4901161e-06,-2.2649765e-06,0.99999994,-5.6244433e-05,-4.9851835e-05,5.6240708e-05,1.0,-6.645918e-06,4.9851835e-05,6.7055225e-06,1.0,265,0.805,0,0,0.0,False,-0.2604738128088746,1.0494667071579475
0.8203477899660356,19:14:34.254350,19:14:24.269319,0,,0.12409355,5.273521e-05,0.023821384,0.9667147,-0.15555888,-0.20313542,0.22967155,0.177717,0.95690525,-0.11275451,-0.9717088,0.2075291,,0.041774146,-0.05952943,0.051585197,-0.73778856,0.34844378,0.57814777,0.38099098,-0.492072,0.7827586,0.5572378,0.79777944,0.23029125,,0.105171055,1.3401158,0.44063938,0.99427986,0.0134952925,-0.10594987,-0.059945755,-0.7504957,-0.65815103,-0.08839686,0.6607376,-0.74539375,,-0.091736324,0.25536022,-0.08192412,-0.9398987,0.25984368,0.22152132,0.058521677,-0.5165727,0.8542411,0.33640102,0.8158639,0.47031954,,-0.009709145,0.40547246,-0.40722245,0.6615876,-0.40147415,-0.63334066,0.7488301,0.3981409,0.52984655,0.039439116,-0.8248044,0.56404096,,1.2229333642978222,0.5237016843997867,0.21122267776000003,4.096293045970183,0.32574141544081003,-1.1155692523149592,-0.41391386358426363,,-0.890400209466589,-0.5111136298148007,0.16440975699000002,-3.810905032887746,-1.0585229636828672,1.397088424235032,0.8750341622813338,,-0.06277949319423604,-0.05761550026989781,0.08432494304,-0.06639839657179906,,5.5871904e-05,-1.4901161e-06,-2.2649765e-06,0.99999994,-5.6244433e-05,-4.9851835e-05,5.6240708e-05,1.0,-6.645918e-06,4.9851835e-05,6.7055225e-06,1.0,273,0.83,0,0,0.0,False,-0.26005676877922745,1.0491770259532711
0.8566951779648662,19:14:34.278083,19:14:24.488823,0,,0.124013394,3.4034252e-05,0.023970857,0.9665801,-0.15631495,-0.20319527,0.23005027,0.17908528,0.9565591,-0.11313522,-0.9713362,0.20906058,,0.041773796,-0.05953043,0.05158794,-0.7377901,0.34843448,0.57815135,0.3809983,-0.49207106,0.7827557,0.55723065,0.7977841,0.23029232,,0.105171055,1.3401158,0.44063938,0.99427986,0.0134952925,-0.10594987,-0.059945755,-0.7504957,-0.65815103,-0.08839686,0.6607376,-0.74539375,,-0.09167247,0.2554499,-0.08205452,-0.9397107,0.26061565,0.22141218,0.05855043,-0.51528317,0.8550176,0.33692092,0.81643295,0.46895793,,-0.009709021,0.40547436,-0.4072247,0.6615895,-0.40146542,-0.6333442,0.7488278,0.3981464,0.5298456,0.039449017,-0.82480603,0.5640379,,1.223473955599018,0.523887029988768,0.21108915989000002,4.096083356026699,0.3260146884403409,-1.1166905542638983,-0.41375051951812936,,-0.8904079321994633,-0.511121352547675,0.16440716441000003,-3.810905032887746,-1.0585229636828672,1.397088424235032,0.8750341622813338,,-0.06277949319423604,-0.05761550026989781,0.08432494304,-0.06639839657179906,,5.5871904e-05,-1.4901161e-06,-2.2649765e-06,0.99999994,-5.6244433e-05,-4.9851835e-05,5.6240708e-05,1.0,-6.645918e-06,4.9851835e-05,6.7055225e-06,1.0,281,0.854,0,0,0.0,False,-0.2613079008681689,1.0493218665556094
0.8804257140145637,19:14:34.307386,19:14:24.488823,0,,0.123954326,3.799796e-06,0.024087623,0.96577144,-0.15487471,-0.20808418,0.23475374,0.18060449,0.9551296,-0.1103445,-0.9712856,0.21078008,,0.041775394,-0.059530355,0.051587343,-0.73779285,0.34842768,0.578152,0.380999,-0.4920739,0.7827535,0.55722654,0.7977853,0.23029807,,0.105171055,1.3401158,0.44063938,0.99427986,0.0134952925,-0.10594987,-0.059945755,-0.7504957,-0.65815103,-0.08839686,0.6607376,-0.74539375,,-0.09162676,0.25550824,-0.08216651,-0.93898857,0.25924313,0.2260386,0.06393334,-0.51417905,0.8552967,0.3379541,0.8175652,0.46623397,,-0.009710551,0.4054737,-0.40722433,0.6615926,-0.40145865,-0.63334525,0.74882495,0.39814672,0.5298494,0.039451685,-0.82480913,0.56403315,,1.2238832604413519,0.5240646528448752,0.21097638266000002,4.090212037609132,0.32656123443940266,-1.1193415518624792,-0.4152206161133378,,-0.8904156549323375,-0.511121352547675,0.1644084607,-3.810905032887746,-1.0585229636828672,1.397088424235032,0.8750341622813338,,-0.06277949319423604,-0.05761550026989781,0.08432494304,-0.06639839657179906,,5.5871904e-05,-1.4901161e-06,-2.2649765e-06,0.99999994,-5.6244433e-05,-4.9851835e-05,5.6240708e-05,1.0,-6.645918e-06,4.9851835e-05,6.7055225e-06,1.0,293,0.891,0,0,0.0,False,-0.2607717014014801,1.0497563883626244
0.9097330959630199,19:14:34.344862,19:14:24.488823,0,,0.1239239,-3.6805868e-05,0.024172813,0.96611893,-0.15366319,-0.20736822,0.23384161,0.18109891,0.9552598,-0.109234124,-0.97138596,0.2108959,,0.04176937,-0.059529625,0.051586926,-0.7377802,0.34846416,0.57814604,0.3809889,-0.49206346,0.78276503,0.55725014,0.79777575,0.23027378,,0.105171055,1.3401158,0.44063938,0.99427986,0.0134952925,-0.10594987,-0.059945755,-0.7504957,-0.65815103,-0.08839686,0.6607376,-0.74539375,,-0.0916068,0.25553665,-0.08225937,-0.9394842,0.25806984,0.22532077,0.06399337,-0.51392555,0.85544455,0.33656254,0.8180957,0.46631014,,-0.009704555,0.40547436,-0.40722355,0.66157824,-0.40149444,-0.6333375,0.7488387,0.39813992,0.52983505,0.039431117,-0.824795,0.5640553,,1.2241149424275786,0.5240646528448752,0.21087786462000002,4.090212037609132,0.32492159644221735,-1.1193930756005117,-0.41505727204720344,,-0.8903770412679664,-0.5111136298148007,0.16440586812000002,-3.810905032887746,-1.0585229636828672,1.397088424235032,0.8750341622813338,,-0.06277949319423604,-0.05761550026989781,0.08432494304,-0.06639839657179906,,5.5871904e-05,-1.4901161e-06,-2.2649765e-06,0.99999994,-5.6244433e-05,-4.9851835e-05,5.6240708e-05,1.0,-6.645918e-06,4.9851835e-05,6.7055225e-06,1.0,301,0.915,0,0,0.0,False,-0.260652545964438,1.0491287457524916
0.9472070339834318,19:14:34.363455,19:14:24.488823,0,,0.123917475,-7.429719e-05,0.0242154,0.96582955,-0.15260682,-0.20948537,0.23570453,0.18106747,0.9548078,-0.107779205,-0.97155833,0.21085039,,0.041766632,-0.059529983,0.051585376,-0.737772,0.34848455,0.5781444,0.38098675,-0.49205488,0.78277147,0.5572625,0.79777217,0.23025647,,0.105171055,1.3401158,0.44063938,0.99427986,0.0134952925,-0.10594987,-0.059945755,-0.7504957,-0.65815103,-0.08839686,0.6607376,-0.74539375,,-0.0916063,0.25553784,-0.08231648,-0.93926406,0.25703576,0.22741073,0.066359416,-0.51410335,0.8551574,0.33671865,0.8183094,0.46582204,,-0.009701665,0.40547314,-0.40722308,0.66156894,-0.40151474,-0.6333344,0.74884737,0.39813897,0.5298236,0.039423123,-0.8247856,0.5640696,,1.2241381106262013,0.5240800983106236,0.21082082786000003,4.0876957582873175,0.32492159644221735,-1.119883148041355,-0.4140772076503978,,-0.8903538730693438,-0.5111136298148007,0.16440586812000002,-3.810905032887746,-1.0585229636828672,1.397088424235032,0.8750341622813338,,-0.06277949319423604,-0.05761550026989781,0.08432494304,-0.06639839657179906,,5.5871904e-05,-1.4901161e-06,-2.2649765e-06,0.99999994,-5.6244433e-05,-4.9851835e-05,5.6240708e-05,1.0,-6.645918e-06,4.9851835e-05,6.7055225e-06,1.0,316,0.961,0,0,0.0,False,-0.2608908568385213,1.0496115477602863
0.9657828700146638,19:14:34.412915,19:14:24.633015,0,,0.1238752,-0.00011135638,0.02426216,0.96585894,-0.15255111,-0.20939043,0.23559037,0.18099159,0.95485044,-0.1077656,-0.9715812,0.21075192,,0.041781105,-0.05952952,0.05159211,-0.73781216,0.34838015,0.578156,0.38100395,-0.49209392,0.78273857,0.55719763,0.7977936,0.2303387,,0.105171055,1.3401158,0.44063938,0.99427986,0.0134952925,-0.10594987,-0.059945755,-0.7504957,-0.65815103,-0.08839686,0.6607376,-0.74539375,,-0.09157053,0.25554344,-0.08238001,-0.93929946,0.2569795,0.22732809,0.066283114,-0.51417685,0.8551191,0.33663493,0.81828094,0.46593264,,-0.0097167315,0.40547758,-0.40722597,0.66161436,-0.4014113,-0.6333525,0.74880475,0.39814895,0.52987623,0.039470345,-0.8248311,0.5639998,,1.2243311789480569,0.523987425516133,0.21075730965000003,4.0876957582873175,0.3246483234426865,-1.1197419909741027,-0.41456723984880084,,-0.8904697140624571,-0.511121352547675,0.16440716441000003,-3.810905032887746,-1.0585229636828672,1.397088424235032,0.8750341622813338,,-0.06277949319423604,-0.05761550026989781,0.08432494304,-0.06639839657179906,,5.5871904e-05,-1.4901161e-06,-2.2649765e-06,0.99999994,-5.6244433e-05,-4.9851835e-05,5.6240708e-05,1.0,-6.645918e-06,4.9851835e-05,6.7055225e-06,1.0,324,0.985,0,0,0.0,False,-0.2607717014014801,1.0491770259532711
1.0152500320109539,19:14:34.444054,19:14:24.633015,0,,0.12382655,-0.00010485947,0.024269223,0.9658431,-0.15291408,-0.20919883,0.23548856,0.18107954,0.9548589,-0.108129725,-0.9715078,0.21090394,,0.04177745,-0.059529983,0.051590025,-0.7378011,0.3484073,0.57815367,0.3810011,-0.49208245,0.78274715,0.5572142,0.79778886,0.2303155,,0.105171055,1.3401158,0.44063938,0.99427986,0.0134952925,-0.10594987,-0.059945755,-0.7504957,-0.65815103,-0.08839686,0.6607376,-0.74539375,,-0.09152261,0.25555477,-0.0823858,-0.93925136,0.25733662,0.2271227,0.06596354,-0.5140492,0.8552206,0.3368318,0.8182489,0.46584657,,-0.009712877,0.40547597,-0.40722534,0.6616019,-0.40143836,-0.63334835,0.7488163,0.39814767,0.5298609,0.03945968,-0.82481855,0.56401885,,1.2245937518657806,0.5239101981873907,0.21075212449000003,4.087905448230802,0.3246483234426865,-1.1197419909741027,-0.41456723984880084,,-0.8904388231309602,-0.511121352547675,0.16440716441000003,-3.810905032887746,-1.0585229636828672,1.397088424235032,0.8750341622813338,,-0.06277949319423604,-0.05761550026989781,0.08432494304,-0.06639839657179906,,5.5871904e-05,-1.4901161e-06,-2.2649765e-06,0.99999994,-5.6244433e-05,-4.9851835e-05,5.6240708e-05,1.0,-6.645918e-06,4.9851835e-05,6.7055225e-06,1.0,336,1.022,0,0,0.0,False,-0.26041423509035333,1.0493218665556094
1.0463727769674733,19:14:34.469279,19:14:24.633015,0,,0.123759896,-7.675588e-05,0.024285123,0.9657895,-0.1533241,-0.20914619,0.23555967,0.18139413,0.95478153,-0.10845314,-0.97138447,0.21130553,,0.041776538,-0.059530117,0.05158949,-0.73779833,0.3484141,0.57815313,0.38100043,-0.49207962,0.7827493,0.5572183,0.79778767,0.2303097,,0.105171055,1.3401158,0.44063938,0.99427986,0.0134952925,-0.10594987,-0.059945755,-0.7504957,-0.65815103,-0.08839686,0.6607376,-0.74539375,,-0.09145677,0.25558868,-0.082385436,-0.93916255,0.25774512,0.22702673,0.0658005,-0.5137187,0.8554317,0.3371112,0.8183279,0.46550563,,-0.009711913,0.40547556,-0.4072252,0.6615988,-0.40144512,-0.63334733,0.7488192,0.39814734,0.5298571,0.039457016,-0.82481545,0.5640236,,1.2250107794409886,0.523887029988768,0.21075212449000003,4.087905448230802,0.3246483234426865,-1.1199053484543837,-0.41456723984880073,,-0.8904311003980859,-0.511121352547675,0.16440716441000003,-3.810905032887746,-1.0585229636828672,1.397088424235032,0.8750341622813338,,-0.06277949319423604,-0.05761550026989781,0.08432494304,-0.06639839657179906,,5.5871904e-05,-1.4901161e-06,-2.2649765e-06,0.99999994,-5.6244433e-05,-4.9851835e-05,5.6240708e-05,1.0,-6.645918e-06,4.9851835e-05,6.7055225e-06,1.0,373,1.136,0,0,0.0,False,-0.26106958999408425,1.0488873447485942
1.0715976330102421,19:14:34.601149,19:14:24.633015,0,,0.12377332,-2.4944544e-05,0.024310857,0.965812,-0.15306604,-0.2092312,0.23561488,0.1816335,0.9547225,-0.10813223,-0.9713804,0.21148849,,0.04177592,-0.05953347,0.051590562,-0.73786354,0.3485421,0.57799286,0.38094386,-0.491861,0.78291416,0.5571707,0.7978666,0.23015139,,0.105171055,1.3401158,0.44063938,0.99427986,0.0134952925,-0.10594987,-0.059945755,-0.7504957,-0.65815103,-0.08839686,0.6607376,-0.74539375,,-0.091470495,0.25564378,-0.082368076,-0.9392149,0.25749832,0.22709034,0.06605636,-0.51354855,0.85551417,0.33691537,0.8185124,0.46532303,,-0.009711246,0.40547487,-0.40722865,0.66167086,-0.4015901,-0.63318014,0.7487569,0.39831144,0.5298218,0.0394317,-0.8246656,0.5642444,,1.2251111749683536,0.5241573256393659,0.21076508739000002,4.0876957582873175,0.3245116869429211,-1.119875609290828,-0.41440389578266656,,-0.8904388231309602,-0.5111367980134234,0.16440586812000002,-3.8111147228312303,-1.0585229636828672,1.3970067454948916,0.8748708182151996,,-0.06277949319423604,-0.05761550026989781,0.08432494304,-0.06639839657179906,,5.5871904e-05,-1.4901161e-06,-2.2649765e-06,0.99999994,-5.6244433e-05,-4.9851835e-05,5.6240708e-05,1.0,-6.645918e-06,4.9851835e-05,6.7055225e-06,1.0,393,1.198,0,0,0.0,False,-0.2599971910607066,1.0486459437446969
1.2034391249762848,19:14:34.663850,19:14:24.872628,0,,0.123819575,-5.0216913e-06,0.024309695,0.9664136,-0.14724478,-0.21062626,0.23547511,0.17907327,0.9552404,-0.10293661,-0.97275466,0.20773143,,0.0417778,-0.059536614,0.051591635,-0.7379342,0.3486564,0.5778337,0.38088867,-0.49164802,0.78307474,0.5571149,0.7979479,0.23000473,,0.105171055,1.3401158,0.44063938,0.99427986,0.0134952925,-0.10594987,-0.059945755,-0.7504957,-0.65815103,-0.08839686,0.6607376,-0.74539375,,-0.091515526,0.25565603,-0.08234909,-0.9403412,0.25174168,0.22887672,0.06942581,-0.5165781,0.85342085,0.33307427,0.81839675,0.46828228,,-0.009713073,0.40547398,-0.40723187,0.66174906,-0.4017215,-0.63301504,0.7486888,0.39847615,0.52979416,0.039411694,-0.824522,0.5644556,,1.225126620434102,0.5242577211667309,0.21077027255000003,4.0845504091350495,0.3202759554501924,-1.1168300479769417,-0.4135871754519951,,-0.8904542685967086,-0.5111522434791719,0.16440586812000002,-3.811324412774715,-1.0585229636828672,1.3968433880146103,0.873890753818394,,-0.06277949319423604,-0.05761550026989781,0.08432494304,-0.06639839657179906,,5.5871904e-05,-1.4901161e-06,-2.2649765e-06,0.99999994,-5.6244433e-05,-4.9851835e-05,5.6240708e-05,1.0,-6.645918e-06,4.9851835e-05,6.7055225e-06,1.0,413,1.26,0,0,0.0,False,-0.26011634649774784,1.0493218665556094
1.2661814370076172,19:14:34.710723,19:14:24.872628,0,,0.123861745,3.6612153e-05,0.024344549,0.96654296,-0.15145397,-0.20701696,0.23317379,0.18248704,0.9551589,-0.10688467,-0.97147316,0.21169671,,0.0417778,-0.059536614,0.051591635,-0.7379342,0.34879798,0.57774824,0.38088867,-0.49145615,0.78319526,0.5571149,0.7980042,0.22980914,,0.105171055,1.3401158,0.44063938,0.99427986,0.0134952925,-0.10594987,-0.059945755,-0.7504957,-0.65815103,-0.08839686,0.6607376,-0.74539375,,-0.09155918,0.25570872,-0.08234231,-0.94017017,0.25594127,0.22488683,0.06506463,-0.51303905,0.85589576,0.33443475,0.81931984,0.4656913,,-0.009713073,0.40547398,-0.40723187,0.66174906,-0.40187663,-0.63291657,0.7486888,0.39860597,0.52969646,0.039411694,-0.8243837,0.5646576,,1.2249412748451205,0.5245897986803225,0.21077805029000002,4.08916358789171,0.32232550294667406,-1.119644818894356,-0.41391386358426363,,-0.8904619913295828,-0.5111522434791719,0.16440586812000002,-3.811324412774715,-1.0585229636828672,1.3966800305343292,0.8745441300829311,,-0.06277949319423604,-0.05761550026989781,0.08432494304,-0.06639839657179906,,5.5871904e-05,-1.4901161e-06,-2.2649765e-06,0.99999994,-5.6244433e-05,-4.9851835e-05,5.6240708e-05,1.0,-6.645918e-06,4.9851835e-05,6.7055225e-06,1.0,450,1.374,0,0,0.0,False,-0.2604738128088746,1.048983905150153
1.3130526699824259,19:14:34.824545,19:14:25.013672,0,,0.12404621,0.00011008978,0.02435565,0.96675444,-0.14588816,-0.2100048,0.2348945,0.18213898,0.95480365,-0.101044536,-0.97238976,0.21035194,,0.04179671,-0.059528656,0.051609397,-0.73793584,0.3487894,0.5777512,0.38079488,-0.49159876,0.7831513,0.5571767,0.7979201,0.2299512,,0.10516464,1.3401154,0.44064948,0.9942803,0.01350047,-0.105945334,-0.059938893,-0.75049555,-0.65815175,-0.08839686,0.6607376,-0.74539375,,-0.09173426,0.25575653,-0.08227568,-0.94089675,0.25048503,0.22797054,0.070251875,-0.5141158,0.8548389,0.33132762,0.8203305,0.46613288,,-0.009726948,0.40548453,-0.4072269,0.661745,-0.40185162,-0.63293666,0.74869806,0.3984614,0.52979213,0.039302982,-0.82446575,0.5645454,,1.2243775153453023,0.5252076173102604,0.21082730931000002,4.084340719191566,0.31945613645159976,-1.119347011420245,-0.4134238313858608,,-0.8904697140624571,-0.5111599662120461,0.16440457183,-3.811324412774715,-1.0586596001826325,1.3967914484380257,0.8742174419506625,,-0.06277949319423604,-0.05761550026989781,0.08432494304,-0.06639839657179906,,4.8626214e-05,5.3048134e-06,-8.940697e-06,0.9999999,-5.1107258e-05,-4.529953e-05,5.1099807e-05,1.0,-6.0498714e-06,4.529208e-05,6.0498714e-06,1.0,458,1.398,0,0,0.0,False,-0.26005676877922745,1.0486459437446969
1.4268917209701613,19:14:34.853966,19:14:25.013672,0,,0.124167055,0.00012938678,0.024350658,0.96772695,-0.14168328,-0.20839824,0.23241714,0.18218333,0.9554013,-0.09739776,-0.97300315,0.20923334,,0.041797716,-0.0595297,0.051609993,-0.73793745,0.3487801,0.5777548,0.3808022,-0.49159777,0.7831484,0.5571696,0.7979248,0.22995222,,0.10516464,1.3401154,0.44064948,0.9942803,0.01350047,-0.105945334,-0.059938893,-0.75049555,-0.65815175,-0.08839686,0.6607376,-0.74539375,,-0.09185307,0.255763,-0.08224663,-0.9423349,0.24636878,0.2265113,0.07083831,-0.51464945,0.85446936,0.3270885,0.821242,0.46751976,,-0.009727956,0.40548438,-0.40722808,0.661747,-0.4018429,-0.6329402,0.74869585,0.39846689,0.5297912,0.039312884,-0.82446736,0.56454235,,1.2239836559687167,0.5254392992964871,0.21084156850000002,4.084340719191566,0.3153570414586365,-1.1184548365135694,-0.4148939279810693,,-0.8904774367953313,-0.5111676889449203,0.16440457183,-3.811324412774715,-1.0586596001826325,1.3967914484380257,0.8742174419506625,,-0.06277949319423604,-0.05761550026989781,0.08432494304,-0.06639839657179906,,4.8626214e-05,5.3048134e-06,-8.940697e-06,0.9999999,-5.1107258e-05,-4.529953e-05,5.1099807e-05,1.0,-6.0498714e-06,4.529208e-05,6.0498714e-06,1.0,470,1.436,0,0,0.0,False,-0.260652545964438,1.048983905150153
1.456290717003867,19:14:34.886620,19:14:25.013672,0,,0.12432307,0.0001463443,0.024343506,0.96867156,-0.14100677,-0.20443088,0.22850409,0.18365452,0.9560633,-0.09726679,-0.97282475,0.21012157,,0.04179608,-0.059532307,0.05160898,-0.73792964,0.34878868,0.5777596,0.38081405,-0.4915844,0.78315103,0.5571719,0.79792935,0.22993115,,0.10516464,1.3401154,0.44064948,0.9942803,0.01350047,-0.105945334,-0.059938893,-0.75049555,-0.65815175,-0.08839686,0.6607376,-0.74539375,,-0.09200671,0.25576502,-0.08221395,-0.9434525,0.24574059,0.22250627,0.06799984,-0.51346695,0.8554109,0.32445878,0.82216984,0.4677213,,-0.009726116,0.4054824,-0.40722984,0.6617384,-0.40185246,-0.63294303,0.7487029,0.39847657,0.5297739,0.03932202,-0.824458,0.56455535,,1.2232886100100366,0.5257559313443304,0.21086490172000003,4.087905448230802,0.3134441304619204,-1.1188552756251928,-0.4140772076503979,,-0.8904619913295828,-0.5111831344106688,0.16440457183,-3.811324412774715,-1.0586596001826325,1.3967914484380257,0.8742174419506625,,-0.06277949319423604,-0.05761550026989781,0.08432494304,-0.06639839657179906,,4.8626214e-05,5.3048134e-06,-8.940697e-06,0.9999999,-5.1107258e-05,-4.529953e-05,5.1099807e-05,1.0,-6.0498714e-06,4.529208e-05,6.0498714e-06,1.0,482,1.473,0,0,0.0,False,-0.2611887454311268,1.048742504146256
1.488955698965583,19:14:34.924344,19:14:25.013672,0,,0.12445019,0.00016783178,0.024327978,0.96942097,-0.1373692,-0.20335251,0.2265611,0.18256441,0.95673424,-0.094300956,-0.9735501,0.20810425,,0.041795265,-0.059533574,0.051608503,-0.7379257,0.34879294,0.577762,0.38081995,-0.49157774,0.78315234,0.5571731,0.79793155,0.2299206,,0.10516464,1.3401154,0.44064948,0.9942803,0.01350047,-0.105945334,-0.059938893,-0.75049555,-0.65815175,-0.08839686,0.6607376,-0.74539375,,-0.09213061,0.2557658,-0.08217506,-0.9445777,0.24215156,0.22166553,0.068531364,-0.51489365,0.85451037,0.3210552,0.82234246,0.46976212,,-0.009725197,0.40548146,-0.4072307,0.66173416,-0.40185723,-0.63294446,0.74870646,0.3984814,0.52976525,0.03932659,-0.82445335,0.56456184,,1.222817523304709,0.5260030587963056,0.21089212381000003,4.087905448230802,0.3103014909673153,-1.1170277725014404,-0.41489392798106917,,-0.8904542685967086,-0.511190857143543,0.16440457183,-3.811324412774715,-1.0586596001826325,1.3967914484380257,0.8742174419506625,,-0.06277949319423604,-0.05761550026989781,0.08432494304,-0.06639839657179906,,4.8626214e-05,5.3048134e-06,-8.940697e-06,0.9999999,-5.1107258e-05,-4.529953e-05,5.1099807e-05,1.0,-6.0498714e-06,4.529208e-05,6.0498714e-06,1.0,490,1.497,0,0,0.0,False,-0.26017592421626956,1.0484045427407995
1.5266901970026083,19:14:34.944912,19:14:25.013672,0,,0.12452896,0.00019840896,0.024325192,0.9699441,-0.13877288,-0.19987512,0.22358921,0.184226,0.9571147,-0.09599942,-0.97303784,0.20971698,,0.041797183,-0.059534557,0.051609635,-0.73793006,0.34877685,0.5777661,0.38082802,-0.49157965,0.7831472,0.5571618,0.7979374,0.22992742,,0.10516464,1.3401154,0.44064948,0.9942803,0.01350047,-0.105945334,-0.059938893,-0.75049555,-0.65815175,-0.08839686,0.6607376,-0.74539375,,-0.092207335,0.25578365,-0.082144365,-0.9450526,0.24356559,0.21806283,0.06517334,-0.5132697,0.85574913,0.3203561,0.8229398,0.46919292,,-0.009727169,0.4054817,-0.40723208,0.6617392,-0.40184173,-0.632949,0.74870133,0.3984872,0.5297681,0.03933916,-0.8244581,0.56455404,,1.2224700003253688,0.5262347407825323,0.21091934590000003,4.091679867213524,0.3101648544675498,-1.1178964994794307,-0.4135871754519951,,-0.8904697140624571,-0.5111985798764171,0.16440457183,-3.811324412774715,-1.0586596001826325,1.3967914484380257,0.8742174419506625,,-0.06277949319423604,-0.05761550026989781,0.08432494304,-0.06639839657179906,,4.8626214e-05,5.3048134e-06,-8.940697e-06,0.9999999,-5.1107258e-05,-4.529953e-05,5.1099807e-05,1.0,-6.0498714e-06,4.529208e-05,6.0498714e-06,1.0,523,1.599,0,0,0.0,False,-0.26053339052739544,1.0492253061540504
1.5472564449883066,19:14:35.043249,19:14:25.196081,0,,0.12508987,0.00031524897,0.024406388,0.97320545,-0.12882614,-0.19045843,0.21225901,0.18484676,0.95957166,-0.088412344,-0.97428715,0.20723838,,0.041797183,-0.059534557,0.051609635,-0.73793006,0.34877685,0.5777661,0.38082802,-0.49157965,0.7831472,0.5571618,0.7979374,0.22992742,,0.10516464,1.3401154,0.44064948,0.9942803,0.01350047,-0.105945334,-0.059938893,-0.75049555,-0.65815175,-0.08839686,0.6607376,-0.74539375,,-0.092768125,0.25590408,-0.082067706,-0.9495364,0.23383006,0.2090554,0.06178358,-0.5140153,0.8555531,0.3075117,0.825295,0.47362936,,-0.009727169,0.4054817,-0.40723208,0.6617392,-0.40184173,-0.632949,0.74870133,0.3984872,0.5297681,0.03933916,-0.8244581,0.56455404,,1.2204775352438189,0.5278333464874968,0.21094656799000003,4.09755118563109,0.2992339344863146,-1.1145372215132752,-0.4134238313858606,,-0.8904697140624571,-0.5111985798764171,0.16440457183,-3.811324412774715,-1.0586596001826325,1.3967914484380255,0.8748708182151996,,-0.06277949319423604,-0.05761550026989781,0.08432494304,-0.06639839657179906,,4.8626214e-05,5.3048134e-06,-8.940697e-06,0.9999999,-5.1107258e-05,-4.529953e-05,5.1099807e-05,1.0,-6.0498714e-06,4.529208e-05,6.0498714e-06,1.0,531,1.623,0,0,0.0,False,-0.2594014138754961,1.049370146756389
1.6455579350003973,19:14:35.075019,19:14:25.196081,0,,0.12524122,0.00031772256,0.024439856,0.97347784,-0.12746248,-0.18998334,0.21168384,0.1868509,0.95931053,-0.08677758,-0.97408414,0.20887697,,0.041796558,-0.059538193,0.051609218,-0.73792386,0.34877613,0.5777745,0.38084716,-0.49156523,0.783147,0.557157,0.7979466,0.2299074,,0.10516464,1.3401154,0.44064948,0.9942803,0.01350047,-0.105945334,-0.059938893,-0.75049555,-0.65815175,-0.08839686,0.6607376,-0.74539375,,-0.09292183,0.25592288,-0.082075045,-0.9499958,0.23253885,0.20840736,0.062448133,-0.5124475,0.8564449,0.30595452,0.8266337,0.47230133,,-0.009726338,0.40547958,-0.40723503,0.6617326,-0.40184256,-0.6329554,0.74870616,0.3985024,0.5297499,0.039358195,-0.8244504,0.56456405,,1.2198211029495099,0.5282735422613276,0.21093230880000002,4.097341495687606,0.2982774789879565,-1.116371015871898,-0.41391386358426374,,-0.8904619913295828,-0.5112217480750398,0.16440457183,-3.811324412774715,-1.0586596001826325,1.3967914484380255,0.8748708182151996,,-0.06277949319423604,-0.05761550026989781,0.08432494304,-0.06639839657179906,,4.8626214e-05,5.3048134e-06,-8.940697e-06,0.9999999,-5.1107258e-05,-4.529953e-05,5.1099807e-05,1.0,-6.0498714e-06,4.529208e-05,6.0498714e-06,1.0,539,1.649,0,0,0.0,False,-0.26011634649774784,1.0486459437446969
1.6773392359609716,19:14:35.103933,19:14:25.196081,0,,0.12540232,0.0003081262,0.024478316,0.9741996,-0.12474263,-0.18807952,0.2091324,0.18567821,0.96009755,-0.08484286,-0.97466034,0.2069754,,0.041799396,-0.059539042,0.051610827,-0.7379309,0.34875324,0.57777935,0.38085586,-0.49156994,0.7831397,0.55714154,0.7979537,0.22992009,,0.10516464,1.3401154,0.44064948,0.9942803,0.01350047,-0.105945334,-0.059938893,-0.75049555,-0.65815175,-0.08839686,0.6607376,-0.74539375,,-0.093086235,0.25593576,-0.08209312,-0.95101565,0.22984359,0.20673937,0.061837412,-0.5138013,0.8556777,0.30289498,0.82654715,0.4744201,,-0.009729273,0.4054802,-0.40723655,0.6617408,-0.40182027,-0.63296103,0.7486981,0.39850855,0.5297566,0.03937343,-0.82445824,0.5645514,,1.219141502456578,0.5286596789050388,0.21090379042000001,4.0985996353485135,0.29581802199217855,-1.1143654936053626,-0.41391386358426374,,-0.8904851595282055,-0.5112294708079141,0.16440457183,-3.811324412774715,-1.0586596001826325,1.3967914484380255,0.8745441300829311,,-0.06277949319423604,-0.05761550026989781,0.08432494304,-0.06639839657179906,,4.8626214e-05,5.3048134e-06,-8.940697e-06,0.9999999,-5.1107258e-05,-4.529953e-05,5.1099807e-05,1.0,-6.0498714e-06,4.529208e-05,6.0498714e-06,1.0,547,1.674,0,0,0.0,False,-0.2602950796533112,1.0492253061540504
1.7062777749961242,19:14:35.126801,19:14:25.355864,0,,0.12550336,0.00029067695,0.024528325,0.97486556,-0.12291568,-0.18581821,0.20648922,0.18529361,0.96074367,-0.083659574,-0.9749656,0.20601723,,0.04179844,-0.059541382,0.05161029,-0.7379945,0.34884322,0.5776438,0.380792,-0.49141622,0.7832674,0.55710113,0.79800904,0.22982582,,0.10516464,1.3401154,0.44064948,0.9942803,0.01350047,-0.105945334,-0.059938893,-0.75049555,-0.65815175,-0.08839686,0.6607376,-0.74539375,,-0.09319246,0.2559528,-0.08213113,-0.95190835,0.22804196,0.2046152,0.06065548,-0.5143577,0.85542804,0.3003189,0.8267001,0.47578934,,-0.009728164,0.40547866,-0.40723827,0.6618108,-0.40192223,-0.63282305,0.7486381,0.39862385,0.5297547,0.03933819,-0.8243528,0.5647079,,1.2187399203471183,0.5289145290898882,0.21085712398000003,4.100277154896389,0.2936318379959315,-1.1131545583272038,-0.41440389578266645,,-0.8904851595282055,-0.5112371935407883,0.16440457183,-3.811534102718199,-1.0586596001826325,1.3967914484380257,0.8742174419506625,,-0.06277949319423604,-0.05761550026989781,0.08432494304,-0.06639839657179906,,4.8626214e-05,5.3048134e-06,-8.940697e-06,0.9999999,-5.1107258e-05,-4.529953e-05,5.1099807e-05,1.0,-6.0498714e-06,4.529208e-05,6.0498714e-06,1.0,555,1.698,0,0,0.0,False,-0.259580147031059,1.0491770259532711
1.7291319989599288,19:14:35.153123,19:14:25.355864,0,,0.12560299,0.00020927191,0.024660379,0.9751726,-0.1231308,-0.18405642,0.20486793,0.18610758,0.9609335,-0.08406629,-0.9747834,0.20671254,,0.041797526,-0.05954089,0.051610947,-0.7379611,0.34887815,0.57766527,0.38070732,-0.49155468,0.7832216,0.5572031,0.7979085,0.2299279,,0.10516464,1.3401154,0.44064948,0.9942803,0.01350047,-0.105945334,-0.059938893,-0.75049555,-0.65815175,-0.08839686,0.6607376,-0.74539375,,-0.0933082,0.2559778,-0.08227243,-0.9522412,0.22827189,0.20280203,0.059172437,-0.51362574,0.8559715,0.29955858,0.82709163,0.4755882,,-0.009727342,0.40547958,-0.40723822,0.66177166,-0.40194076,-0.6328522,0.7486792,0.39846408,0.5298168,0.039213896,-0.824421,0.5646169,,1.2182147745116712,0.5292466066034799,0.21071193950000003,4.1021643643877495,0.2934952014961661,-1.1135332128643507,-0.41375051951812925,,-0.8904851595282055,-0.5112371935407883,0.16440457183,-3.811534102718199,-1.058796236682398,1.396902866341722,0.8742174419506625,,-0.06277949319423604,-0.05761550026989781,0.08432494304,-0.06639839657179906,,4.8626214e-05,5.3048134e-06,-8.940697e-06,0.9999999,-5.1107258e-05,-4.529953e-05,5.1099807e-05,1.0,-6.0498714e-06,4.529208e-05,6.0498714e-06,1.0,563,1.723,0,0,0.0,False,-0.26017592421626956,1.0491287457524916
1.755468062008731,19:14:35.177754,19:14:25.355864,0,,0.12568882,0.000120833516,0.024846047,0.9756152,-0.12149484,-0.18279381,0.20323738,0.18557754,0.96138215,-0.0828806,-0.97508967,0.20574456,,0.04179762,-0.059542067,0.051611006,-0.73796,0.34892285,0.57763976,0.38071394,-0.49148688,0.78326094,0.5572001,0.7979307,0.22985792,,0.10516464,1.3401154,0.44064948,0.9942803,0.01350047,-0.105945334,-0.059938893,-0.75049555,-0.65815175,-0.08839686,0.6607376,-0.74539375,,-0.09341592,0.2560342,-0.08245919,-0.9528693,0.22665408,0.20166326,0.058748696,-0.51428336,0.8556058,0.2976386,0.82712793,0.47672915,,-0.009727386,0.405479,-0.40723926,0.6617705,-0.40199047,-0.6328218,0.7486798,0.3985125,0.52977943,0.03922113,-0.82437336,0.564686,,1.217874974265205,0.5296559114458138,0.21051619971000002,4.103003124161688,0.29199219999874626,-1.1123076159236902,-0.41375051951812925,,-0.8904851595282055,-0.5112449162736625,0.16440457183,-3.811534102718199,-1.058796236682398,1.3968211876015812,0.8743807860167969,,-0.06277949319423604,-0.05761550026989781,0.08432494304,-0.06639839657179906,,4.8626214e-05,5.3048134e-06,-8.940697e-06,0.9999999,-5.1107258e-05,-4.529953e-05,5.1099807e-05,1.0,-6.0498714e-06,4.529208e-05,6.0498714e-06,1.0,600,1.836,0,0,0.0,False,-0.26059296824591627,1.0493218665556094
1.7800529969972558,19:14:35.293002,19:14:25.355864,0,,0.12576586,-0.00031989813,0.02589421,0.9759918,-0.11762845,-0.18331116,0.20300046,0.18626267,0.96129966,-0.078932196,-0.9754331,0.20566949,,0.04180109,-0.05954548,0.051609933,-0.73796195,0.3489489,0.57762146,0.3807352,-0.4914171,0.7832943,0.55718285,0.7979623,0.22979009,,0.10516464,1.3401154,0.44064948,0.9942803,0.01350047,-0.105945334,-0.059938893,-0.75049555,-0.65815175,-0.08839686,0.6607376,-0.74539375,,-0.093616515,0.2564107,-0.08351599,-0.9536507,0.22287424,0.20218158,0.06121565,-0.5141495,0.8555133,0.2946234,0.82823753,0.47667563,,-0.0097305775,0.40547603,-0.4072416,0.6617732,-0.4020227,-0.6327985,0.748676,0.39857194,0.52974015,0.03924817,-0.8243289,0.564749,,1.2179213106624505,0.5314244172740112,0.20942861240000002,4.101115914670327,0.28966937950273375,-1.111311977702397,-0.41391386358426374,,-0.890500604993954,-0.5112680844722852,0.16440716441000003,-3.811534102718199,-1.058796236682398,1.3967395088614407,0.8745441300829311,,-0.06277949319423604,-0.05761550026989781,0.08432494304,-0.06639839657179906,,4.8626214e-05,5.3048134e-06,-8.940697e-06,0.9999999,-5.1107258e-05,-4.529953e-05,5.1099807e-05,1.0,-6.0498714e-06,4.529208e-05,6.0498714e-06,1.0,612,1.873,0,0,0.0,False,-0.2599376133421849,1.0492253061540504
1.8953456970048137,19:14:35.318575,19:14:25.543647,0,,0.12577263,-0.00041155517,0.026174098,0.97618204,-0.116082095,-0.18328428,0.2028378,0.18859503,0.96087915,-0.07697442,-0.97517014,0.2076489,,0.041799262,-0.059545703,0.05160892,-0.7379565,0.3489153,0.57764876,0.3807338,-0.4914754,0.78325844,0.5571911,0.7979411,0.22984368,,0.10516464,1.3401154,0.44064948,0.9942803,0.01350047,-0.105945334,-0.059938893,-0.75049555,-0.65815175,-0.08839686,0.6607376,-0.74539375,,-0.09365526,0.25653097,-0.08378213,-0.95404345,0.22140929,0.20193806,0.06240535,-0.51230544,0.85653293,0.29309833,0.8297717,0.47494456,,-0.009728651,0.40547523,-0.4072413,0.661767,-0.40198454,-0.63282925,0.7486818,0.398528,0.529765,0.039242838,-0.8243688,0.5646912,,1.218106656251432,0.53193411764371,0.20915120634000003,4.100067464952905,0.2881663780053139,-1.1131084941469374,-0.41440389578266634,,-0.8904851595282055,-0.5112680844722852,0.16440716441000003,-3.811534102718199,-1.058796236682398,1.3968211876015812,0.8743807860167969,,-0.06277949319423604,-0.05761550026989781,0.08432494304,-0.06639839657179906,,4.8626214e-05,5.3048134e-06,-8.940697e-06,0.9999999,-5.1107258e-05,-4.529953e-05,5.1099807e-05,1.0,-6.0498714e-06,4.529208e-05,6.0498714e-06,1.0,620,1.899,0,0,0.0,False,-0.2594014138754961,1.0493218665556094
1.9208987570018508,19:14:35.345151,19:14:25.543647,0,,0.12577511,-0.00046791136,0.026352957,0.97641987,-0.11535758,-0.18247326,0.20200065,0.19003838,0.9607711,-0.076155365,-0.97497594,0.2088596,,0.041798346,-0.059545793,0.051608384,-0.7379538,0.3489221,0.57764816,0.38073307,-0.4914725,0.7832606,0.55719525,0.7979399,0.22983786,,0.10516464,1.3401154,0.44064948,0.9942803,0.01350047,-0.105945334,-0.059938893,-0.75049555,-0.65815175,-0.08839686,0.6607376,-0.74539375,,-0.0936781,0.25660953,-0.08395086,-0.9543976,0.22073059,0.20100558,0.062328883,-0.51113456,0.85723776,0.2919595,0.8306741,0.47406772,,-0.009727687,0.40547484,-0.40724114,0.6617639,-0.4019913,-0.6328282,0.74868464,0.3985277,0.5297612,0.03924017,-0.8243656,0.56469595,,1.2182379427102936,0.5322507496915532,0.20897491090000003,4.100277154896389,0.2870732860071904,-1.1140140832004584,-0.4140772076503978,,-0.8904774367953313,-0.5112680844722852,0.16440716441000003,-3.811534102718199,-1.058796236682398,1.3968211876015812,0.8743807860167969,,-0.06277949319423604,-0.05761550026989781,0.08432494304,-0.06639839657179906,,4.8626214e-05,5.3048134e-06,-8.940697e-06,0.9999999,-5.1107258e-05,-4.529953e-05,5.1099807e-05,1.0,-6.0498714e-06,4.529208e-05,6.0498714e-06,1.0,628,1.923,0,0,0.0,False,-0.259580147031059,1.0494667071579475
1.9474928950075991,19:14:35.370447,19:14:25.543647,0,,0.12576327,-0.0005336106,0.02659136,0.97623545,-0.11381464,-0.18441837,0.20367342,0.19114336,0.96019864,-0.07403435,-0.97494125,0.20978191,,0.041798443,-0.05954697,0.051608503,-0.73795265,0.34896678,0.57762265,0.38073972,-0.49140468,0.7832999,0.5571922,0.7979621,0.22976798,,0.10516464,1.3401154,0.44064948,0.9942803,0.01350047,-0.105945334,-0.059938893,-0.75049555,-0.65815175,-0.08839686,0.6607376,-0.74539375,,-0.09369307,0.25672176,-0.08417103,-0.95435685,0.21924007,0.20282215,0.0649986,-0.51035106,0.8575062,0.29151022,0.8315501,0.47280675,,-0.009727731,0.40547428,-0.40724218,0.6617628,-0.40204102,-0.63279784,0.7486853,0.39857614,0.5297238,0.039247405,-0.82431793,0.56476504,,1.2185005156280173,0.5327218363968809,0.20874676386000002,4.09755118563109,0.2865267400081286,-1.1150386289082026,-0.4134238313858609,,-0.8904774367953313,-0.5112758072051594,0.16440716441000003,-3.811534102718199,-1.058796236682398,1.3967395088614407,0.8748708182151996,,-0.06277949319423604,-0.05761550026989781,0.08432494304,-0.06639839657179906,,4.8626214e-05,5.3048134e-06,-8.940697e-06,0.9999999,-5.1107258e-05,-4.529953e-05,5.1099807e-05,1.0,-6.0498714e-06,4.529208e-05,6.0498714e-06,1.0,636,1.948,0,0,0.0,False,-0.259580147031059,1.0492253061540504
1.9727776210056618,19:14:35.397721,19:14:25.543647,0,,0.12576614,-0.0005708039,0.026740536,0.9766156,-0.11176686,-0.18365616,0.20251316,0.191443,0.96038437,-0.07217951,-0.9751193,0.20960051,,0.041798443,-0.05954697,0.051608503,-0.73795265,0.34896678,0.57762265,0.38073972,-0.49140468,0.7832999,0.5571922,0.7979621,0.22976798,,0.10516464,1.3401154,0.44064948,0.9942803,0.01350047,-0.105945334,-0.059938893,-0.75049555,-0.65815175,-0.08839686,0.6607376,-0.74539375,,-0.093712494,0.2567945,-0.0843051,-0.9549703,0.21723509,0.20209058,0.065374814,-0.51032436,0.8574935,0.28940943,0.8320925,0.47314292,,-0.009727731,0.40547428,-0.40724218,0.6617628,-0.40204102,-0.63279784,0.7486853,0.39857614,0.5297238,0.039247405,-0.82431793,0.56476504,,1.2186858612169988,0.5329921320474788,0.20860287567000002,4.097341495687606,0.2843405560118816,-1.1146444810314495,-0.4135871754519951,,-0.8904774367953313,-0.5112758072051594,0.16440716441000003,-3.811534102718199,-1.058796236682398,1.3967395088614407,0.8751975063474683,,-0.06277949319423604,-0.05761550026989781,0.08432494304,-0.06639839657179906,,4.8626214e-05,5.3048134e-06,-8.940697e-06,0.9999999,-5.1107258e-05,-4.529953e-05,5.1099807e-05,1.0,-6.0498714e-06,4.529208e-05,6.0498714e-06,1.0,644,1.973,0,0,0.0,False,-0.2598184579051428,1.0496115477602863
2.0000668540014885,19:14:35.427914,19:14:25.543647,0,,0.12574637,-0.00058797,0.02690269,0.9768368,-0.1108519,-0.18303356,0.20184904,0.19337884,0.9601362,-0.07103814,-0.9748417,0.21127492,,0.041800365,-0.059547953,0.051609576,-0.737957,0.34895065,0.5776268,0.38074774,-0.49140656,0.7832948,0.55718094,0.79796803,0.2297748,,0.10516464,1.3401154,0.44064948,0.9942803,0.01350047,-0.105945334,-0.059938893,-0.75049555,-0.65815175,-0.08839686,0.6607376,-0.74539375,,-0.09370988,0.25689164,-0.08443756,-0.955333,0.21637952,0.20129283,0.065643616,-0.5087404,0.8584137,0.28814894,0.8332845,0.47181255,,-0.009729703,0.4054745,-0.40724355,0.6617678,-0.4020255,-0.6328024,0.7486802,0.39858195,0.5297267,0.039259974,-0.8243227,0.5647572,,1.2190179387305904,0.5333319322939446,0.20846158006,4.097131805744121,0.28297419101422716,-1.1159806641987022,-0.4135871754519952,,-0.8904928822610798,-0.5112835299380336,0.16440716441000003,-3.811534102718199,-1.058796236682398,1.3967395088614407,0.8751975063474683,,-0.06277949319423604,-0.05761550026989781,0.08432494304,-0.06639839657179906,,4.8626214e-05,5.3048134e-06,-8.940697e-06,0.9999999,-5.1107258e-05,-4.529953e-05,5.1099807e-05,1.0,-6.0498714e-06,4.529208e-05,6.0498714e-06,1.0,669,2.049,0,0,0.0,False,-0.26005676877922745,1.0490321853509326
2.0302573619992472,19:14:35.491717,19:14:25.688089,0,,0.12566759,-0.0006137043,0.02705723,0.97687644,-0.11071623,-0.1829038,0.2017346,0.1939556,0.96004397,-0.07081729,-0.9747426,0.211806,,0.04179801,-0.059552692,0.051609635,-0.73801535,0.34904242,0.5774967,0.38069636,-0.49124223,0.78342295,0.5571387,0.79802907,0.22966531,,0.10516464,1.3401154,0.44064948,0.9942803,0.01350047,-0.105945334,-0.059938893,-0.75049555,-0.65815175,-0.08839686,0.6607376,-0.74539375,,-0.093648195,0.25697944,-0.08457625,-0.95539945,0.21625909,0.20110658,0.06570613,-0.50825244,0.85869795,0.28791416,0.8336135,0.47137454,,-0.009727153,0.40547246,-0.40724772,0.6618324,-0.40213022,-0.6326683,0.7486243,0.39870727,0.52971137,0.039236527,-0.824211,0.56492186,,1.2195816982304089,0.5335018324171775,0.20831769187000002,4.096922115800637,0.28242764501516543,-1.1161067437649006,-0.4134238313858607,,-0.8904851595282055,-0.5113066981366563,0.16440586812000002,-3.811743792661684,-1.058796236682398,1.3967395088614407,0.8745441300829311,,-0.06277949319423604,-0.05761550026989781,0.08432494304,-0.06639839657179906,,4.8626214e-05,5.3048134e-06,-8.940697e-06,0.9999999,-5.1107258e-05,-4.529953e-05,5.1099807e-05,1.0,-6.0498714e-06,4.529208e-05,6.0498714e-06,1.0,677,2.074,0,0,0.0,False,-0.2598184579051428,1.0494667071579475
2.0940524449688382,19:14:35.521715,19:14:25.688089,0,,0.12565283,-0.00064080954,0.027081728,0.9768929,-0.110671505,-0.18284328,0.20166901,0.19400296,0.9600482,-0.07077791,-0.97473824,0.21183914,,0.041797288,-0.059555165,0.051609218,-0.73801035,0.34904417,0.57750213,0.38070893,-0.49123168,0.7834234,0.5571368,0.7980348,0.22964993,,0.10516464,1.3401154,0.44064948,0.9942803,0.01350047,-0.105945334,-0.059938893,-0.75049555,-0.65815175,-0.08839686,0.6607376,-0.74539375,,-0.09363714,0.25697643,-0.08461395,-0.9554225,0.2162162,0.20104326,0.06568356,-0.50821614,0.8587212,0.28784287,0.8336468,0.47135925,,-0.009726278,0.4054709,-0.40724963,0.66182697,-0.40213302,-0.6326722,0.7486285,0.39871728,0.5296979,0.03924833,-0.8242048,0.5649301,,1.2196280346276542,0.5334477732870581,0.20827880317000003,4.096922115800637,0.28229100851539995,-1.1161586833414852,-0.4134238313858609,,-0.8904774367953313,-0.5113221436024048,0.16440586812000002,-3.811743792661684,-1.058796236682398,1.3967395088614407,0.8745441300829311,,-0.06277949319423604,-0.05761550026989781,0.08432494304,-0.06639839657179906,,4.8626214e-05,5.3048134e-06,-8.940697e-06,0.9999999,-5.1107258e-05,-4.529953e-05,5.1099807e-05,1.0,-6.0498714e-06,4.529208e-05,6.0498714e-06,1.0,685,2.1,0,0,0.0,False,-0.25963972474957986,1.0492253061540504
2.1240264530060813,19:14:35.557036,19:14:25.688089,0,,0.12565534,-0.00067958236,0.02712214,0.9769929,-0.10985972,-0.18279843,0.20141764,0.19352996,0.96019644,-0.07010999,-0.9749241,0.2112051,,0.041798297,-0.059556223,0.051609755,-0.73801196,0.3490349,0.5775057,0.38071623,-0.4912308,0.78342044,0.5571297,0.79803944,0.229651,,0.10516464,1.3401154,0.44064948,0.9942803,0.01350047,-0.105945334,-0.059938893,-0.75049555,-0.65815175,-0.08839686,0.6607376,-0.74539375,,-0.09364532,0.25697488,-0.08466938,-0.9555997,0.21540794,0.2010687,0.06594338,-0.50872046,0.8584026,0.2871945,0.8335484,0.47192836,,-0.009727285,0.40547073,-0.40725082,0.6618289,-0.4021243,-0.63267577,0.7486263,0.39872277,0.52969694,0.03925823,-0.8242064,0.56492704,,1.2196048664290315,0.5334323278213096,0.20822047012000003,4.096712425857152,0.28160782601657275,-1.115601593823003,-0.4134238313858609,,-0.8904851595282055,-0.511329866335279,0.16440586812000002,-3.811743792661684,-1.058796236682398,1.3967395088614407,0.8745441300829311,,-0.06277949319423604,-0.05761550026989781,0.08432494304,-0.06639839657179906,,4.8626214e-05,5.3048134e-06,-8.940697e-06,0.9999999,-5.1107258e-05,-4.529953e-05,5.1099807e-05,1.0,-6.0498714e-06,4.529208e-05,6.0498714e-06,1.0,697,2.136,0,0,0.0,False,-0.26017592421626956,1.0492253061540504
2.159384236962069,19:14:35.582228,19:14:25.816738,0,,0.12565356,-0.0007163435,0.027173787,0.9770431,-0.10979918,-0.18256629,0.2011746,0.19350275,0.9602529,-0.07010794,-0.97493625,0.2111493,,0.04179921,-0.05955612,0.05161029,-0.7380146,0.34912243,0.57744926,0.38071695,-0.49110565,0.7834985,0.5571256,0.7980782,0.22952643,,0.10516464,1.3401154,0.44064948,0.9942803,0.01350047,-0.105945334,-0.059938893,-0.75049555,-0.65815175,-0.08839686,0.6607376,-0.74539375,,-0.093650304,0.2569825,-0.084732145,-0.9556601,0.21534783,0.2008459,0.0657633,-0.508751,0.8583983,0.28703475,0.83354527,0.47203103,,-0.009728249,0.40547115,-0.407251,0.661832,-0.40222088,-0.6326111,0.74862343,0.3988096,0.5296356,0.039260898,-0.82411724,0.5650569,,1.2195971436961572,0.5334554960199323,0.20815954449000001,4.096922115800637,0.28147118951680733,-1.1154901759193065,-0.4134238313858609,,-0.8904928822610798,-0.511329866335279,0.16440586812000002,-3.811743792661684,-1.058796236682398,1.3965761513811596,0.8748708182151997,,-0.06277949319423604,-0.05761550026989781,0.08432494304,-0.06639839657179906,,4.8626214e-05,5.3048134e-06,-8.940697e-06,0.9999999,-5.1107258e-05,-4.529953e-05,5.1099807e-05,1.0,-6.0498714e-06,4.529208e-05,6.0498714e-06,1.0,705,2.161,0,0,0.0,False,-0.2599376133421849,1.0491287457524916
2.184569548990112,19:14:35.618721,19:14:25.816738,0,,0.12562656,-0.0007869005,0.027299926,0.97706056,-0.11040034,-0.18210971,0.20094809,0.19480252,0.96003747,-0.0705131,-0.9746095,0.21251851,,0.041797377,-0.059555776,0.05161041,-0.73797864,0.3491642,0.57747006,0.3806316,-0.49124128,0.783455,0.5572317,0.7979764,0.22962278,,0.10516464,1.3401154,0.44064948,0.9942803,0.01350047,-0.105945334,-0.059938893,-0.75049555,-0.65815175,-0.08839686,0.6607376,-0.74539375,,-0.09363914,0.25701618,-0.08487483,-0.9556463,0.2159675,0.20024529,0.06532273,-0.5075486,0.8591434,0.2871813,0.83411777,0.47092932,,-0.009726462,0.40547165,-0.4072508,0.6617897,-0.4022462,-0.63263917,0.7486674,0.39864954,0.52969396,0.039133947,-0.82418233,0.5649708,,1.2197207074221448,0.5335327233486745,0.20801565630000002,4.097341495687606,0.28160782601657275,-1.1166634174448302,-0.4132604873197263,,-0.8904851595282055,-0.511329866335279,0.16440586812000002,-3.811743792661684,-1.0589328731821634,1.3966875692848564,0.8748708182151997,,-0.06277949319423604,-0.05761550026989781,0.08432494304,-0.06639839657179906,,4.8626214e-05,5.3048134e-06,-8.940697e-06,0.9999999,-5.1107258e-05,-4.529953e-05,5.1099807e-05,1.0,-6.0498714e-06,4.529208e-05,6.0498714e-06,1.0,738,2.262,0,0,0.0,False,-0.26005676877922745,1.0493218665556094
2.2210297220153734,19:14:35.710012,19:14:25.816738,0,,0.1254139,-0.0010340214,0.027807578,0.97708786,-0.113501444,-0.18004529,0.20007576,0.2013283,0.95887256,-0.072585285,-0.97292566,0.21942425,,0.04179848,-0.059558026,0.051611066,-0.73797905,0.34915236,0.5774767,0.38064554,-0.4912365,0.7834512,0.55722153,0.7979845,0.22961903,,0.10516464,1.3401154,0.44064948,0.9942803,0.01350047,-0.105945334,-0.059938893,-0.75049555,-0.65815175,-0.08839686,0.6607376,-0.74539375,,-0.09348923,0.2571828,-0.085434966,-0.955502,0.21915671,0.19744962,0.06328319,-0.50147945,0.862852,0.28811675,0.83695203,0.46529567,,-0.009727514,0.40547094,-0.40725303,0.6617905,-0.40223548,-0.6326452,0.7486658,0.39866018,0.5296882,0.039151084,-0.82418245,0.5649695,,1.2208405036889074,0.5337103462047816,0.20745047386,4.0990190152354815,0.28201773551586906,-1.1225518254854778,-0.4135871754519952,,-0.8904928822610798,-0.5113453118010275,0.16440586812000002,-3.811743792661684,-1.0589328731821634,1.3966875692848564,0.8748708182151997,,-0.06277949319423604,-0.05761550026989781,0.08432494304,-0.06639839657179906,,4.8626214e-05,5.3048134e-06,-8.940697e-06,0.9999999,-5.1107258e-05,-4.529953e-05,5.1099807e-05,1.0,-6.0498714e-06,4.529208e-05,6.0498714e-06,1.0,746,2.287,0,0,0.0,False,-0.260652545964438,1.0496115477602863
2.3123249969794415,19:14:35.733392,19:14:25.816738,0,,0.12531273,-0.0011074841,0.028002799,0.97704434,-0.114002325,-0.17996489,0.20022419,0.2028819,0.95851403,-0.07276125,-0.9725443,0.22105059,,0.041798577,-0.05955916,0.051611066,-0.7379779,0.3491499,0.5774797,0.38065216,-0.4912327,0.78345037,0.5572186,0.797988,0.22961429,,0.10516464,1.3401154,0.44064948,0.9942803,0.01350047,-0.105945334,-0.059938893,-0.75049555,-0.65815175,-0.08839686,0.6607376,-0.74539375,,-0.0934114,0.2572635,-0.085637875,-0.95543474,0.21968193,0.19719101,0.06327612,-0.5000564,0.86367804,0.28834108,0.8376655,0.4638706,,-0.009727558,0.40547037,-0.40725404,0.66178936,-0.4022335,-0.6326477,0.74866647,0.39866537,0.52968335,0.039158322,-0.8241809,0.5649712,,1.221442876853097,0.5338030189992723,0.20724436375000002,4.098809325291997,0.28188109901610364,-1.123828946164171,-0.41440389578266634,,-0.8904928822610798,-0.5113530345339017,0.16440586812000002,-3.811743792661684,-1.0589328731821634,1.3966875692848564,0.8748708182151997,,-0.06277949319423604,-0.05761550026989781,0.08432494304,-0.06639839657179906,,4.8626214e-05,5.3048134e-06,-8.940697e-06,0.9999999,-5.1107258e-05,-4.529953e-05,5.1099807e-05,1.0,-6.0498714e-06,4.529208e-05,6.0498714e-06,1.0,754,2.313,0,0,0.0,False,-0.26041423509035333,1.0491770259532711
2.3357189769740216,19:14:35.761727,19:14:25.816738,0,,0.12524077,-0.001156196,0.028128818,0.97689486,-0.11486204,-0.18022926,0.20090812,0.20597285,0.9577114,-0.072882414,-0.9717932,0.22429055,,0.041797664,-0.059559293,0.05161053,-0.7379751,0.3491095,0.57750756,0.38065144,-0.49129373,0.78341246,0.55722266,0.79796803,0.22967365,,0.10516464,1.3401154,0.44064948,0.9942803,0.01350047,-0.105945334,-0.059938893,-0.75049555,-0.65815175,-0.08839686,0.6607376,-0.74539375,,-0.0933546,0.25731492,-0.085770406,-0.9552451,0.22059168,0.19709414,0.06370556,-0.49723527,0.8652738,0.28887436,0.83910453,0.46092862,,-0.009726595,0.40546995,-0.4072539,0.66178626,-0.4021886,-0.63267946,0.7486693,0.39862177,0.5297121,0.039155655,-0.8242239,0.5649087,,1.2218521816954309,0.5338570781293919,0.20711084588000003,4.0981802554615445,0.2821543720156345,-1.1269922166166242,-0.4140772076503978,,-0.8904851595282055,-0.5113530345339017,0.16440586812000002,-3.811743792661684,-1.0589328731821634,1.396769248024997,0.8747074741490655,,-0.06277949319423604,-0.05761550026989781,0.08432494304,-0.06639839657179906,,4.8626214e-05,5.3048134e-06,-8.940697e-06,0.9999999,-5.1107258e-05,-4.529953e-05,5.1099807e-05,1.0,-6.0498714e-06,4.529208e-05,6.0498714e-06,1.0,762,2.337,0,0,0.0,False,-0.26041423509035333,1.0496598279610654
2.3640717300004326,19:14:35.792610,19:14:25.995831,0,,0.12513386,-0.0011963546,0.028288156,0.97686875,-0.115129046,-0.18020074,0.20098768,0.20659915,0.9575598,-0.07301371,-0.97162855,0.22495976,,0.04179757,-0.05955813,0.05161053,-0.7379763,0.34911197,0.57750463,0.38064486,-0.4912976,0.7834133,0.5572257,0.7979646,0.22967845,,0.10516464,1.3401154,0.44064948,0.9942803,0.01350047,-0.105945334,-0.059938893,-0.75049555,-0.65815175,-0.08839686,0.6607376,-0.74539375,,-0.09326604,0.2573963,-0.0859252,-0.9552025,0.22086704,0.19699208,0.06367701,-0.49665192,0.86561084,0.2890214,0.8393775,0.460339,,-0.00972655,0.40547052,-0.40725285,0.6617874,-0.40219057,-0.632677,0.74866873,0.3986166,0.5297169,0.03914842,-0.8242254,0.56490695,,1.2225626731198596,0.5339420281910083,0.20694362447000003,4.097970565518059,0.28188109901610364,-1.1272594532500746,-0.4145672398488006,,-0.8904851595282055,-0.5113453118010275,0.16440586812000002,-3.811743792661684,-1.0589328731821634,1.396769248024997,0.8747074741490655,,-0.06277949319423604,-0.05761550026989781,0.08432494304,-0.06639839657179906,,4.8626214e-05,5.3048134e-06,-8.940697e-06,0.9999999,-5.1107258e-05,-4.529953e-05,5.1099807e-05,1.0,-6.0498714e-06,4.529208e-05,6.0498714e-06,1.0,774,2.374,0,0,0.0,False,-0.26053339052739544,1.0496115477602863
2.394922972016502,19:14:35.824488,19:14:25.995831,0,,0.12496571,-0.0012485534,0.028476447,0.9762698,-0.11442389,-0.18385857,0.2044198,0.2066929,0.95681274,-0.07148002,-0.9716919,0.22517857,,0.041796654,-0.05955822,0.051610053,-0.7379735,0.3491188,0.57750404,0.38064414,-0.49129474,0.7834154,0.55722976,0.7979634,0.22967258,,0.10516464,1.3401154,0.44064948,0.9942803,0.01350047,-0.105945334,-0.059938893,-0.75049555,-0.65815175,-0.08839686,0.6607376,-0.74539375,,-0.09312004,0.25749055,-0.08611559,-0.95461625,0.22017641,0.20057453,0.0672671,-0.49665105,0.86533976,0.29014295,0.83955944,0.45930055,,-0.0097255865,0.40547013,-0.4072527,0.6617843,-0.40219733,-0.63267595,0.7486716,0.39861628,0.52971303,0.039145753,-0.82422227,0.5649117,,1.2235280147291374,0.533965196389631,0.20676084758000002,4.093776766648369,0.2821543720156345,-1.127727325277889,-0.4142405517165322,,-0.8904774367953313,-0.5113453118010275,0.16440586812000002,-3.811743792661684,-1.0589328731821634,1.396769248024997,0.8747074741490655,,-0.06277949319423604,-0.05761550026989781,0.08432494304,-0.06639839657179906,,4.8626214e-05,5.3048134e-06,-8.940697e-06,0.9999999,-5.1107258e-05,-4.529953e-05,5.1099807e-05,1.0,-6.0498714e-06,4.529208e-05,6.0498714e-06,1.0,799,2.451,0,0,0.0,False,-0.26017592421626956,1.049370146756389
2.426836206985172,19:14:35.898575,19:14:26.111265,0,,0.12467696,-0.0012212694,0.028618515,0.97570014,-0.11443527,-0.18685102,0.20735922,0.20674968,0.9561677,-0.070787966,-0.9716785,0.22545493,,0.041795477,-0.059560396,0.051609278,-0.7381055,0.3492968,0.5772276,0.3805038,-0.49099755,0.7836698,0.5571509,0.7980683,0.22949934,,0.10516464,1.3401154,0.44064948,0.9942803,0.01350047,-0.105945334,-0.059938893,-0.75049555,-0.65815175,-0.08839686,0.6607376,-0.74539375,,-0.092846125,0.25761685,-0.0862311,-0.9539953,0.22018878,0.20349407,0.06992588,-0.4965996,0.8651585,0.29155326,0.8395866,0.4583568,,-0.009724246,0.40546855,-0.40725422,0.66192967,-0.4023983,-0.632396,0.7485474,0.3988369,0.5297226,0.039063413,-0.8240174,0.5652162,,1.2252810750915866,0.5338107417321466,0.20664418148000002,4.090212037609132,0.2821543720156345,-1.1278090040180295,-0.4140772076503979,,-0.8904851595282055,-0.5113453118010275,0.16440586812000002,-3.8121631725486527,-1.0589328731821634,1.3967692480249967,0.8753608504136026,,-0.06277949319423604,-0.05761550026989781,0.08432494304,-0.06639839657179906,,4.8626214e-05,5.3048134e-06,-8.940697e-06,0.9999999,-5.1107258e-05,-4.529953e-05,5.1099807e-05,1.0,-6.0498714e-06,4.529208e-05,6.0498714e-06,1.0,807,2.475,0,0,0.0,False,-0.26112916771260597,1.049708108161845
2.500923662970308,19:14:35.928075,19:14:26.111265,0,,0.12457718,-0.0011906028,0.028639615,0.97552013,-0.114565454,-0.1877092,0.2082425,0.20692387,0.9559381,-0.07067603,-0.97162604,0.22571576,,0.041795574,-0.059561603,0.051609337,-0.73810434,0.34929436,0.57723063,0.38051042,-0.49099374,0.783669,0.55714786,0.7980718,0.2294946,,0.10516464,1.3401154,0.44064948,0.9942803,0.01350047,-0.105945334,-0.059938893,-0.75049555,-0.65815175,-0.08839686,0.6607376,-0.74539375,,-0.09274778,0.25765735,-0.08623619,-0.9537903,0.22032028,0.20431119,0.07066056,-0.4964309,0.86519563,0.29204655,0.83965194,0.45792302,,-0.00972429,0.405468,-0.40725526,0.66192853,-0.40239632,-0.6323985,0.74854803,0.39884207,0.52971774,0.039070647,-0.8240159,0.5652179,,1.2258988937215245,0.5337412371362785,0.20663899632000002,4.08916358789171,0.2821543720156345,-1.1279723614983108,-0.4147305839149351,,-0.8904851595282055,-0.5113530345339017,0.16440586812000002,-3.8121631725486527,-1.0589328731821634,1.3967692480249967,0.8753608504136026,,-0.06277949319423604,-0.05761550026989781,0.08432494304,-0.06639839657179906,,4.8626214e-05,5.3048134e-06,-8.940697e-06,0.9999999,-5.1107258e-05,-4.529953e-05,5.1099807e-05,1.0,-6.0498714e-06,4.529208e-05,6.0498714e-06,1.0,815,2.501,0,0,0.0,False,-0.2607121236829584,1.049804668563404
2.5304221879923716,19:14:35.954892,19:14:26.111265,0,,0.12447468,-0.0011618137,0.028651237,0.97548014,-0.11522165,-0.18751639,0.20822851,0.20727229,0.9558656,-0.0712695,-0.9714742,0.22618234,,0.041719995,-0.059603922,0.05160725,-0.73806834,0.34930223,0.57727206,0.38058138,-0.49095154,0.783661,0.557147,0.79809433,0.22941789,,0.105184086,1.3401132,0.44064784,0.99428,0.013496168,-0.105949104,-0.059944592,-0.7504957,-0.65815115,-0.08839686,0.6607376,-0.74539375,,-0.09266468,0.2576896,-0.0862364,-0.9536899,0.22097306,0.20407495,0.07025671,-0.49604774,0.86544824,0.29247168,0.83970684,0.45755085,,-0.009666438,0.40545186,-0.4072923,0.66189283,-0.4024097,-0.63242733,0.74857646,0.3988832,0.5296465,0.039129734,-0.82398945,0.56525236,,1.2263854258926006,0.5337103462047816,0.20663899632000002,4.089373277835193,0.28229100851539995,-1.1281654581421479,-0.4148939279810693,,-0.8904928822610798,-0.5113530345339017,0.16440716441000003,-3.8121631725486527,-1.0589328731821634,1.3966875692848562,0.8751975063474682,,-0.06277949319423604,-0.05761550026989781,0.08432494304,-0.06639839657179906,,6.825477e-05,6.2584877e-06,-8.225441e-06,1.0,-5.537644e-05,-4.9084425e-05,5.5372715e-05,1.0,-6.556511e-06,4.9084425e-05,6.5863132e-06,1.0,827,2.538,0,0,0.0,False,-0.2602355019347904,1.049708108161845
2.5571966969873756,19:14:35.991082,19:14:26.111265,0,,0.124412276,-0.0011401474,0.028665245,0.9751502,-0.11417038,-0.18986031,0.21023954,0.2066341,0.95556355,-0.06986545,-0.97173417,0.2255024,,0.0417272,-0.05960215,0.051609814,-0.73802036,0.3491691,0.57741404,0.38065612,-0.49111864,0.7835199,0.5571597,0.7980497,0.22954214,,0.105184086,1.3401132,0.44064784,0.99428,0.013496168,-0.105949104,-0.059944592,-0.7504957,-0.65815115,-0.08839686,0.6607376,-0.74539375,,-0.09260315,0.2577173,-0.08623852,-0.9534181,0.21992722,0.20646049,0.07269949,-0.49673274,0.8648534,0.2927605,0.8395764,0.4576054,,-0.009673938,0.40545422,-0.40729204,0.6618403,-0.40226528,-0.63257414,0.74861985,0.398775,0.52966666,0.039188247,-0.8241123,0.56506914,,1.2268024534678088,0.5336949007390331,0.20663640374000003,4.086647308569895,0.2821543720156345,-1.1278090040180295,-0.414730583914935,,-0.8905392186583251,-0.5113530345339017,0.1644084607,-3.8119534826051686,-1.0589328731821634,1.3966875692848562,0.8751975063474682,,-0.06277949319423604,-0.05761550026989781,0.08432494304,-0.06639839657179906,,6.825477e-05,6.2584877e-06,-8.225441e-06,1.0,-5.537644e-05,-4.9084425e-05,5.5372715e-05,1.0,-6.556511e-06,4.9084425e-05,6.5863132e-06,1.0,835,2.562,0,0,0.0,False,-0.26041423509035333,1.049370146756389
2.593378309975378,19:14:36.011703,19:14:26.111265,0,,0.12436691,-0.0011251271,0.028677016,0.97500116,-0.11536672,-0.18990257,0.21060991,0.20741126,0.9553137,-0.07082349,-0.97142726,0.22652355,,0.041732356,-0.059600435,0.051611304,-0.7380352,0.3491377,0.577414,0.38065302,-0.4911368,0.7835101,0.55714214,0.7980523,0.2295759,,0.105184086,1.3401132,0.44064784,0.99428,0.013496168,-0.105949104,-0.059944592,-0.7504957,-0.65815115,-0.08839686,0.6607376,-0.74539375,,-0.09255859,0.257738,-0.086241685,-0.95315796,0.22111842,0.20638926,0.07233425,-0.49590817,0.86535704,0.29369652,0.839751,0.45668438,,-0.009679278,0.40545577,-0.40729126,0.661857,-0.40223345,-0.63257694,0.7486048,0.3987715,0.5296906,0.039194353,-0.8241296,0.56504357,,1.2270495809197839,0.533687178006159,0.20663510745000002,4.08685699851338,0.28297419101422716,-1.1286408689204894,-0.4140772076503979,,-0.8905778323226963,-0.5113453118010275,0.16440975699000002,-3.8119534826051686,-1.0589328731821634,1.3966875692848562,0.8751975063474682,,-0.06277949319423604,-0.05761550026989781,0.08432494304,-0.06639839657179906,,6.825477e-05,6.2584877e-06,-8.225441e-06,1.0,-5.537644e-05,-4.9084425e-05,5.5372715e-05,1.0,-6.556511e-06,4.9084425e-05,6.5863132e-06,1.0,843,2.587,0,0,0.0,False,-0.260652545964438,1.0490321853509326
2.6140360640129074,19:14:36.041349,19:14:26.265901,0,,0.124329574,-0.0011050105,0.02869369,0.9749556,-0.11504733,-0.19032991,0.21095166,0.20735621,0.95525014,-0.0704329,-0.9714769,0.22643241,,0.041736007,-0.059600033,0.05161333,-0.7380462,0.34906337,0.5774449,0.38065588,-0.49121222,0.78346145,0.5571256,0.7980385,0.2296643,,0.105184086,1.3401132,0.44064784,0.99428,0.013496168,-0.105949104,-0.059944592,-0.7504957,-0.65815115,-0.08839686,0.6607376,-0.74539375,,-0.09252231,0.25776544,-0.08624423,-0.95313746,0.2208036,0.20682052,0.07285121,-0.49599394,0.86526453,0.29363525,0.8397832,0.45666462,,-0.009683133,0.40545738,-0.4072919,0.6618694,-0.40215474,-0.632614,0.7485933,0.39872953,0.52973855,0.039205026,-0.8241883,0.5649572,,1.227327599303256,0.5337103462047816,0.20663121858000003,4.086227928682926,0.2827009180146963,-1.128499711853237,-0.41424055171653207,,-0.8906087232541932,-0.5113453118010275,0.16440975699000002,-3.8119534826051686,-1.0589328731821634,1.396769248024997,0.8750341622813339,,-0.06277949319423604,-0.05761550026989781,0.08432494304,-0.06639839657179906,,6.825477e-05,6.2584877e-06,-8.225441e-06,1.0,-5.537644e-05,-4.9084425e-05,5.5372715e-05,1.0,-6.556511e-06,4.9084425e-05,6.5863132e-06,1.0,864,2.651,0,0,0.0,False,-0.26041423509035333,1.0492253061540504
2.643671975005418,19:14:36.099082,19:14:26.265901,0,,0.12433508,-0.0010982305,0.028744936,0.9757094,-0.10625161,-0.19157647,0.21018668,0.20756352,0.95537376,-0.061745718,-0.9724339,0.22485429,,0.041739695,-0.059597366,0.051615477,-0.737991,0.34895304,0.5775821,0.38072187,-0.49137458,0.78332746,0.5571537,0.79798675,0.229776,,0.105184086,1.3401132,0.44064784,0.99428,0.013496168,-0.105949104,-0.059944592,-0.7504957,-0.65815115,-0.08839686,0.6607376,-0.74539375,,-0.09253265,0.25780472,-0.08627669,-0.95479256,0.21216534,0.20822354,0.078101605,-0.49680635,0.86433995,0.28682977,0.84152794,0.45777658,,-0.009687133,0.40546015,-0.40729067,0.6618087,-0.40203252,-0.6327551,0.74864465,0.39861518,0.52975196,0.039248277,-0.8243032,0.5647865,,1.2277446268784642,0.5337489598691527,0.20657807069000003,4.081195370039298,0.2750492740278316,-1.1278961423159362,-0.4147305839149351,,-0.8906318914528158,-0.5113375890681532,0.16440975699000002,-3.811743792661684,-1.0589328731821634,1.396769248024997,0.8750341622813339,,-0.06277949319423604,-0.05761550026989781,0.08432494304,-0.06639839657179906,,6.825477e-05,6.2584877e-06,-8.225441e-06,1.0,-5.537644e-05,-4.9084425e-05,5.5372715e-05,1.0,-6.556511e-06,4.9084425e-05,6.5863132e-06,1.0,872,2.676,0,0,0.0,False,-0.26011634649774784,1.0491770259532711
2.7014294050168246,19:14:36.125418,19:14:26.265901,0,,0.12432566,-0.0011191517,0.028799132,0.97585166,-0.10392517,-0.19212714,0.21030751,0.209333,0.95496094,-0.05902593,-0.97230613,0.22613415,,0.04174061,-0.059597276,0.051615953,-0.73799366,0.34894627,0.5775827,0.38072252,-0.49137747,0.78332543,0.5571495,0.79798794,0.2297818,,0.105184086,1.3401132,0.44064784,0.99428,0.013496168,-0.105949104,-0.059944592,-0.7504957,-0.65815115,-0.08839686,0.6607376,-0.74539375,,-0.09252962,0.25782606,-0.08633145,-0.95520234,0.20991474,0.2086248,0.08001514,-0.4954977,0.86491597,0.28493172,0.8428629,0.4565042,,-0.009688097,0.40546054,-0.40729082,0.6618118,-0.40202576,-0.6327562,0.7486417,0.3986155,0.52975583,0.039250944,-0.82430637,0.5647817,,1.2279222497345712,0.5337798508006497,0.20651714506000002,4.079308160547937,0.2728630900315846,-1.129543962942697,-0.4148939279810693,,-0.89063961418569,-0.5113375890681532,0.16440975699000002,-3.811743792661684,-1.0589328731821634,1.396769248024997,0.8750341622813339,,-0.06277949319423604,-0.05761550026989781,0.08432494304,-0.06639839657179906,,6.825477e-05,6.2584877e-06,-8.225441e-06,1.0,-5.537644e-05,-4.9084425e-05,5.5372715e-05,1.0,-6.556511e-06,4.9084425e-05,6.5863132e-06,1.0,880,2.702,0,0,0.0,False,-0.26053339052739544,1.0495632675595068
2.7277689930051565,19:14:36.155338,19:14:26.265901,0,,0.12431705,-0.0011751801,0.028966337,0.9760877,-0.094873965,-0.19557999,0.21173,0.21120596,0.954234,-0.049224302,-0.97282624,0.22624317,,0.041739695,-0.059597366,0.051615477,-0.737991,0.34895304,0.5775821,0.38072187,-0.49137458,0.78332746,0.5571537,0.79798675,0.229776,,0.105184086,1.3401132,0.44064784,0.99428,0.013496168,-0.105949104,-0.059944592,-0.7504957,-0.65815115,-0.08839686,0.6607376,-0.74539375,,-0.09254024,0.25789744,-0.08649257,-0.95636225,0.20104903,0.21201535,0.08765079,-0.49479455,0.8645783,0.27872667,0.8454334,0.45558074,,-0.009687133,0.40546015,-0.40729067,0.6618087,-0.40203252,-0.6327551,0.74864465,0.39861518,0.52975196,0.039248277,-0.8243032,0.5647865,,1.2284165046385216,0.5339574736567568,0.20633566446,4.071759322582494,0.26575799204378164,-1.1310196398229935,-0.4140772076503978,,-0.8906318914528158,-0.5113375890681532,0.16440975699000002,-3.811743792661684,-1.0589328731821634,1.396769248024997,0.8750341622813339,,-0.06277949319423604,-0.05761550026989781,0.08432494304,-0.06639839657179906,,6.825477e-05,6.2584877e-06,-8.225441e-06,1.0,-5.537644e-05,-4.9084425e-05,5.5372715e-05,1.0,-6.556511e-06,4.9084425e-05,6.5863132e-06,1.0,892,2.739,0,0,0.0,False,-0.26148663402373185,1.0492253061540504
2.7576808229787275,19:14:36.194662,19:14:26.412899,0,,0.124306425,-0.0012193769,0.029179767,0.9769022,-0.0884497,-0.19452101,0.20952931,0.2178145,0.9532336,-0.04194376,-0.97197396,0.23131624,,0.04174061,-0.059597276,0.051615953,-0.73799366,0.34899342,0.5775542,0.38072252,-0.49131352,0.7833655,0.5571495,0.79800665,0.2297166,,0.105184086,1.3401132,0.44064784,0.99428,0.013496168,-0.105949104,-0.059944592,-0.7504957,-0.65815115,-0.08839686,0.6607376,-0.74539375,,-0.092553005,0.25800872,-0.08667986,-0.957997,0.19485685,0.21041033,0.0908917,-0.4895723,0.8672126,0.2719934,0.84991163,0.4512979,,-0.009688097,0.40546054,-0.40729082,0.6618118,-0.40207744,-0.63272333,0.7486417,0.39865878,0.5297232,0.039250944,-0.82426023,0.5648491,,1.2289879868712144,0.5342509375059774,0.20612566548000003,4.068823663373711,0.25837962105644785,-1.1364380966430652,-0.4148939279810693,,-0.89063961418569,-0.5113375890681532,0.16440975699000002,-3.811743792661684,-1.0589328731821634,1.3966875692848564,0.8748708182151997,,-0.06277949319423604,-0.05761550026989781,0.08432494304,-0.06639839657179906,,6.825477e-05,6.2584877e-06,-8.225441e-06,1.0,-5.537644e-05,-4.9084425e-05,5.5372715e-05,1.0,-6.556511e-06,4.9084425e-05,6.5863132e-06,1.0,900,2.763,0,0,0.0,False,-0.26041423509035333,1.0488390645478147
2.796994588978123,19:14:36.214174,19:14:26.412899,0,,0.1242945,-0.0012305975,0.029341549,0.9771285,-0.08292493,-0.19581407,0.2096379,0.22122583,0.9524238,-0.03566055,-0.97169054,0.23355016,,0.04174152,-0.059597142,0.05161655,-0.73799646,0.34893948,0.5775833,0.38072327,-0.4913803,0.7833232,0.5571454,0.79798913,0.22978762,,0.105184086,1.3401132,0.44064784,0.99428,0.013496168,-0.105949104,-0.059944592,-0.7504957,-0.65815115,-0.08839686,0.6607376,-0.74539375,,-0.092557885,0.2581097,-0.086807236,-0.9588491,0.1894808,0.21143682,0.09519001,-0.4870626,0.86816406,0.26748338,0.852565,0.44898283,,-0.00968906,0.40546095,-0.40729097,0.6618149,-0.402019,-0.63275725,0.74863887,0.39861584,0.52975965,0.03925361,-0.82430947,0.56477696,,1.2294899645080388,0.5345675695538206,0.20598177729000003,4.0646298645040195,0.25332407056512657,-1.139176648378105,-0.4135871754519952,,-0.8906473369185642,-0.5113375890681532,0.16440975699000002,-3.811743792661684,-1.0589328731821634,1.396769248024997,0.8747074741490655,,-0.06277949319423604,-0.05761550026989781,0.08432494304,-0.06639839657179906,,6.825477e-05,6.2584877e-06,-8.225441e-06,1.0,-5.537644e-05,-4.9084425e-05,5.5372715e-05,1.0,-6.556511e-06,4.9084425e-05,6.5863132e-06,1.0,929,2.852,0,0,0.0,False,-0.2604738128088746,1.0493218665556094
2.8165176049806178,19:14:36.296808,19:14:26.412899,0,,0.1240278,-0.0011734962,0.030453593,0.97697836,-0.0713663,-0.20104711,0.21249458,0.24181253,0.9467697,-0.018951744,-0.9676949,0.25141048,,0.04173975,-0.059600152,0.05161667,-0.7380255,0.3490619,0.5774722,0.38058138,-0.49136117,0.78340423,0.55720395,0.7979474,0.22979066,,0.105184086,1.3401132,0.44064784,0.99428,0.013496168,-0.105949104,-0.059944592,-0.7504957,-0.65815115,-0.08839686,0.6607376,-0.74539375,,-0.09240218,0.25890964,-0.0876115,-0.96025896,0.1784599,0.21460383,0.10854577,-0.46958312,0.87619036,0.25713918,0.86466396,0.43155032,,-0.009687173,0.40545976,-0.40729368,0.6618446,-0.40213752,-0.63265085,0.74862057,0.39857656,0.529815,0.03910132,-0.82427067,0.5648442,,1.2331891535547923,0.5371932987310569,0.20511455928000003,4.050790328234042,0.24102678558623697,-1.1564297362523748,-0.4122804229229209,,-0.8906473369185642,-0.5113530345339017,0.16440975699000002,-3.8119534826051686,-1.059069509681929,1.3968806659286932,0.8747074741490655,,-0.06277949319423604,-0.05761550026989781,0.08432494304,-0.06639839657179906,,6.825477e-05,6.2584877e-06,-8.225441e-06,1.0,-5.537644e-05,-4.9084425e-05,5.5372715e-05,1.0,-6.556511e-06,4.9084425e-05,6.5863132e-06,1.0,937,2.877,0,0,0.0,False,-0.25963972474957986,1.0494667071579475
2.899140677007381,19:14:36.327890,19:14:26.412899,0,,0.12397903,-0.0010900646,0.030835092,0.97741854,-0.0664379,-0.2005959,0.21094626,0.25095353,0.94473493,-0.012425974,-0.96571636,0.2593014,,0.04173729,-0.05960364,0.051613748,-0.7382192,0.34929204,0.5770853,0.38036978,-0.49097508,0.7837489,0.5570917,0.79808426,0.22958714,,0.105184086,1.3401132,0.44064784,0.99428,0.013496168,-0.105949104,-0.059944592,-0.7504957,-0.65815115,-0.08839686,0.6607376,-0.74539375,,-0.09238853,0.25922972,-0.0878401,-0.96141815,0.17374851,0.2132759,0.11177485,-0.46167687,0.87997776,0.25135937,0.8698655,0.4244438,,-0.009684282,0.40545577,-0.40729523,0.66205794,-0.40239748,-0.63226223,0.7484386,0.3988638,0.52985597,0.03897381,-0.8240048,0.56524074,,1.2344788499447878,0.5383362631964421,0.20485789386000003,4.047644979081774,0.23474150659702667,-1.1636380024435642,-0.4127704551213237,,-0.8906473369185642,-0.5113530345339017,0.16441105328000002,-3.8125825524356216,-1.059069509681929,1.3969623446688337,0.8748708182151996,,-0.06277949319423604,-0.05761550026989781,0.08432494304,-0.06639839657179906,,6.825477e-05,6.2584877e-06,-8.225441e-06,1.0,-5.537644e-05,-4.9084425e-05,5.5372715e-05,1.0,-6.556511e-06,4.9084425e-05,6.5863132e-06,1.0,945,2.902,0,0,0.0,False,-0.2607717014014801,1.0494667071579475
