AlexandreBanks6/ExpertPlaybackApp/resources/Motions/P_04/PC1/Data_PC1_10.csv
Task Time,PC1 Time,PC2 Time,Gaze Calib,s_T_psm1,Tx,Ty,Tz,R00,R01,R02,R10,R11,R12,R20,R21,R22,s_T_psm3,Tx,Ty,Tz,R00,R01,R02,R10,R11,R12,R20,R21,R22,cart_T_ecm,Tx,Ty,Tz,R00,R01,R02,R10,R11,R12,R20,R21,R22,ecm_T_psm1,Tx,Ty,Tz,R00,R01,R02,R10,R11,R12,R20,R21,R22,ecm_T_psm3,Tx,Ty,Tz,R00,R01,R02,R10,R11,R12,R20,R21,R22,psm1_joints,q1,q2,q3,q4,q5,q6,jaw,psm3_joints,q1,q2,q3,q4,q5,q6,jaw,ecm_joints,q1,q2,q3,q4,ecmi_T_ecm,Tx,Ty,Tz,R00,R01,R02,R10,R11,R12,R20,R21,R22,Sample #,Task Duration (s),Collisions (binary),Collisions (increments),Cumulative Collision Time (s),Clutch Press,MTMR Angle,MTML Angle
""
lci_T_si,,,,,-0.06091442,0.024665864,0.22852185,0.99137235,-0.028050909,0.12803915,0.064119875,-0.7481916,-0.6603772,0.11432199,0.66288954,-0.7399378
rci_T_si,,,,,-0.070449755,0.028832521,0.23726377,0.99015677,-0.04510285,0.13249657,0.05696979,-0.73481125,-0.6758749,0.12784386,0.6767704,-0.72500885
ecm_T_lc,,,,,-4.4061628e-05,-0.00034663224,-0.01840835,-0.99912,0.030754527,0.028518902,-0.031987965,-0.99852574,-0.043852776,0.027128186,-0.04472645,0.9986309
ecm_T_rc,,,,,-0.0043358393,0.01870579,-0.007592615,-0.99555075,-0.052743673,-0.078081585,0.04863213,-0.9973746,0.053654674,-0.08070653,0.04961868,0.9955021
cart_T_ecmi,,,,,0.10511527,1.3401165,0.4406436,0.9942844,0.013551921,-0.10590021,-0.05987073,-0.75049466,-0.658159,-0.08839686,0.6607376,-0.74539375
ecmac_T_ecmrep_psm1,,,,,0.006928962,-0.26080152,-0.2999526,0.99741316,0.06053514,0.03876121,-0.0592658,0.9976933,-0.033100393,-0.040675536,0.030717555,0.99870014
ecmac_T_ecmrep_psm3,,,,,-0.019041438,-0.46633056,-0.5465172,0.99408877,-0.01321918,0.10776258,-0.016145537,0.96352404,0.2671344,-0.107363135,-0.2672952,0.95761496
""
0,19:21:27.821909,19:21:18.030395,0,,0.1285051,0.0053123087,0.03197317,0.86788106,0.45990622,-0.18779896,0.053439543,0.28941226,0.9557116,0.49388912,-0.83948,0.2265982,,0.018502295,-0.023040585,0.021092772,-0.69976944,0.6530945,0.28946546,0.055707186,-0.35408264,0.9335536,0.7121935,0.6693976,0.21139416,,0.10519666,1.3401124,0.44064605,0.99427795,0.013471408,-0.105970815,-0.059977397,-0.7504961,-0.65814763,-0.08839686,0.6607376,-0.74539375,,-0.09673932,0.26456398,-0.083904155,-0.91009724,-0.36051175,0.20433876,0.33996513,-0.3675926,0.8656208,-0.23695305,0.85726714,0.4571064,,0.01469259,0.40022895,-0.3605405,0.623704,-0.69820595,-0.35142815,0.7135318,0.32498094,0.620693,-0.3191641,-0.6378839,0.70088404,,1.2469201726051635,0.5575272543888901,0.20857306100000003,3.815518211644405,-0.26015589555339863,-1.1009277378616922,-0.4057466602775497,,-0.7069466900393858,-0.2637004367232701,0.18743834884000002,-4.028772884168166,-1.078335256148856,1.3931510501964348,0.8270110068378558,,-0.06277949319423604,-0.05761550026989781,0.08432494304,-0.06639839657179906,,8.095056e-05,5.7816505e-06,-7.748604e-06,0.99999994,-7.996708e-05,-7.087737e-05,7.9963356e-05,1.0,-9.506941e-06,7.0884824e-05,9.4771385e-06,1.0,36,0.108,0,0,0.0,False,-0.2621419889274632,1.001814148988622
0.12006457999814302,19:21:27.853667,19:21:18.030395,0,,0.12835452,0.0053041577,0.03217256,0.864984,0.4642938,-0.19035146,0.053807423,0.29133183,0.95510757,0.49890602,-0.8363952,0.22701487,,0.01850297,-0.02303917,0.021093369,-0.6997297,0.6530533,0.28965443,0.055792034,-0.35425603,0.93348277,0.7122258,0.66934603,0.21144831,,0.10519666,1.3401124,0.44064605,0.99427795,0.013471408,-0.105970815,-0.059977397,-0.7504961,-0.65814763,-0.08839686,0.6607376,-0.74539375,,-0.096610025,0.26469758,-0.084071286,-0.90770626,-0.36510205,0.20680858,0.34371758,-0.36425936,0.865548,-0.2406814,0.8567471,0.4561325,,0.0146918,0.40023005,-0.36053956,0.62365746,-0.69815195,-0.35161802,0.713598,0.32485375,0.62068343,-0.3191069,-0.63800776,0.7007973,,1.2480631370705488,0.5575504225875128,0.20841361733000002,3.810275963057292,-0.2646649000456581,-1.1006814541256138,-0.4067267246743551,,-0.7069466900393858,-0.2637004367232701,0.18743834884000002,-4.028563194224682,-1.078335256148856,1.3931510501964348,0.8270110068378558,,-0.06277949319423604,-0.05761550026989781,0.08432494304,-0.06639839657179906,,8.095056e-05,5.7816505e-06,-7.748604e-06,0.99999994,-7.996708e-05,-7.087737e-05,7.9963356e-05,1.0,-9.506941e-06,7.0884824e-05,9.4771385e-06,1.0,44,0.133,0,0,0.0,False,-0.2617249448978165,1.000945105374592
0.15180105197941884,19:21:27.878329,19:21:18.121245,0,,0.12818527,0.005270183,0.03237365,0.86438453,0.4645239,-0.19250107,0.055421367,0.29248878,0.9546616,0.4997676,-0.83586353,0.2270782,,0.018504191,-0.023038916,0.021093786,-0.6997344,0.65304774,0.28965554,0.055792242,-0.35425946,0.93348145,0.71222115,0.6693497,0.21145251,,0.10519666,1.3401124,0.44064605,0.99427795,0.013471408,-0.105970815,-0.059977397,-0.7504961,-0.65814763,-0.08839686,0.6607376,-0.74539375,,-0.09646345,0.26481393,-0.08425894,-0.90712875,-0.36533526,0.20892012,0.3455118,-0.3630551,0.8653396,-0.24028954,0.8571588,0.45556536,,0.0146905305,0.40023044,-0.36053956,0.6236626,-0.69814664,-0.35161948,0.7135947,0.32485572,0.62068623,-0.3191044,-0.6380126,0.7007941,,1.2491288742071918,0.5576199271833807,0.20822435899000002,3.8075499937919934,-0.2648015365454236,-1.1005700362219173,-0.4070534128066241,,-0.7069544127722601,-0.2637004367232701,0.18743834884000002,-4.028563194224682,-1.078335256148856,1.3931510501964348,0.8270110068378558,,-0.06277949319423604,-0.05761550026989781,0.08432494304,-0.06639839657179906,,8.095056e-05,5.7816505e-06,-7.748604e-06,0.99999994,-7.996708e-05,-7.087737e-05,7.9963356e-05,1.0,-9.506941e-06,7.0884824e-05,9.4771385e-06,1.0,55,0.166,0,0,0.0,False,-0.2611887454311268,1.0012347865792688
0.17647800699342042,19:21:27.910172,19:21:18.121245,0,,0.12806833,0.005238533,0.03257297,0.8636511,0.46583098,-0.1926344,0.05508712,0.2926375,0.9546354,0.50107086,-0.8350836,0.2270754,,0.018505413,-0.023038663,0.021094263,-0.6997391,0.65301853,0.28971002,0.05579251,-0.35433906,0.9334512,0.71221656,0.669336,0.21151134,,0.10519666,1.3401124,0.44064605,0.99427795,0.013471408,-0.105970815,-0.059977397,-0.7504961,-0.65814763,-0.08839686,0.6607376,-0.74539375,,-0.09636858,0.26492888,-0.08443835,-0.90654486,-0.36670667,0.20905185,0.34616822,-0.36246845,0.8653232,-0.24154508,0.85682136,0.4555361,,0.014689261,0.40023082,-0.36053956,0.6236677,-0.6981126,-0.35167798,0.71359134,0.32480702,0.62071556,-0.3191019,-0.63807464,0.7007387,,1.249993820289105,0.5577743818408653,0.20804676726000002,3.8060821641876013,-0.26644117454260885,-1.0997230938184037,-0.40574666027754946,,-0.7069621355051343,-0.2637004367232701,0.18743834884000002,-4.028563194224682,-1.078335256148856,1.3932327289365753,0.82717435090399,,-0.06277949319423604,-0.05761550026989781,0.08432494304,-0.06639839657179906,,8.095056e-05,5.7816505e-06,-7.748604e-06,0.99999994,-7.996708e-05,-7.087737e-05,7.9963356e-05,1.0,-9.506941e-06,7.0884824e-05,9.4771385e-06,1.0,63,0.19,0,0,0.0,False,-0.2616653671792948,1.0015727479847247
0.2082843129755929,19:21:27.935574,19:21:18.121245,0,,0.12803566,0.005225286,0.03271155,0.86055714,0.47067493,-0.19469477,0.05582224,0.29278618,0.95454705,0.50628537,-0.8323108,0.22568509,,0.018505413,-0.023038663,0.021094263,-0.6997391,0.65301853,0.28971002,0.05579251,-0.35433906,0.9334512,0.71221656,0.669336,0.21151134,,0.10519666,1.3401124,0.44064605,0.99427795,0.013471408,-0.105970815,-0.059977397,-0.7504961,-0.65814763,-0.08839686,0.6607376,-0.74539375,,-0.0963506,0.2650135,-0.08455222,-0.9039626,-0.3717942,0.21123596,0.35033217,-0.3606706,0.8643981,-0.24519159,0.8553863,0.45628422,,0.014689261,0.40023082,-0.36053956,0.6236677,-0.6981126,-0.35167798,0.71359134,0.32480702,0.62071556,-0.3191019,-0.63807464,0.7007387,,1.250410847864313,0.5578979455668528,0.20794047148000003,3.800839915600488,-0.2704036330358066,-1.0978805131935971,-0.40525662807914675,,-0.7069621355051343,-0.2637004367232701,0.18743834884000002,-4.028563194224682,-1.078335256148856,1.3932327289365753,0.82717435090399,,-0.06277949319423604,-0.05761550026989781,0.08432494304,-0.06639839657179906,,8.095056e-05,5.7816505e-06,-7.748604e-06,0.99999994,-7.996708e-05,-7.087737e-05,7.9963356e-05,1.0,-9.506941e-06,7.0884824e-05,9.4771385e-06,1.0,71,0.215,0,0,0.0,False,-0.2616653671792948,1.0010899459769305
0.2337271819706075,19:21:27.955371,19:21:18.121245,0,,0.12804502,0.005214557,0.03284,0.8576483,0.47633496,-0.19376281,0.05214806,0.29429203,0.9542917,0.5115855,-0.8285512,0.22755915,,0.018505413,-0.023038663,0.021094263,-0.6997391,0.6530422,0.28965664,0.05579251,-0.35426277,0.93348014,0.71221656,0.66935325,0.21145669,,0.10519666,1.3401124,0.44064605,0.99427795,0.013471408,-0.105970815,-0.059977397,-0.7504961,-0.65814763,-0.08839686,0.6607376,-0.74539375,,-0.09637328,0.26509163,-0.08465262,-0.90175945,-0.37773472,0.21011032,0.3512881,-0.3572358,0.8654359,-0.25184625,0.85422426,0.45483446,,0.014689261,0.40023082,-0.36053956,0.6236677,-0.69814134,-0.35162094,0.71359134,0.3248577,0.62068903,-0.3191019,-0.63801736,0.7007908,,1.2507352026450305,0.5580215092928404,0.20785491634000003,3.798952706109128,-0.2773720945238441,-1.0983241056156219,-0.4064000365420868,,-0.7069621355051343,-0.2637004367232701,0.18743834884000002,-4.028563194224682,-1.078335256148856,1.3931510501964348,0.8270110068378558,,-0.06277949319423604,-0.05761550026989781,0.08432494304,-0.06639839657179906,,8.095056e-05,5.7816505e-06,-7.748604e-06,0.99999994,-7.996708e-05,-7.087737e-05,7.9963356e-05,1.0,-9.506941e-06,7.0884824e-05,9.4771385e-06,1.0,82,0.248,0,0,0.0,False,-0.2617249448978165,1.0014279073823864
0.25352555100107566,19:21:27.987652,19:21:18.121245,0,,0.12811284,0.0051897317,0.033057556,0.8511849,0.4877125,-0.19395977,0.044645533,0.30092502,0.95260215,0.5229634,-0.8195002,0.23436856,,0.018504191,-0.023038916,0.021093786,-0.6997344,0.65304774,0.28965554,0.055792242,-0.35425946,0.93348145,0.71222115,0.6693497,0.21145251,,0.10519666,1.3401124,0.44064605,0.99427795,0.013471408,-0.105970815,-0.059977397,-0.7504961,-0.65814763,-0.08839686,0.6607376,-0.74539375,,-0.09646361,0.26521713,-0.08482183,-0.89679605,-0.3896737,0.20954998,0.35363293,-0.3466616,0.8687747,-0.26589572,0.85321754,0.4486862,,0.0146905305,0.40023044,-0.36053956,0.6236626,-0.69814664,-0.35161948,0.7135947,0.32485572,0.62068623,-0.3191044,-0.6380126,0.7007941,,1.2510750028914963,0.5582300230804444,0.20771880589000002,3.7947589072394377,-0.29199219999874626,-1.1030648529087794,-0.4083601653356981,,-0.7069544127722601,-0.2637004367232701,0.18743834884000002,-4.028563194224682,-1.078335256148856,1.3931510501964348,0.8270110068378558,,-0.06277949319423604,-0.05761550026989781,0.08432494304,-0.06639839657179906,,8.095056e-05,5.7816505e-06,-7.748604e-06,0.99999994,-7.996708e-05,-7.087737e-05,7.9963356e-05,1.0,-9.506941e-06,7.0884824e-05,9.4771385e-06,1.0,90,0.272,0,0,0.0,False,-0.2616653671792948,1.0016210281855042
0.28580238798167557,19:21:28.016813,19:21:18.121245,0,,0.12811041,0.0051296502,0.0332454,0.84953904,0.49066216,-0.19373628,0.041594684,0.3038074,0.951825,0.52588314,-0.8166711,0.23768726,,0.018504191,-0.023038916,0.021093786,-0.6997344,0.65304774,0.28965554,0.055792242,-0.35425946,0.93348145,0.71222115,0.6693497,0.21145251,,0.10519666,1.3401124,0.44064605,0.99427795,0.013471408,-0.105970815,-0.059977397,-0.7504961,-0.65814763,-0.08839686,0.6607376,-0.74539375,,-0.096482635,0.26529917,-0.085000195,-0.8955827,-0.39276823,0.2089613,0.35340226,-0.34273624,0.87042445,-0.27025646,0.85338444,0.4457538,,0.0146905305,0.40023044,-0.36053956,0.6236626,-0.69814664,-0.35161948,0.7135947,0.32485572,0.62068623,-0.3191044,-0.6380126,0.7007941,,1.2513684667407168,0.5584462596009228,0.20755028819000002,3.794339527352468,-0.29650120449100575,-1.1055139675973398,-0.40394987555007256,,-0.7069544127722601,-0.2637004367232701,0.18743834884000002,-4.028563194224682,-1.078335256148856,1.3931510501964348,0.8270110068378558,,-0.06277949319423604,-0.05761550026989781,0.08432494304,-0.06639839657179906,,8.095056e-05,5.7816505e-06,-7.748604e-06,0.99999994,-7.996708e-05,-7.087737e-05,7.9963356e-05,1.0,-9.506941e-06,7.0884824e-05,9.4771385e-06,1.0,98,0.296,0,0,0.0,False,-0.2612483231496481,1.0015244677839454
0.31496758200228214,19:21:28.047676,19:21:18.279415,0,,0.12810889,0.0050908923,0.033380836,0.8478871,0.49194503,-0.19767985,0.044925436,0.3048494,0.9513403,0.5282698,-0.81551015,0.236377,,0.018568255,-0.022994794,0.021078646,-0.6997514,0.6530915,0.28951594,0.055650294,-0.35420048,0.9335122,0.7122156,0.6693381,0.21150759,,0.10514474,1.3401126,0.440644,0.99428374,0.013543727,-0.105907395,-0.059881587,-0.7504948,-0.6581578,-0.08839686,0.6607376,-0.74539375,,-0.09645856,0.26535767,-0.08513651,-0.89404804,-0.39414588,0.2129017,0.3574678,-0.34126776,0.8693406,-0.26999053,0.85333776,0.44600424,,0.014671938,0.40023914,-0.3604958,0.6236556,-0.6981744,-0.3515767,0.7135677,0.32482618,0.6207327,-0.3191784,-0.6379972,0.7007744,,1.2516542078570632,0.558592991525533,0.20745306644000003,3.789516658652324,-0.29636456799124034,-1.1048902768397708,-0.406073348409818,,-0.7069621355051343,-0.2637004367232701,0.18743834884000002,-4.028563194224682,-1.078335256148856,1.3931510501964348,0.8270110068378558,,-0.06277949319423604,-0.05761550026989781,0.08432494304,-0.06639839657179906,,2.9500574e-05,3.5762787e-06,-8.34465e-07,0.99999994,-8.139759e-06,-7.2196126e-06,8.136034e-06,1.0,-9.834766e-07,7.212162e-06,9.536743e-07,1.0,113,0.343,0,0,0.0,False,-0.2608908568385213,1.0009933855753714
0.34582758496981114,19:21:28.085402,19:21:18.279415,0,,0.12810795,0.005089715,0.033512115,0.84236383,0.501554,-0.19714579,0.043516815,0.30132356,0.9525285,0.5371491,-0.8109548,0.23199806,,0.018569544,-0.02300001,0.021077871,-0.6997545,0.65306026,0.28957886,0.055678397,-0.3542653,0.9334859,0.71221036,0.6693343,0.21153748,,0.10514474,1.3401126,0.440644,0.99428374,0.013543727,-0.105907395,-0.059881587,-0.7504948,-0.6581578,-0.08839686,0.6607376,-0.74539375,,-0.09647088,0.26544514,-0.08523362,-0.88951,-0.4043044,0.21286127,0.36260167,-0.34116155,0.8672536,-0.27801433,0.84861463,0.45006806,,0.014670971,0.40023568,-0.3604999,0.6236579,-0.69814,-0.3516409,0.7135777,0.32479355,0.6207383,-0.31915155,-0.63805145,0.7007372,,1.2520403445007744,0.5586316051899042,0.20737658533000003,3.7825968905173344,-0.30497266747646307,-1.0984427000878805,-0.40460325181460965,,-0.7069621355051343,-0.26373132765476703,0.18743834884000002,-4.028563194224682,-1.078335256148856,1.3932327289365753,0.82717435090399,,-0.06277949319423604,-0.05761550026989781,0.08432494304,-0.06639839657179906,,2.9500574e-05,3.5762787e-06,-8.34465e-07,0.99999994,-8.139759e-06,-7.2196126e-06,8.136034e-06,1.0,-9.834766e-07,7.212162e-06,9.536743e-07,1.0,125,0.378,0,0,0.0,False,-0.26136747858668974,1.0013313469808274
0.3835485960007645,19:21:28.118741,19:21:18.279415,0,,0.12811358,0.0051104724,0.033631742,0.83498704,0.513141,-0.19870251,0.04314737,0.2989339,0.95329785,0.54857516,-0.804565,0.22746524,,0.018568393,-0.023005717,0.021076143,-0.6997481,0.6530638,0.28958613,0.055706024,-0.3542471,0.93349123,0.71221435,0.6693405,0.21150422,,0.10514474,1.3401126,0.440644,0.99428374,0.013543727,-0.105907395,-0.059881587,-0.7504948,-0.6581578,-0.08839686,0.6607376,-0.74539375,,-0.09648763,0.26554075,-0.08530677,-0.8833416,-0.41656563,0.21489695,0.37028456,-0.33905423,0.8648304,-0.2873969,0.84351367,0.45374852,,0.014672544,0.40023148,-0.36050397,0.62364995,-0.698145,-0.35164517,0.7135944,0.32480767,0.62071174,-0.3191297,-0.6380389,0.70075864,,1.2524264811444856,0.5586393279227784,0.2073286226,3.7725317732300776,-0.3150837684591057,-1.0920763862375782,-0.40378653148393817,,-0.7069466900393858,-0.2637622185862639,0.18743834884000002,-4.028563194224682,-1.078335256148856,1.3932327289365753,0.82717435090399,,-0.06277949319423604,-0.05761550026989781,0.08432494304,-0.06639839657179906,,2.9500574e-05,3.5762787e-06,-8.34465e-07,0.99999994,-8.139759e-06,-7.2196126e-06,8.136034e-06,1.0,-9.834766e-07,7.212162e-06,9.536743e-07,1.0,133,0.403,0,0,0.0,False,-0.2612483231496481,1.001041665776151
0.4168964970158413,19:21:28.147747,19:21:18.279415,0,,0.12816565,0.0051371604,0.03382677,0.8213879,0.53251487,-0.20432697,0.03947021,0.30430877,0.9517554,0.56900245,-0.78982526,0.22893709,,0.01856925,-0.023011185,0.02107656,-0.6997513,0.6530562,0.28959572,0.055734098,-0.3542357,0.93349385,0.71220905,0.66935384,0.21147946,,0.10514474,1.3401126,0.440644,0.99428374,0.013543727,-0.105907395,-0.059881587,-0.7504948,-0.6581578,-0.08839686,0.6607376,-0.74539375,,-0.09655786,0.26568976,-0.08542649,-0.87203264,-0.43707907,0.22027473,0.38180542,-0.32587728,0.86488646,-0.30624127,0.8383113,0.45105478,,0.014671907,0.40022898,-0.3605089,0.6236523,-0.6981393,-0.35165238,0.7136044,0.32482573,0.62069076,-0.31910285,-0.6380359,0.70077354,,1.2529130133155617,0.5586007142584072,0.20726251181000002,3.7565953375252534,-0.33530597042439086,-1.091350533337636,-0.40656338060822095,,-0.7069466900393858,-0.2637931095177608,0.18743705255,-4.028563194224682,-1.078335256148856,1.3932327289365753,0.82717435090399,,-0.06277949319423604,-0.05761550026989781,0.08432494304,-0.06639839657179906,,2.9500574e-05,3.5762787e-06,-8.34465e-07,0.99999994,-8.139759e-06,-7.2196126e-06,8.136034e-06,1.0,-9.834766e-07,7.212162e-06,9.536743e-07,1.0,141,0.428,0,0,0.0,False,-0.2611887454311268,1.0010899459769305
0.4458709619939327,19:21:28.168293,19:21:18.279415,0,,0.1282368,0.005142927,0.03402549,0.8097353,0.5499153,-0.20474799,0.030231714,0.3093669,0.9504621,0.5860159,-0.7758126,0.23388034,,0.018569574,-0.023012497,0.021076322,-0.69975203,0.6530543,0.28959808,0.0557411,-0.35423282,0.9334945,0.7122078,0.66935724,0.21147314,,0.10514474,1.3401126,0.440644,0.99428374,0.013543727,-0.105907395,-0.059881587,-0.7504948,-0.6581578,-0.08839686,0.6607376,-0.74539375,,-0.09664833,0.26582506,-0.08556097,-0.86255014,-0.455571,0.22014163,0.38684848,-0.3133512,0.8672712,-0.32612193,0.8332263,0.4465181,,0.014671665,0.4002281,-0.3605099,0.6236528,-0.6981379,-0.35165417,0.7136069,0.32483026,0.6206855,-0.31909615,-0.6380351,0.7007773,,1.2533609318222667,0.5585698233269103,0.20718862328,3.7475786699554194,-0.35662126438779956,-1.0925920931130426,-0.40591000434368385,,-0.7069466900393858,-0.26380083225063505,0.18743705255,-4.028563194224682,-1.078335256148856,1.3932327289365753,0.82717435090399,,-0.06277949319423604,-0.05761550026989781,0.08432494304,-0.06639839657179906,,2.9500574e-05,3.5762787e-06,-8.34465e-07,0.99999994,-8.139759e-06,-7.2196126e-06,8.136034e-06,1.0,-9.834766e-07,7.212162e-06,9.536743e-07,1.0,160,0.486,0,0,0.0,False,-0.2623802998015474,1.0013313469808274
0.4664238700061105,19:21:28.227618,19:21:18.426824,0,,0.1280504,0.005036533,0.034525275,0.7973264,0.5656258,-0.21056548,0.028882936,0.31272087,0.94940585,0.6028567,-0.7630682,0.23300362,,0.018569898,-0.023013808,0.021076143,-0.69975287,0.65305245,0.28960046,0.055748165,-0.35422996,0.9334952,0.7122065,0.66936064,0.21146694,,0.10514474,1.3401126,0.440644,0.99428374,0.013543727,-0.105907395,-0.059881587,-0.7504948,-0.6581578,-0.08839686,0.6607376,-0.74539375,,-0.09651779,0.26608944,-0.08601805,-0.8519654,-0.4723276,0.22596797,0.39763415,-0.30287567,0.86611396,-0.34064934,0.82775176,0.4458532,,0.0146714235,0.40022725,-0.36051095,0.6236534,-0.69813645,-0.35165596,0.7136094,0.3248348,0.6206803,-0.31908944,-0.6380344,0.70078105,,1.2550599330545962,0.5585775460597846,0.20677899564000002,3.7312228543636268,-0.3730176443596524,-1.0888600360060583,-0.4062366924759524,,-0.7069466900393858,-0.26380855498350925,0.18743705255,-4.028563194224682,-1.078335256148856,1.3932327289365753,0.82717435090399,,-0.06277949319423604,-0.05761550026989781,0.08432494304,-0.06639839657179906,,2.9500574e-05,3.5762787e-06,-8.34465e-07,0.99999994,-8.139759e-06,-7.2196126e-06,8.136034e-06,1.0,-9.834766e-07,7.212162e-06,9.536743e-07,1.0,168,0.509,0,0,0.0,False,-0.26196325577190027,1.000945105374592
0.525767705985345,19:21:28.250341,19:21:18.426824,0,,0.12796322,0.004998103,0.03468886,0.7949577,0.5691719,-0.20996502,0.028005943,0.3112982,0.94989955,0.6060179,-0.76101035,0.2315287,,0.018572014,-0.023012035,0.021077275,-0.69976145,0.6530196,0.28965366,0.05574161,-0.35431576,0.933463,0.7121985,0.66934717,0.21153629,,0.10514474,1.3401126,0.440644,0.99428374,0.013543727,-0.105907395,-0.059881587,-0.7504948,-0.6581578,-0.08839686,0.6607376,-0.74539375,,-0.0964492,0.26617426,-0.08617276,-0.84996575,-0.47611952,0.22554025,0.39919913,-0.30267286,0.86546475,-0.34379974,0.8256509,0.44732806,,0.014669126,0.40022886,-0.36050993,0.62366307,-0.69809854,-0.35171413,0.71360016,0.32478353,0.6207177,-0.31909114,-0.63810194,0.7007187,,1.2557318108146538,0.5585852687926588,0.20663510745000002,3.728287195154843,-0.3767068298533193,-1.0858517526062552,-0.40476659588074404,,-0.7069621355051343,-0.26380083225063505,0.18743705255,-4.028563194224682,-1.078335256148856,1.3933144076767159,0.8270110068378558,,-0.06277949319423604,-0.05761550026989781,0.08432494304,-0.06639839657179906,,2.9500574e-05,3.5762787e-06,-8.34465e-07,0.99999994,-8.139759e-06,-7.2196126e-06,8.136034e-06,1.0,-9.834766e-07,7.212162e-06,9.536743e-07,1.0,176,0.534,0,0,0.0,False,-0.26255903295711036,1.0012347865792688
0.5484923049807549,19:21:28.278813,19:21:18.426824,0,,0.12783174,0.0049602985,0.035007566,0.7856479,0.58091784,-0.21281801,0.025917768,0.31278467,0.9494704,0.6181305,-0.7514654,0.23068252,,0.018572014,-0.023012035,0.021077275,-0.69976145,0.6530196,0.28965366,0.05574161,-0.35431576,0.933463,0.7121985,0.66934717,0.21153629,,0.10514474,1.3401126,0.440644,0.99428374,0.013543727,-0.105907395,-0.059881587,-0.7504948,-0.6581578,-0.08839686,0.6607376,-0.74539375,,-0.09635213,0.26636553,-0.08644532,-0.84201753,-0.4886923,0.22844318,0.4061444,-0.29558438,0.864683,-0.3550397,0.82085913,0.44736686,,0.014669126,0.40022886,-0.36050993,0.62366307,-0.69809854,-0.35171413,0.71360016,0.32478353,0.6207177,-0.31909114,-0.63810194,0.7007187,,1.2569906162731523,0.5585621005940361,0.20640177525000003,3.7169639382066784,-0.3894140243315053,-1.082187544254014,-0.40525662807914675,,-0.7069621355051343,-0.26380083225063505,0.18743705255,-4.028563194224682,-1.078335256148856,1.3933144076767159,0.8270110068378558,,-0.06277949319423604,-0.05761550026989781,0.08432494304,-0.06639839657179906,,2.9500574e-05,3.5762787e-06,-8.34465e-07,0.99999994,-8.139759e-06,-7.2196126e-06,8.136034e-06,1.0,-9.834766e-07,7.212162e-06,9.536743e-07,1.0,184,0.559,0,0,0.0,False,-0.2607717014014801,1.0013313469808274
0.5769621150102466,19:21:28.304769,19:21:18.426824,0,,0.12776993,0.0049358606,0.035434425,0.768996,0.6016316,-0.21606565,0.01584515,0.3199538,0.9473007,0.63905704,-0.731894,0.23651028,,0.018572014,-0.023012035,0.021077275,-0.69976145,0.6530196,0.28965366,0.05574161,-0.35431576,0.933463,0.7121985,0.66934717,0.21153629,,0.10514474,1.3401126,0.440644,0.99428374,0.013543727,-0.105907395,-0.059881587,-0.7504948,-0.6581578,-0.08839686,0.6607376,-0.74539375,,-0.09633464,0.26663685,-0.086781055,-0.82799417,-0.51094764,0.23099388,0.4133863,-0.27788052,0.86711836,-0.37886336,0.8134586,0.4413022,,0.014669126,0.40022886,-0.36050993,0.62366307,-0.69809854,-0.35171413,0.71360016,0.32478353,0.6207177,-0.31909114,-0.63810194,0.7007187,,1.258388430923387,0.5585621005940361,0.20615288757000003,3.7022856421627623,-0.4157848687862353,-1.0827371486785564,-0.40460325181460965,,-0.7069621355051343,-0.26380083225063505,0.18743705255,-4.028563194224682,-1.078335256148856,1.3933144076767159,0.8270110068378558,,-0.06277949319423604,-0.05761550026989781,0.08432494304,-0.06639839657179906,,2.9500574e-05,3.5762787e-06,-8.34465e-07,0.99999994,-8.139759e-06,-7.2196126e-06,8.136034e-06,1.0,-9.834766e-07,7.212162e-06,9.536743e-07,1.0,192,0.583,0,0,0.0,False,-0.2617249448978165,1.0007037043706946
0.6029241890064441,19:21:28.333971,19:21:18.426824,0,,0.12762287,0.004883036,0.035785228,0.76040983,0.61099964,-0.2201274,0.011477798,0.32625148,0.9452133,0.64934194,-0.72127616,0.24107188,,0.018572014,-0.023012035,0.021077275,-0.69976145,0.6530196,0.28965366,0.05574161,-0.35431576,0.933463,0.7121985,0.66934717,0.21153629,,0.10514474,1.3401126,0.440644,0.99428374,0.013543727,-0.105907395,-0.059881587,-0.7504948,-0.6581578,-0.08839686,0.6607376,-0.74539375,,-0.09622596,0.26683915,-0.08708884,-0.8206777,-0.52106154,0.23448466,0.4173912,-0.2664274,0.86879283,-0.3902214,0.8108707,0.43613753,,0.014669126,0.40022886,-0.36050993,0.62366307,-0.69809854,-0.35171413,0.71360016,0.32478353,0.6207177,-0.31909114,-0.63810194,0.7007187,,1.2597708001078731,0.5585621005940361,0.20588974070000002,3.693688354479897,-0.42876533626395213,-1.0850576887696053,-0.4062366924759526,,-0.7069621355051343,-0.26380083225063505,0.18743705255,-4.028563194224682,-1.078335256148856,1.3933144076767159,0.8270110068378558,,-0.06277949319423604,-0.05761550026989781,0.08432494304,-0.06639839657179906,,2.9500574e-05,3.5762787e-06,-8.34465e-07,0.99999994,-8.139759e-06,-7.2196126e-06,8.136034e-06,1.0,-9.834766e-07,7.212162e-06,9.536743e-07,1.0,203,0.617,0,0,0.0,False,-0.26202283349042155,1.0011382261777095
0.6321190280141309,19:21:28.360567,19:21:18.583350,0,,0.1275084,0.004882604,0.035973996,0.7546787,0.617467,-0.22179787,0.011631995,0.32541275,0.94550055,0.65599126,-0.7161291,0.23839971,,0.018570796,-0.023012258,0.021076798,-0.69975674,0.65302515,0.28965262,0.0557414,-0.35431242,0.9334643,0.71220315,0.6693436,0.211532,,0.10514474,1.3401126,0.440644,0.99428374,0.013543727,-0.105907395,-0.059881587,-0.7504948,-0.6581578,-0.08839686,0.6607376,-0.74539375,,-0.096131176,0.26697,-0.08723926,-0.8156428,-0.52804315,0.23642595,0.42218775,-0.26382223,0.8672689,-0.395581,0.80719775,0.43811804,,0.014670395,0.40022847,-0.3605099,0.62365794,-0.69810385,-0.35171267,0.71360356,0.32478154,0.62071484,-0.31909364,-0.63809717,0.700722,,1.2606820825870317,0.5585543778611619,0.20576140799000003,3.6857201366274843,-0.4350506152531624,-1.0803408589002728,-0.40541997214528114,,-0.7069544127722601,-0.26380083225063505,0.18743705255,-4.028563194224682,-1.078335256148856,1.3933144076767159,0.8270110068378558,,-0.06277949319423604,-0.05761550026989781,0.08432494304,-0.06639839657179906,,2.9500574e-05,3.5762787e-06,-8.34465e-07,0.99999994,-8.139759e-06,-7.2196126e-06,8.136034e-06,1.0,-9.834766e-07,7.212162e-06,9.536743e-07,1.0,211,0.64,0,0,0.0,False,-0.2617249448978165,1.0016693083862838
0.6587087970110588,19:21:28.383671,19:21:18.583350,0,,0.12739441,0.0048858225,0.03612405,0.7491391,0.62282354,-0.22556868,0.013424039,0.32618183,0.94521177,0.66227657,-0.7111232,0.23599476,,0.018570796,-0.023012258,0.021076798,-0.69975674,0.6530015,0.28970593,0.0557414,-0.35438865,0.9334353,0.71220315,0.6693263,0.21158665,,0.10514474,1.3401126,0.440644,0.99428374,0.013543727,-0.105907395,-0.059881587,-0.7504948,-0.6581578,-0.08839686,0.6607376,-0.74539375,,-0.096032806,0.2670775,-0.08735883,-0.8106925,-0.5338386,0.24040388,0.42794293,-0.2600829,0.86557597,-0.39955294,0.80459505,0.4392997,,0.014670395,0.40022847,-0.3605099,0.62365794,-0.6980751,-0.3517697,0.71360356,0.32473084,0.62074137,-0.31909364,-0.6381544,0.7006698,,1.2614775240730767,0.5584848732652938,0.20565900108000001,3.6769131590011344,-0.4398328927449528,-1.077012983451882,-0.40509328401301237,,-0.7069544127722601,-0.26380083225063505,0.18743705255,-4.028563194224682,-1.078335256148856,1.3933960864168564,0.8268476627717215,,-0.06277949319423604,-0.05761550026989781,0.08432494304,-0.06639839657179906,,2.9500574e-05,3.5762787e-06,-8.34465e-07,0.99999994,-8.139759e-06,-7.2196126e-06,8.136034e-06,1.0,-9.834766e-07,7.212162e-06,9.536743e-07,1.0,219,0.665,0,0,0.0,False,-0.2623802998015474,1.0012347865792688
0.6817889739759266,19:21:28.421443,19:21:18.583350,0,,0.12720177,0.004910469,0.03646481,0.7344407,0.6385012,-0.2300277,0.008332133,0.33042902,0.9437941,0.6786216,-0.6950775,0.23736048,,0.01857144,-0.02301488,0.021076381,-0.6997583,0.6529977,0.2897107,0.055755407,-0.354383,0.93343675,0.7122005,0.669333,0.21157429,,0.10514474,1.3401126,0.440644,0.99428374,0.013543727,-0.105907395,-0.059881587,-0.7504948,-0.6581578,-0.08839686,0.6607376,-0.74539375,,-0.09587453,0.26733196,-0.087611854,-0.79794014,-0.5508568,0.24463913,0.43571258,-0.24672545,0.86561024,-0.41646862,0.7972975,0.43688738,,0.014669912,0.40022674,-0.36051196,0.6236591,-0.69807225,-0.3517733,0.7136085,0.32473987,0.62073094,-0.31908023,-0.6381529,0.70067734,,1.263269198099897,0.5582763594776898,0.20547881677000002,3.6611864132397955,-0.45937191221141077,-1.073740427945081,-0.40738010093889243,,-0.7069544127722601,-0.2638162777163835,0.18743705255,-4.028563194224682,-1.078335256148856,1.3933960864168564,0.8268476627717215,,-0.06277949319423604,-0.05761550026989781,0.08432494304,-0.06639839657179906,,2.9500574e-05,3.5762787e-06,-8.34465e-07,0.99999994,-8.139759e-06,-7.2196126e-06,8.136034e-06,1.0,-9.834766e-07,7.212162e-06,9.536743e-07,1.0,235,0.714,0,0,0.0,False,-0.26101001227556386,1.0011382261777095
0.71959022001829,19:21:28.480173,19:21:18.583350,0,,0.12687474,0.004934922,0.03680885,0.7172574,0.65592194,-0.2351766,0.0023254752,0.33525038,0.94212615,0.6968043,-0.6762939,0.2389355,,0.018572222,-0.023014866,0.02107805,-0.699763,0.6529922,0.2897118,0.055755615,-0.35438633,0.93343544,0.7121959,0.6693367,0.21157855,,0.10514474,1.3401126,0.440644,0.99428374,0.013543727,-0.105907395,-0.059881587,-0.7504948,-0.6581578,-0.08839686,0.6607376,-0.74539375,,-0.09558303,0.26759344,-0.08788123,-0.78294104,-0.5698586,0.24952856,0.44413337,-0.23116598,0.8656257,-0.43560174,0.7885578,0.43408254,,0.014668971,0.40022808,-0.3605128,0.6236642,-0.69806695,-0.35177475,0.71360517,0.32474187,0.62073374,-0.31907773,-0.6381577,0.70067406,,1.2657559180853972,0.557596758984758,0.20529992875000003,3.642733698213157,-0.4821902076722393,-1.0695907750326579,-0.4042765636823411,,-0.7069621355051343,-0.2638162777163835,0.18743575626000003,-4.028563194224682,-1.078335256148856,1.3933960864168564,0.8268476627717215,,-0.06277949319423604,-0.05761550026989781,0.08432494304,-0.06639839657179906,,2.9500574e-05,3.5762787e-06,-8.34465e-07,0.99999994,-8.139759e-06,-7.2196126e-06,8.136034e-06,1.0,-9.834766e-07,7.212162e-06,9.536743e-07,1.0,254,0.773,0,0,0.0,False,-0.26106958999408425,1.0011382261777095
0.7783200159901753,19:21:28.520564,19:21:18.719425,0,,0.12663072,0.00497064,0.0369187,0.70488155,0.66696155,-0.2414625,0.0047079623,0.33600515,0.9418484,0.70930934,-0.66502833,0.23370376,,0.018572222,-0.023014866,0.02107805,-0.699763,0.6529922,0.2897118,0.055755615,-0.35438633,0.93343544,0.7121959,0.6693367,0.21157855,,0.10514474,1.3401126,0.440644,0.99428374,0.013543727,-0.105907395,-0.059881587,-0.7504948,-0.6581578,-0.08839686,0.6607376,-0.74539375,,-0.095350005,0.26770267,-0.08796279,-0.7717957,-0.5819332,0.25629124,0.45475903,-0.22343503,0.86213166,-0.4444386,0.7819402,0.43708557,,0.014668971,0.40022808,-0.3605128,0.6236642,-0.69806695,-0.35177475,0.71360517,0.32474187,0.62073374,-0.31907773,-0.6381577,0.70067406,,1.2671537327356317,0.5568630993617067,0.20526492892000003,3.6249100530169724,-0.49325776415324,-1.0617094271952157,-0.40591000434368385,,-0.7069621355051343,-0.2638162777163835,0.18743575626000003,-4.028563194224682,-1.078335256148856,1.3933960864168564,0.8268476627717215,,-0.06277949319423604,-0.05761550026989781,0.08432494304,-0.06639839657179906,,2.9500574e-05,3.5762787e-06,-8.34465e-07,0.99999994,-8.139759e-06,-7.2196126e-06,8.136034e-06,1.0,-9.834766e-07,7.212162e-06,9.536743e-07,1.0,262,0.796,0,0,0.0,False,-0.26095043455704303,1.0011382261777095
0.8187169840093702,19:21:28.543058,19:21:18.719425,0,,0.12652996,0.004968092,0.03694433,0.7018376,0.66995823,-0.24203236,0.0025207102,0.33743444,0.9413457,0.71233237,-0.66128194,0.23513547,,0.018572222,-0.023014866,0.02107805,-0.699763,0.6529922,0.2897118,0.055755615,-0.35438633,0.93343544,0.7121959,0.6693367,0.21157855,,0.10514474,1.3401126,0.440644,0.99428374,0.013543727,-0.105907395,-0.059881587,-0.7504948,-0.6581578,-0.08839686,0.6607376,-0.74539375,,-0.09525253,0.26772174,-0.08799366,-0.76916623,-0.5852284,0.25669256,0.4552875,-0.21996853,0.862744,-0.44843796,0.78046244,0.4356395,,0.014668971,0.40022808,-0.3605128,0.6236642,-0.69806695,-0.35177475,0.71360517,0.32474187,0.62073374,-0.31907773,-0.6381577,0.70067406,,1.2677715513655696,0.5564769627179955,0.20525585489000003,3.6223937736951584,-0.4983133146445613,-1.0619159379858978,-0.40509328401301237,,-0.7069621355051343,-0.2638162777163835,0.18743575626000003,-4.028563194224682,-1.078335256148856,1.3933960864168564,0.8268476627717215,,-0.06277949319423604,-0.05761550026989781,0.08432494304,-0.06639839657179906,,2.9500574e-05,3.5762787e-06,-8.34465e-07,0.99999994,-8.139759e-06,-7.2196126e-06,8.136034e-06,1.0,-9.834766e-07,7.212162e-06,9.536743e-07,1.0,274,0.833,0,0,0.0,False,-0.26106958999408425,1.000751984571474
0.841180143004749,19:21:28.586235,19:21:18.719425,0,,0.12629282,0.0049524605,0.03701526,0.6900985,0.6801632,-0.2472688,-0.0017346442,0.3432194,0.9392537,0.7237133,-0.6477487,0.238035,,0.01857511,-0.02301412,0.021077752,-0.6997724,0.6529811,0.28971404,0.055756092,-0.35439312,0.93343276,0.7121867,0.6693438,0.21158695,,0.10514474,1.3401126,0.440644,0.99428374,0.013543727,-0.105907395,-0.059881587,-0.7504948,-0.6581578,-0.08839686,0.6607376,-0.74539375,,-0.095024586,0.26776657,-0.08808052,-0.75882107,-0.5964889,0.26151788,0.4602279,-0.20696405,0.86334014,-0.460848,0.7754785,0.43156952,,0.014666103,0.40022787,-0.36051196,0.62367445,-0.69805634,-0.35177767,0.7135985,0.3247458,0.6207394,-0.31907272,-0.6381673,0.7006676,,1.2691461978171816,0.5553803346498556,0.20523641054000002,3.61044144691654,-0.513753239118056,-1.0621492770702705,-0.40591000434368385,,-0.7069775809708827,-0.2638162777163835,0.18743705255,-4.028563194224682,-1.078335256148856,1.3933960864168564,0.8268476627717215,,-0.06277949319423604,-0.05761550026989781,0.08432494304,-0.06639839657179906,,2.9500574e-05,3.5762787e-06,-8.34465e-07,0.99999994,-8.139759e-06,-7.2196126e-06,8.136034e-06,1.0,-9.834766e-07,7.212162e-06,9.536743e-07,1.0,286,0.87,0,0,0.0,False,-0.2611887454311268,1.0012347865792688
0.8843584959977306,19:21:28.612501,19:21:18.719425,0,,0.12617944,0.004943207,0.037030727,0.68583614,0.68372643,-0.24929243,-0.0012617409,0.3436662,0.939091,0.72775483,-0.6437481,0.2365613,,0.018576328,-0.023013897,0.021078229,-0.6997772,0.65297556,0.28971517,0.05575636,-0.3543965,0.9334315,0.712182,0.6693474,0.21159106,,0.10514474,1.3401126,0.440644,0.99428374,0.013543727,-0.105907395,-0.059881587,-0.7504948,-0.6581578,-0.08839686,0.6607376,-0.74539375,,-0.094913825,0.26777428,-0.088109724,-0.7549705,-0.6004143,0.26367077,0.4634521,-0.20407341,0.86230284,-0.46393076,0.77321196,0.43233266,,0.014664833,0.40022826,-0.360512,0.6236796,-0.69805104,-0.35177913,0.71359515,0.3247478,0.6207422,-0.31907022,-0.6381721,0.7006644,,1.2696867891183774,0.5549092479445279,0.20522604022000002,3.6045701284989735,-0.5178523341110194,-1.059705206100924,-0.4057466602775497,,-0.706985303703757,-0.2638162777163835,0.18743705255,-4.028563194224682,-1.078335256148856,1.3933960864168564,0.8268476627717215,,-0.06277949319423604,-0.05761550026989781,0.08432494304,-0.06639839657179906,,2.9500574e-05,3.5762787e-06,-8.34465e-07,0.99999994,-8.139759e-06,-7.2196126e-06,8.136034e-06,1.0,-9.834766e-07,7.212162e-06,9.536743e-07,1.0,297,0.904,0,0,0.0,False,-0.260652545964438,1.000751984571474
0.9106135420151986,19:21:28.651143,19:21:18.876629,0,,0.12596887,0.0049214214,0.037050903,0.6813374,0.6867282,-0.25334442,0.0011962354,0.3450684,0.9385768,0.7319684,-0.63979065,0.23428649,,0.018576328,-0.023013897,0.021078229,-0.6997772,0.6529992,0.28966185,0.05575636,-0.35432026,0.9334605,0.712182,0.6693647,0.21153647,,0.10514474,1.3401126,0.440644,0.99428374,0.013543727,-0.105907395,-0.059881587,-0.7504948,-0.6581578,-0.08839686,0.6607376,-0.74539375,,-0.094707474,0.26777947,-0.08816076,-0.7508185,-0.6037368,0.26790562,0.46826777,-0.2004852,0.8605411,-0.46582925,0.77156174,0.43323848,,0.014664833,0.40022826,-0.360512,0.6236796,-0.69807976,-0.35172212,0.71359515,0.3247985,0.6207157,-0.31907022,-0.63811487,0.7007165,,1.270636685261907,0.5541833110543508,0.20519104039000002,3.596601910646562,-0.5209949736056244,-1.0571425943159065,-0.4057466602775497,,-0.706985303703757,-0.2638162777163835,0.18743705255,-4.028563194224682,-1.078335256148856,1.3933144076767159,0.8270110068378558,,-0.06277949319423604,-0.05761550026989781,0.08432494304,-0.06639839657179906,,2.9500574e-05,3.5762787e-06,-8.34465e-07,0.99999994,-8.139759e-06,-7.2196126e-06,8.136034e-06,1.0,-9.834766e-07,7.212162e-06,9.536743e-07,1.0,305,0.927,0,0,0.0,False,-0.26178452261633733,1.0006554241699153
0.9492853980045766,19:21:28.669637,19:21:18.876629,0,,0.12589264,0.0048992634,0.0370757,0.6805112,0.6880876,-0.2518724,-2.0116568e-05,0.3437592,0.9390578,0.73273754,-0.6390344,0.23394585,,0.01857755,-0.023013644,0.021078706,-0.6997818,0.6529937,0.28966296,0.05575654,-0.35432363,0.93345916,0.71217734,0.66936827,0.21154058,,0.10514474,1.3401126,0.440644,0.99428374,0.013543727,-0.105907395,-0.059881587,-0.7504948,-0.6581578,-0.08839686,0.6607376,-0.74539375,,-0.09463512,0.26778257,-0.08820169,-0.7501259,-0.6052194,0.26649693,0.46791643,-0.20099387,0.8606135,-0.46729577,0.7702668,0.43396282,,0.014663564,0.40022865,-0.360512,0.62368464,-0.69807446,-0.35172358,0.71359175,0.32480046,0.6207185,-0.31906772,-0.63811964,0.7007133,,1.271053712837115,0.5539207381366272,0.20515992943000003,3.5961825307595925,-0.523044521102106,-1.05547132576046,-0.4057466602775497,,-0.7069930264366312,-0.2638162777163835,0.18743705255,-4.028563194224682,-1.078335256148856,1.3933144076767159,0.8270110068378558,,-0.06277949319423604,-0.05761550026989781,0.08432494304,-0.06639839657179906,,2.9500574e-05,3.5762787e-06,-8.34465e-07,0.99999994,-8.139759e-06,-7.2196126e-06,8.136034e-06,1.0,-9.834766e-07,7.212162e-06,9.536743e-07,1.0,313,0.952,0,0,0.0,False,-0.2622015666459845,1.000751984571474
0.9677895500208251,19:21:28.694913,19:21:18.876629,0,,0.12580623,0.004895836,0.037122667,0.6776302,0.6898663,-0.25475806,0.0015952289,0.3450402,0.9385866,0.73540103,-0.6364211,0.23270911,,0.018577226,-0.023012333,0.021078825,-0.699781,0.65301925,0.28960723,0.055749506,-0.35425028,0.9334874,0.71217865,0.6693823,0.21149212,,0.10514474,1.3401126,0.440644,0.99428374,0.013543727,-0.105907395,-0.059881587,-0.7504948,-0.6581578,-0.08839686,0.6607376,-0.74539375,,-0.09455408,0.26781482,-0.08824731,-0.7474616,-0.60719615,0.26946986,0.47100744,-0.19835448,0.85953915,-0.46845827,0.7693948,0.43425623,,0.014663805,0.4002295,-0.36051095,0.6236841,-0.6981046,-0.35166478,0.71358925,0.32484666,0.6206972,-0.31907445,-0.6380632,0.7007617,,1.2714861858780717,0.5537276698147716,0.20512233702000002,3.5911499721159643,-0.5246841590992912,-1.0542159896562435,-0.40591000434368385,,-0.7069930264366312,-0.26380855498350925,0.18743705255,-4.028563194224682,-1.078335256148856,1.3932327289365753,0.8268476627717215,,-0.06277949319423604,-0.05761550026989781,0.08432494304,-0.06639839657179906,,2.9500574e-05,3.5762787e-06,-8.34465e-07,0.99999994,-8.139759e-06,-7.2196126e-06,8.136034e-06,1.0,-9.834766e-07,7.212162e-06,9.536743e-07,1.0,321,0.976,0,0,0.0,False,-0.2616653671792948,1.0005588637683562
0.9930532739963382,19:21:28.718495,19:21:18.876629,0,,0.12570234,0.004866451,0.03718853,0.6767583,0.6901836,-0.25621203,0.0023681223,0.34597462,0.9382409,0.7362014,-0.6355691,0.23250675,,0.01857755,-0.023013644,0.021078706,-0.6997818,0.65301734,0.2896096,0.05575654,-0.35424742,0.9334881,0.71217734,0.6693856,0.21148595,,0.10514474,1.3401126,0.440644,0.99428374,0.013543727,-0.105907395,-0.059881587,-0.7504948,-0.6581578,-0.08839686,0.6607376,-0.74539375,,-0.09445867,0.2678412,-0.088326015,-0.74664277,-0.6075578,0.27092087,0.47214893,-0.19710249,0.8592008,-0.46861494,0.76943105,0.4340229,,0.014663564,0.40022865,-0.360512,0.62368464,-0.6981032,-0.35166657,0.71359175,0.32485119,0.62069196,-0.31906772,-0.6380624,0.7007654,,1.2720267771792675,0.553534601492916,0.20504715220000003,3.589053072681119,-0.5252307050983531,-1.0540153542618795,-0.40640003654208656,,-0.7069930264366312,-0.2638162777163835,0.18743705255,-4.028563194224682,-1.078335256148856,1.3932327289365753,0.8268476627717215,,-0.06277949319423604,-0.05761550026989781,0.08432494304,-0.06639839657179906,,2.9500574e-05,3.5762787e-06,-8.34465e-07,0.99999994,-8.139759e-06,-7.2196126e-06,8.136034e-06,1.0,-9.834766e-07,7.212162e-06,9.536743e-07,1.0,329,1.001,0,0,0.0,False,-0.26041423509035333,1.000414023166018
1.0166435720166191,19:21:28.746825,19:21:18.876629,0,,0.1256595,0.004863918,0.03725761,0.6733064,0.69334584,-0.25676793,0.0020680428,0.34551504,0.93841094,0.7393606,-0.63236916,0.23120356,,0.018578772,-0.023013406,0.021079063,-0.69978654,0.65298814,0.2896641,0.055756778,-0.35432702,0.93345785,0.71217275,0.66937196,0.21154472,,0.10514474,1.3401126,0.440644,0.99428374,0.013543727,-0.105907395,-0.059881587,-0.7504948,-0.6581578,-0.08839686,0.6607376,-0.74539375,,-0.094423145,0.26788735,-0.08838274,-0.7435418,-0.6110423,0.27161166,0.47417864,-0.19540557,0.8584703,-0.47148728,0.767101,0.43503544,,0.014662294,0.400229,-0.360512,0.6236898,-0.69806916,-0.35172507,0.7135884,0.32480246,0.6207213,-0.31906524,-0.63812447,0.70071006,,1.2724901411517209,0.5534264832326768,0.20498363399000002,3.582552684433099,-0.5305595285892053,-1.050078449718422,-0.40525662807914675,,-0.7070007491695054,-0.2638162777163835,0.18743705255,-4.028563194224682,-1.078335256148856,1.3933144076767159,0.8266843187055872,,-0.06277949319423604,-0.05761550026989781,0.08432494304,-0.06639839657179906,,2.9500574e-05,3.5762787e-06,-8.34465e-07,0.99999994,-8.139759e-06,-7.2196126e-06,8.136034e-06,1.0,-9.834766e-07,7.212162e-06,9.536743e-07,1.0,337,1.026,0,0,0.0,False,-0.260652545964438,1.0005105835675767
1.0449735519941896,19:21:28.772369,19:21:18.876629,0,,0.12559442,0.004856974,0.037354797,0.6682794,0.69748205,-0.25869128,0.0021944046,0.3458956,0.93827045,0.74390703,-0.62759453,0.2296243,,0.018579993,-0.023013152,0.02107954,-0.6997912,0.6529826,0.28966522,0.055756986,-0.3543304,0.93345654,0.7121681,0.66937554,0.21154907,,0.10514474,1.3401126,0.440644,0.99428374,0.013543727,-0.105907395,-0.059881587,-0.7504948,-0.6581578,-0.08839686,0.6607376,-0.74539375,,-0.09436852,0.26794997,-0.088465355,-0.73899657,-0.6156179,0.2736764,0.47751436,-0.19206434,0.85737467,-0.47525167,0.76428133,0.43590122,,0.014661024,0.4002294,-0.360512,0.6236949,-0.69806385,-0.35172653,0.7135851,0.32480443,0.62072414,-0.31906274,-0.63812923,0.7007068,,1.2727449913365703,0.5533492559039346,0.20494344900000003,3.5783588855634085,-0.5331556220847486,-1.0482882245087521,-0.40591000434368407,,-0.7070084719023796,-0.2638162777163835,0.18743705255,-4.028563194224682,-1.078335256148856,1.3933144076767159,0.8266843187055872,,-0.06277949319423604,-0.05761550026989781,0.08432494304,-0.06639839657179906,,2.9500574e-05,3.5762787e-06,-8.34465e-07,0.99999994,-8.139759e-06,-7.2196126e-06,8.136034e-06,1.0,-9.834766e-07,7.212162e-06,9.536743e-07,1.0,345,1.05,0,0,0.0,False,-0.2607717014014801,1.0006554241699153
1.0705227829748765,19:21:28.802197,19:21:18.876629,0,,0.12553155,0.004820198,0.03744176,0.6650953,0.6997402,-0.26079038,0.0020145476,0.3475474,0.9376602,0.7467556,-0.6241589,0.2297425,,0.018578772,-0.023013406,0.021079063,-0.69978654,0.65298814,0.2896641,0.055756778,-0.35432702,0.93345785,0.71217275,0.66937196,0.21154472,,0.10514474,1.3401126,0.440644,0.99428374,0.013543727,-0.105907395,-0.059881587,-0.7504948,-0.6581578,-0.08839686,0.6607376,-0.74539375,,-0.09431633,0.2679836,-0.08856029,-0.73612547,-0.6181382,0.2757253,0.4794142,-0.18861532,0.8570801,-0.47778794,0.7631051,0.43518877,,0.014662294,0.400229,-0.360512,0.6236898,-0.69806916,-0.35172507,0.7135884,0.32480246,0.6207213,-0.31906524,-0.63812447,0.70071006,,1.2730925143159104,0.5531870785135758,0.20486307902000003,3.5743747766372023,-0.5362982615793538,-1.0479309387075295,-0.40345984335166984,,-0.7070007491695054,-0.2638162777163835,0.18743705255,-4.028563194224682,-1.078335256148856,1.3933144076767159,0.8266843187055872,,-0.06277949319423604,-0.05761550026989781,0.08432494304,-0.06639839657179906,,2.9500574e-05,3.5762787e-06,-8.34465e-07,0.99999994,-8.139759e-06,-7.2196126e-06,8.136034e-06,1.0,-9.834766e-07,7.212162e-06,9.536743e-07,1.0,357,1.087,0,0,0.0,False,-0.2613079008681689,1.0011382261777095
1.1003493259777315,19:21:28.829368,19:21:19.054781,0,,0.12549111,0.0047693998,0.03751105,0.66379535,0.7014792,-0.25942704,0.00020521879,0.34669662,0.9379773,0.7479141,-0.6226783,0.22999167,,0.018579993,-0.023013152,0.02107954,-0.6997912,0.6529826,0.28966522,0.055756986,-0.3543304,0.93345654,0.7121681,0.66937554,0.21154907,,0.10514474,1.3401126,0.440644,0.99428374,0.013543727,-0.105907395,-0.059881587,-0.7504948,-0.6581578,-0.08839686,0.6607376,-0.74539375,,-0.094285235,0.26799414,-0.088649385,-0.7350261,-0.6200516,0.27435845,0.47890386,-0.18831192,0.85743207,-0.47998717,0.76162624,0.4353593,,0.014661024,0.4002294,-0.360512,0.6236949,-0.69806385,-0.35172653,0.7135851,0.32480443,0.62072414,-0.31906274,-0.63812923,0.7007068,,1.2733396417678855,0.5530326238560913,0.20478659791,3.5739553967502333,-0.5390309915746625,-1.0467644042554285,-0.4049299399468782,,-0.7070084719023796,-0.2638162777163835,0.18743705255,-4.028563194224682,-1.078335256148856,1.3933144076767159,0.8266843187055872,,-0.06277949319423604,-0.05761550026989781,0.08432494304,-0.06639839657179906,,2.9500574e-05,3.5762787e-06,-8.34465e-07,0.99999994,-8.139759e-06,-7.2196126e-06,8.136034e-06,1.0,-9.834766e-07,7.212162e-06,9.536743e-07,1.0,369,1.124,0,0,0.0,False,-0.26136747858668974,1.0003657429652384
1.1274922650191002,19:21:28.860570,19:21:19.054781,0,,0.12537873,0.004722774,0.03758642,0.65899897,0.70380974,-0.26527718,0.0036127567,0.34972882,0.936844,0.75213504,-0.6183377,0.22792822,,0.018579993,-0.023013152,0.02107954,-0.6997912,0.6529826,0.28966522,0.055756986,-0.3543304,0.93345654,0.7121681,0.66937554,0.21154907,,0.10514474,1.3401126,0.440644,0.99428374,0.013543727,-0.105907395,-0.059881587,-0.7504948,-0.6581578,-0.08839686,0.6607376,-0.74539375,,-0.094183065,0.2680145,-0.08874754,-0.73053885,-0.6226767,0.2803333,0.48443717,-0.18323669,0.8554209,-0.4812833,0.7607221,0.43550923,,0.014661024,0.4002294,-0.360512,0.6236949,-0.69806385,-0.35172653,0.7135851,0.32480443,0.62072414,-0.31906274,-0.63812923,0.7007068,,1.2737566693430937,0.5526773781438771,0.20469845019000002,3.565358109067368,-0.5409439025713787,-1.045531268564241,-0.4055833162114155,,-0.7070084719023796,-0.2638162777163835,0.18743705255,-4.028563194224682,-1.078335256148856,1.3933144076767159,0.8266843187055872,,-0.06277949319423604,-0.05761550026989781,0.08432494304,-0.06639839657179906,,2.9500574e-05,3.5762787e-06,-8.34465e-07,0.99999994,-8.139759e-06,-7.2196126e-06,8.136034e-06,1.0,-9.834766e-07,7.212162e-06,9.536743e-07,1.0,398,1.214,0,0,0.0,False,-0.260652545964438,1.0006071439691357
1.1586865949793719,19:21:28.955061,19:21:19.144108,0,,0.12512492,0.0046188086,0.037781775,0.64540005,0.71480465,-0.26928204,0.002371788,0.35065818,0.9365005,0.7638409,-0.6050562,0.22461942,,0.018580895,-0.023011617,0.021080196,-0.6997951,0.65297896,0.28966394,0.05575022,-0.35433668,0.9334545,0.71216476,0.66937584,0.21155939,,0.10514474,1.3401126,0.440644,0.99428374,0.013543727,-0.105907395,-0.059881587,-0.7504948,-0.6581578,-0.08839686,0.6607376,-0.74539375,,-0.0939548,0.26807836,-0.0889867,-0.7182504,-0.6349021,0.2846325,0.49189216,-0.17401913,0.8530882,-0.492096,0.7527394,0.43729267,,0.014659996,0.40023062,-0.36051098,0.6236994,-0.69806,-0.3517262,0.71357924,0.3248019,0.6207322,-0.31906694,-0.63813484,0.7006998,,1.2749923066029696,0.5516502546716052,0.20452474733000003,3.5490022934755743,-0.5546075525479227,-1.0378199852805023,-0.40591000434368385,,-0.7070161946352539,-0.26380855498350925,0.18743705255,-4.028563194224682,-1.078335256148856,1.3933144076767159,0.8266843187055872,,-0.06277949319423604,-0.05761550026989781,0.08432494304,-0.06639839657179906,,2.9500574e-05,3.5762787e-06,-8.34465e-07,0.99999994,-8.139759e-06,-7.2196126e-06,8.136034e-06,1.0,-9.834766e-07,7.212162e-06,9.536743e-07,1.0,406,1.239,0,0,0.0,False,-0.2608908568385213,1.0008968251738122
1.2532094990019687,19:21:28.986747,19:21:19.144108,0,,0.12502974,0.004603073,0.037838936,0.64000535,0.71858245,-0.27208847,0.0021811724,0.35241067,0.9358429,0.7683672,-0.5995381,0.2239773,,0.018582437,-0.02301266,0.021080494,-0.6998006,0.65297157,0.28966746,0.055757463,-0.35433716,0.9334539,0.7121588,0.66938275,0.21155739,,0.10514474,1.3401126,0.440644,0.99428374,0.013543727,-0.105907395,-0.059881587,-0.7504948,-0.6581578,-0.08839686,0.6607376,-0.74539375,,-0.09386661,0.26810867,-0.08904899,-0.713351,-0.6391382,0.28745896,0.49499354,-0.1691506,0.8522731,-0.4960965,0.75026023,0.43703306,,0.014658486,0.40023014,-0.360512,0.62370515,-0.69805324,-0.35172945,0.71357834,0.3248084,0.62072974,-0.31905773,-0.63813883,0.70070034,,1.2754633933082973,0.5512872862265166,0.20448715492000002,3.54229221528407,-0.559663103039244,-1.0360662063078112,-0.40509328401301237,,-0.7070239173681281,-0.2638162777163835,0.18743705255,-4.028563194224682,-1.078335256148856,1.3933144076767159,0.8266843187055872,,-0.06277949319423604,-0.05761550026989781,0.08432494304,-0.06639839657179906,,2.9500574e-05,3.5762787e-06,-8.34465e-07,0.99999994,-8.139759e-06,-7.2196126e-06,8.136034e-06,1.0,-9.834766e-07,7.212162e-06,9.536743e-07,1.0,414,1.263,0,0,0.0,False,-0.2604738128088746,1.000751984571474
1.2849006649921648,19:21:29.008795,19:21:19.144108,0,,0.1249741,0.0045926124,0.037869066,0.63680285,0.7214129,-0.27211252,0.0012032986,0.35199213,0.93600214,0.7710256,-0.5963764,0.2232815,,0.018582113,-0.023011364,0.021080613,-0.69979984,0.6529735,0.28966507,0.05575043,-0.35434002,0.9334533,0.71216005,0.66937935,0.21156365,,0.10514474,1.3401126,0.440644,0.99428374,0.013543727,-0.105907395,-0.059881587,-0.7504948,-0.6581578,-0.08839686,0.6607376,-0.74539375,,-0.09381477,0.26812324,-0.08908383,-0.7104762,-0.6422874,0.28755957,0.4961763,-0.16743699,0.85192364,-0.49903172,0.74795175,0.43764776,,0.014658727,0.400231,-0.36051098,0.62370455,-0.6980547,-0.35172766,0.71357584,0.32480386,0.620735,-0.31906444,-0.6381396,0.7006966,,1.275756857157518,0.5510401587745415,0.20447030315000003,3.5389371761883175,-0.563352288532911,-1.0337930315692727,-0.40460325181460965,,-0.7070239173681281,-0.26380855498350925,0.18743705255,-4.028563194224682,-1.078335256148856,1.3933144076767159,0.8266843187055872,,-0.06277949319423604,-0.05761550026989781,0.08432494304,-0.06639839657179906,,2.9500574e-05,3.5762787e-06,-8.34465e-07,0.99999994,-8.139759e-06,-7.2196126e-06,8.136034e-06,1.0,-9.834766e-07,7.212162e-06,9.536743e-07,1.0,426,1.3,0,0,0.0,False,-0.2608312791200009,1.0008968251738122
1.3069017690140754,19:21:29.040437,19:21:19.144108,0,,0.12489726,0.004596591,0.037944138,0.62876296,0.72779655,-0.27380472,-0.00043609738,0.35244662,0.93583184,0.7775967,-0.58829707,0.22192279,,0.018581215,-0.023012914,0.021079957,-0.69979596,0.65297705,0.28966635,0.055757254,-0.35433382,0.9334552,0.71216345,0.6693792,0.21155319,,0.10514474,1.3401126,0.440644,0.99428374,0.013543727,-0.105907395,-0.059881587,-0.7504948,-0.6581578,-0.08839686,0.6607376,-0.74539375,,-0.09374577,0.2681795,-0.089144066,-0.7032141,-0.6494261,0.2893711,0.49967933,-0.16190054,0.85094583,-0.50577706,0.7429899,0.43835554,,0.014659755,0.40022975,-0.360512,0.6237,-0.69805855,-0.351728,0.71358174,0.32480642,0.62072694,-0.31906024,-0.63813406,0.70070356,,1.276204775664223,0.5507080812609498,0.20444956251000002,3.5301301985619675,-0.5715504785188374,-1.0294766408115636,-0.4050932840130126,,-0.7070161946352539,-0.2638162777163835,0.18743705255,-4.028563194224682,-1.078335256148856,1.3933144076767159,0.8266843187055872,,-0.06277949319423604,-0.05761550026989781,0.08432494304,-0.06639839657179906,,2.9500574e-05,3.5762787e-06,-8.34465e-07,0.99999994,-8.139759e-06,-7.2196126e-06,8.136034e-06,1.0,-9.834766e-07,7.212162e-06,9.536743e-07,1.0,434,1.325,0,0,0.0,False,-0.26017592421626956,1.0002209023629
1.338566512975376,19:21:29.074295,19:21:19.300924,0,,0.12478013,0.004575357,0.038008034,0.6217322,0.73223925,-0.27798283,-0.00022676587,0.35508698,0.93483317,0.78322977,-0.581153,0.22093505,,0.018581215,-0.023012914,0.021079957,-0.69979596,0.6529534,0.28971967,0.055757254,-0.35441005,0.9334263,0.71216345,0.6693618,0.21160787,,0.10514474,1.3401126,0.440644,0.99428374,0.013543727,-0.105907395,-0.059881587,-0.7504948,-0.6581578,-0.08839686,0.6607376,-0.74539375,,-0.09363666,0.26821107,-0.089217216,-0.6967828,-0.6544491,0.29358146,0.5038806,-0.15530655,0.8496965,-0.51048803,0.739984,0.43797916,,0.014659755,0.40022975,-0.360512,0.6237,-0.6980298,-0.351785,0.71358174,0.3247557,0.62075347,-0.31906024,-0.6381913,0.70065147,,1.2767299214996701,0.5502369945556221,0.20440678494000003,3.5211135309921326,-0.5775624845085168,-1.0273513302137003,-0.40476659588074426,,-0.7070161946352539,-0.2638162777163835,0.18743705255,-4.028563194224682,-1.078335256148856,1.3933960864168564,0.826520974639453,,-0.06277949319423604,-0.05761550026989781,0.08432494304,-0.06639839657179906,,2.9500574e-05,3.5762787e-06,-8.34465e-07,0.99999994,-8.139759e-06,-7.2196126e-06,8.136034e-06,1.0,-9.834766e-07,7.212162e-06,9.536743e-07,1.0,442,1.349,0,0,0.0,False,-0.26053339052739544,1.0005588637683562
1.3723748829797842,19:21:29.097781,19:21:19.300924,0,,0.124708965,0.004562661,0.038045555,0.6177177,0.7345279,-0.28087968,0.0008864701,0.35652107,0.93428683,0.7863993,-0.57737464,0.2195782,,0.018582437,-0.02301266,0.021080494,-0.6998006,0.65297157,0.28966746,0.055757463,-0.35433716,0.9334539,0.7121588,0.66938275,0.21155739,,0.10514474,1.3401126,0.440644,0.99428374,0.013543727,-0.105907395,-0.059881587,-0.7504948,-0.6581578,-0.08839686,0.6607376,-0.74539375,,-0.093570225,0.26822954,-0.089260586,-0.6930639,-0.6570434,0.29657432,0.50698245,-0.15178905,0.84848624,-0.51247555,0.7384132,0.43830898,,0.014658486,0.40023014,-0.360512,0.62370515,-0.69805324,-0.35172945,0.71357834,0.3248084,0.62072974,-0.31905773,-0.63813883,0.70070034,,1.2770156626160165,0.5499821443707726,0.20437697027,3.515242212574566,-0.5801585780040601,-1.0256427837441713,-0.4049299399468782,,-0.7070239173681281,-0.2638162777163835,0.18743705255,-4.028563194224682,-1.078335256148856,1.3933144076767159,0.8263576305733187,,-0.06277949319423604,-0.05761550026989781,0.08432494304,-0.06639839657179906,,2.9500574e-05,3.5762787e-06,-8.34465e-07,0.99999994,-8.139759e-06,-7.2196126e-06,8.136034e-06,1.0,-9.834766e-07,7.212162e-06,9.536743e-07,1.0,471,1.439,0,0,0.0,False,-0.2602355019347904,1.000848544973033
1.3958705849945545,19:21:29.182251,19:21:19.300924,0,,0.124370016,0.0045665056,0.0383846,0.58592874,0.75506485,-0.2942182,-0.0022907853,0.36461183,0.9311568,0.81035924,-0.5449175,0.21536624,,0.018616166,-0.022982925,0.021105647,-0.6990654,0.652234,0.29308388,0.057347685,-0.35741484,0.93218344,0.71275425,0.6684649,0.21245226,,0.10516148,1.3401161,0.44064894,0.9942809,0.0135074295,-0.105939224,-0.059929673,-0.75049543,-0.65815276,-0.08839686,0.6607376,-0.74539375,,-0.0932764,0.26847506,-0.08953166,-0.664006,-0.6803611,0.31016907,0.5219372,-0.124702565,0.8438192,-0.53542286,0.7221898,0.43790898,,0.014608039,0.4002603,-0.36049306,0.62285835,-0.6970972,-0.35510978,0.7147875,0.32257208,0.6205047,-0.3180036,-0.6403146,0.69919306,,1.2785679319237355,0.5488160117067648,0.20421493402000002,3.4779174026343207,-0.6083056969557408,-1.0132272530608408,-0.4050932840130126,,-0.7070161946352539,-0.2638703368465031,0.18743705255,-4.02478877524196,-1.078335256148856,1.3933144076767159,0.8260309424410502,,-0.06277949319423604,-0.05761550026989781,0.08432494304,-0.06639839657179906,,4.549697e-05,4.351139e-06,-8.702278e-06,0.99999994,-4.4189394e-05,-3.916025e-05,4.418567e-05,1.0,-5.185604e-06,3.9167702e-05,5.2154064e-06,1.0,479,1.464,0,0,0.0,False,-0.26041423509035333,0.9997863805558849
1.4803941569989547,19:21:29.210836,19:21:19.300924,0,,0.12429631,0.0045559555,0.038471267,0.57884485,0.7581784,-0.30017304,-0.0035611093,0.3704598,0.9288417,0.8154298,-0.5365864,0.21713877,,0.018616237,-0.022988409,0.021104395,-0.6990639,0.65225595,0.29303902,0.05737561,-0.35732394,0.9322166,0.7127536,0.6684922,0.21236876,,0.10516148,1.3401161,0.44064894,0.9942809,0.0135074295,-0.105939224,-0.059929673,-0.75049543,-0.65815276,-0.08839686,0.6607376,-0.74539375,,-0.093212284,0.26852822,-0.08960985,-0.6575279,-0.6840465,0.31581232,0.5246683,-0.114890635,0.84351844,-0.54072195,0.72033364,0.4344413,,0.014608341,0.40025648,-0.36049715,0.62285554,-0.6971258,-0.35505858,0.71480083,0.32263893,0.6204546,-0.3179792,-0.6402497,0.6992635,,1.2789386231016984,0.5485534387890412,0.20417086016000002,3.469949184781909,-0.614864248944482,-1.014903565335501,-0.40607334840981846,,-0.7070084719023796,-0.26390122777799996,0.18743705255,-4.02478877524196,-1.078335256148856,1.3932327289365753,0.8261942865071845,,-0.06277949319423604,-0.05761550026989781,0.08432494304,-0.06639839657179906,,4.549697e-05,4.351139e-06,-8.702278e-06,0.99999994,-4.4189394e-05,-3.916025e-05,4.418567e-05,1.0,-5.185604e-06,3.9167702e-05,5.2154064e-06,1.0,487,1.488,0,0,0.0,False,-0.2604738128088746,1.0002691825636794
1.5089839019929059,19:21:29.239860,19:21:19.454787,0,,0.12420893,0.0045268536,0.03863497,0.5662967,0.76732177,-0.30087382,-0.008328408,0.37035775,0.92885184,0.82415926,-0.52349997,0.2161229,,0.018616308,-0.022993878,0.021103144,-0.6990622,0.652254,0.29304743,0.057403475,-0.35730913,0.9322205,0.71275294,0.6685021,0.2123397,,0.10516148,1.3401161,0.44064894,0.9942809,0.0135074295,-0.105939224,-0.059929673,-0.75049543,-0.65815276,-0.08839686,0.6607376,-0.74539375,,-0.09314312,0.26862004,-0.08975841,-0.6461337,-0.69445544,0.31661147,0.52747613,-0.106498346,0.8428683,-0.5516159,0.7116107,0.43512085,,0.014608644,0.40025264,-0.36050123,0.6228527,-0.69712543,-0.3550643,0.7148141,0.32265508,0.6204308,-0.3179548,-0.64024204,0.6992817,,1.2794328780056488,0.5481518566795814,0.20409178647,3.4577871680598067,-0.6282546259214952,-1.0077418328197176,-0.40509328401301237,,-0.7070007491695054,-0.26393211870949684,0.18743705255,-4.02478877524196,-1.078335256148856,1.3932327289365753,0.8261942865071845,,-0.06277949319423604,-0.05761550026989781,0.08432494304,-0.06639839657179906,,4.549697e-05,4.351139e-06,-8.702278e-06,0.99999994,-4.4189394e-05,-3.916025e-05,4.418567e-05,1.0,-5.185604e-06,3.9167702e-05,5.2154064e-06,1.0,499,1.525,0,0,0.0,False,-0.2613079008681689,0.9996898201543258
1.5380111910053529,19:21:29.266989,19:21:19.454787,0,,0.12409294,0.004502669,0.038759604,0.5541342,0.77468723,-0.30462205,-0.008702606,0.37131578,0.9284659,0.8323817,-0.51184374,0.21250063,,0.01861573,-0.022996709,0.02110231,-0.69905907,0.65220773,0.29315764,0.057417274,-0.3574523,0.9321648,0.7127549,0.6684705,0.21243232,,0.10516148,1.3401161,0.44064894,0.9942809,0.0135074295,-0.105939224,-0.059929673,-0.75049543,-0.65815276,-0.08839686,0.6607376,-0.74539375,,-0.09304138,0.26869023,-0.089877956,-0.6348864,-0.7029084,0.3206852,0.5331755,-0.098219514,0.84028375,-0.559145,0.7044662,0.4371318,,0.01460943,0.40025055,-0.3605033,0.62284875,-0.6970699,-0.35518032,0.7148225,0.32256085,0.6204703,-0.31794387,-0.64035,0.6991878,,1.2798653510466054,0.5476962154400022,0.20402308310000003,3.4428991820724053,-0.6376825444053106,-1.0000539974646645,-0.4047665958807438,,-0.7069930264366312,-0.2639475641752453,0.18743705255,-4.02478877524196,-1.078335256148856,1.3933960864168564,0.8261942865071844,,-0.06277949319423604,-0.05761550026989781,0.08432494304,-0.06639839657179906,,4.549697e-05,4.351139e-06,-8.702278e-06,0.99999994,-4.4189394e-05,-3.916025e-05,4.418567e-05,1.0,-5.185604e-06,3.9167702e-05,5.2154064e-06,1.0,507,1.55,0,0,0.0,False,-0.26095043455704303,0.9995449795519877
1.5651425009709783,19:21:29.290475,19:21:19.454787,0,,0.124029666,0.004488662,0.038887724,0.540671,0.7838752,-0.3053102,-0.012222439,0.37021294,0.92886657,0.8411453,-0.49847955,0.20974427,,0.018614512,-0.022996977,0.021101892,-0.69905436,0.6522133,0.29315653,0.057417035,-0.35744894,0.93216604,0.7127596,0.668467,0.2124281,,0.10516148,1.3401161,0.44064894,0.9942809,0.0135074295,-0.105939224,-0.059929673,-0.75049543,-0.65815276,-0.08839686,0.6607376,-0.74539375,,-0.092991956,0.2687684,-0.08998781,-0.6225333,-0.71343184,0.32166332,0.53696173,-0.09038162,0.838751,-0.56931925,0.69487137,0.43935114,,0.014610699,0.40025017,-0.3605033,0.6228436,-0.6970752,-0.35517886,0.7148258,0.32255888,0.6204674,-0.31794637,-0.6403452,0.69919103,,1.2801047557657064,0.5473178015291652,0.20398030553000002,3.4288499558589423,-0.6502531023837311,-0.9906203377259992,-0.4065633806082207,,-0.706985303703757,-0.2639475641752453,0.18743705255,-4.02478877524196,-1.078335256148856,1.3933960864168564,0.8255409102426473,,-0.06277949319423604,-0.05761550026989781,0.08432494304,-0.06639839657179906,,4.549697e-05,4.351139e-06,-8.702278e-06,0.99999994,-4.4189394e-05,-3.916025e-05,4.418567e-05,1.0,-5.185604e-06,3.9167702e-05,5.2154064e-06,1.0,515,1.574,0,0,0.0,False,-0.2604738128088746,0.9997863805558849
1.588630142970942,19:21:29.318406,19:21:19.454787,0,,0.12394344,0.004438624,0.039009884,0.52714914,0.79150295,-0.30925164,-0.016512036,0.37339488,0.9275256,0.84961224,-0.48383793,0.20990407,,0.018614512,-0.022996977,0.021101892,-0.69905436,0.6521893,0.2932098,0.057417035,-0.35752505,0.9321369,0.7127596,0.6684496,0.21248266,,0.10516148,1.3401161,0.44064894,0.9942809,0.0135074295,-0.105939224,-0.059929673,-0.75049543,-0.65815276,-0.08839686,0.6607376,-0.74539375,,-0.09292064,0.26881674,-0.090119846,-0.61012477,-0.72235173,0.32550853,0.53998166,-0.078460686,0.83801174,-0.5797996,0.68706036,0.4379275,,0.014610699,0.40025017,-0.3605033,0.6228436,-0.69704616,-0.3552358,0.7148258,0.3225082,0.62049377,-0.31794637,-0.6404023,0.69913876,,1.2803673286834298,0.5467308738307242,0.20392067619,3.415220109532448,-0.6635068428609788,-0.9860203853181292,-0.40541997214528114,,-0.706985303703757,-0.2639475641752453,0.18743705255,-4.02478877524196,-1.078335256148856,1.3934777651569972,0.825377566176513,,-0.06277949319423604,-0.05761550026989781,0.08432494304,-0.06639839657179906,,4.549697e-05,4.351139e-06,-8.702278e-06,0.99999994,-4.4189394e-05,-3.916025e-05,4.418567e-05,1.0,-5.185604e-06,3.9167702e-05,5.2154064e-06,1.0,548,1.677,0,0,0.0,False,-0.2607717014014801,0.9996415399535463
1.6165610089665279,19:21:29.419465,19:21:19.454787,0,,0.12359615,0.004268691,0.0393541,0.47397488,0.8206696,-0.31913787,-0.031457007,0.37798503,0.9252771,0.8799763,-0.428519,0.2049712,,0.018617924,-0.023000404,0.02110219,-0.6990661,0.6521726,0.2932192,0.057438552,-0.3575233,0.93213624,0.7127463,0.6684669,0.21247259,,0.10516148,1.3401161,0.44064894,0.9942809,0.0135074295,-0.105939224,-0.059929673,-0.75049543,-0.65815276,-0.08839686,0.6607376,-0.74539375,,-0.092617214,0.26893538,-0.09052213,-0.5609523,-0.75671226,0.3357367,0.55130696,-0.038926285,0.8333939,-0.6175704,0.6525882,0.43901652,,0.014607435,0.40024832,-0.36050636,0.62285554,-0.69703126,-0.3552441,0.7148266,0.32252574,0.62048376,-0.31792122,-0.6404097,0.6991434,,1.2810005927791164,0.5441978174479786,0.20379623235000002,3.359023204678596,-0.7126959827765375,-0.9574266423472367,-0.4057466602775497,,-0.7070007491695054,-0.263970732373868,0.18743705255,-4.02478877524196,-1.078335256148856,1.3934777651569972,0.825377566176513,,-0.06277949319423604,-0.05761550026989781,0.08432494304,-0.06639839657179906,,4.549697e-05,4.351139e-06,-8.702278e-06,0.99999994,-4.4189394e-05,-3.916025e-05,4.418567e-05,1.0,-5.185604e-06,3.9167702e-05,5.2154064e-06,1.0,556,1.701,0,0,0.0,False,-0.25963972474957986,0.9989173369418547
1.7176168769947253,19:21:29.451475,19:21:19.674544,0,,0.12348558,0.0042158216,0.039416566,0.46016985,0.82837796,-0.31942654,-0.035690814,0.37675247,0.92562616,0.8871131,-0.4145447,0.20293567,,0.018617023,-0.023001924,0.021101534,-0.69906217,0.6522002,0.2931672,0.057445347,-0.35744092,0.9321674,0.7127496,0.6684841,0.2124075,,0.10516148,1.3401161,0.44064894,0.9942809,0.0135074295,-0.105939224,-0.059929673,-0.75049543,-0.65815276,-0.08839686,0.6607376,-0.74539375,,-0.09251582,0.2689424,-0.0906148,-0.54812616,-0.76583177,0.33624306,0.55348384,-0.030719735,0.8322932,-0.62706727,0.6423068,0.4407138,,0.014608463,0.4002471,-0.36050737,0.622851,-0.69706416,-0.3551875,0.7148324,0.322579,0.62044936,-0.317917,-0.64034706,0.6992027,,1.2811473247037266,0.5434332668934303,0.20378067687,3.345183668408617,-0.7251299042551925,-0.947369291851003,-0.40541997214528114,,-0.7069930264366312,-0.26397845510674217,0.18743705255,-4.02478877524196,-1.078335256148856,1.3933960864168564,0.8252142221103788,,-0.06277949319423604,-0.05761550026989781,0.08432494304,-0.06639839657179906,,4.549697e-05,4.351139e-06,-8.702278e-06,0.99999994,-4.4189394e-05,-3.916025e-05,4.418567e-05,1.0,-5.185604e-06,3.9167702e-05,5.2154064e-06,1.0,564,1.726,0,0,0.0,False,-0.261427056305211,0.9993035785480904
1.7496235150028951,19:21:29.473824,19:21:19.674544,0,,0.123384275,0.0041728765,0.039433584,0.4507981,0.8324445,-0.32220638,-0.037513107,0.37831354,0.92491716,0.89183724,-0.40486395,0.20177063,,0.018617023,-0.023001924,0.021101534,-0.69906217,0.6522002,0.2931672,0.057445347,-0.35744092,0.9321674,0.7127496,0.6684841,0.2124075,,0.10516148,1.3401161,0.44064894,0.9942809,0.0135074295,-0.105939224,-0.059929673,-0.75049543,-0.65815276,-0.08839686,0.6607376,-0.74539375,,-0.09241864,0.26892582,-0.09066658,-0.5393624,-0.77078134,0.33909348,0.55565774,-0.023203207,0.8310873,-0.6327185,0.6366771,0.44080555,,0.014608463,0.4002471,-0.36050737,0.622851,-0.69706416,-0.3551875,0.7148324,0.322579,0.62044936,-0.317917,-0.64034706,0.6992027,,1.2812786111625885,0.5427536664004985,0.20377678800000001,3.3344894812909063,-0.7329181847418226,-0.9424070099226965,-0.405256628079147,,-0.7069930264366312,-0.26397845510674217,0.18743705255,-4.02478877524196,-1.078335256148856,1.3933960864168564,0.8252142221103788,,-0.06277949319423604,-0.05761550026989781,0.08432494304,-0.06639839657179906,,4.549697e-05,4.351139e-06,-8.702278e-06,0.99999994,-4.4189394e-05,-3.916025e-05,4.418567e-05,1.0,-5.185604e-06,3.9167702e-05,5.2154064e-06,1.0,576,1.763,0,0,0.0,False,-0.2603546573718325,0.9989173369418547
1.7719763760105707,19:21:29.503460,19:21:19.674544,0,,0.12332967,0.00415121,0.03947769,0.4419933,0.83731794,-0.3217769,-0.040953368,0.37718058,0.92523384,0.89608294,-0.3957694,0.20100227,,0.018616673,-0.023004696,0.02110076,-0.69910294,0.65221626,0.29303408,0.057367682,-0.3573409,0.93221056,0.71271586,0.66852176,0.2124019,,0.10516148,1.3401161,0.44064894,0.9942809,0.0135074295,-0.105939224,-0.059929673,-0.75049543,-0.65815276,-0.08839686,0.6607376,-0.74539375,,-0.09236971,0.26894143,-0.09071908,-0.53118235,-0.77658796,0.3387572,0.5562933,-0.018101614,0.83078885,-0.6390486,0.62974876,0.44162592,,0.0146090165,0.4002451,-0.36050937,0.62289846,-0.6970885,-0.35505664,0.7147687,0.32266,0.6204806,-0.3179673,-0.64027977,0.69924146,,1.281332670292708,0.5423057478937935,0.20377549171000003,3.3246340539471335,-0.7416629207268107,-0.9355213003065471,-0.4057466602775497,,-0.7069930264366312,-0.2639861778396164,0.18743705255,-4.024998465185445,-1.078335256148856,1.393477765156997,0.8250508780442445,,-0.06277949319423604,-0.05761550026989781,0.08432494304,-0.06639839657179906,,4.549697e-05,4.351139e-06,-8.702278e-06,0.99999994,-4.4189394e-05,-3.916025e-05,4.418567e-05,1.0,-5.185604e-06,3.9167702e-05,5.2154064e-06,1.0,584,1.787,0,0,0.0,False,-0.2604738128088746,0.9983862547332805
1.8016144590219483,19:21:29.535316,19:21:19.674544,0,,0.12321643,0.0041162223,0.03952627,0.42686087,0.8442587,-0.32406276,-0.044784695,0.37764668,0.9248662,0.9032076,-0.3802761,0.19901246,,0.018617317,-0.023007333,0.021100402,-0.6991044,0.65221244,0.29303887,0.05738175,-0.3573352,0.9322119,0.71271324,0.66852856,0.21238962,,0.10516148,1.3401161,0.44064894,0.9942809,0.0135074295,-0.105939224,-0.059929673,-0.75049543,-0.65815276,-0.08839686,0.6607376,-0.74539375,,-0.09226351,0.2689524,-0.090789855,-0.51701844,-0.7850255,0.34121394,0.558808,-0.0075898324,0.8292623,-0.6484023,0.619417,0.4426026,,0.014608533,0.40024337,-0.36051142,0.6228996,-0.6970856,-0.35506022,0.7147737,0.32266906,0.62047017,-0.31795385,-0.64027834,0.6992489,,1.2813944521557017,0.5415566428049937,0.20378326945000003,3.3089073081857943,-0.7540968422054658,-0.925708986030735,-0.40541997214528114,,-0.7069930264366312,-0.26400162330536486,0.18743705255,-4.024998465185445,-1.078335256148856,1.393477765156997,0.8250508780442445,,-0.06277949319423604,-0.05761550026989781,0.08432494304,-0.06639839657179906,,4.549697e-05,4.351139e-06,-8.702278e-06,0.99999994,-4.4189394e-05,-3.916025e-05,4.418567e-05,1.0,-5.185604e-06,3.9167702e-05,5.2154064e-06,1.0,592,1.812,0,0,0.0,False,-0.26053339052739544,0.9988690567410752
1.8334274389781058,19:21:29.562371,19:21:19.674544,0,,0.12315012,0.0041161627,0.039559588,0.41723508,0.8476502,-0.32772505,-0.04557392,0.37967542,0.9239966,0.907655,-0.37058815,0.19704473,,0.018618401,-0.023009688,0.021098793,-0.699106,0.6522087,0.2930436,0.057395786,-0.35732955,0.9322132,0.7127106,0.66853523,0.21237719,,0.10516148,1.3401161,0.44064894,0.9942809,0.0135074295,-0.105939224,-0.059929673,-0.75049543,-0.65815276,-0.08839686,0.6607376,-0.74539375,,-0.09220096,0.2689772,-0.09082114,-0.50793064,-0.78928494,0.3450155,0.5615686,0.00030189526,0.8274301,-0.65318227,0.614027,0.44308433,,0.01460772,0.4002407,-0.36051264,0.6229007,-0.69708276,-0.35506383,0.7147787,0.32267812,0.6204597,-0.31794044,-0.64027685,0.69925636,,1.2813944521557017,0.5412091198256537,0.20379234348000003,3.2969549814071764,-0.7605187576944415,-0.9202273083365815,-0.40591000434368385,,-0.7069930264366312,-0.2640170687711133,0.18743834884000002,-4.024998465185445,-1.078335256148856,1.393477765156997,0.8250508780442445,,-0.06277949319423604,-0.05761550026989781,0.08432494304,-0.06639839657179906,,4.549697e-05,4.351139e-06,-8.702278e-06,0.99999994,-4.4189394e-05,-3.916025e-05,4.418567e-05,1.0,-5.185604e-06,3.9167702e-05,5.2154064e-06,1.0,621,1.902,0,0,0.0,False,-0.26148663402373185,0.99843453493406
1.8605204719933681,19:21:29.641256,19:21:19.835489,0,,0.12293818,0.00407362,0.039615974,0.38881385,0.8595323,-0.33170426,-0.05177784,0.37985,0.92359793,0.9198601,-0.34193274,0.19219562,,0.018619336,-0.02301766,0.021097243,-0.69914985,0.65221715,0.29292005,0.057346135,-0.35721812,0.93225896,0.7126716,0.6685865,0.21234691,,0.10516148,1.3401161,0.44064894,0.9942809,0.0135074295,-0.105939224,-0.059929673,-0.75049543,-0.65815276,-0.08839686,0.6607376,-0.74539375,,-0.09199775,0.26899147,-0.09091287,-0.4811683,-0.8039699,0.34944165,0.56623363,0.019270705,0.8240195,-0.66922086,0.59435767,0.44596234,,0.014607306,0.40023527,-0.36051872,0.6229504,-0.69710135,-0.35494015,0.71472496,0.32277727,0.62047005,-0.3179639,-0.64020663,0.69930995,,1.281363561224205,0.539811305175419,0.20384160250000002,3.2640336602801066,-0.7826538706564429,-0.899237173292701,-0.4055833162114155,,-0.7069930264366312,-0.26405568243548444,0.18743834884000002,-4.025208155128929,-1.078335256148856,1.3935594438971375,0.8248875339781102,,-0.06277949319423604,-0.05761550026989781,0.08432494304,-0.06639839657179906,,4.549697e-05,4.351139e-06,-8.702278e-06,0.99999994,-4.4189394e-05,-3.916025e-05,4.418567e-05,1.0,-5.185604e-06,3.9167702e-05,5.2154064e-06,1.0,629,1.927,0,0,0.0,False,-0.2608312791200009,0.9988207765402957
1.9394082570215687,19:21:29.671512,19:21:19.835489,0,,0.12284623,0.0040573776,0.039614245,0.37924403,0.86245555,-0.33517784,-0.052310318,0.38164294,0.92282844,0.9238168,-0.3324439,0.18985116,,0.018619657,-0.023018941,0.021097064,-0.6991506,0.65221524,0.29292244,0.0573532,-0.35721532,0.93225956,0.71267027,0.66858995,0.21234065,,0.10516148,1.3401161,0.44064894,0.9942809,0.0135074295,-0.105939224,-0.059929673,-0.75049543,-0.65815276,-0.08839686,0.6607376,-0.74539375,,-0.09190686,0.26898167,-0.09093196,-0.47207588,-0.8077539,0.3530977,0.56885177,0.026871389,0.822001,-0.6734627,0.58890706,0.4468069,,0.014607064,0.4002344,-0.36051974,0.622951,-0.6970999,-0.35494193,0.71472746,0.3227818,0.6204648,-0.31795716,-0.6402059,0.6993137,,1.2813481157584565,0.5392707138742233,0.20386234314,3.2516619536145193,-0.7886658766461222,-0.8930279256878096,-0.40591000434368407,,-0.7069930264366312,-0.26406340516835863,0.18743834884000002,-4.025208155128929,-1.078335256148856,1.3935594438971375,0.8248875339781102,,-0.06277949319423604,-0.05761550026989781,0.08432494304,-0.06639839657179906,,4.549697e-05,4.351139e-06,-8.702278e-06,0.99999994,-4.4189394e-05,-3.916025e-05,4.418567e-05,1.0,-5.185604e-06,3.9167702e-05,5.2154064e-06,1.0,637,1.951,0,0,0.0,False,-0.2608908568385213,0.9990138973434135
1.9696661329944618,19:21:29.701285,19:21:19.835489,0,,0.12276129,0.004040256,0.039629206,0.3682824,0.8662505,-0.3376059,-0.053432286,0.3822497,0.922513,0.92817724,-0.32170624,0.18706167,,0.0186322,-0.023000896,0.021106362,-0.69843584,0.6515881,0.2960072,0.058665097,-0.36008954,0.93107146,0.7132641,0.6676589,0.21327403,,0.10516148,1.3401161,0.44064894,0.9942809,0.0135074295,-0.105939224,-0.059929673,-0.75049543,-0.65815276,-0.08839686,0.6607376,-0.74539375,,-0.09182464,0.26898217,-0.09096314,-0.46166548,-0.8125803,0.3557784,0.57135683,0.034403473,0.8199804,-0.6785399,0.58183306,0.44839036,,0.014592857,0.40025017,-0.36050877,0.62212193,-0.696253,-0.35804483,0.7158209,0.32060245,0.6203342,-0.31711948,-0.6422195,0.69784623,,1.2812631656968398,0.5387610135045244,0.20387789862000003,3.2378224173445402,-0.7957709746339252,-0.8845387962709572,-0.4057466602775497,,-0.7070007491695054,-0.2640942960998556,0.18743834884000002,-4.021853116033177,-1.0784718926486214,1.393670861800834,0.8248875339781102,,-0.06277949319423604,-0.05761550026989781,0.08432494304,-0.06639839657179906,,4.549697e-05,4.351139e-06,-8.702278e-06,0.99999994,-4.4189394e-05,-3.916025e-05,4.418567e-05,1.0,-5.185604e-06,3.9167702e-05,5.2154064e-06,1.0,649,1.988,0,0,0.0,False,-0.26148663402373185,0.9994484191504285
1.9994361469871365,19:21:29.731857,19:21:19.835489,0,,0.122697026,0.0040058494,0.03961502,0.36134028,0.86822057,-0.34003818,-0.05372852,0.38345942,0.9219936,0.9308847,-0.31488368,0.18520755,,0.01863183,-0.023009017,0.021105528,-0.6983111,0.65158004,0.2963192,0.058727503,-0.36042354,0.93093824,0.7133811,0.66748655,0.21342212,,0.10516148,1.3401161,0.44064894,0.9942809,0.0135074295,-0.105939224,-0.059929673,-0.75049543,-0.65815276,-0.08839686,0.6607376,-0.74539375,,-0.0917608,0.26894957,-0.0909825,-0.4550495,-0.8151733,0.35836065,0.5732132,0.039814502,0.8184384,-0.68143713,0.57784706,0.44915056,,0.014593679,0.40024537,-0.36051536,0.6219836,-0.69621277,-0.3583633,0.7159392,0.3202872,0.6203605,-0.3171237,-0.64242035,0.6976594,,1.2811473247037266,0.5382744813334484,0.20388697265000003,3.2288057497747062,-0.8000067061266538,-0.8798596601542596,-0.406073348409818,,-0.706985303703757,-0.26414835522997515,0.18743834884000002,-4.0216434260896925,-1.078608529148387,1.393863958444671,0.8247241899119759,,-0.06277949319423604,-0.05761550026989781,0.08432494304,-0.06639839657179906,,4.549697e-05,4.351139e-06,-8.702278e-06,0.99999994,-4.4189394e-05,-3.916025e-05,4.418567e-05,1.0,-5.185604e-06,3.9167702e-05,5.2154064e-06,1.0,657,2.013,0,0,0.0,False,-0.2598780356236645,0.9989656171426342
2.0299788679694757,19:21:29.765560,19:21:19.835489,0,,0.12261517,0.003961906,0.039633617,0.34827098,0.8726297,-0.34238064,-0.055939287,0.3839438,0.9216605,0.9357232,-0.30183506,0.18253085,,0.018634636,-0.023019373,0.021104038,-0.69836134,0.65160376,0.2961484,0.058692396,-0.3602339,0.9310138,0.7133347,0.66756576,0.21332934,,0.10516148,1.3401161,0.44064894,0.9942809,0.0135074295,-0.105939224,-0.059929673,-0.75049543,-0.65815276,-0.08839686,0.6607376,-0.74539375,,-0.09168316,0.26893258,-0.09103408,-0.44263813,-0.82084763,0.36094415,0.5753123,0.04878811,0.8164775,-0.68781334,0.56905967,0.45064825,,0.014591517,0.40023857,-0.3605235,0.62203974,-0.6962528,-0.35818794,0.7158872,0.32044813,0.6203374,-0.31713098,-0.6422967,0.69776994,,1.2808924745188772,0.5376412172377619,0.20389475039000002,3.212869314069882,-0.8090247151111729,-0.8698106800856573,-0.40640003654208656,,-0.7069930264366312,-0.26420241436009473,0.18743834884000002,-4.021853116033177,-1.078608529148387,1.393863958444671,0.8247241899119759,,-0.06277949319423604,-0.05761550026989781,0.08432494304,-0.06639839657179906,,4.549697e-05,4.351139e-06,-8.702278e-06,0.99999994,-4.4189394e-05,-3.916025e-05,4.418567e-05,1.0,-5.185604e-06,3.9167702e-05,5.2154064e-06,1.0,686,2.103,0,0,0.0,False,-0.2604738128088746,0.9990138973434135
2.063637664017733,19:21:29.844354,19:21:20.077622,0,,0.12242621,0.0037878007,0.03961791,0.32181007,0.8800388,-0.3492417,-0.05646929,0.3860471,0.9207491,0.94511867,-0.27658486,0.17392898,,0.018637609,-0.02303657,0.021100998,-0.69836664,0.6516087,0.296125,0.0587835,-0.36011747,0.93105316,0.7133221,0.66762376,0.21319017,,0.10516148,1.3401161,0.44064894,0.9942809,0.0135074295,-0.105939224,-0.059929673,-0.75049543,-0.65815276,-0.08839686,0.6607376,-0.74539375,,-0.0915011,0.26880026,-0.09115903,-0.41730207,-0.83066237,0.36859062,0.58220905,0.06705562,0.8102692,-0.6977762,0.5527238,0.45563668,,0.014589645,0.40022698,-0.36053678,0.622042,-0.6962688,-0.35815293,0.71592283,0.32055598,0.6202405,-0.31704605,-0.64222556,0.697874,,1.2800352511698383,0.5360039978684263,0.20386882459000003,3.177851093507967,-0.823644820586075,-0.848414230533835,-0.4057466602775497,,-0.706985303703757,-0.26430280988745963,0.18743834884000002,-4.021853116033177,-1.078608529148387,1.3937822797045305,0.8248875339781102,,-0.06277949319423604,-0.05761550026989781,0.08432494304,-0.06639839657179906,,4.549697e-05,4.351139e-06,-8.702278e-06,0.99999994,-4.4189394e-05,-3.916025e-05,4.418567e-05,1.0,-5.185604e-06,3.9167702e-05,5.2154064e-06,1.0,694,2.127,0,0,0.0,False,-0.26053339052739544,0.999158737945752
2.142473364016041,19:21:29.871792,19:21:20.077622,0,,0.12235678,0.0037091672,0.039647594,0.31224477,0.883304,-0.34968123,-0.05977145,0.385622,0.9207189,0.9481194,-0.26658872,0.17320481,,0.018638585,-0.023040503,0.021100402,-0.69836897,0.6516272,0.29607892,0.05880457,-0.36003286,0.9310845,0.7133181,0.6676513,0.2131171,,0.10516148,1.3401161,0.44064894,0.9942809,0.0135074295,-0.105939224,-0.059929673,-0.75049543,-0.65815276,-0.08839686,0.6607376,-0.74539375,,-0.0914384,0.26876464,-0.0912408,-0.40823513,-0.83493114,0.36909905,0.5821371,0.07334571,0.80977577,-0.7031788,0.5454452,0.4561021,,0.01458892,0.4002244,-0.36053985,0.6220437,-0.6962937,-0.35810146,0.7159303,0.3206203,0.62019867,-0.31702587,-0.6421664,0.6979376,,1.27981901464936,0.5353939019713626,0.20384030621000002,3.166947216446771,-0.8315697375724705,-0.8406451322771936,-0.4057466602775497,,-0.706985303703757,-0.26432597808608227,0.18743834884000002,-4.021853116033177,-1.078608529148387,1.39370060096439,0.8250508780442445,,-0.06277949319423604,-0.05761550026989781,0.08432494304,-0.06639839657179906,,4.549697e-05,4.351139e-06,-8.702278e-06,0.99999994,-4.4189394e-05,-3.916025e-05,4.418567e-05,1.0,-5.185604e-06,3.9167702e-05,5.2154064e-06,1.0,702,2.152,0,0,0.0,False,-0.26112916771260597,0.9989173369418547
2.169939436018467,19:21:29.895762,19:21:20.077622,0,,0.12229347,0.0036641806,0.039671823,0.30575562,0.8848616,-0.3514729,-0.061119616,0.38663158,0.9202068,0.9501462,-0.2598765,0.17229718,,0.01864066,-0.023045748,0.021101296,-0.6983767,0.65161407,0.29608953,0.058832914,-0.36002484,0.9310859,0.7133082,0.66766846,0.21309662,,0.10516148,1.3401161,0.44064894,0.9942809,0.0135074295,-0.105939224,-0.059929673,-0.75049543,-0.65815276,-0.08839686,0.6607376,-0.74539375,,-0.0913798,0.26875,-0.09129529,-0.40204546,-0.8371116,0.37094966,0.58274156,0.07854977,0.80885243,-0.70623773,0.5413632,0.45623913,,0.014587014,0.40022224,-0.36054477,0.6220511,-0.6962827,-0.35811007,0.7159369,0.32064044,0.62018067,-0.31699648,-0.6421683,0.69794923,,1.279749510053492,0.5350077653276514,0.20381697299,3.158769308650875,-0.8360787420647302,-0.8361515540538059,-0.4050932840130128,,-0.7069930264366312,-0.2643568690175792,0.18743705255,-4.021853116033177,-1.078608529148387,1.39370060096439,0.8250508780442445,,-0.06277949319423604,-0.05761550026989781,0.08432494304,-0.06639839657179906,,4.549697e-05,4.351139e-06,-8.702278e-06,0.99999994,-4.4189394e-05,-3.916025e-05,4.418567e-05,1.0,-5.185604e-06,3.9167702e-05,5.2154064e-06,1.0,710,2.176,0,0,0.0,False,-0.26095043455704303,0.9994484191504285
2.1938653200049885,19:21:29.917638,19:21:20.077622,0,,0.12224663,0.003617391,0.039686725,0.30256224,0.8857892,-0.35189956,-0.0619331,0.38669524,0.9201256,0.95111525,-0.25660107,0.17185906,,0.01864231,-0.023048237,0.021101236,-0.69833875,0.6515658,0.29628524,0.058938503,-0.36018938,0.93101555,0.7133366,0.66762686,0.2131319,,0.10516148,1.3401161,0.44064894,0.9942809,0.0135074295,-0.105939224,-0.059929673,-0.75049543,-0.65815276,-0.08839686,0.6607376,-0.74539375,,-0.09133672,0.26872718,-0.0913425,-0.39900294,-0.8383603,0.3714144,0.5829091,0.080766045,0.80851334,-0.70782316,0.53910005,0.45646197,,0.014585489,0.40022078,-0.3605469,0.6220057,-0.6962231,-0.3583048,0.71601045,0.320527,0.6201544,-0.31691945,-0.6422896,0.69787264,,1.2797417873206178,0.5346988560126824,0.20378715832000002,3.1547851997246688,-0.8385381990605081,-0.8334926018661458,-0.406073348409818,,-0.7069930264366312,-0.26438003721620185,0.18743705255,-4.0216434260896925,-1.078608529148387,1.39370060096439,0.8250508780442445,,-0.06277949319423604,-0.05761550026989781,0.08432494304,-0.06639839657179906,,4.549697e-05,4.351139e-06,-8.702278e-06,0.99999994,-4.4189394e-05,-3.916025e-05,4.418567e-05,1.0,-5.185604e-06,3.9167702e-05,5.2154064e-06,1.0,718,2.201,0,0,0.0,False,-0.25975888018662197,0.9987724963395164
2.215754333010409,19:21:29.947867,19:21:20.077622,0,,0.1221066,0.0035383552,0.03981124,0.29074752,0.8886142,-0.35472593,-0.06327307,0.3877875,0.9195746,0.95470536,-0.24491943,0.16897362,,0.018641375,-0.02305381,0.021099627,-0.69837666,0.65158397,0.29615593,0.058874816,-0.36008042,0.93106174,0.71330476,0.66766787,0.21310991,,0.10516148,1.3401161,0.44064894,0.9942809,0.0135074295,-0.105939224,-0.059929673,-0.75049543,-0.65815276,-0.08839686,0.6607376,-0.74539375,,-0.091213375,0.26875764,-0.09150129,-0.38767627,-0.8422967,0.3744907,0.5847661,0.08932741,0.8062687,-0.7125698,0.5315607,0.45791647,,0.014586834,0.4002167,-0.3605509,0.6220494,-0.6962502,-0.35817623,0.71595514,0.32061514,0.6201727,-0.31695864,-0.64221615,0.69792235,,1.2798344601151084,0.5342354920402289,0.20367697367,3.1386390740763606,-0.8453700240487801,-0.8234293759735939,-0.4068900687404897,,-0.706985303703757,-0.26440320541482454,0.18743705255,-4.021853116033177,-1.078608529148387,1.3937822797045305,0.8248875339781102,,-0.06277949319423604,-0.05761550026989781,0.08432494304,-0.06639839657179906,,4.549697e-05,4.351139e-06,-8.702278e-06,0.99999994,-4.4189394e-05,-3.916025e-05,4.418567e-05,1.0,-5.185604e-06,3.9167702e-05,5.2154064e-06,1.0,730,2.238,0,0,0.0,False,-0.2602950796533112,0.9991104577449725
2.2460192589787766,19:21:29.987437,19:21:20.077622,0,,0.122033365,0.0035149157,0.039929852,0.2815872,0.89201313,-0.35358298,-0.06841418,0.38622025,0.919866,0.95709354,-0.2348324,0.169781,,0.01864123,-0.023059443,0.021099687,-0.6984192,0.65164495,0.2959213,0.058811396,-0.3598227,0.93116534,0.7132684,0.66774726,0.21298301,,0.10516148,1.3401161,0.44064894,0.9942809,0.0135074295,-0.105939224,-0.059929673,-0.75049543,-0.65815276,-0.08839686,0.6607376,-0.74539375,,-0.0911535,0.2688228,-0.09161154,-0.37902805,-0.84675586,0.37328574,0.5829082,0.09482962,0.8069853,-0.7187181,0.5234614,0.45763788,,0.0145872375,0.40021393,-0.36055577,0.6220982,-0.6963305,-0.3579354,0.71589655,0.32080653,0.6201414,-0.31699532,-0.6420335,0.6980737,,1.2799503011082218,0.5340578691841218,0.20362641836000003,3.1285739567891033,-0.8541147600337682,-0.8149100915546335,-0.40509328401301237,,-0.706985303703757,-0.26442637361344723,0.18743575626000003,-4.022062805976661,-1.078608529148387,1.3937006009643897,0.8243975017797073,,-0.06277949319423604,-0.05761550026989781,0.08432494304,-0.06639839657179906,,4.549697e-05,4.351139e-06,-8.702278e-06,0.99999994,-4.4189394e-05,-3.916025e-05,4.418567e-05,1.0,-5.185604e-06,3.9167702e-05,5.2154064e-06,1.0,755,2.316,0,0,0.0,False,-0.2611887454311268,0.9991104577449725
2.2855896179680713,19:21:30.057681,19:21:20.222005,0,,0.12181041,0.0034830421,0.04011275,0.26032004,0.89523447,-0.36164686,-0.074091345,0.39197844,0.9169861,0.96267533,-0.21191496,0.16836894,,0.018643416,-0.023063108,0.021099508,-0.6984262,0.6516337,0.29592955,0.058832675,-0.3598175,0.931166,0.71325976,0.667761,0.21296862,,0.10516148,1.3401161,0.44064894,0.9942809,0.0135074295,-0.105939224,-0.059929673,-0.75049543,-0.65815276,-0.08839686,0.6607376,-0.74539375,,-0.09095161,0.2689304,-0.09178996,-0.35868892,-0.8520188,0.38132173,0.5832455,0.11438256,0.80420226,-0.728812,0.51086265,0.4559084,,0.014585244,0.40021172,-0.36055884,0.622105,-0.69632083,-0.35794222,0.7159006,0.32082215,0.6201286,-0.31697267,-0.64203614,0.6980816,,1.2801819830944485,0.5335095551500518,0.20355123354000002,3.1006851943056617,-0.8685982290089049,-0.8017112551804232,-0.40525662807914675,,-0.7069930264366312,-0.26444954181206987,0.18743575626000003,-4.022062805976661,-1.078608529148387,1.3937006009643897,0.8243975017797073,,-0.06277949319423604,-0.05761550026989781,0.08432494304,-0.06639839657179906,,4.549697e-05,4.351139e-06,-8.702278e-06,0.99999994,-4.4189394e-05,-3.916025e-05,4.418567e-05,1.0,-5.185604e-06,3.9167702e-05,5.2154064e-06,1.0,763,2.34,0,0,0.0,False,-0.26017592421626956,0.9990138973434135
2.355815546005033,19:21:30.087032,19:21:20.222005,0,,0.12170392,0.0034488887,0.040152565,0.25155696,0.896757,-0.3640683,-0.07696006,0.3935077,0.9160944,0.9647777,-0.2024312,0.1680041,,0.01864374,-0.02306442,0.021099329,-0.6984269,0.6516318,0.2959319,0.05883971,-0.35981467,0.93116665,0.71325845,0.6677644,0.21296248,,0.10516148,1.3401161,0.44064894,0.9942809,0.0135074295,-0.105939224,-0.059929673,-0.75049543,-0.65815276,-0.08839686,0.6607376,-0.74539375,,-0.0908512,0.26893586,-0.091853045,-0.35031077,-0.8544211,0.38372773,0.58286035,0.12183618,0.80338645,-0.73318225,0.5050946,0.45532766,,0.014585001,0.40021086,-0.36055988,0.62210554,-0.6963194,-0.357944,0.7159031,0.3208267,0.6201233,-0.31696594,-0.6420354,0.6980853,,1.280236042224568,0.5330616366433468,0.20353567806000003,3.0893619373574976,-0.875156780997646,-0.7954647296614488,-0.40541997214528114,,-0.7069930264366312,-0.2644572645449441,0.18743575626000003,-4.022062805976661,-1.078608529148387,1.3937006009643897,0.8243975017797073,,-0.06277949319423604,-0.05761550026989781,0.08432494304,-0.06639839657179906,,4.549697e-05,4.351139e-06,-8.702278e-06,0.99999994,-4.4189394e-05,-3.916025e-05,4.418567e-05,1.0,-5.185604e-06,3.9167702e-05,5.2154064e-06,1.0,771,2.365,0,0,0.0,False,-0.2602355019347904,0.9991104577449725
2.3851748579763807,19:21:30.110147,19:21:20.222005,0,,0.12160513,0.003426239,0.04016368,0.24469458,0.89692956,-0.36829552,-0.07707557,0.3966342,0.9147354,0.9665319,-0.19544421,0.16618562,,0.018641181,-0.023066476,0.021099448,-0.6984183,0.6516652,0.2958789,0.058846295,-0.359729,0.9311994,0.7132663,0.6677781,0.2128933,,0.10516148,1.3401161,0.44064894,0.9942809,0.0135074295,-0.105939224,-0.059929673,-0.75049543,-0.65815276,-0.08839686,0.6607376,-0.74539375,,-0.09075508,0.2689302,-0.09188658,-0.34367058,-0.855163,0.38805512,0.58420604,0.12884027,0.80131364,-0.7352509,0.50209206,0.45531276,,0.014587629,0.40021017,-0.36056173,0.6220959,-0.69635785,-0.35788605,0.7159123,0.32087797,0.62008625,-0.31696418,-0.64196813,0.698148,,1.2802746558889393,0.532690945465384,0.20352660403000003,3.079087130126756,-0.8782994204922512,-0.7915135792940416,-0.40525662807914675,,-0.7069775809708827,-0.2644649872778183,0.18743445997000002,-4.022062805976661,-1.078608529148387,1.3936189222242492,0.8245608458458416,,-0.06277949319423604,-0.05761550026989781,0.08432494304,-0.06639839657179906,,4.549697e-05,4.351139e-06,-8.702278e-06,0.99999994,-4.4189394e-05,-3.916025e-05,4.418567e-05,1.0,-5.185604e-06,3.9167702e-05,5.2154064e-06,1.0,779,2.389,0,0,0.0,False,-0.2608908568385213,0.9987242161387369
2.408297748013865,19:21:30.139577,19:21:20.363155,0,,0.12146169,0.0033660978,0.040214106,0.233509,0.900345,-0.36722222,-0.081964225,0.39454466,0.91521394,0.9688939,-0.1836116,0.1659258,,0.018642731,-0.023067534,0.021099687,-0.6984238,0.6516819,0.29582912,0.058853567,-0.3596535,0.93122804,0.7132604,0.6678024,0.2128368,,0.10516148,1.3401161,0.44064894,0.9942809,0.0135074295,-0.105939224,-0.059929673,-0.75049543,-0.65815276,-0.08839686,0.6607376,-0.74539375,,-0.09062011,0.26892492,-0.09197871,-0.33299586,-0.85983604,0.38703457,0.58259124,0.13513,0.80145323,-0.74141836,0.49236357,0.45593524,,0.014586117,0.4002097,-0.36056274,0.6221016,-0.6963804,-0.3578324,0.71591145,0.32093513,0.62005764,-0.31695497,-0.64191514,0.6982009,,1.2803441604848071,0.5320267904382007,0.20350327081000003,3.0650379039132924,-0.8877273389760666,-0.7794150919713981,-0.4062366924759524,,-0.706985303703757,-0.26447271001069256,0.18743445997000002,-4.022062805976661,-1.078608529148387,1.3935372434841087,0.8247241899119758,,-0.06277949319423604,-0.05761550026989781,0.08432494304,-0.06639839657179906,,4.549697e-05,4.351139e-06,-8.702278e-06,0.99999994,-4.4189394e-05,-3.916025e-05,4.418567e-05,1.0,-5.185604e-06,3.9167702e-05,5.2154064e-06,1.0,787,2.414,0,0,0.0,False,-0.2594609915940169,0.9993518587488699
2.4377309620031156,19:21:30.168631,19:21:20.363155,0,,0.121306136,0.003305748,0.04027073,0.22291848,0.901627,-0.3706423,-0.085202366,0.39677483,0.9139532,0.97110647,-0.1721574,0.16526929,,0.018642731,-0.023067534,0.021099687,-0.6984238,0.6516819,0.29582912,0.058853567,-0.3596535,0.93122804,0.7132604,0.6678024,0.2128368,,0.10516148,1.3401161,0.44064894,0.9942809,0.0135074295,-0.105939224,-0.059929673,-0.75049543,-0.65815276,-0.08839686,0.6607376,-0.74539375,,-0.090473734,0.26892412,-0.09207679,-0.32282782,-0.86216784,0.390447,0.58207405,0.14443587,0.80020505,-0.7463056,0.48559752,0.45521757,,0.014586117,0.4002097,-0.36056274,0.6221016,-0.6963804,-0.3578324,0.71591145,0.32093513,0.62005764,-0.31695497,-0.64191514,0.6982009,,1.280467724210795,0.5314166945411369,0.20346178953000002,3.0505692978128605,-0.8952423464631658,-0.771571853725143,-0.40607334840981846,,-0.706985303703757,-0.26447271001069256,0.18743445997000002,-4.022062805976661,-1.078608529148387,1.3935372434841087,0.8247241899119758,,-0.06277949319423604,-0.05761550026989781,0.08432494304,-0.06639839657179906,,4.549697e-05,4.351139e-06,-8.702278e-06,0.99999994,-4.4189394e-05,-3.916025e-05,4.418567e-05,1.0,-5.185604e-06,3.9167702e-05,5.2154064e-06,1.0,799,2.451,0,0,0.0,False,-0.25922268071993226,0.9993035785480904
2.4667837530141696,19:21:30.193134,19:21:20.363155,0,,0.12113123,0.003236726,0.04035549,0.21175392,0.9019619,-0.37633044,-0.08723128,0.40096855,0.91192925,0.9734223,-0.1602768,0.16358596,,0.018644273,-0.023068622,0.021099925,-0.6984292,0.65167445,0.29583257,0.05886078,-0.35965398,0.93122745,0.71325445,0.66780937,0.21283478,,0.10516148,1.3401161,0.44064894,0.9942809,0.0135074295,-0.105939224,-0.059929673,-0.75049543,-0.65815276,-0.08839686,0.6607376,-0.74539375,,-0.090311304,0.2689365,-0.092203304,-0.3120485,-0.86351794,0.3961849,0.5825409,0.15551439,0.7977853,-0.7505144,0.4797416,0.45450652,,0.0145846065,0.4002092,-0.36056378,0.62210727,-0.6963736,-0.35783565,0.71591055,0.32094163,0.62005526,-0.31694576,-0.6419192,0.69820136,,1.2806376243340278,0.5308606577741928,0.20338530842000002,3.0342134822210673,-0.9016642619521416,-0.7643749224880377,-0.40541997214528136,,-0.7069775809708827,-0.2644804327435668,0.18743445997000002,-4.022062805976661,-1.078608529148387,1.3935372434841087,0.8247241899119758,,-0.06277949319423604,-0.05761550026989781,0.08432494304,-0.06639839657179906,,4.549697e-05,4.351139e-06,-8.702278e-06,0.99999994,-4.4189394e-05,-3.916025e-05,4.418567e-05,1.0,-5.185604e-06,3.9167702e-05,5.2154064e-06,1.0,824,2.529,0,0,0.0,False,-0.26005676877922745,0.9992552983473109
2.4912559280055575,19:21:30.271780,19:21:20.363155,0,,0.12081216,0.0030793995,0.040660307,0.19046274,0.9060034,-0.37799653,-0.096622884,0.40047634,0.9111985,0.97692776,-0.13702625,0.16381654,,0.018643372,-0.023070142,0.02109927,-0.69842535,0.65167814,0.29583386,0.058867574,-0.3596478,0.93122935,0.71325773,0.66780925,0.21282443,,0.10516148,1.3401161,0.44064894,0.9942809,0.0135074295,-0.105939224,-0.059929673,-0.75049543,-0.65815276,-0.08839686,0.6607376,-0.74539375,,-0.09003144,0.26903695,-0.092565306,-0.29163375,-0.86989385,0.39778695,0.57873726,0.17064193,0.7974613,-0.7615858,0.46278074,0.45367503,,0.014585635,0.40020797,-0.3605648,0.62210274,-0.6963775,-0.35783598,0.7159164,0.32094422,0.6200472,-0.31694153,-0.6419137,0.69820833,,1.2811396019708523,0.5300729390210219,0.20315067993000002,3.005276270020203,-0.9184705514232906,-0.7432377549805868,-0.4055833162114155,,-0.706985303703757,-0.264488155476441,0.18743445997000002,-4.022062805976661,-1.078608529148387,1.3935372434841087,0.8247241899119758,,-0.06277949319423604,-0.05761550026989781,0.08432494304,-0.06639839657179906,,4.549697e-05,4.351139e-06,-8.702278e-06,0.99999994,-4.4189394e-05,-3.916025e-05,4.418567e-05,1.0,-5.185604e-06,3.9167702e-05,5.2154064e-06,1.0,832,2.553,0,0,0.0,False,-0.26041423509035333,0.9988207765402957
2.5699018070008606,19:21:30.303026,19:21:20.363155,0,,0.12066565,0.003018245,0.040811494,0.18234916,0.9072591,-0.37898484,-0.10026574,0.4005963,0.9107521,0.97810805,-0.12807569,0.16401541,,0.018644594,-0.023069903,0.021099746,-0.69843,0.6516484,0.29588825,0.058867842,-0.3597272,0.93119866,0.71325314,0.6677954,0.21288317,,0.10516148,1.3401161,0.44064894,0.9942809,0.0135074295,-0.105939224,-0.059929673,-0.75049543,-0.65815276,-0.08839686,0.6607376,-0.74539375,,-0.08990358,0.26909882,-0.092732325,-0.28384122,-0.8720368,0.3987305,0.577136,0.1767051,0.7973013,-0.7657338,0.45642868,0.45312762,,0.014584365,0.40020832,-0.3605648,0.6221078,-0.69634295,-0.35789433,0.71591306,0.32089555,0.62007624,-0.31693903,-0.6419755,0.6981526,,1.2814948476830668,0.5298258115690467,0.20303271754000002,2.9937433231285544,-0.9247558304125009,-0.7350904180253506,-0.406073348409818,,-0.7069930264366312,-0.264488155476441,0.18743445997000002,-4.022062805976661,-1.078608529148387,1.3936189222242492,0.8245608458458416,,-0.06277949319423604,-0.05761550026989781,0.08432494304,-0.06639839657179906,,4.549697e-05,4.351139e-06,-8.702278e-06,0.99999994,-4.4189394e-05,-3.916025e-05,4.418567e-05,1.0,-5.185604e-06,3.9167702e-05,5.2154064e-06,1.0,840,2.578,0,0,0.0,False,-0.2594014138754961,0.9981448537293831
2.6011811600183137,19:21:30.324360,19:21:20.541509,0,,0.120554194,0.0029610246,0.040908664,0.17469989,0.90736103,-0.3823293,-0.102098286,0.40290123,0.9095309,0.97931397,-0.119859844,0.16302675,,0.018590413,-0.023096487,0.021087885,-0.69842494,0.65160507,0.29599547,0.058918178,-0.35983118,0.9311553,0.7132539,0.6677817,0.21292377,,0.105179965,1.340114,0.44064093,0.99428,0.013496672,-0.105948664,-0.059943926,-0.7504956,-0.6581512,-0.08839686,0.6607376,-0.74539375,,-0.089822195,0.2691302,-0.09285842,-0.2764374,-0.8728605,0.40211555,0.5768747,0.18394113,0.79585254,-0.76863384,0.4519737,0.4526829,,0.014622253,0.40019336,-0.36058843,0.62210506,-0.6962964,-0.35798964,0.7159315,0.3208426,0.6200824,-0.3169028,-0.6420525,0.6980983,,1.281888707059652,0.5295477931855747,0.20294845869000003,2.9817909963499365,-0.929128198404995,-0.7288296466824267,-0.40362318741780423,,-0.7069930264366312,-0.26449587820931525,0.18743316368000001,-4.022062805976661,-1.078608529148387,1.3937006009643897,0.8247241899119759,,-0.06277949319423604,-0.05761550026989781,0.08432494304,-0.06639839657179906,,6.471574e-05,9.536743e-07,-3.2186508e-06,1.0,-5.487725e-05,-4.864484e-05,5.4873526e-05,1.0,-6.5267086e-06,4.864484e-05,6.4969063e-06,1.0,852,2.615,0,0,0.0,False,-0.2594014138754961,0.9984828151348395
2.6225027900072746,19:21:30.355830,19:21:20.541509,0,,0.12038517,0.0029090494,0.041002005,0.1693347,0.9076478,-0.38405877,-0.10321885,0.40387607,0.90897197,0.98013854,-0.114278436,0.16207662,,0.01858842,-0.023098096,0.021089435,-0.6983847,0.6517327,0.29580948,0.05876285,-0.3596937,0.93121827,0.7133062,0.6677313,0.21290696,,0.105179965,1.340114,0.44064093,0.99428,0.013496672,-0.105948664,-0.059943926,-0.7504956,-0.6581512,-0.08839686,0.6607376,-0.74539375,,-0.08966576,0.26916078,-0.09297917,-0.2712345,-0.87366545,0.40390664,0.5767975,0.1884054,0.7948636,-0.770543,0.44856676,0.45282596,,0.014624155,0.40019408,-0.3605906,0.6220671,-0.6964247,-0.357806,0.7158936,0.32085496,0.6201197,-0.31706282,-0.6419071,0.69815934,,1.2824061301622252,0.5291848247404861,0.20285512581,2.9727743287801016,-0.9321342013998347,-0.7231929819356234,-0.40443990774847527,,-0.7069930264366312,-0.26449587820931525,0.18743186739,-4.022272495920146,-1.0787451656481524,1.3937303401279457,0.8239074695813046,,-0.06277949319423604,-0.05761550026989781,0.08432494304,-0.06639839657179906,,6.471574e-05,9.536743e-07,-3.2186508e-06,1.0,-5.487725e-05,-4.864484e-05,5.4873526e-05,1.0,-6.5267086e-06,4.864484e-05,6.4969063e-06,1.0,881,2.705,0,0,0.0,False,-0.26041423509035333,0.9978551725247067
2.6539575979695655,19:21:30.443580,19:21:20.541509,0,,0.119905256,0.0028707385,0.041115135,0.15590583,0.9091662,-0.38614768,-0.10881534,0.40435687,0.908105,0.98176,-0.09956011,0.16197279,,0.018602673,-0.023070648,0.021100342,-0.69762206,0.6508891,0.2994441,0.060367346,-0.36306027,0.92980814,0.7139182,0.66673136,0.21398643,,0.105179965,1.340114,0.44064093,0.99428,0.013496672,-0.105948664,-0.059943926,-0.7504956,-0.6581512,-0.08839686,0.6607376,-0.74539375,,-0.08920171,0.2692261,-0.09313717,-0.2582854,-0.8766343,0.40595683,0.57424337,0.19860528,0.7942295,-0.776874,0.4382559,0.4521046,,0.014607658,0.40021574,-0.3605723,0.6211752,-0.69533324,-0.36145958,0.717145,0.31839156,0.6199434,-0.31598157,-0.64431244,0.6964317,,1.2840201813329382,0.5280032466107297,0.20278901502000002,2.9507568847142265,-0.9423819388822428,-0.7074038738056005,-0.4062366924759524,,-0.7070007491695054,-0.26449587820931525,0.18743186739,-4.01828838699394,-1.0787451656481524,1.3938120188680863,0.8237441255151703,,-0.06277949319423604,-0.05761550026989781,0.08432494304,-0.06639839657179906,,6.471574e-05,9.536743e-07,-3.2186508e-06,1.0,-5.487725e-05,-4.864484e-05,5.4873526e-05,1.0,-6.5267086e-06,4.864484e-05,6.4969063e-06,1.0,885,2.717,0,0,0.0,False,-0.2608312791200009,0.9987242161387369
2.7417318759835325,19:21:30.473008,19:21:20.686783,0,,0.11968665,0.0028536618,0.0411115,0.15199971,0.90892977,-0.3882559,-0.10995507,0.4059323,0.9072645,0.9822454,-0.095213264,0.161643,,0.018601865,-0.023078442,0.02110058,-0.6975058,0.6510925,0.2992728,0.060175806,-0.36294466,0.9298657,0.7140481,0.6665956,0.21397603,,0.105179965,1.340114,0.44064093,0.99428,0.013496672,-0.105948664,-0.059943926,-0.7504956,-0.6581512,-0.08839686,0.6607376,-0.74539375,,-0.088984765,0.26921904,-0.09316846,-0.25449958,-0.87676966,0.40805012,0.57387054,0.20270215,0.7934636,-0.77839744,0.4361041,0.45156467,,0.0146087995,0.40021208,-0.36057916,0.6210557,-0.6955276,-0.36129093,0.71714723,0.3183117,0.6199819,-0.31621137,-0.6441421,0.696485,,1.2847847318874863,0.5273390915835464,0.20278642244000003,2.9434177366922682,-0.9451146688775516,-0.703541940928861,-0.4059100043436843,,-0.7070007491695054,-0.26453449187368633,0.18743186739,-4.0184980769374254,-1.079018438647683,1.393871497195198,0.8237441255151703,,-0.06277949319423604,-0.05761550026989781,0.08432494304,-0.06639839657179906,,6.471574e-05,9.536743e-07,-3.2186508e-06,1.0,-5.487725e-05,-4.864484e-05,5.4873526e-05,1.0,-6.5267086e-06,4.864484e-05,6.4969063e-06,1.0,897,2.754,0,0,0.0,False,-0.25975888018662197,0.9980482933278243
