AlexandreBanks6/ExpertPlaybackApp/resources/Motions/P_04/PC1/Data_PC1_8.csv
Task Time,PC1 Time,PC2 Time,Gaze Calib,s_T_psm1,Tx,Ty,Tz,R00,R01,R02,R10,R11,R12,R20,R21,R22,s_T_psm3,Tx,Ty,Tz,R00,R01,R02,R10,R11,R12,R20,R21,R22,cart_T_ecm,Tx,Ty,Tz,R00,R01,R02,R10,R11,R12,R20,R21,R22,ecm_T_psm1,Tx,Ty,Tz,R00,R01,R02,R10,R11,R12,R20,R21,R22,ecm_T_psm3,Tx,Ty,Tz,R00,R01,R02,R10,R11,R12,R20,R21,R22,psm1_joints,q1,q2,q3,q4,q5,q6,jaw,psm3_joints,q1,q2,q3,q4,q5,q6,jaw,ecm_joints,q1,q2,q3,q4,ecmi_T_ecm,Tx,Ty,Tz,R00,R01,R02,R10,R11,R12,R20,R21,R22,Sample #,Task Duration (s),Collisions (binary),Collisions (increments),Cumulative Collision Time (s),Clutch Press,MTMR Angle,MTML Angle
""
lci_T_si,,,,,-0.06091442,0.024665864,0.22852185,0.99137235,-0.028050909,0.12803915,0.064119875,-0.7481916,-0.6603772,0.11432199,0.66288954,-0.7399378
rci_T_si,,,,,-0.070449755,0.028832521,0.23726377,0.99015677,-0.04510285,0.13249657,0.05696979,-0.73481125,-0.6758749,0.12784386,0.6767704,-0.72500885
ecm_T_lc,,,,,-4.4061628e-05,-0.00034663224,-0.01840835,-0.99912,0.030754527,0.028518902,-0.031987965,-0.99852574,-0.043852776,0.027128186,-0.04472645,0.9986309
ecm_T_rc,,,,,-0.0043358393,0.01870579,-0.007592615,-0.99555075,-0.052743673,-0.078081585,0.04863213,-0.9973746,0.053654674,-0.08070653,0.04961868,0.9955021
cart_T_ecmi,,,,,0.10511527,1.3401165,0.4406436,0.9942844,0.013551921,-0.10590021,-0.05987073,-0.75049466,-0.658159,-0.08839686,0.6607376,-0.74539375
ecmac_T_ecmrep_psm1,,,,,0.006928962,-0.26080152,-0.2999526,0.99741316,0.06053514,0.03876121,-0.0592658,0.9976933,-0.033100393,-0.040675536,0.030717555,0.99870014
ecmac_T_ecmrep_psm3,,,,,-0.019041438,-0.46633056,-0.5465172,0.99408877,-0.01321918,0.10776258,-0.016145537,0.96352404,0.2671344,-0.107363135,-0.2672952,0.95761496
""
0,19:18:25.364976,19:18:15.554845,0,,0.1304519,0.006222382,0.025255546,0.7507453,0.36638445,-0.54967594,0.39758918,0.41389865,0.81890833,0.5275454,-0.8333368,0.16506195,,0.056675687,-0.004123375,0.035324514,-0.25640005,0.65772665,0.70827574,0.0047272146,-0.7319098,0.6813852,0.9665592,0.17805538,0.18455252,,0.10513319,1.3401178,0.44064695,0.9942824,0.013527346,-0.10592176,-0.059903286,-0.7504951,-0.65815556,-0.08839686,0.6607376,-0.74539375,,-0.09790771,0.2606462,-0.078173116,-0.78251326,-0.26292852,0.56439483,0.6211935,-0.26805732,0.7363857,-0.042326625,0.92683,0.3730879,,-0.025460087,0.4178667,-0.35106322,0.1604537,-0.63744766,-0.7536014,0.8582,-0.2870642,0.42554298,-0.48759338,-0.7150207,0.5009971,,1.2227789096403376,0.551024713308793,0.21418470041,3.5118871734788137,-0.06708852138483126,-1.2216058027214827,-0.40803347720342953,,-0.8781596778609432,-0.2002427406957673,0.19606126992000003,-2.3036537191209847,-1.1922900969532333,0.11476921365935083,0.8758508826120054,,-0.06277949319423604,-0.05761550026989781,0.08432494304,-0.06639839657179906,,1.7445534e-05,1.4901161e-06,-5.2452087e-06,0.99999994,-2.4408102e-05,-2.1629035e-05,2.4408102e-05,1.0,-2.861023e-06,2.1636486e-05,2.8908253e-06,1.0,34,0.104,1,1,0.079,False,-0.2603546573718325,1.0501909101696396
0.12544809404062107,19:18:25.390077,19:18:15.554845,0,,0.13049419,0.0061912537,0.025415793,0.7484748,0.37371063,-0.5478372,0.3949012,0.41249555,0.82091445,0.5327649,-0.8307753,0.16116372,,0.056674514,-0.004123479,0.03532368,-0.2563935,0.65772986,0.7082751,0.004728824,-0.7319076,0.68138766,0.9665609,0.17805263,0.18454602,,0.10513319,1.3401178,0.44064695,0.9942824,0.013527346,-0.10592176,-0.059903286,-0.7504951,-0.65815556,-0.08839686,0.6607376,-0.74539375,,-0.09796718,0.26072943,-0.07830716,-0.78089464,-0.27052778,0.5630438,0.62280095,-0.26763967,0.7351789,-0.048193447,0.9247614,0.37748334,,-0.025458839,0.41786614,-0.35106295,0.16044693,-0.6374507,-0.75360024,0.8582016,-0.28706577,0.42553872,-0.48759282,-0.7150174,0.50100243,,1.2228098005718346,0.5512795634936424,0.21404081222000002,3.509580584100484,-0.07337380037404152,-1.216153864190885,-0.4090135416002352,,-0.878151955128069,-0.2002427406957673,0.19606126992000003,-2.3036537191209847,-1.1922900969532333,0.11476921365935083,0.8758508826120054,,-0.06277949319423604,-0.05761550026989781,0.08432494304,-0.06639839657179906,,1.7445534e-05,1.4901161e-06,-5.2452087e-06,0.99999994,-2.4408102e-05,-2.1629035e-05,2.4408102e-05,1.0,-2.861023e-06,2.1636486e-05,2.8908253e-06,1.0,51,0.156,1,1,0.131,False,-0.25963972474957986,1.0503840309727575
0.15054062800481915,19:18:25.445013,19:18:15.631030,0,,0.13073988,0.0061541945,0.02600336,0.73040646,0.4138212,-0.5433765,0.37633014,0.42007434,0.8257804,0.5699839,-0.80764437,0.15109164,,0.0566826,-0.00412257,0.035320997,-0.25642046,0.65771407,0.7082802,0.0047297776,-0.7319179,0.6813765,0.96655375,0.17806888,0.18456787,,0.10513319,1.3401178,0.44064695,0.9942824,0.013527346,-0.10592176,-0.059903286,-0.7504951,-0.65815556,-0.08839686,0.6607376,-0.74539375,,-0.098272055,0.26108825,-0.0787376,-0.76746076,-0.31240463,0.5598279,0.63477254,-0.24794883,0.73183686,-0.089820564,0.9170195,0.3885969,,-0.025466653,0.41786337,-0.35106072,0.16047439,-0.63743603,-0.75360686,0.8581989,-0.28705534,0.42555127,-0.48758858,-0.71503466,0.50098187,,1.2229797006950676,0.5516811456031021,0.21364285119,3.4932247685086915,-0.11477465980296998,-1.2027322456658693,-0.408850197534101,,-0.8781828460595659,-0.20025046342864153,0.19606775137000002,-2.3036537191209847,-1.1922900969532333,0.11476921365935083,0.8758508826120054,,-0.06277949319423604,-0.05761550026989781,0.08432494304,-0.06639839657179906,,1.7445534e-05,1.4901161e-06,-5.2452087e-06,0.99999994,-2.4408102e-05,-2.1629035e-05,2.4408102e-05,1.0,-2.861023e-06,2.1636486e-05,2.8908253e-06,1.0,63,0.193,1,1,0.168,False,-0.26059296824591627,1.0507702725789931
0.2054830770357512,19:18:25.475996,19:18:15.631030,0,,0.13085106,0.006153792,0.026294827,0.71892804,0.43415213,-0.54282045,0.36260277,0.43200776,0.8257654,0.59301054,-0.7904942,0.15315771,,0.056678686,-0.004118532,0.035318613,-0.2563987,0.65779054,0.7082169,0.0047124326,-0.73185134,0.6814481,0.9665595,0.17805982,0.184546,,0.10513319,1.3401178,0.44064695,0.9942824,0.013527346,-0.10592176,-0.059903286,-0.7504951,-0.65815556,-0.08839686,0.6607376,-0.74539375,,-0.09841188,0.26127994,-0.07894013,-0.7589458,-0.33383456,0.5590668,0.6405361,-0.22833808,0.7331952,-0.117109664,0.91455793,0.38712934,,-0.025462715,0.4178638,-0.35105604,0.16045302,-0.6375143,-0.75354517,0.8581928,-0.28703776,0.4255754,-0.48760632,-0.7149719,0.5010541,,1.2232499963456653,0.5516270864729825,0.21346525946000003,3.483998410995372,-0.1426485057551198,-1.2027913618110162,-0.40541997214528114,,-0.8781596778609432,-0.20022729523001886,0.19606904766000002,-2.3036537191209847,-1.1922900969532333,0.11468753491921041,0.8760142266781396,,-0.06277949319423604,-0.05761550026989781,0.08432494304,-0.06639839657179906,,1.7445534e-05,1.4901161e-06,-5.2452087e-06,0.99999994,-2.4408102e-05,-2.1629035e-05,2.4408102e-05,1.0,-2.861023e-06,2.1636486e-05,2.8908253e-06,1.0,71,0.218,1,1,0.193,False,-0.26017592421626956,1.0502874705711984
0.23645626503275707,19:18:25.512954,19:18:15.631030,0,,0.13088095,0.0060919523,0.02669777,0.7027825,0.46004248,-0.5426393,0.35536334,0.43377274,0.82798445,0.61629015,-0.7747271,0.14136565,,0.056681648,-0.004117951,0.03531903,-0.25641188,0.65778404,0.70821816,0.004709244,-0.73185575,0.6814434,0.96655613,0.17806533,0.18455887,,0.10513319,1.3401178,0.44064695,0.9942824,0.013527346,-0.10592176,-0.059903286,-0.7504951,-0.65815556,-0.08839686,0.6607376,-0.74539375,,-0.09848472,0.26150417,-0.07927402,-0.74554294,-0.36108118,0.5601661,0.6514359,-0.2173764,0.7268967,-0.14070182,0.90684503,0.39728466,,-0.025465729,0.4178641,-0.3510557,0.16046657,-0.6375082,-0.75354743,0.85818964,-0.2870346,0.42558393,-0.48760745,-0.7149786,0.5010435,,1.223782864913987,0.5516425319387309,0.21315674244000002,3.46722321551661,-0.16710643921313365,-1.1895452137408828,-0.40803347720342953,,-0.8781751233266917,-0.20022729523001886,0.19607034395000003,-2.3036537191209847,-1.1922900969532333,0.11468753491921041,0.8760142266781396,,-0.06277949319423604,-0.05761550026989781,0.08432494304,-0.06639839657179906,,1.7445534e-05,1.4901161e-06,-5.2452087e-06,0.99999994,-2.4408102e-05,-2.1629035e-05,2.4408102e-05,1.0,-2.861023e-06,2.1636486e-05,2.8908253e-06,1.0,84,0.258,1,1,0.233,False,-0.2589843698458485,1.05014262996886
0.2733522230410017,19:18:25.546221,19:18:15.631030,0,,0.13089165,0.0060603917,0.027015522,0.68539035,0.484421,-0.54366904,0.34936306,0.4363161,0.82920074,0.63889384,-0.7582641,0.12980801,,0.056683157,-0.0041192025,0.035319448,-0.25641912,0.6577779,0.7082213,0.0047150254,-0.73185945,0.6814394,0.96655416,0.17807335,0.18456131,,0.10513319,1.3401178,0.44064695,0.9942824,0.013527346,-0.10592176,-0.059903286,-0.7504951,-0.65815556,-0.08839686,0.6607376,-0.74539375,,-0.09852864,0.2616942,-0.0795271,-0.7307807,-0.38686213,0.5624031,0.66284245,-0.2053159,0.7200592,-0.16309336,0.89899004,0.40646955,,-0.025467213,0.4178637,-0.351057,0.1604737,-0.6375027,-0.75355065,0.85819167,-0.28702888,0.4255837,-0.48760152,-0.71498585,0.50103885,,1.2243002880165599,0.5514880772812465,0.21293378056,3.4489801904334563,-0.1906079171727894,-1.1770789909966244,-0.4099936059970408,,-0.8781828460595659,-0.20023501796289309,0.19607034395000003,-2.3036537191209847,-1.1922900969532333,0.11468753491921041,0.8760142266781396,,-0.06277949319423604,-0.05761550026989781,0.08432494304,-0.06639839657179906,,1.7445534e-05,1.4901161e-06,-5.2452087e-06,0.99999994,-2.4408102e-05,-2.1629035e-05,2.4408102e-05,1.0,-2.861023e-06,2.1636486e-05,2.8908253e-06,1.0,92,0.283,1,1,0.258,False,-0.25963972474957986,1.0505771517758753
0.3066864280262962,19:18:25.575159,19:18:15.799012,0,,0.1309546,0.006027341,0.027378619,0.66531825,0.50928324,-0.5458773,0.33953714,0.44477493,0.8287882,0.6648804,-0.7367535,0.12299624,,0.056679063,-0.004119262,0.035315335,-0.2563928,0.6577908,0.7082189,0.004721403,-0.7318505,0.68144894,0.9665611,0.17806241,0.18453556,,0.10513319,1.3401178,0.44064695,0.9942824,0.013527346,-0.10592176,-0.059903286,-0.7504951,-0.65815556,-0.08839686,0.6607376,-0.74539375,,-0.09862912,0.2619117,-0.079809055,-0.71385616,-0.41338146,0.5652656,0.6737953,-0.1855061,0.71525335,-0.19081227,0.8914613,0.41095915,,-0.025462737,0.4178606,-0.35105503,0.16044658,-0.6375148,-0.7535461,0.858198,-0.28703517,0.42556667,-0.48759928,-0.7149725,0.5010601,,1.224640088263026,0.5513490680895105,0.21269655949000002,3.4296887156328806,-0.2195748551230628,-1.1691407135199712,-0.40738010093889243,,-0.878151955128069,-0.20023501796289309,0.19607164024,-2.3036537191209847,-1.1922900969532333,0.11468753491921041,0.8760142266781396,,-0.06277949319423604,-0.05761550026989781,0.08432494304,-0.06639839657179906,,1.7445534e-05,1.4901161e-06,-5.2452087e-06,0.99999994,-2.4408102e-05,-2.1629035e-05,2.4408102e-05,1.0,-2.861023e-06,2.1636486e-05,2.8908253e-06,1.0,109,0.336,1,1,0.311,False,-0.26053339052739544,1.0502391903704191
0.3356271830270998,19:18:25.618209,19:18:15.799012,0,,0.13102843,0.0059385896,0.027882978,0.6418476,0.5353562,-0.5490219,0.3314606,0.45193228,0.82818544,0.69149494,-0.71354806,0.11262211,,0.05668226,-0.0041175634,0.035317898,-0.25641188,0.65778404,0.70821816,0.004709244,-0.73185575,0.6814434,0.96655613,0.17806533,0.18455887,,0.10513319,1.3401178,0.44064695,0.9942824,0.013527346,-0.10592176,-0.059903286,-0.7504951,-0.65815556,-0.08839686,0.6607376,-0.74539375,,-0.09875697,0.26218265,-0.08023088,-0.6935426,-0.44132978,0.5694091,0.68658787,-0.16556244,0.70794505,-0.21816449,0.8819394,0.41783628,,-0.025466247,0.4178633,-0.35105485,0.16046657,-0.6375082,-0.75354743,0.85818964,-0.2870346,0.42558393,-0.48760745,-0.7149786,0.5010435,,1.2248717702492526,0.5514803545483722,0.21232452426,3.406413131906098,-0.24813188357403987,-1.1579428251882224,-0.4083601653356983,,-0.8781751233266917,-0.20022729523001886,0.19607164024,-2.3036537191209847,-1.1922900969532333,0.11468753491921041,0.8760142266781396,,-0.06277949319423604,-0.05761550026989781,0.08432494304,-0.06639839657179906,,1.7445534e-05,1.4901161e-06,-5.2452087e-06,0.99999994,-2.4408102e-05,-2.1629035e-05,2.4408102e-05,1.0,-2.861023e-06,2.1636486e-05,2.8908253e-06,1.0,117,0.361,1,1,0.336,False,-0.26101001227556386,1.0505771517758753
0.3786564980400726,19:18:25.653398,19:18:15.799012,0,,0.13106185,0.0057964623,0.028349027,0.6221975,0.56191725,-0.5450862,0.32401025,0.44900358,0.83271444,0.7126622,-0.6947264,0.0973019,,0.05668202,-0.004118651,0.035315752,-0.25640595,0.65778434,0.7082201,0.0047182143,-0.7318549,0.68144417,0.96655756,0.1780679,0.18454841,,0.10513319,1.3401178,0.44064695,0.9942824,0.013527346,-0.10592176,-0.059903286,-0.7504951,-0.65815556,-0.08839686,0.6607376,-0.74539375,,-0.098843046,0.26238987,-0.08066464,-0.67645264,-0.46974847,0.56722856,0.69603926,-0.15603963,0.7008431,-0.24070984,0.8689005,0.43251678,,-0.025465751,0.41786093,-0.3510547,0.16046014,-0.63750875,-0.7535484,0.8581948,-0.287032,0.42557517,-0.48760042,-0.7149792,0.5010495,,1.225057115838234,0.5514494636168753,0.21193822984000002,3.3875410369924905,-0.2719066345332265,-1.137984358764061,-0.40950357379863833,,-0.8781674005938175,-0.20023501796289309,0.19607293653000002,-2.3036537191209847,-1.1922900969532333,0.11468753491921041,0.8760142266781396,,-0.06277949319423604,-0.05761550026989781,0.08432494304,-0.06639839657179906,,1.7445534e-05,1.4901161e-06,-5.2452087e-06,0.99999994,-2.4408102e-05,-2.1629035e-05,2.4408102e-05,1.0,-2.861023e-06,2.1636486e-05,2.8908253e-06,1.0,130,0.402,1,1,0.377,False,-0.25963972474957986,1.0502874705711984
0.41385184501996264,19:18:25.695804,19:18:15.799012,0,,0.13106325,0.005700648,0.02884312,0.5987559,0.58585036,-0.5461414,0.31991237,0.4501918,0.8336567,0.73426646,-0.6738743,0.08213422,,0.056677546,-0.0041143745,0.03531152,-0.25637767,0.6577484,0.70826364,0.004702419,-0.7318974,0.68139863,0.9665652,0.17802592,0.18454915,,0.10513319,1.3401178,0.44064695,0.9942824,0.013527346,-0.10592176,-0.059903286,-0.7504951,-0.65815556,-0.08839686,0.6607376,-0.74539375,,-0.09889817,0.26265135,-0.08109115,-0.6554962,-0.49558517,0.56984216,0.7084011,-0.1420121,0.6913758,-0.2617111,0.856871,0.44416147,,-0.025461083,0.41785994,-0.3510489,0.160432,-0.63746697,-0.7535897,0.85819036,-0.28708553,0.42554817,-0.4876176,-0.7149949,0.5010103,,1.2254123615504482,0.5516193637401082,0.21155841687000002,3.3632170035482862,-0.2941783839949933,-1.1207217066030906,-0.4096669178647723,,-0.8781365096623206,-0.20021184976427042,0.19607552911,-2.3036537191209847,-1.1922900969532333,0.11476921365935083,0.8758508826120054,,-0.06277949319423604,-0.05761550026989781,0.08432494304,-0.06639839657179906,,1.7445534e-05,1.4901161e-06,-5.2452087e-06,0.99999994,-2.4408102e-05,-2.1629035e-05,2.4408102e-05,1.0,-2.861023e-06,2.1636486e-05,2.8908253e-06,1.0,151,0.467,1,1,0.442,False,-0.2598184579051428,1.0502874705711984
0.456274401047267,19:18:25.756460,19:18:15.955110,0,,0.13094951,0.0055947006,0.029461458,0.573147,0.6113321,-0.54568815,0.30833045,0.45609754,0.8348098,0.759233,-0.64672095,0.07291865,,0.056575034,-0.0041392297,0.03532988,-0.25642627,0.6576972,0.7082938,0.0047416985,-0.73193085,0.68136245,0.9665522,0.17807777,0.18456772,,0.10517954,1.3401139,0.4406408,0.9942796,0.013491708,-0.105953015,-0.059950504,-0.75049573,-0.6581505,-0.08839686,0.6607376,-0.74539375,,-0.09889186,0.26299676,-0.08162764,-0.6330231,-0.52337325,0.5704053,0.71759397,-0.120294206,0.6859943,-0.29041463,0.84356964,0.45171848,,-0.0254029,0.41787398,-0.35108382,0.16049483,-0.6374521,-0.7535889,0.85819644,-0.28703296,0.42557138,-0.48758623,-0.7150293,0.5009918,,1.226470375954217,0.5515189682127434,0.21108527102000002,3.339312349991051,-0.32492159644221735,-1.1059441995291066,-0.40803347720342953,,-0.8781442323951948,-0.20021957249714464,0.19607552911,-2.3036537191209847,-1.1922900969532333,0.11468753491921041,0.8760142266781396,,-0.06277949319423604,-0.05761550026989781,0.08432494304,-0.06639839657179906,,6.430969e-05,1.013279e-06,-2.9802322e-06,1.0,-5.980581e-05,-5.301088e-05,5.9802085e-05,1.0,-7.122755e-06,5.301088e-05,7.0929527e-06,1.0,159,0.492,1,1,0.467,False,-0.260652545964438,1.0499012289649627
0.5169280680129305,19:18:25.778664,19:18:15.955110,0,,0.13089304,0.005546659,0.02969113,0.56497216,0.61791164,-0.54680127,0.3058232,0.4586804,0.83431685,0.76634103,-0.6385903,0.070169866,,0.05658425,-0.004132107,0.03531909,-0.2565022,0.65786666,0.7081089,0.0047798157,-0.7317473,0.68155926,0.9665319,0.17820612,0.18455034,,0.10517954,1.3401139,0.4406408,0.9942796,0.013491708,-0.105953015,-0.059950504,-0.75049573,-0.6581505,-0.08839686,0.6607376,-0.74539375,,-0.098860845,0.26311782,-0.081834115,-0.6257177,-0.5306218,0.57176733,0.7208212,-0.11315708,0.6838218,-0.29815125,0.84002143,0.45328784,,-0.025411336,0.4178673,-0.3510721,0.16057058,-0.63764155,-0.7534125,0.85820633,-0.28684863,0.42567557,-0.4875438,-0.71493435,0.50116855,,1.2269028489951737,0.5515498591442403,0.21089860526,3.331134442195154,-0.33325642292790925,-1.1021698207888255,-0.4108103263277123,,-0.8781674005938175,-0.20021184976427042,0.19609108459000002,-2.303863409064469,-1.1922900969532333,0.11460585617906982,0.8758508826120053,,-0.06277949319423604,-0.05761550026989781,0.08432494304,-0.06639839657179906,,6.430969e-05,1.013279e-06,-2.9802322e-06,1.0,-5.980581e-05,-5.301088e-05,5.9802085e-05,1.0,-7.122755e-06,5.301088e-05,7.0929527e-06,1.0,172,0.533,1,1,0.508,False,-0.260652545964438,1.0505288715750958
0.539107516000513,19:18:25.819066,19:18:15.955110,0,,0.1308299,0.0055583715,0.02991733,0.55378014,0.6283504,-0.5463546,0.301736,0.46012077,0.8350116,0.7760689,-0.62726766,0.065209836,,0.056603182,-0.0041259527,0.03529787,-0.25621572,0.65728414,0.7087532,0.0045060515,-0.7324085,0.68085057,0.9666092,0.17763829,0.18469286,,0.10517954,1.3401139,0.4406408,0.9942796,0.013491708,-0.105953015,-0.059950504,-0.75049573,-0.6581505,-0.08839686,0.6607376,-0.74539375,,-0.09882032,0.26328093,-0.08199856,-0.6157434,-0.5420757,0.57185143,0.7247534,-0.10485846,0.6809826,-0.30918065,0.83376175,0.45743707,,-0.025428377,0.41785023,-0.3510559,0.16029084,-0.6369766,-0.7540342,0.8581038,-0.28760597,0.4253712,-0.48781624,-0.7152228,0.50049144,,1.2274897766936146,0.5515884728086113,0.21076379110000001,3.3202305651339588,-0.3451437984075026,-1.0944367529306105,-0.4101569500631752,,-0.8781674005938175,-0.20018868156564773,0.19611960297000003,-2.3028149593470464,-1.1922900969532333,0.11460585617906968,0.8755241944797367,,-0.06277949319423604,-0.05761550026989781,0.08432494304,-0.06639839657179906,,6.430969e-05,1.013279e-06,-2.9802322e-06,1.0,-5.980581e-05,-5.301088e-05,5.9802085e-05,1.0,-7.122755e-06,5.301088e-05,7.0929527e-06,1.0,180,0.557,1,1,0.532,False,-0.26112916771260597,1.0501909101696396
0.5795041700475849,19:18:25.847726,19:18:15.955110,0,,0.13079463,0.005560547,0.030163035,0.542424,0.6395396,-0.54476154,0.29347694,0.4633425,0.8361728,0.78717685,-0.61343515,0.063638,,0.056604035,-0.004121408,0.03529054,-0.25626534,0.65735084,0.7086734,0.004550636,-0.73232746,0.6809374,0.96659577,0.17772555,0.18467885,,0.10517954,1.3401139,0.4406408,0.9942796,0.013491708,-0.105953015,-0.059950504,-0.75049573,-0.6581505,-0.08839686,0.6607376,-0.74539375,,-0.09880988,0.2634491,-0.08218085,-0.6059211,-0.5544527,0.57047504,0.7265366,-0.09358252,0.6807253,-0.32404348,0.8269368,0.45953384,,-0.025428718,0.41784614,-0.35104826,0.16033943,-0.63705516,-0.7539575,0.85812014,-0.2874975,0.42541158,-0.48777154,-0.7151964,0.5005727,,1.2279917543304393,0.5515575818771145,0.21062508807000002,3.3110042076206394,-0.36113026888005906,-1.0884252298502175,-0.40721675687275805,,-0.8781596778609432,-0.2001809588327735,0.19612738071000002,-2.3030246492905313,-1.1922900969532333,0.11468753491921024,0.8756875385458711,,-0.06277949319423604,-0.05761550026989781,0.08432494304,-0.06639839657179906,,6.430969e-05,1.013279e-06,-2.9802322e-06,1.0,-5.980581e-05,-5.301088e-05,5.9802085e-05,1.0,-7.122755e-06,5.301088e-05,7.0929527e-06,1.0,193,0.598,1,1,0.573,False,-0.26101001227556386,1.0503840309727575
0.6081861390266567,19:18:25.886242,19:18:16.096401,0,,0.13073951,0.0055220276,0.030481637,0.52659696,0.6502474,-0.5476074,0.2892179,0.468699,0.83467007,0.79940516,-0.59791267,0.05875227,,0.05660615,-0.004122317,0.035289943,-0.2562726,0.6572867,0.7087303,0.0045564175,-0.7323867,0.6808737,0.96659386,0.17771852,0.18469578,,0.10517954,1.3401139,0.4406408,0.9942796,0.013491708,-0.105953015,-0.059950504,-0.75049573,-0.6581505,-0.08839686,0.6607376,-0.74539375,,-0.09878876,0.26363695,-0.08244597,-0.5915981,-0.5664308,0.57373154,0.73219323,-0.07957448,0.6764325,-0.3374978,0.82025856,0.4618129,,-0.02543072,0.41784492,-0.35104868,0.16034657,-0.636988,-0.75401276,0.85812217,-0.28752652,0.42538786,-0.48776564,-0.71524453,0.5005097,,1.2284473955700186,0.551611641007234,0.21040082990000003,3.2952774618593006,-0.3757503743549612,-1.0820576684842584,-0.40917688566636956,,-0.8781674005938175,-0.20018868156564773,0.19612867700000003,-2.3030246492905313,-1.1922900969532333,0.11476921365935083,0.8758508826120054,,-0.06277949319423604,-0.05761550026989781,0.08432494304,-0.06639839657179906,,6.430969e-05,1.013279e-06,-2.9802322e-06,1.0,-5.980581e-05,-5.301088e-05,5.9802085e-05,1.0,-7.122755e-06,5.301088e-05,7.0929527e-06,1.0,201,0.623,1,1,0.598,False,-0.26011634649774784,1.0506254319766548
0.6466845310060307,19:18:25.910209,19:18:16.096401,0,,0.13072671,0.0055290014,0.030642435,0.5175632,0.6572974,-0.5478033,0.28548986,0.47087848,0.8347269,0.8066126,-0.5884162,0.056057632,,0.05660949,-0.004122466,0.035287082,-0.25627986,0.6572805,0.70873344,0.004562199,-0.73239034,0.6808697,0.9665919,0.17772654,0.18469825,,0.10517954,1.3401139,0.4406408,0.9942796,0.013491708,-0.105953015,-0.059950504,-0.75049573,-0.6581505,-0.08839686,0.6607376,-0.74539375,,-0.098791905,0.26375073,-0.08256049,-0.5835005,-0.5743013,0.5741996,0.7346166,-0.07183403,0.6746691,-0.34621626,0.8154863,0.46380642,,-0.025433756,0.41784206,-0.35104734,0.16035369,-0.63698244,-0.754016,0.8581242,-0.2875208,0.42538762,-0.4877597,-0.7152518,0.50050503,,1.228663632090497,0.5516734228702278,0.21031397847000002,3.2868898641199196,-0.38517829283877664,-1.0773102677742656,-0.41048363819544353,,-0.8781751233266917,-0.20019640429852195,0.19613256587000003,-2.3030246492905313,-1.1922900969532333,0.11476921365935083,0.8758508826120054,,-0.06277949319423604,-0.05761550026989781,0.08432494304,-0.06639839657179906,,6.430969e-05,1.013279e-06,-2.9802322e-06,1.0,-5.980581e-05,-5.301088e-05,5.9802085e-05,1.0,-7.122755e-06,5.301088e-05,7.0929527e-06,1.0,214,0.664,1,1,0.639,False,-0.2604738128088746,1.0501909101696396
0.6706769780139439,19:18:25.950458,19:18:16.096401,0,,0.13068886,0.0055033416,0.030925438,0.5052492,0.66448253,-0.5506234,0.27993506,0.47735348,0.8329286,0.8163085,-0.5749754,0.055170476,,0.056611,-0.004121393,0.035285056,-0.25636575,0.65720546,0.7087718,0.004458368,-0.73246634,0.68078876,0.9665696,0.17769085,0.18484929,,0.10517954,1.3401139,0.4406408,0.9942796,0.013491708,-0.105953015,-0.059950504,-0.75049573,-0.6581505,-0.08839686,0.6607376,-0.74539375,,-0.09878382,0.2639235,-0.08278909,-0.5724698,-0.58252114,0.57701606,0.7374837,-0.05827062,0.6728465,-0.3583242,0.8107242,0.46295798,,-0.025435109,0.4178407,-0.35104537,0.16044606,-0.6369009,-0.75406516,0.85806197,-0.28758162,0.42547208,-0.48783883,-0.71529996,0.5003591,,1.2290574914670822,0.551781541130467,0.21012472013000003,3.2755666071717546,-0.39829539681625886,-1.0749453805137466,-0.4108103263277123,,-0.8781751233266917,-0.20019640429852195,0.19613645474000002,-2.3030246492905313,-1.1924267334529988,0.11488063156304712,0.8758508826120054,,-0.06277949319423604,-0.05761550026989781,0.08432494304,-0.06639839657179906,,6.430969e-05,1.013279e-06,-2.9802322e-06,1.0,-5.980581e-05,-5.301088e-05,5.9802085e-05,1.0,-7.122755e-06,5.301088e-05,7.0929527e-06,1.0,222,0.688,1,1,0.663,False,-0.2602950796533112,1.0505288715750958
0.7108827560441568,19:18:25.978019,19:18:16.096401,0,,0.13065194,0.005515933,0.031200215,0.49262732,0.6745392,-0.5498319,0.2729169,0.4801914,0.83362615,0.8263381,-0.56072545,0.05246228,,0.056611046,-0.004120752,0.035282075,-0.2563592,0.65720874,0.7087712,0.0044599175,-0.73246413,0.6807911,0.9665713,0.17768812,0.18484282,,0.10517954,1.3401139,0.4406408,0.9942796,0.013491708,-0.105953015,-0.059950504,-0.75049573,-0.6581505,-0.08839686,0.6607376,-0.74539375,,-0.0987742,0.264119,-0.082985856,-0.5612284,-0.5938305,0.57653105,0.73950493,-0.046956126,0.6715114,-0.3716923,0.8032188,0.46549368,,-0.025434894,0.41783848,-0.35104334,0.16043928,-0.63690394,-0.754064,0.8580635,-0.2875832,0.42546782,-0.48783827,-0.7152966,0.5003644,,1.22952857817241,0.5519359957879515,0.2099730542,3.264453040167075,-0.4127788657913956,-1.0678724496500784,-0.41113701445998085,,-0.8781674005938175,-0.20019640429852195,0.19613904732,-2.3030246492905313,-1.1924267334529988,0.11488063156304712,0.8758508826120054,,-0.06277949319423604,-0.05761550026989781,0.08432494304,-0.06639839657179906,,6.430969e-05,1.013279e-06,-2.9802322e-06,1.0,-5.980581e-05,-5.301088e-05,5.9802085e-05,1.0,-7.122755e-06,5.301088e-05,7.0929527e-06,1.0,235,0.729,1,1,0.704,False,-0.26005676877922745,1.0503840309727575
0.7384861940518022,19:18:26.019266,19:18:16.096401,0,,0.13060267,0.00550206,0.031569704,0.47891414,0.684163,-0.5500564,0.266296,0.4838405,0.8336575,0.8364972,-0.5457282,0.04952815,,0.056615353,-0.0041207373,0.03527993,-0.25630888,0.65708715,0.70890224,0.004408002,-0.7325993,0.68064594,0.9665849,0.17758048,0.18487528,,0.10517954,1.3401139,0.4406408,0.9942796,0.013491708,-0.105953015,-0.059950504,-0.75049573,-0.6581505,-0.08839686,0.6607376,-0.74539375,,-0.09876298,0.2643591,-0.08327113,-0.54889846,-0.60475045,0.57705057,0.7419469,-0.034523673,0.6695692,-0.38500038,0.7956664,0.46764272,,-0.025438968,0.4178362,-0.35104218,0.16039036,-0.6367663,-0.7541907,0.8580436,-0.28773054,0.4254084,-0.48788944,-0.7153599,0.50022405,,1.230084614939354,0.5522680733015431,0.20973324055000003,3.2518716435580033,-0.42712569826676683,-1.060910936690107,-0.40983026193090666,,-0.8781751233266917,-0.20019640429852195,0.19614293619,-2.3028149593470464,-1.1924267334529988,0.11488063156304712,0.8758508826120054,,-0.06277949319423604,-0.05761550026989781,0.08432494304,-0.06639839657179906,,6.430969e-05,1.013279e-06,-2.9802322e-06,1.0,-5.980581e-05,-5.301088e-05,5.9802085e-05,1.0,-7.122755e-06,5.301088e-05,7.0929527e-06,1.0,243,0.754,1,1,0.729,False,-0.26005676877922745,1.0501909101696396
0.7797378899995238,19:18:26.051126,19:18:16.262085,0,,0.13056406,0.0054974705,0.031794325,0.47374353,0.68520445,-0.55322856,0.26496497,0.48818815,0.8315443,0.83985746,-0.5405249,0.049720734,,0.056619287,-0.0041191876,0.03527516,-0.25622955,0.6571589,0.70886433,0.0045102835,-0.7325256,0.68072456,0.9666054,0.1776189,0.18473077,,0.10517954,1.3401139,0.4406408,0.9942796,0.013491708,-0.105953015,-0.059950504,-0.75049573,-0.6581505,-0.08839686,0.6607376,-0.74539375,,-0.09874738,0.2645082,-0.08344285,-0.5441528,-0.60612494,0.58009505,0.7434126,-0.027848667,0.668253,-0.38888997,0.79488176,0.4657549,,-0.025442485,0.41783243,-0.3510384,0.16030474,-0.6368448,-0.75414264,0.8581043,-0.28766814,0.42532825,-0.48781088,-0.7153151,0.50036466,,1.230493919781688,0.5526619326781286,0.20957250059000002,3.2464197050274057,-0.4310881567599646,-1.0616820757497982,-0.4096669178647723,,-0.8781828460595659,-0.20019640429852195,0.19614812135,-2.3028149593470464,-1.1922900969532333,0.11476921365935083,0.8758508826120054,,-0.06277949319423604,-0.05761550026989781,0.08432494304,-0.06639839657179906,,6.430969e-05,1.013279e-06,-2.9802322e-06,1.0,-5.980581e-05,-5.301088e-05,5.9802085e-05,1.0,-7.122755e-06,5.301088e-05,7.0929527e-06,1.0,256,0.795,1,1,0.77,False,-0.2599971910607066,1.050432311173537
0.8115128710051067,19:18:26.080766,19:18:16.262085,0,,0.1305123,0.0054733455,0.03206958,0.46606335,0.6882924,-0.55591226,0.26502293,0.49086732,0.8299471,0.8441254,-0.5341374,0.046362072,,0.05662427,-0.0041170567,0.035277426,-0.25625518,0.657149,0.7088643,0.004496515,-0.73253304,0.68071663,0.96659875,0.17762454,0.18476051,,0.10517954,1.3401139,0.4406408,0.9942796,0.013491708,-0.105953015,-0.059950504,-0.75049573,-0.6581505,-0.08839686,0.6607376,-0.74539375,,-0.09872461,0.2646774,-0.08366619,-0.53694516,-0.6097234,0.58303285,0.74660724,-0.021685056,0.66491157,-0.39276904,0.79231757,0.4668676,,-0.02544776,0.4178349,-0.35103765,0.16033152,-0.63683516,-0.754145,0.85809433,-0.28766602,0.42534974,-0.4878196,-0.7153245,0.5003427,,1.2309186700897703,0.5531098511848336,0.20935990903,3.2376127274010558,-0.4350506152531624,-1.0585326352827424,-0.4099936059970408,,-0.8782137369910628,-0.20018868156564773,0.19614941764000002,-2.3028149593470464,-1.1922900969532333,0.11476921365935083,0.8758508826120054,,-0.06277949319423604,-0.05761550026989781,0.08432494304,-0.06639839657179906,,6.430969e-05,1.013279e-06,-2.9802322e-06,1.0,-5.980581e-05,-5.301088e-05,5.9802085e-05,1.0,-7.122755e-06,5.301088e-05,7.0929527e-06,1.0,264,0.819,1,1,0.794,False,-0.26005676877922745,1.0499977893665218
0.8412267330568284,19:18:26.118317,19:18:16.262085,0,,0.13045807,0.0054338425,0.03255962,0.4540046,0.69582516,-0.55651337,0.2616896,0.49291393,0.8297918,0.85170317,-0.52236307,0.04169494,,0.05662566,-0.004116997,0.035271943,-0.25618514,0.6570371,0.7089934,0.004449308,-0.7326616,0.6805786,0.9666175,0.17750865,0.18477368,,0.10517954,1.3401139,0.4406408,0.9942796,0.013491708,-0.105953015,-0.059950504,-0.75049573,-0.6581505,-0.08839686,0.6607376,-0.74539375,,-0.09872164,0.2649798,-0.084057555,-0.52586114,-0.6183085,0.58409303,0.74968207,-0.012528229,0.6616795,-0.40180442,0.7858357,0.4701229,,-0.025448605,0.41783008,-0.3510348,0.16026224,-0.63670665,-0.7542683,0.8580791,-0.2878181,0.42527756,-0.4878691,-0.7153778,0.5002183,,1.2315673796512052,0.5539284608695014,0.20899694783000003,3.2252410207354694,-0.44434189723721235,-1.0508745390912453,-0.4099936059970408,,-0.8781982915253144,-0.20018868156564773,0.19615460280000002,-2.302605269403562,-1.1922900969532333,0.11476921365935083,0.8758508826120054,,-0.06277949319423604,-0.05761550026989781,0.08432494304,-0.06639839657179906,,6.430969e-05,1.013279e-06,-2.9802322e-06,1.0,-5.980581e-05,-5.301088e-05,5.9802085e-05,1.0,-7.122755e-06,5.301088e-05,7.0929527e-06,1.0,277,0.86,1,1,0.835,False,-0.2596993024681016,1.0505771517758753
0.8787609890569001,19:18:26.151556,19:18:16.262085,0,,0.13041584,0.005394861,0.032960698,0.4429867,0.70225996,-0.5573093,0.25889477,0.49494362,0.82946026,0.85833335,-0.51172435,0.03744203,,0.05662716,-0.0041145533,0.035268962,-0.2561845,0.6571559,0.70888346,0.0044419467,-0.732549,0.6806998,0.96661776,0.17753357,0.18474865,,0.10517954,1.3401139,0.4406408,0.9942796,0.013491708,-0.105953015,-0.059950504,-0.75049573,-0.6581505,-0.08839686,0.6607376,-0.74539375,,-0.09872164,0.2652223,-0.08438215,-0.5156938,-0.6256887,0.5852979,0.75247943,-0.0041075554,0.65860295,-0.40967622,0.7800621,0.4729361,,-0.025449919,0.4178286,-0.35103118,0.1602619,-0.6368324,-0.7541622,0.8580755,-0.28775278,0.42532906,-0.48787558,-0.71529216,0.50033444,,1.232038466356533,0.5545617249651879,0.20869880113000003,3.213917763787305,-0.45254008722313877,-1.04418946486946,-0.4099936059970408,,-0.8781982915253144,-0.2001809588327735,0.19615849167000002,-2.302605269403562,-1.1922900969532333,0.11460585617906968,0.8755241944797367,,-0.06277949319423604,-0.05761550026989781,0.08432494304,-0.06639839657179906,,6.430969e-05,1.013279e-06,-2.9802322e-06,1.0,-5.980581e-05,-5.301088e-05,5.9802085e-05,1.0,-7.122755e-06,5.301088e-05,7.0929527e-06,1.0,285,0.885,1,1,0.86,False,-0.2602950796533112,1.0508668329805522
0.9119570490438491,19:18:26.176288,19:18:16.262085,0,,0.13035803,0.0053334385,0.03340967,0.43123168,0.7082933,-0.5588914,0.25645489,0.49767196,0.82858527,0.865026,-0.5006426,0.032966614,,0.056631066,-0.0041150004,0.03526801,-0.2561983,0.6572043,0.7088335,0.004446119,-0.7324993,0.68075335,0.96661407,0.17755939,0.18474305,,0.10517954,1.3401139,0.4406408,0.9942796,0.013491708,-0.105953015,-0.059950504,-0.75049573,-0.6581505,-0.08839686,0.6607376,-0.74539375,,-0.098711915,0.26548105,-0.08475852,-0.504785,-0.6326849,0.58728355,0.7556081,0.0051420797,0.6550038,-0.41743085,0.77439225,0.4754662,,-0.025453687,0.41782713,-0.35103104,0.1602758,-0.63688534,-0.7541145,0.8580759,-0.28771076,0.4253566,-0.48787022,-0.7152619,0.50038296,,1.2325713349248544,0.5552413254581196,0.20834880283,3.201546057121718,-0.46060164070929976,-1.0376974872915117,-0.4095035737986381,,-0.8782137369910628,-0.20018868156564773,0.19616108425,-2.302605269403562,-1.1922900969532333,0.11452417743892918,0.8760142266781397,,-0.06277949319423604,-0.05761550026989781,0.08432494304,-0.06639839657179906,,6.430969e-05,1.013279e-06,-2.9802322e-06,1.0,-5.980581e-05,-5.301088e-05,5.9802085e-05,1.0,-7.122755e-06,5.301088e-05,7.0929527e-06,1.0,298,0.926,1,1,0.901,False,-0.26041423509035333,1.0506737121774343
0.9367058820207603,19:18:26.210633,19:18:16.262085,0,,0.1302992,0.0052687824,0.033926502,0.41389772,0.720134,-0.5568623,0.2482534,0.4992415,0.8301374,0.87581897,-0.481835,0.027859151,,0.056638416,-0.0041154623,0.035262883,-0.25606927,0.6570935,0.7089828,0.0045038164,-0.73261786,0.6806254,0.9666479,0.17748037,0.18464151,,0.10517954,1.3401139,0.4406408,0.9942796,0.013491708,-0.105953015,-0.059950504,-0.75049573,-0.6581505,-0.08839686,0.6607376,-0.74539375,,-0.09870813,0.26578304,-0.08518692,-0.48898646,-0.64627945,0.58584565,0.7574407,0.018519519,0.65264124,-0.4326382,0.7628761,0.48046255,,-0.02546048,0.41782174,-0.3510288,0.16014157,-0.6367621,-0.7542471,0.8581202,-0.28782633,0.42518902,-0.48783642,-0.7153252,0.50032544,,1.2331196489589245,0.555774194026441,0.20798065647000002,3.18539993147341,-0.4771346571809181,-1.0253594233062127,-0.40999360599704104,,-0.8782291824568113,-0.20019640429852195,0.19616756570000002,-2.3023955794600774,-1.192153460453468,0.11449443827537337,0.8761775707442739,,-0.06277949319423604,-0.05761550026989781,0.08432494304,-0.06639839657179906,,6.430969e-05,1.013279e-06,-2.9802322e-06,1.0,-5.980581e-05,-5.301088e-05,5.9802085e-05,1.0,-7.122755e-06,5.301088e-05,7.0929527e-06,1.0,306,0.95,1,1,0.925,False,-0.26112916771260597,1.0503840309727575
0.9711007690057158,19:18:26.237903,19:18:16.262085,0,,0.13019423,0.005199492,0.034452215,0.3952296,0.7283448,-0.55973864,0.24035078,0.5061253,0.82829267,0.8865805,-0.46189937,0.024977446,,0.056643724,-0.0041110516,0.035261452,-0.25608766,0.65714777,0.70892596,0.004484266,-0.73256606,0.68068117,0.9666432,0.17749307,0.18465433,,0.10517954,1.3401139,0.4406408,0.9942796,0.013491708,-0.105953015,-0.059950504,-0.75049573,-0.6581505,-0.08839686,0.6607376,-0.74539375,,-0.09865958,0.2660893,-0.08562972,-0.47184592,-0.6561546,0.5889165,0.75952184,0.036716096,0.64944476,-0.44775885,0.7537328,0.48103938,,-0.025465822,0.41782215,-0.35102418,0.16016121,-0.63681966,-0.7541944,0.8581082,-0.28779522,0.4252343,-0.48785105,-0.71528643,0.5003665,,1.2338378631162272,0.5562143898002718,0.20760084350000002,3.1673665963337405,-0.4938043101523018,-1.0182190595263536,-0.40917688566636956,,-0.8782523506554339,-0.2001809588327735,0.19617275086000002,-2.3023955794600774,-1.192153460453468,0.11441275953523278,0.8760142266781397,,-0.06277949319423604,-0.05761550026989781,0.08432494304,-0.06639839657179906,,6.430969e-05,1.013279e-06,-2.9802322e-06,1.0,-5.980581e-05,-5.301088e-05,5.9802085e-05,1.0,-7.122755e-06,5.301088e-05,7.0929527e-06,1.0,319,0.991,1,1,0.966,False,-0.2608908568385213,1.0504805913743163
0.9983700920129195,19:18:26.280558,19:18:16.488025,0,,0.13001761,0.005064264,0.0351568,0.37030947,0.73914117,-0.56261986,0.23074168,0.5135014,0.82648325,0.89979386,-0.43587443,0.01960373,,0.056651197,-0.0041068494,0.035256386,-0.25610673,0.6571411,0.70892525,0.0044721067,-0.73257136,0.6806756,0.9666382,0.17749597,0.18467769,,0.10517954,1.3401139,0.4406408,0.9942796,0.013491708,-0.105953015,-0.059950504,-0.75049573,-0.6581505,-0.08839686,0.6607376,-0.74539375,,-0.09856056,0.26646975,-0.086255305,-0.4488094,-0.6691912,0.5922443,0.76221985,0.059277933,0.6445983,-0.46646655,0.7407221,0.48346633,,-0.02547295,0.41781914,-0.35101795,0.16018121,-0.63681304,-0.7541957,0.8580999,-0.28779465,0.42525154,-0.48785922,-0.7152925,0.5003499,,1.234826372924128,0.5566623083069769,0.20705769799,3.142623183002567,-0.5147096946164142,-1.0063995596297972,-0.4099936059970408,,-0.8782755188540566,-0.2001732360998993,0.19618182489000002,-2.3023955794600774,-1.192153460453468,0.11441275953523278,0.8760142266781397,,-0.06277949319423604,-0.05761550026989781,0.08432494304,-0.06639839657179906,,6.430969e-05,1.013279e-06,-2.9802322e-06,1.0,-5.980581e-05,-5.301088e-05,5.9802085e-05,1.0,-7.122755e-06,5.301088e-05,7.0929527e-06,1.0,346,1.077,1,1,1.052,False,-0.260652545964438,1.050963393382111
1.0410264620441012,19:18:26.363280,19:18:16.488025,0,,0.12960008,0.004863858,0.036720917,0.29292825,0.7676579,-0.569995,0.20350629,0.532428,0.8216481,0.934226,-0.3566815,-0.00025993586,,0.056689292,-0.004101932,0.03524995,-0.2559531,0.6571606,0.7089627,0.0045543313,-0.7325646,0.6806823,0.9666785,0.17745158,0.18450928,,0.10517954,1.3401139,0.4406408,0.9942796,0.013491708,-0.105953015,-0.059950504,-0.75049573,-0.6581505,-0.08839686,0.6607376,-0.74539375,,-0.09831125,0.267389,-0.0875796,-0.3765035,-0.7046996,0.6013681,0.768083,0.1254908,0.6279336,-0.5179707,0.6983198,0.49402004,,-0.02551042,0.417812,-0.35101005,0.16002075,-0.63682836,-0.7542168,0.85815936,-0.2878314,0.42510656,-0.48780718,-0.7152641,0.50044125,,1.2365253741564575,0.5575581453203869,0.20598955503000002,3.06398945419587,-0.5737366625150844,-0.9651280394047503,-0.40999360599704104,,-0.8784299735115411,-0.2001809588327735,0.19620515811000003,-2.3019761995731085,-1.191880187453937,0.11394488750741824,0.8761775707442736,,-0.06277949319423604,-0.05761550026989781,0.08432494304,-0.06639839657179906,,6.430969e-05,1.013279e-06,-2.9802322e-06,1.0,-5.980581e-05,-5.301088e-05,5.9802085e-05,1.0,-7.122755e-06,5.301088e-05,7.0929527e-06,1.0,360,1.122,1,1,1.097,False,-0.26160578946077395,1.0508185527797727
1.1236570270266384,19:18:26.475442,19:18:16.670091,0,,0.12918465,0.004482329,0.03807144,0.22315443,0.7898481,-0.5712635,0.18120623,0.5422139,0.8204684,0.9577924,-0.28660765,-0.022128016,,0.05671138,-0.004098624,0.035239637,-0.25564024,0.657062,0.70916694,0.0047503114,-0.7326785,0.68055844,0.9667603,0.17734687,0.18418089,,0.10517954,1.3401139,0.4406408,0.9942796,0.013491708,-0.105953015,-0.059950504,-0.75049573,-0.6581505,-0.08839686,0.6607376,-0.74539375,,-0.09805024,0.26803064,-0.08886888,-0.31045845,-0.73338896,0.6047778,0.7700067,0.17904565,0.6123988,-0.55740935,0.6558074,0.5091282,,-0.025531527,0.41780248,-0.3510018,0.15969272,-0.6367149,-0.75438213,0.85829467,-0.2879679,0.4247408,-0.48767662,-0.71531016,0.50050265,,1.237266756512383,0.5579288364983497,0.20492530094000003,2.9897592142023486,-0.6206029819346306,-0.9176820008009943,-0.40885019753410123,,-0.8784994781074091,-0.2001809588327735,0.19622200988000002,-2.3015568196861396,-1.1914702779546407,0.11369231253646961,0.876340914810408,,-0.06277949319423604,-0.05761550026989781,0.08432494304,-0.06639839657179906,,6.430969e-05,1.013279e-06,-2.9802322e-06,1.0,-5.980581e-05,-5.301088e-05,5.9802085e-05,1.0,-7.122755e-06,5.301088e-05,7.0929527e-06,1.0,392,1.225,1,1,1.2,False,-0.26136747858668974,1.05105995378367
1.2358812360325828,19:18:26.514912,19:18:16.670091,0,,0.12896729,0.0044183284,0.038419947,0.1914306,0.79715705,-0.572621,0.17332903,0.54678524,0.8191355,0.96608037,-0.2560594,-0.033499032,,0.056729045,-0.004100606,0.035241663,-0.25546518,0.6563884,0.7098534,0.0045353174,-0.7333943,0.6797884,0.96680766,0.17688167,0.18437979,,0.10517954,1.3401139,0.4406408,0.9942796,0.013491708,-0.105953015,-0.059950504,-0.75049573,-0.6581505,-0.08839686,0.6607376,-0.74539375,,-0.09787191,0.2682257,-0.08918974,-0.28009033,-0.74353236,0.60721415,0.7709206,0.20270467,0.6038148,-0.572041,0.63723654,0.51642877,,-0.025549196,0.41780132,-0.35100436,0.15952398,-0.63596684,-0.7550485,0.85820806,-0.28865507,0.4244493,-0.48788428,-0.71569854,0.49974447,,1.237506161231484,0.557766659107991,0.20469585761000003,2.954111923809979,-0.6386389999036686,-0.8952970359398539,-0.41048363819544353,,-0.8785844281690256,-0.2001809588327735,0.19623108391000002,-2.3007180599122012,-1.1914702779546407,0.11410070623717239,0.8765042588765425,,-0.06277949319423604,-0.05761550026989781,0.08432494304,-0.06639839657179906,,6.430969e-05,1.013279e-06,-2.9802322e-06,1.0,-5.980581e-05,-5.301088e-05,5.9802085e-05,1.0,-7.122755e-06,5.301088e-05,7.0929527e-06,1.0,415,1.299,1,1,1.274,False,-0.26136747858668974,1.050963393382111
1.2753303360077552,19:18:26.584819,19:18:16.670091,0,,0.12852292,0.004369244,0.03885512,0.13902405,0.8068019,-0.57423234,0.1607754,0.5537816,0.81699276,0.9771507,-0.20590407,-0.052724928,,0.056767777,-0.0040949583,0.03524834,-0.2554289,0.6557428,0.7104629,0.004490465,-0.7340265,0.67910594,0.96681744,0.17665362,0.18454704,,0.10517954,1.3401139,0.4406408,0.9942796,0.013491708,-0.105953015,-0.059950504,-0.75049573,-0.6581505,-0.08839686,0.6607376,-0.74539375,,-0.097476035,0.26849842,-0.08958744,-0.2296404,-0.75786656,0.6106583,0.77100664,0.24125898,0.58935803,-0.59398156,0.606162,0.5289173,,-0.025588617,0.41780576,-0.3510025,0.15948904,-0.63527364,-0.75563926,0.85818994,-0.28909987,0.4241831,-0.48792756,-0.71613455,0.49907714,,1.2381394253271703,0.5572415132725437,0.20444308106000003,2.8930921502559825,-0.6662395728562877,-0.855964798924221,-0.41048363819544376,,-0.8787543282922585,-0.2001732360998993,0.19624275052,-2.300298680025232,-1.1913336414548752,0.1143976820341786,0.8763409148104083,,-0.06277949319423604,-0.05761550026989781,0.08432494304,-0.06639839657179906,,6.430969e-05,1.013279e-06,-2.9802322e-06,1.0,-5.980581e-05,-5.301088e-05,5.9802085e-05,1.0,-7.122755e-06,5.301088e-05,7.0929527e-06,1.0,429,1.344,1,1,1.319,False,-0.2621419889274632,1.0507219923782136
1.3452604199992493,19:18:26.633671,19:18:16.848998,0,,0.12821776,0.0043693036,0.038970396,0.10993183,0.810433,-0.57542443,0.15374592,0.55810016,0.8154057,0.9819762,-0.17810816,-0.0632478,,0.05678296,-0.0040914714,0.035246372,-0.25540188,0.6556729,0.7105372,0.0045797527,-0.73408175,0.6790457,0.9668242,0.17668363,0.18448305,,0.10517954,1.3401139,0.4406408,0.9942796,0.013491708,-0.105953015,-0.059950504,-0.75049573,-0.6581505,-0.08839686,0.6607376,-0.74539375,,-0.09718427,0.26858717,-0.08970326,-0.20150419,-0.764088,0.6128341,0.7701217,0.26301444,0.5811506,-0.6052344,0.5890611,0.53544223,,-0.025603678,0.41780415,-0.35099834,0.15945739,-0.6352045,-0.75570405,0.8582378,-0.28909448,0.42408994,-0.4878537,-0.716198,0.49905828,,1.2386027892996239,0.5566005264439831,0.20440678494000003,2.858073929694067,-0.6808596783311898,-0.8336698832308523,-0.4109736703938467,,-0.8788238328881265,-0.2001732360998993,0.19625182455,-2.300298680025232,-1.19119700495511,0.11444962161076339,0.8763409148104082,,-0.06277949319423604,-0.05761550026989781,0.08432494304,-0.06639839657179906,,6.430969e-05,1.013279e-06,-2.9802322e-06,1.0,-5.980581e-05,-5.301088e-05,5.9802085e-05,1.0,-7.122755e-06,5.301088e-05,7.0929527e-06,1.0,438,1.372,1,1,1.347,False,-0.26101001227556386,1.0504805913743163
1.3941423160140403,19:18:26.660190,19:18:16.848998,0,,0.12799355,0.0043471307,0.03901322,0.09107271,0.8116406,-0.5770141,0.14967346,0.56168413,0.8137007,0.9845321,-0.16046965,-0.070326954,,0.056787558,-0.0040934086,0.03524679,-0.25535882,0.6554867,0.71072435,0.004533291,-0.7342757,0.67883635,0.96683574,0.17656873,0.18453225,,0.10517954,1.3401139,0.4406408,0.9942796,0.013491708,-0.105953015,-0.059950504,-0.75049573,-0.6581505,-0.08839686,0.6607376,-0.74539375,,-0.096966654,0.2686078,-0.08977259,-0.18318681,-0.7669102,0.61505395,0.76952124,0.27748337,0.5751869,-0.611784,0.57866377,0.5393224,,-0.025608202,0.41780308,-0.35100022,0.15941556,-0.6349993,-0.7558853,0.8582197,-0.2892707,0.42400643,-0.48789924,-0.7163089,0.4988546,,1.2389116986145927,0.5560058760126678,0.2043860443,2.8347983459672847,-0.6896044143161779,-0.8197598019626148,-0.40917688566636956,,-0.878839278353875,-0.2001809588327735,0.19625312084000002,-2.300088990081748,-1.19119700495511,0.11453130035090392,0.876177570744274,,-0.06277949319423604,-0.05761550026989781,0.08432494304,-0.06639839657179906,,6.430969e-05,1.013279e-06,-2.9802322e-06,1.0,-5.980581e-05,-5.301088e-05,5.9802085e-05,1.0,-7.122755e-06,5.301088e-05,7.0929527e-06,1.0,452,1.417,1,1,1.392,False,-0.26101001227556386,1.0511565141852286
1.420586574007757,19:18:26.705275,19:18:16.848998,0,,0.127615,0.004314676,0.03908144,0.05849377,0.8146584,-0.5769836,0.1384053,0.5657735,0.8128618,0.98864675,-0.12740496,-0.07965881,,0.056791287,-0.0040917695,0.035241902,-0.255215,0.6555042,0.7107599,0.004578829,-0.73427564,0.67883605,0.9668736,0.17650354,0.18439671,,0.10517954,1.3401139,0.4406408,0.9942796,0.013491708,-0.105953015,-0.059950504,-0.75049573,-0.6581505,-0.08839686,0.6607376,-0.74539375,,-0.09659859,0.26864353,-0.08988332,-0.15169246,-0.7730615,0.6159264,0.7651531,0.30263588,0.56828886,-0.62572366,0.55748314,0.5456028,,-0.025611505,0.4177993,-0.3509963,0.15926678,-0.63501036,-0.75590736,0.85825956,-0.28932843,0.42388633,-0.4878777,-0.7162757,0.4989233,,1.2393441716555493,0.5549324161431506,0.20438085914,2.794957256705225,-0.7081869782842778,-0.7928452284796605,-0.4108103263277123,,-0.878839278353875,-0.2001732360998993,0.19625830600000002,-2.2998793001382634,-1.1910603684553445,0.1143382037070671,0.8760142266781398,,-0.06277949319423604,-0.05761550026989781,0.08432494304,-0.06639839657179906,,6.430969e-05,1.013279e-06,-2.9802322e-06,1.0,-5.980581e-05,-5.301088e-05,5.9802085e-05,1.0,-7.122755e-06,5.301088e-05,7.0929527e-06,1.0,461,1.446,1,1,1.421,False,-0.26101001227556386,1.0510116735828905
1.4657436310080811,19:18:26.733610,19:18:16.848998,0,,0.1272924,0.004286483,0.039086565,0.032156594,0.81300277,-0.58137107,0.13359013,0.5729567,0.8086249,0.99051476,-0.103668034,-0.09018484,,0.05679604,-0.004090756,0.03524202,-0.2552347,0.6553204,0.7109223,0.0045740306,-0.73444855,0.67864895,0.9668683,0.17646652,0.1844593,,0.10517954,1.3401139,0.4406408,0.9942796,0.013491708,-0.105953015,-0.059950504,-0.75049573,-0.6581505,-0.08839686,0.6607376,-0.74539375,,-0.09627961,0.26863796,-0.08993919,-0.12590387,-0.77349854,0.6211668,0.7638146,0.3239717,0.55823785,-0.6330366,0.5447406,0.5500202,,-0.025616288,0.41779938,-0.3509954,0.15928712,-0.634816,-0.7560663,0.8582548,-0.2894276,0.42382818,-0.4878794,-0.7164079,0.4987318,,1.2396916946348895,0.5540983609927344,0.20438345172000003,2.760987485860732,-0.718161442767155,-0.7750736301732354,-0.4088501975341008,,-0.8788624465524977,-0.2001732360998993,0.19626089858,-2.2998793001382634,-1.1910603684553445,0.11458323992748876,0.8765042588765426,,-0.06277949319423604,-0.05761550026989781,0.08432494304,-0.06639839657179906,,6.430969e-05,1.013279e-06,-2.9802322e-06,1.0,-5.980581e-05,-5.301088e-05,5.9802085e-05,1.0,-7.122755e-06,5.301088e-05,7.0929527e-06,1.0,484,1.52,0,1,1.436,False,-0.2608312791200009,1.0505288715750958
1.4940827720565721,19:18:26.805685,19:18:16.982353,0,,0.12632857,0.0041871816,0.039031997,-0.04106927,0.81650853,-0.57587063,0.12267819,0.5761169,0.80810857,0.99159634,-0.03745836,-0.1238285,,0.056814946,-0.0040880293,0.03523761,-0.25498465,0.655279,0.71105015,0.004818082,-0.7344871,0.67860556,0.96693313,0.17645991,0.18412578,,0.10517954,1.3401139,0.4406408,0.9942796,0.013491708,-0.105953015,-0.059950504,-0.75049573,-0.6581505,-0.08839686,0.6607376,-0.74539375,,-0.095320255,0.26856312,-0.09006498,-0.05368513,-0.78350663,0.61906004,0.75915694,0.37071428,0.5350249,-0.6486899,0.4986866,0.57490265,,-0.025634784,0.41779497,-0.35099062,0.15902098,-0.6347724,-0.7561589,0.8584065,-0.28944826,0.42350677,-0.4876993,-0.7164382,0.49886444,,1.2408114909016519,0.5518047093290896,0.20438993317,2.6630622822534593,-0.739613373230329,-0.7022845122177366,-0.4096669178647725,,-0.87893967388124,-0.2001732360998993,0.19627126890000002,-2.2996696101947784,-1.190650458956048,0.11441234369668049,0.8768309470088111,,-0.06277949319423604,-0.05761550026989781,0.08432494304,-0.06639839657179906,,6.430969e-05,1.013279e-06,-2.9802322e-06,1.0,-5.980581e-05,-5.301088e-05,5.9802085e-05,1.0,-7.122755e-06,5.301088e-05,7.0929527e-06,1.0,493,1.548,0,1,1.436,False,-0.26154621174225356,1.0511565141852286
1.5661548600182869,19:18:26.838700,19:18:16.982353,0,,0.12596254,0.0041362494,0.038985357,-0.06803843,0.81768715,-0.5716278,0.11963794,0.5755081,0.80899763,0.99048346,-0.01334545,-0.13698304,,0.056823842,-0.004086286,0.03523892,-0.2550241,0.6552016,0.71110725,0.0048085153,-0.73455584,0.67853117,0.96692276,0.17646118,0.18417895,,0.10517954,1.3401139,0.4406408,0.9942796,0.013491708,-0.105953015,-0.059950504,-0.75049573,-0.6581505,-0.08839686,0.6607376,-0.74539375,,-0.094953865,0.2685075,-0.09010264,-0.026893554,-0.78712827,0.6162027,0.75714827,0.38644058,0.52667844,-0.6526892,0.4807211,0.58558005,,-0.025643833,0.417796,-0.3509897,0.15906166,-0.63469243,-0.7562175,0.858397,-0.2894735,0.4235087,-0.4877027,-0.71649885,0.49877396,,1.2412207957439858,0.5509783769115476,0.20438863688000003,2.6259471622566988,-0.7450788332209468,-0.6725073866263054,-0.4096669178647725,,-0.8789860102784852,-0.2001732360998993,0.19627515777,-2.2996696101947784,-1.190650458956048,0.11449402243682114,0.8766676029426765,,-0.06277949319423604,-0.05761550026989781,0.08432494304,-0.06639839657179906,,6.430969e-05,1.013279e-06,-2.9802322e-06,1.0,-5.980581e-05,-5.301088e-05,5.9802085e-05,1.0,-7.122755e-06,5.301088e-05,7.0929527e-06,1.0,507,1.593,0,1,1.436,False,-0.26148663402373185,1.05105995378367
1.5991257430287078,19:18:26.877285,19:18:16.982353,0,,0.12546661,0.004038587,0.03889419,-0.109264106,0.81284696,-0.57213724,0.11398691,0.58203256,0.8051367,0.9874555,0.022756428,-0.15624917,,0.056838345,-0.00408569,0.035238385,-0.25495622,0.65488344,0.7114247,0.004695803,-0.7348917,0.67816824,0.96694124,0.17624393,0.18429005,,0.10517954,1.3401139,0.4406408,0.9942796,0.013491708,-0.105953015,-0.059950504,-0.75049573,-0.6581505,-0.08839686,0.6607376,-0.74539375,,-0.09445587,0.26839215,-0.090152405,0.014151615,-0.7856708,0.6184829,0.75244355,0.41572317,0.51088446,-0.65850466,0.45814362,0.59705615,,-0.025658224,0.41779426,-0.35098878,0.15899757,-0.6343394,-0.7565271,0.8583487,-0.2897948,0.42338684,-0.4878086,-0.7166816,0.49840775,,1.2416532687849424,0.5498354124461624,0.20438474801000003,2.5687018076854233,-0.7528671137075769,-0.6356903960431797,-0.4096669178647723,,-0.8790400694086048,-0.2001732360998993,0.19628293551,-2.2992502303078095,-1.190650458956048,0.11457570117696167,0.8765042588765424,,-0.06277949319423604,-0.05761550026989781,0.08432494304,-0.06639839657179906,,6.430969e-05,1.013279e-06,-2.9802322e-06,1.0,-5.980581e-05,-5.301088e-05,5.9802085e-05,1.0,-7.122755e-06,5.301088e-05,7.0929527e-06,1.0,516,1.622,0,1,1.436,False,-0.26005676877922745,1.051108233984449
1.6377477870555595,19:18:26.918508,19:18:17.123194,0,,0.124950305,0.003921807,0.038771078,-0.14533812,0.8093534,-0.5690551,0.111650676,0.584905,0.8033805,0.98306197,0.05322635,-0.17537391,,0.05687362,-0.0040685534,0.03524953,-0.25482082,0.65491,0.7114486,0.004754156,-0.73487926,0.6781814,0.9669766,0.17619704,0.184149,,0.10522186,1.3401115,0.44064543,0.9942773,0.013462593,-0.10597855,-0.059989076,-0.75049627,-0.6581464,-0.08839686,0.6607376,-0.74539375,,-0.093971565,0.2682389,-0.09018579,0.050358057,-0.7851163,0.61729765,0.7490781,0.43849346,0.4965939,-0.66056496,0.43739665,0.6101951,,-0.025733894,0.4178028,-0.3509737,0.15886913,-0.6343886,-0.7565128,0.85838765,-0.28981566,0.42329365,-0.48778194,-0.71662956,0.49850863,,1.2420394054286537,0.5487156161793999,0.20437567398000003,2.517747151418684,-0.7555998437028857,-0.5995653608109179,-0.4090135416002354,,-0.8790632376072275,-0.2001732360998993,0.19628423180000001,-2.299040540364325,-1.1905138224562826,0.11438260453312471,0.8763409148104081,,-0.06277949319423604,-0.05761550026989781,0.08432494304,-0.06639839657179906,,0.000106122345,6.4373016e-06,-9.417534e-06,1.0,-8.8721514e-05,-7.864088e-05,8.8721514e-05,1.0,-1.052022e-05,7.864088e-05,1.0550022e-05,1.0,539,1.696,0,1,1.436,False,-0.2607717014014801,1.0503840309727575
1.6789457060513087,19:18:26.979397,19:18:17.123194,0,,0.12421073,0.0037072897,0.038546696,-0.20210132,0.8042916,-0.5588112,0.10819808,0.5854292,0.8034712,0.9733694,0.10192028,-0.20533884,,0.056874365,-0.004072368,0.035245538,-0.25472987,0.65492135,0.7114708,0.004881412,-0.7348611,0.67820024,0.9669999,0.17623083,0.18399411,,0.10522186,1.3401115,0.44064543,0.9942773,0.013462593,-0.10597855,-0.059989076,-0.75049627,-0.6581464,-0.08839686,0.6607376,-0.74539375,,-0.09322293,0.2679565,-0.09024154,0.107610874,-0.7849583,0.61013144,0.7420822,0.47181934,0.47613078,-0.6616146,0.40153086,0.63327646,,-0.02573407,0.41779742,-0.35097495,0.15877058,-0.63440406,-0.75652057,0.85846204,-0.28977877,0.42316803,-0.48768312,-0.7166309,0.49860346,,1.2426108876613462,0.5470552286114416,0.20434067415,2.4368068332336574,-0.7565562992012438,-0.5371996654190591,-0.4090135416002353,,-0.8790555148743533,-0.20019640429852195,0.19628552809000002,-2.299040540364325,-1.1903771859565173,0.1143528653695689,0.8768309470088108,,-0.06277949319423604,-0.05761550026989781,0.08432494304,-0.06639839657179906,,0.000106122345,6.4373016e-06,-9.417534e-06,1.0,-8.8721514e-05,-7.864088e-05,8.8721514e-05,1.0,-1.052022e-05,7.864088e-05,1.0550022e-05,1.0,548,1.725,0,1,1.436,False,-0.260652545964438,1.0507219923782136
1.739860061032232,19:18:27.009143,19:18:17.123194,0,,0.12382372,0.0035811365,0.03841178,-0.23157364,0.7973267,-0.5573541,0.10673061,0.5902927,0.800102,0.9669447,0.12579575,-0.2217954,,0.056882795,-0.0040819794,0.035247028,-0.2543895,0.6534452,0.7129483,0.0045911074,-0.73637664,0.67655635,0.9670909,0.17538199,0.1843265,,0.10522186,1.3401115,0.44064543,0.9942773,0.013462593,-0.10597855,-0.059989076,-0.75049627,-0.6581464,-0.08839686,0.6607376,-0.74539375,,-0.09283,0.26778665,-0.09026722,0.13749114,-0.78022957,0.61019504,0.7377537,0.49172813,0.46251807,-0.6609203,0.3865815,0.6432255,,-0.025742156,0.41779292,-0.35098392,0.15843669,-0.6327839,-0.75794613,0.85835713,-0.29111168,0.4224654,-0.48797628,-0.7175225,0.49703178,,1.2429584106406864,0.5461980052624027,0.20431604464000003,2.3944494646497834,-0.7551899342035894,-0.510379715327951,-0.41130035852611513,,-0.8790555148743533,-0.20021184976427042,0.19628552809000002,-2.2977824007034178,-1.1903771859565173,0.11541468899139609,0.8766676029426769,,-0.06277949319423604,-0.05761550026989781,0.08432494304,-0.06639839657179906,,0.000106122345,6.4373016e-06,-9.417534e-06,1.0,-8.8721514e-05,-7.864088e-05,8.8721514e-05,1.0,-1.052022e-05,7.864088e-05,1.0550022e-05,1.0,557,1.753,0,1,1.436,False,-0.2608312791200009,1.050963393382111
1.7695982190198265,19:18:27.046834,19:18:17.277799,0,,0.123474926,0.0034520924,0.038301274,-0.2567328,0.79391253,-0.5511724,0.104967356,0.5898181,0.80068505,0.9607653,0.14770699,-0.23476055,,0.056886464,-0.004088491,0.035241187,-0.25392494,0.65233713,0.71412766,0.004926622,-0.73744535,0.67538893,0.9672113,0.17501627,0.184042,,0.10522186,1.3401115,0.44064543,0.9942773,0.013462593,-0.10597855,-0.059989076,-0.75049627,-0.6581464,-0.08839686,0.6607376,-0.74539375,,-0.09247764,0.2676297,-0.090308815,0.16304679,-0.7790589,0.6053784,0.7332139,0.50624055,0.45400208,-0.66016144,0.36984825,0.6537577,,-0.025744941,0.41778427,-0.35098654,0.15794764,-0.6315974,-0.7590371,0.8585796,-0.29184484,0.4215065,-0.48774344,-0.7182697,0.4961804,,1.2433445472843976,0.5454102865092317,0.20427456336000002,2.3579634144834767,-0.7536869327061696,-0.4814658571567442,-0.4096669178647725,,-0.879047792141479,-0.20023501796289309,0.19628552809000002,-2.297363020816449,-1.1898306399574554,0.11660259217942165,0.876340914810408,,-0.06277949319423604,-0.05761550026989781,0.08432494304,-0.06639839657179906,,0.000106122345,6.4373016e-06,-9.417534e-06,1.0,-8.8721514e-05,-7.864088e-05,8.8721514e-05,1.0,-1.052022e-05,7.864088e-05,1.0550022e-05,1.0,571,1.798,0,1,1.436,False,-0.26053339052739544,1.0506737121774343
1.8073027500067838,19:18:27.088229,19:18:17.277799,0,,0.122827426,0.0031682253,0.03805755,-0.31009653,0.7811285,-0.54192084,0.1030232,0.5942731,0.7976376,0.9451065,0.19151418,-0.26475644,,0.056897845,-0.004097253,0.035234988,-0.25329876,0.65271235,0.71400726,0.0056354105,-0.7370693,0.67579377,0.96737164,0.1752014,0.18302047,,0.10522186,1.3401115,0.44064543,0.9942773,0.013462593,-0.10597855,-0.059989076,-0.75049627,-0.6581464,-0.08839686,0.6607376,-0.74539375,,-0.09182152,0.26727965,-0.090387546,0.21758413,-0.770567,0.599069,0.72319543,0.539467,0.43123513,-0.65547353,0.33941403,0.67464995,,-0.025755245,0.41777334,-0.35099086,0.15727681,-0.63200575,-0.75883645,0.85900706,-0.29153693,0.42084813,-0.48720726,-0.7180355,0.49704537,,1.2439160295170901,0.5440819764548651,0.20416956387000001,2.2812168951681406,-0.7460352887193048,-0.42799810072099287,-0.40803347720342975,,-0.8790864058058502,-0.20028135436013844,0.19628552809000002,-2.2971533308729644,-1.1888741844590973,0.11582266685354659,0.876340914810408,,-0.06277949319423604,-0.05761550026989781,0.08432494304,-0.06639839657179906,,0.000106122345,6.4373016e-06,-9.417534e-06,1.0,-8.8721514e-05,-7.864088e-05,8.8721514e-05,1.0,-1.052022e-05,7.864088e-05,1.0550022e-05,1.0,589,1.856,0,1,1.436,False,-0.26017592421626956,1.0501909101696396
1.8486969000077806,19:18:27.146009,19:18:17.277799,0,,0.122263685,0.0028574169,0.03787075,-0.3633677,0.76402235,-0.53313565,0.09819892,0.6004731,0.7935926,0.926456,0.2360125,-0.29321867,,0.056919135,-0.0041050613,0.03524655,-0.25328654,0.6522935,0.71439415,0.0055460036,-0.7374837,0.67534226,0.9673754,0.17501709,0.18317708,,0.10522186,1.3401115,0.44064543,0.9942773,0.013462593,-0.10597855,-0.059989076,-0.75049627,-0.6581464,-0.08839686,0.6607376,-0.74539375,,-0.09125553,0.26694492,-0.09051748,0.27220833,-0.7577744,0.59302664,0.70903265,0.574606,0.40877947,-0.65051925,0.30920208,0.6936993,,-0.025777178,0.417777,-0.35100323,0.1572684,-0.63155234,-0.75921553,0.85896385,-0.2918588,0.42071316,-0.48728612,-0.7183036,0.49658048,,1.244286720695053,0.5431629712428324,0.20400882391000003,2.20426068590932,-0.7375638257338476,-0.37715914147079327,-0.4081968212695638,,-0.8792022467989635,-0.20031996802450955,0.19628423180000001,-2.2967339509859954,-1.1888741844590973,0.11598602433382771,0.8760142266781397,,-0.06277949319423604,-0.05761550026989781,0.08432494304,-0.06639839657179906,,0.000106122345,6.4373016e-06,-9.417534e-06,1.0,-8.8721514e-05,-7.864088e-05,8.8721514e-05,1.0,-1.052022e-05,7.864088e-05,1.0550022e-05,1.0,603,1.901,0,1,1.436,False,-0.26112916771260597,1.0508668329805522
1.9064745170180686,19:18:27.196246,19:18:17.401773,0,,0.12176004,0.002545759,0.037698045,-0.41542518,0.74867743,-0.5166274,0.095668614,0.600766,0.7936799,0.9045824,0.28028965,-0.3211983,,0.056961577,-0.0041067153,0.035266936,-0.2531919,0.6515447,0.7151107,0.0052435994,-0.7382616,0.67449427,0.9674018,0.17452624,0.18350545,,0.10522186,1.3401115,0.44064543,0.9942773,0.013462593,-0.10597855,-0.059989076,-0.75049627,-0.6581464,-0.08839686,0.6607376,-0.74539375,,-0.0907507,0.26661682,-0.09065216,0.32604727,-0.7469604,0.5794337,0.69435287,0.6051661,0.38942027,-0.6415351,0.27536198,0.7159668,,-0.02582128,0.41778907,-0.35101455,0.15718569,-0.6307242,-0.75992084,0.8588239,-0.29259115,0.4204901,-0.48755938,-0.7187332,0.49568987,,1.2448195892633744,0.5425451526128945,0.20381049154000003,2.129820755972314,-0.7233536297582418,-0.3217700365399601,-0.40852350940183235,,-0.879426206052316,-0.20031996802450955,0.19628812067,-2.2956855012685726,-1.1888741844590973,0.11606770307396835,0.8765042588765425,,-0.06277949319423604,-0.05761550026989781,0.08432494304,-0.06639839657179906,,0.000106122345,6.4373016e-06,-9.417534e-06,1.0,-8.8721514e-05,-7.864088e-05,8.8721514e-05,1.0,-1.052022e-05,7.864088e-05,1.0550022e-05,1.0,612,1.929,0,1,1.436,False,-0.2608908568385213,1.050432311173537
1.956692556035705,19:18:27.220450,19:18:17.401773,0,,0.12145981,0.002373308,0.037610218,-0.44200313,0.7449253,-0.4997193,0.097470164,0.59367895,0.7987771,0.8917022,0.3043542,-0.335016,,0.05698253,-0.004105881,0.03527838,-0.2533044,0.65107805,0.7154958,0.005223751,-0.73868597,0.6740296,0.9673725,0.17447218,0.18371135,,0.10522186,1.3401115,0.44064543,0.9942773,0.013462593,-0.10597855,-0.059989076,-0.75049627,-0.6581464,-0.08839686,0.6607376,-0.74539375,,-0.090450734,0.26644126,-0.09073456,0.35383782,-0.74595016,0.56423146,0.68799233,0.61625224,0.3832749,-0.63361293,0.25256976,0.7312614,,-0.025843265,0.41779706,-0.35101944,0.1573013,-0.6302354,-0.76030236,0.8588008,-0.29280132,0.42039093,-0.48756278,-0.71907634,0.49518862,,1.2455532488864258,0.5421435705034348,0.20367178851,2.092705635975553,-0.7114662542786484,-0.28547826346241234,-0.40934022973250384,,-0.8795574925111779,-0.20032769075738377,0.19628941696000002,-2.2956855012685726,-1.1888741844590973,0.11663945425495231,0.8753608504136025,,-0.06277949319423604,-0.05761550026989781,0.08432494304,-0.06639839657179906,,0.000106122345,6.4373016e-06,-9.417534e-06,1.0,-8.8721514e-05,-7.864088e-05,8.8721514e-05,1.0,-1.052022e-05,7.864088e-05,1.0550022e-05,1.0,626,1.974,0,1,1.436,False,-0.2602950796533112,1.0504805913743163
1.98091339902021,19:18:27.260802,19:18:17.401773,0,,0.120999426,0.0021655858,0.037493423,-0.4683628,0.7426563,-0.4786416,0.10333976,0.58406156,0.8051044,0.877472,0.32761824,-0.35029873,,0.0570499,-0.0041268617,0.03530246,-0.25268632,0.64889216,0.7176967,0.0049784184,-0.7408866,0.6716117,0.9675354,0.17328005,0.18398154,,0.10522186,1.3401115,0.44064543,0.9942773,0.013462593,-0.10597855,-0.059989076,-0.75049627,-0.6581464,-0.08839686,0.6607376,-0.74539375,,-0.089990154,0.26622602,-0.09083592,0.3817194,-0.74644077,0.54508394,0.6837224,0.62487566,0.37690073,-0.6219438,0.22881575,0.7488854,,-0.025911616,0.41779983,-0.35104904,0.15668228,-0.62784463,-0.7624053,0.8587504,-0.29469758,0.4191672,-0.48785084,-0.72039187,0.49298793,,1.2472676955845037,0.5411782288941568,0.20349290049000002,2.056638965696215,-0.6943866918079683,-0.24696775025422413,-0.40803347720342964,,-0.8798664018261468,-0.20040491808612604,0.19629330583000001,-2.293378911890243,-1.188464274959801,0.11761206038611202,0.8760142266781396,,-0.06277949319423604,-0.05761550026989781,0.08432494304,-0.06639839657179906,,0.000106122345,6.4373016e-06,-9.417534e-06,1.0,-8.8721514e-05,-7.864088e-05,8.8721514e-05,1.0,-1.052022e-05,7.864088e-05,1.0550022e-05,1.0,635,2.003,0,1,1.436,False,-0.2599971910607066,1.0507702725789931
2.0212341340375133,19:18:27.291774,19:18:17.401773,0,,0.12050618,0.0019925386,0.037330285,-0.48450977,0.7391933,-0.46780694,0.10847148,0.5814065,0.8063501,0.8680346,0.33994073,-0.36187854,,0.057127006,-0.004160881,0.035323918,-0.2518409,0.64645165,0.7201919,0.005635202,-0.74318564,0.66906166,0.96775216,0.17255545,0.18352167,,0.10522186,1.3401115,0.44064543,0.9942773,0.013462593,-0.10597855,-0.059989076,-0.75049627,-0.6581464,-0.08839686,0.6607376,-0.74539375,,-0.08949078,0.26600644,-0.09088335,0.39893603,-0.7443498,0.535531,0.68175745,0.6313286,0.36963624,-0.6132347,0.21764106,0.75932574,,-0.0259888,0.4177928,-0.35108852,0.15579036,-0.62524176,-0.76472354,0.85917646,-0.29621542,0.4172196,-0.48738602,-0.72203124,0.49104553,,1.249275606131802,0.5396568505179345,0.20339697503,2.0339924517998864,-0.6816794973297824,-0.2267000877452804,-0.4068900687404896,,-0.8802448157369839,-0.20058254094223318,0.19629330583000001,-2.2919110822858513,-1.187234546461912,0.11946805515776401,0.8765042588765425,,-0.06277949319423604,-0.05761550026989781,0.08432494304,-0.06639839657179906,,0.000106122345,6.4373016e-06,-9.417534e-06,1.0,-8.8721514e-05,-7.864088e-05,8.8721514e-05,1.0,-1.052022e-05,7.864088e-05,1.0550022e-05,1.0,658,2.077,0,1,1.436,False,-0.25963972474957986,1.0504805913743163
2.052247135026846,19:18:27.364751,19:18:17.592296,0,,0.11894183,0.0014706999,0.03671862,-0.5155989,0.7162382,-0.470277,0.09860006,0.594808,0.79779804,0.8511379,0.3649744,-0.37730342,,0.057265565,-0.0042313784,0.035360873,-0.25117785,0.64470977,0.72198266,0.006183028,-0.74481153,0.66724634,0.96792114,0.17206147,0.18309394,,0.10522186,1.3401115,0.44064543,0.9942773,0.013462593,-0.10597855,-0.059989076,-0.75049627,-0.6581464,-0.08839686,0.6607376,-0.74539375,,-0.08789635,0.2652665,-0.09094655,0.43112057,-0.7234813,0.53917515,0.6642331,0.6589111,0.35303056,-0.6106795,0.20593925,0.7646304,,-0.026126904,0.41777405,-0.3511667,0.15508945,-0.6233869,-0.7663785,0.8595262,-0.2972713,0.41574562,-0.48699272,-0.7232002,0.4897138,,1.2546197372807655,0.5336562870746621,0.20337753068000003,1.9786343067199719,-0.674711035841745,-0.2002009772184164,-0.40591000434368396,,-0.8809166934970414,-0.20098412305169286,0.19630108357,-2.289814182851006,-1.1861414544637887,0.11955685680987951,0.876340914810408,,-0.06277949319423604,-0.05761550026989781,0.08432494304,-0.06639839657179906,,0.000106122345,6.4373016e-06,-9.417534e-06,1.0,-8.8721514e-05,-7.864088e-05,8.8721514e-05,1.0,-1.052022e-05,7.864088e-05,1.0550022e-05,1.0,667,2.105,0,1,1.436,False,-0.26053339052739544,1.0502874705711984
2.125186624005437,19:18:27.402113,19:18:17.592296,0,,0.11808199,0.001113072,0.036161467,-0.5375567,0.70502913,-0.46256512,0.09863624,0.5973741,0.7958739,0.8374386,0.38220164,-0.39066392,,0.05736489,-0.0042565167,0.035387456,-0.2511542,0.6443149,0.72234327,0.0067248344,-0.74508375,0.6669371,0.96792376,0.17236166,0.18279806,,0.10522186,1.3401115,0.44064543,0.9942773,0.013462593,-0.10597855,-0.059989076,-0.75049627,-0.6581464,-0.08839686,0.6607376,-0.74539375,,-0.087000765,0.26465887,-0.09086691,0.4543263,-0.71396255,0.5327711,0.655848,0.67280525,0.34233972,-0.6028689,0.19388297,0.77392405,,-0.02622708,0.41777351,-0.35120085,0.15504076,-0.62301105,-0.7666939,0.859799,-0.29710892,0.41529745,-0.48652652,-0.7235907,0.4896003,,1.2573226937867439,0.5296868023773107,0.20344882663000002,1.9440354660450252,-0.6626870238623862,-0.176680826766352,-0.4055833162114154,,-0.8814495620653628,-0.2011849141064227,0.19631534276,-2.2896044929075217,-1.1854582719649613,0.11948983973224075,0.8758508826120053,,-0.06277949319423604,-0.05761550026989781,0.08432494304,-0.06639839657179906,,0.000106122345,6.4373016e-06,-9.417534e-06,1.0,-8.8721514e-05,-7.864088e-05,8.8721514e-05,1.0,-1.052022e-05,7.864088e-05,1.0550022e-05,1.0,681,2.151,0,1,1.436,False,-0.2598184579051428,1.0501909101696396
2.162530517030973,19:18:27.430243,19:18:17.592296,0,,0.117556766,0.00095418096,0.035726324,-0.5510252,0.69962317,-0.45486093,0.09902033,0.59604406,0.7968227,0.8285928,0.3940289,-0.3977123,,0.057432555,-0.0042622387,0.035410702,-0.25123262,0.643544,0.7230029,0.0064940453,-0.74582297,0.6661127,0.9679049,0.17204446,0.18319584,,0.10522186,1.3401115,0.44064543,0.9942773,0.013462593,-0.10597855,-0.059989076,-0.75049627,-0.6581464,-0.08839686,0.6607376,-0.74539375,,-0.08644164,0.26426795,-0.090708695,0.46862,-0.70983434,0.5258617,0.6506743,0.6799754,0.33801833,-0.59751004,0.18376254,0.78052104,,-0.026296353,0.41778326,-0.35121688,0.15513116,-0.6221797,-0.7673505,0.859675,-0.2976706,0.4151519,-0.48671678,-0.724075,0.48869434,,1.2590216950190734,0.5271769141931877,0.20360178885000002,1.9230664716965726,-0.6544888338764597,-0.15886227894596866,-0.40721675687275816,,-0.8818048077775772,-0.20123897323654227,0.19632830566,-2.2887657331335833,-1.1854582719649613,0.11965319721252188,0.8761775707442738,,-0.06277949319423604,-0.05761550026989781,0.08432494304,-0.06639839657179906,,0.000106122345,6.4373016e-06,-9.417534e-06,1.0,-8.8721514e-05,-7.864088e-05,8.8721514e-05,1.0,-1.052022e-05,7.864088e-05,1.0550022e-05,1.0,690,2.179,0,1,1.436,False,-0.2611887454311268,1.050963393382111
2.1906756250537,19:18:27.468478,19:18:17.592296,0,,0.11712548,0.00093331933,0.03534524,-0.560943,0.6925087,-0.45362365,0.09781417,0.5995548,0.79433405,0.82205546,0.4012053,-0.40405327,,0.05749009,-0.004256338,0.03543687,-0.25152925,0.6432188,0.72318923,0.006428987,-0.7460855,0.6658192,0.9678283,0.17212234,0.18352714,,0.10522186,1.3401115,0.44064543,0.9942773,0.013462593,-0.10597855,-0.059989076,-0.75049627,-0.6581464,-0.08839686,0.6607376,-0.74539375,,-0.085975505,0.26401198,-0.09048769,0.47908488,-0.7033352,0.525164,0.6457482,0.6876573,0.33186856,-0.5945477,0.1801305,0.78362364,,-0.02635638,0.4178025,-0.35122454,0.15543655,-0.6218518,-0.76755446,0.8596084,-0.2977013,0.4152678,-0.48673698,-0.724344,0.48827538,,1.2606048552582894,0.525362071967745,0.20382734331000002,1.90671065610478,-0.649296646885373,-0.15084434826534832,-0.4091768856663694,,-0.8821523307569173,-0.2012466959694165,0.19633737969,-2.2887657331335833,-1.1854582719649613,0.11989823343294354,0.8763409148104082,,-0.06277949319423604,-0.05761550026989781,0.08432494304,-0.06639839657179906,,0.000106122345,6.4373016e-06,-9.417534e-06,1.0,-8.8721514e-05,-7.864088e-05,8.8721514e-05,1.0,-1.052022e-05,7.864088e-05,1.0550022e-05,1.0,699,2.208,0,1,1.436,False,-0.2598780356236645,1.0502874705711984
2.2289355620159768,19:18:27.499041,19:18:17.592296,0,,0.11679667,0.0010490716,0.035058662,-0.56714076,0.6859431,-0.45588714,0.094997734,0.6043018,0.791072,0.8181238,0.40534085,-0.40788728,,0.05751252,-0.0042506605,0.035446584,-0.25149438,0.6428925,0.7234914,0.006429881,-0.7463913,0.6654764,0.9678374,0.1720155,0.18357953,,0.10522186,1.3401115,0.44064543,0.9942773,0.013462593,-0.10597855,-0.059989076,-0.75049627,-0.6581464,-0.08839686,0.6607376,-0.74539375,,-0.08561494,0.26391676,-0.09023356,0.4855217,-0.69702375,0.5276614,0.6412487,0.69418746,0.32696155,-0.5941959,0.17961527,0.7840087,,-0.026379893,0.4178113,-0.35122433,0.15540093,-0.62150294,-0.76784414,0.8596129,-0.29791197,0.41510743,-0.48674047,-0.7245568,0.4879561,,1.2620721745043921,0.5243735621598442,0.20409437905000002,1.8951777092131312,-0.6473837358886568,-0.1483202619100702,-0.4098302619309067,,-0.8822836172157791,-0.20122352777079383,0.19634126856000003,-2.288556043190099,-1.1853216354651959,0.12011353048980927,0.8756875385458709,,-0.06277949319423604,-0.05761550026989781,0.08432494304,-0.06639839657179906,,0.000106122345,6.4373016e-06,-9.417534e-06,1.0,-8.8721514e-05,-7.864088e-05,8.8721514e-05,1.0,-1.052022e-05,7.864088e-05,1.0550022e-05,1.0,713,2.253,0,1,1.436,False,-0.259282258438454,1.0501909101696396
2.2595122780185193,19:18:27.543976,19:18:17.762198,0,,0.11626123,0.0014281571,0.034669295,-0.582392,0.6712213,-0.45856452,0.08763683,0.6126585,0.78547394,0.8081703,0.41726652,-0.41563115,,0.05751712,-0.0042504817,0.035440266,-0.25132635,0.64250726,0.7238919,0.006640613,-0.74673545,0.66508806,0.96787953,0.1719612,0.1834077,,0.10522186,1.3401115,0.44064543,0.9942773,0.013462593,-0.10597855,-0.059989076,-0.75049627,-0.6581464,-0.08839686,0.6607376,-0.74539375,,-0.0850275,0.2639546,-0.089748286,0.501371,-0.68323505,0.53086436,0.629671,0.70892364,0.3177133,-0.59341514,0.17497766,0.78564703,,-0.02638385,0.4178055,-0.35122094,0.15522006,-0.62109876,-0.7682077,0.8597372,-0.29809064,0.4147214,-0.48657846,-0.72482985,0.48771206,,1.2650454266609685,0.5238484163243969,0.20458826554,1.8683373964471122,-0.6426014583968664,-0.14045814995920386,-0.40868685346796674,,-0.8822913399486534,-0.20123125050366805,0.19634645372,-2.288556043190099,-1.185048362465665,0.12062580334368136,0.8765042588765426,,-0.06277949319423604,-0.05761550026989781,0.08432494304,-0.06639839657179906,,0.000106122345,6.4373016e-06,-9.417534e-06,1.0,-8.8721514e-05,-7.864088e-05,8.8721514e-05,1.0,-1.052022e-05,7.864088e-05,1.0550022e-05,1.0,722,2.282,0,1,1.436,False,-0.2594014138754961,1.0505288715750958
2.3044035670463927,19:18:27.572107,19:18:17.762198,0,,0.11611763,0.0016215593,0.034512773,-0.5866486,0.6691875,-0.4561046,0.089016974,0.61307395,0.7849945,0.80493426,0.41991484,-0.41922805,,0.057515457,-0.0042514205,0.035434365,-0.25121966,0.6424129,0.7240126,0.006755322,-0.74681914,0.664993,0.9679065,0.17195019,0.18327595,,0.10522186,1.3401115,0.44064543,0.9942773,0.013462593,-0.10597855,-0.059989076,-0.75049627,-0.6581464,-0.08839686,0.6607376,-0.74539375,,-0.08486085,0.26399752,-0.08951827,0.50598603,-0.681462,0.52876055,0.62867,0.71108633,0.31484962,-0.59055245,0.17310639,0.78821445,,-0.02638158,0.4178001,-0.35121876,0.15510607,-0.62100005,-0.7683105,0.85980666,-0.29813212,0.41454762,-0.48649213,-0.7248973,0.4876979,,1.2661420547291085,0.5238484163243969,0.20480215339000002,1.8626757679730297,-0.637819180905076,-0.1373334049364902,-0.40754344500502665,,-0.8822681717500307,-0.20123897323654227,0.19634904630000002,-2.288556043190099,-1.1849117259658997,0.12075942166040679,0.8760142266781394,,-0.06277949319423604,-0.05761550026989781,0.08432494304,-0.06639839657179906,,0.000106122345,6.4373016e-06,-9.417534e-06,1.0,-8.8721514e-05,-7.864088e-05,8.8721514e-05,1.0,-1.052022e-05,7.864088e-05,1.0550022e-05,1.0,736,2.327,0,1,1.436,False,-0.2604738128088746,1.050963393382111
2.332575128006283,19:18:27.610177,19:18:17.762198,0,,0.11575721,0.0020822287,0.034071907,-0.6018194,0.65913755,-0.45094454,0.08921501,0.61659837,0.7822066,0.7936334,0.430516,-0.42988592,,0.05751486,-0.0042444766,0.035428643,-0.25120386,0.64207685,0.7243161,0.0067290366,-0.7471349,0.6646384,0.96791077,0.17183368,0.18336265,,0.10522186,1.3401115,0.44064543,0.9942773,0.013462593,-0.10597855,-0.059989076,-0.75049627,-0.6581464,-0.08839686,0.6607376,-0.74539375,,-0.08443875,0.26405463,-0.088922404,0.5222109,-0.67238873,0.52458483,0.6217696,0.7211894,0.30543157,-0.58369374,0.16667119,0.7946838,,-0.026380753,0.4177988,-0.35120988,0.1550912,-0.62064004,-0.7686044,0.8597954,-0.29835507,0.4144106,-0.4865168,-0.7251139,0.48735118,,1.2686828338447282,0.5238175253929,0.20536085438,1.8408680138506395,-0.6259318054254827,-0.12750554366448463,-0.4093402297325039,,-0.8822527262842822,-0.2012080823050454,0.19635552775,-2.288556043190099,-1.1849117259658997,0.12124949410125,0.8763409148104082,,-0.06277949319423604,-0.05761550026989781,0.08432494304,-0.06639839657179906,,0.000106122345,6.4373016e-06,-9.417534e-06,1.0,-8.8721514e-05,-7.864088e-05,8.8721514e-05,1.0,-1.052022e-05,7.864088e-05,1.0550022e-05,1.0,745,2.355,0,1,1.436,False,-0.2599376133421849,1.0507702725789931
2.3706127110053785,19:18:27.643860,19:18:17.762198,0,,0.11559388,0.0022839308,0.03379844,-0.6108743,0.6523377,-0.44865128,0.086952776,0.61852443,0.78093964,0.78693813,0.43804443,-0.43456334,,0.05752279,-0.004237935,0.03541863,-0.25106364,0.6413873,0.72497547,0.0067555904,-0.7477851,0.6639066,0.9679469,0.17158036,0.18340877,,0.10522186,1.3401115,0.44064543,0.9942773,0.013462593,-0.10597855,-0.059989076,-0.75049627,-0.6581464,-0.08839686,0.6607376,-0.74539375,,-0.084240355,0.26402572,-0.08860312,0.5317892,-0.6663048,0.5227219,0.6159252,0.7279254,0.30126512,-0.58123696,0.16174807,0.7974968,,-0.02638796,0.41779265,-0.3511991,0.15494703,-0.6198998,-0.76923054,0.8598247,-0.29882586,0.41401032,-0.48651087,-0.7255531,0.486703,,1.269632729988258,0.5236630707354155,0.20566937140000002,1.8268187876371764,-0.6212861644334576,-0.12059383743174928,-0.40787013313729537,,-0.8822604490171564,-0.2011849141064227,0.19636849065000003,-2.2883463532466144,-1.1847750894661342,0.12203654233909991,0.8758508826120053,,-0.06277949319423604,-0.05761550026989781,0.08432494304,-0.06639839657179906,,0.000106122345,6.4373016e-06,-9.417534e-06,1.0,-8.8721514e-05,-7.864088e-05,8.8721514e-05,1.0,-1.052022e-05,7.864088e-05,1.0550022e-05,1.0,759,2.4,0,1,1.436,False,-0.2599971910607066,1.0507219923782136
2.404286632023286,19:18:27.689053,19:18:17.906011,0,,0.115492105,0.002513662,0.03341271,-0.6171439,0.64715815,-0.44757074,0.08527535,0.62047213,0.7795784,0.7822157,0.4429453,-0.43810725,,0.057535198,-0.0042212456,0.035395086,-0.25071505,0.64106053,0.72538495,0.0071122646,-0.74807745,0.6635734,0.96803474,0.17152691,0.18299493,,0.10522186,1.3401115,0.44064543,0.9942773,0.013462593,-0.10597855,-0.059989076,-0.75049627,-0.6581464,-0.08839686,0.6607376,-0.74539375,,-0.08409068,0.26393977,-0.08817633,0.53842515,-0.66156656,0.52194643,0.6117382,0.7328508,0.2978358,-0.57954705,0.15893228,0.7992908,,-0.026398767,0.41777954,-0.35117266,0.15457545,-0.6195563,-0.769582,0.86004233,-0.29898396,0.41344374,-0.48624435,-0.7257813,0.4866291,,1.270119262159334,0.523300102290327,0.20609844339000002,1.816753670349919,-0.618280161438618,-0.11618401714126336,-0.4085235094018324,,-0.8822681717500307,-0.20113085497630312,0.19639571274,-2.288556043190099,-1.1842285434670723,0.12248933686586039,0.8763409148104082,,-0.06277949319423604,-0.05761550026989781,0.08432494304,-0.06639839657179906,,0.000106122345,6.4373016e-06,-9.417534e-06,1.0,-8.8721514e-05,-7.864088e-05,8.8721514e-05,1.0,-1.052022e-05,7.864088e-05,1.0550022e-05,1.0,768,2.429,0,1,1.436,False,-0.2593418361569748,1.050963393382111
2.4495148110436276,19:18:27.724209,19:18:17.906011,0,,0.11547224,0.0026230812,0.033102438,-0.62423366,0.6408356,-0.4468354,0.08445305,0.6239599,0.77687943,0.77665937,0.4472177,-0.44361743,,0.05754239,-0.004202202,0.03537482,-0.25076059,0.6410319,0.7253945,0.0071071684,-0.7480971,0.6635512,0.968023,0.17154798,0.18303737,,0.10522186,1.3401115,0.44064543,0.9942773,0.013462593,-0.10597855,-0.059989076,-0.75049627,-0.6581464,-0.08839686,0.6607376,-0.74539375,,-0.0840351,0.26381266,-0.08787735,0.5459965,-0.6555636,0.52165526,0.6076523,0.73853344,0.29210788,-0.57675517,0.15749516,0.8015914,,-0.026404819,0.41777098,-0.35114592,0.15462211,-0.619529,-0.76959455,0.8600346,-0.2989728,0.41346797,-0.48624325,-0.7258092,0.4865886,,1.2700652030292143,0.5230066384411065,0.20637714574000002,1.8068982430061464,-0.6143177029454203,-0.11394266075904175,-0.40754344500502665,,-0.8822604490171564,-0.20106907311330932,0.19642034225000002,-2.288556043190099,-1.1842285434670723,0.12273437308628204,0.8765042588765426,,-0.06277949319423604,-0.05761550026989781,0.08432494304,-0.06639839657179906,,0.000106122345,6.4373016e-06,-9.417534e-06,1.0,-8.8721514e-05,-7.864088e-05,8.8721514e-05,1.0,-1.052022e-05,7.864088e-05,1.0550022e-05,1.0,791,2.503,0,1,1.436,False,-0.25880563669028556,1.0507219923782136
2.4846675930311903,19:18:27.786483,19:18:17.906011,0,,0.1155477,0.0027668476,0.032567307,-0.6323534,0.6381686,-0.43916947,0.09124765,0.6243162,0.7758242,0.7692872,0.4505219,-0.45301992,,0.05754871,-0.0041742325,0.03534621,-0.25078318,0.6406728,0.72570384,0.0070700645,-0.74842834,0.6631781,0.96801746,0.17144461,0.1831637,,0.10522186,1.3401115,0.44064543,0.9942773,0.013462593,-0.10597855,-0.059989076,-0.75049627,-0.6581464,-0.08839686,0.6607376,-0.74539375,,-0.08405022,0.2635562,-0.087380625,0.55509657,-0.65322965,0.51493573,0.608012,0.7411168,0.28472313,-0.5676171,0.15503828,0.8085629,,-0.0264096,0.4177599,-0.35110724,0.15464681,-0.6191467,-0.7698972,0.86001354,-0.29918978,0.4133548,-0.48627266,-0.726046,0.48620582,,1.269570948125264,0.5223888198111685,0.2068230695,1.7999784748711571,-0.6032501464644197,-0.10940884009511864,-0.40640003654208673,,-0.8822295580856595,-0.20096867758594442,0.19645534208,-2.2887657331335833,-1.1842285434670723,0.12346948174754713,0.8756875385458711,,-0.06277949319423604,-0.05761550026989781,0.08432494304,-0.06639839657179906,,0.000106122345,6.4373016e-06,-9.417534e-06,1.0,-8.8721514e-05,-7.864088e-05,8.8721514e-05,1.0,-1.052022e-05,7.864088e-05,1.0550022e-05,1.0,800,2.531,0,1,1.436,False,-0.25820985950507547,1.050335750771978
2.5469456820283085,19:18:27.821025,19:18:18.054746,0,,0.11555046,0.002781555,0.032459274,-0.6327895,0.63867396,-0.43780458,0.09126717,0.6229802,0.7768951,0.76892626,0.4516539,-0.4525053,,0.057551406,-0.0041680485,0.035340607,-0.25078124,0.6403857,0.7259579,0.007047951,-0.7486949,0.6628773,0.96801805,0.17135367,0.18324526,,0.10522186,1.3401115,0.44064543,0.9942773,0.013462593,-0.10597855,-0.059989076,-0.75049627,-0.6581464,-0.08839686,0.6607376,-0.74539375,,-0.08404149,0.2634943,-0.08729126,0.55556715,-0.65390235,0.51357263,0.6077996,0.7408723,0.2858109,-0.5673842,0.15336211,0.8090459,,-0.026412023,0.41775793,-0.35109904,0.15464585,-0.6188401,-0.77014387,0.86000276,-0.29937124,0.41324586,-0.48629203,-0.7262326,0.48590764,,1.2694164934677796,0.5221494150920676,0.20691380980000001,1.7993494050407037,-0.6031135099646542,-0.10706989579459819,-0.4064000365420867,,-0.8822295580856595,-0.20094550938732175,0.19646311982000003,-2.2887657331335833,-1.1842285434670723,0.12387787544824994,0.8761775707442738,,-0.06277949319423604,-0.05761550026989781,0.08432494304,-0.06639839657179906,,0.000106122345,6.4373016e-06,-9.417534e-06,1.0,-8.8721514e-05,-7.864088e-05,8.8721514e-05,1.0,-1.052022e-05,7.864088e-05,1.0550022e-05,1.0,814,2.577,0,1,1.436,False,-0.2591631030014119,1.0506254319766548
2.581499321036972,19:18:27.860249,19:18:18.054746,0,,0.115535334,0.0027579218,0.03235866,-0.63423455,0.63759756,-0.4372821,0.09274286,0.6242503,0.7756999,0.76755786,0.4514209,-0.45505384,,0.057555385,-0.004167065,0.035337448,-0.25055453,0.6403583,0.7260604,0.0071917176,-0.74873114,0.6628349,0.96807575,0.17129786,0.18299277,,0.10522186,1.3401115,0.44064543,0.9942773,0.013462593,-0.10597855,-0.059989076,-0.75049627,-0.6581464,-0.08839686,0.6607376,-0.74539375,,-0.084017344,0.26340973,-0.08723495,0.55720365,-0.6527552,0.51325893,0.60802263,0.7416937,0.2831942,-0.5655374,0.1542762,0.8101644,,-0.026415717,0.4177553,-0.35109657,0.15440823,-0.6188057,-0.7702192,0.86010027,-0.2994344,0.41299707,-0.48619506,-0.72623587,0.4859998,,1.2693547116047859,0.5217941693798532,0.20696306882,1.7980912653797962,-0.600927325968407,-0.1076274011516325,-0.4072167568727581,,-0.8822372808185338,-0.20093778665444753,0.19646571240000002,-2.288556043190099,-1.1839552704675413,0.12373671838099745,0.8760142266781397,,-0.06277949319423604,-0.05761550026989781,0.08432494304,-0.06639839657179906,,0.000106122345,6.4373016e-06,-9.417534e-06,1.0,-8.8721514e-05,-7.864088e-05,8.8721514e-05,1.0,-1.052022e-05,7.864088e-05,1.0550022e-05,1.0,823,2.605,0,1,1.436,False,-0.25856732581620134,1.050335750771978
2.620714067015797,19:18:27.900983,19:18:18.054746,0,,0.11546846,0.0027131736,0.032254234,-0.63609314,0.63739127,-0.43487656,0.09493101,0.6239585,0.77567,0.7657502,0.45211512,-0.45740396,,0.05755247,-0.004167035,0.03533405,-0.2505348,0.640368,0.72605866,0.007196516,-0.74872464,0.66284215,0.96808076,0.17129011,0.1829732,,0.10522186,1.3401115,0.44064543,0.9942773,0.013462593,-0.10597855,-0.059989076,-0.75049627,-0.6581464,-0.08839686,0.6607376,-0.74539375,,-0.08394225,0.26330885,-0.08719535,0.5593255,-0.65263236,0.51110274,0.6084919,0.7419525,0.28150338,-0.56293213,0.15354986,0.8121144,,-0.026412494,0.41775274,-0.35109487,0.15438789,-0.6188149,-0.7702159,0.8601049,-0.2994388,0.41298416,-0.48619327,-0.7262263,0.48601598,,1.2695400571937672,0.5212458553457833,0.20699417978,1.79641374583192,-0.5976480499740365,-0.10580910013261569,-0.40574666027754963,,-0.8822141126199111,-0.20093778665444753,0.19646700869000003,-2.288556043190099,-1.1839552704675413,0.12373671838099745,0.8760142266781397,,-0.06277949319423604,-0.05761550026989781,0.08432494304,-0.06639839657179906,,0.000106122345,6.4373016e-06,-9.417534e-06,1.0,-8.8721514e-05,-7.864088e-05,8.8721514e-05,1.0,-1.052022e-05,7.864088e-05,1.0550022e-05,1.0,837,2.65,0,1,1.436,False,-0.2587460589717643,1.050432311173537
2.6614373060292564,19:18:27.937969,19:18:18.054746,0,,0.11535734,0.0026554465,0.032120273,-0.6416159,0.6333858,-0.43260986,0.09483984,0.6251924,0.77468693,0.7611401,0.45602277,-0.4612037,,0.05755513,-0.0041717887,0.035332322,-0.25041482,0.6401223,0.72631663,0.007108271,-0.7489838,0.6625502,0.96811247,0.1710752,0.18300653,,0.10522186,1.3401115,0.44064543,0.9942773,0.013462593,-0.10597855,-0.059989076,-0.75049627,-0.6581464,-0.08839686,0.6607376,-0.74539375,,-0.08382078,0.26318014,-0.087147385,0.56527495,-0.64899135,0.50918996,0.6055255,0.7456394,0.2781381,-0.5601813,0.15110303,0.8144721,,-0.026414745,0.41774854,-0.35109806,0.15426959,-0.6185377,-0.77046216,0.8600747,-0.29972723,0.41283786,-0.4862843,-0.72634333,0.48574984,,1.2698566892416103,0.5206203139829712,0.20703436477,1.7884455279795082,-0.5936855914808388,-0.10177081146730188,-0.4052566280791469,,-0.8822063898870368,-0.20095323212019597,0.19646830498,-2.28813666330313,-1.1839552704675413,0.12373671838099745,0.8760142266781397,,-0.06277949319423604,-0.05761550026989781,0.08432494304,-0.06639839657179906,,0.000106122345,6.4373016e-06,-9.417534e-06,1.0,-8.8721514e-05,-7.864088e-05,8.8721514e-05,1.0,-1.052022e-05,7.864088e-05,1.0550022e-05,1.0,846,2.679,0,1,1.436,False,-0.2590439475643693,1.0507219923782136
2.6984358220361173,19:18:27.971914,19:18:18.196304,0,,0.11527079,0.0026438385,0.032017604,-0.64283246,0.6332564,-0.43099022,0.095990926,0.62480545,0.77485734,0.7599684,0.45673227,-0.46243215,,0.05755754,-0.004170984,0.03533089,-0.2504214,0.6400597,0.72636944,0.007106662,-0.7490401,0.6624867,0.9681108,0.17106286,0.18302701,,0.10522186,1.3401115,0.44064543,0.9942773,0.013462593,-0.10597855,-0.059989076,-0.75049627,-0.6581464,-0.08839686,0.6607376,-0.74539375,,-0.08372492,0.2631057,-0.08708881,0.5666508,-0.64895046,0.5077107,0.60563254,0.74583536,0.2773785,-0.5586735,0.1503094,0.81565374,,-0.026417037,0.41774747,-0.3510966,0.15427637,-0.61847174,-0.7705138,0.86007315,-0.29975948,0.4128177,-0.48628488,-0.72638625,0.48568514,,1.2701733212894535,0.5201183363461465,0.20709140153000002,1.7869776983751167,-0.5916360439843571,-0.10001157293684465,-0.406563380608221,,-0.8822141126199111,-0.20095323212019597,0.19647089756000002,-2.28813666330313,-1.1839552704675413,0.1238183971211381,0.8758508826120053,,-0.06277949319423604,-0.05761550026989781,0.08432494304,-0.06639839657179906,,0.000106122345,6.4373016e-06,-9.417534e-06,1.0,-8.8721514e-05,-7.864088e-05,8.8721514e-05,1.0,-1.052022e-05,7.864088e-05,1.0550022e-05,1.0,869,2.753,0,1,1.436,False,-0.25975888018662197,1.0504805913743163
2.732386807037983,19:18:28.035022,19:18:18.196304,0,,0.114902705,0.0027086884,0.031655684,-0.64774084,0.63001525,-0.42838335,0.09587002,0.62522,0.7745378,0.7558046,0.46063066,-0.46538013,,0.057646252,-0.004142016,0.03530574,-0.25027165,0.6398425,0.72661245,0.0069673657,-0.7492869,0.66220903,0.96815056,0.17079465,0.18306729,,0.105157085,1.3401151,0.44064015,0.9942805,0.013502941,-0.105943166,-0.059935622,-0.75049555,-0.6581521,-0.08839686,0.6607376,-0.74539375,,-0.08326319,0.2629279,-0.08682789,0.571939,-0.6461383,0.5053623,0.6029475,0.7488558,0.27508047,-0.5561836,0.14737767,0.8178873,,-0.026444232,0.4177388,-0.35106546,0.15411286,-0.6181804,-0.77078027,0.8600294,-0.30011162,0.41265294,-0.48641407,-0.7264888,0.4854023,,1.2714861858780717,0.51858923523705,0.20735584469,1.7785901006357356,-0.5874003124916285,-0.09423583031555022,-0.407706789071161,,-0.8821909444212884,-0.20094550938732175,0.19648386046000002,-2.2877172834161605,-1.1839552704675413,0.12390007586127863,0.8756875385458711,,-0.06277949319423604,-0.05761550026989781,0.08432494304,-0.06639839657179906,,4.196167e-05,-7.748604e-07,-9.536743e-07,0.99999994,-4.8648566e-05,-4.311651e-05,4.864484e-05,1.0,-5.751848e-06,4.311651e-05,5.7816505e-06,1.0,878,2.781,0,1,1.436,False,-0.26017592421626956,1.0501909101696396
2.795480650034733,19:18:28.070827,19:18:18.196304,0,,0.11473582,0.002711296,0.031444997,-0.65017045,0.6278568,-0.42787147,0.09689736,0.6270669,0.77291524,0.75358415,0.46106708,-0.46853814,,0.057643674,-0.0041433275,0.035302043,-0.25025257,0.6397897,0.72666544,0.0069796145,-0.7493358,0.6621534,0.9681554,0.17077735,0.18305783,,0.105157085,1.3401151,0.44064015,0.9942805,0.013502941,-0.105943166,-0.059935622,-0.75049555,-0.6581521,-0.08839686,0.6607376,-0.74539375,,-0.083076,0.26279423,-0.086688824,0.5746208,-0.64395857,0.50510234,0.60230213,0.75059336,0.27173835,-0.5541147,0.14807771,0.81916416,,-0.026441243,0.41773525,-0.35106474,0.15409286,-0.618124,-0.7708295,0.8600377,-0.30014548,0.4126111,-0.48640582,-0.7265228,0.48535964,,1.2720885590422613,0.5176779527578915,0.20749714030000002,1.7750253715964985,-0.5843943094967888,-0.09374658955181125,-0.4077067890711609,,-0.8821677762226657,-0.20095323212019597,0.19648515675000003,-2.2877172834161605,-1.1839552704675413,0.12398175460141916,0.8758508826120053,,-0.06277949319423604,-0.05761550026989781,0.08432494304,-0.06639839657179906,,4.196167e-05,-7.748604e-07,-9.536743e-07,0.99999994,-4.8648566e-05,-4.311651e-05,4.864484e-05,1.0,-5.751848e-06,4.311651e-05,5.7816505e-06,1.0,892,2.826,0,1,1.436,False,-0.259580147031059,1.0506737121774343
2.8312784350127913,19:18:28.114220,19:18:18.327218,0,,0.114542305,0.0027052015,0.031099781,-0.65203655,0.6279337,-0.4249087,0.098890185,0.62607414,0.7734674,0.75171065,0.46230975,-0.47031975,,0.05764874,-0.004141122,0.035290003,-0.2501821,0.6397341,0.7267387,0.0069304407,-0.7494066,0.6620739,0.968174,0.17067558,0.18305449,,0.105157085,1.3401151,0.44064015,0.9942805,0.013502941,-0.105943166,-0.059935622,-0.75049555,-0.6581521,-0.08839686,0.6607376,-0.74539375,,-0.08284919,0.2625646,-0.086459726,0.5767484,-0.6442019,0.5023597,0.60258305,0.7506927,0.27083963,-0.5515932,0.14650708,0.82114595,,-0.026445214,0.41772553,-0.35105672,0.15402324,-0.61805546,-0.77089834,0.86002123,-0.30026236,0.41256028,-0.4864569,-0.7265328,0.48529345,,1.27259825941196,0.5162646926419084,0.20773306508000003,1.7725090922746845,-0.5811150335024182,-0.08988632002928038,-0.407706789071161,,-0.8821523307569173,-0.20095323212019597,0.19649811965000002,-2.2875075934726765,-1.1839552704675413,0.12390007586127863,0.8760142266781394,,-0.06277949319423604,-0.05761550026989781,0.08432494304,-0.06639839657179906,,4.196167e-05,-7.748604e-07,-9.536743e-07,0.99999994,-4.8648566e-05,-4.311651e-05,4.864484e-05,1.0,-5.751848e-06,4.311651e-05,5.7816505e-06,1.0,901,2.855,0,1,1.436,False,-0.2590439475643693,1.0501909101696396
2.8746639600140043,19:18:28.146061,19:18:18.327218,0,,0.114400245,0.002681166,0.03059122,-0.65571535,0.6258427,-0.42232463,0.101913035,0.6276132,0.7718261,0.74809825,0.46305782,-0.47531718,,0.057657525,-0.0041356087,0.03527987,-0.2501946,0.6396713,0.7267897,0.006919861,-0.74946356,0.66200954,0.9681709,0.17066042,0.18308534,,0.105157085,1.3401151,0.44064015,0.9942805,0.013502941,-0.105943166,-0.059935622,-0.75049555,-0.6581521,-0.08839686,0.6607376,-0.74539375,,-0.082657866,0.26220995,-0.086117655,0.5808962,-0.64213353,0.5002241,0.60252196,0.7524099,0.26617053,-0.54729056,0.14677854,0.82397157,,-0.026453214,0.4177187,-0.35104677,0.15403648,-0.617989,-0.770949,0.86001456,-0.30029735,0.41254878,-0.48646456,-0.7265749,0.4852228,,1.2726059821448343,0.5145193550123337,0.20807528564000002,1.768315293404994,-0.576059483011097,-0.08788287695550567,-0.4088501975341009,,-0.8821677762226657,-0.20094550938732175,0.19651237884000003,-2.2875075934726765,-1.1839552704675413,0.12398175460141916,0.8758508826120053,,-0.06277949319423604,-0.05761550026989781,0.08432494304,-0.06639839657179906,,4.196167e-05,-7.748604e-07,-9.536743e-07,0.99999994,-4.8648566e-05,-4.311651e-05,4.864484e-05,1.0,-5.751848e-06,4.311651e-05,5.7816505e-06,1.0,915,2.9,0,1,1.436,False,-0.2599971910607066,1.0501909101696396
2.906436479999684,19:18:28.185797,19:18:18.327218,0,,0.11425454,0.0026026964,0.030000135,-0.66034156,0.6230295,-0.41926485,0.10619643,0.63016325,0.76916623,0.7434186,0.463388,-0.4822865,,0.05766377,-0.004133299,0.035268664,-0.25013068,0.63925606,0.72717685,0.0068691373,-0.74986076,0.6615602,0.9681877,0.17047149,0.18317212,,0.105157085,1.3401151,0.44064015,0.9942805,0.013502941,-0.105943166,-0.059935622,-0.75049555,-0.6581521,-0.08839686,0.6607376,-0.74539375,,-0.08245692,0.2617597,-0.08575203,0.5861464,-0.6392625,0.49777085,0.60270923,0.7546196,0.2594048,-0.5414554,0.14796188,0.827607,,-0.026458435,0.41770956,-0.35103902,0.15397364,-0.61753947,-0.77132165,0.85999656,-0.30061486,0.412355,-0.48651624,-0.7268258,0.48479506,,1.2724360820216014,0.5123878807390477,0.20843824684,1.7634924247048498,-0.5693642945225903,-0.08648134006482316,-0.4075434450050268,,-0.8821600534897915,-0.20094550938732175,0.19652534174000003,-2.2872979035291916,-1.1839552704675413,0.12439014830212208,0.8763409148104082,,-0.06277949319423604,-0.05761550026989781,0.08432494304,-0.06639839657179906,,4.196167e-05,-7.748604e-07,-9.536743e-07,0.99999994,-4.8648566e-05,-4.311651e-05,4.864484e-05,1.0,-5.751848e-06,4.311651e-05,5.7816505e-06,1.0,924,2.929,0,1,1.436,False,-0.2604738128088746,1.0501909101696396
2.946176486031618,19:18:28.216662,19:18:18.327218,0,,0.11414839,0.002522111,0.029487044,-0.6653517,0.62036014,-0.41528317,0.10978329,0.6315455,0.7675272,0.7384136,0.46508434,-0.4883051,,0.057665437,-0.0041315705,0.035262346,-0.25005957,0.6389658,0.72745645,0.0068125725,-0.75014603,0.66123724,0.96820647,0.17030448,0.18322828,,0.105157085,1.3401151,0.44064015,0.9942805,0.013502941,-0.105943166,-0.059935622,-0.75049555,-0.6581521,-0.08839686,0.6607376,-0.74539375,,-0.08230321,0.2613589,-0.08544097,0.5917815,-0.63672125,0.49434876,0.602177,0.75687987,0.25399944,-0.5358895,0.1473733,0.8313264,,-0.026459562,0.41770488,-0.3510343,0.15390372,-0.6172214,-0.7715902,0.8599765,-0.30087063,0.41221026,-0.48657382,-0.7269901,0.4844908,,1.272181231836752,0.5105884839793534,0.20874417128000003,1.7580404861742522,-0.5629423790336147,-0.08338675004421758,-0.4095035737986381,,-0.882144608024043,-0.20093778665444753,0.19653182319,-2.287088213585707,-1.1839552704675413,0.1246351845225438,0.8758508826120053,,-0.06277949319423604,-0.05761550026989781,0.08432494304,-0.06639839657179906,,4.196167e-05,-7.748604e-07,-9.536743e-07,0.99999994,-4.8648566e-05,-4.311651e-05,4.864484e-05,1.0,-5.751848e-06,4.311651e-05,5.7816505e-06,1.0,938,2.974,0,1,1.436,False,-0.2598184579051428,1.0501909101696396
2.977072630019393,19:18:28.265366,19:18:18.468101,0,,0.11397473,0.0023831576,0.028784394,-0.6765173,0.6118035,-0.40990305,0.11124486,0.6351244,0.764357,0.7279757,0.47150108,-0.49773273,,0.057670407,-0.004130587,0.035256147,-0.25000226,0.63878477,0.7276351,0.00676018,-0.750329,0.6610302,0.9682216,0.17017794,0.18326567,,0.105157085,1.3401151,0.44064015,0.9942805,0.013502941,-0.105943166,-0.059935622,-0.75049555,-0.6581521,-0.08839686,0.6607376,-0.74539375,,-0.08206581,0.26078993,-0.085037135,0.60399175,-0.6287095,0.48981458,0.596645,0.7641543,0.24511813,-0.52840203,0.14419611,0.8366593,,-0.026463943,0.41769955,-0.35103032,0.15384768,-0.6170206,-0.7717619,0.8599569,-0.30105183,0.41211876,-0.48662612,-0.72708553,0.48429504,,1.2718954907204056,0.5081481003910985,0.20914342860000001,1.7429428102433666,-0.5536510970495647,-0.07642435175055423,-0.40852350940183246,,-0.882144608024043,-0.20093778665444753,0.19653960093000003,-2.2868785236422227,-1.1839552704675413,0.12471686326268422,0.8756875385458711,,-0.06277949319423604,-0.05761550026989781,0.08432494304,-0.06639839657179906,,4.196167e-05,-7.748604e-07,-9.536743e-07,0.99999994,-4.8648566e-05,-4.311651e-05,4.864484e-05,1.0,-5.751848e-06,4.311651e-05,5.7816505e-06,1.0,947,3.002,0,1,1.436,False,-0.25910352528289105,1.0502391903704191
3.0258050220436417,19:18:28.292932,19:18:18.468101,0,,0.11386724,0.0022756755,0.02819392,-0.6888074,0.60415226,-0.40067947,0.11425957,0.63627064,0.7629577,0.71588326,0.47974947,-0.5072982,,0.057672862,-0.0041291565,0.035251856,-0.25000226,0.6388442,0.72758293,0.00676018,-0.75027496,0.66109145,0.9682216,0.17019293,0.18325177,,0.105157085,1.3401151,0.44064015,0.9942805,0.013502941,-0.105943166,-0.059935622,-0.75049555,-0.6581521,-0.08839686,0.6607376,-0.74539375,,-0.08190414,0.26031727,-0.08468754,0.6175518,-0.62188476,0.48154864,0.591189,0.7708297,0.23731224,-0.51877284,0.13813366,0.8436787,,-0.026466029,0.4176963,-0.35102686,0.15384768,-0.61708367,-0.7717115,0.8599569,-0.30101815,0.41214335,-0.48662612,-0.72704595,0.48435444,,1.271671531467053,0.5063100899670331,0.20946879739000002,1.727635444368996,-0.541627085070206,-0.06670790838224488,-0.40966691786477233,,-0.882144608024043,-0.20093778665444753,0.19654478609,-2.2868785236422227,-1.1839552704675413,0.12463518452254366,0.8755241944797367,,-0.06277949319423604,-0.05761550026989781,0.08432494304,-0.06639839657179906,,4.196167e-05,-7.748604e-07,-9.536743e-07,0.99999994,-4.8648566e-05,-4.311651e-05,4.864484e-05,1.0,-5.751848e-06,4.311651e-05,5.7816505e-06,1.0,961,3.048,0,1,1.436,False,-0.2591631030014119,1.0502874705711984
3.053387466003187,19:18:28.329629,19:18:18.468101,0,,0.11372535,0.0021862388,0.027466476,-0.7033826,0.5942337,-0.39005,0.116680145,0.6378201,0.7612958,0.7011694,0.48997107,-0.51796687,,0.057679724,-0.0041289777,0.03524494,-0.24988769,0.63854134,0.72788805,0.006655425,-0.7505867,0.6607386,0.96825194,0.16995476,0.1833127,,0.105157085,1.3401151,0.44064015,0.9942805,0.013502941,-0.105943166,-0.059935622,-0.75049555,-0.6581521,-0.08839686,0.6607376,-0.74539375,,-0.081693746,0.25976706,-0.08422895,0.6336217,-0.6129876,0.47198498,0.58361435,0.77921337,0.22851872,-0.50785613,0.1306628,0.8514748,,-0.026472183,0.4176897,-0.35102314,0.15373565,-0.616745,-0.77200454,0.85991776,-0.30134687,0.41198486,-0.48673072,-0.7271972,0.4840222,,1.2715170768095687,0.5041477247622502,0.20990435083000003,1.7087633494553889,-0.5278267985938964,-0.055091069416226046,-0.4103202941293094,,-0.882144608024043,-0.20093778665444753,0.19655386012,-2.2864591437552537,-1.1839552704675413,0.12471686326268422,0.8756875385458711,,-0.06277949319423604,-0.05761550026989781,0.08432494304,-0.06639839657179906,,4.196167e-05,-7.748604e-07,-9.536743e-07,0.99999994,-4.8648566e-05,-4.311651e-05,4.864484e-05,1.0,-5.751848e-06,4.311651e-05,5.7816505e-06,1.0,970,3.076,0,1,1.436,False,-0.26041423509035333,1.0506254319766548
3.0900946100009605,19:18:28.365496,19:18:18.468101,0,,0.11365455,0.002153501,0.026833251,-0.7154293,0.5858821,-0.3806609,0.121897966,0.6411361,0.75768423,0.6879691,0.49566773,-0.5301054,,0.057679825,-0.0041277558,0.0352391,-0.24987455,0.6383694,0.7280434,0.0066586435,-0.7507442,0.6605595,0.96825534,0.1699047,0.18334128,,0.105157085,1.3401151,0.44064015,0.9942805,0.013502941,-0.105943166,-0.059935622,-0.75049555,-0.6581521,-0.08839686,0.6607376,-0.74539375,,-0.08156109,0.2593195,-0.083794035,0.6471444,-0.6051184,0.46371964,0.5790326,0.7858016,0.21734099,-0.49590865,0.1278578,0.8589103,,-0.026471771,0.4176853,-0.3510191,0.15372209,-0.6165619,-0.77215344,0.85992086,-0.3014507,0.4119024,-0.48672953,-0.72730935,0.4838548,,1.2713703448849583,0.502487337194292,0.21030490444000002,1.695133503128895,-0.5132066931189944,-0.04961521346180342,-0.4085235094018323,,-0.8821291625582947,-0.20093778665444753,0.19655904528,-2.2864591437552537,-1.1839552704675413,0.12496189948310588,0.8761775707442738,,-0.06277949319423604,-0.05761550026989781,0.08432494304,-0.06639839657179906,,4.196167e-05,-7.748604e-07,-9.536743e-07,0.99999994,-4.8648566e-05,-4.311651e-05,4.864484e-05,1.0,-5.751848e-06,4.311651e-05,5.7816505e-06,1.0,993,3.15,0,1,1.436,False,-0.2594609915940169,1.0505771517758753
3.1259465990005992,19:18:28.435262,19:18:18.468101,0,,0.113389306,0.0020687878,0.025405183,-0.7367092,0.5727833,-0.3594143,0.1318436,0.64298236,0.75444746,0.66323197,0.5084219,-0.5492088,,0.05768303,-0.0041289777,0.035232842,-0.24972346,0.6383841,0.7280823,0.006717533,-0.75074464,0.66055846,0.96829385,0.16984779,0.18319027,,0.105157085,1.3401151,0.44064015,0.9942805,0.013502941,-0.105943166,-0.059935622,-0.75049555,-0.6581521,-0.08839686,0.6607376,-0.74539375,,-0.08115743,0.25830603,-0.082831286,0.67120486,-0.59330195,0.44438365,0.5705228,0.79622453,0.20132138,-0.47327352,0.11840311,0.872922,,-0.026474288,0.41767898,-0.35101697,0.15356544,-0.61657095,-0.7721774,0.85996735,-0.30150124,0.4117683,-0.4866968,-0.72728074,0.4839307,,1.2713394539534615,0.4982707250449654,0.21123045550000003,1.6705997797412053,-0.4857427566661408,-0.0335395254985793,-0.4083601653356982,,-0.8821214398254204,-0.20094550938732175,0.19656423044000002,-2.286249453811769,-1.183818633967776,0.12476880283926917,0.876340914810408,,-0.06277949319423604,-0.05761550026989781,0.08432494304,-0.06639839657179906,,4.196167e-05,-7.748604e-07,-9.536743e-07,0.99999994,-4.8648566e-05,-4.311651e-05,4.864484e-05,1.0,-5.751848e-06,4.311651e-05,5.7816505e-06,1.0,1007,3.195,0,1,1.436,False,-0.2596993024681016,1.0506737121774343
