AlexandreBanks6/ExpertPlaybackApp/resources/Motions/Pilot_06/PC1/Data_PC1_9.csv
Task Time,PC1 Time,PC2 Time,Gaze Calib,s_T_psm1,Tx,Ty,Tz,R00,R01,R02,R10,R11,R12,R20,R21,R22,s_T_psm3,Tx,Ty,Tz,R00,R01,R02,R10,R11,R12,R20,R21,R22,cart_T_ecm,Tx,Ty,Tz,R00,R01,R02,R10,R11,R12,R20,R21,R22,ecm_T_psm1,Tx,Ty,Tz,R00,R01,R02,R10,R11,R12,R20,R21,R22,ecm_T_psm3,Tx,Ty,Tz,R00,R01,R02,R10,R11,R12,R20,R21,R22,psm1_joints,q1,q2,q3,q4,q5,q6,jaw,psm3_joints,q1,q2,q3,q4,q5,q6,jaw,ecm_joints,q1,q2,q3,q4,ecmi_T_ecm,Tx,Ty,Tz,R00,R01,R02,R10,R11,R12,R20,R21,R22,Sample #,Task Duration (s),Collisions (binary),Collisions (increments),Cumulative Collision Time (s),Clutch Press,MTMR Angle,MTML Angle
""
lci_T_si,,,,,-0.06259683,0.01659313,0.23760831,0.9956777,0.007211218,0.092595145,0.06714547,-0.7446932,-0.6640207,0.064166576,0.667368,-0.7419586
rci_T_si,,,,,-0.07226873,0.020610977,0.24667586,0.9915926,-0.008221844,0.1291379,0.082045324,-0.731784,-0.6765802,0.100063786,0.681487,-0.724957
ecm_T_lc,,,,,-4.4061628e-05,-0.00034663224,-0.01840835,-0.99912,0.030754527,0.028518902,-0.031987965,-0.99852574,-0.043852776,0.027128186,-0.04472645,0.9986309
ecm_T_rc,,,,,-0.0043358393,0.01870579,-0.007592615,-0.99555075,-0.052743673,-0.078081585,0.04863213,-0.9973746,0.053654674,-0.08070653,0.04961868,0.9955021
cart_T_ecmi,,,,,0.107138716,1.3441325,0.44329387,0.9957932,0.018087745,-0.08982618,-0.04455919,-0.76100624,-0.64721245,-0.0800649,0.64849234,-0.7569989
ecmac_T_ecmrep_psm1,,,,,0.009765618,-0.25445068,-0.30803946,0.99882644,0.038876563,0.028886087,-0.03766685,0.99843633,-0.041304655,-0.030446703,0.040168133,0.99872893
ecmac_T_ecmrep_psm3,,,,,-0.021997124,-0.45765886,-0.55608475,0.99248636,-0.054456197,0.10956896,0.02285623,0.96224946,0.27120772,-0.12020161,-0.2666656,0.9562641
""
0,13:42:19.864411,NaN,0,,0.120859936,-0.00031845272,0.02172403,-0.9565045,-0.23748489,-0.16941035,-0.15595618,-0.07448146,0.98495173,-0.2465291,0.9685315,0.034204572,,0.0699762,-0.007550083,0.022735119,-0.66590375,-0.50374466,0.55028474,-0.050447345,0.7663263,0.64046776,-0.7443299,0.39872953,-0.5357121,,0.10708501,1.3441337,0.44330195,0.9957963,0.018141525,-0.08978044,-0.044488814,-0.761005,-0.6472188,-0.0800649,0.64849234,-0.7569989,,-0.08656662,0.25601912,-0.08548378,0.9747722,0.1528248,0.16267656,-0.22244753,0.60529345,0.7642885,0.018335178,-0.7811942,0.6240188,,-0.032387953,0.40044308,-0.35013235,0.7302442,0.37651223,-0.5700718,-0.5758341,0.7882359,-0.21702363,0.36763903,0.48674703,0.7924133,,0.8996443207170358,0.3412598429791069,0.19816514859,0.818210159476614,0.10493683181985826,1.1184573583731763,-0.42028428216350056,,-0.9150125591367426,-0.20932467455585532,0.20563437157000003,1.5351400762502028,0.27750873102360957,0.3519957177877488,0.8634367335858,,-0.04730714937530631,-0.07404341185429444,0.0795457676,-0.07163176773016745,,-5.4180622e-05,3.33786e-06,-2.026558e-06,1.0,5.349517e-05,4.582852e-05,-5.3498894e-05,0.99999994,5.632639e-06,-4.582107e-05,-5.6922436e-06,1.0,38,0.113,0,0,0.0,False,-0.26297607698675796,1.0372035361599652
0.12275207100901753,13:42:19.905474,13:42:05.888633,0,,0.12083402,-0.00049200654,0.022021323,-0.95701337,-0.23763789,-0.16629377,-0.15294155,-0.073694706,0.9854835,-0.24644323,0.96855414,0.0341821,,0.06997197,-0.007551454,0.022733629,-0.6659753,-0.50363064,0.5503026,-0.050269544,0.7663191,0.6404904,-0.74427795,0.39888728,-0.5356669,,0.10708501,1.3441337,0.44330195,0.9957963,0.018141525,-0.08978044,-0.044488814,-0.761005,-0.6472188,-0.0800649,0.64849234,-0.7569989,,-0.08656604,0.2560902,-0.08582158,0.97526205,0.15297276,0.15957199,-0.22012141,0.6059019,0.7644799,0.02025963,-0.7806934,0.6245857,,-0.032383483,0.4004417,-0.35013252,0.73029023,0.3763863,-0.5700961,-0.5756921,0.7883527,-0.21697596,0.36777,0.4866552,0.79240894,,0.8997447162444008,0.3411440019859935,0.19782552061000003,0.8207264387984283,0.10643983331727812,1.1179668700937808,-0.4194675618328291,,-0.9149893909381199,-0.20932467455585532,0.20563307528000002,1.5353497661936872,0.27750873102360957,0.3520773965278893,0.8626200132551288,,-0.04730714937530631,-0.07404341185429444,0.0795457676,-0.07163176773016745,,-5.4180622e-05,3.33786e-06,-2.026558e-06,1.0,5.349517e-05,4.582852e-05,-5.3498894e-05,0.99999994,5.632639e-06,-4.582107e-05,-5.6922436e-06,1.0,49,0.146,0,0,0.0,False,-0.2636314318904893,1.0365276133490526
0.16380757500883192,13:42:19.942451,13:42:05.888633,0,,0.12083712,-0.00063446164,0.022250265,-0.95755565,-0.23722419,-0.16374342,-0.15055129,-0.07282585,0.98591614,-0.24580789,0.9687213,0.034020334,,0.06997025,-0.007552497,0.022733748,-0.6660371,-0.5034725,0.5503725,-0.050083846,0.766365,0.64044994,-0.7442352,0.39899862,-0.53564334,,0.10708501,1.3441337,0.44330195,0.9957963,0.018141525,-0.08978044,-0.044488814,-0.761005,-0.6472188,-0.0800649,0.64849234,-0.7569989,,-0.086588524,0.256137,-0.08608619,0.9757396,0.15254335,0.15704393,-0.2178902,0.6066335,0.7645389,0.021357216,-0.7802092,0.625154,,-0.032381665,0.40044153,-0.35013342,0.7303266,0.37621483,-0.57016265,-0.5755553,0.78845006,-0.21698503,0.36791182,0.4866301,0.7923585,,0.8996674889156585,0.34109766558874816,0.19755718858000001,0.8232427181202427,0.10698637931633988,1.117521198478995,-0.4194675618328291,,-0.9149816682052457,-0.20932467455585532,0.20563177899,1.535559456137172,0.27750873102360957,0.3520773965278893,0.8626200132551288,,-0.04730714937530631,-0.07404341185429444,0.0795457676,-0.07163176773016745,,-5.4180622e-05,3.33786e-06,-2.026558e-06,1.0,5.349517e-05,4.582852e-05,-5.3498894e-05,0.99999994,5.632639e-06,-4.582107e-05,-5.6922436e-06,1.0,61,0.183,0,0,0.0,False,-0.2626186106756321,1.0368172945537295
0.20078818598994985,13:42:19.975155,13:42:05.888633,0,,0.12091683,-0.0007954538,0.02255398,-0.95622927,-0.2460052,-0.15845205,-0.14539044,-0.07049972,0.98685926,-0.25394338,0.96670115,0.031647086,,0.069966644,-0.007556252,0.022731721,-0.6660507,-0.5034656,0.55036235,-0.05009982,0.76637316,0.640439,-0.7442219,0.3989918,-0.5356669,,0.10708501,1.3441337,0.44330195,0.9957963,0.018141525,-0.08978044,-0.044488814,-0.761005,-0.6472188,-0.0800649,0.64849234,-0.7569989,,-0.08669376,0.25621533,-0.08641379,0.97510743,0.16145907,0.15197536,-0.2195672,0.6075433,0.7633357,0.030915862,-0.7777031,0.62787104,,-0.032377496,0.40043843,-0.35013545,0.73034066,0.37620765,-0.57014936,-0.5755501,0.78844726,-0.21700934,0.36789215,0.48664024,0.79236144,,0.899582538854042,0.34103588372575433,0.19722663463,0.8236620980072117,0.11668757079968614,1.1140211792841395,-0.41816080930375477,,-0.914958500006623,-0.2093401200216038,0.20563048270000003,1.535559456137172,0.27750873102360957,0.3520773965278893,0.8626200132551288,,-0.04730714937530631,-0.07404341185429444,0.0795457676,-0.07163176773016745,,-5.4180622e-05,3.33786e-06,-2.026558e-06,1.0,5.349517e-05,4.582852e-05,-5.3498894e-05,0.99999994,5.632639e-06,-4.582107e-05,-5.6922436e-06,1.0,72,0.216,0,0,0.0,False,-0.2631548101423209,1.037396656963083
0.23347588599426672,13:42:20.006457,13:42:05.888633,0,,0.12105654,-0.00089918077,0.022813603,-0.9525196,-0.2623952,-0.15445116,-0.13924533,-0.07570627,0.98735964,-0.27077138,0.96198606,0.035574287,,0.06996751,-0.0075546578,0.022732854,-0.66604626,-0.50342387,0.5504058,-0.05009377,0.7664212,0.64038193,-0.7442262,0.39895207,-0.5356904,,0.10708501,1.3441337,0.44330195,0.9957963,0.018141525,-0.08978044,-0.044488814,-0.761005,-0.6472188,-0.0800649,0.64849234,-0.7569989,,-0.086855136,0.2563031,-0.08666664,0.97285175,0.1782127,0.14764738,-0.22645748,0.6015228,0.7660857,0.04771293,-0.77872366,0.62555015,,-0.032378633,0.40044007,-0.35013467,0.730336,0.3761644,-0.5701838,-0.5755514,0.78843135,-0.2170635,0.36789927,0.4866994,0.7923218,,0.899582538854042,0.3409663791298863,0.19697515437000002,0.8203070589114594,0.13472358876872428,1.1163848726855892,-0.4179974652376204,,-0.9149662227394972,-0.20933239728872957,0.20563048270000003,1.535559456137172,0.27750873102360957,0.35199571778774874,0.8627833573212631,,-0.04730714937530631,-0.07404341185429444,0.0795457676,-0.07163176773016745,,-5.4180622e-05,3.33786e-06,-2.026558e-06,1.0,5.349517e-05,4.582852e-05,-5.3498894e-05,0.99999994,5.632639e-06,-4.582107e-05,-5.6922436e-06,1.0,84,0.253,0,0,0.0,False,-0.2635718541719685,1.0364793331482736
0.2647776799858548,13:42:20.044406,13:42:06.024540,0,,0.12110679,-0.0010415167,0.023104906,-0.9509181,-0.2690168,-0.15292095,-0.13554712,-0.082128584,0.98736095,-0.2781759,0.95962733,0.04163295,,0.06996587,-0.0075533167,0.022732377,-0.66605157,-0.5033813,0.55043846,-0.050095648,0.7664685,0.64032525,-0.7442215,0.398915,-0.53572464,,0.10708501,1.3441337,0.44330195,0.9957963,0.018141525,-0.08978044,-0.044488814,-0.761005,-0.6472188,-0.0800649,0.64849234,-0.7569989,,-0.08693,0.25638875,-0.08697436,0.9718867,0.18503428,0.14559746,-0.22874926,0.5955814,0.7700367,0.055768043,-0.7816937,0.62116414,,-0.032377113,0.4004405,-0.3501332,0.73034096,0.3761202,-0.5702067,-0.5755475,0.7884172,-0.2171253,0.36789554,0.48675653,0.7922884,,0.8996211525184131,0.34091231999976673,0.19666404477000002,0.8196779890810056,0.1431950517541816,1.1217287736774955,-0.41897752963442625,,-0.914958500006623,-0.20932467455585532,0.20563048270000003,1.535559456137172,0.27750873102360957,0.35191403904760815,0.8629467013873974,,-0.04730714937530631,-0.07404341185429444,0.0795457676,-0.07163176773016745,,-5.4180622e-05,3.33786e-06,-2.026558e-06,1.0,5.349517e-05,4.582852e-05,-5.3498894e-05,0.99999994,5.632639e-06,-4.582107e-05,-5.6922436e-06,1.0,92,0.277,0,0,0.0,False,-0.2632143878608417,1.036865574754509
0.3027430509973783,13:42:20.064105,13:42:06.024540,0,,0.121100724,-0.001140967,0.02327761,-0.9506739,-0.26991934,-0.15284874,-0.13550931,-0.08186129,0.9873884,-0.2790276,0.9593968,0.041246623,,0.06996688,-0.007555075,0.022733927,-0.66604626,-0.5033789,0.550447,-0.05009377,0.76647353,0.64031935,-0.7442262,0.39890838,-0.535723,,0.10708501,1.3441337,0.44330195,0.9957963,0.018141525,-0.08978044,-0.044488814,-0.761005,-0.6472188,-0.0800649,0.64849234,-0.7569989,,-0.086938635,0.25643054,-0.087169155,0.9717172,0.18595254,0.14555894,-0.22930424,0.5956806,0.7697949,0.056438677,-0.7814002,0.6214728,,-0.032378063,0.40044087,-0.35013554,0.730336,0.37611786,-0.57021457,-0.5755514,0.78841364,-0.21712789,0.36789927,0.4867641,0.79228204,,0.8996288752512873,0.3408659836025214,0.19646571240000002,0.8192586091940367,0.14401487075277425,1.1213053024757387,-0.4184874974360233,,-0.9149662227394972,-0.20933239728872957,0.20562918641000003,1.535559456137172,0.27750873102360957,0.35191403904760815,0.8629467013873974,,-0.04730714937530631,-0.07404341185429444,0.0795457676,-0.07163176773016745,,-5.4180622e-05,3.33786e-06,-2.026558e-06,1.0,5.349517e-05,4.582852e-05,-5.3498894e-05,0.99999994,5.632639e-06,-4.582107e-05,-5.6922436e-06,1.0,99,0.299,0,0,0.0,False,-0.26333354329788383,1.03676901435295
0.32244366200757213,13:42:20.087283,13:42:06.024540,0,,0.12111242,-0.0013007522,0.023559779,-0.9497816,-0.27382442,-0.15144357,-0.13464478,-0.079250365,0.98771966,-0.28246373,0.95850897,0.038401455,,0.06996727,-0.0075564906,0.022733629,-0.6660459,-0.5033311,0.55049115,-0.050095856,0.7665305,0.640251,-0.7442265,0.3988592,-0.53575927,,0.10708501,1.3441337,0.44330195,0.9957963,0.018141525,-0.08978044,-0.044488814,-0.761005,-0.6472188,-0.0800649,0.64849234,-0.7569989,,-0.086974256,0.25649947,-0.0874842,0.9711235,0.18991162,0.1444048,-0.23100902,0.5972626,0.7680574,0.05961543,-0.7792374,0.62388706,,-0.032378256,0.40043983,-0.35013664,0.7303359,0.3760684,-0.57024735,-0.5755527,0.7883932,-0.21719871,0.36789757,0.4868354,0.792239,,0.8996211525184131,0.34078103354090494,0.19614682506000003,0.818210159476614,0.1475674197466757,1.1180817220190695,-0.4191408737005604,,-0.9149662227394972,-0.2093401200216038,0.20562918641000003,1.535559456137172,0.27750873102360957,0.3518323603074676,0.862783357321263,,-0.04730714937530631,-0.07404341185429444,0.0795457676,-0.07163176773016745,,-5.4180622e-05,3.33786e-06,-2.026558e-06,1.0,5.349517e-05,4.582852e-05,-5.3498894e-05,0.99999994,5.632639e-06,-4.582107e-05,-5.6922436e-06,1.0,111,0.335,0,0,0.0,False,-0.26351227645344677,1.0364793331482736
0.3455426919972524,13:42:20.115388,13:42:06.024540,0,,0.12115544,-0.0013868362,0.023751378,-0.94763136,-0.28129727,-0.15121685,-0.1342249,-0.07884076,0.98780954,-0.28979018,0.95637643,0.03695485,,0.06996665,-0.007556908,0.022734702,-0.6660459,-0.5033311,0.55049115,-0.050095856,0.7665305,0.640251,-0.7442265,0.3988592,-0.53575927,,0.10708501,1.3441337,0.44330195,0.9957963,0.018141525,-0.08978044,-0.044488814,-0.761005,-0.6472188,-0.0800649,0.64849234,-0.7569989,,-0.08703345,0.2565608,-0.087680936,0.9696155,0.19753991,0.1443041,-0.23571573,0.5965955,0.7671453,0.06545062,-0.7778507,0.6250316,,-0.032377686,0.40044063,-0.35013747,0.7303359,0.3760684,-0.57024735,-0.5755527,0.7883932,-0.21719871,0.36789757,0.4868354,0.792239,,0.8996443207170358,0.3407424198765338,0.19594849269000003,0.8146454304373772,0.1543992447349477,1.1161046914004331,-0.4197942499650975,,-0.9149662227394972,-0.2093401200216038,0.20562789012000002,1.535559456137172,0.27750873102360957,0.3518323603074676,0.862783357321263,,-0.04730714937530631,-0.07404341185429444,0.0795457676,-0.07163176773016745,,-5.4180622e-05,3.33786e-06,-2.026558e-06,1.0,5.349517e-05,4.582852e-05,-5.3498894e-05,0.99999994,5.632639e-06,-4.582107e-05,-5.6922436e-06,1.0,115,0.347,0,0,0.0,False,-0.26428678679422024,1.035706849935802
0.3737340559891891,13:42:20.144926,13:42:06.024540,0,,0.12129058,-0.0014949292,0.02405569,-0.9430515,-0.297785,-0.14824955,-0.12831387,-0.08553031,0.9880384,-0.3069029,0.9507936,0.042449445,,0.06996501,-0.0075556114,0.022734225,-0.66605115,-0.50333357,0.55048263,-0.050097704,0.7665255,0.6402569,-0.74422175,0.39886588,-0.53576094,,0.10708501,1.3441337,0.44330195,0.9957963,0.018141525,-0.08978044,-0.044488814,-0.761005,-0.6472188,-0.0800649,0.64849234,-0.7569989,,-0.08719412,0.25667542,-0.08797007,0.96651834,0.21447088,0.14087072,-0.24302234,0.58890104,0.770802,0.08235568,-0.779229,0.62130487,,-0.032376166,0.40044105,-0.35013604,0.73034084,0.37607077,-0.5702395,-0.57554877,0.7883968,-0.2171961,0.36789384,0.48682782,0.7922454,,0.8996983798471554,0.34072697441078537,0.19566201260000002,0.8106613215111712,0.1727085357035167,1.119797445057161,-0.41979424996509795,,-0.914958500006623,-0.20933239728872957,0.20562789012000002,1.535559456137172,0.27750873102360957,0.35183236030746756,0.8621299810567259,,-0.04730714937530631,-0.07404341185429444,0.0795457676,-0.07163176773016745,,-5.4180622e-05,3.33786e-06,-2.026558e-06,1.0,5.349517e-05,4.582852e-05,-5.3498894e-05,0.99999994,5.632639e-06,-4.582107e-05,-5.6922436e-06,1.0,127,0.384,0,0,0.0,False,-0.26434636451274196,1.036334492545935
0.4031794570037164,13:42:20.175153,13:42:06.154829,0,,0.121387616,-0.001548782,0.024288863,-0.9387781,-0.31115744,-0.14790787,-0.123391286,-0.097169966,0.9875891,-0.32166794,0.94537765,0.05282694,,0.069963366,-0.007554315,0.022733688,-0.6660564,-0.503246,0.55055636,-0.05009958,0.7666249,0.64013755,-0.744217,0.398785,-0.53582776,,0.10708501,1.3441337,0.44330195,0.9957963,0.018141525,-0.08978044,-0.044488814,-0.761005,-0.6472188,-0.0800649,0.64849234,-0.7569989,,-0.08731086,0.25678515,-0.08817261,0.96352595,0.22829954,0.13963172,-0.24947783,0.5774545,0.77737194,0.09684269,-0.78385305,0.61334807,,-0.032374647,0.4004415,-0.35013458,0.7303458,0.37597996,-0.570293,-0.5755449,0.7883648,-0.2173223,0.36789012,0.48694965,0.79217225,,0.8998991709018852,0.34075014260940806,0.19546108765000003,0.8068869025284497,0.18855836967630782,1.1287628705860469,-0.41914087370056063,,-0.9149507772737487,-0.20932467455585532,0.20562789012000002,1.535559456137172,0.27750873102360957,0.35166900282718644,0.8611499166599202,,-0.04730714937530631,-0.07404341185429444,0.0795457676,-0.07163176773016745,,-5.4180622e-05,3.33786e-06,-2.026558e-06,1.0,5.349517e-05,4.582852e-05,-5.3498894e-05,0.99999994,5.632639e-06,-4.582107e-05,-5.6922436e-06,1.0,135,0.408,0,0,0.0,False,-0.2632143878608417,1.0361896519435967
0.4334966400056146,13:42:20.197304,13:42:06.154829,0,,0.121390924,-0.0015734732,0.024419755,-0.9367806,-0.31642652,-0.14938663,-0.12283124,-0.10238832,0.98713166,-0.32765013,0.9430752,0.05704826,,0.06996524,-0.0075544342,0.02273637,-0.6660467,-0.5032469,0.5505672,-0.050091743,0.7666257,0.64013726,-0.7442261,0.39878243,-0.535817,,0.10708501,1.3441337,0.44330195,0.9957963,0.018141525,-0.08978044,-0.044488814,-0.761005,-0.6472188,-0.0800649,0.64849234,-0.7569989,,-0.08732541,0.25685397,-0.088285774,0.96205306,0.23376502,0.14074025,-0.25317428,0.5723627,0.7799383,0.10176782,-0.78597385,0.60982656,,-0.032376733,0.4004435,-0.35013613,0.7303362,0.37598097,-0.57030463,-0.57555014,0.7883631,-0.21731466,0.36790097,0.48695165,0.792166,,0.9001617438196089,0.34075014260940806,0.19534442155,0.8039512433196664,0.19443373916622175,1.1325481684418595,-0.4193042177666948,,-0.9149662227394972,-0.20932467455585532,0.20562659383,1.535559456137172,0.27750873102360957,0.3516690028271865,0.862129981056726,,-0.04730714937530631,-0.07404341185429444,0.0795457676,-0.07163176773016745,,-5.4180622e-05,3.33786e-06,-2.026558e-06,1.0,5.349517e-05,4.582852e-05,-5.3498894e-05,0.99999994,5.632639e-06,-4.582107e-05,-5.6922436e-06,1.0,150,0.453,0,0,0.0,False,-0.2636910096090097,1.0369621351560678
0.4556242940016091,13:42:20.239669,13:42:06.154829,0,,0.121276155,-0.0015936792,0.024657637,-0.9346146,-0.32176477,-0.15153532,-0.12360554,-0.10565168,0.98669106,-0.3334924,0.9409065,0.058971614,,0.06996453,-0.00755354,0.022736728,-0.66584307,-0.5035318,0.55055296,-0.050428778,0.7666017,0.6401396,-0.7443855,0.3984688,-0.53582895,,0.10708501,1.3441337,0.44330195,0.9957963,0.018141525,-0.08978044,-0.044488814,-0.761005,-0.6472188,-0.0800649,0.64849234,-0.7569989,,-0.08723164,0.25700462,-0.08848245,0.9604044,0.23928156,0.14271541,-0.2577782,0.5688157,0.7810244,0.10570597,-0.7868882,0.6079747,,-0.032376148,0.4004443,-0.35013548,0.73018694,0.37629333,-0.57028973,-0.57588077,0.7881196,-0.21732184,0.36767977,0.48710445,0.79217476,,0.9011193626960127,0.3407192516779111,0.19513053370000003,0.7995477545064913,0.20003583565660482,1.1336975462001457,-0.41963090589896357,,-0.914958500006623,-0.20932467455585532,0.20562659383,1.5351400762502028,0.277645367523375,0.3515575849234901,0.862129981056726,,-0.04730714937530631,-0.07404341185429444,0.0795457676,-0.07163176773016745,,-5.4180622e-05,3.33786e-06,-2.026558e-06,1.0,5.349517e-05,4.582852e-05,-5.3498894e-05,0.99999994,5.632639e-06,-4.582107e-05,-5.6922436e-06,1.0,158,0.478,0,0,0.0,False,-0.26351227645344677,1.0369621351560678
0.49798766401363537,13:42:20.268435,13:42:06.154829,0,,0.12119216,-0.0016148835,0.024858087,-0.9331379,-0.32596192,-0.1516656,-0.1231036,-0.10666126,0.9866452,-0.3377856,0.9393467,0.059402436,,0.069964916,-0.0075549856,0.02273637,-0.66584265,-0.5034841,0.5505972,-0.050430894,0.76665866,0.64007115,-0.7443857,0.39841962,-0.5358652,,0.10708501,1.3441337,0.44330195,0.9957963,0.018141525,-0.08978044,-0.044488814,-0.761005,-0.6472188,-0.0800649,0.64849234,-0.7569989,,-0.08716529,0.2571277,-0.08865016,0.95930403,0.24360137,0.14280798,-0.26035938,0.5672792,0.7812857,0.10931027,-0.78667194,0.60761714,,-0.03237634,0.40044326,-0.35013658,0.73018676,0.37624392,-0.5703226,-0.575882,0.78809917,-0.21739264,0.36767808,0.48717573,0.7921317,,0.9018607450519383,0.3407192516779111,0.19494905310000002,0.7972411651281616,0.20468147664862982,1.1332581658202303,-0.41963090589896335,,-0.914958500006623,-0.20933239728872957,0.20562659383,1.5351400762502028,0.277645367523375,0.35147590618334956,0.8619666369905916,,-0.04730714937530631,-0.07404341185429444,0.0795457676,-0.07163176773016745,,-5.4180622e-05,3.33786e-06,-2.026558e-06,1.0,5.349517e-05,4.582852e-05,-5.3498894e-05,0.99999994,5.632639e-06,-4.582107e-05,-5.6922436e-06,1.0,170,0.515,0,0,0.0,False,-0.26422720907569985,1.0365276133490526
0.5267345980100799,13:42:20.304379,13:42:06.154829,0,,0.12116735,-0.001633048,0.025085568,-0.9295664,-0.33619994,-0.15124802,-0.12108391,-0.10907349,0.9866314,-0.34820256,0.9354531,0.060682654,,0.0699653,-0.007556431,0.022736073,-0.66584224,-0.5035712,0.550518,-0.05043298,0.76655877,0.64019066,-0.74438596,0.39850175,-0.53580374,,0.10708501,1.3441337,0.44330195,0.9957963,0.018141525,-0.08978044,-0.044488814,-0.761005,-0.6472188,-0.0800649,0.64849234,-0.7569989,,-0.087160245,0.2572675,-0.08883217,0.95664304,0.25414613,0.14228098,-0.26602638,0.56350935,0.7821044,0.11859212,-0.78604513,0.60668683,,-0.03237653,0.4004422,-0.35013768,0.73018664,0.37633422,-0.57026315,-0.5758833,0.788132,-0.2172703,0.36767638,0.4870529,0.792208,,0.9025557910106184,0.3407192516779111,0.19475979476000002,0.7928376763149867,0.21561239662986503,1.1330026799794162,-0.41946756183282896,,-0.914958500006623,-0.2093401200216038,0.20562659383,1.5351400762502028,0.277645367523375,0.35163926366363063,0.8622933251228602,,-0.04730714937530631,-0.07404341185429444,0.0795457676,-0.07163176773016745,,-5.4180622e-05,3.33786e-06,-2.026558e-06,1.0,5.349517e-05,4.582852e-05,-5.3498894e-05,0.99999994,5.632639e-06,-4.582107e-05,-5.6922436e-06,1.0,178,0.539,0,0,0.0,False,-0.26339312101640555,1.036334492545935
0.5627120519930031,13:42:20.328652,13:42:06.298407,0,,0.12116043,-0.0016766042,0.025261968,-0.9275591,-0.34182945,-0.1509523,-0.11923901,-0.11209074,0.98651785,-0.35414127,0.93305314,0.06321129,,0.06996256,-0.0075585768,0.022735178,-0.6658515,-0.50361246,0.5504691,-0.050442874,0.76651037,0.6402479,-0.744377,0.3985427,-0.5357857,,0.10708501,1.3441337,0.44330195,0.9957963,0.018141525,-0.08978044,-0.044488814,-0.761005,-0.6472188,-0.0800649,0.64849234,-0.7569989,,-0.087168515,0.25735328,-0.08899228,0.9551526,0.25997213,0.14176743,-0.26874053,0.5600084,0.78368944,0.124346465,-0.78664166,0.6047585,,-0.0323735,0.40044075,-0.35013893,0.73019606,0.37637696,-0.57022285,-0.57587934,0.78814876,-0.21722,0.36766383,0.48699275,0.7922508,,0.9029033139899586,0.3407038062121627,0.19459646222000002,0.7909504668236259,0.22217094861860617,1.1346789922540763,-0.41946756183282896,,-0.9149430545408745,-0.20934784275447801,0.20562529754000003,1.5351400762502028,0.277645367523375,0.35172094240377116,0.8621299810567259,,-0.04730714937530631,-0.07404341185429444,0.0795457676,-0.07163176773016745,,-5.4180622e-05,3.33786e-06,-2.026558e-06,1.0,5.349517e-05,4.582852e-05,-5.3498894e-05,0.99999994,5.632639e-06,-4.582107e-05,-5.6922436e-06,1.0,193,0.584,0,0,0.0,False,-0.2632143878608417,1.0356585697350225
0.5869956350070424,13:42:20.375697,13:42:06.298407,0,,0.12110706,-0.0018460006,0.025774702,-0.92435515,-0.35071692,-0.15021683,-0.11764273,-0.11253822,0.9866586,-0.362943,0.92969495,0.0627659,,0.06996069,-0.007559143,0.022735417,-0.66585624,-0.503657,0.55042255,-0.05044684,0.7664577,0.6403106,-0.7443725,0.39858776,-0.5357585,,0.10708501,1.3441337,0.44330195,0.9957963,0.018141525,-0.08978044,-0.044488814,-0.761005,-0.6472188,-0.0800649,0.64849234,-0.7569989,,-0.08715926,0.25757286,-0.089488395,0.95271903,0.26911876,0.14107293,-0.27362195,0.5579728,0.7834522,0.13212684,-0.78501046,0.6052281,,-0.032371603,0.40044093,-0.35013944,0.7302008,0.37642303,-0.5701863,-0.5758768,0.78816736,-0.21715944,0.3676584,0.48692703,0.7922937,,0.9036369736130099,0.3407346971436596,0.19408183509000002,0.78696635789742,0.23146223060265614,1.132656729132278,-0.4197942499650975,,-0.9149353318080004,-0.20934784275447801,0.20562400125000002,1.5351400762502028,0.277645367523375,0.35180262114391175,0.8616399488583232,,-0.04730714937530631,-0.07404341185429444,0.0795457676,-0.07163176773016745,,-5.4180622e-05,3.33786e-06,-2.026558e-06,1.0,5.349517e-05,4.582852e-05,-5.3498894e-05,0.99999994,5.632639e-06,-4.582107e-05,-5.6922436e-06,1.0,201,0.609,0,0,0.0,False,-0.26297607698675796,1.0357551301365815
0.6340405980008654,13:42:20.399420,13:42:06.298407,0,,0.12110841,-0.0019182414,0.025970817,-0.9228182,-0.3550039,-0.14959562,-0.1164187,-0.11317438,0.98673093,-0.36722377,0.92798907,0.0631102,,0.06995568,-0.007559724,0.022732139,-0.66587543,-0.5036103,0.55044204,-0.050462514,0.7665084,0.6402486,-0.74435425,0.39854914,-0.5358125,,0.10708501,1.3441337,0.44330195,0.9957963,0.018141525,-0.08978044,-0.044488814,-0.761005,-0.6472188,-0.0800649,0.64849234,-0.7569989,,-0.087177396,0.25765,-0.0896818,0.9515552,0.27353948,0.14042395,-0.27566236,0.55662143,0.78369814,0.13620941,-0.78444165,0.6050606,,-0.03236629,0.40043852,-0.35013804,0.73022,0.37637448,-0.5701938,-0.5758663,0.788153,-0.2172391,0.3676367,0.48698774,0.7922665,,0.9038300419348655,0.3407346971436596,0.19388479901000003,0.7854985282930282,0.23610787159468108,1.132299027492503,-0.4191408737005604,,-0.9149044408765035,-0.20934784275447801,0.20562400125000002,1.5351400762502028,0.277645367523375,0.3517209424037712,0.8614766047921888,,-0.04730714937530631,-0.07404341185429444,0.0795457676,-0.07163176773016745,,-5.4180622e-05,3.33786e-06,-2.026558e-06,1.0,5.349517e-05,4.582852e-05,-5.3498894e-05,0.99999994,5.632639e-06,-4.582107e-05,-5.6922436e-06,1.0,213,0.646,0,0,0.0,False,-0.26327396557936344,1.0345481251170952
0.6577359930088278,13:42:20.429893,13:42:06.298407,0,,0.12112202,-0.0020424873,0.026317492,-0.91953015,-0.36317134,-0.15023594,-0.1136754,-0.12015948,0.98622483,-0.37622088,0.9239416,0.069206536,,0.06995545,-0.0075616017,0.022732913,-0.665875,-0.5037873,0.5502806,-0.05046463,0.76630384,0.6404933,-0.74435455,0.39871877,-0.535686,,0.10708501,1.3441337,0.44330195,0.9957963,0.018141525,-0.08978044,-0.044488814,-0.761005,-0.6472188,-0.0800649,0.64849234,-0.7569989,,-0.087220624,0.25778824,-0.09002066,0.9490512,0.28204936,0.14053474,-0.27982765,0.54922897,0.78742874,0.14490801,-0.7866357,0.6001716,,-0.032365914,0.40043825,-0.35014,0.73021984,0.37655792,-0.5700729,-0.5758676,0.78822124,-0.21698801,0.367635,0.48673546,0.7924223,,0.9041775649142056,0.3407192516779111,0.19354257845000003,0.7825628690842449,0.2459456995777928,1.137345536848851,-0.41897752963442625,,-0.9149044408765035,-0.20935556548735224,0.20562270496,1.5351400762502028,0.277645367523375,0.3520476573643334,0.860496540395383,,-0.04730714937530631,-0.07404341185429444,0.0795457676,-0.07163176773016745,,-5.4180622e-05,3.33786e-06,-2.026558e-06,1.0,5.349517e-05,4.582852e-05,-5.3498894e-05,0.99999994,5.632639e-06,-4.582107e-05,-5.6922436e-06,1.0,221,0.67,0,0,0.0,False,-0.2637505873275314,1.0339204825069621
0.6882367999933194,13:42:20.458580,13:42:06.298407,0,,0.12115671,-0.0021698922,0.026713401,-0.91546124,-0.37388352,-0.1488013,-0.107530445,-0.12904322,0.98579156,-0.38777298,0.91845465,0.07793012,,0.06995631,-0.0075599775,0.022734046,-0.66587055,-0.50383556,0.55024177,-0.05045858,0.7662473,0.64056146,-0.74435884,0.39876658,-0.53564435,,0.10708501,1.3441337,0.44330195,0.9957963,0.018141525,-0.08978044,-0.044488814,-0.761005,-0.6472188,-0.0800649,0.64849234,-0.7569989,,-0.08728912,0.25795573,-0.090396725,0.94598,0.2932252,0.13835031,-0.28321955,0.5396202,0.7928409,0.15782431,-0.7891952,0.59351707,,-0.032367047,0.40043992,-0.35013926,0.7302152,0.37660784,-0.5700459,-0.5758689,0.7882408,-0.21691339,0.36764213,0.48666516,0.79246217,,0.9046254834209106,0.3407346971436596,0.19316665435000002,0.7810950394798533,0.2598826225538677,1.144276948463302,-0.418160809303755,,-0.9149121636093777,-0.20934784275447801,0.20562270496,1.5351400762502028,0.277645367523375,0.35212933610447394,0.8603331963292487,,-0.04730714937530631,-0.07404341185429444,0.0795457676,-0.07163176773016745,,-5.4180622e-05,3.33786e-06,-2.026558e-06,1.0,5.349517e-05,4.582852e-05,-5.3498894e-05,0.99999994,5.632639e-06,-4.582107e-05,-5.6922436e-06,1.0,229,0.695,0,0,0.0,False,-0.2626781883941529,1.0339204825069621
0.7169181370118167,13:42:20.481091,13:42:06.461320,0,,0.12116489,-0.0022587776,0.027042508,-0.9106245,-0.38559884,-0.14858112,-0.10381246,-0.1345582,0.98545265,-0.39998218,0.912802,0.08250195,,0.06995568,-0.007559724,0.022732139,-0.66587543,-0.50388,0.55019516,-0.050462514,0.7661946,0.64062417,-0.74435425,0.39881164,-0.5356171,,0.10708501,1.3441337,0.44330195,0.9957963,0.018141525,-0.08978044,-0.044488814,-0.761005,-0.6472188,-0.0800649,0.64849234,-0.7569989,,-0.08732552,0.25810882,-0.09069925,0.9422087,0.30540407,0.13773552,-0.28889805,0.5324626,0.79562646,0.16964856,-0.7894377,0.58992153,,-0.03236629,0.40043852,-0.35013804,0.73022,0.37665388,-0.5700093,-0.5758663,0.7882594,-0.21685283,0.3676367,0.48659942,0.792505,,0.9051815201878548,0.3406729152806658,0.19286721136,0.7769012406101627,0.27340963603064633,1.1470502830811111,-0.419304217766695,,-0.9149044408765035,-0.20934784275447801,0.20562400125000002,1.5351400762502028,0.277645367523375,0.35221101484461453,0.8601698522631145,,-0.04730714937530631,-0.07404341185429444,0.0795457676,-0.07163176773016745,,-5.4180622e-05,3.33786e-06,-2.026558e-06,1.0,5.349517e-05,4.582852e-05,-5.3498894e-05,0.99999994,5.632639e-06,-4.582107e-05,-5.6922436e-06,1.0,240,0.728,0,0,0.0,False,-0.2631548101423209,1.0347895261209925
0.7394363149942365,13:42:20.512747,13:42:06.461320,0,,0.12113713,-0.0023515075,0.027412117,-0.90519124,-0.39795926,-0.14918813,-0.10021937,-0.14125991,0.9848865,-0.41301906,0.9064624,0.087983906,,0.06995799,-0.0075590983,0.022731781,-0.6659602,-0.50386584,0.5501057,-0.05050075,0.76617867,0.6406402,-0.74427587,0.39886016,-0.53568995,,0.10708501,1.3441337,0.44330195,0.9957963,0.018141525,-0.08978044,-0.044488814,-0.761005,-0.6472188,-0.0800649,0.64849234,-0.7569989,,-0.08732964,0.2582883,-0.091036536,0.9379152,0.318289,0.13786659,-0.29525757,0.52400446,0.79890066,0.18203859,-0.79000723,0.585449,,-0.032368608,0.40043822,-0.35013744,0.73030126,0.3766374,-0.56991607,-0.57580656,0.7882913,-0.2168956,0.36756885,0.48656052,0.7925604,,0.9059769616739,0.34055707428755244,0.19253276854,0.7718686819665341,0.287893105005783,1.1505955884357162,-0.41963090589896335,,-0.9149198863422519,-0.20934784275447801,0.20562529754000003,1.5351400762502028,0.27750873102360957,0.3522407540081704,0.8600065081969803,,-0.04730714937530631,-0.07404341185429444,0.0795457676,-0.07163176773016745,,-5.4180622e-05,3.33786e-06,-2.026558e-06,1.0,5.349517e-05,4.582852e-05,-5.3498894e-05,0.99999994,5.632639e-06,-4.582107e-05,-5.6922436e-06,1.0,248,0.752,0,0,0.0,False,-0.2630356547052788,1.0339204825069621
0.7710815010068472,13:42:20.542022,13:42:06.461320,0,,0.12114167,-0.0024039447,0.027742952,-0.8981427,-0.41464102,-0.14633015,-0.09273012,-0.14669278,0.98482597,-0.42981488,0.89808345,0.09330127,,0.069957316,-0.0075604096,0.022729695,-0.665875,-0.50306773,0.5509385,-0.05046463,0.7671402,0.6394913,-0.74435455,0.3980183,-0.5362066,,0.10708501,1.3441337,0.44330195,0.9957963,0.018141525,-0.08978044,-0.044488814,-0.761005,-0.6472188,-0.0800649,0.64849234,-0.7569989,,-0.08736269,0.25846982,-0.091316134,0.9323261,0.33565176,0.1345584,-0.30133033,0.515389,0.8022308,0.19992027,-0.7884872,0.58165264,,-0.03236762,0.40043586,-0.35013747,0.73021984,0.3758126,-0.5705645,-0.5758676,0.787937,-0.21801792,0.367635,0.48777062,0.79178554,,0.9068650759544358,0.3404180650958164,0.19226962167000003,0.7678845730403282,0.3079786704713028,1.1526765518641093,-0.41963090589896335,,-0.9149044408765035,-0.20935556548735224,0.20562659383,1.5351400762502028,0.277645367523375,0.35074079752208454,0.8591897878663088,,-0.04730714937530631,-0.07404341185429444,0.0795457676,-0.07163176773016745,,-5.4180622e-05,3.33786e-06,-2.026558e-06,1.0,5.349517e-05,4.582852e-05,-5.3498894e-05,0.99999994,5.632639e-06,-4.582107e-05,-5.6922436e-06,1.0,260,0.789,0,0,0.0,False,-0.2632143878608417,1.0338722023061826
0.8003299339907244,13:42:20.578007,13:42:06.461320,0,,0.12106474,-0.0024370402,0.028013721,-0.8922554,-0.42646167,-0.14836028,-0.090391934,-0.15321702,0.98404956,-0.4423908,0.8914342,0.09816,,0.069957554,-0.007558547,0.02272898,-0.66587543,-0.50298053,0.55101764,-0.050462514,0.76724005,0.6393717,-0.74435425,0.39793617,-0.5362679,,0.10708501,1.3441337,0.44330195,0.9957963,0.018141525,-0.08978044,-0.044488814,-0.761005,-0.6472188,-0.0800649,0.64849234,-0.7569989,,-0.08730943,0.25863057,-0.09154341,0.9275443,0.34802523,0.13616192,-0.30834138,0.5068234,0.805019,0.21115687,-0.7886751,0.5774117,,-0.032367997,0.4004361,-0.3501355,0.73022,0.37572223,-0.5706238,-0.5758663,0.7879041,-0.21814021,0.3676367,0.4878934,0.79170907,,0.9078921994267076,0.3401941058424639,0.19205054866000001,0.7615938747357924,0.3217789569476122,1.1556354443752286,-0.41946756183282896,,-0.9149044408765035,-0.20934784275447801,0.20562789012000002,1.5351400762502028,0.277645367523375,0.35057744004180336,0.8595164759985774,,-0.04730714937530631,-0.07404341185429444,0.0795457676,-0.07163176773016745,,-5.4180622e-05,3.33786e-06,-2.026558e-06,1.0,5.349517e-05,4.582852e-05,-5.3498894e-05,0.99999994,5.632639e-06,-4.582107e-05,-5.6922436e-06,1.0,268,0.814,0,0,0.0,False,-0.262797343831195,1.0332928398968293
0.8362997299991548,13:42:20.604561,13:42:06.461320,0,,0.12099026,-0.0024608672,0.028310567,-0.8856171,-0.44024065,-0.1478868,-0.08776538,-0.15404633,0.984158,-0.45604774,0.8845665,0.097788095,,0.069958806,-0.007558383,0.022729814,-0.66587055,-0.50293595,0.55106413,-0.05045858,0.7672926,0.63930887,-0.74435884,0.39789107,-0.53629506,,0.10708501,1.3441337,0.44330195,0.9957963,0.018141525,-0.08978044,-0.044488814,-0.761005,-0.6472188,-0.0800649,0.64849234,-0.7569989,,-0.0872609,0.25881544,-0.0917836,0.92210716,0.36235046,0.13572216,-0.31590506,0.50245845,0.8048227,0.22343312,-0.7850081,0.5777889,,-0.032369327,0.40043673,-0.35013586,0.7302152,0.3756761,-0.57066035,-0.5758689,0.7878854,-0.21820074,0.36764213,0.48795906,0.7916661,,0.9089888274948474,0.3400242057192309,0.19181851275000003,0.7546741066008031,0.3368089719218107,1.1523641363840842,-0.41832415336988915,,-0.9149121636093777,-0.20934784275447801,0.20562789012000002,1.5351400762502028,0.277645367523375,0.3504957613016627,0.8593531319324432,,-0.04730714937530631,-0.07404341185429444,0.0795457676,-0.07163176773016745,,-5.4180622e-05,3.33786e-06,-2.026558e-06,1.0,5.349517e-05,4.582852e-05,-5.3498894e-05,0.99999994,5.632639e-06,-4.582107e-05,-5.6922436e-06,1.0,287,0.871,0,0,0.0,False,-0.2631548101423209,1.032761757688255
0.8628603630058933,13:42:20.654918,13:42:06.598324,0,,0.12089248,-0.0024405718,0.028714806,-0.8752421,-0.46084583,-0.14687535,-0.081499815,-0.15880477,0.98394036,-0.47676936,0.8731564,0.101433665,,0.06996398,-0.007558994,0.02273184,-0.665672,-0.5015662,0.55255055,-0.05036071,0.76894754,0.63732517,-0.74454314,0.39642262,-0.53712606,,0.10708501,1.3441337,0.44330195,0.9957963,0.018141525,-0.08978044,-0.044488814,-0.761005,-0.6472188,-0.0800649,0.64849234,-0.7569989,,-0.08719861,0.25910613,-0.09207514,0.9135486,0.38388264,0.13439904,-0.32570678,0.49255833,0.80703247,0.24360637,-0.78103805,0.57500917,,-0.03237456,0.40043753,-0.3501377,0.73002374,0.37426206,-0.57183325,-0.57600534,0.7872592,-0.22009262,0.36780867,0.49005184,0.7902949,,0.9107109969257995,0.3399006419932433,0.19154240298000003,0.7458671289744532,0.3608569958805282,1.1512956593454216,-0.41897752963442625,,-0.9149276090751262,-0.20935556548735224,0.20562918641000003,1.5351400762502028,0.2779186405229059,0.34790424203019366,0.8572296590726975,,-0.04730714937530631,-0.07404341185429444,0.0795457676,-0.07163176773016745,,-5.4180622e-05,3.33786e-06,-2.026558e-06,1.0,5.349517e-05,4.582852e-05,-5.3498894e-05,0.99999994,5.632639e-06,-4.582107e-05,-5.6922436e-06,1.0,295,0.896,0,0,0.0,False,-0.262797343831195,1.0319409942750042
0.9132473290082999,13:42:20.682684,13:42:06.598324,0,,0.12086633,-0.0024185777,0.028857768,-0.87084347,-0.46876362,-0.14796013,-0.078042835,-0.16533524,0.98314464,-0.48532552,0.86771244,0.10739738,,0.06996276,-0.007557608,0.022731245,-0.6657667,-0.5015996,0.5524061,-0.050404727,0.7688743,0.6374101,-0.74445546,0.39652258,-0.5371738,,0.10708501,1.3441337,0.44330195,0.9957963,0.018141525,-0.08978044,-0.044488814,-0.761005,-0.6472188,-0.0800649,0.64849234,-0.7569989,,-0.08718502,0.25921944,-0.0921678,0.9098977,0.39226344,0.13496502,-0.32911512,0.48455647,0.81048644,0.25252602,-0.78187877,0.56999665,,-0.032373462,0.40043786,-0.35013616,0.73011476,0.37429464,-0.5716957,-0.5759391,0.78731334,-0.2200725,0.3677317,0.48994008,0.79039997,,0.9113751519529828,0.3398774737946207,0.19145944042000002,0.7429314697656698,0.37124136986270173,1.1557331396067023,-0.41783412117148644,,-0.9149276090751262,-0.20934784275447801,0.20562918641000003,1.5351400762502028,0.27778200402314046,0.34801565993389005,0.8572296590726975,,-0.04730714937530631,-0.07404341185429444,0.0795457676,-0.07163176773016745,,-5.4180622e-05,3.33786e-06,-2.026558e-06,1.0,5.349517e-05,4.582852e-05,-5.3498894e-05,0.99999994,5.632639e-06,-4.582107e-05,-5.6922436e-06,1.0,303,0.92,0,0,0.0,False,-0.26232072208302704,1.032230675479681
0.9410280039883219,13:42:20.712444,13:42:06.598324,0,,0.12092703,-0.0023723394,0.02910097,-0.86150485,-0.486027,-0.14692532,-0.07035358,-0.17231166,0.9825268,-0.50285155,0.8567884,0.11425358,,0.069996245,-0.0075452477,0.022715986,-0.6657664,-0.50163376,0.5523752,-0.05043766,0.76885253,0.6374338,-0.74445343,0.39652157,-0.53717744,,0.10705083,1.3441373,0.4432985,0.9957965,0.018144088,-0.08977826,-0.04448546,-0.7610049,-0.6472191,-0.0800649,0.64849234,-0.7569989,,-0.08723328,0.25941768,-0.09231642,0.9020902,0.41043177,0.13333814,-0.33566284,0.47313324,0.81453997,0.2712264,-0.7795452,0.56457555,,-0.032373007,0.4004319,-0.3501229,0.73011875,0.37432793,-0.57166874,-0.5759519,0.7873071,-0.22006145,0.3677037,0.4899247,0.79042256,,0.9124022754252546,0.33991608745899177,0.19134666319000002,0.7372698412915877,0.39296657332540674,1.1588457716548146,-0.4194675618328292,,-0.9149198863422519,-0.20935556548735224,0.20562918641000003,1.5351400762502028,0.27778200402314046,0.34801565993389005,0.8572296590726975,,-0.04730714937530631,-0.07404341185429444,0.0795457676,-0.07163176773016745,,-8.8095665e-05,-2.2053719e-06,1.3113022e-06,1.0,5.6046993e-05,4.8018992e-05,-5.6046993e-05,1.0,5.90086e-06,-4.8015267e-05,-5.930662e-06,1.0,311,0.945,0,0,0.0,False,-0.2632143878608417,1.0318444338734452
0.9707738099968992,13:42:20.731661,13:42:06.598324,0,,0.12091034,-0.0023311079,0.02922368,-0.8565506,-0.49445504,-0.14776732,-0.06764752,-0.1762864,0.98201156,-0.51161,0.85113883,0.11754957,,0.06999712,-0.0075436532,0.022717118,-0.6657621,-0.501637,0.55237764,-0.05043167,0.76884824,0.63743937,-0.7444577,0.39652562,-0.5371684,,0.10705083,1.3441373,0.4432985,0.9957965,0.018144088,-0.08977826,-0.04448546,-0.7610049,-0.6472191,-0.0800649,0.64849234,-0.7569989,,-0.08722743,0.25953117,-0.09238062,0.89790565,0.41933063,0.13389271,-0.33979726,0.46692237,0.81640756,0.2798272,-0.77855337,0.5617396,,-0.032374144,0.40043354,-0.35012215,0.73011416,0.37433127,-0.5716725,-0.5759532,0.78730893,-0.22005121,0.36771083,0.48991913,0.7904227,,0.9129892031236958,0.33993925565761446,0.19129610788,0.7334954223088662,0.4029410378082839,1.1601053198011406,-0.418160809303755,,-0.9149276090751262,-0.20934784275447801,0.20562918641000003,1.5351400762502028,0.27778200402314046,0.34801565993389005,0.8572296590726975,,-0.04730714937530631,-0.07404341185429444,0.0795457676,-0.07163176773016745,,-8.8095665e-05,-2.2053719e-06,1.3113022e-06,1.0,5.6046993e-05,4.8018992e-05,-5.6046993e-05,1.0,5.90086e-06,-4.8015267e-05,-5.930662e-06,1.0,319,0.969,0,0,0.0,False,-0.26339312101640555,1.0319892744757837
0.9899681420065463,13:42:20.754311,13:42:06.598324,0,,0.12092709,-0.0022595227,0.029420167,-0.84661436,-0.51256937,-0.14323655,-0.05942422,-0.17641222,0.98252094,-0.5288788,0.8403281,0.11889407,,0.06999765,-0.0075455904,0.022716701,-0.6658188,-0.5014762,0.5524553,-0.050244153,0.7688991,0.6373929,-0.7444198,0.39663053,-0.5371437,,0.10705083,1.3441373,0.4432985,0.9957965,0.018144088,-0.08977826,-0.04448546,-0.7610049,-0.6472191,-0.0800649,0.64849234,-0.7569989,,-0.08726139,0.25971442,-0.09247698,0.88947845,0.43831462,0.12926081,-0.34581527,0.46071088,0.81740886,0.2987304,-0.771768,0.5613683,,-0.03237442,0.40043214,-0.35012364,0.73014563,0.37415713,-0.5717463,-0.5758204,0.78740275,-0.2200633,0.36785635,0.48990142,0.79036593,,0.9139390992672254,0.3399469783904887,0.19123647854000003,0.7282531737217531,0.4246662412709889,1.1562752589373053,-0.41718074490694934,,-0.9149276090751262,-0.20935556548735224,0.20562918641000003,1.5353497661936872,0.27778200402314046,0.34801565993389005,0.8572296590726975,,-0.04730714937530631,-0.07404341185429444,0.0795457676,-0.07163176773016745,,-8.8095665e-05,-2.2053719e-06,1.3113022e-06,1.0,5.6046993e-05,4.8018992e-05,-5.6046993e-05,1.0,5.90086e-06,-4.8015267e-05,-5.930662e-06,1.0,339,1.031,0,0,0.0,False,-0.26232072208302704,1.0326169170859167
1.0126310100022238,13:42:20.813860,13:42:06.797495,0,,0.121006414,-0.0020869523,0.029922128,-0.8176528,-0.5572677,-0.14455582,-0.042305782,-0.19225213,0.98043317,-0.574155,0.8077696,0.13361987,,0.07000126,-0.007543996,0.022716284,-0.66575205,-0.50149965,0.5525143,-0.050425857,0.7690098,0.6372449,-0.7444671,0.3963861,-0.53725845,,0.10705083,1.3441373,0.4432985,0.9957965,0.018144088,-0.08977826,-0.04448546,-0.7610049,-0.6472191,-0.0800649,0.64849234,-0.7569989,,-0.08738451,0.26017267,-0.09272778,0.8644986,0.4857185,0.1293046,-0.36506703,0.4299298,0.8257641,0.345497,-0.7610768,0.5489935,,-0.03237813,0.4004321,-0.35012224,0.7301044,0.37418926,-0.5717779,-0.5759597,0.7872506,-0.22024289,0.36771998,0.49012133,0.79029304,,0.9159779007460207,0.33993925565761446,0.19109777551,0.7089616989211769,0.48000402367599226,1.1600765732844511,-0.4186508415021577,,-0.9149430545408745,-0.20935556548735224,0.20563177899,1.5351400762502028,0.27778200402314046,0.34777062371346834,0.8577196912711004,,-0.04730714937530631,-0.07404341185429444,0.0795457676,-0.07163176773016745,,-8.8095665e-05,-2.2053719e-06,1.3113022e-06,1.0,5.6046993e-05,4.8018992e-05,-5.6046993e-05,1.0,5.90086e-06,-4.8015267e-05,-5.930662e-06,1.0,347,1.055,0,0,0.0,False,-0.26255903295711036,1.0331962794952703
1.0722025799914263,13:42:20.843694,13:42:06.797495,0,,0.120988496,-0.0019916594,0.030165493,-0.8042262,-0.5757557,-0.1473955,-0.037208572,-0.19874224,0.9793451,-0.5931573,0.79309946,0.13841072,,0.07000168,-0.007543862,0.022716165,-0.6658416,-0.5015306,0.5523784,-0.050467998,0.7689416,0.6373239,-0.74438417,0.39647937,-0.5373045,,0.10705083,1.3441373,0.4432985,0.9957965,0.018144088,-0.08977826,-0.04448546,-0.7610049,-0.6472191,-0.0800649,0.64849234,-0.7569989,,-0.08738806,0.26040685,-0.092845075,0.85275453,0.5054297,0.13172151,-0.3747735,0.416441,0.8283247,0.36380562,-0.7557233,0.54454356,,-0.03237855,0.40043202,-0.35012212,0.73019046,0.37421942,-0.57164824,-0.57589734,0.7873011,-0.22022532,0.3676467,0.49001715,0.79039174,,0.9170822515470347,0.3399469783904887,0.19102518327,0.6978481319164971,0.5026856826370554,1.1599589178024718,-0.41848749743602354,,-0.9149507772737487,-0.20935556548735224,0.20563177899,1.5351400762502028,0.277645367523375,0.3478820416171648,0.8577196912711004,,-0.04730714937530631,-0.07404341185429444,0.0795457676,-0.07163176773016745,,-8.8095665e-05,-2.2053719e-06,1.3113022e-06,1.0,5.6046993e-05,4.8018992e-05,-5.6046993e-05,1.0,5.90086e-06,-4.8015267e-05,-5.930662e-06,1.0,355,1.08,0,0,0.0,False,-0.2626186106756321,1.0337756419046236
1.10197216499364,13:42:20.871004,13:42:06.797495,0,,0.12094464,-0.0019194037,0.03031379,-0.7960033,-0.5866972,-0.14887926,-0.03559369,-0.20016664,0.9791151,-0.6042447,0.78467804,0.13845062,,0.07000043,-0.0075440705,0.02271539,-0.6658464,-0.50148505,0.55241394,-0.05047193,0.7689932,0.6372613,-0.74437964,0.39643675,-0.5373423,,0.10705083,1.3441373,0.4432985,0.9957965,0.018144088,-0.08977826,-0.04448546,-0.7610049,-0.6472191,-0.0800649,0.64849234,-0.7569989,,-0.08735746,0.2605621,-0.0929091,0.8455191,0.5170648,0.13319692,-0.3814696,0.41042596,0.8282702,0.37360188,-0.75112885,0.5442675,,-0.032377224,0.4004314,-0.3501218,0.7301953,0.37417224,-0.571673,-0.5758948,0.78728396,-0.22029345,0.36764127,0.4900807,0.79035485,,0.9178854157659541,0.33993925565761446,0.19098370199000003,0.6896702241206006,0.5153928771152414,1.1565397456706523,-0.41767077710535183,,-0.9149430545408745,-0.20935556548735224,0.20563177899,1.5351400762502028,0.277645367523375,0.3478003628770242,0.8578830353372346,,-0.04730714937530631,-0.07404341185429444,0.0795457676,-0.07163176773016745,,-8.8095665e-05,-2.2053719e-06,1.3113022e-06,1.0,5.6046993e-05,4.8018992e-05,-5.6046993e-05,1.0,5.90086e-06,-4.8015267e-05,-5.930662e-06,1.0,363,1.105,0,0,0.0,False,-0.2622015666459845,1.03411360331008
1.1293211019947194,13:42:20.897333,13:42:06.797495,0,,0.12087234,-0.001802206,0.03052938,-0.78306466,-0.60282415,-0.15301175,-0.03448698,-0.20355791,0.9784553,-0.62098336,0.77147067,0.1386095,,0.06999792,-0.007544324,0.02271372,-0.66585594,-0.50152934,0.55236214,-0.05047977,0.76894045,0.6373244,-0.7443705,0.39648315,-0.5373207,,0.10705083,1.3441373,0.4432985,0.9957965,0.018144088,-0.08977826,-0.04448546,-0.7610049,-0.6472191,-0.0800649,0.64849234,-0.7569989,,-0.0873045,0.26079735,-0.0929946,0.8340775,0.5342872,0.13730216,-0.39259866,0.400071,0.82813615,0.38753197,-0.7446344,0.54345065,,-0.03237457,0.4004302,-0.35012108,0.7302048,0.374218,-0.5716308,-0.5758895,0.7873036,-0.2202368,0.36763042,0.49001417,0.79040116,,0.9190669938957104,0.33991608745899177,0.19093185039000002,0.6756209979071375,0.5339754410833412,1.15167843202565,-0.4179974652376206,,-0.9149276090751262,-0.20935556548735224,0.20563177899,1.5351400762502028,0.277645367523375,0.34788204161716485,0.8586997556679059,,-0.04730714937530631,-0.07404341185429444,0.0795457676,-0.07163176773016745,,-8.8095665e-05,-2.2053719e-06,1.3113022e-06,1.0,5.6046993e-05,4.8018992e-05,-5.6046993e-05,1.0,5.90086e-06,-4.8015267e-05,-5.930662e-06,1.0,371,1.129,0,0,0.0,False,-0.26327396557936344,1.0335342409007262
1.1556081440066919,13:42:20.921679,13:42:06.797495,0,,0.12083606,-0.0017359257,0.030670851,-0.77488416,-0.61332285,-0.15293619,-0.03050381,-0.20538315,0.9782061,-0.6313667,0.7626616,0.14043948,,0.06999917,-0.007544175,0.022714555,-0.6658512,-0.5015749,0.5523266,-0.050475866,0.7688887,0.63738704,-0.74437505,0.3965258,-0.53728294,,0.10705083,1.3441373,0.4432985,0.9957965,0.018144088,-0.08977826,-0.04448546,-0.7610049,-0.6472191,-0.0800649,0.64849234,-0.7569989,,-0.08728084,0.2609431,-0.09305709,0.8268158,0.5455161,0.13706896,-0.39706424,0.39347297,0.82916766,0.39839137,-0.73999405,0.5419346,,-0.032375894,0.4004308,-0.35012144,0.73020005,0.37426516,-0.57160604,-0.57589215,0.7873208,-0.22016867,0.36763585,0.4899506,0.79043806,,0.9198547126488813,0.33989291926036913,0.19090073943000002,0.6697496794895708,0.5475024545601199,1.1497143997153068,-0.41881418556829186,,-0.9149353318080004,-0.20935556548735224,0.20563177899,1.5351400762502028,0.277645367523375,0.3479637203573054,0.8588630997340403,,-0.04730714937530631,-0.07404341185429444,0.0795457676,-0.07163176773016745,,-8.8095665e-05,-2.2053719e-06,1.3113022e-06,1.0,5.6046993e-05,4.8018992e-05,-5.6046993e-05,1.0,5.90086e-06,-4.8015267e-05,-5.930662e-06,1.0,383,1.166,0,0,0.0,False,-0.26297607698675796,1.0337273617038443
1.180016700993292,13:42:20.954769,13:42:06.927171,0,,0.12077367,-0.0015871972,0.030934215,-0.75662386,-0.63453406,-0.15775557,-0.026484907,-0.21133119,0.97705555,-0.6533137,0.7434417,0.1430926,,0.07000168,-0.007543862,0.022716165,-0.6658416,-0.5014854,0.5524194,-0.050467998,0.7689936,0.63726115,-0.74438417,0.39643547,-0.53733695,,0.10705083,1.3441373,0.4432985,0.9957965,0.018144088,-0.08977826,-0.04448546,-0.7610049,-0.6472191,-0.0800649,0.64849234,-0.7569989,,-0.08724201,0.26123303,-0.09315617,0.81051505,0.5683331,0.14164369,-0.40982822,0.3775155,0.83037513,0.41845697,-0.7310811,0.5389009,,-0.03237855,0.40043202,-0.35012212,0.73019046,0.37417272,-0.5716788,-0.57589734,0.7872831,-0.22028963,0.3676467,0.4900817,0.79035175,,0.9212216363676191,0.3398311373973753,0.19086444331000002,0.6525551041238398,0.5737366625150844,1.1452296614146902,-0.4179974652376206,,-0.9149507772737487,-0.20935556548735224,0.20563177899,1.5351400762502028,0.277645367523375,0.34780036287702426,0.8588630997340403,,-0.04730714937530631,-0.07404341185429444,0.0795457676,-0.07163176773016745,,-8.8095665e-05,-2.2053719e-06,1.3113022e-06,1.0,5.6046993e-05,4.8018992e-05,-5.6046993e-05,1.0,5.90086e-06,-4.8015267e-05,-5.930662e-06,1.0,391,1.191,0,0,0.0,False,-0.2617249448978165,1.0329065982905934
1.2130853990092874,13:42:20.981532,13:42:06.927171,0,,0.120741256,-0.001519978,0.031043053,-0.7481836,-0.64371073,-0.16080314,-0.025165886,-0.21465242,0.97636616,-0.6630143,0.734548,0.14439982,,0.07000105,-0.0075436234,0.022714317,-0.6658464,-0.5015302,0.552373,-0.05047193,0.76894116,0.6373241,-0.74437964,0.39648068,-0.53730994,,0.10705083,1.3441373,0.4432985,0.9957965,0.018144088,-0.08977826,-0.04448546,-0.7610049,-0.6472191,-0.0800649,0.64849234,-0.7569989,,-0.08721936,0.26135752,-0.09319367,0.80294377,0.5782571,0.14456859,-0.41583174,0.36967048,0.8309198,0.42704254,-0.7272981,0.5372822,,-0.032377794,0.40043062,-0.35012093,0.7301953,0.37421894,-0.5716424,-0.5758948,0.78730196,-0.22022915,0.36764127,0.49001613,0.7903949,,0.9218085640660602,0.33976935553438153,0.19085666557000003,0.6441675063844589,0.5852141284953815,1.1434666803372628,-0.41783412117148644,,-0.9149430545408745,-0.20935556548735224,0.20563307528000002,1.5351400762502028,0.277645367523375,0.34788204161716474,0.8583730675356376,,-0.04730714937530631,-0.07404341185429444,0.0795457676,-0.07163176773016745,,-8.8095665e-05,-2.2053719e-06,1.3113022e-06,1.0,5.6046993e-05,4.8018992e-05,-5.6046993e-05,1.0,5.90086e-06,-4.8015267e-05,-5.930662e-06,1.0,420,1.281,0,0,0.0,False,-0.2632143878608417,1.0325203566843577
1.239875219995156,13:42:21.065472,13:42:06.927171,0,,0.120791465,-0.0013531148,0.031499982,-0.7035486,-0.691168,-0.16524515,-0.010335475,-0.22255142,0.97486603,-0.7105718,0.68757373,0.14943221,,0.070000954,-0.007542342,0.022713602,-0.6656426,-0.50086695,0.55321974,-0.050808966,0.77000904,0.63600665,-0.7445389,0.3952447,-0.53799933,,0.10705083,1.3441373,0.4432985,0.9957965,0.018144088,-0.08977826,-0.04448546,-0.7610049,-0.6472191,-0.0800649,0.64849234,-0.7569989,,-0.08730954,0.2617832,-0.09341679,0.76255476,0.62963444,0.14856215,-0.4392519,0.33533287,0.83343244,0.47493997,-0.7007941,0.53227776,,-0.03237778,0.40043062,-0.35011944,0.73004586,0.3735503,-0.5722703,-0.5762253,0.7866794,-0.22158505,0.36742008,0.49152383,0.78956115,,0.9232604378464143,0.33905114137707865,0.19085925815000002,0.6089395958790587,0.6473837358886568,1.1296903246989254,-0.41897752963442647,,-0.9149353318080004,-0.20935556548735224,0.20563437157000003,1.5347206963632338,0.27778200402314046,0.3460553701705165,0.8578830353372345,,-0.04730714937530631,-0.07404341185429444,0.0795457676,-0.07163176773016745,,-8.8095665e-05,-2.2053719e-06,1.3113022e-06,1.0,5.6046993e-05,4.8018992e-05,-5.6046993e-05,1.0,5.90086e-06,-4.8015267e-05,-5.930662e-06,1.0,428,1.305,0,0,0.0,False,-0.2626186106756321,1.032858318089814
1.32381159500801,13:42:21.096894,13:42:07.066759,0,,0.12076476,-0.0012994856,0.031651706,-0.6854202,-0.70867,-0.16728972,-0.007833868,-0.22255675,0.9748882,-0.72810555,0.66951865,0.14699328,,0.0700036,-0.0075397193,0.022714555,-0.6657481,-0.5005573,0.5533731,-0.05041775,0.77009284,0.63593626,-0.7444712,0.3954736,-0.5379248,,0.10705083,1.3441373,0.4432985,0.9957965,0.018144088,-0.08977826,-0.04448546,-0.7610049,-0.6472191,-0.0800649,0.64849234,-0.7569989,,-0.08729627,0.2619259,-0.09349478,0.74600744,0.64863634,0.15081045,-0.45018968,0.32434016,0.8319451,0.49071595,-0.68853056,0.5339696,,-0.032380782,0.40043244,-0.35011783,0.7300999,0.37321416,-0.5724206,-0.57595974,0.7868763,-0.22157626,0.3677288,0.49146402,0.78945464,,0.9237778609489874,0.33854916374025407,0.19087092476000003,0.5913256406263586,0.6693822123508928,1.1186947351157495,-0.41897752963442625,,-0.9149507772737487,-0.2093401200216038,0.20563566786,1.5351400762502028,0.27778200402314046,0.3460553701705165,0.8578830353372345,,-0.04730714937530631,-0.07404341185429444,0.0795457676,-0.07163176773016745,,-8.8095665e-05,-2.2053719e-06,1.3113022e-06,1.0,5.6046993e-05,4.8018992e-05,-5.6046993e-05,1.0,5.90086e-06,-4.8015267e-05,-5.930662e-06,1.0,440,1.342,0,0,0.0,False,-0.26351227645344677,1.0332445596960498
1.3551636569900438,13:42:21.124798,13:42:07.066759,0,,0.12072961,-0.0012673438,0.031711727,-0.6774771,-0.7158633,-0.16900992,-0.0075182915,-0.22302398,0.9747839,-0.7355053,0.6616646,0.1457116,,0.0700036,-0.0075397193,0.022714555,-0.6657481,-0.5004668,0.5534548,-0.05041775,0.7701968,0.6358105,-0.7444712,0.39538565,-0.53798944,,0.10705083,1.3441373,0.4432985,0.9957965,0.018144088,-0.08977826,-0.04448546,-0.7610049,-0.6472191,-0.0800649,0.64849234,-0.7569989,,-0.08726656,0.26199195,-0.09351984,0.73873514,0.65648514,0.15263566,-0.45537296,0.31918773,0.8311165,0.4968962,-0.68348116,0.53474075,,-0.032380782,0.40043244,-0.35011783,0.7300999,0.37312064,-0.5724815,-0.57595974,0.7868401,-0.2217048,0.3677288,0.491593,0.78937435,,0.9240867702639564,0.3382943135554046,0.19088259137000002,0.5827283529434931,0.6784002213354118,1.113709836935862,-0.41946756183282896,,-0.9149507772737487,-0.2093401200216038,0.20563566786,1.5351400762502028,0.27778200402314046,0.3458920126902354,0.8578830353372346,,-0.04730714937530631,-0.07404341185429444,0.0795457676,-0.07163176773016745,,-8.8095665e-05,-2.2053719e-06,1.3113022e-06,1.0,5.6046993e-05,4.8018992e-05,-5.6046993e-05,1.0,5.90086e-06,-4.8015267e-05,-5.930662e-06,1.0,448,1.367,0,0,0.0,False,-0.26243987752006825,1.0337756419046236
1.3830749779881444,13:42:21.151093,13:42:07.066759,0,,0.12070461,-0.0012023002,0.03183353,-0.66276777,-0.729193,-0.17034236,-0.0030488968,-0.22484988,0.9743886,-0.74881876,0.6463128,0.14680001,,0.07000191,-0.0075413883,0.022712529,-0.6658468,-0.50031364,0.5534746,-0.050469816,0.7703402,0.6356325,-0.74437934,0.39530018,-0.5381793,,0.10705083,1.3441373,0.4432985,0.9957965,0.018144088,-0.08977826,-0.04448546,-0.7610049,-0.6472191,-0.0800649,0.64849234,-0.7569989,,-0.08725243,0.26212302,-0.093567915,0.7252217,0.67110175,0.15386993,-0.46182728,0.3083949,0.8316298,0.5106555,-0.67417735,0.53358775,,-0.03237874,0.40043005,-0.35011813,0.7301954,0.37296024,-0.5724642,-0.57589346,0.7868171,-0.22195846,0.36764297,0.49175146,0.7893156,,0.9246119160994036,0.33797768150756147,0.19091240604,0.5705663362213907,0.6971194218032771,1.1076752817653355,-0.41963090589896335,,-0.9149430545408745,-0.20934784275447801,0.20563566786,1.5351400762502028,0.277645367523375,0.34567671563336955,0.8588630997340402,,-0.04730714937530631,-0.07404341185429444,0.0795457676,-0.07163176773016745,,-8.8095665e-05,-2.2053719e-06,1.3113022e-06,1.0,5.6046993e-05,4.8018992e-05,-5.6046993e-05,1.0,5.90086e-06,-4.8015267e-05,-5.930662e-06,1.0,460,1.404,0,0,0.0,False,-0.26249945523859,1.033823922105403
1.4094356620043982,13:42:21.186254,13:42:07.066759,0,,0.120663114,-0.0011019707,0.031938404,-0.6475729,-0.7414066,-0.17597021,-0.0012497306,-0.22989734,0.9732141,-0.7620024,0.630447,0.14794871,,0.07000254,-0.0075410157,0.022711456,-0.6658468,-0.5002684,0.55351543,-0.050469816,0.77039206,0.63556963,-0.74437934,0.39525616,-0.5382116,,0.10705083,1.3441373,0.4432985,0.9957965,0.018144088,-0.08977826,-0.04448546,-0.7610049,-0.6472191,-0.0800649,0.64849234,-0.7569989,,-0.0872205,0.26226997,-0.09358088,0.7112219,0.68466145,0.15938064,-0.47020674,0.2948,0.83186454,0.5225601,-0.6665821,0.53160065,,-0.03237931,0.40042925,-0.3501173,0.7301954,0.37291348,-0.5724947,-0.57589346,0.78679895,-0.22202273,0.36764297,0.49181595,0.78927547,,0.9251293392019767,0.337722831322712,0.19096685022,0.555049280403536,0.7141989842739572,1.1026510264786045,-0.4188141855682921,,-0.9149430545408745,-0.20934784275447801,0.20563696415000002,1.5351400762502028,0.277645367523375,0.345595036893229,0.8590264438001745,,-0.04730714937530631,-0.07404341185429444,0.0795457676,-0.07163176773016745,,-8.8095665e-05,-2.2053719e-06,1.3113022e-06,1.0,5.6046993e-05,4.8018992e-05,-5.6046993e-05,1.0,5.90086e-06,-4.8015267e-05,-5.930662e-06,1.0,468,1.428,0,0,0.0,False,-0.2622015666459845,1.0335342409007262
1.4445518419961445,13:42:21.214919,13:42:07.066759,0,,0.12063951,-0.00098221,0.032025665,-0.63130313,-0.7556329,-0.17457159,0.0031493306,-0.22759391,0.973751,-0.77552974,0.6141823,0.14606047,,0.07000292,-0.0075424463,0.022711098,-0.6658464,-0.500356,0.5534369,-0.05047193,0.7702929,0.63568974,-0.74437964,0.3953387,-0.53815067,,0.10705083,1.3441373,0.4432985,0.9957965,0.018144088,-0.08977826,-0.04448546,-0.7610049,-0.6472191,-0.0800649,0.64849234,-0.7569989,,-0.087204926,0.26241854,-0.09356665,0.6961727,0.70023733,0.15814938,-0.47695032,0.2865179,0.8309187,0.5365277,-0.65389234,0.53344434,,-0.0323795,0.4004282,-0.3501184,0.7301953,0.37300414,-0.57243586,-0.5758948,0.7868325,-0.2219006,0.36764127,0.49169356,0.7893525,,0.9256390395716755,0.3375065948022338,0.19106277568000002,0.5407903642465883,0.7336013672406497,1.0907502636804596,-0.4194675618328294,,-0.9149430545408745,-0.20935556548735224,0.20563696415000002,1.5351400762502028,0.277645367523375,0.34575839437351014,0.8586997556679059,,-0.04730714937530631,-0.07404341185429444,0.0795457676,-0.07163176773016745,,-8.8095665e-05,-2.2053719e-06,1.3113022e-06,1.0,5.6046993e-05,4.8018992e-05,-5.6046993e-05,1.0,5.90086e-06,-4.8015267e-05,-5.930662e-06,1.0,497,1.518,0,0,0.0,False,-0.262797343831195,1.0337273617038443
1.4732646879856475,13:42:21.303663,13:42:07.253686,0,,0.120593265,-0.0006169975,0.032110542,-0.58453226,-0.7907108,-0.18192959,0.012762517,-0.2331576,0.9723551,-0.81127,0.5660511,0.14637965,,0.07000378,-0.007540822,0.02271223,-0.665842,-0.5002688,0.5535209,-0.05046594,0.77039254,0.63556945,-0.74438393,0.3952549,-0.5382062,,0.10705083,1.3441373,0.4432985,0.9957965,0.018144088,-0.08977826,-0.04448546,-0.7610049,-0.6472191,-0.0800649,0.64849234,-0.7569989,,-0.08716738,0.2627491,-0.093387656,0.65264755,0.739375,0.16545637,-0.49648806,0.25239366,0.8305402,0.5723205,-0.6241971,0.53181493,,-0.032380637,0.40042987,-0.35011762,0.73019063,0.37291393,-0.5725005,-0.5758961,0.7867981,-0.2220189,0.3676484,0.49181694,0.7892723,,0.9264730947220917,0.3367420442476855,0.19148147735,0.4963360962278691,0.7851133276522209,1.0663066431171293,-0.4186508415021577,,-0.9149507772737487,-0.20934784275447801,0.20563696415000002,1.5351400762502028,0.277645367523375,0.345595036893229,0.858699755667906,,-0.04730714937530631,-0.07404341185429444,0.0795457676,-0.07163176773016745,,-8.8095665e-05,-2.2053719e-06,1.3113022e-06,1.0,5.6046993e-05,4.8018992e-05,-5.6046993e-05,1.0,5.90086e-06,-4.8015267e-05,-5.930662e-06,1.0,505,1.543,0,0,0.0,False,-0.26351227645344677,1.0348378063217716
1.5619832990050782,13:42:21.327237,13:42:07.253686,0,,0.12058196,-0.0005533397,0.032081664,-0.5769415,-0.79574627,-0.18419105,0.01323849,-0.2345879,0.97200465,-0.8166781,0.5583515,0.14587805,,0.07000128,-0.007541135,0.022710621,-0.66585165,-0.500268,0.5535101,-0.05047375,0.7703917,0.63556975,-0.7443748,0.3952574,-0.53821695,,0.10705083,1.3441373,0.4432985,0.9957965,0.018144088,-0.08977826,-0.04448546,-0.7610049,-0.6472191,-0.0800649,0.64849234,-0.7569989,,-0.087153815,0.26277778,-0.09332435,0.64555293,0.7450638,0.16775392,-0.50020206,0.24649887,0.83008206,0.5771129,-0.6197728,0.53181046,,-0.03237798,0.40042865,-0.35011694,0.73020023,0.37291303,-0.5724889,-0.57589084,0.7867998,-0.22202656,0.36763754,0.49181497,0.78927857,,0.9265039856535886,0.3365412531929557,0.19158388426000003,0.4879484984884882,0.7924916986395546,1.0620053298604744,-0.42077431436190316,,-0.9149353318080004,-0.20934784275447801,0.20563696415000002,1.5351400762502028,0.277645367523375,0.345595036893229,0.8590264438001745,,-0.04730714937530631,-0.07404341185429444,0.0795457676,-0.07163176773016745,,-8.8095665e-05,-2.2053719e-06,1.3113022e-06,1.0,5.6046993e-05,4.8018992e-05,-5.6046993e-05,1.0,5.90086e-06,-4.8015267e-05,-5.930662e-06,1.0,513,1.567,0,0,0.0,False,-0.2630356547052788,1.0345964053178744
1.5855748720059637,13:42:21.356004,13:42:07.253686,0,,0.12058181,-0.00045090914,0.032040775,-0.56448036,-0.804459,-0.18495281,0.015652806,-0.23445569,0.9720008,-0.82529795,0.54578036,0.14493772,,0.07000042,-0.0075427443,0.022709548,-0.66585594,-0.50026476,0.55350775,-0.05047977,0.770396,0.63556415,-0.7443705,0.3952533,-0.538226,,0.10705083,1.3441373,0.4432985,0.9957965,0.018144088,-0.08977826,-0.04448546,-0.7610049,-0.6472191,-0.0800649,0.64849234,-0.7569989,,-0.08715045,0.26282653,-0.09322549,0.63387877,0.7548335,0.16859436,-0.50491446,0.23873594,0.82949775,0.5858832,-0.61092675,0.532456,,-0.032376844,0.400427,-0.3501177,0.7302048,0.3729097,-0.57248515,-0.5758895,0.7867979,-0.2220368,0.36763042,0.49182054,0.78927845,,0.9265194311193371,0.3362709575423578,0.19175240196,0.4757864817663857,0.8054721661172715,1.0534625975128284,-0.42028428216350067,,-0.9149276090751262,-0.20935556548735224,0.20563696415000002,1.5351400762502028,0.277645367523375,0.34559503689322907,0.8593531319324431,,-0.04730714937530631,-0.07404341185429444,0.0795457676,-0.07163176773016745,,-8.8095665e-05,-2.2053719e-06,1.3113022e-06,1.0,5.6046993e-05,4.8018992e-05,-5.6046993e-05,1.0,5.90086e-06,-4.8015267e-05,-5.930662e-06,1.0,521,1.592,0,0,0.0,False,-0.2631548101423209,1.034017042908521
1.6143446550122462,13:42:21.378963,13:42:07.253686,0,,0.12058532,-0.0003848821,0.03194064,-0.5587863,-0.80840236,-0.1850498,0.01863271,-0.23531839,0.97173965,-0.8291023,0.53954685,0.14655542,,0.07000144,-0.0075437874,0.022708118,-0.6658556,-0.5002619,0.5535108,-0.050481826,0.7704005,0.63555837,-0.7443707,0.39524788,-0.5382297,,0.10705083,1.3441373,0.4432985,0.9957965,0.018144088,-0.08977826,-0.04448546,-0.7610049,-0.6472191,-0.0800649,0.64849234,-0.7569989,,-0.08714547,0.26280853,-0.093106955,0.6285266,0.7593054,0.16855152,-0.5055848,0.2341747,0.8303892,0.59104854,-0.6071388,0.5310783,,-0.032377608,0.40042517,-0.35011795,0.7302047,0.37290683,-0.5724872,-0.5758908,0.78679514,-0.22204319,0.36762872,0.4918271,0.7892751,,0.9265348765850856,0.3360392755561311,0.19191832708,0.47222175272714884,0.8127139006048397,1.0519681005845085,-0.4186508415021575,,-0.9149276090751262,-0.20936328822022646,0.20563826044000003,1.5351400762502028,0.277645367523375,0.34559503689322907,0.8596798200647116,,-0.04730714937530631,-0.07404341185429444,0.0795457676,-0.07163176773016745,,-8.8095665e-05,-2.2053719e-06,1.3113022e-06,1.0,5.6046993e-05,4.8018992e-05,-5.6046993e-05,1.0,5.90086e-06,-4.8015267e-05,-5.930662e-06,1.0,529,1.617,0,0,0.0,False,-0.26297607698675796,1.0339687627077414
1.6372546819911804,13:42:21.407148,13:42:07.253686,0,,0.120585024,-0.00029408932,0.031888008,-0.549037,-0.81497085,-0.18542041,0.02093935,-0.23519106,0.9717235,-0.83553565,0.5296296,0.1461936,,0.07000385,-0.0075480044,0.022707999,-0.66584957,-0.500299,0.5534845,-0.05048421,0.77036285,0.63560385,-0.74437594,0.39527443,-0.538203,,0.10705083,1.3441373,0.4432985,0.9957965,0.018144088,-0.08977826,-0.04448546,-0.7610049,-0.6472191,-0.0800649,0.64849234,-0.7569989,,-0.0871409,0.26284084,-0.093007214,0.61936474,0.76670885,0.16895215,-0.50875425,0.22804928,0.83015823,0.59796023,-0.60012585,0.53131205,,-0.03237951,0.40042263,-0.35012165,0.73019946,0.37294546,-0.5724687,-0.5758972,0.78680426,-0.2219943,0.36762902,0.49178326,0.7893023,,0.9265425993179598,0.33583076176852705,0.19207517817000003,0.46299539521382976,0.8229616380872479,1.0454086900903692,-0.4199575940312319,,-0.9149353318080004,-0.20938645641884912,0.20563826044000003,1.5351400762502028,0.277645367523375,0.3456767156333696,0.8595164759985773,,-0.04730714937530631,-0.07404341185429444,0.0795457676,-0.07163176773016745,,-8.8095665e-05,-2.2053719e-06,1.3113022e-06,1.0,5.6046993e-05,4.8018992e-05,-5.6046993e-05,1.0,5.90086e-06,-4.8015267e-05,-5.930662e-06,1.0,541,1.653,0,0,0.0,False,-0.2632143878608417,1.0337756419046236
1.665394236013526,13:42:21.439668,13:42:07.417442,0,,0.12057912,-0.00021070242,0.031773776,-0.5451922,-0.81727564,-0.18661696,0.021139205,-0.23594262,0.971537,-0.8380445,0.5257294,0.14591059,,0.07000463,-0.0075508654,0.022707283,-0.66584873,-0.50033855,0.5534498,-0.050488323,0.77032024,0.6356552,-0.74437636,0.39530754,-0.538178,,0.10705083,1.3441373,0.4432985,0.9957965,0.018144088,-0.08977826,-0.04448546,-0.7610049,-0.6472191,-0.0800649,0.64849234,-0.7569989,,-0.08712538,0.2628269,-0.09286719,0.6157514,0.7693456,0.17016932,-0.5105123,0.22502837,0.82990324,0.6001895,-0.5978876,0.53132194,,-0.0323799,0.40042055,-0.35012385,0.73019916,0.3729865,-0.57244235,-0.5758998,0.7868169,-0.22194284,0.36762562,0.4917319,0.78933585,,0.9265348765850856,0.33571492077541365,0.19224239958000003,0.45838221645717026,0.8266508235809147,1.0429721578715498,-0.4201209380973663,,-0.9149353318080004,-0.2094019018845976,0.20563826044000003,1.5351400762502028,0.277645367523375,0.3457583943735102,0.8590264438001746,,-0.04730714937530631,-0.07404341185429444,0.0795457676,-0.07163176773016745,,-8.8095665e-05,-2.2053719e-06,1.3113022e-06,1.0,5.6046993e-05,4.8018992e-05,-5.6046993e-05,1.0,5.90086e-06,-4.8015267e-05,-5.930662e-06,1.0,574,1.756,0,0,0.0,False,-0.2623802998015474,1.0337756419046236
1.697997960000066,13:42:21.537485,13:42:07.417442,0,,0.12059559,0.00025726855,0.031605244,-0.50512356,-0.8422557,-0.18829612,0.02410096,-0.23185688,0.9724512,-0.86271036,0.48666996,0.13741553,,0.07000602,-0.007565692,0.022702515,-0.6658543,-0.50026405,0.5535104,-0.050517023,0.77041763,0.635535,-0.74436957,0.39521205,-0.5382577,,0.10705083,1.3441373,0.4432985,0.9957965,0.018144088,-0.08977826,-0.04448546,-0.7610049,-0.6472191,-0.0800649,0.64849234,-0.7569989,,-0.08712865,0.26306084,-0.09242797,0.5779638,0.797606,0.17257604,-0.5271937,0.20351027,0.82501537,0.6229162,-0.56781006,0.5381144,,-0.03237917,0.4004089,-0.35013425,0.73020726,0.37291017,-0.57248175,-0.57590735,0.786773,-0.22207877,0.36759776,0.49185997,0.7892691,,0.9262568582016135,0.33552185245355803,0.19285424846000002,0.41225042889057484,0.8620396770201638,1.005456974359277,-0.42044762622963483,,-0.9149198863422519,-0.20947912921333983,0.20563826044000003,1.5351400762502028,0.277645367523375,0.34567671563336955,0.8588630997340402,,-0.04730714937530631,-0.07404341185429444,0.0795457676,-0.07163176773016745,,-8.8095665e-05,-2.2053719e-06,1.3113022e-06,1.0,5.6046993e-05,4.8018992e-05,-5.6046993e-05,1.0,5.90086e-06,-4.8015267e-05,-5.930662e-06,1.0,578,1.768,0,0,0.0,False,-0.2626781883941529,1.0336790815030648
1.795826613000827,13:42:21.558443,13:42:07.417442,0,,0.12059481,0.00037194788,0.031504482,-0.49737513,-0.846313,-0.19071504,0.021724105,-0.23191665,0.97249305,-0.8672635,0.47955072,0.13373491,,0.07000727,-0.007565543,0.02270329,-0.66584945,-0.50026447,0.5535159,-0.05051306,0.77041805,0.6355348,-0.74437404,0.39521077,-0.5382523,,0.10705083,1.3441373,0.4432985,0.9957965,0.018144088,-0.08977826,-0.04448546,-0.7610049,-0.6472191,-0.0800649,0.64849234,-0.7569989,,-0.0871195,0.2630788,-0.092276655,0.57064706,0.80226564,0.1753049,-0.5324647,0.19896103,0.8227368,0.62517464,-0.562836,0.5407146,,-0.032380495,0.4004095,-0.35013458,0.7302025,0.37291065,-0.5724876,-0.5759099,0.7867722,-0.22207496,0.36760318,0.49186096,0.78926593,,0.9260251762153867,0.3354446251248158,0.19302924761,0.40008841216847246,0.8665486815124233,0.9965527441682992,-0.42077431436190316,,-0.9149276090751262,-0.20947912921333983,0.20563826044000003,1.5351400762502028,0.277645367523375,0.34567671563336955,0.8588630997340402,,-0.04730714937530631,-0.07404341185429444,0.0795457676,-0.07163176773016745,,-8.8095665e-05,-2.2053719e-06,1.3113022e-06,1.0,5.6046993e-05,4.8018992e-05,-5.6046993e-05,1.0,5.90086e-06,-4.8015267e-05,-5.930662e-06,1.0,586,1.793,0,0,0.0,False,-0.26333354329788383,1.0342584439124183
1.8167872100020759,13:42:21.580433,13:42:07.417442,0,,0.12063283,0.00045906007,0.031348735,-0.49100342,-0.85076815,-0.18737414,0.021171391,-0.22667624,0.97374,-0.8709003,0.47414273,0.12931082,,0.07000727,-0.007565543,0.02270329,-0.66584945,-0.5003097,0.55347496,-0.05051306,0.7703661,0.6355977,-0.74437404,0.39525473,-0.53822005,,0.10705083,1.3441373,0.4432985,0.9957965,0.018144088,-0.08977826,-0.04448546,-0.7610049,-0.6472191,-0.0800649,0.64849234,-0.7569989,,-0.087144144,0.26303726,-0.0921007,0.56461656,0.8071564,0.17235635,-0.5356868,0.19951247,0.82050866,0.62789154,-0.55560184,0.545031,,-0.032380495,0.4004095,-0.35013458,0.7302025,0.3729574,-0.5724571,-0.5759099,0.7867903,-0.22201069,0.36760318,0.4917965,0.7893061,,0.9256004259073044,0.3352824477344571,0.19324054288000003,0.391910504372576,0.8711943225044483,0.9852500913496891,-0.42077431436190316,,-0.9149276090751262,-0.20947912921333983,0.20563826044000003,1.5351400762502028,0.277645367523375,0.3457583943735102,0.8590264438001746,,-0.04730714937530631,-0.07404341185429444,0.0795457676,-0.07163176773016745,,-8.8095665e-05,-2.2053719e-06,1.3113022e-06,1.0,5.6046993e-05,4.8018992e-05,-5.6046993e-05,1.0,5.90086e-06,-4.8015267e-05,-5.930662e-06,1.0,594,1.817,0,0,0.0,False,-0.26243987752006825,1.0343550043139773
1.8387633830134291,13:42:21.610229,13:42:07.583376,0,,0.12068697,0.0005660057,0.031184107,-0.48192507,-0.855181,-0.19082338,0.019405007,-0.2281455,0.9734336,-0.8759975,0.4654192,0.12654379,,0.07000578,-0.0075675547,0.02270323,-0.6658538,-0.50026125,0.5535136,-0.05051905,0.7704222,0.6355292,-0.74436975,0.39520657,-0.53826135,,0.10705083,1.3441373,0.4432985,0.9957965,0.018144088,-0.08977826,-0.04448546,-0.7610049,-0.6472191,-0.0800649,0.64849234,-0.7569989,,-0.087184146,0.26300353,-0.09190389,0.5560202,0.8123138,0.17603354,-0.540948,0.1928679,0.81864357,0.63104427,-0.55040735,0.546658,,-0.032378793,0.40040866,-0.35013622,0.7302071,0.3729073,-0.57248384,-0.5759086,0.7867703,-0.22208518,0.36759606,0.49186653,0.78926575,,0.924967161811618,0.3351279930769726,0.19347776395000002,0.37911941782002007,0.8769330554945969,0.9773850685289576,-0.4199575940312321,,-0.9149198863422519,-0.20948685194621405,0.20563696415000002,1.5351400762502028,0.277645367523375,0.34567671563336966,0.8591897878663088,,-0.04730714937530631,-0.07404341185429444,0.0795457676,-0.07163176773016745,,-8.8095665e-05,-2.2053719e-06,1.3113022e-06,1.0,5.6046993e-05,4.8018992e-05,-5.6046993e-05,1.0,5.90086e-06,-4.8015267e-05,-5.930662e-06,1.0,606,1.854,0,0,0.0,False,-0.2626781883941529,1.0339687627077414
1.8685372319887392,13:42:21.639059,13:42:07.583376,0,,0.120751716,0.00062689185,0.031074345,-0.4757576,-0.85854954,-0.19117326,0.019588858,-0.22763526,0.97354937,-0.8793583,0.4594286,0.12511724,,0.070007816,-0.0075702965,0.02270341,-0.66584826,-0.50025594,0.5535251,-0.050519317,0.7704319,0.6355175,-0.74437475,0.39519453,-0.53826326,,0.10705083,1.3441373,0.4432985,0.9957965,0.018144088,-0.08977826,-0.04448546,-0.7610049,-0.6472191,-0.0800649,0.64849234,-0.7569989,,-0.08723932,0.2629716,-0.09177789,0.55016685,0.8161876,0.17650545,-0.54342675,0.18945327,0.8177988,0.63403773,-0.54584354,0.54776907,,-0.032380506,0.40040717,-0.35013878,0.730202,0.37290204,-0.57249373,-0.5759138,0.78676397,-0.22209415,0.36759806,0.49188063,0.78925604,,0.9244342932432965,0.33505076574823034,0.19363850391,0.3719899597415462,0.8817153329863873,0.9716885096164903,-0.4212643465603063,,-0.9149276090751262,-0.2095022974119625,0.20563696415000002,1.5351400762502028,0.277645367523375,0.34567671563336966,0.8591897878663088,,-0.04730714937530631,-0.07404341185429444,0.0795457676,-0.07163176773016745,,-8.8095665e-05,-2.2053719e-06,1.3113022e-06,1.0,5.6046993e-05,4.8018992e-05,-5.6046993e-05,1.0,5.90086e-06,-4.8015267e-05,-5.930662e-06,1.0,614,1.879,0,0,0.0,False,-0.2634526987349264,1.0337273617038443
1.8973978860012721,13:42:21.668129,13:42:07.583376,0,,0.12085922,0.0006968826,0.030890495,-0.46935207,-0.8611556,-0.1952422,0.016804844,-0.22978085,0.9730972,-0.8828511,0.45344424,0.12231973,,0.07000729,-0.007576272,0.02270037,-0.6659457,-0.5003202,0.5533497,-0.05057761,0.7703296,0.63563687,-0.74428356,0.3953126,-0.53830266,,0.10705083,1.3441373,0.4432985,0.9957965,0.018144088,-0.08977826,-0.04448546,-0.7610049,-0.6472191,-0.0800649,0.64849234,-0.7569989,,-0.0873307,0.2628944,-0.09158827,0.5440973,0.8193097,0.18080309,-0.5482114,0.184025,0.81584257,0.63515544,-0.5430161,0.5492824,,-0.03237904,0.40040168,-0.3501424,0.7302971,0.37296686,-0.57233024,-0.57585126,0.7868234,-0.22204569,0.36750713,0.4917364,0.78938824,,0.9234689516340184,0.3349735384194881,0.19385498434,0.361924842454289,0.8843114264819306,0.9665494560610575,-0.4215910346925744,,-0.9149198863422519,-0.2095331883434594,0.20563696415000002,1.5351400762502028,0.27750873102360957,0.3458698122772066,0.859353131932443,,-0.04730714937530631,-0.07404341185429444,0.0795457676,-0.07163176773016745,,-8.8095665e-05,-2.2053719e-06,1.3113022e-06,1.0,5.6046993e-05,4.8018992e-05,-5.6046993e-05,1.0,5.90086e-06,-4.8015267e-05,-5.930662e-06,1.0,647,1.981,0,0,0.0,False,-0.2635718541719685,1.0337756419046236
1.9264221359917428,13:42:21.767020,13:42:07.583376,0,,0.12127867,0.00090925395,0.030722022,-0.42755583,-0.8828053,-0.1945526,0.019382805,-0.2241188,0.97436905,-0.90378106,0.4128262,0.11293456,,0.07001425,-0.0075879097,0.022700131,-0.66581345,-0.500612,0.553245,-0.05096379,0.77028,0.6356661,-0.7443756,0.39503956,-0.53837585,,0.10705083,1.3441373,0.4432985,0.9957965,0.018144088,-0.08977826,-0.04448546,-0.7610049,-0.6472191,-0.0800649,0.64849234,-0.7569989,,-0.087734625,0.26291427,-0.091295235,0.50426584,0.84438246,0.18092604,-0.56278944,0.16243587,0.810483,0.65496874,-0.5105221,0.5571204,,-0.032384593,0.4003948,-0.35015267,0.73021805,0.3732853,-0.5722235,-0.57613873,0.78660315,-0.2220802,0.36721352,0.49184707,0.78945595,,0.9200400582378627,0.33499670661811076,0.19434757454,0.3124380157919413,0.9161477309272782,0.9237632640308356,-0.42110100249417215,,-0.9149430545408745,-0.20960269293932743,0.20563696415000002,1.5347206963632338,0.27750873102360957,0.3458698122772066,0.8590264438001746,,-0.04730714937530631,-0.07404341185429444,0.0795457676,-0.07163176773016745,,-8.8095665e-05,-2.2053719e-06,1.3113022e-06,1.0,5.6046993e-05,4.8018992e-05,-5.6046993e-05,1.0,5.90086e-06,-4.8015267e-05,-5.930662e-06,1.0,655,2.006,0,0,0.0,False,-0.2635718541719685,1.0344032845147566
2.0253488479938824,13:42:21.798024,13:42:07.583376,0,,0.12137777,0.0010022223,0.030733407,-0.41069603,-0.89064986,-0.19511934,0.021832496,-0.22354504,0.97444904,-0.9115108,0.3959424,0.111254245,,0.07001394,-0.0075942874,0.022699058,-0.66581655,-0.5006002,0.5532518,-0.050976038,0.7702981,0.6356431,-0.744372,0.39501914,-0.5383959,,0.10705083,1.3441373,0.4432985,0.9957965,0.018144088,-0.08977826,-0.04448546,-0.7610049,-0.6472191,-0.0800649,0.64849234,-0.7569989,,-0.08783464,0.2629849,-0.0912352,0.48813224,0.8536599,0.18163611,-0.5671476,0.15207073,0.80945545,0.6633781,-0.49813578,0.5583818,,-0.032383464,0.4003908,-0.35015762,0.7302222,0.37327337,-0.57222587,-0.57614124,0.786593,-0.22210965,0.36720127,0.4918723,0.78944594,,0.9191364984915785,0.33505076574823034,0.19448109241000003,0.29314654099136506,0.9292648349047605,0.9084931358281076,-0.42077431436190316,,-0.9149353318080004,-0.2096335838708243,0.20563566786,1.5347206963632338,0.27750873102360957,0.3458698122772066,0.8590264438001746,,-0.04730714937530631,-0.07404341185429444,0.0795457676,-0.07163176773016745,,-8.8095665e-05,-2.2053719e-06,1.3113022e-06,1.0,5.6046993e-05,4.8018992e-05,-5.6046993e-05,1.0,5.90086e-06,-4.8015267e-05,-5.930662e-06,1.0,663,2.03,0,0,0.0,False,-0.2632143878608417,1.0348860865225513
2.0563144639891107,13:42:21.820268,13:42:07.583376,0,,0.121441856,0.0010451674,0.030727744,-0.40239227,-0.89439476,-0.19529,0.024371207,-0.22371289,0.9743503,-0.9151428,0.3873116,0.1118179,,0.0700151,-0.0075986236,0.022698104,-0.66581535,-0.5006369,0.55322015,-0.050982296,0.7702601,0.6356887,-0.7443726,0.39504692,-0.53837454,,0.10705083,1.3441373,0.4432985,0.9957965,0.018144088,-0.08977826,-0.04448546,-0.7610049,-0.6472191,-0.0800649,0.64849234,-0.7569989,,-0.08789813,0.26300913,-0.09119827,0.48016676,0.8581399,0.18175757,-0.56818825,0.14641383,0.80976856,0.66828287,-0.49209645,0.55788803,,-0.03238404,0.40038767,-0.35016093,0.7302218,0.37331152,-0.57220155,-0.57614505,0.786603,-0.2220646,0.36719617,0.4918275,0.7894762,,0.9186345208547538,0.33507393394685303,0.19456405497,0.2847589432519841,0.9367798423918597,0.9022834723846639,-0.42093765842803776,,-0.9149353318080004,-0.20965675206944698,0.20563566786,1.5347206963632338,0.27750873102360957,0.3459514910173471,0.8591897878663087,,-0.04730714937530631,-0.07404341185429444,0.0795457676,-0.07163176773016745,,-8.8095665e-05,-2.2053719e-06,1.3113022e-06,1.0,5.6046993e-05,4.8018992e-05,-5.6046993e-05,1.0,5.90086e-06,-4.8015267e-05,-5.930662e-06,1.0,675,2.067,0,0,0.0,False,-0.2636314318904893,1.0353206083295663
2.078599075990496,13:42:21.859775,13:42:07.583376,0,,0.12147263,0.0011862069,0.030739456,-0.38188043,-0.90326226,-0.19566442,0.030712694,-0.22399527,0.974106,-0.9237012,0.36598274,0.11328095,,0.07004297,-0.0075922087,0.022708297,-0.66579884,-0.50071734,0.55316705,-0.05101055,0.77019256,0.6357682,-0.7443854,0.39507633,-0.53833526,,0.107101284,1.344133,0.44330186,0.99579614,0.01813798,-0.08978345,-0.04449345,-0.76100504,-0.6472184,-0.0800649,0.64849234,-0.7569989,,-0.08797928,0.26311398,-0.091105945,0.4604545,0.8688229,0.18201226,-0.57043326,0.1325035,0.81058544,0.68013793,-0.47706357,0.55661726,,-0.032462787,0.40038955,-0.35015783,0.7302083,0.3734036,-0.57215875,-0.5761764,0.7866037,-0.22198053,0.36717388,0.49175638,0.7895309,,0.9178081884372119,0.33516660674134374,0.19476497992000003,0.26295118912959353,0.9552257698601941,0.8857718380631169,-0.4212643465603063,,-0.9149276090751262,-0.20974170213106347,0.20563307528000002,1.5347206963632338,0.27750873102360957,0.34611484849762825,0.8601698522631146,,-0.04730714937530631,-0.07404341185429444,0.0795457676,-0.07163176773016745,,-3.7938356e-05,4.1127205e-06,-2.9802322e-06,1.0,4.996732e-05,4.2818487e-05,-4.997477e-05,0.99999994,5.2452087e-06,-4.2803586e-05,-5.3346157e-06,1.0,683,2.092,0,0,0.0,False,-0.26428678679422024,1.0351274875264485
2.118116182013182,13:42:21.882355,13:42:07.583376,0,,0.12150179,0.0012504309,0.03072977,-0.37351897,-0.9066252,-0.19625048,0.03237751,-0.22417605,0.97401047,-0.9270572,0.3574574,0.11308819,,0.07004222,-0.0076189116,0.022700846,-0.66587305,-0.5004637,0.55330724,-0.050875932,0.77036726,0.63556725,-0.74432826,0.39505702,-0.5384285,,0.107101284,1.344133,0.44330186,0.99579614,0.01813798,-0.08978345,-0.04449345,-0.76100504,-0.6472184,-0.0800649,0.64849234,-0.7569989,,-0.08800769,0.26315343,-0.09105393,0.45241037,0.8729131,0.18261315,-0.571942,0.12688422,0.81042135,0.6842567,-0.47108716,0.5566594,,-0.03245836,0.40037003,-0.35017705,0.7302614,0.3731345,-0.5722665,-0.57605094,0.7866397,-0.22217852,0.3672651,0.49190307,0.78939706,,0.9174374972592491,0.3351974976728406,0.19485572022000003,0.25288607184233636,0.9619209583487007,0.8781070347981971,-0.4211010024941719,,-0.914888995410755,-0.20987298858992529,0.20563048270000003,1.5349303863067183,0.27750873102360957,0.3460331697574877,0.8603331963292489,,-0.04730714937530631,-0.07404341185429444,0.0795457676,-0.07163176773016745,,-3.7938356e-05,4.1127205e-06,-2.9802322e-06,1.0,4.996732e-05,4.2818487e-05,-4.997477e-05,0.99999994,5.2452087e-06,-4.2803586e-05,-5.3346157e-06,1.0,716,2.194,0,0,0.0,False,-0.26339312101640555,1.0345481251170952
2.140689219988417,13:42:21.973397,13:42:07.936485,0,,0.12158957,0.0015777051,0.030525923,-0.33217028,-0.9232763,-0.19293404,0.027241915,-0.21385393,0.9764856,-0.9428259,0.31910366,0.09618768,,0.07005814,-0.00774426,0.02266723,-0.66595334,-0.50033313,0.55332875,-0.050908267,0.7704855,0.6354213,-0.74425423,0.394992,-0.53857857,,0.107101284,1.344133,0.44330186,0.99579614,0.01813798,-0.08978345,-0.04449345,-0.76100504,-0.6472184,-0.0800649,0.64849234,-0.7569989,,-0.0880785,0.2632551,-0.09067841,0.4126016,0.89279515,0.18076713,-0.58877546,0.109963246,0.80078185,0.6950564,-0.4368351,0.57102686,,-0.032456942,0.40027714,-0.35026902,0.730338,0.37299752,-0.57225806,-0.5759926,0.78662485,-0.22238244,0.36720428,0.4920307,0.7893458,,0.9149276090751262,0.33514343854272105,0.19535738445000003,0.18809187930561835,0.9832362523121095,0.8158842134843867,-0.420610970295769,,-0.9147963226162643,-0.21052169815136013,0.20562659383,1.5351400762502028,0.27750873102360957,0.3465232421983311,0.8593531319324432,,-0.04730714937530631,-0.07404341185429444,0.0795457676,-0.07163176773016745,,-3.7938356e-05,4.1127205e-06,-2.9802322e-06,1.0,4.996732e-05,4.2818487e-05,-4.997477e-05,0.99999994,5.2452087e-06,-4.2803586e-05,-5.3346157e-06,1.0,724,2.219,0,0,0.0,False,-0.2629164992682367,1.0335342409007262
2.2317362730100285,13:42:22.010214,13:42:07.936485,0,,0.121644065,0.0016485453,0.030521512,-0.31627783,-0.92937297,-0.1903528,0.03010276,-0.21038385,0.9771552,-0.94818884,0.30332243,0.09451631,,0.07006533,-0.007793121,0.022654533,-0.66595906,-0.50023764,0.55340815,-0.050992638,0.77063644,0.63523155,-0.7442433,0.39481848,-0.53872085,,0.107101284,1.344133,0.44330186,0.99579614,0.01813798,-0.08978345,-0.04449345,-0.76100504,-0.6472184,-0.0800649,0.64849234,-0.7569989,,-0.08813263,0.26330143,-0.09062431,0.39722514,0.9002264,0.17833847,-0.59119064,0.10237828,0.8000077,0.7019301,-0.4232152,0.57287264,,-0.032457393,0.4002411,-0.3503051,0.7303523,0.3729012,-0.5723026,-0.5760241,0.78653765,-0.222609,0.36712635,0.49224308,0.78924966,,0.9139777129315965,0.3351048248783499,0.19548571716000002,0.16733257490065043,0.9948503547921719,0.7957137767117771,-0.42240775502324635,,-0.9147654316847674,-0.21077654833620954,0.20562529754000003,1.5351400762502028,0.27750873102360957,0.3465232421983311,0.8593531319324432,,-0.04730714937530631,-0.07404341185429444,0.0795457676,-0.07163176773016745,,-3.7938356e-05,4.1127205e-06,-2.9802322e-06,1.0,4.996732e-05,4.2818487e-05,-4.997477e-05,0.99999994,5.2452087e-06,-4.2803586e-05,-5.3346157e-06,1.0,732,2.243,0,0,0.0,False,-0.26392932048309437,1.033823922105403
2.268554446985945,13:42:22.033080,13:42:07.936485,0,,0.12170054,0.0017019212,0.030486941,-0.30402496,-0.93309915,-0.19208035,0.030981064,-0.21120176,0.97695124,-0.9521601,0.2910667,0.093118936,,0.070072316,-0.007819228,0.022648811,-0.6659517,-0.50018644,0.5534633,-0.0510301,0.7707195,0.63512766,-0.7442473,0.3947211,-0.53878665,,0.107101284,1.344133,0.44330186,0.99579614,0.01813798,-0.08978345,-0.04449345,-0.76100504,-0.6472184,-0.0800649,0.64849234,-0.7569989,,-0.08818607,0.26331457,-0.09055944,0.38536015,0.905004,0.18018135,-0.593929,0.09381897,0.7990284,0.70621943,-0.41492862,0.5736622,,-0.032460842,0.40022233,-0.3503251,0.7303496,0.37284964,-0.57233953,-0.57604706,0.78648823,-0.22272421,0.36709568,0.49236104,0.7891903,,0.9130355395209411,0.33507393394685303,0.19560497584000003,0.14971861964795039,1.002638635278802,0.7822569058088523,-0.4225710990893805,,-0.9147654316847674,-0.21091555752794558,0.20562529754000003,1.5351400762502028,0.27750873102360957,0.3465232421983311,0.8593531319324432,,-0.04730714937530631,-0.07404341185429444,0.0795457676,-0.07163176773016745,,-3.7938356e-05,4.1127205e-06,-2.9802322e-06,1.0,4.996732e-05,4.2818487e-05,-4.997477e-05,0.99999994,5.2452087e-06,-4.2803586e-05,-5.3346157e-06,1.0,740,2.268,0,0,0.0,False,-0.2636314318904893,1.034017042908521
2.2914001239987556,13:42:22.060680,13:42:07.936485,0,,0.12174305,0.001731813,0.030467182,-0.29647923,-0.9359862,-0.1898151,0.032516956,-0.20852888,0.9774754,-0.95448554,0.28362897,0.092259765,,0.07007527,-0.007828169,0.022648752,-0.66594446,-0.50016975,0.55348706,-0.051038682,0.77074766,0.63509285,-0.7442532,0.3946874,-0.5388032,,0.107101284,1.344133,0.44330186,0.99579614,0.01813798,-0.08978345,-0.04449345,-0.76100504,-0.6472184,-0.0800649,0.64849234,-0.7569989,,-0.088226795,0.263321,-0.09052215,0.3780397,0.9085169,0.17799748,-0.5947965,0.091015145,0.7987073,0.7094386,-0.40781534,0.57479,,-0.03246275,0.4002175,-0.35033295,0.73034394,0.37283292,-0.5723577,-0.5760573,0.78647095,-0.22275878,0.36709088,0.49240136,0.7891674,,0.9124717800211227,0.3350584884811046,0.19567756808000003,0.1400728822476623,1.007967458769654,0.7718673807942903,-0.42093765842803754,,-0.9147731544176416,-0.21096189392519094,0.20562400125000002,1.5351400762502028,0.27750873102360957,0.3465232421983311,0.8593531319324432,,-0.04730714937530631,-0.07404341185429444,0.0795457676,-0.07163176773016745,,-3.7938356e-05,4.1127205e-06,-2.9802322e-06,1.0,4.996732e-05,4.2818487e-05,-4.997477e-05,0.99999994,5.2452087e-06,-4.2803586e-05,-5.3346157e-06,1.0,748,2.292,0,0,0.0,False,-0.2636314318904893,1.0340653231093004
2.3189753179904073,13:42:22.089247,13:42:07.936485,0,,0.12174334,0.0017957836,0.03047657,-0.28337955,-0.93966,-0.191664,0.033289164,-0.20937435,0.9772686,-0.9584298,0.27055767,0.0906128,,0.07007441,-0.007829778,0.02264762,-0.66594887,-0.50016654,0.55348474,-0.051044643,0.77075183,0.63508725,-0.74424887,0.39468324,-0.5388122,,0.107101284,1.344133,0.44330186,0.99579614,0.01813798,-0.08978345,-0.04449345,-0.76100504,-0.6472184,-0.0800649,0.64849234,-0.7569989,,-0.0882281,0.26337475,-0.09048621,0.36532912,0.9133131,0.17998292,-0.59764683,0.08188802,0.7975667,0.7136896,-0.39894056,0.57575476,,-0.032461613,0.40021583,-0.35033372,0.7303486,0.37282962,-0.57235396,-0.57605594,0.78646904,-0.222769,0.36708376,0.49240693,0.7891672,,0.9117844567953167,0.3350353202824819,0.19576053064,0.12015233761663245,1.0157557392562842,0.7564502201279918,-0.4214276906264407,,-0.9147654316847674,-0.21096961665806516,0.20562400125000002,1.5351400762502028,0.27750873102360957,0.3465232421983311,0.8593531319324432,,-0.04730714937530631,-0.07404341185429444,0.0795457676,-0.07163176773016745,,-3.7938356e-05,4.1127205e-06,-2.9802322e-06,1.0,4.996732e-05,4.2818487e-05,-4.997477e-05,0.99999994,5.2452087e-06,-4.2803586e-05,-5.3346157e-06,1.0,777,2.383,0,0,0.0,False,-0.2634526987349264,1.0336790815030648
2.347590632009087,13:42:22.165029,13:42:08.134954,0,,0.12165046,0.001968503,0.030572534,-0.25391424,-0.94788414,-0.19246611,0.03884697,-0.20882112,0.9771818,-0.9664463,0.24064372,0.08984497,,0.07007301,-0.00782726,0.022649288,-0.6659497,-0.5001722,0.5534786,-0.05104047,0.77074265,0.6350988,-0.74424833,0.3946941,-0.5388049,,0.107101284,1.344133,0.44330186,0.99579614,0.01813798,-0.08978345,-0.04449345,-0.76100504,-0.6472184,-0.0800649,0.64849234,-0.7569989,,-0.08814444,0.26357263,-0.09044729,0.3366526,0.92409885,0.18084888,-0.6006507,0.06283648,0.79703844,0.7251784,-0.37695208,0.57621473,,-0.03246066,0.40021873,-0.35033235,0.7303489,0.37283534,-0.57234985,-0.5760534,0.7864745,-0.2227562,0.36708716,0.49239382,0.78917384,,0.9108886197819067,0.33504304301535615,0.19591349286,0.07632713942836687,1.035841304721804,0.7197337819896178,-0.42224441095711174,,-0.9147654316847674,-0.21095417119231671,0.20562270496,1.5351400762502028,0.27750873102360957,0.3465232421983311,0.8590264438001746,,-0.04730714937530631,-0.07404341185429444,0.0795457676,-0.07163176773016745,,-3.7938356e-05,4.1127205e-06,-2.9802322e-06,1.0,4.996732e-05,4.2818487e-05,-4.997477e-05,0.99999994,5.2452087e-06,-4.2803586e-05,-5.3346157e-06,1.0,785,2.407,0,0,0.0,False,-0.26428678679422024,1.0335825211015057
2.42335536700557,13:42:22.194994,13:42:08.134954,0,,0.12160765,0.0020371675,0.030591935,-0.24394895,-0.9519533,-0.18513183,0.04086709,-0.20082068,0.9787751,-0.96892655,0.23120537,0.08789343,,0.07007301,-0.00782726,0.022649288,-0.6659497,-0.5001722,0.5534786,-0.05104047,0.77074265,0.6350988,-0.74424833,0.3946941,-0.5388049,,0.107101284,1.344133,0.44330186,0.99579614,0.01813798,-0.08978345,-0.04449345,-0.76100504,-0.6472184,-0.0800649,0.64849234,-0.7569989,,-0.08810369,0.26363912,-0.090418294,0.3269336,0.9289459,0.17370647,-0.60140836,0.06272443,0.79647577,0.7289873,-0.3648632,0.57918257,,-0.03246066,0.40021873,-0.35033235,0.7303489,0.37283534,-0.57234985,-0.5760534,0.7864745,-0.2227562,0.36708716,0.49239382,0.78917384,,0.9106183241313088,0.33505076574823034,0.19598089994,0.061019773553996584,1.0425364932103107,0.698837022821927,-0.4207743143619034,,-0.9147654316847674,-0.21095417119231671,0.20562270496,1.5351400762502028,0.27750873102360957,0.3465232421983311,0.8590264438001746,,-0.04730714937530631,-0.07404341185429444,0.0795457676,-0.07163176773016745,,-3.7938356e-05,4.1127205e-06,-2.9802322e-06,1.0,4.996732e-05,4.2818487e-05,-4.997477e-05,0.99999994,5.2452087e-06,-4.2803586e-05,-5.3346157e-06,1.0,793,2.432,0,0,0.0,False,-0.26422720907569985,1.0334376804991676
2.4533377079933416,13:42:22.224417,13:42:08.134954,0,,0.12153964,0.002117157,0.030655026,-0.22954586,-0.9551651,-0.18699822,0.044498682,-0.20222674,0.97832716,-0.97228,0.2162498,0.08892381,,0.07007301,-0.00782726,0.022649288,-0.6659497,-0.5002174,0.5534377,-0.05104047,0.77069074,0.63516176,-0.74424833,0.39473808,-0.5387727,,0.107101284,1.344133,0.44330186,0.99579614,0.01813798,-0.08978345,-0.04449345,-0.76100504,-0.6472184,-0.0800649,0.64849234,-0.7569989,,-0.08804167,0.2637447,-0.09041562,0.31286418,0.9334471,0.17547786,-0.60182047,0.051895957,0.7969435,0.734798,-0.35494125,0.57800394,,-0.03246066,0.40021873,-0.35033235,0.7303489,0.37288207,-0.5723194,-0.5760534,0.7864927,-0.22269197,0.36708716,0.49232936,0.7892141,,0.9102476329533461,0.3350584884811046,0.19604182557000002,0.039002329488121525,1.0526475941929532,0.681934151493492,-0.42355116348618616,,-0.9147654316847674,-0.21095417119231671,0.20562270496,1.5351400762502028,0.27750873102360957,0.3466049209384717,0.8588630997340403,,-0.04730714937530631,-0.07404341185429444,0.0795457676,-0.07163176773016745,,-3.7938356e-05,4.1127205e-06,-2.9802322e-06,1.0,4.996732e-05,4.2818487e-05,-4.997477e-05,0.99999994,5.2452087e-06,-4.2803586e-05,-5.3346157e-06,1.0,809,2.481,0,0,0.0,False,-0.2639888982016152,1.0334859606999471
2.4827576570096426,13:42:22.272962,13:42:08.134954,0,,0.12153129,0.0021833777,0.0306561,-0.2141701,-0.9581481,-0.1899561,0.0481731,-0.2045925,0.977661,-0.9756077,0.20023502,0.08997443,,0.07007238,-0.007827677,0.022650361,-0.6659497,-0.5002174,0.5534377,-0.05104047,0.77069074,0.63516176,-0.74424833,0.39473808,-0.5387727,,0.107101284,1.344133,0.44330186,0.99579614,0.01813798,-0.08978345,-0.04449345,-0.76100504,-0.6472184,-0.0800649,0.64849234,-0.7569989,,-0.08803366,0.2637951,-0.090372585,0.2978234,0.93781537,0.17833558,-0.6022424,0.039634448,0.79732877,0.74067897,-0.34486443,0.57659626,,-0.032460093,0.40021953,-0.35033318,0.7303489,0.37288207,-0.5723194,-0.5760534,0.7864927,-0.22269197,0.36708716,0.49232936,0.7892141,,0.9093826868714329,0.3350353202824819,0.19615460280000002,0.015517055817854803,1.0630319681751266,0.6648084443576644,-0.42338781942005177,,-0.9147654316847674,-0.21095417119231671,0.20562140867000003,1.5351400762502028,0.27750873102360957,0.3466049209384717,0.8588630997340403,,-0.04730714937530631,-0.07404341185429444,0.0795457676,-0.07163176773016745,,-3.7938356e-05,4.1127205e-06,-2.9802322e-06,1.0,4.996732e-05,4.2818487e-05,-4.997477e-05,0.99999994,5.2452087e-06,-4.2803586e-05,-5.3346157e-06,1.0,817,2.505,0,0,0.0,False,-0.2629164992682367,1.0336790815030648
2.5313053379941266,13:42:22.293332,13:42:08.134954,0,,0.12150638,0.0022161454,0.030662417,-0.20555563,-0.9592779,-0.19373365,0.04873362,-0.20774888,0.97696733,-0.9774313,0.1913798,0.08945295,,0.070071995,-0.007826231,0.022650719,-0.6659501,-0.50022024,0.5534346,-0.051038414,0.77068615,0.63516754,-0.74424815,0.3947435,-0.53876907,,0.107101284,1.344133,0.44330186,0.99579614,0.01813798,-0.08978345,-0.04449345,-0.76100504,-0.6472184,-0.0800649,0.64849234,-0.7569989,,-0.088009484,0.26382515,-0.09035685,0.2893978,0.9397189,0.1821463,-0.6035637,0.031451013,0.7966942,0.74293995,-0.34049845,0.5762821,,-0.0324599,0.40022057,-0.35033208,0.730349,0.37288493,-0.5723173,-0.5760521,0.78649545,-0.22268558,0.36708885,0.4923228,0.78921735,,0.9089116001661052,0.3350121520838592,0.19619867666000002,0.0006290698304535731,1.0674043361676209,0.6555255596295397,-0.42273444315551445,,-0.9147654316847674,-0.2109464484594425,0.20562140867000003,1.5351400762502028,0.27750873102360957,0.3466049209384717,0.8588630997340403,,-0.04730714937530631,-0.07404341185429444,0.0795457676,-0.07163176773016745,,-3.7938356e-05,4.1127205e-06,-2.9802322e-06,1.0,4.996732e-05,4.2818487e-05,-4.997477e-05,0.99999994,5.2452087e-06,-4.2803586e-05,-5.3346157e-06,1.0,842,2.583,0,0,0.0,False,-0.2634526987349264,1.0343067241131978
2.5516640770074446,13:42:22.373820,13:42:08.299899,0,,0.12142302,0.002290681,0.030643225,-0.17015207,-0.96567535,-0.19626357,0.05185926,-0.20766701,0.9768238,-0.98405224,0.15603055,0.08541411,,0.07007152,-0.007829286,0.022649229,-0.6659541,-0.50012374,0.55351704,-0.05104649,0.7707987,0.6350302,-0.74424404,0.39464593,-0.5388462,,0.107101284,1.344133,0.44330186,0.99579614,0.01813798,-0.08978345,-0.04449345,-0.76100504,-0.6472184,-0.0800649,0.64849234,-0.7569989,,-0.08792502,0.2638727,-0.09029791,0.25469217,0.9491578,0.1850174,-0.60780114,0.008312518,0.7940458,0.75213677,-0.31469104,0.57901627,,-0.032458957,0.40021786,-0.35033396,0.73035353,0.37278527,-0.57237655,-0.57605207,0.7864544,-0.22283067,0.36708003,0.49246386,0.7891334,,0.9066102257695863,0.33472641096751293,0.19638923129000002,-0.06122946349748111,1.0853037176368934,0.6031942363003688,-0.42240775502324635,,-0.9147577089518931,-0.21096189392519094,0.20562140867000003,1.5351400762502028,0.27750873102360957,0.34644156345819055,0.8591897878663088,,-0.04730714937530631,-0.07404341185429444,0.0795457676,-0.07163176773016745,,-3.7938356e-05,4.1127205e-06,-2.9802322e-06,1.0,4.996732e-05,4.2818487e-05,-4.997477e-05,0.99999994,5.2452087e-06,-4.2803586e-05,-5.3346157e-06,1.0,850,2.608,0,0,0.0,False,-0.26392932048309437,1.0338722023061826
2.6321399720036425,13:42:22.396154,13:42:08.299899,0,,0.12137535,0.0022953004,0.030625105,-0.1612033,-0.96701586,-0.1972147,0.05062142,-0.20766687,0.9768888,-0.98562205,0.14749442,0.08242822,,0.07007113,-0.007830642,0.022650063,-0.6658967,-0.50027895,0.5534458,-0.05123827,0.77075714,0.63506526,-0.74428225,0.39453024,-0.53887814,,0.107101284,1.344133,0.44330186,0.99579614,0.01813798,-0.08978345,-0.04449345,-0.76100504,-0.6472184,-0.0800649,0.64849234,-0.7569989,,-0.08787597,0.26386696,-0.09028438,0.24591723,0.9512336,0.18622372,-0.6103085,0.002698109,0.79215926,0.75302607,-0.30845952,0.5812095,,-0.032458495,0.40021798,-0.35033554,0.7303218,0.3729538,-0.57230717,-0.57618725,0.78635514,-0.22283135,0.36693087,0.49249467,0.78918356,,0.9060078526053968,0.33457967904290264,0.19642423112000001,-0.07905310869366569,1.0877631746326715,0.5879567581310621,-0.4237145075523203,,-0.9147577089518931,-0.21096961665806516,0.20562011238000003,1.5349303863067183,0.27750873102360957,0.34644156345819055,0.8591897878663088,,-0.04730714937530631,-0.07404341185429444,0.0795457676,-0.07163176773016745,,-3.7938356e-05,4.1127205e-06,-2.9802322e-06,1.0,4.996732e-05,4.2818487e-05,-4.997477e-05,0.99999994,5.2452087e-06,-4.2803586e-05,-5.3346157e-06,1.0,862,2.645,0,0,0.0,False,-0.2641080536386573,1.0343067241131978
2.6544855470128823,13:42:22.427347,13:42:08.299899,0,,0.121292934,0.002282381,0.030580103,-0.14490302,-0.9687737,-0.20119785,0.048817813,-0.21009624,0.976461,-0.9882407,0.13167012,0.077736944,,0.07007074,-0.007829182,0.02265042,-0.6658971,-0.5002819,0.5534428,-0.051236182,0.77075255,0.63507104,-0.744282,0.39453572,-0.5388745,,0.107101284,1.344133,0.44330186,0.99579614,0.01813798,-0.08978345,-0.04449345,-0.76100504,-0.6472184,-0.0800649,0.64849234,-0.7569989,,-0.087789916,0.2638323,-0.090264864,0.22991128,0.95436496,0.19060008,-0.6143801,-0.009557607,0.7889523,0.75477004,-0.29848993,0.5841454,,-0.032458305,0.40021902,-0.3503344,0.730322,0.3729567,-0.5723051,-0.576186,0.78635794,-0.22282495,0.36693257,0.49248812,0.7891869,,0.9048262744756405,0.3342398787964368,0.19648904562000002,-0.11134535999028242,1.0924088156246963,0.5627687194885564,-0.4237145075523201,,-0.9147577089518931,-0.21096189392519094,0.20562011238000003,1.5349303863067183,0.27750873102360957,0.34644156345819055,0.8591897878663088,,-0.04730714937530631,-0.07404341185429444,0.0795457676,-0.07163176773016745,,-3.7938356e-05,4.1127205e-06,-2.9802322e-06,1.0,4.996732e-05,4.2818487e-05,-4.997477e-05,0.99999994,5.2452087e-06,-4.2803586e-05,-5.3346157e-06,1.0,870,2.669,0,0,0.0,False,-0.26351227645344677,1.0340653231093004
2.6856931659858674,13:42:22.457231,13:42:08.441148,0,,0.12129237,0.0022527426,0.030554682,-0.1395931,-0.96979964,-0.20000558,0.049372405,-0.2085487,0.9767648,-0.98897725,0.12647489,0.07699323,,0.070071906,-0.007833533,0.022649407,-0.6658959,-0.5002733,0.55345184,-0.05124244,0.7707664,0.6350537,-0.74428266,0.3945194,-0.5388855,,0.107101284,1.344133,0.44330186,0.99579614,0.01813798,-0.08978345,-0.04449345,-0.76100504,-0.6472184,-0.0800649,0.64849234,-0.7569989,,-0.087787054,0.26379338,-0.09026594,0.22468352,0.9558327,0.18947583,-0.6147808,-0.011813092,0.78860956,0.75601715,-0.29367366,0.5849734,,-0.03245888,0.4002159,-0.35033774,0.7303215,0.37294808,-0.5723112,-0.5761898,0.78634965,-0.22284415,0.36692747,0.4925078,0.789177,,0.9042779604415705,0.3340468104745812,0.19651626771000003,-0.12078140744708603,1.0950049091202398,0.5531373352253927,-0.42273444315551445,,-0.9147577089518931,-0.2109850621238136,0.20562011238000003,1.5349303863067183,0.27750873102360957,0.34644156345819055,0.8591897878663088,,-0.04730714937530631,-0.07404341185429444,0.0795457676,-0.07163176773016745,,-3.7938356e-05,4.1127205e-06,-2.9802322e-06,1.0,4.996732e-05,4.2818487e-05,-4.997477e-05,0.99999994,5.2452087e-06,-4.2803586e-05,-5.3346157e-06,1.0,878,2.694,0,0,0.0,False,-0.2639888982016152,1.0337273617038443
2.715552148001734,13:42:22.484601,13:42:08.441148,0,,0.12117234,0.0022399575,0.030567825,-0.12343881,-0.9704238,-0.20746188,0.051157504,-0.21500564,0.9752719,-0.9910326,0.1097732,0.07618442,,0.07007269,-0.007836424,0.022648811,-0.66589504,-0.5002676,0.55345803,-0.051246583,0.7707756,0.63504213,-0.7442831,0.39450863,-0.5388928,,0.107101284,1.344133,0.44330186,0.99579614,0.01813798,-0.08978345,-0.04449345,-0.76100504,-0.6472184,-0.0800649,0.64849234,-0.7569989,,-0.08766858,0.2637999,-0.0902917,0.2087628,0.9579235,0.19697888,-0.6158035,-0.027712805,0.7874123,0.7597396,-0.28568268,0.5841072,,-0.032459263,0.4002138,-0.35033998,0.7303212,0.37294236,-0.57231534,-0.5761923,0.7863442,-0.22285695,0.36692405,0.4925209,0.7891704,,0.9034130143596574,0.33373790115961216,0.19655126754000002,-0.1516058291393111,1.1023832801075737,0.5332353826018902,-0.4214276906264407,,-0.9147577089518931,-0.21100050758956204,0.20562011238000003,1.5349303863067183,0.27750873102360957,0.34644156345819055,0.8591897878663088,,-0.04730714937530631,-0.07404341185429444,0.0795457676,-0.07163176773016745,,-3.7938356e-05,4.1127205e-06,-2.9802322e-06,1.0,4.996732e-05,4.2818487e-05,-4.997477e-05,0.99999994,5.2452087e-06,-4.2803586e-05,-5.3346157e-06,1.0,907,2.784,0,0,0.0,False,-0.2645250976683049,1.0337756419046236
2.7429409509932157,13:42:22.568875,13:42:08.441148,0,,0.120956585,0.0021735132,0.030451626,-0.09593153,-0.97392434,-0.205593,0.043845892,-0.21047969,0.97661436,-0.9944218,0.08467372,0.062894106,,0.07007062,-0.007836662,0.022647023,-0.66599417,-0.50029796,0.5533113,-0.051296383,0.7707069,0.6351216,-0.74419105,0.3946044,-0.53894985,,0.107101284,1.344133,0.44330186,0.99579614,0.01813798,-0.08978345,-0.04449345,-0.76100504,-0.6472184,-0.0800649,0.64849234,-0.7569989,,-0.08744335,0.2636861,-0.09026369,0.18167642,0.96357334,0.19626547,-0.62515575,-0.040888228,0.7794283,0.7590613,-0.26430023,0.59495497,,-0.032457028,0.40021247,-0.35033917,0.7304169,0.37297177,-0.57217413,-0.5761246,0.78639656,-0.22284721,0.36684006,0.49241495,0.7892755,,0.9014437174767301,0.3330737461324289,0.19662256349,-0.21115777308891603,1.1042961911042897,0.47686909731582316,-0.4232244753539174,,-0.9147499862190189,-0.21100050758956204,0.20562011238000003,1.5349303863067183,0.2773720945238441,0.34655298136188695,0.8595164759985775,,-0.04730714937530631,-0.07404341185429444,0.0795457676,-0.07163176773016745,,-3.7938356e-05,4.1127205e-06,-2.9802322e-06,1.0,4.996732e-05,4.2818487e-05,-4.997477e-05,0.99999994,5.2452087e-06,-4.2803586e-05,-5.3346157e-06,1.0,915,2.809,0,0,0.0,False,-0.26428678679422024,1.0339204825069621
