AlexandreBanks6/ExpertPlaybackApp/resources/Motions/Pilot_06/PC1/Data_PC1_8.csv
Task Time,PC1 Time,PC2 Time,Gaze Calib,s_T_psm1,Tx,Ty,Tz,R00,R01,R02,R10,R11,R12,R20,R21,R22,s_T_psm3,Tx,Ty,Tz,R00,R01,R02,R10,R11,R12,R20,R21,R22,cart_T_ecm,Tx,Ty,Tz,R00,R01,R02,R10,R11,R12,R20,R21,R22,ecm_T_psm1,Tx,Ty,Tz,R00,R01,R02,R10,R11,R12,R20,R21,R22,ecm_T_psm3,Tx,Ty,Tz,R00,R01,R02,R10,R11,R12,R20,R21,R22,psm1_joints,q1,q2,q3,q4,q5,q6,jaw,psm3_joints,q1,q2,q3,q4,q5,q6,jaw,ecm_joints,q1,q2,q3,q4,ecmi_T_ecm,Tx,Ty,Tz,R00,R01,R02,R10,R11,R12,R20,R21,R22,Sample #,Task Duration (s),Collisions (binary),Collisions (increments),Cumulative Collision Time (s),Clutch Press,MTMR Angle,MTML Angle
""
lci_T_si,,,,,-0.06259683,0.01659313,0.23760831,0.9956777,0.007211218,0.092595145,0.06714547,-0.7446932,-0.6640207,0.064166576,0.667368,-0.7419586
rci_T_si,,,,,-0.07226873,0.020610977,0.24667586,0.9915926,-0.008221844,0.1291379,0.082045324,-0.731784,-0.6765802,0.100063786,0.681487,-0.724957
ecm_T_lc,,,,,-4.4061628e-05,-0.00034663224,-0.01840835,-0.99912,0.030754527,0.028518902,-0.031987965,-0.99852574,-0.043852776,0.027128186,-0.04472645,0.9986309
ecm_T_rc,,,,,-0.0043358393,0.01870579,-0.007592615,-0.99555075,-0.052743673,-0.078081585,0.04863213,-0.9973746,0.053654674,-0.08070653,0.04961868,0.9955021
cart_T_ecmi,,,,,0.107138716,1.3441325,0.44329387,0.9957932,0.018087745,-0.08982618,-0.04455919,-0.76100624,-0.64721245,-0.0800649,0.64849234,-0.7569989
ecmac_T_ecmrep_psm1,,,,,0.009765618,-0.25445068,-0.30803946,0.99882644,0.038876563,0.028886087,-0.03766685,0.99843633,-0.041304655,-0.030446703,0.040168133,0.99872893
ecmac_T_ecmrep_psm3,,,,,-0.021997124,-0.45765886,-0.55608475,0.99248636,-0.054456197,0.10956896,0.02285623,0.96224946,0.27120772,-0.12020161,-0.2666656,0.9562641
""
0,13:39:58.870716,13:39:44.781714,0,,0.12469479,-0.0016798824,0.01659377,-0.88095796,-0.08204597,-0.46602744,-0.43508092,-0.24679676,0.8659075,-0.18605827,0.96558774,0.18172088,,0.072286874,-0.017328382,0.046759903,0.7587305,-0.42726517,0.4917035,-0.16520476,0.60394347,0.7797176,-0.6301074,-0.67282724,0.38764414,,0.10711747,1.3441324,0.4433026,0.9957949,0.018116873,-0.08980141,-0.04452107,-0.7610056,-0.6472159,-0.0800649,0.64849234,-0.7569989,,-0.08996562,0.2513535,-0.0823579,0.8951384,-0.001232233,0.44578663,-0.3939105,0.46600384,0.7922594,-0.20871453,-0.88478184,0.41665253,,-0.035710245,0.4159434,-0.37079355,-0.67668456,0.41357586,-0.6091412,-0.723922,-0.22282517,0.6529057,0.13429405,0.8827819,0.45017904,,0.8654171686184727,0.34082736993815027,0.20223938806000002,0.5940516098916575,-0.09660200533416641,1.3581065647349964,-0.4010096823596556,,-1.028575346052214,-0.27608770025352625,0.18909371117,-0.4487364790568821,1.0909058141272765,-1.1488088643183731,0.8389351236656581,,-0.04730714937530631,-0.07404341185429444,0.0795457676,-0.07163176773016745,,-2.1852553e-05,5.3048134e-06,-4.6491623e-06,1.0,2.8971583e-05,2.4825335e-05,-2.8979033e-05,1.0,3.0398369e-06,-2.4817884e-05,-3.0696392e-06,1.0,35,0.104,0,0,0.0,False,-0.26255903295711036,1.0118564307507496
0.1292865069990512,13:39:58.895166,13:39:44.781714,0,,0.12472769,-0.0018774122,0.017065778,-0.8813492,-0.08483878,-0.46478596,-0.4317585,-0.2548461,0.8652387,-0.19185466,0.9632527,0.1879785,,0.07228581,-0.017328471,0.04675913,0.7587268,-0.4273517,0.49163404,-0.16520426,0.6038131,0.7798187,-0.63011205,-0.67288935,0.38752893,,0.10711747,1.3441324,0.4433026,0.9957949,0.018116873,-0.08980141,-0.04452107,-0.7610056,-0.6472159,-0.0800649,0.64849234,-0.7569989,,-0.09003872,0.25151983,-0.08283737,0.8960205,0.001777856,0.4440092,-0.39528778,0.4586388,0.7958631,-0.20222493,-0.88862103,0.4116525,,-0.035709113,0.41594282,-0.37079316,-0.67668056,0.41368175,-0.60907376,-0.72392523,-0.22293146,0.6528659,0.134297,0.8827055,0.45032805,,0.8653862776869758,0.3409354881983894,0.20172735351,0.594680679722111,-0.09004345334542525,1.3641118502371063,-0.40019296202898413,,-1.0285676233193397,-0.27608770025352625,0.18909371117,-0.4487364790568821,1.0909058141272765,-1.148645506838092,0.8379550592688525,,-0.04730714937530631,-0.07404341185429444,0.0795457676,-0.07163176773016745,,-2.1852553e-05,5.3048134e-06,-4.6491623e-06,1.0,2.8971583e-05,2.4825335e-05,-2.8979033e-05,1.0,3.0398369e-06,-2.4817884e-05,-3.0696392e-06,1.0,47,0.14,0,0,0.0,False,-0.2617249448978165,1.0123875129593234
0.15372721300809644,13:39:58.934288,13:39:44.883375,0,,0.12471312,-0.002379343,0.017706886,-0.88206935,-0.088380545,-0.4627552,-0.42798752,-0.26025242,0.8655029,-0.19692677,0.96148705,0.19173491,,0.07228945,-0.017327622,0.04675871,0.75873417,-0.42713848,0.49180788,-0.16520527,0.6041376,0.7795671,-0.6301028,-0.6727335,0.3878144,,0.10711747,1.3441324,0.4433026,0.9957949,0.018116873,-0.08980141,-0.04452107,-0.7610056,-0.6472159,-0.0800649,0.64849234,-0.7569989,,-0.090078235,0.25157583,-0.08364884,0.897166,0.005476391,0.4416595,-0.39582896,0.45366108,0.7984429,-0.19599114,-0.89115745,0.40917704,,-0.035712782,0.4159424,-0.37079245,-0.6766886,0.4134202,-0.6092424,-0.7239188,-0.22266555,0.6529637,0.1342911,0.8828951,0.4499579,,0.8650078637761389,0.3401014330479732,0.20092235742000003,0.5961485093265028,-0.08334826485691868,1.3681271068122869,-0.39953958576444704,,-1.0285830687850883,-0.27608770025352625,0.18909630375000003,-0.4487364790568821,1.0909058141272765,-1.1490539005387947,0.8384450914672554,,-0.04730714937530631,-0.07404341185429444,0.0795457676,-0.07163176773016745,,-2.1852553e-05,5.3048134e-06,-4.6491623e-06,1.0,2.8971583e-05,2.4825335e-05,-2.8979033e-05,1.0,3.0398369e-06,-2.4817884e-05,-3.0696392e-06,1.0,55,0.165,0,0,0.0,False,-0.26285692154971585,1.0113253485421754
0.1928023910149932,13:39:58.956725,13:39:44.883375,0,,0.1246474,-0.0026228428,0.017808035,-0.8832596,-0.09021288,-0.46012393,-0.42547774,-0.2581541,0.8673667,-0.1970305,0.96188253,0.18963355,,0.07228885,-0.01732716,0.046755135,0.7587268,-0.4271509,0.49180856,-0.16520426,0.6041316,0.779572,-0.63011205,-0.67273104,0.3878036,,0.10711747,1.3441324,0.4433026,0.9957949,0.018116873,-0.08980141,-0.04452107,-0.7610056,-0.6472159,-0.0800649,0.64849234,-0.7569989,,-0.09002076,0.2514665,-0.083890915,0.89835286,0.0072609154,0.43921456,-0.39396304,0.45559344,0.79826546,-0.19430712,-0.89015836,0.41214418,,-0.035711918,0.41593963,-0.37079018,-0.67668056,0.413433,-0.6092426,-0.72392523,-0.22266482,0.65295684,0.134297,0.88288933,0.44996753,,0.8648765773172771,0.3391283687058209,0.20071495102000003,0.5986647886483171,-0.08143535386020251,1.3658321474992716,-0.4010096823596556,,-1.0285676233193397,-0.27608770025352625,0.18909889633000002,-0.4487364790568821,1.0909058141272765,-1.1490539005387947,0.8384450914672554,,-0.04730714937530631,-0.07404341185429444,0.0795457676,-0.07163176773016745,,-2.1852553e-05,5.3048134e-06,-4.6491623e-06,1.0,2.8971583e-05,2.4825335e-05,-2.8979033e-05,1.0,3.0398369e-06,-2.4817884e-05,-3.0696392e-06,1.0,66,0.199,0,0,0.0,False,-0.26202283349042155,1.0117598703491906
0.2152610699995421,13:39:58.985105,13:39:44.883375,0,,0.12462592,-0.0029268116,0.018107548,-0.8831618,-0.09539808,-0.45926505,-0.4239447,-0.2566714,0.8685566,-0.20073886,0.961779,0.18623883,,0.07228854,-0.017325819,0.046755433,0.75872725,-0.42727455,0.49170032,-0.16519684,0.6039425,0.77972007,-0.63011324,-0.67282224,0.3876434,,0.10711747,1.3441324,0.4433026,0.9957949,0.018116873,-0.08980141,-0.04452107,-0.7610056,-0.6472159,-0.0800649,0.64849234,-0.7569989,,-0.09002438,0.251442,-0.084317446,0.8985722,0.012430868,0.43864962,-0.3953051,0.45693845,0.7968319,-0.19053057,-0.88941145,0.41550618,,-0.035711795,0.41594058,-0.37078917,-0.6766818,0.4135848,-0.6091382,-0.7239227,-0.22282009,0.65290666,0.13430403,0.88277906,0.45018172,,0.8646448953310504,0.3383715408841469,0.20030532338,0.5984550987048325,-0.07692634936794297,1.3628087865984144,-0.3997029298305812,,-1.0285676233193397,-0.276079977520652,0.18909889633000002,-0.4487364790568821,1.0909058141272765,-1.1488088643183731,0.837628371136584,,-0.04730714937530631,-0.07404341185429444,0.0795457676,-0.07163176773016745,,-2.1852553e-05,5.3048134e-06,-4.6491623e-06,1.0,2.8971583e-05,2.4825335e-05,-2.8979033e-05,1.0,3.0398369e-06,-2.4817884e-05,-3.0696392e-06,1.0,74,0.222,0,0,0.0,False,-0.26190367805337944,1.0113253485421754
0.2436706690059509,13:39:59.015894,13:39:44.883375,0,,0.12472819,-0.003164366,0.018569112,-0.88308835,-0.10197565,-0.45799112,-0.420964,-0.25890926,0.86934173,-0.20722984,0.96050346,0.18571165,,0.072283834,-0.017326713,0.046755016,0.7587161,-0.42733335,0.49166635,-0.16519532,0.6038697,0.7797768,-0.6301271,-0.67285025,0.38757235,,0.10711747,1.3441324,0.4433026,0.9957949,0.018116873,-0.08980141,-0.04452107,-0.7610056,-0.6472159,-0.0800649,0.64849234,-0.7569989,,-0.09016556,0.25156742,-0.084811695,0.8990526,0.019101288,0.43742374,-0.39742765,0.45482346,0.7969861,-0.18372712,-0.89037675,0.4165016,,-0.035706993,0.4159404,-0.37078947,-0.6766698,0.4136537,-0.60910475,-0.7239323,-0.22287232,0.65287817,0.13431287,0.8827336,0.45026827,,0.8641815313585969,0.33844876821288916,0.19978939996000003,0.5984550987048325,-0.07009452437967095,1.362301973302308,-0.3997029298305812,,-1.028544455120717,-0.276079977520652,0.18909630375000003,-0.4487364790568821,1.0909058141272765,-1.1487271855782324,0.8374650270704497,,-0.04730714937530631,-0.07404341185429444,0.0795457676,-0.07163176773016745,,-2.1852553e-05,5.3048134e-06,-4.6491623e-06,1.0,2.8971583e-05,2.4825335e-05,-2.8979033e-05,1.0,3.0398369e-06,-2.4817884e-05,-3.0696392e-06,1.0,82,0.247,0,0,0.0,False,-0.2620824112089424,1.0112287881406166
0.2744602599996142,13:39:59.036677,13:39:44.999099,0,,0.124848135,-0.0032744557,0.01874943,-0.88297075,-0.10755959,-0.45693934,-0.4183403,-0.26130307,0.86989194,-0.21296486,0.95924526,0.1857264,,0.072286606,-0.017326519,0.046754003,0.7587457,-0.42728734,0.4916609,-0.16531476,0.60376525,0.77983236,-0.6300603,-0.6729732,0.38746738,,0.10711747,1.3441324,0.4433026,0.9957949,0.018116873,-0.08980141,-0.04452107,-0.7610056,-0.6472159,-0.0800649,0.64849234,-0.7569989,,-0.090300344,0.25159875,-0.08501137,0.89942455,0.024780795,0.43637294,-0.39931348,0.4525443,0.7973408,-0.17771935,-0.89139754,0.41692477,,-0.035709668,0.41593927,-0.37078896,-0.67669123,0.41363084,-0.60909647,-0.7239379,-0.22303566,0.65281624,0.13417469,0.882703,0.45036933,,0.8636641082560238,0.3384719364115118,0.19958328985,0.5984550987048325,-0.06408251838999157,1.3624636674283805,-0.39774280103697013,,-1.0285521778535913,-0.276079977520652,0.18909760004,-0.4487364790568821,1.0907691776275112,-1.148615767674536,0.8374650270704497,,-0.04730714937530631,-0.07404341185429444,0.0795457676,-0.07163176773016745,,-2.1852553e-05,5.3048134e-06,-4.6491623e-06,1.0,2.8971583e-05,2.4825335e-05,-2.8979033e-05,1.0,3.0398369e-06,-2.4817884e-05,-3.0696392e-06,1.0,90,0.271,1,1,0.012,False,-0.2607717014014801,1.0111322277390575
0.29522426999756135,13:39:59.067219,13:39:44.999099,0,,0.12503609,-0.003353238,0.019110158,-0.88360536,-0.11614646,-0.4535985,-0.4121046,-0.26699138,0.87114024,-0.22228676,0.9566742,0.18805048,,0.0722824,-0.017324671,0.04675579,0.75866514,-0.42729554,0.4917778,-0.16495006,0.6042777,0.7795126,-0.63025266,-0.6725079,0.38796204,,0.10711747,1.3441324,0.4433026,0.9957949,0.018116873,-0.08980141,-0.04452107,-0.7610056,-0.6472159,-0.0800649,0.64849234,-0.7569989,,-0.09051861,0.2517696,-0.08531932,0.90084565,0.03357614,0.43283918,-0.40086558,0.4471247,0.79961634,-0.16668504,-0.89384127,0.41624984,,-0.035705887,0.4159423,-0.37078807,-0.6766361,0.41353992,-0.60921943,-0.7239123,-0.2223816,0.65306765,0.13459036,0.8829106,0.44983807,,0.8631698533520734,0.33902025044558176,0.19923458784000003,0.6003423081961932,-0.053698144407818095,1.363960713044601,-0.3944759197142842,,-1.028544455120717,-0.27607225478777775,0.18909760004,-0.4487364790568821,1.0911790871268074,-1.149195057606047,0.8373016830043154,,-0.04730714937530631,-0.07404341185429444,0.0795457676,-0.07163176773016745,,-2.1852553e-05,5.3048134e-06,-4.6491623e-06,1.0,2.8971583e-05,2.4825335e-05,-2.8979033e-05,1.0,3.0398369e-06,-2.4817884e-05,-3.0696392e-06,1.0,102,0.308,1,1,0.049,False,-0.2611887454311268,1.0107942663336016
0.32577424999908544,13:39:59.097710,13:39:44.999099,0,,0.1251683,-0.0033628494,0.019351453,-0.8832668,-0.12343331,-0.45233166,-0.40864953,-0.27033156,0.8717375,-0.22988097,0.95482194,0.18833387,,0.0722804,-0.017324567,0.04675579,0.7586357,-0.42738172,0.49174845,-0.16483063,0.6043184,0.7795063,-0.6303194,-0.67241657,0.38801193,,0.10711747,1.3441324,0.4433026,0.9957949,0.018116873,-0.08980141,-0.04452107,-0.7610056,-0.6472159,-0.0800649,0.64849234,-0.7569989,,-0.09067123,0.25191548,-0.08549602,0.9011562,0.041006643,0.43155065,-0.40338808,0.44384938,0.8001723,-0.15873112,-0.89516264,0.41651922,,-0.035703912,0.41594264,-0.37078783,-0.6766146,0.41361254,-0.60919404,-0.7239067,-0.22227156,0.65311134,0.13472854,0.8829043,0.44980907,,0.8629381713658467,0.33954539628102903,0.19902199628000003,0.6001326182527087,-0.045909863921187996,1.3638174767845876,-0.3912090383915987,,-1.028536732387843,-0.27607225478777775,0.18909760004,-0.4487364790568821,1.091315723626573,-1.149224796769603,0.8371383389381811,,-0.04730714937530631,-0.07404341185429444,0.0795457676,-0.07163176773016745,,-2.1852553e-05,5.3048134e-06,-4.6491623e-06,1.0,2.8971583e-05,2.4825335e-05,-2.8979033e-05,1.0,3.0398369e-06,-2.4817884e-05,-3.0696392e-06,1.0,110,0.333,1,1,0.074,False,-0.26243987752006825,1.010214903924248
0.35627925500739366,13:39:59.125179,13:39:44.999099,0,,0.12536499,-0.0033272207,0.019506589,-0.8840147,-0.12815946,-0.4495476,-0.4034664,-0.27648804,0.87222075,-0.23607787,0.95243347,0.19271144,,0.07227857,-0.01732497,0.04675603,0.75863206,-0.42738795,0.49174872,-0.16483012,0.60431534,0.77950877,-0.630324,-0.6724154,0.3880066,,0.10711747,1.3441324,0.4433026,0.9957949,0.018116873,-0.08980141,-0.04452107,-0.7610056,-0.6472159,-0.0800649,0.64849234,-0.7569989,,-0.09088074,0.25203353,-0.085574664,0.9024224,0.045941465,0.42839596,-0.4036297,0.4379708,0.8032837,-0.1507209,-0.8978146,0.413778,,-0.035702076,0.41594285,-0.3707882,-0.6766106,0.41361892,-0.60919416,-0.7239099,-0.2222712,0.6531079,0.13473147,0.88290143,0.4498139,,0.862397580064651,0.34024044223970923,0.19891181163000002,0.6024392076310385,-0.03894140243315053,1.3674465400720943,-0.3998662738967156,,-1.0285290096549686,-0.27607225478777775,0.18909630375000003,-0.4487364790568821,1.091315723626573,-1.149224796769603,0.8368116508059126,,-0.04730714937530631,-0.07404341185429444,0.0795457676,-0.07163176773016745,,-2.1852553e-05,5.3048134e-06,-4.6491623e-06,1.0,2.8971583e-05,2.4825335e-05,-2.8979033e-05,1.0,3.0398369e-06,-2.4817884e-05,-3.0696392e-06,1.0,131,0.398,1,1,0.139,False,-0.26249945523859,1.010745986132822
0.3837502610113006,13:39:59.186245,13:39:44.999099,0,,0.1255358,-0.0031725913,0.019849077,-0.8840097,-0.13647735,-0.4471025,-0.39958912,-0.2757473,0.87423784,-0.24260095,0.95149213,0.18922836,,0.07226672,-0.017321587,0.04674697,0.75859284,-0.427546,0.49167174,-0.16480231,0.6041607,0.7796346,-0.63037837,-0.6724539,0.38785142,,0.10711747,1.3441324,0.4433026,0.9957949,0.018116873,-0.08980141,-0.04452107,-0.7610056,-0.6472159,-0.0800649,0.64849234,-0.7569989,,-0.0910811,0.25236654,-0.0857138,0.902971,0.05430727,0.4262558,-0.4051039,0.4383953,0.8023094,-0.1432973,-0.8971401,0.41785833,,-0.03568994,0.41593835,-0.3707801,-0.6765702,0.41379628,-0.6091186,-0.7239377,-0.2223597,0.65304697,0.13478498,0.88279605,0.45000467,,0.8624207482632736,0.3418081570131768,0.19869014604000002,0.603068277461492,-0.03265612344394027,1.362321316502059,-0.40002961796284975,,-1.0284440595933522,-0.2760490865891551,0.18909760004,-0.4487364790568821,1.091315723626573,-1.149061439289322,0.836484962673644,,-0.04730714937530631,-0.07404341185429444,0.0795457676,-0.07163176773016745,,-2.1852553e-05,5.3048134e-06,-4.6491623e-06,1.0,2.8971583e-05,2.4825335e-05,-2.8979033e-05,1.0,3.0398369e-06,-2.4817884e-05,-3.0696392e-06,1.0,139,0.423,1,1,0.164,False,-0.26148663402373185,1.0103597445265864
0.4447532359918114,13:39:59.216632,13:39:44.999099,0,,0.12560853,-0.0030833185,0.0201516,-0.8822896,-0.14406276,-0.4481193,-0.3978268,-0.28062984,0.87348765,-0.2515927,0.9489429,0.19028479,,0.07226444,-0.017324701,0.046745837,0.75858444,-0.4275521,0.49167952,-0.1648162,0.6041505,0.7796395,-0.630385,-0.6724591,0.3878317,,0.10711747,1.3441324,0.4433026,0.9957949,0.018116873,-0.08980141,-0.04452107,-0.7610056,-0.6472159,-0.0800649,0.64849234,-0.7569989,,-0.09118008,0.25263026,-0.08587327,0.90203166,0.062100515,0.42717955,-0.40989903,0.43352798,0.8025187,-0.13535747,-0.8989978,0.4165109,,-0.035687223,0.4159361,-0.37078208,-0.6765596,0.41380396,-0.6091251,-0.7239491,-0.22236842,0.6530314,0.1347768,0.8827902,0.4500185,,0.8628068849069849,0.34273488495808374,0.19846199900000003,0.6001326182527087,-0.02404802395871752,1.3629797901423975,-0.3992128976321785,,-1.0284286141276038,-0.27606453205490356,0.18909630375000003,-0.4487364790568821,1.091315723626573,-1.149061439289322,0.836484962673644,,-0.04730714937530631,-0.07404341185429444,0.0795457676,-0.07163176773016745,,-2.1852553e-05,5.3048134e-06,-4.6491623e-06,1.0,2.8971583e-05,2.4825335e-05,-2.8979033e-05,1.0,3.0398369e-06,-2.4817884e-05,-3.0696392e-06,1.0,156,0.476,1,1,0.217,False,-0.26202283349042155,1.0103597445265864
0.4751734400051646,13:39:59.258569,13:39:44.999099,0,,0.1256747,-0.0028853863,0.020537525,-0.88049376,-0.15546516,-0.44784057,-0.39235473,-0.29121506,0.8724973,-0.26606086,0.9439408,0.19541553,,0.07225699,-0.017325267,0.046740234,0.7585584,-0.42759562,0.49168175,-0.1648127,0.60412914,0.77965677,-0.6304171,-0.6724506,0.38779417,,0.10711747,1.3441324,0.4433026,0.9957949,0.018116873,-0.08980141,-0.04452107,-0.7610056,-0.6472159,-0.0800649,0.64849234,-0.7569989,,-0.09128008,0.25303072,-0.08602204,0.90148026,0.07392699,0.42645997,-0.41559863,0.42302105,0.80519,-0.12087626,-0.9030991,0.41206908,,-0.035679292,0.415932,-0.37077934,-0.6765315,0.41384867,-0.6091259,-0.72397155,-0.22236586,0.6530074,0.13479742,0.8827699,0.45005217,,0.8637181673861434,0.34397052221795965,0.19822088906000002,0.597826028874379,-0.009427918483815391,1.3666587138137274,-0.40149971455805833,,-1.028374554997484,-0.27606453205490356,0.18909630375000003,-0.4487364790568821,1.091315723626573,-1.149061439289322,0.836484962673644,,-0.04730714937530631,-0.07404341185429444,0.0795457676,-0.07163176773016745,,-2.1852553e-05,5.3048134e-06,-4.6491623e-06,1.0,2.8971583e-05,2.4825335e-05,-2.8979033e-05,1.0,3.0398369e-06,-2.4817884e-05,-3.0696392e-06,1.0,164,0.501,1,1,0.242,False,-0.26190367805337944,1.0107942663336016
0.5171413219941314,13:39:59.288485,13:39:45.266598,0,,0.12570082,-0.0027644485,0.020747185,-0.880245,-0.15992954,-0.44675633,-0.3898703,-0.29294658,0.8730311,-0.27049923,0.9426583,0.19551301,,0.07225396,-0.01732257,0.046737373,0.7585483,-0.42762047,0.4916756,-0.16479632,0.60412407,0.7796641,-0.6304335,-0.6724393,0.3877871,,0.10711747,1.3441324,0.4433026,0.9957949,0.018116873,-0.08980141,-0.04452107,-0.7610056,-0.6472159,-0.0800649,0.64849234,-0.7569989,,-0.09132467,0.2532588,-0.08609449,0.90160954,0.07849121,0.42536968,-0.41673067,0.4211496,0.80558586,-0.11591286,-0.9035885,0.41242218,,-0.035676345,0.41593128,-0.3707754,-0.67652196,0.41387287,-0.6091201,-0.7239762,-0.22235532,0.65300584,0.13482033,0.8827612,0.45006236,,0.8642046995572196,0.3448200228341244,0.19809385264,0.597826028874379,-0.004782277491790415,1.3655659035126877,-0.3990495535660443,,-1.0283513867988614,-0.2760490865891551,0.18909760004,-0.4487364790568821,1.091315723626573,-1.149061439289322,0.836484962673644,,-0.04730714937530631,-0.07404341185429444,0.0795457676,-0.07163176773016745,,-2.1852553e-05,5.3048134e-06,-4.6491623e-06,1.0,2.8971583e-05,2.4825335e-05,-2.8979033e-05,1.0,3.0398369e-06,-2.4817884e-05,-3.0696392e-06,1.0,177,0.542,1,1,0.283,False,-0.26190367805337944,1.0105528653297042
0.5470317580038682,13:39:59.329760,13:39:45.266598,0,,0.12562609,-0.0025622994,0.020992458,-0.87811583,-0.16565242,-0.44885617,-0.39049387,-0.2939389,0.87241864,-0.2764546,0.94136024,0.19342616,,0.07225639,-0.017323717,0.046738684,0.75855523,-0.42760494,0.49167857,-0.16480476,0.6041282,0.77965915,-0.630423,-0.67244554,0.3877933,,0.10711747,1.3441324,0.4433026,0.9957949,0.018116873,-0.08980141,-0.04452107,-0.7610056,-0.6472159,-0.0800649,0.64849234,-0.7569989,,-0.09127212,0.25357705,-0.08614517,0.90000683,0.0843082,0.42764452,-0.42129585,0.4198926,0.8038657,-0.11179231,-0.90364945,0.4134249,,-0.035678737,0.41593152,-0.3707772,-0.67652875,0.41385758,-0.60912293,-0.72397226,-0.22236077,0.65300834,0.1348074,0.882767,0.45005485,,0.865424891351347,0.34582397810777354,0.19796681622,0.5936322300046885,0.00013663649976544044,1.3626166826014439,-0.40068299422738685,,-1.02836683226461,-0.2760568093220293,0.18909760004,-0.4487364790568821,1.091315723626573,-1.149061439289322,0.836484962673644,,-0.04730714937530631,-0.07404341185429444,0.0795457676,-0.07163176773016745,,-2.1852553e-05,5.3048134e-06,-4.6491623e-06,1.0,2.8971583e-05,2.4825335e-05,-2.8979033e-05,1.0,3.0398369e-06,-2.4817884e-05,-3.0696392e-06,1.0,185,0.566,1,1,0.307,False,-0.26190367805337944,1.0103114643258069
0.5882816110097338,13:39:59.356982,13:39:45.266598,0,,0.12560703,-0.0024931282,0.021048322,-0.87834674,-0.16464476,-0.44877502,-0.3899524,-0.29621243,0.87189174,-0.27648515,0.94082415,0.19597352,,0.07225532,-0.017323807,0.04673791,0.75855154,-0.42761117,0.49167883,-0.16480425,0.6041251,0.77966166,-0.63042766,-0.67244434,0.387788,,0.10711747,1.3441324,0.4433026,0.9957949,0.018116873,-0.08980141,-0.04452107,-0.7610056,-0.6472159,-0.0800649,0.64849234,-0.7569989,,-0.091258205,0.25366682,-0.08614133,0.90023786,0.08335797,0.42734438,-0.4209003,0.41778624,0.8051693,-0.11142133,-0.9047133,0.41119242,,-0.035677604,0.41593096,-0.3707768,-0.67652476,0.41386396,-0.60912305,-0.7239755,-0.2223604,0.6530049,0.13481034,0.8827641,0.45005965,,0.8657492461320644,0.3461869465528621,0.19794737187000003,0.5940516098916575,0.0002732729995308809,1.3647922694216832,-0.3997029298305812,,-1.0283591095317357,-0.2760568093220293,0.18909760004,-0.4487364790568821,1.091315723626573,-1.149061439289322,0.836484962673644,,-0.04730714937530631,-0.07404341185429444,0.0795457676,-0.07163176773016745,,-2.1852553e-05,5.3048134e-06,-4.6491623e-06,1.0,2.8971583e-05,2.4825335e-05,-2.8979033e-05,1.0,3.0398369e-06,-2.4817884e-05,-3.0696392e-06,1.0,198,0.607,1,1,0.348,False,-0.2608312791200009,1.0099735029203507
0.6155376209935639,13:39:59.399174,13:39:45.266598,0,,0.12558602,-0.0023379922,0.021164551,-0.87846446,-0.16293202,-0.4491697,-0.38998508,-0.29864824,0.87104577,-0.27606502,0.9403522,0.19881082,,0.0722497,-0.017321825,0.04673624,0.75853777,-0.4275619,0.49174285,-0.16478738,0.6042444,0.7795728,-0.6304485,-0.67236847,0.3878855,,0.10711747,1.3441324,0.4433026,0.9957949,0.018116873,-0.08980141,-0.04452107,-0.7610056,-0.6472159,-0.0800649,0.64849234,-0.7569989,,-0.09124785,0.25386083,-0.08612471,0.90031874,0.08170029,0.42749417,-0.42063713,0.41555944,0.8064582,-0.11176137,-0.9058893,0.40850213,,-0.035672117,0.41593122,-0.37077394,-0.67651117,0.41379505,-0.6091849,-0.7239833,-0.22224282,0.65303624,0.1348362,0.88282603,0.44993046,,0.8663052828990085,0.34705189263477526,0.1979175572,0.5940516098916575,-0.0005465459990617618,1.3667676366861108,-0.40019296202898413,,-1.0283282186002387,-0.27604136385628086,0.18909630375000003,-0.4487364790568821,1.091315723626573,-1.149224796769603,0.836484962673644,,-0.04730714937530631,-0.07404341185429444,0.0795457676,-0.07163176773016745,,-2.1852553e-05,5.3048134e-06,-4.6491623e-06,1.0,2.8971583e-05,2.4825335e-05,-2.8979033e-05,1.0,3.0398369e-06,-2.4817884e-05,-3.0696392e-06,1.0,206,0.632,0,1,0.357,False,-0.26243987752006825,1.0096838217156738
0.6576989210152533,13:39:59.420275,13:39:45.266598,0,,0.12561278,-0.0021719038,0.02125822,-0.8762823,-0.16411652,-0.45298466,-0.39319658,-0.29974678,0.86922276,-0.27843451,0.93979657,0.19813275,,0.072248794,-0.01731895,0.04673499,0.75853515,-0.4275744,0.49173602,-0.164772,0.6042454,0.7795752,-0.63045573,-0.6723596,0.3878892,,0.10711747,1.3441324,0.4433026,0.9957949,0.018116873,-0.08980141,-0.04452107,-0.7610056,-0.6472159,-0.0800649,0.64849234,-0.7569989,,-0.09128315,0.254045,-0.08608105,0.89836043,0.08293195,0.43135926,-0.4247342,0.4144447,0.8048829,-0.11202406,-0.90628797,0.40754476,,-0.035671435,0.4159317,-0.3707708,-0.6765097,0.4138065,-0.6091788,-0.7239815,-0.222233,0.65304154,0.1348532,0.8828231,0.44993106,,0.8666682513440972,0.34799406604543065,0.19791496462000002,0.5894384311349979,-0.0004099094992963213,1.3664928613021332,-0.4005196501612527,,-1.0283204958673646,-0.2760259183905324,0.18909760004,-0.4487364790568821,1.091315723626573,-1.149224796769603,0.8361582745413755,,-0.04730714937530631,-0.07404341185429444,0.0795457676,-0.07163176773016745,,-2.1852553e-05,5.3048134e-06,-4.6491623e-06,1.0,2.8971583e-05,2.4825335e-05,-2.8979033e-05,1.0,3.0398369e-06,-2.4817884e-05,-3.0696392e-06,1.0,219,0.673,0,1,0.357,False,-0.26196325577190027,1.0101666237234685
0.6788449760060757,13:39:59.467322,13:39:45.434466,0,,0.12567669,-0.0018183589,0.02144818,-0.8766826,-0.16658825,-0.45130476,-0.3906271,-0.30103895,0.86993444,-0.28078118,0.93894815,0.19884175,,0.07225153,-0.017321408,0.04673606,0.7585415,-0.42759588,0.49170762,-0.16478789,0.60418373,0.7796197,-0.63044393,-0.67240137,0.38783592,,0.10711747,1.3441324,0.4433026,0.9957949,0.018116873,-0.08980141,-0.04452107,-0.7610056,-0.6472159,-0.0800649,0.64849234,-0.7569989,,-0.0913644,0.25443035,-0.085980736,0.8989547,0.085472,0.42962196,-0.4243682,0.41306874,0.80578274,-0.10859153,-0.90668005,0.40760168,,-0.035673954,0.41593105,-0.3707736,-0.6765152,0.41383842,-0.609151,-0.72398007,-0.22229652,0.6530215,0.13483325,0.8827922,0.44999775,,0.8674482473643939,0.34992474926398676,0.19791885349000002,0.5904868808524206,0.0016396379971852853,1.364984950226968,-0.40019296202898413,,-1.028335941333113,-0.27604136385628086,0.18909760004,-0.4487364790568821,1.091315723626573,-1.1491431180294622,0.8356682423429725,,-0.04730714937530631,-0.07404341185429444,0.0795457676,-0.07163176773016745,,-2.1852553e-05,5.3048134e-06,-4.6491623e-06,1.0,2.8971583e-05,2.4825335e-05,-2.8979033e-05,1.0,3.0398369e-06,-2.4817884e-05,-3.0696392e-06,1.0,227,0.697,0,1,0.357,False,-0.26154621174225356,1.0099252227195712
0.7258910280070268,13:39:59.487699,13:39:45.434466,0,,0.12569095,-0.0015885681,0.021569893,-0.87676567,-0.16591911,-0.45138985,-0.39037576,-0.30263346,0.86949384,-0.28087133,0.93855405,0.20056784,,0.07225046,-0.017321467,0.046735227,0.75853777,-0.4275218,0.4917778,-0.16478738,0.60430807,0.7795234,-0.6304485,-0.67233676,0.3879404,,0.10711747,1.3441324,0.4433026,0.9957949,0.018116873,-0.08980141,-0.04452107,-0.7610056,-0.6472159,-0.0800649,0.64849234,-0.7569989,,-0.0913899,0.25468132,-0.08591596,0.89904445,0.08484458,0.42955843,-0.42423674,0.41158155,0.80661255,-0.10836161,-0.90741503,0.40602428,,-0.03567282,0.41593045,-0.3707732,-0.67651117,0.41374528,-0.6092187,-0.7239833,-0.22218949,0.65305436,0.1348362,0.88286275,0.44985834,,0.8680351750628349,0.35118355472248536,0.19792144607,0.5904868808524206,0.0010930919981235235,1.3655939793220349,-0.39953958576444704,,-1.0283282186002387,-0.27604136385628086,0.18909760004,-0.4487364790568821,1.091315723626573,-1.1493064755097433,0.8356682423429727,,-0.04730714937530631,-0.07404341185429444,0.0795457676,-0.07163176773016745,,-2.1852553e-05,5.3048134e-06,-4.6491623e-06,1.0,2.8971583e-05,2.4825335e-05,-2.8979033e-05,1.0,3.0398369e-06,-2.4817884e-05,-3.0696392e-06,1.0,244,0.75,0,1,0.357,False,-0.2612483231496481,1.0100700633219095
0.7462570279894862,13:39:59.539634,13:39:45.434466,0,,0.12566406,-0.0009535104,0.021892145,-0.8763045,-0.16349734,-0.45316547,-0.3913196,-0.30708906,0.86750513,-0.28099698,0.93753123,0.20512378,,0.07224688,-0.017316982,0.04673159,0.75857675,-0.4274796,0.4917544,-0.1649935,0.60408926,0.7796494,-0.63034785,-0.6725602,0.38771677,,0.10711747,1.3441324,0.4433026,0.9957949,0.018116873,-0.08980141,-0.04452107,-0.7610056,-0.6472159,-0.0800649,0.64849234,-0.7569989,,-0.091393046,0.25536942,-0.08573057,0.8985989,0.08253467,0.43093848,-0.42504913,0.40744492,0.80828327,-0.1088723,-0.90949255,0.40121087,,-0.03566947,0.41593,-0.37076727,-0.67653525,0.41374803,-0.60919017,-0.72400373,-0.22249515,0.65292764,0.13460566,0.8827845,0.45008093,,0.8699581355485168,0.35448888439265347,0.19793829784000003,0.5888093613045444,-0.0009564554983580831,1.3674286053577625,-0.3998662738967156,,-1.028297327668742,-0.276010472924784,0.18909760004,-0.4487364790568821,1.091042450627042,-1.1490836397023505,0.8359949304752412,,-0.04730714937530631,-0.07404341185429444,0.0795457676,-0.07163176773016745,,-2.1852553e-05,5.3048134e-06,-4.6491623e-06,1.0,2.8971583e-05,2.4825335e-05,-2.8979033e-05,1.0,3.0398369e-06,-2.4817884e-05,-3.0696392e-06,1.0,252,0.775,0,1,0.357,False,-0.26196325577190027,1.010118343522689
0.7981591089919675,13:39:59.561338,13:39:45.434466,0,,0.12568961,-0.0006579906,0.02206175,-0.8764102,-0.16349444,-0.4529622,-0.39059454,-0.30883637,0.8672116,-0.28167546,0.9369576,0.20680729,,0.072111875,-0.017388716,0.046744645,0.75856584,-0.42735302,0.49188125,-0.16513342,0.60415906,0.7795657,-0.6303243,-0.672578,0.38772422,,0.10711747,1.3441324,0.4433026,0.9957949,0.018116873,-0.08980141,-0.04452107,-0.7610056,-0.6472159,-0.0800649,0.64849234,-0.7569989,,-0.091434136,0.25570044,-0.08565646,0.89876074,0.08258701,0.43059087,-0.4249572,0.4057648,0.8091763,-0.10789116,-0.9102386,0.3997814,,-0.035528883,0.41592377,-0.37082842,-0.67651063,0.4136164,-0.6093069,-0.72405124,-0.22249277,0.6528758,0.13447376,0.8828468,0.44999817,,0.8711165454796505,0.3561647174263602,0.19795385332,0.5888093613045444,-0.0008198189985926426,1.3672355087139252,-0.40002961796284997,,-1.028297327668742,-0.2760259183905324,0.18909760004,-0.4487364790568821,1.091042450627042,-1.1490836397023505,0.8359949304752412,,-0.04730714937530631,-0.07404341185429444,0.0795457676,-0.07163176773016745,,-2.1852553e-05,5.3048134e-06,-4.6491623e-06,1.0,2.8971583e-05,2.4825335e-05,-2.8979033e-05,1.0,3.0398369e-06,-2.4817884e-05,-3.0696392e-06,1.0,269,0.828,0,1,0.357,False,-0.2629164992682367,1.0092492999086586
0.8199057170131709,13:39:59.622564,13:39:45.586212,0,,0.125657,-0.00024153292,0.022239313,-0.8739202,-0.17052498,-0.45517516,-0.3907816,-0.31039283,0.8665713,-0.28905523,0.9351884,0.20462066,,0.07220419,-0.017356902,0.04671532,0.75842047,-0.4275845,0.491904,-0.16518262,0.60398525,0.77968997,-0.6304862,-0.6725869,0.38744533,,0.10705382,1.344136,0.44330034,0.99579704,0.018153327,-0.08977041,-0.044473372,-0.7610047,-0.6472202,-0.0800649,0.64849234,-0.7569989,,-0.09136164,0.25613242,-0.08551783,0.8969397,0.08976301,0.43294543,-0.43013757,0.40386036,0.8073899,-0.102375746,-0.9104062,0.40084884,,-0.035561472,0.4159075,-0.37079582,-0.67632496,0.41384667,-0.60935664,-0.72422034,-0.22254393,0.65267074,0.134497,0.88272595,0.45022818,,0.8729082195064706,0.35777104586419883,0.19798885315000003,0.5839864926044004,0.005328823490852177,1.3634468841496947,-0.40051965016125246,,-1.0283282186002387,-0.27597185926041284,0.18914426648000002,-0.44810740922642855,1.091042450627042,-1.1482668523009447,0.8337081135493613,,-0.04730714937530631,-0.07404341185429444,0.0795457676,-0.07163176773016745,,-8.521229e-05,-5.9604645e-08,4.7683716e-07,1.0,6.523356e-05,5.589053e-05,-6.524101e-05,1.0,6.854534e-06,-5.588308e-05,-6.914139e-06,1.0,294,0.906,0,1,0.357,False,-0.2621419889274632,1.007800893885275
0.8811357709928416,13:39:59.690629,13:39:45.586212,0,,0.12545994,-4.8920512e-05,0.022312671,-0.8686403,-0.17700887,-0.46274367,-0.39535007,-0.3152707,0.8627297,-0.29860038,0.9323477,0.20387638,,0.07221894,-0.017347664,0.04670447,0.758437,-0.4275691,0.4918921,-0.16516232,0.60400355,0.7796801,-0.63047177,-0.67258024,0.38748038,,0.10705382,1.344136,0.44330034,0.99579704,0.018153327,-0.08977041,-0.044473372,-0.7610047,-0.6472202,-0.0800649,0.64849234,-0.7569989,,-0.0911723,0.25633627,-0.085455336,0.8925221,0.09648437,0.4405622,-0.44021723,0.3987357,0.804499,-0.098046295,-0.9119762,0.39835453,,-0.035576154,0.41590074,-0.37078318,-0.6763448,0.41382873,-0.60934675,-0.72420007,-0.22253121,0.65269756,0.13450633,0.8827376,0.4502026,,0.8746149434716741,0.3579409459874318,0.19800440863000002,0.5735019954301741,0.01257055797842052,1.3637493195044672,-0.4005196501612527,,-1.0283591095317357,-0.2759486910617902,0.18916371083000003,-0.44810740922642855,1.091042450627042,-1.1482668523009447,0.8337081135493613,,-0.04730714937530631,-0.07404341185429444,0.0795457676,-0.07163176773016745,,-8.521229e-05,-5.9604645e-08,4.7683716e-07,1.0,6.523356e-05,5.589053e-05,-6.524101e-05,1.0,6.854534e-06,-5.588308e-05,-6.914139e-06,1.0,298,0.918,0,1,0.357,False,-0.26136747858668974,1.00736637207826
0.9492023049970157,13:39:59.717751,13:39:45.586212,0,,0.12540302,-4.604459e-06,0.022350833,-0.866792,-0.17880161,-0.46551207,-0.39683583,-0.3179814,0.86105114,-0.30198157,0.93108416,0.20466888,,0.07222091,-0.017343625,0.046704113,0.75837755,-0.42767465,0.49189177,-0.16519232,0.60390455,0.7797504,-0.63053524,-0.6726021,0.38733917,,0.10705382,1.344136,0.44330034,0.99579704,0.018153327,-0.08977041,-0.044473372,-0.7610047,-0.6472202,-0.0800649,0.64849234,-0.7569989,,-0.09111903,0.25639808,-0.08545742,0.89097875,0.09838859,0.4432568,-0.44368804,0.3959886,0.80394894,-0.09642524,-0.9129692,0.3964713,,-0.035578534,0.41590217,-0.3707796,-0.6762771,0.41394636,-0.609342,-0.7242615,-0.22258484,0.6526111,0.13451569,0.8826689,0.45033446,,0.8751091983756245,0.35796411418605445,0.19798885315000003,0.5699372663909372,0.015166651473963889,1.3650628864201386,-0.3972527688385672,,-1.0283591095317357,-0.2759332455960417,0.18916630341000001,-0.44789771928294403,1.091042450627042,-1.1479401373403826,0.8333814254170927,,-0.04730714937530631,-0.07404341185429444,0.0795457676,-0.07163176773016745,,-8.521229e-05,-5.9604645e-08,4.7683716e-07,1.0,6.523356e-05,5.589053e-05,-6.524101e-05,1.0,6.854534e-06,-5.588308e-05,-6.914139e-06,1.0,315,0.972,0,1,0.357,False,-0.26243987752006825,1.0071249710743626
0.9763206109928433,13:39:59.759976,13:39:45.586212,0,,0.12535845,8.755922e-05,0.022462532,-0.86364335,-0.18229748,-0.4699869,-0.3998352,-0.3200774,0.8588842,-0.30700466,0.9296871,0.20354384,,0.07221986,-0.017327115,0.0467062,0.75838786,-0.42766583,0.49188364,-0.16510355,0.6039959,0.7796985,-0.6305463,-0.67252564,0.38745403,,0.10705382,1.344136,0.44330034,0.99579704,0.018153327,-0.08977041,-0.044473372,-0.7610047,-0.6472202,-0.0800649,0.64849234,-0.7569989,,-0.091084614,0.25654373,-0.085481085,0.8882872,0.101999134,0.44781917,-0.4494567,0.39371175,0.8018602,-0.09452262,-0.91355747,0.3955733,,-0.035579566,0.4159123,-0.3707664,-0.6762963,0.41392055,-0.6093382,-0.7242285,-0.22247522,0.6526851,0.13459715,0.88270867,0.45023224,,0.8757579079370594,0.3583656962955141,0.1979305201,0.5636465680864015,0.018309290968569022,1.3647056006189162,-0.40002961796284997,,-1.02836683226461,-0.27584057280155105,0.18916889599000003,-0.44789771928294403,1.091042450627042,-1.1480218160805231,0.8325647050864212,,-0.04730714937530631,-0.07404341185429444,0.0795457676,-0.07163176773016745,,-8.521229e-05,-5.9604645e-08,4.7683716e-07,1.0,6.523356e-05,5.589053e-05,-6.524101e-05,1.0,6.854534e-06,-5.588308e-05,-6.914139e-06,1.0,323,0.996,0,1,0.357,False,-0.26136747858668974,1.005483444247861
1.0184534080035519,13:39:59.788674,13:39:45.586212,0,,0.12531167,0.00016073883,0.022568896,-0.86392367,-0.18036996,-0.47021535,-0.40005448,-0.3213797,0.8582956,-0.3059284,0.9296137,0.20548975,,0.07221914,-0.017314017,0.0467093,0.75829387,-0.42757797,0.49210486,-0.16524479,0.6041434,0.7795543,-0.6306222,-0.6724491,0.38746327,,0.10705382,1.344136,0.44330034,0.99579704,0.018153327,-0.08977041,-0.044473372,-0.7610047,-0.6472202,-0.0800649,0.64849234,-0.7569989,,-0.09104747,0.25667185,-0.085513644,0.8884738,0.1000894,0.4478799,-0.44888446,0.39257947,0.8027354,-0.09548316,-0.9142557,0.39372516,,-0.0355806,0.41592148,-0.37075663,-0.6761806,0.41381013,-0.6095416,-0.72435105,-0.22234827,0.65259236,0.13451882,0.8827924,0.4500914,,0.8762212719095128,0.3588367830008418,0.19787218705,0.5640659479733705,0.017079562470680057,1.3661167554528868,-0.3992128976321785,,-1.0283591095317357,-0.27577106820568303,0.18916889599000003,-0.447478339395975,1.0909058141272765,-1.1478287194366863,0.8310946084912129,,-0.04730714937530631,-0.07404341185429444,0.0795457676,-0.07163176773016745,,-8.521229e-05,-5.9604645e-08,4.7683716e-07,1.0,6.523356e-05,5.589053e-05,-6.524101e-05,1.0,6.854534e-06,-5.588308e-05,-6.914139e-06,1.0,345,1.066,0,1,0.357,False,-0.26106958999408425,1.0051937630431842
1.0472409130015876,13:39:59.850949,13:39:45.763069,0,,0.12522252,0.00037644804,0.022818968,-0.8664877,-0.17435956,-0.46775824,-0.39824465,-0.3235473,0.858323,-0.30099875,0.93000853,0.21091199,,0.07221174,-0.017286584,0.046714365,0.75830156,-0.42769012,0.49199557,-0.16508812,0.6041197,0.77960587,-0.630654,-0.67239904,0.38749844,,0.10705382,1.344136,0.44330034,0.99579704,0.018153327,-0.08977041,-0.044473372,-0.7610047,-0.6472202,-0.0800649,0.64849234,-0.7569989,,-0.09098103,0.25700423,-0.08555969,0.8905948,0.094074346,0.4449617,-0.44409657,0.3908702,0.806225,-0.09807719,-0.91562575,0.3898851,,-0.035576835,0.41594037,-0.3707351,-0.6762032,0.41391942,-0.60944235,-0.724302,-0.222302,0.6526626,0.13466945,0.88275284,0.450124,,0.8773178999776527,0.3602423203839507,0.19775163208000002,0.568259746843061,0.012843830977951401,1.369162316766773,-0.40002961796284997,,-1.0283513867988614,-0.2756088908153243,0.18916889599000003,-0.447478339395975,1.0909058141272765,-1.1477470406965458,0.8312579525573471,,-0.04730714937530631,-0.07404341185429444,0.0795457676,-0.07163176773016745,,-8.521229e-05,-5.9604645e-08,4.7683716e-07,1.0,6.523356e-05,5.589053e-05,-6.524101e-05,1.0,6.854534e-06,-5.588308e-05,-6.914139e-06,1.0,354,1.095,0,1,0.357,False,-0.2616653671792948,1.0055317244486406
1.1095183840079699,13:39:59.882550,13:39:45.763069,0,,0.1252063,0.0005978346,0.022988304,-0.86792344,-0.17403056,-0.46521196,-0.39558148,-0.32421425,0.85930216,-0.30037323,0.9298378,0.21254995,,0.0722121,-0.017275885,0.046715558,0.75833523,-0.42766935,0.4919617,-0.16514814,0.6040317,0.7796613,-0.6305978,-0.6724913,0.38742977,,0.10705382,1.344136,0.44330034,0.99579704,0.018153327,-0.08977041,-0.044473372,-0.7610047,-0.6472202,-0.0800649,0.64849234,-0.7569989,,-0.090980284,0.25728256,-0.08553764,0.8919624,0.093763515,0.44227985,-0.44161528,0.3902413,0.8078909,-0.096845165,-0.91592586,0.38948795,,-0.035578508,0.41594666,-0.37072656,-0.67623466,0.41391695,-0.6094091,-0.7242878,-0.22242753,0.6526355,0.13458754,0.8827224,0.45020822,,0.8781056187308236,0.36148568037670087,0.1977101508,0.5709857161083598,0.012843830977951401,1.3686722443259298,-0.40002961796284997,,-1.0283591095317357,-0.27554710895233053,0.18917019228,-0.447478339395975,1.0907691776275112,-1.1476356227928495,0.8312579525573471,,-0.04730714937530631,-0.07404341185429444,0.0795457676,-0.07163176773016745,,-8.521229e-05,-5.9604645e-08,4.7683716e-07,1.0,6.523356e-05,5.589053e-05,-6.524101e-05,1.0,6.854534e-06,-5.588308e-05,-6.914139e-06,1.0,367,1.135,0,1,0.357,False,-0.2612483231496481,1.005386883846302
1.1411192759987898,13:39:59.923452,13:39:45.907298,0,,0.12516323,0.0010145754,0.023219034,-0.86939937,-0.17235465,-0.46307507,-0.39308918,-0.32657188,0.8595531,-0.29937536,0.9293248,0.21617067,,0.07220955,-0.017273948,0.046714783,0.75835466,-0.42764837,0.4919501,-0.16525126,0.60392225,0.77972424,-0.6305474,-0.6726029,0.38731784,,0.10705382,1.344136,0.44330034,0.99579704,0.018153327,-0.08977041,-0.044473372,-0.7610047,-0.6472202,-0.0800649,0.64849234,-0.7569989,,-0.09095871,0.2577485,-0.08543182,0.89333826,0.092145965,0.4398362,-0.4390099,0.38804737,0.8103638,-0.096005514,-0.91702145,0.38711053,,-0.03557613,0.41594726,-0.37072435,-0.6762466,0.4139184,-0.6093949,-0.7242981,-0.2225803,0.652572,0.13447227,0.88268316,0.4503195,,0.8795420470454294,0.36361715464998684,0.19770885451000003,0.5735019954301741,0.01202401197935876,1.369340751748108,-0.3997029298305812,,-1.0283436640659873,-0.27553166348658203,0.18916889599000003,-0.447478339395975,1.0906325411277455,-1.147524204889153,0.8312579525573471,,-0.04730714937530631,-0.07404341185429444,0.0795457676,-0.07163176773016745,,-8.521229e-05,-5.9604645e-08,4.7683716e-07,1.0,6.523356e-05,5.589053e-05,-6.524101e-05,1.0,6.854534e-06,-5.588308e-05,-6.914139e-06,1.0,380,1.176,0,1,0.357,False,-0.26232072208302704,1.0054351640470816
1.1819939060078468,13:39:59.961935,13:39:45.907298,0,,0.12513824,0.0015407801,0.023465082,-0.8691905,-0.17236507,-0.4634632,-0.3925881,-0.32930338,0.8587396,-0.30063677,0.92835855,0.21855897,,0.072207116,-0.017272815,0.04671341,0.75834775,-0.42766392,0.4919471,-0.1652428,0.6039182,0.7797291,-0.63055795,-0.67259663,0.38731164,,0.10705382,1.344136,0.44330034,0.99579704,0.018153327,-0.08977041,-0.044473372,-0.7610047,-0.6472202,-0.0800649,0.64849234,-0.7569989,,-0.09095684,0.25830483,-0.08526288,0.89323795,0.092248864,0.44001833,-0.43949223,0.38537538,0.81137687,-0.094723634,-0.91813725,0.38477457,,-0.035573736,0.415947,-0.37072253,-0.6762398,0.41393372,-0.609392,-0.72430205,-0.22257484,0.6525695,0.13448519,0.8826774,0.450327,,0.8811947118805135,0.3662274383614747,0.19775033579,0.572663235656236,0.01202401197935876,1.369177394267827,-0.40002961796284975,,-1.0283282186002387,-0.27552394075370784,0.18916889599000003,-0.447478339395975,1.0906325411277455,-1.147524204889153,0.8312579525573471,,-0.04730714937530631,-0.07404341185429444,0.0795457676,-0.07163176773016745,,-8.521229e-05,-5.9604645e-08,4.7683716e-07,1.0,6.523356e-05,5.589053e-05,-6.524101e-05,1.0,6.854534e-06,-5.588308e-05,-6.914139e-06,1.0,393,1.217,0,1,0.357,False,-0.2613079008681689,1.0048075214369485
1.2205084080051165,13:40:00.004076,13:39:45.907298,0,,0.12509957,0.0020323843,0.023628205,-0.87013775,-0.17137438,-0.46205086,-0.39064986,-0.33169878,0.8587016,-0.30042124,0.9276889,0.22167626,,0.07220454,-0.01727356,0.046714604,0.758344,-0.427429,0.49215707,-0.16524234,0.6042972,0.7794356,-0.63056254,-0.67240554,0.3876359,,0.10705382,1.344136,0.44330034,0.99579704,0.018153327,-0.08977041,-0.044473372,-0.7610047,-0.6472202,-0.0800649,0.64849234,-0.7569989,,-0.090934016,0.258781,-0.08505661,0.8941568,0.09132764,0.43834105,-0.43785217,0.38309038,0.8133432,-0.09364353,-0.919185,0.38253087,,-0.035571203,0.415948,-0.37072363,-0.6762358,0.4136414,-0.60959494,-0.7243053,-0.22225465,0.6526751,0.13448814,0.88289505,0.4498992,,0.8827392584553584,0.36848247636074827,0.19784755754000002,0.5741310652606276,0.011614102480062437,1.3694299692387757,-0.40019296202898413,,-1.0283204958673646,-0.27552394075370784,0.18916630341000001,-0.447478339395975,1.0906325411277455,-1.1480142773299964,0.8306045762928098,,-0.04730714937530631,-0.07404341185429444,0.0795457676,-0.07163176773016745,,-8.521229e-05,-5.9604645e-08,4.7683716e-07,1.0,6.523356e-05,5.589053e-05,-6.524101e-05,1.0,6.854534e-06,-5.588308e-05,-6.914139e-06,1.0,402,1.246,0,1,0.357,False,-0.262797343831195,1.0038901976221388
1.262648349016672,13:40:00.033138,13:39:45.907298,0,,0.12505837,0.0023407638,0.02369593,-0.869793,-0.17269143,-0.4622095,-0.39013094,-0.33282053,0.85850346,-0.3020891,0.92704266,0.22211277,,0.07220283,-0.017273694,0.046716392,0.7583183,-0.42734802,0.49226683,-0.16512337,0.6045956,0.77922934,-0.6306246,-0.6721887,0.3879109,,0.10705382,1.344136,0.44330034,0.99579704,0.018153327,-0.08977041,-0.044473372,-0.7610047,-0.6472202,-0.0800649,0.64849234,-0.7569989,,-0.09089984,0.2590576,-0.08490267,0.89395636,0.092699334,0.43846187,-0.43860063,0.381906,0.81349695,-0.09204059,-0.91954046,0.3820653,,-0.03556966,0.4159497,-0.37072456,-0.6762184,0.41350836,-0.60970443,-0.7242964,-0.22193171,0.65279484,0.13462336,0.8830386,0.4495769,,0.8837972728591271,0.36971039088774993,0.19793829784000003,0.5732923054866895,0.012843830977951401,1.368427208105508,-0.40019296202898413,,-1.0283204958673646,-0.27552394075370784,0.18916500712,-0.447478339395975,1.0907691776275112,-1.1483707314541145,0.8301145440944071,,-0.04730714937530631,-0.07404341185429444,0.0795457676,-0.07163176773016745,,-8.521229e-05,-5.9604645e-08,4.7683716e-07,1.0,6.523356e-05,5.589053e-05,-6.524101e-05,1.0,6.854534e-06,-5.588308e-05,-6.914139e-06,1.0,415,1.287,0,1,0.357,False,-0.2622611443645053,1.00379363722058
1.2916847740125377,13:40:00.074846,13:39:46.041953,0,,0.12497443,0.0026086122,0.023727223,-0.86739385,-0.17342757,-0.46642327,-0.3936178,-0.33434427,0.85631704,-0.30445495,0.9263567,0.22174409,,0.07219975,-0.01727593,0.04670936,0.758334,-0.42708793,0.49246848,-0.1656481,0.6044213,0.7792532,-0.6304682,-0.6725107,0.387607,,0.10705382,1.344136,0.44330034,0.99579704,0.018153327,-0.08977041,-0.044473372,-0.7610047,-0.6472202,-0.0800649,0.64849234,-0.7569989,,-0.090819776,0.2592824,-0.084751606,0.8917826,0.09349705,0.44269872,-0.44291294,0.38036162,0.8118825,-0.09247698,-0.9200996,0.3806109,,-0.035565738,0.415943,-0.3707228,-0.6761881,0.41329908,-0.6098799,-0.72442335,-0.22232907,0.6525187,0.13409133,0.8830366,0.44973975,,0.8849016236601412,0.37062167336690843,0.19803811217000003,0.5680500568995764,0.013117103977482282,1.3681226935579747,-0.40002961796284997,,-1.028266436737245,-0.27553166348658203,0.18916371083000003,-0.4472686494524904,1.0902226316284493,-1.1480884173196095,0.8292978237637358,,-0.04730714937530631,-0.07404341185429444,0.0795457676,-0.07163176773016745,,-8.521229e-05,-5.9604645e-08,4.7683716e-07,1.0,6.523356e-05,5.589053e-05,-6.524101e-05,1.0,6.854534e-06,-5.588308e-05,-6.914139e-06,1.0,428,1.328,0,1,0.357,False,-0.26255903295711036,1.003165994610447
1.3333983499906026,13:40:00.115504,13:39:46.041953,0,,0.1248744,0.0027762502,0.02377209,-0.86824465,-0.17171063,-0.46547464,-0.39278623,-0.3352676,0.85633785,-0.30310085,0.92634284,0.22364876,,0.07219443,-0.017276347,0.046705365,0.7583154,-0.42703852,0.4925398,-0.1656456,0.6045334,0.77916676,-0.63049114,-0.6724413,0.38768995,,0.10705382,1.344136,0.44330034,0.99579704,0.018153327,-0.08977041,-0.044473372,-0.7610047,-0.6472202,-0.0800649,0.64849234,-0.7569989,,-0.09072454,0.25944284,-0.08467872,0.89251006,0.091790736,0.4415884,-0.44134066,0.37956312,0.8131115,-0.09297457,-0.92060107,0.37927487,,-0.03556007,0.41594005,-0.37072083,-0.676168,0.41323137,-0.60994804,-0.7244393,-0.22222066,0.6525378,0.13410605,0.88309556,0.44961956,,0.8858360743379223,0.37119315559960103,0.19807570458,0.5690985066169991,0.012297284978889642,1.3687095222400125,-0.40019296202898413,,-1.0282278230728739,-0.27553166348658203,0.18916371083000003,-0.4472686494524904,1.0902226316284493,-1.148251774799891,0.8291344796976015,,-0.04730714937530631,-0.07404341185429444,0.0795457676,-0.07163176773016745,,-8.521229e-05,-5.9604645e-08,4.7683716e-07,1.0,6.523356e-05,5.589053e-05,-6.524101e-05,1.0,6.854534e-06,-5.588308e-05,-6.914139e-06,1.0,437,1.357,0,1,0.357,False,-0.26333354329788383,1.003697076819021
1.374074199993629,13:40:00.153426,13:39:46.041953,0,,0.12484208,0.002876237,0.023823842,-0.86682606,-0.17115638,-0.4683139,-0.39540428,-0.3362262,0.8547557,-0.30375633,0.926098,0.22377372,,0.07219322,-0.017271072,0.046706498,0.7583176,-0.4270913,0.49249077,-0.16561587,0.604478,0.77921605,-0.6304963,-0.67245764,0.38765326,,0.10705382,1.344136,0.44330034,0.99579704,0.018153327,-0.08977041,-0.044473372,-0.7610047,-0.6472202,-0.0800649,0.64849234,-0.7569989,,-0.090697154,0.25955355,-0.08465204,0.89116204,0.091262884,0.44441116,-0.44380736,0.37865454,0.81219196,-0.09415533,-0.9210276,0.3779457,,-0.03555957,0.41594374,-0.3707168,-0.6761731,0.4132913,-0.60990185,-0.7244294,-0.22225504,0.65253717,0.13413419,0.8830589,0.44968325,,0.8862608246460048,0.3716487968391803,0.19807829716000003,0.5661628474082158,0.011477465980296999,1.36921467218191,-0.4005196501612527,,-1.0282278230728739,-0.27550077255508515,0.18916371083000003,-0.4472686494524904,1.0902226316284493,-1.1481700960597503,0.8289711356314672,,-0.04730714937530631,-0.07404341185429444,0.0795457676,-0.07163176773016745,,-8.521229e-05,-5.9604645e-08,4.7683716e-07,1.0,6.523356e-05,5.589053e-05,-6.524101e-05,1.0,6.854534e-06,-5.588308e-05,-6.914139e-06,1.0,450,1.398,0,1,0.357,False,-0.26255903295711036,1.0034073956143443
1.4119957739894744,13:40:00.185199,13:39:46.041953,0,,0.124826446,0.003023401,0.023920462,-0.86699575,-0.16934678,-0.46865764,-0.39578277,-0.337426,0.8541075,-0.30277765,0.92599416,0.22552246,,0.07219412,-0.017264292,0.046709776,0.75819874,-0.42698094,0.4927694,-0.16567583,0.60478914,0.7789619,-0.6306235,-0.672248,0.38780987,,0.10705382,1.344136,0.44330034,0.99579704,0.018153327,-0.08977041,-0.044473372,-0.7610047,-0.6472202,-0.0800649,0.64849234,-0.7569989,,-0.09069045,0.25972822,-0.08462586,0.8912474,0.08947294,0.44460398,-0.44342512,0.37758517,0.8128983,-0.095143475,-0.921642,0.37619635,,-0.035561524,0.4159498,-0.37071264,-0.67603743,0.41312835,-0.61016256,-0.7245525,-0.22193585,0.6525091,0.13415307,0.8832154,0.44937015,,0.8867550795499551,0.3724828519895966,0.19806663055,0.5661628474082158,0.009974464482877154,1.3702769116422895,-0.4011730264257898,,-1.0282278230728739,-0.27546988162358826,0.18916371083000003,-0.44684926956552135,1.0902226316284493,-1.1481700960597503,0.8289711356314672,,-0.04730714937530631,-0.07404341185429444,0.0795457676,-0.07163176773016745,,-8.521229e-05,-5.9604645e-08,4.7683716e-07,1.0,6.523356e-05,5.589053e-05,-6.524101e-05,1.0,6.854534e-06,-5.588308e-05,-6.914139e-06,1.0,463,1.439,0,1,0.357,False,-0.262797343831195,1.0022969509964168
1.4437533330055885,13:40:00.224778,13:39:46.179556,0,,0.124823764,0.0033364147,0.02414067,-0.86310476,-0.16812995,-0.47621664,-0.40262765,-0.3401435,0.8498195,-0.30486217,0.92522144,0.22588578,,0.07219019,-0.017256573,0.046709836,0.75819457,-0.42697194,0.49278352,-0.16563022,0.6048589,0.7789173,-0.6306405,-0.67219085,0.3878814,,0.10705382,1.344136,0.44330034,0.99579704,0.018153327,-0.08977041,-0.044473372,-0.7610047,-0.6472202,-0.0800649,0.64849234,-0.7569989,,-0.09070787,0.2601077,-0.08457926,0.8875738,0.08833641,0.45211664,-0.45013285,0.37497848,0.81041443,-0.09794492,-0.92281514,0.3725842,,-0.035558503,0.41595417,-0.3707058,-0.676037,0.41310647,-0.6101778,-0.724544,-0.22185346,0.6525466,0.13420115,0.8832463,0.44929495,,0.8876895302277362,0.3743363078794104,0.19803163072000002,0.5577752496688348,0.0075150074870992244,1.37154732524756,-0.4010096823596554,,-1.0282123776071255,-0.27542354522634294,0.18916371083000003,-0.44684926956552135,1.0902226316284493,-1.1482517747998908,0.8284811034330644,,-0.04730714937530631,-0.07404341185429444,0.0795457676,-0.07163176773016745,,-8.521229e-05,-5.9604645e-08,4.7683716e-07,1.0,6.523356e-05,5.589053e-05,-6.524101e-05,1.0,6.854534e-06,-5.588308e-05,-6.914139e-06,1.0,472,1.467,0,1,0.357,False,-0.2626781883941529,1.0024900717995346
1.4833473750040866,13:40:00.255445,13:39:46.179556,0,,0.12481259,0.0036336333,0.02436106,-0.85991806,-0.1667259,-0.4824348,-0.40848428,-0.34196648,0.84628564,-0.30607432,0.92480344,0.22595829,,0.07218638,-0.017254189,0.04670793,0.75818455,-0.42699683,0.49277744,-0.16561389,0.6048539,0.77892476,-0.63065684,-0.6721796,0.38787434,,0.10705382,1.344136,0.44330034,0.99579704,0.018153327,-0.08977041,-0.044473372,-0.7610047,-0.6472202,-0.0800649,0.64849234,-0.7569989,,-0.0907168,0.26047608,-0.08454388,0.88452286,0.086979724,0.45831633,-0.4554822,0.37326133,0.80821526,-0.10077342,-0.92363983,0.3697759,,-0.03555485,0.41595426,-0.37070262,-0.6760275,0.4131307,-0.610172,-0.72454864,-0.22184291,0.65254503,0.13422404,0.88323766,0.4493052,,0.8886239809055174,0.3761202591733563,0.19798885315000003,0.5508554815338454,0.004782277491790415,1.3721421085186771,-0.4010096823596554,,-1.0281814866756285,-0.27540037702772024,0.18916371083000003,-0.44684926956552135,1.0902226316284493,-1.1483334535400314,0.8276643831023929,,-0.04730714937530631,-0.07404341185429444,0.0795457676,-0.07163176773016745,,-8.521229e-05,-5.9604645e-08,4.7683716e-07,1.0,6.523356e-05,5.589053e-05,-6.524101e-05,1.0,6.854534e-06,-5.588308e-05,-6.914139e-06,1.0,485,1.508,0,1,0.357,False,-0.2631548101423209,1.0030211540081084
1.5139899589994457,13:40:00.294504,13:39:46.179556,0,,0.12478675,0.004056677,0.024678662,-0.8527059,-0.16772148,-0.4947344,-0.41940072,-0.3448213,0.83976257,-0.31144124,0.92356247,0.22368869,,0.072180465,-0.017250925,0.046706557,0.7581714,-0.42687008,0.49290758,-0.16558957,0.60510236,0.77873695,-0.63067913,-0.6720364,0.38808614,,0.10705382,1.344136,0.44330034,0.99579704,0.018153327,-0.08977041,-0.044473372,-0.7610047,-0.6472202,-0.0800649,0.64849234,-0.7569989,,-0.09071995,0.2610036,-0.08449701,0.8778382,0.088088274,0.47078717,-0.4676036,0.37037414,0.80260193,-0.10366757,-0.9246964,0.36631897,,-0.03554924,0.41595548,-0.37069878,-0.67601526,0.41296446,-0.6102981,-0.724554,-0.22161406,0.65261686,0.13425691,0.88337284,0.44902954,,0.8900681319529974,0.3785606427616112,0.19792533494000003,0.5361771854899288,0.00300600299483969,1.3718752877237788,-0.402479778954864,,-1.0281583184770058,-0.2753849315619718,0.18916241454000002,-0.44684926956552135,1.0902226316284493,-1.1485784897604532,0.8283177593669301,,-0.04730714937530631,-0.07404341185429444,0.0795457676,-0.07163176773016745,,-8.521229e-05,-5.9604645e-08,4.7683716e-07,1.0,6.523356e-05,5.589053e-05,-6.524101e-05,1.0,6.854534e-06,-5.588308e-05,-6.914139e-06,1.0,498,1.549,0,1,0.357,False,-0.26243987752006825,1.0030211540081084
1.5530609739944339,13:40:00.337675,13:39:46.179556,0,,0.12464987,0.004508719,0.024966106,-0.85321337,-0.16188389,-0.49580288,-0.42087865,-0.34773853,0.8378179,-0.30803904,0.9235103,0.22856176,,0.072171375,-0.017249778,0.04669398,0.75828576,-0.42701563,0.49260536,-0.1655995,0.6046689,0.77907145,-0.63053894,-0.6723341,0.38779828,,0.10705382,1.344136,0.44330034,0.99579704,0.018153327,-0.08977041,-0.044473372,-0.7610047,-0.6472202,-0.0800649,0.64849234,-0.7569989,,-0.090609945,0.26153928,-0.084415324,0.8780534,0.08228654,0.4714352,-0.4664001,0.36782062,0.8044743,-0.10720618,-0.92624885,0.3613446,,-0.03553927,0.41594645,-0.37069097,-0.6761397,0.4131839,-0.61001164,-0.7244537,-0.2220646,0.652575,0.1341715,0.8831571,0.44947928,,0.8920297061030504,0.38089290808962706,0.19789681656000002,0.5359674955464443,-0.0017762744969507258,1.3744680545109047,-0.40149971455805855,,-1.028088813881138,-0.27536948609622336,0.18916630341000001,-0.4472686494524904,1.0900859951286839,-1.148467071856757,0.8284811034330644,,-0.04730714937530631,-0.07404341185429444,0.0795457676,-0.07163176773016745,,-8.521229e-05,-5.9604645e-08,4.7683716e-07,1.0,6.523356e-05,5.589053e-05,-6.524101e-05,1.0,6.854534e-06,-5.588308e-05,-6.914139e-06,1.0,511,1.59,0,1,0.357,False,-0.2634526987349264,1.0030211540081084
1.5962254810146987,13:40:00.376049,13:39:46.179556,0,,0.12456535,0.004706636,0.025070176,-0.85345775,-0.16239001,-0.49521628,-0.41992325,-0.3485059,0.8379785,-0.3086652,0.9231322,0.22924379,,0.07216374,-0.017252326,0.046680212,0.75845367,-0.42737478,0.4920352,-0.16518643,0.6042576,0.7794782,-0.63044536,-0.67247564,0.38770494,,0.10705382,1.344136,0.44330034,0.99579704,0.018153327,-0.08977041,-0.044473372,-0.7610047,-0.6472202,-0.0800649,0.64849234,-0.7569989,,-0.09053541,0.26176077,-0.08436499,0.8783482,0.082825996,0.47079116,-0.46609378,0.3670292,0.8050131,-0.10611809,-0.9265147,0.36098412,,-0.035530206,0.41593438,-0.37068582,-0.6763609,0.41359842,-0.60948527,-0.72419155,-0.22234167,0.65277165,0.13447134,0.88289326,0.4499077,,0.8930645523081965,0.38168062684279797,0.19790200172000003,0.5361771854899288,-0.0009564554983580831,1.3737178683485856,-0.40133637049192417,,-1.0280424774838925,-0.27537720882909755,0.18917408115,-0.44810740922642855,1.0903592681282146,-1.1486899076641495,0.8281544153007958,,-0.04730714937530631,-0.07404341185429444,0.0795457676,-0.07163176773016745,,-8.521229e-05,-5.9604645e-08,4.7683716e-07,1.0,6.523356e-05,5.589053e-05,-6.524101e-05,1.0,6.854534e-06,-5.588308e-05,-6.914139e-06,1.0,520,1.619,1,2,0.377,False,-0.2623802998015474,1.0026349124018727
1.634623432008084,13:40:00.407652,13:39:46.179556,0,,0.12452778,0.004848674,0.025139257,-0.8520438,-0.17152154,-0.49457216,-0.41751093,-0.34723812,0.8397084,-0.31576243,0.9219576,0.22424996,,0.07216324,-0.01724346,0.04665667,0.7582242,-0.42746264,0.49231237,-0.16462359,0.6051054,0.7789393,-0.63086843,-0.6716569,0.38843524,,0.10705382,1.344136,0.44330034,0.99579704,0.018153327,-0.08977041,-0.044473372,-0.7610047,-0.6472202,-0.0800649,0.64849234,-0.7569989,,-0.09050444,0.26191455,-0.08432327,0.8775474,0.09202091,0.4705771,-0.4691239,0.3677389,0.8029264,-0.09916348,-0.9253649,0.3658775,,-0.03552865,0.41591862,-0.3706663,-0.6761604,0.41351715,-0.6097628,-0.72424644,-0.22120762,0.65309596,0.13518219,0.88321614,0.44906014,,0.8938677165271158,0.38200498162351537,0.19791237204,0.5340802860550835,0.006558551988741141,1.3675898836452824,-0.40133637049192417,,-1.027926636490779,-0.27536948609622336,0.18921167356000002,-0.44789771928294403,1.0911790871268074,-1.1496034513067497,0.82831775936693,,-0.04730714937530631,-0.07404341185429444,0.0795457676,-0.07163176773016745,,-8.521229e-05,-5.9604645e-08,4.7683716e-07,1.0,6.523356e-05,5.589053e-05,-6.524101e-05,1.0,6.854534e-06,-5.588308e-05,-6.914139e-06,1.0,529,1.647,1,2,0.405,False,-0.2626186106756321,1.0024417915987551
1.666209318995243,13:40:00.436880,13:39:46.410782,0,,0.124509186,0.0049586445,0.025175303,-0.84918004,-0.18167631,-0.49586976,-0.41565633,-0.34927818,0.83978236,-0.3257651,0.91923785,0.22108528,,0.072170645,-0.017223462,0.04659933,0.7582782,-0.42776582,0.49196574,-0.1644723,0.6046955,0.77928954,-0.630843,-0.6718331,0.38817185,,0.10705382,1.344136,0.44330034,0.99579704,0.018153327,-0.08977041,-0.044473372,-0.7610047,-0.6472202,-0.0800649,0.64849234,-0.7569989,,-0.09048938,0.2620214,-0.084277414,0.87555605,0.102379754,0.47214398,-0.47459427,0.36502367,0.8009482,-0.09034286,-0.92535186,0.36818755,,-0.0355332,0.41587824,-0.37062055,-0.6762333,0.4138792,-0.6094363,-0.724157,-0.22152123,0.6530888,0.13529679,0.88296795,0.44951352,,0.894524148821425,0.38206676348650914,0.19793700155000002,0.5296767972419085,0.016533016471618294,1.364275422343737,-0.3998662738967156,,-1.0278107954976659,-0.2753154269661038,0.18925445113000003,-0.448317099169913,1.091042450627042,-1.1494103546629126,0.8284811034330642,,-0.04730714937530631,-0.07404341185429444,0.0795457676,-0.07163176773016745,,-8.521229e-05,-5.9604645e-08,4.7683716e-07,1.0,6.523356e-05,5.589053e-05,-6.524101e-05,1.0,6.854534e-06,-5.588308e-05,-6.914139e-06,1.0,542,1.688,1,2,0.446,False,-0.2635718541719685,1.0029245936065496
1.6954276309988927,13:40:00.475536,13:39:46.410782,0,,0.124525204,0.00511387,0.025141627,-0.8441451,-0.19351053,-0.49997258,-0.41443703,-0.35605407,0.83753645,-0.34008944,0.91420954,0.22036347,,0.07217492,-0.017195359,0.046547294,0.7581586,-0.42796683,0.49197516,-0.16413522,0.60493743,0.77917284,-0.6310744,-0.6714871,0.38839418,,0.10705382,1.344136,0.44330034,0.99579704,0.018153327,-0.08977041,-0.044473372,-0.7610047,-0.6472202,-0.0800649,0.64849234,-0.7569989,,-0.090502925,0.26211318,-0.08414751,0.8717786,0.114627056,0.47630107,-0.48355108,0.35735378,0.7990473,-0.078615546,-0.92690825,0.36696142,,-0.035536043,0.41584685,-0.3705703,-0.6761328,0.41402024,-0.60945195,-0.72417337,-0.22107767,0.65322095,0.13571048,0.88301295,0.4493003,,0.8951265219856145,0.38206676348650914,0.19804848249,0.5219182693329811,0.030060029948396898,1.3645167160171887,-0.4044399077484755,,-1.0276563408401813,-0.27522275417161307,0.18930759902000002,-0.448317099169913,1.091315723626573,-1.1497148692104462,0.8279910712346615,,-0.04730714937530631,-0.07404341185429444,0.0795457676,-0.07163176773016745,,-8.521229e-05,-5.9604645e-08,4.7683716e-07,1.0,6.523356e-05,5.589053e-05,-6.524101e-05,1.0,6.854534e-06,-5.588308e-05,-6.914139e-06,1.0,551,1.717,1,2,0.475,False,-0.26327396557936344,1.0022003905948578
1.7341100389894564,13:40:00.506906,13:39:46.410782,0,,0.12453024,0.00522767,0.025130898,-0.84379554,-0.19643533,-0.4994219,-0.41181645,-0.35971192,0.8372661,-0.3441167,0.9121516,0.22262797,,0.072168894,-0.017159924,0.046499193,0.7581182,-0.42811286,0.49191034,-0.1638112,0.6051188,0.7791002,-0.6312071,-0.6712306,0.38862193,,0.10705382,1.344136,0.44330034,0.99579704,0.018153327,-0.08977041,-0.044473372,-0.7610047,-0.6472202,-0.0800649,0.64849234,-0.7569989,,-0.090507366,0.26219022,-0.08406302,0.8717712,0.11773098,0.47555694,-0.48431382,0.35344195,0.80032426,-0.07385881,-0.92801845,0.36513928,,-0.03552986,0.41582385,-0.3705152,-0.67611796,0.4141216,-0.60939956,-0.72412187,-0.22074825,0.6533894,0.13605879,0.8830479,0.44912636,,0.895489490430703,0.3822984454727359,0.19811718586000002,0.5219182693329811,0.03484230744018732,1.366171243717372,-0.40149971455805833,,-1.027478717984074,-0.2750682995141286,0.18935296917000002,-0.4485267891133976,1.0914523601263384,-1.150153002074705,0.8281544153007958,,-0.04730714937530631,-0.07404341185429444,0.0795457676,-0.07163176773016745,,-8.521229e-05,-5.9604645e-08,4.7683716e-07,1.0,6.523356e-05,5.589053e-05,-6.524101e-05,1.0,6.854534e-06,-5.588308e-05,-6.914139e-06,1.0,564,1.758,1,2,0.516,False,-0.2631548101423209,1.0029245936065496
1.7654570029990282,13:40:00.546327,13:39:46.410782,0,,0.124604076,0.005438417,0.02515857,-0.8436596,-0.20508091,-0.4961656,-0.40657732,-0.35949215,0.83991677,-0.35061857,0.9103335,0.21990776,,0.07214918,-0.017112866,0.046450973,0.7580152,-0.42816442,0.49202418,-0.16357222,0.6054645,0.7788817,-0.6313927,-0.6708858,0.3889156,,0.10705382,1.344136,0.44330034,0.99579704,0.018153327,-0.08977041,-0.044473372,-0.7610047,-0.6472202,-0.0800649,0.64849234,-0.7569989,,-0.090583995,0.26236066,-0.083937705,0.87218297,0.1265009,0.4725404,-0.48477077,0.35291484,0.8002802,-0.06553036,-0.92706454,0.36913025,,-0.03551144,0.41580826,-0.37044924,-0.67602676,0.41410306,-0.6095133,-0.7241496,-0.22027431,0.6535186,0.13636394,0.8831749,0.4487839,,0.8958679043415401,0.38304755056153567,0.19820792616000002,0.5229667190504037,0.04263058792681742,1.3614539980094873,-0.40149971455805833,,-1.027231590532099,-0.27483661752790184,0.18939315416000002,-0.4485267891133976,1.0914523601263384,-1.1506430745155483,0.8283177593669301,,-0.04730714937530631,-0.07404341185429444,0.0795457676,-0.07163176773016745,,-8.521229e-05,-5.9604645e-08,4.7683716e-07,1.0,6.523356e-05,5.589053e-05,-6.524101e-05,1.0,6.854534e-06,-5.588308e-05,-6.914139e-06,1.0,573,1.787,1,2,0.545,False,-0.26297607698675796,1.0026831926026525
1.8048918790009338,13:40:00.576390,13:39:46.410782,0,,0.124708965,0.0056250244,0.025223702,-0.8440294,-0.21127845,-0.4929256,-0.40005815,-0.36408466,0.8410682,-0.35716632,0.9070853,0.22277448,,0.07213347,-0.017084196,0.04642707,0.75801927,-0.4283603,0.4918475,-0.16336969,0.60536295,0.77900326,-0.6314404,-0.6708525,0.38889575,,0.10705382,1.344136,0.44330034,0.99579704,0.018153327,-0.08977041,-0.044473372,-0.7610047,-0.6472202,-0.0800649,0.64849234,-0.7569989,,-0.09069474,0.26253632,-0.08385435,0.8730985,0.13297145,0.46906036,-0.48427743,0.3477128,0.8028519,-0.056341913,-0.9281241,0.3679826,,-0.035497036,0.41580397,-0.37041163,-0.67604953,0.41430548,-0.6093505,-0.724091,-0.22026983,0.6535851,0.13656235,0.8830811,0.44890818,,0.8960918635948926,0.383850714780455,0.19825718518000002,0.5252733084287334,0.05096541441250929,1.3624986649374997,-0.40117302642579,,-1.0270925813403629,-0.27468216287041736,0.18941130222000002,-0.4487364790568821,1.0914523601263384,-1.1507247532556888,0.8281544153007958,,-0.04730714937530631,-0.07404341185429444,0.0795457676,-0.07163176773016745,,-8.521229e-05,-5.9604645e-08,4.7683716e-07,1.0,6.523356e-05,5.589053e-05,-6.524101e-05,1.0,6.854534e-06,-5.588308e-05,-6.914139e-06,1.0,586,1.828,1,2,0.586,False,-0.26386974276457353,1.0028280332049906
1.8349513330031186,13:40:00.609222,13:39:46.410782,0,,0.12481396,0.0058030486,0.025315374,-0.84502953,-0.21805747,-0.4882376,-0.39203238,-0.3682992,0.8430102,-0.36364228,0.9037735,0.22573817,,0.07213114,-0.01706478,0.046411037,0.75799584,-0.42844757,0.49180758,-0.16327646,0.60536313,0.77902263,-0.6314927,-0.6707966,0.38890737,,0.10705382,1.344136,0.44330034,0.99579704,0.018153327,-0.08977041,-0.044473372,-0.7610047,-0.6472202,-0.0800649,0.64849234,-0.7569989,,-0.09080784,0.2627233,-0.08379636,0.87463087,0.14002557,0.4641268,-0.4825796,0.3427841,0.8059876,-0.046236422,-0.92891973,0.36738306,,-0.035495527,0.41580006,-0.3703867,-0.6760323,0.4143869,-0.6093142,-0.7240867,-0.22021009,0.65361,0.13667028,0.8830578,0.44892117,,0.896346713779742,0.3846616017322486,0.19828051840000002,0.5290477274114549,0.059983423397028356,1.3630679210871706,-0.3990495535660441,,-1.027030799477369,-0.27458949007592665,0.18942815399000001,-0.4487364790568821,1.0914523601263384,-1.1507247532556888,0.8281544153007958,,-0.04730714937530631,-0.07404341185429444,0.0795457676,-0.07163176773016745,,-8.521229e-05,-5.9604645e-08,4.7683716e-07,1.0,6.523356e-05,5.589053e-05,-6.524101e-05,1.0,6.854534e-06,-5.588308e-05,-6.914139e-06,1.0,595,1.856,1,2,0.614,False,-0.2626781883941529,1.0022969509964168
1.8677955250022933,13:40:00.649422,13:39:46.614001,0,,0.12494302,0.006033078,0.025454745,-0.8438309,-0.22819686,-0.48567024,-0.38529992,-0.3722837,0.8443629,-0.37348816,0.8996282,0.22622031,,0.07213507,-0.017056808,0.04639846,0.75805086,-0.4284538,0.49171743,-0.16320083,0.6053411,0.7790556,-0.6314462,-0.6708125,0.38895535,,0.10705382,1.344136,0.44330034,0.99579704,0.018153327,-0.08977041,-0.044473372,-0.7610047,-0.6472202,-0.0800649,0.64849234,-0.7569989,,-0.09094925,0.26297927,-0.083737314,0.8742692,0.15049894,0.46152297,-0.48422337,0.33767328,0.8071583,-0.034367498,-0.9291538,0.36809245,,-0.035499215,0.41579273,-0.37037373,-0.6760994,0.41439697,-0.6092329,-0.7240167,-0.22023381,0.6536795,0.13670911,0.8830471,0.4489303,,0.8967096822248305,0.3857582298003885,0.19829348130000002,0.5292574173549395,0.07118761637779447,1.3616094545572768,-0.40198974675646126,,-1.0270153540116207,-0.27455859914442976,0.18944241318000002,-0.44894616900036666,1.0914523601263384,-1.1508881107359699,0.8278277271685273,,-0.04730714937530631,-0.07404341185429444,0.0795457676,-0.07163176773016745,,-8.521229e-05,-5.9604645e-08,4.7683716e-07,1.0,6.523356e-05,5.589053e-05,-6.524101e-05,1.0,6.854534e-06,-5.588308e-05,-6.914139e-06,1.0,608,1.897,1,2,0.655,False,-0.2637505873275314,1.0025866322010937
1.9079891520086676,13:40:00.680507,13:39:46.614001,0,,0.12506312,0.006225288,0.025592342,-0.84119546,-0.2385234,-0.48528013,-0.37914672,-0.37969506,0.84384793,-0.38553596,0.8938334,0.22896242,,0.072164506,-0.017048672,0.04638946,0.7581026,-0.42850018,0.49159724,-0.16315085,0.60523355,0.77914953,-0.63139695,-0.67087984,0.38891903,,0.10705382,1.344136,0.44330034,0.99579704,0.018153327,-0.08977041,-0.044473372,-0.7610047,-0.6472202,-0.0800649,0.64849234,-0.7569989,,-0.09108144,0.2632065,-0.08370286,0.872669,0.16131273,0.46089816,-0.48785326,0.3289291,0.808582,-0.021168241,-0.93047506,0.36574313,,-0.03552848,0.4157851,-0.37036377,-0.6761606,0.414461,-0.60912144,-0.72395664,-0.22033863,0.65371066,0.13672459,0.8829909,0.4490361,,0.8970649279370448,0.38660000768367897,0.19829088872000003,0.5273702078635788,0.08430472035527677,1.3633285043037855,-0.40198974675646126,,-1.027030799477369,-0.27455859914442976,0.18945796866000003,-0.44915585894385124,1.0914523601263384,-1.1509697894761104,0.8279910712346615,,-0.04730714937530631,-0.07404341185429444,0.0795457676,-0.07163176773016745,,-8.521229e-05,-5.9604645e-08,4.7683716e-07,1.0,6.523356e-05,5.589053e-05,-6.524101e-05,1.0,6.854534e-06,-5.588308e-05,-6.914139e-06,1.0,617,1.926,1,2,0.684,False,-0.26232072208302704,1.00287631340577
1.939078058989253,13:40:00.718908,13:39:46.614001,0,,0.12514679,0.0064215213,0.025723755,-0.8376312,-0.2483218,-0.4865286,-0.37494522,-0.38633823,0.84270906,-0.39722767,0.88830113,0.23050183,,0.0721575,-0.017047815,0.046378195,0.7581326,-0.42854473,0.4915123,-0.16301027,0.605262,0.77915686,-0.6313973,-0.6708257,0.38901162,,0.10706771,1.344135,0.44329655,0.9957961,0.018137466,-0.08978389,-0.044494126,-0.76100504,-0.64721835,-0.0800649,0.64849234,-0.7569989,,-0.091187984,0.26343757,-0.08366486,0.870111,0.17156766,0.4620297,-0.49276444,0.32089424,0.8088325,-0.009493156,-0.9314459,0.36375603,,-0.035533275,0.41577816,-0.37035942,-0.6762157,0.41450554,-0.60902995,-0.72388065,-0.22027734,0.6538155,0.13685465,0.8829853,0.4490075,,0.8975360146423725,0.3873104991081076,0.19827274066000003,0.5235957888808573,0.09632873233463551,1.3643870012171952,-0.4010096823596554,,-1.0270385222102434,-0.274566321877304,0.18946833898,-0.4493655488873357,1.0915889966261039,-1.1511628861199474,0.8281544153007958,,-0.04730714937530631,-0.07404341185429444,0.0795457676,-0.07163176773016745,,-7.1033835e-05,-1.4901161e-06,2.7418137e-06,1.0,4.946068e-05,4.2375177e-05,-4.946068e-05,0.99999994,5.2154064e-06,-4.2364e-05,-5.3048134e-06,1.0,630,1.967,1,2,0.725,False,-0.2629164992682367,1.0033108352127853
1.977479041001061,13:40:00.755643,13:39:46.614001,0,,0.12520263,0.006547302,0.0258798,-0.832958,-0.26426703,-0.48615208,-0.3692696,-0.3888392,0.8440638,-0.41209325,0.882591,0.22630087,,0.07215958,-0.017044015,0.046365738,0.758156,-0.4285475,0.49147367,-0.1628375,0.6054016,0.77908456,-0.6314137,-0.67069805,0.38920528,,0.10706771,1.344135,0.44329655,0.9957961,0.018137466,-0.08978389,-0.044494126,-0.76100504,-0.64721835,-0.0800649,0.64849234,-0.7569989,,-0.09125754,0.2636317,-0.08369255,0.8667266,0.18795589,0.4620147,-0.49875212,0.3161915,0.80701256,0.0055976366,-0.92989004,0.36779496,,-0.03553467,0.41576913,-0.37035,-0.6762571,0.4144812,-0.60900056,-0.72381246,-0.22009826,0.6539513,0.13701056,0.8830414,0.44884965,,0.8981229423408136,0.3876580220874477,0.19822218535000002,0.5189826101241978,0.11231520280719205,1.3589472293177862,-0.39937624169831265,,-1.0270153540116207,-0.27455859914442976,0.18948130188,-0.44957523883082023,1.0917256331258691,-1.1515193402440653,0.8283177593669301,,-0.04730714937530631,-0.07404341185429444,0.0795457676,-0.07163176773016745,,-7.1033835e-05,-1.4901161e-06,2.7418137e-06,1.0,4.946068e-05,4.2375177e-05,-4.946068e-05,0.99999994,5.2154064e-06,-4.2364e-05,-5.3048134e-06,1.0,639,1.996,1,2,0.754,False,-0.2632143878608417,1.0024900717995346
2.01420999300899,13:40:00.787582,13:39:46.735951,0,,0.12525466,0.0066129714,0.026054591,-0.8282546,-0.2800524,-0.4853503,-0.36101192,-0.39575192,0.8444233,-0.4285611,0.8746147,0.22668108,,0.07216409,-0.01703959,0.046357095,0.7581266,-0.4285566,0.49151105,-0.16271068,0.6055713,0.7789792,-0.63148165,-0.67053896,0.38936904,,0.10706771,1.344135,0.44329655,0.9957961,0.018137466,-0.08978389,-0.044494126,-0.76100504,-0.64721835,-0.0800649,0.64849234,-0.7569989,,-0.09132474,0.26379395,-0.083774626,0.863443,0.2043954,0.4611818,-0.50389373,0.30669174,0.80748457,0.023605485,-0.9296035,0.3678044,,-0.035538863,0.41576323,-0.37034205,-0.67623645,0.4144569,-0.60904,-0.72380424,-0.21987653,0.654035,0.13715571,0.883108,0.4486742,,0.8986789791077577,0.3876889130189446,0.19813014876,0.5156275710284455,0.13130767627458828,1.3580806351891446,-0.402479778954864,,-1.0270076312787464,-0.27455087641155557,0.18949296849000002,-0.44957523883082023,1.0918622696256346,-1.1517124368879028,0.8281544153007958,,-0.04730714937530631,-0.07404341185429444,0.0795457676,-0.07163176773016745,,-7.1033835e-05,-1.4901161e-06,2.7418137e-06,1.0,4.946068e-05,4.2375177e-05,-4.946068e-05,0.99999994,5.2154064e-06,-4.2364e-05,-5.3048134e-06,1.0,652,2.037,1,2,0.795,False,-0.26190367805337944,1.00287631340577
2.046134953998262,13:40:00.819908,13:39:46.735951,0,,0.12532969,0.006681919,0.026231214,-0.8241778,-0.2975597,-0.48185995,-0.34951046,-0.40223622,0.8461963,-0.44561544,0.8658315,0.22751391,,0.07217152,-0.017036624,0.046340168,0.75824344,-0.42868602,0.49121797,-0.16262022,0.6052655,0.77923566,-0.63136476,-0.67073226,0.38922554,,0.10706771,1.344135,0.44329655,0.9957961,0.018137466,-0.08978389,-0.044494126,-0.76100504,-0.64721835,-0.0800649,0.64849234,-0.7569989,,-0.09141502,0.26395842,-0.083854415,0.86082435,0.22261898,0.45762673,-0.5069807,0.2970757,0.80914557,0.044181384,-0.92854017,0.3685935,,-0.03554507,0.4157492,-0.37033135,-0.6763725,0.41463673,-0.60876644,-0.72367465,-0.22017652,0.6540774,0.13716845,0.8829489,0.44898346,,0.8991964022103308,0.3877120812175673,0.19804588991000002,0.5147888112545073,0.15248633373823153,1.3565748569633276,-0.4010096823596556,,-1.026999908545872,-0.27455087641155557,0.18951111655000002,-0.4499946187177893,1.0918622696256346,-1.1517124368879028,0.8281544153007958,,-0.04730714937530631,-0.07404341185429444,0.0795457676,-0.07163176773016745,,-7.1033835e-05,-1.4901161e-06,2.7418137e-06,1.0,4.946068e-05,4.2375177e-05,-4.946068e-05,0.99999994,5.2154064e-06,-4.2364e-05,-5.3048134e-06,1.0,661,2.065,1,2,0.823,False,-0.262797343831195,1.0025383520003142
2.0784799290122464,13:40:00.852104,13:39:46.735951,0,,0.12545177,0.006978646,0.02664344,-0.8168858,-0.32008812,-0.4798345,-0.3390112,-0.40660077,0.848379,-0.46665716,0.8556981,0.2236329,,0.07218832,-0.017027922,0.04632187,0.7582252,-0.42867652,0.49125445,-0.16249493,0.60544443,0.7791228,-0.6314189,-0.67057693,0.38940543,,0.10706771,1.344135,0.44329655,0.9957961,0.018137466,-0.08978389,-0.044494126,-0.76100504,-0.64721835,-0.0800649,0.64849234,-0.7569989,,-0.09157334,0.26444638,-0.08395299,0.85535145,0.2459551,0.4559386,-0.5136665,0.28843606,0.8080541,0.06723589,-0.9253706,0.37305307,,-0.03556107,0.41573554,-0.37031555,-0.67636395,0.41459337,-0.60880554,-0.72365683,-0.21995589,0.65417135,0.13730475,0.8830242,0.44879356,,0.9003161984770933,0.3892180141280411,0.19788903882000003,0.5093368727239097,0.17585117519812185,1.3492841340114805,-0.40264312302099836,,-1.0270153540116207,-0.2745431536786813,0.18953833864000003,-0.4499946187177893,1.0919989061254,-1.1519055335317396,0.8283177593669301,,-0.04730714937530631,-0.07404341185429444,0.0795457676,-0.07163176773016745,,-7.1033835e-05,-1.4901161e-06,2.7418137e-06,1.0,4.946068e-05,4.2375177e-05,-4.946068e-05,0.99999994,5.2154064e-06,-4.2364e-05,-5.3048134e-06,1.0,674,2.106,1,2,0.864,False,-0.26273776611267374,1.0026831926026525
2.11067513198941,13:40:00.891820,13:39:46.735951,0,,0.12551634,0.0072498918,0.027033806,-0.81138986,-0.33619815,-0.47813928,-0.33049303,-0.41082412,0.8497044,-0.48210022,0.84746337,0.2222274,,0.07220908,-0.017013066,0.046294093,0.7582272,-0.42864895,0.49127525,-0.1624652,0.6055162,0.77907324,-0.6314241,-0.6705297,0.3894784,,0.10706771,1.344135,0.44329655,0.9957961,0.018137466,-0.08978389,-0.044494126,-0.76100504,-0.64721835,-0.0800649,0.64849234,-0.7569989,,-0.091672376,0.26490432,-0.084056035,0.85118866,0.2627319,0.4543675,-0.5179789,0.28078008,0.80799776,0.08470946,-0.9231113,0.3750864,,-0.03558086,0.41571623,-0.37028983,-0.6763689,0.4145538,-0.60882694,-0.7236469,-0.21988353,0.65420675,0.13733287,0.8830608,0.44871294,,0.9014977766068497,0.3906776106412695,0.19772959515000002,0.5055624537411882,0.19334064716809823,1.3447424124150653,-0.39757945697083574,,-1.0270153540116207,-0.27451226274718443,0.18957593105,-0.4499946187177893,1.0919989061254,-1.1519872122718802,0.8281544153007957,,-0.04730714937530631,-0.07404341185429444,0.0795457676,-0.07163176773016745,,-7.1033835e-05,-1.4901161e-06,2.7418137e-06,1.0,4.946068e-05,4.2375177e-05,-4.946068e-05,0.99999994,5.2154064e-06,-4.2364e-05,-5.3048134e-06,1.0,683,2.135,1,2,0.893,False,-0.2634526987349264,1.0027797530042115
2.150392823998118,13:40:00.929801,13:39:46.885407,0,,0.12551415,0.0075192302,0.027683467,-0.8027674,-0.36136064,-0.4743236,-0.31607273,-0.4166431,0.8523534,-0.5056306,0.83416235,0.22025126,,0.07222295,-0.017000876,0.04626304,0.7582855,-0.42884004,0.49101847,-0.16211364,0.6054882,0.77916825,-0.6314444,-0.6704328,0.38961214,,0.10706771,1.344135,0.44329655,0.9957961,0.018137466,-0.08978389,-0.044494126,-0.76100504,-0.64721835,-0.0800649,0.64849234,-0.7569989,,-0.09172739,0.2655379,-0.08435634,0.84459376,0.2889715,0.45072922,-0.5234947,0.26910633,0.8084152,0.11231486,-0.91873676,0.37856057,,-0.035593227,0.41569373,-0.3702644,-0.6764647,0.41473752,-0.6085954,-0.7234984,-0.2197887,0.65440273,0.13764298,0.88299817,0.44874123,,0.9035520235513934,0.39217582081886904,0.19736793024000002,0.5005298950975596,0.22162440261954441,1.3374429031970347,-0.40068299422738707,,-1.026992185812998,-0.27448909454856174,0.18961352346000002,-0.45041399860475834,1.092272179124931,-1.1522917268194137,0.82831775936693,,-0.04730714937530631,-0.07404341185429444,0.0795457676,-0.07163176773016745,,-7.1033835e-05,-1.4901161e-06,2.7418137e-06,1.0,4.946068e-05,4.2375177e-05,-4.946068e-05,0.99999994,5.2154064e-06,-4.2364e-05,-5.3048134e-06,1.0,696,2.176,1,2,0.934,False,-0.2626781883941529,1.0026831926026525
2.1883584409952164,13:40:00.970296,13:39:46.885407,0,,0.12542981,0.00770244,0.028157294,-0.7923703,-0.38840035,-0.47041932,-0.30277485,-0.41906083,0.85598785,-0.52960026,0.82069063,0.21445346,,0.07225392,-0.016975887,0.04621041,0.7583868,-0.42881233,0.49088624,-0.1615696,0.60593903,0.7789307,-0.6314622,-0.6700431,0.39025313,,0.10706771,1.344135,0.44329655,0.9957961,0.018137466,-0.08978389,-0.044494126,-0.76100504,-0.64721835,-0.0800649,0.64849234,-0.7569989,,-0.09168506,0.26599514,-0.08458938,0.8362726,0.31708527,0.447331,-0.5302442,0.25995725,0.80700886,0.13960369,-0.9120741,0.38552776,,-0.035622086,0.41565678,-0.37021807,-0.676625,0.41462466,-0.608494,-0.7232584,-0.2192348,0.65485376,0.13811547,0.88318884,0.44822052,,0.9055985477630629,0.39264690752419673,0.19711515369000002,0.49340043701908576,0.25086461356934864,1.3263413552679282,-0.4010096823596556,,-1.0269844630801237,-0.27443503541844216,0.18968222683000002,-0.4510430684352119,1.0926820886242272,-1.153361089191768,0.8278277271685271,,-0.04730714937530631,-0.07404341185429444,0.0795457676,-0.07163176773016745,,-7.1033835e-05,-1.4901161e-06,2.7418137e-06,1.0,4.946068e-05,4.2375177e-05,-4.946068e-05,0.99999994,5.2154064e-06,-4.2364e-05,-5.3048134e-06,1.0,705,2.205,1,2,0.963,False,-0.2622015666459845,1.0035039560159031
2.2288654379954096,13:40:00.992199,13:39:46.885407,0,,0.12539463,0.007757947,0.028407827,-0.7861739,-0.40232414,-0.46911165,-0.2947187,-0.423127,0.85679877,-0.54320467,0.811849,0.21407884,,0.07227543,-0.016961716,0.046179533,0.75838464,-0.42858732,0.49108607,-0.1615468,0.6063238,0.778636,-0.6314707,-0.669839,0.39058977,,0.10706771,1.344135,0.44329655,0.9957961,0.018137466,-0.08978389,-0.044494126,-0.76100504,-0.64721835,-0.0800649,0.64849234,-0.7569989,,-0.09167191,0.26620564,-0.08473972,0.83125395,0.33173624,0.44605818,-0.53371507,0.2518809,0.807282,0.15545113,-0.9091244,0.38642964,,-0.03564226,0.4156344,-0.37019143,-0.6766247,0.4143404,-0.60868794,-0.7232541,-0.21889926,0.6549707,0.1381395,0.88340545,0.44778603,,0.906563889372341,0.3926932439214421,0.19696737663000002,0.48962601803636435,0.2679441760400287,1.3235224259649923,-0.40198974675646126,,-1.0269767403472496,-0.2744118672198195,0.18972241182000002,-0.4510430684352119,1.0926820886242272,-1.1538511616326113,0.8284811034330642,,-0.04730714937530631,-0.07404341185429444,0.0795457676,-0.07163176773016745,,-7.1033835e-05,-1.4901161e-06,2.7418137e-06,1.0,4.946068e-05,4.2375177e-05,-4.946068e-05,0.99999994,5.2154064e-06,-4.2364e-05,-5.3048134e-06,1.0,714,2.233,1,2,0.991,False,-0.2632143878608417,1.0028280332049906
2.250769730017055,13:40:01.022709,13:39:46.885407,0,,0.12529057,0.0078570545,0.028737366,-0.77824193,-0.4191531,-0.46760038,-0.28480032,-0.42805335,0.8577056,-0.55966794,0.8006753,0.21375406,,0.07229918,-0.01694294,0.046129704,0.7586913,-0.42874253,0.49047652,-0.16099381,0.6061479,0.7788874,-0.6312435,-0.6698988,0.3908542,,0.10706771,1.344135,0.44329655,0.9957961,0.018137466,-0.08978389,-0.044494126,-0.76100504,-0.64721835,-0.0800649,0.64849234,-0.7569989,,-0.091597125,0.2665054,-0.08492359,0.8247483,0.3494864,0.44457787,-0.5378159,0.24178545,0.8076471,0.17476922,-0.9052066,0.38737148,,-0.035663508,0.41559768,-0.3701514,-0.6770109,0.41451922,-0.60813653,-0.7228265,-0.2190169,0.65540326,0.13848509,0.8832924,0.4479023,,0.908216554207425,0.3927704712501843,0.19677422942000003,0.4843837694492512,0.28953274300296833,1.3198854617449935,-0.40133637049192417,,-1.0269690176143753,-0.27436553082257414,0.18978204116000003,-0.45230120809611907,1.0929553616237582,-1.1547274273611285,0.8284811034330644,,-0.04730714937530631,-0.07404341185429444,0.0795457676,-0.07163176773016745,,-7.1033835e-05,-1.4901161e-06,2.7418137e-06,1.0,4.946068e-05,4.2375177e-05,-4.946068e-05,0.99999994,5.2154064e-06,-4.2364e-05,-5.3048134e-06,1.0,723,2.262,1,2,1.02,False,-0.2626186106756321,1.0026349124018727
2.281247851991793,13:40:01.051910,13:39:47.016084,0,,0.12519518,0.007954225,0.029055089,-0.771924,-0.4344721,-0.4640767,-0.27728605,-0.4267919,0.8607908,-0.57205385,0.7931472,0.20897779,,0.07231367,-0.016924657,0.046084404,0.75857276,-0.42878357,0.490624,-0.16060232,0.6066976,0.77854013,-0.63148564,-0.6693747,0.39136064,,0.10706771,1.344135,0.44329655,0.9957961,0.018137466,-0.08978389,-0.044494126,-0.76100504,-0.64721835,-0.0800649,0.64849234,-0.7569989,,-0.091529965,0.26679528,-0.08509947,0.8195047,0.36539653,0.44147196,-0.54088354,0.23862508,0.8065377,0.1893598,-0.8997463,0.39319134,,-0.035675935,0.41556588,-0.3701136,-0.6769167,0.41445133,-0.60828763,-0.7228253,-0.21828957,0.6556472,0.13895102,0.8835043,0.44733974,,0.9095525869946659,0.3930484896336564,0.19659923027,0.48039966052304534,0.30483603097669765,1.310837163616898,-0.40019296202898413,,-1.0268840675527589,-0.27433463989107726,0.18983389276,-0.45230120809611907,1.0933652711230544,-1.1553883960327802,0.8278277271685273,,-0.04730714937530631,-0.07404341185429444,0.0795457676,-0.07163176773016745,,-7.1033835e-05,-1.4901161e-06,2.7418137e-06,1.0,4.946068e-05,4.2375177e-05,-4.946068e-05,0.99999994,5.2154064e-06,-4.2364e-05,-5.3048134e-06,1.0,737,2.306,1,2,1.065,False,-0.2632143878608417,1.0034556758151236
2.3104831730015576,13:40:01.093608,13:39:47.016084,0,,0.12513554,0.008251429,0.029515564,-0.76355803,-0.45304903,-0.4601364,-0.26706117,-0.4272205,0.86380595,-0.5879262,0.7824507,0.20521584,,0.07232903,-0.01690828,0.0459975,0.7587936,-0.42910048,0.49000496,-0.16007543,0.606381,0.77889526,-0.63135415,-0.6694585,0.39142957,,0.10706771,1.344135,0.44329655,0.9957961,0.018137466,-0.08978389,-0.044494126,-0.76100504,-0.64721835,-0.0800649,0.64849234,-0.7569989,,-0.09151142,0.26732677,-0.08524474,0.8125144,0.38483244,0.4378633,-0.54438883,0.23229283,0.8060278,0.20847315,-0.8932771,0.39823976,,-0.035685338,0.41549724,-0.3700565,-0.6772066,0.41480827,-0.6077214,-0.7224813,-0.21847582,0.65596426,0.13932697,0.88329065,0.4476445,,0.9115759430077127,0.3944540270167653,0.19641256451000003,0.47473803204896314,0.3253315059415137,1.3013122071948042,-0.39986627389671536,,-1.0267064446966516,-0.274326917158203,0.18991685532000002,-0.45355934775702617,1.0936385441225853,-1.156182983021157,0.8289711356314672,,-0.04730714937530631,-0.07404341185429444,0.0795457676,-0.07163176773016745,,-7.1033835e-05,-1.4901161e-06,2.7418137e-06,1.0,4.946068e-05,4.2375177e-05,-4.946068e-05,0.99999994,5.2154064e-06,-4.2364e-05,-5.3048134e-06,1.0,746,2.336,1,2,1.094,False,-0.26327396557936344,1.003165994610447
2.3521412780100945,13:40:01.124025,13:39:47.016084,0,,0.12512955,0.008397326,0.029666215,-0.76130193,-0.45479947,-0.46214357,-0.2652254,-0.4319626,0.8620113,-0.5916711,0.7788232,0.20822948,,0.07233937,-0.016901024,0.045978785,0.75866914,-0.42901766,0.49027008,-0.15988156,0.6069275,0.7785094,-0.6315527,-0.66901624,0.39186525,,0.10706771,1.344135,0.44329655,0.9957961,0.018137466,-0.08978389,-0.044494126,-0.76100504,-0.64721835,-0.0800649,0.64849234,-0.7569989,,-0.09151898,0.26753595,-0.085258804,0.8105858,0.3869059,0.43960717,-0.54566103,0.22645777,0.80682766,0.21261394,-0.8938796,0.39468294,,-0.035694752,0.41548336,-0.37004134,-0.67708796,0.4146254,-0.60797834,-0.7225396,-0.21783683,0.65611255,0.13960086,0.8835343,0.44707796,,0.9121474252404053,0.39514135024257124,0.19637756468000003,0.47285082255760247,0.32888405493541517,1.303887817288115,-0.40329649928553546,,-1.0266755537651548,-0.274326917158203,0.18994278112000001,-0.4533496578135417,1.0939118171221163,-1.1566508550489714,0.8284811034330644,,-0.04730714937530631,-0.07404341185429444,0.0795457676,-0.07163176773016745,,-7.1033835e-05,-1.4901161e-06,2.7418137e-06,1.0,4.946068e-05,4.2375177e-05,-4.946068e-05,0.99999994,5.2154064e-06,-4.2364e-05,-5.3048134e-06,1.0,760,2.381,1,2,1.139,False,-0.26285692154971585,1.00287631340577
2.3825859659991693,13:40:01.170178,13:39:47.016084,0,,0.12514995,0.0086423755,0.029872775,-0.75871587,-0.45934248,-0.4619033,-0.26233763,-0.43357652,0.86208475,-0.59626263,0.77525204,0.20845848,,0.072352044,-0.016893797,0.045943856,0.7587665,-0.4291787,0.4899786,-0.15978837,0.6066068,0.77877843,-0.63145936,-0.6692038,0.39169514,,0.10706771,1.344135,0.44329655,0.9957961,0.018137466,-0.08978389,-0.044494126,-0.76100504,-0.64721835,-0.0800649,0.64849234,-0.7569989,,-0.09155801,0.26785448,-0.0852462,0.80839854,0.3917466,0.4393477,-0.5467371,0.22315149,0.8070204,0.21810645,-0.8926018,0.39457774,,-0.03570504,0.41545525,-0.3700182,-0.677203,0.41483763,-0.6077054,-0.72242635,-0.21813504,0.6561381,0.13962895,0.8833611,0.44741136,,0.9129814803908215,0.3964542148311894,0.19634904630000002,0.47075392312275716,0.33393960542673645,1.3021340383154238,-0.40117302642579,,-1.0266369401007835,-0.274326917158203,0.18997778095,-0.45376903770051075,1.0939118171221163,-1.1566508550489714,0.8284811034330644,,-0.04730714937530631,-0.07404341185429444,0.0795457676,-0.07163176773016745,,-7.1033835e-05,-1.4901161e-06,2.7418137e-06,1.0,4.946068e-05,4.2375177e-05,-4.946068e-05,0.99999994,5.2154064e-06,-4.2364e-05,-5.3048134e-06,1.0,774,2.425,1,2,1.183,False,-0.26381016504605226,1.0029728738073294
2.4287195969955064,13:40:01.214254,13:39:47.016084,0,,0.12522346,0.008715436,0.029946849,-0.7529248,-0.47121263,-0.45941567,-0.2579313,-0.43094614,0.86472917,-0.60545474,0.76957387,0.2029295,,0.0723575,-0.016888507,0.045936406,0.7587674,-0.42934504,0.48983124,-0.1597735,0.6063564,0.77897644,-0.631462,-0.66932404,0.3914855,,0.10706771,1.344135,0.44329655,0.9957961,0.018137466,-0.08978389,-0.044494126,-0.76100504,-0.64721835,-0.0800649,0.64849234,-0.7569989,,-0.091637895,0.2679537,-0.08524746,0.8034126,0.4040561,0.43734062,-0.54994917,0.22203317,0.8051442,0.22821932,-0.8873781,0.40059456,,-0.035710383,0.41545075,-0.3700102,-0.67720544,0.41504124,-0.6075636,-0.72242135,-0.21833993,0.65607554,0.139643,0.88321483,0.44769564,,0.9130587077195638,0.39663956042017084,0.19636200920000002,0.4665601242530667,0.3448705254079717,1.2940373934211156,-0.4023164348887296,,-1.0266369401007835,-0.27431147169245457,0.18998815127000002,-0.45376903770051075,1.0939118171221163,-1.1563241400884092,0.8273376949701243,,-0.04730714937530631,-0.07404341185429444,0.0795457676,-0.07163176773016745,,-7.1033835e-05,-1.4901161e-06,2.7418137e-06,1.0,4.946068e-05,4.2375177e-05,-4.946068e-05,0.99999994,5.2154064e-06,-4.2364e-05,-5.3048134e-06,1.0,783,2.454,1,2,1.212,False,-0.26386974276457353,1.0005105835675767
2.472817733010743,13:40:01.244044,13:39:47.016084,0,,0.12523523,0.008690178,0.029917687,-0.7519255,-0.47221264,-0.4600252,-0.2580012,-0.43136185,0.86450106,-0.6066657,0.76872754,0.20252052,,0.07235731,-0.016887955,0.045936227,0.75874066,-0.42950538,0.48973215,-0.1596548,0.6062722,0.77906626,-0.63152415,-0.66929734,0.39143085,,0.10706771,1.344135,0.44329655,0.9957961,0.018137466,-0.08978389,-0.044494126,-0.76100504,-0.64721835,-0.0800649,0.64849234,-0.7569989,,-0.09164702,0.26791477,-0.08524208,0.80252236,0.40512705,0.437984,-0.5508694,0.2212203,0.80473876,0.22913048,-0.8870928,0.40070632,,-0.03571024,0.41545087,-0.3700096,-0.67718697,0.41520712,-0.60747087,-0.7224125,-0.21833724,0.6560861,0.13977809,0.8831375,0.44780597,,0.9129119757949535,0.396438769365441,0.19637756468000003,0.46551167453564407,0.34610025390586063,1.293933098429394,-0.4026431230209986,,-1.0266369401007835,-0.27431147169245457,0.18998944756000002,-0.45376903770051075,1.0940484536218817,-1.1561905217716841,0.8260309424410501,,-0.04730714937530631,-0.07404341185429444,0.0795457676,-0.07163176773016745,,-7.1033835e-05,-1.4901161e-06,2.7418137e-06,1.0,4.946068e-05,4.2375177e-05,-4.946068e-05,0.99999994,5.2154064e-06,-4.2364e-05,-5.3048134e-06,1.0,797,2.499,1,2,1.257,False,-0.26333354329788383,1.0000760617605615
2.5026015150069725,13:40:01.285514,13:39:47.233952,0,,0.12525296,0.008700386,0.029914394,-0.74908894,-0.47649768,-0.46023428,-0.25754958,-0.43060327,0.8650138,-0.6103555,0.7665055,0.19983834,,0.072357126,-0.016887419,0.04593599,0.758714,-0.42946568,0.4898084,-0.1595361,0.6065062,0.7789084,-0.63158625,-0.66911083,0.39164954,,0.10706771,1.344135,0.44329655,0.9957961,0.018137466,-0.08978389,-0.044494126,-0.76100504,-0.64721835,-0.0800649,0.64849234,-0.7569989,,-0.09166443,0.2679191,-0.0852317,0.80001503,0.40958625,0.43842334,-0.5531675,0.22055991,0.8033424,0.2323394,-0.8852076,0.40302107,,-0.0357101,0.41545096,-0.37000903,-0.6771685,0.41512486,-0.6075477,-0.7224037,-0.2180666,0.6561858,0.13991319,0.8832431,0.44755557,,0.9128810848634566,0.3963383738380761,0.19639830532000002,0.4625760153268607,0.34992607589929303,1.2908133971258942,-0.4026431230209986,,-1.0266369401007835,-0.27431147169245457,0.18999074385000003,-0.45376903770051075,1.094185090121647,-1.1564652971556613,0.8250508780442445,,-0.04730714937530631,-0.07404341185429444,0.0795457676,-0.07163176773016745,,-7.1033835e-05,-1.4901161e-06,2.7418137e-06,1.0,4.946068e-05,4.2375177e-05,-4.946068e-05,0.99999994,5.2154064e-06,-4.2364e-05,-5.3048134e-06,1.0,806,2.528,1,2,1.286,False,-0.2626781883941529,0.9993035785480904
2.544082309002988,13:40:01.322505,13:39:47.233952,0,,0.12530386,0.00877659,0.029988304,-0.7421019,-0.48935944,-0.4580524,-0.25374898,-0.42740285,0.86772,-0.6203999,0.7601671,0.19300199,,0.07235574,-0.016887255,0.045933366,0.75870645,-0.4294781,0.48980907,-0.15953511,0.60650015,0.7789133,-0.6315955,-0.6691084,0.39163876,,0.10706771,1.344135,0.44329655,0.9957961,0.018137466,-0.08978389,-0.044494126,-0.76100504,-0.64721835,-0.0800649,0.64849234,-0.7569989,,-0.09172178,0.2680219,-0.085232146,0.7939135,0.42293903,0.436834,-0.55747026,0.21948422,0.8006582,0.24275143,-0.8791753,0.4100274,,-0.035708517,0.415449,-0.37000751,-0.6771604,0.41513762,-0.607548,-0.72241014,-0.21806586,0.65617895,0.13991909,0.88323724,0.4475652,,0.9130587077195638,0.396438769365441,0.19641515709000001,0.4567046969092941,0.3615401783793554,1.2811795178314171,-0.4023164348887298,,-1.0266214946350352,-0.27431147169245457,0.18999204014,-0.45376903770051075,1.094185090121647,-1.1564652971556613,0.8247241899119759,,-0.04730714937530631,-0.07404341185429444,0.0795457676,-0.07163176773016745,,-7.1033835e-05,-1.4901161e-06,2.7418137e-06,1.0,4.946068e-05,4.2375177e-05,-4.946068e-05,0.99999994,5.2154064e-06,-4.2364e-05,-5.3048134e-06,1.0,820,2.573,1,2,1.331,False,-0.26333354329788383,0.9993035785480904
2.5810565509891603,13:40:01.361014,13:39:47.233952,0,,0.12529466,0.008882254,0.030065656,-0.7317644,-0.5039292,-0.45888582,-0.25256062,-0.4248622,0.86931294,-0.6330354,0.7520289,0.18362626,,0.07235697,-0.016886003,0.04593146,0.7587705,-0.4294969,0.4896935,-0.15948306,0.60641754,0.77898836,-0.63153183,-0.6691712,0.3916343,,0.10706771,1.344135,0.44329655,0.9957961,0.018137466,-0.08978389,-0.044494126,-0.76100504,-0.64721835,-0.0800649,0.64849234,-0.7569989,,-0.09171964,0.2681525,-0.085219145,0.78470707,0.4381516,0.43847236,-0.5656437,0.21682104,0.79563546,0.2535389,-0.87235993,0.41797873,,-0.035709705,0.41544777,-0.3700055,-0.67723525,0.41517112,-0.60744166,-0.7223382,-0.21815814,0.6562275,0.13992837,0.88319874,0.44763833,,0.91354523989064,0.3964156011668183,0.19644626805,0.44538143996112967,0.3745206458570723,1.2694513146182893,-0.4026431230209986,,-1.0266292173679095,-0.2743037489595804,0.18999463272000003,-0.4539787276439952,1.094185090121647,-1.1565469758958018,0.8248875339781103,,-0.04730714937530631,-0.07404341185429444,0.0795457676,-0.07163176773016745,,-7.1033835e-05,-1.4901161e-06,2.7418137e-06,1.0,4.946068e-05,4.2375177e-05,-4.946068e-05,0.99999994,5.2154064e-06,-4.2364e-05,-5.3048134e-06,1.0,834,2.617,1,2,1.375,False,-0.26249945523859,0.9993518587488699
2.619534188997932,13:40:01.403967,13:39:47.360672,0,,0.12527928,0.008965895,0.030137211,-0.71810144,-0.5206279,-0.46181908,-0.2531572,-0.42271307,0.8701866,-0.6482605,0.7417952,0.17175007,,0.07236061,-0.016886227,0.045928955,0.7587737,-0.42948756,0.48969662,-0.15949097,0.6064186,0.7789859,-0.6315258,-0.6691762,0.39163512,,0.10706771,1.344135,0.44329655,0.9957961,0.018137466,-0.08978389,-0.044494126,-0.76100504,-0.64721835,-0.0800649,0.64849234,-0.7569989,,-0.0917108,0.26826328,-0.085217014,0.772418,0.45566806,0.44242182,-0.57707113,0.21259783,0.78853726,0.26525334,-0.86438924,0.4271673,,-0.03571307,0.41544503,-0.37000462,-0.67723805,0.4151622,-0.6074446,-0.7223375,-0.21816324,0.6562266,0.1399184,0.88320166,0.44763568,,0.9139390992672254,0.39616847371484315,0.19647737901,0.4294450042563059,0.3892773878317398,1.2556212487359835,-0.40198974675646126,,-1.0266369401007835,-0.27431147169245457,0.18999852159000002,-0.4539787276439952,1.094185090121647,-1.1565469758958018,0.8248875339781103,,-0.04730714937530631,-0.07404341185429444,0.0795457676,-0.07163176773016745,,-7.1033835e-05,-1.4901161e-06,2.7418137e-06,1.0,4.946068e-05,4.2375177e-05,-4.946068e-05,0.99999994,5.2154064e-06,-4.2364e-05,-5.3048134e-06,1.0,843,2.647,1,2,1.405,False,-0.2621419889274632,0.9991104577449725
2.6625361390179023,13:40:01.434690,13:39:47.360672,0,,0.12529641,0.009043515,0.030203283,-0.7044572,-0.53686553,-0.46423632,-0.25235215,-0.4218856,0.87082183,-0.66336894,0.73060787,0.16172111,,0.07236,-0.016884662,0.045927405,0.7587705,-0.42941687,0.48976362,-0.15948306,0.6065448,0.7788893,-0.63153183,-0.6691072,0.3917436,,0.10706771,1.344135,0.44329655,0.9957961,0.018137466,-0.08978389,-0.044494126,-0.76100504,-0.64721835,-0.0800649,0.64849234,-0.7569989,,-0.09173385,0.26836395,-0.08521282,0.7601331,0.4728121,0.44569772,-0.58737904,0.20672922,0.7824634,0.2778194,-0.85656977,0.4348616,,-0.035712503,0.41544458,-0.37000248,-0.67723525,0.41507187,-0.6075095,-0.7223382,-0.21805094,0.6562632,0.13992837,0.8832718,0.44749406,,0.9141553357877037,0.3959445144614906,0.19651626771000003,0.4145570182689046,0.4047173123052346,1.243439419318991,-0.40280646708713275,,-1.0266292173679095,-0.2743037489595804,0.18999981788000003,-0.4539787276439952,1.094185090121647,-1.156710333376083,0.8245608458458417,,-0.04730714937530631,-0.07404341185429444,0.0795457676,-0.07163176773016745,,-7.1033835e-05,-1.4901161e-06,2.7418137e-06,1.0,4.946068e-05,4.2375177e-05,-4.946068e-05,0.99999994,5.2154064e-06,-4.2364e-05,-5.3048134e-06,1.0,857,2.692,1,2,1.45,False,-0.2631548101423209,0.999062177544193
2.6932207950158045,13:40:01.476712,13:39:47.360672,0,,0.12535459,0.009120896,0.030291528,-0.68267554,-0.5617567,-0.4673151,-0.247663,-0.42379603,0.87124026,-0.68747145,0.71051127,0.15018877,,0.072354004,-0.016886182,0.04592389,0.75872445,-0.429325,0.4899153,-0.1593693,0.60688865,0.77864456,-0.6316157,-0.66885424,0.3920402,,0.10706771,1.344135,0.44329655,0.9957961,0.018137466,-0.08978389,-0.044494126,-0.76100504,-0.64721835,-0.0800649,0.64849234,-0.7569989,,-0.09179969,0.26847675,-0.085222624,0.74050915,0.49935836,0.44976377,-0.6012964,0.19340655,0.77526546,0.30014804,-0.8445325,0.4434817,,-0.035706084,0.4154416,-0.3700017,-0.67719525,0.4149197,-0.60765797,-0.722348,-0.2176759,0.65637684,0.1400712,0.8834358,0.4471255,,0.9142480085821943,0.3953653094959238,0.19658237850000002,0.3931686440334831,0.4316347027590264,1.228106070242181,-0.40198974675646104,,-1.0265906037035384,-0.27431147169245457,0.18999981788000003,-0.4539787276439952,1.0943217266214127,-1.1571484662403417,0.8245608458458416,,-0.04730714937530631,-0.07404341185429444,0.0795457676,-0.07163176773016745,,-7.1033835e-05,-1.4901161e-06,2.7418137e-06,1.0,4.946068e-05,4.2375177e-05,-4.946068e-05,0.99999994,5.2154064e-06,-4.2364e-05,-5.3048134e-06,1.0,871,2.736,1,2,1.494,False,-0.2618441003348577,0.9993518587488699
2.7352853800111916,13:40:01.524622,13:39:47.360672,0,,0.12534417,0.009151712,0.03031835,-0.6654457,-0.5784582,-0.47177115,-0.24706773,-0.42570978,0.870476,-0.7043717,0.695814,0.14036831,,0.072353065,-0.016885974,0.045924664,0.7586977,-0.42932537,0.48995656,-0.15925059,0.607059,0.77853614,-0.6316778,-0.6686995,0.39220396,,0.10706771,1.344135,0.44329655,0.9957961,0.018137466,-0.08978389,-0.044494126,-0.76100504,-0.64721835,-0.0800649,0.64849234,-0.7569989,,-0.09179175,0.26851818,-0.085222475,0.72480816,0.5172776,0.45505717,-0.61317235,0.18318897,0.7684149,0.31412238,-0.83598185,0.44995716,,-0.035705242,0.4154425,-0.37000188,-0.6771767,0.4148871,-0.6077009,-0.72233915,-0.21745877,0.65645856,0.14020629,0.8835046,0.44694722,,0.914340681376685,0.39466254080436936,0.19664200784000002,0.3745062390633605,0.4495340842282991,1.2162874020227292,-0.4029698111532669,,-1.0265906037035384,-0.27431147169245457,0.18999981788000003,-0.4539787276439952,1.094458363121178,-1.1573415628841788,0.8250508780442445,,-0.04730714937530631,-0.07404341185429444,0.0795457676,-0.07163176773016745,,-7.1033835e-05,-1.4901161e-06,2.7418137e-06,1.0,4.946068e-05,4.2375177e-05,-4.946068e-05,0.99999994,5.2154064e-06,-4.2364e-05,-5.3048134e-06,1.0,880,2.766,1,2,1.524,False,-0.2621419889274632,0.998531095335619
2.7831797109975014,13:40:01.555149,13:39:47.519394,0,,0.12532741,0.0091409385,0.030320138,-0.6550792,-0.5909765,-0.4707632,-0.24594149,-0.42234713,0.8724308,-0.7144116,0.6872915,0.1313251,,0.07235277,-0.016885392,0.045924664,0.75876164,-0.42970425,0.48952514,-0.15919855,0.6064039,0.77905715,-0.6316141,-0.66905046,0.39170772,,0.10706771,1.344135,0.44329655,0.9957961,0.018137466,-0.08978389,-0.044494126,-0.76100504,-0.64721835,-0.0800649,0.64849234,-0.7569989,,-0.09177517,0.26851237,-0.085232064,0.71534795,0.5304771,0.45483115,-0.6196618,0.18075573,0.7637713,0.32294986,-0.82820374,0.45801964,,-0.03570503,0.41544285,-0.37000135,-0.6772515,0.41536725,-0.6072894,-0.7222672,-0.21803355,0.65634704,0.14021559,0.8831373,0.4476697,,0.9143638495753077,0.39404472217443137,0.19667700767000001,0.36381205194564975,0.4608749137088306,1.204099281370866,-0.4029698111532669,,-1.0265983264364125,-0.2743037489595804,0.18999981788000003,-0.45418841758747974,1.094458363121178,-1.1566881329630543,0.8234174373829017,,-0.04730714937530631,-0.07404341185429444,0.0795457676,-0.07163176773016745,,-7.1033835e-05,-1.4901161e-06,2.7418137e-06,1.0,4.946068e-05,4.2375177e-05,-4.946068e-05,0.99999994,5.2154064e-06,-4.2364e-05,-5.3048134e-06,1.0,894,2.81,1,2,1.569,False,-0.2626781883941529,0.9969861289106763
2.8137119300081395,13:40:01.604356,13:39:47.519394,0,,0.12528768,0.009156257,0.030361503,-0.6363141,-0.6126243,-0.46882376,-0.24245718,-0.41811556,0.87543905,-0.7323379,0.67072403,0.11751762,,0.07235325,-0.016888283,0.045922577,0.7587837,-0.42938384,0.48977196,-0.15933165,0.6067354,0.77877176,-0.63155407,-0.66895556,0.39196658,,0.10706771,1.344135,0.44329655,0.9957961,0.018137466,-0.08978389,-0.044494126,-0.76100504,-0.64721835,-0.0800649,0.64849234,-0.7569989,,-0.09173924,0.26855376,-0.085254885,0.69819736,0.5534668,0.454087,-0.63017035,0.17415154,0.7566747,0.33971435,-0.8144604,0.47037047,,-0.035704985,0.41543952,-0.3700028,-0.67726356,0.4150042,-0.6075241,-0.7222843,-0.21783087,0.65639555,0.14006941,0.88335794,0.44727993,,0.914580086095786,0.3931179942295244,0.19673145185000002,0.3451496469755271,0.48205357117247394,1.183970750393001,-0.402479778954864,,-1.0265906037035384,-0.2743191944253288,0.18999981788000003,-0.45418841758747974,1.0943217266214127,-1.1571484662403417,0.820640588258619,,-0.04730714937530631,-0.07404341185429444,0.0795457676,-0.07163176773016745,,-7.1033835e-05,-1.4901161e-06,2.7418137e-06,1.0,4.946068e-05,4.2375177e-05,-4.946068e-05,0.99999994,5.2154064e-06,-4.2364e-05,-5.3048134e-06,1.0,903,2.839,1,2,1.597,False,-0.26333354329788383,0.99486180007638
