AlexandreBanks6/ExpertPlaybackApp/resources/Motions/Pilot_06/PC1/Data_PC1_7.csv
Task Time,PC1 Time,PC2 Time,Gaze Calib,s_T_psm1,Tx,Ty,Tz,R00,R01,R02,R10,R11,R12,R20,R21,R22,s_T_psm3,Tx,Ty,Tz,R00,R01,R02,R10,R11,R12,R20,R21,R22,cart_T_ecm,Tx,Ty,Tz,R00,R01,R02,R10,R11,R12,R20,R21,R22,ecm_T_psm1,Tx,Ty,Tz,R00,R01,R02,R10,R11,R12,R20,R21,R22,ecm_T_psm3,Tx,Ty,Tz,R00,R01,R02,R10,R11,R12,R20,R21,R22,psm1_joints,q1,q2,q3,q4,q5,q6,jaw,psm3_joints,q1,q2,q3,q4,q5,q6,jaw,ecm_joints,q1,q2,q3,q4,ecmi_T_ecm,Tx,Ty,Tz,R00,R01,R02,R10,R11,R12,R20,R21,R22,Sample #,Task Duration (s),Collisions (binary),Collisions (increments),Cumulative Collision Time (s),Clutch Press,MTMR Angle,MTML Angle
""
lci_T_si,,,,,-0.06259683,0.01659313,0.23760831,0.9956777,0.007211218,0.092595145,0.06714547,-0.7446932,-0.6640207,0.064166576,0.667368,-0.7419586
rci_T_si,,,,,-0.07226873,0.020610977,0.24667586,0.9915926,-0.008221844,0.1291379,0.082045324,-0.731784,-0.6765802,0.100063786,0.681487,-0.724957
ecm_T_lc,,,,,-4.4061628e-05,-0.00034663224,-0.01840835,-0.99912,0.030754527,0.028518902,-0.031987965,-0.99852574,-0.043852776,0.027128186,-0.04472645,0.9986309
ecm_T_rc,,,,,-0.0043358393,0.01870579,-0.007592615,-0.99555075,-0.052743673,-0.078081585,0.04863213,-0.9973746,0.053654674,-0.08070653,0.04961868,0.9955021
cart_T_ecmi,,,,,0.107138716,1.3441325,0.44329387,0.9957932,0.018087745,-0.08982618,-0.04455919,-0.76100624,-0.64721245,-0.0800649,0.64849234,-0.7569989
ecmac_T_ecmrep_psm1,,,,,0.009765618,-0.25445068,-0.30803946,0.99882644,0.038876563,0.028886087,-0.03766685,0.99843633,-0.041304655,-0.030446703,0.040168133,0.99872893
ecmac_T_ecmrep_psm3,,,,,-0.021997124,-0.45765886,-0.55608475,0.99248636,-0.054456197,0.10956896,0.02285623,0.96224946,0.27120772,-0.12020161,-0.2666656,0.9562641
""
0,13:38:24.347580,13:38:10.315106,0,,0.11994301,-0.00030465424,0.022961602,-0.9708455,-0.17178926,-0.16717547,-0.15625131,-0.0753538,0.9848387,-0.181782,0.9822475,0.046314657,,0.078117914,0.0064166337,0.016747653,-0.40049943,-0.75862586,0.513894,-0.44149932,0.6512093,0.61725575,-0.8029187,0.020326614,-0.5957417,,0.107098766,1.3441343,0.4433028,0.99579597,0.01813455,-0.08978637,-0.044497944,-0.7610051,-0.647218,-0.0800649,0.64849234,-0.7569989,,-0.08577285,0.25691074,-0.08644459,0.98344296,0.08618976,0.15940915,-0.17860542,0.6098247,0.7721489,-0.030660309,-0.7878357,0.6151218,,-0.04151522,0.40111634,-0.33551234,0.51709396,0.67512375,-0.52613854,-0.8547039,0.4401522,-0.27522218,0.04577203,0.5920084,0.80463094,,0.9032199460378018,0.3438237902933494,0.19701663565000002,0.8494539610558082,0.04809604791743504,1.1282151307279156,-0.4055833162114152,,-0.9405979731490484,-0.1687648815004282,0.21914819482000003,1.0220287845435716,0.2921288364985117,0.1686303265371915,0.8750341622813339,,-0.04730714937530631,-0.07404341185429444,0.0795457676,-0.07163176773016745,,-4.0579587e-05,3.6358833e-06,-4.2915344e-06,1.0000001,4.6554953e-05,3.989041e-05,-4.6558678e-05,0.99999994,4.887581e-06,-3.9882958e-05,-4.976988e-06,1.0,34,0.103,0,0,0.0,False,-0.2637505873275314,1.049418426957168
0.12696730898460373,13:38:24.367566,13:38:10.315106,0,,0.11998047,-0.0002680719,0.02327311,-0.9705307,-0.17390661,-0.1668137,-0.15591832,-0.07463229,0.98494637,-0.18373838,0.9819299,0.04531765,,0.07808306,0.006411493,0.016734838,-0.40018985,-0.75907904,0.51346576,-0.44202128,0.6506872,0.61743283,-0.8027859,0.020127475,-0.5959275,,0.107098766,1.3441343,0.4433028,0.99579597,0.01813455,-0.08978637,-0.044497944,-0.7610051,-0.647218,-0.0800649,0.64849234,-0.7569989,,-0.085837305,0.2571435,-0.08664818,0.98329794,0.08832439,0.15913488,-0.17968258,0.6102765,0.7715418,-0.02897032,-0.78724927,0.615954,,-0.04147901,0.4011074,-0.3355084,0.5168351,0.675649,-0.5257185,-0.85488886,0.4397834,-0.27523732,0.045238458,0.5916832,0.8049003,,0.9035288553527707,0.34473507277250787,0.19676385910000002,0.8486152012818701,0.04959904941485488,1.12625442512599,-0.4062366924759525,,-0.9404280730258154,-0.1687648815004282,0.21913912079000003,1.0213997147131182,0.2921288364985117,0.16879368401747263,0.8747074741490654,,-0.04730714937530631,-0.07404341185429444,0.0795457676,-0.07163176773016745,,-4.0579587e-05,3.6358833e-06,-4.2915344e-06,1.0000001,4.6554953e-05,3.989041e-05,-4.6558678e-05,0.99999994,4.887581e-06,-3.9882958e-05,-4.976988e-06,1.0,42,0.127,0,0,0.0,False,-0.2637505873275314,1.0497563883626244
0.1469349270046223,13:38:24.394721,13:38:10.315106,0,,0.1200254,-0.00024473667,0.02357769,-0.97036785,-0.17554569,-0.16604276,-0.15518863,-0.07394597,0.9851134,-0.18521063,0.98169005,0.044511974,,0.078052066,0.006404862,0.016724646,-0.40010303,-0.75901693,0.5136252,-0.44195783,0.65076286,0.61739844,-0.8028641,0.020022243,-0.5958256,,0.107098766,1.3441343,0.4433028,0.99579597,0.01813455,-0.08978637,-0.044497944,-0.7610051,-0.647218,-0.0800649,0.64849234,-0.7569989,,-0.08590855,0.25736132,-0.08685508,0.98326105,0.08997592,0.1584362,-0.18013304,0.6107251,0.7710816,-0.027382184,-0.78671414,0.6167099,,-0.041446686,0.40109947,-0.3355073,0.51674885,0.6755882,-0.52588135,-0.85493624,0.4397221,-0.27518803,0.045327876,0.5917981,0.80481076,,0.9037528146061232,0.34560774158729524,0.19651108255000002,0.8484055113383855,0.050828777912743844,1.1245165553314571,-0.4055833162114153,,-0.9402658956354567,-0.16877260423330243,0.21913004676000003,1.0213997147131182,0.2924021094980425,0.16857084821007984,0.8747074741490654,,-0.04730714937530631,-0.07404341185429444,0.0795457676,-0.07163176773016745,,-4.0579587e-05,3.6358833e-06,-4.2915344e-06,1.0000001,4.6554953e-05,3.989041e-05,-4.6558678e-05,0.99999994,4.887581e-06,-3.9882958e-05,-4.976988e-06,1.0,50,0.151,0,0,0.0,False,-0.26434636451274196,1.0496115477602863
0.1740909710060805,13:38:24.426426,13:38:10.315106,0,,0.12012735,-0.0002297759,0.023949549,-0.97002226,-0.17913929,-0.16421375,-0.15356535,-0.07186815,0.98552144,-0.18834732,0.9811951,0.042204052,,0.07801524,0.0063970983,0.016709745,-0.40011898,-0.75905186,0.51356125,-0.44197583,0.65072095,0.6174297,-0.8028462,0.020063609,-0.5958483,,0.107098766,1.3441343,0.4433028,0.99579597,0.01813455,-0.08978637,-0.044497944,-0.7610051,-0.647218,-0.0800649,0.64849234,-0.7569989,,-0.08604242,0.2576144,-0.08711381,0.9831837,0.093592286,0.15681298,-0.1810417,0.61215466,0.7697341,-0.023952633,-0.7851797,0.61880463,,-0.04140806,0.4010878,-0.33550453,0.5167651,0.67562383,-0.5258196,-0.85492766,0.43974158,-0.2751836,0.04530416,0.591743,0.8048526,,0.903814596469117,0.3466966469225609,0.19619867666000002,0.848195821394901,0.053698144407818095,1.1210332769918643,-0.4059100043436842,,-0.9400728273136011,-0.16878032696617665,0.21912097273000003,1.0213997147131182,0.292538745997808,0.16854110904652397,0.8748708182151996,,-0.04730714937530631,-0.07404341185429444,0.0795457676,-0.07163176773016745,,-4.0579587e-05,3.6358833e-06,-4.2915344e-06,1.0000001,4.6554953e-05,3.989041e-05,-4.6558678e-05,0.99999994,4.887581e-06,-3.9882958e-05,-4.976988e-06,1.0,61,0.185,0,0,0.0,False,-0.26327396557936344,1.0502391903704191
0.20580550699378364,13:38:24.450160,13:38:10.315106,0,,0.12027842,-0.00022657216,0.024347916,-0.9683914,-0.1880186,-0.16391261,-0.15350366,-0.06874761,0.98575366,-0.19660865,0.97975636,0.03771296,,0.07788963,0.0063415617,0.016693473,-0.4000524,-0.75916517,0.5134457,-0.44208676,0.65058947,0.61748886,-0.80281836,0.020040274,-0.5958866,,0.107098766,1.3441343,0.4433028,0.99579597,0.01813455,-0.08978637,-0.044497944,-0.7610051,-0.647218,-0.0800649,0.64849234,-0.7569989,,-0.08622748,0.25787345,-0.08739697,0.9822753,0.102553025,0.15690172,-0.18660666,0.61404806,0.7668917,-0.017698132,-0.7825777,0.62230134,,-0.04127601,0.40106305,-0.3355374,0.5167093,0.67575294,-0.52570856,-0.8549674,0.43967167,-0.27517185,0.04519098,0.59164757,0.80492914,,0.9037682600718717,0.34780099772357503,0.19586164126000002,0.8440020225252106,0.06025669639655924,1.1155218601341552,-0.40623669247595273,,-0.9399260953889909,-0.16878032696617665,0.21911189870000003,1.0211900247696335,0.29267538249757347,0.1685930486231087,0.8751975063474683,,-0.04730714937530631,-0.07404341185429444,0.0795457676,-0.07163176773016745,,-4.0579587e-05,3.6358833e-06,-4.2915344e-06,1.0000001,4.6554953e-05,3.989041e-05,-4.6558678e-05,0.99999994,4.887581e-06,-3.9882958e-05,-4.976988e-06,1.0,69,0.208,0,0,0.0,False,-0.2636910096090097,1.049514987358727
0.22954081199713983,13:38:24.476624,13:38:10.315106,0,,0.12035364,-0.0002374053,0.024606168,-0.9677098,-0.19204158,-0.163272,-0.15294333,-0.06753281,0.98592466,-0.20036474,0.9790604,0.035980612,,0.07792817,0.0063491836,0.016691267,-0.39994332,-0.75916505,0.51353085,-0.44205716,0.65059215,0.6175073,-0.80288893,0.0199579,-0.5957943,,0.10704657,1.3441349,0.4433008,0.99579877,0.018182518,-0.08974557,-0.044435173,-0.761004,-0.64722365,-0.0800649,0.64849234,-0.7569989,,-0.08628167,0.25803223,-0.087598525,0.98192996,0.10661993,0.15635121,-0.18869114,0.61473775,0.76582843,-0.014462411,-0.781492,0.62374765,,-0.0412684,0.40106225,-0.3355372,0.5166432,0.6757146,-0.52582276,-0.85500354,0.43963143,-0.27512392,0.045262966,0.59172124,0.80487096,,0.9037528146061232,0.34844198455213565,0.19563090164000002,0.8425341929208188,0.06339933589116437,1.1131226058294184,-0.40656338060822106,,-0.9398874817246198,-0.16878032696617665,0.21910930612,1.0211900247696335,0.2928120189973389,0.1684816307194123,0.8751975063474683,,-0.04730714937530631,-0.07404341185429444,0.0795457676,-0.07163176773016745,,-9.242073e-05,8.940697e-07,1.4305115e-06,1.0000001,9.4272196e-05,8.0771744e-05,-9.427592e-05,0.99999994,9.924173e-06,-8.0764294e-05,-1.001358e-05,1.0,77,0.233,0,0,0.0,False,-0.2641080536386573,1.0496598279610654
0.25597869098419324,13:38:24.500253,13:38:10.315106,0,,0.120462194,-0.0002709329,0.024960652,-0.9661542,-0.20007518,-0.16283716,-0.152818,-0.064646095,0.9861375,-0.20782845,0.9776455,0.03188294,,0.07792805,0.006350957,0.016691983,-0.39940724,-0.75972974,0.51311266,-0.4426519,0.64994323,0.61776453,-0.8028282,0.019609272,-0.5958878,,0.10704657,1.3441349,0.4433008,0.99579877,0.018182518,-0.08974557,-0.044435173,-0.761004,-0.64722365,-0.0800649,0.64849234,-0.7569989,,-0.086420454,0.2582373,-0.08787648,0.9810272,0.11473661,0.15627271,-0.19367217,0.6164228,0.7632261,-0.008760082,-0.77901125,0.6269488,,-0.041268542,0.40106377,-0.335536,0.5161748,0.6763778,-0.52542996,-0.8553165,0.4390864,-0.27502146,0.044690747,0.5913681,0.80516243,,0.9037605373389974,0.34920653510668387,0.19531331059,0.8387597739380974,0.06954797838060918,1.1081904789032202,-0.4064000365420867,,-0.939895204457494,-0.16878032696617665,0.21910930612,1.0203512649956954,0.2928120189973389,0.168726666939834,0.8747074741490655,,-0.04730714937530631,-0.07404341185429444,0.0795457676,-0.07163176773016745,,-9.242073e-05,8.940697e-07,1.4305115e-06,1.0000001,9.4272196e-05,8.0771744e-05,-9.427592e-05,0.99999994,9.924173e-06,-8.0764294e-05,-1.001358e-05,1.0,88,0.267,0,0,0.0,False,-0.2644655199497832,1.0494667071579475
0.2796007680008188,13:38:24.529500,13:38:10.468479,0,,0.120613515,-0.0002848655,0.025265098,-0.9627573,-0.21664777,-0.16174722,-0.15205757,-0.06078607,0.9865005,-0.22355513,0.97435546,0.025579274,,0.07793612,0.0063507333,0.01669699,-0.3992512,-0.7599104,0.5129667,-0.4427849,0.6497335,0.61788976,-0.8028325,0.019559294,-0.59588367,,0.10704657,1.3441349,0.4433008,0.99579877,0.018182518,-0.08974557,-0.044435173,-0.761004,-0.64722365,-0.0800649,0.64849234,-0.7569989,,-0.08659758,0.25842094,-0.0881016,0.9790046,0.13151954,0.15573244,-0.20380642,0.6180958,0.75922364,0.0035951806,-0.7750227,0.63192314,,-0.041276943,0.40106687,-0.33553916,0.51603585,0.6765847,-0.5253,-0.85540664,0.4389639,-0.27493662,0.044569828,0.5912223,0.8052762,,0.9038300419348655,0.34977801733937647,0.19505664517000001,0.8312109359726545,0.08348490135668411,1.1007464322529321,-0.40738010093889243,,-0.9399415408547394,-0.1687880496990509,0.21911060241000002,1.020141575052211,0.2928120189973389,0.16889002442011508,0.8750341622813339,,-0.04730714937530631,-0.07404341185429444,0.0795457676,-0.07163176773016745,,-9.242073e-05,8.940697e-07,1.4305115e-06,1.0000001,9.4272196e-05,8.0771744e-05,-9.427592e-05,0.99999994,9.924173e-06,-8.0764294e-05,-1.001358e-05,1.0,96,0.291,0,0,0.0,False,-0.26404847592013647,1.04927358635483
0.30887915097991936,13:38:24.559590,13:38:10.468479,0,,0.12079489,-0.00028400123,0.025582343,-0.95798755,-0.23932783,-0.15805686,-0.14730932,-0.062265784,0.9871285,-0.24608886,0.9689401,0.024394572,,0.077940464,0.0063546225,0.016701162,-0.3989821,-0.75984955,0.5132662,-0.44256988,0.6498096,0.6179639,-0.80308473,0.019400299,-0.5955488,,0.10704657,1.3441349,0.4433008,0.99579877,0.018182518,-0.08974557,-0.044435173,-0.761004,-0.64722365,-0.0800649,0.64849234,-0.7569989,,-0.086805776,0.2586223,-0.088324435,0.97619194,0.15458849,0.15215673,-0.21560502,0.61475605,0.7586761,0.02374332,-0.77341926,0.63345,,-0.041282054,0.40107182,-0.33553815,0.51576734,0.6765298,-0.52563435,-0.855553,0.43885678,-0.27465218,0.044867795,0.5913647,0.8051551,,0.9041003375854634,0.35024138131182997,0.19480646120000003,0.8234524080637271,0.10562001431868547,1.0974805838195536,-0.4049299399468782,,-0.9399569863204877,-0.16878032696617665,0.21911060241000002,1.020141575052211,0.2932219284966352,0.1687191281893069,0.8747074741490654,,-0.04730714937530631,-0.07404341185429444,0.0795457676,-0.07163176773016745,,-9.242073e-05,8.940697e-07,1.4305115e-06,1.0000001,9.4272196e-05,8.0771744e-05,-9.427592e-05,0.99999994,9.924173e-06,-8.0764294e-05,-1.001358e-05,1.0,104,0.315,0,0,0.0,False,-0.26470383082386784,1.048983905150153
0.3389079789922107,13:38:24.585960,13:38:10.468479,0,,0.12087275,-0.000332281,0.025912419,-0.95468605,-0.25408915,-0.15496221,-0.14208601,-0.06838539,0.9874891,-0.26150742,0.96476007,0.029183984,,0.07793978,0.0063575134,0.016702473,-0.39862803,-0.76014996,0.5130963,-0.4427969,0.6494633,0.61816525,-0.80313545,0.019220531,-0.5954863,,0.10704657,1.3441349,0.4433008,0.99579877,0.018182518,-0.08974557,-0.044435173,-0.761004,-0.64722365,-0.0800649,0.64849234,-0.7569989,,-0.08691181,0.25880197,-0.08859612,0.97422326,0.1696764,0.14865722,-0.22221468,0.60831684,0.7619523,0.038854618,-0.77534544,0.630341,,-0.041281823,0.40107447,-0.33553627,0.5154472,0.6768823,-0.5254945,-0.8557558,0.4385712,-0.27447638,0.044678546,0.59117305,0.8053063,,0.9045714242907911,0.3504730632980567,0.19451479595,0.8196779890810056,0.12201639429053832,1.1004461834040955,-0.40264312302099814,,-0.9399569863204877,-0.16877260423330243,0.21911060241000002,1.019722195165242,0.2933585649964006,0.16885274650603221,0.8742174419506625,,-0.04730714937530631,-0.07404341185429444,0.0795457676,-0.07163176773016745,,-9.242073e-05,8.940697e-07,1.4305115e-06,1.0000001,9.4272196e-05,8.0771744e-05,-9.427592e-05,0.99999994,9.924173e-06,-8.0764294e-05,-1.001358e-05,1.0,123,0.373,0,0,0.0,False,-0.26404847592013647,1.0498529487641832
0.3653358989977278,13:38:24.646645,13:38:10.608961,0,,0.120747715,-0.0003591329,0.026258364,-0.95081496,-0.26707554,-0.15691274,-0.14481862,-0.064522594,0.98735213,-0.273822,0.96151304,0.02267155,,0.07793882,0.0063587204,0.016704142,-0.3980249,-0.76047194,0.5130874,-0.44283214,0.64909345,0.61852837,-0.80341506,0.01897803,-0.59511673,,0.10704657,1.3441349,0.4433008,0.99579877,0.018182518,-0.08974557,-0.044435173,-0.761004,-0.64722365,-0.0800649,0.64849234,-0.7569989,,-0.08681717,0.25902042,-0.08887784,0.97144365,0.18288293,0.15116565,-0.23269418,0.6098036,0.75762326,0.046375014,-0.77116364,0.63494563,,-0.041281153,0.40107664,-0.33553603,0.5148789,0.6772643,-0.5255595,-0.85609376,0.438223,-0.27397826,0.044756584,0.5909939,0.8054335,,0.905876566146535,0.3504807860309309,0.19420627893000003,0.8100322516807175,0.13253740477247725,1.0926837922208765,-0.40656338060822117,,-0.9399415408547394,-0.16878032696617665,0.21911060241000002,1.0193028152782728,0.2939051109954624,0.16897882607223041,0.875034162281334,,-0.04730714937530631,-0.07404341185429444,0.0795457676,-0.07163176773016745,,-9.242073e-05,8.940697e-07,1.4305115e-06,1.0000001,9.4272196e-05,8.0771744e-05,-9.427592e-05,0.99999994,9.924173e-06,-8.0764294e-05,-1.001358e-05,1.0,131,0.398,0,0,0.0,False,-0.2629164992682367,1.0492253061540504
0.4260314379935153,13:38:24.666653,13:38:10.608961,0,,0.12072538,-0.00036762655,0.026395887,-0.9488603,-0.276105,-0.15306988,-0.14191134,-0.060076296,0.9880545,-0.2820027,0.95924795,0.01782152,,0.07793589,0.006358303,0.01670301,-0.39773205,-0.76073974,0.51291764,-0.44285795,0.6487794,0.6188392,-0.80354583,0.01898253,-0.59493995,,0.10704657,1.3441349,0.4433008,0.99579877,0.018182518,-0.08974557,-0.044435173,-0.761004,-0.64722365,-0.0800649,0.64849234,-0.7569989,,-0.08680681,0.25910723,-0.08898666,0.9701964,0.19206043,0.14775567,-0.23611246,0.61213946,0.7546762,0.054496363,-0.76707107,0.63924336,,-0.0412781,0.4010758,-0.33553565,0.51460356,0.6775645,-0.52544224,-0.85625786,0.43810734,-0.2736502,0.044784423,0.5907354,0.8056215,,0.9064557711121018,0.3504035587021887,0.19409220541000002,0.8079353522458724,0.14169205025676176,1.0863622950351843,-0.40721675687275827,,-0.9399183726561167,-0.1687880496990509,0.21911060241000002,1.0190931253347884,0.2941783839949933,0.169246062705681,0.8743807860167968,,-0.04730714937530631,-0.07404341185429444,0.0795457676,-0.07163176773016745,,-9.242073e-05,8.940697e-07,1.4305115e-06,1.0000001,9.4272196e-05,8.0771744e-05,-9.427592e-05,0.99999994,9.924173e-06,-8.0764294e-05,-1.001358e-05,1.0,139,0.422,0,0,0.0,False,-0.26285692154971585,1.04927358635483
0.4460100609867368,13:38:24.694834,13:38:10.608961,0,,0.12064949,-0.00039333105,0.026678264,-0.9459054,-0.2875857,-0.1501914,-0.1379804,-0.06239164,0.9884677,-0.2936399,0.9557204,0.0193353,,0.077938184,0.0063589886,0.016704738,-0.3975908,-0.7608461,0.51286936,-0.44300058,0.6486585,0.6188639,-0.80353713,0.018853128,-0.5949558,,0.10704657,1.3441349,0.4433008,0.99579877,0.018182518,-0.08974557,-0.044435173,-0.761004,-0.64722365,-0.0800649,0.64849234,-0.7569989,,-0.08675562,0.25928116,-0.08921749,0.9682494,0.20381123,0.14475542,-0.24113756,0.6087614,0.75581884,0.06592285,-0.76672715,0.6385794,,-0.04128061,0.40107736,-0.33553606,0.51447916,0.67769486,-0.52539593,-0.85633963,0.43795055,-0.27364522,0.044649467,0.5907021,0.8056534,,0.9075678446459902,0.35032633137344643,0.19384720660000002,0.8045803131501199,0.15480915423424405,1.0858760187978982,-0.40460325181460965,,-0.939933818121865,-0.1687880496990509,0.21911060241000002,1.0188834353913039,0.2941783839949933,0.169246062705681,0.8743807860167968,,-0.04730714937530631,-0.07404341185429444,0.0795457676,-0.07163176773016745,,-9.242073e-05,8.940697e-07,1.4305115e-06,1.0000001,9.4272196e-05,8.0771744e-05,-9.427592e-05,0.99999994,9.924173e-06,-8.0764294e-05,-1.001358e-05,1.0,147,0.446,0,0,0.0,False,-0.2631548101423209,1.0490321853509326
0.4742184350034222,13:38:24.717681,13:38:10.608961,0,,0.12058298,-0.00040771067,0.026825354,-0.94488084,-0.2914,-0.1492858,-0.13600807,-0.06542319,0.988545,-0.2978288,0.9543614,0.022184342,,0.07794097,0.006360255,0.01670754,-0.3973629,-0.7609463,0.51289725,-0.44307473,0.6485457,0.61892897,-0.803609,0.018687576,-0.5948641,,0.10704657,1.3441349,0.4433008,0.99579877,0.018182518,-0.08974557,-0.044435173,-0.761004,-0.64722365,-0.0800649,0.64849234,-0.7569989,,-0.08670207,0.25937262,-0.08934008,0.9675856,0.20773877,0.14360589,-0.24253024,0.6058348,0.75772244,0.07040689,-0.7679901,0.63657993,,-0.041283756,0.40107998,-0.33553654,0.5142684,0.6778214,-0.525439,-0.8564683,0.43776593,-0.27353793,0.044609435,0.5906938,0.80566174,,0.9082242769402993,0.35027227224332685,0.19371628131000002,0.8037415533761818,0.16000134122533075,1.087849722708117,-0.40738010093889243,,-0.9399492635876135,-0.1687880496990509,0.21911060241000002,1.0186737454478194,0.2943150204947587,0.16921632354212512,0.874544130082931,,-0.04730714937530631,-0.07404341185429444,0.0795457676,-0.07163176773016745,,-9.242073e-05,8.940697e-07,1.4305115e-06,1.0000001,9.4272196e-05,8.0771744e-05,-9.427592e-05,0.99999994,9.924173e-06,-8.0764294e-05,-1.001358e-05,1.0,155,0.47,0,0,0.0,False,-0.2634526987349264,1.0489356249493738
0.4970624370034784,13:38:24.747509,13:38:10.608961,0,,0.12043469,-0.00040878356,0.02698867,-0.94328123,-0.295524,-0.15128112,-0.13780537,-0.06603578,0.9882554,-0.30204317,0.9530502,0.021565408,,0.077942565,0.0063623264,0.016710281,-0.39691928,-0.76106805,0.5130601,-0.4432329,0.6484148,0.618953,-0.80374104,0.018269211,-0.59469867,,0.10704657,1.3441349,0.4433008,0.99579877,0.018182518,-0.08974557,-0.044435173,-0.761004,-0.64722365,-0.0800649,0.64849234,-0.7569989,,-0.08656851,0.25948977,-0.089470856,0.96636343,0.21196295,0.14564829,-0.24677327,0.6047546,0.75721514,0.07242008,-0.76768714,0.6367196,,-0.04128581,0.4010832,-0.33553624,0.5138589,0.6779936,-0.5256175,-0.85671896,0.437358,-0.27340564,0.044515725,0.5907984,0.8055903,,0.9092668458783195,0.3501332630515908,0.19357239312000002,0.7993380645630069,0.16369052671899764,1.0866383715914059,-0.40541997214528114,,-0.9399569863204877,-0.1687880496990509,0.21911060241000002,1.0182543655608502,0.2945882934942896,0.16899348773473227,0.874544130082931,,-0.04730714937530631,-0.07404341185429444,0.0795457676,-0.07163176773016745,,-9.242073e-05,8.940697e-07,1.4305115e-06,1.0000001,9.4272196e-05,8.0771744e-05,-9.427592e-05,0.99999994,9.924173e-06,-8.0764294e-05,-1.001358e-05,1.0,166,0.504,0,0,0.0,False,-0.2629164992682367,1.0488390645478147
0.5268741110048722,13:38:24.769247,13:38:10.608961,0,,0.120369345,-0.00041018426,0.027082533,-0.9421135,-0.29974163,-0.1502568,-0.137208,-0.06424469,0.98845655,-0.3059348,0.9518547,0.019398808,,0.077938564,0.0063618794,0.016707659,-0.39693138,-0.7610733,0.5130429,-0.4432428,0.6484083,0.61895263,-0.80372953,0.018279135,-0.59471387,,0.10704657,1.3441349,0.4433008,0.99579877,0.018182518,-0.08974557,-0.044435173,-0.761004,-0.64722365,-0.0800649,0.64849234,-0.7569989,,-0.08651154,0.25955534,-0.08954529,0.96553564,0.21626253,0.14481512,-0.24899702,0.6055418,0.7558569,0.075771905,-0.76586527,0.63852096,,-0.041281562,0.4010812,-0.33553505,0.5138711,0.67799866,-0.52559906,-0.85671234,0.43736404,-0.27341658,0.044502042,0.59078807,0.80559856,,0.9098460508438864,0.3500328675242259,0.19349331943000003,0.7974508550716461,0.1679262582117263,1.0836744890176602,-0.40656338060822095,,-0.939933818121865,-0.1687880496990509,0.21911060241000002,1.0182543655608502,0.2945882934942896,0.16899348773473227,0.874544130082931,,-0.04730714937530631,-0.07404341185429444,0.0795457676,-0.07163176773016745,,-9.242073e-05,8.940697e-07,1.4305115e-06,1.0000001,9.4272196e-05,8.0771744e-05,-9.427592e-05,0.99999994,9.924173e-06,-8.0764294e-05,-1.001358e-05,1.0,174,0.529,0,0,0.0,False,-0.26351227645344677,1.048742504146256
0.5486255619907752,13:38:24.800137,13:38:10.752211,0,,0.12032519,-0.0004184544,0.02726236,-0.9387375,-0.31081223,-0.14888844,-0.13527162,-0.06504616,0.988671,-0.3169757,0.94824284,0.01901722,,0.07793689,0.0063643977,0.016706526,-0.39631584,-0.76154953,0.5128121,-0.443774,0.6478622,0.61914384,-0.8037402,0.017803818,-0.59471387,,0.10704657,1.3441349,0.4433008,0.99579877,0.018182518,-0.08974557,-0.044435173,-0.761004,-0.64722365,-0.0800649,0.64849234,-0.7569989,,-0.08648313,0.25967184,-0.0896866,0.9631237,0.22760722,0.14348431,-0.2551305,0.6032066,0.75567865,0.08544723,-0.7644192,0.63903207,,-0.04128009,0.40108168,-0.33553222,0.51332307,0.6785738,-0.5253923,-0.8570659,0.4367492,-0.27329135,0.044016313,0.5905826,0.8057759,,0.9106492150628057,0.34990158106536406,0.19334813495000003,0.7926279863715021,0.1794037241920233,1.0816664717198115,-0.4064000365420868,,-0.9399260953889909,-0.1687880496990509,0.21911189870000003,1.0174156057869121,0.29472492999405503,0.16904542731131694,0.8742174419506624,,-0.04730714937530631,-0.07404341185429444,0.0795457676,-0.07163176773016745,,-9.242073e-05,8.940697e-07,1.4305115e-06,1.0000001,9.4272196e-05,8.0771744e-05,-9.427592e-05,0.99999994,9.924173e-06,-8.0764294e-05,-1.001358e-05,1.0,186,0.565,0,0,0.0,False,-0.262797343831195,1.0488390645478147
0.5795170289929956,13:38:24.827603,13:38:10.752211,0,,0.12033555,-0.0004246235,0.02734673,-0.93721783,-0.31623057,-0.14704102,-0.13285404,-0.06609109,0.9889295,-0.32244787,0.9463773,0.01992923,,0.07793693,0.006366469,0.016707897,-0.396228,-0.7615881,0.51282275,-0.4437021,0.6478164,0.61924326,-0.8038233,0.017820895,-0.5946011,,0.10704657,1.3441349,0.4433008,0.99579877,0.018182518,-0.08974557,-0.044435173,-0.761004,-0.64722365,-0.0800649,0.64849234,-0.7569989,,-0.08650075,0.25972292,-0.08975251,0.96207654,0.2331703,0.14156394,-0.25707883,0.60151386,0.7563674,0.09120974,-0.76407635,0.63864547,,-0.041280497,0.40108392,-0.33553115,0.5132353,0.67861557,-0.5254241,-0.8571134,0.43674642,-0.27314678,0.044115458,0.59053665,0.80580413,,0.9109040652476551,0.3498861355996156,0.19328202416,0.7915795366540794,0.18568900318123358,1.081605330038491,-0.4057466602775497,,-0.9399260953889909,-0.16878032696617665,0.21911189870000003,1.0174156057869121,0.29486156649382045,0.16909736688790167,0.8742174419506625,,-0.04730714937530631,-0.07404341185429444,0.0795457676,-0.07163176773016745,,-9.242073e-05,8.940697e-07,1.4305115e-06,1.0000001,9.4272196e-05,8.0771744e-05,-9.427592e-05,0.99999994,9.924173e-06,-8.0764294e-05,-1.001358e-05,1.0,194,0.589,0,0,0.0,False,-0.2632143878608417,1.0489356249493738
0.6069489869987592,13:38:24.861375,13:38:10.752211,0,,0.120447144,-0.00039596856,0.027525365,-0.92979604,-0.3398863,-0.1412685,-0.12633207,-0.06580132,0.9898031,-0.34571618,0.9381617,0.018243223,,0.077938706,0.006368421,0.016711235,-0.39543205,-0.76204515,0.512758,-0.4440925,0.6472938,0.61950994,-0.8039996,0.017262042,-0.5943792,,0.10704657,1.3441349,0.4433008,0.99579877,0.018182518,-0.08974557,-0.044435173,-0.761004,-0.64722365,-0.0800649,0.64849234,-0.7569989,,-0.086627506,0.25985664,-0.089858525,0.95667976,0.25744838,0.13595662,-0.26821122,0.59767836,0.75554174,0.113254674,-0.75927657,0.6408373,,-0.04128277,0.4010875,-0.33553123,0.51250744,0.67917645,-0.5254098,-0.85756373,0.43606883,-0.2728158,0.04382478,0.59039253,0.8059256,,0.9114601020145993,0.34983207646949604,0.19318739499,0.783821008745152,0.21028357313901283,1.0762522805984363,-0.40672672467435533,,-0.939933818121865,-0.1687880496990509,0.21911189870000003,1.016576846012974,0.2952714759931168,0.16908982813737466,0.874544130082931,,-0.04730714937530631,-0.07404341185429444,0.0795457676,-0.07163176773016745,,-9.242073e-05,8.940697e-07,1.4305115e-06,1.0000001,9.4272196e-05,8.0771744e-05,-9.427592e-05,0.99999994,9.924173e-06,-8.0764294e-05,-1.001358e-05,1.0,213,0.648,0,0,0.0,False,-0.2637505873275314,1.0488873447485942
0.640735364984721,13:38:24.910696,13:38:10.752211,0,,0.120485365,-0.00035983324,0.027691111,-0.92262334,-0.3605278,-0.1370623,-0.119396515,-0.070940495,0.9903089,-0.36675718,0.93004674,0.022405535,,0.07793799,0.006374471,0.016714394,-0.39512157,-0.76223433,0.51271623,-0.44409388,0.64707315,0.61973923,-0.80415136,0.017178178,-0.5941762,,0.10704657,1.3441349,0.4433008,0.99579877,0.018182518,-0.08974557,-0.044435173,-0.761004,-0.64722365,-0.0800649,0.64849234,-0.7569989,,-0.08668007,0.25999174,-0.089954555,0.9513366,0.27873242,0.13140364,-0.27753535,0.5896973,0.75844,0.13391344,-0.7580009,0.6383587,,-0.041283023,0.4010933,-0.33552757,0.5122137,0.67939603,-0.5254124,-0.8577362,0.43591297,-0.27252245,0.043883376,0.5902549,0.8060232,,0.9123327708293867,0.34963900814764043,0.19310702501000002,0.7773206204971318,0.23351177809913773,1.0768324558636388,-0.4062366924759524,,-0.939933818121865,-0.1687648815004282,0.21911189870000003,1.0163671560694896,0.29554474899264765,0.16919370729054406,0.8745441300829311,,-0.04730714937530631,-0.07404341185429444,0.0795457676,-0.07163176773016745,,-9.242073e-05,8.940697e-07,1.4305115e-06,1.0000001,9.4272196e-05,8.0771744e-05,-9.427592e-05,0.99999994,9.924173e-06,-8.0764294e-05,-1.001358e-05,1.0,217,0.66,0,0,0.0,False,-0.26297607698675796,1.049514987358727
0.6900787219929043,13:38:24.931248,13:38:10.752211,0,,0.12043628,-0.00033570826,0.027807057,-0.9177487,-0.37493122,-0.13101134,-0.111370124,-0.07368842,0.9910431,-0.381227,0.92411935,0.025871247,,0.077939615,0.0063739195,0.01671648,-0.39459756,-0.7625129,0.5127056,-0.4441927,0.6467519,0.62000376,-0.80435413,0.016911834,-0.5939094,,0.10704657,1.3441349,0.4433008,0.99579877,0.018182518,-0.08974557,-0.044435173,-0.761004,-0.64722365,-0.0800649,0.64849234,-0.7569989,,-0.086641304,0.26008996,-0.09002723,0.9477095,0.2936044,0.12507254,-0.28152615,0.5845736,0.7609315,0.15029871,-0.7563532,0.6366633,,-0.04128475,0.40109462,-0.3355292,0.5117242,0.67973167,-0.5254553,-0.8580289,0.4355625,-0.27216113,0.043872077,0.5901272,0.8061173,,0.9134062306989039,0.34926059423680345,0.19305387712000002,0.7754334110057711,0.2516844325679413,1.0769610841177377,-0.4106469822615779,,-0.939933818121865,-0.16878032696617665,0.21911189870000003,1.0159477761825206,0.295954658491944,0.16926784728015754,0.8747074741490654,,-0.04730714937530631,-0.07404341185429444,0.0795457676,-0.07163176773016745,,-9.242073e-05,8.940697e-07,1.4305115e-06,1.0000001,9.4272196e-05,8.0771744e-05,-9.427592e-05,0.99999994,9.924173e-06,-8.0764294e-05,-1.001358e-05,1.0,229,0.697,0,0,0.0,False,-0.2636314318904893,1.0491287457524916
0.7106307249923702,13:38:24.959061,13:38:10.752211,0,,0.120382026,-0.00032393634,0.027868196,-0.91357887,-0.38670513,-0.12582912,-0.105005674,-0.07460436,0.9916692,-0.392871,0.91918075,0.027550668,,0.07793751,0.0063730553,0.016715229,-0.39438686,-0.76270056,0.5125884,-0.44428295,0.64653206,0.6201683,-0.8044076,0.016851932,-0.5938387,,0.10704657,1.3441349,0.4433008,0.99579877,0.018182518,-0.08974557,-0.044435173,-0.761004,-0.64722365,-0.0800649,0.64849234,-0.7569989,,-0.0865926,0.2601428,-0.09006794,0.9445447,0.3057652,0.1197622,-0.28482267,0.58131075,0.76220334,0.1634362,-0.7540461,0.6361628,,-0.041282468,0.4010934,-0.33552918,0.51153064,0.6799476,-0.5253642,-0.85814744,0.4354274,-0.2720035,0.04380986,0.5899781,0.8062298,,0.9142866222465654,0.3488049529972242,0.19303702535000003,0.7737558914578948,0.26644117454260885,1.0758729016973596,-0.4031331552194011,,-0.9399183726561167,-0.1687880496990509,0.21911189870000003,1.015738086239036,0.29609129499170944,0.1694014655968829,0.8748708182151996,,-0.04730714937530631,-0.07404341185429444,0.0795457676,-0.07163176773016745,,-9.242073e-05,8.940697e-07,1.4305115e-06,1.0000001,9.4272196e-05,8.0771744e-05,-9.427592e-05,0.99999994,9.924173e-06,-8.0764294e-05,-1.001358e-05,1.0,237,0.72,0,0,0.0,False,-0.2631548101423209,1.0488390645478147
0.7384219479863532,13:38:24.993597,13:38:10.953947,0,,0.12021969,-0.00033159554,0.027962387,-0.9036046,-0.41224933,-0.11640113,-0.090672135,-0.08150634,0.99253964,-0.41866127,0.9074178,0.036270022,,0.07794315,0.0063734725,0.016721189,-0.39381486,-0.7628957,0.5127378,-0.44408876,0.6463064,0.6205425,-0.8047949,0.016677678,-0.59331846,,0.10704657,1.3441349,0.4433008,0.99579877,0.018182518,-0.08974557,-0.044435173,-0.761004,-0.64722365,-0.0800649,0.64849234,-0.7569989,,-0.08643901,0.26020977,-0.09015285,0.9367987,0.3322555,0.109610744,-0.29199293,0.56988347,0.768097,0.19273911,-0.75155777,0.6308823,,-0.041288618,0.40109795,-0.33553213,0.5109766,0.6801817,-0.52560043,-0.8584605,0.43519214,-0.27139154,0.04414163,0.58988196,0.8062821,,0.9163254237253607,0.34743030654561224,0.19302535874,0.7699814724751735,0.29978048048537637,1.0787447095671596,-0.40525662807914675,,-0.939933818121865,-0.16880349516479934,0.21911189870000003,1.0155283962955515,0.29677447749053665,0.16949780599952524,0.8742174419506625,,-0.04730714937530631,-0.07404341185429444,0.0795457676,-0.07163176773016745,,-9.242073e-05,8.940697e-07,1.4305115e-06,1.0000001,9.4272196e-05,8.0771744e-05,-9.427592e-05,0.99999994,9.924173e-06,-8.0764294e-05,-1.001358e-05,1.0,245,0.745,0,0,0.0,False,-0.26255903295711036,1.0491287457524916
0.7729697549948469,13:38:25.018792,13:38:10.953947,0,,0.12008007,-0.00036856532,0.027980193,-0.8993242,-0.42230928,-0.11345077,-0.084661335,-0.08638182,0.99265826,-0.42900884,0.9023264,0.041931987,,0.07794374,0.006374456,0.016721964,-0.39354387,-0.7632381,0.51243645,-0.4443829,0.6459048,0.62075007,-0.8047652,0.016574383,-0.59336174,,0.10704657,1.3441349,0.4433008,0.99579877,0.018182518,-0.08974557,-0.044435173,-0.761004,-0.64722365,-0.0800649,0.64849234,-0.7569989,,-0.08630135,0.26020265,-0.090199485,0.9334124,0.3427348,0.10618007,-0.2946937,0.56347543,0.77178437,0.2046875,-0.75168365,0.6269567,,-0.04128938,0.40109906,-0.3355317,0.5107392,0.68057513,-0.52532184,-0.8586163,0.4349505,-0.27128604,0.043858465,0.5896063,0.8064991,,0.9174297745263749,0.3464804104020826,0.19302276616000003,0.7685136428707817,0.3138540399612167,1.0822158749321513,-0.40525662807914675,,-0.9399415408547394,-0.16880349516479934,0.21911189870000003,1.0151090164085825,0.29677447749053665,0.16974284221994695,0.875034162281334,,-0.04730714937530631,-0.07404341185429444,0.0795457676,-0.07163176773016745,,-9.242073e-05,8.940697e-07,1.4305115e-06,1.0000001,9.4272196e-05,8.0771744e-05,-9.427592e-05,0.99999994,9.924173e-06,-8.0764294e-05,-1.001358e-05,1.0,256,0.779,0,0,0.0,False,-0.26243987752006825,1.0491287457524916
0.7981775249936618,13:38:25.049511,13:38:10.953947,0,,0.119745746,-0.0004541576,0.027957007,-0.8955565,-0.43066928,-0.11181464,-0.08126332,-0.08875981,0.9927324,-0.437464,0.89813447,0.044491738,,0.0779445,0.006379001,0.016726315,-0.392929,-0.7635182,0.51249087,-0.44440186,0.645581,0.62107325,-0.8050551,0.016285777,-0.59297633,,0.10704657,1.3441349,0.4433008,0.99579877,0.018182518,-0.08974557,-0.044435173,-0.761004,-0.64722365,-0.0800649,0.64849234,-0.7569989,,-0.08596599,0.26014388,-0.09026048,0.93038136,0.35143453,0.10432786,-0.29804048,0.5594188,0.7734484,0.21345352,-0.7506959,0.6252146,,-0.041291036,0.40110493,-0.33553,0.51015836,0.6809145,-0.52544636,-0.8589566,0.43457982,-0.2708025,0.04395505,0.5894878,0.8065805,,0.9192523394846919,0.34478913190262744,0.19302017358,0.7655779836619984,0.32587805194057545,1.083029335625139,-0.4075434450050268,,-0.9399415408547394,-0.16879577243192512,0.21911189870000003,1.0146896365216134,0.29732102348959843,0.16978724304600457,0.8743807860167968,,-0.04730714937530631,-0.07404341185429444,0.0795457676,-0.07163176773016745,,-9.242073e-05,8.940697e-07,1.4305115e-06,1.0000001,9.4272196e-05,8.0771744e-05,-9.427592e-05,0.99999994,9.924173e-06,-8.0764294e-05,-1.001358e-05,1.0,264,0.803,0,0,0.0,False,-0.26297607698675796,1.049514987358727
0.8288965449901298,13:38:25.069610,13:38:10.953947,0,,0.11946063,-0.0005277097,0.027916312,-0.89457977,-0.43264097,-0.11202149,-0.08174361,-0.088027,0.9927583,-0.43936884,0.8972586,0.043381482,,0.07794511,0.0063805506,0.016728282,-0.3926222,-0.7635731,0.5126443,-0.44441295,0.6455221,0.6211265,-0.8051986,0.016042233,-0.59278804,,0.10704657,1.3441349,0.4433008,0.99579877,0.018182518,-0.08974557,-0.044435173,-0.761004,-0.64722365,-0.0800649,0.64849234,-0.7569989,,-0.0856782,0.26007935,-0.090297386,0.9295751,0.35347238,0.104630135,-0.29972705,0.5594977,0.7727393,0.21460168,-0.7496797,0.62604034,,-0.04129198,0.40110728,-0.3355297,0.5098686,0.68099695,-0.52562076,-0.8591262,0.43434885,-0.27063483,0.04400128,0.5895628,0.80652314,,0.9205420358746873,0.34353032644412884,0.19301758100000002,0.7634810842271532,0.32915732793494606,1.0815804870385333,-0.40541997214528114,,-0.9399415408547394,-0.16879577243192512,0.21911189870000003,1.014479946578129,0.29759429648912933,0.16964608597875236,0.8745441300829311,,-0.04730714937530631,-0.07404341185429444,0.0795457676,-0.07163176773016745,,-9.242073e-05,8.940697e-07,1.4305115e-06,1.0000001,9.4272196e-05,8.0771744e-05,-9.427592e-05,0.99999994,9.924173e-06,-8.0764294e-05,-1.001358e-05,1.0,272,0.828,0,0,0.0,False,-0.26386974276457353,1.049514987358727
0.848997741995845,13:38:25.100969,13:38:10.953947,0,,0.11908066,-0.000617221,0.02787581,-0.8931701,-0.4359976,-0.11024168,-0.080724746,-0.08572027,0.9930434,-0.44241452,0.89585596,0.041366965,,0.077942654,0.0063816234,0.016727269,-0.39222556,-0.7642367,0.51195854,-0.4448619,0.6447358,0.6216217,-0.805144,0.016065061,-0.5928616,,0.10704657,1.3441349,0.4433008,0.99579877,0.018182518,-0.08974557,-0.044435173,-0.761004,-0.64722365,-0.0800649,0.64849234,-0.7569989,,-0.085295856,0.26000887,-0.09035105,0.9284316,0.35693055,0.103030846,-0.30108812,0.56047744,0.7714992,0.21762519,-0.7473056,0.6278325,,-0.041289587,0.40110725,-0.3355281,0.50952226,0.6817409,-0.52499187,-0.8593539,0.4340682,-0.27036208,0.043565396,0.58890927,0.8070241,,0.9223568781001301,0.34188538434191906,0.19301109955,0.7618035646792769,0.33489606092509455,1.078534509886095,-0.40672672467435533,,-0.939933818121865,-0.16879577243192512,0.21911189870000003,1.0138508767476753,0.29759429648912933,0.1702995158998768,0.8748708182151997,,-0.04730714937530631,-0.07404341185429444,0.0795457676,-0.07163176773016745,,-9.242073e-05,8.940697e-07,1.4305115e-06,1.0000001,9.4272196e-05,8.0771744e-05,-9.427592e-05,0.99999994,9.924173e-06,-8.0764294e-05,-1.001358e-05,1.0,280,0.851,0,0,0.0,False,-0.2639888982016152,1.0491770259532711
0.8803550669981632,13:38:25.126663,13:38:11.090371,0,,0.11877935,-0.0006509125,0.027885616,-0.8927104,-0.43826032,-0.10486165,-0.07647361,-0.08198714,0.9936949,-0.44409442,0.8951011,0.039675444,,0.07794082,0.0063848123,0.016729295,-0.39148626,-0.7644168,0.5122553,-0.44503862,0.64453804,0.6217003,-0.80540615,0.015413642,-0.59252274,,0.10704657,1.3441349,0.4433008,0.99579877,0.018182518,-0.08974557,-0.044435173,-0.761004,-0.64722365,-0.0800649,0.64849234,-0.7569989,,-0.08499642,0.26000863,-0.09039964,0.9281056,0.35923815,0.09781573,-0.29908076,0.562882,0.77052873,0.22174461,-0.74438685,0.62985516,,-0.04128831,0.40111083,-0.33552632,0.5088337,0.68199897,-0.52532434,-0.8597648,0.4334348,-0.27007166,0.04350526,0.58907694,0.806905,,0.9240172656680884,0.3408350926710245,0.19299165520000003,0.7639004641141223,0.3404981574154776,1.0751098781965096,-0.40640003654208656,,-0.9399183726561167,-0.16879577243192512,0.21911189870000003,1.0132218069172219,0.29814084248819106,0.16993552302523168,0.8743807860167967,,-0.04730714937530631,-0.07404341185429444,0.0795457676,-0.07163176773016745,,-9.242073e-05,8.940697e-07,1.4305115e-06,1.0000001,9.4272196e-05,8.0771744e-05,-9.427592e-05,0.99999994,9.924173e-06,-8.0764294e-05,-1.001358e-05,1.0,292,0.888,0,0,0.0,False,-0.2630356547052788,1.04927358635483
0.9060424059862271,13:38:25.159815,13:38:11.090371,0,,0.118625656,-0.0005902797,0.027993783,-0.88848865,-0.44844383,-0.097396,-0.07004605,-0.077222794,0.9945501,-0.45352113,0.89046884,0.037199765,,0.077942535,0.006384529,0.016730249,-0.39161578,-0.7643062,0.5123215,-0.4448869,0.64466643,0.6216757,-0.80542696,0.015532911,-0.5924913,,0.10704657,1.3441349,0.4433008,0.99579877,0.018182518,-0.08974557,-0.044435173,-0.761004,-0.64722365,-0.0800649,0.64849234,-0.7569989,,-0.08485289,0.2601351,-0.09044859,0.9246966,0.36976963,0.09059021,-0.30085415,0.56394434,0.7690602,0.23328727,-0.73840183,0.6327241,,-0.041290052,0.40111127,-0.33552712,0.50894654,0.6818644,-0.52538973,-0.8596905,0.433586,-0.27006558,0.04365352,0.5891215,0.80686444,,0.9255154758456879,0.3404875696916844,0.19296184053,0.7628520143966996,0.3538885343924908,1.0686015756018508,-0.40607334840981824,,-0.9399260953889909,-0.16879577243192512,0.21911189870000003,1.013431496860706,0.29814084248819106,0.16993552302523168,0.8743807860167967,,-0.04730714937530631,-0.07404341185429444,0.0795457676,-0.07163176773016745,,-9.242073e-05,8.940697e-07,1.4305115e-06,1.0000001,9.4272196e-05,8.0771744e-05,-9.427592e-05,0.99999994,9.924173e-06,-8.0764294e-05,-1.001358e-05,1.0,303,0.922,0,0,0.0,False,-0.26309523242380006,1.049418426957168
0.9391923009825405,13:38:25.192488,13:38:11.090371,0,,0.11856486,-0.00046758354,0.028190702,-0.88308793,-0.45979902,-0.09349127,-0.06470963,-0.07800269,0.99485075,-0.464724,0.8845905,0.039129823,,0.077942535,0.006384678,0.016731143,-0.39077675,-0.764958,0.5119892,-0.44549802,0.6439059,0.6220262,-0.80549675,0.014983177,-0.5924107,,0.10704657,1.3441349,0.4433008,0.99579877,0.018182518,-0.08974557,-0.044435173,-0.761004,-0.64722365,-0.0800649,0.64849234,-0.7569989,,-0.08480979,0.26036125,-0.09051586,0.9202706,0.3815943,0.08653184,-0.30469403,0.5601301,0.7703349,0.24548632,-0.7352823,0.63174075,,-0.041290145,0.40111214,-0.33552748,0.5081917,0.6826442,-0.52510774,-0.86016405,0.43282467,-0.26977885,0.04311664,0.5887782,0.80714387,,0.9267974495028092,0.3407964790066534,0.19289184087000003,0.7594969753009472,0.3678254573685657,1.0664666470606992,-0.4075434450050266,,-0.9399260953889909,-0.16881121789767356,0.21911189870000003,1.0123830471432835,0.29841411548772195,0.1701210809185416,0.8748708182151995,,-0.04730714937530631,-0.07404341185429444,0.0795457676,-0.07163176773016745,,-9.242073e-05,8.940697e-07,1.4305115e-06,1.0000001,9.4272196e-05,8.0771744e-05,-9.427592e-05,0.99999994,9.924173e-06,-8.0764294e-05,-1.001358e-05,1.0,311,0.947,0,0,0.0,False,-0.26309523242380006,1.0494667071579475
0.9718605899834074,13:38:25.212234,13:38:11.090371,0,,0.11854106,-0.00038968027,0.028370231,-0.87971497,-0.46652523,-0.09195624,-0.06269516,-0.077898175,0.99498785,-0.4713502,0.8810709,0.03927934,,0.07794446,0.006386362,0.016734004,-0.39046562,-0.7650526,0.51208514,-0.44550523,0.6437981,0.62213266,-0.80564356,0.014784783,-0.5922159,,0.10704657,1.3441349,0.4433008,0.99579877,0.018182518,-0.08974557,-0.044435173,-0.761004,-0.64722365,-0.0800649,0.64849234,-0.7569989,,-0.084801905,0.26054034,-0.09059796,0.91747856,0.38860002,0.0849892,-0.30782372,0.5582662,0.7704436,0.25194782,-0.73302716,0.6318176,,-0.041292496,0.40111518,-0.33552757,0.50789756,0.68276745,-0.525232,-0.8603352,0.43261352,-0.26957175,0.043167643,0.5887904,0.80713224,,0.927546554591609,0.3411903383832388,0.19279721170000003,0.7563516261486793,0.37534046485566486,1.0640958844038617,-0.4042765636823411,,-0.939933818121865,-0.16881121789767356,0.21911189870000003,1.012173357199799,0.2986873884872528,0.17006160259142994,0.8748708182151996,,-0.04730714937530631,-0.07404341185429444,0.0795457676,-0.07163176773016745,,-9.242073e-05,8.940697e-07,1.4305115e-06,1.0000001,9.4272196e-05,8.0771744e-05,-9.427592e-05,0.99999994,9.924173e-06,-8.0764294e-05,-1.001358e-05,1.0,319,0.971,0,0,0.0,False,-0.26232072208302704,1.0490321853509326
0.9915893169818446,13:38:25.243445,13:38:11.090371,0,,0.11854626,-0.00024081767,0.028798506,-0.8699634,-0.48484597,-0.089934066,-0.061987057,-0.07340786,0.9953736,-0.48920476,0.87151337,0.033807933,,0.077941634,0.0063884035,0.016734064,-0.38989913,-0.76532793,0.5121054,-0.44581863,0.6434816,0.6222355,-0.8057446,0.014302939,-0.59209037,,0.10704657,1.3441349,0.4433008,0.99579877,0.018182518,-0.08974557,-0.044435173,-0.761004,-0.64722365,-0.0800649,0.64849234,-0.7569989,,-0.08484471,0.2609363,-0.090814725,0.9093101,0.40766606,0.08344793,-0.319801,0.5563311,0.766957,0.26623768,-0.72408843,0.6362495,,-0.041289944,0.4011166,-0.33552566,0.5073814,0.6831183,-0.52527475,-0.8606522,0.43207982,-0.26941577,0.0429178,0.5887754,0.8071565,,0.9288362509816045,0.3420861753966489,0.19255610176000001,0.7437702295396078,0.39282993682564127,1.0523664336750773,-0.40509328401301237,,-0.9399183726561167,-0.16881121789767356,0.21911189870000003,1.0115442873693454,0.2989606614867837,0.16992044552417762,0.8743807860167967,,-0.04730714937530631,-0.07404341185429444,0.0795457676,-0.07163176773016745,,-9.242073e-05,8.940697e-07,1.4305115e-06,1.0000001,9.4272196e-05,8.0771744e-05,-9.427592e-05,0.99999994,9.924173e-06,-8.0764294e-05,-1.001358e-05,1.0,331,1.007,0,0,0.0,False,-0.2626186106756321,1.0489356249493738
1.022783997002989,13:38:25.281095,13:38:11.090371,0,,0.11857253,-0.00017340481,0.029115245,-0.86156845,-0.49980944,-0.08882809,-0.061002374,-0.07177818,0.99555326,-0.5039629,0.863156,0.031352162,,0.07794301,0.0063906237,0.016736388,-0.38980713,-0.76544815,0.5119958,-0.44574293,0.6433362,0.6224401,-0.80583096,0.014413089,-0.5919701,,0.10704657,1.3441349,0.4433008,0.99579877,0.018182518,-0.08974557,-0.044435173,-0.761004,-0.64722365,-0.0800649,0.64849234,-0.7569989,,-0.08489857,0.26119608,-0.09100226,0.9022236,0.42329267,0.08255855,-0.32942486,0.5528699,0.7653849,0.2783377,-0.7177452,0.6382554,,-0.04129176,0.40111953,-0.335525,0.50728935,0.68324405,-0.52520007,-0.86070126,0.4321186,-0.26919672,0.043021653,0.588601,0.80727816,,0.9296239697347753,0.3425649848348508,0.19236036197000003,0.7337051122523508,0.4078599517998397,1.0449295099367641,-0.4070534128066239,,-0.9399260953889909,-0.16880349516479934,0.21911189870000003,1.0115442873693454,0.29909729798654916,0.17013574258104353,0.8747074741490654,,-0.04730714937530631,-0.07404341185429444,0.0795457676,-0.07163176773016745,,-9.242073e-05,8.940697e-07,1.4305115e-06,1.0000001,9.4272196e-05,8.0771744e-05,-9.427592e-05,0.99999994,9.924173e-06,-8.0764294e-05,-1.001358e-05,1.0,339,1.033,0,0,0.0,False,-0.2631548101423209,1.049080465551712
1.060481096006697,13:38:25.302941,13:38:11.090371,0,,0.118564084,-0.00014624,0.029302388,-0.8572345,-0.50715727,-0.08910959,-0.059514865,-0.07430959,0.99545765,-0.5114753,0.858644,0.03351733,,0.077944085,0.00639271,0.016739368,-0.38941336,-0.76549625,0.5122235,-0.4456842,0.64328516,0.6225349,-0.8060539,0.014133453,-0.5916734,,0.10704657,1.3441349,0.4433008,0.99579877,0.018182518,-0.08974557,-0.044435173,-0.761004,-0.64722365,-0.0800649,0.64849234,-0.7569989,,-0.084906474,0.26134163,-0.09112303,0.8985528,0.4310123,0.08265152,-0.33359522,0.54842454,0.76677555,0.28516158,-0.7165605,0.63657206,,-0.04129332,0.40112296,-0.33552477,0.5069126,0.6833221,-0.52546227,-0.86091614,0.43185952,-0.26892525,0.043163326,0.58870053,0.807198,,0.9301568383030968,0.34275805315670643,0.19224499216000002,0.7293016234391757,0.4157848687862353,1.0449198919934761,-0.40541997214528114,,-0.9399260953889909,-0.16880349516479934,0.21911189870000003,1.011334597425861,0.2995072074858454,0.16996484635023545,0.8743807860167968,,-0.04730714937530631,-0.07404341185429444,0.0795457676,-0.07163176773016745,,-9.242073e-05,8.940697e-07,1.4305115e-06,1.0000001,9.4272196e-05,8.0771744e-05,-9.427592e-05,0.99999994,9.924173e-06,-8.0764294e-05,-1.001358e-05,1.0,351,1.069,0,0,0.0,False,-0.26351227645344677,1.049418426957168
1.0822862529894337,13:38:25.334423,13:38:11.285381,0,,0.118539184,-0.00010505319,0.029532105,-0.8502537,-0.51905864,-0.087445766,-0.056862533,-0.07458261,0.9955922,-0.5232927,0.8514784,0.03389913,,0.07794586,0.006393589,0.016739666,-0.3889224,-0.7661456,0.51162523,-0.4460597,0.64251214,0.623064,-0.80608314,0.014108121,-0.59163404,,0.10704657,1.3441349,0.4433008,0.99579877,0.018182518,-0.08974557,-0.044435173,-0.761004,-0.64722365,-0.0800649,0.64849234,-0.7569989,,-0.084901735,0.26152697,-0.09126692,0.8926147,0.44349113,0.080960415,-0.33993337,0.5441608,0.7670296,0.29611534,-0.71218306,0.6364833,,-0.0412952,0.4011234,-0.33552426,0.50647193,0.6840546,-0.52493376,-0.86119217,0.43154228,-0.26855043,0.042827938,0.5880821,0.80766654,,0.9309986161863874,0.3428738941498198,0.19211277058,0.7225915452476709,0.42903860926348303,1.0411367269870118,-0.40738010093889243,,-0.939933818121865,-0.16881121789767356,0.21911319499,1.0107055275954073,0.2996438439856109,0.17058853710780403,0.8750341622813339,,-0.04730714937530631,-0.07404341185429444,0.0795457676,-0.07163176773016745,,-9.242073e-05,8.940697e-07,1.4305115e-06,1.0000001,9.4272196e-05,8.0771744e-05,-9.427592e-05,0.99999994,9.924173e-06,-8.0764294e-05,-1.001358e-05,1.0,384,1.171,0,0,0.0,False,-0.26285692154971585,1.0491770259532711
1.1137800680007786,13:38:25.436192,13:38:11.285381,0,,0.11838852,4.2960048e-05,0.029849708,-0.83710784,-0.5399287,-0.087906696,-0.053257078,-0.079494596,0.9954115,-0.5444393,0.8379484,0.037790507,,0.077947065,0.0064015165,0.016745985,-0.38769615,-0.7665757,0.5119116,-0.44609907,0.6420144,0.6235487,-0.80665183,0.013384134,-0.5908752,,0.10704657,1.3441349,0.4433008,0.99579877,0.018182518,-0.08974557,-0.044435173,-0.761004,-0.64722365,-0.0800649,0.64849234,-0.7569989,,-0.08477966,0.2618579,-0.09141209,0.88134086,0.46547168,0.081082694,-0.35216153,0.5327491,0.76951975,0.3149929,-0.7067634,0.6334548,,-0.041297857,0.40113258,-0.33552065,0.5053129,0.6846005,-0.52533895,-0.86186343,0.43073156,-0.2676971,0.043014493,0.5880412,0.8076864,,0.933052863130931,0.34285844868407134,0.19199480819000003,0.7087520089776923,0.45281336022266966,1.0377590448113845,-0.4057466602775497,,-0.9399260953889909,-0.16880349516479934,0.21911449128000002,1.0098667678214692,0.3007369359837344,0.17043230253949776,0.8743807860167969,,-0.04730714937530631,-0.07404341185429444,0.0795457676,-0.07163176773016745,,-9.242073e-05,8.940697e-07,1.4305115e-06,1.0000001,9.4272196e-05,8.0771744e-05,-9.427592e-05,0.99999994,9.924173e-06,-8.0764294e-05,-1.001358e-05,1.0,392,1.195,0,0,0.0,False,-0.2621419889274632,1.0491287457524916
1.2155785450013354,13:38:25.463453,13:38:11.285381,0,,0.118391246,5.2422285e-05,0.029861897,-0.83636457,-0.5410296,-0.08821194,-0.051673353,-0.08239108,0.9952594,-0.5457326,0.83695793,0.040952116,,0.07794669,0.0064019486,0.016745865,-0.38756227,-0.76668406,0.5118508,-0.44624695,0.64188766,0.62357336,-0.8066345,0.013261646,-0.5909018,,0.10704657,1.3441349,0.4433008,0.99579877,0.018182518,-0.08974557,-0.044435173,-0.761004,-0.64722365,-0.0800649,0.64849234,-0.7569989,,-0.08478346,0.2618729,-0.09141461,0.8807075,0.4666637,0.081113055,-0.3518937,0.5300045,0.77153486,0.317057,-0.7080397,0.630995,,-0.041297525,0.4011328,-0.33552024,0.5051957,0.68473285,-0.5252792,-0.8619394,0.43057808,-0.26769963,0.042870995,0.5879995,0.80772436,,0.9331532586582959,0.34286617141694553,0.19199740077000002,0.7091713888646614,0.4549995442189167,1.0407137252803944,-0.4041132196162067,,-0.9399260953889909,-0.16880349516479934,0.21911449128000002,1.0096570778779848,0.3007369359837344,0.17043230253949776,0.8743807860167969,,-0.04730714937530631,-0.07404341185429444,0.0795457676,-0.07163176773016745,,-9.242073e-05,8.940697e-07,1.4305115e-06,1.0000001,9.4272196e-05,8.0771744e-05,-9.427592e-05,0.99999994,9.924173e-06,-8.0764294e-05,-1.001358e-05,1.0,400,1.22,0,0,0.0,False,-0.2632143878608417,1.0489356249493738
1.242840007005725,13:38:25.492660,13:38:11.285381,0,,0.11840482,6.955862e-05,0.029880822,-0.8346122,-0.5439775,-0.08666636,-0.050684094,-0.0808295,0.99543834,-0.5485013,0.8351975,0.03989026,,0.07794668,0.0064042285,0.016745746,-0.3870736,-0.76700246,0.51174337,-0.44662133,0.64151525,0.6236886,-0.80666184,0.012857825,-0.5908733,,0.10704657,1.3441349,0.4433008,0.99579877,0.018182518,-0.08974557,-0.044435173,-0.761004,-0.64722365,-0.0800649,0.64849234,-0.7569989,,-0.08479868,0.26189741,-0.09141628,0.8791986,0.46974817,0.07966482,-0.3531126,0.5301676,0.7708657,0.31987703,-0.7058746,0.6319966,,-0.04129775,0.40113378,-0.3355182,0.504757,0.6851258,-0.5251885,-0.8622129,0.43008956,-0.26760396,0.042535696,0.58789927,0.8078151,,0.9332304859870382,0.3428893396155682,0.19200258593000002,0.7079132492037542,0.4582788202132873,1.0383664105522425,-0.40541997214528114,,-0.9399260953889909,-0.16880349516479934,0.21911578757000003,1.0090280080475311,0.3008735724834999,0.17040256337594184,0.8745441300829311,,-0.04730714937530631,-0.07404341185429444,0.0795457676,-0.07163176773016745,,-9.242073e-05,8.940697e-07,1.4305115e-06,1.0000001,9.4272196e-05,8.0771744e-05,-9.427592e-05,0.99999994,9.924173e-06,-8.0764294e-05,-1.001358e-05,1.0,412,1.257,0,0,0.0,False,-0.2629164992682367,1.0492253061540504
1.2720350729941856,13:38:25.525599,13:38:11.464720,0,,0.118468255,0.00012485683,0.029953137,-0.8280988,-0.5539528,-0.08595838,-0.048800096,-0.08151993,0.9954762,-0.5584541,0.82854736,0.04047355,,0.07794633,0.006406717,0.016747117,-0.38685164,-0.7671489,0.51169175,-0.4466965,0.6413422,0.62381274,-0.8067267,0.012752056,-0.59078705,,0.10704657,1.3441349,0.4433008,0.99579877,0.018182518,-0.08974557,-0.044435173,-0.761004,-0.64722365,-0.0800649,0.64849234,-0.7569989,,-0.08486833,0.2619829,-0.09142878,0.8735669,0.48026478,0.0789088,-0.35874876,0.52582127,0.7712401,0.32890752,-0.7020383,0.6316345,,-0.041297812,0.40113622,-0.33551672,0.50455153,0.6852997,-0.52515906,-0.8623353,0.42993265,-0.26746163,0.04249165,0.58781135,0.80788136,,0.9333617724459,0.3430051806086816,0.19201165996000003,0.701832240842703,0.4690731036947571,1.0356086229306267,-0.4070534128066239,,-0.9399260953889909,-0.16879577243192512,0.21911578757000003,1.0088183181040467,0.3010102089832653,0.1704545029525265,0.8742174419506625,,-0.04730714937530631,-0.07404341185429444,0.0795457676,-0.07163176773016745,,-9.242073e-05,8.940697e-07,1.4305115e-06,1.0000001,9.4272196e-05,8.0771744e-05,-9.427592e-05,0.99999994,9.924173e-06,-8.0764294e-05,-1.001358e-05,1.0,420,1.282,0,0,0.0,False,-0.2636314318904893,1.049370146756389
1.304956795007456,13:38:25.552973,13:38:11.464720,0,,0.11853342,0.00016984344,0.03002201,-0.82264286,-0.5621506,-0.08511977,-0.045270547,-0.084472775,0.99539673,-0.56675327,0.82270944,0.04404205,,0.07794605,0.006408073,0.016748011,-0.3864969,-0.7674425,0.51151955,-0.4469228,0.6409946,0.6240079,-0.8067714,0.012567282,-0.59072995,,0.10704657,1.3441349,0.4433008,0.99579877,0.018182518,-0.08974557,-0.044435173,-0.761004,-0.64722365,-0.0800649,0.64849234,-0.7569989,,-0.08493936,0.2620583,-0.09144554,0.86884004,0.4889476,0.07776412,-0.36199594,0.5202298,0.7735114,0.33775133,-0.70020795,0.6289935,,-0.041297775,0.4011377,-0.33551598,0.5042301,0.685646,-0.52501583,-0.86253273,0.42964122,-0.2672932,0.04229993,0.5876207,0.8080301,,0.9334776134390134,0.3431364670675434,0.19201684512000003,0.6984772017469506,0.47918420467739964,1.036430038212694,-0.40656338060822117,,-0.9399260953889909,-0.16879577243192512,0.21911578757000003,1.0083989382170777,0.3011468454830307,0.17058812126925182,0.8743807860167968,,-0.04730714937530631,-0.07404341185429444,0.0795457676,-0.07163176773016745,,-9.242073e-05,8.940697e-07,1.4305115e-06,1.0000001,9.4272196e-05,8.0771744e-05,-9.427592e-05,0.99999994,9.924173e-06,-8.0764294e-05,-1.001358e-05,1.0,428,1.307,0,0,0.0,False,-0.2630356547052788,1.0489356249493738
1.3323538459953852,13:38:25.575611,13:38:11.464720,0,,0.118684694,0.00023370981,0.030141667,-0.81679577,-0.570442,-0.08625914,-0.040822938,-0.09199378,0.9949223,-0.5754808,0.8161696,0.05185306,,0.078022875,0.0064511374,0.01675123,-0.38586524,-0.7677157,0.5115864,-0.4467577,0.64067054,0.62445873,-0.80716515,0.01240173,-0.59019536,,0.10704657,1.3441349,0.4433008,0.99579877,0.018182518,-0.08974557,-0.044435173,-0.761004,-0.64722365,-0.0800649,0.64849234,-0.7569989,,-0.08510064,0.2621764,-0.09148186,0.86375755,0.4977992,0.078223266,-0.36487103,0.5107843,0.7784398,0.34755147,-0.70092463,0.6228263,,-0.041378967,0.40115154,-0.33548462,0.5036209,0.6859677,-0.5251803,-0.8628735,0.42937523,-0.2666201,0.042606622,0.5874396,0.80814564,,0.9338869182813473,0.3434762673140093,0.19201684512000003,0.6953318525946828,0.4903883976581658,1.041587549634186,-0.40541997214528114,,-0.9399183726561167,-0.16880349516479934,0.21911578757000003,1.008189248273593,0.30183002798185793,0.17068446167189422,0.8747074741490654,,-0.04730714937530631,-0.07404341185429444,0.0795457676,-0.07163176773016745,,-9.242073e-05,8.940697e-07,1.4305115e-06,1.0000001,9.4272196e-05,8.0771744e-05,-9.427592e-05,0.99999994,9.924173e-06,-8.0764294e-05,-1.001358e-05,1.0,436,1.332,0,0,0.0,False,-0.2636314318904893,1.04835626254002
1.354989437997574,13:38:25.603098,13:38:11.464720,0,,0.118628666,0.0003078878,0.030207112,-0.81348354,-0.5753398,-0.08502157,-0.039352953,-0.0914008,0.99503624,-0.580255,0.81279147,0.05171171,,0.077966735,0.0064513832,0.0167467,-0.38555285,-0.7679686,0.51144207,-0.44694906,0.6403704,0.62462956,-0.80720836,0.012239158,-0.59013957,,0.10710911,1.3441311,0.44329354,0.99579555,0.01812766,-0.08979223,-0.044506956,-0.7610053,-0.64721715,-0.0800649,0.64849234,-0.7569989,,-0.08510374,0.2622831,-0.09148409,0.86086357,0.50296474,0.07707386,-0.36721054,0.5092353,0.7783546,0.35223615,-0.69835943,0.6230761,,-0.041379873,0.40115604,-0.335482,0.50329226,0.68631727,-0.52503854,-0.863074,0.4290869,-0.26643515,0.042428095,0.5872419,0.8082987,,0.9343039458565554,0.3437311174988587,0.19201554883000002,0.6923961933858994,0.49599049414854884,1.0390613840861467,-0.4049299399468782,,-0.9399260953889909,-0.1687880496990509,0.21911578757000003,1.007769868386624,0.30196666448162335,0.17081807998861948,0.8738907538183939,,-0.04730714937530631,-0.07404341185429444,0.0795457676,-0.07163176773016745,,-2.939254e-05,4.172325e-07,3.9339066e-06,1.0,3.9704144e-05,3.401935e-05,-3.970787e-05,0.99999994,4.142523e-06,-3.40119e-05,-4.23193e-06,1.0,461,1.408,0,0,0.0,False,-0.2639888982016152,1.048742504146256
1.38245337898843,13:38:25.676697,13:38:11.586764,0,,0.11849041,0.00061124563,0.030564234,-0.80044496,-0.5938583,-0.081364684,-0.030255303,-0.095540255,0.99496555,-0.59864223,0.7988769,0.058507293,,0.077948004,0.0064527094,0.016739368,-0.3843726,-0.7684812,0.51156044,-0.44753724,0.6397738,0.6248198,-0.80744535,0.01122126,-0.5898355,,0.10710911,1.3441311,0.44329354,0.99579555,0.01812766,-0.08979223,-0.044506956,-0.7610053,-0.64721715,-0.0800649,0.64849234,-0.7569989,,-0.084997945,0.26275495,-0.09155369,0.84944016,0.52263325,0.07284162,-0.37351298,0.49799728,0.7826153,0.37274587,-0.69199216,0.6182292,,-0.041360836,0.40115288,-0.3354762,0.5022118,0.68698186,-0.525204,-0.86372524,0.42798576,-0.26609573,0.041976906,0.58726835,0.80830306,,0.9367752203763072,0.3445265589849038,0.19195851207000003,0.6835892157595495,0.5204484276065626,1.036515150974427,-0.4070534128066239,,-0.9398179771287517,-0.16879577243192512,0.21911449128000002,1.006511728725717,0.30264984698045055,0.1704243479504185,0.873890753818394,,-0.04730714937530631,-0.07404341185429444,0.0795457676,-0.07163176773016745,,-2.939254e-05,4.172325e-07,3.9339066e-06,1.0,3.9704144e-05,3.401935e-05,-3.970787e-05,0.99999994,4.142523e-06,-3.40119e-05,-4.23193e-06,1.0,469,1.433,0,0,0.0,False,-0.2641080536386573,1.0485976635439174
1.4560695329855662,13:38:25.703127,13:38:11.586764,0,,0.11842783,0.00070007145,0.030771777,-0.79194313,-0.60529226,-0.08029568,-0.024200052,-0.10028571,0.9946642,-0.61011505,0.7896607,0.06477243,,0.077939086,0.00645335,0.01673454,-0.38444725,-0.76842403,0.51159024,-0.44733992,0.6398396,0.6248937,-0.80751914,0.011383921,-0.58973145,,0.10710911,1.3441311,0.44329354,0.99579555,0.01812766,-0.08979223,-0.044506956,-0.7610053,-0.64721715,-0.0800649,0.64849234,-0.7569989,,-0.084953874,0.26296315,-0.0916516,0.84194636,0.5348383,0.07123423,-0.37718645,0.48901606,0.78650725,0.38581952,-0.6890655,0.61345905,,-0.04135166,0.4011502,-0.33547267,0.5022698,0.6869035,-0.52525103,-0.8636812,0.42815042,-0.26597372,0.04218818,0.58724,0.80831265,,0.9379413530403151,0.34462695451226877,0.19189110499,0.6785566571159208,0.5361616250795883,1.0377508353535154,-0.4070534128066239,,-0.9397639179986321,-0.1687880496990509,0.21911449128000002,1.0067214186692013,0.30278648348021603,0.17047628752700322,0.873890753818394,,-0.04730714937530631,-0.07404341185429444,0.0795457676,-0.07163176773016745,,-2.939254e-05,4.172325e-07,3.9339066e-06,1.0,3.9704144e-05,3.401935e-05,-3.970787e-05,0.99999994,4.142523e-06,-3.40119e-05,-4.23193e-06,1.0,477,1.458,0,0,0.0,False,-0.26381016504605226,1.048549383343138
1.482497160002822,13:38:25.725811,13:38:11.586764,0,,0.11835036,0.00075633824,0.030887082,-0.7872443,-0.6108262,-0.08448535,-0.025130332,-0.10511464,0.9941424,-0.61612886,0.7847562,0.067400545,,0.0779375,0.0064566582,0.016735911,-0.38400814,-0.7686315,0.51160836,-0.44749582,0.63959587,0.6250317,-0.8076417,0.011074632,-0.5895695,,0.10710911,1.3441311,0.44329354,0.99579555,0.01812766,-0.08979223,-0.044506956,-0.7610053,-0.64721715,-0.0800649,0.64849234,-0.7569989,,-0.08488687,0.26308653,-0.09170403,0.8377898,0.540792,0.075181805,-0.38217366,0.48249313,0.7881267,0.38993788,-0.689017,0.6109043,,-0.041350592,0.40115324,-0.33547044,0.5018637,0.68716365,-0.5252989,-0.86392194,0.42779183,-0.26576883,0.042091895,0.58719695,0.80834895,,0.938659567197618,0.34462695451226877,0.19184443855000002,0.671846578924416,0.5421736310692676,1.0386476381408525,-0.4062366924759524,,-0.9397561952657579,-0.16878032696617665,0.21911449128000002,1.0063020387822323,0.3030597564797469,0.1704168091998915,0.873890753818394,,-0.04730714937530631,-0.07404341185429444,0.0795457676,-0.07163176773016745,,-2.939254e-05,4.172325e-07,3.9339066e-06,1.0,3.9704144e-05,3.401935e-05,-3.970787e-05,0.99999994,4.142523e-06,-3.40119e-05,-4.23193e-06,1.0,485,1.482,0,0,0.0,False,-0.26386974276457353,1.0480183011345638
1.5051963629957754,13:38:25.749534,13:38:11.586764,0,,0.11829327,0.00079888105,0.031063035,-0.77980554,-0.6208991,-0.079922736,-0.019131958,-0.10397124,0.9943962,-0.6257293,0.7769648,0.06919834,,0.07793458,0.006459877,0.016736388,-0.38357303,-0.76892406,0.511495,-0.44765478,0.6392476,0.62527406,-0.8077603,0.0108650625,-0.5894108,,0.10710911,1.3441311,0.44329354,0.99579555,0.01812766,-0.08979223,-0.044506956,-0.7610053,-0.64721715,-0.0800649,0.64849234,-0.7569989,,-0.0848454,0.263239,-0.091809265,0.8311928,0.551499,0.07047969,-0.38457578,0.4787521,0.7892388,0.40152213,-0.68311435,0.6100285,,-0.041348107,0.40115565,-0.3354678,0.50146157,0.6875112,-0.52522814,-0.8641603,0.42747864,-0.26549765,0.041991197,0.5870182,0.808484,,0.9396094633411477,0.34455744991640075,0.19177573518000002,0.6682818498851791,0.5561105540453426,1.0349608135370305,-0.4068900687404897,,-0.9397407498000094,-0.16877260423330243,0.21911449128000002,1.0058826588952632,0.3033330294792778,0.17052068835306095,0.8732373775538569,,-0.04730714937530631,-0.07404341185429444,0.0795457676,-0.07163176773016745,,-2.939254e-05,4.172325e-07,3.9339066e-06,1.0,3.9704144e-05,3.401935e-05,-3.970787e-05,0.99999994,4.142523e-06,-3.40119e-05,-4.23193e-06,1.0,493,1.507,0,0,0.0,False,-0.26386974276457353,1.0482114219376817
1.5289052389853168,13:38:25.776652,13:38:11.734249,0,,0.11828007,0.00083591044,0.03120096,-0.7723294,-0.6297983,-0.08283321,-0.016668648,-0.110262096,0.9937627,-0.63500345,0.7688929,0.07466069,,0.07793413,0.006461382,0.016736805,-0.38357177,-0.76917744,0.511115,-0.44765127,0.6389377,0.6255932,-0.80776286,0.011158556,-0.5894018,,0.10710911,1.3441311,0.44329354,0.99579555,0.01812766,-0.08979223,-0.044506956,-0.7610053,-0.64721715,-0.0800649,0.64849234,-0.7569989,,-0.084844336,0.2633593,-0.09188733,0.8245414,0.5610846,0.07290743,-0.38938683,0.46923393,0.79258907,0.4104989,-0.6819117,0.6053818,,-0.041347872,0.4011568,-0.33546665,0.50146013,0.6877712,-0.5248891,-0.86416095,0.42761138,-0.26528165,0.041995473,0.5866168,0.80877507,,0.9401268864437207,0.3445265589849038,0.19172777245000003,0.6617814616371589,0.5674513835258741,1.037393187370328,-0.40738010093889243,,-0.9397407498000094,-0.1687648815004282,0.21911449128000002,1.0058826588952632,0.3033330294792778,0.1710107607939042,0.873890753818394,,-0.04730714937530631,-0.07404341185429444,0.0795457676,-0.07163176773016745,,-2.939254e-05,4.172325e-07,3.9339066e-06,1.0,3.9704144e-05,3.401935e-05,-3.970787e-05,0.99999994,4.142523e-06,-3.40119e-05,-4.23193e-06,1.0,501,1.532,0,0,0.0,False,-0.26297607698675796,1.048549383343138
1.5560395219945349,13:38:25.799241,13:38:11.734249,0,,0.11830674,0.00086960196,0.0313714,-0.7625077,-0.64188665,-0.08101605,-0.011031121,-0.11230528,0.9936124,-0.6468851,0.75853086,0.07855287,,0.077935725,0.006463468,0.016741514,-0.38292253,-0.76920456,0.51156074,-0.4473889,0.6389117,0.62580734,-0.8082161,0.010769069,-0.5887874,,0.10710911,1.3441311,0.44329354,0.99579555,0.01812766,-0.08979223,-0.044506956,-0.7610053,-0.64721715,-0.0800649,0.64849234,-0.7569989,,-0.08488578,0.26349643,-0.09198917,0.81576943,0.5740325,0.07076004,-0.39372292,0.46153384,0.7949646,0.42367736,-0.6763677,0.6025149,,-0.041350096,0.40116164,-0.33546728,0.5008278,0.6878353,-0.5254086,-0.8645071,0.42726752,-0.2647073,0.042415038,0.58679223,0.8086259,,0.9406056958819226,0.3445188362520296,0.19167462456,0.6557004532761077,0.5834378539984307,1.0357106375173848,-0.4077067890711612,,-0.9397330270671352,-0.16877260423330243,0.21911449128000002,1.005672968951779,0.3041528484778704,0.1707506470724286,0.8737274097522597,,-0.04730714937530631,-0.07404341185429444,0.0795457676,-0.07163176773016745,,-2.939254e-05,4.172325e-07,3.9339066e-06,1.0,3.9704144e-05,3.401935e-05,-3.970787e-05,0.99999994,4.142523e-06,-3.40119e-05,-4.23193e-06,1.0,509,1.557,0,0,0.0,False,-0.26285692154971585,1.048452822941579
1.57862715999363,13:38:25.826057,13:38:11.734249,0,,0.11830391,0.00091421604,0.03156124,-0.75193465,-0.6538438,-0.0841583,-0.008725733,-0.117777556,0.9930016,-0.6591799,0.7474066,0.08285576,,0.07793324,0.0064645857,0.016740441,-0.38252372,-0.7696544,0.5111825,-0.4478338,0.6383735,0.6260383,-0.8081586,0.010549635,-0.5888703,,0.10710911,1.3441311,0.44329354,0.99579555,0.01812766,-0.08979223,-0.044506956,-0.7610053,-0.64721715,-0.0800649,0.64849234,-0.7569989,,-0.08489957,0.26365638,-0.09209988,0.8062953,0.58692664,0.07351917,-0.40085393,0.4507715,0.7975721,0.43497592,-0.672549,0.59872675,,-0.04134767,0.4011616,-0.33546567,0.50047845,0.68836075,-0.52505314,-0.86473054,0.4268729,-0.26461408,0.04198104,0.58646315,0.80888724,,0.9411462871831183,0.34450339078628117,0.19160462490000002,0.6456353359888505,0.5980579594733328,1.0352239454415464,-0.40394987555007233,,-0.939725304334261,-0.16877260423330243,0.21911449128000002,1.0050438991213253,0.3041528484778704,0.17099568329285025,0.8738907538183941,,-0.04730714937530631,-0.07404341185429444,0.0795457676,-0.07163176773016745,,-2.939254e-05,4.172325e-07,3.9339066e-06,1.0,3.9704144e-05,3.401935e-05,-3.970787e-05,0.99999994,4.142523e-06,-3.40119e-05,-4.23193e-06,1.0,538,1.646,0,0,0.0,False,-0.26428678679422024,1.0486459437446969
1.6054350769845769,13:38:25.908094,13:38:11.855255,0,,0.11825204,0.0010567456,0.03213267,-0.7180473,-0.6901081,-0.09032677,-0.00010809302,-0.12967029,0.991557,-0.6959942,0.7119947,0.093034744,,0.077920824,0.006466523,0.016735673,-0.3814602,-0.7703002,0.5110043,-0.44825813,0.63760394,0.62651867,-0.808426,0.009930074,-0.5885139,,0.10710911,1.3441311,0.44329354,0.99579555,0.01812766,-0.08979223,-0.044506956,-0.7610053,-0.64721715,-0.0800649,0.64849234,-0.7569989,,-0.0848979,0.2641466,-0.09243037,0.7757015,0.6261628,0.07878612,-0.42106792,0.42050642,0.8036642,0.47009456,-0.6565779,0.5898445,,-0.041335184,0.40116018,-0.33546096,0.49949762,0.6891417,-0.52496266,-0.86531144,0.42604628,-0.26404685,0.041692708,0.58614695,0.80913126,,0.9429534066756868,0.3443025997315513,0.19141666285000003,0.6146012243531409,0.6439678233945209,1.0282536998719785,-0.4072167568727585,,-0.9396480770055188,-0.16878032696617665,0.21911449128000002,1.0039954494039025,0.30483603097669765,0.17109202369549265,0.8738907538183941,,-0.04730714937530631,-0.07404341185429444,0.0795457676,-0.07163176773016745,,-2.939254e-05,4.172325e-07,3.9339066e-06,1.0,3.9704144e-05,3.401935e-05,-3.970787e-05,0.99999994,4.142523e-06,-3.40119e-05,-4.23193e-06,1.0,546,1.671,0,0,0.0,False,-0.26386974276457353,1.0485976635439174
1.6874150579969864,13:38:25.939617,13:38:11.855255,0,,0.11814459,0.0011383295,0.032273307,-0.7082141,-0.6995886,-0.09491403,-0.00027528405,-0.13416591,0.99095875,-0.7059977,0.70183706,0.094825536,,0.07791597,0.006466493,0.01673311,-0.38138977,-0.7702593,0.51111865,-0.44820172,0.63765454,0.62650764,-0.8084905,0.0098593235,-0.5884265,,0.10710911,1.3441311,0.44329354,0.99579555,0.01812766,-0.08979223,-0.044506956,-0.7610053,-0.64721715,-0.0800649,0.64849234,-0.7569989,,-0.08480332,0.2643075,-0.09248643,0.7667735,0.63650274,0.08320264,-0.42846096,0.41096443,0.80469215,0.47799543,-0.6526657,0.5878332,,-0.041330148,0.40115857,-0.3354594,0.4994272,0.6891017,-0.52508223,-0.86534834,0.426005,-0.2639924,0.041770067,0.586224,0.8090715,,0.9438646891548453,0.34411725414256994,0.19139462592,0.602648897574523,0.6554452893748178,1.025265537692443,-0.4054199721452809,,-0.9396171860740219,-0.16878032696617665,0.21911449128000002,1.0039954494039025,0.30497266747646307,0.1709806057917962,0.8738907538183941,,-0.04730714937530631,-0.07404341185429444,0.0795457676,-0.07163176773016745,,-2.939254e-05,4.172325e-07,3.9339066e-06,1.0,3.9704144e-05,3.401935e-05,-3.970787e-05,0.99999994,4.142523e-06,-3.40119e-05,-4.23193e-06,1.0,554,1.695,0,0,0.0,False,-0.26297607698675796,1.0485976635439174
1.718997574003879,13:38:25.966550,13:38:11.855255,0,,0.11805214,0.0011936575,0.03234674,-0.7032948,-0.7043957,-0.09593219,-0.00067585707,-0.13428247,0.9909427,-0.7108979,0.69698983,0.09396401,,0.077911586,0.0064670444,0.0167315,-0.38123256,-0.77025366,0.5112443,-0.44807574,0.6376621,0.62658995,-0.8086344,0.009800315,-0.58822966,,0.10710911,1.3441311,0.44329354,0.99579555,0.01812766,-0.08979223,-0.044506956,-0.7610053,-0.64721715,-0.0800649,0.64849234,-0.7569989,,-0.08471776,0.26440316,-0.092509456,0.76229906,0.64171255,0.084291734,-0.43232524,0.40793422,0.804167,0.48165858,-0.6494572,0.58839643,,-0.04132573,0.40115803,-0.3354579,0.49927002,0.6891005,-0.5252332,-0.86543065,0.42595735,-0.2637993,0.041942734,0.58626,0.80903643,,0.9445365669149028,0.3439859676837081,0.19138684818,0.5961485093265028,0.6610473858652008,1.021187476081733,-0.4050932840130128,,-0.939586295142525,-0.16878032696617665,0.21911449128000002,1.0039954494039025,0.30524594047599396,0.1709211274646844,0.8742174419506625,,-0.04730714937530631,-0.07404341185429444,0.0795457676,-0.07163176773016745,,-2.939254e-05,4.172325e-07,3.9339066e-06,1.0,3.9704144e-05,3.401935e-05,-3.970787e-05,0.99999994,4.142523e-06,-3.40119e-05,-4.23193e-06,1.0,562,1.72,0,0,0.0,False,-0.26470383082386784,1.0482114219376817
1.7459367699921131,13:38:25.996432,13:38:11.855255,0,,0.1179046,0.0012693554,0.03242944,-0.6976178,-0.70988655,-0.09690386,-0.00074088573,-0.13453698,0.99090815,-0.7164696,0.6913471,0.0933294,,0.077898145,0.0064684004,0.01672411,-0.38051012,-0.7708415,0.51089644,-0.44877023,0.63695997,0.62680703,-0.80858964,0.009231269,-0.58830047,,0.10710911,1.3441311,0.44329354,0.99579555,0.01812766,-0.08979223,-0.044506956,-0.7610053,-0.64721715,-0.0800649,0.64849234,-0.7569989,,-0.084578186,0.26452345,-0.092529126,0.757127,0.64767283,0.085314885,-0.43643418,0.40431216,0.8037766,0.48609042,-0.64579535,0.5887822,,-0.041311927,0.40115413,-0.33545226,0.49862987,0.68981194,-0.5249074,-0.8658314,0.42519972,-0.26370662,0.041282505,0.5859733,0.8092781,,0.9455559676543005,0.3437620084303556,0.19138684818,0.5888093613045444,0.6678792108534729,1.0165967257785988,-0.40672672467435533,,-0.9395167905466569,-0.16878032696617665,0.21911449128000002,1.00294699968648,0.3053825769757594,0.17097306704126913,0.873890753818394,,-0.04730714937530631,-0.07404341185429444,0.0795457676,-0.07163176773016745,,-2.939254e-05,4.172325e-07,3.9339066e-06,1.0,3.9704144e-05,3.401935e-05,-3.970787e-05,0.99999994,4.142523e-06,-3.40119e-05,-4.23193e-06,1.0,574,1.758,0,0,0.0,False,-0.26309523242380006,1.048742504146256
1.7758178460062481,13:38:26.028806,13:38:11.855255,0,,0.11780227,0.0013365299,0.032544866,-0.6872447,-0.719855,-0.09748529,0.002791673,-0.13681477,0.99059266,-0.7264206,0.6805074,0.096034765,,0.07789109,0.0064686537,0.016720653,-0.3803611,-0.7709646,0.5108216,-0.4486507,0.6368096,0.6270455,-0.8087261,0.009323269,-0.58811146,,0.10710911,1.3441311,0.44329354,0.99579555,0.01812766,-0.08979223,-0.044506956,-0.7610053,-0.64721715,-0.0800649,0.64849234,-0.7569989,,-0.08448646,0.26465654,-0.09257588,0.74764484,0.65855104,0.08566049,-0.44107816,0.3959911,0.8053826,0.49646476,-0.6399231,0.5865332,,-0.041304678,0.40115225,-0.33544993,0.49848086,0.6899428,-0.52487695,-0.8659094,0.4252208,-0.26341647,0.041446295,0.5858039,0.80939233,,0.9464826955992075,0.3434376536496382,0.19139592221,0.5797926937347099,0.6819527703293132,1.013043519491502,-0.4081968212695639,,-0.9394704541494115,-0.16878032696617665,0.21911449128000002,1.00294699968648,0.30565584997529033,0.17115862493457917,0.8740540978845283,,-0.04730714937530631,-0.07404341185429444,0.0795457676,-0.07163176773016745,,-2.939254e-05,4.172325e-07,3.9339066e-06,1.0,3.9704144e-05,3.401935e-05,-3.970787e-05,0.99999994,4.142523e-06,-3.40119e-05,-4.23193e-06,1.0,582,1.782,0,0,0.0,False,-0.26351227645344677,1.0488873447485942
1.8081869480083697,13:38:26.058616,13:38:12.028356,0,,0.11770499,0.0014085621,0.032679632,-0.6735736,-0.73232657,-0.09998185,0.007156074,-0.14172664,0.98987985,-0.7390854,0.6660416,0.100703776,,0.07789127,0.0064711273,0.016723752,-0.37988374,-0.7711316,0.51092464,-0.4485223,0.63660973,0.6273402,-0.8090216,0.009155214,-0.5877075,,0.10710911,1.3441311,0.44329354,0.99579555,0.01812766,-0.08979223,-0.044506956,-0.7610053,-0.64721715,-0.0800649,0.64849234,-0.7569989,,-0.08440146,0.2648058,-0.09263336,0.73511,0.67224556,0.08774492,-0.44711468,0.3834463,0.80811965,0.5096094,-0.6332889,0.5824461,,-0.041305404,0.4011561,-0.33544934,0.49801987,0.6901455,-0.52504796,-0.8661634,0.4249999,-0.2629375,0.041680213,0.5857254,0.80943716,,0.9474094235441144,0.34302062607443007,0.19141407027000001,0.567840366956092,0.6998521517985861,1.0102911914276522,-0.406073348409818,,-0.9394627314165374,-0.16878032696617665,0.21911449128000002,1.0027373097429955,0.30620239597435206,0.17120302576063684,0.8743807860167968,,-0.04730714937530631,-0.07404341185429444,0.0795457676,-0.07163176773016745,,-2.939254e-05,4.172325e-07,3.9339066e-06,1.0,3.9704144e-05,3.401935e-05,-3.970787e-05,0.99999994,4.142523e-06,-3.40119e-05,-4.23193e-06,1.0,615,1.884,0,0,0.0,False,-0.2637505873275314,1.0485976635439174
1.8379893380042631,13:38:26.149326,13:38:12.028356,0,,0.11737927,0.0015785694,0.032943144,-0.63810235,-0.76283205,-0.10446319,0.016030073,-0.14880773,0.98873615,-0.76978457,0.6292403,0.10718283,,0.077887334,0.006473407,0.016725063,-0.3785748,-0.771946,0.51066643,-0.4490045,0.6356318,0.62798655,-0.80936754,0.008448243,-0.58724153,,0.10710911,1.3441311,0.44329354,0.99579555,0.01812766,-0.08979223,-0.044506956,-0.7610053,-0.64721715,-0.0800649,0.64849234,-0.7569989,,-0.08410037,0.26512754,-0.092734724,0.70240706,0.7058501,0.09165105,-0.46315393,0.35547823,0.8118643,0.5404746,-0.61270773,0.57660764,,-0.04130188,0.40115884,-0.33544782,0.4968096,0.69112456,-0.5249067,-0.866873,0.42401767,-0.2621834,0.041368317,0.58528274,0.8097733,,0.9497803025365014,0.34152241589683047,0.19151906976000002,0.5340802860550835,0.7435758317235269,0.9953838622405,-0.4073801009388922,,-0.9394318404850405,-0.16879577243192512,0.21911449128000002,1.0014791700820884,0.3070222149729447,0.1714329844800045,0.8735640656861254,,-0.04730714937530631,-0.07404341185429444,0.0795457676,-0.07163176773016745,,-2.939254e-05,4.172325e-07,3.9339066e-06,1.0,3.9704144e-05,3.401935e-05,-3.970787e-05,0.99999994,4.142523e-06,-3.40119e-05,-4.23193e-06,1.0,623,1.908,0,0,0.0,False,-0.26386974276457353,1.0487907843470352
1.9286976069852244,13:38:26.170878,13:38:12.028356,0,,0.117317684,0.0016366392,0.033010647,-0.62875175,-0.7700049,-0.10846001,0.01684311,-0.15293244,0.988093,-0.7774236,0.61943847,0.10912573,,0.077883355,0.006476581,0.016726494,-0.37800416,-0.7723019,0.5105511,-0.44930765,0.6352043,0.62820226,-0.809466,0.008068502,-0.5871111,,0.10710911,1.3441311,0.44329354,0.99579555,0.01812766,-0.08979223,-0.044506956,-0.7610053,-0.64721715,-0.0800649,0.64849234,-0.7569989,,-0.08404505,0.2652194,-0.09274958,0.6937517,0.7138591,0.095466316,-0.46821243,0.34630957,0.81292486,0.5472529,-0.60866654,0.57449055,,-0.041298438,0.4011622,-0.3354456,0.49628794,0.69155866,-0.5248285,-0.8671833,0.42352748,-0.26194945,0.04112586,0.58512485,0.80989975,,0.9502050528445837,0.3412675657119811,0.19154888443,0.5235957888808573,0.7535502962064041,0.9925594733797979,-0.4062366924759524,,-0.9394163950192921,-0.1687880496990509,0.21911319499,1.0008501002516348,0.3072954879724756,0.17145518489303335,0.8737274097522598,,-0.04730714937530631,-0.07404341185429444,0.0795457676,-0.07163176773016745,,-2.939254e-05,4.172325e-07,3.9339066e-06,1.0,3.9704144e-05,3.401935e-05,-3.970787e-05,0.99999994,4.142523e-06,-3.40119e-05,-4.23193e-06,1.0,631,1.933,0,0,0.0,False,-0.2632143878608417,1.0482597021384612
1.950265141989803,13:38:26.204621,13:38:12.167550,0,,0.11722152,0.0017332584,0.033098057,-0.61493635,-0.781119,-0.10819672,0.01925084,-0.15203413,0.9881876,-0.7883417,0.6055897,0.108528495,,0.07787678,0.006477371,0.01672411,-0.3777683,-0.77229345,0.5107384,-0.44911793,0.63521564,0.62832636,-0.80968136,0.007980019,-0.5868153,,0.10710911,1.3441311,0.44329354,0.99579555,0.01812766,-0.08979223,-0.044506956,-0.7610053,-0.64721715,-0.0800649,0.64849234,-0.7569989,,-0.08395713,0.26535526,-0.09275549,0.68092775,0.72612935,0.095255524,-0.47454476,0.33840787,0.8125807,0.55780345,-0.59851176,0.57501215,,-0.0412918,0.4011614,-0.33544335,0.496052,0.6915568,-0.5250539,-0.867306,0.42345598,-0.26165888,0.041385237,0.5851788,0.80984753,,0.9509078215361381,0.3408891518011441,0.19161499522000003,0.5089174928369407,0.7691268571796643,0.9816547646414981,-0.4075434450050268,,-0.9393700586220467,-0.1687880496990509,0.21911319499,1.0008501002516348,0.3077053974717719,0.17136596740236582,0.8742174419506625,,-0.04730714937530631,-0.07404341185429444,0.0795457676,-0.07163176773016745,,-2.939254e-05,4.172325e-07,3.9339066e-06,1.0,3.9704144e-05,3.401935e-05,-3.970787e-05,0.99999994,4.142523e-06,-3.40119e-05,-4.23193e-06,1.0,643,1.97,0,0,0.0,False,-0.26339312101640555,1.0488390645478147
1.9839633250085171,13:38:26.237917,13:38:12.167550,0,,0.11717704,0.0017858744,0.033101097,-0.60738856,-0.78731275,-0.10591458,0.021467865,-0.14954442,0.9885218,-0.7941148,0.59814304,0.10773343,,0.077867135,0.006477773,0.016718626,-0.37744072,-0.77259654,0.5105221,-0.44936392,0.63484895,0.628521,-0.8096977,0.007819146,-0.586795,,0.10710911,1.3441311,0.44329354,0.99579555,0.01812766,-0.08979223,-0.044506956,-0.7610053,-0.64721715,-0.0800649,0.64849234,-0.7569989,,-0.08391326,0.26539904,-0.09272526,0.67390203,0.73293775,0.093049884,-0.47720703,0.335662,0.8121604,0.5640297,-0.5917206,0.57596636,,-0.04128183,0.4011582,-0.33543977,0.4957571,0.69191253,-0.5248638,-0.8674851,0.4231769,-0.26151645,0.041163728,0.58496016,0.81001675,,0.9511935626524844,0.340611133417672,0.19169147633000003,0.5022074146454358,0.777734956664887,0.9747171154487642,-0.4070534128066239,,-0.9393159994919271,-0.1687880496990509,0.21911319499,1.0004307203646656,0.30784203397153737,0.17149958571909102,0.8740540978845284,,-0.04730714937530631,-0.07404341185429444,0.0795457676,-0.07163176773016745,,-2.939254e-05,4.172325e-07,3.9339066e-06,1.0,3.9704144e-05,3.401935e-05,-3.970787e-05,0.99999994,4.142523e-06,-3.40119e-05,-4.23193e-06,1.0,651,1.995,0,0,0.0,False,-0.26255903295711036,1.0486459437446969
2.0172662980039604,13:38:26.260191,13:38:12.167550,0,,0.117162526,0.0018239021,0.03309755,-0.6006138,-0.7925977,-0.10512782,0.023029149,-0.14858025,0.9886321,-0.7992075,0.5913651,0.10749212,,0.07785913,0.00647898,0.016717136,-0.37693545,-0.77271813,0.5107113,-0.44946682,0.63470614,0.6285918,-0.8098759,0.007390678,-0.5865545,,0.10710911,1.3441311,0.44329354,0.99579555,0.01812766,-0.08979223,-0.044506956,-0.7610053,-0.64721715,-0.0800649,0.64849234,-0.7569989,,-0.08389861,0.26542577,-0.092698075,0.66758966,0.73878765,0.092286676,-0.47985542,0.33217478,0.81203365,0.5692651,-0.58638954,0.5762677,,-0.041273914,0.40115857,-0.33543754,0.49528444,0.69208676,-0.52508026,-0.8677563,0.42275435,-0.26130012,0.04113762,0.5850596,0.8099463,,0.9512785127141009,0.34037945143144527,0.1917601797,0.4957070263974156,0.7852499641519863,0.9694059181468667,-0.4070534128066241,,-0.9392696630946817,-0.1687880496990509,0.21911189870000003,1.0000113404776965,0.3082519434708336,0.1712470107481423,0.8742174419506625,,-0.04730714937530631,-0.07404341185429444,0.0795457676,-0.07163176773016745,,-2.939254e-05,4.172325e-07,3.9339066e-06,1.0,3.9704144e-05,3.401935e-05,-3.970787e-05,0.99999994,4.142523e-06,-3.40119e-05,-4.23193e-06,1.0,659,2.02,0,0,0.0,False,-0.2637505873275314,1.04835626254002
2.0395655629981775,13:38:26.289542,13:38:12.167550,0,,0.11715029,0.0018411726,0.03304912,-0.5919022,-0.7993054,-0.10374303,0.026430607,-0.1478908,0.9886503,-0.80557626,0.5824424,0.10866293,,0.07784298,0.006477326,0.016708314,-0.3768976,-0.77285826,0.51052713,-0.4494362,0.63453376,0.6287877,-0.8099106,0.007539153,-0.5865048,,0.10710911,1.3441311,0.44329354,0.99579555,0.01812766,-0.08979223,-0.044506956,-0.7610053,-0.64721715,-0.0800649,0.64849234,-0.7569989,,-0.08388227,0.26540703,-0.09265141,0.65945256,0.7462417,0.090805516,-0.48210615,0.32713854,0.81274474,0.576798,-0.5797445,0.5755001,,-0.041256964,0.40115234,-0.33543363,0.49524656,0.6922319,-0.5249246,-0.867776,0.42281538,-0.26113608,0.041179463,0.5848437,0.8101001,,0.9512785127141009,0.33986202832887225,0.19187684580000003,0.48899694820591083,0.7959076111336906,0.9643908649648713,-0.4068900687404897,,-0.9391769903001911,-0.1687880496990509,0.21911060241000002,1.0000113404776965,0.3083885799705991,0.17146230780500815,0.8735640656861254,,-0.04730714937530631,-0.07404341185429444,0.0795457676,-0.07163176773016745,,-2.939254e-05,4.172325e-07,3.9339066e-06,1.0,3.9704144e-05,3.401935e-05,-3.970787e-05,0.99999994,4.142523e-06,-3.40119e-05,-4.23193e-06,1.0,680,2.084,0,0,0.0,False,-0.2641080536386573,1.0486942239454764
2.068907971988665,13:38:26.352130,13:38:12.297164,0,,0.11704928,0.0018386692,0.032843128,-0.57740885,-0.8091975,-0.108620495,0.027984977,-0.15257642,0.98789525,-0.81597537,0.5673797,0.1107443,,0.07781205,0.0064769387,0.016693056,-0.37593707,-0.77345335,0.51033425,-0.44968385,0.6338134,0.62933683,-0.81021947,0.007101953,-0.58608353,,0.10710911,1.3441311,0.44329354,0.99579555,0.01812766,-0.08979223,-0.044506956,-0.7610053,-0.64721715,-0.0800649,0.64849234,-0.7569989,,-0.08376377,0.26527384,-0.09250703,0.64591086,0.7574176,0.095486455,-0.48876673,0.31420764,0.8138677,0.5864352,-0.5723566,0.5731507,,-0.04122497,0.40114313,-0.3354246,0.49435127,0.69294095,-0.524833,-0.8682915,0.422163,-0.2604771,0.04106985,0.5844752,0.8103715,,0.9512321763168555,0.33833292721977576,0.19215165928000003,0.47285082255760247,0.8118940816062472,0.9586243781048999,-0.40721675687275805,,-0.9389916447112097,-0.16879577243192512,0.21910930612,0.9991725807037585,0.3092083989691917,0.1716105877842352,0.8742174419506626,,-0.04730714937530631,-0.07404341185429444,0.0795457676,-0.07163176773016745,,-2.939254e-05,4.172325e-07,3.9339066e-06,1.0,3.9704144e-05,3.401935e-05,-3.970787e-05,0.99999994,4.142523e-06,-3.40119e-05,-4.23193e-06,1.0,688,2.109,0,0,0.0,False,-0.2641080536386573,1.0482114219376817
2.1315073230070993,13:38:26.379090,13:38:12.297164,0,,0.117000446,0.0018705875,0.032816008,-0.5618454,-0.82040906,-0.10610707,0.031595826,-0.14945443,0.9882635,-0.8266386,0.55189884,0.1098918,,0.07779683,0.0064758807,0.016685128,-0.37576038,-0.7736564,0.51015645,-0.44979602,0.63356566,0.6295061,-0.81023914,0.007077068,-0.58605653,,0.10710911,1.3441311,0.44329354,0.99579555,0.01812766,-0.08979223,-0.044506956,-0.7610053,-0.64721715,-0.0800649,0.64849234,-0.7569989,,-0.08371287,0.2652824,-0.09246861,0.6313196,0.76991963,0.09305528,-0.49414146,0.30687374,0.8134204,0.5977121,-0.5595107,0.5741846,,-0.041209087,0.4011378,-0.3354207,0.49419084,0.6931722,-0.52467865,-0.86838734,0.42204624,-0.26034665,0.04097359,0.5842852,0.8105134,,0.9512707899812266,0.3375529311994791,0.19229295489,0.4585919064006548,0.8280171885785692,0.945722101689144,-0.40721675687275805,,-0.9389066946495932,-0.16879577243192512,0.21910800983000003,0.9989628907602741,0.3093450354689572,0.17174420610096047,0.873400721619991,,-0.04730714937530631,-0.07404341185429444,0.0795457676,-0.07163176773016745,,-2.939254e-05,4.172325e-07,3.9339066e-06,1.0,3.9704144e-05,3.401935e-05,-3.970787e-05,0.99999994,4.142523e-06,-3.40119e-05,-4.23193e-06,1.0,696,2.133,0,0,0.0,False,-0.2639888982016152,1.048452822941579
2.1584237619827036,13:38:26.402864,13:38:12.297164,0,,0.11695617,0.0019002706,0.032770976,-0.55435634,-0.82524323,-0.10799363,0.031578034,-0.15051839,0.9881027,-0.83168006,0.5443508,0.10950035,,0.07779331,0.006475985,0.0166834,-0.37568587,-0.77365535,0.51021284,-0.44973585,0.6335672,0.62954754,-0.8103071,0.0070510507,-0.5859629,,0.10710911,1.3441311,0.44329354,0.99579555,0.01812766,-0.08979223,-0.044506956,-0.7610053,-0.64721715,-0.0800649,0.64849234,-0.7569989,,-0.083664946,0.26527706,-0.09241818,0.62429607,0.7753936,0.09496918,-0.4979712,0.30133975,0.81315374,0.6018962,-0.55494064,0.5742489,,-0.04120546,0.40113685,-0.33541954,0.49411625,0.69317335,-0.52474743,-0.8684259,0.42202452,-0.26025325,0.041055683,0.5842996,0.81049883,,0.9512862354469751,0.33709728995989985,0.19239017664000002,0.4493655488873357,0.8348490135668412,0.9403962427247444,-0.40803347720342975,,-0.9388835264509705,-0.16879577243192512,0.21910800983000003,0.9989628907602741,0.3094816719687226,0.17171446693740466,0.8735640656861254,,-0.04730714937530631,-0.07404341185429444,0.0795457676,-0.07163176773016745,,-2.939254e-05,4.172325e-07,3.9339066e-06,1.0,3.9704144e-05,3.401935e-05,-3.970787e-05,0.99999994,4.142523e-06,-3.40119e-05,-4.23193e-06,1.0,704,2.158,0,0,0.0,False,-0.2637505873275314,1.0485011031423586
2.1822309859853704,13:38:26.430579,13:38:12.297164,0,,0.116935834,0.0019490868,0.03272693,-0.54128426,-0.8345233,-0.102869466,0.036764234,-0.14571333,0.9886434,-0.84003556,0.53135526,0.10955295,,0.07778859,0.0064774007,0.016681492,-0.3752067,-0.7739737,0.5100826,-0.450114,0.6331825,0.6296643,-0.8103191,0.006658882,-0.58595085,,0.10710911,1.3441311,0.44329354,0.99579555,0.01812766,-0.08979223,-0.044506956,-0.7610053,-0.64721715,-0.0800649,0.64849234,-0.7569989,,-0.08364103,0.26528513,-0.092354126,0.61198163,0.7857506,0.089858085,-0.500486,0.29679695,0.8132806,0.61236614,-0.5426855,0.57489145,,-0.04120079,0.40113658,-0.33541712,0.49368602,0.6935665,-0.5246328,-0.86868685,0.42153987,-0.2601679,0.0407099,0.58418286,0.81060046,,0.9512939581798493,0.336518084994333,0.19255221289000002,0.438671361769625,0.8500156650408051,0.9282738916348634,-0.4075434450050268,,-0.9388603582523478,-0.16879577243192512,0.21910800983000003,0.9983338209298204,0.3096183084684881,0.1716847277738488,0.8737274097522597,,-0.04730714937530631,-0.07404341185429444,0.0795457676,-0.07163176773016745,,-2.939254e-05,4.172325e-07,3.9339066e-06,1.0,3.9704144e-05,3.401935e-05,-3.970787e-05,0.99999994,4.142523e-06,-3.40119e-05,-4.23193e-06,1.0,712,2.183,0,0,0.0,False,-0.26327396557936344,1.04835626254002
2.2099611400044523,13:38:26.454401,13:38:12.297164,0,,0.11686494,0.0020364672,0.03272985,-0.5244323,-0.8444147,-0.10924572,0.036044985,-0.15020771,0.98799706,-0.8506888,0.51419985,0.10921064,,0.077789135,0.0064789355,0.01668346,-0.3748983,-0.7740673,0.5101674,-0.45012012,0.6330702,0.62977296,-0.8104585,0.006464213,-0.5857603,,0.10710911,1.3441311,0.44329354,0.99579555,0.01812766,-0.08979223,-0.044506956,-0.7610053,-0.64721715,-0.0800649,0.64849234,-0.7569989,,-0.083570935,0.26535624,-0.09230217,0.59611946,0.7971067,0.09624199,-0.5091467,0.28261158,0.81295776,0.620815,-0.53362125,0.5743145,,-0.041201673,0.40113893,-0.33541682,0.49339378,0.693689,-0.52474576,-0.8688506,0.42132953,-0.25996172,0.040758286,0.5841892,0.8105935,,0.9512630672483524,0.33593888002876615,0.19268573076,0.41644422776026535,0.8639525880168799,0.9169092654578284,-0.4075434450050268,,-0.9388603582523478,-0.16879577243192512,0.21910800983000003,0.9981241309863359,0.30989158146801893,0.17162524944673707,0.8743807860167968,,-0.04730714937530631,-0.07404341185429444,0.0795457676,-0.07163176773016745,,-2.939254e-05,4.172325e-07,3.9339066e-06,1.0,3.9704144e-05,3.401935e-05,-3.970787e-05,0.99999994,4.142523e-06,-3.40119e-05,-4.23193e-06,1.0,724,2.22,0,0,0.0,False,-0.26351227645344677,1.0485011031423586
2.2337861800042447,13:38:26.490241,13:38:12.447574,0,,0.11683683,0.0020876825,0.03278087,-0.5075842,-0.85512865,-0.10541983,0.041697204,-0.14658983,0.988318,-0.86059254,0.4972589,0.110063046,,0.07779057,0.0064777583,0.016688108,-0.37472206,-0.774175,0.51013345,-0.44998038,0.63293785,0.6300057,-0.81061757,0.0065270066,-0.58553946,,0.10710911,1.3441311,0.44329354,0.99579555,0.01812766,-0.08979223,-0.044506956,-0.7610053,-0.64721715,-0.0800649,0.64849234,-0.7569989,,-0.08354751,0.26543,-0.09230736,0.580176,0.8092381,0.0923556,-0.5125769,0.27464157,0.8135336,0.63297766,-0.519332,0.5741372,,-0.041203372,0.40114212,-0.33542022,0.4932175,0.69380504,-0.52475804,-0.86894166,0.4213324,-0.25965244,0.040949397,0.5840493,0.8106846,,0.9512630672483524,0.3354291796590674,0.19278943396,0.400717481998926,0.8819886059859181,0.9021204234297603,-0.407706789071161,,-0.9388680809852221,-0.16880349516479934,0.21910541725000002,0.9981241309863359,0.3101648544675498,0.171810807340047,0.8735640656861254,,-0.04730714937530631,-0.07404341185429444,0.0795457676,-0.07163176773016745,,-2.939254e-05,4.172325e-07,3.9339066e-06,1.0,3.9704144e-05,3.401935e-05,-3.970787e-05,0.99999994,4.142523e-06,-3.40119e-05,-4.23193e-06,1.0,753,2.31,0,0,0.0,False,-0.26333354329788383,1.04835626254002
2.269625212997198,13:38:26.571605,13:38:12.447574,0,,0.11661416,0.0021736622,0.032888845,-0.46229637,-0.8799796,-0.109169245,0.047679186,-0.14760548,0.9878963,-0.8854427,0.45149586,0.11019418,,0.0777874,0.006480515,0.016691983,-0.37379113,-0.7747307,0.50997293,-0.45050326,0.63226414,0.63030845,-0.8107569,0.005859256,-0.58535355,,0.10710911,1.3441311,0.44329354,0.99579555,0.01812766,-0.08979223,-0.044506956,-0.7610053,-0.64721715,-0.0800649,0.64849234,-0.7569989,,-0.08333531,0.26557934,-0.0923435,0.53719544,0.8379675,0.09608084,-0.5274538,0.24485518,0.81353456,0.65818965,-0.48770526,0.5735242,,-0.041200884,0.40114725,-0.33541965,0.49236777,0.69449013,-0.52464986,-0.8694436,0.4204997,-0.25932178,0.04051869,0.5838351,0.8108605,,0.9511472262552391,0.3334984964405112,0.19301887729000003,0.34640778663643423,0.9228429194157848,0.8633339946351126,-0.41048363819544376,,-0.9388603582523478,-0.16880349516479934,0.21910282467000003,0.9970756812689134,0.31057476396684613,0.17180326858952,0.8742174419506625,,-0.04730714937530631,-0.07404341185429444,0.0795457676,-0.07163176773016745,,-2.939254e-05,4.172325e-07,3.9339066e-06,1.0,3.9704144e-05,3.401935e-05,-3.970787e-05,0.99999994,4.142523e-06,-3.40119e-05,-4.23193e-06,1.0,757,2.322,0,0,0.0,False,-0.2636314318904893,1.0482114219376817
2.3509918990021106,13:38:26.600699,13:38:12.447574,0,,0.11649898,0.00214988,0.032903448,-0.4461522,-0.88830847,-0.108886875,0.049318135,-0.14588559,0.9880713,-0.8935971,0.4354601,0.10889679,,0.07778605,0.006481886,0.01669383,-0.3732993,-0.7751676,0.50966907,-0.45087072,0.6317307,0.6305805,-0.8107792,0.005600393,-0.5853251,,0.10710911,1.3441311,0.44329354,0.99579555,0.01812766,-0.08979223,-0.044506956,-0.7610053,-0.64721715,-0.0800649,0.64849234,-0.7569989,,-0.083221756,0.2655784,-0.09237743,0.5218142,0.84765023,0.095911495,-0.5326537,0.23593593,0.8127818,0.66632575,-0.4752087,0.57461876,,-0.041199867,0.40114972,-0.33541933,0.49192467,0.69500583,-0.5243825,-0.8697098,0.42007187,-0.25912252,0.04018668,0.58352935,0.8110971,,0.9510159397963772,0.3324636502353651,0.19309017324000002,0.32585817217495083,0.9367798423918597,0.8462518566482383,-0.40917688566636956,,-0.9388603582523478,-0.16880349516479934,0.21910152838000002,0.9964466114384597,0.31071140046661155,0.17193688690624526,0.8735640656861254,,-0.04730714937530631,-0.07404341185429444,0.0795457676,-0.07163176773016745,,-2.939254e-05,4.172325e-07,3.9339066e-06,1.0,3.9704144e-05,3.401935e-05,-3.970787e-05,0.99999994,4.142523e-06,-3.40119e-05,-4.23193e-06,1.0,769,2.359,0,0,0.0,False,-0.2639888982016152,1.048452822941579
2.38006134799798,13:38:26.626161,13:38:12.447574,0,,0.116363764,0.0021199882,0.03289701,-0.42948556,-0.8959376,-0.11330448,0.04932064,-0.1485488,0.98767436,-0.9017259,0.41860354,0.10798773,,0.077785,0.0064824373,0.016695976,-0.3731299,-0.77523977,0.50968325,-0.45073375,0.63164186,0.6307674,-0.8109334,0.0056267083,-0.58511126,,0.10710911,1.3441311,0.44329354,0.99579555,0.01812766,-0.08979223,-0.044506956,-0.7610053,-0.64721715,-0.0800649,0.64849234,-0.7569989,,-0.08308641,0.26556006,-0.09240112,0.5059154,0.85672104,0.10039253,-0.5390829,0.22317274,0.8121475,0.673379,-0.46499783,0.5747502,,-0.041199084,0.40115198,-0.3354199,0.49175504,0.69508505,-0.5244366,-0.8697971,0.4200602,-0.25884837,0.040373318,0.5834434,0.81114966,,0.9507842578101505,0.33131296303710567,0.19316924693,0.30237289850468413,0.9496236733698111,0.8311228855127626,-0.4080334772034293,,-0.9388526355194736,-0.16880349516479934,0.21910023209,0.9964466114384597,0.31098467346614245,0.17212244479955524,0.8738907538183939,,-0.04730714937530631,-0.07404341185429444,0.0795457676,-0.07163176773016745,,-2.939254e-05,4.172325e-07,3.9339066e-06,1.0,3.9704144e-05,3.401935e-05,-3.970787e-05,0.99999994,4.142523e-06,-3.40119e-05,-4.23193e-06,1.0,777,2.383,0,0,0.0,False,-0.26524003029055665,1.0487907843470352
2.4055456339847296,13:38:26.655381,13:38:12.611158,0,,0.11629197,0.0020752996,0.032878235,-0.42023495,-0.9002582,-0.11374435,0.04936233,-0.1478442,0.98777795,-0.90607166,0.40948415,0.1065681,,0.077783555,0.0064813048,0.016696692,-0.37291348,-0.7752552,0.50981814,-0.45081624,0.63162506,0.63072526,-0.810987,0.00537166,-0.58503926,,0.10710911,1.3441311,0.44329354,0.99579555,0.01812766,-0.08979223,-0.044506956,-0.7610053,-0.64721715,-0.0800649,0.64849234,-0.7569989,,-0.08301311,0.2655187,-0.09242162,0.49707648,0.86181396,0.100953534,-0.5425107,0.2178722,0.8113038,0.677198,-0.45804843,0.57584244,,-0.041197576,0.4011522,-0.33542114,0.49155495,0.6951247,-0.5245716,-0.86991274,0.41983482,-0.25882527,0.040317584,0.5835584,0.8110697,,0.9505371303581753,0.33054068974968326,0.19321202450000002,0.2893721220086436,0.956728771357614,0.8205101088522554,-0.4093402297325037,,-0.9388449127865994,-0.16881121789767356,0.21909893580000003,0.9962369214949751,0.3111213099659079,0.1719293481557182,0.8740540978845281,,-0.04730714937530631,-0.07404341185429444,0.0795457676,-0.07163176773016745,,-2.939254e-05,4.172325e-07,3.9339066e-06,1.0,3.9704144e-05,3.401935e-05,-3.970787e-05,0.99999994,4.142523e-06,-3.40119e-05,-4.23193e-06,1.0,789,2.421,0,0,0.0,False,-0.26297607698675796,1.0488873447485942
2.434732447989518,13:38:26.687033,13:38:12.611158,0,,0.116148,0.002015248,0.03279011,-0.4015622,-0.9079073,-0.12021685,0.046689153,-0.15138903,0.9873709,-0.9146408,0.39087805,0.10318148,,0.07778327,0.0064816177,0.016697109,-0.37242278,-0.7756059,0.50964355,-0.4511869,0.6311975,0.6308883,-0.8110064,0.0050126016,-0.5850156,,0.10710911,1.3441311,0.44329354,0.99579555,0.01812766,-0.08979223,-0.044506956,-0.7610053,-0.64721715,-0.0800649,0.64849234,-0.7569989,,-0.082861856,0.265424,-0.0924056,0.47922587,0.8710591,0.10769661,-0.5513414,0.20328836,0.8091332,0.68290937,-0.44713515,0.577672,,-0.04119738,0.40115276,-0.33542106,0.49111307,0.69555175,-0.5244194,-0.8701778,0.41936174,-0.25870115,0.039981406,0.5833897,0.8112077,,0.9498498071323693,0.3290502023049579,0.19333906092000003,0.25980583997732565,0.968479510337442,0.8012083990576364,-0.41097367039384647,,-0.9388449127865994,-0.16881894063054778,0.21909893580000003,0.9956078516645216,0.31125794646567334,0.17198128773230292,0.8737274097522596,,-0.04730714937530631,-0.07404341185429444,0.0795457676,-0.07163176773016745,,-2.939254e-05,4.172325e-07,3.9339066e-06,1.0,3.9704144e-05,3.401935e-05,-3.970787e-05,0.99999994,4.142523e-06,-3.40119e-05,-4.23193e-06,1.0,818,2.51,0,0,0.0,False,-0.26428678679422024,1.0481631417369022
2.466419970005518,13:38:26.771389,13:38:12.611158,0,,0.11590182,0.0019982606,0.032626465,-0.35417578,-0.92570657,-0.13276583,0.050825477,-0.1608125,0.98567545,-0.93379664,0.3423545,0.10400537,,0.07768093,0.0064174235,0.016700864,-0.37190458,-0.7760783,0.50930274,-0.45144218,0.63061774,0.63128525,-0.8111023,0.0048571825,-0.58488417,,0.107086524,1.3441329,0.4433034,0.99579644,0.018143175,-0.089779034,-0.044486653,-0.7610049,-0.647219,-0.0800649,0.64849234,-0.7569989,,-0.08258187,0.26531148,-0.09230524,0.43366596,0.89303243,0.120112084,-0.5639104,0.1650064,0.8091835,0.70280784,-0.4186478,0.575148,,-0.041067533,0.40113324,-0.33546594,0.4906505,0.69608456,-0.5241454,-0.87044764,0.4190143,-0.25835615,0.03978669,0.5830037,0.8114947,,0.9479577375781844,0.3264013049290989,0.19373831824,0.19312443794924694,1.003868363776691,0.7584657761763676,-0.40868685346796685,,-0.9388680809852221,-0.168826663363422,0.21910023209,0.9949787818340681,0.31153121946520423,0.17241188184603456,0.8743807860167968,,-0.04730714937530631,-0.07404341185429444,0.0795457676,-0.07163176773016745,,-5.2753836e-05,4.887581e-06,-2.7418137e-06,1.0,5.513802e-05,4.723668e-05,-5.5145472e-05,1.0,5.811453e-06,-4.723668e-05,-5.8710575e-06,1.0,822,2.523,0,0,0.0,False,-0.2635718541719685,1.048983905150153
2.5507704629853833,13:38:26.797496,13:38:12.611158,0,,0.115854144,0.0019927174,0.032559052,-0.33692622,-0.9324426,-0.13050434,0.056467652,-0.158371,0.98576355,-0.93983626,0.32476035,0.106012285,,0.07768388,0.0064180344,0.016702294,-0.37159315,-0.7761668,0.50939524,-0.45144776,0.63051033,0.63138855,-0.81124187,0.0046544373,-0.5846921,,0.107086524,1.3441329,0.4433034,0.99579644,0.018143175,-0.089779034,-0.044486653,-0.7610049,-0.647219,-0.0800649,0.64849234,-0.7569989,,-0.08252852,0.2652653,-0.09226207,0.4169874,0.9012612,0.117684774,-0.56479424,0.15548687,0.81045127,0.7121299,-0.40441564,0.5738632,,-0.041070644,0.40113437,-0.3354663,0.49035522,0.69620216,-0.5242655,-0.8706118,0.4187988,-0.25815243,0.039835494,0.5830181,0.81148195,,0.9472318006880073,0.32552863611431154,0.19390942852,0.17194575365730996,1.019444924749951,0.7393115146838712,-0.41048363819544353,,-0.9388758037180963,-0.16883438609629622,0.21910152838000002,0.9947690918905835,0.31180449246473513,0.17235240351892284,0.8740540978845283,,-0.04730714937530631,-0.07404341185429444,0.0795457676,-0.07163176773016745,,-5.2753836e-05,4.887581e-06,-2.7418137e-06,1.0,5.513802e-05,4.723668e-05,-5.5145472e-05,1.0,5.811453e-06,-4.723668e-05,-5.8710575e-06,1.0,834,2.559,0,0,0.0,False,-0.2629164992682367,1.0489356249493738
2.5768815589835867,13:38:26.833068,13:38:12.611158,0,,0.115749076,0.0020412803,0.032460466,-0.32009032,-0.9372508,-0.13821319,0.056471467,-0.16450511,0.9847584,-0.94570243,0.30740654,0.10558441,,0.07768448,0.0064141005,0.016705036,-0.37128836,-0.77621007,0.5095514,-0.4514637,0.63045895,0.6314285,-0.8113726,0.0043981373,-0.5845128,,0.107086524,1.3441329,0.4433034,0.99579644,0.018143175,-0.089779034,-0.044486653,-0.7610049,-0.647219,-0.0800649,0.64849234,-0.7569989,,-0.08241544,0.2652419,-0.09216312,0.4007238,0.9075759,0.12540483,-0.56972337,0.13964468,0.80988556,0.71752053,-0.39598647,0.5730262,,-0.041071035,0.40113476,-0.33547112,0.49006695,0.6962733,-0.52444047,-0.8707725,0.41855898,-0.25799942,0.03987116,0.5831053,0.8114176,,0.9465599229279497,0.32477953102551177,0.19409479799,0.14447637106083727,1.0296926622323592,0.7232773703334267,-0.4095035737986379,,-0.9388758037180963,-0.16885755429491892,0.21909893580000003,0.994559401947099,0.31207776546426597,0.17221124645167057,0.8742174419506625,,-0.04730714937530631,-0.07404341185429444,0.0795457676,-0.07163176773016745,,-5.2753836e-05,4.887581e-06,-2.7418137e-06,1.0,5.513802e-05,4.723668e-05,-5.5145472e-05,1.0,5.811453e-06,-4.723668e-05,-5.8710575e-06,1.0,842,2.584,0,0,0.0,False,-0.26404847592013647,1.0488873447485942
2.612448975996813,13:38:26.857624,13:38:12.804296,0,,0.11568854,0.0020743608,0.03233455,-0.30657196,-0.9422473,-0.13484667,0.059878558,-0.160479,0.98522127,-0.9499622,0.29396683,0.105618775,,0.07767977,0.006404668,0.01670438,-0.37117204,-0.7763494,0.5094238,-0.45163703,0.6302878,0.63147527,-0.81132936,0.004311383,-0.5845735,,0.107086524,1.3441329,0.4433034,0.99579644,0.018143175,-0.089779034,-0.044486653,-0.7610049,-0.647219,-0.0800649,0.64849234,-0.7569989,,-0.082344316,0.2651861,-0.092051595,0.38761503,0.9137063,0.12204656,-0.5708535,0.13396835,0.81004864,0.7237962,-0.38365772,0.5735206,,-0.04106525,0.40113014,-0.33547866,0.48996767,0.6964383,-0.52431417,-0.87083644,0.41841847,-0.25801146,0.039693646,0.5830091,0.81149536,,0.9459575497637602,0.3240844850668316,0.19430220439,0.12560427614723008,1.0406235822135945,0.7039907380398616,-0.40983026193090644,,-0.9388526355194736,-0.16889616795929002,0.21909375064000003,0.9943497120036144,0.31207776546426597,0.17229292519181116,0.8743807860167969,,-0.04730714937530631,-0.07404341185429444,0.0795457676,-0.07163176773016745,,-5.2753836e-05,4.887581e-06,-2.7418137e-06,1.0,5.513802e-05,4.723668e-05,-5.5145472e-05,1.0,5.811453e-06,-4.723668e-05,-5.8710575e-06,1.0,854,2.622,0,0,0.0,False,-0.2634526987349264,1.0493218665556094
