AlexandreBanks6/ExpertPlaybackApp/resources/Motions/Pilot_06/PC1/Data_PC1_10.csv
Task Time,PC1 Time,PC2 Time,Gaze Calib,s_T_psm1,Tx,Ty,Tz,R00,R01,R02,R10,R11,R12,R20,R21,R22,s_T_psm3,Tx,Ty,Tz,R00,R01,R02,R10,R11,R12,R20,R21,R22,cart_T_ecm,Tx,Ty,Tz,R00,R01,R02,R10,R11,R12,R20,R21,R22,ecm_T_psm1,Tx,Ty,Tz,R00,R01,R02,R10,R11,R12,R20,R21,R22,ecm_T_psm3,Tx,Ty,Tz,R00,R01,R02,R10,R11,R12,R20,R21,R22,psm1_joints,q1,q2,q3,q4,q5,q6,jaw,psm3_joints,q1,q2,q3,q4,q5,q6,jaw,ecm_joints,q1,q2,q3,q4,ecmi_T_ecm,Tx,Ty,Tz,R00,R01,R02,R10,R11,R12,R20,R21,R22,Sample #,Task Duration (s),Collisions (binary),Collisions (increments),Cumulative Collision Time (s),Clutch Press,MTMR Angle,MTML Angle
""
lci_T_si,,,,,-0.06259683,0.01659313,0.23760831,0.9956777,0.007211218,0.092595145,0.06714547,-0.7446932,-0.6640207,0.064166576,0.667368,-0.7419586
rci_T_si,,,,,-0.07226873,0.020610977,0.24667586,0.9915926,-0.008221844,0.1291379,0.082045324,-0.731784,-0.6765802,0.100063786,0.681487,-0.724957
ecm_T_lc,,,,,-4.4061628e-05,-0.00034663224,-0.01840835,-0.99912,0.030754527,0.028518902,-0.031987965,-0.99852574,-0.043852776,0.027128186,-0.04472645,0.9986309
ecm_T_rc,,,,,-0.0043358393,0.01870579,-0.007592615,-0.99555075,-0.052743673,-0.078081585,0.04863213,-0.9973746,0.053654674,-0.08070653,0.04961868,0.9955021
cart_T_ecmi,,,,,0.107138716,1.3441325,0.44329387,0.9957932,0.018087745,-0.08982618,-0.04455919,-0.76100624,-0.64721245,-0.0800649,0.64849234,-0.7569989
ecmac_T_ecmrep_psm1,,,,,0.009765618,-0.25445068,-0.30803946,0.99882644,0.038876563,0.028886087,-0.03766685,0.99843633,-0.041304655,-0.030446703,0.040168133,0.99872893
ecmac_T_ecmrep_psm3,,,,,-0.021997124,-0.45765886,-0.55608475,0.99248636,-0.054456197,0.10956896,0.02285623,0.96224946,0.27120772,-0.12020161,-0.2666656,0.9562641
""
0,13:44:10.827121,13:43:56.738037,0,,0.12262362,0.0009825826,0.019568875,-0.9358927,-0.25477725,-0.2432968,-0.27046472,0.07712504,0.9596355,-0.22572905,0.9639191,-0.14108911,,0.062522076,-0.031851232,0.042725742,-0.1606121,-0.5905698,0.7908419,0.030645818,0.79787385,0.6020448,-0.9865416,0.120931655,-0.110049725,,0.107036635,1.3441399,0.44330165,0.99579847,0.01817776,-0.08974962,-0.0444414,-0.7610041,-0.64722306,-0.0800649,0.64849234,-0.7569989,,-0.0880991,0.2554433,-0.08291017,0.9528107,0.16996558,0.2515224,-0.29479134,0.71582216,0.63300604,-0.072456054,-0.67728156,0.7321474,,-0.02396889,0.40660927,-0.3807535,0.24232222,0.48327085,-0.84126645,-0.8110856,0.57671565,0.097669184,0.5323722,0.6586717,0.53172505,,0.8887012082342597,0.3483802026891419,0.20071883989000003,0.7280434837782686,0.020358838465050627,0.9626451478944338,-0.40198974675646115,,-0.8984241289229083,-0.3110021755778952,0.18161152529000002,1.4827175903790717,0.865182316514769,0.35248655483496216,0.8626200132551287,,-0.04730714937530631,-0.07404341185429444,0.0795457676,-0.07163176773016745,,-0.00010259822,-2.4437904e-06,-1.5497208e-06,1.0,8.953735e-05,7.67149e-05,-8.95448e-05,0.99999994,9.417534e-06,-7.670373e-05,-9.506941e-06,1.0,35,0.105,0,0,0.0,False,-0.26297607698675796,1.0368172945537295
0.12639179799589328,13:44:10.853204,13:43:56.837771,0,,0.12265004,0.00087065995,0.01975827,-0.9357076,-0.2565802,-0.24211082,-0.2693453,0.07638869,0.9600092,-0.22782488,0.9634994,-0.14058623,,0.0625176,-0.03182736,0.04274118,-0.15795484,-0.5891054,0.7924676,0.028756708,0.79945767,0.6000335,-0.98702747,0.11756691,-0.10933751,,0.107036635,1.3441399,0.44330165,0.99579847,0.01817776,-0.08974962,-0.0444414,-0.7610041,-0.64722306,-0.0800649,0.64849234,-0.7569989,,-0.08814148,0.255485,-0.083123624,0.9528045,0.17180052,0.2502961,-0.29536986,0.7151046,0.63354725,-0.07014413,-0.6775766,0.7320996,,-0.02396853,0.40663493,-0.38074046,0.23994961,0.4819382,-0.8427098,-0.81279,0.57441247,0.09707099,0.5308452,0.6616539,0.5295446,,0.888577644508272,0.3483570344905192,0.20050106317000002,0.7280434837782686,0.022681658961063115,0.9629563695153899,-0.40149971455805855,,-0.8984086834571599,-0.31101762104364367,0.18161541416000002,1.4787334814528659,0.8672318640112505,0.34697638549290954,0.8618032929244572,,-0.04730714937530631,-0.07404341185429444,0.0795457676,-0.07163176773016745,,-0.00010259822,-2.4437904e-06,-1.5497208e-06,1.0,8.953735e-05,7.67149e-05,-8.95448e-05,0.99999994,9.417534e-06,-7.670373e-05,-9.506941e-06,1.0,43,0.129,0,0,0.0,False,-0.26255903295711036,1.0366241737506119
0.15252851299010217,13:44:10.880466,13:43:56.837771,0,,0.12265685,0.00069111586,0.01992391,-0.93571925,-0.25585917,-0.2428281,-0.26909176,0.07265523,0.96036994,-0.22807677,0.96397984,-0.13683456,,0.06251885,-0.03183362,0.04273206,-0.15884379,-0.58895004,0.79240537,0.028894752,0.7994785,0.5999991,-0.9868808,0.11820245,-0.10997464,,0.107036635,1.3441399,0.44330165,0.99579847,0.01817776,-0.08974962,-0.0444414,-0.7610041,-0.64722306,-0.0800649,0.64849234,-0.7569989,,-0.08816205,0.2554618,-0.08336602,0.9528371,0.17105256,0.25068408,-0.295349,0.71260977,0.6363617,-0.06978862,-0.68038833,0.7295212,,-0.023968257,0.40662384,-0.38074133,0.24080077,0.48172605,-0.84258825,-0.8124774,0.5749481,0.09651486,0.53093827,0.6613431,0.52983946,,0.8882996261248,0.34803267970980173,0.20027032355000002,0.7282531737217531,0.023091568460359434,0.967196125252172,-0.4018264026903269,,-0.8984086834571599,-0.3110330665093921,0.18161671045000002,1.4793625512833193,0.8664120450126579,0.3473998566946664,0.8616399488583232,,-0.04730714937530631,-0.07404341185429444,0.0795457676,-0.07163176773016745,,-0.00010259822,-2.4437904e-06,-1.5497208e-06,1.0,8.953735e-05,7.67149e-05,-8.95448e-05,0.99999994,9.417534e-06,-7.670373e-05,-9.506941e-06,1.0,55,0.166,0,0,0.0,False,-0.2631548101423209,1.03676901435295
0.17979169098543935,13:44:10.909357,13:43:56.837771,0,,0.122674644,0.00054113567,0.020126328,-0.93444604,-0.26002696,-0.24330318,-0.2700144,0.071924925,0.960166,-0.23216951,0.9629188,-0.13742101,,0.06252144,-0.031834215,0.04273045,-0.15883616,-0.5888159,0.7925066,0.02889204,0.79958105,0.5998627,-0.9868821,0.11817697,-0.10999031,,0.107036635,1.3441399,0.44330165,0.99579847,0.01817776,-0.08974962,-0.0444414,-0.7610041,-0.64722306,-0.0800649,0.64849234,-0.7569989,,-0.08819685,0.25548443,-0.08361515,0.95192665,0.175299,0.2512089,-0.29884177,0.71161175,0.6358477,-0.067299746,-0.6803521,0.72978884,,-0.023970613,0.40662178,-0.38074115,0.24079363,0.48158395,-0.8426715,-0.8124809,0.57495904,0.096420504,0.5309362,0.6614371,0.52972424,,0.8881683396659382,0.3478318886550719,0.20002273216000002,0.7253175145129698,0.026370844454730008,0.9668907790275342,-0.4029698111532669,,-0.8984164061900342,-0.31104078924226636,0.18161930303,1.4793625512833193,0.8664120450126579,0.3472364992143853,0.8619666369905916,,-0.04730714937530631,-0.07404341185429444,0.0795457676,-0.07163176773016745,,-0.00010259822,-2.4437904e-06,-1.5497208e-06,1.0,8.953735e-05,7.67149e-05,-8.95448e-05,0.99999994,9.417534e-06,-7.670373e-05,-9.506941e-06,1.0,62,0.187,0,0,0.0,False,-0.26309523242380006,1.0359965311404788
0.2086239889904391,13:44:10.931560,13:43:56.837771,0,,0.12268981,0.00047405064,0.02026409,-0.9343121,-0.26126102,-0.24249426,-0.2692052,0.07126972,0.96044207,-0.23364358,0.9626335,-0.13692108,,0.06252131,-0.03183411,0.04273039,-0.15879656,-0.5889597,0.7924077,0.02875641,0.799492,0.59998786,-0.98689246,0.118062824,-0.110020235,,0.107036635,1.3441399,0.44330165,0.99579847,0.01817776,-0.08974962,-0.0444414,-0.7610041,-0.64722306,-0.0800649,0.64849234,-0.7569989,,-0.08822369,0.25552565,-0.083761066,0.9519184,0.17655526,0.2503588,-0.2992327,0.7110096,0.6363373,-0.0656588,-0.68065673,0.72965425,,-0.023970487,0.40662178,-0.38074103,0.24077077,0.4817464,-0.8425852,-0.81256205,0.5748361,0.0964698,0.53082234,0.66142565,0.52985257,,0.888129726001567,0.3478627795865688,0.19987106623000003,0.7253175145129698,0.02801048245191529,0.9671873389859885,-0.4019897467564614,,-0.8984164061900342,-0.31104851197514055,0.18161930303,1.4791528613398348,0.8664120450126579,0.34723649921438526,0.8621299810567258,,-0.04730714937530631,-0.07404341185429444,0.0795457676,-0.07163176773016745,,-0.00010259822,-2.4437904e-06,-1.5497208e-06,1.0,8.953735e-05,7.67149e-05,-8.95448e-05,0.99999994,9.417534e-06,-7.670373e-05,-9.506941e-06,1.0,70,0.211,0,0,0.0,False,-0.2636314318904893,1.0366241737506119
0.23088571897824295,13:44:10.955350,13:43:56.837771,0,,0.122769535,0.00038404763,0.020508543,-0.93178713,-0.2714387,-0.24102634,-0.26826006,0.06757054,0.96097374,-0.24455917,0.9600808,-0.1357776,,0.06251957,-0.0318328,0.042728007,-0.15881084,-0.58883643,0.7924965,0.028755993,0.7995841,0.5998651,-0.9868901,0.11805406,-0.11005005,,0.107036635,1.3441399,0.44330165,0.99579847,0.01817776,-0.08974962,-0.0444414,-0.7610041,-0.64722306,-0.0800649,0.64849234,-0.7569989,,-0.088324025,0.2556171,-0.08399723,0.95034665,0.18692786,0.24879552,-0.30596694,0.7071758,0.6374062,-0.056793205,-0.68188006,0.7292559,,-0.023968711,0.40662068,-0.38073862,0.24078473,0.48161474,-0.8426565,-0.8125584,0.57485765,0.09637173,0.5308216,0.6615028,0.529757,,0.8881065578029443,0.34790139325093994,0.19962088226000002,0.7204946458128256,0.03812158343455788,0.967763718047634,-0.40264312302099814,,-0.8984009607242857,-0.31104078924226636,0.18162059932000002,1.4791528613398348,0.8664120450126579,0.3470731417341041,0.8619666369905916,,-0.04730714937530631,-0.07404341185429444,0.0795457676,-0.07163176773016745,,-0.00010259822,-2.4437904e-06,-1.5497208e-06,1.0,8.953735e-05,7.67149e-05,-8.95448e-05,0.99999994,9.417534e-06,-7.670373e-05,-9.506941e-06,1.0,78,0.236,0,0,0.0,False,-0.2634526987349264,1.0366241737506119
0.25467627399484627,13:44:10.982052,13:43:56.837771,0,,0.12278117,0.0003426969,0.020646617,-0.9309143,-0.27477425,-0.24061924,-0.26738888,0.063940525,0.96146476,-0.24880049,0.95938027,-0.13299477,,0.06251888,-0.03183137,0.042726398,-0.15881848,-0.5888411,0.79249144,0.028758764,0.7995796,0.59987104,-0.9868888,0.1180616,-0.11005372,,0.107036635,1.3441399,0.44330165,0.99579847,0.01817776,-0.08974962,-0.0444414,-0.7610041,-0.64722306,-0.0800649,0.64849234,-0.7569989,,-0.08834747,0.25567785,-0.08412637,0.94984215,0.1903233,0.24814701,-0.3082029,0.7042152,0.6396029,-0.053017586,-0.6840014,0.7275515,,-0.023968048,0.4066201,-0.38073653,0.24079187,0.48161918,-0.8426519,-0.8125549,0.57486254,0.096372165,0.5308237,0.6614953,0.52976424,,0.888230121528932,0.3479322841824368,0.19948217923000003,0.719026816208434,0.04235731492728654,0.9701906323231655,-0.40133637049192394,,-0.8983932379914115,-0.3110330665093921,0.18162189561000003,1.4791528613398348,0.8664120450126579,0.3470731417341041,0.8619666369905916,,-0.04730714937530631,-0.07404341185429444,0.0795457676,-0.07163176773016745,,-0.00010259822,-2.4437904e-06,-1.5497208e-06,1.0,8.953735e-05,7.67149e-05,-8.95448e-05,0.99999994,9.417534e-06,-7.670373e-05,-9.506941e-06,1.0,86,0.26,0,0,0.0,False,-0.26327396557936344,1.036334492545935
0.2813747489999514,13:44:11.003396,13:43:56.837771,0,,0.12278198,0.00031121075,0.020775214,-0.930097,-0.27654493,-0.24174833,-0.26803696,0.06098482,0.9614764,-0.25114846,0.9590639,-0.13084617,,0.06251414,-0.03181334,0.042732596,-0.15775853,-0.5902461,0.7916575,0.027096987,0.79880714,0.60097647,-0.98710585,0.11626068,-0.110024765,,0.107036635,1.3441399,0.44330165,0.99579847,0.01817776,-0.08974962,-0.0444414,-0.7610041,-0.64722306,-0.0800649,0.64849234,-0.7569989,,-0.08835932,0.25574023,-0.08424255,0.9492337,0.19212426,0.24908547,-0.31030008,0.701917,0.6411134,-0.051663894,-0.6858577,0.7258995,,-0.023965945,0.40663496,-0.38072386,0.23995055,0.4832558,-0.8419546,-0.8137035,0.57312053,0.097054206,0.5294435,0.66181314,0.53074753,,0.8883382397891711,0.3480481251755502,0.19935255023,0.7169299167735887,0.044133589424237264,0.9723360641412966,-0.4010096823596556,,-0.8983932379914115,-0.31104078924226636,0.18162189561000003,1.4762172021310513,0.8669585910117197,0.34621907641861566,0.8614766047921888,,-0.04730714937530631,-0.07404341185429444,0.0795457676,-0.07163176773016745,,-0.00010259822,-2.4437904e-06,-1.5497208e-06,1.0,8.953735e-05,7.67149e-05,-8.95448e-05,0.99999994,9.417534e-06,-7.670373e-05,-9.506941e-06,1.0,93,0.281,0,0,0.0,False,-0.26327396557936344,1.036865574754509
0.3027153289876878,13:44:11.031860,13:43:57.017632,0,,0.122765824,0.00028565526,0.020941436,-0.9297045,-0.27792156,-0.24167982,-0.26798207,0.060307145,0.9615344,-0.25265613,0.95870876,-0.13054591,,0.06250876,-0.031777218,0.04274541,-0.15494056,-0.59071624,0.7918634,0.023847044,0.7990731,0.60076064,-0.98763585,0.111965775,-0.10972202,,0.107036635,1.3441399,0.44330165,0.99579847,0.01817776,-0.08974962,-0.0444414,-0.7610041,-0.64722306,-0.0800649,0.64849234,-0.7569989,,-0.08835756,0.25583312,-0.08438364,0.94897324,0.19352867,0.24899095,-0.31128904,0.7012602,0.64135265,-0.050487325,-0.68613464,0.7257205,,-0.023965845,0.40666452,-0.3806989,0.23757723,0.48406908,-0.84216046,-0.81613964,0.5696245,0.09718031,0.5267572,0.6642327,0.5303978,,0.8885699217753978,0.3482334707645316,0.19919699543000002,0.7163008469431352,0.04549995442189167,0.9722837087261598,-0.4018264026903269,,-0.8983932379914115,-0.31107168017376324,0.18162837706,1.4701361937700004,0.8687348655086704,0.34134013658465856,0.8618032929244575,,-0.04730714937530631,-0.07404341185429444,0.0795457676,-0.07163176773016745,,-0.00010259822,-2.4437904e-06,-1.5497208e-06,1.0,8.953735e-05,7.67149e-05,-8.95448e-05,0.99999994,9.417534e-06,-7.670373e-05,-9.506941e-06,1.0,105,0.318,0,0,0.0,False,-0.2631548101423209,1.036431052947494
0.3311791500018444,13:44:11.061588,13:43:57.017632,0,,0.12270707,0.0002464354,0.021102965,-0.9297567,-0.27649096,-0.24311537,-0.26788533,0.055051297,0.96187663,-0.2525664,0.9594383,-0.1252523,,0.06251131,-0.031784922,0.042742312,-0.15518497,-0.58989537,0.79242724,0.024176478,0.79963684,0.5999969,-0.9875895,0.11226857,-0.10983005,,0.107036635,1.3441399,0.44330165,0.99579847,0.01817776,-0.08974962,-0.0444414,-0.7610041,-0.64722306,-0.0800649,0.64849234,-0.7569989,,-0.08831291,0.25591534,-0.084533066,0.94901717,0.19205715,0.24996088,-0.3111542,0.69775856,0.6452256,-0.05049216,-0.6901066,0.7219443,,-0.02396722,0.40665767,-0.3807041,0.23777764,0.48316607,-0.8426223,-0.8159045,0.57005394,0.09663507,0.52703094,0.6645217,0.52976346,,0.8889328902204864,0.3483029753603996,0.19903366289000002,0.7163008469431352,0.04563659092165711,0.9774814089316,-0.40133637049192405,,-0.8983932379914115,-0.31109484837238593,0.18162967335000002,1.4707652636004538,0.8685982290089049,0.3408798033073711,0.86229332512286,,-0.04730714937530631,-0.07404341185429444,0.0795457676,-0.07163176773016745,,-0.00010259822,-2.4437904e-06,-1.5497208e-06,1.0,8.953735e-05,7.67149e-05,-8.95448e-05,0.99999994,9.417534e-06,-7.670373e-05,-9.506941e-06,1.0,113,0.342,0,0,0.0,False,-0.2630356547052788,1.036865574754509
0.36089115697541274,13:44:11.084755,13:43:57.017632,0,,0.12268102,0.00018548965,0.02126044,-0.93052495,-0.2744176,-0.24252482,-0.26612458,0.051721394,0.9625499,-0.25159693,0.96021855,-0.12115744,,0.06250574,-0.03178665,0.042735636,-0.15535273,-0.5899828,0.79232925,0.0241113,0.7995635,0.6000972,-0.98756474,0.112330794,-0.10998914,,0.107036635,1.3441399,0.44330165,0.99579847,0.01817776,-0.08974962,-0.0444414,-0.7610041,-0.64722306,-0.0800649,0.64849234,-0.7569989,,-0.08830043,0.25597674,-0.08469201,0.9496927,0.18993466,0.24901526,-0.3091537,0.69568163,0.64842194,-0.05007753,-0.6927856,0.7194028,,-0.023960924,0.40665182,-0.3807019,0.23794886,0.48325548,-0.8425227,-0.8158931,0.57008284,0.09656096,0.52697134,0.66443187,0.52993536,,0.8890796221450967,0.3483647572233934,0.19886514519,0.7183977463779805,0.04563659092165711,0.9812386309780659,-0.4026431230209985,,-0.8983469015941661,-0.31110257110526013,0.18163096964000003,1.4707652636004538,0.8684615925091395,0.3409912212110675,0.86229332512286,,-0.04730714937530631,-0.07404341185429444,0.0795457676,-0.07163176773016745,,-0.00010259822,-2.4437904e-06,-1.5497208e-06,1.0,8.953735e-05,7.67149e-05,-8.95448e-05,0.99999994,9.417534e-06,-7.670373e-05,-9.506941e-06,1.0,136,0.412,0,0,0.0,False,-0.2622015666459845,1.036431052947494
0.3840169429895468,13:44:11.161599,13:43:57.152883,0,,0.12272562,2.1323562e-05,0.021639884,-0.9293285,-0.28089717,-0.23967712,-0.2638688,0.051133692,0.9632021,-0.25830522,0.9583747,-0.12164,,0.06249138,-0.031734303,0.042751968,-0.15159027,-0.59153825,0.79189813,0.019180596,0.79924554,0.60069835,-0.9882572,0.106249094,-0.10981181,,0.107036635,1.3441399,0.44330165,0.99579847,0.01817776,-0.08974962,-0.0444414,-0.7610041,-0.64722306,-0.0800649,0.64849234,-0.7569989,,-0.08837724,0.25610533,-0.08507993,0.9490754,0.1965516,0.24621803,-0.31202736,0.6944069,0.64841187,-0.043529097,-0.69221854,0.720374,,-0.023954097,0.40669367,-0.38066426,0.23484585,0.48536626,-0.8421799,-0.81942505,0.5649075,0.09706772,0.52286714,0.6673073,0.53038746,,0.8890873448779709,0.3484497072850099,0.19845940642,0.7169299167735887,0.05260505240969457,0.9798852911169981,-0.4024797789548641,,-0.8983237333955434,-0.3111489075025055,0.1816361548,1.4617485960306191,0.8706477765053866,0.33487956152447484,0.86114991665992,,-0.04730714937530631,-0.07404341185429444,0.0795457676,-0.07163176773016745,,-0.00010259822,-2.4437904e-06,-1.5497208e-06,1.0,8.953735e-05,7.67149e-05,-8.95448e-05,0.99999994,9.417534e-06,-7.670373e-05,-9.506941e-06,1.0,148,0.449,0,0,0.0,False,-0.2630356547052788,1.0358516905381403
0.46088611998129636,13:44:11.193328,13:43:57.152883,0,,0.12278101,-3.707409e-05,0.021820813,-0.9282478,-0.28603163,-0.23778538,-0.26132208,0.046554476,0.9641282,-0.26470122,0.95708853,-0.11796048,,0.062490024,-0.031749308,0.042741,-0.15237519,-0.589748,0.7930819,0.019741982,0.8004761,0.59903944,-0.98812544,0.10693571,-0.110329956,,0.107036635,1.3441399,0.44330165,0.99579847,0.01817776,-0.08974962,-0.0444414,-0.7610041,-0.64722306,-0.0800649,0.64849234,-0.7569989,,-0.088447906,0.25617936,-0.085249454,0.9485452,0.201793,0.24401131,-0.31446964,0.6904598,0.65144,-0.03702396,-0.6946545,0.7183901,,-0.023950085,0.40667704,-0.38067162,0.23554733,0.4833945,-0.84311754,-0.81893,0.5658672,0.09564539,0.523327,0.66792524,0.5291548,,0.8890873448779709,0.3485269346137521,0.19827922211000001,0.7158814670561662,0.059436877397966596,0.9828089849067954,-0.4028064670871325,,-0.8982851197311723,-0.3111875211668766,0.18163745109,1.4630067356915264,0.8701012305063248,0.33377333707658985,0.8606598844615173,,-0.04730714937530631,-0.07404341185429444,0.0795457676,-0.07163176773016745,,-0.00010259822,-2.4437904e-06,-1.5497208e-06,1.0,8.953735e-05,7.67149e-05,-8.95448e-05,0.99999994,9.417534e-06,-7.670373e-05,-9.506941e-06,1.0,156,0.473,0,0,0.0,False,-0.26333354329788383,1.0354654489319046
0.4926479709974956,13:44:11.214110,13:43:57.152883,0,,0.122796625,-6.952882e-05,0.021940261,-0.9278247,-0.28783005,-0.23726587,-0.2603414,0.04414639,0.96450675,-0.2671396,0.95666337,-0.1158942,,0.062484484,-0.031750947,0.042735517,-0.15237275,-0.589898,0.79297084,0.019582957,0.8003801,0.5991728,-0.988129,0.106826276,-0.11040421,,0.107036635,1.3441399,0.44330165,0.99579847,0.01817776,-0.08974962,-0.0444414,-0.7610041,-0.64722306,-0.0800649,0.64849234,-0.7569989,,-0.08847372,0.25623402,-0.085358605,0.9483321,0.20362927,0.24331336,-0.31539416,0.6884972,0.6530683,-0.03453674,-0.6960652,0.7171474,,-0.023943935,0.40667224,-0.38066995,0.23556326,0.48356342,-0.8430162,-0.8190119,0.5657457,0.09566223,0.5231916,0.6679058,0.52931315,,0.8891414040080905,0.3486196074082428,0.19816125972,0.7154620871691971,0.06203297089350997,0.9845309455231699,-0.3987228654337758,,-0.8982387833339269,-0.3112029666326251,0.18163874738000002,1.462797045748042,0.8701012305063248,0.33377333707658985,0.8606598844615173,,-0.04730714937530631,-0.07404341185429444,0.0795457676,-0.07163176773016745,,-0.00010259822,-2.4437904e-06,-1.5497208e-06,1.0,8.953735e-05,7.67149e-05,-8.95448e-05,0.99999994,9.417534e-06,-7.670373e-05,-9.506941e-06,1.0,164,0.498,0,0,0.0,False,-0.26351227645344677,1.0356585697350225
0.5134184699854814,13:44:11.244226,13:43:57.152883,0,,0.1228075,-0.000111714005,0.022106096,-0.92761165,-0.2899855,-0.23546752,-0.25874776,0.04416305,0.9649347,-0.26941812,0.9560114,-0.11599931,,0.062481895,-0.031753883,0.042733073,-0.15239066,-0.58989656,0.79296845,0.019561976,0.800382,0.5991709,-0.98812664,0.10682005,-0.11043124,,0.107036635,1.3441399,0.44330165,0.99579847,0.01817776,-0.08974962,-0.0444414,-0.7610041,-0.64722306,-0.0800649,0.64849234,-0.7569989,,-0.08849881,0.2563127,-0.08550886,0.94831234,0.20583306,0.24152951,-0.31574422,0.68820494,0.6532071,-0.031770185,-0.6957059,0.71762383,,-0.023940824,0.40666902,-0.3806711,0.23558317,0.48356235,-0.84301126,-0.8190179,0.5657411,0.09563842,0.5231733,0.6679105,0.5293253,,0.8892495222683297,0.34876633933285306,0.19799792718000003,0.7156717771126816,0.06476570088881876,0.9837728047717715,-0.4016630586241927,,-0.8982156151353042,-0.31121841209837353,0.18163874738000002,1.462797045748042,0.8701012305063248,0.33377333707658985,0.8606598844615173,,-0.04730714937530631,-0.07404341185429444,0.0795457676,-0.07163176773016745,,-0.00010259822,-2.4437904e-06,-1.5497208e-06,1.0,8.953735e-05,7.67149e-05,-8.95448e-05,0.99999994,9.417534e-06,-7.670373e-05,-9.506941e-06,1.0,179,0.543,0,0,0.0,False,-0.2626186106756321,1.0358516905381403
0.5435092729749158,13:44:11.283197,13:43:57.152883,0,,0.12286252,-0.00014127791,0.022332698,-0.9253609,-0.29682058,-0.2358064,-0.2593163,0.041895777,0.9648832,-0.27651793,0.95401376,-0.11573911,,0.062479384,-0.031753972,0.042729914,-0.1524105,-0.5899014,0.792961,0.019552678,0.8003777,0.5991769,-0.9881238,0.10682532,-0.11045186,,0.107036635,1.3441399,0.44330165,0.99579847,0.01817776,-0.08974962,-0.0444414,-0.7610041,-0.64722306,-0.0800649,0.64849234,-0.7569989,,-0.08857319,0.2564386,-0.08569288,0.9466877,0.21282291,0.24184471,-0.32103962,0.68560225,0.653363,-0.026758661,-0.6961724,0.71737576,,-0.023938049,0.40666658,-0.38066944,0.23560362,0.48356715,-0.8430028,-0.81901735,0.56574416,0.09562465,0.52316487,0.66790444,0.5293413,,0.8893267495970718,0.3490906941135705,0.19779181707000001,0.7112682882995066,0.07064107037873271,0.9835558443606969,-0.40133637049192394,,-0.8981924469366817,-0.31121841209837353,0.18164004367000003,1.462797045748042,0.8701012305063248,0.3337733370765898,0.8609865725937859,,-0.04730714937530631,-0.07404341185429444,0.0795457676,-0.07163176773016745,,-0.00010259822,-2.4437904e-06,-1.5497208e-06,1.0,8.953735e-05,7.67149e-05,-8.95448e-05,0.99999994,9.417534e-06,-7.670373e-05,-9.506941e-06,1.0,187,0.568,0,0,0.0,False,-0.2636314318904893,1.0360930915420377
0.5825080319773406,13:44:11.313877,13:43:57.290817,0,,0.122926876,-0.00013552606,0.022512183,-0.9225921,-0.30562887,-0.23540317,-0.25885352,0.03799513,0.9651689,-0.28603932,0.95139223,-0.114167124,,0.062478058,-0.031752795,0.04272932,-0.15241809,-0.5899061,0.7929561,0.01955539,0.80037326,0.59918284,-0.9881225,0.10683283,-0.11045554,,0.107036635,1.3441399,0.44330165,0.99579847,0.01817776,-0.08974962,-0.0444414,-0.7610041,-0.64722306,-0.0800649,0.64849234,-0.7569989,,-0.08865287,0.25655875,-0.08581781,0.94475365,0.22183791,0.24130574,-0.32721648,0.6814901,0.65459955,-0.019232485,-0.69739455,0.7164293,,-0.023936821,0.40666687,-0.3806681,0.2356107,0.48357168,-0.84299827,-0.81901395,0.56574905,0.09562507,0.523167,0.66789705,0.5293485,,0.8894812042545563,0.3493687124970426,0.19764663259,0.7064454195993626,0.07924916986395546,0.984295996741176,-0.4021530908225954,,-0.8981847242038073,-0.3112106893654993,0.18164004367000003,1.462797045748042,0.8701012305063248,0.3337733370765898,0.8609865725937859,,-0.04730714937530631,-0.07404341185429444,0.0795457676,-0.07163176773016745,,-0.00010259822,-2.4437904e-06,-1.5497208e-06,1.0,8.953735e-05,7.67149e-05,-8.95448e-05,0.99999994,9.417534e-06,-7.670373e-05,-9.506941e-06,1.0,195,0.592,0,0,0.0,False,-0.2636314318904893,1.0355620093334637
0.6131962099752855,13:44:11.336394,13:43:57.290817,0,,0.12294024,-0.0001283437,0.022622079,-0.9215585,-0.3084227,-0.23580769,-0.25836176,0.033829033,0.96545565,-0.28979132,0.9506476,-0.11086008,,0.06247988,-0.03175126,0.042730927,-0.15240583,-0.58990604,0.7929585,0.01956746,0.80037296,0.5991827,-0.98812413,0.10683507,-0.110438585,,0.107036635,1.3441399,0.44330165,0.99579847,0.01817776,-0.08974962,-0.0444414,-0.7610041,-0.64722306,-0.0800649,0.64849234,-0.7569989,,-0.08867575,0.2566366,-0.08589347,0.94404775,0.22469921,0.24142098,-0.32941738,0.6780694,0.65704346,-0.016063033,-0.69980866,0.7141497,,-0.023938933,0.40666872,-0.38066766,0.23559734,0.4835714,-0.84300214,-0.81901103,0.56575084,0.09563927,0.52317756,0.6678957,0.52933973,,0.8896588271106635,0.34955405808602397,0.19755718858000001,0.7047679000514864,0.0828017188578569,0.9871983217950488,-0.4023164348887299,,-0.8982001696695558,-0.3112029666326251,0.18164004367000003,1.462797045748042,0.8701012305063248,0.33377333707658985,0.8613132607260545,,-0.04730714937530631,-0.07404341185429444,0.0795457676,-0.07163176773016745,,-0.00010259822,-2.4437904e-06,-1.5497208e-06,1.0,8.953735e-05,7.67149e-05,-8.95448e-05,0.99999994,9.417534e-06,-7.670373e-05,-9.506941e-06,1.0,203,0.617,0,0,0.0,False,-0.2626781883941529,1.0356102895342432
0.6356448319857009,13:44:11.360767,13:43:57.290817,0,,0.122928694,-0.00012291968,0.02279073,-0.9204977,-0.31129324,-0.23617876,-0.25762802,0.029049218,0.9658073,-0.2937885,0.9498697,-0.10693765,,0.062478393,-0.03175001,0.04273033,-0.1523722,-0.5901189,0.7928065,0.019435585,0.8002291,0.59937924,-0.988132,0.106737375,-0.11046338,,0.107036635,1.3441399,0.44330165,0.99579847,0.01817776,-0.08974962,-0.0444414,-0.7610041,-0.64722306,-0.0800649,0.64849234,-0.7569989,,-0.08867888,0.25675386,-0.08601532,0.9433353,0.22764179,0.24144933,-0.33160383,0.6741755,0.6599441,-0.012548366,-0.70261407,0.7114605,,-0.023937555,0.40666905,-0.3806662,0.2355797,0.48380706,-0.84287184,-0.8190874,0.5656241,0.09573528,0.52306604,0.6678324,0.5295298,,0.8900295182886263,0.34979346280512497,0.19741459668000003,0.7030903805036102,0.08676417735105468,0.9905015017990975,-0.40329649928553535,,-0.8981924469366817,-0.3112029666326251,0.18164004367000003,1.4625873558045575,0.8701012305063248,0.33385501581673044,0.8611499166599202,,-0.04730714937530631,-0.07404341185429444,0.0795457676,-0.07163176773016745,,-0.00010259822,-2.4437904e-06,-1.5497208e-06,1.0,8.953735e-05,7.67149e-05,-8.95448e-05,0.99999994,9.417534e-06,-7.670373e-05,-9.506941e-06,1.0,211,0.641,0,0,0.0,False,-0.2626781883941529,1.0356102895342432
0.6600539609789848,13:44:11.383436,13:43:57.290817,0,,0.122906774,-0.00010538101,0.02289462,-0.9202376,-0.31261808,-0.23544118,-0.25630203,0.026771963,0.9662258,-0.29575643,0.9495015,-0.10476133,,0.062476415,-0.03175141,0.042728722,-0.15234324,-0.5902624,0.7927053,0.019288927,0.8001387,0.59950453,-0.9881393,0.10662085,-0.11051023,,0.107036635,1.3441399,0.44330165,0.99579847,0.01817776,-0.08974962,-0.0444414,-0.7610041,-0.64722306,-0.0800649,0.64849234,-0.7569989,,-0.08866611,0.25683752,-0.08608177,0.9432426,0.22900091,0.24052443,-0.33194822,0.67231935,0.66166234,-0.010187955,-0.70394975,0.7101767,,-0.023935294,0.4066672,-0.38066646,0.23556833,0.48396957,-0.8427817,-0.81917,0.5654985,0.09577042,0.52294177,0.667821,0.5296669,,0.8903693185350922,0.3499633629283579,0.19733293041000002,0.7030903805036102,0.08922363434683261,0.9920081653586061,-0.39953958576444704,,-0.8981770014709332,-0.31121841209837353,0.18164004367000003,1.462377665861073,0.8701012305063248,0.33385501581673044,0.8611499166599202,,-0.04730714937530631,-0.07404341185429444,0.0795457676,-0.07163176773016745,,-0.00010259822,-2.4437904e-06,-1.5497208e-06,1.0,8.953735e-05,7.67149e-05,-8.95448e-05,0.99999994,9.417534e-06,-7.670373e-05,-9.506941e-06,1.0,226,0.686,0,0,0.0,False,-0.2635718541719685,1.0358999707389198
0.6826967439847067,13:44:11.426134,13:43:57.402099,0,,0.12285754,-6.236136e-05,0.02316916,-0.9181773,-0.31752667,-0.23691152,-0.2556091,0.017927676,0.9666139,-0.30267844,0.94807976,-0.09762359,,0.06247614,-0.031750143,0.04272884,-0.1523442,-0.5901361,0.7927992,0.019294769,0.8002336,0.59937775,-0.9881391,0.10660854,-0.110524416,,0.107036635,1.3441399,0.44330165,0.99579847,0.01817776,-0.08974962,-0.0444414,-0.7610041,-0.64722306,-0.0800649,0.64849234,-0.7569989,,-0.088641025,0.2570556,-0.08625913,0.9417882,0.2340428,0.2413689,-0.33617696,0.6651017,0.66680187,-0.004474705,-0.7091288,0.7050648,,-0.02393518,0.406668,-0.38066545,0.2355686,0.48383483,-0.842859,-0.8191668,0.56551796,0.09568306,0.5229467,0.6679022,0.5295597,,0.8912110964183827,0.3504035587021887,0.19711644998000002,0.6995256514643732,0.0959188228353392,0.9980653904373008,-0.39937624169831276,,-0.8981847242038073,-0.3112106893654993,0.18164004367000003,1.462377665861073,0.8701012305063248,0.33352830085616814,0.8608232285276518,,-0.04730714937530631,-0.07404341185429444,0.0795457676,-0.07163176773016745,,-0.00010259822,-2.4437904e-06,-1.5497208e-06,1.0,8.953735e-05,7.67149e-05,-8.95448e-05,0.99999994,9.417534e-06,-7.670373e-05,-9.506941e-06,1.0,234,0.711,0,0,0.0,False,-0.2631548101423209,1.0348378063217716
0.725391766987741,13:44:11.453755,13:43:57.402099,0,,0.12282814,-1.0535121e-05,0.023392051,-0.9144243,-0.32720128,-0.23825917,-0.25768825,0.016680896,0.966084,-0.3121296,0.94480735,-0.09956938,,0.06247719,-0.031750023,0.042729557,-0.15233758,-0.5899402,0.7929462,0.019297868,0.80038184,0.5991796,-0.9881401,0.10657972,-0.11054367,,0.107036635,1.3441399,0.44330165,0.99579847,0.01817776,-0.08974962,-0.0444414,-0.7610041,-0.64722306,-0.0800649,0.64849234,-0.7569989,,-0.08863122,0.2572446,-0.08639113,0.93887573,0.24396876,0.24288192,-0.3442536,0.66257787,0.6651917,0.0013577999,-0.7081453,0.7060654,,-0.023936292,0.4066685,-0.38066575,0.23556179,0.4836267,-0.8429804,-0.81916696,0.5655404,0.09554908,0.5229495,0.6680339,0.5293907,,0.8919370333085598,0.350758804414403,0.19695182115,0.6919768134989304,0.10357046682220386,0.9951748161760641,-0.40117302642579,,-0.8981847242038073,-0.3112106893654993,0.18164004367000003,1.462377665861073,0.8701012305063248,0.3334466221160275,0.8606598844615174,,-0.04730714937530631,-0.07404341185429444,0.0795457676,-0.07163176773016745,,-0.00010259822,-2.4437904e-06,-1.5497208e-06,1.0,8.953735e-05,7.67149e-05,-8.95448e-05,0.99999994,9.417534e-06,-7.670373e-05,-9.506941e-06,1.0,242,0.736,0,0,0.0,False,-0.2636314318904893,1.0342101637116388
0.7530818819941487,13:44:11.484155,13:43:57.402099,0,,0.122780636,3.860891e-05,0.023607403,-0.91365373,-0.3292874,-0.23834139,-0.25516284,0.008159548,0.9668635,-0.31643125,0.94419444,-0.09147701,,0.062477823,-0.031749725,0.042728484,-0.15233758,-0.5899402,0.7929462,0.019297868,0.80038184,0.5991796,-0.9881401,0.10657972,-0.11054367,,0.107036635,1.3441399,0.44330165,0.99579847,0.01817776,-0.08974962,-0.0444414,-0.7610041,-0.64722306,-0.0800649,0.64849234,-0.7569989,,-0.08860275,0.25742763,-0.08652047,0.938473,0.24612764,0.24225949,-0.34529558,0.6559689,0.6711749,0.0062799887,-0.71353066,0.7005959,,-0.023936857,0.40666765,-0.380665,0.23556179,0.4836267,-0.8429804,-0.81916696,0.5655404,0.09554908,0.5229495,0.6680339,0.5293907,,0.8926861383973596,0.3511526637909885,0.19678978490000001,0.6915574336119613,0.1087626538132906,1.0020492444947167,-0.4024797789548641,,-0.8981847242038073,-0.3112106893654993,0.18164133996,1.462377665861073,0.8701012305063248,0.3334466221160275,0.8606598844615174,,-0.04730714937530631,-0.07404341185429444,0.0795457676,-0.07163176773016745,,-0.00010259822,-2.4437904e-06,-1.5497208e-06,1.0,8.953735e-05,7.67149e-05,-8.95448e-05,0.99999994,9.417534e-06,-7.670373e-05,-9.506941e-06,1.0,250,0.76,0,0,0.0,False,-0.2630356547052788,1.0345481251170952
0.7834827689803205,13:44:11.504645,13:43:57.402099,0,,0.12274465,7.06166e-05,0.023759604,-0.91294783,-0.33101958,-0.23864666,-0.25445828,0.0045873523,0.9670727,-0.31902525,0.9436127,-0.08841875,,0.062477823,-0.031749725,0.042728484,-0.15233758,-0.5898754,0.7929944,0.019297868,0.80043083,0.5991142,-0.9881401,0.10657069,-0.110552385,,0.107036635,1.3441399,0.44330165,0.99579847,0.01817776,-0.08974962,-0.0444414,-0.7610041,-0.64722306,-0.0800649,0.64849234,-0.7569989,,-0.0885802,0.25755513,-0.08661387,0.93799245,0.24791522,0.24229765,-0.34654602,0.65303355,0.6733892,0.008714939,-0.7156013,0.6984546,,-0.023936857,0.40666765,-0.380665,0.23556179,0.48355782,-0.84301984,-0.81916696,0.5655482,0.09550288,0.5229495,0.6680772,0.5293361,,0.8931881160341841,0.351446127640209,0.19667311880000002,0.6905089838945386,0.1114953838085994,1.0043948958686597,-0.4014997145580582,,-0.8981847242038073,-0.3112106893654993,0.18164133996,1.462377665861073,0.8701012305063248,0.33336494337588707,0.8604965403953833,,-0.04730714937530631,-0.07404341185429444,0.0795457676,-0.07163176773016745,,-0.00010259822,-2.4437904e-06,-1.5497208e-06,1.0,8.953735e-05,7.67149e-05,-8.95448e-05,0.99999994,9.417534e-06,-7.670373e-05,-9.506941e-06,1.0,269,0.817,0,0,0.0,False,-0.26232072208302704,1.0346929657194335
0.8039710040029604,13:44:11.559117,13:43:57.508489,0,,0.12267852,0.0002027899,0.024088502,-0.9098963,-0.34001982,-0.23764497,-0.25391293,0.003468275,0.96722066,-0.32805002,0.94041175,-0.08949125,,0.06247489,-0.03174612,0.04272753,-0.15235369,-0.58969367,0.79312646,0.019309223,0.80056554,0.5989338,-0.98813736,0.10656434,-0.110582605,,0.107036635,1.3441399,0.44330165,0.99579847,0.01817776,-0.08974962,-0.0444414,-0.7610041,-0.64722306,-0.0800649,0.64849234,-0.7569989,,-0.088543266,0.2578767,-0.08677274,0.93573344,0.25716272,0.2413923,-0.35234728,0.65061146,0.6727229,0.015946638,-0.7145432,0.6994095,,-0.023934286,0.40666905,-0.38066125,0.2355762,0.48336324,-0.8431274,-0.8191569,0.56558514,0.09537017,0.5229588,0.66818666,0.5291887,,0.8944391987598085,0.35225701459200254,0.19645534208,0.6852667353074255,0.11996684679405671,1.0010808504056663,-0.4024797789548641,,-0.898169278738059,-0.3111875211668766,0.18164133996,1.462377665861073,0.8701012305063248,0.3331199071554653,0.8596798200647117,,-0.04730714937530631,-0.07404341185429444,0.0795457676,-0.07163176773016745,,-0.00010259822,-2.4437904e-06,-1.5497208e-06,1.0,8.953735e-05,7.67149e-05,-8.95448e-05,0.99999994,9.417534e-06,-7.670373e-05,-9.506941e-06,1.0,277,0.842,0,0,0.0,False,-0.26339312101640555,1.0354654489319046
0.8584277059999295,13:44:11.585173,13:43:57.508489,0,,0.122649044,0.00024335086,0.024183482,-0.9094762,-0.34043363,-0.23865853,-0.2538834,0.00018236041,0.96723473,-0.32923576,0.94026846,-0.08659628,,0.062474612,-0.031744823,0.04272771,-0.15235466,-0.5894376,0.7933166,0.019315094,0.8007582,0.59867615,-0.988137,0.106534034,-0.11061424,,0.107036635,1.3441399,0.44330165,0.99579847,0.01817776,-0.08974962,-0.0444414,-0.7610041,-0.64722306,-0.0800649,0.64849234,-0.7569989,,-0.08852226,0.25797197,-0.08681767,0.93541765,0.257598,0.2421509,-0.3531419,0.6481014,0.6747262,0.016869772,-0.7166644,0.6972141,,-0.02393417,0.40666986,-0.3806602,0.23557647,0.48309067,-0.84328353,-0.8191536,0.5656201,0.0951904,0.52296376,0.66835415,0.52897227,,0.8948176126706455,0.3525273102426004,0.19639182387,0.6844279755334874,0.12105993879218024,1.0036200142619986,-0.40280646708713275,,-0.898169278738059,-0.3111797984340024,0.18164133996,1.462377665861073,0.8701012305063248,0.33279319219490305,0.8603331963292488,,-0.04730714937530631,-0.07404341185429444,0.0795457676,-0.07163176773016745,,-0.00010259822,-2.4437904e-06,-1.5497208e-06,1.0,8.953735e-05,7.67149e-05,-8.95448e-05,0.99999994,9.417534e-06,-7.670373e-05,-9.506941e-06,1.0,285,0.867,0,0,0.0,False,-0.2622611443645053,1.0353206083295663
0.8844829369918443,13:44:11.615712,13:43:57.508489,0,,0.12262204,0.00029981136,0.024346426,-0.9082122,-0.3433642,-0.23927286,-0.25396466,-0.0022527874,0.96721077,-0.33264464,0.93919957,-0.08515647,,0.062473997,-0.031746343,0.042726934,-0.15240154,-0.5892278,0.79346347,0.01944074,0.80089915,0.5984835,-0.98812735,0.1066353,-0.11060324,,0.107036635,1.3441399,0.44330165,0.99579847,0.01817776,-0.08974962,-0.0444414,-0.7610041,-0.64722306,-0.0800649,0.64849234,-0.7569989,,-0.08850969,0.25812423,-0.08690206,0.9344544,0.2606181,0.24263814,-0.3555532,0.6457577,0.6757062,0.01941583,-0.7176874,0.6960947,,-0.023933321,0.4066685,-0.38066107,0.23560776,0.48285812,-0.843408,-0.81907696,0.5657489,0.09508511,0.52306974,0.6684133,0.52879274,,0.8953736494375897,0.35296750601643123,0.19627515777,0.6821213861551577,0.12406594178701993,1.0044359699863,-0.40149971455805855,,-0.8981615560051847,-0.3111797984340024,0.18164133996,1.4625873558045575,0.8701012305063248,0.33271151345476246,0.860496540395383,,-0.04730714937530631,-0.07404341185429444,0.0795457676,-0.07163176773016745,,-0.00010259822,-2.4437904e-06,-1.5497208e-06,1.0,8.953735e-05,7.67149e-05,-8.95448e-05,0.99999994,9.417534e-06,-7.670373e-05,-9.506941e-06,1.0,293,0.891,0,0,0.0,False,-0.2630356547052788,1.0352240479280073
0.9150060469983146,13:44:11.638366,13:43:57.620934,0,,0.12257683,0.00038902462,0.024470657,-0.9072003,-0.3445842,-0.24134868,-0.25524038,-0.005215138,0.9668634,-0.33442456,0.93874085,-0.08322066,,0.062474176,-0.031743437,0.042727828,-0.15231436,-0.58951944,0.7932635,0.019186318,0.80071354,0.5987399,-0.9881457,0.106416434,-0.1106495,,0.107036635,1.3441399,0.44330165,0.99579847,0.01817776,-0.08974962,-0.0444414,-0.7610041,-0.64722306,-0.0800649,0.64849234,-0.7569989,,-0.0884757,0.25827608,-0.08693702,0.9336048,0.26188278,0.24453935,-0.35774913,0.64332616,0.6768656,0.01994088,-0.7194087,0.6943007,,-0.023933906,0.4066707,-0.38065904,0.23555197,0.48318705,-0.84323514,-0.8192301,0.56550795,0.09519868,0.522855,0.66837937,0.5290479,,0.8959451316702822,0.3534463154546331,0.19621293585000002,0.6796051068333434,0.125022397285378,1.0057796919040793,-0.40280646708713264,,-0.898169278738059,-0.3111797984340024,0.18164133996,1.4621679759175883,0.8701012305063248,0.33271151345476246,0.860496540395383,,-0.04730714937530631,-0.07404341185429444,0.0795457676,-0.07163176773016745,,-0.00010259822,-2.4437904e-06,-1.5497208e-06,1.0,8.953735e-05,7.67149e-05,-8.95448e-05,0.99999994,9.417534e-06,-7.670373e-05,-9.506941e-06,1.0,305,0.928,0,0,0.0,False,-0.2626186106756321,1.0358516905381403
0.9376641049748287,13:44:11.672521,13:43:57.620934,0,,0.12256915,0.0005148649,0.024609178,-0.9047449,-0.3517292,-0.24025641,-0.25401044,-0.007264644,0.96717405,-0.34192878,0.93607354,-0.08277029,,0.062340125,-0.03176699,0.042724848,-0.1522965,-0.58937424,0.7933748,0.019233793,0.8008195,0.5985967,-0.9881476,0.106423795,-0.11062609,,0.107088104,1.3441344,0.44329417,0.99579626,0.018140558,-0.08978126,-0.04449008,-0.761005,-0.6472187,-0.0800649,0.64849234,-0.7569989,,-0.08852575,0.2584651,-0.086958654,0.9317929,0.2692397,0.24345821,-0.36202595,0.64044434,0.6773243,0.026441148,-0.7192642,0.6942333,,-0.023847409,0.4066735,-0.3806762,0.23551531,0.48307282,-0.84331083,-0.81921726,0.565532,0.09516649,0.52289164,0.66844165,0.528933,,0.8966324548960882,0.354095025016068,0.19617534344,0.6760403777941065,0.13226413177294635,1.004530231196181,-0.40068299422738696,,-0.898169278738059,-0.31117207570112815,0.18164004367000003,1.4621679759175883,0.8701012305063248,0.33262983471462193,0.8606598844615173,,-0.04730714937530631,-0.07404341185429444,0.0795457676,-0.07163176773016745,,-5.0514936e-05,-2.2053719e-06,3.2186508e-06,1.0,5.2534044e-05,4.5012683e-05,-5.253777e-05,0.99999994,5.543232e-06,-4.5001507e-05,-5.6028366e-06,1.0,320,0.973,0,0,0.0,False,-0.2626781883941529,1.0359482509396993
0.9718025619804394,13:44:11.709182,13:43:57.620934,0,,0.12256264,0.0007818788,0.024817616,-0.9023316,-0.35735816,-0.2410241,-0.25163898,-0.017263412,0.96766716,-0.34996468,0.93380773,-0.07434794,,0.062348813,-0.031764157,0.042715907,-0.15240541,-0.5893214,0.7933932,0.019201547,0.80085397,0.59855163,-0.9881314,0.10645679,-0.110738605,,0.107088104,1.3441344,0.44329417,0.99579626,0.018140558,-0.08978126,-0.04449008,-0.761005,-0.6472187,-0.0800649,0.64849234,-0.7569989,,-0.08853819,0.2588028,-0.086934365,0.9300782,0.27507567,0.24349095,-0.36577308,0.6318498,0.68335634,0.034124997,-0.72463727,0.68828505,,-0.023855539,0.406666,-0.3806697,0.23562533,0.4830137,-0.843314,-0.8192048,0.5655704,0.09504509,0.52286154,0.66845185,0.52894986,,0.8977831420943477,0.3553306622759439,0.19613386216000003,0.6728950286418387,0.14032568525910732,1.01069845834002,-0.39872286543377555,,-0.8981924469366817,-0.31117207570112815,0.18165171028000002,1.4621679759175883,0.8699645940065593,0.3325778951380373,0.8608232285276515,,-0.04730714937530631,-0.07404341185429444,0.0795457676,-0.07163176773016745,,-5.0514936e-05,-2.2053719e-06,3.2186508e-06,1.0,5.2534044e-05,4.5012683e-05,-5.253777e-05,0.99999994,5.543232e-06,-4.5001507e-05,-5.6028366e-06,1.0,328,0.998,0,0,0.0,False,-0.2632143878608417,1.0358516905381403
1.0085070589848328,13:44:11.746450,13:43:57.620934,0,,0.12254223,0.0010302365,0.024994388,-0.89996463,-0.36343485,-0.24078774,-0.2504192,-0.021163374,0.9679061,-0.35686672,0.9313791,-0.0719648,,0.062352583,-0.031761356,0.042710066,-0.1525285,-0.58946925,0.7932596,0.019168913,0.8007359,0.59871066,-0.98811305,0.106526345,-0.11083561,,0.107088104,1.3441344,0.44329417,0.99579626,0.018140558,-0.08978126,-0.04449008,-0.761005,-0.6472187,-0.0800649,0.64849234,-0.7569989,,-0.088533975,0.25910637,-0.0869,0.92831486,0.28135243,0.24304806,-0.36961582,0.6277014,0.68510956,0.040195633,-0.72583175,0.6866969,,-0.023859067,0.40666187,-0.38066456,0.23574924,0.48316735,-0.8431913,-0.8191888,0.56559145,0.09505811,0.5228308,0.668323,0.52914304,,0.8988720474296134,0.356435013076958,0.19610923265000002,0.6693302996026017,0.1468842372478485,1.01090455329215,-0.403623187417804,,-0.8982001696695558,-0.31116435296825395,0.18165819173000003,1.4621679759175883,0.8698279575067939,0.3327709917818743,0.8608232285276515,,-0.04730714937530631,-0.07404341185429444,0.0795457676,-0.07163176773016745,,-5.0514936e-05,-2.2053719e-06,3.2186508e-06,1.0,5.2534044e-05,4.5012683e-05,-5.253777e-05,0.99999994,5.543232e-06,-4.5001507e-05,-5.6028366e-06,1.0,361,1.099,0,0,0.0,False,-0.2637505873275314,1.0362862123451555
1.0457675450015813,13:44:11.847299,13:43:57.746568,0,,0.1223269,0.0016877502,0.02551052,-0.8948117,-0.3759054,-0.24084654,-0.24842024,-0.02900374,0.96821797,-0.3709438,0.92620397,-0.06742972,,0.06235364,-0.031759553,0.042708516,-0.15261033,-0.5893719,0.7933162,0.019001573,0.80082077,0.5986025,-0.9881036,0.10642719,-0.111014515,,0.107088104,1.3441344,0.44329417,0.99579626,0.018140558,-0.08978126,-0.04449008,-0.761005,-0.6472187,-0.0800649,0.64849234,-0.7569989,,-0.088366315,0.2599519,-0.086854756,0.9243959,0.29424965,0.24271233,-0.37783596,0.61918163,0.6883706,0.05226979,-0.7280324,0.68354714,,-0.023860188,0.4066613,-0.3806623,0.23584835,0.48307008,-0.84321934,-0.8192525,0.56553525,0.094843395,0.52268624,0.6684409,0.5291369,,0.9024940091476247,0.35921519691167886,0.19599256655000002,0.6607330119197362,0.16041125072462709,1.0096756296430718,-0.4023164348887297,,-0.89820789240243,-0.31116435296825395,0.18165948802,1.4619582859741038,0.8696913210070284,0.33247401598486787,0.861639948858323,,-0.04730714937530631,-0.07404341185429444,0.0795457676,-0.07163176773016745,,-5.0514936e-05,-2.2053719e-06,3.2186508e-06,1.0,5.2534044e-05,4.5012683e-05,-5.253777e-05,0.99999994,5.543232e-06,-4.5001507e-05,-5.6028366e-06,1.0,369,1.125,0,0,0.0,False,-0.26339312101640555,1.0362379321443762
1.1466152729990426,13:44:11.868881,13:43:57.746568,0,,0.12228487,0.0017445982,0.025576502,-0.8938949,-0.3777352,-0.24138752,-0.24858582,-0.030406177,0.9681324,-0.37303734,0.9254142,-0.06671968,,0.06235364,-0.031759553,0.042708516,-0.15261033,-0.5894367,0.7932681,0.019001573,0.8007719,0.59866786,-0.9881036,0.10643625,-0.11100581,,0.107088104,1.3441344,0.44329417,0.99579626,0.018140558,-0.08978126,-0.04449008,-0.761005,-0.6472187,-0.0800649,0.64849234,-0.7569989,,-0.088330336,0.26004067,-0.0868681,0.92366475,0.29614547,0.24318995,-0.37941116,0.6177241,0.6888135,0.05376469,-0.72850174,0.6829309,,-0.023860188,0.4066613,-0.3806623,0.23584835,0.48313895,-0.8431799,-0.8192525,0.5655275,0.09488959,0.52268624,0.66839767,0.5291915,,0.9029650958529524,0.35941598796640867,0.19596404817000002,0.6590554923718601,0.16232416172134326,1.0098310325342736,-0.402479778954864,,-0.89820789240243,-0.31116435296825395,0.18165948802,1.4619582859741038,0.8696913210070284,0.33255569472500845,0.8614766047921886,,-0.04730714937530631,-0.07404341185429444,0.0795457676,-0.07163176773016745,,-5.0514936e-05,-2.2053719e-06,3.2186508e-06,1.0,5.2534044e-05,4.5012683e-05,-5.253777e-05,0.99999994,5.543232e-06,-4.5001507e-05,-5.6028366e-06,1.0,377,1.149,0,0,0.0,False,-0.2631548101423209,1.0355620093334637
1.168208663992118,13:44:11.893051,13:43:57.871248,0,,0.12225892,0.0018019825,0.025675178,-0.89146,-0.3831977,-0.241782,-0.24848783,-0.032744586,0.96808136,-0.37888354,0.92308575,-0.06602949,,0.062353924,-0.031760864,0.042708337,-0.15260938,-0.5892392,0.793415,0.018995762,0.80092156,0.5984677,-0.98810387,0.10640329,-0.11103511,,0.107088104,1.3441344,0.44329417,0.99579626,0.018140558,-0.08978126,-0.04449008,-0.761005,-0.6472187,-0.0800649,0.64849234,-0.7569989,,-0.08831323,0.26015067,-0.08690424,0.9217457,0.30179673,0.24352321,-0.38338637,0.6147647,0.68925995,0.05830692,-0.7286859,0.6823615,,-0.023860304,0.4066605,-0.38066334,0.2358481,0.48292938,-0.8433,-0.8192557,0.5655469,0.094745986,0.5226813,0.66853267,0.5290258,,0.9034902416883996,0.35959361082251584,0.19591349286,0.6552810733891387,0.16778962171196088,1.0095399321335856,-0.40264312302099836,,-0.89820789240243,-0.31117207570112815,0.18165948802,1.4619582859741038,0.8696913210070284,0.3323106585045868,0.8613132607260546,,-0.04730714937530631,-0.07404341185429444,0.0795457676,-0.07163176773016745,,-5.0514936e-05,-2.2053719e-06,3.2186508e-06,1.0,5.2534044e-05,4.5012683e-05,-5.253777e-05,0.99999994,5.543232e-06,-4.5001507e-05,-5.6028366e-06,1.0,385,1.174,0,0,0.0,False,-0.2630356547052788,1.035706849935802
1.1922882779908832,13:44:11.917310,13:43:57.871248,0,,0.12228317,0.0018398464,0.025751054,-0.88898796,-0.38973,-0.24043912,-0.24662639,-0.034928918,0.96848094,-0.38584435,0.9202665,-0.06506634,,0.06235497,-0.031760715,0.042709053,-0.15260275,-0.5892376,0.7934175,0.018998861,0.800923,0.59846574,-0.9881049,0.1064015,-0.111028224,,0.107088104,1.3441344,0.44329417,0.99579626,0.018140558,-0.08978126,-0.04449008,-0.761005,-0.6472187,-0.0800649,0.64849234,-0.7569989,,-0.08834408,0.26022795,-0.086933516,0.91988075,0.30855587,0.24210063,-0.38679832,0.6116569,0.6901181,0.06485745,-0.72847044,0.6820003,,-0.023861416,0.406661,-0.38066363,0.23584129,0.4829278,-0.84330285,-0.8192559,0.56554586,0.09475058,0.5226841,0.6685347,0.5290205,,0.9037528146061232,0.359701729082755,0.19587849303000002,0.6525551041238398,0.1750313561995292,1.0091889375672334,-0.3990495535660443,,-0.8982156151353042,-0.31117207570112815,0.18165948802,1.4619582859741038,0.8696913210070284,0.33231065850458674,0.8609865725937859,,-0.04730714937530631,-0.07404341185429444,0.0795457676,-0.07163176773016745,,-5.0514936e-05,-2.2053719e-06,3.2186508e-06,1.0,5.2534044e-05,4.5012683e-05,-5.253777e-05,0.99999994,5.543232e-06,-4.5001507e-05,-5.6028366e-06,1.0,393,1.198,0,0,0.0,False,-0.26255903295711036,1.035803410337361
1.216634737997083,13:44:11.949956,13:43:57.871248,0,,0.12230037,0.0018928647,0.025871217,-0.8860397,-0.39506227,-0.24260974,-0.24502666,-0.04519558,0.9684622,-0.39356777,0.91754186,-0.05675575,,0.062356655,-0.031760328,0.042708635,-0.15259615,-0.58923596,0.79341996,0.01900196,0.8009244,0.5984637,-0.9881058,0.106399745,-0.111021355,,0.107088104,1.3441344,0.44329417,0.99579626,0.018140558,-0.08978126,-0.04449008,-0.761005,-0.6472187,-0.0800649,0.64849234,-0.7569989,,-0.08837181,0.26034644,-0.08698581,0.9176084,0.3141369,0.24354231,-0.39094222,0.60253936,0.69578046,0.07182648,-0.733665,0.67570454,,-0.023863094,0.40666065,-0.3806632,0.23583448,0.4829262,-0.84330565,-0.81925607,0.5655448,0.09475517,0.5226869,0.6685367,0.5290152,,0.9041466739827086,0.35993341106898175,0.19581367853,0.6489903750846029,0.18281963668615933,1.0166418241402924,-0.4024797789548643,,-0.8982233378681785,-0.31117207570112815,0.18166078431000002,1.4619582859741038,0.8696913210070284,0.33231065850458674,0.8609865725937859,,-0.04730714937530631,-0.07404341185429444,0.0795457676,-0.07163176773016745,,-5.0514936e-05,-2.2053719e-06,3.2186508e-06,1.0,5.2534044e-05,4.5012683e-05,-5.253777e-05,0.99999994,5.543232e-06,-4.5001507e-05,-5.6028366e-06,1.0,405,1.235,0,0,0.0,False,-0.2637505873275314,1.0358516905381403
1.2492284499749076,13:44:11.977017,13:43:57.871248,0,,0.1223397,0.0019783527,0.026015103,-0.8838709,-0.4007841,-0.24113144,-0.2408468,-0.051948965,0.96917176,-0.4009552,0.9146985,-0.050611407,,0.062355608,-0.031760477,0.04270792,-0.15260275,-0.58910793,0.7935138,0.018998861,0.80102074,0.5983349,-0.9881049,0.10638332,-0.11104563,,0.107088104,1.3441344,0.44329417,0.99579626,0.018140558,-0.08978126,-0.04449008,-0.761005,-0.6472187,-0.0800649,0.64849234,-0.7569989,,-0.08842375,0.26050353,-0.087032534,0.9160752,0.3201052,0.24153446,-0.3928993,0.5959744,0.70031756,0.08022692,-0.73644227,0.67172647,,-0.023861982,0.4066601,-0.3806629,0.23584129,0.48279002,-0.8433817,-0.8192559,0.5655613,0.094658196,0.5226841,0.6686211,0.5289113,,0.9045791470236653,0.36038905230856094,0.19574756774000002,0.6479419253671802,0.19142773617138206,1.0208941623468155,-0.3992128976321786,,-0.8982156151353042,-0.31117207570112815,0.18166078431000002,1.4619582859741038,0.8696913210070284,0.3321473010243056,0.8613132607260545,,-0.04730714937530631,-0.07404341185429444,0.0795457676,-0.07163176773016745,,-5.0514936e-05,-2.2053719e-06,3.2186508e-06,1.0,5.2534044e-05,4.5012683e-05,-5.253777e-05,0.99999994,5.543232e-06,-4.5001507e-05,-5.6028366e-06,1.0,413,1.26,0,0,0.0,False,-0.2626781883941529,1.036334492545935
1.2763079929864034,13:44:12.002746,13:43:57.871248,0,,0.12233607,0.0020875186,0.02621612,-0.88194263,-0.4046015,-0.24181578,-0.24097154,-0.053892106,0.9690346,-0.40510488,0.91290367,-0.049967676,,0.062356222,-0.03175894,0.042708695,-0.1525558,-0.58925295,0.79341507,0.018873155,0.8009287,0.5984621,-0.98811454,0.106273055,-0.1110653,,0.107088104,1.3441344,0.44329417,0.99579626,0.018140558,-0.08978126,-0.04449008,-0.761005,-0.6472187,-0.0800649,0.64849234,-0.7569989,,-0.088437915,0.26071894,-0.08710835,0.9145145,0.32407,0.24216081,-0.39587724,0.59356505,0.70068663,0.08333333,-0.73665404,0.67111576,,-0.02386283,0.40666145,-0.380662,0.23580992,0.4829537,-0.84329677,-0.81933254,0.56544036,0.09471726,0.52257806,0.6686052,0.52903616,,0.9051737974549806,0.3611536028631092,0.19563349422,0.6447965762149124,0.19484364866551807,1.0203140407382,-0.4016630586241927,,-0.8982233378681785,-0.31117207570112815,0.18166078431000002,1.4617485960306191,0.8696913210070284,0.3321473010243056,0.8613132607260545,,-0.04730714937530631,-0.07404341185429444,0.0795457676,-0.07163176773016745,,-5.0514936e-05,-2.2053719e-06,3.2186508e-06,1.0,5.2534044e-05,4.5012683e-05,-5.253777e-05,0.99999994,5.543232e-06,-4.5001507e-05,-5.6028366e-06,1.0,446,1.361,0,0,0.0,False,-0.262797343831195,1.035706849935802
1.3020653359999415,13:44:12.101729,13:43:58.022005,0,,0.1223044,0.0026447326,0.026874036,-0.8753087,-0.4191633,-0.24111548,-0.23686442,-0.063055575,0.9694942,-0.42158008,0.9057185,-0.04409179,,0.06233906,-0.0317054,0.042723715,-0.14981452,-0.59254587,0.7914827,0.014233112,0.7991418,0.60097384,-0.9886116,0.10129979,-0.11128931,,0.107088104,1.3441344,0.44329417,0.99579626,0.018140558,-0.08978126,-0.04449008,-0.761005,-0.6472187,-0.0800649,0.64849234,-0.7569989,,-0.0884652,0.2615735,-0.08722372,0.90932155,0.3392291,0.24095209,-0.4042219,0.5828483,0.70490605,0.09868613,-0.73838437,0.66712034,,-0.023853242,0.40670308,-0.38062248,0.23366706,0.48685285,-0.8416496,-0.82241696,0.5607227,0.09602298,0.5186811,0.6697495,0.53141844,,0.9078690312280849,0.36423497327992477,0.19537034735000003,0.6361992885320469,0.21083011913807462,1.0200200294676465,-0.4019897467564614,,-0.8982156151353042,-0.31117207570112815,0.18165948802,1.4535706882347228,0.8709210495049174,0.3290208926473833,0.8613132607260546,,-0.04730714937530631,-0.07404341185429444,0.0795457676,-0.07163176773016745,,-5.0514936e-05,-2.2053719e-06,3.2186508e-06,1.0,5.2534044e-05,4.5012683e-05,-5.253777e-05,0.99999994,5.543232e-06,-4.5001507e-05,-5.6028366e-06,1.0,454,1.387,0,0,0.0,False,-0.2631548101423209,1.0359482509396993
1.400973277981393,13:44:12.129508,13:43:58.022005,0,,0.12229981,0.0028212517,0.027092308,-0.8727284,-0.42425662,-0.24156027,-0.23445155,-0.069790244,0.9696193,-0.42822602,0.9028486,-0.038559735,,0.062330663,-0.031672873,0.042729974,-0.1482128,-0.5913493,0.79267824,0.0110548735,0.80049,0.599244,-0.9888935,0.097578585,-0.11210558,,0.107088104,1.3441344,0.44329417,0.99579626,0.018140558,-0.08978126,-0.04449008,-0.761005,-0.6472187,-0.0800649,0.64849234,-0.7569989,,-0.088480115,0.26185045,-0.087267235,0.9073197,0.34457353,0.240915,-0.40702093,0.5762415,0.7087169,0.10537988,-0.7410903,0.6630839,,-0.023849169,0.40672565,-0.38059714,0.23246725,0.48584336,-0.84256464,-0.8244427,0.5580325,0.09430785,0.5159973,0.6727228,0.5302743,,0.9087648682414949,0.36517714669058016,0.19528349592000002,0.6334733192667481,0.21779858062611207,1.023485735274872,-0.40198974675646104,,-0.8982233378681785,-0.31119524389975084,0.18166078431000002,1.4481187497041252,0.8714675955039791,0.3226943517424772,0.8613132607260544,,-0.04730714937530631,-0.07404341185429444,0.0795457676,-0.07163176773016745,,-5.0514936e-05,-2.2053719e-06,3.2186508e-06,1.0,5.2534044e-05,4.5012683e-05,-5.253777e-05,0.99999994,5.543232e-06,-4.5001507e-05,-5.6028366e-06,1.0,462,1.411,0,0,0.0,False,-0.26327396557936344,1.0353206083295663
1.4288178930000868,13:44:12.152570,13:43:58.022005,0,,0.12228011,0.0028931648,0.027226359,-0.87089854,-0.42770314,-0.24208638,-0.23434564,-0.07157993,0.9695144,-0.43199295,0.9010806,-0.037891537,,0.0623267,-0.031653754,0.042731166,-0.1471541,-0.58974004,0.79407316,0.00911814,0.80196995,0.59729457,-0.9890714,0.095134735,-0.11263588,,0.107088104,1.3441344,0.44329417,0.99579626,0.018140558,-0.08978126,-0.04449008,-0.761005,-0.6472187,-0.0800649,0.64849234,-0.7569989,,-0.088472344,0.26199448,-0.08731945,0.90582305,0.34816608,0.2413815,-0.40956634,0.5739415,0.7091167,0.108351514,-0.741196,0.66248655,,-0.023847515,0.40673664,-0.38058108,0.23165482,0.48429805,-0.84367734,-0.8256933,0.55645,0.09270346,0.51436037,0.67514354,0.528786,,0.9092745686111938,0.3655941742657883,0.19520960739,0.6307473500014492,0.2212144931202481,1.0231506498866783,-0.40198974675646104,,-0.8982233378681785,-0.31121841209837353,0.18166467318,1.4447637106083728,0.8718775050032755,0.3177044098433758,0.860496540395383,,-0.04730714937530631,-0.07404341185429444,0.0795457676,-0.07163176773016745,,-5.0514936e-05,-2.2053719e-06,3.2186508e-06,1.0,5.2534044e-05,4.5012683e-05,-5.253777e-05,0.99999994,5.543232e-06,-4.5001507e-05,-5.6028366e-06,1.0,470,1.436,0,0,0.0,False,-0.26309523242380006,1.0344998449163156
1.451860246976139,13:44:12.182080,13:43:58.172375,0,,0.122263744,0.0029918253,0.027431607,-0.86666614,-0.4360913,-0.24230967,-0.23353927,-0.07455972,0.96948445,-0.44085032,0.89680827,-0.03722608,,0.06232533,-0.031656764,0.042728424,-0.1473797,-0.5893383,0.79432946,0.00932461,0.80223584,0.5969343,-0.9890359,0.09538278,-0.11273798,,0.107088104,1.3441344,0.44329417,0.99579626,0.018140558,-0.08978126,-0.04449008,-0.761005,-0.6472187,-0.0800649,0.64849234,-0.7569989,,-0.08847415,0.26220566,-0.08740622,0.90237236,0.3569026,0.24154633,-0.41513345,0.5693858,0.709552,0.1157079,-0.74055403,0.66196024,,-0.023845574,0.40673295,-0.38058218,0.23185155,0.48384848,-0.8438812,-0.82553077,0.556741,0.092403635,0.5145326,0.675226,0.5285131,,0.910039119165742,0.36608842916973866,0.19509812645000002,0.6250857215273671,0.22968595610570539,1.0217968941870583,-0.4036231874178038,,-0.89820789240243,-0.31121841209837353,0.18166467318,1.4451830904953418,0.8717408685035101,0.31757079152665046,0.8601698522631145,,-0.04730714937530631,-0.07404341185429444,0.0795457676,-0.07163176773016745,,-5.0514936e-05,-2.2053719e-06,3.2186508e-06,1.0,5.2534044e-05,4.5012683e-05,-5.253777e-05,0.99999994,5.543232e-06,-4.5001507e-05,-5.6028366e-06,1.0,482,1.473,0,0,0.0,False,-0.2629164992682367,1.0344515647155361
1.4813842790026683,13:44:12.283225,13:43:58.172375,0,,0.122216076,0.003164202,0.02816984,-0.8486294,-0.4690351,-0.24461037,-0.22552314,-0.097491354,0.96934754,-0.47850543,0.8777821,-0.023044258,,0.06232837,-0.03165122,0.042723954,-0.14728984,-0.5896974,0.79407966,0.009077609,0.8019962,0.59726,-0.9890516,0.095178634,-0.11277288,,0.107088104,1.3441344,0.44329417,0.99579626,0.018140558,-0.08978126,-0.04449008,-0.761005,-0.6472187,-0.0800649,0.64849234,-0.7569989,,-0.08849124,0.2628291,-0.08783982,0.887644,0.39144498,0.24260877,-0.4353972,0.5416583,0.7190519,0.1500582,-0.74389327,0.65123373,,-0.023848822,0.40673146,-0.38057533,0.231792,0.48424897,-0.8436678,-0.8256782,0.55649495,0.09256781,0.51432276,0.6751417,0.5288249,,0.9125103936854938,0.36682208879279,0.19463146205,0.6049554869528528,0.2689006315383868,1.0284539999126714,-0.40117302642579,,-0.8982156151353042,-0.3112106893654993,0.18167115463000003,1.4447637106083728,0.8717408685035101,0.317652470266791,0.8601698522631145,,-0.04730714937530631,-0.07404341185429444,0.0795457676,-0.07163176773016745,,-5.0514936e-05,-2.2053719e-06,3.2186508e-06,1.0,5.2534044e-05,4.5012683e-05,-5.253777e-05,0.99999994,5.543232e-06,-4.5001507e-05,-5.6028366e-06,1.0,519,1.587,0,0,0.0,False,-0.2632143878608417,1.0343550043139773
1.5825476000027265,13:44:12.332372,13:43:58.315407,0,,0.12222761,0.0032530427,0.028565496,-0.8389625,-0.48839843,-0.24001825,-0.21955426,-0.099787354,0.9704834,-0.49793345,0.8668964,-0.023512155,,0.062328093,-0.03164994,0.042724133,-0.14729075,-0.58976537,0.79402894,0.00908345,0.8019444,0.59732944,-0.98905146,0.095193565,-0.112761915,,0.107088104,1.3441344,0.44329417,0.99579626,0.018140558,-0.08978126,-0.04449008,-0.761005,-0.6472187,-0.0800649,0.64849234,-0.7569989,,-0.08853732,0.26315832,-0.08807229,0.8796796,0.4116867,0.23807098,-0.44451323,0.53386104,0.71930546,0.16903166,-0.7385841,0.6526269,,-0.023848707,0.40673226,-0.3805743,0.23179224,0.48432082,-0.8436265,-0.8256751,0.55649126,0.09261828,0.51432776,0.6750932,0.52888197,,0.9136379126851306,0.3672931754981177,0.19438775953,0.5957291294395337,0.29007928900203006,1.0222108547587019,-0.40133637049192417,,-0.8982156151353042,-0.3112029666326251,0.18167115463000003,1.4447637106083728,0.8717408685035101,0.3177341490069316,0.8600065081969802,,-0.04730714937530631,-0.07404341185429444,0.0795457676,-0.07163176773016745,,-5.0514936e-05,-2.2053719e-06,3.2186508e-06,1.0,5.2534044e-05,4.5012683e-05,-5.253777e-05,0.99999994,5.543232e-06,-4.5001507e-05,-5.6028366e-06,1.0,527,1.612,0,0,0.0,False,-0.262797343831195,1.0343550043139773
1.631689337984426,13:44:12.360626,13:43:58.315407,0,,0.122315444,0.0033275485,0.028981581,-0.828548,-0.5065424,-0.2385855,-0.20950456,-0.11469093,0.971058,-0.5192457,0.85455287,-0.0110960305,,0.062328093,-0.03164994,0.042724133,-0.14729075,-0.5898302,0.79398084,0.00908345,0.80189556,0.59739494,-0.98905146,0.095202774,-0.11275415,,0.107088104,1.3441344,0.44329417,0.99579626,0.018140558,-0.08978126,-0.04449008,-0.761005,-0.6472187,-0.0800649,0.64849234,-0.7569989,,-0.08866115,0.26348597,-0.0883247,0.87112087,0.43088,0.23556498,-0.4519021,0.5156576,0.7279298,0.1921795,-0.7405671,0.6439157,,-0.023848707,0.40673226,-0.3805743,0.23179224,0.48438972,-0.843587,-0.8256751,0.5564837,0.09266373,0.51432776,0.67504996,0.5289371,,0.9144874133012953,0.36781832133356496,0.19413757556000003,0.5885996713610598,0.3150837684591057,1.0291837563293451,-0.4021530908225954,,-0.8982156151353042,-0.3112029666326251,0.18167115463000003,1.4447637106083728,0.8717408685035101,0.31781582774707223,0.8601698522631146,,-0.04730714937530631,-0.07404341185429444,0.0795457676,-0.07163176773016745,,-5.0514936e-05,-2.2053719e-06,3.2186508e-06,1.0,5.2534044e-05,4.5012683e-05,-5.253777e-05,0.99999994,5.543232e-06,-4.5001507e-05,-5.6028366e-06,1.0,535,1.637,0,0,0.0,False,-0.26255903295711036,1.0345481251170952
1.659948930988321,13:44:12.383355,13:43:58.315407,0,,0.12235805,0.0034037232,0.02926661,-0.82089955,-0.51893455,-0.23839213,-0.20410876,-0.12325925,0.9711573,-0.5333512,0.8458806,-0.0047356784,,0.062328544,-0.03164964,0.042721808,-0.14741899,-0.58991235,0.79389596,0.009040147,0.8018286,0.5974855,-0.98903275,0.09525761,-0.112871915,,0.107088104,1.3441344,0.44329417,0.99579626,0.018140558,-0.08978126,-0.04449008,-0.761005,-0.6472187,-0.0800649,0.64849234,-0.7569989,,-0.08872855,0.2637301,-0.088481896,0.8647075,0.44400477,0.23482037,-0.45777023,0.5042593,0.7322356,0.20670576,-0.74066347,0.63928896,,-0.023848983,0.40673035,-0.3805729,0.2319224,0.4844738,-0.8435029,-0.8256633,0.55650866,0.09261857,0.51428795,0.6749691,0.5290791,,0.9151592910613529,0.36826623984026996,0.19397813189000002,0.5823089730565241,0.33107023893166215,1.031830179703852,-0.40117302642579,,-0.8982156151353042,-0.3112029666326251,0.18167245092,1.4447637106083728,0.8716042320037446,0.31792724565076863,0.8601698522631146,,-0.04730714937530631,-0.07404341185429444,0.0795457676,-0.07163176773016745,,-5.0514936e-05,-2.2053719e-06,3.2186508e-06,1.0,5.2534044e-05,4.5012683e-05,-5.253777e-05,0.99999994,5.543232e-06,-4.5001507e-05,-5.6028366e-06,1.0,543,1.661,0,0,0.0,False,-0.2632143878608417,1.0334859606999471
1.6826309250027407,13:44:12.410983,13:43:58.315407,0,,0.122337684,0.0035135448,0.029536009,-0.8147934,-0.5286329,-0.23803139,-0.20082574,-0.1277971,0.9712553,-0.5438572,0.8391753,-0.002034843,,0.062328544,-0.03164964,0.042721808,-0.14741899,-0.5898475,0.7939442,0.009040147,0.80187744,0.59742,-0.98903275,0.0952484,-0.11287969,,0.107088104,1.3441344,0.44329417,0.99579626,0.018140558,-0.08978126,-0.04449008,-0.761005,-0.6472187,-0.0800649,0.64849234,-0.7569989,,-0.08873198,0.26399264,-0.08860888,0.8595252,0.45426244,0.23422645,-0.46271196,0.4970027,0.73408854,0.21705768,-0.739347,0.637379,,-0.023848983,0.40673035,-0.3805729,0.2319224,0.4844049,-0.84354246,-0.8256633,0.55651623,0.092573114,0.51428795,0.6750123,0.52902395,,0.916093741739134,0.3688222766072141,0.19383553999000003,0.5764376546389575,0.34268434141172466,1.0310992830846963,-0.4029698111532669,,-0.8982156151353042,-0.3112029666326251,0.18167245092,1.4447637106083728,0.8716042320037446,0.317845566910628,0.8600065081969802,,-0.04730714937530631,-0.07404341185429444,0.0795457676,-0.07163176773016745,,-5.0514936e-05,-2.2053719e-06,3.2186508e-06,1.0,5.2534044e-05,4.5012683e-05,-5.253777e-05,0.99999994,5.543232e-06,-4.5001507e-05,-5.6028366e-06,1.0,551,1.686,0,0,0.0,False,-0.26351227645344677,1.0337273617038443
1.710308065987192,13:44:12.428877,13:43:58.315407,0,,0.12228971,0.0035776496,0.0296475,-0.81331664,-0.5305339,-0.23885098,-0.20103389,-0.12898916,0.97105455,-0.5459866,0.83779204,-0.0017462969,,0.062328544,-0.03164964,0.042721808,-0.14741899,-0.58965296,0.7940886,0.009040147,0.8020238,0.5972235,-0.98903275,0.095220715,-0.11290303,,0.107088104,1.3441344,0.44329417,0.99579626,0.018140558,-0.08978126,-0.04449008,-0.761005,-0.6472187,-0.0800649,0.64849234,-0.7569989,,-0.088694066,0.2641175,-0.088651404,0.85823935,0.45628008,0.23501854,-0.46437657,0.4953097,0.73418164,0.21858549,-0.7392407,0.63698006,,-0.023848983,0.40673035,-0.3805729,0.2319224,0.48419818,-0.8436611,-0.8256633,0.5565389,0.092436746,0.51428795,0.67514193,0.52885854,,0.9166497785060782,0.36913890865505733,0.19377591065000002,0.5741310652606276,0.3445972524084408,1.030519577314633,-0.40198974675646126,,-0.8982156151353042,-0.3112029666326251,0.18167245092,1.4447637106083728,0.8716042320037446,0.3176005306902064,0.8591897878663088,,-0.04730714937530631,-0.07404341185429444,0.0795457676,-0.07163176773016745,,-5.0514936e-05,-2.2053719e-06,3.2186508e-06,1.0,5.2534044e-05,4.5012683e-05,-5.253777e-05,0.99999994,5.543232e-06,-4.5001507e-05,-5.6028366e-06,1.0,559,1.71,0,0,0.0,False,-0.2630356547052788,1.0335825211015057
1.7281156239914708,13:44:12.454908,13:43:58.315407,0,,0.12222653,0.0036404133,0.02978541,-0.8117434,-0.5318935,-0.24116763,-0.20261261,-0.13081461,0.9704821,-0.5477414,0.83664614,-0.001580447,,0.06233023,-0.03164924,0.04272139,-0.1474124,-0.58958644,0.79413927,0.009043187,0.8020741,0.5971559,-0.9890337,0.09520975,-0.11290392,,0.107088104,1.3441344,0.44329417,0.99579626,0.018140558,-0.08978126,-0.04449008,-0.761005,-0.6472187,-0.0800649,0.64849234,-0.7569989,,-0.088643275,0.26425993,-0.08871531,0.8568293,0.4577397,0.23731391,-0.46681458,0.49327213,0.73400736,0.21892397,-0.7397006,0.6363296,,-0.023850663,0.40672997,-0.38057244,0.23191562,0.48412758,-0.8437035,-0.8256635,0.55654544,0.09239588,0.5142907,0.6751872,0.52879804,,0.9172675971360161,0.3695095998330201,0.19368905922000001,0.5707760261648752,0.3454170714070334,1.0302594635931572,-0.402479778954864,,-0.8982233378681785,-0.3112029666326251,0.18167374721000001,1.4447637106083728,0.8716042320037446,0.31751885195006574,0.8590264438001745,,-0.04730714937530631,-0.07404341185429444,0.0795457676,-0.07163176773016745,,-5.0514936e-05,-2.2053719e-06,3.2186508e-06,1.0,5.2534044e-05,4.5012683e-05,-5.253777e-05,0.99999994,5.543232e-06,-4.5001507e-05,-5.6028366e-06,1.0,567,1.735,0,0,0.0,False,-0.26309523242380006,1.0332928398968293
1.754223653988447,13:44:12.483021,13:43:58.461912,0,,0.12217327,0.0037443042,0.029993579,-0.8086983,-0.53702164,-0.24003066,-0.20116948,-0.13095832,0.97076285,-0.55275476,0.8333411,-0.0021266043,,0.062329363,-0.031647734,0.042719662,-0.14737685,-0.58986413,0.79393965,0.008912176,0.80188036,0.59741807,-0.98904014,0.095121235,-0.112921655,,0.107088104,1.3441344,0.44329417,0.99579626,0.018140558,-0.08978126,-0.04449008,-0.761005,-0.6472187,-0.0800649,0.64849234,-0.7569989,,-0.0886086,0.2644792,-0.08880303,0.8542259,0.46313563,0.2362277,-0.46927235,0.49127027,0.73378265,0.22378924,-0.73767126,0.6369925,,-0.023849826,0.40672937,-0.3805702,0.23189588,0.48443222,-0.84353405,-0.82573855,0.5564106,0.0925367,0.5141791,0.67507976,0.5290437,,0.9181479886836778,0.3700656365999643,0.19357757828000002,0.5674209870691229,0.350882531397651,1.02719128602769,-0.40215309082259565,,-0.8982156151353042,-0.3112029666326251,0.18167504350000002,1.4445540206648884,0.8716042320037446,0.317682209430347,0.8590264438001746,,-0.04730714937530631,-0.07404341185429444,0.0795457676,-0.07163176773016745,,-5.0514936e-05,-2.2053719e-06,3.2186508e-06,1.0,5.2534044e-05,4.5012683e-05,-5.253777e-05,0.99999994,5.543232e-06,-4.5001507e-05,-5.6028366e-06,1.0,596,1.824,0,0,0.0,False,-0.2622015666459845,1.0328100378890346
1.7822444069897756,13:44:12.561353,13:43:58.461912,0,,0.12210333,0.0039942563,0.030211717,-0.80193853,-0.54626906,-0.24183613,-0.19781741,-0.13915989,0.97031057,-0.5637045,0.82596886,0.003536135,,0.062323608,-0.031590812,0.042740107,-0.14284264,-0.5912993,0.7937009,0.0047695637,0.80150366,0.59797066,-0.9897338,0.08920127,-0.11166866,,0.107088104,1.3441344,0.44329417,0.99579626,0.018140558,-0.08978126,-0.04449008,-0.761005,-0.6472187,-0.0800649,0.64849234,-0.7569989,,-0.088558644,0.26481453,-0.0888013,0.84843063,0.47301352,0.23753664,-0.47449842,0.4808215,0.7373344,0.23455639,-0.7382878,0.6323879,,-0.023852384,0.40677583,-0.38053113,0.22793953,0.48641625,-0.8434707,-0.8289846,0.5513292,0.09391804,0.5107133,0.67781657,0.5289013,,0.9196075851969062,0.3708996917503805,0.19355294877,0.5605012189341336,0.36304317987677526,1.0292001886592306,-0.40068299422738707,,-0.8982310606010527,-0.3112106893654993,0.18168800640000002,1.4361664229255073,0.8746102349985843,0.31196386594340325,0.8583730675356374,,-0.04730714937530631,-0.07404341185429444,0.0795457676,-0.07163176773016745,,-5.0514936e-05,-2.2053719e-06,3.2186508e-06,1.0,5.2534044e-05,4.5012683e-05,-5.253777e-05,0.99999994,5.543232e-06,-4.5001507e-05,-5.6028366e-06,1.0,604,1.85,0,0,0.0,False,-0.26243987752006825,1.0331962794952703
1.8606612359872088,13:44:12.591483,13:43:58.461912,0,,0.12211839,0.004066944,0.030280352,-0.7978486,-0.55287284,-0.2403522,-0.19652887,-0.13837859,0.97068405,-0.56992453,0.821695,0.0017496943,,0.062325753,-0.03159014,0.042737365,-0.14296407,-0.5912503,0.7937154,0.004728526,0.801536,0.5979277,-0.9897164,0.08923519,-0.11179513,,0.107088104,1.3441344,0.44329417,0.99579626,0.018140558,-0.08978126,-0.04449008,-0.761005,-0.6472187,-0.0800649,0.64849234,-0.7569989,,-0.088579826,0.26491338,-0.088802435,0.8448915,0.47996065,0.23621207,-0.47793922,0.47894916,0.73633,0.24027583,-0.7350139,0.6340521,,-0.023854345,0.40677354,-0.3805293,0.22806284,0.48636115,-0.84346914,-0.8289738,0.5513678,0.093786195,0.5106757,0.67782474,0.5289272,,0.9199010490461267,0.37110820553798457,0.19355294877,0.5563074200644431,0.3696017318655164,1.0250773103839108,-0.40345984335166984,,-0.8982387833339269,-0.3112106893654993,0.18169059898,1.4361664229255073,0.8744735984988189,0.3119119263668184,0.8583730675356375,,-0.04730714937530631,-0.07404341185429444,0.0795457676,-0.07163176773016745,,-5.0514936e-05,-2.2053719e-06,3.2186508e-06,1.0,5.2534044e-05,4.5012683e-05,-5.253777e-05,0.99999994,5.543232e-06,-4.5001507e-05,-5.6028366e-06,1.0,612,1.874,0,0,0.0,False,-0.2626781883941529,1.0330031586921524
1.8907872699783184,13:44:12.619174,13:43:58.606859,0,,0.122140996,0.004114002,0.030336976,-0.79263747,-0.5607438,-0.23935786,-0.19568947,-0.13783339,0.9709312,-0.5774352,0.8164363,-0.0004797876,,0.0623293,-0.031587698,0.042735577,-0.14290798,-0.59145766,0.793571,0.0046074092,0.8013945,0.59811825,-0.9897252,0.0891321,-0.11180061,,0.107088104,1.3441344,0.44329417,0.99579626,0.018140558,-0.08978126,-0.04449008,-0.761005,-0.6472187,-0.0800649,0.64849234,-0.7569989,,-0.08860741,0.26498473,-0.0888114,0.8403487,0.48825628,0.23541409,-0.48264244,0.47632092,0.73496574,0.24671899,-0.7312484,0.63592887,,-0.023857968,0.4067727,-0.38052648,0.22802183,0.48659146,-0.8433474,-0.82904863,0.5512369,0.09389488,0.5105727,0.6777659,0.529102,,0.9200786719022339,0.3711468192023557,0.19355424506000002,0.550645791590361,0.37725337585238106,1.0204714825797225,-0.4005196501612527,,-0.8982542287996754,-0.3112106893654993,0.18169448785000003,1.4359567329820229,0.8744735984988189,0.31199360510695895,0.8585364116017716,,-0.04730714937530631,-0.07404341185429444,0.0795457676,-0.07163176773016745,,-5.0514936e-05,-2.2053719e-06,3.2186508e-06,1.0,5.2534044e-05,4.5012683e-05,-5.253777e-05,0.99999994,5.543232e-06,-4.5001507e-05,-5.6028366e-06,1.0,620,1.899,0,0,0.0,False,-0.262797343831195,1.0335342409007262
1.9185028319770936,13:44:12.649895,13:43:58.606859,0,,0.12219558,0.00417836,0.030431926,-0.7849153,-0.57265323,-0.2365929,-0.19041467,-0.14042732,0.97160804,-0.58961856,0.80768085,0.0011819601,,0.062327966,-0.03158652,0.04273504,-0.14291546,-0.5913329,0.7936627,0.0046102107,0.80148774,0.59799325,-0.98972404,0.0891214,-0.11181885,,0.107088104,1.3441344,0.44329417,0.99579626,0.018140558,-0.08978126,-0.04449008,-0.761005,-0.6472187,-0.0800649,0.64849234,-0.7569989,,-0.08867022,0.26509255,-0.08883512,0.8336957,0.5008883,0.23251328,-0.48732236,0.4692733,0.73640984,0.2597468,-0.72725064,0.6353252,,-0.023856739,0.406773,-0.3805251,0.22802882,0.48645836,-0.8434223,-0.8290453,0.5512572,0.09380525,0.51057494,0.67784494,0.52899855,,0.920356690285706,0.37116226466810415,0.19355683764,0.5449841631162788,0.3918734813272832,1.0178611432602296,-0.40215309082259565,,-0.8982465060668011,-0.3112029666326251,0.18169448785000003,1.4359567329820229,0.8744735984988189,0.31183024762667777,0.8582097234695031,,-0.04730714937530631,-0.07404341185429444,0.0795457676,-0.07163176773016745,,-5.0514936e-05,-2.2053719e-06,3.2186508e-06,1.0,5.2534044e-05,4.5012683e-05,-5.253777e-05,0.99999994,5.543232e-06,-4.5001507e-05,-5.6028366e-06,1.0,628,1.923,0,0,0.0,False,-0.2637505873275314,1.0333411200976084
1.9492212329932954,13:44:12.670821,13:43:58.606859,0,,0.122227885,0.0042251796,0.030501544,-0.77877694,-0.5809266,-0.23670809,-0.18745944,-0.14457986,0.9715737,-0.59863627,0.8010124,0.0036953092,,0.062327556,-0.031586386,0.042733252,-0.14292204,-0.5912698,0.7937085,0.004607111,0.8015352,0.5979298,-0.9897231,0.08911398,-0.11183299,,0.107088104,1.3441344,0.44329417,0.99579626,0.018140558,-0.08978126,-0.04449008,-0.761005,-0.6472187,-0.0800649,0.64849234,-0.7569989,,-0.088708594,0.2651718,-0.088853255,0.82835317,0.509722,0.23241016,-0.49151632,0.46224123,0.7380683,0.26878005,-0.72561455,0.63343567,,-0.02385619,0.4067716,-0.38052407,0.2280356,0.4863912,-0.8434592,-0.8290451,0.55126584,0.09375563,0.51057214,0.6778861,0.5289485,,0.92056520407331,0.37115454193522995,0.19355813393000001,0.5397419145291658,0.4022578553094566,1.0178062928137794,-0.40198974675646126,,-0.8982387833339269,-0.3112029666326251,0.18169578414,1.4359567329820229,0.8744735984988189,0.31174856888653724,0.8583730675356374,,-0.04730714937530631,-0.07404341185429444,0.0795457676,-0.07163176773016745,,-5.0514936e-05,-2.2053719e-06,3.2186508e-06,1.0,5.2534044e-05,4.5012683e-05,-5.253777e-05,0.99999994,5.543232e-06,-4.5001507e-05,-5.6028366e-06,1.0,636,1.948,0,0,0.0,False,-0.26339312101640555,1.0332445596960498
1.97013997999602,13:44:12.695407,13:43:58.606859,0,,0.12223398,0.004283771,0.030583054,-0.77225006,-0.589828,-0.23607765,-0.18435629,-0.14755529,0.9717201,-0.60798234,0.7939334,0.005211085,,0.06232924,-0.031586014,0.042732835,-0.14291546,-0.5912032,0.7937593,0.0046102107,0.80158544,0.59786236,-0.98972404,0.08910316,-0.11183341,,0.107088104,1.3441344,0.44329417,0.99579626,0.018140558,-0.08978126,-0.04449008,-0.761005,-0.6472187,-0.0800649,0.64849234,-0.7569989,,-0.08872193,0.26526934,-0.08887391,0.8226517,0.51921326,0.23165017,-0.49584308,0.45584708,0.7391502,0.27817956,-0.7229253,0.63245165,,-0.023857867,0.4067712,-0.38052362,0.22802882,0.48632056,-0.84350175,-0.8290453,0.5512725,0.0937152,0.51057494,0.67793137,0.5288878,,0.9209513407170212,0.37113137373660726,0.19355683764,0.5340802860550835,0.4131887752906919,1.0161622683905756,-0.40117302642579,,-0.8982465060668011,-0.3112029666326251,0.18169708043000002,1.4359567329820229,0.8744735984988189,0.31166689014639665,0.8585364116017716,,-0.04730714937530631,-0.07404341185429444,0.0795457676,-0.07163176773016745,,-5.0514936e-05,-2.2053719e-06,3.2186508e-06,1.0,5.2534044e-05,4.5012683e-05,-5.253777e-05,0.99999994,5.543232e-06,-4.5001507e-05,-5.6028366e-06,1.0,665,2.037,0,0,0.0,False,-0.26386974276457353,1.0334859606999471
1.9947242309863213,13:44:12.771515,13:43:58.606859,0,,0.12218789,0.0044703484,0.03085053,-0.74768025,-0.62148756,-0.23393877,-0.17922874,-0.15035114,0.97225076,-0.6394147,0.7688613,0.001026094,,0.062331304,-0.03157998,0.042732596,-0.14286204,-0.591031,0.7938971,0.004506737,0.801728,0.59767187,-0.98973227,0.088962436,-0.1118729,,0.107088104,1.3441344,0.44329417,0.99579626,0.018140558,-0.08978126,-0.04449008,-0.761005,-0.6472187,-0.0800649,0.64849234,-0.7569989,,-0.088699795,0.2655891,-0.088949665,0.8008844,0.55293673,0.22988062,-0.5144943,0.43895662,0.7366225,0.306398,-0.7082218,0.63603634,,-0.02386058,0.40677375,-0.38051844,0.2279884,0.48614633,-0.8436131,-0.82911056,0.5511992,0.093568824,0.510487,0.6781159,0.5287361,,0.9223259871686332,0.37084563262026093,0.19354776361,0.5087078028934561,0.4476211732315829,1.0002550889400212,-0.40133637049192417,,-0.8982619515325496,-0.3111797984340024,0.18169967301,1.4357470430385384,0.8744735984988189,0.31125849644569376,0.8586997556679059,,-0.04730714937530631,-0.07404341185429444,0.0795457676,-0.07163176773016745,,-5.0514936e-05,-2.2053719e-06,3.2186508e-06,1.0,5.2534044e-05,4.5012683e-05,-5.253777e-05,0.99999994,5.543232e-06,-4.5001507e-05,-5.6028366e-06,1.0,669,2.05,0,0,0.0,False,-0.26381016504605226,1.0330031586921524
2.0708420269947965,13:44:12.796151,13:43:58.771704,0,,0.122159444,0.004494667,0.030906588,-0.74108726,-0.629625,-0.23315647,-0.17689376,-0.15189448,0.97243845,-0.6476868,0.76190567,0.0011903048,,0.062331032,-0.031578667,0.042732835,-0.14286293,-0.5910342,0.7938945,0.004512608,0.8017251,0.5976758,-0.9897321,0.08896825,-0.11186969,,0.107088104,1.3441344,0.44329417,0.99579626,0.018140558,-0.08978126,-0.04449008,-0.761005,-0.6472187,-0.0800649,0.64849234,-0.7569989,,-0.0886764,0.26564628,-0.08897662,0.7950263,0.56165165,0.22908643,-0.5186787,0.4336618,0.73682415,0.31449243,-0.70461684,0.6360893,,-0.023860464,0.40677455,-0.3805174,0.22798862,0.48614928,-0.8436113,-0.8291074,0.55120313,0.09357384,0.510492,0.6781106,0.528738,,0.9226503419493506,0.37071434616139914,0.19353868958,0.5026267945324049,0.4573223647149292,0.9970817847057278,-0.40264312302099836,,-0.8982619515325496,-0.31117207570112815,0.18169967301,1.4357470430385384,0.8744735984988189,0.31125849644569387,0.8590264438001746,,-0.04730714937530631,-0.07404341185429444,0.0795457676,-0.07163176773016745,,-5.0514936e-05,-2.2053719e-06,3.2186508e-06,1.0,5.2534044e-05,4.5012683e-05,-5.253777e-05,0.99999994,5.543232e-06,-4.5001507e-05,-5.6028366e-06,1.0,677,2.075,0,0,0.0,False,-0.26351227645344677,1.0330031586921524
2.0954332889814395,13:44:12.821293,13:43:58.771704,0,,0.122216836,0.0045320094,0.031002209,-0.73246753,-0.63982415,-0.2326287,-0.1750979,-0.15315637,0.97256565,-0.6578996,0.75310564,0.0001501739,,0.062291987,-0.03165281,0.042730093,-0.14287835,-0.5909173,0.79397875,0.0043487847,0.8018268,0.5975407,-0.9897306,0.088828534,-0.11199388,,0.107018344,1.3441391,0.44330248,0.9957991,0.018189033,-0.08974003,-0.044426646,-0.76100385,-0.6472244,-0.0800649,0.64849234,-0.7569989,,-0.0886808,0.2657298,-0.089017965,0.78733116,0.57258785,0.2285887,-0.5246445,0.427501,0.7362004,0.32381752,-0.6995613,0.63698995,,-0.023746746,0.40674093,-0.38057363,0.22804123,0.48597983,-0.84369475,-0.8291766,0.5511377,0.09334578,0.5103561,0.67828524,0.5286452,,0.9229438057985712,0.3705290005724178,0.19352702297000002,0.4940295068495394,0.4687998306952262,0.9919699752825377,-0.40264312302099836,,-0.8982465060668011,-0.31117207570112815,0.18170096930000001,1.4355373530950537,0.8744735984988189,0.31101346022527226,0.8585364116017719,,-0.04730714937530631,-0.07404341185429444,0.0795457676,-0.07163176773016745,,-0.00012084469,-1.5497208e-06,1.1920929e-07,0.99999994,0.000100750476,8.632243e-05,-0.00010076165,1.0,1.0639429e-05,-8.631125e-05,-1.0699034e-05,1.0,685,2.1,0,0,0.0,False,-0.26333354329788383,1.0328100378890346
2.1206032669870183,13:44:12.837656,13:43:58.771704,0,,0.122210324,0.00456208,0.031091288,-0.72388273,-0.6492143,-0.23348284,-0.17426503,-0.15539107,0.9723607,-0.66755176,0.7445631,-0.0006504059,,0.062289186,-0.031619936,0.042726696,-0.14165834,-0.5933094,0.7924118,0.0016461909,0.800342,0.5995413,-0.9899142,0.08623454,-0.112398416,,0.107018344,1.3441391,0.44330248,0.9957991,0.018189033,-0.08974003,-0.044426646,-0.76100385,-0.6472244,-0.0800649,0.64849234,-0.7569989,,-0.08868213,0.26581198,-0.08906415,0.7796132,0.5826908,0.22950971,-0.5309858,0.4207103,0.7355658,0.3320503,-0.69532317,0.6373918,,-0.023747407,0.40675467,-0.38054347,0.22715673,0.48874405,-0.84233546,-0.830832,0.5484938,0.09419528,0.5080532,0.6784422,0.53065825,,0.9231986559834205,0.3703591004491848,0.19350757862,0.48480314933622026,0.47918420467739964,0.9876678303487785,-0.40084633829352123,,-0.8982619515325496,-0.31117207570112815,0.18171133962000002,1.4309241743383943,0.8747468714983497,0.30997383701647385,0.8578830353372346,,-0.04730714937530631,-0.07404341185429444,0.0795457676,-0.07163176773016745,,-0.00012084469,-1.5497208e-06,1.1920929e-07,0.99999994,0.000100750476,8.632243e-05,-0.00010076165,1.0,1.0639429e-05,-8.631125e-05,-1.0699034e-05,1.0,697,2.136,0,0,0.0,False,-0.2634526987349264,1.0331962794952703
2.1369036870019045,13:44:12.878277,13:43:58.771704,0,,0.12223407,0.0046157837,0.031301543,-0.7063192,-0.6687141,-0.23223768,-0.1685132,-0.15980518,0.97265905,-0.6875437,0.726143,0.00018635392,,0.06231893,-0.031583026,0.04271573,-0.1396501,-0.59157795,0.7940611,-0.00048696995,0.8019603,0.5973771,-0.99020064,0.0830372,-0.11228189,,0.107018344,1.3441391,0.44330248,0.9957991,0.018189033,-0.08974003,-0.044426646,-0.76100385,-0.6472244,-0.0800649,0.64849234,-0.7569989,,-0.088724196,0.2659907,-0.089182235,0.76383126,0.60372883,0.22819568,-0.5411174,0.40632266,0.73627025,0.3517865,-0.6858669,0.63705015,,-0.023780061,0.4067595,-0.3805077,0.2254366,0.48712838,-0.84373236,-0.8323994,0.54631585,0.09300656,0.50625044,0.68135524,0.528645,,0.9236388517572514,0.3700733593328385,0.19345572702000002,0.4688667136313965,0.5030955921363518,0.9797680783018644,-0.40476659588074404,,-0.8983932379914115,-0.3111797984340024,0.18175152461000002,1.4267303754687037,0.8758399634964732,0.30410009063832827,0.8583730675356376,,-0.04730714937530631,-0.07404341185429444,0.0795457676,-0.07163176773016745,,-0.00012084469,-1.5497208e-06,1.1920929e-07,0.99999994,0.000100750476,8.632243e-05,-0.00010076165,1.0,1.0639429e-05,-8.631125e-05,-1.0699034e-05,1.0,705,2.161,0,0,0.0,False,-0.2631548101423209,1.0337273617038443
2.1732453779841308,13:44:12.903276,13:43:58.771704,0,,0.122223146,0.004650444,0.031415716,-0.6959932,-0.67948675,-0.23214413,-0.16609412,-0.16218397,0.9726814,-0.6985743,0.71553755,2.014637e-05,,0.06233296,-0.0315814,0.042711854,-0.13989028,-0.591452,0.7941127,-0.00042271614,0.8020344,0.59727764,-0.9901669,0.08321774,-0.112446815,,0.107018344,1.3441391,0.44330248,0.9957991,0.018189033,-0.08974003,-0.044426646,-0.76100385,-0.6472244,-0.0800649,0.64849234,-0.7569989,,-0.088723324,0.26609325,-0.08924415,0.75449306,0.6153884,0.22811683,-0.5473062,0.39813215,0.7361703,0.36221004,-0.68028516,0.63719386,,-0.023793794,0.4067551,-0.3805051,0.225664,0.48697948,-0.8437575,-0.8323066,0.54649085,0.09280885,0.50630176,0.6813213,0.52863955,,0.9239632065379688,0.36986484554523447,0.19343109751,0.45880159634413925,0.5160760596140685,0.9745741742999816,-0.4044399077484755,,-0.8984627425872794,-0.3111797984340024,0.18176059864000002,1.4269400654121882,0.8755666904969425,0.3041595689654399,0.8583730675356375,,-0.04730714937530631,-0.07404341185429444,0.0795457676,-0.07163176773016745,,-0.00012084469,-1.5497208e-06,1.1920929e-07,0.99999994,0.000100750476,8.632243e-05,-0.00010076165,1.0,1.0639429e-05,-8.631125e-05,-1.0699034e-05,1.0,730,2.238,0,0,0.0,False,-0.26351227645344677,1.0340653231093004
2.20259074200294,13:44:12.977328,13:43:58.913925,0,,0.122184634,0.0047557503,0.031647936,-0.67034453,-0.7052356,-0.23082632,-0.16067174,-0.16574153,0.9729924,-0.7244465,0.6893275,-0.0022074878,,0.062346876,-0.031578407,0.042710483,-0.13983113,-0.59124154,0.79427975,-0.000395149,0.8021941,0.59706306,-0.99017525,0.08317423,-0.1124053,,0.107018344,1.3441391,0.44330248,0.9957991,0.018189033,-0.08974003,-0.044426646,-0.76100385,-0.6472244,-0.0800649,0.64849234,-0.7569989,,-0.08870544,0.26632872,-0.0893478,0.73116755,0.6433248,0.2269962,-0.5620951,0.37956086,0.73483515,0.38657877,-0.66488105,0.63913226,,-0.023807779,0.40675354,-0.3805026,0.22560309,0.48675683,-0.84390223,-0.83230805,0.5465044,0.09271627,0.50632656,0.68146956,0.5284247,,0.9247123116267686,0.36932425424403875,0.19342202348,0.43342911318251187,0.5468192720612927,0.9589798798245919,-0.4028064670871325,,-0.8985322471831475,-0.3111797984340024,0.18176967267000002,1.4269400654121882,0.8755666904969425,0.3039145327450181,0.8595164759985774,,-0.04730714937530631,-0.07404341185429444,0.0795457676,-0.07163176773016745,,-0.00012084469,-1.5497208e-06,1.1920929e-07,0.99999994,0.000100750476,8.632243e-05,-0.00010076165,1.0,1.0639429e-05,-8.631125e-05,-1.0699034e-05,1.0,738,2.263,0,0,0.0,False,-0.2639888982016152,1.0349343667233308
2.276643040997442,13:44:13.003698,13:43:58.913925,0,,0.1221663,0.004781604,0.031745926,-0.657833,-0.7172738,-0.22972558,-0.15637234,-0.16829634,0.9732543,-0.73675185,0.67616165,-0.0014508665,,0.06234583,-0.031578556,0.042709768,-0.13983771,-0.5912433,0.79427737,-0.00039824843,0.8021926,0.5970651,-0.9901743,0.08317602,-0.112412214,,0.107018344,1.3441391,0.44330248,0.9957991,0.018189033,-0.08974003,-0.044426646,-0.76100385,-0.6472244,-0.0800649,0.64849234,-0.7569989,,-0.08869576,0.2664144,-0.0894041,0.7197566,0.6564677,0.22583316,-0.5678707,0.3696079,0.7354678,0.39934114,-0.65760183,0.6388165,,-0.023806665,0.406753,-0.3805023,0.22560985,0.48675862,-0.8438994,-0.8323079,0.5465054,0.09271168,0.50632375,0.6814675,0.52843004,,0.9250134982088634,0.3688995039359564,0.19342461606000003,0.42231554617783207,0.5628057425338492,0.9528049992639179,-0.3998662738967156,,-0.8985245244502732,-0.3111797984340024,0.18176967267000002,1.4269400654121882,0.8755666904969425,0.3039145327450181,0.8595164759985774,,-0.04730714937530631,-0.07404341185429444,0.0795457676,-0.07163176773016745,,-0.00012084469,-1.5497208e-06,1.1920929e-07,0.99999994,0.000100750476,8.632243e-05,-0.00010076165,1.0,1.0639429e-05,-8.631125e-05,-1.0699034e-05,1.0,746,2.288,0,0,0.0,False,-0.26285692154971585,1.0347895261209925
2.3030239549989346,13:44:13.033808,13:43:58.913925,0,,0.12214136,0.004794702,0.031805918,-0.64947367,-0.7249971,-0.22926596,-0.15453106,-0.1693728,0.9733617,-0.744516,0.6676015,-0.002031386,,0.062344775,-0.031578675,0.042709053,-0.13984427,-0.59124506,0.79427487,-0.00040131807,0.80219114,0.5970671,-0.99017334,0.083177775,-0.112419054,,0.107018344,1.3441391,0.44330248,0.9957991,0.018189033,-0.08974003,-0.044426646,-0.76100385,-0.6472244,-0.0800649,0.64849234,-0.7569989,,-0.08867616,0.26646566,-0.08944125,0.7120962,0.6649078,0.22542524,-0.5721899,0.3635645,0.73513234,0.40683866,-0.652471,0.6393464,,-0.02380555,0.4067525,-0.38050202,0.22561662,0.48676038,-0.8438966,-0.83230776,0.5465064,0.09270708,0.506321,0.6814654,0.52843535,,0.9252142892635932,0.3685828718881132,0.19342461606000003,0.41413763838193557,0.5725069340171954,0.9476714052662512,-0.40215309082259565,,-0.898516801717399,-0.3111797984340024,0.18176967267000002,1.4269400654121882,0.8755666904969425,0.3039145327450182,0.8601698522631145,,-0.04730714937530631,-0.07404341185429444,0.0795457676,-0.07163176773016745,,-0.00012084469,-1.5497208e-06,1.1920929e-07,0.99999994,0.000100750476,8.632243e-05,-0.00010076165,1.0,1.0639429e-05,-8.631125e-05,-1.0699034e-05,1.0,754,2.313,0,0,0.0,False,-0.262797343831195,1.0345964053178744
2.3331306549953297,13:44:13.058347,13:43:58.913925,0,,0.12209236,0.0048204213,0.03190784,-0.634936,-0.73770916,-0.22943714,-0.15249097,-0.17146733,0.9733167,-0.75736564,0.6529809,-0.0036231577,,0.06234605,-0.03157811,0.042706907,-0.13984427,-0.59124506,0.79427487,-0.00040131807,0.80219114,0.5970671,-0.99017334,0.083177775,-0.112419054,,0.107018344,1.3441391,0.44330248,0.9957991,0.018189033,-0.08974003,-0.044426646,-0.76100385,-0.6472244,-0.0800649,0.64849234,-0.7569989,,-0.088636264,0.26655573,-0.08950247,0.69872123,0.67884666,0.22573401,-0.5801286,0.35302335,0.73404723,0.41861615,-0.64384913,0.64048326,,-0.02380668,0.4067507,-0.3805005,0.22561662,0.48676038,-0.8438966,-0.83230776,0.5465064,0.09270708,0.506321,0.6814654,0.52843535,,0.9255309213114363,0.36806544878554015,0.19342331977000002,0.39903996245104983,0.5880834949904556,0.9384819500709032,-0.4023164348887298,,-0.898516801717399,-0.3111797984340024,0.18177226525,1.4269400654121882,0.8755666904969425,0.3039145327450182,0.8601698522631145,,-0.04730714937530631,-0.07404341185429444,0.0795457676,-0.07163176773016745,,-0.00012084469,-1.5497208e-06,1.1920929e-07,0.99999994,0.000100750476,8.632243e-05,-0.00010076165,1.0,1.0639429e-05,-8.631125e-05,-1.0699034e-05,1.0,762,2.337,0,0,0.0,False,-0.26386974276457353,1.0351274875264485
2.3576238379755523,13:44:13.084045,13:43:58.913925,0,,0.12205759,0.0048442334,0.03198932,-0.6241344,-0.74697435,-0.22909677,-0.1507496,-0.17258003,0.9733913,-0.766636,0.6420633,-0.0048929453,,0.062347874,-0.031576604,0.042708457,-0.13983202,-0.59124464,0.7942773,-0.00038921833,0.8021912,0.59706706,-0.99017507,0.08318001,-0.112402126,,0.107018344,1.3441391,0.44330248,0.9957991,0.018189033,-0.08974003,-0.044426646,-0.76100385,-0.6472244,-0.0800649,0.64849234,-0.7569989,,-0.088608764,0.26662987,-0.08954896,0.68875885,0.6890275,0.2255048,-0.5856747,0.34547335,0.7332348,0.42731303,-0.63709444,0.6414938,,-0.023808794,0.40675256,-0.38050008,0.22560328,0.48675978,-0.8439005,-0.8323049,0.5465083,0.09272129,0.5063316,0.6814643,0.52842665,,0.9257626032976631,0.36772564853907425,0.19342072719000003,0.3879263954463701,0.5995609609707527,0.9311648146639178,-0.4050932840130126,,-0.8985322471831475,-0.31117207570112815,0.18177226525,1.4269400654121882,0.8755666904969425,0.3039145327450182,0.8601698522631145,,-0.04730714937530631,-0.07404341185429444,0.0795457676,-0.07163176773016745,,-0.00012084469,-1.5497208e-06,1.1920929e-07,0.99999994,0.000100750476,8.632243e-05,-0.00010076165,1.0,1.0639429e-05,-8.631125e-05,-1.0699034e-05,1.0,770,2.362,0,0,0.0,False,-0.2637505873275314,1.0350309271248894
2.3833362739824224,13:44:13.102386,13:43:59.069673,0,,0.12199654,0.004877344,0.03212379,-0.6085696,-0.75944865,-0.22995755,-0.14704123,-0.17684942,0.9731922,-0.7797575,0.62606853,-0.004045099,,0.062349558,-0.0315762,0.04270804,-0.13982543,-0.5912429,0.7942798,-0.0003861785,0.8021927,0.59706503,-0.99017596,0.08317819,-0.11239523,,0.107018344,1.3441391,0.44330248,0.9957991,0.018189033,-0.08974003,-0.044426646,-0.76100385,-0.6472244,-0.0800649,0.64849234,-0.7569989,,-0.08855971,0.26674786,-0.08963005,0.6743788,0.7028558,0.22628945,-0.5926184,0.3323863,0.7337048,0.44047317,-0.62889826,0.6406796,,-0.023810472,0.4067522,-0.38049963,0.2255965,0.48675802,-0.84390336,-0.8323051,0.54650724,0.09272588,0.50633436,0.6814664,0.5284213,,0.9261796308728713,0.36723139363512386,0.19340646800000003,0.37261902957199977,0.6167771599411982,0.9235787792692733,-0.40329649928553546,,-0.8985399699160217,-0.31117207570112815,0.18177356154000002,1.4269400654121882,0.8755666904969425,0.30391453274501806,0.8598431641308458,,-0.04730714937530631,-0.07404341185429444,0.0795457676,-0.07163176773016745,,-0.00012084469,-1.5497208e-06,1.1920929e-07,0.99999994,0.000100750476,8.632243e-05,-0.00010076165,1.0,1.0639429e-05,-8.631125e-05,-1.0699034e-05,1.0,795,2.438,0,0,0.0,False,-0.2634526987349264,1.0340653231093004
2.401711713988334,13:44:13.174867,13:43:59.069673,0,,0.12181059,0.004958421,0.03242193,-0.57950175,-0.78232193,-0.22836356,-0.14192188,-0.1790556,0.9735488,-0.8025184,0.596583,-0.007265538,,0.062347747,-0.031573653,0.042707622,-0.13978903,-0.5913936,0.7941739,-0.00051015615,0.8020921,0.59720016,-0.9901811,0.083076894,-0.11242534,,0.107018344,1.3441391,0.44330248,0.9957991,0.018189033,-0.08974003,-0.044426646,-0.76100385,-0.6472244,-0.0800649,0.64849234,-0.7569989,,-0.0884006,0.26701826,-0.08980789,0.6473781,0.72820723,0.22497964,-0.6057632,0.3124588,0.7317243,0.46255004,-0.60998666,0.64340013,,-0.023808932,0.4067533,-0.3804971,0.22557499,0.4869275,-0.8438113,-0.8323755,0.5463906,0.092780836,0.5062281,0.68143886,0.5285586,,0.9272685362081369,0.3664050612175819,0.19333906092000003,0.3420042978232592,0.6464272803902987,0.9019331351115071,-0.4044399077484755,,-0.8985322471831475,-0.31116435296825395,0.18177356154000002,1.4267303754687037,0.8755666904969425,0.3039145327450182,0.8601698522631145,,-0.04730714937530631,-0.07404341185429444,0.0795457676,-0.07163176773016745,,-0.00012084469,-1.5497208e-06,1.1920929e-07,0.99999994,0.000100750476,8.632243e-05,-0.00010076165,1.0,1.0639429e-05,-8.631125e-05,-1.0699034e-05,1.0,799,2.452,0,0,0.0,False,-0.2636314318904893,1.0356102895342432
2.474115796998376,13:44:13.199339,13:43:59.069673,0,,0.12168683,0.0050007254,0.032572612,-0.56434155,-0.7937224,-0.2269872,-0.13878268,-0.17982697,0.9738591,-0.8137923,0.58109105,-0.0086710155,,0.062346064,-0.031574056,0.04270798,-0.13979562,-0.5913305,0.7942198,-0.000513196,0.80213934,0.5971366,-0.99018013,0.08306953,-0.11243898,,0.107018344,1.3441391,0.44330248,0.9957991,0.018189033,-0.08974003,-0.044426646,-0.76100385,-0.6472244,-0.0800649,0.64849234,-0.7569989,,-0.088290505,0.26715767,-0.08989872,0.6332427,0.7409108,0.22372934,-0.61187214,0.3022392,0.7309336,0.47393683,-0.5997521,0.6447334,,-0.023807254,0.40675366,-0.38049755,0.22558177,0.48686036,-0.8438482,-0.83237535,0.5463992,0.09273162,0.50622535,0.68147993,0.52850825,,0.9279326912353202,0.3659030835807573,0.19330924625,0.32606786211843536,0.6618672048637936,0.8900780206550767,-0.40460325181460965,,-0.8985245244502732,-0.31116435296825395,0.18177226525,1.4267303754687037,0.8755666904969425,0.30383285400487753,0.8600065081969801,,-0.04730714937530631,-0.07404341185429444,0.0795457676,-0.07163176773016745,,-0.00012084469,-1.5497208e-06,1.1920929e-07,0.99999994,0.000100750476,8.632243e-05,-0.00010076165,1.0,1.0639429e-05,-8.631125e-05,-1.0699034e-05,1.0,807,2.476,0,0,0.0,False,-0.2639888982016152,1.035706849935802
2.4986623449949548,13:44:13.224773,13:43:59.069673,0,,0.12153796,0.0050361305,0.032710657,-0.54772806,-0.8051108,-0.22757494,-0.1356383,-0.18295762,0.973719,-0.82558835,0.5642011,-0.008992881,,0.062346064,-0.031574056,0.04270798,-0.13979562,-0.59113586,0.79436463,-0.000513196,0.8022856,0.59694004,-0.99018013,0.083041966,-0.11245939,,0.107018344,1.3441391,0.44330248,0.9957991,0.018189033,-0.08974003,-0.044426646,-0.76100385,-0.6472244,-0.0800649,0.64849234,-0.7569989,,-0.088154286,0.26728508,-0.08998637,0.61770487,0.75373125,0.22434326,-0.61841357,0.28933468,0.7306504,0.4858038,-0.5900633,0.6448411,,-0.023807254,0.40675366,-0.38049755,0.22558177,0.48665357,-0.8439675,-0.83237535,0.5464219,0.09259772,0.50622535,0.6816094,0.5283413,,0.9286200144611262,0.36523120582069973,0.19329239448000002,0.3082442169222508,0.6782635848356463,0.8791582344157228,-0.4042765636823411,,-0.8985245244502732,-0.31116435296825395,0.18177226525,1.4267303754687037,0.8755666904969425,0.3035878177844559,0.8608232285276516,,-0.04730714937530631,-0.07404341185429444,0.0795457676,-0.07163176773016745,,-0.00012084469,-1.5497208e-06,1.1920929e-07,0.99999994,0.000100750476,8.632243e-05,-0.00010076165,1.0,1.0639429e-05,-8.631125e-05,-1.0699034e-05,1.0,819,2.513,0,0,0.0,False,-0.2636910096090097,1.0359965311404788
2.524083468975732,13:44:13.259226,13:43:59.240810,0,,0.121380866,0.0050510615,0.032833382,-0.5316517,-0.8161364,-0.22642365,-0.13169065,-0.1844291,0.9739833,-0.83666235,0.5476378,-0.009425491,,0.062347986,-0.031573787,0.04270816,-0.13991018,-0.59128,0.7942372,-0.0005521476,0.8021734,0.59709084,-0.990164,0.08310065,-0.11255866,,0.107018344,1.3441391,0.44330248,0.9957991,0.018189033,-0.08974003,-0.044426646,-0.76100385,-0.6472244,-0.0800649,0.64849234,-0.7569989,,-0.08800848,0.26738754,-0.090076916,0.6026369,0.76615655,0.22323297,-0.6238444,0.2778578,0.7304883,0.49764135,-0.57948184,0.6454098,,-0.023809202,0.4067537,-0.38049752,0.22569814,0.48680377,-0.8438498,-0.83236545,0.546436,0.0926039,0.5061898,0.68149084,0.5285282,,0.9292841694883095,0.36443576433465463,0.19327943158000002,0.29146902144348885,0.6946599648074993,0.867176624554542,-0.40411321961620694,,-0.8985399699160217,-0.31116435296825395,0.18177226525,1.4267303754687037,0.875430053997177,0.30378091442829286,0.8609865725937857,,-0.04730714937530631,-0.07404341185429444,0.0795457676,-0.07163176773016745,,-0.00012084469,-1.5497208e-06,1.1920929e-07,0.99999994,0.000100750476,8.632243e-05,-0.00010076165,1.0,1.0639429e-05,-8.631125e-05,-1.0699034e-05,1.0,827,2.538,0,0,0.0,False,-0.26392932048309437,1.0360448113412584
2.5585143039934337,13:44:13.278595,13:43:59.240810,0,,0.1212682,0.005053252,0.032904103,-0.5208165,-0.8230579,-0.22655147,-0.1297996,-0.18594992,0.973948,-0.8437429,0.5366546,-0.009986788,,0.06234735,-0.03157407,0.04270923,-0.13991018,-0.59128,0.7942372,-0.0005521476,0.8021734,0.59709084,-0.990164,0.08310065,-0.11255866,,0.107018344,1.3441391,0.44330248,0.9957991,0.018189033,-0.08974003,-0.044426646,-0.76100385,-0.6472244,-0.0800649,0.64849234,-0.7569989,,-0.087902375,0.26744318,-0.0901348,0.59245056,0.77400947,0.2234091,-0.6278204,0.2698192,0.7300953,0.50482064,-0.5728062,0.6457935,,-0.023808636,0.40675458,-0.38049826,0.22569814,0.48680377,-0.8438498,-0.83236545,0.546436,0.0926039,0.5061898,0.68149084,0.5285282,,0.9296857515977691,0.36384883663621354,0.19327295013,0.27951669466487095,0.7049077022899072,0.8592286754780131,-0.40476659588074404,,-0.8985399699160217,-0.31116435296825395,0.18177096896000003,1.4267303754687037,0.875430053997177,0.30378091442829286,0.8609865725937857,,-0.04730714937530631,-0.07404341185429444,0.0795457676,-0.07163176773016745,,-0.00012084469,-1.5497208e-06,1.1920929e-07,0.99999994,0.000100750476,8.632243e-05,-0.00010076165,1.0,1.0639429e-05,-8.631125e-05,-1.0699034e-05,1.0,835,2.562,0,0,0.0,False,-0.26434636451274196,1.0361896519435967
2.577907229977427,13:44:13.307924,13:43:59.240810,0,,0.1210778,0.005068034,0.03300993,-0.5014095,-0.83351296,-0.2320441,-0.12998283,-0.19258168,0.9726339,-0.8553905,0.5178497,-0.011780053,,0.062344547,-0.031573385,0.04271084,-0.13987285,-0.5913627,0.79418224,-0.00068202615,0.8021244,0.59715647,-0.99016917,0.08298436,-0.11259875,,0.107018344,1.3441391,0.44330248,0.9957991,0.018189033,-0.08974003,-0.044426646,-0.76100385,-0.6472244,-0.0800649,0.64849234,-0.7569989,,-0.08772192,0.26753628,-0.09021505,0.57412755,0.7860775,0.22904079,-0.63690215,0.25298122,0.72825557,0.5145223,-0.56398815,0.6458979,,-0.02380608,0.40675664,-0.3804983,0.2256764,0.4869014,-0.84379923,-0.83243906,0.54632294,0.0926092,0.5060785,0.6815117,0.52860796,,0.9301877292345937,0.36293755415705503,0.19326646868000003,0.25540235116415066,0.7196644442645749,0.8472772206189402,-0.4050932840130126,,-0.8985322471831475,-0.31116435296825395,0.18176837638,1.4265206855252193,0.875430053997177,0.3036992356881523,0.86114991665992,,-0.04730714937530631,-0.07404341185429444,0.0795457676,-0.07163176773016745,,-0.00012084469,-1.5497208e-06,1.1920929e-07,0.99999994,0.000100750476,8.632243e-05,-0.00010076165,1.0,1.0639429e-05,-8.631125e-05,-1.0699034e-05,1.0,856,2.627,0,0,0.0,False,-0.2644655199497832,1.0361413717428172
2.6072182319767307,13:44:13.366996,13:43:59.240810,0,,0.1208345,0.005091071,0.033249363,-0.46556896,-0.8546361,-0.22987483,-0.12066749,-0.19601691,0.97314775,-0.8767467,0.48080584,-0.011867404,,0.062340807,-0.031576186,0.0427171,-0.13982719,-0.59111303,0.79437613,-0.00082066655,0.8023266,0.5968846,-0.9901755,0.08280888,-0.112672165,,0.107018344,1.3441391,0.44330248,0.9957991,0.018189033,-0.08974003,-0.044426646,-0.76100385,-0.6472244,-0.0800649,0.64849234,-0.7569989,,-0.08750038,0.26772785,-0.09039187,0.54024434,0.81034493,0.2268856,-0.6464044,0.22699228,0.72844756,0.53879255,-0.5401995,0.6464418,,-0.02380261,0.40676114,-0.3805037,0.2256475,0.48664677,-0.84395385,-0.83251905,0.54623884,0.092385985,0.5059597,0.681761,0.5284001,,0.9307978251316574,0.36148568037670087,0.1932638761,0.21723878144996722,0.7535502962064041,0.8196455805022277,-0.4050932840130126,,-0.8985322471831475,-0.3111797984340024,0.18176059864000002,1.4263109955817348,0.875430053997177,0.30320916324730895,0.8618032929244573,,-0.04730714937530631,-0.07404341185429444,0.0795457676,-0.07163176773016745,,-0.00012084469,-1.5497208e-06,1.1920929e-07,0.99999994,0.000100750476,8.632243e-05,-0.00010076165,1.0,1.0639429e-05,-8.631125e-05,-1.0699034e-05,1.0,864,2.653,0,0,0.0,False,-0.26386974276457353,1.0371069757584064
2.666324516001623,13:44:13.391337,13:43:59.389764,0,,0.1206514,0.0050901473,0.03342037,-0.4382734,-0.86931896,-0.22847463,-0.11257902,-0.19909588,0.973492,-0.89176357,0.45237717,-0.0106086135,,0.06233931,-0.03157717,0.042722166,-0.13982062,-0.59085166,0.7945717,-0.0008175969,0.8025231,0.59662044,-0.9901764,0.08277026,-0.1126923,,0.107018344,1.3441391,0.44330248,0.9957991,0.018189033,-0.08974003,-0.044426646,-0.76100385,-0.6472244,-0.0800649,0.64849234,-0.7569989,,-0.0873328,0.26785237,-0.090530396,0.51432806,0.82744807,0.2253804,-0.65207064,0.20662645,0.7294583,0.5570193,-0.5221448,0.64582837,,-0.023801465,0.40676522,-0.38050702,0.22564073,0.48636925,-0.8441157,-0.83251923,0.5462679,0.0922121,0.50596243,0.68193567,0.528172,,0.9311067344466265,0.36032727044556717,0.19326646868000003,0.18809187930561835,0.7792379581623068,0.7987806933474411,-0.4049299399468782,,-0.8985399699160217,-0.3111797984340024,0.18175541348000002,1.4263109955817348,0.875430053997177,0.30288244828674665,0.8627833573212629,,-0.04730714937530631,-0.07404341185429444,0.0795457676,-0.07163176773016745,,-0.00012084469,-1.5497208e-06,1.1920929e-07,0.99999994,0.000100750476,8.632243e-05,-0.00010076165,1.0,1.0639429e-05,-8.631125e-05,-1.0699034e-05,1.0,872,2.677,0,0,0.0,False,-0.2645250976683049,1.0370586955576269
