AlexandreBanks6/ExpertPlaybackApp/resources/Motions/Pilot_06/PC1/Data_PC1_6.csv
Task Time,PC1 Time,PC2 Time,Gaze Calib,s_T_psm1,Tx,Ty,Tz,R00,R01,R02,R10,R11,R12,R20,R21,R22,s_T_psm3,Tx,Ty,Tz,R00,R01,R02,R10,R11,R12,R20,R21,R22,cart_T_ecm,Tx,Ty,Tz,R00,R01,R02,R10,R11,R12,R20,R21,R22,ecm_T_psm1,Tx,Ty,Tz,R00,R01,R02,R10,R11,R12,R20,R21,R22,ecm_T_psm3,Tx,Ty,Tz,R00,R01,R02,R10,R11,R12,R20,R21,R22,psm1_joints,q1,q2,q3,q4,q5,q6,jaw,psm3_joints,q1,q2,q3,q4,q5,q6,jaw,ecm_joints,q1,q2,q3,q4,ecmi_T_ecm,Tx,Ty,Tz,R00,R01,R02,R10,R11,R12,R20,R21,R22,Sample #,Task Duration (s),Collisions (binary),Collisions (increments),Cumulative Collision Time (s),Clutch Press,MTMR Angle,MTML Angle
""
lci_T_si,,,,,-0.06259683,0.01659313,0.23760831,0.9956777,0.007211218,0.092595145,0.06714547,-0.7446932,-0.6640207,0.064166576,0.667368,-0.7419586
rci_T_si,,,,,-0.07226873,0.020610977,0.24667586,0.9915926,-0.008221844,0.1291379,0.082045324,-0.731784,-0.6765802,0.100063786,0.681487,-0.724957
ecm_T_lc,,,,,-4.4061628e-05,-0.00034663224,-0.01840835,-0.99912,0.030754527,0.028518902,-0.031987965,-0.99852574,-0.043852776,0.027128186,-0.04472645,0.9986309
ecm_T_rc,,,,,-0.0043358393,0.01870579,-0.007592615,-0.99555075,-0.052743673,-0.078081585,0.04863213,-0.9973746,0.053654674,-0.08070653,0.04961868,0.9955021
cart_T_ecmi,,,,,0.107138716,1.3441325,0.44329387,0.9957932,0.018087745,-0.08982618,-0.04455919,-0.76100624,-0.64721245,-0.0800649,0.64849234,-0.7569989
ecmac_T_ecmrep_psm1,,,,,0.009765618,-0.25445068,-0.30803946,0.99882644,0.038876563,0.028886087,-0.03766685,0.99843633,-0.041304655,-0.030446703,0.040168133,0.99872893
ecmac_T_ecmrep_psm3,,,,,-0.021997124,-0.45765886,-0.55608475,0.99248636,-0.054456197,0.10956896,0.02285623,0.96224946,0.27120772,-0.12020161,-0.2666656,0.9562641
""
0,13:36:11.242010,13:35:57.135555,0,,0.12692824,-0.001984492,0.024891451,-0.9786874,-0.18893436,-0.08046575,-0.12523939,0.23860759,0.9630064,-0.16274528,0.9525597,-0.25718433,,0.060272083,-0.016821042,0.04259664,0.0065215314,-0.8763227,0.4816802,-0.3362915,0.4517126,0.82635564,-0.94173527,-0.1673741,-0.29175407,,0.10708749,1.3441336,0.44329837,0.99579626,0.018140048,-0.089781694,-0.044490747,-0.761005,-0.64721864,-0.0800649,0.64849234,-0.7569989,,-0.09288394,0.25653112,-0.08856784,0.989507,0.104848884,0.099411204,-0.14240098,0.8241375,0.54819643,-0.024450717,-0.55660045,0.83042043,,-0.023483709,0.41421992,-0.36761436,0.11458024,0.83074445,-0.5447339,-0.97613573,0.1959771,0.09355216,0.1844733,0.521015,0.83337444,,0.864598558933805,0.3602654885825734,0.19491534956,0.9001989273790632,0.0075150074870992244,0.8234829789043874,-0.40002961796284986,,-0.9104561467409501,-0.24583003285231458,0.18385540328000002,0.8245008577811497,0.7635247606892812,0.2280808327083529,0.8760142266781397,,-0.04730714937530631,-0.07404341185429444,0.0795457676,-0.07163176773016745,,-5.1416457e-05,1.1324883e-06,5.9604645e-07,1.0,5.202368e-05,4.4576824e-05,-5.203113e-05,0.99999994,5.4836273e-06,-4.4569373e-05,-5.543232e-06,1.0,34,0.104,1,1,0.079,False,-0.2626186106756321,1.0499977893665218
0.1250747719896026,13:36:11.264125,13:35:57.135555,0,,0.12690623,-0.0019598305,0.02506797,-0.9772844,-0.19510669,-0.0827558,-0.12797135,0.23200837,0.9642589,-0.16893336,0.9529456,-0.25170618,,0.060270004,-0.016820356,0.042595685,0.006629074,-0.8764333,0.48147744,-0.33638895,0.45147267,0.8264471,-0.9416997,-0.1674423,-0.29182965,,0.10708749,1.3441336,0.44329837,0.99579626,0.018140048,-0.089781694,-0.044490747,-0.761005,-0.64721864,-0.0800649,0.64849234,-0.7569989,,-0.09287741,0.25666854,-0.08868328,0.9886547,0.11098541,0.10121354,-0.14864287,0.81986886,0.55291986,-0.021615783,-0.56169146,0.82706434,,-0.023481643,0.41421968,-0.36761314,0.11448173,0.83088714,-0.54453695,-0.9761676,0.19581467,0.09355935,0.18436559,0.5208485,0.83350235,,0.8651082593035038,0.36060528882903925,0.19477146137,0.8945372989049808,0.011887375479593319,0.8288205886614233,-0.40215309082259554,,-0.9104484240080759,-0.24583003285231458,0.18385540328000002,0.8242911678376652,0.7635247606892812,0.22816251144849342,0.8758508826120054,,-0.04730714937530631,-0.07404341185429444,0.0795457676,-0.07163176773016745,,-5.1416457e-05,1.1324883e-06,5.9604645e-07,1.0,5.202368e-05,4.4576824e-05,-5.203113e-05,0.99999994,5.4836273e-06,-4.4569373e-05,-5.543232e-06,1.0,41,0.124,1,1,0.099,False,-0.262797343831195,1.0506737121774343
0.1471806560002733,13:36:11.294723,13:35:57.249318,0,,0.12684397,-0.0018461496,0.025310114,-0.97540087,-0.20414442,-0.08317524,-0.12918724,0.22364646,0.9660708,-0.17861612,0.95305145,-0.24451783,,0.060270116,-0.016819432,0.042596042,0.006747178,-0.87657833,0.48121172,-0.3364814,0.45117116,0.8265741,-0.9416658,-0.16749588,-0.29190814,,0.10708749,1.3441336,0.44329837,0.99579626,0.018140048,-0.089781694,-0.044490747,-0.761005,-0.64721864,-0.0800649,0.64849234,-0.7569989,,-0.092836745,0.25691825,-0.08879014,0.9876219,0.12000638,0.101002194,-0.15612,0.814278,0.5590866,-0.015149905,-0.5679347,0.8229342,,-0.023481898,0.41422048,-0.36761254,0.11437235,0.8310695,-0.5442815,-0.9761999,0.19563897,0.09359001,0.18426248,0.52062345,0.8336657,,0.8662666692346375,0.3612385529247257,0.19461072141000002,0.8882466006004451,0.020358838465050627,0.8348995983145946,-0.3990495535660441,,-0.9104561467409501,-0.24583003285231458,0.18385540328000002,0.8240814778941807,0.7635247606892812,0.2283258689287746,0.8755241944797368,,-0.04730714937530631,-0.07404341185429444,0.0795457676,-0.07163176773016745,,-5.1416457e-05,1.1324883e-06,5.9604645e-07,1.0,5.202368e-05,4.4576824e-05,-5.203113e-05,0.99999994,5.4836273e-06,-4.4569373e-05,-5.543232e-06,1.0,54,0.165,1,1,0.14,False,-0.2626781883941529,1.050335750771978
0.17779262899421155,13:36:11.327295,13:35:57.249318,0,,0.12666838,-0.0016178936,0.025477678,-0.97490364,-0.20690572,-0.08217505,-0.12859745,0.22206628,0.9665139,-0.18172899,0.9528254,-0.24310085,,0.060269,-0.016819224,0.04259485,0.006945312,-0.87679017,0.48082286,-0.33648884,0.45074528,0.8268033,-0.9416617,-0.16753398,-0.29189956,,0.10708749,1.3441336,0.44329837,0.99579626,0.018140048,-0.089781694,-0.044490747,-0.761005,-0.64721864,-0.0800649,0.64849234,-0.7569989,,-0.09267707,0.25721014,-0.08877211,0.9873947,0.1227819,0.099881485,-0.15778919,0.813121,0.5603006,-0.012420962,-0.56899804,0.82224506,,-0.023480708,0.4142197,-0.3676117,0.11417676,0.83133084,-0.54392344,-0.97622645,0.19542396,0.093762435,0.18424328,0.520287,0.83388,,0.8680274523299607,0.36201854894502233,0.19456146239000002,0.886569081052569,0.02418466045848296,0.8344752954357333,-0.4018264026903269,,-0.9104484240080759,-0.2458377555851888,0.18385669957000003,0.8238717879506963,0.7636613971890466,0.2286228447257811,0.8763409148104081,,-0.04730714937530631,-0.07404341185429444,0.0795457676,-0.07163176773016745,,-5.1416457e-05,1.1324883e-06,5.9604645e-07,1.0,5.202368e-05,4.4576824e-05,-5.203113e-05,0.99999994,5.4836273e-06,-4.4569373e-05,-5.543232e-06,1.0,62,0.19,1,1,0.165,False,-0.26309523242380006,1.0507219923782136
0.21033519500633702,13:36:11.354813,13:35:57.249318,0,,0.12658587,-0.0015053749,0.025526702,-0.9749893,-0.20643762,-0.082336456,-0.12850195,0.22134551,0.966692,-0.18133679,0.95309466,-0.24233714,,0.060267895,-0.01681894,0.042595267,0.007031178,-0.8767388,0.48091534,-0.3363953,0.45082396,0.82679856,-0.9416945,-0.16759104,-0.29176098,,0.10708749,1.3441336,0.44329837,0.99579626,0.018140048,-0.089781694,-0.044490747,-0.761005,-0.64721864,-0.0800649,0.64849234,-0.7569989,,-0.09259948,0.25733137,-0.08873813,0.98744565,0.1222945,0.099975474,-0.15745144,0.8127372,0.56095207,-0.01265244,-0.56965095,0.8217893,,-0.023479689,0.41422036,-0.36761162,0.11408406,0.83127606,-0.54402655,-0.97621983,0.19540699,0.0938668,0.18433583,0.5203808,0.83380103,,0.8687688346858862,0.3623892401229851,0.19456664755000003,0.886569081052569,0.02418466045848296,0.8345569741758738,-0.40198974675646126,,-0.9104407012752017,-0.2458377555851888,0.18385669957000003,0.8238717879506963,0.7639346701885775,0.22840000891838802,0.8766676029426765,,-0.04730714937530631,-0.07404341185429444,0.0795457676,-0.07163176773016745,,-5.1416457e-05,1.1324883e-06,5.9604645e-07,1.0,5.202368e-05,4.4576824e-05,-5.203113e-05,0.99999994,5.4836273e-06,-4.4569373e-05,-5.543232e-06,1.0,74,0.227,1,1,0.202,False,-0.26339312101640555,1.0503840309727575
0.23784969199914485,13:36:11.389736,13:35:57.249318,0,,0.12653181,-0.00133048,0.02554448,-0.9754742,-0.20472047,-0.08086708,-0.1265134,0.22081849,0.96707463,-0.18012303,0.9535872,-0.2413027,,0.060266778,-0.01681821,0.042596936,0.0072081806,-0.87679064,0.48081803,-0.33620563,0.4507143,0.8269355,-0.94176096,-0.16761446,-0.29153314,,0.10708749,1.3441336,0.44329837,0.99579626,0.018140048,-0.089781694,-0.044490747,-0.761005,-0.64721864,-0.0800649,0.64849234,-0.7569989,,-0.092547715,0.25747633,-0.088637464,0.98781717,0.12054279,0.09842071,-0.15513599,0.8125708,0.5618376,-0.012248328,-0.5702614,0.821372,,-0.023478812,0.41422227,-0.36761177,0.113893226,0.831342,-0.5439659,-0.9762067,0.19533959,0.09414316,0.18452322,0.52030087,0.83380944,,0.8694947715760634,0.36300705875292305,0.19463146205,0.8886659804874143,0.02418466045848296,0.8344752954357333,-0.4018264026903269,,-0.9104329785423274,-0.2458377555851888,0.18385669957000003,0.8238717879506963,0.764071306688343,0.22861530597525404,0.875687538545871,,-0.04730714937530631,-0.07404341185429444,0.0795457676,-0.07163176773016745,,-5.1416457e-05,1.1324883e-06,5.9604645e-07,1.0,5.202368e-05,4.4576824e-05,-5.203113e-05,0.99999994,5.4836273e-06,-4.4569373e-05,-5.543232e-06,1.0,87,0.268,1,1,0.243,False,-0.2634526987349264,1.0505288715750958
0.27280040900222957,13:36:11.426481,13:35:57.378654,0,,0.1265822,-0.0012217313,0.025467798,-0.97524935,-0.20547143,-0.081670985,-0.12736197,0.2200957,0.96712804,-0.18074176,0.9535928,-0.24081746,,0.06026885,-0.016819015,0.04259628,0.00721287,-0.87678623,0.48082602,-0.33620924,0.45071974,0.826931,-0.9417596,-0.16762272,-0.2915327,,0.10708749,1.3441336,0.44329837,0.99579626,0.018140048,-0.089781694,-0.044490747,-0.761005,-0.64721864,-0.0800649,0.64849234,-0.7569989,,-0.09259163,0.25750285,-0.08850477,0.9876495,0.12129271,0.09917933,-0.15619238,0.81208336,0.5622496,-0.012345104,-0.5707966,0.82099867,,-0.023480706,0.41422105,-0.36761224,0.113888875,0.8313377,-0.54397327,-0.976208,0.1953346,0.09414028,0.18451917,0.5203095,0.83380497,,0.8694329897130695,0.3633854726637601,0.19475460960000002,0.8876175307699916,0.02404802395871752,0.8348317495598514,-0.4023164348887298,,-0.9104407012752017,-0.24584547831806305,0.18385799586,0.8238717879506963,0.764071306688343,0.22861530597525404,0.875687538545871,,-0.04730714937530631,-0.07404341185429444,0.0795457676,-0.07163176773016745,,-5.1416457e-05,1.1324883e-06,5.9604645e-07,1.0,5.202368e-05,4.4576824e-05,-5.203113e-05,0.99999994,5.4836273e-06,-4.4569373e-05,-5.543232e-06,1.0,95,0.292,1,1,0.267,False,-0.2639888982016152,1.0505288715750958
0.3095380429876968,13:36:11.455302,13:35:57.378654,0,,0.12669596,-0.0010454357,0.025294274,-0.9752353,-0.20540595,-0.08200338,-0.127494,0.2191391,0.96732783,-0.18072477,0.95382714,-0.23990026,,0.060265556,-0.01681897,0.042595327,0.0072881756,-0.876779,0.48083812,-0.33612067,0.45072496,0.82696414,-0.9417906,-0.16764675,-0.2914186,,0.10708749,1.3441336,0.44329837,0.99579626,0.018140048,-0.089781694,-0.044490747,-0.761005,-0.64721864,-0.0800649,0.64849234,-0.7569989,,-0.092690445,0.25751108,-0.08825118,0.9876344,0.1212102,0.09943029,-0.1562799,0.8115256,0.56303,-0.012445243,-0.57160676,0.8204333,,-0.023477368,0.41422066,-0.36761153,0.11380704,0.831332,-0.5439991,-0.9762009,0.19531558,0.094253056,0.18460709,0.5203257,0.83377534,,0.8691009121994778,0.3639801230950754,0.19500479357000003,0.8876175307699916,0.023364841459890314,0.8355521965586146,-0.40198974675646115,,-0.910417533076579,-0.24584547831806305,0.18385799586,0.8238717879506963,0.7642079431881085,0.22858556681169795,0.8758508826120052,,-0.04730714937530631,-0.07404341185429444,0.0795457676,-0.07163176773016745,,-5.1416457e-05,1.1324883e-06,5.9604645e-07,1.0,5.202368e-05,4.4576824e-05,-5.203113e-05,0.99999994,5.4836273e-06,-4.4569373e-05,-5.543232e-06,1.0,112,0.346,1,1,0.321,False,-0.262797343831195,1.0504805913743163
0.338371455000015,13:36:11.505856,13:35:57.378654,0,,0.1268473,-0.00076161325,0.025145113,-0.97465676,-0.20726895,-0.084165305,-0.12979712,0.21753082,0.9673845,-0.18220022,0.9537923,-0.2389209,,0.060261052,-0.016820535,0.04259032,0.00726121,-0.8768284,0.4807485,-0.33613938,0.450645,0.82700014,-0.94178414,-0.16760358,-0.29146433,,0.10708749,1.3441336,0.44329837,0.99579626,0.018140048,-0.089781694,-0.044490747,-0.761005,-0.64721864,-0.0800649,0.64849234,-0.7569989,,-0.09282918,0.25761312,-0.087941274,0.98719335,0.123074286,0.10149893,-0.15900917,0.810421,0.56385624,-0.0128606595,-0.5727744,0.81961215,,-0.0234723,0.41421622,-0.36761013,0.113835275,0.83138615,-0.54391044,-0.976201,0.19531973,0.09424348,0.18458916,0.5202377,0.8338343,,0.8688846756789996,0.365138533026209,0.19527831076000002,0.8848915615046928,0.022681658961063115,0.8361092860770967,-0.40198974675646115,,-0.9103789194122078,-0.24585320105093728,0.18385929215000002,0.8238717879506963,0.7642079431881085,0.2286672455518386,0.8760142266781398,,-0.04730714937530631,-0.07404341185429444,0.0795457676,-0.07163176773016745,,-5.1416457e-05,1.1324883e-06,5.9604645e-07,1.0,5.202368e-05,4.4576824e-05,-5.203113e-05,0.99999994,5.4836273e-06,-4.4569373e-05,-5.543232e-06,1.0,120,0.37,1,1,0.345,False,-0.26351227645344677,1.0506737121774343
0.3889145989960525,13:36:11.531094,13:35:57.378654,0,,0.12696928,-0.0004724115,0.025050208,-0.9745769,-0.20738256,-0.084806964,-0.13015327,0.21591392,0.96769893,-0.1823729,0.95413494,-0.23741627,,0.06026391,-0.016822845,0.042591274,0.007270612,-0.87685883,0.48069274,-0.33614668,0.45058843,0.82702804,-0.94178146,-0.16759631,-0.29147714,,0.10708749,1.3441336,0.44329837,0.99579626,0.018140048,-0.089781694,-0.044490747,-0.761005,-0.64721864,-0.0800649,0.64849234,-0.7569989,,-0.092943385,0.25775713,-0.08766972,0.9871299,0.12316288,0.10200667,-0.15939361,0.80945605,0.5651324,-0.012966575,-0.5741183,0.8186697,,-0.023474947,0.41421548,-0.36761272,0.113826565,0.8314221,-0.54385734,-0.97620356,0.19530207,0.094253674,0.18458104,0.5201869,0.8338677,,0.8688692302132511,0.36638961575183343,0.19551034667000003,0.8844721816177237,0.021861839962470472,0.8367777934992752,-0.4023164348887299,,-0.9103943648779563,-0.24586864651668572,0.18385929215000002,0.8238717879506963,0.7642079431881085,0.22874892429197913,0.8761775707442739,,-0.04730714937530631,-0.07404341185429444,0.0795457676,-0.07163176773016745,,-5.1416457e-05,1.1324883e-06,5.9604645e-07,1.0,5.202368e-05,4.4576824e-05,-5.203113e-05,0.99999994,5.4836273e-06,-4.4569373e-05,-5.543232e-06,1.0,133,0.411,1,1,0.386,False,-0.2629164992682367,1.0506737121774343
0.41413728101179004,13:36:11.570232,13:35:57.378654,0,,0.1271387,-4.6744943e-05,0.024998724,-0.9740766,-0.20857106,-0.0875945,-0.13264722,0.21295196,0.9680165,-0.18324684,0.9545414,-0.23509794,,0.060265154,-0.016824663,0.042592943,0.0073928116,-0.87691873,0.48058173,-0.33624876,0.4504298,0.827073,-0.94174415,-0.16770941,-0.2915329,,0.10708749,1.3441336,0.44329837,0.99579626,0.018140048,-0.089781694,-0.044490747,-0.761005,-0.64721864,-0.0800649,0.64849234,-0.7569989,,-0.093109064,0.25802854,-0.08733591,0.98671526,0.12432105,0.10458162,-0.16185847,0.8076002,0.56708354,-0.013959716,-0.57647735,0.8169939,,-0.023476118,0.41421586,-0.36761522,0.11371393,0.8315093,-0.5437476,-0.97623813,0.19513448,0.09424273,0.18446761,0.5201104,0.83394057,,0.8689619030077418,0.3684284172306287,0.19577478983000002,0.8817462123524249,0.020222201965285187,0.8379514508633512,-0.4023164348887298,,-0.9104098103437048,-0.24588409198243416,0.18385799586,0.8236620980072117,0.7642079431881085,0.22874892429197913,0.8761775707442739,,-0.04730714937530631,-0.07404341185429444,0.0795457676,-0.07163176773016745,,-5.1416457e-05,1.1324883e-06,5.9604645e-07,1.0,5.202368e-05,4.4576824e-05,-5.203113e-05,0.99999994,5.4836273e-06,-4.4569373e-05,-5.543232e-06,1.0,141,0.436,1,1,0.411,False,-0.2634526987349264,1.050335750771978
0.45329987799050286,13:36:11.597940,13:35:57.378654,0,,0.12721819,0.00013913214,0.025015846,-0.97311765,-0.211382,-0.09143126,-0.13694383,0.21188557,0.9676522,-0.18517129,0.95416033,-0.23513716,,0.060262978,-0.01682493,0.042591512,0.007382243,-0.8769235,0.48057312,-0.33625376,0.45042384,0.82707417,-0.9417424,-0.1677002,-0.29154372,,0.10708749,1.3441336,0.44329837,0.99579626,0.018140048,-0.089781694,-0.044490747,-0.761005,-0.64721864,-0.0800649,0.64849234,-0.7569989,,-0.09319033,0.25817317,-0.08721908,0.9859404,0.12715782,0.108408466,-0.1663903,0.8067242,0.5670188,-0.015354854,-0.5770849,0.8165398,,-0.023473797,0.41421476,-0.3676146,0.1137248,0.83151394,-0.54373825,-0.9762377,0.1951401,0.094235174,0.184463,0.5201009,0.83394754,,0.869000516672113,0.36943237250427785,0.19585645610000002,0.8769233436522809,0.0192657464669271,0.8377512313075394,-0.4029698111532669,,-0.9103943648779563,-0.24588409198243416,0.18385799586,0.8236620980072117,0.7642079431881085,0.22874892429197913,0.8761775707442739,,-0.04730714937530631,-0.07404341185429444,0.0795457676,-0.07163176773016745,,-5.1416457e-05,1.1324883e-06,5.9604645e-07,1.0,5.202368e-05,4.4576824e-05,-5.203113e-05,0.99999994,5.4836273e-06,-4.4569373e-05,-5.543232e-06,1.0,154,0.477,1,1,0.452,False,-0.26309523242380006,1.0507219923782136
0.4809996969997883,13:36:11.637225,13:35:57.378654,0,,0.1272954,0.00042919815,0.025053367,-0.973209,-0.20839322,-0.09714161,-0.14143518,0.2095033,0.9675248,-0.18127415,0.955343,-0.23336467,,0.060261868,-0.016824663,0.04259193,0.0074680867,-0.8768721,0.48066548,-0.33616018,0.45050263,0.82706934,-0.94177514,-0.16775726,-0.2914051,,0.10708749,1.3441336,0.44329837,0.99579626,0.018140048,-0.089781694,-0.044490747,-0.761005,-0.64721864,-0.0800649,0.64849234,-0.7569989,,-0.09327142,0.25840887,-0.08704772,0.9857077,0.1240853,0.113943934,-0.16711885,0.80556405,0.5684521,-0.021252587,-0.5793698,0.8147877,,-0.023472778,0.41421545,-0.3676145,0.113632105,0.83145916,-0.5438413,-0.97623104,0.19512317,0.09433958,0.18455555,0.52019477,0.8338685,,0.8691086349323521,0.3710695918736135,0.19597052962000003,0.8748264442174356,0.012707194478185961,0.839260389898361,-0.4021530908225954,,-0.9103866421450821,-0.24588409198243416,0.18385799586,0.8236620980072117,0.7643445796878738,0.22863750638828284,0.8761775707442739,,-0.04730714937530631,-0.07404341185429444,0.0795457676,-0.07163176773016745,,-5.1416457e-05,1.1324883e-06,5.9604645e-07,1.0,5.202368e-05,4.4576824e-05,-5.203113e-05,0.99999994,5.4836273e-06,-4.4569373e-05,-5.543232e-06,1.0,162,0.501,1,1,0.476,False,-0.2622611443645053,1.0511565141852286
0.5202667049888987,13:36:11.663015,13:35:57.378654,0,,0.12730949,0.0005186945,0.025076613,-0.97292,-0.20923224,-0.09822745,-0.1426891,0.20934784,0.9673743,-0.18184221,0.95519376,-0.23353398,,0.060263123,-0.016826376,0.042595267,0.007478061,-0.8768654,0.48067778,-0.3361613,0.45051104,0.8270643,-0.94177467,-0.16777015,-0.29139927,,0.10708749,1.3441336,0.44329837,0.99579626,0.018140048,-0.089781694,-0.044490747,-0.761005,-0.64721864,-0.0800649,0.64849234,-0.7569989,,-0.09328775,0.25848997,-0.08700408,0.985473,0.1249346,0.115040846,-0.16844624,0.8053998,0.5682931,-0.021654401,-0.5794157,0.8147445,,-0.023474121,0.4142173,-0.36761776,0.113622315,0.8314526,-0.5438534,-0.97623247,0.19511537,0.09434047,0.18455379,0.5202082,0.8338605,,0.8692708123227109,0.3715252331131927,0.19599515913,0.873358614613044,0.012433921478655081,0.8388297957846296,-0.40084633829352123,,-0.9104020876108305,-0.24589181471530838,0.18385540328000002,0.8236620980072117,0.7643445796878738,0.22863750638828284,0.8761775707442739,,-0.04730714937530631,-0.07404341185429444,0.0795457676,-0.07163176773016745,,-5.1416457e-05,1.1324883e-06,5.9604645e-07,1.0,5.202368e-05,4.4576824e-05,-5.203113e-05,0.99999994,5.4836273e-06,-4.4569373e-05,-5.543232e-06,1.0,175,0.542,1,1,0.517,False,-0.2635718541719685,1.0502874705711984
0.5460439290036447,13:36:11.702865,13:35:57.378654,0,,0.12717049,0.00050863624,0.025083393,-0.973554,-0.20474263,-0.10135636,-0.14413732,0.20626137,0.96782255,-0.17724866,0.9568367,-0.23031765,,0.060262367,-0.016827762,0.042594254,0.007472203,-0.87682647,0.4807487,-0.33616996,0.45057812,0.82702416,-0.94177157,-0.16779299,-0.29139593,,0.10708749,1.3441336,0.44329837,0.99579626,0.018140048,-0.089781694,-0.044490747,-0.761005,-0.64721864,-0.0800649,0.64849234,-0.7569989,,-0.09314984,0.25849542,-0.08702449,0.9857108,0.12032923,0.117877565,-0.16641814,0.80393314,0.57096106,-0.02606238,-0.5824194,0.81247056,,-0.023473125,0.41421583,-0.3676184,0.11362883,0.83140856,-0.5439194,-0.97623336,0.1951237,0.094314106,0.18454511,0.5202754,0.83382046,,0.8697805126924096,0.371293551126966,0.19597312220000002,0.8741973743869821,0.008198189985926425,0.8425287870196403,-0.40133637049192417,,-0.9103943648779563,-0.2458995374481826,0.18385540328000002,0.8236620980072117,0.7643445796878738,0.2285558276481422,0.8763409148104082,,-0.04730714937530631,-0.07404341185429444,0.0795457676,-0.07163176773016745,,-5.1416457e-05,1.1324883e-06,5.9604645e-07,1.0,5.202368e-05,4.4576824e-05,-5.203113e-05,0.99999994,5.4836273e-06,-4.4569373e-05,-5.543232e-06,1.0,183,0.567,1,1,0.542,False,-0.2634526987349264,1.0505288715750958
0.58593280200148,13:36:11.730648,13:35:57.378654,0,,0.12701222,0.00050126016,0.025151387,-0.9745261,-0.19779967,-0.10570766,-0.14594348,0.20141724,0.9685719,-0.17029187,0.9593259,-0.22515392,,0.06026028,-0.016826674,0.042594373,0.007670829,-0.8768438,0.48071405,-0.3361711,0.45048732,0.8270732,-0.9417696,-0.16794655,-0.29131395,,0.10708749,1.3441336,0.44329837,0.99579626,0.018140048,-0.089781694,-0.044490747,-0.761005,-0.64721864,-0.0800649,0.64849234,-0.7569989,,-0.092998035,0.2585449,-0.08708957,0.98608166,0.11321195,0.12176223,-0.16305849,0.801578,0.5752257,-0.0324795,-0.58707386,0.8088815,,-0.023471199,0.4142168,-0.36761743,0.11343222,0.8314495,-0.54389787,-0.97625864,0.1949492,0.094413355,0.18453239,0.5202755,0.83382326,,0.8703597176579765,0.3712472147297206,0.19589793738000003,0.8758748939348582,0.0016396379971852853,0.8482035613576306,-0.40198974675646126,,-0.9103866421450821,-0.2458995374481826,0.18385540328000002,0.8234524080637271,0.7644812161876393,0.2284444097444457,0.8756875385458709,,-0.04730714937530631,-0.07404341185429444,0.0795457676,-0.07163176773016745,,-5.1416457e-05,1.1324883e-06,5.9604645e-07,1.0,5.202368e-05,4.4576824e-05,-5.203113e-05,0.99999994,5.4836273e-06,-4.4569373e-05,-5.543232e-06,1.0,196,0.608,0,1,0.569,False,-0.2620824112089424,1.0496115477602863
0.6137152599985711,13:36:11.767258,13:35:57.720537,0,,0.12685947,0.0005173832,0.025245473,-0.9748321,-0.19462861,-0.108729035,-0.14775069,0.19879451,0.96883965,-0.1669492,0.96052086,-0.22254783,,0.060262218,-0.016828522,0.04259169,0.0076696686,-0.8768791,0.4806497,-0.33618343,0.45042476,0.8271023,-0.9417652,-0.1679301,-0.2913376,,0.10708749,1.3441336,0.44329837,0.99579626,0.018140048,-0.089781694,-0.044490747,-0.761005,-0.64721864,-0.0800649,0.64849234,-0.7569989,,-0.092854075,0.25862888,-0.0871579,0.98610234,0.109957546,0.124545336,-0.16215134,0.8002365,0.577346,-0.036182173,-0.5895175,0.80694485,,-0.023472667,0.4142133,-0.36761776,0.113434374,0.83149004,-0.5438354,-0.9762608,0.19493712,0.09441597,0.18451965,0.52021515,0.83386374,,0.8711242682125246,0.3712703829283433,0.19581238224000003,0.8756652039913736,-0.0016396379971852853,0.8508775910463449,-0.40198974675646126,,-0.9103866421450821,-0.24591498291393107,0.18385799586,0.8234524080637271,0.7644812161876393,0.22852608848458622,0.8755241944797366,,-0.04730714937530631,-0.07404341185429444,0.0795457676,-0.07163176773016745,,-5.1416457e-05,1.1324883e-06,5.9604645e-07,1.0,5.202368e-05,4.4576824e-05,-5.203113e-05,0.99999994,5.4836273e-06,-4.4569373e-05,-5.543232e-06,1.0,204,0.632,0,1,0.569,False,-0.2630356547052788,1.049804668563404
0.6503273609851021,13:36:11.798312,13:35:57.720537,0,,0.12664257,0.0005814731,0.025322542,-0.9749122,-0.19191453,-0.112759784,-0.15065919,0.19602603,0.9689559,-0.16385286,0.96163523,-0.2200219,,0.060259372,-0.016828805,0.042590916,0.007862421,-0.87689674,0.4806143,-0.33619314,0.4503334,0.827148,-0.9417601,-0.16808265,-0.291266,,0.10708749,1.3441336,0.44329837,0.99579626,0.018140048,-0.089781694,-0.044490747,-0.761005,-0.64721864,-0.0800649,0.64849234,-0.7569989,,-0.09264488,0.258741,-0.08718548,0.9859229,0.10716583,0.12834142,-0.16223978,0.7987607,0.5793613,-0.040426347,-0.59202766,0.80490303,,-0.023469742,0.41421282,-0.36761743,0.11324428,0.83153135,-0.54381186,-0.9762869,0.19476324,0.0945048,0.18449828,0.52021426,0.833869,,0.8723135690751552,0.37128582839409174,0.19576053064,0.8741973743869821,-0.004918913991555856,0.8533882632547778,-0.4016630586241927,,-0.9103711966793336,-0.2459227056468053,0.18385799586,0.8232427181202427,0.7646178526874048,0.22841467058088982,0.8755241944797366,,-0.04730714937530631,-0.07404341185429444,0.0795457676,-0.07163176773016745,,-5.1416457e-05,1.1324883e-06,5.9604645e-07,1.0,5.202368e-05,4.4576824e-05,-5.203113e-05,0.99999994,5.4836273e-06,-4.4569373e-05,-5.543232e-06,1.0,221,0.686,0,1,0.569,False,-0.2635718541719685,1.049804668563404
0.6813743149978109,13:36:11.840468,13:35:57.720537,0,,0.12634331,0.00072206557,0.025380746,-0.97354275,-0.19640861,-0.1167823,-0.15570205,0.19612816,0.9681376,-0.16724628,0.9607066,-0.22152045,,0.060259037,-0.016827539,0.042591155,0.007862987,-0.8768987,0.48061067,-0.336187,0.4503309,0.8271519,-0.9417623,-0.16807899,-0.29126102,,0.10708749,1.3441336,0.44329837,0.99579626,0.018140048,-0.089781694,-0.044490747,-0.761005,-0.64721864,-0.0800649,0.64849234,-0.7569989,,-0.09235225,0.25890228,-0.08715299,0.9848688,0.11172319,0.13248132,-0.16833057,0.7984886,0.5779972,-0.04120914,-0.5915521,0.805213,,-0.02346958,0.41421372,-0.36761644,0.11324321,0.83153325,-0.5438092,-0.9762858,0.19476543,0.09451146,0.18450464,0.5202104,0.83387,,0.874298311423831,0.37119315559960103,0.19575664177000002,0.8672776062519927,-0.0028693664950742498,0.8514719584789099,-0.40149971455805844,,-0.9103711966793336,-0.24591498291393107,0.18385799586,0.8232427181202427,0.7646178526874048,0.22841467058088982,0.8755241944797366,,-0.04730714937530631,-0.07404341185429444,0.0795457676,-0.07163176773016745,,-5.1416457e-05,1.1324883e-06,5.9604645e-07,1.0,5.202368e-05,4.4576824e-05,-5.203113e-05,0.99999994,5.4836273e-06,-4.4569373e-05,-5.543232e-06,1.0,229,0.71,0,1,0.569,False,-0.26386974276457353,1.049804668563404
0.7235154079971835,13:36:11.869704,13:35:57.720537,0,,0.12610483,0.0008599311,0.025400907,-0.9732488,-0.19628862,-0.11940444,-0.15809219,0.19503394,0.9679713,-0.16671386,0.96095383,-0.22084826,,0.060218733,-0.016836882,0.042559326,0.007808542,-0.8769225,0.480568,-0.33617604,0.4503085,0.8271685,-0.94176674,-0.16801447,-0.29128417,,0.10710897,1.3441335,0.44330022,0.9957948,0.018114567,-0.08980337,-0.044524092,-0.7610056,-0.6472156,-0.0800649,0.64849234,-0.7569989,,-0.09213343,0.2590329,-0.08708574,0.9845322,0.11159303,0.13506794,-0.16979258,0.7978295,0.5784795,-0.04320691,-0.5924652,0.8044365,,-0.023444569,0.41418505,-0.36760357,0.11327552,0.83156997,-0.5437463,-0.9762793,0.1947933,0.09452151,0.18451938,0.52014124,0.83390987,,0.8762444401081355,0.3710927600722361,0.19579423418000003,0.8647613269301785,-0.00300600299483969,0.8515016976424656,-0.40198974675646126,,-0.9103789194122078,-0.24591498291393107,0.18385929215000002,0.8232427181202427,0.7646178526874048,0.22841467058088982,0.8755241944797366,,-0.04730714937530631,-0.07404341185429444,0.0795457676,-0.07163176773016745,,-3.01674e-05,2.8014183e-06,-2.7418137e-06,1.0,2.6676804e-05,2.2858381e-05,-2.668053e-05,0.99999994,2.771616e-06,-2.2854656e-05,-2.8908253e-06,1.0,246,0.763,0,1,0.569,False,-0.26309523242380006,1.0505288715750958
0.7527646509988699,13:36:11.924130,13:35:57.886152,0,,0.12558562,0.0012987852,0.025228336,-0.97321266,-0.1941742,-0.12309942,-0.16096127,0.19314879,0.9678765,-0.16416016,0.96176386,-0.21922934,,0.060214587,-0.01683499,0.0425601,0.008002429,-0.8770227,0.4803821,-0.33617344,0.45007703,0.82729554,-0.9417661,-0.1681121,-0.29123008,,0.10710897,1.3441335,0.44330022,0.9957948,0.018114567,-0.08980337,-0.044524092,-0.7610056,-0.6472156,-0.0800649,0.64849234,-0.7569989,,-0.09160258,0.25927496,-0.086696394,0.9842837,0.10942226,0.13860886,-0.17022087,0.79684263,0.57971257,-0.047015995,-0.5941957,0.8029452,,-0.023440748,0.4141872,-0.36760208,0.11308328,0.8317039,-0.5435815,-0.9763032,0.19460836,0.09465547,0.18451081,0.51999635,0.83400214,,0.8797042244357881,0.3711777101338526,0.19612349184000002,0.8622450476083641,-0.004235731492728653,0.8516059926341875,-0.4018264026903269,,-0.9103634739464594,-0.24590726018105682,0.18385799586,0.8230330281767582,0.7647544891871703,0.2284666101574746,0.8758508826120054,,-0.04730714937530631,-0.07404341185429444,0.0795457676,-0.07163176773016745,,-3.01674e-05,2.8014183e-06,-2.7418137e-06,1.0,2.6676804e-05,2.2858381e-05,-2.668053e-05,0.99999994,2.771616e-06,-2.2854656e-05,-2.8908253e-06,1.0,254,0.788,0,1,0.569,False,-0.2631548101423209,1.050432311173537
0.8071808920067269,13:36:11.951865,13:35:57.886152,0,,0.12546143,0.0014698207,0.025121525,-0.97344935,-0.19223474,-0.12426609,-0.16144162,0.19172245,0.96808004,-0.162274,0.96243864,-0.21766683,,0.06021677,-0.016834736,0.04256153,0.0080129905,-0.87701786,0.48039073,-0.3361684,0.45008302,0.82729435,-0.94176775,-0.16812131,-0.2912193,,0.10710897,1.3441335,0.44330022,0.9957948,0.018114567,-0.08980337,-0.044524092,-0.7610056,-0.6472156,-0.0800649,0.64849234,-0.7569989,,-0.091470145,0.25933817,-0.08651054,0.9843574,0.10743606,0.13963498,-0.16930468,0.7961168,0.5809767,-0.048747912,-0.5955296,0.80185294,,-0.023443067,0.41418827,-0.3676027,0.11307242,0.83169925,-0.54359084,-0.9763036,0.19460274,0.09466302,0.18451543,0.5200059,0.83399516,,0.8805846159834497,0.3713321647913371,0.19629200954,0.8624547375518486,-0.005602096490383059,0.8527201716711517,-0.4021530908225953,,-0.9103789194122078,-0.24590726018105682,0.18385799586,0.8230330281767582,0.7647544891871703,0.2284666101574746,0.8761775707442738,,-0.04730714937530631,-0.07404341185429444,0.0795457676,-0.07163176773016745,,-3.01674e-05,2.8014183e-06,-2.7418137e-06,1.0,2.6676804e-05,2.2858381e-05,-2.668053e-05,0.99999994,2.771616e-06,-2.2854656e-05,-2.8908253e-06,1.0,267,0.829,0,1,0.569,False,-0.26327396557936344,1.05105995378367
0.8349335220118519,13:36:11.993080,13:35:57.886152,0,,0.12532996,0.0018702,0.024887875,-0.97306734,-0.19211102,-0.12741013,-0.16426806,0.19010106,0.96792424,-0.16172811,0.96278495,-0.21653879,,0.06021572,-0.01683779,0.042561352,0.008006546,-0.87701625,0.48039362,-0.33618322,0.45008504,0.8272872,-0.94176245,-0.16812408,-0.2912346,,0.10710897,1.3441335,0.44330022,0.9957948,0.018114567,-0.08980337,-0.044524092,-0.7610056,-0.6472156,-0.0800649,0.64849234,-0.7569989,,-0.09132016,0.25948745,-0.08607764,0.98393834,0.10728786,0.14266983,-0.17106189,0.79513663,0.58180374,-0.051021527,-0.59686434,0.80071825,,-0.023441665,0.41418675,-0.36760518,0.11308,0.8316977,-0.54359156,-0.97630554,0.1946012,0.09464593,0.18450037,0.5200089,0.8339966,,0.881936094236439,0.3720658244143884,0.19668348912000003,0.8597287682865499,-0.0069684614880374625,0.8530175633067101,-0.401826402690327,,-0.9103711966793336,-0.2459227056468053,0.18385669957000003,0.8230330281767582,0.7647544891871703,0.2284666101574746,0.8761775707442738,,-0.04730714937530631,-0.07404341185429444,0.0795457676,-0.07163176773016745,,-3.01674e-05,2.8014183e-06,-2.7418137e-06,1.0,2.6676804e-05,2.2858381e-05,-2.668053e-05,0.99999994,2.771616e-06,-2.2854656e-05,-2.8908253e-06,1.0,275,0.853,0,1,0.569,False,-0.2629164992682367,1.0507702725789931
0.8761206780036446,13:36:12.020393,13:35:57.886152,0,,0.12530832,0.0020198524,0.024816126,-0.9728413,-0.19208297,-0.12916598,-0.16601555,0.19014448,0.96761763,-0.16130267,0.9627819,-0.21686918,,0.06021329,-0.016835362,0.04256177,0.008205707,-0.87703544,0.48035526,-0.33617806,0.44999164,0.82734007,-0.9417626,-0.16827387,-0.29114765,,0.10710897,1.3441335,0.44330022,0.9957948,0.018114567,-0.08980337,-0.044524092,-0.7610056,-0.6472156,-0.0800649,0.64849234,-0.7569989,,-0.09129284,0.25955197,-0.08592566,0.9836818,0.107260056,0.14444867,-0.17208901,0.7951652,0.5814617,-0.052492935,-0.5968313,0.8006478,,-0.023439573,0.41418862,-0.36760318,0.11288234,0.8317405,-0.54356724,-0.9763296,0.19442889,0.09475187,0.18449415,0.520005,0.8340004,,0.8822913399486534,0.3724674065238481,0.19681830328000002,0.8582609386821582,-0.008198189985926425,0.8524684283773072,-0.4010096823596555,,-0.9103634739464594,-0.24591498291393107,0.18385669957000003,0.8228233382332736,0.7648911256869357,0.2283551922537781,0.8761775707442738,,-0.04730714937530631,-0.07404341185429444,0.0795457676,-0.07163176773016745,,-3.01674e-05,2.8014183e-06,-2.7418137e-06,1.0,2.6676804e-05,2.2858381e-05,-2.668053e-05,0.99999994,2.771616e-06,-2.2854656e-05,-2.8908253e-06,1.0,292,0.907,0,1,0.569,False,-0.26327396557936344,1.0501909101696396
0.9033659120032098,13:36:12.063923,13:35:57.886152,0,,0.1252292,0.002250731,0.024726942,-0.9718026,-0.19258907,-0.13604842,-0.17281108,0.18916562,0.96661913,-0.16042462,0.9628737,-0.21711326,,0.06021329,-0.016835362,0.04256177,0.008205707,-0.87707466,0.48028365,-0.33617806,0.44992408,0.82737684,-0.9417626,-0.16825008,-0.29116142,,0.10710897,1.3441335,0.44330022,0.9957948,0.018114567,-0.08980337,-0.044524092,-0.7610056,-0.6472156,-0.0800649,0.64849234,-0.7569989,,-0.09120701,0.25966868,-0.085709915,0.98259217,0.10775938,0.15132943,-0.1766109,0.7945303,0.5809735,-0.05763047,-0.59758645,0.7997307,,-0.023439573,0.41418862,-0.36760318,0.11288234,0.83178484,-0.5434993,-0.9763296,0.19442116,0.09476776,0.18449415,0.51993686,0.8340429,,0.8830095541059562,0.3730929478866603,0.19700496904000003,0.8523896202645915,-0.0121606484791242,0.8525140767190215,-0.40280646708713264,,-0.9103634739464594,-0.24591498291393107,0.18385669957000003,0.8228233382332736,0.7648911256869357,0.22843687099391863,0.8760142266781396,,-0.04730714937530631,-0.07404341185429444,0.0795457676,-0.07163176773016745,,-3.01674e-05,2.8014183e-06,-2.7418137e-06,1.0,2.6676804e-05,2.2858381e-05,-2.668053e-05,0.99999994,2.771616e-06,-2.2854656e-05,-2.8908253e-06,1.0,300,0.931,0,1,0.569,False,-0.2631548101423209,1.0496115477602863
0.9469501280109398,13:36:12.093769,13:35:58.053715,0,,0.12512434,0.0023430288,0.024725348,-0.9715098,-0.19303511,-0.13749933,-0.17430441,0.18886605,0.9664095,-0.160582,0.9628432,-0.21713209,,0.0602122,-0.016837656,0.042562246,0.008493578,-0.87722826,0.47999817,-0.3361013,0.44958454,0.8275926,-0.9417875,-0.16835722,-0.291019,,0.10710897,1.3441335,0.44330022,0.9957948,0.018114567,-0.08980337,-0.044524092,-0.7610056,-0.6472156,-0.0800649,0.64849234,-0.7569989,,-0.0911027,0.25974247,-0.08565344,0.9823188,0.10820731,0.15277717,-0.17784226,0.79431444,0.580893,-0.05849624,-0.5977924,0.7995139,,-0.023438277,0.41418806,-0.36760536,0.11259093,0.83198476,-0.5432538,-0.9763513,0.19418176,0.095034696,0.18455738,0.5197065,0.8341725,,0.8837509364618817,0.3732010661468994,0.19704515403000003,0.8507121007167153,-0.012297284978889642,0.8522171009220152,-0.40264312302099825,,-0.9103557512135853,-0.24593815111255374,0.18385669957000003,0.8224039583463044,0.7653010351862319,0.22859268972367291,0.8753608504136026,,-0.04730714937530631,-0.07404341185429444,0.0795457676,-0.07163176773016745,,-3.01674e-05,2.8014183e-06,-2.7418137e-06,1.0,2.6676804e-05,2.2858381e-05,-2.668053e-05,0.99999994,2.771616e-06,-2.2854656e-05,-2.8908253e-06,1.0,317,0.985,0,1,0.569,False,-0.26243987752006825,1.0485976635439174
0.9767529529926833,13:36:12.143669,13:35:58.053715,0,,0.124780394,0.0024010688,0.024731278,-0.9720276,-0.19010857,-0.13791661,-0.1740106,0.18854013,0.96652615,-0.1577421,0.96348906,-0.21634707,,0.060207695,-0.016833663,0.042565644,0.008870031,-0.87730104,0.47985825,-0.33589983,0.44937885,0.8277861,-0.9418559,-0.1685268,-0.29069933,,0.10710897,1.3441335,0.44330022,0.9957948,0.018114567,-0.08980337,-0.044524092,-0.7610056,-0.6472156,-0.0800649,0.64849234,-0.7569989,,-0.09076075,0.2598103,-0.08564037,0.98258746,0.105236806,0.15312442,-0.17569797,0.7943266,0.58152854,-0.060432598,-0.5983063,0.79898524,,-0.02343457,0.41419354,-0.36760336,0.11220155,0.8320951,-0.5431654,-0.9763606,0.19394411,0.095423535,0.18474518,0.5196186,0.83418566,,0.8855812241530729,0.3726218611813326,0.19704645032,0.851760550434138,-0.012980467477716843,0.8523657967397944,-0.4021530908225954,,-0.9103403057478368,-0.2459227056468053,0.18385540328000002,0.8224039583463044,0.7655743081857628,0.22861489013670178,0.8742174419506625,,-0.04730714937530631,-0.07404341185429444,0.0795457676,-0.07163176773016745,,-3.01674e-05,2.8014183e-06,-2.7418137e-06,1.0,2.6676804e-05,2.2858381e-05,-2.668053e-05,0.99999994,2.771616e-06,-2.2854656e-05,-2.8908253e-06,1.0,330,1.025,0,1,0.569,False,-0.26327396557936344,1.049418426957168
1.0267350999929477,13:36:12.189381,13:35:58.053715,0,,0.124393426,0.002508834,0.024767965,-0.9727459,-0.18593287,-0.13854359,-0.1734778,0.18712363,0.96689713,-0.15385318,0.96457946,-0.21427897,,0.060202986,-0.016832873,0.04256302,0.008849477,-0.87731266,0.47983736,-0.3359037,0.4493644,0.8277924,-0.9418547,-0.16850469,-0.290716,,0.10710897,1.3441335,0.44330022,0.9957948,0.018114567,-0.08980337,-0.044524092,-0.7610056,-0.6472156,-0.0800649,0.64849234,-0.7569989,,-0.09037877,0.25993815,-0.08561943,0.9829641,0.100986734,0.15356849,-0.17266423,0.7937502,0.5832218,-0.06299736,-0.59980184,0.79766476,,-0.023429766,0.4141923,-0.3676011,0.11222222,0.8321063,-0.5431439,-0.9763588,0.19395752,0.0954151,0.18474235,0.5195956,0.8342006,,0.8877513120907301,0.37222800180474713,0.19704385774000002,0.8534380699820142,-0.014346832475371248,0.8534799757767586,-0.4021530908225954,,-0.9103094148163399,-0.24591498291393107,0.18385540328000002,0.8224039583463044,0.7655743081857628,0.22861489013670172,0.8745441300829311,,-0.04730714937530631,-0.07404341185429444,0.0795457676,-0.07163176773016745,,-3.01674e-05,2.8014183e-06,-2.7418137e-06,1.0,2.6676804e-05,2.2858381e-05,-2.668053e-05,0.99999994,2.771616e-06,-2.2854656e-05,-2.8908253e-06,1.0,343,1.066,0,1,0.569,False,-0.26273776611267374,1.0500943497680806
1.0724079200008418,13:36:12.224599,13:35:58.053715,0,,0.1242613,0.002635941,0.024828583,-0.9731484,-0.1841564,-0.13808899,-0.1724831,0.18616632,0.96725976,-0.15241958,0.96510535,-0.21293128,,0.060199697,-0.016832843,0.042562008,0.008924667,-0.8771486,0.4801358,-0.33581495,0.4496401,0.8276787,-0.9418856,-0.16862363,-0.29054677,,0.10710897,1.3441335,0.44330022,0.9957948,0.018114567,-0.08980337,-0.044524092,-0.7610056,-0.6472156,-0.0800649,0.64849234,-0.7569989,,-0.090252794,0.26008096,-0.08558734,0.9832376,0.09917439,0.1529976,-0.1709449,0.79328305,0.58436275,-0.06341659,-0.6007216,0.7969391,,-0.023426425,0.41419187,-0.36760038,0.11214047,0.83192307,-0.54344136,-0.9763515,0.19396976,0.09546459,0.18483038,0.51988435,0.8340012,,0.8887707128301277,0.3725600793183388,0.19704645032,0.8546962096429211,-0.01462010547490213,0.8538661690644327,-0.4024797789548642,,-0.9102862466177172,-0.24591498291393107,0.18385540328000002,0.8224039583463044,0.7657109446855282,0.2282584360125836,0.8750341622813339,,-0.04730714937530631,-0.07404341185429444,0.0795457676,-0.07163176773016745,,-3.01674e-05,2.8014183e-06,-2.7418137e-06,1.0,2.6676804e-05,2.2858381e-05,-2.668053e-05,0.99999994,2.771616e-06,-2.2854656e-05,-2.8908253e-06,1.0,352,1.094,0,1,0.569,False,-0.26297607698675796,1.0499495091657423
1.1076616270001978,13:36:12.263385,13:35:58.186253,0,,0.1242484,0.0028051436,0.024910092,-0.97318417,-0.18402171,-0.13801669,-0.17224531,0.18530244,0.967468,-0.1524603,0.96529734,-0.21203023,,0.060186364,-0.016832009,0.04255563,0.008867751,-0.87714,0.48015267,-0.33583018,0.4496698,0.82765627,-0.9418807,-0.16858926,-0.29058263,,0.10710897,1.3441335,0.44330022,0.9957948,0.018114567,-0.08980337,-0.044524092,-0.7610056,-0.6472156,-0.0800649,0.64849234,-0.7569989,,-0.09024755,0.26026174,-0.08553509,0.983276,0.09902627,0.15284675,-0.17079337,0.7927617,0.5851142,-0.063229375,-0.60143393,0.7964165,,-0.023412766,0.4141886,-0.36759576,0.11219811,0.83190817,-0.5434523,-0.97634727,0.1940128,0.09542054,0.18481784,0.51989216,0.8339991,,0.8893344723299461,0.373394134468755,0.19705941322,0.8546962096429211,-0.01462010547490213,0.853784490324292,-0.4023164348887298,,-0.9102012965561007,-0.2458995374481826,0.18385410699000002,0.8224039583463044,0.7657109446855282,0.22817675727244313,0.8755241944797368,,-0.04730714937530631,-0.07404341185429444,0.0795457676,-0.07163176773016745,,-3.01674e-05,2.8014183e-06,-2.7418137e-06,1.0,2.6676804e-05,2.2858381e-05,-2.668053e-05,0.99999994,2.771616e-06,-2.2854656e-05,-2.8908253e-06,1.0,365,1.136,0,1,0.569,False,-0.26309523242380006,1.049804668563404
1.1464394000067841,13:36:12.297730,13:35:58.186253,0,,0.12436851,0.0029428005,0.024954781,-0.9731741,-0.18379778,-0.13838516,-0.17246617,0.18469018,0.96754575,-0.1522744,0.9654573,-0.21143457,,0.060172193,-0.016836569,0.04254675,0.008797952,-0.8772066,0.48003212,-0.33587506,0.44956833,0.8276932,-0.9418653,-0.16851288,-0.29067665,,0.10710897,1.3441335,0.44330022,0.9957948,0.018114567,-0.08980337,-0.044524092,-0.7610056,-0.6472156,-0.0800649,0.64849234,-0.7569989,,-0.09037151,0.2603865,-0.08546844,0.98325056,0.098791234,0.15316194,-0.17083392,0.7924003,0.5855916,-0.063514255,-0.6019485,0.79600495,,-0.02339744,0.41418058,-0.36759445,0.112270914,0.8319789,-0.5433289,-0.97634697,0.19403715,0.095374025,0.18477517,0.5197698,0.8340848,,0.8890796221450967,0.37437492154378155,0.19709700563000002,0.8546962096429211,-0.01571319747302565,0.8538590461524578,-0.403623187417804,,-0.9101009010287358,-0.24591498291393107,0.1838528107,0.8224039583463044,0.7657109446855282,0.22825843601258367,0.875687538545871,,-0.04730714937530631,-0.07404341185429444,0.0795457676,-0.07163176773016745,,-3.01674e-05,2.8014183e-06,-2.7418137e-06,1.0,2.6676804e-05,2.2858381e-05,-2.668053e-05,0.99999994,2.771616e-06,-2.2854656e-05,-2.8908253e-06,1.0,378,1.177,0,1,0.569,False,-0.2626781883941529,1.0492253061540504
1.1806762710039038,13:36:12.336391,13:35:58.186253,0,,0.12456443,0.0030273795,0.025011957,-0.9724666,-0.18618442,-0.14015758,-0.17471483,0.18447429,0.9671834,-0.15421902,0.9650412,-0.21192425,,0.060152758,-0.016838938,0.04253906,0.009007636,-0.87736106,0.47974584,-0.33582324,0.44924644,0.827889,-0.9418819,-0.16856718,-0.29059172,,0.10710897,1.3441335,0.44330022,0.9957948,0.018114567,-0.08980337,-0.044524092,-0.7610056,-0.6472156,-0.0800649,0.64849234,-0.7569989,,-0.09057192,0.26047558,-0.08544187,0.9827214,0.10120562,0.15497129,-0.17384358,0.7921066,0.585103,-0.06353807,-0.601934,0.7960141,,-0.02337727,0.41417542,-0.36759156,0.112058975,0.83217305,-0.54307526,-0.9763634,0.19385199,0.09558183,0.18481685,0.51952803,0.8342262,,0.8883536852549195,0.3753479858859338,0.19710219079000002,0.8519702403776224,-0.016259743472087414,0.8534062516256973,-0.4024797789548641,,-0.9099773373027482,-0.2459227056468053,0.18385021812000002,0.8221942684028201,0.7659842176850592,0.22836231516575306,0.8747074741490655,,-0.04730714937530631,-0.07404341185429444,0.0795457676,-0.07163176773016745,,-3.01674e-05,2.8014183e-06,-2.7418137e-06,1.0,2.6676804e-05,2.2858381e-05,-2.668053e-05,0.99999994,2.771616e-06,-2.2854656e-05,-2.8908253e-06,1.0,391,1.218,0,1,0.569,False,-0.26249945523859,1.048742504146256
1.2194608940044418,13:36:12.376045,13:35:58.330387,0,,0.12466875,0.0030650496,0.025062442,-0.97241116,-0.18655275,-0.14005259,-0.17459702,0.1838887,0.9673162,-0.15470144,0.9650818,-0.21138698,,0.06013243,-0.016840756,0.042529464,0.009094553,-0.8772972,0.47986114,-0.33567578,0.44935632,0.8278892,-0.94193363,-0.16860709,-0.2904008,,0.10710897,1.3441335,0.44330022,0.9957948,0.018114567,-0.08980337,-0.044524092,-0.7610056,-0.6472156,-0.0800649,0.64849234,-0.7569989,,-0.09068033,0.26053095,-0.085447475,0.9827076,0.10157088,0.15481967,-0.17408134,0.7917213,0.5855537,-0.06309882,-0.60237926,0.7957121,,-0.023356093,0.41416895,-0.36758718,0.11196078,0.83210087,-0.5432062,-0.97634655,0.19386351,0.09573061,0.18496539,0.51963943,0.8341239,,0.8879752713440826,0.37588085445425534,0.19708404273000002,0.8519702403776224,-0.01639637997185285,0.8537627057498154,-0.40264312302099836,,-0.9098383281110122,-0.2459227056468053,0.18384892183,0.8221942684028201,0.76625749068459,0.22813947935836026,0.8747074741490655,,-0.04730714937530631,-0.07404341185429444,0.0795457676,-0.07163176773016745,,-3.01674e-05,2.8014183e-06,-2.7418137e-06,1.0,2.6676804e-05,2.2858381e-05,-2.668053e-05,0.99999994,2.771616e-06,-2.2854656e-05,-2.8908253e-06,1.0,404,1.259,0,1,0.569,False,-0.26339312101640555,1.0484045427407995
1.2591052330099046,13:36:12.416967,13:35:58.330387,0,,0.12471663,0.0030926317,0.025247872,-0.9729997,-0.18203351,-0.141899,-0.17490166,0.18036023,0.9679253,-0.15060194,0.9666095,-0.20732841,,0.06010813,-0.016840875,0.042515397,0.009187921,-0.877443,0.47959268,-0.3357203,0.44906786,0.82802767,-0.9419168,-0.16861689,-0.2904495,,0.10710897,1.3441335,0.44330022,0.9957948,0.018114567,-0.08980337,-0.044524092,-0.7610056,-0.6472156,-0.0800649,0.64849234,-0.7569989,,-0.09074421,0.26067224,-0.08556319,0.9829394,0.09694729,0.15630521,-0.17153662,0.7898479,0.58882546,-0.06637231,-0.60559183,0.79300267,,-0.02333079,0.41416,-0.3675789,0.11187196,0.8322787,-0.54295194,-0.9763666,0.19373193,0.09579288,0.1849135,0.5194036,0.8342823,,0.8878285394194723,0.37669946413892313,0.19694145083000003,0.8538574498689832,-0.020768747964346947,0.8575731148885226,-0.40280646708713275,,-0.9096761507206534,-0.24591498291393107,0.18384892183,0.8219845784593355,0.7663941271843555,0.22819141893494477,0.8740540978845281,,-0.04730714937530631,-0.07404341185429444,0.0795457676,-0.07163176773016745,,-3.01674e-05,2.8014183e-06,-2.7418137e-06,1.0,2.6676804e-05,2.2858381e-05,-2.668053e-05,0.99999994,2.771616e-06,-2.2854656e-05,-2.8908253e-06,1.0,413,1.288,0,1,0.569,False,-0.2629164992682367,1.047680339729108
1.3000354249961674,13:36:12.449321,13:35:58.330387,0,,0.12471292,0.0030897558,0.025423437,-0.97326094,-0.18014693,-0.1425137,-0.17486505,0.17876273,0.9682282,-0.14894725,0.9672594,-0.20548409,,0.060098067,-0.016839266,0.042512357,0.009237774,-0.8774125,0.47964737,-0.33563173,0.44912085,0.8280349,-0.941948,-0.16863409,-0.29033864,,0.10710897,1.3441335,0.44330022,0.9957948,0.018114567,-0.08980337,-0.044524092,-0.7610056,-0.6472156,-0.0800649,0.64849234,-0.7569989,,-0.09075572,0.2607875,-0.08569524,0.98305607,0.09501648,0.15675668,-0.17038962,0.7889816,0.5903181,-0.06758819,-0.60702544,0.79180294,,-0.02332075,0.41415957,-0.36757544,0.11181532,0.8322441,-0.5430166,-0.97635615,0.19373928,0.09588438,0.18500286,0.51945627,0.83422965,,0.8879598258783341,0.3771628281113766,0.19678848861,0.8546962096429211,-0.022408385961532235,0.8590734872131609,-0.4024797789548641,,-0.9096143688576597,-0.2458995374481826,0.18384762554000003,0.8219845784593355,0.7665307636841209,0.22808000103124842,0.8737274097522598,,-0.04730714937530631,-0.07404341185429444,0.0795457676,-0.07163176773016745,,-3.01674e-05,2.8014183e-06,-2.7418137e-06,1.0,2.6676804e-05,2.2858381e-05,-2.668053e-05,0.99999994,2.771616e-06,-2.2854656e-05,-2.8908253e-06,1.0,426,1.329,0,1,0.569,False,-0.26339312101640555,1.0480665813353434
1.3323862820107024,13:36:12.489419,13:35:58.330387,0,,0.124659404,0.0030804425,0.02563849,-0.97358984,-0.17703037,-0.14416322,-0.17538884,0.17571667,0.968691,-0.14615586,0.9683923,-0.20212513,,0.060084146,-0.01683931,0.042502165,0.009169684,-0.877446,0.47958753,-0.33565807,0.44907942,0.82804656,-0.9419392,-0.1685704,-0.290404,,0.10710897,1.3441335,0.44330022,0.9957948,0.018114567,-0.08980337,-0.044524092,-0.7610056,-0.6472156,-0.0800649,0.64849234,-0.7569989,,-0.09072103,0.2609273,-0.0858639,0.98314327,0.09182298,0.15810719,-0.16889611,0.78728783,0.5930025,-0.07002462,-0.6097101,0.7895253,,-0.023306068,0.41415262,-0.36756957,0.111884914,0.8322763,-0.542953,-0.9763526,0.193778,0.095842004,0.18497936,0.5193903,0.83427596,,0.8883227943234226,0.37761074661808164,0.1965953414,0.8555349694168595,-0.02514111595684104,0.8621186326884949,-0.40280646708713264,,-0.9095139733302947,-0.24589181471530838,0.18384892183,0.8219845784593355,0.7665307636841209,0.22808000103124842,0.8737274097522598,,-0.04730714937530631,-0.07404341185429444,0.0795457676,-0.07163176773016745,,-3.01674e-05,2.8014183e-06,-2.7418137e-06,1.0,2.6676804e-05,2.2858381e-05,-2.668053e-05,0.99999994,2.771616e-06,-2.2854656e-05,-2.8908253e-06,1.0,435,1.356,0,1,0.569,False,-0.26190367805337944,1.048114861536123
1.3724360780033749,13:36:12.517254,13:35:58.330387,0,,0.12463366,0.0030643046,0.025726184,-0.97334635,-0.17790096,-0.14473447,-0.1759283,0.1743339,0.968843,-0.14712596,0.96848273,-0.20098516,,0.060078666,-0.016839534,0.04249966,0.009234217,-0.87740433,0.4796624,-0.33557427,0.4491464,0.8280443,-0.9419684,-0.16860875,-0.2902869,,0.10710897,1.3441335,0.44330022,0.9957948,0.018114567,-0.08980337,-0.044524092,-0.7610056,-0.6472156,-0.0800649,0.64849234,-0.7569989,,-0.09070294,0.2609754,-0.08594119,0.9829865,0.09268678,0.15857695,-0.16995859,0.7863742,0.59391046,-0.069653176,-0.6107575,0.7887482,,-0.023300404,0.41415113,-0.36756822,0.11181412,0.83223087,-0.5430372,-0.9763449,0.19377258,0.09593151,0.18506287,0.5194651,0.8342109,,0.8885313081110268,0.37768025121394966,0.19650978626,0.8544865196994368,-0.02445793345801384,0.863195117972824,-0.40084633829352123,,-0.9094753596659236,-0.24589181471530838,0.18384892183,0.8219845784593355,0.7666674001838863,0.22796858312755203,0.8737274097522598,,-0.04730714937530631,-0.07404341185429444,0.0795457676,-0.07163176773016745,,-3.01674e-05,2.8014183e-06,-2.7418137e-06,1.0,2.6676804e-05,2.2858381e-05,-2.668053e-05,0.99999994,2.771616e-06,-2.2854656e-05,-2.8908253e-06,1.0,448,1.398,0,1,0.569,False,-0.26232072208302704,1.048452822941579
1.400303823989816,13:36:12.557918,13:35:58.472949,0,,0.12457198,0.0030346513,0.025831193,-0.9724265,-0.18271688,-0.14491796,-0.17704757,0.17394319,0.96870923,-0.15179205,0.967656,-0.2014966,,0.06007348,-0.016838104,0.042496443,0.009299323,-0.87736464,0.47973374,-0.3354843,0.44921082,0.8280458,-0.9419998,-0.16864341,-0.29016477,,0.10710897,1.3441335,0.44330022,0.9957948,0.018114567,-0.08980337,-0.044524092,-0.7610056,-0.6472156,-0.0800649,0.64849234,-0.7569989,,-0.09065051,0.26102716,-0.0860426,0.9824783,0.09755745,0.15880455,-0.17395848,0.7858235,0.59348106,-0.066893846,-0.6107077,0.78902555,,-0.023295145,0.41414973,-0.36756507,0.11174226,0.83218735,-0.54311866,-0.97633606,0.19376937,0.096027665,0.18515275,0.51953596,0.83414674,,0.8890332857478513,0.3775489647550878,0.19639960161000003,0.8509217906601998,-0.020495474964816067,0.8625777184501258,-0.4024797789548641,,-0.9094367460015524,-0.24588409198243416,0.18385021812000002,0.8219845784593355,0.7668040366836517,0.22785716522385557,0.8740540978845281,,-0.04730714937530631,-0.07404341185429444,0.0795457676,-0.07163176773016745,,-3.01674e-05,2.8014183e-06,-2.7418137e-06,1.0,2.6676804e-05,2.2858381e-05,-2.668053e-05,0.99999994,2.771616e-06,-2.2854656e-05,-2.8908253e-06,1.0,461,1.439,0,1,0.569,False,-0.2621419889274632,1.049080465551712
1.440952261997154,13:36:12.603730,13:35:58.472949,0,,0.12440824,0.0029587448,0.025984764,-0.971124,-0.187837,-0.14708982,-0.1800811,0.17272395,0.96836823,-0.15648946,0.9668937,-0.20156235,,0.060066916,-0.016838863,0.04249209,0.009267611,-0.8773792,0.47970775,-0.33549932,0.4491929,0.8280494,-0.9419948,-0.16861574,-0.29019725,,0.10710897,1.3441335,0.44330022,0.9957948,0.018114567,-0.08980337,-0.044524092,-0.7610056,-0.6472156,-0.0800649,0.64849234,-0.7569989,,-0.09050046,0.26108316,-0.086217254,0.98159766,0.1027282,0.16097498,-0.17942351,0.78471917,0.59331524,-0.06536995,-0.61127955,0.78871036,,-0.023288183,0.41414648,-0.3675632,0.111774884,0.8322013,-0.5430905,-0.9763349,0.19378622,0.09600503,0.18513897,0.51950735,0.83416766,,0.8899677364256325,0.37711649171413125,0.19621812101000002,0.8454698521296021,-0.016942925970914614,0.8627029663392196,-0.4010096823596555,,-0.9093904096043072,-0.24588409198243416,0.18385021812000002,0.8219845784593355,0.7668040366836517,0.22785716522385557,0.8740540978845281,,-0.04730714937530631,-0.07404341185429444,0.0795457676,-0.07163176773016745,,-3.01674e-05,2.8014183e-06,-2.7418137e-06,1.0,2.6676804e-05,2.2858381e-05,-2.668053e-05,0.99999994,2.771616e-06,-2.2854656e-05,-2.8908253e-06,1.0,474,1.48,0,1,0.569,False,-0.2626186106756321,1.0482597021384612
1.4867993649968412,13:36:12.636987,13:35:58.472949,0,,0.12430021,0.0029381067,0.026105404,-0.9690747,-0.19608927,-0.14980973,-0.18427537,0.17127568,0.96783626,-0.16412358,0.96551204,-0.20211336,,0.06006582,-0.016838998,0.042491376,0.0092623485,-0.8774208,0.47963178,-0.33550182,0.4491223,0.8280867,-0.9419939,-0.16858745,-0.29021642,,0.10710897,1.3441335,0.44330022,0.9957948,0.018114567,-0.08980337,-0.044524092,-0.7610056,-0.6472156,-0.0800649,0.64849234,-0.7569989,,-0.090403244,0.26115486,-0.08632706,0.98023146,0.11107372,0.16373408,-0.18775485,0.7832207,0.592717,-0.06240464,-0.6117417,0.7885922,,-0.023287022,0.41414595,-0.36756286,0.111780316,0.832248,-0.54301786,-0.97633475,0.19378118,0.096017085,0.18513668,0.51943445,0.83421355,,0.8907940688431745,0.37690025519365294,0.19609626975000002,0.8375016342771904,-0.011614102480062437,0.8623599263619466,-0.40149971455805833,,-0.9093826868714329,-0.24588409198243416,0.18385021812000002,0.8219845784593355,0.7668040366836517,0.22793884396399622,0.8742174419506625,,-0.04730714937530631,-0.07404341185429444,0.0795457676,-0.07163176773016745,,-3.01674e-05,2.8014183e-06,-2.7418137e-06,1.0,2.6676804e-05,2.2858381e-05,-2.668053e-05,0.99999994,2.771616e-06,-2.2854656e-05,-2.8908253e-06,1.0,483,1.509,0,1,0.569,False,-0.26255903295711036,1.048549383343138
1.5200569329899736,13:36:12.669504,13:35:58.623787,0,,0.1242024,0.002938822,0.026304036,-0.966466,-0.20657288,-0.1525484,-0.18781213,0.16347831,0.96850467,-0.17512843,0.96467733,-0.19679323,,0.060065154,-0.016839013,0.042491972,0.009465396,-0.8774335,0.47960463,-0.33550593,0.4490368,0.8281314,-0.9419905,-0.16874881,-0.2901339,,0.10710897,1.3441335,0.44330022,0.9957948,0.018114567,-0.08980337,-0.044524092,-0.7610056,-0.6472156,-0.0800649,0.64849234,-0.7569989,,-0.09032303,0.26129383,-0.08647961,0.9785981,0.12161466,0.16599892,-0.19788094,0.77750856,0.5969285,-0.056470323,-0.6170011,0.7849336,,-0.023286413,0.41414654,-0.36756316,0.11157952,0.83228445,-0.5430033,-0.9763608,0.19360198,0.09611368,0.18512043,0.5194428,0.83421195,,0.8918289150483206,0.3768770869950303,0.19591867802000001,0.8282752767638711,-0.00300600299483969,0.8675924094501565,-0.3998662738967155,,-0.9093826868714329,-0.24589181471530838,0.18385021812000002,0.8217748885158509,0.7669406731834172,0.22782742606029982,0.8742174419506625,,-0.04730714937530631,-0.07404341185429444,0.0795457676,-0.07163176773016745,,-3.01674e-05,2.8014183e-06,-2.7418137e-06,1.0,2.6676804e-05,2.2858381e-05,-2.668053e-05,0.99999994,2.771616e-06,-2.2854656e-05,-2.8908253e-06,1.0,496,1.55,0,1,0.569,False,-0.26232072208302704,1.0477769001306665
1.552574983012164,13:36:12.708438,13:35:58.623787,0,,0.12403694,0.0029358417,0.026616722,-0.9664935,-0.20841384,-0.14984614,-0.18414299,0.15623686,0.9704026,-0.17883387,0.96548104,-0.18937984,,0.06006198,-0.016838461,0.042490244,0.00956756,-0.87750673,0.47946858,-0.3356052,0.44886094,0.8281865,-0.9419541,-0.16883591,-0.29020143,,0.10710897,1.3441335,0.44330022,0.9957948,0.018114567,-0.08980337,-0.044524092,-0.7610056,-0.6472156,-0.0800649,0.64849234,-0.7569989,,-0.090185314,0.26151025,-0.08672322,0.97893536,0.12340172,0.16265793,-0.19762768,0.77277994,0.6031206,-0.051272664,-0.6225618,0.7808892,,-0.02328318,0.41414574,-0.36756164,0.11148649,0.8323845,-0.54286903,-0.9763922,0.19345,0.096101,0.185011,0.5193391,0.8343008,,0.8932112842328068,0.37703926438538904,0.19563738309000003,0.8291140365378092,0.0028693664950742498,0.873501354549624,-0.40198974675646126,,-0.9093672414056845,-0.24589181471530838,0.18385021812000002,0.8215651985723664,0.7669406731834172,0.22782742606029976,0.873890753818394,,-0.04730714937530631,-0.07404341185429444,0.0795457676,-0.07163176773016745,,-3.01674e-05,2.8014183e-06,-2.7418137e-06,1.0,2.6676804e-05,2.2858381e-05,-2.668053e-05,0.99999994,2.771616e-06,-2.2854656e-05,-2.8908253e-06,1.0,509,1.591,0,1,0.569,False,-0.26285692154971585,1.0469078565166363
1.591479282011278,13:36:12.754195,13:35:58.623787,0,,0.12380913,0.0029056668,0.027032852,-0.96527714,-0.21176626,-0.15295477,-0.1876882,0.15496379,0.9699274,-0.18169548,0.9649565,-0.189329,,0.060054567,-0.016836047,0.04248905,0.00989472,-0.87742823,0.4796056,-0.33523095,0.44896236,0.82828313,-0.9420839,-0.16897435,-0.28969884,,0.10710897,1.3441335,0.44330022,0.9957948,0.018114567,-0.08980337,-0.044524092,-0.7610056,-0.6472156,-0.0800649,0.64849234,-0.7569989,,-0.08999435,0.26177928,-0.08706548,0.9779828,0.12679097,0.1657519,-0.2022425,0.77168745,0.6029896,-0.05145503,-0.6232355,0.78033954,,-0.023276014,0.4141469,-0.36755854,0.11113169,0.8323075,-0.54305977,-0.97636235,0.19337071,0.09656231,0.1853814,0.51949203,0.8341234,,0.8947944444720228,0.37733272823460956,0.19524979238,0.8238717879506963,0.004509004492259535,0.8728994483665319,-0.40149971455805833,,-0.9093131822755649,-0.24588409198243416,0.18385151441000003,0.8215651985723664,0.767487219182479,0.22762679066593583,0.8727473453554542,,-0.04730714937530631,-0.07404341185429444,0.0795457676,-0.07163176773016745,,-3.01674e-05,2.8014183e-06,-2.7418137e-06,1.0,2.6676804e-05,2.2858381e-05,-2.668053e-05,0.99999994,2.771616e-06,-2.2854656e-05,-2.8908253e-06,1.0,518,1.619,0,1,0.569,False,-0.261427056305211,1.047294098122872
1.6372249429987278,13:36:12.778429,13:35:58.623787,0,,0.12374487,0.0028918982,0.027179897,-0.96501714,-0.21302728,-0.15284353,-0.18748201,0.15315524,0.9702545,-0.18328188,0.9649677,-0.18773633,,0.060052384,-0.01683633,0.04248756,0.009884165,-0.87747216,0.47952533,-0.33523595,0.4488887,0.828321,-0.9420822,-0.16894144,-0.28972346,,0.10710897,1.3441335,0.44330022,0.9957948,0.018114567,-0.08980337,-0.044524092,-0.7610056,-0.6472156,-0.0800649,0.64849234,-0.7569989,,-0.08994304,0.26187104,-0.0871875,0.9778608,0.12805194,0.16550192,-0.20316362,0.7704285,0.6042884,-0.0501271,-0.62453395,0.77938735,,-0.023273693,0.4141458,-0.3675579,0.11114257,0.8323565,-0.54298246,-0.976362,0.19336845,0.09657056,0.18537681,0.5194143,0.8341728,,0.8953118675745959,0.3774254010291002,0.19511238564000002,0.8230330281767582,0.00628527898921026,0.8740647353029765,-0.4011730264257898,,-0.9092977368098164,-0.24588409198243416,0.18385151441000003,0.8215651985723664,0.767487219182479,0.22770846940607636,0.8729106894215883,,-0.04730714937530631,-0.07404341185429444,0.0795457676,-0.07163176773016745,,-3.01674e-05,2.8014183e-06,-2.7418137e-06,1.0,2.6676804e-05,2.2858381e-05,-2.668053e-05,0.99999994,2.771616e-06,-2.2854656e-05,-2.8908253e-06,1.0,531,1.66,0,1,0.569,False,-0.26273776611267374,1.0471975377213132
1.6614731650042813,13:36:12.828863,13:35:58.759645,0,,0.12360553,0.0028946847,0.027405575,-0.96471035,-0.21511617,-0.15185153,-0.1857375,0.14716014,0.97151697,-0.18664256,0.9654371,-0.18192199,,0.060040526,-0.016837701,0.042470157,0.009921755,-0.8776096,0.47927302,-0.33537754,0.44861424,0.82841235,-0.94203156,-0.16895676,-0.28987962,,0.10710897,1.3441335,0.44330022,0.9957948,0.018114567,-0.08980337,-0.044524092,-0.7610056,-0.6472156,-0.0800649,0.64849234,-0.7569989,,-0.089823805,0.26203212,-0.08736126,0.97784114,0.13011107,0.16400546,-0.20412937,0.7664171,0.6090452,-0.046453066,-0.6290278,0.77599365,,-0.023260271,0.41413173,-0.3675497,0.11111695,0.832525,-0.5427294,-0.97639334,0.19323796,0.09651511,0.18522716,0.5191929,0.83434385,,0.8964393865742326,0.3775026283578425,0.19491146069,0.8224039583463044,0.010794283481469795,0.878882533455613,-0.40149971455805844,,-0.9091896185495772,-0.2458995374481826,0.18385929215000002,0.821355508628882,0.767487219182479,0.2277901481462169,0.8730740334877225,,-0.04730714937530631,-0.07404341185429444,0.0795457676,-0.07163176773016745,,-3.01674e-05,2.8014183e-06,-2.7418137e-06,1.0,2.6676804e-05,2.2858381e-05,-2.668053e-05,0.99999994,2.771616e-06,-2.2854656e-05,-2.8908253e-06,1.0,544,1.701,0,1,0.569,False,-0.2620824112089424,1.047294098122872
1.711902682989603,13:36:12.861944,13:35:58.759645,0,,0.12351224,0.0029381663,0.027452111,-0.96410006,-0.21773788,-0.15199082,-0.18621778,0.14635178,0.9715471,-0.18929851,0.9649722,-0.18164444,,0.060021617,-0.01683864,0.042454302,0.0099122515,-0.8776411,0.47921565,-0.33532864,0.44857165,0.8284552,-0.942049,-0.16890666,-0.2898519,,0.10710897,1.3441335,0.44330022,0.9957948,0.018114567,-0.08980337,-0.044524092,-0.7610056,-0.6472156,-0.0800649,0.64849234,-0.7569989,,-0.089735046,0.26210108,-0.08737237,0.97746503,0.13276576,0.16412003,-0.20629494,0.7656652,0.6092612,-0.044771962,-0.6293887,0.7757998,,-0.02324006,0.4141202,-0.3675415,0.111122355,0.8325565,-0.5426799,-0.976383,0.19326414,0.09656768,0.18527862,0.5191326,0.8343699,,0.8971653234644097,0.3774717374263456,0.19488812747,0.8203070589114594,0.013390376977013164,0.8787258830487545,-0.4011730264257899,,-0.909042886624967,-0.2458995374481826,0.18386318102000002,0.821355508628882,0.7676238556822444,0.22776040898266103,0.8725840012893198,,-0.04730714937530631,-0.07404341185429444,0.0795457676,-0.07163176773016745,,-3.01674e-05,2.8014183e-06,-2.7418137e-06,1.0,2.6676804e-05,2.2858381e-05,-2.668053e-05,0.99999994,2.771616e-06,-2.2854656e-05,-2.8908253e-06,1.0,557,1.742,0,1,0.569,False,-0.2630356547052788,1.0471009773197542
1.745014012005413,13:36:12.902096,13:35:58.759645,0,,0.12343848,0.0029895902,0.027476192,-0.96377206,-0.22015205,-0.15058646,-0.18548922,0.1475012,0.9715127,-0.19166885,0.9642491,-0.18299335,,0.060008936,-0.016837522,0.042443097,0.00993501,-0.87762076,0.47925237,-0.3352586,0.4486122,0.8284616,-0.9420737,-0.16890427,-0.28977302,,0.10710897,1.3441335,0.44330022,0.9957948,0.018114567,-0.08980337,-0.044524092,-0.7610056,-0.6472156,-0.0800649,0.64849234,-0.7569989,,-0.08966381,0.2621598,-0.087360345,0.9773416,0.13522992,0.16283806,-0.20735542,0.76618195,0.60825074,-0.042509887,-0.6282341,0.77686214,,-0.023226649,0.4141128,-0.36753422,0.111094065,0.83253163,-0.5427239,-0.9763726,0.19328353,0.09663375,0.18535024,0.5191653,0.83433366,,0.8977985875600961,0.37745629196059716,0.19488942376,0.8194682991375211,0.016259743472087414,0.876712822031692,-0.401826402690327,,-0.9089424910976022,-0.24589181471530838,0.18386706989,0.821355508628882,0.7677604921820099,0.22764899107896452,0.8725840012893198,,-0.04730714937530631,-0.07404341185429444,0.0795457676,-0.07163176773016745,,-3.01674e-05,2.8014183e-06,-2.7418137e-06,1.0,2.6676804e-05,2.2858381e-05,-2.668053e-05,0.99999994,2.771616e-06,-2.2854656e-05,-2.8908253e-06,1.0,566,1.771,0,1,0.569,False,-0.2629164992682367,1.0483079823392407
1.7851627630006988,13:36:12.936936,13:35:58.885352,0,,0.12341491,0.00304088,0.02750282,-0.96133745,-0.22906053,-0.15284455,-0.18926984,0.14646468,0.97094023,-0.20001777,0.9623301,-0.18415624,,0.060002707,-0.016839579,0.042438507,0.009902732,-0.8776724,0.47915834,-0.33527976,0.4485291,0.828498,-0.9420665,-0.16885656,-0.28982425,,0.10710897,1.3441335,0.44330022,0.9957948,0.018114567,-0.08980337,-0.044524092,-0.7610056,-0.6472156,-0.0800649,0.64849234,-0.7569989,,-0.08964281,0.26221704,-0.087347135,0.9756521,0.14427447,0.1651903,-0.2158799,0.7646704,0.60718626,-0.038714644,-0.6280638,0.7771982,,-0.023219846,0.41410866,-0.36753333,0.111127764,0.83258796,-0.5426305,-0.97637254,0.19329032,0.096620254,0.1853301,0.51907235,0.834396,,0.8982851197311723,0.3774717374263456,0.19489201634000003,0.8115000812851093,0.021998476462235912,0.8755454559024864,-0.40133637049192405,,-0.9088961547003568,-0.2458995374481826,0.18386706989,0.821355508628882,0.7677604921820099,0.22773066981910517,0.873400721619991,,-0.04730714937530631,-0.07404341185429444,0.0795457676,-0.07163176773016745,,-3.01674e-05,2.8014183e-06,-2.7418137e-06,1.0,2.6676804e-05,2.2858381e-05,-2.668053e-05,0.99999994,2.771616e-06,-2.2854656e-05,-2.8908253e-06,1.0,579,1.812,0,1,0.569,False,-0.2626186106756321,1.0482114219376817
1.8200045239937026,13:36:12.970621,13:35:58.885352,0,,0.12341207,0.0030935705,0.027535707,-0.9598528,-0.23618908,-0.15131843,-0.18790644,0.14088953,0.9720294,-0.20826359,0.9614389,-0.17961463,,0.059999403,-0.016839102,0.042438686,0.010068604,-0.8776114,0.4792666,-0.3350944,0.4486164,0.8285257,-0.9421307,-0.16894169,-0.2895658,,0.10710897,1.3441335,0.44330022,0.9957948,0.018114567,-0.08980337,-0.044524092,-0.7610056,-0.6472156,-0.0800649,0.64849234,-0.7569989,,-0.089643,0.2622783,-0.087336354,0.9748839,0.15147093,0.16327262,-0.22045927,0.76036745,0.61093295,-0.031608604,-0.63158363,0.77466315,,-0.02321664,0.41410947,-0.36753282,0.11094825,0.8325252,-0.54276353,-0.9763582,0.19325219,0.09684159,0.1855133,0.5191872,0.83428377,,0.8987716519022484,0.3774794601592198,0.19489201634000003,0.8081450421893568,0.030196666448162338,0.8793152604186931,-0.4019897467564614,,-0.9088729865017341,-0.2458995374481826,0.18386706989,0.821355508628882,0.7680337651815408,0.2275895127518529,0.8738907538183939,,-0.04730714937530631,-0.07404341185429444,0.0795457676,-0.07163176773016745,,-3.01674e-05,2.8014183e-06,-2.7418137e-06,1.0,2.6676804e-05,2.2858381e-05,-2.668053e-05,0.99999994,2.771616e-06,-2.2854656e-05,-2.8908253e-06,1.0,588,1.84,0,1,0.569,False,-0.26232072208302704,1.0475354991267694
1.853692258009687,13:36:13.001378,13:35:58.885352,0,,0.12339713,0.0031307638,0.027563587,-0.9589318,-0.2396343,-0.15173995,-0.18763645,0.13476923,0.97294897,-0.21270207,0.96146375,-0.17419869,,0.059968956,-0.016878158,0.04243344,0.01009929,-0.8777118,0.47908223,-0.33509076,0.44843397,0.82862604,-0.9421316,-0.16890454,-0.28958422,,0.10706824,1.3441361,0.44329193,0.99579674,0.01814813,-0.089774825,-0.04448017,-0.7610048,-0.6472196,-0.0800649,0.64849234,-0.7569989,,-0.08959687,0.2623307,-0.08734281,0.9743588,0.15491316,0.16317736,-0.22324333,0.756056,0.61525744,-0.028059747,-0.6359098,0.77125317,,-0.02314492,0.4140983,-0.36756966,0.11094482,0.8326206,-0.54261786,-0.97635823,0.19323328,0.09687872,0.18551505,0.5190412,0.83437425,,0.8993122432034442,0.37749490562496824,0.1948842386,0.8058384528110272,0.03456903444065643,0.8843261552151667,-0.4011730264257899,,-0.9088884319674826,-0.24589181471530838,0.18387873650000003,0.821355508628882,0.7680337651815408,0.22791622771241504,0.8735640656861252,,-0.04730714937530631,-0.07404341185429444,0.0795457676,-0.07163176773016745,,-7.018447e-05,-5.185604e-06,5.4836273e-06,1.0,6.006658e-05,5.146116e-05,-6.0070306e-05,0.99999994,6.3478947e-06,-5.145371e-05,-6.4074993e-06,1.0,601,1.882,0,1,0.569,False,-0.26297607698675796,1.0478251803314462
1.8844480690022465,13:36:13.042993,13:35:58.885352,0,,0.1233927,0.0032066703,0.02770707,-0.95346195,-0.26062575,-0.15160605,-0.19048186,0.1309003,0.97292423,-0.23372386,0.95652455,-0.17445296,,0.059977997,-0.01687245,0.04242754,0.010002934,-0.8776361,0.47922298,-0.33499527,0.44861194,0.82856834,-0.9421666,-0.16882554,-0.28951645,,0.10706824,1.3441361,0.44329193,0.99579674,0.01814813,-0.089774825,-0.04448017,-0.7610048,-0.6472196,-0.0800649,0.64849234,-0.7569989,,-0.08960517,0.26248306,-0.08739839,0.9707418,0.1762661,0.16306609,-0.23971277,0.7511573,0.61506134,-0.014073817,-0.63615483,0.77143306,,-0.023153996,0.41409484,-0.36756226,0.11103243,0.8325185,-0.54275656,-0.9763283,0.19337901,0.0968897,0.1856202,0.5191507,0.83428276,,0.9003161984770933,0.3775257965564652,0.19480386862000001,0.7915795366540794,0.05219514291039825,0.8827768078403966,-0.4016630586241926,,-0.9089116001661052,-0.24589181471530838,0.18388910682,0.8215651985723664,0.7680337651815408,0.22791622771241515,0.8732373775538568,,-0.04730714937530631,-0.07403686686959947,0.0795457676,-0.07163176773016745,,-7.018447e-05,-5.185604e-06,5.4836273e-06,1.0,6.006658e-05,5.146116e-05,-6.0070306e-05,0.99999994,6.3478947e-06,-5.145371e-05,-6.4074993e-06,1.0,614,1.923,0,1,0.569,False,-0.2630356547052788,1.047680339729108
1.9260627870098688,13:36:13.080394,13:35:58.885352,0,,0.123386845,0.003229022,0.027897924,-0.9505343,-0.27239352,-0.1492857,-0.1883623,0.12332106,0.97432613,-0.24699008,0.9542503,-0.16852957,,0.059976287,-0.016869247,0.0424245,0.010340861,-0.8778409,0.4788404,-0.3352776,0.44810212,0.82873,-0.9420625,-0.16911422,-0.2896866,,0.10706824,1.3441361,0.44329193,0.99579674,0.01814813,-0.089774825,-0.04448017,-0.7610048,-0.6472196,-0.0800649,0.64849234,-0.7569989,,-0.08961595,0.26262736,-0.08752496,0.96896905,0.18821086,0.1602363,-0.24716784,0.7447245,0.61991405,-0.0026573504,-0.6402828,0.7681347,,-0.023152396,0.41409403,-0.36755788,0.11072087,0.8328045,-0.54238135,-0.9764233,0.19290632,0.09687429,0.18530613,0.5188678,0.8345285,,0.9010884717645158,0.37761846935095583,0.19465738785000003,0.7859179081799973,0.06531224688788054,0.8871095772714036,-0.4003563060951184,,-0.9089116001661052,-0.24589181471530838,0.18389169940000002,0.8209361287419129,0.7680337651815408,0.22791622771241515,0.8732373775538568,,-0.04730714937530631,-0.07403686686959947,0.0795457676,-0.07163176773016745,,-7.018447e-05,-5.185604e-06,5.4836273e-06,1.0,6.006658e-05,5.146116e-05,-6.0070306e-05,0.99999994,6.3478947e-06,-5.145371e-05,-6.4074993e-06,1.0,623,1.951,0,1,0.569,False,-0.2617249448978165,1.0475837793275489
1.9634514770004898,13:36:13.111261,13:35:58.885352,0,,0.12332022,0.003266275,0.028099671,-0.9479267,-0.28141317,-0.14913577,-0.18846922,0.11817542,0.974943,-0.25673762,0.9522821,-0.16505939,,0.059975296,-0.016868442,0.042424202,0.010453521,-0.8779092,0.47871292,-0.3353716,0.4479321,0.8287838,-0.9420278,-0.16921046,-0.28974333,,0.10706824,1.3441361,0.44329193,0.99579674,0.01814813,-0.089774825,-0.04448017,-0.7610048,-0.6472196,-0.0800649,0.64849234,-0.7569989,,-0.089567184,0.26279366,-0.08765342,0.967217,0.19738357,0.159784,-0.2539087,0.7401365,0.62267834,0.004644488,-0.6428356,0.7659901,,-0.023151482,0.4140943,-0.36755696,0.11061699,0.8328998,-0.54225624,-0.976455,0.19274874,0.0968691,0.18520147,0.51877344,0.8346104,,0.9020615361066681,0.37778064674131456,0.19450442563000003,0.7800465897624306,0.07433025587239961,0.8893124082238855,-0.4011730264257898,,-0.9089116001661052,-0.24589181471530838,0.18389169940000002,0.8207264387984283,0.7680337651815408,0.22791622771241515,0.8732373775538568,,-0.04730714937530631,-0.07403686686959947,0.0795457676,-0.07163176773016745,,-7.018447e-05,-5.185604e-06,5.4836273e-06,1.0,6.006658e-05,5.146116e-05,-6.0070306e-05,0.99999994,6.3478947e-06,-5.145371e-05,-6.4074993e-06,1.0,636,1.992,0,1,0.569,False,-0.262797343831195,1.04748721892599
1.9943272169912234,13:36:13.159820,13:35:59.104194,0,,0.12322198,0.0033825636,0.028397247,-0.94098413,-0.30390143,-0.14897251,-0.19108582,0.113741934,0.9749609,-0.2793476,0.9458893,-0.16510063,,0.059975296,-0.016868442,0.042424202,0.010453521,-0.87806547,0.478426,-0.3353716,0.44766125,0.82893014,-0.9420278,-0.16911575,-0.28979862,,0.10706824,1.3441361,0.44329193,0.99579674,0.01814813,-0.089774825,-0.04448017,-0.7610048,-0.6472196,-0.0800649,0.64849234,-0.7569989,,-0.089495495,0.26308447,-0.08780176,0.9622699,0.22035551,0.15962486,-0.27135703,0.73393935,0.62265426,0.020050328,-0.6424768,0.76604277,,-0.023151482,0.4140943,-0.36755696,0.11061699,0.8330769,-0.5419841,-0.976455,0.19271708,0.096932076,0.18520147,0.5185007,0.83477986,,0.903845487400614,0.3780200514604155,0.19431646358000002,0.7643198440010913,0.09386927533885758,0.8866116038980684,-0.40215309082259554,,-0.9089116001661052,-0.24589181471530838,0.18389169940000002,0.8207264387984283,0.7680337651815408,0.2282429426729773,0.8729106894215881,,-0.04730714937530631,-0.07403686686959947,0.0795457676,-0.07163176773016745,,-7.018447e-05,-5.185604e-06,5.4836273e-06,1.0,6.006658e-05,5.146116e-05,-6.0070306e-05,0.99999994,6.3478947e-06,-5.145371e-05,-6.4074993e-06,1.0,649,2.033,0,1,0.569,False,-0.262797343831195,1.046425054508842
2.042861227004323,13:36:13.191969,13:35:59.104194,0,,0.12312265,0.0034385473,0.028545305,-0.93906635,-0.30973068,-0.14906766,-0.19051749,0.108029455,0.97572154,-0.28610724,0.94466734,-0.160456,,0.059975285,-0.01686804,0.042425394,0.010544348,-0.8780509,0.47845078,-0.33527517,0.4476756,0.82896143,-0.94206107,-0.16915353,-0.2896682,,0.10706824,1.3441361,0.44329193,0.99579674,0.01814813,-0.089774825,-0.04448017,-0.7610048,-0.6472196,-0.0800649,0.64849234,-0.7569989,,-0.08940957,0.26323083,-0.08787998,0.9609439,0.22628695,0.15931441,-0.27556124,0.7292356,0.62632376,0.025551155,-0.64576286,0.7631104,,-0.02315162,0.41409552,-0.3675572,0.110519096,0.8330642,-0.5420236,-0.976448,0.19268978,0.0970563,0.18529654,0.51853126,0.8347398,,0.9048880563386342,0.3781127242549062,0.19421794554000002,0.7605454250183699,0.10070110032712962,0.8900253701287092,-0.3998662738967156,,-0.9089116001661052,-0.24589181471530838,0.18389169940000002,0.8207264387984283,0.7681704016813061,0.22821320350942148,0.8727473453554538,,-0.04730714937530631,-0.07403686686959947,0.0795457676,-0.07163176773016745,,-7.018447e-05,-5.185604e-06,5.4836273e-06,1.0,6.006658e-05,5.146116e-05,-6.0070306e-05,0.99999994,6.3478947e-06,-5.145371e-05,-6.4074993e-06,1.0,658,2.062,0,1,0.569,False,-0.2622015666459845,1.0463767743080625
2.0750267969851848,13:36:13.232263,13:35:59.104194,0,,0.12298386,0.0035019368,0.028661728,-0.93575644,-0.31876147,-0.150834,-0.19437298,0.109330714,0.9748157,-0.29424292,0.9415083,-0.16426554,,0.05997591,-0.016867653,0.04242432,0.010544348,-0.87809,0.47837904,-0.33527517,0.44760785,0.82899797,-0.94206107,-0.16912985,-0.28968203,,0.10706824,1.3441361,0.44329193,0.99579674,0.01814813,-0.089774825,-0.04448017,-0.7610048,-0.6472196,-0.0800649,0.64849234,-0.7569989,,-0.089281596,0.26336396,-0.08793227,0.9583643,0.23555352,0.16140737,-0.28405204,0.7286398,0.6232163,0.029192945,-0.6431163,0.7652118,,-0.023152187,0.4140947,-0.3675564,0.110519096,0.8331085,-0.54195553,-0.976448,0.19268185,0.09707204,0.18529654,0.5184631,0.8347821,,0.9060619117355164,0.3780663878576609,0.19414794588,0.7519481373355044,0.10671310631680898,0.8852863398463477,-0.4011730264257898,,-0.9089116001661052,-0.24589181471530838,0.18389299569,0.8207264387984283,0.7681704016813061,0.22829488224956207,0.8725840012893196,,-0.04730714937530631,-0.07403686686959947,0.0795457676,-0.07163176773016745,,-7.018447e-05,-5.185604e-06,5.4836273e-06,1.0,6.006658e-05,5.146116e-05,-6.0070306e-05,0.99999994,6.3478947e-06,-5.145371e-05,-6.4074993e-06,1.0,671,2.103,0,1,0.569,False,-0.26255903295711036,1.0471009773197542
2.115330027998425,13:36:13.266785,13:35:59.211317,0,,0.12301415,0.0035675913,0.028785303,-0.9285722,-0.3400981,-0.14861643,-0.193111,0.10076359,0.9759891,-0.31695697,0.93497586,-0.15924296,,0.05997481,-0.0168674,0.04242474,0.01062988,-0.8780388,0.4784711,-0.33518118,0.44768685,0.8289933,-0.9420936,-0.16918659,-0.2895432,,0.10706824,1.3441361,0.44329193,0.99579674,0.01814813,-0.089774825,-0.04448017,-0.7610048,-0.6472196,-0.0800649,0.64849234,-0.7569989,,-0.0893227,0.26349333,-0.087977834,0.95317316,0.2574035,0.15875882,-0.29870495,0.71921104,0.62730443,0.047289256,-0.6453518,0.76242036,,-0.023151165,0.41409534,-0.3675563,0.11042664,0.8330538,-0.54205835,-0.97644085,0.1926653,0.09717676,0.18538931,0.518557,0.8347032,,0.906911412351681,0.3779119332001764,0.19409868686,0.7395764306699174,0.1280284002802177,0.8875080445034409,-0.40345984335166984,,-0.908903877433231,-0.24589181471530838,0.18389299569,0.8207264387984283,0.7683070381810716,0.22818346434586556,0.8725840012893196,,-0.04730714937530631,-0.07403686686959947,0.0795457676,-0.07163176773016745,,-7.018447e-05,-5.185604e-06,5.4836273e-06,1.0,6.006658e-05,5.146116e-05,-6.0070306e-05,0.99999994,6.3478947e-06,-5.145371e-05,-6.4074993e-06,1.0,680,2.13,0,1,0.569,False,-0.26255903295711036,1.0467147357135185
2.1498493299877737,13:36:13.301608,13:35:59.211317,0,,0.12309,0.0036100894,0.028924093,-0.9221858,-0.35879138,-0.14436767,-0.18816996,0.09012827,0.97799224,-0.33788365,0.9290563,-0.15062875,,0.05997371,-0.016867489,0.042423964,0.010624588,-0.87804127,0.4784668,-0.33518365,0.44768387,0.8289939,-0.9420928,-0.16918197,-0.28954864,,0.10706824,1.3441361,0.44329193,0.99579674,0.01814813,-0.089774825,-0.04448017,-0.7610048,-0.6472196,-0.0800649,0.64849234,-0.7569989,,-0.08941043,0.2636129,-0.08804732,0.94861007,0.27657348,0.15377258,-0.30938572,0.70849586,0.63428235,0.06647845,-0.64926165,0.7576542,,-0.023150003,0.4140948,-0.36755598,0.11043209,0.83305615,-0.5420537,-0.97644067,0.19266811,0.09717299,0.18538702,0.51855224,0.83470666,,0.9074983400501221,0.3778192604056857,0.19403127978,0.731398522874021,0.14948033074339184,0.8928038021223197,-0.3983961773015072,,-0.9088961547003568,-0.24589181471530838,0.18389299569,0.8207264387984283,0.7683070381810716,0.22818346434586556,0.8725840012893196,,-0.04730714937530631,-0.07403686686959947,0.0795457676,-0.07163176773016745,,-7.018447e-05,-5.185604e-06,5.4836273e-06,1.0,6.006658e-05,5.146116e-05,-6.0070306e-05,0.99999994,6.3478947e-06,-5.145371e-05,-6.4074993e-06,1.0,693,2.172,0,1,0.569,False,-0.26232072208302704,1.047680339729108
2.184676834003767,13:36:13.332027,13:35:59.211317,0,,0.12304367,0.003627047,0.029039934,-0.91818947,-0.36835346,-0.14575267,-0.19037044,0.08763367,0.97779304,-0.34740067,0.9255463,-0.15058798,,0.05997481,-0.0168674,0.04242474,0.01062988,-0.8779606,0.47861448,-0.33518118,0.4478223,0.8289201,-0.9420936,-0.16923392,-0.28951553,,0.10706824,1.3441361,0.44329193,0.99579674,0.01814813,-0.089774825,-0.04448017,-0.7610048,-0.6472196,-0.0800649,0.64849234,-0.7569989,,-0.08937439,0.26370558,-0.08812453,0.9454612,0.28641188,0.15514947,-0.317611,0.7048801,0.6342454,0.07229364,-0.6489316,0.7574044,,-0.023151165,0.41409534,-0.3675563,0.11042664,0.83296525,-0.5421944,-0.97644085,0.19268118,0.09714529,0.18538931,0.5186934,0.83461845,,0.9081316041458085,0.37774203307694343,0.19394831722000003,0.723430305021609,0.15726861123002195,0.8917620997207603,-0.4024797789548641,,-0.908903877433231,-0.24589181471530838,0.18389299569,0.8207264387984283,0.7683070381810716,0.22802010686558444,0.8725840012893197,,-0.04730714937530631,-0.07403686686959947,0.0795457676,-0.07163176773016745,,-7.018447e-05,-5.185604e-06,5.4836273e-06,1.0,6.006658e-05,5.146116e-05,-6.0070306e-05,0.99999994,6.3478947e-06,-5.145371e-05,-6.4074993e-06,1.0,706,2.213,0,1,0.569,False,-0.26249945523859,1.04748721892599
2.2150909439951647,13:36:13.375628,13:35:59.211317,0,,0.12288016,0.0036870837,0.02926521,-0.9128014,-0.38136128,-0.14614043,-0.19074175,0.08167982,0.9782361,-0.3611247,0.92081046,-0.14729896,,0.05997481,-0.0168674,0.04242474,0.01062988,-0.8778825,0.47875795,-0.33518118,0.44795766,0.82884705,-0.9420936,-0.16928118,-0.2894879,,0.10706824,1.3441361,0.44329193,0.99579674,0.01814813,-0.089774825,-0.04448017,-0.7610048,-0.6472196,-0.0800649,0.64849234,-0.7569989,,-0.08923122,0.26391035,-0.088261135,0.941285,0.2998003,0.15524909,-0.32736948,0.69808656,0.6367923,0.08253322,-0.65022683,0.7552439,,-0.023151165,0.41409534,-0.3675563,0.11042664,0.8328767,-0.5423305,-0.97644085,0.19269703,0.09711381,0.18538931,0.5188297,0.8345337,,0.9097611007822699,0.37761074661808164,0.19379535500000003,0.7139942575648054,0.17038571520750423,0.8925010045855826,-0.4018264026903271,,-0.908903877433231,-0.24589181471530838,0.18389299569,0.8207264387984283,0.7683070381810716,0.22785674938530331,0.8729106894215882,,-0.04730714937530631,-0.07403686686959947,0.0795457676,-0.07163176773016745,,-7.018447e-05,-5.185604e-06,5.4836273e-06,1.0,6.006658e-05,5.146116e-05,-6.0070306e-05,0.99999994,6.3478947e-06,-5.145371e-05,-6.4074993e-06,1.0,715,2.242,0,1,0.569,False,-0.2620824112089424,1.0471009773197542
2.2586946109950077,13:36:13.403599,13:35:59.211317,0,,0.12279616,0.0037226677,0.02938281,-0.91050464,-0.38705632,-0.14549452,-0.1900917,0.0793291,0.97855604,-0.36721435,0.91863716,-0.1458058,,0.05997163,-0.016866803,0.04242301,0.010731968,-0.87795544,0.47862178,-0.33528018,0.44778168,0.82890207,-0.94205713,-0.16936815,-0.28955546,,0.10706824,1.3441361,0.44329193,0.99579674,0.01814813,-0.089774825,-0.04448017,-0.7610048,-0.6472196,-0.0800649,0.64849234,-0.7569989,,-0.08915784,0.2640203,-0.088329546,0.939523,0.30566984,0.15447511,-0.33108896,0.69523567,0.637987,0.08761678,-0.65054846,0.7543938,,-0.02314793,0.41409457,-0.36755475,0.110333644,0.8329766,-0.54219604,-0.9764721,0.19254509,0.097101085,0.1852801,0.51872575,0.83462256,,0.9106028786655603,0.37758757841945895,0.19371757760000002,0.7104295285255685,0.1766709941967145,0.8925215416444026,-0.3961093603756274,,-0.9088884319674826,-0.24589181471530838,0.18389299569,0.8205167488549437,0.7683070381810716,0.22785674938530331,0.8729106894215882,,-0.04730714937530631,-0.07403686686959947,0.0795457676,-0.07163176773016745,,-7.018447e-05,-5.185604e-06,5.4836273e-06,1.0,6.006658e-05,5.146116e-05,-6.0070306e-05,0.99999994,6.3478947e-06,-5.145371e-05,-6.4074993e-06,1.0,728,2.283,0,1,0.569,False,-0.2631548101423209,1.04748721892599
2.286668718996225,13:36:13.443100,13:35:59.363742,0,,0.12258899,0.0038149208,0.02959828,-0.9072431,-0.39459658,-0.1456143,-0.18868956,0.07242364,0.9793625,-0.37590724,0.9159958,-0.14016214,,0.059973348,-0.016866311,0.042422652,0.010737238,-0.87803125,0.47848263,-0.33527768,0.44764927,0.82897466,-0.942058,-0.16932549,-0.28957775,,0.10706824,1.3441361,0.44329193,0.99579674,0.01814813,-0.089774825,-0.04448017,-0.7610048,-0.6472196,-0.0800649,0.64849234,-0.7569989,,-0.088970445,0.2642451,-0.08844002,0.93702316,0.31343272,0.15410239,-0.33604532,0.68880254,0.6423586,0.095190085,-0.6536903,0.75075155,,-0.023149658,0.41409427,-0.36755425,0.110328205,0.8330628,-0.5420646,-0.97647226,0.1925264,0.097136304,0.1852824,0.5185942,0.83470386,,0.9124254436238773,0.3775953011523332,0.19358405973,0.7053969698819399,0.18623554918029533,0.8957489183046288,-0.400192962028984,,-0.9088961547003568,-0.24589181471530838,0.18389429198,0.8205167488549437,0.7683070381810716,0.22802010686558444,0.8725840012893197,,-0.04730714937530631,-0.07403686686959947,0.0795457676,-0.07163176773016745,,-7.018447e-05,-5.185604e-06,5.4836273e-06,1.0,6.006658e-05,5.146116e-05,-6.0070306e-05,0.99999994,6.3478947e-06,-5.145371e-05,-6.4074993e-06,1.0,741,2.324,0,1,0.569,False,-0.26202283349042155,1.046425054508842
2.326151204004418,13:36:13.483811,13:35:59.363742,0,,0.12230985,0.0038752705,0.029802963,-0.90798354,-0.3927918,-0.14587821,-0.18758395,0.06974724,0.9797691,-0.3746707,0.9169786,-0.13701075,,0.059971996,-0.016863376,0.042424917,0.011032065,-0.8781112,0.47832897,-0.33517247,0.44743764,0.82913136,-0.94209206,-0.16946977,-0.28938252,,0.10706824,1.3441361,0.44329193,0.99579674,0.01814813,-0.089774825,-0.04448017,-0.7610048,-0.6472196,-0.0800649,0.64849234,-0.7569989,,-0.088710286,0.26444334,-0.08856839,0.9376501,0.31155804,0.1540907,-0.3343547,0.68736225,0.6447791,0.09496996,-0.65609807,0.7486762,,-0.023148855,0.41409788,-0.3675528,0.11002751,0.8331787,-0.54194754,-0.97648877,0.19230852,0.09740193,0.18537435,0.5184888,0.83474886,,0.9142634540479428,0.3776261920838301,0.19342591235,0.706235729655878,0.1867820951793571,0.8977536088940599,-0.4011730264257899,,-0.9088961547003568,-0.24588409198243416,0.18389429198,0.8203070589114594,0.7685803111806025,0.22804230727861335,0.8720939690909169,,-0.04730714937530631,-0.07403686686959947,0.0795457676,-0.07163176773016745,,-7.018447e-05,-5.185604e-06,5.4836273e-06,1.0,6.006658e-05,5.146116e-05,-6.0070306e-05,0.99999994,6.3478947e-06,-5.145371e-05,-6.4074993e-06,1.0,750,2.353,0,1,0.569,False,-0.26196325577190027,1.045797411898709
2.3668789580115117,13:36:13.506962,13:35:59.363742,0,,0.12217097,0.00391683,0.029911488,-0.90700257,-0.39495248,-0.1461465,-0.1881398,0.06954482,0.97967684,-0.3767621,0.91606545,-0.13738367,,0.05996946,-0.01686193,0.042424917,0.011112838,-0.8781816,0.47819793,-0.33507478,0.44730797,0.82924086,-0.9421259,-0.16944729,-0.2892856,,0.10706824,1.3441361,0.44329193,0.99579674,0.01814813,-0.089774825,-0.04448017,-0.7610048,-0.6472196,-0.0800649,0.64849234,-0.7569989,,-0.08858149,0.264555,-0.08862948,0.936856,0.31379038,0.15439062,-0.3362221,0.68673337,0.644478,0.096205816,-0.65569264,0.74887353,,-0.023146506,0.41409892,-0.36755142,0.109939456,0.8332611,-0.54183877,-0.9764803,0.19227313,0.09755672,0.18547125,0.51836956,0.83480144,,0.9152596865887178,0.37761846935095583,0.19335072753000002,0.7039291402775483,0.18896827917560413,0.8964609948757607,-0.40117302642578967,,-0.9088807092346083,-0.24587636924955994,0.18389429198,0.8203070589114594,0.7687169476803679,0.2281759255953386,0.871603936892514,,-0.04730714937530631,-0.07403686686959947,0.0795457676,-0.07163176773016745,,-7.018447e-05,-5.185604e-06,5.4836273e-06,1.0,6.006658e-05,5.146116e-05,-6.0070306e-05,0.99999994,6.3478947e-06,-5.145371e-05,-6.4074993e-06,1.0,763,2.394,0,1,0.569,False,-0.2623802998015474,1.0456525712963705
2.3900243029929698,13:36:13.553036,13:35:59.363742,0,,0.122058555,0.0039402246,0.030043095,-0.9059007,-0.39777127,-0.14533398,-0.18704158,0.06791237,0.98000157,-0.37994653,0.91496766,-0.1359216,,0.059970535,-0.016861394,0.042426825,0.011208926,-0.87808657,0.4783703,-0.3349757,0.44746077,0.8291985,-0.94216,-0.16953689,-0.2891221,,0.10706824,1.3441361,0.44329193,0.99579674,0.01814813,-0.089774825,-0.04448017,-0.7610048,-0.6472196,-0.0800649,0.64849234,-0.7569989,,-0.08848099,0.26466697,-0.08871816,0.9360309,0.31669894,0.15345329,-0.33759817,0.68495935,0.64564556,0.09936599,-0.65614974,0.7480601,,-0.023147803,0.41410068,-0.36755195,0.10983614,0.83315754,-0.54201895,-0.9764734,0.192259,0.09765332,0.18556863,0.5185413,0.83467317,,0.9161709690678762,0.3776030238852074,0.1932509132,0.7024613106731565,0.1929307376688019,0.8966603827544679,-0.4011730264257898,,-0.9088884319674826,-0.24587636924955994,0.18389429198,0.8203070589114594,0.7688535841801334,0.22798282895150168,0.8717672809586483,,-0.04730714937530631,-0.07403686686959947,0.0795457676,-0.07163176773016745,,-7.018447e-05,-5.185604e-06,5.4836273e-06,1.0,6.006658e-05,5.146116e-05,-6.0070306e-05,0.99999994,6.3478947e-06,-5.145371e-05,-6.4074993e-06,1.0,772,2.421,0,1,0.569,False,-0.26255903295711036,1.0455560108948116
2.436091982992366,13:36:13.577865,13:35:59.363742,0,,0.12202597,0.0039416403,0.030087084,-0.9057601,-0.39808246,-0.14535749,-0.18610176,0.065470934,0.9803466,-0.38074216,0.91501033,-0.13338482,,0.059967723,-0.01686202,0.042426467,0.01119834,-0.8782086,0.47814655,-0.33498073,0.44725153,0.8293093,-0.94215834,-0.16945678,-0.28917444,,0.10706824,1.3441361,0.44329193,0.99579674,0.01814813,-0.089774825,-0.04448017,-0.7610048,-0.6472196,-0.0800649,0.64849234,-0.7569989,,-0.08845235,0.26469934,-0.0887518,0.93595695,0.31701306,0.15325563,-0.3374398,0.6831941,0.6475957,0.100592956,-0.65783626,0.7464131,,-0.023144912,0.41410044,-0.36755216,0.109847024,0.833295,-0.54180545,-0.97647303,0.1922407,0.0976929,0.18556406,0.5183271,0.83480716,,0.9164412647184741,0.37758757841945895,0.19321461708,0.7026710006166411,0.19429710266645633,0.8988950320632668,-0.4016630586241927,,-0.9088729865017341,-0.24587636924955994,0.18389299569,0.8203070589114594,0.7688535841801334,0.22822786517192334,0.8712772487602455,,-0.04730714937530631,-0.07403686686959947,0.0795457676,-0.07163176773016745,,-7.018447e-05,-5.185604e-06,5.4836273e-06,1.0,6.006658e-05,5.146116e-05,-6.0070306e-05,0.99999994,6.3478947e-06,-5.145371e-05,-6.4074993e-06,1.0,785,2.463,0,1,0.569,False,-0.26285692154971585,1.046038812902606
2.46093458798714,13:36:13.625469,13:35:59.563357,0,,0.122072056,0.0039464533,0.03014411,-0.9012992,-0.40805066,-0.14544518,-0.18656531,0.062615216,0.980445,-0.3909642,0.91080946,-0.13256314,,0.059966616,-0.016861707,0.042426884,0.01128385,-0.87819636,0.47816682,-0.33488667,0.44726288,0.8293412,-0.94219077,-0.16948986,-0.2890494,,0.10706824,1.3441361,0.44329193,0.99579674,0.01814813,-0.089774825,-0.04448017,-0.7610048,-0.6472196,-0.0800649,0.64849234,-0.7569989,,-0.08850323,0.26473817,-0.08878788,0.9324009,0.32731706,0.15327139,-0.34487408,0.6788738,0.6482223,0.1081223,-0.65726244,0.7458657,,-0.023143888,0.4141011,-0.36755207,0.10975459,0.83328456,-0.54184014,-0.9764658,0.19221623,0.097813375,0.18565685,0.5183529,0.8347705,,0.9165339375129649,0.37749490562496824,0.19318609870000003,0.6957512324816518,0.20331511165097538,0.8983207858509699,-0.4014997145580582,,-0.9088652637688599,-0.24587636924955994,0.18389299569,0.8203070589114594,0.7689902206798989,0.22819812600836742,0.8711139046941112,,-0.04730714937530631,-0.07403686686959947,0.0795457676,-0.07163176773016745,,-7.018447e-05,-5.185604e-06,5.4836273e-06,1.0,6.006658e-05,5.146116e-05,-6.0070306e-05,0.99999994,6.3478947e-06,-5.145371e-05,-6.4074993e-06,1.0,798,2.504,0,1,0.569,False,-0.26351227645344677,1.0457491316979295
2.5085054629889783,13:36:13.664352,13:35:59.563357,0,,0.122094914,0.0039135218,0.03016539,-0.89911175,-0.41320348,-0.14443302,-0.18513942,0.059993833,0.9808792,-0.39663762,0.9086603,-0.13044143,,0.059965853,-0.016863093,0.04242593,0.011278001,-0.8781187,0.4783096,-0.3348953,0.4473978,0.8292649,-0.9421877,-0.16953611,-0.28903207,,0.10706824,1.3441361,0.44329193,0.99579674,0.01814813,-0.089774825,-0.04448017,-0.7610048,-0.6472196,-0.0800649,0.64849234,-0.7569989,,-0.08852774,0.26472655,-0.088824265,0.9307092,0.33264518,0.15207767,-0.34773323,0.6758053,0.64989907,0.11341089,-0.6577495,0.74464995,,-0.023142891,0.41409966,-0.36755273,0.1097611,0.83319646,-0.5419743,-0.9764667,0.19223285,0.09777155,0.18564817,0.51848835,0.8346883,,0.916541660245839,0.37724005544011885,0.19316276548000003,0.693444643103322,0.2093271176406548,0.8995443035988694,-0.40198974675646104,,-0.9088575410359856,-0.24588409198243416,0.18389299569,0.8203070589114594,0.7689902206798989,0.2280347685280864,0.8711139046941113,,-0.04730714937530631,-0.07403686686959947,0.0795457676,-0.07163176773016745,,-7.018447e-05,-5.185604e-06,5.4836273e-06,1.0,6.006658e-05,5.146116e-05,-6.0070306e-05,0.99999994,6.3478947e-06,-5.145371e-05,-6.4074993e-06,1.0,807,2.533,0,1,0.569,False,-0.2621419889274632,1.046038812902606
2.5473827740061097,13:36:13.697168,13:35:59.563357,0,,0.12212865,0.0039001405,0.03023021,-0.8932682,-0.42621166,-0.14288265,-0.18540101,0.059752405,0.9808445,-0.4095098,0.90264785,-0.13239503,,0.0599651,-0.016864538,0.042424917,0.011272143,-0.8781192,0.47830886,-0.33490396,0.4473973,0.82926166,-0.9421847,-0.16953515,-0.28904247,,0.10706824,1.3441361,0.44329193,0.99579674,0.01814813,-0.089774825,-0.04448017,-0.7610048,-0.6472196,-0.0800649,0.64849234,-0.7569989,,-0.08856692,0.26475784,-0.08887909,0.92600495,0.3461265,0.15070269,-0.35686943,0.6724009,0.6484761,0.123122156,-0.6542733,0.7461685,,-0.023141894,0.4140982,-0.3675534,0.10976761,0.8331969,-0.54197234,-0.9764676,0.19223349,0.097761124,0.1856395,0.51848745,0.8346908,,0.9167424513005689,0.3769388688580241,0.19312258049000003,0.684637665476972,0.22162440261954441,0.8950708465957498,-0.4016630586241928,,-0.9088498183031114,-0.24589181471530838,0.18389299569,0.8203070589114594,0.7689902206798989,0.2280347685280864,0.8712772487602456,,-0.04730714937530631,-0.07403686686959947,0.0795457676,-0.07163176773016745,,-7.018447e-05,-5.185604e-06,5.4836273e-06,1.0,6.006658e-05,5.146116e-05,-6.0070306e-05,0.99999994,6.3478947e-06,-5.145371e-05,-6.4074993e-06,1.0,820,2.574,0,1,0.569,False,-0.2626186106756321,1.04570085149715
2.5802014349901583,13:36:13.735351,13:35:59.563357,0,,0.122114465,0.0038593113,0.030428424,-0.88514155,-0.44289848,-0.14270686,-0.18279201,0.048923522,0.9819335,-0.42791516,0.8952359,-0.12426254,,0.059960607,-0.016865581,0.04242277,0.0112239225,-0.87793136,0.4786548,-0.334726,0.4477699,0.82913244,-0.94224846,-0.16952431,-0.2888407,,0.10706824,1.3441361,0.44329193,0.99579674,0.01814813,-0.089774825,-0.04448017,-0.7610048,-0.6472196,-0.0800649,0.64849234,-0.7569989,,-0.08856985,0.26486063,-0.08905396,0.91949695,0.3634277,0.14981876,-0.36770442,0.66042495,0.65470016,0.13899213,-0.6570838,0.7408927,,-0.02313714,0.41409644,-0.367553,0.10980076,0.83296776,-0.54231775,-0.9764281,0.19240189,0.0978246,0.18582769,0.51879305,0.834459,,0.9174529427249976,0.3764832276184448,0.19296961827000003,0.6747822381331994,0.239797057088348,0.9001818779984228,-0.4023164348887297,,-0.9088112046387403,-0.24589181471530838,0.18389299569,0.8205167488549437,0.7691268571796643,0.22775999314410889,0.8714405928263799,,-0.04730714937530631,-0.07403686686959947,0.0795457676,-0.07163176773016745,,-7.018447e-05,-5.185604e-06,5.4836273e-06,1.0,6.006658e-05,5.146116e-05,-6.0070306e-05,0.99999994,6.3478947e-06,-5.145371e-05,-6.4074993e-06,1.0,829,2.601,0,1,0.569,False,-0.2622611443645053,1.0455077306940321
2.6184182460128795,13:36:13.766325,13:35:59.563357,0,,0.122060746,0.0038434714,0.03069131,-0.8786012,-0.45639983,-0.1405671,-0.1781201,0.040079057,0.98319215,-0.44309494,0.88887167,-0.1165075,,0.059952684,-0.016864344,0.04241675,0.011417394,-0.8781212,0.4783018,-0.3349288,0.4473441,0.8292804,-0.94217414,-0.16966529,-0.28900054,,0.10706824,1.3441361,0.44329193,0.99579674,0.01814813,-0.089774825,-0.04448017,-0.7610048,-0.6472196,-0.0800649,0.64849234,-0.7569989,,-0.08853908,0.26502752,-0.08926239,0.9142829,0.37745824,0.14701048,-0.37475982,0.6504288,0.6606796,0.1537591,-0.65914166,0.7361321,,-0.023128912,0.41409293,-0.36754847,0.10962575,0.83321637,-0.54197115,-0.97649014,0.19209562,0.09780732,0.18560494,0.5185073,0.83468616,,0.9184877889301436,0.3762669910979666,0.19276998961000003,0.6682818498851791,0.2567399830592626,0.9040903445505686,-0.39823283323537284,,-0.9087571455086207,-0.24589181471530838,0.18389429198,0.8200973689679748,0.7691268571796643,0.2279233506243899,0.871603936892514,,-0.04730714937530631,-0.07403686686959947,0.0795457676,-0.07163176773016745,,-7.018447e-05,-5.185604e-06,5.4836273e-06,1.0,6.006658e-05,5.146116e-05,-6.0070306e-05,0.99999994,6.3478947e-06,-5.145371e-05,-6.4074993e-06,1.0,842,2.643,0,1,0.569,False,-0.2623802998015474,1.0448318078831196
2.6493953019962646,13:36:13.800703,13:35:59.723253,0,,0.12188172,0.003921747,0.031014964,-0.86778593,-0.47698525,-0.13940053,-0.17724967,0.035029322,0.9835422,-0.4642521,0.8782129,-0.114943475,,0.059944376,-0.016865164,0.04241395,0.011471165,-0.87816256,0.4782245,-0.33484972,0.4472697,0.8293524,-0.9422016,-0.16964701,-0.28892174,,0.10706824,1.3441361,0.44329193,0.99579674,0.01814813,-0.089774825,-0.04448017,-0.7610048,-0.6472196,-0.0800649,0.64849234,-0.7569989,,-0.088389054,0.2653124,-0.08946052,0.9053407,0.3989065,0.14571153,-0.38888416,0.6408127,0.66191256,0.17066741,-0.6559213,0.73528224,,-0.023120351,0.4140912,-0.3675473,0.10956599,0.8332642,-0.5419097,-0.9764818,0.19208011,0.0979209,0.18568406,0.5184362,0.83471274,,0.920495699477442,0.3760353091117398,0.19257295353,0.653393863897778,0.27778200402314046,0.8999189070636691,-0.40002961796284997,,-0.9087108091113754,-0.24589181471530838,0.18389299569,0.8200973689679748,0.7692634936794297,0.2278936114608342,0.870950560627977,,-0.04730714937530631,-0.07403686686959947,0.0795457676,-0.07163176773016745,,-7.018447e-05,-5.185604e-06,5.4836273e-06,1.0,6.006658e-05,5.146116e-05,-6.0070306e-05,0.99999994,6.3478947e-06,-5.145371e-05,-6.4074993e-06,1.0,851,2.671,0,1,0.569,False,-0.26255903295711036,1.045169769288576
2.683742611989146,13:36:13.828126,13:35:59.723253,0,,0.12174992,0.003967285,0.031180575,-0.863139,-0.48481247,-0.14123686,-0.17724207,0.028968126,0.9837408,-0.47283846,0.87413824,-0.11093271,,0.059935614,-0.01686576,0.0424093,0.01151965,-0.87808925,0.47835797,-0.33477312,0.44739556,0.8293155,-0.9422282,-0.16969483,-0.28880683,,0.10706824,1.3441361,0.44329193,0.99579674,0.01814813,-0.089774825,-0.04448017,-0.7610048,-0.6472196,-0.0800649,0.64849234,-0.7569989,,-0.08827226,0.2654647,-0.089560755,0.90145594,0.4070769,0.14719245,-0.39488858,0.63406736,0.6648471,0.17731395,-0.6574549,0.7323338,,-0.023111198,0.4140881,-0.367545,0.109511666,0.8331815,-0.54204774,-0.9764733,0.19209144,0.09798364,0.18576089,0.5185648,0.83461577,,0.9216772776071983,0.3759194681186265,0.19246925033,0.6466837857062732,0.2863901035083632,0.9018025618061158,-0.4028064670871324,,-0.9086490272483816,-0.24589181471530838,0.18389299569,0.8200973689679748,0.7694001301791952,0.22770051481699716,0.8707872165618427,,-0.04730714937530631,-0.07403686686959947,0.0795457676,-0.07163176773016745,,-7.018447e-05,-5.185604e-06,5.4836273e-06,1.0,6.006658e-05,5.146116e-05,-6.0070306e-05,0.99999994,6.3478947e-06,-5.145371e-05,-6.4074993e-06,1.0,864,2.713,0,1,0.569,False,-0.2621419889274632,1.0450249286862374
2.7111934020067565,13:36:13.874785,13:35:59.723253,0,,0.1214131,0.0040903687,0.03157322,-0.8526844,-0.5035757,-0.1390715,-0.17329887,0.021515548,0.98463416,-0.49284568,0.8636831,-0.10561511,,0.059921645,-0.016865343,0.042403996,0.011462626,-0.8781199,0.47830328,-0.33478826,0.44735765,0.8293297,-0.94222355,-0.16963664,-0.2888563,,0.10706824,1.3441361,0.44329193,0.99579674,0.01814813,-0.089774825,-0.04448017,-0.7610048,-0.6472196,-0.0800649,0.64849234,-0.7569989,,-0.08797115,0.2658384,-0.08978974,0.8927634,0.42669982,0.14457121,-0.4059426,0.6226931,0.66892743,0.1954077,-0.6558815,0.72913325,,-0.023096962,0.41408566,-0.36754122,0.1095694,0.83321095,-0.5419909,-0.97646916,0.19212677,0.09795551,0.18574855,0.51850444,0.834656,,0.924727757092517,0.3755873906050348,0.19223851071000003,0.6341023890972016,0.3087984894698954,0.9000291311082962,-0.39986627389671536,,-0.9085640771867651,-0.24587636924955994,0.18389040311000002,0.8200973689679748,0.7694001301791952,0.22770051481699716,0.8707872165618427,,-0.04730714937530631,-0.07403686686959947,0.0795457676,-0.07163176773016745,,-7.018447e-05,-5.185604e-06,5.4836273e-06,1.0,6.006658e-05,5.146116e-05,-6.0070306e-05,0.99999994,6.3478947e-06,-5.145371e-05,-6.4074993e-06,1.0,877,2.754,0,1,0.569,False,-0.2618441003348577,1.0451214890877965
2.757843205006793,13:36:13.913758,13:35:59.842089,0,,0.12104531,0.00412485,0.031626865,-0.8499294,-0.50823385,-0.13899007,-0.1739427,0.021645218,0.98451775,-0.49735677,0.860947,-0.1068005,,0.059911035,-0.016867891,0.042396545,0.01140921,-0.87814206,0.47826368,-0.33481944,0.44733015,0.829332,-0.9422132,-0.169594,-0.28891528,,0.10706824,1.3441361,0.44329193,0.99579674,0.01814813,-0.089774825,-0.04448017,-0.7610048,-0.6472196,-0.0800649,0.64849234,-0.7569989,,-0.087609515,0.26592204,-0.08982922,0.89041215,0.43157727,0.1445933,-0.4095971,0.6212454,0.66804516,0.19848518,-0.65406054,0.72993726,,-0.023085512,0.41407937,-0.36753908,0.10962488,0.8332323,-0.54194677,-0.9764685,0.19215275,0.09791117,0.18571933,0.51846045,0.8346898,,0.9268669540986773,0.3746529399272536,0.19220869604000002,0.6290698304535731,0.3145372224600439,0.8966564389952956,-0.40084633829352134,,-0.9084868498580229,-0.24588409198243416,0.18389040311000002,0.8200973689679748,0.7694001301791952,0.22770051481699716,0.8707872165618427,,-0.04730714937530631,-0.07403686686959947,0.0795457676,-0.07163176773016745,,-7.018447e-05,-5.185604e-06,5.4836273e-06,1.0,6.006658e-05,5.146116e-05,-6.0070306e-05,0.99999994,6.3478947e-06,-5.145371e-05,-6.4074993e-06,1.0,886,2.782,0,1,0.569,False,-0.26148663402373185,1.0444938464776636
