AlexandreBanks6/ExpertPlaybackApp/resources/Motions/Motion_28.csv
Time,si_T_psm1,Tx,Ty,Tz,R00,R01,R02,R10,R11,R12,R20,R21,R22,si_T_psm3,Tx,Ty,Tz,R00,R01,R02,R10,R11,R12,R20,R21,R22,si_T_ecm,Tx,Ty,Tz,R00,R01,R02,R10,R11,R12,R20,R21,R22,joint_vars_psm1,q1,q2,q3,q4,q5,q6,jaw,joint_vars_psm3,q1,q2,q3,q4,q5,q6,jaw
lci_T_si
,,-0.054605495,0.0676319,0.47506598,0.9996602,0.022921162,0.012413091,0.0246696,-0.9857269,-0.16653492,0.008418744,0.16678455,-0.98595744
rci_T_si
,,-0.07258688,0.079200454,0.5686778,0.99174076,0.009105148,0.12793489,0.032538045,-0.9827057,-0.18229294,0.12406254,0.18495008,-0.9748856
ecm_T_lc
,,-0.039348,0.051043153,-0.2725159,-0.9888841,-0.12934415,0.07333705,0.13224038,-0.9905602,0.036096916,0.06797584,0.045393787,0.9966537
ecm_T_rc
,,0.010096899,0.19171284,-0.6841031,-0.99695045,-0.013193613,-0.07691395,0.014341901,-0.9997935,-0.014396289,-0.07670814,-0.015455482,0.99693376
0.02704589202767238,,0.030770808,0.029610489,0.33688718,-0.7112192,-0.5627143,-0.42133096,-0.68453044,0.41800565,0.5972346,-0.1599537,0.7131786,-0.6824887,,0.002112573,-0.021957245,0.57892984,0.5466339,-0.8076473,0.22112665,-0.64904386,-0.24180205,0.72129995,-0.5290871,-0.53780794,-0.65637577,,0.025506062,-0.023472227,0.2015409,-0.9911218,0.10805968,0.0774628,0.117060155,0.9854736,0.1230387,-0.06304202,0.13101415,-0.9893739,,-0.3389661913154622,-0.05597436787237925,0.10918391412000002,0.0,0.0020495474964816063,0.002167632231160104,0.0001633440661342792,,-1.4642764893502125,0.17336763029346602,0.08959437964000001,-0.007129458078473829,-0.017079562470680057,-0.0016734014047947105,0.0017967847274770708
0.054143087996635586,,0.030770808,0.029610489,0.33688718,-0.7112192,-0.5627143,-0.42133096,-0.68453044,0.41800565,0.5972346,-0.1599537,0.7131786,-0.6824887,,0.002112573,-0.021957245,0.57892984,0.5466339,-0.8076473,0.22112665,-0.64904386,-0.24180205,0.72129995,-0.5290871,-0.53780794,-0.65637577,,0.025506062,-0.023472227,0.2015409,-0.9911218,0.10805968,0.0774628,0.117060155,0.9854736,0.1230387,-0.06304202,0.13101415,-0.9893739,,-0.3389661913154622,-0.05597436787237925,0.10918391412000002,0.0,0.0020495474964816063,0.002167632231160104,0.0001633440661342792,,-1.4642764893502125,0.17336763029346602,0.08959437964000001,-0.007129458078473829,-0.017079562470680057,-0.0016734014047947105,0.0017967847274770708
0.1002249339944683,,0.030770808,0.029610489,0.33688718,-0.7112192,-0.5627143,-0.42133096,-0.68453044,0.41800565,0.5972346,-0.1599537,0.7131786,-0.6824887,,0.0021130852,-0.021957096,0.57893014,0.54663485,-0.807645,0.22113283,-0.6490436,-0.24179733,0.72130173,-0.5290865,-0.53781354,-0.6563717,,0.025506062,-0.023472227,0.2015409,-0.9911218,0.10805968,0.0774628,0.117060155,0.9854736,0.1230387,-0.06304202,0.13101415,-0.9893739,,-0.3389661913154622,-0.05597436787237925,0.10918391412000002,0.0,0.0020495474964816063,0.002167632231160104,0.0001633440661342792,,-1.4642842120830866,0.17336763029346602,0.08959437964000001,-0.007129458078473829,-0.017079562470680057,-0.0016734014047947105,0.0017967847274770708
0.15526176302228123,,0.030770808,0.029610489,0.33688718,-0.7112192,-0.5627143,-0.42133096,-0.68453044,0.41800565,0.5972346,-0.1599537,0.7131786,-0.6824887,,0.002112059,-0.021957397,0.5789295,0.54663295,-0.8076497,0.22112045,-0.64904404,-0.24180678,0.7212982,-0.52908784,-0.5378023,-0.6563799,,0.025506062,-0.023472227,0.2015409,-0.9911218,0.10805968,0.0774628,0.117060155,0.9854736,0.1230387,-0.06304202,0.13101415,-0.9893739,,-0.3389661913154622,-0.05597436787237925,0.10918391412000002,0.0,0.0020495474964816063,0.002167632231160104,0.0001633440661342792,,-1.4642687666173382,0.17336763029346602,0.08959437964000001,-0.007129458078473829,-0.017079562470680057,-0.0016734014047947105,0.0017967847274770708
0.1957553899846971,,0.030770808,0.029610489,0.33688718,-0.7112192,-0.5627143,-0.42133096,-0.68453044,0.41800565,0.5972346,-0.1599537,0.7131786,-0.6824887,,0.002112573,-0.021957245,0.57892984,0.5466339,-0.8076473,0.22112665,-0.64904386,-0.24180205,0.72129995,-0.5290871,-0.53780794,-0.65637577,,0.025506062,-0.023472227,0.2015409,-0.9911218,0.10805968,0.0774628,0.117060155,0.9854736,0.1230387,-0.06304202,0.13101415,-0.9893739,,-0.3389661913154622,-0.05597436787237925,0.10918391412000002,0.0,0.0020495474964816063,0.002167632231160104,0.0001633440661342792,,-1.4642764893502125,0.17336763029346602,0.08959437964000001,-0.007129458078473829,-0.017079562470680057,-0.0016734014047947105,0.0017967847274770708
0.2491936560254544,,0.030770363,0.029610824,0.33688772,-0.71121895,-0.56271124,-0.42133534,-0.68453056,0.41800073,0.5972378,-0.15995398,0.7131838,-0.6824832,,0.002112573,-0.021957245,0.57892984,0.5466339,-0.8076473,0.22112665,-0.64904386,-0.24180205,0.72129995,-0.5290871,-0.53780794,-0.65637577,,0.025506062,-0.023472227,0.2015409,-0.9911218,0.10805968,0.0774628,0.117060155,0.9854736,0.1230387,-0.06304202,0.13101415,-0.9893739,,-0.33895846858258794,-0.05597436787237925,0.10918391412000002,0.0,0.0020495474964816063,0.002167632231160104,0.0001633440661342792,,-1.4642764893502125,0.17336763029346602,0.08959437964000001,-0.007129458078473829,-0.017079562470680057,-0.0016734014047947105,0.0017967847274770708
0.29836801200872287,,0.030770808,0.029610489,0.33688718,-0.7112192,-0.5627143,-0.42133096,-0.68453044,0.41800565,0.5972346,-0.1599537,0.7131786,-0.6824887,,0.0021122228,-0.021956839,0.5789302,0.54663557,-0.80764735,0.22112246,-0.6490383,-0.24180199,0.721305,-0.52909225,-0.537808,-0.65637165,,0.025506062,-0.023472227,0.2015409,-0.9911218,0.10805968,0.0774628,0.117060155,0.9854736,0.1230387,-0.06304202,0.13101415,-0.9893739,,-0.3389661913154622,-0.05597436787237925,0.10918391412000002,0.0,0.0020495474964816063,0.002167632231160104,0.0001633440661342792,,-1.4642764893502125,0.17337535302634025,0.08959437964000001,-0.007129458078473829,-0.017079562470680057,-0.0016734014047947105,0.0017967847274770708
0.3470923349959776,,0.030771255,0.02961016,0.33688658,-0.71121943,-0.56275165,-0.42128068,-0.6845302,0.41805935,0.59719723,-0.1599534,0.71311766,-0.68255246,,0.002112573,-0.021957245,0.57892984,0.5466339,-0.8076473,0.22112665,-0.64904386,-0.24180205,0.72129995,-0.5290871,-0.53780794,-0.65637577,,0.025506062,-0.023472227,0.2015409,-0.9911218,0.10805968,0.0774628,0.117060155,0.9854736,0.1230387,-0.06304202,0.13101415,-0.9893739,,-0.3389739140483364,-0.05597436787237925,0.10918391412000002,0.0,0.0020495474964816063,0.002085953491019542,0.0003266881322685584,,-1.4642764893502125,0.17336763029346602,0.08959437964000001,-0.007129458078473829,-0.017079562470680057,-0.0016734014047947105,0.0017967847274770708
0.3873569199931808,,0.030771255,0.02961016,0.33688658,-0.71121943,-0.56275165,-0.42128068,-0.6845302,0.41805935,0.59719723,-0.1599534,0.71311766,-0.68255246,,0.002112573,-0.021957245,0.57892984,0.5466339,-0.8076473,0.22112665,-0.64904386,-0.24180205,0.72129995,-0.5290871,-0.53780794,-0.65637577,,0.025506062,-0.023472227,0.2015409,-0.9911218,0.10805968,0.0774628,0.117060155,0.9854736,0.1230387,-0.06304202,0.13101415,-0.9893739,,-0.3389739140483364,-0.05597436787237925,0.10918391412000002,0.0,0.0020495474964816063,0.002085953491019542,0.0003266881322685584,,-1.4642764893502125,0.17336763029346602,0.08959437964000001,-0.007129458078473829,-0.017079562470680057,-0.0016734014047947105,0.0017967847274770708
0.42135098099242896,,0.030770808,0.029610489,0.33688718,-0.7112192,-0.5627487,-0.42128497,-0.68453044,0.41805446,0.59720045,-0.1599537,0.7131229,-0.682547,,0.0021130852,-0.021957096,0.57893014,0.54663485,-0.807645,0.22113283,-0.6490436,-0.24179733,0.72130173,-0.5290865,-0.53781354,-0.6563717,,0.025506062,-0.023472227,0.2015409,-0.9911218,0.10805968,0.0774628,0.117060155,0.9854736,0.1230387,-0.06304202,0.13101415,-0.9893739,,-0.3389661913154622,-0.05597436787237925,0.10918391412000002,0.0,0.0020495474964816063,0.002085953491019542,0.0003266881322685584,,-1.4642842120830866,0.17336763029346602,0.08959437964000001,-0.007129458078473829,-0.017079562470680057,-0.0016734014047947105,0.0017967847274770708
0.4799514129990712,,0.030770808,0.029610489,0.33688718,-0.7112192,-0.5627487,-0.42128497,-0.68453044,0.41805446,0.59720045,-0.1599537,0.7131229,-0.682547,,0.0021122228,-0.021956839,0.5789302,0.54663557,-0.80764735,0.22112246,-0.6490383,-0.24180199,0.721305,-0.52909225,-0.537808,-0.65637165,,0.025506062,-0.023472227,0.2015409,-0.9911218,0.10805968,0.0774628,0.117060155,0.9854736,0.1230387,-0.06304202,0.13101415,-0.9893739,,-0.3389661913154622,-0.05597436787237925,0.10918391412000002,0.0,0.0020495474964816063,0.002085953491019542,0.0003266881322685584,,-1.4642764893502125,0.17337535302634025,0.08959437964000001,-0.007129458078473829,-0.017079562470680057,-0.0016734014047947105,0.0017967847274770708
0.5206637880182825,,0.030771255,0.02961016,0.33688658,-0.71121943,-0.56275165,-0.42128068,-0.6845302,0.41805935,0.59719723,-0.1599534,0.71311766,-0.68255246,,0.002112573,-0.021957245,0.57892984,0.5466339,-0.8076473,0.22112665,-0.64904386,-0.24180205,0.72129995,-0.5290871,-0.53780794,-0.65637577,,0.025506062,-0.023472227,0.2015409,-0.9911218,0.10805968,0.0774628,0.117060155,0.9854736,0.1230387,-0.06304202,0.13101415,-0.9893739,,-0.3389739140483364,-0.05597436787237925,0.10918391412000002,0.0,0.0020495474964816063,0.002085953491019542,0.0003266881322685584,,-1.4642764893502125,0.17336763029346602,0.08959437964000001,-0.007129458078473829,-0.017079562470680057,-0.0016734014047947105,0.0017967847274770708
0.5808030270272866,,0.030771818,0.029610697,0.3368867,-0.7112227,-0.56275165,-0.4212751,-0.6845256,0.4180593,0.59720254,-0.15995868,0.71311766,-0.6825512,,0.002112573,-0.021957245,0.57892984,0.5466339,-0.8076473,0.22112665,-0.64904386,-0.24180205,0.72129995,-0.5290871,-0.53780794,-0.65637577,,0.025506062,-0.023472227,0.2015409,-0.9911218,0.10805968,0.0774628,0.117060155,0.9854736,0.1230387,-0.06304202,0.13101415,-0.9893739,,-0.3389739140483364,-0.05597436787237925,0.10918391412000002,0.0,0.0020495474964816063,0.002085953491019542,0.0003266881322685584,,-1.4642764893502125,0.17336763029346602,0.08959437964000001,-0.007129458078473829,-0.017079562470680057,-0.0016734014047947105,0.0017967847274770708
0.617332965019159,,0.030817509,0.029556317,0.33688083,-0.71115917,-0.56281036,-0.42130405,-0.6845876,0.4180173,0.597161,-0.15997602,0.713096,-0.68256974,,0.002091961,-0.021978041,0.5789216,0.546606,-0.8076586,0.22115466,-0.6490588,-0.24176124,0.7213001,-0.5290977,-0.53780943,-0.6563661,,0.025495961,-0.023470419,0.20154564,-0.99112004,0.10807538,0.07746478,0.11707602,0.9854717,0.12303842,-0.063041925,0.13101512,-0.9893738,,-0.3389661913154622,-0.05597436787237925,0.10918391412000002,0.0,0.0020495474964816063,0.002085953491019542,0.0003266881322685584,,-1.4642842120830866,0.17336763029346602,0.08959437964000001,-0.007129458078473829,-0.017079562470680057,-0.0016734014047947105,0.0017967847274770708
0.6712187730008736,,0.030817509,0.029556317,0.33688083,-0.71115917,-0.56284475,-0.421258,-0.6845876,0.41806602,0.59712684,-0.15997602,0.7130403,-0.682628,,0.0020905863,-0.021977933,0.5789213,0.5466058,-0.8076633,0.22113812,-0.6490537,-0.24177064,0.7213016,-0.5291041,-0.53779817,-0.6563701,,0.025495961,-0.023470419,0.20154564,-0.99112004,0.10807538,0.07746478,0.11707602,0.9854717,0.12303842,-0.063041925,0.13101512,-0.9893738,,-0.3389661913154622,-0.05597436787237925,0.10918391412000002,0.0,0.0020495474964816063,0.0020042747508789796,0.0001633440661342792,,-1.4642687666173382,0.17337535302634025,0.08959437964000001,-0.007129458078473829,-0.017079562470680057,-0.0016734014047947105,0.0017967847274770708
0.7118841250194237,,0.030817952,0.029555978,0.33688027,-0.71115947,-0.56284773,-0.42125374,-0.6845874,0.41807094,0.5971236,-0.15997572,0.7130351,-0.68263346,,0.0020909328,-0.021978343,0.57892096,0.5466041,-0.8076634,0.22114229,-0.64905936,-0.2417707,0.72129655,-0.52909905,-0.5377981,-0.6563743,,0.025495961,-0.023470419,0.20154564,-0.99112004,0.10807538,0.07746478,0.11707602,0.9854717,0.12303842,-0.063041925,0.13101512,-0.9893738,,-0.3389739140483364,-0.05597436787237925,0.10918391412000002,0.0,0.0020495474964816063,0.0020042747508789796,0.0001633440661342792,,-1.4642687666173382,0.17336763029346602,0.08959437964000001,-0.007129458078473829,-0.017079562470680057,-0.0016734014047947105,0.0017967847274770708
0.7605335100088269,,0.030817952,0.029555978,0.33688027,-0.71115947,-0.56284773,-0.42125374,-0.6845874,0.41807094,0.5971236,-0.15997572,0.7130351,-0.68263346,,0.002091447,-0.02197819,0.5789213,0.54660505,-0.80766094,0.22114848,-0.6490591,-0.24176599,0.72129834,-0.52909833,-0.53780377,-0.65637016,,0.025495961,-0.023470419,0.20154564,-0.99112004,0.10807538,0.07746478,0.11707602,0.9854717,0.12303842,-0.063041925,0.13101512,-0.9893738,,-0.3389739140483364,-0.05597436787237925,0.10918391412000002,0.0,0.0020495474964816063,0.0020042747508789796,0.0001633440661342792,,-1.4642764893502125,0.17336763029346602,0.08959437964000001,-0.007129458078473829,-0.017079562470680057,-0.0016734014047947105,0.0017967847274770708
0.7985227319877595,,0.030817952,0.029555978,0.33688027,-0.71115947,-0.56284773,-0.42125374,-0.6845874,0.41807094,0.5971236,-0.15997572,0.7130351,-0.68263346,,0.002091447,-0.02197819,0.5789213,0.54660505,-0.80766094,0.22114848,-0.6490591,-0.24176599,0.72129834,-0.52909833,-0.53780377,-0.65637016,,0.025495961,-0.023470419,0.20154564,-0.99112004,0.10807538,0.07746478,0.11707602,0.9854717,0.12303842,-0.063041925,0.13101512,-0.9893738,,-0.3389739140483364,-0.05597436787237925,0.10918391412000002,0.0,0.0020495474964816063,0.0020042747508789796,0.0001633440661342792,,-1.4642764893502125,0.17336763029346602,0.08959437964000001,-0.007129458078473829,-0.017079562470680057,-0.0016734014047947105,0.0017967847274770708
0.8516164849861525,,0.030817509,0.029556317,0.33688083,-0.71115917,-0.56284475,-0.421258,-0.6845876,0.41806602,0.59712684,-0.15997602,0.7130403,-0.682628,,0.0020910967,-0.021977784,0.5789217,0.5466068,-0.80766094,0.2211443,-0.6490535,-0.24176592,0.7213034,-0.52910346,-0.53780377,-0.65636605,,0.025495961,-0.023470419,0.20154564,-0.99112004,0.10807538,0.07746478,0.11707602,0.9854717,0.12303842,-0.063041925,0.13101512,-0.9893738,,-0.3389661913154622,-0.05597436787237925,0.10918391412000002,0.0,0.0020495474964816063,0.0020042747508789796,0.0001633440661342792,,-1.4642764893502125,0.17337535302634025,0.08959437964000001,-0.007129458078473829,-0.017079562470680057,-0.0016734014047947105,0.0017967847274770708
0.9004616140155122,,0.030817952,0.029555978,0.33688027,-0.71115947,-0.56284773,-0.42125374,-0.6845874,0.41807094,0.5971236,-0.15997572,0.7130351,-0.68263346,,0.002091447,-0.02197819,0.5789213,0.54660505,-0.80766094,0.22114848,-0.6490591,-0.24176599,0.72129834,-0.52909833,-0.53780377,-0.65637016,,0.025495961,-0.023470419,0.20154564,-0.99112004,0.10807538,0.07746478,0.11707602,0.9854717,0.12303842,-0.063041925,0.13101512,-0.9893738,,-0.3389739140483364,-0.05597436787237925,0.10918391412000002,0.0,0.0020495474964816063,0.0020042747508789796,0.0001633440661342792,,-1.4642764893502125,0.17336763029346602,0.08959437964000001,-0.007129458078473829,-0.017079562470680057,-0.0016734014047947105,0.0017967847274770708
0.934179692005273,,0.030817952,0.029555978,0.33688027,-0.71115947,-0.56284773,-0.42125374,-0.6845874,0.41807094,0.5971236,-0.15997572,0.7130351,-0.68263346,,0.002091447,-0.02197819,0.5789213,0.54660505,-0.80766094,0.22114848,-0.6490591,-0.24176599,0.72129834,-0.52909833,-0.53780377,-0.65637016,,0.025495961,-0.023470419,0.20154564,-0.99112004,0.10807538,0.07746478,0.11707602,0.9854717,0.12303842,-0.063041925,0.13101512,-0.9893738,,-0.3389739140483364,-0.05597436787237925,0.10918391412000002,0.0,0.0020495474964816063,0.0020042747508789796,0.0001633440661342792,,-1.4642764893502125,0.17336763029346602,0.08959437964000001,-0.007129458078473829,-0.017079562470680057,-0.0016734014047947105,0.0017967847274770708
0.9717032469925471,,0.030817509,0.029556317,0.33688083,-0.71115917,-0.56284475,-0.421258,-0.6845876,0.41806602,0.59712684,-0.15997602,0.7130403,-0.682628,,0.002091961,-0.021978041,0.5789216,0.546606,-0.8076586,0.22115466,-0.6490588,-0.24176124,0.7213001,-0.5290977,-0.53780943,-0.6563661,,0.025495961,-0.023470419,0.20154564,-0.99112004,0.10807538,0.07746478,0.11707602,0.9854717,0.12303842,-0.063041925,0.13101512,-0.9893738,,-0.3389661913154622,-0.05597436787237925,0.10918391412000002,0.0,0.0020495474964816063,0.0020042747508789796,0.0001633440661342792,,-1.4642842120830866,0.17336763029346602,0.08959437964000001,-0.007129458078473829,-0.017079562470680057,-0.0016734014047947105,0.0017967847274770708
1.021382012986578,,0.030817952,0.029555978,0.33688027,-0.71115947,-0.56284773,-0.42125374,-0.6845874,0.41807094,0.5971236,-0.15997572,0.7130351,-0.68263346,,0.0020910967,-0.021977784,0.5789217,0.5466068,-0.80766094,0.2211443,-0.6490535,-0.24176592,0.7213034,-0.52910346,-0.53780377,-0.65636605,,0.025495961,-0.023470419,0.20154564,-0.99112004,0.10807538,0.07746478,0.11707602,0.9854717,0.12303842,-0.063041925,0.13101512,-0.9893738,,-0.3389739140483364,-0.05597436787237925,0.10918391412000002,0.0,0.0020495474964816063,0.0020042747508789796,0.0001633440661342792,,-1.4642764893502125,0.17337535302634025,0.08959437964000001,-0.007129458078473829,-0.017079562470680057,-0.0016734014047947105,0.0017967847274770708
1.058410728990566,,0.030817952,0.029555978,0.33688027,-0.71115947,-0.56284773,-0.42125374,-0.6845874,0.41807094,0.5971236,-0.15997572,0.7130351,-0.68263346,,0.0020909328,-0.021978343,0.57892096,0.5466041,-0.8076634,0.22114229,-0.64905936,-0.2417707,0.72129655,-0.52909905,-0.5377981,-0.6563743,,0.025495961,-0.023470419,0.20154564,-0.99112004,0.10807538,0.07746478,0.11707602,0.9854717,0.12303842,-0.063041925,0.13101512,-0.9893738,,-0.3389739140483364,-0.05597436787237925,0.10918391412000002,0.0,0.0020495474964816063,0.0020042747508789796,0.0001633440661342792,,-1.4642687666173382,0.17336763029346602,0.08959437964000001,-0.007129458078473829,-0.017079562470680057,-0.0016734014047947105,0.0017967847274770708
1.1004973290255293,,0.030817952,0.029555978,0.33688027,-0.71115947,-0.56284773,-0.42125374,-0.6845874,0.41807094,0.5971236,-0.15997572,0.7130351,-0.68263346,,0.002091961,-0.021978041,0.5789216,0.546606,-0.8076586,0.22115466,-0.6490588,-0.24176124,0.7213001,-0.5290977,-0.53780943,-0.6563661,,0.025495961,-0.023470419,0.20154564,-0.99112004,0.10807538,0.07746478,0.11707602,0.9854717,0.12303842,-0.063041925,0.13101512,-0.9893738,,-0.3389739140483364,-0.05597436787237925,0.10918391412000002,0.0,0.0020495474964816063,0.0020042747508789796,0.0001633440661342792,,-1.4642842120830866,0.17336763029346602,0.08959437964000001,-0.007129458078473829,-0.017079562470680057,-0.0016734014047947105,0.0017967847274770708
1.1509267310029827,,0.030817952,0.029555978,0.33688027,-0.71115947,-0.56284773,-0.42125374,-0.6845874,0.41807094,0.5971236,-0.15997572,0.7130351,-0.68263346,,0.002091961,-0.021978041,0.5789216,0.546606,-0.8076586,0.22115466,-0.6490588,-0.24176124,0.7213001,-0.5290977,-0.53780943,-0.6563661,,0.025495961,-0.023470419,0.20154564,-0.99112004,0.10807538,0.07746478,0.11707602,0.9854717,0.12303842,-0.063041925,0.13101512,-0.9893738,,-0.3389739140483364,-0.05597436787237925,0.10918391412000002,0.0,0.0020495474964816063,0.0020042747508789796,0.0001633440661342792,,-1.4642842120830866,0.17336763029346602,0.08959437964000001,-0.007129458078473829,-0.017079562470680057,-0.0016734014047947105,0.0017967847274770708
1.19424938299926,,0.030817509,0.029556317,0.33688083,-0.71115917,-0.56284475,-0.421258,-0.6845876,0.41806602,0.59712684,-0.15997602,0.7130403,-0.682628,,0.0020910967,-0.021977784,0.5789217,0.5466068,-0.80766094,0.2211443,-0.6490535,-0.24176592,0.7213034,-0.52910346,-0.53780377,-0.65636605,,0.025495961,-0.023470419,0.20154564,-0.99112004,0.10807538,0.07746478,0.11707602,0.9854717,0.12303842,-0.063041925,0.13101512,-0.9893738,,-0.3389661913154622,-0.05597436787237925,0.10918391412000002,0.0,0.0020495474964816063,0.0020042747508789796,0.0001633440661342792,,-1.4642764893502125,0.17337535302634025,0.08959437964000001,-0.007129458078473829,-0.017079562470680057,-0.0016734014047947105,0.0017967847274770708
1.2292658630176447,,0.030817952,0.029555978,0.33688027,-0.71115947,-0.56284773,-0.42125374,-0.6845874,0.41807094,0.5971236,-0.15997572,0.7130351,-0.68263346,,0.0020905863,-0.021977933,0.5789213,0.5466058,-0.8076633,0.22113812,-0.6490537,-0.24177064,0.7213016,-0.5291041,-0.53779817,-0.6563701,,0.025495961,-0.023470419,0.20154564,-0.99112004,0.10807538,0.07746478,0.11707602,0.9854717,0.12303842,-0.063041925,0.13101512,-0.9893738,,-0.3389739140483364,-0.05597436787237925,0.10918391412000002,0.0,0.0020495474964816063,0.0020042747508789796,0.0001633440661342792,,-1.4642687666173382,0.17337535302634025,0.08959437964000001,-0.007129458078473829,-0.017079562470680057,-0.0016734014047947105,0.0017967847274770708
1.2768146329908632,,0.030817952,0.029555978,0.33688027,-0.71115947,-0.56284773,-0.42125374,-0.6845874,0.41807094,0.5971236,-0.15997572,0.7130351,-0.68263346,,0.0020910967,-0.021977784,0.5789217,0.5466068,-0.80766094,0.2211443,-0.6490535,-0.24176592,0.7213034,-0.52910346,-0.53780377,-0.65636605,,0.025495961,-0.023470419,0.20154564,-0.99112004,0.10807538,0.07746478,0.11707602,0.9854717,0.12303842,-0.063041925,0.13101512,-0.9893738,,-0.3389739140483364,-0.05596664513950502,0.10918391412000002,0.0,0.0020495474964816063,0.0020042747508789796,0.0001633440661342792,,-1.4642764893502125,0.17337535302634025,0.08959437964000001,-0.007129458078473829,-0.017079562470680057,-0.0016734014047947105,0.0017967847274770708
1.3168121660128236,,0.030817952,0.029555978,0.33688027,-0.71115947,-0.56284773,-0.42125374,-0.6845874,0.41807094,0.5971236,-0.15997572,0.7130351,-0.68263346,,0.0020912606,-0.021977222,0.57892233,0.5466094,-0.8076586,0.2211463,-0.6490477,-0.24176115,0.72131026,-0.5291078,-0.53780943,-0.6563579,,0.025495961,-0.023470419,0.20154564,-0.99112004,0.10807538,0.07746478,0.11707602,0.9854717,0.12303842,-0.063041925,0.13101512,-0.9893738,,-0.3389739140483364,-0.05597436787237925,0.10918391412000002,0.0,0.0020495474964816063,0.0020042747508789796,0.0001633440661342792,,-1.4642842120830866,0.17337535302634025,0.08959437964000001,-0.007129458078473829,-0.017079562470680057,-0.0016734014047947105,0.0017967847274770708
1.369440951035358,,0.030817509,0.029556317,0.33688083,-0.71115917,-0.56284475,-0.421258,-0.6845876,0.41806602,0.59712684,-0.15997602,0.7130403,-0.682628,,0.0020916108,-0.021977635,0.578922,0.5466077,-0.8076586,0.22115049,-0.6490532,-0.24176121,0.7213052,-0.52910274,-0.53780943,-0.65636194,,0.025495961,-0.023470419,0.20154564,-0.99112004,0.10807538,0.07746478,0.11707602,0.9854717,0.12303842,-0.063041925,0.13101512,-0.9893738,,-0.3389661913154622,-0.05597436787237925,0.10918391412000002,0.0,0.0020495474964816063,0.0020042747508789796,0.0001633440661342792,,-1.4642842120830866,0.17337535302634025,0.08959437964000001,-0.007129458078473829,-0.017079562470680057,-0.0016734014047947105,0.0017967847274770708
1.40015876700636,,0.03081807,0.029556854,0.33688095,-0.71116245,-0.56284475,-0.42125255,-0.6845829,0.41806602,0.5971321,-0.15998131,0.7130403,-0.6826268,,0.002091447,-0.02197819,0.5789213,0.54660505,-0.80766094,0.22114848,-0.6490591,-0.24176599,0.72129834,-0.52909833,-0.53780377,-0.65637016,,0.025495961,-0.023470419,0.20154564,-0.99112004,0.10807538,0.07746478,0.11707602,0.9854717,0.12303842,-0.063041925,0.13101512,-0.9893738,,-0.3389661913154622,-0.05596664513950502,0.10918391412000002,0.0,0.0020495474964816063,0.0020042747508789796,0.0001633440661342792,,-1.4642764893502125,0.17336763029346602,0.08959437964000001,-0.007129458078473829,-0.017079562470680057,-0.0016734014047947105,0.0017967847274770708
1.4643311990075745,,0.030817952,0.029555978,0.33688027,-0.71115947,-0.56284773,-0.42125374,-0.6845874,0.41807094,0.5971236,-0.15997572,0.7130351,-0.68263346,,0.002091447,-0.02197819,0.5789213,0.54660505,-0.80766094,0.22114848,-0.6490591,-0.24176599,0.72129834,-0.52909833,-0.53780377,-0.65637016,,0.025495961,-0.023470419,0.20154564,-0.99112004,0.10807538,0.07746478,0.11707602,0.9854717,0.12303842,-0.063041925,0.13101512,-0.9893738,,-0.3389739140483364,-0.05597436787237925,0.10918391412000002,0.0,0.0020495474964816063,0.0020042747508789796,0.0001633440661342792,,-1.4642764893502125,0.17336763029346602,0.08959437964000001,-0.007129458078473829,-0.017079562470680057,-0.0016734014047947105,0.0017967847274770708
1.4939851200324483,,0.030817509,0.029556317,0.33688083,-0.71115917,-0.56284475,-0.421258,-0.6845876,0.41806602,0.59712684,-0.15997602,0.7130403,-0.682628,,0.002091961,-0.021978041,0.5789216,0.546606,-0.8076586,0.22115466,-0.6490588,-0.24176124,0.7213001,-0.5290977,-0.53780943,-0.6563661,,0.025495961,-0.023470419,0.20154564,-0.99112004,0.10807538,0.07746478,0.11707602,0.9854717,0.12303842,-0.063041925,0.13101512,-0.9893738,,-0.3389661913154622,-0.05597436787237925,0.10918391412000002,0.0,0.0020495474964816063,0.0020042747508789796,0.0001633440661342792,,-1.4642842120830866,0.17336763029346602,0.08959437964000001,-0.007129458078473829,-0.017079562470680057,-0.0016734014047947105,0.0017967847274770708
1.5424086659913883,,0.030817952,0.029555978,0.33688027,-0.71115947,-0.56284773,-0.42125374,-0.6845874,0.41807094,0.5971236,-0.15997572,0.7130351,-0.68263346,,0.002091961,-0.021978041,0.5789216,0.546606,-0.8076586,0.22115466,-0.6490588,-0.24176124,0.7213001,-0.5290977,-0.53780943,-0.6563661,,0.025495961,-0.023470419,0.20154564,-0.99112004,0.10807538,0.07746478,0.11707602,0.9854717,0.12303842,-0.063041925,0.13101512,-0.9893738,,-0.3389739140483364,-0.05597436787237925,0.10918391412000002,0.0,0.0020495474964816063,0.0020042747508789796,0.0001633440661342792,,-1.4642842120830866,0.17336763029346602,0.08959437964000001,-0.007129458078473829,-0.017079562470680057,-0.0016734014047947105,0.0017967847274770708
1.5973703829804435,,0.030817952,0.029555978,0.33688027,-0.71115947,-0.56284773,-0.42125374,-0.6845874,0.41807094,0.5971236,-0.15997572,0.7130351,-0.68263346,,0.0020916108,-0.021977635,0.578922,0.5466077,-0.8076586,0.22115049,-0.6490532,-0.24176121,0.7213052,-0.52910274,-0.53780943,-0.65636194,,0.025495961,-0.023470419,0.20154564,-0.99112004,0.10807538,0.07746478,0.11707602,0.9854717,0.12303842,-0.063041925,0.13101512,-0.9893738,,-0.3389739140483364,-0.05597436787237925,0.10918391412000002,0.0,0.0020495474964816063,0.0020042747508789796,0.0001633440661342792,,-1.4642842120830866,0.17337535302634025,0.08959437964000001,-0.007129458078473829,-0.017079562470680057,-0.0016734014047947105,0.0017967847274770708
1.6274060410214588,,0.030817952,0.029555978,0.33688027,-0.71115947,-0.56284773,-0.42125374,-0.6845874,0.41807094,0.5971236,-0.15997572,0.7130351,-0.68263346,,0.002091447,-0.02197819,0.5789213,0.54660505,-0.80766094,0.22114848,-0.6490591,-0.24176599,0.72129834,-0.52909833,-0.53780377,-0.65637016,,0.025495961,-0.023470419,0.20154564,-0.99112004,0.10807538,0.07746478,0.11707602,0.9854717,0.12303842,-0.063041925,0.13101512,-0.9893738,,-0.3389739140483364,-0.05597436787237925,0.10918391412000002,0.0,0.0020495474964816063,0.0020042747508789796,0.0001633440661342792,,-1.4642764893502125,0.17336763029346602,0.08959437964000001,-0.007129458078473829,-0.017079562470680057,-0.0016734014047947105,0.0017967847274770708
1.6704150940058753,,0.03081807,0.029556854,0.33688095,-0.71116245,-0.56284475,-0.42125255,-0.6845829,0.41806602,0.5971321,-0.15998131,0.7130403,-0.6826268,,0.002091961,-0.021978041,0.5789216,0.546606,-0.8076586,0.22115466,-0.6490588,-0.24176124,0.7213001,-0.5290977,-0.53780943,-0.6563661,,0.025495961,-0.023470419,0.20154564,-0.99112004,0.10807538,0.07746478,0.11707602,0.9854717,0.12303842,-0.063041925,0.13101512,-0.9893738,,-0.3389661913154622,-0.05596664513950502,0.10918391412000002,0.0,0.0020495474964816063,0.0020042747508789796,0.0001633440661342792,,-1.4642842120830866,0.17336763029346602,0.08959437964000001,-0.007129458078473829,-0.017079562470680057,-0.0016734014047947105,0.0017967847274770708
1.7263616690179333,,0.030817952,0.029555978,0.33688027,-0.71115947,-0.56284773,-0.42125374,-0.6845874,0.41807094,0.5971236,-0.15997572,0.7130351,-0.68263346,,0.0020905863,-0.021977933,0.5789213,0.5466058,-0.8076633,0.22113812,-0.6490537,-0.24177064,0.7213016,-0.5291041,-0.53779817,-0.6563701,,0.025495961,-0.023470419,0.20154564,-0.99112004,0.10807538,0.07746478,0.11707602,0.9854717,0.12303842,-0.063041925,0.13101512,-0.9893738,,-0.3389739140483364,-0.05597436787237925,0.10918391412000002,0.0,0.0020495474964816063,0.0020042747508789796,0.0001633440661342792,,-1.4642687666173382,0.17337535302634025,0.08959437964000001,-0.007129458078473829,-0.017079562470680057,-0.0016734014047947105,0.0017967847274770708
1.7665070770308375,,0.03080393,0.029595468,0.3368733,-0.7111878,-0.56283027,-0.4212292,-0.68455386,0.41807556,0.5971588,-0.1599934,0.7130461,-0.6826178,,0.002142368,-0.0219252,0.578899,0.546671,-0.8076396,0.22106355,-0.64895093,-0.24180502,0.72138244,-0.52916276,-0.5378183,-0.6563063,,0.02550931,-0.023477137,0.20153603,-0.99111915,0.1080826,0.07746569,0.117083296,0.98547083,0.1230383,-0.06304188,0.13101555,-0.98937374,,-0.3389661913154622,-0.05597436787237925,0.10918391412000002,0.0,0.0020495474964816063,0.0020042747508789796,0.0001633440661342792,,-1.4642842120830866,0.17336763029346602,0.08959437964000001,-0.007129458078473829,-0.017079562470680057,-0.0016734014047947105,0.0017967847274770708
1.8144930560374632,,0.030804377,0.02959514,0.33687273,-0.71118796,-0.5628332,-0.42122486,-0.6845536,0.41808042,0.5971556,-0.1599931,0.71304095,-0.6826233,,0.002142368,-0.0219252,0.578899,0.546671,-0.8076396,0.22106355,-0.64895093,-0.24180502,0.72138244,-0.52916276,-0.5378183,-0.6563063,,0.02550931,-0.023477137,0.20153603,-0.99111915,0.1080826,0.07746569,0.117083296,0.98547083,0.1230383,-0.06304188,0.13101555,-0.98937374,,-0.3389739140483364,-0.05597436787237925,0.10918391412000002,0.0,0.0020495474964816063,0.0020042747508789796,0.0001633440661342792,,-1.4642842120830866,0.17336763029346602,0.08959437964000001,-0.007129458078473829,-0.017079562470680057,-0.0016734014047947105,0.0017967847274770708
1.864920529013034,,0.030804493,0.029596008,0.3368734,-0.711191,-0.56283027,-0.42122367,-0.68454915,0.41807556,0.5971641,-0.15999867,0.7130461,-0.6826166,,0.0021420214,-0.021924786,0.5788994,0.5466727,-0.8076396,0.22105938,-0.6489454,-0.24180494,0.7213875,-0.5291679,-0.5378183,-0.65630215,,0.02550931,-0.023477137,0.20153603,-0.99111915,0.1080826,0.07746569,0.117083296,0.98547083,0.1230383,-0.06304188,0.13101555,-0.98937374,,-0.3389661913154622,-0.05596664513950502,0.10918391412000002,0.0,0.0020495474964816063,0.0020042747508789796,0.0001633440661342792,,-1.4642842120830866,0.17337535302634025,0.08959437964000001,-0.007129458078473829,-0.017079562470680057,-0.0016734014047947105,0.0017967847274770708
1.8944205670268275,,0.030804377,0.02959514,0.33687273,-0.71118796,-0.5628332,-0.42122486,-0.6845536,0.41808042,0.5971556,-0.1599931,0.71304095,-0.6826233,,0.002142368,-0.0219252,0.578899,0.546671,-0.8076396,0.22106355,-0.64895093,-0.24180502,0.72138244,-0.52916276,-0.5378183,-0.6563063,,0.02550931,-0.023477137,0.20153603,-0.99111915,0.1080826,0.07746569,0.117083296,0.98547083,0.1230383,-0.06304188,0.13101555,-0.98937374,,-0.3389739140483364,-0.05597436787237925,0.10918391412000002,0.0,0.0020495474964816063,0.0020042747508789796,0.0001633440661342792,,-1.4642842120830866,0.17336763029346602,0.08959437964000001,-0.007129458078473829,-0.017079562470680057,-0.0016734014047947105,0.0017967847274770708
1.9456432959996164,,0.030804377,0.02959514,0.33687273,-0.71118796,-0.5628332,-0.42122486,-0.6845536,0.41808042,0.5971556,-0.1599931,0.71304095,-0.6826233,,0.0021415073,-0.021924935,0.578899,0.5466717,-0.80764186,0.22105318,-0.6489457,-0.2418097,0.7213857,-0.52916855,-0.5378127,-0.65630627,,0.02550931,-0.023477137,0.20153603,-0.99111915,0.1080826,0.07746569,0.117083296,0.98547083,0.1230383,-0.06304188,0.13101555,-0.98937374,,-0.3389739140483364,-0.05597436787237925,0.10918391412000002,0.0,0.0020495474964816063,0.0020042747508789796,0.0001633440661342792,,-1.4642764893502125,0.17337535302634025,0.08959437964000001,-0.007129458078473829,-0.017079562470680057,-0.0016734014047947105,0.0017967847274770708
2.0052445550099947,,0.030804493,0.029596008,0.3368734,-0.711191,-0.56283027,-0.42122367,-0.68454915,0.41807556,0.5971641,-0.15999867,0.7130461,-0.6826166,,0.0021415073,-0.021924935,0.578899,0.5466717,-0.80764186,0.22105318,-0.6489457,-0.2418097,0.7213857,-0.52916855,-0.5378127,-0.65630627,,0.02550931,-0.023477137,0.20153603,-0.99111915,0.1080826,0.07746569,0.117083296,0.98547083,0.1230383,-0.06304188,0.13101555,-0.98937374,,-0.3389661913154622,-0.05596664513950502,0.10918391412000002,0.0,0.0020495474964816063,0.0020042747508789796,0.0001633440661342792,,-1.4642764893502125,0.17337535302634025,0.08959437964000001,-0.007129458078473829,-0.017079562470680057,-0.0016734014047947105,0.0017967847274770708
2.0376045660232194,,0.030803485,0.029595803,0.33687383,-0.71118754,-0.5628273,-0.42123353,-0.684554,0.41807067,0.597162,-0.15999368,0.7130513,-0.6826123,,0.0021411553,-0.02192453,0.5788994,0.5466734,-0.80764186,0.22104901,-0.6489401,-0.24180965,0.72139066,-0.5291736,-0.5378127,-0.65630215,,0.02550931,-0.023477137,0.20153603,-0.99111915,0.1080826,0.07746569,0.117083296,0.98547083,0.1230383,-0.06304188,0.13101555,-0.98937374,,-0.33895846858258794,-0.05597436787237925,0.10918391412000002,0.0,0.0020495474964816063,0.0020042747508789796,0.0001633440661342792,,-1.4642764893502125,0.17338307575921447,0.08959437964000001,-0.007129458078473829,-0.017079562470680057,-0.0016734014047947105,0.0017967847274770708
2.091553764010314,,0.030804493,0.029596008,0.3368734,-0.711191,-0.56283027,-0.42122367,-0.68454915,0.41807556,0.5971641,-0.15999867,0.7130461,-0.6826166,,0.0021415073,-0.021924935,0.578899,0.5466717,-0.80764186,0.22105318,-0.6489457,-0.2418097,0.7213857,-0.52916855,-0.5378127,-0.65630627,,0.02550931,-0.023477137,0.20153603,-0.99111915,0.1080826,0.07746569,0.117083296,0.98547083,0.1230383,-0.06304188,0.13101555,-0.98937374,,-0.3389661913154622,-0.05596664513950502,0.10918391412000002,0.0,0.0020495474964816063,0.0020042747508789796,0.0001633440661342792,,-1.4642764893502125,0.17337535302634025,0.08959437964000001,-0.007129458078473829,-0.017079562470680057,-0.0016734014047947105,0.0017967847274770708
2.1357139089959674,,0.03080393,0.029595468,0.3368733,-0.7111878,-0.56283027,-0.4212292,-0.68455386,0.41807556,0.5971588,-0.1599934,0.7130461,-0.6826178,,0.0021420214,-0.021924786,0.5788994,0.5466727,-0.8076396,0.22105938,-0.6489454,-0.24180494,0.7213875,-0.5291679,-0.5378183,-0.65630215,,0.02550931,-0.023477137,0.20153603,-0.99111915,0.1080826,0.07746569,0.117083296,0.98547083,0.1230383,-0.06304188,0.13101555,-0.98937374,,-0.3389661913154622,-0.05597436787237925,0.10918391412000002,0.0,0.0020495474964816063,0.0020042747508789796,0.0001633440661342792,,-1.4642842120830866,0.17337535302634025,0.08959437964000001,-0.007129458078473829,-0.017079562470680057,-0.0016734014047947105,0.0017967847274770708
2.1817191540030763,,0.030804493,0.029596008,0.3368734,-0.711191,-0.56283027,-0.42122367,-0.68454915,0.41807556,0.5971641,-0.15999867,0.7130461,-0.6826166,,0.0021415073,-0.021924935,0.578899,0.5466717,-0.80764186,0.22105318,-0.6489457,-0.2418097,0.7213857,-0.52916855,-0.5378127,-0.65630627,,0.02550931,-0.023477137,0.20153603,-0.99111915,0.1080826,0.07746569,0.117083296,0.98547083,0.1230383,-0.06304188,0.13101555,-0.98937374,,-0.3389661913154622,-0.05596664513950502,0.10918391412000002,0.0,0.0020495474964816063,0.0020042747508789796,0.0001633440661342792,,-1.4642764893502125,0.17337535302634025,0.08959437964000001,-0.007129458078473829,-0.017079562470680057,-0.0016734014047947105,0.0017967847274770708
2.231005093024578,,0.030804377,0.02959514,0.33687273,-0.71118796,-0.5628332,-0.42122486,-0.6845536,0.41808042,0.5971556,-0.1599931,0.71304095,-0.6826233,,0.0021418538,-0.021925345,0.57889867,0.54667,-0.80764186,0.22105737,-0.64895123,-0.24180976,0.72138065,-0.5291635,-0.53781265,-0.6563104,,0.02550931,-0.023477137,0.20153603,-0.99111915,0.1080826,0.07746569,0.117083296,0.98547083,0.1230383,-0.06304188,0.13101555,-0.98937374,,-0.3389739140483364,-0.05597436787237925,0.10918391412000002,0.0,0.0020495474964816063,0.0020042747508789796,0.0001633440661342792,,-1.4642764893502125,0.17336763029346602,0.08959437964000001,-0.007129458078473829,-0.017079562470680057,-0.0016734014047947105,0.0017967847274770708
2.2634782920358703,,0.030804493,0.029596008,0.3368734,-0.711191,-0.56283027,-0.42122367,-0.68454915,0.41807556,0.5971641,-0.15999867,0.7130461,-0.6826166,,0.0021413397,-0.021925502,0.5788983,0.546669,-0.80764425,0.22105117,-0.6489515,-0.24181446,0.72137886,-0.52916414,-0.53780705,-0.6563145,,0.02550931,-0.023477137,0.20153603,-0.99111915,0.1080826,0.07746569,0.117083296,0.98547083,0.1230383,-0.06304188,0.13101555,-0.98937374,,-0.3389661913154622,-0.05596664513950502,0.10918391412000002,0.0,0.0020495474964816063,0.0020042747508789796,0.0001633440661342792,,-1.4642687666173382,0.17336763029346602,0.08959437964000001,-0.007129458078473829,-0.017079562470680057,-0.0016734014047947105,0.0017967847274770708
2.313627280993387,,0.030804377,0.02959514,0.33687273,-0.71118796,-0.5628332,-0.42122486,-0.6845536,0.41808042,0.5971556,-0.1599931,0.71304095,-0.6826233,,0.0021420214,-0.021924786,0.5788994,0.5466727,-0.8076396,0.22105938,-0.6489454,-0.24180494,0.7213875,-0.5291679,-0.5378183,-0.65630215,,0.02550931,-0.023477137,0.20153603,-0.99111915,0.1080826,0.07746569,0.117083296,0.98547083,0.1230383,-0.06304188,0.13101555,-0.98937374,,-0.3389739140483364,-0.05597436787237925,0.10918391412000002,0.0,0.0020495474964816063,0.0020042747508789796,0.0001633440661342792,,-1.4642842120830866,0.17337535302634025,0.08959437964000001,-0.007129458078473829,-0.017079562470680057,-0.0016734014047947105,0.0017967847274770708
2.3638184150331654,,0.03080494,0.02959568,0.33687285,-0.7111912,-0.5628332,-0.42121932,-0.6845491,0.41808042,0.5971609,-0.15999837,0.71304095,-0.6826221,,0.0021415073,-0.021924935,0.578899,0.5466717,-0.80764186,0.22105318,-0.6489457,-0.2418097,0.7213857,-0.52916855,-0.5378127,-0.65630627,,0.02550931,-0.023477137,0.20153603,-0.99111915,0.1080826,0.07746569,0.117083296,0.98547083,0.1230383,-0.06304188,0.13101555,-0.98937374,,-0.3389739140483364,-0.05596664513950502,0.10918391412000002,0.0,0.0020495474964816063,0.0020042747508789796,0.0001633440661342792,,-1.4642764893502125,0.17337535302634025,0.08959437964000001,-0.007129458078473829,-0.017079562470680057,-0.0016734014047947105,0.0017967847274770708
2.3936166540370323,,0.030804377,0.02959514,0.33687273,-0.71118796,-0.5628332,-0.42122486,-0.6845536,0.41808042,0.5971556,-0.1599931,0.71304095,-0.6826233,,0.0021416713,-0.021924376,0.5788997,0.5466744,-0.80763954,0.2210552,-0.6489398,-0.24180491,0.7213925,-0.52917296,-0.5378184,-0.65629804,,0.02550931,-0.023477137,0.20153603,-0.99111915,0.1080826,0.07746569,0.117083296,0.98547083,0.1230383,-0.06304188,0.13101555,-0.98937374,,-0.3389739140483364,-0.05597436787237925,0.10918391412000002,0.0,0.0020495474964816063,0.0020042747508789796,0.0001633440661342792,,-1.4642842120830866,0.17338307575921447,0.08959437964000001,-0.007129458078473829,-0.017079562470680057,-0.0016734014047947105,0.0017967847274770708
2.444177308003418,,0.030804493,0.029596008,0.3368734,-0.711191,-0.56283027,-0.42122367,-0.68454915,0.41807556,0.5971641,-0.15999867,0.7130461,-0.6826166,,0.0021415073,-0.021924935,0.578899,0.5466717,-0.80764186,0.22105318,-0.6489457,-0.2418097,0.7213857,-0.52916855,-0.5378127,-0.65630627,,0.02550931,-0.023477137,0.20153603,-0.99111915,0.1080826,0.07746569,0.117083296,0.98547083,0.1230383,-0.06304188,0.13101555,-0.98937374,,-0.3389661913154622,-0.05596664513950502,0.10918391412000002,0.0,0.0020495474964816063,0.0020042747508789796,0.0001633440661342792,,-1.4642764893502125,0.17337535302634025,0.08959437964000001,-0.007129458078473829,-0.017079562470680057,-0.0016734014047947105,0.0017967847274770708
2.4939938469906338,,0.03080494,0.02959568,0.33687285,-0.7111912,-0.5628332,-0.42121932,-0.6845491,0.41808042,0.5971609,-0.15999837,0.71304095,-0.6826221,,0.002142368,-0.0219252,0.578899,0.546671,-0.8076396,0.22106355,-0.64895093,-0.24180502,0.72138244,-0.52916276,-0.5378183,-0.6563063,,0.02550931,-0.023477137,0.20153603,-0.99111915,0.1080826,0.07746569,0.117083296,0.98547083,0.1230383,-0.06304188,0.13101555,-0.98937374,,-0.3389739140483364,-0.05596664513950502,0.10918391412000002,0.0,0.0020495474964816063,0.0020042747508789796,0.0001633440661342792,,-1.4642842120830866,0.17336763029346602,0.08959437964000001,-0.007129458078473829,-0.017079562470680057,-0.0016734014047947105,0.0017967847274770708
2.528944780002348,,0.03080405,0.029596344,0.33687398,-0.71119076,-0.5628273,-0.42122808,-0.6845493,0.41807067,0.5971673,-0.15999897,0.7130513,-0.6826111,,0.002142368,-0.0219252,0.578899,0.546671,-0.8076396,0.22106355,-0.64895093,-0.24180502,0.72138244,-0.52916276,-0.5378183,-0.6563063,,0.02550931,-0.023477137,0.20153603,-0.99111915,0.1080826,0.07746569,0.117083296,0.98547083,0.1230383,-0.06304188,0.13101555,-0.98937374,,-0.33895846858258794,-0.05596664513950502,0.10918391412000002,0.0,0.0020495474964816063,0.0020042747508789796,0.0001633440661342792,,-1.4642842120830866,0.17336763029346602,0.08959437964000001,-0.007129458078473829,-0.017079562470680057,-0.0016734014047947105,0.0017967847274770708
2.580877812986728,,0.030803831,0.029595912,0.33687183,-0.71118796,-0.5628332,-0.42122486,-0.6845536,0.41808042,0.5971556,-0.1599931,0.71304095,-0.6826233,,0.002141418,-0.021926861,0.57889885,0.54666734,-0.80764425,0.22105536,-0.648957,-0.2418145,0.7213739,-0.52915907,-0.537807,-0.65631855,,0.02550931,-0.023477137,0.20153603,-0.99111915,0.1080826,0.07746569,0.117083296,0.98547083,0.1230383,-0.06304188,0.13101555,-0.98937374,,-0.3389739140483364,-0.05597436787237925,0.10918521041000001,0.0,0.0020495474964816063,0.0020042747508789796,0.0001633440661342792,,-1.4642687666173382,0.1733599075605918,0.08959308335,-0.007129458078473829,-0.017079562470680057,-0.0016734014047947105,0.0017967847274770708
2.611013415036723,,0.030802391,0.029597342,0.33687207,-0.71118754,-0.5628273,-0.42123353,-0.684554,0.41807067,0.597162,-0.15999368,0.7130513,-0.6826123,,0.0021426957,-0.021924078,0.5789004,0.5466764,-0.80763483,0.22106758,-0.6489393,-0.24179548,0.7213962,-0.5291716,-0.53782964,-0.65628994,,0.02550931,-0.023477137,0.20153603,-0.99111915,0.1080826,0.07746569,0.117083296,0.98547083,0.1230383,-0.06304188,0.13101555,-0.98937374,,-0.33895846858258794,-0.05597436787237925,0.1091865067,0.0,0.0020495474964816063,0.0020042747508789796,0.0001633440661342792,,-1.464299657548835,0.17338307575921447,0.08959437964000001,-0.007129458078473829,-0.017079562470680057,-0.0016734014047947105,0.0017967847274770708
2.661216863023583,,0.030801147,0.029595383,0.33687115,-0.71117806,-0.56283027,-0.42124566,-0.68456763,0.41807556,0.59714293,-0.15997754,0.71304613,-0.68262154,,0.0021411553,-0.02192453,0.5788994,0.5466734,-0.80764186,0.22104901,-0.6489401,-0.24180965,0.72139066,-0.5291736,-0.5378127,-0.65630215,,0.02550931,-0.023477137,0.20153603,-0.99111915,0.1080826,0.07746569,0.117083296,0.98547083,0.1230383,-0.06304188,0.13101555,-0.98937374,,-0.3389661913154622,-0.05599753607100192,0.1091865067,0.0,0.0020495474964816063,0.0020042747508789796,0.0001633440661342792,,-1.4642764893502125,0.17338307575921447,0.08959437964000001,-0.007129458078473829,-0.017079562470680057,-0.0016734014047947105,0.0017967847274770708
2.7017024679807946,,0.030802503,0.029595695,0.3368687,-0.71118194,-0.56283903,-0.42122716,-0.6845625,0.41809025,0.5971385,-0.15998194,0.7130305,-0.6826368,,0.0021407176,-0.021926038,0.5788995,0.5466708,-0.80764425,0.221047,-0.6489459,-0.2418144,0.72138387,-0.5291692,-0.5378071,-0.6563104,,0.02550931,-0.023477137,0.20153603,-0.99111915,0.1080826,0.07746569,0.117083296,0.98547083,0.1230383,-0.06304188,0.13101555,-0.98937374,,-0.3389893595140849,-0.05598981333812769,0.10918780299000001,0.0,0.0020495474964816063,0.0020042747508789796,0.0001633440661342792,,-1.4642687666173382,0.17337535302634025,0.08959308335,-0.007129458078473829,-0.017079562470680057,-0.0016734014047947105,0.0017967847274770708
2.767145732010249,,0.030801393,0.029595926,0.33686766,-0.7111788,-0.56283903,-0.42123264,-0.6845671,0.41809022,0.5971332,-0.15997665,0.7130306,-0.68263805,,0.002139965,-0.02192539,0.5788981,0.54666895,-0.8076489,0.22103462,-0.6489464,-0.24182387,0.7213803,-0.5291706,-0.5377958,-0.6563185,,0.02550931,-0.023477137,0.20153603,-0.99111915,0.1080826,0.07746569,0.117083296,0.98547083,0.1230383,-0.06304188,0.13101555,-0.98937374,,-0.3389893595140849,-0.05599753607100192,0.10918909928000001,0.0,0.0020495474964816063,0.0020042747508789796,0.0001633440661342792,,-1.4642533211515898,0.17337535302634025,0.08959437964000001,-0.007129458078473829,-0.017079562470680057,-0.0016734014047947105,0.0017967847274770708
2.8022861999925226,,0.030800171,0.0295978,0.33687004,-0.71118104,-0.5628273,-0.42124456,-0.68456316,0.41807073,0.59715146,-0.15998311,0.7130513,-0.6826148,,0.0021415073,-0.021924935,0.578899,0.5466717,-0.80764186,0.22105318,-0.6489457,-0.2418097,0.7213857,-0.52916855,-0.5378127,-0.65630627,,0.02550931,-0.023477137,0.20153603,-0.99111915,0.1080826,0.07746569,0.117083296,0.98547083,0.1230383,-0.06304188,0.13101555,-0.98937374,,-0.33895846858258794,-0.05598981333812769,0.10918909928000001,0.0,0.0020495474964816063,0.0020042747508789796,0.0001633440661342792,,-1.4642764893502125,0.17337535302634025,0.08959437964000001,-0.007129458078473829,-0.017079562470680057,-0.0016734014047947105,0.0017967847274770708
2.85181142098736,,0.030802056,0.029596023,0.33686924,-0.7111817,-0.56283605,-0.42123157,-0.6845627,0.4180854,0.59714174,-0.15998223,0.7130357,-0.6826313,,0.0021413397,-0.021925502,0.5788983,0.546669,-0.80764425,0.22105117,-0.6489515,-0.24181446,0.72137886,-0.52916414,-0.53780705,-0.6563145,,0.02550931,-0.023477137,0.20153603,-0.99111915,0.1080826,0.07746569,0.117083296,0.98547083,0.1230383,-0.06304188,0.13101555,-0.98937374,,-0.3389816367812106,-0.05598981333812769,0.10918780299000001,0.0,0.0020495474964816063,0.0020042747508789796,0.0001633440661342792,,-1.4642687666173382,0.17336763029346602,0.08959437964000001,-0.007129458078473829,-0.017079562470680057,-0.0016734014047947105,0.0017967847274770708
2.8983060300233774,,0.030799866,0.029589951,0.3368889,-0.71119803,-0.5628113,-0.42123702,-0.6845574,0.41813016,0.5971164,-0.15993202,0.713029,-0.6826501,,0.0021076463,-0.021966405,0.57889694,0.5466017,-0.8076887,0.22105539,-0.6490171,-0.2418028,0.7213237,-0.5291532,-0.53774554,-0.6563737,,0.02550931,-0.023477137,0.20153603,-0.99111915,0.1080826,0.07746569,0.117083296,0.98547083,0.1230383,-0.06304188,0.13101555,-0.98937374,,-0.3389893595140849,-0.05598981333812769,0.10918780299000001,0.0,0.0020495474964816063,0.0020042747508789796,0.0001633440661342792,,-1.4642610438844639,0.17336763029346602,0.08959437964000001,-0.007129458078473829,-0.017079562470680057,-0.0016734014047947105,0.0017967847274770708
2.941290826012846,,0.03076821,0.02960895,0.33689559,-0.7112064,-0.56279504,-0.42124483,-0.6845498,0.41812482,0.5971291,-0.15992841,0.71304506,-0.68263423,,0.002077479,-0.021947462,0.5789023,0.54659116,-0.8076907,0.22107448,-0.6490261,-0.24178314,0.7213223,-0.5291532,-0.53775144,-0.65636885,,0.025478613,-0.023458354,0.20154108,-0.99111706,0.10810018,0.07746791,0.117101036,0.98546886,0.123037994,-0.063041784,0.13101663,-0.9893736,,-0.3389661913154622,-0.05599753607100192,0.10918780299000001,0.0,0.0020495474964816063,0.0020042747508789796,0.0001633440661342792,,-1.4642687666173382,0.17336763029346602,0.08959437964000001,-0.007129458078473829,-0.017079562470680057,-0.0016734014047947105,0.0017967847274770708
2.9834193410351872,,0.030770112,0.029608496,0.33689404,-0.7112103,-0.56280386,-0.42122632,-0.6845447,0.41813943,0.5971247,-0.15993279,0.71302944,-0.68264943,,0.0020776428,-0.0219469,0.578903,0.5465937,-0.8076883,0.22107647,-0.64902025,-0.24177833,0.7213293,-0.52915764,-0.53775716,-0.6563606,,0.025478613,-0.023458354,0.20154108,-0.99111706,0.10810018,0.07746791,0.117101036,0.98546886,0.123037994,-0.063041784,0.13101663,-0.9893736,,-0.3389893595140849,-0.05598981333812769,0.10918780299000001,0.0,0.0020495474964816063,0.0020042747508789796,0.0001633440661342792,,-1.4642764893502125,0.17337535302634025,0.08959437964000001,-0.007129458078473829,-0.017079562470680057,-0.0016734014047947105,0.0017967847274770708
3.03289269603556,,0.030769221,0.029609159,0.33689514,-0.7112098,-0.562798,-0.421235,-0.684545,0.41812968,0.59713113,-0.15993339,0.7130398,-0.68263847,,0.0020762682,-0.021946788,0.57890266,0.54659355,-0.807693,0.22105993,-0.6490152,-0.24178776,0.72133064,-0.5291641,-0.5377459,-0.6563646,,0.025478613,-0.023458354,0.20154108,-0.99111706,0.10810018,0.07746791,0.117101036,0.98546886,0.123037994,-0.063041784,0.13101663,-0.9893736,,-0.3389739140483364,-0.05598981333812769,0.10918780299000001,0.0,0.0020495474964816063,0.0020042747508789796,0.0001633440661342792,,-1.4642610438844639,0.17338307575921447,0.08959437964000001,-0.007129458078473829,-0.017079562470680057,-0.0016734014047947105,0.0017967847274770708
3.08214426698396,,0.030769221,0.029609159,0.33689514,-0.7112098,-0.562798,-0.421235,-0.684545,0.41812968,0.59713113,-0.15993339,0.7130398,-0.68263847,,0.002077993,-0.02194731,0.57890266,0.5465921,-0.8076883,0.22108066,-0.6490258,-0.2417784,0.7213242,-0.5291525,-0.5377571,-0.6563647,,0.025478613,-0.023458354,0.20154108,-0.99111706,0.10810018,0.07746791,0.117101036,0.98546886,0.123037994,-0.063041784,0.13101663,-0.9893736,,-0.3389739140483364,-0.05598981333812769,0.10918780299000001,0.0,0.0020495474964816063,0.0020042747508789796,0.0001633440661342792,,-1.4642764893502125,0.17336763029346602,0.08959437964000001,-0.007129458078473829,-0.017079562470680057,-0.0016734014047947105,0.0017967847274770708
3.1127397299860604,,0.030769221,0.029609159,0.33689514,-0.7112098,-0.562798,-0.421235,-0.684545,0.41812968,0.59713113,-0.15993339,0.7130398,-0.68263847,,0.0020771287,-0.021947052,0.57890266,0.5465928,-0.8076906,0.22107029,-0.6490205,-0.24178308,0.72132736,-0.5291583,-0.5377515,-0.6563647,,0.025478613,-0.023458354,0.20154108,-0.99111706,0.10810018,0.07746791,0.117101036,0.98546886,0.123037994,-0.063041784,0.13101663,-0.9893736,,-0.3389739140483364,-0.05598981333812769,0.10918780299000001,0.0,0.0020495474964816063,0.0020042747508789796,0.0001633440661342792,,-1.4642687666173382,0.17337535302634025,0.08959437964000001,-0.007129458078473829,-0.017079562470680057,-0.0016734014047947105,0.0017967847274770708
3.167973036004696,,0.030769221,0.029609159,0.33689514,-0.7112098,-0.562798,-0.421235,-0.684545,0.41812968,0.59713113,-0.15993339,0.7130398,-0.68263847,,0.002078157,-0.02194675,0.5789033,0.54659474,-0.807686,0.22108267,-0.64902,-0.24177362,0.72133106,-0.529157,-0.53776276,-0.6563566,,0.025478613,-0.023458354,0.20154108,-0.99111706,0.10810018,0.07746791,0.117101036,0.98546886,0.123037994,-0.063041784,0.13101663,-0.9893736,,-0.3389739140483364,-0.05598981333812769,0.10918780299000001,0.0,0.0020495474964816063,0.0020042747508789796,0.0001633440661342792,,-1.4642842120830866,0.17337535302634025,0.08959437964000001,-0.007129458078473829,-0.017079562470680057,-0.0016734014047947105,0.0017967847274770708
3.218589153024368,,0.030769667,0.02960883,0.33689457,-0.71121,-0.56280094,-0.42123073,-0.68454486,0.4181345,0.5971279,-0.15993308,0.71303463,-0.68264395,,0.002077315,-0.02194802,0.57890165,0.5465885,-0.807693,0.22107245,-0.64903194,-0.24178788,0.72131544,-0.5291488,-0.5377458,-0.65637696,,0.025478613,-0.023458354,0.20154108,-0.99111706,0.10810018,0.07746791,0.117101036,0.98546886,0.123037994,-0.063041784,0.13101663,-0.9893736,,-0.3389816367812106,-0.05598981333812769,0.10918780299000001,0.0,0.0020495474964816063,0.0020042747508789796,0.0001633440661342792,,-1.4642610438844639,0.1733599075605918,0.08959437964000001,-0.007129458078473829,-0.017079562470680057,-0.0016734014047947105,0.0017967847274770708
3.267489371006377,,0.030768657,0.029608622,0.33689502,-0.7112066,-0.562798,-0.4212405,-0.68454957,0.41812968,0.5971259,-0.15992808,0.7130398,-0.6826397,,0.0020776428,-0.0219469,0.578903,0.5465937,-0.8076883,0.22107647,-0.64902025,-0.24177833,0.7213293,-0.52915764,-0.53775716,-0.6563606,,0.025478613,-0.023458354,0.20154108,-0.99111706,0.10810018,0.07746791,0.117101036,0.98546886,0.123037994,-0.063041784,0.13101663,-0.9893736,,-0.3389739140483364,-0.05599753607100192,0.10918780299000001,0.0,0.0020495474964816063,0.0020042747508789796,0.0001633440661342792,,-1.4642764893502125,0.17337535302634025,0.08959437964000001,-0.007129458078473829,-0.017079562470680057,-0.0016734014047947105,0.0017967847274770708
3.3184673850191757,,0.030769667,0.02960883,0.33689457,-0.71121,-0.56280094,-0.42123073,-0.68454486,0.4181345,0.5971279,-0.15993308,0.71303463,-0.68264395,,0.0020776428,-0.0219469,0.578903,0.5465937,-0.8076883,0.22107647,-0.64902025,-0.24177833,0.7213293,-0.52915764,-0.53775716,-0.6563606,,0.025478613,-0.023458354,0.20154108,-0.99111706,0.10810018,0.07746791,0.117101036,0.98546886,0.123037994,-0.063041784,0.13101663,-0.9893736,,-0.3389816367812106,-0.05598981333812769,0.10918780299000001,0.0,0.0020495474964816063,0.0020042747508789796,0.0001633440661342792,,-1.4642764893502125,0.17337535302634025,0.08959437964000001,-0.007129458078473829,-0.017079562470680057,-0.0016734014047947105,0.0017967847274770708
3.351730784983374,,0.030769667,0.02960883,0.33689457,-0.71121,-0.56280094,-0.42123073,-0.68454486,0.4181345,0.5971279,-0.15993308,0.71303463,-0.68264395,,0.002077993,-0.02194731,0.57890266,0.5465921,-0.8076883,0.22108066,-0.6490258,-0.2417784,0.7213242,-0.5291525,-0.5377571,-0.6563647,,0.025478613,-0.023458354,0.20154108,-0.99111706,0.10810018,0.07746791,0.117101036,0.98546886,0.123037994,-0.063041784,0.13101663,-0.9893736,,-0.3389816367812106,-0.05598981333812769,0.10918780299000001,0.0,0.0020495474964816063,0.0020042747508789796,0.0001633440661342792,,-1.4642764893502125,0.17336763029346602,0.08959437964000001,-0.007129458078473829,-0.017079562470680057,-0.0016734014047947105,0.0017967847274770708
3.417153401998803,,0.030770112,0.029608496,0.33689404,-0.7112103,-0.56280386,-0.42122632,-0.6845447,0.41813943,0.5971247,-0.15993279,0.71302944,-0.68264943,,0.0020761043,-0.021947354,0.578902,0.5465909,-0.8076953,0.2210579,-0.649021,-0.24179253,0.7213237,-0.52915967,-0.53774023,-0.6563728,,0.025478613,-0.023458354,0.20154108,-0.99111706,0.10810018,0.07746791,0.117101036,0.98546886,0.123037994,-0.063041784,0.13101663,-0.9893736,,-0.3389893595140849,-0.05598981333812769,0.10918780299000001,0.0,0.0020495474964816063,0.0020042747508789796,0.0001633440661342792,,-1.4642533211515898,0.17337535302634025,0.08959437964000001,-0.007129458078473829,-0.017079562470680057,-0.0016734014047947105,0.0017967847274770708
3.4445398279931396,,0.030769667,0.02960883,0.33689457,-0.71121,-0.56280094,-0.42123073,-0.68454486,0.4181345,0.5971279,-0.15993308,0.71303463,-0.68264395,,0.002077993,-0.02194731,0.57890266,0.5465921,-0.8076883,0.22108066,-0.6490258,-0.2417784,0.7213242,-0.5291525,-0.5377571,-0.6563647,,0.025478613,-0.023458354,0.20154108,-0.99111706,0.10810018,0.07746791,0.117101036,0.98546886,0.123037994,-0.063041784,0.13101663,-0.9893736,,-0.3389816367812106,-0.05598981333812769,0.10918780299000001,0.0,0.0020495474964816063,0.0020042747508789796,0.0001633440661342792,,-1.4642764893502125,0.17336763029346602,0.08959437964000001,-0.007129458078473829,-0.017079562470680057,-0.0016734014047947105,0.0017967847274770708
3.501459860999603,,0.030769221,0.029609159,0.33689514,-0.7112098,-0.562798,-0.421235,-0.684545,0.41812968,0.59713113,-0.15993339,0.7130398,-0.68263847,,0.0020769648,-0.021947611,0.578902,0.54659015,-0.807693,0.22106826,-0.6490264,-0.24178785,0.7213205,-0.5291539,-0.53774583,-0.6563729,,0.025478613,-0.023458354,0.20154108,-0.99111706,0.10810018,0.07746791,0.117101036,0.98546886,0.123037994,-0.063041784,0.13101663,-0.9893736,,-0.3389739140483364,-0.05598981333812769,0.10918780299000001,0.0,0.0020495474964816063,0.0020042747508789796,0.0001633440661342792,,-1.4642610438844639,0.17336763029346602,0.08959437964000001,-0.007129458078473829,-0.017079562470680057,-0.0016734014047947105,0.0017967847274770708
3.5424422370269895,,0.030769667,0.02960883,0.33689457,-0.71121,-0.56280094,-0.42123073,-0.68454486,0.4181345,0.5971279,-0.15993308,0.71303463,-0.68264395,,0.0020771287,-0.021947052,0.57890266,0.5465928,-0.8076906,0.22107029,-0.6490205,-0.24178308,0.72132736,-0.5291583,-0.5377515,-0.6563647,,0.025478613,-0.023458354,0.20154108,-0.99111706,0.10810018,0.07746791,0.117101036,0.98546886,0.123037994,-0.063041784,0.13101663,-0.9893736,,-0.3389816367812106,-0.05598981333812769,0.10918780299000001,0.0,0.0020495474964816063,0.0020042747508789796,0.0001633440661342792,,-1.4642687666173382,0.17337535302634025,0.08959437964000001,-0.007129458078473829,-0.017079562470680057,-0.0016734014047947105,0.0017967847274770708
3.58642550901277,,0.030770112,0.029608496,0.33689404,-0.7112103,-0.56280386,-0.42122632,-0.6845447,0.41813943,0.5971247,-0.15993279,0.71302944,-0.68264943,,0.0020771287,-0.021947052,0.57890266,0.5465928,-0.8076906,0.22107029,-0.6490205,-0.24178308,0.72132736,-0.5291583,-0.5377515,-0.6563647,,0.025478613,-0.023458354,0.20154108,-0.99111706,0.10810018,0.07746791,0.117101036,0.98546886,0.123037994,-0.063041784,0.13101663,-0.9893736,,-0.3389893595140849,-0.05598981333812769,0.10918780299000001,0.0,0.0020495474964816063,0.0020042747508789796,0.0001633440661342792,,-1.4642687666173382,0.17337535302634025,0.08959437964000001,-0.007129458078473829,-0.017079562470680057,-0.0016734014047947105,0.0017967847274770708
3.632324136036914,,0.030769221,0.029609159,0.33689514,-0.7112098,-0.562798,-0.421235,-0.684545,0.41812968,0.59713113,-0.15993339,0.7130398,-0.68263847,,0.002077993,-0.02194731,0.57890266,0.5465921,-0.8076883,0.22108066,-0.6490258,-0.2417784,0.7213242,-0.5291525,-0.5377571,-0.6563647,,0.025478613,-0.023458354,0.20154108,-0.99111706,0.10810018,0.07746791,0.117101036,0.98546886,0.123037994,-0.063041784,0.13101663,-0.9893736,,-0.3389739140483364,-0.05598981333812769,0.10918780299000001,0.0,0.0020495474964816063,0.0020042747508789796,0.0001633440661342792,,-1.4642764893502125,0.17336763029346602,0.08959437964000001,-0.007129458078473829,-0.017079562470680057,-0.0016734014047947105,0.0017967847274770708
3.6826664329855703,,0.030769221,0.029609159,0.33689514,-0.7112098,-0.562798,-0.421235,-0.684545,0.41812968,0.59713113,-0.15993339,0.7130398,-0.68263847,,0.002077993,-0.02194731,0.57890266,0.5465921,-0.8076883,0.22108066,-0.6490258,-0.2417784,0.7213242,-0.5291525,-0.5377571,-0.6563647,,0.025478613,-0.023458354,0.20154108,-0.99111706,0.10810018,0.07746791,0.117101036,0.98546886,0.123037994,-0.063041784,0.13101663,-0.9893736,,-0.3389739140483364,-0.05598981333812769,0.10918780299000001,0.0,0.0020495474964816063,0.0020042747508789796,0.0001633440661342792,,-1.4642764893502125,0.17336763029346602,0.08959437964000001,-0.007129458078473829,-0.017079562470680057,-0.0016734014047947105,0.0017967847274770708
3.7122231870307587,,0.030769667,0.02960883,0.33689457,-0.71121,-0.56280094,-0.42123073,-0.68454486,0.4181345,0.5971279,-0.15993308,0.71303463,-0.68264395,,0.002077993,-0.02194731,0.57890266,0.5465921,-0.8076883,0.22108066,-0.6490258,-0.2417784,0.7213242,-0.5291525,-0.5377571,-0.6563647,,0.025478613,-0.023458354,0.20154108,-0.99111706,0.10810018,0.07746791,0.117101036,0.98546886,0.123037994,-0.063041784,0.13101663,-0.9893736,,-0.3389816367812106,-0.05598981333812769,0.10918780299000001,0.0,0.0020495474964816063,0.0020042747508789796,0.0001633440661342792,,-1.4642764893502125,0.17336763029346602,0.08959437964000001,-0.007129458078473829,-0.017079562470680057,-0.0016734014047947105,0.0017967847274770708
3.753865401027724,,0.030769667,0.02960883,0.33689457,-0.71121,-0.56280094,-0.42123073,-0.68454486,0.4181345,0.5971279,-0.15993308,0.71303463,-0.68264395,,0.002077479,-0.021947462,0.5789023,0.54659116,-0.8076907,0.22107448,-0.6490261,-0.24178314,0.7213223,-0.5291532,-0.53775144,-0.65636885,,0.025478613,-0.023458354,0.20154108,-0.99111706,0.10810018,0.07746791,0.117101036,0.98546886,0.123037994,-0.063041784,0.13101663,-0.9893736,,-0.3389893595140849,-0.05598981333812769,0.10918780299000001,0.0,0.0020495474964816063,0.0020042747508789796,0.0001633440661342792,,-1.4642687666173382,0.17336763029346602,0.08959437964000001,-0.007129458078473829,-0.017079562470680057,-0.0016734014047947105,0.0017967847274770708
3.8001365549862385,,0.030769221,0.029609159,0.33689514,-0.7112098,-0.562798,-0.421235,-0.684545,0.41812968,0.59713113,-0.15993339,0.7130398,-0.68263847,,0.0020769648,-0.021947611,0.578902,0.54659015,-0.807693,0.22106826,-0.6490264,-0.24178785,0.7213205,-0.5291539,-0.53774583,-0.6563729,,0.025478613,-0.023458354,0.20154108,-0.99111706,0.10810018,0.07746791,0.117101036,0.98546886,0.123037994,-0.063041784,0.13101663,-0.9893736,,-0.3389739140483364,-0.05598981333812769,0.10918780299000001,0.0,0.0020495474964816063,0.0020042747508789796,0.0001633440661342792,,-1.4642610438844639,0.17336763029346602,0.08959437964000001,-0.007129458078473829,-0.017079562470680057,-0.0016734014047947105,0.0017967847274770708
3.8325822009937838,,0.030768774,0.02960949,0.3368957,-0.71120965,-0.56279504,-0.42123935,-0.6845452,0.41812477,0.5971344,-0.15993369,0.71304506,-0.6826329,,0.0020776428,-0.0219469,0.578903,0.5465937,-0.8076883,0.22107647,-0.64902025,-0.24177833,0.7213293,-0.52915764,-0.53775716,-0.6563606,,0.025478613,-0.023458354,0.20154108,-0.99111706,0.10810018,0.07746791,0.117101036,0.98546886,0.123037994,-0.063041784,0.13101663,-0.9893736,,-0.3389661913154622,-0.05598981333812769,0.10918780299000001,0.0,0.0020495474964816063,0.0020042747508789796,0.0001633440661342792,,-1.4642764893502125,0.17337535302634025,0.08959437964000001,-0.007129458078473829,-0.017079562470680057,-0.0016734014047947105,0.0017967847274770708
3.8853104449808598,,0.030769667,0.02960883,0.33689457,-0.71121,-0.56280094,-0.42123073,-0.68454486,0.4181345,0.5971279,-0.15993308,0.71303463,-0.68264395,,0.0020771287,-0.021947052,0.57890266,0.5465928,-0.8076906,0.22107029,-0.6490205,-0.24178308,0.72132736,-0.5291583,-0.5377515,-0.6563647,,0.025478613,-0.023458354,0.20154108,-0.99111706,0.10810018,0.07746791,0.117101036,0.98546886,0.123037994,-0.063041784,0.13101663,-0.9893736,,-0.3389816367812106,-0.05598981333812769,0.10918780299000001,0.0,0.0020495474964816063,0.0020042747508789796,0.0001633440661342792,,-1.4642687666173382,0.17337535302634025,0.08959437964000001,-0.007129458078473829,-0.017079562470680057,-0.0016734014047947105,0.0017967847274770708
3.937625640013721,,0.030769102,0.02960828,0.33689445,-0.71120685,-0.5628009,-0.42123616,-0.6845494,0.41813457,0.5971226,-0.1599278,0.71303463,-0.68264514,,0.0020769648,-0.021947611,0.578902,0.54659015,-0.807693,0.22106826,-0.6490264,-0.24178785,0.7213205,-0.5291539,-0.53774583,-0.6563729,,0.025478613,-0.023458354,0.20154108,-0.99111706,0.10810018,0.07746791,0.117101036,0.98546886,0.123037994,-0.063041784,0.13101663,-0.9893736,,-0.3389816367812106,-0.05599753607100192,0.10918780299000001,0.0,0.0020495474964816063,0.0020042747508789796,0.0001633440661342792,,-1.4642610438844639,0.17336763029346602,0.08959437964000001,-0.007129458078473829,-0.017079562470680057,-0.0016734014047947105,0.0017967847274770708
3.9798768230248243,,0.030769667,0.02960883,0.33689457,-0.71121,-0.56280094,-0.42123073,-0.68454486,0.4181345,0.5971279,-0.15993308,0.71303463,-0.68264395,,0.0020769648,-0.021947611,0.578902,0.54659015,-0.807693,0.22106826,-0.6490264,-0.24178785,0.7213205,-0.5291539,-0.53774583,-0.6563729,,0.025478613,-0.023458354,0.20154108,-0.99111706,0.10810018,0.07746791,0.117101036,0.98546886,0.123037994,-0.063041784,0.13101663,-0.9893736,,-0.3389816367812106,-0.05598981333812769,0.10918780299000001,0.0,0.0020495474964816063,0.0020042747508789796,0.0001633440661342792,,-1.4642610438844639,0.17336763029346602,0.08959437964000001,-0.007129458078473829,-0.017079562470680057,-0.0016734014047947105,0.0017967847274770708
4.033217296993826,,0.030762503,0.029617257,0.33687797,-0.7112005,-0.5628045,-0.4212419,-0.68455017,0.41810355,0.5971434,-0.15995234,0.71304995,-0.6826235,,0.002127841,-0.021925967,0.5789083,0.5466385,-0.8076609,0.22106597,-0.6490082,-0.24182495,0.7213244,-0.5291263,-0.53777725,-0.65636945,,0.025478613,-0.023458354,0.20154108,-0.99111706,0.10810018,0.07746791,0.117101036,0.98546886,0.123037994,-0.063041784,0.13101663,-0.9893736,,-0.3389739140483364,-0.05599753607100192,0.10918780299000001,0.0,0.0020495474964816063,0.0020042747508789796,0.0001633440661342792,,-1.4642764893502125,0.17336763029346602,0.08959437964000001,-0.007129458078473829,-0.017079562470680057,-0.0016734014047947105,0.0017967847274770708
4.070919703983236,,0.030753344,0.029610295,0.33688056,-0.71119773,-0.5628034,-0.4212481,-0.6845566,0.4181136,0.59712887,-0.1599366,0.71304506,-0.6826323,,0.0021189023,-0.021930978,0.5789115,0.5466311,-0.8076656,0.22106692,-0.64901346,-0.24182135,0.72132075,-0.52912736,-0.53777176,-0.656373,,0.025470179,-0.023463216,0.20154458,-0.99111587,0.1081099,0.07746914,0.11711086,0.9854676,0.123037815,-0.06304172,0.13101722,-0.98937356,,-0.3389816367812106,-0.05602070426962459,0.10918780299000001,0.0,0.0020495474964816063,0.0020042747508789796,0.0001633440661342792,,-1.4642687666173382,0.17336763029346602,0.08959437964000001,-0.007129458078473829,-0.017079562470680057,-0.0016734014047947105,0.0017967847274770708
4.131671574024949,,0.030753462,0.029611163,0.33688128,-0.71120083,-0.5628004,-0.421247,-0.68455213,0.41810867,0.59713745,-0.1599422,0.7130502,-0.6826256,,0.00211839,-0.021931127,0.5789111,0.5466301,-0.807668,0.22106071,-0.64901376,-0.24182607,0.7213189,-0.529128,-0.53776616,-0.65637714,,0.025470179,-0.023463216,0.20154458,-0.99111587,0.1081099,0.07746914,0.11711086,0.9854676,0.123037815,-0.06304172,0.13101722,-0.98937356,,-0.3389739140483364,-0.05601298153675037,0.10918780299000001,0.0,0.0020495474964816063,0.0020042747508789796,0.0001633440661342792,,-1.4642610438844639,0.17336763029346602,0.08959437964000001,-0.007129458078473829,-0.017079562470680057,-0.0016734014047947105,0.0017967847274770708
4.162049314007163,,0.030753344,0.029610295,0.33688056,-0.71119773,-0.5628034,-0.4212481,-0.6845566,0.4181136,0.59712887,-0.1599366,0.71304506,-0.6826323,,0.002118554,-0.021930568,0.5789118,0.5466328,-0.8076656,0.22106272,-0.6490079,-0.24182132,0.72132576,-0.5291324,-0.5377718,-0.656369,,0.025470179,-0.023463216,0.20154458,-0.99111587,0.1081099,0.07746914,0.11711086,0.9854676,0.123037815,-0.06304172,0.13101722,-0.98937356,,-0.3389739140483364,-0.05602842700249882,0.10918780299000001,0.0,0.0020495474964816063,0.0020042747508789796,0.0001633440661342792,,-1.4642687666173382,0.17337535302634025,0.08959437964000001,-0.007129458078473829,-0.017079562470680057,-0.0016734014047947105,0.0017967847274770708
4.215444759000093,,0.030751443,0.02961075,0.33688214,-0.7111938,-0.56279445,-0.42126667,-0.6845618,0.41809893,0.5971332,-0.15993223,0.7130606,-0.68261707,,0.0021189023,-0.021930978,0.5789115,0.5466311,-0.8076656,0.22106692,-0.64901346,-0.24182135,0.72132075,-0.52912736,-0.53777176,-0.656373,,0.025470179,-0.023463216,0.20154458,-0.99111587,0.1081099,0.07746914,0.11711086,0.9854676,0.123037815,-0.06304172,0.13101722,-0.98937356,,-0.33895846858258794,-0.05602842700249882,0.10918780299000001,0.0,0.0020495474964816063,0.0020042747508789796,0.0001633440661342792,,-1.4642687666173382,0.17336763029346602,0.08959437964000001,-0.007129458078473829,-0.017079562470680057,-0.0016734014047947105,0.0017967847274770708
4.266423664987087,,0.030752782,0.029609751,0.33688045,-0.7111945,-0.5628034,-0.4212536,-0.68456125,0.4181136,0.5971236,-0.15993133,0.71304506,-0.6826336,,0.0021176916,-0.02193031,0.5789118,0.5466335,-0.807668,0.22105238,-0.6490026,-0.24182597,0.72132903,-0.52913815,-0.5377662,-0.6563689,,0.025470179,-0.023463216,0.20154458,-0.99111587,0.1081099,0.07746914,0.11711086,0.9854676,0.123037815,-0.06304172,0.13101722,-0.98937356,,-0.3389816367812106,-0.05602842700249882,0.10918780299000001,0.0,0.0020495474964816063,0.0020042747508789796,0.0001633440661342792,,-1.4642610438844639,0.17338307575921447,0.08959437964000001,-0.007129458078473829,-0.017079562470680057,-0.0016734014047947105,0.0017967847274770708
4.298464532010257,,0.030753676,0.029609088,0.3368793,-0.711195,-0.5628092,-0.42124492,-0.6845609,0.41812333,0.5971172,-0.15993074,0.71303463,-0.6826445,,0.0021180417,-0.02193072,0.5789115,0.5466318,-0.807668,0.22105655,-0.6490082,-0.241826,0.72132397,-0.5291331,-0.53776616,-0.656373,,0.025470179,-0.023463216,0.20154458,-0.99111587,0.1081099,0.07746914,0.11711086,0.9854676,0.123037815,-0.06304172,0.13101722,-0.98937356,,-0.33899708224695907,-0.05602842700249882,0.10918780299000001,0.0,0.0020495474964816063,0.0020042747508789796,0.0001633440661342792,,-1.4642610438844639,0.17337535302634025,0.08959437964000001,-0.007129458078473829,-0.017079562470680057,-0.0016734014047947105,0.0017967847274770708
4.35166141501395,,0.03075189,0.029610414,0.33688158,-0.7111941,-0.5627975,-0.42126232,-0.68456167,0.41810375,0.59713,-0.15993193,0.71305543,-0.68262255,,0.0021189023,-0.021930978,0.5789115,0.5466311,-0.8076656,0.22106692,-0.64901346,-0.24182135,0.72132075,-0.52912736,-0.53777176,-0.656373,,0.025470179,-0.023463216,0.20154458,-0.99111587,0.1081099,0.07746914,0.11711086,0.9854676,0.123037815,-0.06304172,0.13101722,-0.98937356,,-0.3389661913154622,-0.05602842700249882,0.10918780299000001,0.0,0.0020495474964816063,0.0020042747508789796,0.0001633440661342792,,-1.4642687666173382,0.17336763029346602,0.08959437964000001,-0.007129458078473829,-0.017079562470680057,-0.0016734014047947105,0.0017967847274770708
4.401591547008138,,0.030752335,0.029610086,0.336881,-0.71119434,-0.5628004,-0.42125794,-0.68456143,0.41810867,0.59712684,-0.15993161,0.7130502,-0.6826281,,0.002118554,-0.021930568,0.5789118,0.5466328,-0.8076656,0.22106272,-0.6490079,-0.24182132,0.72132576,-0.5291324,-0.5377718,-0.656369,,0.025470179,-0.023463216,0.20154458,-0.99111587,0.1081099,0.07746914,0.11711086,0.9854676,0.123037815,-0.06304172,0.13101722,-0.98937356,,-0.3389739140483364,-0.05602842700249882,0.10918780299000001,0.0,0.0020495474964816063,0.0020042747508789796,0.0001633440661342792,,-1.4642687666173382,0.17337535302634025,0.08959437964000001,-0.007129458078473829,-0.017079562470680057,-0.0016734014047947105,0.0017967847274770708
4.433765835012309,,0.03075222,0.029609207,0.33688033,-0.7111913,-0.5628034,-0.4212591,-0.68456584,0.4181136,0.5971183,-0.15992606,0.71304506,-0.6826348,,0.0021187197,-0.021930002,0.5789125,0.54663545,-0.80766326,0.22106473,-0.6490021,-0.24181658,0.72133255,-0.5291368,-0.5377775,-0.65636075,,0.025470179,-0.023463216,0.20154458,-0.99111587,0.1081099,0.07746914,0.11711086,0.9854676,0.123037815,-0.06304172,0.13101722,-0.98937356,,-0.3389816367812106,-0.05603614973537304,0.10918780299000001,0.0,0.0020495474964816063,0.0020042747508789796,0.0001633440661342792,,-1.4642764893502125,0.17338307575921447,0.08959437964000001,-0.007129458078473829,-0.017079562470680057,-0.0016734014047947105,0.0017967847274770708
4.486932153988164,,0.030754143,0.029612582,0.33688205,-0.71120703,-0.5627975,-0.42124033,-0.6845432,0.41810375,0.59715116,-0.15995306,0.71305543,-0.68261766,,0.0021194182,-0.021930829,0.5789118,0.54663205,-0.80766326,0.22107309,-0.6490133,-0.24181664,0.7213226,-0.5291267,-0.5377774,-0.656369,,0.025470179,-0.023463216,0.20154458,-0.99111587,0.1081099,0.07746914,0.11711086,0.9854676,0.123037815,-0.06304172,0.13101722,-0.98937356,,-0.3389661913154622,-0.05599753607100192,0.10918780299000001,0.0,0.0020495474964816063,0.0020042747508789796,0.0001633440661342792,,-1.4642764893502125,0.17336763029346602,0.08959437964000001,-0.007129458078473829,-0.017079562470680057,-0.0016734014047947105,0.0017967847274770708
4.536219059024006,,0.030754823,0.029614009,0.3368829,-0.7112133,-0.5627945,-0.4212337,-0.68453413,0.41809887,0.597165,-0.1599639,0.7130606,-0.6826097,,0.002118554,-0.021930568,0.5789118,0.5466328,-0.8076656,0.22106272,-0.6490079,-0.24182132,0.72132576,-0.5291324,-0.5377718,-0.656369,,0.025470179,-0.023463216,0.20154458,-0.99111587,0.1081099,0.07746914,0.11711086,0.9854676,0.123037815,-0.06304172,0.13101722,-0.98937356,,-0.33895846858258794,-0.05598209060525347,0.10918780299000001,0.0,0.0020495474964816063,0.0020042747508789796,0.0001633440661342792,,-1.4642687666173382,0.17337535302634025,0.08959437964000001,-0.007129458078473829,-0.017079562470680057,-0.0016734014047947105,0.0017967847274770708
4.587886693014298,,0.030738167,0.029619064,0.33689564,-0.7111812,-0.5627177,-0.4213905,-0.68457556,0.4179718,0.5972065,-0.15992936,0.7131958,-0.6824766,,0.0021189023,-0.021930978,0.5789115,0.5466311,-0.8076656,0.22106692,-0.64901346,-0.24182135,0.72132075,-0.52912736,-0.53777176,-0.656373,,0.025470179,-0.023463216,0.20154458,-0.99111587,0.1081099,0.07746914,0.11711086,0.9854676,0.123037815,-0.06304172,0.13101722,-0.98937356,,-0.3387576775278581,-0.05604387246824727,0.10918909928000001,0.0,0.0020495474964816063,0.0020042747508789796,0.0001633440661342792,,-1.4642687666173382,0.17336763029346602,0.08959437964000001,-0.007129458078473829,-0.017079562470680057,-0.0016734014047947105,0.0017967847274770708
4.6352662069839425,,0.03073468,0.029634532,0.33690935,-0.711218,-0.5626499,-0.42141888,-0.6845197,0.41785914,0.59734935,-0.16000485,0.7133152,-0.682334,,0.0021189023,-0.021930978,0.5789115,0.5466311,-0.8076656,0.22106692,-0.64901346,-0.24182135,0.72132075,-0.52912736,-0.53777176,-0.656373,,0.025470179,-0.023463216,0.20154458,-0.99111587,0.1081099,0.07746914,0.11711086,0.9854676,0.123037815,-0.06304172,0.13101722,-0.98937356,,-0.33858005467175095,-0.05594347694088235,0.10919039557000002,0.0,0.0020495474964816063,0.0020042747508789796,0.0001633440661342792,,-1.4642687666173382,0.17336763029346602,0.08959437964000001,-0.007129458078473829,-0.017079562470680057,-0.0016734014047947105,0.0017967847274770708
4.682429492007941,,0.03072641,0.02963623,0.33691406,-0.71119916,-0.56261736,-0.4214941,-0.68454456,0.41780543,0.59735835,-0.1599817,0.7133724,-0.68227965,,0.0021194182,-0.021930829,0.5789118,0.54663205,-0.80766326,0.22107309,-0.6490133,-0.24181664,0.7213226,-0.5291267,-0.5377774,-0.656369,,0.025470179,-0.023463216,0.20154458,-0.99111587,0.1081099,0.07746914,0.11711086,0.9854676,0.123037815,-0.06304172,0.13101722,-0.98937356,,-0.3384951046101345,-0.05598209060525347,0.10919169186000001,0.0,0.0020495474964816063,0.0020042747508789796,0.0001633440661342792,,-1.4642764893502125,0.17336763029346602,0.08959437964000001,-0.007129458078473829,-0.017079562470680057,-0.0016734014047947105,0.0017967847274770708
4.709204430982936,,0.030729204,0.029635124,0.33691135,-0.71120363,-0.56263214,-0.4214669,-0.68453914,0.41782987,0.5973475,-0.1599855,0.71334636,-0.68230593,,0.0021189023,-0.021930978,0.5789115,0.5466311,-0.8076656,0.22106692,-0.64901346,-0.24182135,0.72132075,-0.52912736,-0.53777176,-0.656373,,0.025470179,-0.023463216,0.20154458,-0.99111587,0.1081099,0.07746914,0.11711086,0.9854676,0.123037815,-0.06304172,0.13101722,-0.98937356,,-0.3385337182745056,-0.05597436787237925,0.10919169186000001,0.0,0.0020495474964816063,0.0020042747508789796,0.0001633440661342792,,-1.4642687666173382,0.17336763029346602,0.08959437964000001,-0.007129458078473829,-0.017079562470680057,-0.0016734014047947105,0.0017967847274770708
4.753759166982491,,0.03073552,0.02964199,0.33691344,-0.7112423,-0.56262934,-0.42140532,-0.684484,0.41782483,0.59741414,-0.16004916,0.7133516,-0.6822856,,0.00211839,-0.021931127,0.5789111,0.5466301,-0.807668,0.22106071,-0.64901376,-0.24182607,0.7213189,-0.529128,-0.53776616,-0.65637714,,0.025470179,-0.023463216,0.20154458,-0.99111587,0.1081099,0.07746914,0.11711086,0.9854676,0.123037815,-0.06304172,0.13101722,-0.98937356,,-0.3385259955416314,-0.05588169507788855,0.10919169186000001,0.0,0.0020495474964816063,0.0020042747508789796,0.0001633440661342792,,-1.4642610438844639,0.17336763029346602,0.08959437964000001,-0.007129458078473829,-0.017079562470680057,-0.0016734014047947105,0.0017967847274770708
4.799798192980234,,0.030723829,0.029635273,0.33691484,-0.71118903,-0.56261146,-0.42151922,-0.6845588,0.41779566,0.5973489,-0.15996645,0.7133828,-0.6822723,,0.0021194182,-0.021930829,0.5789118,0.54663205,-0.80766326,0.22107309,-0.6490133,-0.24181664,0.7213226,-0.5291267,-0.5377774,-0.656369,,0.025470179,-0.023463216,0.20154458,-0.99111587,0.1081099,0.07746914,0.11711086,0.9854676,0.123037815,-0.06304172,0.13101722,-0.98937356,,-0.33847965914438605,-0.05600525880387614,0.10919169186000001,0.0,0.0020495474964816063,0.0020042747508789796,0.0001633440661342792,,-1.4642764893502125,0.17336763029346602,0.08959437964000001,-0.007129458078473829,-0.017079562470680057,-0.0016734014047947105,0.0017967847274770708
4.8313801609911025,,0.030712988,0.029641036,0.3369284,-0.7111772,-0.56254345,-0.42162997,-0.6845721,0.41768315,0.59741247,-0.15996271,0.7135023,-0.6821483,,0.0021189023,-0.021930978,0.5789115,0.5466311,-0.8076656,0.22106692,-0.64901346,-0.24182135,0.72132075,-0.52912736,-0.53777176,-0.656373,,0.025470179,-0.023463216,0.20154458,-0.99111587,0.1081099,0.07746914,0.11711086,0.9854676,0.123037815,-0.06304172,0.13101722,-0.98937356,,-0.3383020362882789,-0.05602070426962459,0.10919039557000002,0.0,0.0020495474964816063,0.0020042747508789796,0.0001633440661342792,,-1.4642687666173382,0.17336763029346602,0.08959437964000001,-0.007129458078473829,-0.017079562470680057,-0.0016734014047947105,0.0017967847274770708
4.890012075018603,,0.030692924,0.029640194,0.33694193,-0.711119,-0.56246644,-0.4218307,-0.68465024,0.41755608,0.5974116,-0.15988597,0.71363735,-0.682025,,0.002118554,-0.021930568,0.5789118,0.5466328,-0.8076656,0.22106272,-0.6490079,-0.24182132,0.72132576,-0.5291324,-0.5377718,-0.656369,,0.025470179,-0.023463216,0.20154458,-0.99111587,0.1081099,0.07746914,0.11711086,0.9854676,0.123037815,-0.06304172,0.13101722,-0.98937356,,-0.3380935225006748,-0.05622921805722866,0.10918909928000001,0.0,0.0020495474964816063,0.0020042747508789796,0.0001633440661342792,,-1.4642687666173382,0.17337535302634025,0.08959437964000001,-0.007129458078473829,-0.017079562470680057,-0.0016734014047947105,0.0017967847274770708
4.937330475018825,,0.030673506,0.029617313,0.33693781,-0.710996,-0.5624719,-0.42203066,-0.68482494,0.41756633,0.59720415,-0.1596848,0.71362704,-0.6820829,,0.00211839,-0.021931127,0.5789111,0.5466301,-0.807668,0.22106071,-0.64901376,-0.24182607,0.7213189,-0.529128,-0.53776616,-0.65637714,,0.025470179,-0.023463216,0.20154458,-0.99111587,0.1081099,0.07746914,0.11711086,0.9854676,0.123037815,-0.06304172,0.13101722,-0.98937356,,-0.3381166906992975,-0.056437731844832716,0.1091865067,0.0,0.0020495474964816063,0.0020042747508789796,0.0001633440661342792,,-1.4642610438844639,0.17336763029346602,0.08959437964000001,-0.007129458078473829,-0.017079562470680057,-0.0016734014047947105,0.0017967847274770708
4.969287880987395,,0.030673044,0.029616337,0.33693913,-0.7109925,-0.56246895,-0.4220405,-0.6848297,0.4175614,0.59720206,-0.15967983,0.71363217,-0.6820786,,0.0021180417,-0.02193072,0.5789115,0.5466318,-0.807668,0.22105655,-0.6490082,-0.241826,0.72132397,-0.5291331,-0.53776616,-0.656373,,0.025470179,-0.023463216,0.20154458,-0.99111587,0.1081099,0.07746914,0.11711086,0.9854676,0.123037815,-0.06304172,0.13101722,-0.98937356,,-0.33810896796642326,-0.056445454577706944,0.10918521041000001,0.0,0.0020495474964816063,0.0020042747508789796,0.0001633440661342792,,-1.4642610438844639,0.17337535302634025,0.08959437964000001,-0.007129458078473829,-0.017079562470680057,-0.0016734014047947105,0.0017967847274770708
5.0177884949953295,,0.030659676,0.029606786,0.33693528,-0.710924,-0.5624658,-0.42216015,-0.6849267,0.41755673,0.5970943,-0.1595693,0.7136375,-0.682099,,0.0021190662,-0.021930423,0.57891214,0.5466337,-0.80766326,0.2210689,-0.6490077,-0.24181664,0.72132754,-0.5291317,-0.5377774,-0.6563649,,0.025470179,-0.023463216,0.20154458,-0.99111587,0.1081099,0.07746914,0.11711086,0.9854676,0.123037815,-0.06304172,0.13101722,-0.98937356,,-0.338101245233549,-0.056607631968065654,0.10918780299000001,0.0,0.0020495474964816063,0.0020042747508789796,0.0001633440661342792,,-1.4642764893502125,0.17337535302634025,0.08959437964000001,-0.007129458078473829,-0.017079562470680057,-0.0016734014047947105,0.0017967847274770708
5.068513182981405,,0.03062391,0.02957886,0.33693123,-0.710737,-0.5624445,-0.4225034,-0.6851903,0.4175231,0.59681517,-0.15927051,0.7136739,-0.68213063,,0.0021194182,-0.021930829,0.5789118,0.54663205,-0.80766326,0.22107309,-0.6490133,-0.24181664,0.7213226,-0.5291267,-0.5377774,-0.656369,,0.025470179,-0.023463216,0.20154458,-0.99111587,0.1081099,0.07746914,0.11711086,0.9854676,0.123037815,-0.06304172,0.13101722,-0.98937356,,-0.3380471861034295,-0.057047827741896456,0.10918909928000001,0.0,0.0020495474964816063,0.0020042747508789796,0.0001633440661342792,,-1.4642764893502125,0.17336763029346602,0.08959437964000001,-0.007129458078473829,-0.017079562470680057,-0.0016734014047947105,0.0017967847274770708
5.104243553010747,,0.030610163,0.029564034,0.33692682,-0.71065277,-0.5624501,-0.42263746,-0.6853095,0.41753313,0.5966712,-0.15913263,0.71366364,-0.6821736,,0.0021182057,-0.021930154,0.57891214,0.54663444,-0.8076656,0.22105855,-0.6490023,-0.24182129,0.72133076,-0.5291375,-0.5377718,-0.6563648,,0.025470179,-0.023463216,0.20154458,-0.99111587,0.1081099,0.07746914,0.11711086,0.9854676,0.123037815,-0.06304172,0.13101722,-0.98937356,,-0.33806263156917793,-0.057248618796626294,0.10918909928000001,0.0,0.0020495474964816063,0.0020042747508789796,0.0001633440661342792,,-1.4642687666173382,0.17338307575921447,0.08959437964000001,-0.007129458078473829,-0.017079562470680057,-0.0016734014047947105,0.0017967847274770708
5.168163986993022,,0.03059642,0.02957004,0.33694243,-0.7106333,-0.56237024,-0.42277652,-0.68533283,0.4174011,0.5967369,-0.15911973,0.7138038,-0.68202996,,0.002118554,-0.021930568,0.5789118,0.5466328,-0.8076656,0.22106272,-0.6490079,-0.24182132,0.72132576,-0.5291324,-0.5377718,-0.656369,,0.025470179,-0.023463216,0.20154458,-0.99111587,0.1081099,0.07746914,0.11711086,0.9854676,0.123037815,-0.06304172,0.13101722,-0.98937356,,-0.33785411778157387,-0.057279509728123186,0.10918780299000001,0.0,0.0020495474964816063,0.0020042747508789796,0.0001633440661342792,,-1.4642687666173382,0.17337535302634025,0.08959437964000001,-0.007129458078473829,-0.017079562470680057,-0.0016734014047947105,0.0017967847274770708
5.202168616000563,,0.030573074,0.029592808,0.33694366,-0.7106293,-0.56231433,-0.42285743,-0.6853344,0.41730404,0.596803,-0.15913081,0.7139045,-0.6819219,,0.002134513,-0.021915596,0.5789045,0.5466562,-0.8076517,0.22105555,-0.64897513,-0.24182035,0.72135556,-0.5291484,-0.5377931,-0.65633863,,0.025460059,-0.023451332,0.20153996,-0.99111193,0.108142905,0.077473305,0.1171442,0.98546374,0.12303724,-0.06304152,0.13101923,-0.9893733,,-0.33769966312408933,-0.057294955193871636,0.10918909928000001,0.0,0.0020495474964816063,0.0020042747508789796,0.0001633440661342792,,-1.4642687666173382,0.17336763029346602,0.08959437964000001,-0.007129458078473829,-0.017079562470680057,-0.0016734014047947105,0.0017967847274770708
5.252511002996471,,0.030558104,0.029598158,0.33695757,-0.7106035,-0.56223744,-0.42300314,-0.68536663,0.41717687,0.5968549,-0.15910706,0.7140395,-0.6817862,,0.0021333005,-0.021914925,0.5789049,0.54665864,-0.807654,0.22104101,-0.6489643,-0.241825,0.7213638,-0.52915925,-0.5377875,-0.65633446,,0.025460059,-0.023451332,0.20153996,-0.99111193,0.108142905,0.077473305,0.1171442,0.98546374,0.12303724,-0.06304152,0.13101923,-0.9893733,,-0.3374988720693595,-0.057341291591116984,0.10918909928000001,0.0,0.0020495474964816063,0.0020042747508789796,0.0001633440661342792,,-1.4642610438844639,0.17338307575921447,0.08959437964000001,-0.007129458078473829,-0.017079562470680057,-0.0016734014047947105,0.0017967847274770708
5.293921481992584,,0.030521723,0.029597264,0.33697933,-0.7104982,-0.5621039,-0.4233573,-0.68550813,0.41695684,0.5968461,-0.1589678,0.71427304,-0.681574,,0.002134679,-0.021915026,0.5789052,0.54665875,-0.80764943,0.22105756,-0.6489693,-0.2418156,0.7213624,-0.5291528,-0.53779876,-0.65633047,,0.025460059,-0.023451332,0.20153996,-0.99111193,0.108142905,0.077473305,0.1171442,0.98546374,0.12303724,-0.06304152,0.13101923,-0.9893733,,-0.3371513490900194,-0.05756525084446949,0.10918909928000001,0.0,0.0020495474964816063,0.0020042747508789796,0.0001633440661342792,,-1.4642764893502125,0.17337535302634025,0.08959437964000001,-0.007129458078473829,-0.017079562470680057,-0.0016734014047947105,0.0017967847274770708
5.338145087007433,,0.03048306,0.029589038,0.33699805,-0.7103644,-0.5619851,-0.42373925,-0.6856903,0.41676143,0.59677345,-0.15877962,0.7144806,-0.6814003,,0.002134679,-0.021915026,0.5789052,0.54665875,-0.80764943,0.22105756,-0.6489693,-0.2418156,0.7213624,-0.5291528,-0.53779876,-0.65633047,,0.025460059,-0.023451332,0.20153996,-0.99111193,0.108142905,0.077473305,0.1171442,0.98546374,0.12303724,-0.06304152,0.13101923,-0.9893733,,-0.33684243977505046,-0.05785871469369003,0.10918780299000001,0.0,0.0020495474964816063,0.0020042747508789796,0.0001633440661342792,,-1.4642764893502125,0.17337535302634025,0.08959437964000001,-0.007129458078473829,-0.017079562470680057,-0.0016734014047947105,0.0017967847274770708
5.375911684997845,,0.03046906,0.029588137,0.33700973,-0.71032375,-0.5619257,-0.42388624,-0.68574446,0.4166636,0.59677947,-0.15872778,0.71458435,-0.6813036,,0.0021338146,-0.021914773,0.5789052,0.5466595,-0.8076517,0.2210472,-0.64896405,-0.24182025,0.72136563,-0.5291586,-0.53779316,-0.65633035,,0.025460059,-0.023451332,0.20153996,-0.99111193,0.108142905,0.077473305,0.1171442,0.98546374,0.12303724,-0.06304152,0.13101923,-0.9893733,,-0.33662620325457215,-0.057974555686803396,0.10918261783000001,0.0,0.0020495474964816063,0.0020042747508789796,0.0001633440661342792,,-1.4642687666173382,0.17338307575921447,0.08959437964000001,-0.007129458078473829,-0.017079562470680057,-0.0016734014047947105,0.0017967847274770708
5.418068642029539,,0.030462421,0.029584877,0.3370186,-0.7102982,-0.5618931,-0.42397228,-0.6857787,0.41660976,0.5967777,-0.15869425,0.71464133,-0.6812515,,0.002134679,-0.021915026,0.5789052,0.54665875,-0.80764943,0.22105756,-0.6489693,-0.2418156,0.7213624,-0.5291528,-0.53779876,-0.65633047,,0.025460059,-0.023451332,0.20153996,-0.99111193,0.108142905,0.077473305,0.1171442,0.98546374,0.12303724,-0.06304152,0.13101923,-0.9893733,,-0.33660303505594946,-0.05799772388542607,0.10918002525,0.0,0.0020495474964816063,0.0020042747508789796,0.0001633440661342792,,-1.4642764893502125,0.17337535302634025,0.08959437964000001,-0.007129458078473829,-0.017079562470680057,-0.0016734014047947105,0.0017967847274770708
5.466239348985255,,0.030467823,0.029589888,0.33701771,-0.7103281,-0.56189907,-0.42391425,-0.6857369,0.41661948,0.5968189,-0.1587411,0.714631,-0.6812516,,0.0021341648,-0.021915179,0.57890487,0.5466579,-0.8076517,0.2210514,-0.64896965,-0.24182032,0.7213606,-0.52915347,-0.5377931,-0.6563345,,0.025460059,-0.023451332,0.20153996,-0.99111193,0.108142905,0.077473305,0.1171442,0.98546374,0.12303724,-0.06304152,0.13101923,-0.9893733,,-0.3366184805216979,-0.05792821928955805,0.10918132154000001,0.0,0.0020495474964816063,0.0020042747508789796,0.0001633440661342792,,-1.4642687666173382,0.17337535302634025,0.08959437964000001,-0.007129458078473829,-0.017079562470680057,-0.0016734014047947105,0.0017967847274770708
5.502313690027222,,0.030452562,0.029581968,0.3370203,-0.7102605,-0.56187224,-0.42406297,-0.68583053,0.41657558,0.5967419,-0.15863842,0.7146777,-0.6812265,,0.0021333005,-0.021914925,0.5789049,0.54665864,-0.807654,0.22104101,-0.6489643,-0.241825,0.7213638,-0.52915925,-0.5377875,-0.65633446,,0.025460059,-0.023451332,0.20153996,-0.99111193,0.108142905,0.077473305,0.1171442,0.98546374,0.12303724,-0.06304152,0.13101923,-0.9893733,,-0.3365489759258299,-0.058082673947042536,0.10918132154000001,0.0,0.0020495474964816063,0.0020042747508789796,0.0001633440661342792,,-1.4642610438844639,0.17338307575921447,0.08959437964000001,-0.007129458078473829,-0.017079562470680057,-0.0016734014047947105,0.0017967847274770708
5.560160806984641,,0.030456971,0.0295722,0.33701286,-0.7102446,-0.5619166,-0.42403087,-0.6858555,0.41664916,0.5966619,-0.15860216,0.71459997,-0.6813165,,0.002134513,-0.021915596,0.5789045,0.5466562,-0.8076517,0.22105555,-0.64897513,-0.24182035,0.72135556,-0.5291484,-0.5377931,-0.65633863,,0.025460059,-0.023451332,0.20153996,-0.99111193,0.108142905,0.077473305,0.1171442,0.98546374,0.12303724,-0.06304152,0.13101923,-0.9893733,,-0.3366648169189433,-0.058129010344287885,0.10917872896000001,0.0,0.0020495474964816063,0.0020042747508789796,0.0001633440661342792,,-1.4642687666173382,0.17336763029346602,0.08959437964000001,-0.007129458078473829,-0.017079562470680057,-0.0016734014047947105,0.0017967847274770708
5.598914711037651,,0.030454742,0.029573854,0.3370157,-0.71024346,-0.5619018,-0.4240525,-0.6858564,0.41662464,0.596678,-0.1586037,0.71462584,-0.6812889,,0.0021336507,-0.021915335,0.57890457,0.54665697,-0.807654,0.22104517,-0.6489699,-0.24182506,0.7213588,-0.5291542,-0.53778744,-0.6563386,,0.025460059,-0.023451332,0.20153996,-0.99111193,0.108142905,0.077473305,0.1171442,0.98546374,0.12303724,-0.06304152,0.13101923,-0.9893733,,-0.33662620325457215,-0.058129010344287885,0.10917872896000001,0.0,0.0020495474964816063,0.0020042747508789796,0.0001633440661342792,,-1.4642610438844639,0.17337535302634025,0.08959437964000001,-0.007129458078473829,-0.017079562470680057,-0.0016734014047947105,0.0017967847274770708
5.654352764016949,,0.03045297,0.029577684,0.337022,-0.71025103,-0.56187516,-0.4240751,-0.68584424,0.41658056,0.5967228,-0.15862231,0.7146725,-0.6812357,,0.0021341648,-0.021915179,0.57890487,0.5466579,-0.8076517,0.2210514,-0.64896965,-0.24182032,0.7213606,-0.52915347,-0.5377931,-0.6563345,,0.025460059,-0.023451332,0.20153996,-0.99111193,0.108142905,0.077473305,0.1171442,0.98546374,0.12303724,-0.06304152,0.13101923,-0.9893733,,-0.33655669865870413,-0.058105842145665214,0.10917743267,0.0,0.0020495474964816063,0.0020042747508789796,0.0001633440661342792,,-1.4642687666173382,0.17337535302634025,0.08959437964000001,-0.007129458078473829,-0.017079562470680057,-0.0016734014047947105,0.0017967847274770708
5.703543937008362,,0.030464118,0.029589023,0.33702308,-0.7103166,-0.5618783,-0.42396104,-0.685752,0.41658524,0.5968255,-0.15872742,0.71466726,-0.6812166,,0.0021336507,-0.021915335,0.57890457,0.54665697,-0.807654,0.22104517,-0.6489699,-0.24182506,0.7213588,-0.5291542,-0.53778744,-0.6563386,,0.025460059,-0.023451332,0.20153996,-0.99111193,0.108142905,0.077473305,0.1171442,0.98546374,0.12303724,-0.06304152,0.13101923,-0.9893733,,-0.3365644213915784,-0.05795138748818072,0.10917872896000001,0.0,0.0020495474964816063,0.0020042747508789796,0.0001633440661342792,,-1.4642610438844639,0.17337535302634025,0.08959437964000001,-0.007129458078473829,-0.017079562470680057,-0.0016734014047947105,0.0017967847274770708
5.7371967129874974,,0.03046706,0.02959514,0.33702847,-0.71034455,-0.56186074,-0.42393774,-0.6857116,0.4165557,0.5968924,-0.15877672,0.7146984,-0.68117255,,0.0021341648,-0.021915179,0.57890487,0.5466579,-0.8076517,0.2210514,-0.64896965,-0.24182032,0.7213606,-0.52915347,-0.5377931,-0.6563345,,0.025460059,-0.023451332,0.20153996,-0.99111193,0.108142905,0.077473305,0.1171442,0.98546374,0.12303724,-0.06304152,0.13101923,-0.9893733,,-0.336518084994333,-0.0578818828923127,0.10917743267,0.0,0.0020495474964816063,0.0020042747508789796,0.0001633440661342792,,-1.4642687666173382,0.17337535302634025,0.08959437964000001,-0.007129458078473829,-0.017079562470680057,-0.0016734014047947105,0.0017967847274770708
5.788159126997925,,0.030431684,0.02959061,0.3370465,-0.71023047,-0.56174475,-0.42428216,-0.68586594,0.41636506,0.5968482,-0.15862007,0.71490055,-0.68099684,,0.0021348614,-0.02191601,0.5789042,0.54665446,-0.8076517,0.22105971,-0.64898074,-0.24182041,0.7213505,-0.52914333,-0.53779304,-0.65634274,,0.025460059,-0.023451332,0.20153996,-0.99111193,0.108142905,0.077473305,0.1171442,0.98546374,0.12303724,-0.06304152,0.13101923,-0.9893733,,-0.33620917567936404,-0.058129010344287885,0.10917743267,0.0,0.0020495474964816063,0.0020042747508789796,0.0001633440661342792,,-1.4642687666173382,0.1733599075605918,0.08959437964000001,-0.007129458078473829,-0.017079562470680057,-0.0016734014047947105,0.0017967847274770708
5.826605163980275,,0.030401472,0.029588003,0.337063,-0.71013695,-0.5616407,-0.42457634,-0.68599194,0.41619384,0.59682274,-0.1584939,0.71508205,-0.6808357,,0.0021336507,-0.021915335,0.57890457,0.54665697,-0.807654,0.22104517,-0.6489699,-0.24182506,0.7213588,-0.5291542,-0.53778744,-0.6563386,,0.025460059,-0.023451332,0.20153996,-0.99111193,0.108142905,0.077473305,0.1171442,0.98546374,0.12303724,-0.06304152,0.13101923,-0.9893733,,-0.3359697709602631,-0.05831435593326927,0.10917743267,0.0,0.0020495474964816063,0.0020042747508789796,0.0001633440661342792,,-1.4642610438844639,0.17337535302634025,0.08959437964000001,-0.007129458078473829,-0.017079562470680057,-0.0016734014047947105,0.0017967847274770708
5.868503303034231,,0.030415349,0.029589266,0.3370555,-0.71018004,-0.5616882,-0.4244413,-0.68593377,0.41627207,0.596835,-0.15855218,0.7149991,-0.6809093,,0.0021336507,-0.021915335,0.57890457,0.54665697,-0.807654,0.22104517,-0.6489699,-0.24182506,0.7213588,-0.5291542,-0.53778744,-0.6563386,,0.025460059,-0.023451332,0.20153996,-0.99111193,0.108142905,0.077473305,0.1171442,0.98546374,0.12303724,-0.06304152,0.13101923,-0.9893733,,-0.336070166487628,-0.058237128604527025,0.10917743267,0.0,0.0020495474964816063,0.0020042747508789796,0.0001633440661342792,,-1.4642610438844639,0.17337535302634025,0.08959437964000001,-0.007129458078473829,-0.017079562470680057,-0.0016734014047947105,0.0017967847274770708
5.910847481980454,,0.030418992,0.029582344,0.3370491,-0.71017,-0.5617238,-0.42441118,-0.6859501,0.41633093,0.5967753,-0.15852737,0.71493685,-0.68098027,,0.0021350253,-0.021915443,0.5789049,0.5466571,-0.80764943,0.22106174,-0.6489749,-0.24181566,0.72135735,-0.52914774,-0.53779876,-0.6563345,,0.025460059,-0.023451332,0.20153996,-0.99111193,0.108142905,0.077473305,0.1171442,0.98546374,0.12303724,-0.06304152,0.13101923,-0.9893733,,-0.3361628392821187,-0.058268019536023924,0.10917613638000001,0.0,0.0020495474964816063,0.0020042747508789796,0.0001633440661342792,,-1.4642764893502125,0.17336763029346602,0.08959437964000001,-0.007129458078473829,-0.017079562470680057,-0.0016734014047947105,0.0017967847274770708
5.971236177021638,,0.030387118,0.029561248,0.33704296,-0.71001154,-0.5617055,-0.42470038,-0.686172,0.41630208,0.5965403,-0.15827626,0.7149681,-0.68100595,,0.0021341648,-0.021915179,0.57890487,0.5466579,-0.8076517,0.2210514,-0.64896965,-0.24182032,0.7213606,-0.52915347,-0.5377931,-0.6563345,,0.025460059,-0.023451332,0.20153996,-0.99111193,0.108142905,0.077473305,0.1171442,0.98546374,0.12303724,-0.06304152,0.13101923,-0.9893733,,-0.3361165028848733,-0.0586387107139867,0.10918132154000001,0.0,0.0020495474964816063,0.0020042747508789796,0.0001633440661342792,,-1.4642687666173382,0.17337535302634025,0.08959437964000001,-0.007129458078473829,-0.017079562470680057,-0.0016734014047947105,0.0017967847274770708
6.003446132992394,,0.030380044,0.029555913,0.33704275,-0.709975,-0.56169945,-0.4247694,-0.68622303,0.41629237,0.59648836,-0.15821892,0.7149785,-0.6810084,,0.002134679,-0.021915026,0.5789052,0.54665875,-0.80764943,0.22105756,-0.6489693,-0.2418156,0.7213624,-0.5291528,-0.53779876,-0.65633047,,0.025460059,-0.023451332,0.20153996,-0.99111193,0.108142905,0.077473305,0.1171442,0.98546374,0.12303724,-0.06304152,0.13101923,-0.9893733,,-0.3361010574191249,-0.05872366077560317,0.10918132154000001,0.0,0.0020495474964816063,0.0020042747508789796,0.0001633440661342792,,-1.4642764893502125,0.17337535302634025,0.08959437964000001,-0.007129458078473829,-0.017079562470680057,-0.0016734014047947105,0.0017967847274770708
6.06608492298983,,0.030373916,0.0295613,0.33705693,-0.7099767,-0.56164014,-0.4248451,-0.6862174,0.41619438,0.59656316,-0.1582357,0.71508217,-0.6808956,,0.0021341648,-0.021915179,0.57890487,0.5466579,-0.8076517,0.2210514,-0.64896965,-0.24182032,0.7213606,-0.52915347,-0.5377931,-0.6563345,,0.025460059,-0.023451332,0.20153996,-0.99111193,0.108142905,0.077473305,0.1171442,0.98546374,0.12303724,-0.06304152,0.13101923,-0.9893733,,-0.3359466027616404,-0.05870821530985472,0.10917743267,0.0,0.0020495474964816063,0.0020042747508789796,0.0001633440661342792,,-1.4642687666173382,0.17337535302634025,0.08959437964000001,-0.007129458078473829,-0.017079562470680057,-0.0016734014047947105,0.0017967847274770708
6.102921285026241,,0.030372906,0.029561087,0.33705735,-0.70997316,-0.56163716,-0.42485484,-0.68622226,0.41618946,0.5965611,-0.15823074,0.7150873,-0.6808914,,0.0021341648,-0.021915179,0.57890487,0.5466579,-0.8076517,0.2210514,-0.64896965,-0.24182032,0.7213606,-0.52915347,-0.5377931,-0.6563345,,0.025460059,-0.023451332,0.20153996,-0.99111193,0.108142905,0.077473305,0.1171442,0.98546374,0.12303724,-0.06304152,0.13101923,-0.9893733,,-0.33593888002876615,-0.05871593804272895,0.10917743267,0.0,0.0020495474964816063,0.0020042747508789796,0.0001633440661342792,,-1.4642687666173382,0.17337535302634025,0.08959437964000001,-0.007129458078473829,-0.017079562470680057,-0.0016734014047947105,0.0017967847274770708
6.155031289032195,,0.030371081,0.02955595,0.33705783,-0.7099537,-0.5616401,-0.42488348,-0.6862497,0.41619444,0.596526,-0.15819882,0.71508217,-0.6809042,,0.002134513,-0.021915596,0.5789045,0.5466562,-0.8076517,0.22105555,-0.64897513,-0.24182035,0.72135556,-0.5291484,-0.5377931,-0.65633863,,0.025460059,-0.023451332,0.20153996,-0.99111193,0.108142905,0.077473305,0.1171442,0.98546374,0.12303724,-0.06304152,0.13101923,-0.9893733,,-0.3359543254945146,-0.058777719905722746,0.10917484009000002,0.0,0.0020495474964816063,0.0020042747508789796,0.0001633440661342792,,-1.4642687666173382,0.17336763029346602,0.08959437964000001,-0.007129458078473829,-0.017079562470680057,-0.0016734014047947105,0.0017967847274770708
6.206988849036861,,0.030364918,0.029552586,0.33705494,-0.70992434,-0.56163996,-0.42493284,-0.6862911,0.4161945,0.59647834,-0.15815139,0.71508217,-0.6809152,,0.0021338146,-0.021914773,0.5789052,0.5466595,-0.8076517,0.2210472,-0.64896405,-0.24182025,0.72136563,-0.5291586,-0.53779316,-0.65633035,,0.025460059,-0.023451332,0.20153996,-0.99111193,0.108142905,0.077473305,0.1171442,0.98546374,0.12303724,-0.06304152,0.13101923,-0.9893733,,-0.3359466027616404,-0.058831779035842316,0.10917743267,0.0,0.0020495474964816063,0.0020042747508789796,0.0001633440661342792,,-1.4642687666173382,0.17338307575921447,0.08959437964000001,-0.007129458078473829,-0.017079562470680057,-0.0016734014047947105,0.0017967847274770708
6.24376044201199,,0.03036103,0.029557638,0.33706555,-0.7099304,-0.5615955,-0.42498136,-0.68628,0.416121,0.59654236,-0.15817189,0.7151599,-0.6808288,,0.002134679,-0.021915026,0.5789052,0.54665875,-0.80764943,0.22105756,-0.6489693,-0.2418156,0.7213624,-0.5291528,-0.53779876,-0.65633047,,0.025460059,-0.023451332,0.20153996,-0.99111193,0.108142905,0.077473305,0.1171442,0.98546374,0.12303724,-0.06304152,0.13101923,-0.9893733,,-0.33583076176852705,-0.05880861083721964,0.10917484009000002,0.0,0.0020495474964816063,0.0020042747508789796,0.0001633440661342792,,-1.4642764893502125,0.17337535302634025,0.08959437964000001,-0.007129458078473829,-0.017079562470680057,-0.0016734014047947105,0.0017967847274770708
