AlexandreBanks6/ExpertPlaybackApp/resources/Motions/Motion_30.csv
Time,si_T_psm1,Tx,Ty,Tz,R00,R01,R02,R10,R11,R12,R20,R21,R22,si_T_psm3,Tx,Ty,Tz,R00,R01,R02,R10,R11,R12,R20,R21,R22,si_T_ecm,Tx,Ty,Tz,R00,R01,R02,R10,R11,R12,R20,R21,R22,joint_vars_psm1,q1,q2,q3,q4,q5,q6,jaw,joint_vars_psm3,q1,q2,q3,q4,q5,q6,jaw
lci_T_si
,,-0.054418273,0.06714811,0.4724938,0.99973655,0.022199249,0.0058341217,0.022835294,-0.98765796,-0.15495273,0.0023222822,0.15504514,-0.98790467
rci_T_si
,,-0.07306147,0.07910024,0.5718705,0.999947,0.009960275,-0.0025968805,0.009484467,-0.9896006,-0.14352962,-0.003999469,0.14349738,-0.9896426
ecm_T_lc
,,-0.039348,0.051043153,-0.2725159,-0.9888841,-0.12934415,0.07333705,0.13224038,-0.9905602,0.036096916,0.06797584,0.045393787,0.9966537
ecm_T_rc
,,0.010096899,0.19171284,-0.6841031,-0.99695045,-0.013193613,-0.07691395,0.014341901,-0.9997935,-0.014396289,-0.07670814,-0.015455482,0.99693376
0.030474527971819043,,0.03285777,0.03240653,0.33887774,-0.71269006,-0.55004734,-0.43533972,-0.68570495,0.4154021,0.5977039,-0.14792444,0.72449213,-0.6732231,,0.0052728225,-0.01568831,0.57916975,0.5438589,-0.81065345,0.2169294,-0.65454715,-0.24801488,0.7141826,-0.5251528,-0.53040504,-0.665496,,0.026627352,-0.021201676,0.1990369,-0.9914087,0.10965366,0.071307,0.1171497,0.98686886,0.11120205,-0.058176953,0.1186003,-0.9912362,,-0.32691100529879774,-0.055140312721963,0.10687781421,0.0014678296043916705,0.0017762744969507258,0.008598052289235675,-0.0024501609920141876,,-1.4642764893502125,0.17359931227969275,0.08959437964000001,-0.007339148021958352,-0.017079562470680057,-0.0016734014047947105,0.0017967847274770708
0.06045091594569385,,0.032858197,0.032406203,0.3388772,-0.71269023,-0.55005044,-0.43533546,-0.68570477,0.415407,0.5977007,-0.14792414,0.72448707,-0.6732286,,0.0052723046,-0.015688462,0.57916945,0.5438579,-0.8106558,0.21692319,-0.65454745,-0.24801955,0.71418065,-0.5251535,-0.5303993,-0.6654999,,0.026627352,-0.021201676,0.1990369,-0.9914087,0.10965366,0.071307,0.1171497,0.98686886,0.11120205,-0.058176953,0.1186003,-0.9912362,,-0.32691872803167193,-0.055140312721963,0.10687781421,0.0014678296043916705,0.0017762744969507258,0.008598052289235675,-0.0024501609920141876,,-1.4642687666173382,0.17359931227969275,0.08959437964000001,-0.007339148021958352,-0.017079562470680057,-0.0016734014047947105,0.0017967847274770708
0.10178402799647301,,0.03285777,0.03240653,0.33887774,-0.71269006,-0.55004734,-0.43533972,-0.68570495,0.4154021,0.5977039,-0.14792444,0.72449213,-0.6732231,,0.0052723046,-0.015688462,0.57916945,0.5438579,-0.8106558,0.21692319,-0.65454745,-0.24801955,0.71418065,-0.5251535,-0.5303993,-0.6654999,,0.026627352,-0.021201676,0.1990369,-0.9914087,0.10965366,0.071307,0.1171497,0.98686886,0.11120205,-0.058176953,0.1186003,-0.9912362,,-0.32691100529879774,-0.055140312721963,0.10687781421,0.0014678296043916705,0.0017762744969507258,0.008598052289235675,-0.0024501609920141876,,-1.4642687666173382,0.17359931227969275,0.08959437964000001,-0.007339148021958352,-0.017079562470680057,-0.0016734014047947105,0.0017967847274770708
0.16434036195278168,,0.03285777,0.03240653,0.33887774,-0.71269006,-0.55004734,-0.43533972,-0.68570495,0.4154021,0.5977039,-0.14792444,0.72449213,-0.6732231,,0.0052728225,-0.01568831,0.57916975,0.5438589,-0.81065345,0.2169294,-0.65454715,-0.24801488,0.7141826,-0.5251528,-0.53040504,-0.665496,,0.026627352,-0.021201676,0.1990369,-0.9914087,0.10965366,0.071307,0.1171497,0.98686886,0.11120205,-0.058176953,0.1186003,-0.9912362,,-0.32691100529879774,-0.055140312721963,0.10687781421,0.0014678296043916705,0.0017762744969507258,0.008598052289235675,-0.0024501609920141876,,-1.4642764893502125,0.17359931227969275,0.08959437964000001,-0.007339148021958352,-0.017079562470680057,-0.0016734014047947105,0.0017967847274770708
0.1950054539483972,,0.032858197,0.032406203,0.3388772,-0.71269023,-0.55005044,-0.43533546,-0.68570477,0.415407,0.5977007,-0.14792414,0.72448707,-0.6732286,,0.0052728225,-0.01568831,0.57916975,0.5438589,-0.81065345,0.2169294,-0.65454715,-0.24801488,0.7141826,-0.5251528,-0.53040504,-0.665496,,0.026627352,-0.021201676,0.1990369,-0.9914087,0.10965366,0.071307,0.1171497,0.98686886,0.11120205,-0.058176953,0.1186003,-0.9912362,,-0.32691872803167193,-0.055140312721963,0.10687781421,0.0014678296043916705,0.0017762744969507258,0.008598052289235675,-0.0024501609920141876,,-1.4642764893502125,0.17359931227969275,0.08959437964000001,-0.007339148021958352,-0.017079562470680057,-0.0016734014047947105,0.0017967847274770708
0.24143168597947806,,0.0328582,0.03240621,0.33887717,-0.71292245,-0.5497518,-0.43533248,-0.6855283,0.41569498,0.5977028,-0.14762275,0.72454846,-0.6732287,,0.0052723046,-0.015688462,0.57916945,0.5438579,-0.8106558,0.21692319,-0.65454745,-0.24801955,0.71418065,-0.5251535,-0.5303993,-0.6654999,,0.026627352,-0.021201676,0.1990369,-0.9914087,0.10965366,0.071307,0.1171497,0.98686886,0.11120205,-0.058176953,0.1186003,-0.9912362,,-0.32691872803167193,-0.055140312721963,0.10687781421,0.0018872094913607192,0.0017762744969507258,0.008598052289235675,-0.0024501609920141876,,-1.4642687666173382,0.17359931227969275,0.08959437964000001,-0.007339148021958352,-0.017079562470680057,-0.0016734014047947105,0.0017967847274770708
0.3108855309546925,,0.032858633,0.032405883,0.3388766,-0.7129227,-0.5497548,-0.4353282,-0.6855281,0.41569987,0.5976997,-0.14762245,0.72454333,-0.6732342,,0.0052728225,-0.01568831,0.57916975,0.5438589,-0.81065345,0.2169294,-0.65454715,-0.24801488,0.7141826,-0.5251528,-0.53040504,-0.665496,,0.026627352,-0.021201676,0.1990369,-0.9914087,0.10965366,0.071307,0.1171497,0.98686886,0.11120205,-0.058176953,0.1186003,-0.9912362,,-0.3269264507645462,-0.055140312721963,0.10687781421,0.0018872094913607192,0.0017762744969507258,0.008598052289235675,-0.0024501609920141876,,-1.4642764893502125,0.17359931227969275,0.08959437964000001,-0.007339148021958352,-0.017079562470680057,-0.0016734014047947105,0.0017967847274770708
0.34586766199208796,,0.032857772,0.03240653,0.33887774,-0.7129222,-0.5497488,-0.43533674,-0.6855285,0.41569006,0.597706,-0.14762303,0.7245536,-0.6732231,,0.0052723046,-0.015688462,0.57916945,0.5438579,-0.8106558,0.21692319,-0.65454745,-0.24801955,0.71418065,-0.5251535,-0.5303993,-0.6654999,,0.026627352,-0.021201676,0.1990369,-0.9914087,0.10965366,0.071307,0.1171497,0.98686886,0.11120205,-0.058176953,0.1186003,-0.9912362,,-0.32691100529879774,-0.055140312721963,0.10687781421,0.0018872094913607192,0.0017762744969507258,0.008598052289235675,-0.0024501609920141876,,-1.4642687666173382,0.17359931227969275,0.08959437964000001,-0.007339148021958352,-0.017079562470680057,-0.0016734014047947105,0.0017967847274770708
0.38778728496981785,,0.032857716,0.03240896,0.33888444,-0.7129305,-0.5497363,-0.43533897,-0.68552554,0.41571403,0.5976927,-0.14759682,0.72454935,-0.67323345,,0.0053495374,-0.015707063,0.57918566,0.54388887,-0.8106397,0.21690576,-0.65453804,-0.24805994,0.7141751,-0.5251331,-0.53040504,-0.6655115,,0.026636114,-0.021203896,0.19903319,-0.9914107,0.109637775,0.071305014,0.11713371,0.98687065,0.11120232,-0.058176864,0.1185994,-0.9912363,,-0.32691100529879774,-0.055140312721963,0.10687781421,0.0018872094913607192,0.0017762744969507258,0.008598052289235675,-0.0024501609920141876,,-1.4642764893502125,0.17359931227969275,0.08959437964000001,-0.007339148021958352,-0.017079562470680057,-0.0016734014047947105,0.0017967847274770708
0.44786265294533223,,0.032855943,0.032407254,0.3388841,-0.7128128,-0.5496376,-0.43565637,-0.68568784,0.41558248,0.597598,-0.14741115,0.7246997,-0.6731123,,0.005349368,-0.015707629,0.579185,0.5438863,-0.810642,0.2169037,-0.65454376,-0.24806465,0.7141683,-0.5251286,-0.53039926,-0.6655196,,0.026636114,-0.021203896,0.19903319,-0.9914107,0.109637775,0.071305014,0.11713371,0.98687065,0.11120232,-0.058176864,0.1185994,-0.9912363,,-0.32691100529879774,-0.055140312721963,0.10687781421,0.0018872094913607192,0.001503001497419845,0.008820888096628518,-0.0024501609920141876,,-1.4642687666173382,0.17359158954681853,0.08959437964000001,-0.007339148021958352,-0.017079562470680057,-0.0016734014047947105,0.0017967847274770708
0.47802599996794015,,0.032855943,0.032407254,0.3388841,-0.7128128,-0.5496376,-0.43565637,-0.68568784,0.41558248,0.597598,-0.14741115,0.7246997,-0.6731123,,0.005349368,-0.015707629,0.579185,0.5438863,-0.810642,0.2169037,-0.65454376,-0.24806465,0.7141683,-0.5251286,-0.53039926,-0.6655196,,0.026636114,-0.021203896,0.19903319,-0.9914107,0.109637775,0.071305014,0.11713371,0.98687065,0.11120232,-0.058176864,0.1185994,-0.9912363,,-0.32691100529879774,-0.055140312721963,0.10687781421,0.0018872094913607192,0.001503001497419845,0.008820888096628518,-0.0024501609920141876,,-1.4642687666173382,0.17359158954681853,0.08959437964000001,-0.007339148021958352,-0.017079562470680057,-0.0016734014047947105,0.0017967847274770708
0.5164294149726629,,0.032855943,0.032407254,0.3388841,-0.7128128,-0.5496376,-0.43565637,-0.68568784,0.41558248,0.597598,-0.14741115,0.7246997,-0.6731123,,0.0053490214,-0.015707219,0.57918537,0.5438879,-0.810642,0.21689956,-0.6545383,-0.24806458,0.7141733,-0.5251337,-0.5303993,-0.66551554,,0.026636114,-0.021203896,0.19903319,-0.9914107,0.109637775,0.071305014,0.11713371,0.98687065,0.11120232,-0.058176864,0.1185994,-0.9912363,,-0.32691100529879774,-0.055140312721963,0.10687781421,0.0018872094913607192,0.001503001497419845,0.008820888096628518,-0.0024501609920141876,,-1.4642687666173382,0.17359931227969275,0.08959437964000001,-0.007339148021958352,-0.017079562470680057,-0.0016734014047947105,0.0017967847274770708
0.567960187967401,,0.032855943,0.032407254,0.3388841,-0.7128128,-0.5496376,-0.43565637,-0.68568784,0.41558248,0.597598,-0.14741115,0.7246997,-0.6731123,,0.0053495374,-0.015707063,0.57918566,0.54388887,-0.8106397,0.21690576,-0.65453804,-0.24805994,0.7141751,-0.5251331,-0.53040504,-0.6655115,,0.026636114,-0.021203896,0.19903319,-0.9914107,0.109637775,0.071305014,0.11713371,0.98687065,0.11120232,-0.058176864,0.1185994,-0.9912363,,-0.32691100529879774,-0.055140312721963,0.10687781421,0.0018872094913607192,0.001503001497419845,0.008820888096628518,-0.0024501609920141876,,-1.4642764893502125,0.17359931227969275,0.08959437964000001,-0.007339148021958352,-0.017079562470680057,-0.0016734014047947105,0.0017967847274770708
0.6167094229604118,,0.032855943,0.032407254,0.3388841,-0.7128128,-0.5496376,-0.43565637,-0.68568784,0.41558248,0.597598,-0.14741115,0.7246997,-0.6731123,,0.0053490214,-0.015707219,0.57918537,0.5438879,-0.810642,0.21689956,-0.6545383,-0.24806458,0.7141733,-0.5251337,-0.5303993,-0.66551554,,0.026636114,-0.021203896,0.19903319,-0.9914107,0.109637775,0.071305014,0.11713371,0.98687065,0.11120232,-0.058176864,0.1185994,-0.9912363,,-0.32691100529879774,-0.055140312721963,0.10687781421,0.0018872094913607192,0.001503001497419845,0.008820888096628518,-0.0024501609920141876,,-1.4642687666173382,0.17359931227969275,0.08959437964000001,-0.007339148021958352,-0.017079562470680057,-0.0016734014047947105,0.0017967847274770708
0.6605215009767562,,0.032855943,0.032407254,0.3388841,-0.7128128,-0.5496376,-0.43565637,-0.68568784,0.41558248,0.597598,-0.14741115,0.7246997,-0.6731123,,0.005349368,-0.015707629,0.579185,0.5438863,-0.810642,0.2169037,-0.65454376,-0.24806465,0.7141683,-0.5251286,-0.53039926,-0.6655196,,0.026636114,-0.021203896,0.19903319,-0.9914107,0.109637775,0.071305014,0.11713371,0.98687065,0.11120232,-0.058176864,0.1185994,-0.9912363,,-0.32691100529879774,-0.055140312721963,0.10687781421,0.0018872094913607192,0.001503001497419845,0.008820888096628518,-0.0024501609920141876,,-1.4642687666173382,0.17359158954681853,0.08959437964000001,-0.007339148021958352,-0.017079562470680057,-0.0016734014047947105,0.0017967847274770708
0.7006062949658372,,0.032855943,0.032407254,0.3388841,-0.7128128,-0.5496376,-0.43565637,-0.68568784,0.41558248,0.597598,-0.14741115,0.7246997,-0.6731123,,0.0053490214,-0.015707219,0.57918537,0.5438879,-0.810642,0.21689956,-0.6545383,-0.24806458,0.7141733,-0.5251337,-0.5303993,-0.66551554,,0.026636114,-0.021203896,0.19903319,-0.9914107,0.109637775,0.071305014,0.11713371,0.98687065,0.11120232,-0.058176864,0.1185994,-0.9912363,,-0.32691100529879774,-0.055140312721963,0.10687781421,0.0018872094913607192,0.001503001497419845,0.008820888096628518,-0.0024501609920141876,,-1.4642687666173382,0.17359931227969275,0.08959437964000001,-0.007339148021958352,-0.017079562470680057,-0.0016734014047947105,0.0017967847274770708
0.7599580729729496,,0.032855943,0.032407254,0.3388841,-0.7128128,-0.5496376,-0.43565637,-0.68568784,0.41558248,0.597598,-0.14741115,0.7246997,-0.6731123,,0.0053495374,-0.015707063,0.57918566,0.54388887,-0.8106397,0.21690576,-0.65453804,-0.24805994,0.7141751,-0.5251331,-0.53040504,-0.6655115,,0.026636114,-0.021203896,0.19903319,-0.9914107,0.109637775,0.071305014,0.11713371,0.98687065,0.11120232,-0.058176864,0.1185994,-0.9912363,,-0.32691100529879774,-0.055140312721963,0.10687781421,0.0018872094913607192,0.001503001497419845,0.008820888096628518,-0.0024501609920141876,,-1.4642764893502125,0.17359931227969275,0.08959437964000001,-0.007339148021958352,-0.017079562470680057,-0.0016734014047947105,0.0017967847274770708
0.7831713379709981,,0.032856375,0.032406926,0.33888352,-0.712813,-0.54964066,-0.43565208,-0.6856876,0.4155874,0.59759474,-0.14741085,0.7246945,-0.6731179,,0.0053490214,-0.015707219,0.57918537,0.5438879,-0.810642,0.21689956,-0.6545383,-0.24806458,0.7141733,-0.5251337,-0.5303993,-0.66551554,,0.026636114,-0.021203896,0.19903319,-0.9914107,0.109637775,0.071305014,0.11713371,0.98687065,0.11120232,-0.058176864,0.1185994,-0.9912363,,-0.32691872803167193,-0.055140312721963,0.10687781421,0.0018872094913607192,0.001503001497419845,0.008820888096628518,-0.0024501609920141876,,-1.4642687666173382,0.17359931227969275,0.08959437964000001,-0.007339148021958352,-0.017079562470680057,-0.0016734014047947105,0.0017967847274770708
0.8231637369608507,,0.032855943,0.032407254,0.3388841,-0.7128128,-0.5496376,-0.43565637,-0.68568784,0.41558248,0.597598,-0.14741115,0.7246997,-0.6731123,,0.005349368,-0.015707629,0.579185,0.5438863,-0.810642,0.2169037,-0.65454376,-0.24806465,0.7141683,-0.5251286,-0.53039926,-0.6655196,,0.026636114,-0.021203896,0.19903319,-0.9914107,0.109637775,0.071305014,0.11713371,0.98687065,0.11120232,-0.058176864,0.1185994,-0.9912363,,-0.32691100529879774,-0.055140312721963,0.10687781421,0.0018872094913607192,0.001503001497419845,0.008820888096628518,-0.0024501609920141876,,-1.4642687666173382,0.17359158954681853,0.08959437964000001,-0.007339148021958352,-0.017079562470680057,-0.0016734014047947105,0.0017967847274770708
0.8831375429872423,,0.032855943,0.032407254,0.3388841,-0.7128128,-0.5496376,-0.43565637,-0.68568784,0.41558248,0.597598,-0.14741115,0.7246997,-0.6731123,,0.0053495374,-0.015707063,0.57918566,0.54388887,-0.8106397,0.21690576,-0.65453804,-0.24805994,0.7141751,-0.5251331,-0.53040504,-0.6655115,,0.026636114,-0.021203896,0.19903319,-0.9914107,0.109637775,0.071305014,0.11713371,0.98687065,0.11120232,-0.058176864,0.1185994,-0.9912363,,-0.32691100529879774,-0.055140312721963,0.10687781421,0.0018872094913607192,0.001503001497419845,0.008820888096628518,-0.0024501609920141876,,-1.4642764893502125,0.17359931227969275,0.08959437964000001,-0.007339148021958352,-0.017079562470680057,-0.0016734014047947105,0.0017967847274770708
0.9320262919645756,,0.032855943,0.032407254,0.3388841,-0.71269673,-0.54978687,-0.43565783,-0.6857761,0.4154385,0.59759676,-0.14756185,0.7246689,-0.67311233,,0.0053495374,-0.015707063,0.57918566,0.54388887,-0.8106397,0.21690576,-0.65453804,-0.24805994,0.7141751,-0.5251331,-0.53040504,-0.6655115,,0.026636114,-0.021203896,0.19903319,-0.9914107,0.109637775,0.071305014,0.11713371,0.98687065,0.11120232,-0.058176864,0.1185994,-0.9912363,,-0.32691100529879774,-0.055140312721963,0.10687781421,0.0016775195478761949,0.001503001497419845,0.008820888096628518,-0.0024501609920141876,,-1.4642764893502125,0.17359931227969275,0.08959437964000001,-0.007339148021958352,-0.017079562470680057,-0.0016734014047947105,0.0017967847274770708
0.9817910239798948,,0.03285637,0.032406934,0.33888352,-0.71258086,-0.5499393,-0.43565506,-0.68586415,0.41529942,0.5975925,-0.14771228,0.72463316,-0.67311794,,0.005349368,-0.015707629,0.579185,0.5438863,-0.810642,0.2169037,-0.65454376,-0.24806465,0.7141683,-0.5251286,-0.53039926,-0.6655196,,0.026636114,-0.021203896,0.19903319,-0.9914107,0.109637775,0.071305014,0.11713371,0.98687065,0.11120232,-0.058176864,0.1185994,-0.9912363,,-0.32691872803167193,-0.055140312721963,0.10687781421,0.0014678296043916705,0.001503001497419845,0.008820888096628518,-0.0024501609920141876,,-1.4642687666173382,0.17359158954681853,0.08959437964000001,-0.007339148021958352,-0.017079562470680057,-0.0016734014047947105,0.0017967847274770708
1.0291056429850869,,0.032855943,0.032407254,0.3388841,-0.71258056,-0.5499362,-0.43565932,-0.68586427,0.41529453,0.5975957,-0.14771256,0.7246382,-0.6731124,,0.0053490214,-0.015707219,0.57918537,0.5438879,-0.810642,0.21689956,-0.6545383,-0.24806458,0.7141733,-0.5251337,-0.5303993,-0.66551554,,0.026636114,-0.021203896,0.19903319,-0.9914107,0.109637775,0.071305014,0.11713371,0.98687065,0.11120232,-0.058176864,0.1185994,-0.9912363,,-0.32691100529879774,-0.055140312721963,0.10687781421,0.0014678296043916705,0.001503001497419845,0.008820888096628518,-0.0024501609920141876,,-1.4642687666173382,0.17359931227969275,0.08959437964000001,-0.007339148021958352,-0.017079562470680057,-0.0016734014047947105,0.0017967847274770708
1.0646111009991728,,0.032855943,0.032407254,0.3388841,-0.71258056,-0.5499362,-0.43565932,-0.68586427,0.41529453,0.5975957,-0.14771256,0.7246382,-0.6731124,,0.0053495374,-0.015707063,0.57918566,0.54388887,-0.8106397,0.21690576,-0.65453804,-0.24805994,0.7141751,-0.5251331,-0.53040504,-0.6655115,,0.026636114,-0.021203896,0.19903319,-0.9914107,0.109637775,0.071305014,0.11713371,0.98687065,0.11120232,-0.058176864,0.1185994,-0.9912363,,-0.32691100529879774,-0.055140312721963,0.10687781421,0.0014678296043916705,0.001503001497419845,0.008820888096628518,-0.0024501609920141876,,-1.4642764893502125,0.17359931227969275,0.08959437964000001,-0.007339148021958352,-0.017079562470680057,-0.0016734014047947105,0.0017967847274770708
1.1276822949876077,,0.032855943,0.032407254,0.3388841,-0.71258056,-0.5499717,-0.4356144,-0.68586427,0.41534334,0.5975618,-0.14771256,0.7245832,-0.6731716,,0.0053495374,-0.015707063,0.57918566,0.54388887,-0.8106397,0.21690576,-0.65453804,-0.24805994,0.7141751,-0.5251331,-0.53040504,-0.6655115,,0.026636114,-0.021203896,0.19903319,-0.9914107,0.109637775,0.071305014,0.11713371,0.98687065,0.11120232,-0.058176864,0.1185994,-0.9912363,,-0.32691100529879774,-0.055140312721963,0.10687781421,0.0014678296043916705,0.001503001497419845,0.008739209356487957,-0.0026135050581484673,,-1.4642764893502125,0.17359931227969275,0.08959437964000001,-0.007339148021958352,-0.017079562470680057,-0.0016734014047947105,0.0017967847274770708
1.160736053949222,,0.032855943,0.032407254,0.3388841,-0.71258056,-0.5500429,-0.43552452,-0.68586427,0.41544095,0.5974939,-0.14771256,0.7244733,-0.67328995,,0.0053490214,-0.015707219,0.57918537,0.5438879,-0.810642,0.21689956,-0.6545383,-0.24806458,0.7141733,-0.5251337,-0.5303993,-0.66551554,,0.026636114,-0.021203896,0.19903319,-0.9914107,0.109637775,0.071305014,0.11713371,0.98687065,0.11120232,-0.058176864,0.1185994,-0.9912363,,-0.32691100529879774,-0.055140312721963,0.10687781421,0.0014678296043916705,0.001503001497419845,0.008575851876206833,-0.002613505058148469,,-1.4642687666173382,0.17359931227969275,0.08959437964000001,-0.007339148021958352,-0.017079562470680057,-0.0016734014047947105,0.0017967847274770708
1.2185277589596808,,0.032855943,0.032407254,0.3388841,-0.71258056,-0.5500429,-0.43552452,-0.68586427,0.41544095,0.5974939,-0.14771256,0.7244733,-0.67328995,,0.0053495374,-0.015707063,0.57918566,0.54388887,-0.8106397,0.21690576,-0.65453804,-0.24805994,0.7141751,-0.5251331,-0.53040504,-0.6655115,,0.026636114,-0.021203896,0.19903319,-0.9914107,0.109637775,0.071305014,0.11713371,0.98687065,0.11120232,-0.058176864,0.1185994,-0.9912363,,-0.32691100529879774,-0.055140312721963,0.10687781421,0.0014678296043916705,0.001503001497419845,0.008575851876206833,-0.002613505058148469,,-1.4642764893502125,0.17359931227969275,0.08959437964000001,-0.007339148021958352,-0.017079562470680057,-0.0016734014047947105,0.0017967847274770708
1.2675544410012662,,0.032855943,0.032407254,0.3388841,-0.71258056,-0.5500429,-0.43552452,-0.68586427,0.41544095,0.5974939,-0.14771256,0.7244733,-0.67328995,,0.0053495374,-0.015707063,0.57918566,0.54388887,-0.8106397,0.21690576,-0.65453804,-0.24805994,0.7141751,-0.5251331,-0.53040504,-0.6655115,,0.026636114,-0.021203896,0.19903319,-0.9914107,0.109637775,0.071305014,0.11713371,0.98687065,0.11120232,-0.058176864,0.1185994,-0.9912363,,-0.32691100529879774,-0.055140312721963,0.10687781421,0.0014678296043916705,0.001503001497419845,0.008575851876206833,-0.002613505058148469,,-1.4642764893502125,0.17359931227969275,0.08959437964000001,-0.007339148021958352,-0.017079562470680057,-0.0016734014047947105,0.0017967847274770708
1.315171099966392,,0.032855943,0.032407254,0.3388841,-0.71258056,-0.5500429,-0.43552452,-0.68586427,0.41544095,0.5974939,-0.14771256,0.7244733,-0.67328995,,0.0053490214,-0.015707219,0.57918537,0.5438879,-0.810642,0.21689956,-0.6545383,-0.24806458,0.7141733,-0.5251337,-0.5303993,-0.66551554,,0.026636114,-0.021203896,0.19903319,-0.9914107,0.109637775,0.071305014,0.11713371,0.98687065,0.11120232,-0.058176864,0.1185994,-0.9912363,,-0.32691100529879774,-0.055140312721963,0.10687781421,0.0014678296043916705,0.001503001497419845,0.008575851876206833,-0.002613505058148469,,-1.4642687666173382,0.17359931227969275,0.08959437964000001,-0.007339148021958352,-0.017079562470680057,-0.0016734014047947105,0.0017967847274770708
1.3562389059807174,,0.032855943,0.032407254,0.3388841,-0.71258056,-0.5500429,-0.43552452,-0.68586427,0.41544095,0.5974939,-0.14771256,0.7244733,-0.67328995,,0.0053490214,-0.015707219,0.57918537,0.5438879,-0.810642,0.21689956,-0.6545383,-0.24806458,0.7141733,-0.5251337,-0.5303993,-0.66551554,,0.026636114,-0.021203896,0.19903319,-0.9914107,0.109637775,0.071305014,0.11713371,0.98687065,0.11120232,-0.058176864,0.1185994,-0.9912363,,-0.32691100529879774,-0.055140312721963,0.10687781421,0.0014678296043916705,0.001503001497419845,0.008575851876206833,-0.002613505058148469,,-1.4642687666173382,0.17359931227969275,0.08959437964000001,-0.007339148021958352,-0.017079562470680057,-0.0016734014047947105,0.0017967847274770708
1.396075407974422,,0.032855943,0.032407254,0.3388841,-0.71258056,-0.5500429,-0.43552452,-0.68586427,0.41544095,0.5974939,-0.14771256,0.7244733,-0.67328995,,0.0053495374,-0.015707063,0.57918566,0.54388887,-0.8106397,0.21690576,-0.65453804,-0.24805994,0.7141751,-0.5251331,-0.53040504,-0.6655115,,0.026636114,-0.021203896,0.19903319,-0.9914107,0.109637775,0.071305014,0.11713371,0.98687065,0.11120232,-0.058176864,0.1185994,-0.9912363,,-0.32691100529879774,-0.055140312721963,0.10687781421,0.0014678296043916705,0.001503001497419845,0.008575851876206833,-0.002613505058148469,,-1.4642764893502125,0.17359931227969275,0.08959437964000001,-0.007339148021958352,-0.017079562470680057,-0.0016734014047947105,0.0017967847274770708
1.4491651179851033,,0.032855943,0.032407254,0.3388841,-0.71258056,-0.5500429,-0.43552452,-0.68586427,0.41544095,0.5974939,-0.14771256,0.7244733,-0.67328995,,0.0053495374,-0.015707063,0.57918566,0.54388887,-0.8106397,0.21690576,-0.65453804,-0.24805994,0.7141751,-0.5251331,-0.53040504,-0.6655115,,0.026636114,-0.021203896,0.19903319,-0.9914107,0.109637775,0.071305014,0.11713371,0.98687065,0.11120232,-0.058176864,0.1185994,-0.9912363,,-0.32691100529879774,-0.055140312721963,0.10687781421,0.0014678296043916705,0.001503001497419845,0.008575851876206833,-0.002613505058148469,,-1.4642764893502125,0.17359931227969275,0.08959437964000001,-0.007339148021958352,-0.017079562470680057,-0.0016734014047947105,0.0017967847274770708
1.4843065569875762,,0.032855943,0.032407254,0.3388841,-0.71258056,-0.5500429,-0.43552452,-0.68586427,0.41544095,0.5974939,-0.14771256,0.7244733,-0.67328995,,0.0053490214,-0.015707219,0.57918537,0.5438879,-0.810642,0.21689956,-0.6545383,-0.24806458,0.7141733,-0.5251337,-0.5303993,-0.66551554,,0.026636114,-0.021203896,0.19903319,-0.9914107,0.109637775,0.071305014,0.11713371,0.98687065,0.11120232,-0.058176864,0.1185994,-0.9912363,,-0.32691100529879774,-0.055140312721963,0.10687781421,0.0014678296043916705,0.001503001497419845,0.008575851876206833,-0.002613505058148469,,-1.4642687666173382,0.17359931227969275,0.08959437964000001,-0.007339148021958352,-0.017079562470680057,-0.0016734014047947105,0.0017967847274770708
1.5491738829878159,,0.032876395,0.0323868,0.33885455,-0.7125413,-0.5501075,-0.43550718,-0.6858901,0.4153919,0.5974984,-0.14778213,0.7244523,-0.6732971,,0.005305093,-0.015666097,0.57913387,0.5438893,-0.81065005,0.21686572,-0.6544731,-0.24803014,0.714245,-0.5252136,-0.53040296,-0.6654496,,0.026605625,-0.021189097,0.19902267,-0.991407,0.10966799,0.0713088,0.11716417,0.98686713,0.1112018,-0.05817704,0.118601106,-0.9912361,,-0.32691100529879774,-0.055140312721963,0.10687781421,0.0014678296043916705,0.001503001497419845,0.008575851876206833,-0.002613505058148469,,-1.4642687666173382,0.17359158954681853,0.08959437964000001,-0.007339148021958352,-0.017079562470680057,-0.0016734014047947105,0.0017967847274770708
1.5834523199591786,,0.032876395,0.0323868,0.33885455,-0.7125413,-0.5501075,-0.43550718,-0.6858901,0.4153919,0.5974984,-0.14778213,0.7244523,-0.6732971,,0.0053052604,-0.015665524,0.5791345,0.5438919,-0.8106478,0.21686777,-0.65446734,-0.24802548,0.71425194,-0.525218,-0.5304087,-0.6654415,,0.026605625,-0.021189097,0.19902267,-0.991407,0.10966799,0.0713088,0.11716417,0.98686713,0.1112018,-0.05817704,0.118601106,-0.9912361,,-0.32691100529879774,-0.055140312721963,0.10687781421,0.0014678296043916705,0.001503001497419845,0.008575851876206833,-0.002613505058148469,,-1.4642764893502125,0.17359931227969275,0.08959437964000001,-0.007339148021958352,-0.017079562470680057,-0.0016734014047947105,0.0017967847274770708
1.6316474310006015,,0.0328764,0.032386802,0.33885455,-0.71277344,-0.5498088,-0.43550432,-0.68571377,0.41567987,0.59750056,-0.14748073,0.7245138,-0.67329705,,0.0053047445,-0.015665676,0.5791342,0.54389095,-0.81065005,0.21686156,-0.6544676,-0.24803011,0.7142501,-0.52521867,-0.530403,-0.6654455,,0.026605625,-0.021189097,0.19902267,-0.991407,0.10966799,0.0713088,0.11716417,0.98686713,0.1112018,-0.05817704,0.118601106,-0.9912361,,-0.32691100529879774,-0.055140312721963,0.10687781421,0.0018872094913607192,0.001503001497419845,0.008575851876206833,-0.002613505058148469,,-1.4642687666173382,0.17359931227969275,0.08959437964000001,-0.007339148021958352,-0.017079562470680057,-0.0016734014047947105,0.0017967847274770708
1.672323990962468,,0.0328764,0.032386802,0.33885455,-0.71277344,-0.5498088,-0.43550432,-0.68571377,0.41567987,0.59750056,-0.14748073,0.7245138,-0.67329705,,0.0053052604,-0.015665524,0.5791345,0.5438919,-0.8106478,0.21686777,-0.65446734,-0.24802548,0.71425194,-0.525218,-0.5304087,-0.6654415,,0.026605625,-0.021189097,0.19902267,-0.991407,0.10966799,0.0713088,0.11716417,0.98686713,0.1112018,-0.05817704,0.118601106,-0.9912361,,-0.32691100529879774,-0.055140312721963,0.10687781421,0.0018872094913607192,0.001503001497419845,0.008575851876206833,-0.002613505058148469,,-1.4642764893502125,0.17359931227969275,0.08959437964000001,-0.007339148021958352,-0.017079562470680057,-0.0016734014047947105,0.0017967847274770708
1.7311833059648052,,0.0328764,0.032386802,0.33885455,-0.71277344,-0.5498088,-0.43550432,-0.68571377,0.41567987,0.59750056,-0.14748073,0.7245138,-0.67329705,,0.0053047445,-0.015665676,0.5791342,0.54389095,-0.81065005,0.21686156,-0.6544676,-0.24803011,0.7142501,-0.52521867,-0.530403,-0.6654455,,0.026605625,-0.021189097,0.19902267,-0.991407,0.10966799,0.0713088,0.11716417,0.98686713,0.1112018,-0.05817704,0.118601106,-0.9912361,,-0.32691100529879774,-0.055140312721963,0.10687781421,0.0018872094913607192,0.001503001497419845,0.008575851876206833,-0.002613505058148469,,-1.4642687666173382,0.17359931227969275,0.08959437964000001,-0.007339148021958352,-0.017079562470680057,-0.0016734014047947105,0.0017967847274770708
1.7529210039647296,,0.0328764,0.032386802,0.33885455,-0.71277344,-0.5498088,-0.43550432,-0.68571377,0.41567987,0.59750056,-0.14748073,0.7245138,-0.67329705,,0.005305093,-0.015666097,0.57913387,0.5438893,-0.81065005,0.21686572,-0.6544731,-0.24803014,0.714245,-0.5252136,-0.53040296,-0.6654496,,0.026605625,-0.021189097,0.19902267,-0.991407,0.10966799,0.0713088,0.11716417,0.98686713,0.1112018,-0.05817704,0.118601106,-0.9912361,,-0.32691100529879774,-0.055140312721963,0.10687781421,0.0018872094913607192,0.001503001497419845,0.008575851876206833,-0.002613505058148469,,-1.4642687666173382,0.17359158954681853,0.08959437964000001,-0.007339148021958352,-0.017079562470680057,-0.0016734014047947105,0.0017967847274770708
1.812008328968659,,0.032876827,0.032386474,0.338854,-0.71277374,-0.5498119,-0.43550006,-0.6857135,0.4156848,0.5974974,-0.14748044,0.7245087,-0.6733026,,0.0053047445,-0.015665676,0.5791342,0.54389095,-0.81065005,0.21686156,-0.6544676,-0.24803011,0.7142501,-0.52521867,-0.530403,-0.6654455,,0.026605625,-0.021189097,0.19902267,-0.991407,0.10966799,0.0713088,0.11716417,0.98686713,0.1112018,-0.05817704,0.118601106,-0.9912361,,-0.32691872803167193,-0.055140312721963,0.10687781421,0.0018872094913607192,0.001503001497419845,0.008575851876206833,-0.002613505058148469,,-1.4642687666173382,0.17359931227969275,0.08959437964000001,-0.007339148021958352,-0.017079562470680057,-0.0016734014047947105,0.0017967847274770708
1.8436929879826494,,0.0328764,0.032386802,0.33885455,-0.71277344,-0.5498088,-0.43550432,-0.68571377,0.41567987,0.59750056,-0.14748073,0.7245138,-0.67329705,,0.0053052604,-0.015665524,0.5791345,0.5438919,-0.8106478,0.21686777,-0.65446734,-0.24802548,0.71425194,-0.525218,-0.5304087,-0.6654415,,0.026605625,-0.021189097,0.19902267,-0.991407,0.10966799,0.0713088,0.11716417,0.98686713,0.1112018,-0.05817704,0.118601106,-0.9912361,,-0.32691100529879774,-0.055140312721963,0.10687781421,0.0018872094913607192,0.001503001497419845,0.008575851876206833,-0.002613505058148469,,-1.4642764893502125,0.17359931227969275,0.08959437964000001,-0.007339148021958352,-0.017079562470680057,-0.0016734014047947105,0.0017967847274770708
1.8889942599926144,,0.0328764,0.032386802,0.33885455,-0.71277344,-0.5498088,-0.43550432,-0.68571377,0.41567987,0.59750056,-0.14748073,0.7245138,-0.67329705,,0.0053052604,-0.015665524,0.5791345,0.5438919,-0.8106478,0.21686777,-0.65446734,-0.24802548,0.71425194,-0.525218,-0.5304087,-0.6654415,,0.026605625,-0.021189097,0.19902267,-0.991407,0.10966799,0.0713088,0.11716417,0.98686713,0.1112018,-0.05817704,0.118601106,-0.9912361,,-0.32691100529879774,-0.055140312721963,0.10687781421,0.0018872094913607192,0.001503001497419845,0.008575851876206833,-0.002613505058148469,,-1.4642764893502125,0.17359931227969275,0.08959437964000001,-0.007339148021958352,-0.017079562470680057,-0.0016734014047947105,0.0017967847274770708
1.9292642090003937,,0.0328764,0.032386802,0.33885455,-0.71277344,-0.5498088,-0.43550432,-0.68571377,0.41567987,0.59750056,-0.14748073,0.7245138,-0.67329705,,0.0053047445,-0.015665676,0.5791342,0.54389095,-0.81065005,0.21686156,-0.6544676,-0.24803011,0.7142501,-0.52521867,-0.530403,-0.6654455,,0.026605625,-0.021189097,0.19902267,-0.991407,0.10966799,0.0713088,0.11716417,0.98686713,0.1112018,-0.05817704,0.118601106,-0.9912361,,-0.32691100529879774,-0.055140312721963,0.10687781421,0.0018872094913607192,0.001503001497419845,0.008575851876206833,-0.002613505058148469,,-1.4642687666173382,0.17359931227969275,0.08959437964000001,-0.007339148021958352,-0.017079562470680057,-0.0016734014047947105,0.0017967847274770708
1.9821616319823079,,0.0328764,0.032386802,0.33885455,-0.71277344,-0.5498088,-0.43550432,-0.68571377,0.41567987,0.59750056,-0.14748073,0.7245138,-0.67329705,,0.0053052604,-0.015665524,0.5791345,0.5438919,-0.8106478,0.21686777,-0.65446734,-0.24802548,0.71425194,-0.525218,-0.5304087,-0.6654415,,0.026605625,-0.021189097,0.19902267,-0.991407,0.10966799,0.0713088,0.11716417,0.98686713,0.1112018,-0.05817704,0.118601106,-0.9912361,,-0.32691100529879774,-0.055140312721963,0.10687781421,0.0018872094913607192,0.001503001497419845,0.008575851876206833,-0.002613505058148469,,-1.4642764893502125,0.17359931227969275,0.08959437964000001,-0.007339148021958352,-0.017079562470680057,-0.0016734014047947105,0.0017967847274770708
2.029814441979397,,0.0328764,0.032386802,0.33885455,-0.71277344,-0.5498088,-0.43550432,-0.68571377,0.41567987,0.59750056,-0.14748073,0.7245138,-0.67329705,,0.0053052604,-0.015665524,0.5791345,0.5438919,-0.8106478,0.21686777,-0.65446734,-0.24802548,0.71425194,-0.525218,-0.5304087,-0.6654415,,0.026605625,-0.021189097,0.19902267,-0.991407,0.10966799,0.0713088,0.11716417,0.98686713,0.1112018,-0.05817704,0.118601106,-0.9912361,,-0.32691100529879774,-0.055140312721963,0.10687781421,0.0018872094913607192,0.001503001497419845,0.008575851876206833,-0.002613505058148469,,-1.4642764893502125,0.17359931227969275,0.08959437964000001,-0.007339148021958352,-0.017079562470680057,-0.0016734014047947105,0.0017967847274770708
2.0675633020000532,,0.0328764,0.032386802,0.33885455,-0.71277344,-0.5498088,-0.43550432,-0.68571377,0.41567987,0.59750056,-0.14748073,0.7245138,-0.67329705,,0.0053047445,-0.015665676,0.5791342,0.54389095,-0.81065005,0.21686156,-0.6544676,-0.24803011,0.7142501,-0.52521867,-0.530403,-0.6654455,,0.026605625,-0.021189097,0.19902267,-0.991407,0.10966799,0.0713088,0.11716417,0.98686713,0.1112018,-0.05817704,0.118601106,-0.9912361,,-0.32691100529879774,-0.055140312721963,0.10687781421,0.0018872094913607192,0.001503001497419845,0.008575851876206833,-0.002613505058148469,,-1.4642687666173382,0.17359931227969275,0.08959437964000001,-0.007339148021958352,-0.017079562470680057,-0.0016734014047947105,0.0017967847274770708
2.1263193839695305,,0.0328764,0.032386802,0.33885455,-0.71277344,-0.5498088,-0.43550432,-0.68571377,0.41567987,0.59750056,-0.14748073,0.7245138,-0.67329705,,0.005305093,-0.015666097,0.57913387,0.5438893,-0.81065005,0.21686572,-0.6544731,-0.24803014,0.714245,-0.5252136,-0.53040296,-0.6654496,,0.026605625,-0.021189097,0.19902267,-0.991407,0.10966799,0.0713088,0.11716417,0.98686713,0.1112018,-0.05817704,0.118601106,-0.9912361,,-0.32691100529879774,-0.055140312721963,0.10687781421,0.0018872094913607192,0.001503001497419845,0.008575851876206833,-0.002613505058148469,,-1.4642687666173382,0.17359158954681853,0.08959437964000001,-0.007339148021958352,-0.017079562470680057,-0.0016734014047947105,0.0017967847274770708
2.165721389988903,,0.032876395,0.0323868,0.33885455,-0.7126574,-0.54995817,-0.43550575,-0.6858019,0.4155359,0.5974995,-0.14763144,0.72448313,-0.67329705,,0.005305093,-0.015666097,0.57913387,0.5438893,-0.81065005,0.21686572,-0.6544731,-0.24803014,0.714245,-0.5252136,-0.53040296,-0.6654496,,0.026605625,-0.021189097,0.19902267,-0.991407,0.10966799,0.0713088,0.11716417,0.98686713,0.1112018,-0.05817704,0.118601106,-0.9912361,,-0.32691100529879774,-0.055140312721963,0.10687781421,0.0016775195478761949,0.001503001497419845,0.008575851876206833,-0.002613505058148469,,-1.4642687666173382,0.17359158954681853,0.08959437964000001,-0.007339148021958352,-0.017079562470680057,-0.0016734014047947105,0.0017967847274770708
2.2103072829777375,,0.032876395,0.0323868,0.33885455,-0.7125413,-0.5501075,-0.43550718,-0.6858901,0.4153919,0.5974984,-0.14778213,0.7244523,-0.6732971,,0.0053052604,-0.015665524,0.5791345,0.5438919,-0.8106478,0.21686777,-0.65446734,-0.24802548,0.71425194,-0.525218,-0.5304087,-0.6654415,,0.026605625,-0.021189097,0.19902267,-0.991407,0.10966799,0.0713088,0.11716417,0.98686713,0.1112018,-0.05817704,0.118601106,-0.9912361,,-0.32691100529879774,-0.055140312721963,0.10687781421,0.0014678296043916705,0.001503001497419845,0.008575851876206833,-0.002613505058148469,,-1.4642764893502125,0.17359931227969275,0.08959437964000001,-0.007339148021958352,-0.017079562470680057,-0.0016734014047947105,0.0017967847274770708
2.2487531949882396,,0.032876395,0.0323868,0.33885455,-0.7125413,-0.5501075,-0.43550718,-0.6858901,0.4153919,0.5974984,-0.14778213,0.7244523,-0.6732971,,0.0053052604,-0.015665524,0.5791345,0.5438919,-0.8106478,0.21686777,-0.65446734,-0.24802548,0.71425194,-0.525218,-0.5304087,-0.6654415,,0.026605625,-0.021189097,0.19902267,-0.991407,0.10966799,0.0713088,0.11716417,0.98686713,0.1112018,-0.05817704,0.118601106,-0.9912361,,-0.32691100529879774,-0.055140312721963,0.10687781421,0.0014678296043916705,0.001503001497419845,0.008575851876206833,-0.002613505058148469,,-1.4642764893502125,0.17359931227969275,0.08959437964000001,-0.007339148021958352,-0.017079562470680057,-0.0016734014047947105,0.0017967847274770708
2.310607055958826,,0.032876395,0.0323868,0.33885455,-0.7125413,-0.5501075,-0.43550718,-0.6858901,0.4153919,0.5974984,-0.14778213,0.7244523,-0.6732971,,0.005306121,-0.015665784,0.5791345,0.54389113,-0.81064546,0.21687815,-0.6544726,-0.24802083,0.7142488,-0.52521217,-0.5304144,-0.6654416,,0.026605625,-0.021189097,0.19902267,-0.991407,0.10966799,0.0713088,0.11716417,0.98686713,0.1112018,-0.05817704,0.118601106,-0.9912361,,-0.32691100529879774,-0.055140312721963,0.10687781421,0.0014678296043916705,0.001503001497419845,0.008575851876206833,-0.002613505058148469,,-1.4642842120830866,0.17359158954681853,0.08959437964000001,-0.007339148021958352,-0.017079562470680057,-0.0016734014047947105,0.0017967847274770708
2.341214695945382,,0.032876823,0.03238648,0.338854,-0.7125415,-0.55011046,-0.435503,-0.68588996,0.41539678,0.5974952,-0.14778183,0.7244472,-0.6733027,,0.0053057764,-0.015665371,0.5791349,0.5438928,-0.81064546,0.21687397,-0.65446717,-0.2480208,0.71425384,-0.52521735,-0.5304144,-0.66543746,,0.026605625,-0.021189097,0.19902267,-0.991407,0.10966799,0.0713088,0.11716417,0.98686713,0.1112018,-0.05817704,0.118601106,-0.9912361,,-0.32691872803167193,-0.055140312721963,0.10687781421,0.0014678296043916705,0.001503001497419845,0.008575851876206833,-0.002613505058148469,,-1.4642842120830866,0.17359931227969275,0.08959437964000001,-0.007339148021958352,-0.017079562470680057,-0.0016734014047947105,0.0017967847274770708
2.388423381955363,,0.032876395,0.0323868,0.33885455,-0.7125413,-0.5501075,-0.43550718,-0.6858901,0.4153919,0.5974984,-0.14778213,0.7244523,-0.6732971,,0.0053047445,-0.015665676,0.5791342,0.54389095,-0.81065005,0.21686156,-0.6544676,-0.24803011,0.7142501,-0.52521867,-0.530403,-0.6654455,,0.026605625,-0.021189097,0.19902267,-0.991407,0.10966799,0.0713088,0.11716417,0.98686713,0.1112018,-0.05817704,0.118601106,-0.9912361,,-0.32691100529879774,-0.055140312721963,0.10687781421,0.0014678296043916705,0.001503001497419845,0.008575851876206833,-0.002613505058148469,,-1.4642687666173382,0.17359931227969275,0.08959437964000001,-0.007339148021958352,-0.017079562470680057,-0.0016734014047947105,0.0017967847274770708
2.4482541399775073,,0.032876395,0.0323868,0.33885455,-0.7125413,-0.5501075,-0.43550718,-0.6858901,0.4153919,0.5974984,-0.14778213,0.7244523,-0.6732971,,0.0053047445,-0.015665676,0.5791342,0.54389095,-0.81065005,0.21686156,-0.6544676,-0.24803011,0.7142501,-0.52521867,-0.530403,-0.6654455,,0.026605625,-0.021189097,0.19902267,-0.991407,0.10966799,0.0713088,0.11716417,0.98686713,0.1112018,-0.05817704,0.118601106,-0.9912361,,-0.32691100529879774,-0.055140312721963,0.10687781421,0.0014678296043916705,0.001503001497419845,0.008575851876206833,-0.002613505058148469,,-1.4642687666173382,0.17359931227969275,0.08959437964000001,-0.007339148021958352,-0.017079562470680057,-0.0016734014047947105,0.0017967847274770708
2.4707513059838675,,0.032876395,0.0323868,0.33885455,-0.7125413,-0.5501075,-0.43550718,-0.6858901,0.4153919,0.5974984,-0.14778213,0.7244523,-0.6732971,,0.005305607,-0.015665941,0.57913417,0.5438902,-0.8106478,0.21687192,-0.6544728,-0.24802548,0.7142468,-0.5252129,-0.5304087,-0.66544557,,0.026605625,-0.021189097,0.19902267,-0.991407,0.10966799,0.0713088,0.11716417,0.98686713,0.1112018,-0.05817704,0.118601106,-0.9912361,,-0.32691100529879774,-0.055140312721963,0.10687781421,0.0014678296043916705,0.001503001497419845,0.008575851876206833,-0.002613505058148469,,-1.4642764893502125,0.17359158954681853,0.08959437964000001,-0.007339148021958352,-0.017079562470680057,-0.0016734014047947105,0.0017967847274770708
2.5205861639697105,,0.032876395,0.0323868,0.33885455,-0.7125413,-0.5501075,-0.43550718,-0.6858901,0.4153919,0.5974984,-0.14778213,0.7244523,-0.6732971,,0.005305607,-0.015665941,0.57913417,0.5438902,-0.8106478,0.21687192,-0.6544728,-0.24802548,0.7142468,-0.5252129,-0.5304087,-0.66544557,,0.026605625,-0.021189097,0.19902267,-0.991407,0.10966799,0.0713088,0.11716417,0.98686713,0.1112018,-0.05817704,0.118601106,-0.9912361,,-0.32691100529879774,-0.055140312721963,0.10687781421,0.0014678296043916705,0.001503001497419845,0.008575851876206833,-0.002613505058148469,,-1.4642764893502125,0.17359158954681853,0.08959437964000001,-0.007339148021958352,-0.017079562470680057,-0.0016734014047947105,0.0017967847274770708
2.5647649779566564,,0.032876395,0.0323868,0.33885455,-0.7125413,-0.5501075,-0.43550718,-0.6858901,0.4153919,0.5974984,-0.14778213,0.7244523,-0.6732971,,0.0053052604,-0.015665524,0.5791345,0.5438919,-0.8106478,0.21686777,-0.65446734,-0.24802548,0.71425194,-0.525218,-0.5304087,-0.6654415,,0.026605625,-0.021189097,0.19902267,-0.991407,0.10966799,0.0713088,0.11716417,0.98686713,0.1112018,-0.05817704,0.118601106,-0.9912361,,-0.32691100529879774,-0.055140312721963,0.10687781421,0.0014678296043916705,0.001503001497419845,0.008575851876206833,-0.002613505058148469,,-1.4642764893502125,0.17359931227969275,0.08959437964000001,-0.007339148021958352,-0.017079562470680057,-0.0016734014047947105,0.0017967847274770708
2.60456308897119,,0.032876395,0.0323868,0.33885455,-0.7125413,-0.5501075,-0.43550718,-0.6858901,0.4153919,0.5974984,-0.14778213,0.7244523,-0.6732971,,0.005305093,-0.015666097,0.57913387,0.5438893,-0.81065005,0.21686572,-0.6544731,-0.24803014,0.714245,-0.5252136,-0.53040296,-0.6654496,,0.026605625,-0.021189097,0.19902267,-0.991407,0.10966799,0.0713088,0.11716417,0.98686713,0.1112018,-0.05817704,0.118601106,-0.9912361,,-0.32691100529879774,-0.055140312721963,0.10687781421,0.0014678296043916705,0.001503001497419845,0.008575851876206833,-0.002613505058148469,,-1.4642687666173382,0.17359158954681853,0.08959437964000001,-0.007339148021958352,-0.017079562470680057,-0.0016734014047947105,0.0017967847274770708
2.651752569945529,,0.032915775,0.032367945,0.33887425,-0.7125375,-0.5500811,-0.4355466,-0.6859041,0.4153988,0.59747756,-0.14773558,0.7244684,-0.67329013,,0.0053103752,-0.015687983,0.57917804,0.5438826,-0.8106446,0.21690273,-0.65453684,-0.24805452,0.7141781,-0.525141,-0.5303999,-0.66550934,,0.026645884,-0.021215469,0.19903602,-0.99141234,0.109623216,0.07130318,0.11711899,0.9868724,0.11120257,-0.058176767,0.11859857,-0.99123645,,-0.32691872803167193,-0.055140312721963,0.10687781421,0.0014678296043916705,0.001503001497419845,0.008575851876206833,-0.002613505058148469,,-1.4642687666173382,0.17359158954681853,0.08959437964000001,-0.007339148021958352,-0.017079562470680057,-0.0016734014047947105,0.0017967847274770708
2.7143505629501306,,0.032915343,0.03236827,0.33887482,-0.7125372,-0.55007803,-0.43555087,-0.6859042,0.41539392,0.5974808,-0.14773588,0.7244735,-0.67328453,,0.005310543,-0.015687417,0.57917875,0.54388523,-0.81064236,0.21690479,-0.6545312,-0.24804975,0.71418506,-0.5251455,-0.53040564,-0.66550124,,0.026645884,-0.021215469,0.19903602,-0.99141234,0.109623216,0.07130318,0.11711899,0.9868724,0.11120257,-0.058176767,0.11859857,-0.99123645,,-0.32691100529879774,-0.055140312721963,0.10687781421,0.0014678296043916705,0.001503001497419845,0.008575851876206833,-0.002613505058148469,,-1.4642764893502125,0.17359931227969275,0.08959437964000001,-0.007339148021958352,-0.017079562470680057,-0.0016734014047947105,0.0017967847274770708
2.749090286961291,,0.032915343,0.03236827,0.33887482,-0.7125372,-0.55007803,-0.43555087,-0.6859042,0.41539392,0.5974808,-0.14773588,0.7244735,-0.67328453,,0.005310027,-0.015687574,0.5791784,0.5438843,-0.8106446,0.21689856,-0.65453136,-0.24805444,0.71418315,-0.5251461,-0.5303999,-0.66550523,,0.026645884,-0.021215469,0.19903602,-0.99141234,0.109623216,0.07130318,0.11711899,0.9868724,0.11120257,-0.058176767,0.11859857,-0.99123645,,-0.32691100529879774,-0.055140312721963,0.10687781421,0.0014678296043916705,0.001503001497419845,0.008575851876206833,-0.002613505058148469,,-1.4642687666173382,0.17359931227969275,0.08959437964000001,-0.007339148021958352,-0.017079562470680057,-0.0016734014047947105,0.0017967847274770708
2.8122632749727927,,0.032915346,0.03236826,0.33887482,-0.71276945,-0.5497795,-0.43554795,-0.68572783,0.4156819,0.5974829,-0.14743447,0.724535,-0.6732845,,0.005310027,-0.015687574,0.5791784,0.5438843,-0.8106446,0.21689856,-0.65453136,-0.24805444,0.71418315,-0.5251461,-0.5303999,-0.66550523,,0.026645884,-0.021215469,0.19903602,-0.99141234,0.109623216,0.07130318,0.11711899,0.9868724,0.11120257,-0.058176767,0.11859857,-0.99123645,,-0.32691100529879774,-0.055140312721963,0.10687781421,0.0018872094913607192,0.001503001497419845,0.008575851876206833,-0.002613505058148469,,-1.4642687666173382,0.17359931227969275,0.08959437964000001,-0.007339148021958352,-0.017079562470680057,-0.0016734014047947105,0.0017967847274770708
2.8442434039898217,,0.032915346,0.03236826,0.33887482,-0.71276945,-0.5497795,-0.43554795,-0.68572783,0.4156819,0.5974829,-0.14743447,0.724535,-0.6732845,,0.0053103752,-0.015687983,0.57917804,0.5438826,-0.8106446,0.21690273,-0.65453684,-0.24805452,0.7141781,-0.525141,-0.5303999,-0.66550934,,0.026645884,-0.021215469,0.19903602,-0.99141234,0.109623216,0.07130318,0.11711899,0.9868724,0.11120257,-0.058176767,0.11859857,-0.99123645,,-0.32691100529879774,-0.055140312721963,0.10687781421,0.0018872094913607192,0.001503001497419845,0.008575851876206833,-0.002613505058148469,,-1.4642687666173382,0.17359158954681853,0.08959437964000001,-0.007339148021958352,-0.017079562470680057,-0.0016734014047947105,0.0017967847274770708
2.8876379739958793,,0.032915346,0.03236826,0.33887482,-0.71276945,-0.5497795,-0.43554795,-0.68572783,0.4156819,0.5974829,-0.14743447,0.724535,-0.6732845,,0.005310543,-0.015687417,0.57917875,0.54388523,-0.81064236,0.21690479,-0.6545312,-0.24804975,0.71418506,-0.5251455,-0.53040564,-0.66550124,,0.026645884,-0.021215469,0.19903602,-0.99141234,0.109623216,0.07130318,0.11711899,0.9868724,0.11120257,-0.058176767,0.11859857,-0.99123645,,-0.32691100529879774,-0.055140312721963,0.10687781421,0.0018872094913607192,0.001503001497419845,0.008575851876206833,-0.002613505058148469,,-1.4642764893502125,0.17359931227969275,0.08959437964000001,-0.007339148021958352,-0.017079562470680057,-0.0016734014047947105,0.0017967847274770708
2.928277931001503,,0.032915346,0.03236826,0.33887482,-0.71276945,-0.5497795,-0.43554795,-0.68572783,0.4156819,0.5974829,-0.14743447,0.724535,-0.6732845,,0.005310543,-0.015687417,0.57917875,0.54388523,-0.81064236,0.21690479,-0.6545312,-0.24804975,0.71418506,-0.5251455,-0.53040564,-0.66550124,,0.026645884,-0.021215469,0.19903602,-0.99141234,0.109623216,0.07130318,0.11711899,0.9868724,0.11120257,-0.058176767,0.11859857,-0.99123645,,-0.32691100529879774,-0.055140312721963,0.10687781421,0.0018872094913607192,0.001503001497419845,0.008575851876206833,-0.002613505058148469,,-1.4642764893502125,0.17359931227969275,0.08959437964000001,-0.007339148021958352,-0.017079562470680057,-0.0016734014047947105,0.0017967847274770708
2.9715106379589997,,0.032915346,0.03236826,0.33887482,-0.71276945,-0.5497795,-0.43554795,-0.68572783,0.4156819,0.5974829,-0.14743447,0.724535,-0.6732845,,0.0053103752,-0.015687983,0.57917804,0.5438826,-0.8106446,0.21690273,-0.65453684,-0.24805452,0.7141781,-0.525141,-0.5303999,-0.66550934,,0.026645884,-0.021215469,0.19903602,-0.99141234,0.109623216,0.07130318,0.11711899,0.9868724,0.11120257,-0.058176767,0.11859857,-0.99123645,,-0.32691100529879774,-0.055140312721963,0.10687781421,0.0018872094913607192,0.001503001497419845,0.008575851876206833,-0.002613505058148469,,-1.4642687666173382,0.17359158954681853,0.08959437964000001,-0.007339148021958352,-0.017079562470680057,-0.0016734014047947105,0.0017967847274770708
3.0166110859718174,,0.032915346,0.03236826,0.33887482,-0.71276945,-0.5497795,-0.43554795,-0.68572783,0.4156819,0.5974829,-0.14743447,0.724535,-0.6732845,,0.0053103752,-0.015687983,0.57917804,0.5438826,-0.8106446,0.21690273,-0.65453684,-0.24805452,0.7141781,-0.525141,-0.5303999,-0.66550934,,0.026645884,-0.021215469,0.19903602,-0.99141234,0.109623216,0.07130318,0.11711899,0.9868724,0.11120257,-0.058176767,0.11859857,-0.99123645,,-0.32691100529879774,-0.055140312721963,0.10687781421,0.0018872094913607192,0.001503001497419845,0.008575851876206833,-0.002613505058148469,,-1.4642687666173382,0.17359158954681853,0.08959437964000001,-0.007339148021958352,-0.017079562470680057,-0.0016734014047947105,0.0017967847274770708
3.073690047953278,,0.032915346,0.03236826,0.33887482,-0.71276945,-0.5497795,-0.43554795,-0.68572783,0.4156819,0.5974829,-0.14743447,0.724535,-0.6732845,,0.005310543,-0.015687417,0.57917875,0.54388523,-0.81064236,0.21690479,-0.6545312,-0.24804975,0.71418506,-0.5251455,-0.53040564,-0.66550124,,0.026645884,-0.021215469,0.19903602,-0.99141234,0.109623216,0.07130318,0.11711899,0.9868724,0.11120257,-0.058176767,0.11859857,-0.99123645,,-0.32691100529879774,-0.055140312721963,0.10687781421,0.0018872094913607192,0.001503001497419845,0.008575851876206833,-0.002613505058148469,,-1.4642764893502125,0.17359931227969275,0.08959437964000001,-0.007339148021958352,-0.017079562470680057,-0.0016734014047947105,0.0017967847274770708
3.1180867759976536,,0.032915346,0.03236826,0.33887482,-0.71276945,-0.5497795,-0.43554795,-0.68572783,0.4156819,0.5974829,-0.14743447,0.724535,-0.6732845,,0.005310543,-0.015687417,0.57917875,0.54388523,-0.81064236,0.21690479,-0.6545312,-0.24804975,0.71418506,-0.5251455,-0.53040564,-0.66550124,,0.026645884,-0.021215469,0.19903602,-0.99141234,0.109623216,0.07130318,0.11711899,0.9868724,0.11120257,-0.058176767,0.11859857,-0.99123645,,-0.32691100529879774,-0.055140312721963,0.10687781421,0.0018872094913607192,0.001503001497419845,0.008575851876206833,-0.002613505058148469,,-1.4642764893502125,0.17359931227969275,0.08959437964000001,-0.007339148021958352,-0.017079562470680057,-0.0016734014047947105,0.0017967847274770708
3.1665110350004397,,0.032915346,0.03236826,0.33887482,-0.71276945,-0.5497795,-0.43554795,-0.68572783,0.4156819,0.5974829,-0.14743447,0.724535,-0.6732845,,0.005310027,-0.015687574,0.5791784,0.5438843,-0.8106446,0.21689856,-0.65453136,-0.24805444,0.71418315,-0.5251461,-0.5303999,-0.66550523,,0.026645884,-0.021215469,0.19903602,-0.99141234,0.109623216,0.07130318,0.11711899,0.9868724,0.11120257,-0.058176767,0.11859857,-0.99123645,,-0.32691100529879774,-0.055140312721963,0.10687781421,0.0018872094913607192,0.001503001497419845,0.008575851876206833,-0.002613505058148469,,-1.4642687666173382,0.17359931227969275,0.08959437964000001,-0.007339148021958352,-0.017079562470680057,-0.0016734014047947105,0.0017967847274770708
3.2135961659951136,,0.032915346,0.03236826,0.33887482,-0.71276945,-0.5497795,-0.43554795,-0.68572783,0.4156819,0.5974829,-0.14743447,0.724535,-0.6732845,,0.005310027,-0.015687574,0.5791784,0.5438843,-0.8106446,0.21689856,-0.65453136,-0.24805444,0.71418315,-0.5251461,-0.5303999,-0.66550523,,0.026645884,-0.021215469,0.19903602,-0.99141234,0.109623216,0.07130318,0.11711899,0.9868724,0.11120257,-0.058176767,0.11859857,-0.99123645,,-0.32691100529879774,-0.055140312721963,0.10687781421,0.0018872094913607192,0.001503001497419845,0.008575851876206833,-0.002613505058148469,,-1.4642687666173382,0.17359931227969275,0.08959437964000001,-0.007339148021958352,-0.017079562470680057,-0.0016734014047947105,0.0017967847274770708
3.2453262499766424,,0.032915346,0.03236826,0.33887482,-0.71276945,-0.5497795,-0.43554795,-0.68572783,0.4156819,0.5974829,-0.14743447,0.724535,-0.6732845,,0.005310543,-0.015687417,0.57917875,0.54388523,-0.81064236,0.21690479,-0.6545312,-0.24804975,0.71418506,-0.5251455,-0.53040564,-0.66550124,,0.026645884,-0.021215469,0.19903602,-0.99141234,0.109623216,0.07130318,0.11711899,0.9868724,0.11120257,-0.058176767,0.11859857,-0.99123645,,-0.32691100529879774,-0.055140312721963,0.10687781421,0.0018872094913607192,0.001503001497419845,0.008575851876206833,-0.002613505058148469,,-1.4642764893502125,0.17359931227969275,0.08959437964000001,-0.007339148021958352,-0.017079562470680057,-0.0016734014047947105,0.0017967847274770708
3.2995765259838663,,0.032915775,0.032367937,0.33887425,-0.7127697,-0.5497825,-0.43554375,-0.6857276,0.4156868,0.5974797,-0.14743418,0.72452986,-0.67329,,0.005310543,-0.015687417,0.57917875,0.54388523,-0.81064236,0.21690479,-0.6545312,-0.24804975,0.71418506,-0.5251455,-0.53040564,-0.66550124,,0.026645884,-0.021215469,0.19903602,-0.99141234,0.109623216,0.07130318,0.11711899,0.9868724,0.11120257,-0.058176767,0.11859857,-0.99123645,,-0.32691872803167193,-0.055140312721963,0.10687781421,0.0018872094913607192,0.001503001497419845,0.008575851876206833,-0.002613505058148469,,-1.4642764893502125,0.17359931227969275,0.08959437964000001,-0.007339148021958352,-0.017079562470680057,-0.0016734014047947105,0.0017967847274770708
3.3468072029645555,,0.032915346,0.03236826,0.33887482,-0.71276945,-0.5497795,-0.43554795,-0.68572783,0.4156819,0.5974829,-0.14743447,0.724535,-0.6732845,,0.0053103752,-0.015687983,0.57917804,0.5438826,-0.8106446,0.21690273,-0.65453684,-0.24805452,0.7141781,-0.525141,-0.5303999,-0.66550934,,0.026645884,-0.021215469,0.19903602,-0.99141234,0.109623216,0.07130318,0.11711899,0.9868724,0.11120257,-0.058176767,0.11859857,-0.99123645,,-0.32691100529879774,-0.055140312721963,0.10687781421,0.0018872094913607192,0.001503001497419845,0.008575851876206833,-0.002613505058148469,,-1.4642687666173382,0.17359158954681853,0.08959437964000001,-0.007339148021958352,-0.017079562470680057,-0.0016734014047947105,0.0017967847274770708
3.376999600965064,,0.032915346,0.03236826,0.33887482,-0.71276945,-0.5497795,-0.43554795,-0.68572783,0.4156819,0.5974829,-0.14743447,0.724535,-0.6732845,,0.005310027,-0.015687574,0.5791784,0.5438843,-0.8106446,0.21689856,-0.65453136,-0.24805444,0.71418315,-0.5251461,-0.5303999,-0.66550523,,0.026645884,-0.021215469,0.19903602,-0.99141234,0.109623216,0.07130318,0.11711899,0.9868724,0.11120257,-0.058176767,0.11859857,-0.99123645,,-0.32691100529879774,-0.055140312721963,0.10687781421,0.0018872094913607192,0.001503001497419845,0.008575851876206833,-0.002613505058148469,,-1.4642687666173382,0.17359931227969275,0.08959437964000001,-0.007339148021958352,-0.017079562470680057,-0.0016734014047947105,0.0017967847274770708
3.4221360459923744,,0.032915346,0.03236826,0.33887482,-0.71276945,-0.5497795,-0.43554795,-0.68572783,0.4156819,0.5974829,-0.14743447,0.724535,-0.6732845,,0.005310543,-0.015687417,0.57917875,0.54388523,-0.81064236,0.21690479,-0.6545312,-0.24804975,0.71418506,-0.5251455,-0.53040564,-0.66550124,,0.026645884,-0.021215469,0.19903602,-0.99141234,0.109623216,0.07130318,0.11711899,0.9868724,0.11120257,-0.058176767,0.11859857,-0.99123645,,-0.32691100529879774,-0.055140312721963,0.10687781421,0.0018872094913607192,0.001503001497419845,0.008575851876206833,-0.002613505058148469,,-1.4642764893502125,0.17359931227969275,0.08959437964000001,-0.007339148021958352,-0.017079562470680057,-0.0016734014047947105,0.0017967847274770708
3.4773508019861765,,0.032915346,0.03236826,0.33887482,-0.71276945,-0.5497795,-0.43554795,-0.68572783,0.4156819,0.5974829,-0.14743447,0.724535,-0.6732845,,0.005310543,-0.015687417,0.57917875,0.54388523,-0.81064236,0.21690479,-0.6545312,-0.24804975,0.71418506,-0.5251455,-0.53040564,-0.66550124,,0.026645884,-0.021215469,0.19903602,-0.99141234,0.109623216,0.07130318,0.11711899,0.9868724,0.11120257,-0.058176767,0.11859857,-0.99123645,,-0.32691100529879774,-0.055140312721963,0.10687781421,0.0018872094913607192,0.001503001497419845,0.008575851876206833,-0.002613505058148469,,-1.4642764893502125,0.17359931227969275,0.08959437964000001,-0.007339148021958352,-0.017079562470680057,-0.0016734014047947105,0.0017967847274770708
3.5127128009917215,,0.032915346,0.03236826,0.33887482,-0.71276945,-0.5497795,-0.43554795,-0.68572783,0.4156819,0.5974829,-0.14743447,0.724535,-0.6732845,,0.0053103752,-0.015687983,0.57917804,0.5438826,-0.8106446,0.21690273,-0.65453684,-0.24805452,0.7141781,-0.525141,-0.5303999,-0.66550934,,0.026645884,-0.021215469,0.19903602,-0.99141234,0.109623216,0.07130318,0.11711899,0.9868724,0.11120257,-0.058176767,0.11859857,-0.99123645,,-0.32691100529879774,-0.055140312721963,0.10687781421,0.0018872094913607192,0.001503001497419845,0.008575851876206833,-0.002613505058148469,,-1.4642687666173382,0.17359158954681853,0.08959437964000001,-0.007339148021958352,-0.017079562470680057,-0.0016734014047947105,0.0017967847274770708
3.553188917983789,,0.032915343,0.03236827,0.33887482,-0.7125372,-0.55007803,-0.43555087,-0.6859042,0.41539392,0.5974808,-0.14773588,0.7244735,-0.67328453,,0.005310543,-0.015687417,0.57917875,0.54388523,-0.81064236,0.21690479,-0.6545312,-0.24804975,0.71418506,-0.5251455,-0.53040564,-0.66550124,,0.026645884,-0.021215469,0.19903602,-0.99141234,0.109623216,0.07130318,0.11711899,0.9868724,0.11120257,-0.058176767,0.11859857,-0.99123645,,-0.32691100529879774,-0.055140312721963,0.10687781421,0.0014678296043916705,0.001503001497419845,0.008575851876206833,-0.002613505058148469,,-1.4642764893502125,0.17359931227969275,0.08959437964000001,-0.007339148021958352,-0.017079562470680057,-0.0016734014047947105,0.0017967847274770708
3.6201163369696587,,0.032915343,0.03236827,0.33887482,-0.7125372,-0.55007803,-0.43555087,-0.6859042,0.41539392,0.5974808,-0.14773588,0.7244735,-0.67328453,,0.005310027,-0.015687574,0.5791784,0.5438843,-0.8106446,0.21689856,-0.65453136,-0.24805444,0.71418315,-0.5251461,-0.5303999,-0.66550523,,0.026645884,-0.021215469,0.19903602,-0.99141234,0.109623216,0.07130318,0.11711899,0.9868724,0.11120257,-0.058176767,0.11859857,-0.99123645,,-0.32691100529879774,-0.055140312721963,0.10687781421,0.0014678296043916705,0.001503001497419845,0.008575851876206833,-0.002613505058148469,,-1.4642687666173382,0.17359931227969275,0.08959437964000001,-0.007339148021958352,-0.017079562470680057,-0.0016734014047947105,0.0017967847274770708
3.6647939069662243,,0.032915775,0.032367945,0.33887425,-0.7125375,-0.5500811,-0.4355466,-0.6859041,0.4153988,0.59747756,-0.14773558,0.7244684,-0.67329013,,0.005310543,-0.015687417,0.57917875,0.54388523,-0.81064236,0.21690479,-0.6545312,-0.24804975,0.71418506,-0.5251455,-0.53040564,-0.66550124,,0.026645884,-0.021215469,0.19903602,-0.99141234,0.109623216,0.07130318,0.11711899,0.9868724,0.11120257,-0.058176767,0.11859857,-0.99123645,,-0.32691872803167193,-0.055140312721963,0.10687781421,0.0014678296043916705,0.001503001497419845,0.008575851876206833,-0.002613505058148469,,-1.4642764893502125,0.17359931227969275,0.08959437964000001,-0.007339148021958352,-0.017079562470680057,-0.0016734014047947105,0.0017967847274770708
3.7039504069834948,,0.032915343,0.03236827,0.33887482,-0.7125372,-0.55007803,-0.43555087,-0.6859042,0.41539392,0.5974808,-0.14773588,0.7244735,-0.67328453,,0.005310027,-0.015687574,0.5791784,0.5438843,-0.8106446,0.21689856,-0.65453136,-0.24805444,0.71418315,-0.5251461,-0.5303999,-0.66550523,,0.026645884,-0.021215469,0.19903602,-0.99141234,0.109623216,0.07130318,0.11711899,0.9868724,0.11120257,-0.058176767,0.11859857,-0.99123645,,-0.32691100529879774,-0.055140312721963,0.10687781421,0.0014678296043916705,0.001503001497419845,0.008575851876206833,-0.002613505058148469,,-1.4642687666173382,0.17359931227969275,0.08959437964000001,-0.007339148021958352,-0.017079562470680057,-0.0016734014047947105,0.0017967847274770708
3.764403721957933,,0.032915343,0.03236827,0.33887482,-0.7125372,-0.55007803,-0.43555087,-0.6859042,0.41539392,0.5974808,-0.14773588,0.7244735,-0.67328453,,0.005310543,-0.015687417,0.57917875,0.54388523,-0.81064236,0.21690479,-0.6545312,-0.24804975,0.71418506,-0.5251455,-0.53040564,-0.66550124,,0.026645884,-0.021215469,0.19903602,-0.99141234,0.109623216,0.07130318,0.11711899,0.9868724,0.11120257,-0.058176767,0.11859857,-0.99123645,,-0.32691100529879774,-0.055140312721963,0.10687781421,0.0014678296043916705,0.001503001497419845,0.008575851876206833,-0.002613505058148469,,-1.4642764893502125,0.17359931227969275,0.08959437964000001,-0.007339148021958352,-0.017079562470680057,-0.0016734014047947105,0.0017967847274770708
3.7959486579638906,,0.03288939,0.032369938,0.33888674,-0.7125512,-0.5500617,-0.4355489,-0.6858955,0.41542187,0.5974715,-0.14770962,0.72446996,-0.67329407,,0.0052113365,-0.015710656,0.579162,0.54379654,-0.8106854,0.2169665,-0.6545905,-0.24795632,0.7141631,-0.5251634,-0.5303836,-0.6655047,,0.02660421,-0.021185242,0.19903713,-0.99140656,0.10967188,0.07130929,0.117168106,0.9868667,0.11120175,-0.058177065,0.11860133,-0.9912361,,-0.3269264507645462,-0.055140312721963,0.10687781421,0.0014678296043916705,0.001503001497419845,0.008575851876206833,-0.002613505058148469,,-1.4642764893502125,0.17359931227969275,0.08959437964000001,-0.007339148021958352,-0.017079562470680057,-0.0016734014047947105,0.0017967847274770708
3.8413225129479542,,0.032888964,0.032370266,0.33888727,-0.712551,-0.55005854,-0.4355531,-0.6858957,0.41541702,0.59747463,-0.14770992,0.7244751,-0.6732885,,0.0052108224,-0.015710808,0.57916164,0.5437956,-0.8106877,0.21696027,-0.65459085,-0.24796098,0.7141613,-0.52516407,-0.53037786,-0.6655087,,0.02660421,-0.021185242,0.19903713,-0.99140656,0.10967188,0.07130929,0.117168106,0.9868667,0.11120175,-0.058177065,0.11860133,-0.9912361,,-0.32691100529879774,-0.055140312721963,0.10687781421,0.0014678296043916705,0.001503001497419845,0.008575851876206833,-0.002613505058148469,,-1.4642687666173382,0.17359931227969275,0.08959437964000001,-0.007339148021958352,-0.017079562470680057,-0.0016734014047947105,0.0017967847274770708
3.9032274179626256,,0.03288853,0.03237059,0.33888784,-0.7125507,-0.5500555,-0.43555734,-0.6858958,0.41541207,0.59747785,-0.1477102,0.7244802,-0.6732829,,0.0052113365,-0.015710656,0.579162,0.54379654,-0.8106854,0.2169665,-0.6545905,-0.24795632,0.7141631,-0.5251634,-0.5303836,-0.6655047,,0.02660421,-0.021185242,0.19903713,-0.99140656,0.10967188,0.07130929,0.117168106,0.9868667,0.11120175,-0.058177065,0.11860133,-0.9912361,,-0.32691100529879774,-0.055140312721963,0.10687781421,0.0014678296043916705,0.001503001497419845,0.008575851876206833,-0.002613505058148469,,-1.4642764893502125,0.17359931227969275,0.08959437964000001,-0.007339148021958352,-0.017079562470680057,-0.0016734014047947105,0.0017967847274770708
3.9456196999526583,,0.03288853,0.03237059,0.33888784,-0.7125507,-0.5500555,-0.43555734,-0.6858958,0.41541207,0.59747785,-0.1477102,0.7244802,-0.6732829,,0.0052108224,-0.015710808,0.57916164,0.5437956,-0.8106877,0.21696027,-0.65459085,-0.24796098,0.7141613,-0.52516407,-0.53037786,-0.6655087,,0.02660421,-0.021185242,0.19903713,-0.99140656,0.10967188,0.07130929,0.117168106,0.9868667,0.11120175,-0.058177065,0.11860133,-0.9912361,,-0.32691100529879774,-0.055140312721963,0.10687781421,0.0014678296043916705,0.001503001497419845,0.008575851876206833,-0.002613505058148469,,-1.4642687666173382,0.17359931227969275,0.08959437964000001,-0.007339148021958352,-0.017079562470680057,-0.0016734014047947105,0.0017967847274770708
4.001225941989105,,0.03288853,0.03237059,0.33888784,-0.7125507,-0.5500555,-0.43555734,-0.6858958,0.41541207,0.59747785,-0.1477102,0.7244802,-0.6732829,,0.005211167,-0.015711226,0.5791613,0.5437939,-0.8106877,0.21696444,-0.65459627,-0.24796101,0.71415627,-0.52515894,-0.53037786,-0.66551274,,0.02660421,-0.021185242,0.19903713,-0.99140656,0.10967188,0.07130929,0.117168106,0.9868667,0.11120175,-0.058177065,0.11860133,-0.9912361,,-0.32691100529879774,-0.055140312721963,0.10687781421,0.0014678296043916705,0.001503001497419845,0.008575851876206833,-0.002613505058148469,,-1.4642687666173382,0.17359158954681853,0.08959437964000001,-0.007339148021958352,-0.017079562470680057,-0.0016734014047947105,0.0017967847274770708
4.031886684999336,,0.032888964,0.032370266,0.33888727,-0.712551,-0.55005854,-0.4355531,-0.6858957,0.41541702,0.59747463,-0.14770992,0.7244751,-0.6732885,,0.005211167,-0.015711226,0.5791613,0.5437939,-0.8106877,0.21696444,-0.65459627,-0.24796101,0.71415627,-0.52515894,-0.53037786,-0.66551274,,0.02660421,-0.021185242,0.19903713,-0.99140656,0.10967188,0.07130929,0.117168106,0.9868667,0.11120175,-0.058177065,0.11860133,-0.9912361,,-0.32691872803167193,-0.055140312721963,0.10687781421,0.0014678296043916705,0.001503001497419845,0.008575851876206833,-0.002613505058148469,,-1.4642687666173382,0.17359158954681853,0.08959437964000001,-0.007339148021958352,-0.017079562470680057,-0.0016734014047947105,0.0017967847274770708
4.088616098975763,,0.03288853,0.03237059,0.33888784,-0.7125507,-0.5500555,-0.43555734,-0.6858958,0.41541207,0.59747785,-0.1477102,0.7244802,-0.6732829,,0.0052113365,-0.015710656,0.579162,0.54379654,-0.8106854,0.2169665,-0.6545905,-0.24795632,0.7141631,-0.5251634,-0.5303836,-0.6655047,,0.02660421,-0.021185242,0.19903713,-0.99140656,0.10967188,0.07130929,0.117168106,0.9868667,0.11120175,-0.058177065,0.11860133,-0.9912361,,-0.32691100529879774,-0.055140312721963,0.10687781421,0.0014678296043916705,0.001503001497419845,0.008575851876206833,-0.002613505058148469,,-1.4642764893502125,0.17359931227969275,0.08959437964000001,-0.007339148021958352,-0.017079562470680057,-0.0016734014047947105,0.0017967847274770708
4.138532790995669,,0.03288853,0.03237059,0.33888784,-0.7125507,-0.5500555,-0.43555734,-0.6858958,0.41541207,0.59747785,-0.1477102,0.7244802,-0.6732829,,0.0052113365,-0.015710656,0.579162,0.54379654,-0.8106854,0.2169665,-0.6545905,-0.24795632,0.7141631,-0.5251634,-0.5303836,-0.6655047,,0.02660421,-0.021185242,0.19903713,-0.99140656,0.10967188,0.07130929,0.117168106,0.9868667,0.11120175,-0.058177065,0.11860133,-0.9912361,,-0.32691100529879774,-0.055140312721963,0.10687781421,0.0014678296043916705,0.001503001497419845,0.008575851876206833,-0.002613505058148469,,-1.4642764893502125,0.17359931227969275,0.08959437964000001,-0.007339148021958352,-0.017079562470680057,-0.0016734014047947105,0.0017967847274770708
4.178562230954412,,0.03288853,0.03237059,0.33888784,-0.7125507,-0.5500555,-0.43555734,-0.6858958,0.41541207,0.59747785,-0.1477102,0.7244802,-0.6732829,,0.0052108224,-0.015710808,0.57916164,0.5437956,-0.8106877,0.21696027,-0.65459085,-0.24796098,0.7141613,-0.52516407,-0.53037786,-0.6655087,,0.02660421,-0.021185242,0.19903713,-0.99140656,0.10967188,0.07130929,0.117168106,0.9868667,0.11120175,-0.058177065,0.11860133,-0.9912361,,-0.32691100529879774,-0.055140312721963,0.10687781421,0.0014678296043916705,0.001503001497419845,0.008575851876206833,-0.002613505058148469,,-1.4642687666173382,0.17359931227969275,0.08959437964000001,-0.007339148021958352,-0.017079562470680057,-0.0016734014047947105,0.0017967847274770708
4.233919778955169,,0.032888535,0.032370582,0.33888784,-0.7127829,-0.5497569,-0.43555447,-0.68571943,0.41570008,0.59748006,-0.1474088,0.7245417,-0.6732829,,0.005211167,-0.015711226,0.5791613,0.5437939,-0.8106877,0.21696444,-0.65459627,-0.24796101,0.71415627,-0.52515894,-0.53037786,-0.66551274,,0.02660421,-0.021185242,0.19903713,-0.99140656,0.10967188,0.07130929,0.117168106,0.9868667,0.11120175,-0.058177065,0.11860133,-0.9912361,,-0.32691100529879774,-0.055140312721963,0.10687781421,0.0018872094913607192,0.001503001497419845,0.008575851876206833,-0.002613505058148469,,-1.4642687666173382,0.17359158954681853,0.08959437964000001,-0.007339148021958352,-0.017079562470680057,-0.0016734014047947105,0.0017967847274770708
4.267269937961828,,0.032888535,0.032370582,0.33888784,-0.7127829,-0.5497569,-0.43555447,-0.68571943,0.41570008,0.59748006,-0.1474088,0.7245417,-0.6732829,,0.0052113365,-0.015710656,0.579162,0.54379654,-0.8106854,0.2169665,-0.6545905,-0.24795632,0.7141631,-0.5251634,-0.5303836,-0.6655047,,0.02660421,-0.021185242,0.19903713,-0.99140656,0.10967188,0.07130929,0.117168106,0.9868667,0.11120175,-0.058177065,0.11860133,-0.9912361,,-0.32691100529879774,-0.055140312721963,0.10687781421,0.0018872094913607192,0.001503001497419845,0.008575851876206833,-0.002613505058148469,,-1.4642764893502125,0.17359931227969275,0.08959437964000001,-0.007339148021958352,-0.017079562470680057,-0.0016734014047947105,0.0017967847274770708
4.316470241989009,,0.032888535,0.032370582,0.33888784,-0.7127829,-0.5497569,-0.43555447,-0.68571943,0.41570008,0.59748006,-0.1474088,0.7245417,-0.6732829,,0.0052113365,-0.015710656,0.579162,0.54379654,-0.8106854,0.2169665,-0.6545905,-0.24795632,0.7141631,-0.5251634,-0.5303836,-0.6655047,,0.02660421,-0.021185242,0.19903713,-0.99140656,0.10967188,0.07130929,0.117168106,0.9868667,0.11120175,-0.058177065,0.11860133,-0.9912361,,-0.32691100529879774,-0.055140312721963,0.10687781421,0.0018872094913607192,0.001503001497419845,0.008575851876206833,-0.002613505058148469,,-1.4642764893502125,0.17359931227969275,0.08959437964000001,-0.007339148021958352,-0.017079562470680057,-0.0016734014047947105,0.0017967847274770708
4.366413621988613,,0.032888964,0.032370266,0.33888727,-0.71278316,-0.54976004,-0.43555018,-0.68571925,0.41570497,0.59747684,-0.1474085,0.7245366,-0.67328846,,0.005211167,-0.015711226,0.5791613,0.5437939,-0.8106877,0.21696444,-0.65459627,-0.24796101,0.71415627,-0.52515894,-0.53037786,-0.66551274,,0.02660421,-0.021185242,0.19903713,-0.99140656,0.10967188,0.07130929,0.117168106,0.9868667,0.11120175,-0.058177065,0.11860133,-0.9912361,,-0.32691872803167193,-0.055140312721963,0.10687781421,0.0018872094913607192,0.001503001497419845,0.008575851876206833,-0.002613505058148469,,-1.4642687666173382,0.17359158954681853,0.08959437964000001,-0.007339148021958352,-0.017079562470680057,-0.0016734014047947105,0.0017967847274770708
4.39873421395896,,0.032888535,0.032370582,0.33888784,-0.7127829,-0.5497569,-0.43555447,-0.68571943,0.41570008,0.59748006,-0.1474088,0.7245417,-0.6732829,,0.005211167,-0.015711226,0.5791613,0.5437939,-0.8106877,0.21696444,-0.65459627,-0.24796101,0.71415627,-0.52515894,-0.53037786,-0.66551274,,0.02660421,-0.021185242,0.19903713,-0.99140656,0.10967188,0.07130929,0.117168106,0.9868667,0.11120175,-0.058177065,0.11860133,-0.9912361,,-0.32691100529879774,-0.055140312721963,0.10687781421,0.0018872094913607192,0.001503001497419845,0.008575851876206833,-0.002613505058148469,,-1.4642687666173382,0.17359158954681853,0.08959437964000001,-0.007339148021958352,-0.017079562470680057,-0.0016734014047947105,0.0017967847274770708
4.4493965929723345,,0.032888535,0.032370582,0.33888784,-0.7127829,-0.5497569,-0.43555447,-0.68571943,0.41570008,0.59748006,-0.1474088,0.7245417,-0.6732829,,0.0052113365,-0.015710656,0.579162,0.54379654,-0.8106854,0.2169665,-0.6545905,-0.24795632,0.7141631,-0.5251634,-0.5303836,-0.6655047,,0.02660421,-0.021185242,0.19903713,-0.99140656,0.10967188,0.07130929,0.117168106,0.9868667,0.11120175,-0.058177065,0.11860133,-0.9912361,,-0.32691100529879774,-0.055140312721963,0.10687781421,0.0018872094913607192,0.001503001497419845,0.008575851876206833,-0.002613505058148469,,-1.4642764893502125,0.17359931227969275,0.08959437964000001,-0.007339148021958352,-0.017079562470680057,-0.0016734014047947105,0.0017967847274770708
4.487198041984811,,0.032888535,0.032370582,0.33888784,-0.7127829,-0.5497569,-0.43555447,-0.68571943,0.41570008,0.59748006,-0.1474088,0.7245417,-0.6732829,,0.0052113365,-0.015710656,0.579162,0.54379654,-0.8106854,0.2169665,-0.6545905,-0.24795632,0.7141631,-0.5251634,-0.5303836,-0.6655047,,0.02660421,-0.021185242,0.19903713,-0.99140656,0.10967188,0.07130929,0.117168106,0.9868667,0.11120175,-0.058177065,0.11860133,-0.9912361,,-0.32691100529879774,-0.055140312721963,0.10687781421,0.0018872094913607192,0.001503001497419845,0.008575851876206833,-0.002613505058148469,,-1.4642764893502125,0.17359931227969275,0.08959437964000001,-0.007339148021958352,-0.017079562470680057,-0.0016734014047947105,0.0017967847274770708
4.541913187946193,,0.032888964,0.032370266,0.33888727,-0.71278316,-0.54976004,-0.43555018,-0.68571925,0.41570497,0.59747684,-0.1474085,0.7245366,-0.67328846,,0.0052108224,-0.015710808,0.57916164,0.5437956,-0.8106877,0.21696027,-0.65459085,-0.24796098,0.7141613,-0.52516407,-0.53037786,-0.6655087,,0.02660421,-0.021185242,0.19903713,-0.99140656,0.10967188,0.07130929,0.117168106,0.9868667,0.11120175,-0.058177065,0.11860133,-0.9912361,,-0.32691872803167193,-0.055140312721963,0.10687781421,0.0018872094913607192,0.001503001497419845,0.008575851876206833,-0.002613505058148469,,-1.4642687666173382,0.17359931227969275,0.08959437964000001,-0.007339148021958352,-0.017079562470680057,-0.0016734014047947105,0.0017967847274770708
4.579941320989747,,0.032888535,0.032370582,0.33888784,-0.7127829,-0.5497569,-0.43555447,-0.68571943,0.41570008,0.59748006,-0.1474088,0.7245417,-0.6732829,,0.005211167,-0.015711226,0.5791613,0.5437939,-0.8106877,0.21696444,-0.65459627,-0.24796101,0.71415627,-0.52515894,-0.53037786,-0.66551274,,0.02660421,-0.021185242,0.19903713,-0.99140656,0.10967188,0.07130929,0.117168106,0.9868667,0.11120175,-0.058177065,0.11860133,-0.9912361,,-0.32691100529879774,-0.055140312721963,0.10687781421,0.0018872094913607192,0.001503001497419845,0.008575851876206833,-0.002613505058148469,,-1.4642687666173382,0.17359158954681853,0.08959437964000001,-0.007339148021958352,-0.017079562470680057,-0.0016734014047947105,0.0017967847274770708
4.63636384397978,,0.032888535,0.032370582,0.33888784,-0.7127829,-0.5497569,-0.43555447,-0.68571943,0.41570008,0.59748006,-0.1474088,0.7245417,-0.6732829,,0.0052113365,-0.015710656,0.579162,0.54379654,-0.8106854,0.2169665,-0.6545905,-0.24795632,0.7141631,-0.5251634,-0.5303836,-0.6655047,,0.02660421,-0.021185242,0.19903713,-0.99140656,0.10967188,0.07130929,0.117168106,0.9868667,0.11120175,-0.058177065,0.11860133,-0.9912361,,-0.32691100529879774,-0.055140312721963,0.10687781421,0.0018872094913607192,0.001503001497419845,0.008575851876206833,-0.002613505058148469,,-1.4642764893502125,0.17359931227969275,0.08959437964000001,-0.007339148021958352,-0.017079562470680057,-0.0016734014047947105,0.0017967847274770708
4.669341796950903,,0.032888535,0.032370582,0.33888784,-0.7127829,-0.5497569,-0.43555447,-0.68571943,0.41570008,0.59748006,-0.1474088,0.7245417,-0.6732829,,0.0052113365,-0.015710656,0.579162,0.54379654,-0.8106854,0.2169665,-0.6545905,-0.24795632,0.7141631,-0.5251634,-0.5303836,-0.6655047,,0.02660421,-0.021185242,0.19903713,-0.99140656,0.10967188,0.07130929,0.117168106,0.9868667,0.11120175,-0.058177065,0.11860133,-0.9912361,,-0.32691100529879774,-0.055140312721963,0.10687781421,0.0018872094913607192,0.001503001497419845,0.008575851876206833,-0.002613505058148469,,-1.4642764893502125,0.17359931227969275,0.08959437964000001,-0.007339148021958352,-0.017079562470680057,-0.0016734014047947105,0.0017967847274770708
4.722331465978641,,0.032888535,0.032370582,0.33888784,-0.7127829,-0.5497569,-0.43555447,-0.68571943,0.41570008,0.59748006,-0.1474088,0.7245417,-0.6732829,,0.005211167,-0.015711226,0.5791613,0.5437939,-0.8106877,0.21696444,-0.65459627,-0.24796101,0.71415627,-0.52515894,-0.53037786,-0.66551274,,0.02660421,-0.021185242,0.19903713,-0.99140656,0.10967188,0.07130929,0.117168106,0.9868667,0.11120175,-0.058177065,0.11860133,-0.9912361,,-0.32691100529879774,-0.055140312721963,0.10687781421,0.0018872094913607192,0.001503001497419845,0.008575851876206833,-0.002613505058148469,,-1.4642687666173382,0.17359158954681853,0.08959437964000001,-0.007339148021958352,-0.017079562470680057,-0.0016734014047947105,0.0017967847274770708
4.77177914296044,,0.032888964,0.032370266,0.33888727,-0.71278316,-0.54976004,-0.43555018,-0.68571925,0.41570497,0.59747684,-0.1474085,0.7245366,-0.67328846,,0.005211167,-0.015711226,0.5791613,0.5437939,-0.8106877,0.21696444,-0.65459627,-0.24796101,0.71415627,-0.52515894,-0.53037786,-0.66551274,,0.02660421,-0.021185242,0.19903713,-0.99140656,0.10967188,0.07130929,0.117168106,0.9868667,0.11120175,-0.058177065,0.11860133,-0.9912361,,-0.32691872803167193,-0.055140312721963,0.10687781421,0.0018872094913607192,0.001503001497419845,0.008575851876206833,-0.002613505058148469,,-1.4642687666173382,0.17359158954681853,0.08959437964000001,-0.007339148021958352,-0.017079562470680057,-0.0016734014047947105,0.0017967847274770708
4.822113896952942,,0.03288853,0.03237059,0.33888784,-0.7125507,-0.5500555,-0.43555734,-0.6858958,0.41541207,0.59747785,-0.1477102,0.7244802,-0.6732829,,0.0052108224,-0.015710808,0.57916164,0.5437956,-0.8106877,0.21696027,-0.65459085,-0.24796098,0.7141613,-0.52516407,-0.53037786,-0.6655087,,0.02660421,-0.021185242,0.19903713,-0.99140656,0.10967188,0.07130929,0.117168106,0.9868667,0.11120175,-0.058177065,0.11860133,-0.9912361,,-0.32691100529879774,-0.055140312721963,0.10687781421,0.0014678296043916705,0.001503001497419845,0.008575851876206833,-0.002613505058148469,,-1.4642687666173382,0.17359931227969275,0.08959437964000001,-0.007339148021958352,-0.017079562470680057,-0.0016734014047947105,0.0017967847274770708
4.871001999999862,,0.03288853,0.03237059,0.33888784,-0.7125507,-0.5500555,-0.43555734,-0.6858958,0.41541207,0.59747785,-0.1477102,0.7244802,-0.6732829,,0.0052108224,-0.015710808,0.57916164,0.5437956,-0.8106877,0.21696027,-0.65459085,-0.24796098,0.7141613,-0.52516407,-0.53037786,-0.6655087,,0.02660421,-0.021185242,0.19903713,-0.99140656,0.10967188,0.07130929,0.117168106,0.9868667,0.11120175,-0.058177065,0.11860133,-0.9912361,,-0.32691100529879774,-0.055140312721963,0.10687781421,0.0014678296043916705,0.001503001497419845,0.008575851876206833,-0.002613505058148469,,-1.4642687666173382,0.17359931227969275,0.08959437964000001,-0.007339148021958352,-0.017079562470680057,-0.0016734014047947105,0.0017967847274770708
4.902531262952834,,0.032888964,0.032370266,0.33888727,-0.712551,-0.55005854,-0.4355531,-0.6858957,0.41541702,0.59747463,-0.14770992,0.7244751,-0.6732885,,0.0052108224,-0.015710808,0.57916164,0.5437956,-0.8106877,0.21696027,-0.65459085,-0.24796098,0.7141613,-0.52516407,-0.53037786,-0.6655087,,0.02660421,-0.021185242,0.19903713,-0.99140656,0.10967188,0.07130929,0.117168106,0.9868667,0.11120175,-0.058177065,0.11860133,-0.9912361,,-0.32691872803167193,-0.055140312721963,0.10687781421,0.0014678296043916705,0.001503001497419845,0.008575851876206833,-0.002613505058148469,,-1.4642687666173382,0.17359931227969275,0.08959437964000001,-0.007339148021958352,-0.017079562470680057,-0.0016734014047947105,0.0017967847274770708
4.966720037977211,,0.032818843,0.032432295,0.33886212,-0.712594,-0.5500363,-0.43551084,-0.685842,0.41541258,0.59753925,-0.14775164,0.72449446,-0.6732584,,0.0053558405,-0.015658017,0.5791528,0.54389066,-0.8106637,0.21681187,-0.6544992,-0.24810536,0.7141951,-0.52517974,-0.53034717,-0.6655208,,0.026566109,-0.021172956,0.19903547,-0.9914027,0.10970418,0.07131334,0.1172007,0.9868629,0.11120118,-0.05817726,0.11860315,-0.99123585,,-0.32691100529879774,-0.055140312721963,0.10687781421,0.0014678296043916705,0.001503001497419845,0.008575851876206833,-0.002613505058148469,,-1.4642687666173382,0.17359158954681853,0.08959437964000001,-0.007339148021958352,-0.017079562470680057,-0.0016734014047947105,0.0017967847274770708
5.000543135975022,,0.032818843,0.032432295,0.33886212,-0.712594,-0.5500363,-0.43551084,-0.685842,0.41541258,0.59753925,-0.14775164,0.72449446,-0.6732584,,0.005356008,-0.015657447,0.57915354,0.5438933,-0.8106613,0.21681392,-0.6544934,-0.24810067,0.71420205,-0.5251842,-0.5303529,-0.6655127,,0.026566109,-0.021172956,0.19903547,-0.9914027,0.10970418,0.07131334,0.1172007,0.9868629,0.11120118,-0.05817726,0.11860315,-0.99123585,,-0.32691100529879774,-0.055140312721963,0.10687781421,0.0014678296043916705,0.001503001497419845,0.008575851876206833,-0.002613505058148469,,-1.4642764893502125,0.17359931227969275,0.08959437964000001,-0.007339148021958352,-0.017079562470680057,-0.0016734014047947105,0.0017967847274770708
5.063976286968682,,0.032818843,0.032432295,0.33886212,-0.712594,-0.5500363,-0.43551084,-0.685842,0.41541258,0.59753925,-0.14775164,0.72449446,-0.6732584,,0.005356008,-0.015657447,0.57915354,0.5438933,-0.8106613,0.21681392,-0.6544934,-0.24810067,0.71420205,-0.5251842,-0.5303529,-0.6655127,,0.026566109,-0.021172956,0.19903547,-0.9914027,0.10970418,0.07131334,0.1172007,0.9868629,0.11120118,-0.05817726,0.11860315,-0.99123585,,-0.32691100529879774,-0.055140312721963,0.10687781421,0.0014678296043916705,0.001503001497419845,0.008575851876206833,-0.002613505058148469,,-1.4642764893502125,0.17359931227969275,0.08959437964000001,-0.007339148021958352,-0.017079562470680057,-0.0016734014047947105,0.0017967847274770708
5.1160846799612045,,0.032819275,0.032431986,0.33886153,-0.71259415,-0.55003947,-0.43550664,-0.68584186,0.41541746,0.5975361,-0.14775136,0.72448933,-0.6732641,,0.0053558405,-0.015658017,0.5791528,0.54389066,-0.8106637,0.21681187,-0.6544992,-0.24810536,0.7141951,-0.52517974,-0.53034717,-0.6655208,,0.026566109,-0.021172956,0.19903547,-0.9914027,0.10970418,0.07131334,0.1172007,0.9868629,0.11120118,-0.05817726,0.11860315,-0.99123585,,-0.32691872803167193,-0.055140312721963,0.10687781421,0.0014678296043916705,0.001503001497419845,0.008575851876206833,-0.002613505058148469,,-1.4642687666173382,0.17359158954681853,0.08959437964000001,-0.007339148021958352,-0.017079562470680057,-0.0016734014047947105,0.0017967847274770708
5.149279662000481,,0.032818843,0.032432295,0.33886212,-0.712594,-0.5500363,-0.43551084,-0.685842,0.41541258,0.59753925,-0.14775164,0.72449446,-0.6732584,,0.005356008,-0.015657447,0.57915354,0.5438933,-0.8106613,0.21681392,-0.6544934,-0.24810067,0.71420205,-0.5251842,-0.5303529,-0.6655127,,0.026566109,-0.021172956,0.19903547,-0.9914027,0.10970418,0.07131334,0.1172007,0.9868629,0.11120118,-0.05817726,0.11860315,-0.99123585,,-0.32691100529879774,-0.055140312721963,0.10687781421,0.0014678296043916705,0.001503001497419845,0.008575851876206833,-0.0019601287936113505,,-1.4642764893502125,0.17359931227969275,0.08959437964000001,-0.007339148021958352,-0.017079562470680057,-0.0016734014047947105,0.0017967847274770708
5.21054847096093,,0.032825932,0.032439124,0.33886358,-0.7130645,-0.5489374,-0.436127,-0.68519247,0.41388565,0.59934145,-0.14849427,0.72619987,-0.6712548,,0.005356008,-0.015657447,0.57915354,0.5438933,-0.8106613,0.21681392,-0.6544934,-0.24810067,0.71420205,-0.5251842,-0.5303529,-0.6655127,,0.026566109,-0.021172956,0.19903547,-0.9914027,0.10970418,0.07131334,0.1172007,0.9868629,0.11120118,-0.05817726,0.11860315,-0.99123585,,-0.32691100529879774,-0.055140312721963,0.10687781421,0.0014678296043916705,0.002732729995308809,0.011085276568983216,0.03038199630097594,,-1.4642764893502125,0.17359931227969275,0.08959437964000001,-0.007339148021958352,-0.017079562470680057,-0.0016734014047947105,0.0017967847274770708
5.2469851459609345,,0.03283257,0.032444756,0.33886433,-0.71347564,-0.5488609,-0.43555045,-0.68462306,0.41376317,0.60007614,-0.1491436,0.7263275,-0.6709727,,0.0053554922,-0.015657604,0.5791532,0.5438923,-0.8106637,0.2168077,-0.65449363,-0.2481053,0.7142002,-0.52518487,-0.5303472,-0.66551673,,0.026566109,-0.021172956,0.19903547,-0.9914027,0.10970418,0.07131334,0.1172007,0.9868629,0.11120118,-0.05817726,0.11860315,-0.99123585,,-0.32691872803167193,-0.055140312721963,0.10687781421,0.0014678296043916705,0.0035525489939014516,0.011315235288350874,0.0653376264537117,,-1.4642687666173382,0.17359931227969275,0.08959437964000001,-0.007339148021958352,-0.017079562470680057,-0.0016734014047947105,0.0017967847274770708
5.299286755966023,,0.03281928,0.03243198,0.33886153,-0.7127103,-0.54992574,-0.43546027,-0.6857537,0.41561025,0.59750324,-0.14760067,0.72446513,-0.6733232,,0.0053558405,-0.015658017,0.5791528,0.54389066,-0.8106637,0.21681187,-0.6544992,-0.24810536,0.7141951,-0.52517974,-0.53034717,-0.6655208,,0.026566109,-0.021172956,0.19903547,-0.9914027,0.10970418,0.07131334,0.1172007,0.9868629,0.11120118,-0.05817726,0.11860315,-0.99123585,,-0.32691872803167193,-0.055140312721963,0.10687781421,0.0016775195478761949,0.001503001497419845,0.008494173136066277,0.15141994930647687,,-1.4642687666173382,0.17359158954681853,0.08959437964000001,-0.007339148021958352,-0.017079562470680057,-0.0016734014047947105,0.0017967847274770708
5.330876799998805,,0.032818846,0.032432295,0.33886212,-0.7128261,-0.5497733,-0.43546304,-0.68566567,0.4157493,0.59750754,-0.14745024,0.72450095,-0.6733176,,0.0053558405,-0.015658017,0.5791528,0.54389066,-0.8106637,0.21681187,-0.6544992,-0.24810536,0.7141951,-0.52517974,-0.53034717,-0.6655208,,0.026566109,-0.021172956,0.19903547,-0.9914027,0.10970418,0.07131334,0.1172007,0.9868629,0.11120118,-0.05817726,0.11860315,-0.99123585,,-0.32691100529879774,-0.055140312721963,0.10687781421,0.0018872094913607192,0.001503001497419845,0.008494173136066263,0.21675757576018856,,-1.4642687666173382,0.17359158954681853,0.08959437964000001,-0.007339148021958352,-0.017079562470680057,-0.0016734014047947105,0.0017967847274770708
5.3713922939496115,,0.032824595,0.032437086,0.33886266,-0.71317923,-0.5489344,-0.43594292,-0.6851783,0.4145853,0.59887385,-0.14800692,0.72580296,-0.6717915,,0.005356008,-0.015657447,0.57915354,0.5438933,-0.8106613,0.21681392,-0.6544934,-0.24810067,0.71420205,-0.5251842,-0.5303529,-0.6655127,,0.026566109,-0.021172956,0.19903547,-0.9914027,0.10970418,0.07131334,0.1172007,0.9868629,0.11120118,-0.05817726,0.11860315,-0.99123585,,-0.32691872803167193,-0.055140312721963,0.10687781421,0.0018872094913607192,0.0023228204960124878,0.010439385398385709,0.36148041835516,,-1.4642764893502125,0.17359931227969275,0.08959437964000001,-0.007339148021958352,-0.017079562470680057,-0.0016734014047947105,0.0017967847274770708
5.41266186197754,,0.032826826,0.032439962,0.33886373,-0.71335536,-0.5490444,-0.43551612,-0.68493474,0.41472882,0.5990531,-0.14828567,0.7256378,-0.67190844,,0.005356008,-0.015657447,0.57915354,0.5438933,-0.8106613,0.21681392,-0.6544934,-0.24810067,0.71420205,-0.5251842,-0.5303529,-0.6655127,,0.026566109,-0.021172956,0.19903547,-0.9914027,0.10970418,0.07131334,0.1172007,0.9868629,0.11120118,-0.05817726,0.11860315,-0.99123585,,-0.32691100529879774,-0.055140312721963,0.10687781421,0.0018872094913607192,0.002732729995308809,0.010186810427437035,0.40117302642578984,,-1.4642764893502125,0.17359931227969275,0.08959437964000001,-0.007339148021958352,-0.017079562470680057,-0.0016734014047947105,0.0017967847274770708
5.462277410959359,,0.03282637,0.032438796,0.33886302,-0.71329683,-0.54928255,-0.43531173,-0.68501574,0.41505924,0.5987314,-0.14819257,0.72526854,-0.6723276,,0.0053554922,-0.015657604,0.5791532,0.5438923,-0.8106637,0.2168077,-0.65449363,-0.2481053,0.7142002,-0.52518487,-0.5303472,-0.66551673,,0.026566109,-0.021172956,0.19903547,-0.9914027,0.10970418,0.07131334,0.1172007,0.9868629,0.11120118,-0.05817726,0.11860315,-0.99123585,,-0.32691872803167193,-0.055140312721963,0.10687781421,0.0018872094913607192,0.0025960934955433683,0.009644798410008967,0.47565792058302114,,-1.4642687666173382,0.17359931227969275,0.08959437964000001,-0.007339148021958352,-0.017079562470680057,-0.0016734014047947105,0.0017967847274770708
5.515144462988246,,0.03282548,0.032437943,0.33886284,-0.71323806,-0.5493397,-0.43533576,-0.6850971,0.41514012,0.5985824,-0.14809975,0.7251789,-0.67244464,,0.0053554922,-0.015657604,0.5791532,0.5438923,-0.8106637,0.2168077,-0.65449363,-0.2481053,0.7142002,-0.52518487,-0.5303472,-0.66551673,,0.026566109,-0.021172956,0.19903547,-0.9914027,0.10970418,0.07131334,0.1172007,0.9868629,0.11120118,-0.05817726,0.11860315,-0.99123585,,-0.32691872803167193,-0.055140312721963,0.10687781421,0.0018872094913607192,0.002459456995777928,0.009511180093283694,0.5169839693149938,,-1.4642687666173382,0.17359931227969275,0.08959437964000001,-0.007339148021958352,-0.017079562470680057,-0.0016734014047947105,0.0017967847274770708
5.547486279974692,,0.032825023,0.03243677,0.33886206,-0.7131795,-0.54925776,-0.43553504,-0.68517816,0.4150303,0.5985657,-0.14800665,0.7253038,-0.67233044,,0.005356008,-0.015657447,0.57915354,0.5438933,-0.8106613,0.21681392,-0.6544934,-0.24810067,0.71420205,-0.5251842,-0.5303529,-0.6655127,,0.026566109,-0.021172956,0.19903547,-0.9914027,0.10970418,0.07131334,0.1172007,0.9868629,0.11120118,-0.05817726,0.11860315,-0.99123585,,-0.3269264507645462,-0.055140312721963,0.10687781421,0.0018872094913607192,0.0023228204960124878,0.009704276737120682,0.5230276997619622,,-1.4642764893502125,0.17359931227969275,0.08959437964000001,-0.007339148021958352,-0.017079562470680057,-0.0016734014047947105,0.0017967847274770708
5.603424690954853,,0.032824166,0.032437414,0.3388632,-0.713179,-0.5493228,-0.43545377,-0.6851785,0.41511828,0.59850425,-0.14800721,0.72520417,-0.6724378,,0.0053554922,-0.015657604,0.5791532,0.5438923,-0.8106637,0.2168077,-0.65449363,-0.2481053,0.7142002,-0.52518487,-0.5303472,-0.66551673,,0.026566109,-0.021172956,0.19903547,-0.9914027,0.10970418,0.07131334,0.1172007,0.9868629,0.11120118,-0.05817726,0.11860315,-0.99123585,,-0.32691100529879774,-0.055140312721963,0.10687781421,0.0018872094913607192,0.0023228204960124878,0.009540919256839558,0.5227010116296936,,-1.4642687666173382,0.17359931227969275,0.08959437964000001,-0.007339148021958352,-0.017079562470680057,-0.0016734014047947105,0.0017967847274770708
5.661948764987756,,0.032824595,0.032437086,0.33886266,-0.71317923,-0.5493258,-0.43544957,-0.6851783,0.41512322,0.5985011,-0.14800692,0.72519904,-0.67244333,,0.0053563584,-0.01565786,0.5791532,0.54389155,-0.8106613,0.21681806,-0.65449893,-0.24810073,0.714197,-0.5251791,-0.5303529,-0.66551673,,0.026566109,-0.021172956,0.19903547,-0.9914027,0.10970418,0.07131334,0.1172007,0.9868629,0.11120118,-0.05817726,0.11860315,-0.99123585,,-0.32691872803167193,-0.055140312721963,0.10687781421,0.0018872094913607192,0.0023228204960124878,0.009540919256839558,0.5227010116296936,,-1.4642764893502125,0.17359158954681853,0.08959437964000001,-0.007339148021958352,-0.017079562470680057,-0.0016734014047947105,0.0017967847274770708
5.694932209968101,,0.032824166,0.032437414,0.3388632,-0.713179,-0.5493228,-0.43545377,-0.6851785,0.41511828,0.59850425,-0.14800721,0.72520417,-0.6724378,,0.0053554922,-0.015657604,0.5791532,0.5438923,-0.8106637,0.2168077,-0.65449363,-0.2481053,0.7142002,-0.52518487,-0.5303472,-0.66551673,,0.026566109,-0.021172956,0.19903547,-0.9914027,0.10970418,0.07131334,0.1172007,0.9868629,0.11120118,-0.05817726,0.11860315,-0.99123585,,-0.32691100529879774,-0.055140312721963,0.10687781421,0.0018872094913607192,0.0023228204960124878,0.009540919256839558,0.5227010116296936,,-1.4642687666173382,0.17359931227969275,0.08959437964000001,-0.007339148021958352,-0.017079562470680057,-0.0016734014047947105,0.0017967847274770708
5.752423592959531,,0.032824166,0.032437414,0.3388632,-0.713179,-0.5493228,-0.43545377,-0.6851785,0.41511828,0.59850425,-0.14800721,0.72520417,-0.6724378,,0.00535498,-0.015657756,0.5791528,0.5438913,-0.8106659,0.2168015,-0.6544939,-0.24811,0.7141983,-0.5251856,-0.5303415,-0.6655208,,0.026566109,-0.021172956,0.19903547,-0.9914027,0.10970418,0.07131334,0.1172007,0.9868629,0.11120118,-0.05817726,0.11860315,-0.99123585,,-0.32691100529879774,-0.055140312721963,0.10687781421,0.0018872094913607192,0.0023228204960124878,0.009540919256839558,0.5227010116296936,,-1.4642610438844639,0.17359931227969275,0.08959437964000001,-0.007339148021958352,-0.017079562470680057,-0.0016734014047947105,0.0017967847274770708
5.786425162979867,,0.032824717,0.03243795,0.3388633,-0.7131824,-0.5493228,-0.4354483,-0.68517387,0.41511822,0.5985096,-0.14801246,0.72520417,-0.6724366,,0.005356008,-0.015657447,0.57915354,0.5438933,-0.8106613,0.21681392,-0.6544934,-0.24810067,0.71420205,-0.5251842,-0.5303529,-0.6655127,,0.026566109,-0.021172956,0.19903547,-0.9914027,0.10970418,0.07131334,0.1172007,0.9868629,0.11120118,-0.05817726,0.11860315,-0.99123585,,-0.32691100529879774,-0.05513258998908877,0.10687781421,0.0018872094913607192,0.0023228204960124878,0.009540919256839558,0.5227010116296936,,-1.4642764893502125,0.17359931227969275,0.08959437964000001,-0.007339148021958352,-0.017079562470680057,-0.0016734014047947105,0.0017967847274770708
5.8377601449610665,,0.03282527,0.032438476,0.33886343,-0.71318567,-0.54932284,-0.43544284,-0.6851692,0.41511816,0.5985149,-0.1480177,0.72520417,-0.6724354,,0.0053558405,-0.015658017,0.5791528,0.54389066,-0.8106637,0.21681187,-0.6544992,-0.24810536,0.7141951,-0.52517974,-0.53034717,-0.6655208,,0.026566109,-0.021172956,0.19903547,-0.9914027,0.10970418,0.07131334,0.1172007,0.9868629,0.11120118,-0.05817726,0.11860315,-0.99123585,,-0.32691100529879774,-0.05512486725621455,0.10687781421,0.0018872094913607192,0.0023228204960124878,0.009540919256839558,0.5227010116296936,,-1.4642687666173382,0.17359158954681853,0.08959437964000001,-0.007339148021958352,-0.017079562470680057,-0.0016734014047947105,0.0017967847274770708
5.887669528950937,,0.032825697,0.03243816,0.3388629,-0.7131859,-0.54932594,-0.4354385,-0.6851691,0.41512305,0.5985117,-0.1480174,0.7251991,-0.67244107,,0.005356008,-0.015657447,0.57915354,0.5438933,-0.8106613,0.21681392,-0.6544934,-0.24810067,0.71420205,-0.5251842,-0.5303529,-0.6655127,,0.026566109,-0.021172956,0.19903547,-0.9914027,0.10970418,0.07131334,0.1172007,0.9868629,0.11120118,-0.05817726,0.11860315,-0.99123585,,-0.32691872803167193,-0.05512486725621455,0.10687781421,0.0018872094913607192,0.0023228204960124878,0.009540919256839558,0.5227010116296936,,-1.4642764893502125,0.17359931227969275,0.08959437964000001,-0.007339148021958352,-0.017079562470680057,-0.0016734014047947105,0.0017967847274770708
5.93734827399021,,0.03282527,0.032438476,0.33886343,-0.71318567,-0.54932284,-0.43544284,-0.6851692,0.41511816,0.5985149,-0.1480177,0.72520417,-0.6724354,,0.0053554922,-0.015657604,0.5791532,0.5438923,-0.8106637,0.2168077,-0.65449363,-0.2481053,0.7142002,-0.52518487,-0.5303472,-0.66551673,,0.026566109,-0.021172956,0.19903547,-0.9914027,0.10970418,0.07131334,0.1172007,0.9868629,0.11120118,-0.05817726,0.11860315,-0.99123585,,-0.32691100529879774,-0.05512486725621455,0.10687781421,0.0018872094913607192,0.0023228204960124878,0.009540919256839558,0.5227010116296936,,-1.4642687666173382,0.17359931227969275,0.08959437964000001,-0.007339148021958352,-0.017079562470680057,-0.0016734014047947105,0.0017967847274770708
5.983395941962954,,0.032825265,0.032438483,0.33886343,-0.7129535,-0.5496215,-0.4354462,-0.6853457,0.41483024,0.5985125,-0.14831913,0.7251427,-0.67243534,,0.005356008,-0.015657447,0.57915354,0.5438933,-0.8106613,0.21681392,-0.6544934,-0.24810067,0.71420205,-0.5251842,-0.5303529,-0.6655127,,0.026566109,-0.021172956,0.19903547,-0.9914027,0.10970418,0.07131334,0.1172007,0.9868629,0.11120118,-0.05817726,0.11860315,-0.99123585,,-0.32691100529879774,-0.05512486725621455,0.10687781421,0.0014678296043916705,0.0023228204960124878,0.009540919256839558,0.5227010116296936,,-1.4642764893502125,0.17359931227969275,0.08959437964000001,-0.007339148021958352,-0.017079562470680057,-0.0016734014047947105,0.0017967847274770708
6.008406989974901,,0.032825265,0.032438483,0.33886343,-0.7129535,-0.5496215,-0.4354462,-0.6853457,0.41483024,0.5985125,-0.14831913,0.7251427,-0.67243534,,0.0053558405,-0.015658017,0.5791528,0.54389066,-0.8106637,0.21681187,-0.6544992,-0.24810536,0.7141951,-0.52517974,-0.53034717,-0.6655208,,0.026566109,-0.021172956,0.19903547,-0.9914027,0.10970418,0.07131334,0.1172007,0.9868629,0.11120118,-0.05817726,0.11860315,-0.99123585,,-0.32691100529879774,-0.05512486725621455,0.10687781421,0.0014678296043916705,0.0023228204960124878,0.009540919256839558,0.5227010116296936,,-1.4642687666173382,0.17359158954681853,0.08959437964000001,-0.007339148021958352,-0.017079562470680057,-0.0016734014047947105,0.0017967847274770708
6.065737446944695,,0.032825265,0.032438483,0.33886343,-0.7129535,-0.5496215,-0.4354462,-0.6853457,0.41483024,0.5985125,-0.14831913,0.7251427,-0.67243534,,0.0053563584,-0.01565786,0.5791532,0.54389155,-0.8106613,0.21681806,-0.65449893,-0.24810073,0.714197,-0.5251791,-0.5303529,-0.66551673,,0.026566109,-0.021172956,0.19903547,-0.9914027,0.10970418,0.07131334,0.1172007,0.9868629,0.11120118,-0.05817726,0.11860315,-0.99123585,,-0.32691100529879774,-0.05512486725621455,0.10687781421,0.0014678296043916705,0.0023228204960124878,0.009540919256839558,0.5227010116296936,,-1.4642764893502125,0.17359158954681853,0.08959437964000001,-0.007339148021958352,-0.017079562470680057,-0.0016734014047947105,0.0017967847274770708
6.105683901987504,,0.032867182,0.03240583,0.33887035,-0.7129303,-0.5496608,-0.4354345,-0.6853715,0.4148549,0.59846574,-0.14831102,0.72509885,-0.6724845,,0.0053069144,-0.015679235,0.57916474,0.5438797,-0.81065077,0.21688716,-0.6545208,-0.24804865,0.71419495,-0.5251642,-0.53039324,-0.6654964,,0.026689626,-0.021234775,0.19904163,-0.99141765,0.10957894,0.07129763,0.117074296,0.9868776,0.11120332,-0.058176503,0.118596084,-0.99123675,,-0.32691100529879774,-0.05512486725621455,0.10687781421,0.0014678296043916705,0.0023228204960124878,0.009540919256839558,0.5227010116296936,,-1.4642764893502125,0.17359931227969275,0.08959437964000001,-0.007339148021958352,-0.017079562470680057,-0.0016734014047947105,0.0017967847274770708
6.1576821829658,,0.032867182,0.03240583,0.33887035,-0.7129303,-0.5496608,-0.4354345,-0.6853715,0.4148549,0.59846574,-0.14831102,0.72509885,-0.6724845,,0.0053063985,-0.015679391,0.5791644,0.5438787,-0.81065315,0.21688096,-0.65452105,-0.24805328,0.7141931,-0.5251648,-0.5303876,-0.6655004,,0.026689626,-0.021234775,0.19904163,-0.99141765,0.10957894,0.07129763,0.117074296,0.9868776,0.11120332,-0.058176503,0.118596084,-0.99123675,,-0.32691100529879774,-0.05512486725621455,0.10687781421,0.0014678296043916705,0.0023228204960124878,0.009540919256839558,0.5227010116296936,,-1.4642687666173382,0.17359931227969275,0.08959437964000001,-0.007339148021958352,-0.017079562470680057,-0.0016734014047947105,0.0017967847274770708
6.199158835981507,,0.032867182,0.03240583,0.33887035,-0.7129303,-0.5496608,-0.4354345,-0.6853715,0.4148549,0.59846574,-0.14831102,0.72509885,-0.6724845,,0.005306747,-0.0156798,0.579164,0.543877,-0.81065315,0.2168851,-0.6545266,-0.24805334,0.71418804,-0.52515966,-0.5303875,-0.6655045,,0.026689626,-0.021234775,0.19904163,-0.99141765,0.10957894,0.07129763,0.117074296,0.9868776,0.11120332,-0.058176503,0.118596084,-0.99123675,,-0.32691100529879774,-0.05512486725621455,0.10687781421,0.0014678296043916705,0.0023228204960124878,0.009540919256839558,0.5227010116296936,,-1.4642687666173382,0.17359158954681853,0.08959437964000001,-0.007339148021958352,-0.017079562470680057,-0.0016734014047947105,0.0017967847274770708
6.253267658990808,,0.032867182,0.03240583,0.33887035,-0.7129303,-0.5496608,-0.4354345,-0.6853715,0.4148549,0.59846574,-0.14831102,0.72509885,-0.6724845,,0.0053069144,-0.015679235,0.57916474,0.5438797,-0.81065077,0.21688716,-0.6545208,-0.24804865,0.71419495,-0.5251642,-0.53039324,-0.6654964,,0.026689626,-0.021234775,0.19904163,-0.99141765,0.10957894,0.07129763,0.117074296,0.9868776,0.11120332,-0.058176503,0.118596084,-0.99123675,,-0.32691100529879774,-0.05512486725621455,0.10687781421,0.0014678296043916705,0.0023228204960124878,0.009540919256839558,0.5227010116296936,,-1.4642764893502125,0.17359931227969275,0.08959437964000001,-0.007339148021958352,-0.017079562470680057,-0.0016734014047947105,0.0017967847274770708
