AlexandreBanks6/ExpertPlaybackApp/resources/Motions/Motion_Best.csv
Time,si_T_psm1,Tx,Ty,Tz,R00,R01,R02,R10,R11,R12,R20,R21,R22,si_T_psm3,Tx,Ty,Tz,R00,R01,R02,R10,R11,R12,R20,R21,R22,si_T_ecm,Tx,Ty,Tz,R00,R01,R02,R10,R11,R12,R20,R21,R22,joint_vars_psm1,q1,q2,q3,q4,q5,q6,jaw,joint_vars_psm3,q1,q2,q3,q4,q5,q6,jaw
lci_T_si
,,-0.054996133,0.0644675,0.5576292,0.9956232,0.02080817,-0.09111239,0.004713598,-0.9848386,-0.17340913,-0.093339324,0.17222069,-0.9806262
rci_T_si
,,-0.056313485,0.0534825,0.5348152,0.9933888,0.012017083,-0.11416803,0.003334506,-0.99710685,-0.07593943,-0.1147503,0.07505668,-0.9905548
ecm_T_lc
,,0.022782804,0.054864287,-0.33796614,-0.99125,-0.12739496,-0.0345537,0.12872347,-0.990897,-0.03941251,-0.029218202,-0.043515522,0.99862534
ecm_T_rc
,,0.022707665,0.067641795,-0.42994186,-0.99723834,0.02928547,-0.06824988,-0.024871755,-0.9975983,-0.06464576,-0.069979146,-0.06276973,0.9955716
0.023148674983531237,,-0.03117919,0.16660699,0.13478006,-0.48912635,-0.76880556,-0.41193873,-0.82853353,0.26195973,0.49488303,-0.2725575,0.58336526,-0.7651125,,0.38840207,0.13569894,0.14702004,0.238557,-0.82321775,0.5151731,-0.971094,-0.19775054,0.13368222,-0.008173864,-0.53217226,-0.8465965,,0.080553606,-0.014569284,0.21123925,-0.9842905,0.1271366,-0.12250976,0.09885493,0.97176796,0.21423034,0.1462876,0.1987542,-0.9690699,,-0.45648301746253656,-0.14173531644064244,0.10011506928000001,0.027259692652988166,0.009291281984049951,-0.013784001702039386,-0.014374277819816575,,-1.2806299016011535,-0.18485133407743787,0.16513697568000002,0.003145349152267865,0.0038258219934323326,-0.004426561145748796,-0.0029401931904170266
0.04965920792892575,,-0.03117919,0.16660699,0.13478006,-0.48912635,-0.76880556,-0.41193873,-0.82853353,0.26195973,0.49488303,-0.2725575,0.58336526,-0.7651125,,0.38841182,0.13569942,0.14702597,0.23855351,-0.8232106,0.5151861,-0.9710948,-0.19774598,0.13368282,-0.008173203,-0.53218496,-0.8465885,,0.080553606,-0.014569284,0.21123925,-0.9842905,0.1271366,-0.12250976,0.09885493,0.97176796,0.21423034,0.1462876,0.1987542,-0.9690699,,-0.45648301746253656,-0.14173531644064244,0.10011506928000001,0.027259692652988166,0.009291281984049951,-0.013784001702039386,-0.014374277819816575,,-1.280645347066902,-0.18485133407743787,0.16513697568000002,0.003145349152267865,0.0038258219934323326,-0.004426561145748796,-0.0029401931904170266
0.07235704199410975,,-0.031181253,0.16660796,0.13478203,-0.48912647,-0.7688025,-0.41194415,-0.8285331,0.26195568,0.49488583,-0.27255833,0.58337104,-0.7651078,,0.38841182,0.13569942,0.14702597,0.23855351,-0.8232106,0.5151861,-0.9710948,-0.19774598,0.13368282,-0.008173203,-0.53218496,-0.8465885,,0.080553606,-0.014569284,0.21123925,-0.9842905,0.1271366,-0.12250976,0.09885493,0.97176796,0.21423034,0.1462876,0.1987542,-0.9690699,,-0.4564752947296623,-0.14173531644064244,0.10011506928000001,0.027259692652988166,0.009291281984049951,-0.013784001702039386,-0.014374277819816575,,-1.280645347066902,-0.18485133407743787,0.16513697568000002,0.003145349152267865,0.0038258219934323326,-0.004426561145748796,-0.0029401931904170266
0.09984364197589457,,-0.031179488,0.1666103,0.13478273,-0.48913038,-0.76880246,-0.4119398,-0.8285292,0.26195693,0.49489185,-0.27256358,0.5833707,-0.76510614,,0.38840693,0.13569918,0.14702296,0.23855525,-0.8232141,0.5151796,-0.9710945,-0.19774827,0.13368253,-0.008173525,-0.53217864,-0.8465925,,0.080553606,-0.014569284,0.21123925,-0.9842905,0.1271366,-0.12250976,0.09885493,0.97176796,0.21423034,0.1462876,0.1987542,-0.9690699,,-0.4564752947296623,-0.1417275937077682,0.10011506928000001,0.027259692652988166,0.009291281984049951,-0.013784001702039386,-0.014374277819816575,,-1.2806376243340278,-0.18485133407743787,0.16513697568000002,0.003145349152267865,0.0038258219934323326,-0.004426561145748796,-0.0029401931904170266
0.1201093290001154,,-0.031183325,0.16660893,0.134784,-0.48912662,-0.7687995,-0.41194957,-0.8285328,0.2619517,0.49488848,-0.27255917,0.5833768,-0.7651031,,0.38840693,0.13569918,0.14702296,0.23855525,-0.8232141,0.5151796,-0.9710945,-0.19774827,0.13368253,-0.008173525,-0.53217864,-0.8465925,,0.080553606,-0.014569284,0.21123925,-0.9842905,0.1271366,-0.12250976,0.09885493,0.97176796,0.21423034,0.1462876,0.1987542,-0.9690699,,-0.4564675719967881,-0.14173531644064244,0.10011506928000001,0.027259692652988166,0.009291281984049951,-0.013784001702039386,-0.014374277819816575,,-1.2806376243340278,-0.18485133407743787,0.16513697568000002,0.003145349152267865,0.0038258219934323326,-0.004426561145748796,-0.0029401931904170266
0.14865266694687307,,-0.03117919,0.16660699,0.13478006,-0.48912635,-0.76880556,-0.41193873,-0.82853353,0.26195973,0.49488303,-0.2725575,0.58336526,-0.7651125,,0.38841182,0.13569942,0.14702597,0.23855351,-0.8232106,0.5151861,-0.9710948,-0.19774598,0.13368282,-0.008173203,-0.53218496,-0.8465885,,0.080553606,-0.014569284,0.21123925,-0.9842905,0.1271366,-0.12250976,0.09885493,0.97176796,0.21423034,0.1462876,0.1987542,-0.9690699,,-0.45648301746253656,-0.14173531644064244,0.10011506928000001,0.027259692652988166,0.009291281984049951,-0.013784001702039386,-0.014374277819816575,,-1.280645347066902,-0.18485133407743787,0.16513697568000002,0.003145349152267865,0.0038258219934323326,-0.004426561145748796,-0.0029401931904170266
0.17160713183693588,,-0.031177424,0.16660932,0.13478075,-0.48913026,-0.7688053,-0.41193432,-0.8285295,0.26196098,0.49488914,-0.27256274,0.58336484,-0.7651109,,0.38840693,0.13569918,0.14702296,0.23855525,-0.8232141,0.5151796,-0.9710945,-0.19774827,0.13368253,-0.008173525,-0.53217864,-0.8465925,,0.080553606,-0.014569284,0.21123925,-0.9842905,0.1271366,-0.12250976,0.09885493,0.97176796,0.21423034,0.1462876,0.1987542,-0.9690699,,-0.45648301746253656,-0.1417275937077682,0.10011506928000001,0.027259692652988166,0.009291281984049951,-0.013784001702039386,-0.014374277819816575,,-1.2806376243340278,-0.18485133407743787,0.16513697568000002,0.003145349152267865,0.0038258219934323326,-0.004426561145748796,-0.0029401931904170266
0.2008127870503813,,-0.031181253,0.16660796,0.13478203,-0.48912647,-0.7688025,-0.41194415,-0.8285331,0.26195568,0.49488583,-0.27255833,0.58337104,-0.7651078,,0.38840207,0.13569894,0.14702004,0.238557,-0.82321775,0.5151731,-0.971094,-0.19775054,0.13368222,-0.008173864,-0.53217226,-0.8465965,,0.080553606,-0.014569284,0.21123925,-0.9842905,0.1271366,-0.12250976,0.09885493,0.97176796,0.21423034,0.1462876,0.1987542,-0.9690699,,-0.4564752947296623,-0.14173531644064244,0.10011506928000001,0.027259692652988166,0.009291281984049951,-0.013784001702039386,-0.014374277819816575,,-1.2806299016011535,-0.18485133407743787,0.16513697568000002,0.003145349152267865,0.0038258219934323326,-0.004426561145748796,-0.0029401931904170266
0.22308412403799593,,-0.031181253,0.16660796,0.13478203,-0.48912647,-0.7688025,-0.41194415,-0.8285331,0.26195568,0.49488583,-0.27255833,0.58337104,-0.7651078,,0.38840207,0.13569894,0.14702004,0.238557,-0.82321775,0.5151731,-0.971094,-0.19775054,0.13368222,-0.008173864,-0.53217226,-0.8465965,,0.080553606,-0.014569284,0.21123925,-0.9842905,0.1271366,-0.12250976,0.09885493,0.97176796,0.21423034,0.1462876,0.1987542,-0.9690699,,-0.4564752947296623,-0.14173531644064244,0.10011506928000001,0.027259692652988166,0.009291281984049951,-0.013784001702039386,-0.014374277819816575,,-1.2806299016011535,-0.18485133407743787,0.16513697568000002,0.003145349152267865,0.0038258219934323326,-0.004426561145748796,-0.0029401931904170266
0.25050961086526513,,-0.031181253,0.16660796,0.13478203,-0.48912647,-0.7688025,-0.41194415,-0.8285331,0.26195568,0.49488583,-0.27255833,0.58337104,-0.7651078,,0.38840207,0.13569894,0.14702004,0.238557,-0.82321775,0.5151731,-0.971094,-0.19775054,0.13368222,-0.008173864,-0.53217226,-0.8465965,,0.080553606,-0.014569284,0.21123925,-0.9842905,0.1271366,-0.12250976,0.09885493,0.97176796,0.21423034,0.1462876,0.1987542,-0.9690699,,-0.4564752947296623,-0.14173531644064244,0.10011506928000001,0.027259692652988166,0.009291281984049951,-0.013784001702039386,-0.014374277819816575,,-1.2806299016011535,-0.18485133407743787,0.16513697568000002,0.003145349152267865,0.0038258219934323326,-0.004426561145748796,-0.0029401931904170266
0.2803076838608831,,-0.031220965,0.166638,0.13478017,-0.48917,-0.7688004,-0.41189617,-0.8285144,0.26202515,0.49488053,-0.27253717,0.5833427,-0.7651371,,0.3885061,0.13569112,0.14704639,0.23861457,-0.8231833,0.51520115,-0.9710804,-0.19782083,0.13367817,-0.008124163,-0.53219926,-0.84658,,0.08055407,-0.014570176,0.21124151,-0.98428875,0.12715046,-0.1225083,0.09886881,0.9717665,0.21423095,0.14628902,0.19875291,-0.96906996,,-0.4564752947296623,-0.14173531644064244,0.10011506928000001,0.027259692652988166,0.009291281984049951,-0.013784001702039386,-0.014374277819816575,,-1.2806299016011535,-0.18485133407743787,0.16513697568000002,0.003145349152267865,0.0038258219934323326,-0.004426561145748796,-0.0029401931904170266
0.310915436828509,,-0.031218901,0.16663699,0.13477817,-0.48916996,-0.7688035,-0.41189075,-0.82851475,0.2620292,0.49487776,-0.27253634,0.5833369,-0.7651417,,0.3885061,0.13569112,0.14704639,0.23861457,-0.8231833,0.51520115,-0.9710804,-0.19782083,0.13367817,-0.008124163,-0.53219926,-0.84658,,0.08055407,-0.014570176,0.21124151,-0.98428875,0.12715046,-0.1225083,0.09886881,0.9717665,0.21423095,0.14628902,0.19875291,-0.96906996,,-0.45648301746253656,-0.14173531644064244,0.10011506928000001,0.027259692652988166,0.009291281984049951,-0.013784001702039386,-0.014374277819816575,,-1.2806299016011535,-0.18485133407743787,0.16513697568000002,0.003145349152267865,0.0038258219934323326,-0.004426561145748796,-0.0029401931904170266
0.3356801860500127,,-0.031220965,0.166638,0.13478017,-0.48917,-0.7688004,-0.41189617,-0.8285144,0.26202515,0.49488053,-0.27253717,0.5833427,-0.7651371,,0.3885061,0.13569112,0.14704639,0.23861457,-0.8231833,0.51520115,-0.9710804,-0.19782083,0.13367817,-0.008124163,-0.53219926,-0.84658,,0.08055407,-0.014570176,0.21124151,-0.98428875,0.12715046,-0.1225083,0.09886881,0.9717665,0.21423095,0.14628902,0.19875291,-0.96906996,,-0.4564752947296623,-0.14173531644064244,0.10011506928000001,0.027259692652988166,0.009291281984049951,-0.013784001702039386,-0.014374277819816575,,-1.2806299016011535,-0.18485133407743787,0.16513697568000002,0.003145349152267865,0.0038258219934323326,-0.004426561145748796,-0.0029401931904170266
0.36447816994041204,,-0.031218901,0.16663699,0.13477817,-0.48916996,-0.7688035,-0.41189075,-0.82851475,0.2620292,0.49487776,-0.27253634,0.5833369,-0.7651417,,0.3885061,0.13569112,0.14704639,0.23861457,-0.8231833,0.51520115,-0.9710804,-0.19782083,0.13367817,-0.008124163,-0.53219926,-0.84658,,0.08055407,-0.014570176,0.21124151,-0.98428875,0.12715046,-0.1225083,0.09886881,0.9717665,0.21423095,0.14628902,0.19875291,-0.96906996,,-0.45648301746253656,-0.14173531644064244,0.10011506928000001,0.027259692652988166,0.009291281984049951,-0.013784001702039386,-0.014374277819816575,,-1.2806299016011535,-0.18485133407743787,0.16513697568000002,0.003145349152267865,0.0038258219934323326,-0.004426561145748796,-0.0029401931904170266
0.3862425659317523,,-0.031218901,0.16663699,0.13477817,-0.48916996,-0.7688035,-0.41189075,-0.82851475,0.2620292,0.49487776,-0.27253634,0.5833369,-0.7651417,,0.3885061,0.13569112,0.14704639,0.23861457,-0.8231833,0.51520115,-0.9710804,-0.19782083,0.13367817,-0.008124163,-0.53219926,-0.84658,,0.08055407,-0.014570176,0.21124151,-0.98428875,0.12715046,-0.1225083,0.09886881,0.9717665,0.21423095,0.14628902,0.19875291,-0.96906996,,-0.45648301746253656,-0.14173531644064244,0.10011506928000001,0.027259692652988166,0.009291281984049951,-0.013784001702039386,-0.014374277819816575,,-1.2806299016011535,-0.18485133407743787,0.16513697568000002,0.003145349152267865,0.0038258219934323326,-0.004426561145748796,-0.0029401931904170266
0.41676707891747355,,-0.031218901,0.16663699,0.13477817,-0.48916996,-0.7688035,-0.41189075,-0.82851475,0.2620292,0.49487776,-0.27253634,0.5833369,-0.7651417,,0.3885061,0.13569112,0.14704639,0.23861457,-0.8231833,0.51520115,-0.9710804,-0.19782083,0.13367817,-0.008124163,-0.53219926,-0.84658,,0.08055407,-0.014570176,0.21124151,-0.98428875,0.12715046,-0.1225083,0.09886881,0.9717665,0.21423095,0.14628902,0.19875291,-0.96906996,,-0.45648301746253656,-0.14173531644064244,0.10011506928000001,0.027259692652988166,0.009291281984049951,-0.013784001702039386,-0.014374277819816575,,-1.2806299016011535,-0.18485133407743787,0.16513697568000002,0.003145349152267865,0.0038258219934323326,-0.004426561145748796,-0.0029401931904170266
0.44583254703320563,,-0.031218901,0.16663699,0.13477817,-0.48916996,-0.7688035,-0.41189075,-0.82851475,0.2620292,0.49487776,-0.27253634,0.5833369,-0.7651417,,0.3885061,0.13569112,0.14704639,0.23861457,-0.8231833,0.51520115,-0.9710804,-0.19782083,0.13367817,-0.008124163,-0.53219926,-0.84658,,0.08055407,-0.014570176,0.21124151,-0.98428875,0.12715046,-0.1225083,0.09886881,0.9717665,0.21423095,0.14628902,0.19875291,-0.96906996,,-0.45648301746253656,-0.14173531644064244,0.10011506928000001,0.027259692652988166,0.009291281984049951,-0.013784001702039386,-0.014374277819816575,,-1.2806299016011535,-0.18485133407743787,0.16513697568000002,0.003145349152267865,0.0038258219934323326,-0.004426561145748796,-0.0029401931904170266
0.46807802584953606,,-0.031218901,0.16663699,0.13477817,-0.48916996,-0.7688035,-0.41189075,-0.82851475,0.2620292,0.49487776,-0.27253634,0.5833369,-0.7651417,,0.3885061,0.13569112,0.14704639,0.23861457,-0.8231833,0.51520115,-0.9710804,-0.19782083,0.13367817,-0.008124163,-0.53219926,-0.84658,,0.08055407,-0.014570176,0.21124151,-0.98428875,0.12715046,-0.1225083,0.09886881,0.9717665,0.21423095,0.14628902,0.19875291,-0.96906996,,-0.45648301746253656,-0.14173531644064244,0.10011506928000001,0.027259692652988166,0.009291281984049951,-0.013784001702039386,-0.014374277819816575,,-1.2806299016011535,-0.18485133407743787,0.16513697568000002,0.003145349152267865,0.0038258219934323326,-0.004426561145748796,-0.0029401931904170266
0.489119621925056,,-0.031218901,0.16663699,0.13477817,-0.48916996,-0.7688035,-0.41189075,-0.82851475,0.2620292,0.49487776,-0.27253634,0.5833369,-0.7651417,,0.3885061,0.13569112,0.14704639,0.23861457,-0.8231833,0.51520115,-0.9710804,-0.19782083,0.13367817,-0.008124163,-0.53219926,-0.84658,,0.08055407,-0.014570176,0.21124151,-0.98428875,0.12715046,-0.1225083,0.09886881,0.9717665,0.21423095,0.14628902,0.19875291,-0.96906996,,-0.45648301746253656,-0.14173531644064244,0.10011506928000001,0.027259692652988166,0.009291281984049951,-0.013784001702039386,-0.014374277819816575,,-1.2806299016011535,-0.18485133407743787,0.16513697568000002,0.003145349152267865,0.0038258219934323326,-0.004426561145748796,-0.0029401931904170266
0.5172349819913507,,-0.03121712,0.16663933,0.1347789,-0.4891739,-0.76880324,-0.41188633,-0.82851076,0.26203036,0.49488384,-0.27254158,0.5833365,-0.7651401,,0.38851586,0.13569161,0.1470522,0.23861113,-0.8231762,0.5152141,-0.9710812,-0.19781624,0.13367878,-0.008123508,-0.53221196,-0.84657204,,0.08055407,-0.014570176,0.21124151,-0.98428875,0.12715046,-0.1225083,0.09886881,0.9717665,0.21423095,0.14628902,0.19875291,-0.96906996,,-0.45648301746253656,-0.1417275937077682,0.10011506928000001,0.027259692652988166,0.009291281984049951,-0.013784001702039386,-0.014374277819816575,,-1.280645347066902,-0.18485133407743787,0.16513697568000002,0.003145349152267865,0.0038258219934323326,-0.004426561145748796,-0.0029401931904170266
0.5466004679910839,,-0.031218901,0.16663699,0.13477817,-0.48916996,-0.7688035,-0.41189075,-0.82851475,0.2620292,0.49487776,-0.27253634,0.5833369,-0.7651417,,0.388511,0.13569137,0.14704919,0.23861286,-0.8231797,0.51520765,-0.9710808,-0.19781855,0.13367847,-0.008123813,-0.53220564,-0.8465761,,0.08055407,-0.014570176,0.21124151,-0.98428875,0.12715046,-0.1225083,0.09886881,0.9717665,0.21423095,0.14628902,0.19875291,-0.96906996,,-0.45648301746253656,-0.14173531644064244,0.10011506928000001,0.027259692652988166,0.009291281984049951,-0.013784001702039386,-0.014374277819816575,,-1.2806376243340278,-0.18485133407743787,0.16513697568000002,0.003145349152267865,0.0038258219934323326,-0.004426561145748796,-0.0029401931904170266
0.568417547037825,,-0.031218901,0.16663699,0.13477817,-0.48916996,-0.7688035,-0.41189075,-0.82851475,0.2620292,0.49487776,-0.27253634,0.5833369,-0.7651417,,0.3885061,0.13569112,0.14704639,0.23861457,-0.8231833,0.51520115,-0.9710804,-0.19782083,0.13367817,-0.008124163,-0.53219926,-0.84658,,0.08055407,-0.014570176,0.21124151,-0.98428875,0.12715046,-0.1225083,0.09886881,0.9717665,0.21423095,0.14628902,0.19875291,-0.96906996,,-0.45648301746253656,-0.14173531644064244,0.10011506928000001,0.027259692652988166,0.009291281984049951,-0.013784001702039386,-0.014374277819816575,,-1.2806299016011535,-0.18485133407743787,0.16513697568000002,0.003145349152267865,0.0038258219934323326,-0.004426561145748796,-0.0029401931904170266
0.588843670906499,,-0.031218901,0.16663699,0.13477817,-0.48916996,-0.7688035,-0.41189075,-0.82851475,0.2620292,0.49487776,-0.27253634,0.5833369,-0.7651417,,0.388511,0.13569137,0.14704919,0.23861286,-0.8231797,0.51520765,-0.9710808,-0.19781855,0.13367847,-0.008123813,-0.53220564,-0.8465761,,0.08055407,-0.014570176,0.21124151,-0.98428875,0.12715046,-0.1225083,0.09886881,0.9717665,0.21423095,0.14628902,0.19875291,-0.96906996,,-0.45648301746253656,-0.14173531644064244,0.10011506928000001,0.027259692652988166,0.009291281984049951,-0.013784001702039386,-0.014374277819816575,,-1.2806376243340278,-0.18485133407743787,0.16513697568000002,0.003145349152267865,0.0038258219934323326,-0.004426561145748796,-0.0029401931904170266
0.616874234052375,,-0.031218901,0.16663699,0.13477817,-0.48916996,-0.7688035,-0.41189075,-0.82851475,0.2620292,0.49487776,-0.27253634,0.5833369,-0.7651417,,0.3885061,0.13569112,0.14704639,0.23861457,-0.8231833,0.51520115,-0.9710804,-0.19782083,0.13367817,-0.008124163,-0.53219926,-0.84658,,0.08055407,-0.014570176,0.21124151,-0.98428875,0.12715046,-0.1225083,0.09886881,0.9717665,0.21423095,0.14628902,0.19875291,-0.96906996,,-0.45648301746253656,-0.14173531644064244,0.10011506928000001,0.027259692652988166,0.009291281984049951,-0.013784001702039386,-0.014374277819816575,,-1.2806299016011535,-0.18485133407743787,0.16513697568000002,0.003145349152267865,0.0038258219934323326,-0.004426561145748796,-0.0029401931904170266
0.6429248419590294,,-0.031218901,0.16663699,0.13477817,-0.48916996,-0.7688035,-0.41189075,-0.82851475,0.2620292,0.49487776,-0.27253634,0.5833369,-0.7651417,,0.3885061,0.13569112,0.14704639,0.23861457,-0.8231833,0.51520115,-0.9710804,-0.19782083,0.13367817,-0.008124163,-0.53219926,-0.84658,,0.08055407,-0.014570176,0.21124151,-0.98428875,0.12715046,-0.1225083,0.09886881,0.9717665,0.21423095,0.14628902,0.19875291,-0.96906996,,-0.45648301746253656,-0.14173531644064244,0.10011506928000001,0.027259692652988166,0.009291281984049951,-0.013784001702039386,-0.014374277819816575,,-1.2806299016011535,-0.18485133407743787,0.16513697568000002,0.003145349152267865,0.0038258219934323326,-0.004426561145748796,-0.0029401931904170266
0.6706310750450939,,-0.031218901,0.16663699,0.13477817,-0.48916996,-0.7688035,-0.41189075,-0.82851475,0.2620292,0.49487776,-0.27253634,0.5833369,-0.7651417,,0.3885061,0.13569112,0.14704639,0.23861457,-0.8231833,0.51520115,-0.9710804,-0.19782083,0.13367817,-0.008124163,-0.53219926,-0.84658,,0.08055407,-0.014570176,0.21124151,-0.98428875,0.12715046,-0.1225083,0.09886881,0.9717665,0.21423095,0.14628902,0.19875291,-0.96906996,,-0.45648301746253656,-0.14173531644064244,0.10011506928000001,0.027259692652988166,0.009291281984049951,-0.013784001702039386,-0.014374277819816575,,-1.2806299016011535,-0.18485133407743787,0.16513697568000002,0.003145349152267865,0.0038258219934323326,-0.004426561145748796,-0.0029401931904170266
0.6973478998988867,,-0.031218901,0.16663699,0.13477817,-0.48916996,-0.7688035,-0.41189075,-0.82851475,0.2620292,0.49487776,-0.27253634,0.5833369,-0.7651417,,0.3885061,0.13569112,0.14704639,0.23861457,-0.8231833,0.51520115,-0.9710804,-0.19782083,0.13367817,-0.008124163,-0.53219926,-0.84658,,0.08055407,-0.014570176,0.21124151,-0.98428875,0.12715046,-0.1225083,0.09886881,0.9717665,0.21423095,0.14628902,0.19875291,-0.96906996,,-0.45648301746253656,-0.14173531644064244,0.10011506928000001,0.027259692652988166,0.009291281984049951,-0.013784001702039386,-0.014374277819816575,,-1.2806299016011535,-0.18485133407743787,0.16513697568000002,0.003145349152267865,0.0038258219934323326,-0.004426561145748796,-0.0029401931904170266
0.7175045919138938,,-0.031218901,0.16663699,0.13477817,-0.48916996,-0.7688035,-0.41189075,-0.82851475,0.2620292,0.49487776,-0.27253634,0.5833369,-0.7651417,,0.3885061,0.13569112,0.14704639,0.23861457,-0.8231833,0.51520115,-0.9710804,-0.19782083,0.13367817,-0.008124163,-0.53219926,-0.84658,,0.08055407,-0.014570176,0.21124151,-0.98428875,0.12715046,-0.1225083,0.09886881,0.9717665,0.21423095,0.14628902,0.19875291,-0.96906996,,-0.45648301746253656,-0.14173531644064244,0.10011506928000001,0.027259692652988166,0.009291281984049951,-0.013784001702039386,-0.014374277819816575,,-1.2806299016011535,-0.18485133407743787,0.16513697568000002,0.003145349152267865,0.0038258219934323326,-0.004426561145748796,-0.0029401931904170266
0.7397006279788911,,-0.031218901,0.16663699,0.13477817,-0.48916996,-0.7688035,-0.41189075,-0.82851475,0.2620292,0.49487776,-0.27253634,0.5833369,-0.7651417,,0.3885061,0.13569112,0.14704639,0.23861457,-0.8231833,0.51520115,-0.9710804,-0.19782083,0.13367817,-0.008124163,-0.53219926,-0.84658,,0.08055407,-0.014570176,0.21124151,-0.98428875,0.12715046,-0.1225083,0.09886881,0.9717665,0.21423095,0.14628902,0.19875291,-0.96906996,,-0.45648301746253656,-0.14173531644064244,0.10011506928000001,0.027259692652988166,0.009291281984049951,-0.013784001702039386,-0.014374277819816575,,-1.2806299016011535,-0.18485133407743787,0.16513697568000002,0.003145349152267865,0.0038258219934323326,-0.004426561145748796,-0.0029401931904170266
0.7688500778749585,,-0.031218901,0.16663699,0.13477817,-0.48916996,-0.7688035,-0.41189075,-0.82851475,0.2620292,0.49487776,-0.27253634,0.5833369,-0.7651417,,0.3885061,0.13569112,0.14704639,0.23861457,-0.8231833,0.51520115,-0.9710804,-0.19782083,0.13367817,-0.008124163,-0.53219926,-0.84658,,0.08055407,-0.014570176,0.21124151,-0.98428875,0.12715046,-0.1225083,0.09886881,0.9717665,0.21423095,0.14628902,0.19875291,-0.96906996,,-0.45648301746253656,-0.14173531644064244,0.10011506928000001,0.027259692652988166,0.009291281984049951,-0.013784001702039386,-0.014374277819816575,,-1.2806299016011535,-0.18485133407743787,0.16513697568000002,0.003145349152267865,0.0038258219934323326,-0.004426561145748796,-0.0029401931904170266
0.7899641669355333,,-0.031220965,0.166638,0.13478017,-0.48917,-0.7688004,-0.41189617,-0.8285144,0.26202515,0.49488053,-0.27253717,0.5833427,-0.7651371,,0.3885061,0.13569112,0.14704639,0.23861457,-0.8231833,0.51520115,-0.9710804,-0.19782083,0.13367817,-0.008124163,-0.53219926,-0.84658,,0.08055407,-0.014570176,0.21124151,-0.98428875,0.12715046,-0.1225083,0.09886881,0.9717665,0.21423095,0.14628902,0.19875291,-0.96906996,,-0.4564752947296623,-0.14173531644064244,0.10011506928000001,0.027259692652988166,0.009291281984049951,-0.013784001702039386,-0.014374277819816575,,-1.2806299016011535,-0.18485133407743787,0.16513697568000002,0.003145349152267865,0.0038258219934323326,-0.004426561145748796,-0.0029401931904170266
0.8168743369169533,,-0.031218901,0.16663699,0.13477817,-0.48916996,-0.7688035,-0.41189075,-0.82851475,0.2620292,0.49487776,-0.27253634,0.5833369,-0.7651417,,0.3885061,0.13569112,0.14704639,0.23861457,-0.8231833,0.51520115,-0.9710804,-0.19782083,0.13367817,-0.008124163,-0.53219926,-0.84658,,0.08055407,-0.014570176,0.21124151,-0.98428875,0.12715046,-0.1225083,0.09886881,0.9717665,0.21423095,0.14628902,0.19875291,-0.96906996,,-0.45648301746253656,-0.14173531644064244,0.10011506928000001,0.027259692652988166,0.009291281984049951,-0.013784001702039386,-0.014374277819816575,,-1.2806299016011535,-0.18485133407743787,0.16513697568000002,0.003145349152267865,0.0038258219934323326,-0.004426561145748796,-0.0029401931904170266
0.8390553980134428,,-0.031218901,0.16663699,0.13477817,-0.48916996,-0.7688035,-0.41189075,-0.82851475,0.2620292,0.49487776,-0.27253634,0.5833369,-0.7651417,,0.3885061,0.13569112,0.14704639,0.23861457,-0.8231833,0.51520115,-0.9710804,-0.19782083,0.13367817,-0.008124163,-0.53219926,-0.84658,,0.08055407,-0.014570176,0.21124151,-0.98428875,0.12715046,-0.1225083,0.09886881,0.9717665,0.21423095,0.14628902,0.19875291,-0.96906996,,-0.45648301746253656,-0.14173531644064244,0.10011506928000001,0.027259692652988166,0.009291281984049951,-0.013784001702039386,-0.014374277819816575,,-1.2806299016011535,-0.18485133407743787,0.16513697568000002,0.003145349152267865,0.0038258219934323326,-0.004426561145748796,-0.0029401931904170266
0.8636231960263103,,-0.031218901,0.16663699,0.13477817,-0.48916996,-0.7688035,-0.41189075,-0.82851475,0.2620292,0.49487776,-0.27253634,0.5833369,-0.7651417,,0.3885061,0.13569112,0.14704639,0.23861457,-0.8231833,0.51520115,-0.9710804,-0.19782083,0.13367817,-0.008124163,-0.53219926,-0.84658,,0.08055407,-0.014570176,0.21124151,-0.98428875,0.12715046,-0.1225083,0.09886881,0.9717665,0.21423095,0.14628902,0.19875291,-0.96906996,,-0.45648301746253656,-0.14173531644064244,0.10011506928000001,0.027259692652988166,0.009291281984049951,-0.013784001702039386,-0.014374277819816575,,-1.2806299016011535,-0.18485133407743787,0.16513697568000002,0.003145349152267865,0.0038258219934323326,-0.004426561145748796,-0.0029401931904170266
0.8893630460370332,,-0.031218901,0.16663699,0.13477817,-0.48916996,-0.7688035,-0.41189075,-0.82851475,0.2620292,0.49487776,-0.27253634,0.5833369,-0.7651417,,0.3885061,0.13569112,0.14704639,0.23861457,-0.8231833,0.51520115,-0.9710804,-0.19782083,0.13367817,-0.008124163,-0.53219926,-0.84658,,0.08055407,-0.014570176,0.21124151,-0.98428875,0.12715046,-0.1225083,0.09886881,0.9717665,0.21423095,0.14628902,0.19875291,-0.96906996,,-0.45648301746253656,-0.14173531644064244,0.10011506928000001,0.027259692652988166,0.009291281984049951,-0.013784001702039386,-0.014374277819816575,,-1.2806299016011535,-0.18485133407743787,0.16513697568000002,0.003145349152267865,0.0038258219934323326,-0.004426561145748796,-0.0029401931904170266
0.9168291329406202,,-0.031223044,0.16663896,0.13478212,-0.48917025,-0.76879734,-0.41190165,-0.8285141,0.2620211,0.49488324,-0.272538,0.5833484,-0.76513225,,0.3885061,0.13569112,0.14704639,0.23861457,-0.8231833,0.51520115,-0.9710804,-0.19782083,0.13367817,-0.008124163,-0.53219926,-0.84658,,0.08055407,-0.014570176,0.21124151,-0.98428875,0.12715046,-0.1225083,0.09886881,0.9717665,0.21423095,0.14628902,0.19875291,-0.96906996,,-0.4564675719967881,-0.14173531644064244,0.10011506928000001,0.027259692652988166,0.009291281984049951,-0.013784001702039386,-0.014374277819816575,,-1.2806299016011535,-0.18485133407743787,0.16513697568000002,0.003145349152267865,0.0038258219934323326,-0.004426561145748796,-0.0029401931904170266
0.9394930880516768,,-0.031220965,0.166638,0.13478017,-0.48917,-0.7688004,-0.41189617,-0.8285144,0.26202515,0.49488053,-0.27253717,0.5833427,-0.7651371,,0.3885061,0.13569112,0.14704639,0.23861457,-0.8231833,0.51520115,-0.9710804,-0.19782083,0.13367817,-0.008124163,-0.53219926,-0.84658,,0.08055407,-0.014570176,0.21124151,-0.98428875,0.12715046,-0.1225083,0.09886881,0.9717665,0.21423095,0.14628902,0.19875291,-0.96906996,,-0.4564752947296623,-0.14173531644064244,0.10011506928000001,0.027259692652988166,0.009291281984049951,-0.013784001702039386,-0.014374277819816575,,-1.2806299016011535,-0.18485133407743787,0.16513697568000002,0.003145349152267865,0.0038258219934323326,-0.004426561145748796,-0.0029401931904170266
0.9659102100413293,,-0.031218901,0.16663699,0.13477817,-0.48916996,-0.7688035,-0.41189075,-0.82851475,0.2620292,0.49487776,-0.27253634,0.5833369,-0.7651417,,0.3885061,0.13569112,0.14704639,0.23861457,-0.8231833,0.51520115,-0.9710804,-0.19782083,0.13367817,-0.008124163,-0.53219926,-0.84658,,0.08055407,-0.014570176,0.21124151,-0.98428875,0.12715046,-0.1225083,0.09886881,0.9717665,0.21423095,0.14628902,0.19875291,-0.96906996,,-0.45648301746253656,-0.14173531644064244,0.10011506928000001,0.027259692652988166,0.009291281984049951,-0.013784001702039386,-0.014374277819816575,,-1.2806299016011535,-0.18485133407743787,0.16513697568000002,0.003145349152267865,0.0038258219934323326,-0.004426561145748796,-0.0029401931904170266
0.988311257911846,,-0.031220965,0.166638,0.13478017,-0.48917,-0.7688004,-0.41189617,-0.8285144,0.26202515,0.49488053,-0.27253717,0.5833427,-0.7651371,,0.3885061,0.13569112,0.14704639,0.23861457,-0.8231833,0.51520115,-0.9710804,-0.19782083,0.13367817,-0.008124163,-0.53219926,-0.84658,,0.08055407,-0.014570176,0.21124151,-0.98428875,0.12715046,-0.1225083,0.09886881,0.9717665,0.21423095,0.14628902,0.19875291,-0.96906996,,-0.4564752947296623,-0.14173531644064244,0.10011506928000001,0.027259692652988166,0.009291281984049951,-0.013784001702039386,-0.014374277819816575,,-1.2806299016011535,-0.18485133407743787,0.16513697568000002,0.003145349152267865,0.0038258219934323326,-0.004426561145748796,-0.0029401931904170266
1.0164084220305085,,-0.031202361,0.16662863,0.13476288,-0.4891597,-0.7688405,-0.41183358,-0.8285218,0.2620625,0.49484837,-0.2725334,0.583273,-0.76519144,,0.3885061,0.13569112,0.14704639,0.23861457,-0.8231833,0.51520115,-0.9710804,-0.19782083,0.13367817,-0.008124163,-0.53219926,-0.84658,,0.08055407,-0.014570176,0.21124151,-0.98428875,0.12715046,-0.1225083,0.09886881,0.9717665,0.21423095,0.14628902,0.19875291,-0.96906996,,-0.45648301746253656,-0.14173531644064244,0.10011506928000001,0.027259692652988166,0.009291281984049951,-0.013865680442179949,-0.014537621885950855,,-1.2806299016011535,-0.18485133407743787,0.16513697568000002,0.003145349152267865,0.0038258219934323326,-0.004426561145748796,-0.0029401931904170266
1.0380893328692764,,-0.03118582,0.16662025,0.13474755,-0.4891495,-0.7688776,-0.41177645,-0.82852876,0.2620958,0.49481902,-0.27253044,0.58320904,-0.76524127,,0.3885061,0.13569112,0.14704639,0.23861457,-0.8231833,0.51520115,-0.9710804,-0.19782083,0.13367817,-0.008124163,-0.53219926,-0.84658,,0.08055407,-0.014570176,0.21124151,-0.98428875,0.12715046,-0.1225083,0.09886881,0.9717665,0.21423095,0.14628902,0.19875291,-0.96906996,,-0.45648301746253656,-0.14173531644064244,0.10011506928000001,0.027259692652988166,0.009291281984049951,-0.013947359182320512,-0.014700965952085135,,-1.2806299016011535,-0.18485133407743787,0.16513697568000002,0.003145349152267865,0.0038258219934323326,-0.004426561145748796,-0.0029401931904170266
1.062949629034847,,-0.03118582,0.16662025,0.13474755,-0.4891495,-0.7688776,-0.41177645,-0.82852876,0.2620958,0.49481902,-0.27253044,0.58320904,-0.76524127,,0.38851586,0.13569161,0.1470522,0.23861113,-0.8231762,0.5152141,-0.9710812,-0.19781624,0.13367878,-0.008123508,-0.53221196,-0.84657204,,0.08055407,-0.014570176,0.21124151,-0.98428875,0.12715046,-0.1225083,0.09886881,0.9717665,0.21423095,0.14628902,0.19875291,-0.96906996,,-0.45648301746253656,-0.14173531644064244,0.10011506928000001,0.027259692652988166,0.009291281984049951,-0.013947359182320512,-0.014700965952085135,,-1.280645347066902,-0.18485133407743787,0.16513697568000002,0.003145349152267865,0.0038258219934323326,-0.004426561145748796,-0.0029401931904170266
1.0854243668727577,,-0.03118582,0.16662025,0.13474755,-0.4891495,-0.7688776,-0.41177645,-0.82852876,0.2620958,0.49481902,-0.27253044,0.58320904,-0.76524127,,0.38851586,0.13569161,0.1470522,0.23861113,-0.8231762,0.5152141,-0.9710812,-0.19781624,0.13367878,-0.008123508,-0.53221196,-0.84657204,,0.08055407,-0.014570176,0.21124151,-0.98428875,0.12715046,-0.1225083,0.09886881,0.9717665,0.21423095,0.14628902,0.19875291,-0.96906996,,-0.45648301746253656,-0.14173531644064244,0.10011506928000001,0.027259692652988166,0.009291281984049951,-0.013947359182320512,-0.014700965952085135,,-1.280645347066902,-0.18485133407743787,0.16513697568000002,0.003145349152267865,0.0038258219934323326,-0.004426561145748796,-0.0029401931904170266
1.1116586429998279,,-0.031188205,0.16662456,0.1347522,-0.48915365,-0.7688715,-0.41178298,-0.8285241,0.26208895,0.49483055,-0.27253735,0.58322024,-0.76523024,,0.38851586,0.13569161,0.1470522,0.23861113,-0.8231762,0.5152141,-0.9710812,-0.19781624,0.13367878,-0.008123508,-0.53221196,-0.84657204,,0.08055407,-0.014570176,0.21124151,-0.98428875,0.12715046,-0.1225083,0.09886881,0.9717665,0.21423095,0.14628902,0.19875291,-0.96906996,,-0.4564675719967881,-0.1417275937077682,0.10011506928000001,0.027259692652988166,0.009291281984049951,-0.013947359182320512,-0.014700965952085135,,-1.280645347066902,-0.18485133407743787,0.16513697568000002,0.003145349152267865,0.0038258219934323326,-0.004426561145748796,-0.0029401931904170266
1.1359034238848835,,-0.031187914,0.16662125,0.13474953,-0.48914957,-0.7688746,-0.41178197,-0.82852846,0.2620918,0.49482173,-0.27253124,0.58321476,-0.7652366,,0.3885061,0.13569112,0.14704639,0.23861457,-0.8231833,0.51520115,-0.9710804,-0.19782083,0.13367817,-0.008124163,-0.53219926,-0.84658,,0.08055407,-0.014570176,0.21124151,-0.98428875,0.12715046,-0.1225083,0.09886881,0.9717665,0.21423095,0.14628902,0.19875291,-0.96906996,,-0.4564752947296623,-0.14173531644064244,0.10011506928000001,0.027259692652988166,0.009291281984049951,-0.013947359182320512,-0.014700965952085135,,-1.2806299016011535,-0.18485133407743787,0.16513697568000002,0.003145349152267865,0.0038258219934323326,-0.004426561145748796,-0.0029401931904170266
1.1565789498854429,,-0.03118582,0.16662025,0.13474755,-0.4891495,-0.7688776,-0.41177645,-0.82852876,0.2620958,0.49481902,-0.27253044,0.58320904,-0.76524127,,0.3885061,0.13569112,0.14704639,0.23861457,-0.8231833,0.51520115,-0.9710804,-0.19782083,0.13367817,-0.008124163,-0.53219926,-0.84658,,0.08055407,-0.014570176,0.21124151,-0.98428875,0.12715046,-0.1225083,0.09886881,0.9717665,0.21423095,0.14628902,0.19875291,-0.96906996,,-0.45648301746253656,-0.14173531644064244,0.10011506928000001,0.027259692652988166,0.009291281984049951,-0.013947359182320512,-0.014700965952085135,,-1.2806299016011535,-0.18485133407743787,0.16513697568000002,0.003145349152267865,0.0038258219934323326,-0.004426561145748796,-0.0029401931904170266
1.1844324108678848,,-0.031187914,0.16662125,0.13474953,-0.48914957,-0.7688746,-0.41178197,-0.82852846,0.2620918,0.49482173,-0.27253124,0.58321476,-0.7652366,,0.3885061,0.13569112,0.14704639,0.23861457,-0.8231833,0.51520115,-0.9710804,-0.19782083,0.13367817,-0.008124163,-0.53219926,-0.84658,,0.08055407,-0.014570176,0.21124151,-0.98428875,0.12715046,-0.1225083,0.09886881,0.9717665,0.21423095,0.14628902,0.19875291,-0.96906996,,-0.4564752947296623,-0.14173531644064244,0.10011506928000001,0.027259692652988166,0.009291281984049951,-0.013947359182320512,-0.014700965952085135,,-1.2806299016011535,-0.18485133407743787,0.16513697568000002,0.003145349152267865,0.0038258219934323326,-0.004426561145748796,-0.0029401931904170266
1.210577538004145,,-0.031187914,0.16662125,0.13474953,-0.48914957,-0.7688746,-0.41178197,-0.82852846,0.2620918,0.49482173,-0.27253124,0.58321476,-0.7652366,,0.3885061,0.13569112,0.14704639,0.23861457,-0.8231833,0.51520115,-0.9710804,-0.19782083,0.13367817,-0.008124163,-0.53219926,-0.84658,,0.08055407,-0.014570176,0.21124151,-0.98428875,0.12715046,-0.1225083,0.09886881,0.9717665,0.21423095,0.14628902,0.19875291,-0.96906996,,-0.4564752947296623,-0.14173531644064244,0.10011506928000001,0.027259692652988166,0.009291281984049951,-0.013947359182320512,-0.014700965952085135,,-1.2806299016011535,-0.18485133407743787,0.16513697568000002,0.003145349152267865,0.0038258219934323326,-0.004426561145748796,-0.0029401931904170266
1.2355579379945993,,-0.03118582,0.16662025,0.13474755,-0.4891495,-0.7688776,-0.41177645,-0.82852876,0.2620958,0.49481902,-0.27253044,0.58320904,-0.76524127,,0.3885061,0.13569112,0.14704639,0.23861457,-0.8231833,0.51520115,-0.9710804,-0.19782083,0.13367817,-0.008124163,-0.53219926,-0.84658,,0.08055407,-0.014570176,0.21124151,-0.98428875,0.12715046,-0.1225083,0.09886881,0.9717665,0.21423095,0.14628902,0.19875291,-0.96906996,,-0.45648301746253656,-0.14173531644064244,0.10011506928000001,0.027259692652988166,0.009291281984049951,-0.013947359182320512,-0.014700965952085135,,-1.2806299016011535,-0.18485133407743787,0.16513697568000002,0.003145349152267865,0.0038258219934323326,-0.004426561145748796,-0.0029401931904170266
1.261779038934037,,-0.031189963,0.1666222,0.13475148,-0.48914978,-0.7688716,-0.41178736,-0.82852817,0.2620877,0.4948244,-0.27253208,0.58322054,-0.76523185,,0.38851586,0.13569161,0.1470522,0.23861113,-0.8231762,0.5152141,-0.9710812,-0.19781624,0.13367878,-0.008123508,-0.53221196,-0.84657204,,0.08055407,-0.014570176,0.21124151,-0.98428875,0.12715046,-0.1225083,0.09886881,0.9717665,0.21423095,0.14628902,0.19875291,-0.96906996,,-0.4564675719967881,-0.14173531644064244,0.10011506928000001,0.027259692652988166,0.009291281984049951,-0.013947359182320512,-0.014700965952085135,,-1.280645347066902,-0.18485133407743787,0.16513697568000002,0.003145349152267865,0.0038258219934323326,-0.004426561145748796,-0.0029401931904170266
1.2849668220151216,,-0.031187914,0.16662125,0.13474953,-0.48914957,-0.7688746,-0.41178197,-0.82852846,0.2620918,0.49482173,-0.27253124,0.58321476,-0.7652366,,0.38851586,0.13569161,0.1470522,0.23861113,-0.8231762,0.5152141,-0.9710812,-0.19781624,0.13367878,-0.008123508,-0.53221196,-0.84657204,,0.08055407,-0.014570176,0.21124151,-0.98428875,0.12715046,-0.1225083,0.09886881,0.9717665,0.21423095,0.14628902,0.19875291,-0.96906996,,-0.4564752947296623,-0.14173531644064244,0.10011506928000001,0.027259692652988166,0.009291281984049951,-0.013947359182320512,-0.014700965952085135,,-1.280645347066902,-0.18485133407743787,0.16513697568000002,0.003145349152267865,0.0038258219934323326,-0.004426561145748796,-0.0029401931904170266
1.306978062959388,,-0.031184047,0.1666226,0.13474827,-0.48915341,-0.7688775,-0.41177207,-0.8285248,0.26209706,0.4948251,-0.27253568,0.5832087,-0.76523966,,0.388511,0.13569137,0.14704919,0.23861286,-0.8231797,0.51520765,-0.9710808,-0.19781855,0.13367847,-0.008123813,-0.53220564,-0.8465761,,0.08055407,-0.014570176,0.21124151,-0.98428875,0.12715046,-0.1225083,0.09886881,0.9717665,0.21423095,0.14628902,0.19875291,-0.96906996,,-0.45648301746253656,-0.1417275937077682,0.10011506928000001,0.027259692652988166,0.009291281984049951,-0.013947359182320512,-0.014700965952085135,,-1.2806376243340278,-0.18485133407743787,0.16513697568000002,0.003145349152267865,0.0038258219934323326,-0.004426561145748796,-0.0029401931904170266
1.3346533279400319,,-0.031187914,0.16662125,0.13474953,-0.48914957,-0.7688746,-0.41178197,-0.82852846,0.2620918,0.49482173,-0.27253124,0.58321476,-0.7652366,,0.3885061,0.13569112,0.14704639,0.23861457,-0.8231833,0.51520115,-0.9710804,-0.19782083,0.13367817,-0.008124163,-0.53219926,-0.84658,,0.08055407,-0.014570176,0.21124151,-0.98428875,0.12715046,-0.1225083,0.09886881,0.9717665,0.21423095,0.14628902,0.19875291,-0.96906996,,-0.4564752947296623,-0.14173531644064244,0.10011506928000001,0.027259692652988166,0.009291281984049951,-0.013947359182320512,-0.014700965952085135,,-1.2806299016011535,-0.18485133407743787,0.16513697568000002,0.003145349152267865,0.0038258219934323326,-0.004426561145748796,-0.0029401931904170266
1.3577867408748716,,-0.031187914,0.16662125,0.13474953,-0.48914957,-0.7688746,-0.41178197,-0.82852846,0.2620918,0.49482173,-0.27253124,0.58321476,-0.7652366,,0.3885061,0.13569112,0.14704639,0.23861457,-0.8231833,0.51520115,-0.9710804,-0.19782083,0.13367817,-0.008124163,-0.53219926,-0.84658,,0.08055407,-0.014570176,0.21124151,-0.98428875,0.12715046,-0.1225083,0.09886881,0.9717665,0.21423095,0.14628902,0.19875291,-0.96906996,,-0.4564752947296623,-0.14173531644064244,0.10011506928000001,0.027259692652988166,0.009291281984049951,-0.013947359182320512,-0.014700965952085135,,-1.2806299016011535,-0.18485133407743787,0.16513697568000002,0.003145349152267865,0.0038258219934323326,-0.004426561145748796,-0.0029401931904170266
1.386532817967236,,-0.031189963,0.1666222,0.13475148,-0.48914978,-0.7688716,-0.41178736,-0.82852817,0.2620877,0.4948244,-0.27253208,0.58322054,-0.76523185,,0.3885061,0.13569112,0.14704639,0.23861457,-0.8231833,0.51520115,-0.9710804,-0.19782083,0.13367817,-0.008124163,-0.53219926,-0.84658,,0.08055407,-0.014570176,0.21124151,-0.98428875,0.12715046,-0.1225083,0.09886881,0.9717665,0.21423095,0.14628902,0.19875291,-0.96906996,,-0.4564675719967881,-0.14173531644064244,0.10011506928000001,0.027259692652988166,0.009291281984049951,-0.013947359182320512,-0.014700965952085135,,-1.2806299016011535,-0.18485133407743787,0.16513697568000002,0.003145349152267865,0.0038258219934323326,-0.004426561145748796,-0.0029401931904170266
1.4127429199870676,,-0.031187914,0.16662125,0.13474953,-0.48914957,-0.7688746,-0.41178197,-0.82852846,0.2620918,0.49482173,-0.27253124,0.58321476,-0.7652366,,0.38851586,0.13569161,0.1470522,0.23861113,-0.8231762,0.5152141,-0.9710812,-0.19781624,0.13367878,-0.008123508,-0.53221196,-0.84657204,,0.08055407,-0.014570176,0.21124151,-0.98428875,0.12715046,-0.1225083,0.09886881,0.9717665,0.21423095,0.14628902,0.19875291,-0.96906996,,-0.4564752947296623,-0.14173531644064244,0.10011506928000001,0.027259692652988166,0.009291281984049951,-0.013947359182320512,-0.014700965952085135,,-1.280645347066902,-0.18485133407743787,0.16513697568000002,0.003145349152267865,0.0038258219934323326,-0.004426561145748796,-0.0029401931904170266
1.4375942959450185,,-0.031153083,0.16659307,0.13474028,-0.4891112,-0.76888907,-0.41180065,-0.82854307,0.2620416,0.49482378,-0.27255565,0.5832184,-0.76522505,,0.3883355,0.13563211,0.14704084,0.23846364,-0.8232404,0.51518,-0.9711173,-0.19769838,0.13358998,-0.008126419,-0.5321566,-0.8466068,,0.0805716,-0.014577812,0.21124364,-0.9842925,0.12711874,-0.12251165,0.09883704,0.9717699,0.21422955,0.14628574,0.19875588,-0.96906984,,-0.45648301746253656,-0.14173531644064244,0.10011506928000001,0.027259692652988166,0.009291281984049951,-0.013947359182320512,-0.014700965952085135,,-1.2806299016011535,-0.18485133407743787,0.16513697568000002,0.003145349152267865,0.0038258219934323326,-0.004426561145748796,-0.0029401931904170266
1.466159438015893,,-0.031155467,0.16659738,0.1347449,-0.48911542,-0.768883,-0.41180724,-0.8285383,0.26203477,0.49483532,-0.2725626,0.5832296,-0.7652142,,0.3883355,0.13563211,0.14704084,0.23846364,-0.8232404,0.51518,-0.9711173,-0.19769838,0.13358998,-0.008126419,-0.5321566,-0.8466068,,0.0805716,-0.014577812,0.21124364,-0.9842925,0.12711874,-0.12251165,0.09883704,0.9717699,0.21422955,0.14628574,0.19875588,-0.96906984,,-0.4564675719967881,-0.1417275937077682,0.10011506928000001,0.027259692652988166,0.009291281984049951,-0.013947359182320512,-0.014700965952085135,,-1.2806299016011535,-0.18485133407743787,0.16513697568000002,0.003145349152267865,0.0038258219934323326,-0.004426561145748796,-0.0029401931904170266
1.4880783199332654,,-0.031155169,0.16659404,0.13474226,-0.4891113,-0.7688861,-0.4118062,-0.8285427,0.26203755,0.49482644,-0.27255648,0.58322424,-0.76522034,,0.3883355,0.13563211,0.14704084,0.23846364,-0.8232404,0.51518,-0.9711173,-0.19769838,0.13358998,-0.008126419,-0.5321566,-0.8466068,,0.0805716,-0.014577812,0.21124364,-0.9842925,0.12711874,-0.12251165,0.09883704,0.9717699,0.21422955,0.14628574,0.19875588,-0.96906984,,-0.4564752947296623,-0.14173531644064244,0.10011506928000001,0.027259692652988166,0.009291281984049951,-0.013947359182320512,-0.014700965952085135,,-1.2806299016011535,-0.18485133407743787,0.16513697568000002,0.003145349152267865,0.0038258219934323326,-0.004426561145748796,-0.0029401931904170266
1.5163812339305878,,-0.031153083,0.16659307,0.13474028,-0.4891112,-0.76888907,-0.41180065,-0.82854307,0.2620416,0.49482378,-0.27255565,0.5832184,-0.76522505,,0.3883355,0.13563211,0.14704084,0.23846364,-0.8232404,0.51518,-0.9711173,-0.19769838,0.13358998,-0.008126419,-0.5321566,-0.8466068,,0.0805716,-0.014577812,0.21124364,-0.9842925,0.12711874,-0.12251165,0.09883704,0.9717699,0.21422955,0.14628574,0.19875588,-0.96906984,,-0.45648301746253656,-0.14173531644064244,0.10011506928000001,0.027259692652988166,0.009291281984049951,-0.013947359182320512,-0.014700965952085135,,-1.2806299016011535,-0.18485133407743787,0.16513697568000002,0.003145349152267865,0.0038258219934323326,-0.004426561145748796,-0.0029401931904170266
1.5388599408324808,,-0.031155169,0.16659404,0.13474226,-0.4891113,-0.7688861,-0.4118062,-0.8285427,0.26203755,0.49482644,-0.27255648,0.58322424,-0.76522034,,0.3883355,0.13563211,0.14704084,0.23846364,-0.8232404,0.51518,-0.9711173,-0.19769838,0.13358998,-0.008126419,-0.5321566,-0.8466068,,0.0805716,-0.014577812,0.21124364,-0.9842925,0.12711874,-0.12251165,0.09883704,0.9717699,0.21422955,0.14628574,0.19875588,-0.96906984,,-0.4564752947296623,-0.14173531644064244,0.10011506928000001,0.027259692652988166,0.009291281984049951,-0.013947359182320512,-0.014700965952085135,,-1.2806299016011535,-0.18485133407743787,0.16513697568000002,0.003145349152267865,0.0038258219934323326,-0.004426561145748796,-0.0029401931904170266
1.5666670920327306,,-0.031155169,0.16659404,0.13474226,-0.4891113,-0.7688861,-0.4118062,-0.8285427,0.26203755,0.49482644,-0.27255648,0.58322424,-0.76522034,,0.3883355,0.13563211,0.14704084,0.23846364,-0.8232404,0.51518,-0.9711173,-0.19769838,0.13358998,-0.008126419,-0.5321566,-0.8466068,,0.0805716,-0.014577812,0.21124364,-0.9842925,0.12711874,-0.12251165,0.09883704,0.9717699,0.21422955,0.14628574,0.19875588,-0.96906984,,-0.4564752947296623,-0.14173531644064244,0.10011506928000001,0.027259692652988166,0.009291281984049951,-0.013947359182320512,-0.014700965952085135,,-1.2806299016011535,-0.18485133407743787,0.16513697568000002,0.003145349152267865,0.0038258219934323326,-0.004426561145748796,-0.0029401931904170266
1.5902322409674525,,-0.031155169,0.16659404,0.13474226,-0.4891113,-0.7688861,-0.4118062,-0.8285427,0.26203755,0.49482644,-0.27255648,0.58322424,-0.76522034,,0.3883355,0.13563211,0.14704084,0.23846364,-0.8232404,0.51518,-0.9711173,-0.19769838,0.13358998,-0.008126419,-0.5321566,-0.8466068,,0.0805716,-0.014577812,0.21124364,-0.9842925,0.12711874,-0.12251165,0.09883704,0.9717699,0.21422955,0.14628574,0.19875588,-0.96906984,,-0.4564752947296623,-0.14173531644064244,0.10011506928000001,0.027259692652988166,0.009291281984049951,-0.013947359182320512,-0.014700965952085135,,-1.2806299016011535,-0.18485133407743787,0.16513697568000002,0.003145349152267865,0.0038258219934323326,-0.004426561145748796,-0.0029401931904170266
1.6164830308407545,,-0.03115724,0.16659503,0.13474418,-0.48911154,-0.7688831,-0.41181168,-0.82854235,0.26203352,0.49482918,-0.27255735,0.58322996,-0.7652157,,0.3883355,0.13563211,0.14704084,0.23846364,-0.8232404,0.51518,-0.9711173,-0.19769838,0.13358998,-0.008126419,-0.5321566,-0.8466068,,0.0805716,-0.014577812,0.21124364,-0.9842925,0.12711874,-0.12251165,0.09883704,0.9717699,0.21422955,0.14628574,0.19875588,-0.96906984,,-0.4564675719967881,-0.14173531644064244,0.10011506928000001,0.027259692652988166,0.009291281984049951,-0.013947359182320512,-0.014700965952085135,,-1.2806299016011535,-0.18485133407743787,0.16513697568000002,0.003145349152267865,0.0038258219934323326,-0.004426561145748796,-0.0029401931904170266
1.6405624928884208,,-0.03115724,0.16659503,0.13474418,-0.48911154,-0.7688831,-0.41181168,-0.82854235,0.26203352,0.49482918,-0.27255735,0.58322996,-0.7652157,,0.3883355,0.13563211,0.14704084,0.23846364,-0.8232404,0.51518,-0.9711173,-0.19769838,0.13358998,-0.008126419,-0.5321566,-0.8466068,,0.0805716,-0.014577812,0.21124364,-0.9842925,0.12711874,-0.12251165,0.09883704,0.9717699,0.21422955,0.14628574,0.19875588,-0.96906984,,-0.4564675719967881,-0.14173531644064244,0.10011506928000001,0.027259692652988166,0.009291281984049951,-0.013947359182320512,-0.014700965952085135,,-1.2806299016011535,-0.18485133407743787,0.16513697568000002,0.003145349152267865,0.0038258219934323326,-0.004426561145748796,-0.0029401931904170266
1.6683274959214032,,-0.03115724,0.16659503,0.13474418,-0.48911154,-0.7688831,-0.41181168,-0.82854235,0.26203352,0.49482918,-0.27255735,0.58322996,-0.7652157,,0.3883355,0.13563211,0.14704084,0.23846364,-0.8232404,0.51518,-0.9711173,-0.19769838,0.13358998,-0.008126419,-0.5321566,-0.8466068,,0.0805716,-0.014577812,0.21124364,-0.9842925,0.12711874,-0.12251165,0.09883704,0.9717699,0.21422955,0.14628574,0.19875588,-0.96906984,,-0.4564675719967881,-0.14173531644064244,0.10011506928000001,0.027259692652988166,0.009291281984049951,-0.013947359182320512,-0.014700965952085135,,-1.2806299016011535,-0.18485133407743787,0.16513697568000002,0.003145349152267865,0.0038258219934323326,-0.004426561145748796,-0.0029401931904170266
1.6916374010033906,,-0.031155169,0.16659404,0.13474226,-0.4891113,-0.7688861,-0.4118062,-0.8285427,0.26203755,0.49482644,-0.27255648,0.58322424,-0.76522034,,0.3883355,0.13563211,0.14704084,0.23846364,-0.8232404,0.51518,-0.9711173,-0.19769838,0.13358998,-0.008126419,-0.5321566,-0.8466068,,0.0805716,-0.014577812,0.21124364,-0.9842925,0.12711874,-0.12251165,0.09883704,0.9717699,0.21422955,0.14628574,0.19875588,-0.96906984,,-0.4564752947296623,-0.14173531644064244,0.10011506928000001,0.027259692652988166,0.009291281984049951,-0.013947359182320512,-0.014700965952085135,,-1.2806299016011535,-0.18485133407743787,0.16513697568000002,0.003145349152267865,0.0038258219934323326,-0.004426561145748796,-0.0029401931904170266
1.718222888885066,,-0.031153083,0.16659307,0.13474028,-0.4891112,-0.76888907,-0.41180065,-0.82854307,0.2620416,0.49482378,-0.27255565,0.5832184,-0.76522505,,0.3883355,0.13563211,0.14704084,0.23846364,-0.8232404,0.51518,-0.9711173,-0.19769838,0.13358998,-0.008126419,-0.5321566,-0.8466068,,0.0805716,-0.014577812,0.21124364,-0.9842925,0.12711874,-0.12251165,0.09883704,0.9717699,0.21422955,0.14628574,0.19875588,-0.96906984,,-0.45648301746253656,-0.14173531644064244,0.10011506928000001,0.027259692652988166,0.009291281984049951,-0.013947359182320512,-0.014700965952085135,,-1.2806299016011535,-0.18485133407743787,0.16513697568000002,0.003145349152267865,0.0038258219934323326,-0.004426561145748796,-0.0029401931904170266
1.7409099738579243,,-0.031153083,0.16659307,0.13474028,-0.4891112,-0.76888907,-0.41180065,-0.82854307,0.2620416,0.49482378,-0.27255565,0.5832184,-0.76522505,,0.3883355,0.13563211,0.14704084,0.23846364,-0.8232404,0.51518,-0.9711173,-0.19769838,0.13358998,-0.008126419,-0.5321566,-0.8466068,,0.0805716,-0.014577812,0.21124364,-0.9842925,0.12711874,-0.12251165,0.09883704,0.9717699,0.21422955,0.14628574,0.19875588,-0.96906984,,-0.45648301746253656,-0.14173531644064244,0.10011506928000001,0.027259692652988166,0.009291281984049951,-0.013947359182320512,-0.014700965952085135,,-1.2806299016011535,-0.18485133407743787,0.16513697568000002,0.003145349152267865,0.0038258219934323326,-0.004426561145748796,-0.0029401931904170266
1.76926891785115,,-0.031153083,0.16659307,0.13474028,-0.4891112,-0.76888907,-0.41180065,-0.82854307,0.2620416,0.49482378,-0.27255565,0.5832184,-0.76522505,,0.3883355,0.13563211,0.14704084,0.23846364,-0.8232404,0.51518,-0.9711173,-0.19769838,0.13358998,-0.008126419,-0.5321566,-0.8466068,,0.0805716,-0.014577812,0.21124364,-0.9842925,0.12711874,-0.12251165,0.09883704,0.9717699,0.21422955,0.14628574,0.19875588,-0.96906984,,-0.45648301746253656,-0.14173531644064244,0.10011506928000001,0.027259692652988166,0.009291281984049951,-0.013947359182320512,-0.014700965952085135,,-1.2806299016011535,-0.18485133407743787,0.16513697568000002,0.003145349152267865,0.0038258219934323326,-0.004426561145748796,-0.0029401931904170266
1.7910434659570456,,-0.031153083,0.16659307,0.13474028,-0.4891112,-0.76888907,-0.41180065,-0.82854307,0.2620416,0.49482378,-0.27255565,0.5832184,-0.76522505,,0.3883355,0.13563211,0.14704084,0.23846364,-0.8232404,0.51518,-0.9711173,-0.19769838,0.13358998,-0.008126419,-0.5321566,-0.8466068,,0.0805716,-0.014577812,0.21124364,-0.9842925,0.12711874,-0.12251165,0.09883704,0.9717699,0.21422955,0.14628574,0.19875588,-0.96906984,,-0.45648301746253656,-0.14173531644064244,0.10011506928000001,0.027259692652988166,0.009291281984049951,-0.013947359182320512,-0.014700965952085135,,-1.2806299016011535,-0.18485133407743787,0.16513697568000002,0.003145349152267865,0.0038258219934323326,-0.004426561145748796,-0.0029401931904170266
1.8187303279992193,,-0.03115724,0.16659503,0.13474418,-0.48911154,-0.7688831,-0.41181168,-0.82854235,0.26203352,0.49482918,-0.27255735,0.58322996,-0.7652157,,0.3883355,0.13563211,0.14704084,0.23846364,-0.8232404,0.51518,-0.9711173,-0.19769838,0.13358998,-0.008126419,-0.5321566,-0.8466068,,0.0805716,-0.014577812,0.21124364,-0.9842925,0.12711874,-0.12251165,0.09883704,0.9717699,0.21422955,0.14628574,0.19875588,-0.96906984,,-0.4564675719967881,-0.14173531644064244,0.10011506928000001,0.027259692652988166,0.009291281984049951,-0.013947359182320512,-0.014700965952085135,,-1.2806299016011535,-0.18485133407743787,0.16513697568000002,0.003145349152267865,0.0038258219934323326,-0.004426561145748796,-0.0029401931904170266
1.8409947538748384,,-0.03115724,0.16659503,0.13474418,-0.48911154,-0.7688831,-0.41181168,-0.82854235,0.26203352,0.49482918,-0.27255735,0.58322996,-0.7652157,,0.3883355,0.13563211,0.14704084,0.23846364,-0.8232404,0.51518,-0.9711173,-0.19769838,0.13358998,-0.008126419,-0.5321566,-0.8466068,,0.0805716,-0.014577812,0.21124364,-0.9842925,0.12711874,-0.12251165,0.09883704,0.9717699,0.21422955,0.14628574,0.19875588,-0.96906984,,-0.4564675719967881,-0.14173531644064244,0.10011506928000001,0.027259692652988166,0.009291281984049951,-0.013947359182320512,-0.014700965952085135,,-1.2806299016011535,-0.18485133407743787,0.16513697568000002,0.003145349152267865,0.0038258219934323326,-0.004426561145748796,-0.0029401931904170266
1.8682613628916442,,-0.03115724,0.16659503,0.13474418,-0.48911154,-0.7688831,-0.41181168,-0.82854235,0.26203352,0.49482918,-0.27255735,0.58322996,-0.7652157,,0.3883355,0.13563211,0.14704084,0.23846364,-0.8232404,0.51518,-0.9711173,-0.19769838,0.13358998,-0.008126419,-0.5321566,-0.8466068,,0.0805716,-0.014577812,0.21124364,-0.9842925,0.12711874,-0.12251165,0.09883704,0.9717699,0.21422955,0.14628574,0.19875588,-0.96906984,,-0.4564675719967881,-0.14173531644064244,0.10011506928000001,0.027259692652988166,0.009291281984049951,-0.013947359182320512,-0.014700965952085135,,-1.2806299016011535,-0.18485133407743787,0.16513697568000002,0.003145349152267865,0.0038258219934323326,-0.004426561145748796,-0.0029401931904170266
1.890536486869678,,-0.031155169,0.16659404,0.13474226,-0.4891113,-0.7688861,-0.4118062,-0.8285427,0.26203755,0.49482644,-0.27255648,0.58322424,-0.76522034,,0.3883355,0.13563211,0.14704084,0.23846364,-0.8232404,0.51518,-0.9711173,-0.19769838,0.13358998,-0.008126419,-0.5321566,-0.8466068,,0.0805716,-0.014577812,0.21124364,-0.9842925,0.12711874,-0.12251165,0.09883704,0.9717699,0.21422955,0.14628574,0.19875588,-0.96906984,,-0.4564752947296623,-0.14173531644064244,0.10011506928000001,0.027259692652988166,0.009291281984049951,-0.013947359182320512,-0.014700965952085135,,-1.2806299016011535,-0.18485133407743787,0.16513697568000002,0.003145349152267865,0.0038258219934323326,-0.004426561145748796,-0.0029401931904170266
1.9166146349161863,,-0.031155169,0.16659404,0.13474226,-0.4891113,-0.7688861,-0.4118062,-0.8285427,0.26203755,0.49482644,-0.27255648,0.58322424,-0.76522034,,0.3883355,0.13563211,0.14704084,0.23846364,-0.8232404,0.51518,-0.9711173,-0.19769838,0.13358998,-0.008126419,-0.5321566,-0.8466068,,0.0805716,-0.014577812,0.21124364,-0.9842925,0.12711874,-0.12251165,0.09883704,0.9717699,0.21422955,0.14628574,0.19875588,-0.96906984,,-0.4564752947296623,-0.14173531644064244,0.10011506928000001,0.027259692652988166,0.009291281984049951,-0.013947359182320512,-0.014700965952085135,,-1.2806299016011535,-0.18485133407743787,0.16513697568000002,0.003145349152267865,0.0038258219934323326,-0.004426561145748796,-0.0029401931904170266
1.9394527960103005,,-0.031153083,0.16659307,0.13474028,-0.4891112,-0.76888907,-0.41180065,-0.82854307,0.2620416,0.49482378,-0.27255565,0.5832184,-0.76522505,,0.3883355,0.13563211,0.14704084,0.23846364,-0.8232404,0.51518,-0.9711173,-0.19769838,0.13358998,-0.008126419,-0.5321566,-0.8466068,,0.0805716,-0.014577812,0.21124364,-0.9842925,0.12711874,-0.12251165,0.09883704,0.9717699,0.21422955,0.14628574,0.19875588,-0.96906984,,-0.45648301746253656,-0.14173531644064244,0.10011506928000001,0.027259692652988166,0.009291281984049951,-0.013947359182320512,-0.014700965952085135,,-1.2806299016011535,-0.18485133407743787,0.16513697568000002,0.003145349152267865,0.0038258219934323326,-0.004426561145748796,-0.0029401931904170266
1.9646408730186522,,-0.031153083,0.16659307,0.13474028,-0.4891112,-0.76888907,-0.41180065,-0.82854307,0.2620416,0.49482378,-0.27255565,0.5832184,-0.76522505,,0.3883355,0.13563211,0.14704084,0.23846364,-0.8232404,0.51518,-0.9711173,-0.19769838,0.13358998,-0.008126419,-0.5321566,-0.8466068,,0.0805716,-0.014577812,0.21124364,-0.9842925,0.12711874,-0.12251165,0.09883704,0.9717699,0.21422955,0.14628574,0.19875588,-0.96906984,,-0.45648301746253656,-0.14173531644064244,0.10011506928000001,0.027259692652988166,0.009291281984049951,-0.013947359182320512,-0.014700965952085135,,-1.2806299016011535,-0.18485133407743787,0.16513697568000002,0.003145349152267865,0.0038258219934323326,-0.004426561145748796,-0.0029401931904170266
1.990858601871878,,-0.031153083,0.16659307,0.13474028,-0.4891112,-0.76888907,-0.41180065,-0.82854307,0.2620416,0.49482378,-0.27255565,0.5832184,-0.76522505,,0.3883355,0.13563211,0.14704084,0.23846364,-0.8232404,0.51518,-0.9711173,-0.19769838,0.13358998,-0.008126419,-0.5321566,-0.8466068,,0.0805716,-0.014577812,0.21124364,-0.9842925,0.12711874,-0.12251165,0.09883704,0.9717699,0.21422955,0.14628574,0.19875588,-0.96906984,,-0.45648301746253656,-0.14173531644064244,0.10011506928000001,0.027259692652988166,0.009291281984049951,-0.013947359182320512,-0.014700965952085135,,-1.2806299016011535,-0.18485133407743787,0.16513697568000002,0.003145349152267865,0.0038258219934323326,-0.004426561145748796,-0.0029401931904170266
2.0158563358709216,,-0.031151332,0.1665954,0.134741,-0.4891151,-0.76888895,-0.41179633,-0.82853895,0.26204276,0.49482983,-0.27256092,0.5832181,-0.7652235,,0.3883355,0.13563211,0.14704084,0.23846364,-0.8232404,0.51518,-0.9711173,-0.19769838,0.13358998,-0.008126419,-0.5321566,-0.8466068,,0.0805716,-0.014577812,0.21124364,-0.9842925,0.12711874,-0.12251165,0.09883704,0.9717699,0.21422955,0.14628574,0.19875588,-0.96906984,,-0.45648301746253656,-0.1417275937077682,0.10011506928000001,0.027259692652988166,0.009291281984049951,-0.013947359182320512,-0.014700965952085135,,-1.2806299016011535,-0.18485133407743787,0.16513697568000002,0.003145349152267865,0.0038258219934323326,-0.004426561145748796,-0.0029401931904170266
2.039303208934143,,-0.031155169,0.16659404,0.13474226,-0.4891113,-0.7688861,-0.4118062,-0.8285427,0.26203755,0.49482644,-0.27255648,0.58322424,-0.76522034,,0.3883355,0.13563211,0.14704084,0.23846364,-0.8232404,0.51518,-0.9711173,-0.19769838,0.13358998,-0.008126419,-0.5321566,-0.8466068,,0.0805716,-0.014577812,0.21124364,-0.9842925,0.12711874,-0.12251165,0.09883704,0.9717699,0.21422955,0.14628574,0.19875588,-0.96906984,,-0.4564752947296623,-0.14173531644064244,0.10011506928000001,0.027259692652988166,0.009291281984049951,-0.013947359182320512,-0.014700965952085135,,-1.2806299016011535,-0.18485133407743787,0.16513697568000002,0.003145349152267865,0.0038258219934323326,-0.004426561145748796,-0.0029401931904170266
2.0654718598816544,,-0.031155169,0.16659404,0.13474226,-0.4891113,-0.7688861,-0.4118062,-0.8285427,0.26203755,0.49482644,-0.27255648,0.58322424,-0.76522034,,0.3883355,0.13563211,0.14704084,0.23846364,-0.8232404,0.51518,-0.9711173,-0.19769838,0.13358998,-0.008126419,-0.5321566,-0.8466068,,0.0805716,-0.014577812,0.21124364,-0.9842925,0.12711874,-0.12251165,0.09883704,0.9717699,0.21422955,0.14628574,0.19875588,-0.96906984,,-0.4564752947296623,-0.14173531644064244,0.10011506928000001,0.027259692652988166,0.009291281984049951,-0.013947359182320512,-0.014700965952085135,,-1.2806299016011535,-0.18485133407743787,0.16513697568000002,0.003145349152267865,0.0038258219934323326,-0.004426561145748796,-0.0029401931904170266
2.0878508929163218,,-0.031153083,0.16659307,0.13474028,-0.4891112,-0.76888907,-0.41180065,-0.82854307,0.2620416,0.49482378,-0.27255565,0.5832184,-0.76522505,,0.3883355,0.13563211,0.14704084,0.23846364,-0.8232404,0.51518,-0.9711173,-0.19769838,0.13358998,-0.008126419,-0.5321566,-0.8466068,,0.0805716,-0.014577812,0.21124364,-0.9842925,0.12711874,-0.12251165,0.09883704,0.9717699,0.21422955,0.14628574,0.19875588,-0.96906984,,-0.45648301746253656,-0.14173531644064244,0.10011506928000001,0.027259692652988166,0.009291281984049951,-0.013947359182320512,-0.014700965952085135,,-1.2806299016011535,-0.18485133407743787,0.16513697568000002,0.003145349152267865,0.0038258219934323326,-0.004426561145748796,-0.0029401931904170266
2.1159547460265458,,-0.031153083,0.16659307,0.13474028,-0.4891112,-0.76888907,-0.41180065,-0.82854307,0.2620416,0.49482378,-0.27255565,0.5832184,-0.76522505,,0.3883355,0.13563211,0.14704084,0.23846364,-0.8232404,0.51518,-0.9711173,-0.19769838,0.13358998,-0.008126419,-0.5321566,-0.8466068,,0.0805716,-0.014577812,0.21124364,-0.9842925,0.12711874,-0.12251165,0.09883704,0.9717699,0.21422955,0.14628574,0.19875588,-0.96906984,,-0.45648301746253656,-0.14173531644064244,0.10011506928000001,0.027259692652988166,0.009291281984049951,-0.013947359182320512,-0.014700965952085135,,-1.2806299016011535,-0.18485133407743787,0.16513697568000002,0.003145349152267865,0.0038258219934323326,-0.004426561145748796,-0.0029401931904170266
2.1384320228826255,,-0.031153083,0.16659307,0.13474028,-0.4891112,-0.76888907,-0.41180065,-0.82854307,0.2620416,0.49482378,-0.27255565,0.5832184,-0.76522505,,0.3883355,0.13563211,0.14704084,0.23846364,-0.8232404,0.51518,-0.9711173,-0.19769838,0.13358998,-0.008126419,-0.5321566,-0.8466068,,0.0805716,-0.014577812,0.21124364,-0.9842925,0.12711874,-0.12251165,0.09883704,0.9717699,0.21422955,0.14628574,0.19875588,-0.96906984,,-0.45648301746253656,-0.14173531644064244,0.10011506928000001,0.027259692652988166,0.009291281984049951,-0.013947359182320512,-0.014700965952085135,,-1.2806299016011535,-0.18485133407743787,0.16513697568000002,0.003145349152267865,0.0038258219934323326,-0.004426561145748796,-0.0029401931904170266
2.1652864369098097,,-0.03115724,0.16659503,0.13474418,-0.48911154,-0.7688831,-0.41181168,-0.82854235,0.26203352,0.49482918,-0.27255735,0.58322996,-0.7652157,,0.3883355,0.13563211,0.14704084,0.23846364,-0.8232404,0.51518,-0.9711173,-0.19769838,0.13358998,-0.008126419,-0.5321566,-0.8466068,,0.0805716,-0.014577812,0.21124364,-0.9842925,0.12711874,-0.12251165,0.09883704,0.9717699,0.21422955,0.14628574,0.19875588,-0.96906984,,-0.4564675719967881,-0.14173531644064244,0.10011506928000001,0.027259692652988166,0.009291281984049951,-0.013947359182320512,-0.014700965952085135,,-1.2806299016011535,-0.18485133407743787,0.16513697568000002,0.003145349152267865,0.0038258219934323326,-0.004426561145748796,-0.0029401931904170266
2.1863857619464397,,-0.031155169,0.16659404,0.13474226,-0.4891113,-0.7688861,-0.4118062,-0.8285427,0.26203755,0.49482644,-0.27255648,0.58322424,-0.76522034,,0.3883355,0.13563211,0.14704084,0.23846364,-0.8232404,0.51518,-0.9711173,-0.19769838,0.13358998,-0.008126419,-0.5321566,-0.8466068,,0.0805716,-0.014577812,0.21124364,-0.9842925,0.12711874,-0.12251165,0.09883704,0.9717699,0.21422955,0.14628574,0.19875588,-0.96906984,,-0.4564752947296623,-0.14173531644064244,0.10011506928000001,0.027259692652988166,0.009291281984049951,-0.013947359182320512,-0.014700965952085135,,-1.2806299016011535,-0.18485133407743787,0.16513697568000002,0.003145349152267865,0.0038258219934323326,-0.004426561145748796,-0.0029401931904170266
2.207370872842148,,-0.031153083,0.16659307,0.13474028,-0.4891112,-0.76888907,-0.41180065,-0.82854307,0.2620416,0.49482378,-0.27255565,0.5832184,-0.76522505,,0.3883355,0.13563211,0.14704084,0.23846364,-0.8232404,0.51518,-0.9711173,-0.19769838,0.13358998,-0.008126419,-0.5321566,-0.8466068,,0.0805716,-0.014577812,0.21124364,-0.9842925,0.12711874,-0.12251165,0.09883704,0.9717699,0.21422955,0.14628574,0.19875588,-0.96906984,,-0.45648301746253656,-0.14173531644064244,0.10011506928000001,0.027259692652988166,0.009291281984049951,-0.013947359182320512,-0.014700965952085135,,-1.2806299016011535,-0.18485133407743787,0.16513697568000002,0.003145349152267865,0.0038258219934323326,-0.004426561145748796,-0.0029401931904170266
2.2375225368887186,,-0.031153083,0.16659307,0.13474028,-0.4891112,-0.76888907,-0.41180065,-0.82854307,0.2620416,0.49482378,-0.27255565,0.5832184,-0.76522505,,0.3883355,0.13563211,0.14704084,0.23846364,-0.8232404,0.51518,-0.9711173,-0.19769838,0.13358998,-0.008126419,-0.5321566,-0.8466068,,0.0805716,-0.014577812,0.21124364,-0.9842925,0.12711874,-0.12251165,0.09883704,0.9717699,0.21422955,0.14628574,0.19875588,-0.96906984,,-0.45648301746253656,-0.14173531644064244,0.10011506928000001,0.027259692652988166,0.009291281984049951,-0.013947359182320512,-0.014700965952085135,,-1.2806299016011535,-0.18485133407743787,0.16513697568000002,0.003145349152267865,0.0038258219934323326,-0.004426561145748796,-0.0029401931904170266
2.2604986398946494,,-0.031153083,0.16659307,0.13474028,-0.4891112,-0.76888907,-0.41180065,-0.82854307,0.2620416,0.49482378,-0.27255565,0.5832184,-0.76522505,,0.3883355,0.13563211,0.14704084,0.23846364,-0.8232404,0.51518,-0.9711173,-0.19769838,0.13358998,-0.008126419,-0.5321566,-0.8466068,,0.0805716,-0.014577812,0.21124364,-0.9842925,0.12711874,-0.12251165,0.09883704,0.9717699,0.21422955,0.14628574,0.19875588,-0.96906984,,-0.45648301746253656,-0.14173531644064244,0.10011506928000001,0.027259692652988166,0.009291281984049951,-0.013947359182320512,-0.014700965952085135,,-1.2806299016011535,-0.18485133407743787,0.16513697568000002,0.003145349152267865,0.0038258219934323326,-0.004426561145748796,-0.0029401931904170266
2.286259474931285,,-0.031153083,0.16659307,0.13474028,-0.4891112,-0.76888907,-0.41180065,-0.82854307,0.2620416,0.49482378,-0.27255565,0.5832184,-0.76522505,,0.3883355,0.13563211,0.14704084,0.23846364,-0.8232404,0.51518,-0.9711173,-0.19769838,0.13358998,-0.008126419,-0.5321566,-0.8466068,,0.0805716,-0.014577812,0.21124364,-0.9842925,0.12711874,-0.12251165,0.09883704,0.9717699,0.21422955,0.14628574,0.19875588,-0.96906984,,-0.45648301746253656,-0.14173531644064244,0.10011506928000001,0.027259692652988166,0.009291281984049951,-0.013947359182320512,-0.014700965952085135,,-1.2806299016011535,-0.18485133407743787,0.16513697568000002,0.003145349152267865,0.0038258219934323326,-0.004426561145748796,-0.0029401931904170266
2.308742302004248,,-0.031153083,0.16659307,0.13474028,-0.4891112,-0.76888907,-0.41180065,-0.82854307,0.2620416,0.49482378,-0.27255565,0.5832184,-0.76522505,,0.3883355,0.13563211,0.14704084,0.23846364,-0.8232404,0.51518,-0.9711173,-0.19769838,0.13358998,-0.008126419,-0.5321566,-0.8466068,,0.0805716,-0.014577812,0.21124364,-0.9842925,0.12711874,-0.12251165,0.09883704,0.9717699,0.21422955,0.14628574,0.19875588,-0.96906984,,-0.45648301746253656,-0.14173531644064244,0.10011506928000001,0.027259692652988166,0.009291281984049951,-0.013947359182320512,-0.014700965952085135,,-1.2806299016011535,-0.18485133407743787,0.16513697568000002,0.003145349152267865,0.0038258219934323326,-0.004426561145748796,-0.0029401931904170266
2.3357450398616493,,-0.031153083,0.16659307,0.13474028,-0.4891112,-0.76888907,-0.41180065,-0.82854307,0.2620416,0.49482378,-0.27255565,0.5832184,-0.76522505,,0.3883355,0.13563211,0.14704084,0.23846364,-0.8232404,0.51518,-0.9711173,-0.19769838,0.13358998,-0.008126419,-0.5321566,-0.8466068,,0.0805716,-0.014577812,0.21124364,-0.9842925,0.12711874,-0.12251165,0.09883704,0.9717699,0.21422955,0.14628574,0.19875588,-0.96906984,,-0.45648301746253656,-0.14173531644064244,0.10011506928000001,0.027259692652988166,0.009291281984049951,-0.013947359182320512,-0.014700965952085135,,-1.2806299016011535,-0.18485133407743787,0.16513697568000002,0.003145349152267865,0.0038258219934323326,-0.004426561145748796,-0.0029401931904170266
2.3590004278812557,,-0.031153083,0.16659307,0.13474028,-0.4891112,-0.76888907,-0.41180065,-0.82854307,0.2620416,0.49482378,-0.27255565,0.5832184,-0.76522505,,0.3883355,0.13563211,0.14704084,0.23846364,-0.8232404,0.51518,-0.9711173,-0.19769838,0.13358998,-0.008126419,-0.5321566,-0.8466068,,0.0805716,-0.014577812,0.21124364,-0.9842925,0.12711874,-0.12251165,0.09883704,0.9717699,0.21422955,0.14628574,0.19875588,-0.96906984,,-0.45648301746253656,-0.14173531644064244,0.10011506928000001,0.027259692652988166,0.009291281984049951,-0.013947359182320512,-0.014700965952085135,,-1.2806299016011535,-0.18485133407743787,0.16513697568000002,0.003145349152267865,0.0038258219934323326,-0.004426561145748796,-0.0029401931904170266
2.386653454042971,,-0.031155169,0.16659404,0.13474226,-0.4891113,-0.7688861,-0.4118062,-0.8285427,0.26203755,0.49482644,-0.27255648,0.58322424,-0.76522034,,0.3883355,0.13563211,0.14704084,0.23846364,-0.8232404,0.51518,-0.9711173,-0.19769838,0.13358998,-0.008126419,-0.5321566,-0.8466068,,0.0805716,-0.014577812,0.21124364,-0.9842925,0.12711874,-0.12251165,0.09883704,0.9717699,0.21422955,0.14628574,0.19875588,-0.96906984,,-0.4564752947296623,-0.14173531644064244,0.10011506928000001,0.027259692652988166,0.009291281984049951,-0.013947359182320512,-0.014700965952085135,,-1.2806299016011535,-0.18485133407743787,0.16513697568000002,0.003145349152267865,0.0038258219934323326,-0.004426561145748796,-0.0029401931904170266
2.4125027388799936,,-0.031153083,0.16659307,0.13474028,-0.4891112,-0.76888907,-0.41180065,-0.82854307,0.2620416,0.49482378,-0.27255565,0.5832184,-0.76522505,,0.3883355,0.13563211,0.14704084,0.23846364,-0.8232404,0.51518,-0.9711173,-0.19769838,0.13358998,-0.008126419,-0.5321566,-0.8466068,,0.0805716,-0.014577812,0.21124364,-0.9842925,0.12711874,-0.12251165,0.09883704,0.9717699,0.21422955,0.14628574,0.19875588,-0.96906984,,-0.45648301746253656,-0.14173531644064244,0.10011506928000001,0.027259692652988166,0.009291281984049951,-0.013947359182320512,-0.014700965952085135,,-1.2806299016011535,-0.18485133407743787,0.16513697568000002,0.003145349152267865,0.0038258219934323326,-0.004426561145748796,-0.0029401931904170266
2.436996385920793,,-0.031153083,0.16659307,0.13474028,-0.4891112,-0.76888907,-0.41180065,-0.82854307,0.2620416,0.49482378,-0.27255565,0.5832184,-0.76522505,,0.3883355,0.13563211,0.14704084,0.23846364,-0.8232404,0.51518,-0.9711173,-0.19769838,0.13358998,-0.008126419,-0.5321566,-0.8466068,,0.0805716,-0.014577812,0.21124364,-0.9842925,0.12711874,-0.12251165,0.09883704,0.9717699,0.21422955,0.14628574,0.19875588,-0.96906984,,-0.45648301746253656,-0.14173531644064244,0.10011506928000001,0.027259692652988166,0.009291281984049951,-0.013947359182320512,-0.014700965952085135,,-1.2806299016011535,-0.18485133407743787,0.16513697568000002,0.003145349152267865,0.0038258219934323326,-0.004426561145748796,-0.0029401931904170266
2.46250797691755,,-0.031153083,0.16659307,0.13474028,-0.4891112,-0.76888907,-0.41180065,-0.82854307,0.2620416,0.49482378,-0.27255565,0.5832184,-0.76522505,,0.3883355,0.13563211,0.14704084,0.23846364,-0.8232404,0.51518,-0.9711173,-0.19769838,0.13358998,-0.008126419,-0.5321566,-0.8466068,,0.0805716,-0.014577812,0.21124364,-0.9842925,0.12711874,-0.12251165,0.09883704,0.9717699,0.21422955,0.14628574,0.19875588,-0.96906984,,-0.45648301746253656,-0.14173531644064244,0.10011506928000001,0.027259692652988166,0.009291281984049951,-0.013947359182320512,-0.014700965952085135,,-1.2806299016011535,-0.18485133407743787,0.16513697568000002,0.003145349152267865,0.0038258219934323326,-0.004426561145748796,-0.0029401931904170266
2.487900197971612,,-0.031151332,0.1665954,0.134741,-0.4891151,-0.76888895,-0.41179633,-0.82853895,0.26204276,0.49482983,-0.27256092,0.5832181,-0.7652235,,0.3883355,0.13563211,0.14704084,0.23846364,-0.8232404,0.51518,-0.9711173,-0.19769838,0.13358998,-0.008126419,-0.5321566,-0.8466068,,0.0805716,-0.014577812,0.21124364,-0.9842925,0.12711874,-0.12251165,0.09883704,0.9717699,0.21422955,0.14628574,0.19875588,-0.96906984,,-0.45648301746253656,-0.1417275937077682,0.10011506928000001,0.027259692652988166,0.009291281984049951,-0.013947359182320512,-0.014700965952085135,,-1.2806299016011535,-0.18485133407743787,0.16513697568000002,0.003145349152267865,0.0038258219934323326,-0.004426561145748796,-0.0029401931904170266
2.5143169900402427,,-0.031151332,0.1665954,0.134741,-0.4891151,-0.76888895,-0.41179633,-0.82853895,0.26204276,0.49482983,-0.27256092,0.5832181,-0.7652235,,0.3883355,0.13563211,0.14704084,0.23846364,-0.8232404,0.51518,-0.9711173,-0.19769838,0.13358998,-0.008126419,-0.5321566,-0.8466068,,0.0805716,-0.014577812,0.21124364,-0.9842925,0.12711874,-0.12251165,0.09883704,0.9717699,0.21422955,0.14628574,0.19875588,-0.96906984,,-0.45648301746253656,-0.14173531644064244,0.10011506928000001,0.027259692652988166,0.009291281984049951,-0.013947359182320512,-0.014700965952085135,,-1.2806299016011535,-0.18485133407743787,0.16513697568000002,0.003145349152267865,0.0038258219934323326,-0.004426561145748796,-0.0029401931904170266
2.537807540036738,,-0.031153083,0.16659307,0.13474028,-0.4891112,-0.76888907,-0.41180065,-0.82854307,0.2620416,0.49482378,-0.27255565,0.5832184,-0.76522505,,0.3883355,0.13563211,0.14704084,0.23846364,-0.8232404,0.51518,-0.9711173,-0.19769838,0.13358998,-0.008126419,-0.5321566,-0.8466068,,0.0805716,-0.014577812,0.21124364,-0.9842925,0.12711874,-0.12251165,0.09883704,0.9717699,0.21422955,0.14628574,0.19875588,-0.96906984,,-0.45648301746253656,-0.14173531644064244,0.10011506928000001,0.027259692652988166,0.009291281984049951,-0.013947359182320512,-0.014700965952085135,,-1.2806299016011535,-0.18485133407743787,0.16513697568000002,0.003145349152267865,0.0038258219934323326,-0.004426561145748796,-0.0029401931904170266
2.557972328038886,,-0.031085297,0.1665377,0.13473082,-0.48905197,-0.76892084,-0.41181168,-0.82857645,0.26199874,0.49479067,-0.27256075,0.58319575,-0.76524055,,0.38837218,0.13563102,0.14703256,0.2385203,-0.8232253,0.5151777,-0.97110337,-0.19774385,0.13362406,-0.008129485,-0.5321629,-0.8466028,,0.080616646,-0.014597155,0.21123263,-0.9842992,0.12706077,-0.12251776,0.09877895,0.9717764,0.21422704,0.14627972,0.19876134,-0.9690696,,-0.45648301746253656,-0.14173531644064244,0.10011506928000001,0.027259692652988166,0.009291281984049951,-0.013947359182320512,-0.014700965952085135,,-1.2806299016011535,-0.18485133407743787,0.16513697568000002,0.003145349152267865,0.0038258219934323326,-0.004426561145748796,-0.0029401931904170266
2.585652739042416,,-0.031085297,0.1665377,0.13473082,-0.48905197,-0.76892084,-0.41181168,-0.82857645,0.26199874,0.49479067,-0.27256075,0.58319575,-0.76524055,,0.38841656,0.13561535,0.1470806,0.23848306,-0.82318693,0.5152563,-0.97111285,-0.19771379,0.13360061,-0.008105041,-0.5322334,-0.84655875,,0.080616646,-0.014597155,0.21123263,-0.9842992,0.12706077,-0.12251776,0.09877895,0.9717764,0.21422704,0.14627972,0.19876134,-0.9690696,,-0.45648301746253656,-0.14173531644064244,0.10011506928000001,0.027259692652988166,0.009291281984049951,-0.013947359182320512,-0.014700965952085135,,-1.2806299016011535,-0.18485133407743787,0.16513697568000002,0.003145349152267865,0.0038258219934323326,-0.004426561145748796,-0.0029401931904170266
2.6112031429074705,,-0.031087376,0.16653867,0.13473274,-0.4890521,-0.7689178,-0.4118172,-0.828576,0.26199466,0.49479342,-0.27256158,0.58320147,-0.76523584,,0.38841656,0.13561535,0.1470806,0.23848306,-0.82318693,0.5152563,-0.97111285,-0.19771379,0.13360061,-0.008105041,-0.5322334,-0.84655875,,0.080616646,-0.014597155,0.21123263,-0.9842992,0.12706077,-0.12251776,0.09877895,0.9717764,0.21422704,0.14627972,0.19876134,-0.9690696,,-0.4564752947296623,-0.14173531644064244,0.10011506928000001,0.027259692652988166,0.009291281984049951,-0.013947359182320512,-0.014700965952085135,,-1.2806299016011535,-0.18485133407743787,0.16513697568000002,0.003145349152267865,0.0038258219934323326,-0.004426561145748796,-0.0029401931904170266
2.638580831931904,,-0.031087376,0.16653867,0.13473274,-0.4890521,-0.7689178,-0.4118172,-0.828576,0.26199466,0.49479342,-0.27256158,0.58320147,-0.76523584,,0.38841656,0.13561535,0.1470806,0.23848306,-0.82318693,0.5152563,-0.97111285,-0.19771379,0.13360061,-0.008105041,-0.5322334,-0.84655875,,0.080616646,-0.014597155,0.21123263,-0.9842992,0.12706077,-0.12251776,0.09877895,0.9717764,0.21422704,0.14627972,0.19876134,-0.9690696,,-0.4564752947296623,-0.14173531644064244,0.10011506928000001,0.027259692652988166,0.009291281984049951,-0.013947359182320512,-0.014700965952085135,,-1.2806299016011535,-0.18485133407743787,0.16513697568000002,0.003145349152267865,0.0038258219934323326,-0.004426561145748796,-0.0029401931904170266
2.6604675808921456,,-0.031089455,0.16653967,0.13473473,-0.48905224,-0.76891476,-0.41182268,-0.8285756,0.26199067,0.49479616,-0.2725624,0.58320737,-0.76523113,,0.38841656,0.13561535,0.1470806,0.23848306,-0.82318693,0.5152563,-0.97111285,-0.19771379,0.13360061,-0.008105041,-0.5322334,-0.84655875,,0.080616646,-0.014597155,0.21123263,-0.9842992,0.12706077,-0.12251776,0.09877895,0.9717764,0.21422704,0.14627972,0.19876134,-0.9690696,,-0.4564675719967881,-0.14173531644064244,0.10011506928000001,0.027259692652988166,0.009291281984049951,-0.013947359182320512,-0.014700965952085135,,-1.2806299016011535,-0.18485133407743787,0.16513697568000002,0.003145349152267865,0.0038258219934323326,-0.004426561145748796,-0.0029401931904170266
2.685985927004367,,-0.03108354,0.16654004,0.13473147,-0.48905584,-0.76892066,-0.4118073,-0.82857233,0.26199996,0.49479678,-0.272566,0.5831954,-0.765239,,0.38841656,0.13561535,0.1470806,0.23848306,-0.82318693,0.5152563,-0.97111285,-0.19771379,0.13360061,-0.008105041,-0.5322334,-0.84655875,,0.080616646,-0.014597155,0.21123263,-0.9842992,0.12706077,-0.12251776,0.09877895,0.9717764,0.21422704,0.14627972,0.19876134,-0.9690696,,-0.45648301746253656,-0.1417275937077682,0.10011506928000001,0.027259692652988166,0.009291281984049951,-0.013947359182320512,-0.014700965952085135,,-1.2806299016011535,-0.18485133407743787,0.16513697568000002,0.003145349152267865,0.0038258219934323326,-0.004426561145748796,-0.0029401931904170266
2.7112474830355495,,-0.031085297,0.1665377,0.13473082,-0.48905197,-0.76892084,-0.41181168,-0.82857645,0.26199874,0.49479067,-0.27256075,0.58319575,-0.76524055,,0.38841656,0.13561535,0.1470806,0.23848306,-0.82318693,0.5152563,-0.97111285,-0.19771379,0.13360061,-0.008105041,-0.5322334,-0.84655875,,0.080616646,-0.014597155,0.21123263,-0.9842992,0.12706077,-0.12251776,0.09877895,0.9717764,0.21422704,0.14627972,0.19876134,-0.9690696,,-0.45648301746253656,-0.14173531644064244,0.10011506928000001,0.027259692652988166,0.009291281984049951,-0.013947359182320512,-0.014700965952085135,,-1.2806299016011535,-0.18485133407743787,0.16513697568000002,0.003145349152267865,0.0038258219934323326,-0.004426561145748796,-0.0029401931904170266
2.7383760418742895,,-0.031087376,0.16653867,0.13473274,-0.4890521,-0.7689178,-0.4118172,-0.828576,0.26199466,0.49479342,-0.27256158,0.58320147,-0.76523584,,0.38841656,0.13561535,0.1470806,0.23848306,-0.82318693,0.5152563,-0.97111285,-0.19771379,0.13360061,-0.008105041,-0.5322334,-0.84655875,,0.080616646,-0.014597155,0.21123263,-0.9842992,0.12706077,-0.12251776,0.09877895,0.9717764,0.21422704,0.14627972,0.19876134,-0.9690696,,-0.4564752947296623,-0.14173531644064244,0.10011506928000001,0.027259692652988166,0.009291281984049951,-0.013947359182320512,-0.014700965952085135,,-1.2806299016011535,-0.18485133407743787,0.16513697568000002,0.003145349152267865,0.0038258219934323326,-0.004426561145748796,-0.0029401931904170266
2.7593529948499054,,-0.031085297,0.1665377,0.13473082,-0.48905197,-0.76892084,-0.41181168,-0.82857645,0.26199874,0.49479067,-0.27256075,0.58319575,-0.76524055,,0.38841656,0.13561535,0.1470806,0.23848306,-0.82318693,0.5152563,-0.97111285,-0.19771379,0.13360061,-0.008105041,-0.5322334,-0.84655875,,0.080616646,-0.014597155,0.21123263,-0.9842992,0.12706077,-0.12251776,0.09877895,0.9717764,0.21422704,0.14627972,0.19876134,-0.9690696,,-0.45648301746253656,-0.14173531644064244,0.10011506928000001,0.027259692652988166,0.009291281984049951,-0.013947359182320512,-0.014700965952085135,,-1.2806299016011535,-0.18485133407743787,0.16513697568000002,0.003145349152267865,0.0038258219934323326,-0.004426561145748796,-0.0029401931904170266
2.785484901862219,,-0.03108354,0.16654004,0.13473147,-0.48905584,-0.76892066,-0.4118073,-0.82857233,0.26199996,0.49479678,-0.272566,0.5831954,-0.765239,,0.38841656,0.13561535,0.1470806,0.23848306,-0.82318693,0.5152563,-0.97111285,-0.19771379,0.13360061,-0.008105041,-0.5322334,-0.84655875,,0.080616646,-0.014597155,0.21123263,-0.9842992,0.12706077,-0.12251776,0.09877895,0.9717764,0.21422704,0.14627972,0.19876134,-0.9690696,,-0.45648301746253656,-0.1417275937077682,0.10011506928000001,0.027259692652988166,0.009291281984049951,-0.013947359182320512,-0.014700965952085135,,-1.2806299016011535,-0.18485133407743787,0.16513697568000002,0.003145349152267865,0.0038258219934323326,-0.004426561145748796,-0.0029401931904170266
2.81220310786739,,-0.031085297,0.1665377,0.13473082,-0.48905197,-0.76892084,-0.41181168,-0.82857645,0.26199874,0.49479067,-0.27256075,0.58319575,-0.76524055,,0.38841656,0.13561535,0.1470806,0.23848306,-0.82318693,0.5152563,-0.97111285,-0.19771379,0.13360061,-0.008105041,-0.5322334,-0.84655875,,0.080616646,-0.014597155,0.21123263,-0.9842992,0.12706077,-0.12251776,0.09877895,0.9717764,0.21422704,0.14627972,0.19876134,-0.9690696,,-0.45648301746253656,-0.14173531644064244,0.10011506928000001,0.027259692652988166,0.009291281984049951,-0.013947359182320512,-0.014700965952085135,,-1.2806299016011535,-0.18485133407743787,0.16513697568000002,0.003145349152267865,0.0038258219934323326,-0.004426561145748796,-0.0029401931904170266
2.8382578298915178,,-0.031087376,0.16653867,0.13473274,-0.4890521,-0.7689178,-0.4118172,-0.828576,0.26199466,0.49479342,-0.27256158,0.58320147,-0.76523584,,0.38841656,0.13561535,0.1470806,0.23848306,-0.82318693,0.5152563,-0.97111285,-0.19771379,0.13360061,-0.008105041,-0.5322334,-0.84655875,,0.080616646,-0.014597155,0.21123263,-0.9842992,0.12706077,-0.12251776,0.09877895,0.9717764,0.21422704,0.14627972,0.19876134,-0.9690696,,-0.4564752947296623,-0.14173531644064244,0.10011506928000001,0.027259692652988166,0.009291281984049951,-0.013947359182320512,-0.014700965952085135,,-1.2806299016011535,-0.18485133407743787,0.16513697568000002,0.003145349152267865,0.0038258219934323326,-0.004426561145748796,-0.0029401931904170266
2.861573486821726,,-0.031089455,0.16653967,0.13473473,-0.48905224,-0.76891476,-0.41182268,-0.8285756,0.26199067,0.49479616,-0.2725624,0.58320737,-0.76523113,,0.38841656,0.13561535,0.1470806,0.23848306,-0.82318693,0.5152563,-0.97111285,-0.19771379,0.13360061,-0.008105041,-0.5322334,-0.84655875,,0.080616646,-0.014597155,0.21123263,-0.9842992,0.12706077,-0.12251776,0.09877895,0.9717764,0.21422704,0.14627972,0.19876134,-0.9690696,,-0.4564675719967881,-0.14173531644064244,0.10011506928000001,0.027259692652988166,0.009291281984049951,-0.013947359182320512,-0.014700965952085135,,-1.2806299016011535,-0.18485133407743787,0.16513697568000002,0.003145349152267865,0.0038258219934323326,-0.004426561145748796,-0.0029401931904170266
2.886962652904913,,-0.031087376,0.16653867,0.13473274,-0.4890521,-0.7689178,-0.4118172,-0.828576,0.26199466,0.49479342,-0.27256158,0.58320147,-0.76523584,,0.38841656,0.13561535,0.1470806,0.23848306,-0.82318693,0.5152563,-0.97111285,-0.19771379,0.13360061,-0.008105041,-0.5322334,-0.84655875,,0.080616646,-0.014597155,0.21123263,-0.9842992,0.12706077,-0.12251776,0.09877895,0.9717764,0.21422704,0.14627972,0.19876134,-0.9690696,,-0.4564752947296623,-0.14173531644064244,0.10011506928000001,0.027259692652988166,0.009291281984049951,-0.013947359182320512,-0.014700965952085135,,-1.2806299016011535,-0.18485133407743787,0.16513697568000002,0.003145349152267865,0.0038258219934323326,-0.004426561145748796,-0.0029401931904170266
2.9120599369052798,,-0.031085297,0.1665377,0.13473082,-0.48905197,-0.76892084,-0.41181168,-0.82857645,0.26199874,0.49479067,-0.27256075,0.58319575,-0.76524055,,0.38841656,0.13561535,0.1470806,0.23848306,-0.82318693,0.5152563,-0.97111285,-0.19771379,0.13360061,-0.008105041,-0.5322334,-0.84655875,,0.080616646,-0.014597155,0.21123263,-0.9842992,0.12706077,-0.12251776,0.09877895,0.9717764,0.21422704,0.14627972,0.19876134,-0.9690696,,-0.45648301746253656,-0.14173531644064244,0.10011506928000001,0.027259692652988166,0.009291281984049951,-0.013947359182320512,-0.014700965952085135,,-1.2806299016011535,-0.18485133407743787,0.16513697568000002,0.003145349152267865,0.0038258219934323326,-0.004426561145748796,-0.0029401931904170266
2.936349551891908,,-0.031087376,0.16653867,0.13473274,-0.4890521,-0.7689178,-0.4118172,-0.828576,0.26199466,0.49479342,-0.27256158,0.58320147,-0.76523584,,0.38842636,0.13561583,0.1470865,0.23847961,-0.8231799,0.5152692,-0.97111374,-0.1977092,0.13360122,-0.008104382,-0.5322461,-0.8465507,,0.080616646,-0.014597155,0.21123263,-0.9842992,0.12706077,-0.12251776,0.09877895,0.9717764,0.21422704,0.14627972,0.19876134,-0.9690696,,-0.4564752947296623,-0.14173531644064244,0.10011506928000001,0.027259692652988166,0.009291281984049951,-0.013947359182320512,-0.014700965952085135,,-1.280645347066902,-0.18485133407743787,0.16513697568000002,0.003145349152267865,0.0038258219934323326,-0.004426561145748796,-0.0029401931904170266
2.9594372280407697,,-0.03108354,0.16654004,0.13473147,-0.48905584,-0.76892066,-0.4118073,-0.82857233,0.26199996,0.49479678,-0.272566,0.5831954,-0.765239,,0.3884215,0.13561559,0.14708358,0.23848134,-0.8231835,0.5152628,-0.97111326,-0.1977115,0.13360089,-0.008104723,-0.5322398,-0.8465547,,0.080616646,-0.014597155,0.21123263,-0.9842992,0.12706077,-0.12251776,0.09877895,0.9717764,0.21422704,0.14627972,0.19876134,-0.9690696,,-0.45648301746253656,-0.1417275937077682,0.10011506928000001,0.027259692652988166,0.009291281984049951,-0.013947359182320512,-0.014700965952085135,,-1.2806376243340278,-0.18485133407743787,0.16513697568000002,0.003145349152267865,0.0038258219934323326,-0.004426561145748796,-0.0029401931904170266
2.9857230610214174,,-0.031085618,0.16654104,0.13473344,-0.48905596,-0.7689177,-0.41181278,-0.828572,0.2619959,0.49479952,-0.27256683,0.58320117,-0.7652343,,0.38841656,0.13561535,0.1470806,0.23848306,-0.82318693,0.5152563,-0.97111285,-0.19771379,0.13360061,-0.008105041,-0.5322334,-0.84655875,,0.080616646,-0.014597155,0.21123263,-0.9842992,0.12706077,-0.12251776,0.09877895,0.9717764,0.21422704,0.14627972,0.19876134,-0.9690696,,-0.4564752947296623,-0.1417275937077682,0.10011506928000001,0.027259692652988166,0.009291281984049951,-0.013947359182320512,-0.014700965952085135,,-1.2806299016011535,-0.18485133407743787,0.16513697568000002,0.003145349152267865,0.0038258219934323326,-0.004426561145748796,-0.0029401931904170266
3.008426854852587,,-0.031089455,0.16653967,0.13473473,-0.48905224,-0.76891476,-0.41182268,-0.8285756,0.26199067,0.49479616,-0.2725624,0.58320737,-0.76523113,,0.38841656,0.13561535,0.1470806,0.23848306,-0.82318693,0.5152563,-0.97111285,-0.19771379,0.13360061,-0.008105041,-0.5322334,-0.84655875,,0.080616646,-0.014597155,0.21123263,-0.9842992,0.12706077,-0.12251776,0.09877895,0.9717764,0.21422704,0.14627972,0.19876134,-0.9690696,,-0.4564675719967881,-0.14173531644064244,0.10011506928000001,0.027259692652988166,0.009291281984049951,-0.013947359182320512,-0.014700965952085135,,-1.2806299016011535,-0.18485133407743787,0.16513697568000002,0.003145349152267865,0.0038258219934323326,-0.004426561145748796,-0.0029401931904170266
3.0360149228945374,,-0.031089455,0.16653967,0.13473473,-0.48905224,-0.76891476,-0.41182268,-0.8285756,0.26199067,0.49479616,-0.2725624,0.58320737,-0.76523113,,0.38841656,0.13561535,0.1470806,0.23848306,-0.82318693,0.5152563,-0.97111285,-0.19771379,0.13360061,-0.008105041,-0.5322334,-0.84655875,,0.080616646,-0.014597155,0.21123263,-0.9842992,0.12706077,-0.12251776,0.09877895,0.9717764,0.21422704,0.14627972,0.19876134,-0.9690696,,-0.4564675719967881,-0.14173531644064244,0.10011506928000001,0.027259692652988166,0.009291281984049951,-0.013947359182320512,-0.014700965952085135,,-1.2806299016011535,-0.18485133407743787,0.16513697568000002,0.003145349152267865,0.0038258219934323326,-0.004426561145748796,-0.0029401931904170266
3.0581828060094267,,-0.031087674,0.166542,0.13473544,-0.48905614,-0.76891464,-0.4118182,-0.8285717,0.26199186,0.49480224,-0.27256763,0.58320695,-0.7652295,,0.38841656,0.13561535,0.1470806,0.23848306,-0.82318693,0.5152563,-0.97111285,-0.19771379,0.13360061,-0.008105041,-0.5322334,-0.84655875,,0.080616646,-0.014597155,0.21123263,-0.9842992,0.12706077,-0.12251776,0.09877895,0.9717764,0.21422704,0.14627972,0.19876134,-0.9690696,,-0.4564675719967881,-0.1417275937077682,0.10011506928000001,0.027259692652988166,0.009291281984049951,-0.013947359182320512,-0.014700965952085135,,-1.2806299016011535,-0.18485133407743787,0.16513697568000002,0.003145349152267865,0.0038258219934323326,-0.004426561145748796,-0.0029401931904170266
3.08798553282395,,-0.031087376,0.16653867,0.13473274,-0.4890521,-0.7689178,-0.4118172,-0.828576,0.26199466,0.49479342,-0.27256158,0.58320147,-0.76523584,,0.38841656,0.13561535,0.1470806,0.23848306,-0.82318693,0.5152563,-0.97111285,-0.19771379,0.13360061,-0.008105041,-0.5322334,-0.84655875,,0.080616646,-0.014597155,0.21123263,-0.9842992,0.12706077,-0.12251776,0.09877895,0.9717764,0.21422704,0.14627972,0.19876134,-0.9690696,,-0.4564752947296623,-0.14173531644064244,0.10011506928000001,0.027259692652988166,0.009291281984049951,-0.013947359182320512,-0.014700965952085135,,-1.2806299016011535,-0.18485133407743787,0.16513697568000002,0.003145349152267865,0.0038258219934323326,-0.004426561145748796,-0.0029401931904170266
3.113114275969565,,-0.031087376,0.16653867,0.13473274,-0.4890521,-0.7689178,-0.4118172,-0.828576,0.26199466,0.49479342,-0.27256158,0.58320147,-0.76523584,,0.38841656,0.13561535,0.1470806,0.23848306,-0.82318693,0.5152563,-0.97111285,-0.19771379,0.13360061,-0.008105041,-0.5322334,-0.84655875,,0.080616646,-0.014597155,0.21123263,-0.9842992,0.12706077,-0.12251776,0.09877895,0.9717764,0.21422704,0.14627972,0.19876134,-0.9690696,,-0.4564752947296623,-0.14173531644064244,0.10011506928000001,0.027259692652988166,0.009291281984049951,-0.013947359182320512,-0.014700965952085135,,-1.2806299016011535,-0.18485133407743787,0.16513697568000002,0.003145349152267865,0.0038258219934323326,-0.004426561145748796,-0.0029401931904170266
3.1373275849036872,,-0.031089455,0.16653967,0.13473473,-0.48905224,-0.76891476,-0.41182268,-0.8285756,0.26199067,0.49479616,-0.2725624,0.58320737,-0.76523113,,0.38841656,0.13561535,0.1470806,0.23848306,-0.82318693,0.5152563,-0.97111285,-0.19771379,0.13360061,-0.008105041,-0.5322334,-0.84655875,,0.080616646,-0.014597155,0.21123263,-0.9842992,0.12706077,-0.12251776,0.09877895,0.9717764,0.21422704,0.14627972,0.19876134,-0.9690696,,-0.4564675719967881,-0.14173531644064244,0.10011506928000001,0.027259692652988166,0.009291281984049951,-0.013947359182320512,-0.014700965952085135,,-1.2806299016011535,-0.18485133407743787,0.16513697568000002,0.003145349152267865,0.0038258219934323326,-0.004426561145748796,-0.0029401931904170266
3.1586981709115207,,-0.031087376,0.16653867,0.13473274,-0.4890521,-0.7689178,-0.4118172,-0.828576,0.26199466,0.49479342,-0.27256158,0.58320147,-0.76523584,,0.38841656,0.13561535,0.1470806,0.23848306,-0.82318693,0.5152563,-0.97111285,-0.19771379,0.13360061,-0.008105041,-0.5322334,-0.84655875,,0.080616646,-0.014597155,0.21123263,-0.9842992,0.12706077,-0.12251776,0.09877895,0.9717764,0.21422704,0.14627972,0.19876134,-0.9690696,,-0.4564752947296623,-0.14173531644064244,0.10011506928000001,0.027259692652988166,0.009291281984049951,-0.013947359182320512,-0.014700965952085135,,-1.2806299016011535,-0.18485133407743787,0.16513697568000002,0.003145349152267865,0.0038258219934323326,-0.004426561145748796,-0.0029401931904170266
3.186731609981507,,-0.03108354,0.16654004,0.13473147,-0.48905584,-0.76892066,-0.4118073,-0.82857233,0.26199996,0.49479678,-0.272566,0.5831954,-0.765239,,0.38841656,0.13561535,0.1470806,0.23848306,-0.82318693,0.5152563,-0.97111285,-0.19771379,0.13360061,-0.008105041,-0.5322334,-0.84655875,,0.080616646,-0.014597155,0.21123263,-0.9842992,0.12706077,-0.12251776,0.09877895,0.9717764,0.21422704,0.14627972,0.19876134,-0.9690696,,-0.45648301746253656,-0.1417275937077682,0.10011506928000001,0.027259692652988166,0.009291281984049951,-0.013947359182320512,-0.014700965952085135,,-1.2806299016011535,-0.18485133407743787,0.16513697568000002,0.003145349152267865,0.0038258219934323326,-0.004426561145748796,-0.0029401931904170266
3.2147762139793485,,-0.031085297,0.1665377,0.13473082,-0.48905197,-0.76892084,-0.41181168,-0.82857645,0.26199874,0.49479067,-0.27256075,0.58319575,-0.76524055,,0.38841656,0.13561535,0.1470806,0.23848306,-0.82318693,0.5152563,-0.97111285,-0.19771379,0.13360061,-0.008105041,-0.5322334,-0.84655875,,0.080616646,-0.014597155,0.21123263,-0.9842992,0.12706077,-0.12251776,0.09877895,0.9717764,0.21422704,0.14627972,0.19876134,-0.9690696,,-0.45648301746253656,-0.14173531644064244,0.10011506928000001,0.027259692652988166,0.009291281984049951,-0.013947359182320512,-0.014700965952085135,,-1.2806299016011535,-0.18485133407743787,0.16513697568000002,0.003145349152267865,0.0038258219934323326,-0.004426561145748796,-0.0029401931904170266
3.2391400889027864,,-0.031085297,0.1665377,0.13473082,-0.48905197,-0.76892084,-0.41181168,-0.82857645,0.26199874,0.49479067,-0.27256075,0.58319575,-0.76524055,,0.38841656,0.13561535,0.1470806,0.23848306,-0.82318693,0.5152563,-0.97111285,-0.19771379,0.13360061,-0.008105041,-0.5322334,-0.84655875,,0.080616646,-0.014597155,0.21123263,-0.9842992,0.12706077,-0.12251776,0.09877895,0.9717764,0.21422704,0.14627972,0.19876134,-0.9690696,,-0.45648301746253656,-0.14173531644064244,0.10011506928000001,0.027259692652988166,0.009291281984049951,-0.013947359182320512,-0.014700965952085135,,-1.2806299016011535,-0.18485133407743787,0.16513697568000002,0.003145349152267865,0.0038258219934323326,-0.004426561145748796,-0.0029401931904170266
3.262935594888404,,-0.031085297,0.1665377,0.13473082,-0.48905197,-0.76892084,-0.41181168,-0.82857645,0.26199874,0.49479067,-0.27256075,0.58319575,-0.76524055,,0.38841656,0.13561535,0.1470806,0.23848306,-0.82318693,0.5152563,-0.97111285,-0.19771379,0.13360061,-0.008105041,-0.5322334,-0.84655875,,0.080616646,-0.014597155,0.21123263,-0.9842992,0.12706077,-0.12251776,0.09877895,0.9717764,0.21422704,0.14627972,0.19876134,-0.9690696,,-0.45648301746253656,-0.14173531644064244,0.10011506928000001,0.027259692652988166,0.009291281984049951,-0.013947359182320512,-0.014700965952085135,,-1.2806299016011535,-0.18485133407743787,0.16513697568000002,0.003145349152267865,0.0038258219934323326,-0.004426561145748796,-0.0029401931904170266
3.287126258946955,,-0.031087376,0.16653867,0.13473274,-0.4890521,-0.7689178,-0.4118172,-0.828576,0.26199466,0.49479342,-0.27256158,0.58320147,-0.76523584,,0.38841656,0.13561535,0.1470806,0.23848306,-0.82318693,0.5152563,-0.97111285,-0.19771379,0.13360061,-0.008105041,-0.5322334,-0.84655875,,0.080616646,-0.014597155,0.21123263,-0.9842992,0.12706077,-0.12251776,0.09877895,0.9717764,0.21422704,0.14627972,0.19876134,-0.9690696,,-0.4564752947296623,-0.14173531644064244,0.10011506928000001,0.027259692652988166,0.009291281984049951,-0.013947359182320512,-0.014700965952085135,,-1.2806299016011535,-0.18485133407743787,0.16513697568000002,0.003145349152267865,0.0038258219934323326,-0.004426561145748796,-0.0029401931904170266
3.3085632058791816,,-0.031085297,0.1665377,0.13473082,-0.48905197,-0.76892084,-0.41181168,-0.82857645,0.26199874,0.49479067,-0.27256075,0.58319575,-0.76524055,,0.38841656,0.13561535,0.1470806,0.23848306,-0.82318693,0.5152563,-0.97111285,-0.19771379,0.13360061,-0.008105041,-0.5322334,-0.84655875,,0.080616646,-0.014597155,0.21123263,-0.9842992,0.12706077,-0.12251776,0.09877895,0.9717764,0.21422704,0.14627972,0.19876134,-0.9690696,,-0.45648301746253656,-0.14173531644064244,0.10011506928000001,0.027259692652988166,0.009291281984049951,-0.013947359182320512,-0.014700965952085135,,-1.2806299016011535,-0.18485133407743787,0.16513697568000002,0.003145349152267865,0.0038258219934323326,-0.004426561145748796,-0.0029401931904170266
3.3366663069464266,,-0.03108354,0.16654004,0.13473147,-0.48905584,-0.76892066,-0.4118073,-0.82857233,0.26199996,0.49479678,-0.272566,0.5831954,-0.765239,,0.38841656,0.13561535,0.1470806,0.23848306,-0.82318693,0.5152563,-0.97111285,-0.19771379,0.13360061,-0.008105041,-0.5322334,-0.84655875,,0.080616646,-0.014597155,0.21123263,-0.9842992,0.12706077,-0.12251776,0.09877895,0.9717764,0.21422704,0.14627972,0.19876134,-0.9690696,,-0.45648301746253656,-0.1417275937077682,0.10011506928000001,0.027259692652988166,0.009291281984049951,-0.013947359182320512,-0.014700965952085135,,-1.2806299016011535,-0.18485133407743787,0.16513697568000002,0.003145349152267865,0.0038258219934323326,-0.004426561145748796,-0.0029401931904170266
3.35851266188547,,-0.031085297,0.1665377,0.13473082,-0.48905197,-0.76892084,-0.41181168,-0.82857645,0.26199874,0.49479067,-0.27256075,0.58319575,-0.76524055,,0.38841656,0.13561535,0.1470806,0.23848306,-0.82318693,0.5152563,-0.97111285,-0.19771379,0.13360061,-0.008105041,-0.5322334,-0.84655875,,0.080616646,-0.014597155,0.21123263,-0.9842992,0.12706077,-0.12251776,0.09877895,0.9717764,0.21422704,0.14627972,0.19876134,-0.9690696,,-0.45648301746253656,-0.14173531644064244,0.10011506928000001,0.027259692652988166,0.009291281984049951,-0.013947359182320512,-0.014700965952085135,,-1.2806299016011535,-0.18485133407743787,0.16513697568000002,0.003145349152267865,0.0038258219934323326,-0.004426561145748796,-0.0029401931904170266
3.3869150509126484,,-0.031085297,0.1665377,0.13473082,-0.48905197,-0.76892084,-0.41181168,-0.82857645,0.26199874,0.49479067,-0.27256075,0.58319575,-0.76524055,,0.38841656,0.13561535,0.1470806,0.23848306,-0.82318693,0.5152563,-0.97111285,-0.19771379,0.13360061,-0.008105041,-0.5322334,-0.84655875,,0.080616646,-0.014597155,0.21123263,-0.9842992,0.12706077,-0.12251776,0.09877895,0.9717764,0.21422704,0.14627972,0.19876134,-0.9690696,,-0.45648301746253656,-0.14173531644064244,0.10011506928000001,0.027259692652988166,0.009291281984049951,-0.013947359182320512,-0.014700965952085135,,-1.2806299016011535,-0.18485133407743787,0.16513697568000002,0.003145349152267865,0.0038258219934323326,-0.004426561145748796,-0.0029401931904170266
3.409099024021998,,-0.031087376,0.16653867,0.13473274,-0.4890521,-0.7689178,-0.4118172,-0.828576,0.26199466,0.49479342,-0.27256158,0.58320147,-0.76523584,,0.38841656,0.13561535,0.1470806,0.23848306,-0.82318693,0.5152563,-0.97111285,-0.19771379,0.13360061,-0.008105041,-0.5322334,-0.84655875,,0.080616646,-0.014597155,0.21123263,-0.9842992,0.12706077,-0.12251776,0.09877895,0.9717764,0.21422704,0.14627972,0.19876134,-0.9690696,,-0.4564752947296623,-0.14173531644064244,0.10011506928000001,0.027259692652988166,0.009291281984049951,-0.013947359182320512,-0.014700965952085135,,-1.2806299016011535,-0.18485133407743787,0.16513697568000002,0.003145349152267865,0.0038258219934323326,-0.004426561145748796,-0.0029401931904170266
