AlexandreBanks6/ExpertPlaybackApp/resources/Motions/Motion_Best.csv
Time,si_T_psm1,Tx,Ty,Tz,R00,R01,R02,R10,R11,R12,R20,R21,R22,si_T_psm3,Tx,Ty,Tz,R00,R01,R02,R10,R11,R12,R20,R21,R22,si_T_ecm,Tx,Ty,Tz,R00,R01,R02,R10,R11,R12,R20,R21,R22,joint_vars_psm1,q1,q2,q3,q4,q5,q6,jaw,joint_vars_psm3,q1,q2,q3,q4,q5,q6,jaw
lci_T_si
,,-0.0755743,0.07189095,0.6042046,0.99990135,-0.005597647,0.012883592,-0.0023177522,-0.97034514,-0.24171251,0.013854553,0.2416588,-0.97026235
rci_T_si
,,-0.075963154,0.059614297,0.5755947,0.9998657,-0.014221065,0.008145694,-0.012131671,-0.9764204,-0.21553671,0.011018783,0.21540894,-0.97646177
ecm_T_lc
,,0.022782804,0.054864287,-0.33796614,-0.99125,-0.12739496,-0.0345537,0.12872347,-0.990897,-0.03941251,-0.029218202,-0.043515522,0.99862534
ecm_T_rc
,,0.022707665,0.067641795,-0.42994186,-0.99723834,0.02928547,-0.06824988,-0.024871755,-0.9975983,-0.06464576,-0.069979146,-0.06276973,0.9955716
0.04339973500009364,,0.06076224,-0.045408107,0.41521418,-0.6777353,-0.06857678,-0.732101,-0.5326792,0.73213124,0.42454287,0.50688016,0.6777028,-0.53272057,,-0.1433046,0.16713318,0.19000596,0.22135907,-0.91043097,-0.34945056,-0.8974854,-0.3303653,0.29219642,-0.38147098,0.24894632,-0.8902277,,0.07853921,-0.039372213,0.28080145,-0.99089384,0.13448596,-0.006545487,0.12624727,0.94489264,0.30205876,0.04680744,0.29848188,-0.9532667,,-0.19666711537500137,-0.28819694540031027,0.08132534573000001,0.8691648157433535,0.0,0.004492330707730923,-0.00637041857923689,,-1.5558758239713892,0.0006332640956864098,0.13107436335,0.13021745490388964,-0.020905384464112386,1.181050665008705,0.11515756662466692
0.09097709600018788,,0.06076224,-0.045408107,0.41521418,-0.6777353,-0.06857678,-0.732101,-0.5326792,0.73213124,0.42454287,0.50688016,0.6777028,-0.53272057,,-0.1433046,0.16713318,0.19000596,0.22135907,-0.91043097,-0.34945056,-0.8974854,-0.3303653,0.29219642,-0.38147098,0.24894632,-0.8902277,,0.07853921,-0.039372213,0.28080145,-0.99089384,0.13448596,-0.006545487,0.12624727,0.94489264,0.30205876,0.04680744,0.29848188,-0.9532667,,-0.19666711537500137,-0.28819694540031027,0.08132534573000001,0.8691648157433535,0.0,0.004492330707730923,-0.00637041857923689,,-1.5558758239713892,0.0006332640956864098,0.13107436335,0.13021745490388964,-0.020905384464112386,1.181050665008705,0.11515756662466692
0.14076308499988954,,0.06076224,-0.045408107,0.41521418,-0.6777353,-0.06857678,-0.732101,-0.5326792,0.73213124,0.42454287,0.50688016,0.6777028,-0.53272057,,-0.14330956,0.16713193,0.1900065,0.2213584,-0.91042835,-0.34945762,-0.89748544,-0.330367,0.29219425,-0.38147122,0.24895337,-0.8902256,,0.07853921,-0.039372213,0.28080145,-0.99089384,0.13448596,-0.006545487,0.12624727,0.94489264,0.30205876,0.04680744,0.29848188,-0.9532667,,-0.19666711537500137,-0.28819694540031027,0.08132534573000001,0.8691648157433535,0.0,0.004492330707730923,-0.00637041857923689,,-1.5558681012385152,0.0006332640956864098,0.13107436335,0.13021745490388964,-0.020905384464112386,1.181050665008705,0.11515756662466692
0.18662342300012824,,0.06076224,-0.045408107,0.41521418,-0.6777353,-0.06857678,-0.732101,-0.5326792,0.73213124,0.42454287,0.50688016,0.6777028,-0.53272057,,-0.14330956,0.16713193,0.1900065,0.2213584,-0.91042835,-0.34945762,-0.89748544,-0.330367,0.29219425,-0.38147122,0.24895337,-0.8902256,,0.07853921,-0.039372213,0.28080145,-0.99089384,0.13448596,-0.006545487,0.12624727,0.94489264,0.30205876,0.04680744,0.29848188,-0.9532667,,-0.19666711537500137,-0.28819694540031027,0.08132534573000001,0.8691648157433535,0.0,0.004492330707730923,-0.00637041857923689,,-1.5558681012385152,0.0006332640956864098,0.13107436335,0.13021745490388964,-0.020905384464112386,1.181050665008705,0.11515756662466692
0.22040857599995434,,0.06076224,-0.045408107,0.41521418,-0.6777353,-0.06857678,-0.732101,-0.5326792,0.73213124,0.42454287,0.50688016,0.6777028,-0.53272057,,-0.14330956,0.16713193,0.1900065,0.2213584,-0.91042835,-0.34945762,-0.89748544,-0.330367,0.29219425,-0.38147122,0.24895337,-0.8902256,,0.07853921,-0.039372213,0.28080145,-0.99089384,0.13448596,-0.006545487,0.12624727,0.94489264,0.30205876,0.04680744,0.29848188,-0.9532667,,-0.19666711537500137,-0.28819694540031027,0.08132534573000001,0.8691648157433535,0.0,0.004492330707730923,-0.00637041857923689,,-1.5558681012385152,0.0006332640956864098,0.13107436335,0.13021745490388964,-0.020905384464112386,1.181050665008705,0.11515756662466692
0.2521171180001147,,0.06076224,-0.045408107,0.41521418,-0.67772025,-0.06871889,-0.7321017,-0.5328331,0.73201954,0.42454237,0.50673854,0.677809,-0.5327201,,-0.1433046,0.16713318,0.19000596,0.22135907,-0.91043097,-0.34945056,-0.8974854,-0.3303653,0.29219642,-0.38147098,0.24894632,-0.8902277,,0.07853921,-0.039372213,0.28080145,-0.99089384,0.13448596,-0.006545487,0.12624727,0.94489264,0.30205876,0.04680744,0.29848188,-0.9532667,,-0.19666711537500137,-0.28819694540031027,0.08132534573000001,0.8689551257998689,0.0,0.004492330707730923,-0.00637041857923689,,-1.5558758239713892,0.0006332640956864098,0.13107436335,0.13021745490388964,-0.020905384464112386,1.181050665008705,0.11515756662466692
0.2900712589998875,,0.06076224,-0.045408107,0.41521418,-0.67770517,-0.06886101,-0.73210233,-0.532987,0.7319078,0.42454186,0.5065969,0.6779153,-0.5327196,,-0.1433046,0.16713318,0.19000596,0.22135907,-0.91043097,-0.34945056,-0.8974854,-0.3303653,0.29219642,-0.38147098,0.24894632,-0.8902277,,0.07853921,-0.039372213,0.28080145,-0.99089384,0.13448596,-0.006545487,0.12624727,0.94489264,0.30205876,0.04680744,0.29848188,-0.9532667,,-0.19666711537500137,-0.28819694540031027,0.08132534573000001,0.8687454358563844,0.0,0.004492330707730923,-0.00637041857923689,,-1.5558758239713892,0.0006332640956864098,0.13107436335,0.13021745490388964,-0.020905384464112386,1.181050665008705,0.11515756662466692
0.33278049899990947,,0.06076224,-0.045408107,0.41521418,-0.67770517,-0.06886101,-0.73210233,-0.532987,0.7319078,0.42454186,0.5065969,0.6779153,-0.5327196,,-0.14330956,0.16713193,0.1900065,0.2213584,-0.91042835,-0.34945762,-0.89748544,-0.330367,0.29219425,-0.38147122,0.24895337,-0.8902256,,0.07853921,-0.039372213,0.28080145,-0.99089384,0.13448596,-0.006545487,0.12624727,0.94489264,0.30205876,0.04680744,0.29848188,-0.9532667,,-0.19666711537500137,-0.28819694540031027,0.08132534573000001,0.8687454358563844,0.0,0.004492330707730923,-0.00637041857923689,,-1.5558681012385152,0.0006332640956864098,0.13107436335,0.13021745490388964,-0.020905384464112386,1.181050665008705,0.11515756662466692
0.35880652200012264,,0.06076224,-0.045408107,0.41521418,-0.67770517,-0.06886101,-0.73210233,-0.532987,0.7319078,0.42454186,0.5065969,0.6779153,-0.5327196,,-0.14330956,0.16713193,0.1900065,0.2213584,-0.91042835,-0.34945762,-0.89748544,-0.330367,0.29219425,-0.38147122,0.24895337,-0.8902256,,0.07853921,-0.039372213,0.28080145,-0.99089384,0.13448596,-0.006545487,0.12624727,0.94489264,0.30205876,0.04680744,0.29848188,-0.9532667,,-0.19666711537500137,-0.28819694540031027,0.08132534573000001,0.8687454358563844,0.0,0.004492330707730923,-0.00637041857923689,,-1.5558681012385152,0.0006332640956864098,0.13107436335,0.13021745490388964,-0.020905384464112386,1.181050665008705,0.11515756662466692
0.39157825000029334,,0.06076224,-0.045408107,0.41521418,-0.67770517,-0.06886101,-0.73210233,-0.532987,0.7319078,0.42454186,0.5065969,0.6779153,-0.5327196,,-0.1433046,0.16713318,0.19000596,0.22135907,-0.91043097,-0.34945056,-0.8974854,-0.3303653,0.29219642,-0.38147098,0.24894632,-0.8902277,,0.07853921,-0.039372213,0.28080145,-0.99089384,0.13448596,-0.006545487,0.12624727,0.94489264,0.30205876,0.04680744,0.29848188,-0.9532667,,-0.19666711537500137,-0.28819694540031027,0.08132534573000001,0.8687454358563844,0.0,0.004492330707730923,-0.00637041857923689,,-1.5558758239713892,0.0006332640956864098,0.13107436335,0.13021745490388964,-0.020905384464112386,1.181050665008705,0.11515756662466692
0.4404313700001694,,0.060762867,-0.04540818,0.4152133,-0.67771375,-0.06886506,-0.73209393,-0.5329791,0.7319141,0.42454094,0.5065938,0.67790794,-0.5327318,,-0.14330956,0.16713193,0.1900065,0.2213584,-0.91042835,-0.34945762,-0.89748544,-0.330367,0.29219425,-0.38147122,0.24895337,-0.8902256,,0.07853921,-0.039372213,0.28080145,-0.99089384,0.13448596,-0.006545487,0.12624727,0.94489264,0.30205876,0.04680744,0.29848188,-0.9532667,,-0.1966825608407498,-0.28819694540031027,0.08132534573000001,0.8687454358563844,0.0,0.004492330707730923,-0.00637041857923689,,-1.5558681012385152,0.0006332640956864098,0.13107436335,0.13021745490388964,-0.020905384464112386,1.181050665008705,0.11515756662466692
0.5010229660001642,,0.06079426,-0.045421414,0.4152063,-0.6777124,-0.06889788,-0.73209196,-0.5330119,0.7318901,0.42454106,0.50656086,0.6779306,-0.5327344,,-0.14333782,0.1671854,0.19001627,0.2213499,-0.910437,-0.34944004,-0.897475,-0.33036187,0.29223225,-0.38150078,0.24892804,-0.89022,,0.078535855,-0.03937344,0.28080803,-0.9908936,0.13448696,-0.0065453686,0.12624827,0.94489247,0.30205876,0.04680763,0.29848182,-0.9532667,,-0.1966825608407498,-0.28819694540031027,0.08132534573000001,0.8687454358563844,0.0,0.004492330707730923,-0.00637041857923689,,-1.5558758239713892,0.0006332640956864098,0.13107436335,0.13021745490388964,-0.020905384464112386,1.181050665008705,0.11515756662466692
0.5590804220000791,,0.06079426,-0.045421414,0.4152063,-0.6777124,-0.06889788,-0.73209196,-0.5330119,0.7318901,0.42454106,0.50656086,0.6779306,-0.5327344,,-0.14333782,0.1671854,0.19001627,0.2213499,-0.910437,-0.34944004,-0.897475,-0.33036187,0.29223225,-0.38150078,0.24892804,-0.89022,,0.078535855,-0.03937344,0.28080803,-0.9908936,0.13448696,-0.0065453686,0.12624827,0.94489247,0.30205876,0.04680763,0.29848182,-0.9532667,,-0.1966825608407498,-0.28819694540031027,0.08132534573000001,0.8687454358563844,0.0,0.004492330707730923,-0.00637041857923689,,-1.5558758239713892,0.0006332640956864098,0.13107436335,0.13021745490388964,-0.020905384464112386,1.181050665008705,0.11515756662466692
0.6079705300003297,,0.06079426,-0.045421414,0.4152063,-0.6777124,-0.06889788,-0.73209196,-0.5330119,0.7318901,0.42454106,0.50656086,0.6779306,-0.5327344,,-0.14333782,0.1671854,0.19001627,0.2213499,-0.910437,-0.34944004,-0.897475,-0.33036187,0.29223225,-0.38150078,0.24892804,-0.89022,,0.078535855,-0.03937344,0.28080803,-0.9908936,0.13448696,-0.0065453686,0.12624827,0.94489247,0.30205876,0.04680763,0.29848182,-0.9532667,,-0.1966825608407498,-0.28819694540031027,0.08132534573000001,0.8687454358563844,0.0,0.004492330707730923,-0.00637041857923689,,-1.5558758239713892,0.0006332640956864098,0.13107436335,0.13021745490388964,-0.020905384464112386,1.181050665008705,0.11515756662466692
0.6515438720002749,,0.06079426,-0.045421414,0.4152063,-0.6777124,-0.06889788,-0.73209196,-0.5330119,0.7318901,0.42454106,0.50656086,0.6779306,-0.5327344,,-0.14334281,0.16718419,0.19001666,0.22134928,-0.9104344,-0.3494471,-0.897475,-0.33036357,0.29223007,-0.38150096,0.24893513,-0.89021796,,0.078535855,-0.03937344,0.28080803,-0.9908936,0.13448696,-0.0065453686,0.12624827,0.94489247,0.30205876,0.04680763,0.29848182,-0.9532667,,-0.1966825608407498,-0.28819694540031027,0.08132534573000001,0.8687454358563844,0.0,0.004492330707730923,-0.00637041857923689,,-1.5558681012385152,0.0006332640956864098,0.13107436335,0.13021745490388964,-0.020905384464112386,1.181050665008705,0.11515756662466692
0.6839796540002681,,0.06079426,-0.045421414,0.4152063,-0.6777124,-0.06889788,-0.73209196,-0.5330119,0.7318901,0.42454106,0.50656086,0.6779306,-0.5327344,,-0.14334391,0.16718729,0.19001822,0.22135364,-0.910433,-0.34944835,-0.89747167,-0.33036944,0.29223377,-0.38150632,0.24893291,-0.89021635,,0.078535855,-0.03937344,0.28080803,-0.9908936,0.13448696,-0.0065453686,0.12624827,0.94489247,0.30205876,0.04680763,0.29848182,-0.9532667,,-0.1966825608407498,-0.28819694540031027,0.08132534573000001,0.8687454358563844,0.0,0.004492330707730923,-0.00637041857923689,,-1.5558681012385152,0.0006409868285606343,0.13107436335,0.13021745490388964,-0.020905384464112386,1.181050665008705,0.11515756662466692
0.7155813300000773,,0.06079426,-0.045421414,0.4152063,-0.6777124,-0.06889788,-0.73209196,-0.5330119,0.7318901,0.42454106,0.50656086,0.6779306,-0.5327344,,-0.14333782,0.1671854,0.19001627,0.2213499,-0.910437,-0.34944004,-0.897475,-0.33036187,0.29223225,-0.38150078,0.24892804,-0.89022,,0.078535855,-0.03937344,0.28080803,-0.9908936,0.13448696,-0.0065453686,0.12624827,0.94489247,0.30205876,0.04680763,0.29848182,-0.9532667,,-0.1966825608407498,-0.28819694540031027,0.08132534573000001,0.8687454358563844,0.0,0.004492330707730923,-0.00637041857923689,,-1.5558758239713892,0.0006332640956864098,0.13107436335,0.13021745490388964,-0.020905384464112386,1.181050665008705,0.11515756662466692
0.7461013800002547,,0.06079426,-0.045421414,0.4152063,-0.6777124,-0.06889788,-0.73209196,-0.5330119,0.7318901,0.42454106,0.50656086,0.6779306,-0.5327344,,-0.14333782,0.1671854,0.19001627,0.2213499,-0.910437,-0.34944004,-0.897475,-0.33036187,0.29223225,-0.38150078,0.24892804,-0.89022,,0.078535855,-0.03937344,0.28080803,-0.9908936,0.13448696,-0.0065453686,0.12624827,0.94489247,0.30205876,0.04680763,0.29848182,-0.9532667,,-0.1966825608407498,-0.28819694540031027,0.08132534573000001,0.8687454358563844,0.0,0.004492330707730923,-0.00637041857923689,,-1.5558758239713892,0.0006332640956864098,0.13107436335,0.13021745490388964,-0.020905384464112386,1.181050665008705,0.11515756662466692
0.7757892889999312,,0.06079426,-0.045421414,0.4152063,-0.6777124,-0.06889788,-0.73209196,-0.5330119,0.7318901,0.42454106,0.50656086,0.6779306,-0.5327344,,-0.14334391,0.16718729,0.19001822,0.22135364,-0.910433,-0.34944835,-0.89747167,-0.33036944,0.29223377,-0.38150632,0.24893291,-0.89021635,,0.078535855,-0.03937344,0.28080803,-0.9908936,0.13448696,-0.0065453686,0.12624827,0.94489247,0.30205876,0.04680763,0.29848182,-0.9532667,,-0.1966825608407498,-0.28819694540031027,0.08132534573000001,0.8687454358563844,0.0,0.004492330707730923,-0.00637041857923689,,-1.5558681012385152,0.0006409868285606343,0.13107436335,0.13021745490388964,-0.020905384464112386,1.181050665008705,0.11515756662466692
0.8053662430002078,,0.06079426,-0.045421414,0.4152063,-0.6777124,-0.06889788,-0.73209196,-0.5330119,0.7318901,0.42454106,0.50656086,0.6779306,-0.5327344,,-0.14334281,0.16718419,0.19001666,0.22134928,-0.9104344,-0.3494471,-0.897475,-0.33036357,0.29223007,-0.38150096,0.24893513,-0.89021796,,0.078535855,-0.03937344,0.28080803,-0.9908936,0.13448696,-0.0065453686,0.12624827,0.94489247,0.30205876,0.04680763,0.29848182,-0.9532667,,-0.1966825608407498,-0.28819694540031027,0.08132534573000001,0.8687454358563844,0.0,0.004492330707730923,-0.00637041857923689,,-1.5558681012385152,0.0006332640956864098,0.13107436335,0.13021745490388964,-0.020905384464112386,1.181050665008705,0.11515756662466692
0.8384457840002142,,0.06079426,-0.045421414,0.4152063,-0.67774266,-0.068613656,-0.7320908,-0.5327041,0.7321135,0.42454207,0.5068441,0.67771816,-0.53273535,,-0.14333782,0.1671854,0.19001627,0.2213499,-0.910437,-0.34944004,-0.897475,-0.33036187,0.29223225,-0.38150078,0.24892804,-0.89022,,0.078535855,-0.03937344,0.28080803,-0.9908936,0.13448696,-0.0065453686,0.12624827,0.94489247,0.30205876,0.04680763,0.29848182,-0.9532667,,-0.1966825608407498,-0.28819694540031027,0.08132534573000001,0.8691648157433535,0.0,0.004492330707730923,-0.00637041857923689,,-1.5558758239713892,0.0006332640956864098,0.13107436335,0.13021745490388964,-0.020905384464112386,1.181050665008705,0.11515756662466692
0.8675892000001113,,0.06079426,-0.045421414,0.4152063,-0.67774266,-0.068613656,-0.7320908,-0.5327041,0.7321135,0.42454207,0.5068441,0.67771816,-0.53273535,,-0.14333782,0.1671854,0.19001627,0.2213499,-0.910437,-0.34944004,-0.897475,-0.33036187,0.29223225,-0.38150078,0.24892804,-0.89022,,0.078535855,-0.03937344,0.28080803,-0.9908936,0.13448696,-0.0065453686,0.12624827,0.94489247,0.30205876,0.04680763,0.29848182,-0.9532667,,-0.1966825608407498,-0.28819694540031027,0.08132534573000001,0.8691648157433535,0.0,0.004492330707730923,-0.00637041857923689,,-1.5558758239713892,0.0006332640956864098,0.13107436335,0.13021745490388964,-0.020905384464112386,1.181050665008705,0.11515756662466692
0.901442906000284,,0.06079426,-0.045421414,0.4152063,-0.67774266,-0.068613656,-0.7320908,-0.5327041,0.7321135,0.42454207,0.5068441,0.67771816,-0.53273535,,-0.14333892,0.1671885,0.19001776,0.22135432,-0.91043556,-0.34944123,-0.8974716,-0.3303677,0.29223597,-0.38150612,0.24892583,-0.89021844,,0.078535855,-0.03937344,0.28080803,-0.9908936,0.13448696,-0.0065453686,0.12624827,0.94489247,0.30205876,0.04680763,0.29848182,-0.9532667,,-0.1966825608407498,-0.28819694540031027,0.08132534573000001,0.8691648157433535,0.0,0.004492330707730923,-0.00637041857923689,,-1.5558758239713892,0.0006409868285606343,0.13107436335,0.13021745490388964,-0.020905384464112386,1.181050665008705,0.11515756662466692
0.9636766349999561,,0.06079426,-0.045421414,0.4152063,-0.67774266,-0.068613656,-0.7320908,-0.5327041,0.7321135,0.42454207,0.5068441,0.67771816,-0.53273535,,-0.14334281,0.16718419,0.19001666,0.22134928,-0.9104344,-0.3494471,-0.897475,-0.33036357,0.29223007,-0.38150096,0.24893513,-0.89021796,,0.078535855,-0.03937344,0.28080803,-0.9908936,0.13448696,-0.0065453686,0.12624827,0.94489247,0.30205876,0.04680763,0.29848182,-0.9532667,,-0.1966825608407498,-0.28819694540031027,0.08132534573000001,0.8691648157433535,0.0,0.004492330707730923,-0.00637041857923689,,-1.5558681012385152,0.0006332640956864098,0.13107436335,0.13021745490388964,-0.020905384464112386,1.181050665008705,0.11515756662466692
1.0215314740003123,,0.06079426,-0.045421414,0.4152063,-0.67774266,-0.068613656,-0.7320908,-0.5327041,0.7321135,0.42454207,0.5068441,0.67771816,-0.53273535,,-0.14333892,0.1671885,0.19001776,0.22135432,-0.91043556,-0.34944123,-0.8974716,-0.3303677,0.29223597,-0.38150612,0.24892583,-0.89021844,,0.078535855,-0.03937344,0.28080803,-0.9908936,0.13448696,-0.0065453686,0.12624827,0.94489247,0.30205876,0.04680763,0.29848182,-0.9532667,,-0.1966825608407498,-0.28819694540031027,0.08132534573000001,0.8691648157433535,0.0,0.004492330707730923,-0.00637041857923689,,-1.5558758239713892,0.0006409868285606343,0.13107436335,0.13021745490388964,-0.020905384464112386,1.181050665008705,0.11515756662466692
1.0869155190002857,,0.06079426,-0.045421414,0.4152063,-0.67774266,-0.068613656,-0.7320908,-0.5327041,0.7321135,0.42454207,0.5068441,0.67771816,-0.53273535,,-0.14333782,0.1671854,0.19001627,0.2213499,-0.910437,-0.34944004,-0.897475,-0.33036187,0.29223225,-0.38150078,0.24892804,-0.89022,,0.078535855,-0.03937344,0.28080803,-0.9908936,0.13448696,-0.0065453686,0.12624827,0.94489247,0.30205876,0.04680763,0.29848182,-0.9532667,,-0.1966825608407498,-0.28819694540031027,0.08132534573000001,0.8691648157433535,0.0,0.004492330707730923,-0.00637041857923689,,-1.5558758239713892,0.0006332640956864098,0.13107436335,0.13021745490388964,-0.020905384464112386,1.181050665008705,0.11515756662466692
1.13580150100006,,0.06079426,-0.045421414,0.4152063,-0.67774266,-0.068613656,-0.7320908,-0.5327041,0.7321135,0.42454207,0.5068441,0.67771816,-0.53273535,,-0.14334281,0.16718419,0.19001666,0.22134928,-0.9104344,-0.3494471,-0.897475,-0.33036357,0.29223007,-0.38150096,0.24893513,-0.89021796,,0.078535855,-0.03937344,0.28080803,-0.9908936,0.13448696,-0.0065453686,0.12624827,0.94489247,0.30205876,0.04680763,0.29848182,-0.9532667,,-0.1966825608407498,-0.28819694540031027,0.08132534573000001,0.8691648157433535,0.0,0.004492330707730923,-0.00637041857923689,,-1.5558681012385152,0.0006332640956864098,0.13107436335,0.13021745490388964,-0.020905384464112386,1.181050665008705,0.11515756662466692
1.1655546310003047,,0.06079426,-0.045421414,0.4152063,-0.67774266,-0.068613656,-0.7320908,-0.5327041,0.7321135,0.42454207,0.5068441,0.67771816,-0.53273535,,-0.14334281,0.16718419,0.19001666,0.22134928,-0.9104344,-0.3494471,-0.897475,-0.33036357,0.29223007,-0.38150096,0.24893513,-0.89021796,,0.078535855,-0.03937344,0.28080803,-0.9908936,0.13448696,-0.0065453686,0.12624827,0.94489247,0.30205876,0.04680763,0.29848182,-0.9532667,,-0.1966825608407498,-0.28819694540031027,0.08132534573000001,0.8691648157433535,0.0,0.004492330707730923,-0.00637041857923689,,-1.5558681012385152,0.0006332640956864098,0.13107436335,0.13021745490388964,-0.020905384464112386,1.181050665008705,0.11515756662466692
1.2046832500000164,,0.06079364,-0.04542134,0.4152072,-0.6777341,-0.06860961,-0.732099,-0.53271216,0.73210716,0.42454302,0.5068472,0.67772543,-0.5327231,,-0.14333782,0.1671854,0.19001627,0.2213499,-0.910437,-0.34944004,-0.897475,-0.33036187,0.29223225,-0.38150078,0.24892804,-0.89022,,0.078535855,-0.03937344,0.28080803,-0.9908936,0.13448696,-0.0065453686,0.12624827,0.94489247,0.30205876,0.04680763,0.29848182,-0.9532667,,-0.19666711537500137,-0.28819694540031027,0.08132534573000001,0.8691648157433535,0.0,0.004492330707730923,-0.00637041857923689,,-1.5558758239713892,0.0006332640956864098,0.13107436335,0.13021745490388964,-0.020905384464112386,1.181050665008705,0.11515756662466692
1.241811233000135,,0.06079395,-0.045421377,0.41520673,-0.6777383,-0.06861162,-0.7320949,-0.53270817,0.7321104,0.42454255,0.50684565,0.67772174,-0.5327292,,-0.14333782,0.1671854,0.19001627,0.2213499,-0.910437,-0.34944004,-0.897475,-0.33036187,0.29223225,-0.38150078,0.24892804,-0.89022,,0.078535855,-0.03937344,0.28080803,-0.9908936,0.13448696,-0.0065453686,0.12624827,0.94489247,0.30205876,0.04680763,0.29848182,-0.9532667,,-0.1966748381078756,-0.28819694540031027,0.08132534573000001,0.8691648157433535,0.0,0.004492330707730923,-0.00637041857923689,,-1.5558758239713892,0.0006332640956864098,0.13107436335,0.13021745490388964,-0.020905384464112386,1.181050665008705,0.11515756662466692
1.2754646960001992,,0.06079426,-0.045421414,0.4152063,-0.67774266,-0.068613656,-0.7320908,-0.5327041,0.7321135,0.42454207,0.5068441,0.67771816,-0.53273535,,-0.14333892,0.1671885,0.19001776,0.22135432,-0.91043556,-0.34944123,-0.8974716,-0.3303677,0.29223597,-0.38150612,0.24892583,-0.89021844,,0.078535855,-0.03937344,0.28080803,-0.9908936,0.13448696,-0.0065453686,0.12624827,0.94489247,0.30205876,0.04680763,0.29848182,-0.9532667,,-0.1966825608407498,-0.28819694540031027,0.08132534573000001,0.8691648157433535,0.0,0.004492330707730923,-0.00637041857923689,,-1.5558758239713892,0.0006409868285606343,0.13107436335,0.13021745490388964,-0.020905384464112386,1.181050665008705,0.11515756662466692
1.3087708650000422,,0.06079426,-0.045421414,0.4152063,-0.67774266,-0.068613656,-0.7320908,-0.5327041,0.7321135,0.42454207,0.5068441,0.67771816,-0.53273535,,-0.14334281,0.16718419,0.19001666,0.22134928,-0.9104344,-0.3494471,-0.897475,-0.33036357,0.29223007,-0.38150096,0.24893513,-0.89021796,,0.078535855,-0.03937344,0.28080803,-0.9908936,0.13448696,-0.0065453686,0.12624827,0.94489247,0.30205876,0.04680763,0.29848182,-0.9532667,,-0.1966748381078756,-0.28819694540031027,0.08132534573000001,0.8691648157433535,0.0,0.004492330707730923,-0.00637041857923689,,-1.5558681012385152,0.0006332640956864098,0.13107436335,0.13021745490388964,-0.020905384464112386,1.181050665008705,0.11515756662466692
1.3468926499999725,,0.06079364,-0.04542134,0.4152072,-0.6777341,-0.06860961,-0.732099,-0.53271216,0.73210716,0.42454302,0.5068472,0.67772543,-0.5327231,,-0.14334281,0.16718419,0.19001666,0.22134928,-0.9104344,-0.3494471,-0.897475,-0.33036357,0.29223007,-0.38150096,0.24893513,-0.89021796,,0.078535855,-0.03937344,0.28080803,-0.9908936,0.13448696,-0.0065453686,0.12624827,0.94489247,0.30205876,0.04680763,0.29848182,-0.9532667,,-0.19666711537500137,-0.28819694540031027,0.08132534573000001,0.8691648157433535,0.0,0.004492330707730923,-0.00637041857923689,,-1.5558681012385152,0.0006332640956864098,0.13107436335,0.13021745490388964,-0.020905384464112386,1.181050665008705,0.11515756662466692
1.3864444850000837,,0.06079395,-0.045421377,0.41520673,-0.6777383,-0.06861162,-0.7320949,-0.53270817,0.7321104,0.42454255,0.50684565,0.67772174,-0.5327292,,-0.14333782,0.1671854,0.19001627,0.2213499,-0.910437,-0.34944004,-0.897475,-0.33036187,0.29223225,-0.38150078,0.24892804,-0.89022,,0.078535855,-0.03937344,0.28080803,-0.9908936,0.13448696,-0.0065453686,0.12624827,0.94489247,0.30205876,0.04680763,0.29848182,-0.9532667,,-0.1966748381078756,-0.28819694540031027,0.08132534573000001,0.8691648157433535,0.0,0.004492330707730923,-0.00637041857923689,,-1.5558758239713892,0.0006332640956864098,0.13107436335,0.13021745490388964,-0.020905384464112386,1.181050665008705,0.11515756662466692
1.4282936710001195,,0.06079426,-0.045421414,0.4152063,-0.67774266,-0.068613656,-0.7320908,-0.5327041,0.7321135,0.42454207,0.5068441,0.67771816,-0.53273535,,-0.14333782,0.1671854,0.19001627,0.2213499,-0.910437,-0.34944004,-0.897475,-0.33036187,0.29223225,-0.38150078,0.24892804,-0.89022,,0.078535855,-0.03937344,0.28080803,-0.9908936,0.13448696,-0.0065453686,0.12624827,0.94489247,0.30205876,0.04680763,0.29848182,-0.9532667,,-0.1966825608407498,-0.28819694540031027,0.08132534573000001,0.8691648157433535,0.0,0.004492330707730923,-0.00637041857923689,,-1.5558758239713892,0.0006332640956864098,0.13107436335,0.13021745490388964,-0.020905384464112386,1.181050665008705,0.11515756662466692
1.504068806000305,,0.06079426,-0.045421414,0.4152063,-0.6777124,-0.06889788,-0.73209196,-0.5330119,0.7318901,0.42454106,0.50656086,0.6779306,-0.5327344,,-0.14333782,0.1671854,0.19001627,0.2213499,-0.910437,-0.34944004,-0.897475,-0.33036187,0.29223225,-0.38150078,0.24892804,-0.89022,,0.078535855,-0.03937344,0.28080803,-0.9908936,0.13448696,-0.0065453686,0.12624827,0.94489247,0.30205876,0.04680763,0.29848182,-0.9532667,,-0.1966825608407498,-0.28819694540031027,0.08132534573000001,0.8687454358563844,0.0,0.004492330707730923,-0.00637041857923689,,-1.5558758239713892,0.0006332640956864098,0.13107436335,0.13021745490388964,-0.020905384464112386,1.181050665008705,0.11515756662466692
1.554527390000203,,0.06079426,-0.045421414,0.4152063,-0.6777124,-0.06889788,-0.73209196,-0.5330119,0.7318901,0.42454106,0.50656086,0.6779306,-0.5327344,,-0.14333782,0.1671854,0.19001627,0.2213499,-0.910437,-0.34944004,-0.897475,-0.33036187,0.29223225,-0.38150078,0.24892804,-0.89022,,0.078535855,-0.03937344,0.28080803,-0.9908936,0.13448696,-0.0065453686,0.12624827,0.94489247,0.30205876,0.04680763,0.29848182,-0.9532667,,-0.1966825608407498,-0.28819694540031027,0.08132534573000001,0.8687454358563844,0.0,0.004492330707730923,-0.00637041857923689,,-1.5558758239713892,0.0006332640956864098,0.13107436335,0.13021745490388964,-0.020905384464112386,1.181050665008705,0.11515756662466692
1.6034033680002722,,0.06082228,-0.045433927,0.415201,-0.67772,-0.06893082,-0.732082,-0.53301066,0.73190516,0.4245168,0.5065522,0.67791104,-0.53276753,,-0.14331323,0.16717136,0.18999963,0.22137955,-0.91042846,-0.34944418,-0.8974567,-0.3303972,0.29224834,-0.38152656,0.24891317,-0.8902132,,0.07856212,-0.03938345,0.2808064,-0.9908981,0.13445473,-0.006549135,0.12621643,0.9448967,0.30205894,0.046801507,0.29848307,-0.9532666,,-0.1966825608407498,-0.28819694540031027,0.08132534573000001,0.8687454358563844,0.0,0.004492330707730923,-0.00637041857923689,,-1.5558681012385152,0.0006332640956864098,0.13107436335,0.13021745490388964,-0.020905384464112386,1.181050665008705,0.11515756662466692
1.63947829000017,,0.06082228,-0.045433927,0.415201,-0.67772,-0.06893082,-0.732082,-0.53301066,0.73190516,0.4245168,0.5065522,0.67791104,-0.53276753,,-0.14330822,0.16717255,0.18999916,0.22138017,-0.910431,-0.34943703,-0.89745665,-0.33039546,0.2922505,-0.38152638,0.24890605,-0.89021534,,0.07856212,-0.03938345,0.2808064,-0.9908981,0.13445473,-0.006549135,0.12621643,0.9448967,0.30205894,0.046801507,0.29848307,-0.9532666,,-0.1966825608407498,-0.28819694540031027,0.08132534573000001,0.8687454358563844,0.0,0.004492330707730923,-0.00637041857923689,,-1.5558758239713892,0.0006332640956864098,0.13107436335,0.13021745490388964,-0.020905384464112386,1.181050665008705,0.11515756662466692
1.668782590000319,,0.06082228,-0.045433927,0.415201,-0.67772,-0.06893082,-0.732082,-0.53301066,0.73190516,0.4245168,0.5065522,0.67791104,-0.53276753,,-0.14330822,0.16717255,0.18999916,0.22138017,-0.910431,-0.34943703,-0.89745665,-0.33039546,0.2922505,-0.38152638,0.24890605,-0.89021534,,0.07856212,-0.03938345,0.2808064,-0.9908981,0.13445473,-0.006549135,0.12621643,0.9448967,0.30205894,0.046801507,0.29848307,-0.9532666,,-0.1966825608407498,-0.28819694540031027,0.08132534573000001,0.8687454358563844,0.0,0.004492330707730923,-0.00637041857923689,,-1.5558758239713892,0.0006332640956864098,0.13107436335,0.13021745490388964,-0.020905384464112386,1.181050665008705,0.11515756662466692
1.701046880999911,,0.06082228,-0.045433927,0.415201,-0.67772,-0.06893082,-0.732082,-0.53301066,0.73190516,0.4245168,0.5065522,0.67791104,-0.53276753,,-0.14331323,0.16717136,0.18999963,0.22137955,-0.91042846,-0.34944418,-0.8974567,-0.3303972,0.29224834,-0.38152656,0.24891317,-0.8902132,,0.07856212,-0.03938345,0.2808064,-0.9908981,0.13445473,-0.006549135,0.12621643,0.9448967,0.30205894,0.046801507,0.29848307,-0.9532666,,-0.1966825608407498,-0.28819694540031027,0.08132534573000001,0.8687454358563844,0.0,0.004492330707730923,-0.00637041857923689,,-1.5558681012385152,0.0006332640956864098,0.13107436335,0.13021745490388964,-0.020905384464112386,1.181050665008705,0.11515756662466692
1.725269715000195,,0.060823336,-0.045432527,0.41520065,-0.6779113,-0.06909067,-0.7318898,-0.5329035,0.7319927,0.4245003,0.50640893,0.6778002,-0.53304476,,-0.14330822,0.16717255,0.18999916,0.22138017,-0.910431,-0.34943703,-0.89745665,-0.33039546,0.2922505,-0.38152638,0.24890605,-0.89021534,,0.07856212,-0.03938345,0.2808064,-0.9908981,0.13445473,-0.006549135,0.12621643,0.9448967,0.30205894,0.046801507,0.29848307,-0.9532666,,-0.19666711537500137,-0.28819694540031027,0.08132534573000001,0.8687454358563844,0.0002732729995308809,0.00426949490033808,-0.00637041857923689,,-1.5558681012385152,0.0006332640956864098,0.13107436335,0.13021745490388964,-0.020905384464112386,1.181050665008705,0.11515756662466692
1.758131732000038,,0.060823336,-0.045432527,0.41520065,-0.6779113,-0.0690309,-0.7318954,-0.5329035,0.731958,0.42456007,0.50640893,0.6778437,-0.5329894,,-0.14331323,0.16717136,0.18999963,0.22137955,-0.91042846,-0.34944418,-0.8974567,-0.3303972,0.29224834,-0.38152656,0.24891317,-0.8902132,,0.07856212,-0.03938345,0.2808064,-0.9908981,0.13445473,-0.006549135,0.12621643,0.9448967,0.30205894,0.046801507,0.29848307,-0.9532666,,-0.19666711537500137,-0.28819694540031027,0.08132534573000001,0.8687454358563844,0.0002732729995308809,0.004351173640478642,-0.00653376264537117,,-1.5558681012385152,0.0006332640956864098,0.13107436335,0.13021745490388964,-0.020905384464112386,1.181050665008705,0.11515756662466692
1.7866380230002505,,0.060823336,-0.045432527,0.41520065,-0.6779113,-0.06897113,-0.7319011,-0.5329035,0.7319234,0.42461985,0.50640893,0.6778873,-0.53293407,,-0.14331323,0.16717136,0.18999963,0.22137955,-0.91042846,-0.34944418,-0.8974567,-0.3303972,0.29224834,-0.38152656,0.24891317,-0.8902132,,0.07856212,-0.03938345,0.2808064,-0.9908981,0.13445473,-0.006549135,0.12621643,0.9448967,0.30205894,0.046801507,0.29848307,-0.9532666,,-0.19666711537500137,-0.28819694540031027,0.08132534573000001,0.8687454358563844,0.0002732729995308809,0.004432852380619205,-0.00637041857923689,,-1.5558681012385152,0.0006332640956864098,0.13107436335,0.13021745490388964,-0.020905384464112386,1.181050665008705,0.11515756662466692
1.8171165730000212,,0.060823336,-0.045432527,0.41520065,-0.6779113,-0.06897113,-0.7319011,-0.5329035,0.7319234,0.42461985,0.50640893,0.6778873,-0.53293407,,-0.14330822,0.16717255,0.18999916,0.22138017,-0.910431,-0.34943703,-0.89745665,-0.33039546,0.2922505,-0.38152638,0.24890605,-0.89021534,,0.07856212,-0.03938345,0.2808064,-0.9908981,0.13445473,-0.006549135,0.12621643,0.9448967,0.30205894,0.046801507,0.29848307,-0.9532666,,-0.19666711537500137,-0.28819694540031027,0.08132534573000001,0.8687454358563844,0.0002732729995308809,0.004432852380619205,-0.00637041857923689,,-1.5558758239713892,0.0006332640956864098,0.13107436335,0.13021745490388964,-0.020905384464112386,1.181050665008705,0.11515756662466692
1.8475978219998979,,0.060823336,-0.045432527,0.41520065,-0.6779113,-0.06897113,-0.7319011,-0.5329035,0.7319234,0.42461985,0.50640893,0.6778873,-0.53293407,,-0.14330822,0.16717255,0.18999916,0.22138017,-0.910431,-0.34943703,-0.89745665,-0.33039546,0.2922505,-0.38152638,0.24890605,-0.89021534,,0.07856212,-0.03938345,0.2808064,-0.9908981,0.13445473,-0.006549135,0.12621643,0.9448967,0.30205894,0.046801507,0.29848307,-0.9532666,,-0.19666711537500137,-0.28819694540031027,0.08132534573000001,0.8687454358563844,0.0002732729995308809,0.004432852380619205,-0.00637041857923689,,-1.5558758239713892,0.0006332640956864098,0.13107436335,0.13021745490388964,-0.020905384464112386,1.181050665008705,0.11515756662466692
1.8890298209998946,,0.060823336,-0.045432527,0.41520065,-0.6779113,-0.06897113,-0.7319011,-0.5329035,0.7319234,0.42461985,0.50640893,0.6778873,-0.53293407,,-0.14331323,0.16717136,0.18999963,0.22137955,-0.91042846,-0.34944418,-0.8974567,-0.3303972,0.29224834,-0.38152656,0.24891317,-0.8902132,,0.07856212,-0.03938345,0.2808064,-0.9908981,0.13445473,-0.006549135,0.12621643,0.9448967,0.30205894,0.046801507,0.29848307,-0.9532666,,-0.19666711537500137,-0.28819694540031027,0.08132534573000001,0.8687454358563844,0.0002732729995308809,0.004432852380619205,-0.00637041857923689,,-1.5558681012385152,0.0006332640956864098,0.13107436335,0.13021745490388964,-0.020905384464112386,1.181050665008705,0.11515756662466692
1.9373137120001047,,0.060823962,-0.0454326,0.41519973,-0.67791986,-0.06897519,-0.73189276,-0.5328955,0.7319297,0.4246189,0.50640583,0.67788,-0.5329462,,-0.14331323,0.16717136,0.18999963,0.22137955,-0.91042846,-0.34944418,-0.8974567,-0.3303972,0.29224834,-0.38152656,0.24891317,-0.8902132,,0.07856212,-0.03938345,0.2808064,-0.9908981,0.13445473,-0.006549135,0.12621643,0.9448967,0.30205894,0.046801507,0.29848307,-0.9532666,,-0.1966825608407498,-0.28819694540031027,0.08132534573000001,0.8687454358563844,0.0002732729995308809,0.004432852380619205,-0.00637041857923689,,-1.5558681012385152,0.0006332640956864098,0.13107436335,0.13021745490388964,-0.020905384464112386,1.181050665008705,0.11515756662466692
2.004738619999898,,0.060823962,-0.0454326,0.41519973,-0.67791986,-0.06897519,-0.73189276,-0.5328955,0.7319297,0.4246189,0.50640583,0.67788,-0.5329462,,-0.14330822,0.16717255,0.18999916,0.22138017,-0.910431,-0.34943703,-0.89745665,-0.33039546,0.2922505,-0.38152638,0.24890605,-0.89021534,,0.07856212,-0.03938345,0.2808064,-0.9908981,0.13445473,-0.006549135,0.12621643,0.9448967,0.30205894,0.046801507,0.29848307,-0.9532666,,-0.1966825608407498,-0.28819694540031027,0.08132534573000001,0.8687454358563844,0.0002732729995308809,0.004432852380619205,-0.00637041857923689,,-1.5558758239713892,0.0006332640956864098,0.13107436335,0.13021745490388964,-0.020905384464112386,1.181050665008705,0.11515756662466692
2.0620808930002568,,0.060823962,-0.0454326,0.41519973,-0.677935,-0.06883306,-0.7318921,-0.5327416,0.7320415,0.42461938,0.5065474,0.6777737,-0.53294677,,-0.14331323,0.16717136,0.18999963,0.22137955,-0.91042846,-0.34944418,-0.8974567,-0.3303972,0.29224834,-0.38152656,0.24891317,-0.8902132,,0.07856212,-0.03938345,0.2808064,-0.9908981,0.13445473,-0.006549135,0.12621643,0.9448967,0.30205894,0.046801507,0.29848307,-0.9532666,,-0.1966825608407498,-0.28819694540031027,0.08132534573000001,0.8689551257998689,0.0002732729995308809,0.004432852380619205,-0.00637041857923689,,-1.5558681012385152,0.0006332640956864098,0.13107436335,0.13021745490388964,-0.020905384464112386,1.181050665008705,0.11515756662466692
2.1124791000002006,,0.060823962,-0.0454326,0.41519973,-0.6779501,-0.06869097,-0.7318915,-0.5325877,0.7321532,0.4246198,0.5066891,0.6776675,-0.53294724,,-0.14330822,0.16717255,0.18999916,0.22138017,-0.910431,-0.34943703,-0.89745665,-0.33039546,0.2922505,-0.38152638,0.24890605,-0.89021534,,0.07856212,-0.03938345,0.2808064,-0.9908981,0.13445473,-0.006549135,0.12621643,0.9448967,0.30205894,0.046801507,0.29848307,-0.9532666,,-0.1966825608407498,-0.28819694540031027,0.08132534573000001,0.8691648157433535,0.0002732729995308809,0.004432852380619205,-0.00637041857923689,,-1.5558758239713892,0.0006332640956864098,0.13107436335,0.13021745490388964,-0.020905384464112386,1.181050665008705,0.11515756662466692
2.139278022000326,,0.060823962,-0.0454326,0.41519973,-0.6779501,-0.06869097,-0.7318915,-0.5325877,0.7321532,0.4246198,0.5066891,0.6776675,-0.53294724,,-0.14331323,0.16717136,0.18999963,0.22137955,-0.91042846,-0.34944418,-0.8974567,-0.3303972,0.29224834,-0.38152656,0.24891317,-0.8902132,,0.07856212,-0.03938345,0.2808064,-0.9908981,0.13445473,-0.006549135,0.12621643,0.9448967,0.30205894,0.046801507,0.29848307,-0.9532666,,-0.1966825608407498,-0.28819694540031027,0.08132534573000001,0.8691648157433535,0.0002732729995308809,0.004432852380619205,-0.00637041857923689,,-1.5558681012385152,0.0006332640956864098,0.13107436335,0.13021745490388964,-0.020905384464112386,1.181050665008705,0.11515756662466692
2.1736992149999423,,0.060823962,-0.0454326,0.41519973,-0.6779501,-0.06869097,-0.7318915,-0.5325877,0.7321532,0.4246198,0.5066891,0.6776675,-0.53294724,,-0.14330822,0.16717255,0.18999916,0.22138017,-0.910431,-0.34943703,-0.89745665,-0.33039546,0.2922505,-0.38152638,0.24890605,-0.89021534,,0.07856212,-0.03938345,0.2808064,-0.9908981,0.13445473,-0.006549135,0.12621643,0.9448967,0.30205894,0.046801507,0.29848307,-0.9532666,,-0.1966825608407498,-0.28819694540031027,0.08132534573000001,0.8691648157433535,0.0002732729995308809,0.004432852380619205,-0.00637041857923689,,-1.5558758239713892,0.0006332640956864098,0.13107436335,0.13021745490388964,-0.020905384464112386,1.181050665008705,0.11515756662466692
2.201692693000041,,0.060823962,-0.0454326,0.41519973,-0.6779501,-0.06869097,-0.7318915,-0.5325877,0.7321532,0.4246198,0.5066891,0.6776675,-0.53294724,,-0.14331323,0.16717136,0.18999963,0.22137955,-0.91042846,-0.34944418,-0.8974567,-0.3303972,0.29224834,-0.38152656,0.24891317,-0.8902132,,0.07856212,-0.03938345,0.2808064,-0.9908981,0.13445473,-0.006549135,0.12621643,0.9448967,0.30205894,0.046801507,0.29848307,-0.9532666,,-0.1966825608407498,-0.28819694540031027,0.08132534573000001,0.8691648157433535,0.0002732729995308809,0.004432852380619205,-0.00637041857923689,,-1.5558681012385152,0.0006332640956864098,0.13107436335,0.13021745490388964,-0.020905384464112386,1.181050665008705,0.11515756662466692
2.2256584490000932,,0.060823962,-0.0454326,0.41519973,-0.6779501,-0.06869097,-0.7318915,-0.5325877,0.7321532,0.4246198,0.5066891,0.6776675,-0.53294724,,-0.14330822,0.16717255,0.18999916,0.22138017,-0.910431,-0.34943703,-0.89745665,-0.33039546,0.2922505,-0.38152638,0.24890605,-0.89021534,,0.07856212,-0.03938345,0.2808064,-0.9908981,0.13445473,-0.006549135,0.12621643,0.9448967,0.30205894,0.046801507,0.29848307,-0.9532666,,-0.1966825608407498,-0.28819694540031027,0.08132534573000001,0.8691648157433535,0.0002732729995308809,0.004432852380619205,-0.00637041857923689,,-1.5558758239713892,0.0006332640956864098,0.13107436335,0.13021745490388964,-0.020905384464112386,1.181050665008705,0.11515756662466692
2.2562977400002637,,0.060823962,-0.0454326,0.41519973,-0.6779501,-0.06869097,-0.7318915,-0.5325877,0.7321532,0.4246198,0.5066891,0.6776675,-0.53294724,,-0.14331323,0.16717136,0.18999963,0.22137955,-0.91042846,-0.34944418,-0.8974567,-0.3303972,0.29224834,-0.38152656,0.24891317,-0.8902132,,0.07856212,-0.03938345,0.2808064,-0.9908981,0.13445473,-0.006549135,0.12621643,0.9448967,0.30205894,0.046801507,0.29848307,-0.9532666,,-0.1966825608407498,-0.28819694540031027,0.08132534573000001,0.8691648157433535,0.0002732729995308809,0.004432852380619205,-0.00637041857923689,,-1.5558681012385152,0.0006332640956864098,0.13107436335,0.13021745490388964,-0.020905384464112386,1.181050665008705,0.11515756662466692
2.288647932999993,,0.060823962,-0.0454326,0.41519973,-0.6779501,-0.06869097,-0.7318915,-0.5325877,0.7321532,0.4246198,0.5066891,0.6776675,-0.53294724,,-0.14331323,0.16717136,0.18999963,0.22137955,-0.91042846,-0.34944418,-0.8974567,-0.3303972,0.29224834,-0.38152656,0.24891317,-0.8902132,,0.07856212,-0.03938345,0.2808064,-0.9908981,0.13445473,-0.006549135,0.12621643,0.9448967,0.30205894,0.046801507,0.29848307,-0.9532666,,-0.1966825608407498,-0.28819694540031027,0.08132534573000001,0.8691648157433535,0.0002732729995308809,0.004432852380619205,-0.00637041857923689,,-1.5558681012385152,0.0006332640956864098,0.13107436335,0.13021745490388964,-0.020905384464112386,1.181050665008705,0.11515756662466692
2.318579047000185,,0.060823962,-0.0454326,0.41519973,-0.6779501,-0.06869097,-0.7318915,-0.5325877,0.7321532,0.4246198,0.5066891,0.6776675,-0.53294724,,-0.14331323,0.16717136,0.18999963,0.22137955,-0.91042846,-0.34944418,-0.8974567,-0.3303972,0.29224834,-0.38152656,0.24891317,-0.8902132,,0.07856212,-0.03938345,0.2808064,-0.9908981,0.13445473,-0.006549135,0.12621643,0.9448967,0.30205894,0.046801507,0.29848307,-0.9532666,,-0.1966825608407498,-0.28819694540031027,0.08132534573000001,0.8691648157433535,0.0002732729995308809,0.004432852380619205,-0.00637041857923689,,-1.5558681012385152,0.0006332640956864098,0.13107436335,0.13021745490388964,-0.020905384464112386,1.181050665008705,0.11515756662466692
2.3523199670003123,,0.060823962,-0.0454326,0.41519973,-0.6779501,-0.06869097,-0.7318915,-0.5325877,0.7321532,0.4246198,0.5066891,0.6776675,-0.53294724,,-0.14330822,0.16717255,0.18999916,0.22138017,-0.910431,-0.34943703,-0.89745665,-0.33039546,0.2922505,-0.38152638,0.24890605,-0.89021534,,0.07856212,-0.03938345,0.2808064,-0.9908981,0.13445473,-0.006549135,0.12621643,0.9448967,0.30205894,0.046801507,0.29848307,-0.9532666,,-0.1966825608407498,-0.28819694540031027,0.08132534573000001,0.8691648157433535,0.0002732729995308809,0.004432852380619205,-0.00637041857923689,,-1.5558758239713892,0.0006332640956864098,0.13107436335,0.13021745490388964,-0.020905384464112386,1.181050665008705,0.11515756662466692
2.4058289100003094,,0.060823962,-0.0454326,0.41519973,-0.6779501,-0.06869097,-0.7318915,-0.5325877,0.7321532,0.4246198,0.5066891,0.6776675,-0.53294724,,-0.1433093,0.16717565,0.19000071,0.22138463,-0.91042954,-0.34943828,-0.89745325,-0.3304013,0.2922542,-0.38153175,0.24890386,-0.89021355,,0.07856212,-0.03938345,0.2808064,-0.9908981,0.13445473,-0.006549135,0.12621643,0.9448967,0.30205894,0.046801507,0.29848307,-0.9532666,,-0.1966825608407498,-0.28819694540031027,0.08132534573000001,0.8691648157433535,0.0002732729995308809,0.004432852380619205,-0.00637041857923689,,-1.5558758239713892,0.0006409868285606343,0.13107436335,0.13021745490388964,-0.020905384464112386,1.181050665008705,0.11515756662466692
2.4802117680001174,,0.060823962,-0.0454326,0.41519973,-0.6779501,-0.06869097,-0.7318915,-0.5325877,0.7321532,0.4246198,0.5066891,0.6776675,-0.53294724,,-0.14331323,0.16717136,0.18999963,0.22137955,-0.91042846,-0.34944418,-0.8974567,-0.3303972,0.29224834,-0.38152656,0.24891317,-0.8902132,,0.07856212,-0.03938345,0.2808064,-0.9908981,0.13445473,-0.006549135,0.12621643,0.9448967,0.30205894,0.046801507,0.29848307,-0.9532666,,-0.1966825608407498,-0.28819694540031027,0.08132534573000001,0.8691648157433535,0.0002732729995308809,0.004432852380619205,-0.00637041857923689,,-1.5558681012385152,0.0006332640956864098,0.13107436335,0.13021745490388964,-0.020905384464112386,1.181050665008705,0.11515756662466692
2.524271339000279,,0.060823962,-0.0454326,0.41519973,-0.6779501,-0.06869097,-0.7318915,-0.5325877,0.7321532,0.4246198,0.5066891,0.6776675,-0.53294724,,-0.14331323,0.16717136,0.18999963,0.22137955,-0.91042846,-0.34944418,-0.8974567,-0.3303972,0.29224834,-0.38152656,0.24891317,-0.8902132,,0.07856212,-0.03938345,0.2808064,-0.9908981,0.13445473,-0.006549135,0.12621643,0.9448967,0.30205894,0.046801507,0.29848307,-0.9532666,,-0.1966825608407498,-0.28819694540031027,0.08132534573000001,0.8691648157433535,0.0002732729995308809,0.004432852380619205,-0.00637041857923689,,-1.5558681012385152,0.0006332640956864098,0.13107436335,0.13021745490388964,-0.020905384464112386,1.181050665008705,0.11515756662466692
2.576020551000056,,0.060823962,-0.0454326,0.41519973,-0.67791986,-0.06897519,-0.73189276,-0.5328955,0.7319297,0.4246189,0.50640583,0.67788,-0.5329462,,-0.1433093,0.16717565,0.19000071,0.22138463,-0.91042954,-0.34943828,-0.89745325,-0.3304013,0.2922542,-0.38153175,0.24890386,-0.89021355,,0.07856212,-0.03938345,0.2808064,-0.9908981,0.13445473,-0.006549135,0.12621643,0.9448967,0.30205894,0.046801507,0.29848307,-0.9532666,,-0.1966825608407498,-0.28819694540031027,0.08132534573000001,0.8687454358563844,0.0002732729995308809,0.004432852380619205,-0.00637041857923689,,-1.5558758239713892,0.0006409868285606343,0.13107436335,0.13021745490388964,-0.020905384464112386,1.181050665008705,0.11515756662466692
2.6109442810002292,,0.060823962,-0.0454326,0.41519973,-0.67791986,-0.06897519,-0.73189276,-0.5328955,0.7319297,0.4246189,0.50640583,0.67788,-0.5329462,,-0.14331323,0.16717136,0.18999963,0.22137955,-0.91042846,-0.34944418,-0.8974567,-0.3303972,0.29224834,-0.38152656,0.24891317,-0.8902132,,0.07856212,-0.03938345,0.2808064,-0.9908981,0.13445473,-0.006549135,0.12621643,0.9448967,0.30205894,0.046801507,0.29848307,-0.9532666,,-0.1966825608407498,-0.28819694540031027,0.08132534573000001,0.8687454358563844,0.0002732729995308809,0.004432852380619205,-0.00637041857923689,,-1.5558681012385152,0.0006332640956864098,0.13107436335,0.13021745490388964,-0.020905384464112386,1.181050665008705,0.11515756662466692
2.641077930999927,,0.060823962,-0.0454326,0.41519973,-0.67791986,-0.06897519,-0.73189276,-0.5328955,0.7319297,0.4246189,0.50640583,0.67788,-0.5329462,,-0.14331323,0.16717136,0.18999963,0.22137955,-0.91042846,-0.34944418,-0.8974567,-0.3303972,0.29224834,-0.38152656,0.24891317,-0.8902132,,0.07856212,-0.03938345,0.2808064,-0.9908981,0.13445473,-0.006549135,0.12621643,0.9448967,0.30205894,0.046801507,0.29848307,-0.9532666,,-0.1966825608407498,-0.28819694540031027,0.08132534573000001,0.8687454358563844,0.0002732729995308809,0.004432852380619205,-0.00637041857923689,,-1.5558681012385152,0.0006332640956864098,0.13107436335,0.13021745490388964,-0.020905384464112386,1.181050665008705,0.11515756662466692
2.6720687760002875,,0.060823962,-0.0454326,0.41519973,-0.67791986,-0.06897519,-0.73189276,-0.5328955,0.7319297,0.4246189,0.50640583,0.67788,-0.5329462,,-0.14330822,0.16717255,0.18999916,0.22138017,-0.910431,-0.34943703,-0.89745665,-0.33039546,0.2922505,-0.38152638,0.24890605,-0.89021534,,0.07856212,-0.03938345,0.2808064,-0.9908981,0.13445473,-0.006549135,0.12621643,0.9448967,0.30205894,0.046801507,0.29848307,-0.9532666,,-0.1966825608407498,-0.28819694540031027,0.08132534573000001,0.8687454358563844,0.0002732729995308809,0.004432852380619205,-0.00637041857923689,,-1.5558758239713892,0.0006332640956864098,0.13107436335,0.13021745490388964,-0.020905384464112386,1.181050665008705,0.11515756662466692
2.704141721000269,,0.06082365,-0.04543256,0.41520017,-0.67791563,-0.06897315,-0.73189694,-0.5328995,0.73192656,0.42461938,0.5064074,0.6778836,-0.5329401,,-0.14331323,0.16717136,0.18999963,0.22137955,-0.91042846,-0.34944418,-0.8974567,-0.3303972,0.29224834,-0.38152656,0.24891317,-0.8902132,,0.07856212,-0.03938345,0.2808064,-0.9908981,0.13445473,-0.006549135,0.12621643,0.9448967,0.30205894,0.046801507,0.29848307,-0.9532666,,-0.1966748381078756,-0.28819694540031027,0.08132534573000001,0.8687454358563844,0.0002732729995308809,0.004432852380619205,-0.00637041857923689,,-1.5558681012385152,0.0006332640956864098,0.13107436335,0.13021745490388964,-0.020905384464112386,1.181050665008705,0.11515756662466692
2.7318390939999517,,0.06078819,-0.0454083,0.4151917,-0.6779063,-0.068933696,-0.73190916,-0.5329148,0.7318903,0.42466253,0.5064036,0.67792666,-0.5328888,,-0.14334789,0.16715592,0.19001591,0.22134799,-0.91042316,-0.3494777,-0.8974783,-0.33037025,0.29221234,-0.38149387,0.24896803,-0.8902119,,0.07854081,-0.039380047,0.28080773,-0.9908933,0.1344897,-0.00654505,0.12625097,0.9448921,0.30205876,0.04680815,0.29848173,-0.9532667,,-0.19666711537500137,-0.28819694540031027,0.08132534573000001,0.8687454358563844,0.0002732729995308809,0.004432852380619205,-0.00637041857923689,,-1.5558681012385152,0.0006332640956864098,0.13107436335,0.13021745490388964,-0.020905384464112386,1.181050665008705,0.11515756662466692
2.7617498220001835,,0.06078851,-0.045408335,0.41519126,-0.6779106,-0.06893572,-0.731905,-0.5329108,0.73189354,0.42466205,0.506402,0.67792296,-0.53289497,,-0.14334294,0.16715713,0.19001545,0.2213486,-0.9104257,-0.34947062,-0.89747834,-0.33036852,0.29221448,-0.3814937,0.24896094,-0.89021385,,0.07854081,-0.039380047,0.28080773,-0.9908933,0.1344897,-0.00654505,0.12625097,0.9448921,0.30205876,0.04680815,0.29848173,-0.9532667,,-0.1966748381078756,-0.28819694540031027,0.08132534573000001,0.8687454358563844,0.0002732729995308809,0.004432852380619205,-0.00637041857923689,,-1.5558758239713892,0.0006332640956864098,0.13107436335,0.13021745490388964,-0.020905384464112386,1.181050665008705,0.11515756662466692
2.810067003000313,,0.06078851,-0.045408335,0.41519126,-0.6779106,-0.06893572,-0.731905,-0.5329108,0.73189354,0.42466205,0.506402,0.67792296,-0.53289497,,-0.14334896,0.16715899,0.19001745,0.22135234,-0.9104216,-0.34947887,-0.897475,-0.33037615,0.292216,-0.38149923,0.24896578,-0.89021015,,0.07854081,-0.039380047,0.28080773,-0.9908933,0.1344897,-0.00654505,0.12625097,0.9448921,0.30205876,0.04680815,0.29848173,-0.9532667,,-0.1966748381078756,-0.28819694540031027,0.08132534573000001,0.8687454358563844,0.0002732729995308809,0.004432852380619205,-0.00637041857923689,,-1.5558681012385152,0.0006409868285606343,0.13107436335,0.13021745490388964,-0.020905384464112386,1.181050665008705,0.11515756662466692
2.879426445000263,,0.06078819,-0.0454083,0.4151917,-0.6779063,-0.068933696,-0.73190916,-0.5329148,0.7318903,0.42466253,0.5064036,0.67792666,-0.5328888,,-0.14334789,0.16715592,0.19001591,0.22134799,-0.91042316,-0.3494777,-0.8974783,-0.33037025,0.29221234,-0.38149387,0.24896803,-0.8902119,,0.07854081,-0.039380047,0.28080773,-0.9908933,0.1344897,-0.00654505,0.12625097,0.9448921,0.30205876,0.04680815,0.29848173,-0.9532667,,-0.19666711537500137,-0.28819694540031027,0.08132534573000001,0.8687454358563844,0.0002732729995308809,0.004432852380619205,-0.00637041857923689,,-1.5558681012385152,0.0006332640956864098,0.13107436335,0.13021745490388964,-0.020905384464112386,1.181050665008705,0.11515756662466692
2.9429935890002525,,0.060788818,-0.04540838,0.41519082,-0.677915,-0.068937756,-0.7319008,-0.53290683,0.73189664,0.42466152,0.5064005,0.6779194,-0.53290105,,-0.14334401,0.16716021,0.190017,0.221353,-0.9104241,-0.34947178,-0.8974749,-0.3303744,0.2922182,-0.38149905,0.24895872,-0.8902123,,0.07854081,-0.039380047,0.28080773,-0.9908933,0.1344897,-0.00654505,0.12625097,0.9448921,0.30205876,0.04680815,0.29848173,-0.9532667,,-0.1966825608407498,-0.28819694540031027,0.08132534573000001,0.8687454358563844,0.0002732729995308809,0.004432852380619205,-0.00637041857923689,,-1.5558758239713892,0.0006409868285606343,0.13107436335,0.13021745490388964,-0.020905384464112386,1.181050665008705,0.11515756662466692
2.9879607580000993,,0.06078819,-0.0454083,0.4151917,-0.6779063,-0.068933696,-0.73190916,-0.5329148,0.7318903,0.42466253,0.5064036,0.67792666,-0.5328888,,-0.14334294,0.16715713,0.19001545,0.2213486,-0.9104257,-0.34947062,-0.89747834,-0.33036852,0.29221448,-0.3814937,0.24896094,-0.89021385,,0.07854081,-0.039380047,0.28080773,-0.9908933,0.1344897,-0.00654505,0.12625097,0.9448921,0.30205876,0.04680815,0.29848173,-0.9532667,,-0.19666711537500137,-0.28819694540031027,0.08132534573000001,0.8687454358563844,0.0002732729995308809,0.004432852380619205,-0.00637041857923689,,-1.5558758239713892,0.0006332640956864098,0.13107436335,0.13021745490388964,-0.020905384464112386,1.181050665008705,0.11515756662466692
3.038551790999918,,0.06078819,-0.0454083,0.4151917,-0.6779063,-0.068933696,-0.73190916,-0.5329148,0.7318903,0.42466253,0.5064036,0.67792666,-0.5328888,,-0.14334789,0.16715592,0.19001591,0.22134799,-0.91042316,-0.3494777,-0.8974783,-0.33037025,0.29221234,-0.38149387,0.24896803,-0.8902119,,0.07854081,-0.039380047,0.28080773,-0.9908933,0.1344897,-0.00654505,0.12625097,0.9448921,0.30205876,0.04680815,0.29848173,-0.9532667,,-0.19666711537500137,-0.28819694540031027,0.08132534573000001,0.8687454358563844,0.0002732729995308809,0.004432852380619205,-0.00637041857923689,,-1.5558681012385152,0.0006332640956864098,0.13107436335,0.13021745490388964,-0.020905384464112386,1.181050665008705,0.11515756662466692
3.07672434899996,,0.06078819,-0.0454083,0.4151917,-0.6779063,-0.068933696,-0.73190916,-0.5329148,0.7318903,0.42466253,0.5064036,0.67792666,-0.5328888,,-0.14334401,0.16716021,0.190017,0.221353,-0.9104241,-0.34947178,-0.8974749,-0.3303744,0.2922182,-0.38149905,0.24895872,-0.8902123,,0.07854081,-0.039380047,0.28080773,-0.9908933,0.1344897,-0.00654505,0.12625097,0.9448921,0.30205876,0.04680815,0.29848173,-0.9532667,,-0.19666711537500137,-0.28819694540031027,0.08132534573000001,0.8687454358563844,0.0002732729995308809,0.004432852380619205,-0.00637041857923689,,-1.5558758239713892,0.0006409868285606343,0.13107436335,0.13021745490388964,-0.020905384464112386,1.181050665008705,0.11515756662466692
3.1071566250002434,,0.06078819,-0.0454083,0.4151917,-0.6779214,-0.06879158,-0.7319085,-0.532761,0.7320021,0.42466295,0.5065453,0.67782044,-0.53288937,,-0.14334789,0.16715592,0.19001591,0.22134799,-0.91042316,-0.3494777,-0.8974783,-0.33037025,0.29221234,-0.38149387,0.24896803,-0.8902119,,0.07854081,-0.039380047,0.28080773,-0.9908933,0.1344897,-0.00654505,0.12625097,0.9448921,0.30205876,0.04680815,0.29848173,-0.9532667,,-0.19666711537500137,-0.28819694540031027,0.08132534573000001,0.8689551257998689,0.0002732729995308809,0.004432852380619205,-0.00637041857923689,,-1.5558681012385152,0.0006332640956864098,0.13107436335,0.13021745490388964,-0.020905384464112386,1.181050665008705,0.11515756662466692
3.1364877260002686,,0.06078819,-0.0454083,0.4151917,-0.67793655,-0.06864948,-0.7319079,-0.532607,0.73211384,0.42466345,0.50668687,0.67771417,-0.5328899,,-0.14334294,0.16715713,0.19001545,0.2213486,-0.9104257,-0.34947062,-0.89747834,-0.33036852,0.29221448,-0.3814937,0.24896094,-0.89021385,,0.07854081,-0.039380047,0.28080773,-0.9908933,0.1344897,-0.00654505,0.12625097,0.9448921,0.30205876,0.04680815,0.29848173,-0.9532667,,-0.19666711537500137,-0.28819694540031027,0.08132534573000001,0.8691648157433535,0.0002732729995308809,0.004432852380619205,-0.00637041857923689,,-1.5558758239713892,0.0006332640956864098,0.13107436335,0.13021745490388964,-0.020905384464112386,1.181050665008705,0.11515756662466692
3.1611206219999985,,0.06078819,-0.0454083,0.4151917,-0.67793655,-0.06864948,-0.7319079,-0.532607,0.73211384,0.42466345,0.50668687,0.67771417,-0.5328899,,-0.14334896,0.16715899,0.19001745,0.22135234,-0.9104216,-0.34947887,-0.897475,-0.33037615,0.292216,-0.38149923,0.24896578,-0.89021015,,0.07854081,-0.039380047,0.28080773,-0.9908933,0.1344897,-0.00654505,0.12625097,0.9448921,0.30205876,0.04680815,0.29848173,-0.9532667,,-0.19666711537500137,-0.28819694540031027,0.08132534573000001,0.8691648157433535,0.0002732729995308809,0.004432852380619205,-0.00637041857923689,,-1.5558681012385152,0.0006409868285606343,0.13107436335,0.13021745490388964,-0.020905384464112386,1.181050665008705,0.11515756662466692
3.2013202470002398,,0.06078819,-0.0454083,0.4151917,-0.67793655,-0.06864948,-0.7319079,-0.532607,0.73211384,0.42466345,0.50668687,0.67771417,-0.5328899,,-0.14334789,0.16715592,0.19001591,0.22134799,-0.91042316,-0.3494777,-0.8974783,-0.33037025,0.29221234,-0.38149387,0.24896803,-0.8902119,,0.07854081,-0.039380047,0.28080773,-0.9908933,0.1344897,-0.00654505,0.12625097,0.9448921,0.30205876,0.04680815,0.29848173,-0.9532667,,-0.19666711537500137,-0.28819694540031027,0.08132534573000001,0.8691648157433535,0.0002732729995308809,0.004432852380619205,-0.00637041857923689,,-1.5558681012385152,0.0006332640956864098,0.13107436335,0.13021745490388964,-0.020905384464112386,1.181050665008705,0.11515756662466692
3.240496373000042,,0.06078819,-0.0454083,0.4151917,-0.67793655,-0.06864948,-0.7319079,-0.532607,0.73211384,0.42466345,0.50668687,0.67771417,-0.5328899,,-0.14334294,0.16715713,0.19001545,0.2213486,-0.9104257,-0.34947062,-0.89747834,-0.33036852,0.29221448,-0.3814937,0.24896094,-0.89021385,,0.07854081,-0.039380047,0.28080773,-0.9908933,0.1344897,-0.00654505,0.12625097,0.9448921,0.30205876,0.04680815,0.29848173,-0.9532667,,-0.19666711537500137,-0.28819694540031027,0.08132534573000001,0.8691648157433535,0.0002732729995308809,0.004432852380619205,-0.00637041857923689,,-1.5558758239713892,0.0006332640956864098,0.13107436335,0.13021745490388964,-0.020905384464112386,1.181050665008705,0.11515756662466692
3.291552693000085,,0.060788818,-0.04540838,0.41519082,-0.6779451,-0.06865352,-0.7318995,-0.5325991,0.73212016,0.42466244,0.5066838,0.6777069,-0.5329021,,-0.14334896,0.16715899,0.19001745,0.22135234,-0.9104216,-0.34947887,-0.897475,-0.33037615,0.292216,-0.38149923,0.24896578,-0.89021015,,0.07854081,-0.039380047,0.28080773,-0.9908933,0.1344897,-0.00654505,0.12625097,0.9448921,0.30205876,0.04680815,0.29848173,-0.9532667,,-0.1966825608407498,-0.28819694540031027,0.08132534573000001,0.8691648157433535,0.0002732729995308809,0.004432852380619205,-0.00637041857923689,,-1.5558681012385152,0.0006409868285606343,0.13107436335,0.13021745490388964,-0.020905384464112386,1.181050665008705,0.11515756662466692
3.3426284910001414,,0.060788818,-0.04540838,0.41519082,-0.6779451,-0.06865352,-0.7318995,-0.5325991,0.73212016,0.42466244,0.5066838,0.6777069,-0.5329021,,-0.14334789,0.16715592,0.19001591,0.22134799,-0.91042316,-0.3494777,-0.8974783,-0.33037025,0.29221234,-0.38149387,0.24896803,-0.8902119,,0.07854081,-0.039380047,0.28080773,-0.9908933,0.1344897,-0.00654505,0.12625097,0.9448921,0.30205876,0.04680815,0.29848173,-0.9532667,,-0.1966825608407498,-0.28819694540031027,0.08132534573000001,0.8691648157433535,0.0002732729995308809,0.004432852380619205,-0.00637041857923689,,-1.5558681012385152,0.0006332640956864098,0.13107436335,0.13021745490388964,-0.020905384464112386,1.181050665008705,0.11515756662466692
3.3897696640001413,,0.060788818,-0.04540838,0.41519082,-0.6779451,-0.06865352,-0.7318995,-0.5325991,0.73212016,0.42466244,0.5066838,0.6777069,-0.5329021,,-0.14334294,0.16715713,0.19001545,0.2213486,-0.9104257,-0.34947062,-0.89747834,-0.33036852,0.29221448,-0.3814937,0.24896094,-0.89021385,,0.07854081,-0.039380047,0.28080773,-0.9908933,0.1344897,-0.00654505,0.12625097,0.9448921,0.30205876,0.04680815,0.29848173,-0.9532667,,-0.1966825608407498,-0.28819694540031027,0.08132534573000001,0.8691648157433535,0.0002732729995308809,0.004432852380619205,-0.00637041857923689,,-1.5558758239713892,0.0006332640956864098,0.13107436335,0.13021745490388964,-0.020905384464112386,1.181050665008705,0.11515756662466692
3.4281696369998826,,0.060788818,-0.04540838,0.41519082,-0.6779451,-0.06865352,-0.7318995,-0.5325991,0.73212016,0.42466244,0.5066838,0.6777069,-0.5329021,,-0.14334401,0.16716021,0.190017,0.221353,-0.9104241,-0.34947178,-0.8974749,-0.3303744,0.2922182,-0.38149905,0.24895872,-0.8902123,,0.07854081,-0.039380047,0.28080773,-0.9908933,0.1344897,-0.00654505,0.12625097,0.9448921,0.30205876,0.04680815,0.29848173,-0.9532667,,-0.1966825608407498,-0.28819694540031027,0.08132534573000001,0.8691648157433535,0.0002732729995308809,0.004432852380619205,-0.00637041857923689,,-1.5558758239713892,0.0006409868285606343,0.13107436335,0.13021745490388964,-0.020905384464112386,1.181050665008705,0.11515756662466692
3.4737208209999153,,0.060788818,-0.04540838,0.41519082,-0.6779451,-0.06865352,-0.7318995,-0.5325991,0.73212016,0.42466244,0.5066838,0.6777069,-0.5329021,,-0.14334294,0.16715713,0.19001545,0.2213486,-0.9104257,-0.34947062,-0.89747834,-0.33036852,0.29221448,-0.3814937,0.24896094,-0.89021385,,0.07854081,-0.039380047,0.28080773,-0.9908933,0.1344897,-0.00654505,0.12625097,0.9448921,0.30205876,0.04680815,0.29848173,-0.9532667,,-0.1966825608407498,-0.28819694540031027,0.08132534573000001,0.8691648157433535,0.0002732729995308809,0.004432852380619205,-0.00637041857923689,,-1.5558758239713892,0.0006332640956864098,0.13107436335,0.13021745490388964,-0.020905384464112386,1.181050665008705,0.11515756662466692
3.523604959000295,,0.060788505,-0.04540834,0.41519126,-0.67794085,-0.068651505,-0.73190373,-0.532603,0.73211694,0.42466295,0.5066854,0.67771053,-0.5328959,,-0.14334789,0.16715592,0.19001591,0.22134799,-0.91042316,-0.3494777,-0.8974783,-0.33037025,0.29221234,-0.38149387,0.24896803,-0.8902119,,0.07854081,-0.039380047,0.28080773,-0.9908933,0.1344897,-0.00654505,0.12625097,0.9448921,0.30205876,0.04680815,0.29848173,-0.9532667,,-0.1966748381078756,-0.28819694540031027,0.08132534573000001,0.8691648157433535,0.0002732729995308809,0.004432852380619205,-0.00637041857923689,,-1.5558681012385152,0.0006332640956864098,0.13107436335,0.13021745490388964,-0.020905384464112386,1.181050665008705,0.11515756662466692
3.556227107000268,,0.060788505,-0.04540834,0.41519126,-0.67794085,-0.068651505,-0.73190373,-0.532603,0.73211694,0.42466295,0.5066854,0.67771053,-0.5328959,,-0.14334294,0.16715713,0.19001545,0.2213486,-0.9104257,-0.34947062,-0.89747834,-0.33036852,0.29221448,-0.3814937,0.24896094,-0.89021385,,0.07854081,-0.039380047,0.28080773,-0.9908933,0.1344897,-0.00654505,0.12625097,0.9448921,0.30205876,0.04680815,0.29848173,-0.9532667,,-0.1966748381078756,-0.28819694540031027,0.08132534573000001,0.8691648157433535,0.0002732729995308809,0.004432852380619205,-0.00637041857923689,,-1.5558758239713892,0.0006332640956864098,0.13107436335,0.13021745490388964,-0.020905384464112386,1.181050665008705,0.11515756662466692
3.5863938590000544,,0.060788818,-0.04540838,0.41519082,-0.6779451,-0.06865352,-0.7318995,-0.5325991,0.73212016,0.42466244,0.5066838,0.6777069,-0.5329021,,-0.14334294,0.16715713,0.19001545,0.2213486,-0.9104257,-0.34947062,-0.89747834,-0.33036852,0.29221448,-0.3814937,0.24896094,-0.89021385,,0.07854081,-0.039380047,0.28080773,-0.9908933,0.1344897,-0.00654505,0.12625097,0.9448921,0.30205876,0.04680815,0.29848173,-0.9532667,,-0.1966825608407498,-0.28819694540031027,0.08132534573000001,0.8691648157433535,0.0002732729995308809,0.004432852380619205,-0.00637041857923689,,-1.5558758239713892,0.0006332640956864098,0.13107436335,0.13021745490388964,-0.020905384464112386,1.181050665008705,0.11515756662466692
3.6216517319999184,,0.060788818,-0.04540838,0.41519082,-0.6779451,-0.06865352,-0.7318995,-0.5325991,0.73212016,0.42466244,0.5066838,0.6777069,-0.5329021,,-0.14334789,0.16715592,0.19001591,0.22134799,-0.91042316,-0.3494777,-0.8974783,-0.33037025,0.29221234,-0.38149387,0.24896803,-0.8902119,,0.07854081,-0.039380047,0.28080773,-0.9908933,0.1344897,-0.00654505,0.12625097,0.9448921,0.30205876,0.04680815,0.29848173,-0.9532667,,-0.1966825608407498,-0.28819694540031027,0.08132534573000001,0.8691648157433535,0.0002732729995308809,0.004432852380619205,-0.00637041857923689,,-1.5558681012385152,0.0006332640956864098,0.13107436335,0.13021745490388964,-0.020905384464112386,1.181050665008705,0.11515756662466692
3.64757911300012,,0.060788818,-0.04540838,0.41519082,-0.67793006,-0.06879565,-0.73190016,-0.532753,0.7320084,0.424662,0.5065422,0.6778132,-0.5329016,,-0.14334789,0.16715592,0.19001591,0.22134799,-0.91042316,-0.3494777,-0.8974783,-0.33037025,0.29221234,-0.38149387,0.24896803,-0.8902119,,0.07854081,-0.039380047,0.28080773,-0.9908933,0.1344897,-0.00654505,0.12625097,0.9448921,0.30205876,0.04680815,0.29848173,-0.9532667,,-0.1966825608407498,-0.28819694540031027,0.08132534573000001,0.8687454358563844,0.0002732729995308809,0.004432852380619205,-0.00637041857923689,,-1.5558681012385152,0.0006332640956864098,0.13107436335,0.13021745490388964,-0.020905384464112386,1.181050665008705,0.11515756662466692
3.6925969740000255,,0.06078851,-0.045408335,0.41519126,-0.6779106,-0.06893572,-0.731905,-0.5329108,0.73189354,0.42466205,0.506402,0.67792296,-0.53289497,,-0.14334294,0.16715713,0.19001545,0.2213486,-0.9104257,-0.34947062,-0.89747834,-0.33036852,0.29221448,-0.3814937,0.24896094,-0.89021385,,0.07854081,-0.039380047,0.28080773,-0.9908933,0.1344897,-0.00654505,0.12625097,0.9448921,0.30205876,0.04680815,0.29848173,-0.9532667,,-0.1966748381078756,-0.28819694540031027,0.08132534573000001,0.8687454358563844,0.0002732729995308809,0.004432852380619205,-0.00637041857923689,,-1.5558758239713892,0.0006332640956864098,0.13107436335,0.13021745490388964,-0.020905384464112386,1.181050665008705,0.11515756662466692
3.745940981000331,,0.06078819,-0.0454083,0.4151917,-0.6779063,-0.068933696,-0.73190916,-0.5329148,0.7318903,0.42466253,0.5064036,0.67792666,-0.5328888,,-0.14334401,0.16716021,0.190017,0.221353,-0.9104241,-0.34947178,-0.8974749,-0.3303744,0.2922182,-0.38149905,0.24895872,-0.8902123,,0.07854081,-0.039380047,0.28080773,-0.9908933,0.1344897,-0.00654505,0.12625097,0.9448921,0.30205876,0.04680815,0.29848173,-0.9532667,,-0.19666711537500137,-0.28819694540031027,0.08132534573000001,0.8687454358563844,0.0002732729995308809,0.004432852380619205,-0.00637041857923689,,-1.5558758239713892,0.0006409868285606343,0.13107436335,0.13021745490388964,-0.020905384464112386,1.181050665008705,0.11515756662466692
3.7992874000001393,,0.06078819,-0.0454083,0.4151917,-0.6779063,-0.068933696,-0.73190916,-0.5329148,0.7318903,0.42466253,0.5064036,0.67792666,-0.5328888,,-0.14334294,0.16715713,0.19001545,0.2213486,-0.9104257,-0.34947062,-0.89747834,-0.33036852,0.29221448,-0.3814937,0.24896094,-0.89021385,,0.07854081,-0.039380047,0.28080773,-0.9908933,0.1344897,-0.00654505,0.12625097,0.9448921,0.30205876,0.04680815,0.29848173,-0.9532667,,-0.19666711537500137,-0.28819694540031027,0.08132534573000001,0.8687454358563844,0.0002732729995308809,0.004432852380619205,-0.00637041857923689,,-1.5558758239713892,0.0006332640956864098,0.13107436335,0.13021745490388964,-0.020905384464112386,1.181050665008705,0.11515756662466692
3.8443464850001874,,0.06078819,-0.0454083,0.4151917,-0.6779063,-0.068933696,-0.73190916,-0.5329148,0.7318903,0.42466253,0.5064036,0.67792666,-0.5328888,,-0.14334789,0.16715592,0.19001591,0.22134799,-0.91042316,-0.3494777,-0.8974783,-0.33037025,0.29221234,-0.38149387,0.24896803,-0.8902119,,0.07854081,-0.039380047,0.28080773,-0.9908933,0.1344897,-0.00654505,0.12625097,0.9448921,0.30205876,0.04680815,0.29848173,-0.9532667,,-0.19666711537500137,-0.28819694540031027,0.08132534573000001,0.8687454358563844,0.0002732729995308809,0.004432852380619205,-0.00637041857923689,,-1.5558681012385152,0.0006332640956864098,0.13107436335,0.13021745490388964,-0.020905384464112386,1.181050665008705,0.11515756662466692
3.8963793210000404,,0.060750622,-0.045374755,0.41519743,-0.6779574,-0.068924785,-0.7318627,-0.53286046,0.7319184,0.42468253,0.5063926,0.67789733,-0.5329367,,-0.1432923,0.16719759,0.19000486,0.22136907,-0.9104412,-0.34941724,-0.89745784,-0.33038002,0.2922643,-0.38152996,0.24888895,-0.89021856,,0.07850894,-0.039363254,0.2808175,-0.9908896,0.1345176,-0.0065417904,0.12627855,0.94488853,0.3020586,0.046813454,0.29848066,-0.9532668,,-0.19666711537500137,-0.28819694540031027,0.08132534573000001,0.8687454358563844,0.0002732729995308809,0.004432852380619205,-0.00637041857923689,,-1.5558758239713892,0.0006332640956864098,0.13107436335,0.13021745490388964,-0.020905384464112386,1.181050665008705,0.11515756662466692
3.946638807999989,,0.060750935,-0.045374792,0.415197,-0.6779617,-0.068926826,-0.7318586,-0.5328564,0.73192155,0.42468202,0.506391,0.67789364,-0.53294283,,-0.1432923,0.16719759,0.19000486,0.22136907,-0.9104412,-0.34941724,-0.89745784,-0.33038002,0.2922643,-0.38152996,0.24888895,-0.89021856,,0.07850894,-0.039363254,0.2808175,-0.9908896,0.1345176,-0.0065417904,0.12627855,0.94488853,0.3020586,0.046813454,0.29848066,-0.9532668,,-0.1966748381078756,-0.28819694540031027,0.08132534573000001,0.8687454358563844,0.0002732729995308809,0.004432852380619205,-0.00637041857923689,,-1.5558758239713892,0.0006332640956864098,0.13107436335,0.13021745490388964,-0.020905384464112386,1.181050665008705,0.11515756662466692
3.977913698000066,,0.06075125,-0.045374826,0.41519654,-0.67796594,-0.06892884,-0.73185444,-0.5328524,0.7319248,0.42468154,0.5063895,0.67789006,-0.532949,,-0.14329727,0.16719638,0.1900053,0.22136842,-0.91043866,-0.34942436,-0.89745796,-0.3303818,0.2922621,-0.38153017,0.24889602,-0.89021647,,0.07850894,-0.039363254,0.2808175,-0.9908896,0.1345176,-0.0065417904,0.12627855,0.94488853,0.3020586,0.046813454,0.29848066,-0.9532668,,-0.1966825608407498,-0.28819694540031027,0.08132534573000001,0.8687454358563844,0.0002732729995308809,0.004432852380619205,-0.00637041857923689,,-1.5558681012385152,0.0006332640956864098,0.13107436335,0.13021745490388964,-0.020905384464112386,1.181050665008705,0.11515756662466692
4.008757233000324,,0.06075125,-0.045374826,0.41519654,-0.67796594,-0.06892884,-0.73185444,-0.5328524,0.7319248,0.42468154,0.5063895,0.67789006,-0.532949,,-0.14329727,0.16719638,0.1900053,0.22136842,-0.91043866,-0.34942436,-0.89745796,-0.3303818,0.2922621,-0.38153017,0.24889602,-0.89021647,,0.07850894,-0.039363254,0.2808175,-0.9908896,0.1345176,-0.0065417904,0.12627855,0.94488853,0.3020586,0.046813454,0.29848066,-0.9532668,,-0.1966825608407498,-0.28819694540031027,0.08132534573000001,0.8687454358563844,0.0002732729995308809,0.004432852380619205,-0.00637041857923689,,-1.5558681012385152,0.0006332640956864098,0.13107436335,0.13021745490388964,-0.020905384464112386,1.181050665008705,0.11515756662466692
4.040174168000249,,0.06075125,-0.045374826,0.41519654,-0.67796594,-0.06892884,-0.73185444,-0.5328524,0.7319248,0.42468154,0.5063895,0.67789006,-0.532949,,-0.1432923,0.16719759,0.19000486,0.22136907,-0.9104412,-0.34941724,-0.89745784,-0.33038002,0.2922643,-0.38152996,0.24888895,-0.89021856,,0.07850894,-0.039363254,0.2808175,-0.9908896,0.1345176,-0.0065417904,0.12627855,0.94488853,0.3020586,0.046813454,0.29848066,-0.9532668,,-0.1966825608407498,-0.28819694540031027,0.08132534573000001,0.8687454358563844,0.0002732729995308809,0.004432852380619205,-0.00637041857923689,,-1.5558758239713892,0.0006332640956864098,0.13107436335,0.13021745490388964,-0.020905384464112386,1.181050665008705,0.11515756662466692
4.079623648000052,,0.06075125,-0.045374826,0.41519654,-0.67796594,-0.06892884,-0.73185444,-0.5328524,0.7319248,0.42468154,0.5063895,0.67789006,-0.532949,,-0.1432934,0.16720065,0.19000639,0.22137348,-0.91043985,-0.34941843,-0.89745456,-0.33038592,0.29226798,-0.38153535,0.24888669,-0.8902168,,0.07850894,-0.039363254,0.2808175,-0.9908896,0.1345176,-0.0065417904,0.12627855,0.94488853,0.3020586,0.046813454,0.29848066,-0.9532668,,-0.1966825608407498,-0.28819694540031027,0.08132534573000001,0.8687454358563844,0.0002732729995308809,0.004432852380619205,-0.00637041857923689,,-1.5558758239713892,0.0006409868285606343,0.13107436335,0.13021745490388964,-0.020905384464112386,1.181050665008705,0.11515756662466692
4.128345585000261,,0.06075125,-0.045374826,0.41519654,-0.67796594,-0.06892884,-0.73185444,-0.5328524,0.7319248,0.42468154,0.5063895,0.67789006,-0.532949,,-0.14329727,0.16719638,0.1900053,0.22136842,-0.91043866,-0.34942436,-0.89745796,-0.3303818,0.2922621,-0.38153017,0.24889602,-0.89021647,,0.07850894,-0.039363254,0.2808175,-0.9908896,0.1345176,-0.0065417904,0.12627855,0.94488853,0.3020586,0.046813454,0.29848066,-0.9532668,,-0.1966825608407498,-0.28819694540031027,0.08132534573000001,0.8687454358563844,0.0002732729995308809,0.004432852380619205,-0.00637041857923689,,-1.5558681012385152,0.0006332640956864098,0.13107436335,0.13021745490388964,-0.020905384464112386,1.181050665008705,0.11515756662466692
4.190522747000159,,0.06075125,-0.045374826,0.41519654,-0.67796594,-0.06892884,-0.73185444,-0.5328524,0.7319248,0.42468154,0.5063895,0.67789006,-0.532949,,-0.14329727,0.16719638,0.1900053,0.22136842,-0.91043866,-0.34942436,-0.89745796,-0.3303818,0.2922621,-0.38153017,0.24889602,-0.89021647,,0.07850894,-0.039363254,0.2808175,-0.9908896,0.1345176,-0.0065417904,0.12627855,0.94488853,0.3020586,0.046813454,0.29848066,-0.9532668,,-0.1966825608407498,-0.28819694540031027,0.08132534573000001,0.8687454358563844,0.0002732729995308809,0.004432852380619205,-0.00637041857923689,,-1.5558681012385152,0.0006332640956864098,0.13107436335,0.13021745490388964,-0.020905384464112386,1.181050665008705,0.11515756662466692
4.239137161000144,,0.060750622,-0.045374755,0.41519743,-0.6779574,-0.068924785,-0.7318627,-0.53286046,0.7319184,0.42468253,0.5063926,0.67789733,-0.5329367,,-0.1432923,0.16719759,0.19000486,0.22136907,-0.9104412,-0.34941724,-0.89745784,-0.33038002,0.2922643,-0.38152996,0.24888895,-0.89021856,,0.07850894,-0.039363254,0.2808175,-0.9908896,0.1345176,-0.0065417904,0.12627855,0.94488853,0.3020586,0.046813454,0.29848066,-0.9532668,,-0.19666711537500137,-0.28819694540031027,0.08132534573000001,0.8687454358563844,0.0002732729995308809,0.004432852380619205,-0.00637041857923689,,-1.5558758239713892,0.0006332640956864098,0.13107436335,0.13021745490388964,-0.020905384464112386,1.181050665008705,0.11515756662466692
4.283569134000118,,0.060750622,-0.045374755,0.41519743,-0.6779876,-0.068640545,-0.73186153,-0.53255266,0.73214185,0.4246834,0.50667584,0.67768484,-0.53293765,,-0.1432923,0.16719759,0.19000486,0.22136907,-0.9104412,-0.34941724,-0.89745784,-0.33038002,0.2922643,-0.38152996,0.24888895,-0.89021856,,0.07850894,-0.039363254,0.2808175,-0.9908896,0.1345176,-0.0065417904,0.12627855,0.94488853,0.3020586,0.046813454,0.29848066,-0.9532668,,-0.19666711537500137,-0.28819694540031027,0.08132534573000001,0.8691648157433535,0.0002732729995308809,0.004432852380619205,-0.00637041857923689,,-1.5558758239713892,0.0006332640956864098,0.13107436335,0.13021745490388964,-0.020905384464112386,1.181050665008705,0.11515756662466692
4.332387973000095,,0.060750622,-0.045374755,0.41519743,-0.6779876,-0.068640545,-0.73186153,-0.53255266,0.73214185,0.4246834,0.50667584,0.67768484,-0.53293765,,-0.14329727,0.16719638,0.1900053,0.22136842,-0.91043866,-0.34942436,-0.89745796,-0.3303818,0.2922621,-0.38153017,0.24889602,-0.89021647,,0.07850894,-0.039363254,0.2808175,-0.9908896,0.1345176,-0.0065417904,0.12627855,0.94488853,0.3020586,0.046813454,0.29848066,-0.9532668,,-0.19666711537500137,-0.28819694540031027,0.08132534573000001,0.8691648157433535,0.0002732729995308809,0.004432852380619205,-0.00637041857923689,,-1.5558681012385152,0.0006332640956864098,0.13107436335,0.13021745490388964,-0.020905384464112386,1.181050665008705,0.11515756662466692
4.365611633000299,,0.060750622,-0.045374755,0.41519743,-0.6779876,-0.068640545,-0.73186153,-0.53255266,0.73214185,0.4246834,0.50667584,0.67768484,-0.53293765,,-0.1432923,0.16719759,0.19000486,0.22136907,-0.9104412,-0.34941724,-0.89745784,-0.33038002,0.2922643,-0.38152996,0.24888895,-0.89021856,,0.07850894,-0.039363254,0.2808175,-0.9908896,0.1345176,-0.0065417904,0.12627855,0.94488853,0.3020586,0.046813454,0.29848066,-0.9532668,,-0.19666711537500137,-0.28819694540031027,0.08132534573000001,0.8691648157433535,0.0002732729995308809,0.004432852380619205,-0.00637041857923689,,-1.5558758239713892,0.0006332640956864098,0.13107436335,0.13021745490388964,-0.020905384464112386,1.181050665008705,0.11515756662466692
4.394217808000121,,0.060750622,-0.045374755,0.41519743,-0.6779876,-0.068640545,-0.73186153,-0.53255266,0.73214185,0.4246834,0.50667584,0.67768484,-0.53293765,,-0.1432923,0.16719759,0.19000486,0.22136907,-0.9104412,-0.34941724,-0.89745784,-0.33038002,0.2922643,-0.38152996,0.24888895,-0.89021856,,0.07850894,-0.039363254,0.2808175,-0.9908896,0.1345176,-0.0065417904,0.12627855,0.94488853,0.3020586,0.046813454,0.29848066,-0.9532668,,-0.19666711537500137,-0.28819694540031027,0.08132534573000001,0.8691648157433535,0.0002732729995308809,0.004432852380619205,-0.00637041857923689,,-1.5558758239713892,0.0006332640956864098,0.13107436335,0.13021745490388964,-0.020905384464112386,1.181050665008705,0.11515756662466692
4.429351005000171,,0.060750622,-0.045374755,0.41519743,-0.6779876,-0.068640545,-0.73186153,-0.53255266,0.73214185,0.4246834,0.50667584,0.67768484,-0.53293765,,-0.14329727,0.16719638,0.1900053,0.22136842,-0.91043866,-0.34942436,-0.89745796,-0.3303818,0.2922621,-0.38153017,0.24889602,-0.89021647,,0.07850894,-0.039363254,0.2808175,-0.9908896,0.1345176,-0.0065417904,0.12627855,0.94488853,0.3020586,0.046813454,0.29848066,-0.9532668,,-0.19666711537500137,-0.28819694540031027,0.08132534573000001,0.8691648157433535,0.0002732729995308809,0.004432852380619205,-0.00637041857923689,,-1.5558681012385152,0.0006332640956864098,0.13107436335,0.13021745490388964,-0.020905384464112386,1.181050665008705,0.11515756662466692
4.463884244999917,,0.06075125,-0.045374826,0.41519654,-0.6779962,-0.0686446,-0.7318532,-0.5325446,0.73214823,0.42468247,0.5066728,0.6776776,-0.53295,,-0.1432923,0.16719759,0.19000486,0.22136907,-0.9104412,-0.34941724,-0.89745784,-0.33038002,0.2922643,-0.38152996,0.24888895,-0.89021856,,0.07850894,-0.039363254,0.2808175,-0.9908896,0.1345176,-0.0065417904,0.12627855,0.94488853,0.3020586,0.046813454,0.29848066,-0.9532668,,-0.1966825608407498,-0.28819694540031027,0.08132534573000001,0.8691648157433535,0.0002732729995308809,0.004432852380619205,-0.00637041857923689,,-1.5558758239713892,0.0006332640956864098,0.13107436335,0.13021745490388964,-0.020905384464112386,1.181050665008705,0.11515756662466692
4.513799995000227,,0.06075125,-0.045374826,0.41519654,-0.6779962,-0.068525046,-0.7318644,-0.5325446,0.7320788,0.42480206,0.5066728,0.6777646,-0.53283924,,-0.1432923,0.16719759,0.19000486,0.22136907,-0.9104412,-0.34941724,-0.89745784,-0.33038002,0.2922643,-0.38152996,0.24888895,-0.89021856,,0.07850894,-0.039363254,0.2808175,-0.9908896,0.1345176,-0.0065417904,0.12627855,0.94488853,0.3020586,0.046813454,0.29848066,-0.9532668,,-0.1966825608407498,-0.28819694540031027,0.08132534573000001,0.8691648157433535,0.0002732729995308809,0.004596209860900329,-0.00441028978562554,,-1.5558758239713892,0.0006332640956864098,0.13107436335,0.13021745490388964,-0.020905384464112386,1.181050665008705,0.11515756662466692
4.5838526210000055,,0.0607692,-0.045360204,0.4151836,-0.6801836,-0.06477454,-0.73017436,-0.5312834,0.7298616,0.43016273,0.5050626,0.6805191,-0.53085345,,-0.14329727,0.16719638,0.1900053,0.22136842,-0.91043866,-0.34942436,-0.89745796,-0.3303818,0.2922621,-0.38153017,0.24889602,-0.89021647,,0.07850894,-0.039363254,0.2808175,-0.9908896,0.1345176,-0.0065417904,0.12627855,0.94488853,0.3020586,0.046813454,0.29848066,-0.9532668,,-0.19666711537500137,-0.28819694540031027,0.08132534573000001,0.8691648157433535,0.0032792759943705706,0.009741138812651347,0.049329907972552337,,-1.5558681012385152,0.0006332640956864098,0.13107436335,0.13021745490388964,-0.020905384464112386,1.181050665008705,0.11515756662466692
4.640321876000144,,0.060748935,-0.045376077,0.41519868,-0.6777877,-0.06847659,-0.73206204,-0.53266776,0.7320479,0.424701,0.5068223,0.6778029,-0.5326482,,-0.1432923,0.16719759,0.19000486,0.22136907,-0.9104412,-0.34941724,-0.89745784,-0.33038002,0.2922643,-0.38152996,0.24888895,-0.89021856,,0.07850894,-0.039363254,0.2808175,-0.9908896,0.1345176,-0.0065417904,0.12627855,0.94488853,0.3020586,0.046813454,0.29848066,-0.9532668,,-0.19666711537500137,-0.28819694540031027,0.08132534573000001,0.8691648157433535,0.0,0.0046556881880120485,0.13116528510582623,,-1.5558758239713892,0.0006332640956864098,0.13107436335,0.13021745490388964,-0.020905384464112386,1.181050665008705,0.11515756662466692
4.69680597300021,,0.060753994,-0.045372102,0.41519493,-0.67838734,-0.06747443,-0.73159945,-0.5323222,0.7314612,0.42614257,0.5063828,0.6785364,-0.5321321,,-0.14329727,0.16719638,0.1900053,0.22136842,-0.91043866,-0.34942436,-0.89745796,-0.3303818,0.2922621,-0.38153017,0.24889602,-0.89021647,,0.07850894,-0.039363254,0.2808175,-0.9908896,0.1345176,-0.0065417904,0.12627855,0.94488853,0.3020586,0.046813454,0.29848066,-0.9532668,,-0.19666711537500137,-0.28819694540031027,0.08132534573000001,0.8691648157433535,0.0008198189985926426,0.0060291492693475696,0.2644540430713981,,-1.5558681012385152,0.0006332640956864098,0.13107436335,0.13021745490388964,-0.020905384464112386,1.181050665008705,0.11515756662466692
4.737951088000045,,0.060759902,-0.045367472,0.41519052,-0.6790863,-0.067391686,-0.7309583,-0.53191864,0.7314076,0.4267382,0.50586975,0.67860246,-0.53253573,,-0.1432923,0.16719759,0.19000486,0.22136907,-0.9104412,-0.34941724,-0.89745784,-0.33038002,0.2922643,-0.38152996,0.24888895,-0.89021856,,0.07850894,-0.039363254,0.2808175,-0.9908896,0.1345176,-0.0065417904,0.12627855,0.94488853,0.3020586,0.046813454,0.29848066,-0.9532668,,-0.19666711537500137,-0.28819694540031027,0.08132534573000001,0.8691648157433535,0.0017762744969507258,0.006147690085018809,0.3386122490963609,,-1.5558758239713892,0.0006332640956864098,0.13107436335,0.13021745490388964,-0.020905384464112386,1.181050665008705,0.11515756662466692
4.768066785999963,,0.06075822,-0.045368798,0.41519177,-0.6788868,-0.06866078,-0.73102576,-0.53203404,0.7321486,0.42532143,0.5060164,0.67767555,-0.5335757,,-0.14329836,0.16719948,0.19000679,0.22137281,-0.9104372,-0.34942558,-0.89745456,-0.33038765,0.2922658,-0.38153553,0.2488938,-0.89021474,,0.07850894,-0.039363254,0.2808175,-0.9908896,0.1345176,-0.0065417904,0.12627855,0.94488853,0.3020586,0.046813454,0.29848066,-0.9532668,,-0.19666711537500137,-0.28819694540031027,0.08132534573000001,0.8691648157433535,0.001503001497419845,0.004410236129038153,0.41897752963442625,,-1.5558681012385152,0.0006409868285606343,0.13107436335,0.13021745490388964,-0.020905384464112386,1.181050665008705,0.11515756662466692
4.806373630000053,,0.06075506,-0.04537092,0.4151944,-0.6784909,-0.06689493,-0.7315567,-0.5322625,0.7311225,0.42679787,0.50630695,0.6789586,-0.5316656,,-0.14329836,0.16719948,0.19000679,0.22137281,-0.9104372,-0.34942558,-0.89745456,-0.33038765,0.2922658,-0.38153553,0.2488938,-0.89021474,,0.07850894,-0.039363254,0.2808175,-0.9908896,0.1345176,-0.0065417904,0.12627855,0.94488853,0.3020586,0.046813454,0.29848066,-0.9532668,,-0.19666711537500137,-0.288189222667436,0.08132534573000001,0.8691648157433535,0.0009564554983580831,0.006816197507197322,0.4656939325488302,,-1.5558681012385152,0.0006409868285606343,0.13107436335,0.13021745490388964,-0.020905384464112386,1.181050665008705,0.11515756662466692
4.829287909999948,,0.060759503,-0.045367092,0.41519135,-0.6789938,-0.06765932,-0.7310195,-0.5319721,0.7315645,0.4264025,0.50593776,0.67840666,-0.53272057,,-0.1432923,0.16719759,0.19000486,0.22136907,-0.9104412,-0.34941724,-0.89745784,-0.33038002,0.2922643,-0.38152996,0.24888895,-0.89021856,,0.07850894,-0.039363254,0.2808175,-0.9908896,0.1345176,-0.0065417904,0.12627855,0.94488853,0.3020586,0.046813454,0.29848066,-0.9532668,,-0.19666711537500137,-0.2881814999345618,0.08132534573000001,0.8691648157433535,0.0016396379971852853,0.005769035547871865,0.4941158000561947,,-1.5558758239713892,0.0006332640956864098,0.13107436335,0.13021745490388964,-0.020905384464112386,1.181050665008705,0.11515756662466692
4.891220431999955,,0.060758658,-0.04536775,0.415192,-0.678894,-0.06787592,-0.7310922,-0.53202975,0.7316915,0.42611253,0.5060111,0.67824805,-0.5328528,,-0.14329836,0.16719948,0.19000679,0.22137281,-0.9104372,-0.34942558,-0.89745456,-0.33038765,0.2922658,-0.38153553,0.2488938,-0.89021474,,0.07850894,-0.039363254,0.2808175,-0.9908896,0.1345176,-0.0065417904,0.12627855,0.94488853,0.3020586,0.046813454,0.29848066,-0.9532668,,-0.19666711537500137,-0.2881814999345618,0.08132534573000001,0.8691648157433535,0.001503001497419845,0.005472059750865482,0.523517731960365,,-1.5558681012385152,0.0006409868285606343,0.13107436335,0.13021745490388964,-0.020905384464112386,1.181050665008705,0.11515756662466692
4.951638384000034,,0.06075897,-0.045367785,0.41519153,-0.678868,-0.06810248,-0.7310952,-0.53233355,0.7314364,0.42617103,0.5057263,0.67850035,-0.532802,,-0.1432923,0.16719759,0.19000486,0.22136907,-0.9104412,-0.34941724,-0.89745784,-0.33038002,0.2922643,-0.38152996,0.24888895,-0.89021856,,0.07850894,-0.039363254,0.2808175,-0.9908896,0.1345176,-0.0065417904,0.12627855,0.94488853,0.3020586,0.046813454,0.29848066,-0.9532668,,-0.1966748381078756,-0.2881814999345618,0.08132534573000001,0.8687454358563844,0.001503001497419845,0.005553738491006044,0.5231910438280964,,-1.5558758239713892,0.0006332640956864098,0.13107436335,0.13021745490388964,-0.020905384464112386,1.181050665008705,0.11515756662466692
5.003747041000224,,0.06075928,-0.04536782,0.41519108,-0.6788724,-0.06810452,-0.7310911,-0.53232956,0.7314396,0.42617056,0.50572467,0.6784967,-0.53280807,,-0.14329836,0.16719948,0.19000679,0.22137281,-0.9104372,-0.34942558,-0.89745456,-0.33038765,0.2922658,-0.38153553,0.2488938,-0.89021474,,0.07850894,-0.039363254,0.2808175,-0.9908896,0.1345176,-0.0065417904,0.12627855,0.94488853,0.3020586,0.046813454,0.29848066,-0.9532668,,-0.1966825608407498,-0.2881814999345618,0.08132534573000001,0.8687454358563844,0.001503001497419845,0.005553738491006044,0.5231910438280964,,-1.5558681012385152,0.0006409868285606343,0.13107436335,0.13021745490388964,-0.020905384464112386,1.181050665008705,0.11515756662466692
5.058214639000198,,0.06075756,-0.045368057,0.41518763,-0.678856,-0.06809895,-0.7311065,-0.5323431,0.73143077,0.42616856,0.5057323,0.67850673,-0.5327883,,-0.1432915,0.16718242,0.18999584,0.22140977,-0.91040534,-0.34948486,-0.8974486,-0.33043817,0.29222655,-0.38152784,0.24894291,-0.89020437,,0.07855123,-0.03937771,0.2808056,-0.99089754,0.13445817,-0.0065487316,0.12621981,0.94489616,0.30205894,0.046802163,0.29848295,-0.9532667,,-0.1966748381078756,-0.2881814999345618,0.08132534573000001,0.8687454358563844,0.001503001497419845,0.005553738491006044,0.5231910438280964,,-1.5558681012385152,0.0006332640956864098,0.13107436335,0.13021745490388964,-0.020905384464112386,1.181050665008705,0.11515756662466692
5.089805212000101,,0.06075756,-0.045368057,0.41518763,-0.678856,-0.06809895,-0.7311065,-0.5323431,0.73143077,0.42616856,0.5057323,0.67850673,-0.5327883,,-0.14328653,0.16718367,0.18999536,0.22141045,-0.91040796,-0.34947783,-0.8974485,-0.33043647,0.29222876,-0.3815276,0.24893586,-0.8902064,,0.07855123,-0.03937771,0.2808056,-0.99089754,0.13445817,-0.0065487316,0.12621981,0.94489616,0.30205894,0.046802163,0.29848295,-0.9532667,,-0.1966748381078756,-0.2881814999345618,0.08132534573000001,0.8687454358563844,0.001503001497419845,0.005553738491006044,0.5231910438280964,,-1.5558758239713892,0.0006332640956864098,0.13107436335,0.13021745490388964,-0.020905384464112386,1.181050665008705,0.11515756662466692
5.1168430259999695,,0.06075756,-0.045368057,0.41518763,-0.678856,-0.06809895,-0.7311065,-0.5323431,0.73143077,0.42616856,0.5057323,0.67850673,-0.5327883,,-0.14328653,0.16718367,0.18999536,0.22141045,-0.91040796,-0.34947783,-0.8974485,-0.33043647,0.29222876,-0.3815276,0.24893586,-0.8902064,,0.07855123,-0.03937771,0.2808056,-0.99089754,0.13445817,-0.0065487316,0.12621981,0.94489616,0.30205894,0.046802163,0.29848295,-0.9532667,,-0.1966748381078756,-0.2881814999345618,0.08132534573000001,0.8687454358563844,0.001503001497419845,0.005553738491006044,0.5231910438280964,,-1.5558758239713892,0.0006332640956864098,0.13107436335,0.13021745490388964,-0.020905384464112386,1.181050665008705,0.11515756662466692
5.145538703000057,,0.060757868,-0.045368098,0.41518718,-0.6788603,-0.068100974,-0.73110235,-0.5323391,0.73143405,0.42616805,0.50573075,0.67850316,-0.5327944,,-0.1432926,0.16718552,0.1899974,0.22141418,-0.91040385,-0.34948608,-0.89744514,-0.33044407,0.29223025,-0.38153318,0.24894074,-0.8902027,,0.07855123,-0.03937771,0.2808056,-0.99089754,0.13445817,-0.0065487316,0.12621981,0.94489616,0.30205894,0.046802163,0.29848295,-0.9532667,,-0.1966825608407498,-0.2881814999345618,0.08132534573000001,0.8687454358563844,0.001503001497419845,0.005553738491006044,0.5231910438280964,,-1.5558681012385152,0.0006409868285606343,0.13107436335,0.13021745490388964,-0.020905384464112386,1.181050665008705,0.11515756662466692
5.180357219000143,,0.06075756,-0.045368057,0.41518763,-0.678856,-0.06809895,-0.7311065,-0.5323431,0.73143077,0.42616856,0.5057323,0.67850673,-0.5327883,,-0.1432915,0.16718242,0.18999584,0.22140977,-0.91040534,-0.34948486,-0.8974486,-0.33043817,0.29222655,-0.38152784,0.24894291,-0.89020437,,0.07855123,-0.03937771,0.2808056,-0.99089754,0.13445817,-0.0065487316,0.12621981,0.94489616,0.30205894,0.046802163,0.29848295,-0.9532667,,-0.1966748381078756,-0.2881814999345618,0.08132534573000001,0.8687454358563844,0.001503001497419845,0.005553738491006044,0.5231910438280964,,-1.5558681012385152,0.0006332640956864098,0.13107436335,0.13021745490388964,-0.020905384464112386,1.181050665008705,0.11515756662466692
5.227182395999989,,0.060757242,-0.045368023,0.41518807,-0.6788517,-0.06809692,-0.7311108,-0.5323471,0.7314276,0.42616904,0.50573385,0.67851037,-0.53278214,,-0.14328653,0.16718367,0.18999536,0.22141045,-0.91040796,-0.34947783,-0.8974485,-0.33043647,0.29222876,-0.3815276,0.24893586,-0.8902064,,0.07855123,-0.03937771,0.2808056,-0.99089754,0.13445817,-0.0065487316,0.12621981,0.94489616,0.30205894,0.046802163,0.29848295,-0.9532667,,-0.19666711537500137,-0.2881814999345618,0.08132534573000001,0.8687454358563844,0.001503001497419845,0.005553738491006044,0.5231910438280964,,-1.5558758239713892,0.0006332640956864098,0.13107436335,0.13021745490388964,-0.020905384464112386,1.181050665008705,0.11515756662466692
5.261633016999895,,0.060757242,-0.045368023,0.41518807,-0.6788517,-0.06809692,-0.7311108,-0.5323471,0.7314276,0.42616904,0.50573385,0.67851037,-0.53278214,,-0.1432926,0.16718552,0.1899974,0.22141418,-0.91040385,-0.34948608,-0.89744514,-0.33044407,0.29223025,-0.38153318,0.24894074,-0.8902027,,0.07855123,-0.03937771,0.2808056,-0.99089754,0.13445817,-0.0065487316,0.12621981,0.94489616,0.30205894,0.046802163,0.29848295,-0.9532667,,-0.19666711537500137,-0.2881814999345618,0.08132534573000001,0.8687454358563844,0.001503001497419845,0.005553738491006044,0.5231910438280964,,-1.5558681012385152,0.0006409868285606343,0.13107436335,0.13021745490388964,-0.020905384464112386,1.181050665008705,0.11515756662466692
5.292302623000069,,0.060757242,-0.045368023,0.41518807,-0.6788517,-0.06809692,-0.7311108,-0.5323471,0.7314276,0.42616904,0.50573385,0.67851037,-0.53278214,,-0.14328763,0.16718677,0.18999688,0.22141485,-0.9104065,-0.349479,-0.8974451,-0.33044237,0.29223242,-0.38153297,0.24893361,-0.8902048,,0.07855123,-0.03937771,0.2808056,-0.99089754,0.13445817,-0.0065487316,0.12621981,0.94489616,0.30205894,0.046802163,0.29848295,-0.9532667,,-0.19666711537500137,-0.2881814999345618,0.08132534573000001,0.8687454358563844,0.001503001497419845,0.005553738491006044,0.5231910438280964,,-1.5558758239713892,0.0006409868285606343,0.13107436335,0.13021745490388964,-0.020905384464112386,1.181050665008705,0.11515756662466692
5.317477621000307,,0.060757242,-0.045368023,0.41518807,-0.6788517,-0.06809692,-0.7311108,-0.5323471,0.7314276,0.42616904,0.50573385,0.67851037,-0.53278214,,-0.14328653,0.16718367,0.18999536,0.22141045,-0.91040796,-0.34947783,-0.8974485,-0.33043647,0.29222876,-0.3815276,0.24893586,-0.8902064,,0.07855123,-0.03937771,0.2808056,-0.99089754,0.13445817,-0.0065487316,0.12621981,0.94489616,0.30205894,0.046802163,0.29848295,-0.9532667,,-0.19666711537500137,-0.2881814999345618,0.08132534573000001,0.8687454358563844,0.001503001497419845,0.005553738491006044,0.5231910438280964,,-1.5558758239713892,0.0006332640956864098,0.13107436335,0.13021745490388964,-0.020905384464112386,1.181050665008705,0.11515756662466692
5.346520190000319,,0.060757242,-0.045368023,0.41518807,-0.6788517,-0.0680372,-0.7311163,-0.5323471,0.7313928,0.4262288,0.50573385,0.67855394,-0.53272676,,-0.14328653,0.16718367,0.18999536,0.22141045,-0.91040796,-0.34947783,-0.8974485,-0.33043647,0.29222876,-0.3815276,0.24893586,-0.8902064,,0.07855123,-0.03937771,0.2808056,-0.99089754,0.13445817,-0.0065487316,0.12621981,0.94489616,0.30205894,0.046802163,0.29848295,-0.9532667,,-0.19666711537500137,-0.2881814999345618,0.08132534573000001,0.8687454358563844,0.001503001497419845,0.0056354172311466055,0.5230276997619622,,-1.5558758239713892,0.0006332640956864098,0.13107436335,0.13021745490388964,-0.020905384464112386,1.181050665008705,0.11515756662466692
5.377414541000235,,0.060757242,-0.045368023,0.41518807,-0.6788517,-0.0680372,-0.7311163,-0.5323471,0.7313928,0.4262288,0.50573385,0.67855394,-0.53272676,,-0.1432926,0.16718552,0.1899974,0.22141418,-0.91040385,-0.34948608,-0.89744514,-0.33044407,0.29223025,-0.38153318,0.24894074,-0.8902027,,0.07855123,-0.03937771,0.2808056,-0.99089754,0.13445817,-0.0065487316,0.12621981,0.94489616,0.30205894,0.046802163,0.29848295,-0.9532667,,-0.19666711537500137,-0.2881814999345618,0.08132534573000001,0.8687454358563844,0.001503001497419845,0.0056354172311466055,0.5230276997619622,,-1.5558681012385152,0.0006409868285606343,0.13107436335,0.13021745490388964,-0.020905384464112386,1.181050665008705,0.11515756662466692
5.40786893700033,,0.060757242,-0.045368027,0.41518807,-0.67888194,-0.067752965,-0.7311147,-0.5320393,0.73161626,0.42622954,0.5060171,0.6783414,-0.5327283,,-0.1432926,0.16718552,0.1899974,0.22141418,-0.91040385,-0.34948608,-0.89744514,-0.33044407,0.29223025,-0.38153318,0.24894074,-0.8902027,,0.07855123,-0.03937771,0.2808056,-0.99089754,0.13445817,-0.0065487316,0.12621981,0.94489616,0.30205894,0.046802163,0.29848295,-0.9532667,,-0.19666711537500137,-0.2881814999345618,0.08132534573000001,0.8691648157433535,0.001503001497419845,0.0056354172311466055,0.5230276997619622,,-1.5558681012385152,0.0006409868285606343,0.13107436335,0.13021745490388964,-0.020905384464112386,1.181050665008705,0.11515756662466692
5.43877022200013,,0.060757242,-0.045368027,0.41518807,-0.67888194,-0.067752965,-0.7311147,-0.5320393,0.73161626,0.42622954,0.5060171,0.6783414,-0.5327283,,-0.14328653,0.16718367,0.18999536,0.22141045,-0.91040796,-0.34947783,-0.8974485,-0.33043647,0.29222876,-0.3815276,0.24893586,-0.8902064,,0.07855123,-0.03937771,0.2808056,-0.99089754,0.13445817,-0.0065487316,0.12621981,0.94489616,0.30205894,0.046802163,0.29848295,-0.9532667,,-0.19666711537500137,-0.2881814999345618,0.08132534573000001,0.8691648157433535,0.001503001497419845,0.0056354172311466055,0.5230276997619622,,-1.5558758239713892,0.0006332640956864098,0.13107436335,0.13021745490388964,-0.020905384464112386,1.181050665008705,0.11515756662466692
5.485039880999921,,0.06075756,-0.045368064,0.41518763,-0.67888623,-0.06775498,-0.73111045,-0.5320353,0.7316194,0.4262291,0.50601554,0.67833775,-0.53273445,,-0.14328653,0.16718367,0.18999536,0.22141045,-0.91040796,-0.34947783,-0.8974485,-0.33043647,0.29222876,-0.3815276,0.24893586,-0.8902064,,0.07855123,-0.03937771,0.2808056,-0.99089754,0.13445817,-0.0065487316,0.12621981,0.94489616,0.30205894,0.046802163,0.29848295,-0.9532667,,-0.1966748381078756,-0.2881814999345618,0.08132534573000001,0.8691648157433535,0.001503001497419845,0.0056354172311466055,0.5230276997619622,,-1.5558758239713892,0.0006332640956864098,0.13107436335,0.13021745490388964,-0.020905384464112386,1.181050665008705,0.11515756662466692
5.529407114000151,,0.060757868,-0.0453681,0.41518718,-0.6788906,-0.06775702,-0.73110634,-0.5320313,0.7316226,0.42622858,0.506014,0.6783341,-0.53274053,,-0.1432915,0.16718242,0.18999584,0.22140977,-0.91040534,-0.34948486,-0.8974486,-0.33043817,0.29222655,-0.38152784,0.24894291,-0.89020437,,0.07855123,-0.03937771,0.2808056,-0.99089754,0.13445817,-0.0065487316,0.12621981,0.94489616,0.30205894,0.046802163,0.29848295,-0.9532667,,-0.1966748381078756,-0.2881814999345618,0.08132534573000001,0.8691648157433535,0.001503001497419845,0.0056354172311466055,0.5230276997619622,,-1.5558681012385152,0.0006332640956864098,0.13107436335,0.13021745490388964,-0.020905384464112386,1.181050665008705,0.11515756662466692
5.590236680000089,,0.060757242,-0.045368027,0.41518807,-0.67888194,-0.067752965,-0.7311147,-0.5320393,0.73161626,0.42622954,0.5060171,0.6783414,-0.5327283,,-0.14328653,0.16718367,0.18999536,0.22141045,-0.91040796,-0.34947783,-0.8974485,-0.33043647,0.29222876,-0.3815276,0.24893586,-0.8902064,,0.07855123,-0.03937771,0.2808056,-0.99089754,0.13445817,-0.0065487316,0.12621981,0.94489616,0.30205894,0.046802163,0.29848295,-0.9532667,,-0.19666711537500137,-0.2881814999345618,0.08132534573000001,0.8691648157433535,0.001503001497419845,0.0056354172311466055,0.5230276997619622,,-1.5558758239713892,0.0006332640956864098,0.13107436335,0.13021745490388964,-0.020905384464112386,1.181050665008705,0.11515756662466692
5.637506877000305,,0.060757242,-0.045368027,0.41518807,-0.67888194,-0.067752965,-0.7311147,-0.5320393,0.73161626,0.42622954,0.5060171,0.6783414,-0.5327283,,-0.1432926,0.16718552,0.1899974,0.22141418,-0.91040385,-0.34948608,-0.89744514,-0.33044407,0.29223025,-0.38153318,0.24894074,-0.8902027,,0.07855123,-0.03937771,0.2808056,-0.99089754,0.13445817,-0.0065487316,0.12621981,0.94489616,0.30205894,0.046802163,0.29848295,-0.9532667,,-0.19666711537500137,-0.2881814999345618,0.08132534573000001,0.8691648157433535,0.001503001497419845,0.0056354172311466055,0.5230276997619622,,-1.5558681012385152,0.0006409868285606343,0.13107436335,0.13021745490388964,-0.020905384464112386,1.181050665008705,0.11515756662466692
5.671897761000309,,0.060757242,-0.045368027,0.41518807,-0.67888194,-0.067752965,-0.7311147,-0.5320393,0.73161626,0.42622954,0.5060171,0.6783414,-0.5327283,,-0.14328653,0.16718367,0.18999536,0.22141045,-0.91040796,-0.34947783,-0.8974485,-0.33043647,0.29222876,-0.3815276,0.24893586,-0.8902064,,0.07855123,-0.03937771,0.2808056,-0.99089754,0.13445817,-0.0065487316,0.12621981,0.94489616,0.30205894,0.046802163,0.29848295,-0.9532667,,-0.19666711537500137,-0.2881814999345618,0.08132534573000001,0.8691648157433535,0.001503001497419845,0.0056354172311466055,0.5230276997619622,,-1.5558758239713892,0.0006332640956864098,0.13107436335,0.13021745490388964,-0.020905384464112386,1.181050665008705,0.11515756662466692
5.707136838000224,,0.060757242,-0.045368027,0.41518807,-0.67888194,-0.067752965,-0.7311147,-0.5320393,0.73161626,0.42622954,0.5060171,0.6783414,-0.5327283,,-0.14328653,0.16718367,0.18999536,0.22141045,-0.91040796,-0.34947783,-0.8974485,-0.33043647,0.29222876,-0.3815276,0.24893586,-0.8902064,,0.07855123,-0.03937771,0.2808056,-0.99089754,0.13445817,-0.0065487316,0.12621981,0.94489616,0.30205894,0.046802163,0.29848295,-0.9532667,,-0.19666711537500137,-0.2881814999345618,0.08132534573000001,0.8691648157433535,0.001503001497419845,0.0056354172311466055,0.5230276997619622,,-1.5558758239713892,0.0006332640956864098,0.13107436335,0.13021745490388964,-0.020905384464112386,1.181050665008705,0.11515756662466692
5.73142936000022,,0.060757242,-0.045368027,0.41518807,-0.67888194,-0.067752965,-0.7311147,-0.5320393,0.73161626,0.42622954,0.5060171,0.6783414,-0.5327283,,-0.1432926,0.16718552,0.1899974,0.22141418,-0.91040385,-0.34948608,-0.89744514,-0.33044407,0.29223025,-0.38153318,0.24894074,-0.8902027,,0.07855123,-0.03937771,0.2808056,-0.99089754,0.13445817,-0.0065487316,0.12621981,0.94489616,0.30205894,0.046802163,0.29848295,-0.9532667,,-0.19666711537500137,-0.2881814999345618,0.08132534573000001,0.8691648157433535,0.001503001497419845,0.0056354172311466055,0.5230276997619622,,-1.5558681012385152,0.0006409868285606343,0.13107436335,0.13021745490388964,-0.020905384464112386,1.181050665008705,0.11515756662466692
5.773208602000068,,0.060757242,-0.045368027,0.41518807,-0.67888194,-0.067752965,-0.7311147,-0.5320393,0.73161626,0.42622954,0.5060171,0.6783414,-0.5327283,,-0.14328763,0.16718677,0.18999688,0.22141485,-0.9104065,-0.349479,-0.8974451,-0.33044237,0.29223242,-0.38153297,0.24893361,-0.8902048,,0.07855123,-0.03937771,0.2808056,-0.99089754,0.13445817,-0.0065487316,0.12621981,0.94489616,0.30205894,0.046802163,0.29848295,-0.9532667,,-0.19666711537500137,-0.2881814999345618,0.08132534573000001,0.8691648157433535,0.001503001497419845,0.0056354172311466055,0.5230276997619622,,-1.5558758239713892,0.0006409868285606343,0.13107436335,0.13021745490388964,-0.020905384464112386,1.181050665008705,0.11515756662466692
