AlexandreBanks6/ExpertPlaybackApp/resources/Motions/Motion_Best22.csv
Time,si_T_psm1,Tx,Ty,Tz,R00,R01,R02,R10,R11,R12,R20,R21,R22,si_T_psm3,Tx,Ty,Tz,R00,R01,R02,R10,R11,R12,R20,R21,R22,si_T_ecm,Tx,Ty,Tz,R00,R01,R02,R10,R11,R12,R20,R21,R22,joint_vars_psm1,q1,q2,q3,q4,q5,q6,jaw,joint_vars_psm3,q1,q2,q3,q4,q5,q6,jaw
lci_T_si
,,-0.046283375,0.05449445,0.47553676,0.99915797,0.039211154,-0.01207542,0.037573338,-0.99270505,-0.11456416,-0.016479522,0.11401398,-0.99334246
rci_T_si
,,-0.06565058,0.066439524,0.5751773,0.9996935,0.023561524,-0.0075989566,0.022733558,-0.9952142,-0.09503581,-0.009801778,0.094833925,-0.99544483
ecm_T_lc
,,-0.039348,0.051043153,-0.2725159,-0.9888841,-0.12934415,0.07333705,0.13224038,-0.9905602,0.036096916,0.06797584,0.045393787,0.9966537
ecm_T_rc
,,0.010096899,0.19171284,-0.6841031,-0.99695045,-0.013193613,-0.07691395,0.014341901,-0.9997935,-0.014396289,-0.07670814,-0.015455482,0.99693376
0.025739305012393743,,0.030015703,0.03306982,0.33599904,-0.70612,-0.5700916,-0.4199881,-0.6962557,0.45100582,0.5584099,-0.12892772,0.6867236,-0.7153938,,0.0036030076,-0.012405267,0.5780515,0.5423506,-0.80820644,0.22947365,-0.682497,-0.264542,0.6813334,-0.48995256,-0.52613664,-0.695073,,0.022565957,-0.02568628,0.20092638,-0.9941142,0.094371684,0.053205557,0.0980433,0.9926293,0.07123553,-0.04609077,0.07603272,-0.9960394,,-0.346356846676095,-0.058013169351174516,0.10915280316,0.0054519385305976335,-0.0038258219934323326,-0.013052689244331523,-0.003920257587222703,,-1.4635351069942868,0.14102482501621377,0.09033715381000001,-0.005661628474082157,-0.016942925970914614,0.0002571491950229222,0.003266881322685584
0.05111696902895346,,0.030016603,0.033069126,0.33599794,-0.7061206,-0.5700974,-0.41997924,-0.69625527,0.45101506,0.55840296,-0.12892713,0.6867126,-0.71540433,,0.0036030076,-0.012405267,0.5780515,0.5423506,-0.80820644,0.22947365,-0.682497,-0.264542,0.6813334,-0.48995256,-0.52613664,-0.695073,,0.022565957,-0.02568628,0.20092638,-0.9941142,0.094371684,0.053205557,0.0980433,0.9926293,0.07123553,-0.04609077,0.07603272,-0.9960394,,-0.3463722921418435,-0.058013169351174516,0.10915280316,0.0054519385305976335,-0.0038258219934323326,-0.013052689244331523,-0.003920257587222703,,-1.4635351069942868,0.14102482501621377,0.09033715381000001,-0.005661628474082157,-0.016942925970914614,0.0002571491950229222,0.003266881322685584
0.07718264200957492,,0.030015703,0.03306982,0.33599904,-0.70612,-0.57005733,-0.42003468,-0.6962557,0.4509602,0.5584467,-0.12892772,0.686782,-0.7153377,,0.003602486,-0.012405433,0.5780512,0.5423498,-0.8082087,0.22946745,-0.68249726,-0.2645466,0.6813314,-0.48995313,-0.52613086,-0.695077,,0.022565957,-0.02568628,0.20092638,-0.9941142,0.094371684,0.053205557,0.0980433,0.9926293,0.07123553,-0.04609077,0.07603272,-0.9960394,,-0.346356846676095,-0.058013169351174516,0.10915280316,0.0054519385305976335,-0.0038258219934323326,-0.012971010504190961,-0.004083601653356982,,-1.4635273842614127,0.14102482501621377,0.09033715381000001,-0.005661628474082157,-0.016942925970914614,0.0002571491950229222,0.003266881322685584
0.10284260200569406,,0.030016154,0.03306947,0.33599848,-0.7061203,-0.57002586,-0.42007676,-0.69625545,0.45091924,0.55848014,-0.12892741,0.68683493,-0.71528685,,0.0036026537,-0.012404833,0.57805187,0.5423524,-0.8082064,0.22946951,-0.6824918,-0.26454198,0.6813387,-0.489958,-0.5261367,-0.69506925,,0.022565957,-0.02568628,0.20092638,-0.9941142,0.094371684,0.053205557,0.0980433,0.9926293,0.07123553,-0.04609077,0.07603272,-0.9960394,,-0.34636456940896926,-0.058013169351174516,0.10915280316,0.0054519385305976335,-0.0038258219934323326,-0.012889331764050398,-0.004246945719491262,,-1.4635351069942868,0.141032547749088,0.09033715381000001,-0.005661628474082157,-0.016942925970914614,0.0002571491950229222,0.003266881322685584
0.1277025230228901,,0.030016603,0.033069126,0.33599794,-0.7061206,-0.57002884,-0.4200724,-0.69625527,0.45092386,0.5584766,-0.12892713,0.68682945,-0.7152921,,0.0036026537,-0.012404833,0.57805187,0.5423524,-0.8082064,0.22946951,-0.6824918,-0.26454198,0.6813387,-0.489958,-0.5261367,-0.69506925,,0.022565957,-0.02568628,0.20092638,-0.9941142,0.094371684,0.053205557,0.0980433,0.9926293,0.07123553,-0.04609077,0.07603272,-0.9960394,,-0.34636456940896926,-0.058020892084048745,0.10915280316,0.0054519385305976335,-0.0038258219934323326,-0.012889331764050398,-0.004246945719491262,,-1.4635351069942868,0.141032547749088,0.09033715381000001,-0.005661628474082157,-0.016942925970914614,0.0002571491950229222,0.003266881322685584
0.15860908100148663,,0.030015703,0.03306982,0.33599904,-0.70612,-0.570023,-0.42008126,-0.6962557,0.4509146,0.5584836,-0.12892772,0.6868404,-0.7152816,,0.0036026537,-0.012404833,0.57805187,0.5423524,-0.8082064,0.22946951,-0.6824918,-0.26454198,0.6813387,-0.489958,-0.5261367,-0.69506925,,0.022565957,-0.02568628,0.20092638,-0.9941142,0.094371684,0.053205557,0.0980433,0.9926293,0.07123553,-0.04609077,0.07603272,-0.9960394,,-0.346356846676095,-0.058013169351174516,0.10915280316,0.0054519385305976335,-0.0038258219934323326,-0.012889331764050398,-0.004246945719491262,,-1.4635351069942868,0.141032547749088,0.09033715381000001,-0.005661628474082157,-0.016942925970914614,0.0002571491950229222,0.003266881322685584
0.1916462750523351,,0.030016603,0.033069126,0.33599794,-0.7061206,-0.57002884,-0.4200724,-0.69625527,0.45092386,0.5584766,-0.12892713,0.68682945,-0.7152921,,0.0036030076,-0.012405267,0.5780515,0.5423506,-0.80820644,0.22947365,-0.682497,-0.264542,0.6813334,-0.48995256,-0.52613664,-0.695073,,0.022565957,-0.02568628,0.20092638,-0.9941142,0.094371684,0.053205557,0.0980433,0.9926293,0.07123553,-0.04609077,0.07603272,-0.9960394,,-0.3463722921418435,-0.058013169351174516,0.10915280316,0.0054519385305976335,-0.0038258219934323326,-0.012889331764050398,-0.004246945719491262,,-1.4635351069942868,0.14102482501621377,0.09033715381000001,-0.005661628474082157,-0.016942925970914614,0.0002571491950229222,0.003266881322685584
0.223817439051345,,0.030015144,0.033069268,0.33599895,-0.7061168,-0.57002306,-0.42008662,-0.6962601,0.45091456,0.5584782,-0.12892228,0.6868404,-0.71528256,,0.003602486,-0.012405433,0.5780512,0.5423498,-0.8082087,0.22946745,-0.68249726,-0.2645466,0.6813314,-0.48995313,-0.52613086,-0.695077,,0.022565957,-0.02568628,0.20092638,-0.9941142,0.094371684,0.053205557,0.0980433,0.9926293,0.07123553,-0.04609077,0.07603272,-0.9960394,,-0.346356846676095,-0.058020892084048745,0.10915280316,0.0054519385305976335,-0.0038258219934323326,-0.012889331764050398,-0.004246945719491262,,-1.4635273842614127,0.14102482501621377,0.09033715381000001,-0.005661628474082157,-0.016942925970914614,0.0002571491950229222,0.003266881322685584
0.24390033003874123,,0.030015703,0.03306982,0.33599904,-0.70612,-0.570023,-0.42008126,-0.6962557,0.4509146,0.5584836,-0.12892772,0.6868404,-0.7152816,,0.0036026537,-0.012404833,0.57805187,0.5423524,-0.8082064,0.22946951,-0.6824918,-0.26454198,0.6813387,-0.489958,-0.5261367,-0.69506925,,0.022565957,-0.02568628,0.20092638,-0.9941142,0.094371684,0.053205557,0.0980433,0.9926293,0.07123553,-0.04609077,0.07603272,-0.9960394,,-0.346356846676095,-0.058013169351174516,0.10915280316,0.0054519385305976335,-0.0038258219934323326,-0.012889331764050398,-0.004246945719491262,,-1.4635351069942868,0.141032547749088,0.09033715381000001,-0.005661628474082157,-0.016942925970914614,0.0002571491950229222,0.003266881322685584
0.2744157400447875,,0.030016154,0.03306947,0.33599848,-0.7061203,-0.57002586,-0.42007676,-0.69625545,0.45091924,0.55848014,-0.12892741,0.68683493,-0.71528685,,0.0036026537,-0.012404833,0.57805187,0.5423524,-0.8082064,0.22946951,-0.6824918,-0.26454198,0.6813387,-0.489958,-0.5261367,-0.69506925,,0.022565957,-0.02568628,0.20092638,-0.9941142,0.094371684,0.053205557,0.0980433,0.9926293,0.07123553,-0.04609077,0.07603272,-0.9960394,,-0.34636456940896926,-0.058013169351174516,0.10915280316,0.0054519385305976335,-0.0038258219934323326,-0.012889331764050398,-0.004246945719491262,,-1.4635351069942868,0.141032547749088,0.09033715381000001,-0.005661628474082157,-0.016942925970914614,0.0002571491950229222,0.003266881322685584
0.3015970090054907,,0.030015703,0.03306982,0.33599904,-0.70612,-0.570023,-0.42008126,-0.6962557,0.4509146,0.5584836,-0.12892772,0.6868404,-0.7152816,,0.0036026537,-0.012404833,0.57805187,0.5423524,-0.8082064,0.22946951,-0.6824918,-0.26454198,0.6813387,-0.489958,-0.5261367,-0.69506925,,0.022565957,-0.02568628,0.20092638,-0.9941142,0.094371684,0.053205557,0.0980433,0.9926293,0.07123553,-0.04609077,0.07603272,-0.9960394,,-0.346356846676095,-0.058013169351174516,0.10915280316,0.0054519385305976335,-0.0038258219934323326,-0.012889331764050398,-0.004246945719491262,,-1.4635351069942868,0.141032547749088,0.09033715381000001,-0.005661628474082157,-0.016942925970914614,0.0002571491950229222,0.003266881322685584
0.3265683780191466,,0.030015144,0.033069268,0.33599895,-0.7061168,-0.57002306,-0.42008662,-0.6962601,0.45091456,0.5584782,-0.12892228,0.6868404,-0.71528256,,0.0036019664,-0.0124056,0.57805085,0.542349,-0.80821097,0.22946122,-0.68249744,-0.26455116,0.68132937,-0.48995364,-0.5261251,-0.69508106,,0.022565957,-0.02568628,0.20092638,-0.9941142,0.094371684,0.053205557,0.0980433,0.9926293,0.07123553,-0.04609077,0.07603272,-0.9960394,,-0.346356846676095,-0.058020892084048745,0.10915280316,0.0054519385305976335,-0.0038258219934323326,-0.012889331764050398,-0.004246945719491262,,-1.4635196615285384,0.14102482501621377,0.09033715381000001,-0.005661628474082157,-0.016942925970914614,0.0002571491950229222,0.003266881322685584
0.3535867660539225,,0.030059945,0.033057988,0.3359816,-0.706089,-0.5700777,-0.42005903,-0.6962779,0.4508859,0.5584791,-0.12897782,0.6868138,-0.7152981,,0.0036047008,-0.012415502,0.5780454,0.54234266,-0.80821395,0.22946563,-0.6824985,-0.2645409,0.6813324,-0.48995933,-0.52612555,-0.69507664,,0.022569017,-0.025696578,0.2009206,-0.99411297,0.09438378,0.05320679,0.09805549,0.9926281,0.071235605,-0.04609106,0.07603346,-0.99603933,,-0.346356846676095,-0.058013169351174516,0.10915280316,0.0054519385305976335,-0.0038258219934323326,-0.012889331764050398,-0.004246945719491262,,-1.4635196615285384,0.141032547749088,0.09033715381000001,-0.005661628474082157,-0.016942925970914614,0.0002571491950229222,0.003266881322685584
0.3764822030207142,,0.030059945,0.033057988,0.3359816,-0.706089,-0.5700777,-0.42005903,-0.6962779,0.4508859,0.5584791,-0.12897782,0.6868138,-0.7152981,,0.003555989,-0.012414288,0.57809156,0.5423334,-0.80819273,0.22956234,-0.68255585,-0.2645099,0.681287,-0.48988968,-0.52617383,-0.69508916,,0.022569017,-0.025696578,0.2009206,-0.99411297,0.09438378,0.05320679,0.09805549,0.9926281,0.071235605,-0.04609106,0.07603346,-0.99603933,,-0.346356846676095,-0.058013169351174516,0.10915280316,0.0054519385305976335,-0.0038258219934323326,-0.012889331764050398,-0.004246945719491262,,-1.4635273842614127,0.141032547749088,0.09033715381000001,-0.005661628474082157,-0.016942925970914614,0.0002571491950229222,0.003266881322685584
0.40423030901001766,,0.030059839,0.03305708,0.33598095,-0.706086,-0.57008076,-0.42006,-0.696282,0.45089048,0.55847025,-0.12897207,0.6868083,-0.7153045,,0.0035573784,-0.012414392,0.578092,0.5423332,-0.8081882,0.22957891,-0.68256056,-0.26450077,0.68128574,-0.48988327,-0.5261854,-0.695085,,0.022569017,-0.025696578,0.2009206,-0.99411297,0.09438378,0.05320679,0.09805549,0.9926281,0.071235605,-0.04609106,0.07603346,-0.99603933,,-0.34636456940896926,-0.058020892084048745,0.10915280316,0.0054519385305976335,-0.0038258219934323326,-0.012889331764050398,-0.004246945719491262,,-1.463542829727161,0.14102482501621377,0.09033715381000001,-0.005661628474082157,-0.016942925970914614,0.0002571491950229222,0.003266881322685584
0.4272439390188083,,0.030059945,0.033057988,0.3359816,-0.706089,-0.5700777,-0.42005903,-0.6962779,0.4508859,0.5584791,-0.12897782,0.6868138,-0.7152981,,0.003556857,-0.012414556,0.5780916,0.5423324,-0.80819046,0.22957268,-0.6825608,-0.26450533,0.6812838,-0.4898838,-0.5261796,-0.6950889,,0.022569017,-0.025696578,0.2009206,-0.99411297,0.09438378,0.05320679,0.09805549,0.9926281,0.071235605,-0.04609106,0.07603346,-0.99603933,,-0.346356846676095,-0.058013169351174516,0.10915280316,0.0054519385305976335,-0.0038258219934323326,-0.012889331764050398,-0.004246945719491262,,-1.4635351069942868,0.14102482501621377,0.09033715381000001,-0.005661628474082157,-0.016942925970914614,0.0002571491950229222,0.003266881322685584
0.45465958304703236,,0.030059945,0.033057988,0.3359816,-0.706089,-0.5700777,-0.42005903,-0.6962779,0.4508859,0.5584791,-0.12897782,0.6868138,-0.7152981,,0.003556857,-0.012414556,0.5780916,0.5423324,-0.80819046,0.22957268,-0.6825608,-0.26450533,0.6812838,-0.4898838,-0.5261796,-0.6950889,,0.022569017,-0.025696578,0.2009206,-0.99411297,0.09438378,0.05320679,0.09805549,0.9926281,0.071235605,-0.04609106,0.07603346,-0.99603933,,-0.346356846676095,-0.058013169351174516,0.10915280316,0.0054519385305976335,-0.0038258219934323326,-0.012889331764050398,-0.004246945719491262,,-1.4635351069942868,0.14102482501621377,0.09033715381000001,-0.005661628474082157,-0.016942925970914614,0.0002571491950229222,0.003266881322685584
0.47748304303968325,,0.030059386,0.03305743,0.3359815,-0.7060856,-0.57007784,-0.4200644,-0.6962822,0.45088583,0.5584737,-0.12897237,0.68681365,-0.7152992,,0.0035565086,-0.012414124,0.5780919,0.5423342,-0.8081904,0.22956854,-0.6825556,-0.26450533,0.681289,-0.48988914,-0.5261797,-0.69508517,,0.022569017,-0.025696578,0.2009206,-0.99411297,0.09438378,0.05320679,0.09805549,0.9926281,0.071235605,-0.04609106,0.07603346,-0.99603933,,-0.346356846676095,-0.058020892084048745,0.10915280316,0.0054519385305976335,-0.0038258219934323326,-0.012889331764050398,-0.004246945719491262,,-1.4635351069942868,0.141032547749088,0.09033715381000001,-0.005661628474082157,-0.016942925970914614,0.0002571491950229222,0.003266881322685584
0.5049149190308526,,0.030060844,0.033057287,0.33598047,-0.7060896,-0.57008356,-0.42005017,-0.69627744,0.4508952,0.5584722,-0.12897722,0.68680286,-0.71530867,,0.0035565086,-0.012414124,0.5780919,0.5423342,-0.8081904,0.22956854,-0.6825556,-0.26450533,0.681289,-0.48988914,-0.5261797,-0.69508517,,0.022569017,-0.025696578,0.2009206,-0.99411297,0.09438378,0.05320679,0.09805549,0.9926281,0.071235605,-0.04609106,0.07603346,-0.99603933,,-0.3463722921418435,-0.058013169351174516,0.10915280316,0.0054519385305976335,-0.0038258219934323326,-0.012889331764050398,-0.004246945719491262,,-1.4635351069942868,0.141032547749088,0.09033715381000001,-0.005661628474082157,-0.016942925970914614,0.0002571491950229222,0.003266881322685584
0.5341619829996489,,0.030060396,0.033057638,0.33598107,-0.7060893,-0.5700807,-0.42005453,-0.6962777,0.4508905,0.5584757,-0.12897752,0.68680835,-0.7153034,,0.0035554692,-0.012414454,0.57809126,0.5423327,-0.808195,0.2295561,-0.682556,-0.26451445,0.681285,-0.48989022,-0.526168,-0.69509315,,0.022569017,-0.025696578,0.2009206,-0.99411297,0.09438378,0.05320679,0.09805549,0.9926281,0.071235605,-0.04609106,0.07603346,-0.99603933,,-0.34636456940896926,-0.058013169351174516,0.10915280316,0.0054519385305976335,-0.0038258219934323326,-0.012889331764050398,-0.004246945719491262,,-1.4635196615285384,0.141032547749088,0.09033715381000001,-0.005661628474082157,-0.016942925970914614,0.0002571491950229222,0.003266881322685584
0.5590740159968846,,0.030059945,0.033057988,0.3359816,-0.706089,-0.5700777,-0.42005903,-0.6962779,0.4508859,0.5584791,-0.12897782,0.6868138,-0.7152981,,0.003556857,-0.012414556,0.5780916,0.5423324,-0.80819046,0.22957268,-0.6825608,-0.26450533,0.6812838,-0.4898838,-0.5261796,-0.6950889,,0.022569017,-0.025696578,0.2009206,-0.99411297,0.09438378,0.05320679,0.09805549,0.9926281,0.071235605,-0.04609106,0.07603346,-0.99603933,,-0.346356846676095,-0.058013169351174516,0.10915280316,0.0054519385305976335,-0.0038258219934323326,-0.012889331764050398,-0.004246945719491262,,-1.4635351069942868,0.14102482501621377,0.09033715381000001,-0.005661628474082157,-0.016942925970914614,0.0002571491950229222,0.003266881322685584
0.5865928150014952,,0.030059945,0.033057988,0.3359816,-0.706089,-0.5700777,-0.42005903,-0.6962779,0.4508859,0.5584791,-0.12897782,0.6868138,-0.7152981,,0.003556857,-0.012414556,0.5780916,0.5423324,-0.80819046,0.22957268,-0.6825608,-0.26450533,0.6812838,-0.4898838,-0.5261796,-0.6950889,,0.022569017,-0.025696578,0.2009206,-0.99411297,0.09438378,0.05320679,0.09805549,0.9926281,0.071235605,-0.04609106,0.07603346,-0.99603933,,-0.346356846676095,-0.058013169351174516,0.10915280316,0.0054519385305976335,-0.0038258219934323326,-0.012889331764050398,-0.004246945719491262,,-1.4635351069942868,0.14102482501621377,0.09033715381000001,-0.005661628474082157,-0.016942925970914614,0.0002571491950229222,0.003266881322685584
0.6102063750149682,,0.030059945,0.033057988,0.3359816,-0.706089,-0.5700777,-0.42005903,-0.6962779,0.4508859,0.5584791,-0.12897782,0.6868138,-0.7152981,,0.0035565086,-0.012414124,0.5780919,0.5423342,-0.8081904,0.22956854,-0.6825556,-0.26450533,0.681289,-0.48988914,-0.5261797,-0.69508517,,0.022569017,-0.025696578,0.2009206,-0.99411297,0.09438378,0.05320679,0.09805549,0.9926281,0.071235605,-0.04609106,0.07603346,-0.99603933,,-0.346356846676095,-0.058013169351174516,0.10915280316,0.0054519385305976335,-0.0038258219934323326,-0.012889331764050398,-0.004246945719491262,,-1.4635351069942868,0.141032547749088,0.09033715381000001,-0.005661628474082157,-0.016942925970914614,0.0002571491950229222,0.003266881322685584
0.6400758360396139,,0.030060396,0.033057638,0.33598107,-0.7060893,-0.5700807,-0.42005453,-0.6962777,0.4508905,0.5584757,-0.12897752,0.68680835,-0.7153034,,0.0035565086,-0.012414124,0.5780919,0.5423342,-0.8081904,0.22956854,-0.6825556,-0.26450533,0.681289,-0.48988914,-0.5261797,-0.69508517,,0.022569017,-0.025696578,0.2009206,-0.99411297,0.09438378,0.05320679,0.09805549,0.9926281,0.071235605,-0.04609106,0.07603346,-0.99603933,,-0.34636456940896926,-0.058013169351174516,0.10915280316,0.0054519385305976335,-0.0038258219934323326,-0.012889331764050398,-0.004246945719491262,,-1.4635351069942868,0.141032547749088,0.09033715381000001,-0.005661628474082157,-0.016942925970914614,0.0002571491950229222,0.003266881322685584
0.6692362110479735,,0.030059839,0.03305708,0.33598095,-0.706086,-0.57008076,-0.42006,-0.696282,0.45089048,0.55847025,-0.12897207,0.6868083,-0.7153045,,0.0035565086,-0.012414124,0.5780919,0.5423342,-0.8081904,0.22956854,-0.6825556,-0.26450533,0.681289,-0.48988914,-0.5261797,-0.69508517,,0.022569017,-0.025696578,0.2009206,-0.99411297,0.09438378,0.05320679,0.09805549,0.9926281,0.071235605,-0.04609106,0.07603346,-0.99603933,,-0.34636456940896926,-0.058020892084048745,0.10915280316,0.0054519385305976335,-0.0038258219934323326,-0.012889331764050398,-0.004246945719491262,,-1.4635351069942868,0.141032547749088,0.09033715381000001,-0.005661628474082157,-0.016942925970914614,0.0002571491950229222,0.003266881322685584
0.6939891600050032,,0.030060388,0.033057645,0.33598107,-0.706326,-0.56978375,-0.42005932,-0.69609165,0.45118156,0.55847263,-0.12868562,0.68686354,-0.715303,,0.0035565086,-0.012414124,0.5780919,0.5423342,-0.8081904,0.22956854,-0.6825556,-0.26450533,0.681289,-0.48988914,-0.5261797,-0.69508517,,0.022569017,-0.025696578,0.2009206,-0.99411297,0.09438378,0.05320679,0.09805549,0.9926281,0.071235605,-0.04609106,0.07603346,-0.99603933,,-0.34636456940896926,-0.058013169351174516,0.10915280316,0.005871318417566682,-0.0038258219934323326,-0.012889331764050398,-0.004246945719491262,,-1.4635351069942868,0.141032547749088,0.09033715381000001,-0.005661628474082157,-0.016942925970914614,0.0002571491950229222,0.003266881322685584
0.7214057120145299,,0.030060837,0.033057295,0.33598053,-0.7063263,-0.5697867,-0.42005488,-0.69609135,0.4511862,0.5584691,-0.12868533,0.68685806,-0.71530825,,0.003556339,-0.0124147255,0.57809126,0.5423317,-0.80819273,0.22956648,-0.68256104,-0.26450992,0.68128175,-0.48988432,-0.5261738,-0.695093,,0.022569017,-0.025696578,0.2009206,-0.99411297,0.09438378,0.05320679,0.09805549,0.9926281,0.071235605,-0.04609106,0.07603346,-0.99603933,,-0.3463722921418435,-0.058013169351174516,0.10915280316,0.005871318417566682,-0.0038258219934323326,-0.012889331764050398,-0.004246945719491262,,-1.4635273842614127,0.14102482501621377,0.09033715381000001,-0.005661628474082157,-0.016942925970914614,0.0002571491950229222,0.003266881322685584
0.7429338060319424,,0.030059379,0.033057436,0.33598152,-0.7063224,-0.569781,-0.42006916,-0.6960962,0.4511769,0.55847067,-0.12868047,0.68686885,-0.7152987,,0.0035573784,-0.012414392,0.578092,0.5423332,-0.8081882,0.22957891,-0.68256056,-0.26450077,0.68128574,-0.48988327,-0.5261854,-0.695085,,0.022569017,-0.025696578,0.2009206,-0.99411297,0.09438378,0.05320679,0.09805549,0.9926281,0.071235605,-0.04609106,0.07603346,-0.99603933,,-0.346356846676095,-0.058020892084048745,0.10915280316,0.005871318417566682,-0.0038258219934323326,-0.012889331764050398,-0.004246945719491262,,-1.463542829727161,0.14102482501621377,0.09033715381000001,-0.005661628474082157,-0.016942925970914614,0.0002571491950229222,0.003266881322685584
0.7733122470090166,,0.030060837,0.033057295,0.33598053,-0.7063263,-0.5697867,-0.42005488,-0.69609135,0.4511862,0.5584691,-0.12868533,0.68685806,-0.71530825,,0.0035565086,-0.012414124,0.5780919,0.5423342,-0.8081904,0.22956854,-0.6825556,-0.26450533,0.681289,-0.48988914,-0.5261797,-0.69508517,,0.022569017,-0.025696578,0.2009206,-0.99411297,0.09438378,0.05320679,0.09805549,0.9926281,0.071235605,-0.04609106,0.07603346,-0.99603933,,-0.3463722921418435,-0.058013169351174516,0.10915280316,0.005871318417566682,-0.0038258219934323326,-0.012889331764050398,-0.004246945719491262,,-1.4635351069942868,0.141032547749088,0.09033715381000001,-0.005661628474082157,-0.016942925970914614,0.0002571491950229222,0.003266881322685584
0.8015587200061418,,0.030060388,0.033057645,0.33598107,-0.706326,-0.56978375,-0.42005932,-0.69609165,0.45118156,0.55847263,-0.12868562,0.68686354,-0.715303,,0.003556339,-0.0124147255,0.57809126,0.5423317,-0.80819273,0.22956648,-0.68256104,-0.26450992,0.68128175,-0.48988432,-0.5261738,-0.695093,,0.022569017,-0.025696578,0.2009206,-0.99411297,0.09438378,0.05320679,0.09805549,0.9926281,0.071235605,-0.04609106,0.07603346,-0.99603933,,-0.34636456940896926,-0.058013169351174516,0.10915280316,0.005871318417566682,-0.0038258219934323326,-0.012889331764050398,-0.004246945719491262,,-1.4635273842614127,0.14102482501621377,0.09033715381000001,-0.005661628474082157,-0.016942925970914614,0.0002571491950229222,0.003266881322685584
0.8297304700245149,,0.03005983,0.03305708,0.33598095,-0.7063227,-0.5697839,-0.42006475,-0.6960959,0.45118153,0.55846715,-0.12868018,0.6868634,-0.715304,,0.0035565086,-0.012414124,0.5780919,0.5423342,-0.8081904,0.22956854,-0.6825556,-0.26450533,0.681289,-0.48988914,-0.5261797,-0.69508517,,0.022569017,-0.025696578,0.2009206,-0.99411297,0.09438378,0.05320679,0.09805549,0.9926281,0.071235605,-0.04609106,0.07603346,-0.99603933,,-0.34636456940896926,-0.058020892084048745,0.10915280316,0.005871318417566682,-0.0038258219934323326,-0.012889331764050398,-0.004246945719491262,,-1.4635351069942868,0.141032547749088,0.09033715381000001,-0.005661628474082157,-0.016942925970914614,0.0002571491950229222,0.003266881322685584
0.85310336999828,,0.030060837,0.033057295,0.33598053,-0.7063263,-0.5697867,-0.42005488,-0.69609135,0.4511862,0.5584691,-0.12868533,0.68685806,-0.71530825,,0.003555989,-0.012414288,0.57809156,0.5423334,-0.80819273,0.22956234,-0.68255585,-0.2645099,0.681287,-0.48988968,-0.52617383,-0.69508916,,0.022569017,-0.025696578,0.2009206,-0.99411297,0.09438378,0.05320679,0.09805549,0.9926281,0.071235605,-0.04609106,0.07603346,-0.99603933,,-0.3463722921418435,-0.058013169351174516,0.10915280316,0.005871318417566682,-0.0038258219934323326,-0.012889331764050398,-0.004246945719491262,,-1.4635273842614127,0.141032547749088,0.09033715381000001,-0.005661628474082157,-0.016942925970914614,0.0002571491950229222,0.003266881322685584
0.8807204600307159,,0.030059937,0.033057988,0.3359816,-0.70632565,-0.5697809,-0.42006367,-0.6960918,0.45117694,0.5584761,-0.12868594,0.6868689,-0.7152977,,0.003555989,-0.012414288,0.57809156,0.5423334,-0.80819273,0.22956234,-0.68255585,-0.2645099,0.681287,-0.48988968,-0.52617383,-0.69508916,,0.022569017,-0.025696578,0.2009206,-0.99411297,0.09438378,0.05320679,0.09805549,0.9926281,0.071235605,-0.04609106,0.07603346,-0.99603933,,-0.346356846676095,-0.058013169351174516,0.10915280316,0.005871318417566682,-0.0038258219934323326,-0.012889331764050398,-0.004246945719491262,,-1.4635273842614127,0.141032547749088,0.09033715381000001,-0.005661628474082157,-0.016942925970914614,0.0002571491950229222,0.003266881322685584
0.9050778120290488,,0.030060837,0.033057295,0.33598053,-0.7063263,-0.5697867,-0.42005488,-0.69609135,0.4511862,0.5584691,-0.12868533,0.68685806,-0.71530825,,0.0035565086,-0.012414124,0.5780919,0.5423342,-0.8081904,0.22956854,-0.6825556,-0.26450533,0.681289,-0.48988914,-0.5261797,-0.69508517,,0.022569017,-0.025696578,0.2009206,-0.99411297,0.09438378,0.05320679,0.09805549,0.9926281,0.071235605,-0.04609106,0.07603346,-0.99603933,,-0.3463722921418435,-0.058013169351174516,0.10915280316,0.005871318417566682,-0.0038258219934323326,-0.012889331764050398,-0.004246945719491262,,-1.4635351069942868,0.141032547749088,0.09033715381000001,-0.005661628474082157,-0.016942925970914614,0.0002571491950229222,0.003266881322685584
0.9345347710186616,,0.030060388,0.033057645,0.33598107,-0.706326,-0.56978375,-0.42005932,-0.69609165,0.45118156,0.55847263,-0.12868562,0.68686354,-0.715303,,0.003556339,-0.0124147255,0.57809126,0.5423317,-0.80819273,0.22956648,-0.68256104,-0.26450992,0.68128175,-0.48988432,-0.5261738,-0.695093,,0.022569017,-0.025696578,0.2009206,-0.99411297,0.09438378,0.05320679,0.09805549,0.9926281,0.071235605,-0.04609106,0.07603346,-0.99603933,,-0.34636456940896926,-0.058013169351174516,0.10915280316,0.005871318417566682,-0.0038258219934323326,-0.012889331764050398,-0.004246945719491262,,-1.4635273842614127,0.14102482501621377,0.09033715381000001,-0.005661628474082157,-0.016942925970914614,0.0002571491950229222,0.003266881322685584
0.9593034650315531,,0.030059379,0.033057436,0.33598152,-0.7063224,-0.5698496,-0.41997606,-0.6960962,0.45126814,0.55839694,-0.12868047,0.686752,-0.71541095,,0.003556857,-0.012414556,0.5780916,0.5423324,-0.80819046,0.22957268,-0.6825608,-0.26450533,0.6812838,-0.4898838,-0.5261796,-0.6950889,,0.022569017,-0.025696578,0.2009206,-0.99411297,0.09438378,0.05320679,0.09805549,0.9926281,0.071235605,-0.04609106,0.07603346,-0.99603933,,-0.346356846676095,-0.058020892084048745,0.10915280316,0.005871318417566682,-0.0038258219934323326,-0.013052689244331523,-0.003920257587222703,,-1.4635351069942868,0.14102482501621377,0.09033715381000001,-0.005661628474082157,-0.016942925970914614,0.0002571491950229222,0.003266881322685584
0.9857680670102127,,0.030060837,0.033057295,0.33598053,-0.7063263,-0.56985533,-0.41996184,-0.69609135,0.45127743,0.55839545,-0.12868533,0.6867412,-0.7154205,,0.003556857,-0.012414556,0.5780916,0.5423324,-0.80819046,0.22957268,-0.6825608,-0.26450533,0.6812838,-0.4898838,-0.5261796,-0.6950889,,0.022569017,-0.025696578,0.2009206,-0.99411297,0.09438378,0.05320679,0.09805549,0.9926281,0.071235605,-0.04609106,0.07603346,-0.99603933,,-0.3463722921418435,-0.058013169351174516,0.10915280316,0.005871318417566682,-0.0038258219934323326,-0.013052689244331523,-0.003920257587222703,,-1.4635351069942868,0.14102482501621377,0.09033715381000001,-0.005661628474082157,-0.016942925970914614,0.0002571491950229222,0.003266881322685584
1.0102214210201055,,0.030059937,0.033057988,0.3359816,-0.70632565,-0.56984955,-0.41997063,-0.6960918,0.45126814,0.55840236,-0.12868594,0.686752,-0.71540993,,0.003556857,-0.012414556,0.5780916,0.5423324,-0.80819046,0.22957268,-0.6825608,-0.26450533,0.6812838,-0.4898838,-0.5261796,-0.6950889,,0.022569017,-0.025696578,0.2009206,-0.99411297,0.09438378,0.05320679,0.09805549,0.9926281,0.071235605,-0.04609106,0.07603346,-0.99603933,,-0.346356846676095,-0.058013169351174516,0.10915280316,0.005871318417566682,-0.0038258219934323326,-0.013052689244331523,-0.003920257587222703,,-1.4635351069942868,0.14102482501621377,0.09033715381000001,-0.005661628474082157,-0.016942925970914614,0.0002571491950229222,0.003266881322685584
1.0402245810255408,,0.030060388,0.033057645,0.33598107,-0.706326,-0.5698524,-0.41996622,-0.69609165,0.4512728,0.5583989,-0.12868562,0.6867466,-0.7154152,,0.003555989,-0.012414288,0.57809156,0.5423334,-0.80819273,0.22956234,-0.68255585,-0.2645099,0.681287,-0.48988968,-0.52617383,-0.69508916,,0.022569017,-0.025696578,0.2009206,-0.99411297,0.09438378,0.05320679,0.09805549,0.9926281,0.071235605,-0.04609106,0.07603346,-0.99603933,,-0.34636456940896926,-0.058013169351174516,0.10915280316,0.005871318417566682,-0.0038258219934323326,-0.013052689244331523,-0.003920257587222703,,-1.4635273842614127,0.141032547749088,0.09033715381000001,-0.005661628474082157,-0.016942925970914614,0.0002571491950229222,0.003266881322685584
1.0664819570374675,,0.03005983,0.03305708,0.33598095,-0.7063227,-0.56985253,-0.4199717,-0.6960959,0.45127273,0.55839354,-0.12868018,0.68674654,-0.7154162,,0.003555989,-0.012414288,0.57809156,0.5423334,-0.80819273,0.22956234,-0.68255585,-0.2645099,0.681287,-0.48988968,-0.52617383,-0.69508916,,0.022569017,-0.025696578,0.2009206,-0.99411297,0.09438378,0.05320679,0.09805549,0.9926281,0.071235605,-0.04609106,0.07603346,-0.99603933,,-0.34636456940896926,-0.058020892084048745,0.10915280316,0.005871318417566682,-0.0038258219934323326,-0.013052689244331523,-0.003920257587222703,,-1.4635273842614127,0.141032547749088,0.09033715381000001,-0.005661628474082157,-0.016942925970914614,0.0002571491950229222,0.003266881322685584
1.091238079010509,,0.030059937,0.033057988,0.3359816,-0.70632565,-0.56984955,-0.41997063,-0.6960918,0.45126814,0.55840236,-0.12868594,0.686752,-0.71540993,,0.0035565086,-0.012414124,0.5780919,0.5423342,-0.8081904,0.22956854,-0.6825556,-0.26450533,0.681289,-0.48988914,-0.5261797,-0.69508517,,0.022569017,-0.025696578,0.2009206,-0.99411297,0.09438378,0.05320679,0.09805549,0.9926281,0.071235605,-0.04609106,0.07603346,-0.99603933,,-0.346356846676095,-0.058013169351174516,0.10915280316,0.005871318417566682,-0.0038258219934323326,-0.013052689244331523,-0.003920257587222703,,-1.4635351069942868,0.141032547749088,0.09033715381000001,-0.005661628474082157,-0.016942925970914614,0.0002571491950229222,0.003266881322685584
1.116451683046762,,0.030060837,0.033057295,0.33598053,-0.7063263,-0.56985533,-0.41996184,-0.69609135,0.45127743,0.55839545,-0.12868533,0.6867412,-0.7154205,,0.003556857,-0.012414556,0.5780916,0.5423324,-0.80819046,0.22957268,-0.6825608,-0.26450533,0.6812838,-0.4898838,-0.5261796,-0.6950889,,0.022569017,-0.025696578,0.2009206,-0.99411297,0.09438378,0.05320679,0.09805549,0.9926281,0.071235605,-0.04609106,0.07603346,-0.99603933,,-0.3463722921418435,-0.058013169351174516,0.10915280316,0.005871318417566682,-0.0038258219934323326,-0.013052689244331523,-0.003920257587222703,,-1.4635351069942868,0.14102482501621377,0.09033715381000001,-0.005661628474082157,-0.016942925970914614,0.0002571491950229222,0.003266881322685584
1.1433504450251348,,0.03005983,0.03305708,0.33598095,-0.7063227,-0.56985253,-0.4199717,-0.6960959,0.45127273,0.55839354,-0.12868018,0.68674654,-0.7154162,,0.003556339,-0.0124147255,0.57809126,0.5423317,-0.80819273,0.22956648,-0.68256104,-0.26450992,0.68128175,-0.48988432,-0.5261738,-0.695093,,0.022569017,-0.025696578,0.2009206,-0.99411297,0.09438378,0.05320679,0.09805549,0.9926281,0.071235605,-0.04609106,0.07603346,-0.99603933,,-0.34636456940896926,-0.058020892084048745,0.10915280316,0.005871318417566682,-0.0038258219934323326,-0.013052689244331523,-0.003920257587222703,,-1.4635273842614127,0.14102482501621377,0.09033715381000001,-0.005661628474082157,-0.016942925970914614,0.0002571491950229222,0.003266881322685584
1.1726221950375475,,0.030060388,0.033057645,0.33598107,-0.706326,-0.5698524,-0.41996622,-0.69609165,0.4512728,0.5583989,-0.12868562,0.6867466,-0.7154152,,0.003556857,-0.012414556,0.5780916,0.5423324,-0.80819046,0.22957268,-0.6825608,-0.26450533,0.6812838,-0.4898838,-0.5261796,-0.6950889,,0.022569017,-0.025696578,0.2009206,-0.99411297,0.09438378,0.05320679,0.09805549,0.9926281,0.071235605,-0.04609106,0.07603346,-0.99603933,,-0.34636456940896926,-0.058013169351174516,0.10915280316,0.005871318417566682,-0.0038258219934323326,-0.013052689244331523,-0.003920257587222703,,-1.4635351069942868,0.14102482501621377,0.09033715381000001,-0.005661628474082157,-0.016942925970914614,0.0002571491950229222,0.003266881322685584
1.1972135310061276,,0.030060388,0.033057645,0.33598107,-0.706326,-0.5698524,-0.41996622,-0.69609165,0.4512728,0.5583989,-0.12868562,0.6867466,-0.7154152,,0.0035565086,-0.012414124,0.5780919,0.5423342,-0.8081904,0.22956854,-0.6825556,-0.26450533,0.681289,-0.48988914,-0.5261797,-0.69508517,,0.022569017,-0.025696578,0.2009206,-0.99411297,0.09438378,0.05320679,0.09805549,0.9926281,0.071235605,-0.04609106,0.07603346,-0.99603933,,-0.34636456940896926,-0.058013169351174516,0.10915280316,0.005871318417566682,-0.0038258219934323326,-0.013052689244331523,-0.003920257587222703,,-1.4635351069942868,0.141032547749088,0.09033715381000001,-0.005661628474082157,-0.016942925970914614,0.0002571491950229222,0.003266881322685584
1.2248778040520847,,0.030059937,0.033057988,0.3359816,-0.70632565,-0.56984955,-0.41997063,-0.6960918,0.45126814,0.55840236,-0.12868594,0.686752,-0.71540993,,0.0035565086,-0.012414124,0.5780919,0.5423342,-0.8081904,0.22956854,-0.6825556,-0.26450533,0.681289,-0.48988914,-0.5261797,-0.69508517,,0.022569017,-0.025696578,0.2009206,-0.99411297,0.09438378,0.05320679,0.09805549,0.9926281,0.071235605,-0.04609106,0.07603346,-0.99603933,,-0.346356846676095,-0.058013169351174516,0.10915280316,0.005871318417566682,-0.0038258219934323326,-0.013052689244331523,-0.003920257587222703,,-1.4635351069942868,0.141032547749088,0.09033715381000001,-0.005661628474082157,-0.016942925970914614,0.0002571491950229222,0.003266881322685584
1.2569055380299687,,0.030059937,0.033057988,0.3359816,-0.70632565,-0.56984955,-0.41997063,-0.6960918,0.45126814,0.55840236,-0.12868594,0.686752,-0.71540993,,0.003556857,-0.012414556,0.5780916,0.5423324,-0.80819046,0.22957268,-0.6825608,-0.26450533,0.6812838,-0.4898838,-0.5261796,-0.6950889,,0.022569017,-0.025696578,0.2009206,-0.99411297,0.09438378,0.05320679,0.09805549,0.9926281,0.071235605,-0.04609106,0.07603346,-0.99603933,,-0.346356846676095,-0.058013169351174516,0.10915280316,0.005871318417566682,-0.0038258219934323326,-0.013052689244331523,-0.003920257587222703,,-1.4635351069942868,0.14102482501621377,0.09033715381000001,-0.005661628474082157,-0.016942925970914614,0.0002571491950229222,0.003266881322685584
1.2880669690202922,,0.030059937,0.033057988,0.3359816,-0.70632565,-0.56984955,-0.41997063,-0.6960918,0.45126814,0.55840236,-0.12868594,0.686752,-0.71540993,,0.003556857,-0.012414556,0.5780916,0.5423324,-0.80819046,0.22957268,-0.6825608,-0.26450533,0.6812838,-0.4898838,-0.5261796,-0.6950889,,0.022569017,-0.025696578,0.2009206,-0.99411297,0.09438378,0.05320679,0.09805549,0.9926281,0.071235605,-0.04609106,0.07603346,-0.99603933,,-0.346356846676095,-0.058013169351174516,0.10915280316,0.005871318417566682,-0.0038258219934323326,-0.013052689244331523,-0.003920257587222703,,-1.4635351069942868,0.14102482501621377,0.09033715381000001,-0.005661628474082157,-0.016942925970914614,0.0002571491950229222,0.003266881322685584
1.3186711580492556,,0.030060837,0.033057295,0.33598053,-0.7063263,-0.56985533,-0.41996184,-0.69609135,0.45127743,0.55839545,-0.12868533,0.6867412,-0.7154205,,0.003556857,-0.012414556,0.5780916,0.5423324,-0.80819046,0.22957268,-0.6825608,-0.26450533,0.6812838,-0.4898838,-0.5261796,-0.6950889,,0.022569017,-0.025696578,0.2009206,-0.99411297,0.09438378,0.05320679,0.09805549,0.9926281,0.071235605,-0.04609106,0.07603346,-0.99603933,,-0.3463722921418435,-0.058013169351174516,0.10915280316,0.005871318417566682,-0.0038258219934323326,-0.013052689244331523,-0.003920257587222703,,-1.4635351069942868,0.14102482501621377,0.09033715381000001,-0.005661628474082157,-0.016942925970914614,0.0002571491950229222,0.003266881322685584
1.3428373650531285,,0.030060392,0.033057645,0.33598107,-0.70620763,-0.57000095,-0.41996384,-0.6961846,0.4511273,0.55840045,-0.12883158,0.68671906,-0.71541536,,0.003556339,-0.0124147255,0.57809126,0.5423317,-0.80819273,0.22956648,-0.68256104,-0.26450992,0.68128175,-0.48988432,-0.5261738,-0.695093,,0.022569017,-0.025696578,0.2009206,-0.99411297,0.09438378,0.05320679,0.09805549,0.9926281,0.071235605,-0.04609106,0.07603346,-0.99603933,,-0.34636456940896926,-0.058013169351174516,0.10915280316,0.005661628474082157,-0.0038258219934323326,-0.013052689244331523,-0.003920257587222703,,-1.4635273842614127,0.14102482501621377,0.09033715381000001,-0.005661628474082157,-0.016942925970914614,0.0002571491950229222,0.003266881322685584
1.3742146830190904,,0.030059945,0.033057988,0.3359816,-0.706089,-0.5701463,-0.41996583,-0.6962779,0.45097715,0.55840546,-0.12897782,0.6866969,-0.71541035,,0.003556857,-0.012414556,0.5780916,0.5423324,-0.80819046,0.22957268,-0.6825608,-0.26450533,0.6812838,-0.4898838,-0.5261796,-0.6950889,,0.022569017,-0.025696578,0.2009206,-0.99411297,0.09438378,0.05320679,0.09805549,0.9926281,0.071235605,-0.04609106,0.07603346,-0.99603933,,-0.346356846676095,-0.058013169351174516,0.10915280316,0.0054519385305976335,-0.0038258219934323326,-0.013052689244331523,-0.003920257587222703,,-1.4635351069942868,0.14102482501621377,0.09033715381000001,-0.005661628474082157,-0.016942925970914614,0.0002571491950229222,0.003266881322685584
1.399562198028434,,0.030059386,0.03305743,0.3359815,-0.7060856,-0.57014644,-0.4199713,-0.6962822,0.4509771,0.55840003,-0.12897237,0.6866969,-0.7154113,,0.003556339,-0.0124147255,0.57809126,0.5423317,-0.80819273,0.22956648,-0.68256104,-0.26450992,0.68128175,-0.48988432,-0.5261738,-0.695093,,0.022569017,-0.025696578,0.2009206,-0.99411297,0.09438378,0.05320679,0.09805549,0.9926281,0.071235605,-0.04609106,0.07603346,-0.99603933,,-0.346356846676095,-0.058020892084048745,0.10915280316,0.0054519385305976335,-0.0038258219934323326,-0.013052689244331523,-0.003920257587222703,,-1.4635273842614127,0.14102482501621377,0.09033715381000001,-0.005661628474082157,-0.016942925970914614,0.0002571491950229222,0.003266881322685584
1.4259107790421695,,0.030059945,0.033057988,0.3359816,-0.706089,-0.5701463,-0.41996583,-0.6962779,0.45097715,0.55840546,-0.12897782,0.6866969,-0.71541035,,0.0035565086,-0.012414124,0.5780919,0.5423342,-0.8081904,0.22956854,-0.6825556,-0.26450533,0.681289,-0.48988914,-0.5261797,-0.69508517,,0.022569017,-0.025696578,0.2009206,-0.99411297,0.09438378,0.05320679,0.09805549,0.9926281,0.071235605,-0.04609106,0.07603346,-0.99603933,,-0.346356846676095,-0.058013169351174516,0.10915280316,0.0054519385305976335,-0.0038258219934323326,-0.013052689244331523,-0.003920257587222703,,-1.4635351069942868,0.141032547749088,0.09033715381000001,-0.005661628474082157,-0.016942925970914614,0.0002571491950229222,0.003266881322685584
1.4501331290230155,,0.030059945,0.033057988,0.3359816,-0.706089,-0.5701463,-0.41996583,-0.6962779,0.45097715,0.55840546,-0.12897782,0.6866969,-0.71541035,,0.0035565086,-0.012414124,0.5780919,0.5423342,-0.8081904,0.22956854,-0.6825556,-0.26450533,0.681289,-0.48988914,-0.5261797,-0.69508517,,0.022569017,-0.025696578,0.2009206,-0.99411297,0.09438378,0.05320679,0.09805549,0.9926281,0.071235605,-0.04609106,0.07603346,-0.99603933,,-0.346356846676095,-0.058013169351174516,0.10915280316,0.0054519385305976335,-0.0038258219934323326,-0.013052689244331523,-0.003920257587222703,,-1.4635351069942868,0.141032547749088,0.09033715381000001,-0.005661628474082157,-0.016942925970914614,0.0002571491950229222,0.003266881322685584
1.4757612800458446,,0.030059386,0.03305743,0.3359815,-0.7060856,-0.57014644,-0.4199713,-0.6962822,0.4509771,0.55840003,-0.12897237,0.6866969,-0.7154113,,0.0035565086,-0.012414124,0.5780919,0.5423342,-0.8081904,0.22956854,-0.6825556,-0.26450533,0.681289,-0.48988914,-0.5261797,-0.69508517,,0.022569017,-0.025696578,0.2009206,-0.99411297,0.09438378,0.05320679,0.09805549,0.9926281,0.071235605,-0.04609106,0.07603346,-0.99603933,,-0.346356846676095,-0.058020892084048745,0.10915280316,0.0054519385305976335,-0.0038258219934323326,-0.013052689244331523,-0.003920257587222703,,-1.4635351069942868,0.141032547749088,0.09033715381000001,-0.005661628474082157,-0.016942925970914614,0.0002571491950229222,0.003266881322685584
1.5045610280358233,,0.030022405,0.033072144,0.33598077,-0.7061045,-0.57013047,-0.41996107,-0.6962627,0.4509858,0.5584173,-0.12897432,0.68670434,-0.7154038,,0.0035444591,-0.012397787,0.5780476,0.5423207,-0.80821955,0.22949775,-0.6825073,-0.26449704,0.6813407,-0.48997137,-0.5261391,-0.6950579,,0.022607123,-0.025714047,0.20092736,-0.9941201,0.09431259,0.053199526,0.09798382,0.99263525,0.0712352,-0.04608934,0.076029055,-0.99603975,,-0.346356846676095,-0.058013169351174516,0.10915280316,0.0054519385305976335,-0.0038258219934323326,-0.013052689244331523,-0.003920257587222703,,-1.4635351069942868,0.141032547749088,0.09033715381000001,-0.005661628474082157,-0.016942925970914614,0.0002571491950229222,0.003266881322685584
1.5292195940273814,,0.030022405,0.033072144,0.33598077,-0.7061045,-0.57013047,-0.41996107,-0.6962627,0.4509858,0.5584173,-0.12897432,0.68670434,-0.7154038,,0.0035442878,-0.012398386,0.5780469,0.5423182,-0.8082218,0.22949569,-0.68251276,-0.26450166,0.6813335,-0.48996657,-0.5261333,-0.69506574,,0.022607123,-0.025714047,0.20092736,-0.9941201,0.09431259,0.053199526,0.09798382,0.99263525,0.0712352,-0.04608934,0.076029055,-0.99603975,,-0.346356846676095,-0.058013169351174516,0.10915280316,0.0054519385305976335,-0.0038258219934323326,-0.013052689244331523,-0.003920257587222703,,-1.4635273842614127,0.14102482501621377,0.09033715381000001,-0.005661628474082157,-0.016942925970914614,0.0002571491950229222,0.003266881322685584
1.5538958960096352,,0.030022405,0.033072144,0.33598077,-0.7061045,-0.57013047,-0.41996107,-0.6962627,0.4509858,0.5584173,-0.12897432,0.68670434,-0.7154038,,0.0035442878,-0.012398386,0.5780469,0.5423182,-0.8082218,0.22949569,-0.68251276,-0.26450166,0.6813335,-0.48996657,-0.5261333,-0.69506574,,0.022607123,-0.025714047,0.20092736,-0.9941201,0.09431259,0.053199526,0.09798382,0.99263525,0.0712352,-0.04608934,0.076029055,-0.99603975,,-0.346356846676095,-0.058013169351174516,0.10915280316,0.0054519385305976335,-0.0038258219934323326,-0.013052689244331523,-0.003920257587222703,,-1.4635273842614127,0.14102482501621377,0.09033715381000001,-0.005661628474082157,-0.016942925970914614,0.0002571491950229222,0.003266881322685584
1.5788403170299716,,0.030023305,0.033071455,0.3359797,-0.7061051,-0.57013637,-0.4199523,-0.6962623,0.4509951,0.55841047,-0.12897371,0.68669343,-0.71541435,,0.0035448093,-0.012398219,0.5780472,0.542319,-0.80821955,0.22950189,-0.6825126,-0.2644971,0.6813354,-0.48996603,-0.5261391,-0.6950618,,0.022607123,-0.025714047,0.20092736,-0.9941201,0.09431259,0.053199526,0.09798382,0.99263525,0.0712352,-0.04608934,0.076029055,-0.99603975,,-0.3463722921418435,-0.058013169351174516,0.10915280316,0.0054519385305976335,-0.0038258219934323326,-0.013052689244331523,-0.003920257587222703,,-1.4635351069942868,0.14102482501621377,0.09033715381000001,-0.005661628474082157,-0.016942925970914614,0.0002571491950229222,0.003266881322685584
1.6062980010174215,,0.030023305,0.033071455,0.3359797,-0.7061051,-0.57013637,-0.4199523,-0.6962623,0.4509951,0.55841047,-0.12897371,0.68669343,-0.71541435,,0.0035444591,-0.012397787,0.5780476,0.5423207,-0.80821955,0.22949775,-0.6825073,-0.26449704,0.6813407,-0.48997137,-0.5261391,-0.6950579,,0.022607123,-0.025714047,0.20092736,-0.9941201,0.09431259,0.053199526,0.09798382,0.99263525,0.0712352,-0.04608934,0.076029055,-0.99603975,,-0.3463722921418435,-0.058013169351174516,0.10915280316,0.0054519385305976335,-0.0038258219934323326,-0.013052689244331523,-0.003920257587222703,,-1.4635351069942868,0.141032547749088,0.09033715381000001,-0.005661628474082157,-0.016942925970914614,0.0002571491950229222,0.003266881322685584
1.6358321100124158,,0.030023305,0.033071455,0.3359797,-0.7061051,-0.57013637,-0.4199523,-0.6962623,0.4509951,0.55841047,-0.12897371,0.68669343,-0.71541435,,0.0035444591,-0.012397787,0.5780476,0.5423207,-0.80821955,0.22949775,-0.6825073,-0.26449704,0.6813407,-0.48997137,-0.5261391,-0.6950579,,0.022607123,-0.025714047,0.20092736,-0.9941201,0.09431259,0.053199526,0.09798382,0.99263525,0.0712352,-0.04608934,0.076029055,-0.99603975,,-0.3463722921418435,-0.058013169351174516,0.10915280316,0.0054519385305976335,-0.0038258219934323326,-0.013052689244331523,-0.003920257587222703,,-1.4635351069942868,0.141032547749088,0.09033715381000001,-0.005661628474082157,-0.016942925970914614,0.0002571491950229222,0.003266881322685584
1.661090376030188,,0.030022295,0.033071246,0.33598012,-0.70610166,-0.5701335,-0.41996208,-0.6962669,0.4509904,0.5584085,-0.12896857,0.68669885,-0.7154101,,0.003543418,-0.012398116,0.5780469,0.54231924,-0.8082241,0.2294853,-0.6825077,-0.26450622,0.6813367,-0.48997244,-0.52612746,-0.6950659,,0.022607123,-0.025714047,0.20092736,-0.9941201,0.09431259,0.053199526,0.09798382,0.99263525,0.0712352,-0.04608934,0.076029055,-0.99603975,,-0.34636456940896926,-0.058020892084048745,0.10915280316,0.0054519385305976335,-0.0038258219934323326,-0.013052689244331523,-0.003920257587222703,,-1.4635196615285384,0.141032547749088,0.09033715381000001,-0.005661628474082157,-0.016942925970914614,0.0002571491950229222,0.003266881322685584
1.6898419230128638,,0.030022405,0.033072144,0.33598077,-0.7061045,-0.57013047,-0.41996107,-0.6962627,0.4509858,0.5584173,-0.12897432,0.68670434,-0.7154038,,0.0035442878,-0.012398386,0.5780469,0.5423182,-0.8082218,0.22949569,-0.68251276,-0.26450166,0.6813335,-0.48996657,-0.5261333,-0.69506574,,0.022607123,-0.025714047,0.20092736,-0.9941201,0.09431259,0.053199526,0.09798382,0.99263525,0.0712352,-0.04608934,0.076029055,-0.99603975,,-0.346356846676095,-0.058013169351174516,0.10915280316,0.0054519385305976335,-0.0038258219934323326,-0.013052689244331523,-0.003920257587222703,,-1.4635273842614127,0.14102482501621377,0.09033715381000001,-0.005661628474082157,-0.016942925970914614,0.0002571491950229222,0.003266881322685584
1.7107840300304815,,0.030023305,0.033071455,0.3359797,-0.7061051,-0.57013637,-0.4199523,-0.6962623,0.4509951,0.55841047,-0.12897371,0.68669343,-0.71541435,,0.0035448093,-0.012398219,0.5780472,0.542319,-0.80821955,0.22950189,-0.6825126,-0.2644971,0.6813354,-0.48996603,-0.5261391,-0.6950618,,0.022607123,-0.025714047,0.20092736,-0.9941201,0.09431259,0.053199526,0.09798382,0.99263525,0.0712352,-0.04608934,0.076029055,-0.99603975,,-0.3463722921418435,-0.058013169351174516,0.10915280316,0.0054519385305976335,-0.0038258219934323326,-0.013052689244331523,-0.003920257587222703,,-1.4635351069942868,0.14102482501621377,0.09033715381000001,-0.005661628474082157,-0.016942925970914614,0.0002571491950229222,0.003266881322685584
1.740765012043994,,0.030022405,0.033072144,0.33598077,-0.7061045,-0.57013047,-0.41996107,-0.6962627,0.4509858,0.5584173,-0.12897432,0.68670434,-0.7154038,,0.0035448093,-0.012398219,0.5780472,0.542319,-0.80821955,0.22950189,-0.6825126,-0.2644971,0.6813354,-0.48996603,-0.5261391,-0.6950618,,0.022607123,-0.025714047,0.20092736,-0.9941201,0.09431259,0.053199526,0.09798382,0.99263525,0.0712352,-0.04608934,0.076029055,-0.99603975,,-0.346356846676095,-0.058013169351174516,0.10915280316,0.0054519385305976335,-0.0038258219934323326,-0.013052689244331523,-0.003920257587222703,,-1.4635351069942868,0.14102482501621377,0.09033715381000001,-0.005661628474082157,-0.016942925970914614,0.0002571491950229222,0.003266881322685584
1.7630227380432189,,0.030022405,0.033072144,0.33598077,-0.7061045,-0.57013047,-0.41996107,-0.6962627,0.4509858,0.5584173,-0.12897432,0.68670434,-0.7154038,,0.0035448093,-0.012398219,0.5780472,0.542319,-0.80821955,0.22950189,-0.6825126,-0.2644971,0.6813354,-0.48996603,-0.5261391,-0.6950618,,0.022607123,-0.025714047,0.20092736,-0.9941201,0.09431259,0.053199526,0.09798382,0.99263525,0.0712352,-0.04608934,0.076029055,-0.99603975,,-0.346356846676095,-0.058013169351174516,0.10915280316,0.0054519385305976335,-0.0038258219934323326,-0.013052689244331523,-0.003920257587222703,,-1.4635351069942868,0.14102482501621377,0.09033715381000001,-0.005661628474082157,-0.016942925970914614,0.0002571491950229222,0.003266881322685584
1.7920619020005688,,0.030022405,0.033072144,0.33598077,-0.7061045,-0.57013047,-0.41996107,-0.6962627,0.4509858,0.5584173,-0.12897432,0.68670434,-0.7154038,,0.0035444591,-0.012397787,0.5780476,0.5423207,-0.80821955,0.22949775,-0.6825073,-0.26449704,0.6813407,-0.48997137,-0.5261391,-0.6950579,,0.022607123,-0.025714047,0.20092736,-0.9941201,0.09431259,0.053199526,0.09798382,0.99263525,0.0712352,-0.04608934,0.076029055,-0.99603975,,-0.346356846676095,-0.058013169351174516,0.10915280316,0.0054519385305976335,-0.0038258219934323326,-0.013052689244331523,-0.003920257587222703,,-1.4635351069942868,0.141032547749088,0.09033715381000001,-0.005661628474082157,-0.016942925970914614,0.0002571491950229222,0.003266881322685584
1.8179264880018309,,0.030022405,0.033072144,0.33598077,-0.7061045,-0.57013047,-0.41996107,-0.6962627,0.4509858,0.5584173,-0.12897432,0.68670434,-0.7154038,,0.0035439376,-0.012397952,0.5780472,0.54232,-0.8082218,0.22949153,-0.68250746,-0.26450166,0.6813387,-0.4899719,-0.5261333,-0.695062,,0.022607123,-0.025714047,0.20092736,-0.9941201,0.09431259,0.053199526,0.09798382,0.99263525,0.0712352,-0.04608934,0.076029055,-0.99603975,,-0.346356846676095,-0.058013169351174516,0.10915280316,0.0054519385305976335,-0.0038258219934323326,-0.013052689244331523,-0.003920257587222703,,-1.4635273842614127,0.141032547749088,0.09033715381000001,-0.005661628474082157,-0.016942925970914614,0.0002571491950229222,0.003266881322685584
1.8429455230361782,,0.030023305,0.033071455,0.3359797,-0.7061051,-0.57006776,-0.42004538,-0.6962623,0.4509039,0.55848414,-0.12897371,0.6868103,-0.7153022,,0.003543418,-0.012398116,0.5780469,0.54231924,-0.8082241,0.2294853,-0.6825077,-0.26450622,0.6813367,-0.48997244,-0.52612746,-0.6950659,,0.022607123,-0.025714047,0.20092736,-0.9941201,0.09431259,0.053199526,0.09798382,0.99263525,0.0712352,-0.04608934,0.076029055,-0.99603975,,-0.3463722921418435,-0.058013169351174516,0.10915280316,0.0054519385305976335,-0.0038258219934323326,-0.012889331764050398,-0.004246945719491262,,-1.4635196615285384,0.141032547749088,0.09033715381000001,-0.005661628474082157,-0.016942925970914614,0.0002571491950229222,0.003266881322685584
1.8739669220522046,,0.030023305,0.033071455,0.3359797,-0.7061051,-0.57006776,-0.42004538,-0.6962623,0.4509039,0.55848414,-0.12897371,0.6868103,-0.7153022,,0.0035442878,-0.012398386,0.5780469,0.5423182,-0.8082218,0.22949569,-0.68251276,-0.26450166,0.6813335,-0.48996657,-0.5261333,-0.69506574,,0.022607123,-0.025714047,0.20092736,-0.9941201,0.09431259,0.053199526,0.09798382,0.99263525,0.0712352,-0.04608934,0.076029055,-0.99603975,,-0.3463722921418435,-0.058013169351174516,0.10915280316,0.0054519385305976335,-0.0038258219934323326,-0.012889331764050398,-0.004246945719491262,,-1.4635273842614127,0.14102482501621377,0.09033715381000001,-0.005661628474082157,-0.016942925970914614,0.0002571491950229222,0.003266881322685584
1.9014891960541718,,0.030023305,0.033071455,0.3359797,-0.7061051,-0.57006776,-0.42004538,-0.6962623,0.4509039,0.55848414,-0.12897371,0.6868103,-0.7153022,,0.0035442878,-0.012398386,0.5780469,0.5423182,-0.8082218,0.22949569,-0.68251276,-0.26450166,0.6813335,-0.48996657,-0.5261333,-0.69506574,,0.022607123,-0.025714047,0.20092736,-0.9941201,0.09431259,0.053199526,0.09798382,0.99263525,0.0712352,-0.04608934,0.076029055,-0.99603975,,-0.3463722921418435,-0.058013169351174516,0.10915280316,0.0054519385305976335,-0.0038258219934323326,-0.012889331764050398,-0.004246945719491262,,-1.4635273842614127,0.14102482501621377,0.09033715381000001,-0.005661628474082157,-0.016942925970914614,0.0002571491950229222,0.003266881322685584
1.9289196550380439,,0.030022856,0.033071794,0.33598024,-0.7061049,-0.57006484,-0.42004982,-0.69626254,0.4508992,0.55848753,-0.12897402,0.68681574,-0.7152969,,0.0035442878,-0.012398386,0.5780469,0.5423182,-0.8082218,0.22949569,-0.68251276,-0.26450166,0.6813335,-0.48996657,-0.5261333,-0.69506574,,0.022607123,-0.025714047,0.20092736,-0.9941201,0.09431259,0.053199526,0.09798382,0.99263525,0.0712352,-0.04608934,0.076029055,-0.99603975,,-0.34636456940896926,-0.058013169351174516,0.10915280316,0.0054519385305976335,-0.0038258219934323326,-0.012889331764050398,-0.004246945719491262,,-1.4635273842614127,0.14102482501621377,0.09033715381000001,-0.005661628474082157,-0.016942925970914614,0.0002571491950229222,0.003266881322685584
1.9550731659983285,,0.030022856,0.033071794,0.33598024,-0.7061049,-0.57006484,-0.42004982,-0.69626254,0.4508992,0.55848753,-0.12897402,0.68681574,-0.7152969,,0.0035444591,-0.012397787,0.5780476,0.5423207,-0.80821955,0.22949775,-0.6825073,-0.26449704,0.6813407,-0.48997137,-0.5261391,-0.6950579,,0.022607123,-0.025714047,0.20092736,-0.9941201,0.09431259,0.053199526,0.09798382,0.99263525,0.0712352,-0.04608934,0.076029055,-0.99603975,,-0.34636456940896926,-0.058013169351174516,0.10915280316,0.0054519385305976335,-0.0038258219934323326,-0.012889331764050398,-0.004246945719491262,,-1.4635351069942868,0.141032547749088,0.09033715381000001,-0.005661628474082157,-0.016942925970914614,0.0002571491950229222,0.003266881322685584
1.9844673970364965,,0.030022856,0.033071794,0.33598024,-0.7061049,-0.57006484,-0.42004982,-0.69626254,0.4508992,0.55848753,-0.12897402,0.68681574,-0.7152969,,0.0035444591,-0.012397787,0.5780476,0.5423207,-0.80821955,0.22949775,-0.6825073,-0.26449704,0.6813407,-0.48997137,-0.5261391,-0.6950579,,0.022607123,-0.025714047,0.20092736,-0.9941201,0.09431259,0.053199526,0.09798382,0.99263525,0.0712352,-0.04608934,0.076029055,-0.99603975,,-0.34636456940896926,-0.058013169351174516,0.10915280316,0.0054519385305976335,-0.0038258219934323326,-0.012889331764050398,-0.004246945719491262,,-1.4635351069942868,0.141032547749088,0.09033715381000001,-0.005661628474082157,-0.016942925970914614,0.0002571491950229222,0.003266881322685584
2.0116914300015196,,0.030023305,0.033071455,0.3359797,-0.7061051,-0.57006776,-0.42004538,-0.6962623,0.4509039,0.55848414,-0.12897371,0.6868103,-0.7153022,,0.0035444591,-0.012397787,0.5780476,0.5423207,-0.80821955,0.22949775,-0.6825073,-0.26449704,0.6813407,-0.48997137,-0.5261391,-0.6950579,,0.022607123,-0.025714047,0.20092736,-0.9941201,0.09431259,0.053199526,0.09798382,0.99263525,0.0712352,-0.04608934,0.076029055,-0.99603975,,-0.3463722921418435,-0.058013169351174516,0.10915280316,0.0054519385305976335,-0.0038258219934323326,-0.012889331764050398,-0.004246945719491262,,-1.4635351069942868,0.141032547749088,0.09033715381000001,-0.005661628474082157,-0.016942925970914614,0.0002571491950229222,0.003266881322685584
2.0395945900236256,,0.030023305,0.033071455,0.3359797,-0.7061051,-0.57006776,-0.42004538,-0.6962623,0.4509039,0.55848414,-0.12897371,0.6868103,-0.7153022,,0.0035444591,-0.012397787,0.5780476,0.5423207,-0.80821955,0.22949775,-0.6825073,-0.26449704,0.6813407,-0.48997137,-0.5261391,-0.6950579,,0.022607123,-0.025714047,0.20092736,-0.9941201,0.09431259,0.053199526,0.09798382,0.99263525,0.0712352,-0.04608934,0.076029055,-0.99603975,,-0.3463722921418435,-0.058013169351174516,0.10915280316,0.0054519385305976335,-0.0038258219934323326,-0.012889331764050398,-0.004246945719491262,,-1.4635351069942868,0.141032547749088,0.09033715381000001,-0.005661628474082157,-0.016942925970914614,0.0002571491950229222,0.003266881322685584
2.068391151027754,,0.030023297,0.033071462,0.3359797,-0.70634186,-0.5697709,-0.4200501,-0.6960762,0.45119488,0.5584811,-0.12868182,0.6868655,-0.7153018,,0.0035442878,-0.012398386,0.5780469,0.5423182,-0.8082218,0.22949569,-0.68251276,-0.26450166,0.6813335,-0.48996657,-0.5261333,-0.69506574,,0.022607123,-0.025714047,0.20092736,-0.9941201,0.09431259,0.053199526,0.09798382,0.99263525,0.0712352,-0.04608934,0.076029055,-0.99603975,,-0.3463722921418435,-0.058013169351174516,0.10915280316,0.005871318417566682,-0.0038258219934323326,-0.012889331764050398,-0.004246945719491262,,-1.4635273842614127,0.14102482501621377,0.09033715381000001,-0.005661628474082157,-0.016942925970914614,0.0002571491950229222,0.003266881322685584
2.0935488539980724,,0.030022847,0.0330718,0.33598024,-0.7063416,-0.569768,-0.42005455,-0.6960764,0.45119023,0.5584845,-0.12868212,0.6868709,-0.7152965,,0.0035442878,-0.012398386,0.5780469,0.5423182,-0.8082218,0.22949569,-0.68251276,-0.26450166,0.6813335,-0.48996657,-0.5261333,-0.69506574,,0.022607123,-0.025714047,0.20092736,-0.9941201,0.09431259,0.053199526,0.09798382,0.99263525,0.0712352,-0.04608934,0.076029055,-0.99603975,,-0.34636456940896926,-0.058013169351174516,0.10915280316,0.005871318417566682,-0.0038258219934323326,-0.012889331764050398,-0.004246945719491262,,-1.4635273842614127,0.14102482501621377,0.09033715381000001,-0.005661628474082157,-0.016942925970914614,0.0002571491950229222,0.003266881322685584
2.1198911660467274,,0.030022396,0.03307215,0.33598077,-0.70634127,-0.5697651,-0.4200589,-0.6960767,0.4511856,0.55848795,-0.12868242,0.68687636,-0.7152912,,0.0035448093,-0.012398219,0.5780472,0.542319,-0.80821955,0.22950189,-0.6825126,-0.2644971,0.6813354,-0.48996603,-0.5261391,-0.6950618,,0.022607123,-0.025714047,0.20092736,-0.9941201,0.09431259,0.053199526,0.09798382,0.99263525,0.0712352,-0.04608934,0.076029055,-0.99603975,,-0.346356846676095,-0.058013169351174516,0.10915280316,0.005871318417566682,-0.0038258219934323326,-0.012889331764050398,-0.004246945719491262,,-1.4635351069942868,0.14102482501621377,0.09033715381000001,-0.005661628474082157,-0.016942925970914614,0.0002571491950229222,0.003266881322685584
2.144920960010495,,0.030022396,0.03307215,0.33598077,-0.70634127,-0.5697651,-0.4200589,-0.6960767,0.4511856,0.55848795,-0.12868242,0.68687636,-0.7152912,,0.0035448093,-0.012398219,0.5780472,0.542319,-0.80821955,0.22950189,-0.6825126,-0.2644971,0.6813354,-0.48996603,-0.5261391,-0.6950618,,0.022607123,-0.025714047,0.20092736,-0.9941201,0.09431259,0.053199526,0.09798382,0.99263525,0.0712352,-0.04608934,0.076029055,-0.99603975,,-0.346356846676095,-0.058013169351174516,0.10915280316,0.005871318417566682,-0.0038258219934323326,-0.012889331764050398,-0.004246945719491262,,-1.4635351069942868,0.14102482501621377,0.09033715381000001,-0.005661628474082157,-0.016942925970914614,0.0002571491950229222,0.003266881322685584
2.175410741008818,,0.030022396,0.03307215,0.33598077,-0.70634127,-0.5697651,-0.4200589,-0.6960767,0.4511856,0.55848795,-0.12868242,0.68687636,-0.7152912,,0.0035444591,-0.012397787,0.5780476,0.5423207,-0.80821955,0.22949775,-0.6825073,-0.26449704,0.6813407,-0.48997137,-0.5261391,-0.6950579,,0.022607123,-0.025714047,0.20092736,-0.9941201,0.09431259,0.053199526,0.09798382,0.99263525,0.0712352,-0.04608934,0.076029055,-0.99603975,,-0.346356846676095,-0.058013169351174516,0.10915280316,0.005871318417566682,-0.0038258219934323326,-0.012889331764050398,-0.004246945719491262,,-1.4635351069942868,0.141032547749088,0.09033715381000001,-0.005661628474082157,-0.016942925970914614,0.0002571491950229222,0.003266881322685584
2.2033128600451164,,0.030022396,0.03307215,0.33598077,-0.70634127,-0.5697651,-0.4200589,-0.6960767,0.4511856,0.55848795,-0.12868242,0.68687636,-0.7152912,,0.0035444591,-0.012397787,0.5780476,0.5423207,-0.80821955,0.22949775,-0.6825073,-0.26449704,0.6813407,-0.48997137,-0.5261391,-0.6950579,,0.022607123,-0.025714047,0.20092736,-0.9941201,0.09431259,0.053199526,0.09798382,0.99263525,0.0712352,-0.04608934,0.076029055,-0.99603975,,-0.346356846676095,-0.058013169351174516,0.10915280316,0.005871318417566682,-0.0038258219934323326,-0.012889331764050398,-0.004246945719491262,,-1.4635351069942868,0.141032547749088,0.09033715381000001,-0.005661628474082157,-0.016942925970914614,0.0002571491950229222,0.003266881322685584
2.2322128470405005,,0.030022396,0.03307215,0.33598077,-0.70634127,-0.5697651,-0.4200589,-0.6960767,0.4511856,0.55848795,-0.12868242,0.68687636,-0.7152912,,0.0035448093,-0.012398219,0.5780472,0.542319,-0.80821955,0.22950189,-0.6825126,-0.2644971,0.6813354,-0.48996603,-0.5261391,-0.6950618,,0.022607123,-0.025714047,0.20092736,-0.9941201,0.09431259,0.053199526,0.09798382,0.99263525,0.0712352,-0.04608934,0.076029055,-0.99603975,,-0.346356846676095,-0.058013169351174516,0.10915280316,0.005871318417566682,-0.0038258219934323326,-0.012889331764050398,-0.004246945719491262,,-1.4635351069942868,0.14102482501621377,0.09033715381000001,-0.005661628474082157,-0.016942925970914614,0.0002571491950229222,0.003266881322685584
2.2579564140178263,,0.030022396,0.03307215,0.33598077,-0.70634127,-0.5697651,-0.4200589,-0.6960767,0.4511856,0.55848795,-0.12868242,0.68687636,-0.7152912,,0.0035442878,-0.012398386,0.5780469,0.5423182,-0.8082218,0.22949569,-0.68251276,-0.26450166,0.6813335,-0.48996657,-0.5261333,-0.69506574,,0.022607123,-0.025714047,0.20092736,-0.9941201,0.09431259,0.053199526,0.09798382,0.99263525,0.0712352,-0.04608934,0.076029055,-0.99603975,,-0.346356846676095,-0.058013169351174516,0.10915280316,0.005871318417566682,-0.0038258219934323326,-0.012889331764050398,-0.004246945719491262,,-1.4635273842614127,0.14102482501621377,0.09033715381000001,-0.005661628474082157,-0.016942925970914614,0.0002571491950229222,0.003266881322685584
2.284252234036103,,0.030022396,0.03307215,0.33598077,-0.70634127,-0.5697651,-0.4200589,-0.6960767,0.4511856,0.55848795,-0.12868242,0.68687636,-0.7152912,,0.0035442878,-0.012398386,0.5780469,0.5423182,-0.8082218,0.22949569,-0.68251276,-0.26450166,0.6813335,-0.48996657,-0.5261333,-0.69506574,,0.022607123,-0.025714047,0.20092736,-0.9941201,0.09431259,0.053199526,0.09798382,0.99263525,0.0712352,-0.04608934,0.076029055,-0.99603975,,-0.346356846676095,-0.058013169351174516,0.10915280316,0.005871318417566682,-0.0038258219934323326,-0.012889331764050398,-0.004246945719491262,,-1.4635273842614127,0.14102482501621377,0.09033715381000001,-0.005661628474082157,-0.016942925970914614,0.0002571491950229222,0.003266881322685584
2.31034136202652,,0.030022396,0.03307215,0.33598077,-0.70634127,-0.5697651,-0.4200589,-0.6960767,0.4511856,0.55848795,-0.12868242,0.68687636,-0.7152912,,0.0035444591,-0.012397787,0.5780476,0.5423207,-0.80821955,0.22949775,-0.6825073,-0.26449704,0.6813407,-0.48997137,-0.5261391,-0.6950579,,0.022607123,-0.025714047,0.20092736,-0.9941201,0.09431259,0.053199526,0.09798382,0.99263525,0.0712352,-0.04608934,0.076029055,-0.99603975,,-0.346356846676095,-0.058013169351174516,0.10915280316,0.005871318417566682,-0.0038258219934323326,-0.012889331764050398,-0.004246945719491262,,-1.4635351069942868,0.141032547749088,0.09033715381000001,-0.005661628474082157,-0.016942925970914614,0.0002571491950229222,0.003266881322685584
2.3351368739968166,,0.030022396,0.03307215,0.33598077,-0.70634127,-0.5697651,-0.4200589,-0.6960767,0.4511856,0.55848795,-0.12868242,0.68687636,-0.7152912,,0.0035444591,-0.012397787,0.5780476,0.5423207,-0.80821955,0.22949775,-0.6825073,-0.26449704,0.6813407,-0.48997137,-0.5261391,-0.6950579,,0.022607123,-0.025714047,0.20092736,-0.9941201,0.09431259,0.053199526,0.09798382,0.99263525,0.0712352,-0.04608934,0.076029055,-0.99603975,,-0.346356846676095,-0.058013169351174516,0.10915280316,0.005871318417566682,-0.0038258219934323326,-0.012889331764050398,-0.004246945719491262,,-1.4635351069942868,0.141032547749088,0.09033715381000001,-0.005661628474082157,-0.016942925970914614,0.0002571491950229222,0.003266881322685584
2.3615680870134383,,0.030022396,0.03307215,0.33598077,-0.70634127,-0.5697651,-0.4200589,-0.6960767,0.4511856,0.55848795,-0.12868242,0.68687636,-0.7152912,,0.0035448093,-0.012398219,0.5780472,0.542319,-0.80821955,0.22950189,-0.6825126,-0.2644971,0.6813354,-0.48996603,-0.5261391,-0.6950618,,0.022607123,-0.025714047,0.20092736,-0.9941201,0.09431259,0.053199526,0.09798382,0.99263525,0.0712352,-0.04608934,0.076029055,-0.99603975,,-0.346356846676095,-0.058013169351174516,0.10915280316,0.005871318417566682,-0.0038258219934323326,-0.012889331764050398,-0.004246945719491262,,-1.4635351069942868,0.14102482501621377,0.09033715381000001,-0.005661628474082157,-0.016942925970914614,0.0002571491950229222,0.003266881322685584
2.3876770740025677,,0.030023297,0.033071462,0.3359797,-0.70634186,-0.5697709,-0.4200501,-0.6960762,0.45119488,0.5584811,-0.12868182,0.6868655,-0.7153018,,0.0035444591,-0.012397787,0.5780476,0.5423207,-0.80821955,0.22949775,-0.6825073,-0.26449704,0.6813407,-0.48997137,-0.5261391,-0.6950579,,0.022607123,-0.025714047,0.20092736,-0.9941201,0.09431259,0.053199526,0.09798382,0.99263525,0.0712352,-0.04608934,0.076029055,-0.99603975,,-0.3463722921418435,-0.058013169351174516,0.10915280316,0.005871318417566682,-0.0038258219934323326,-0.012889331764050398,-0.004246945719491262,,-1.4635351069942868,0.141032547749088,0.09033715381000001,-0.005661628474082157,-0.016942925970914614,0.0002571491950229222,0.003266881322685584
2.4128628910402767,,0.030023297,0.033071462,0.3359797,-0.70634186,-0.5697709,-0.4200501,-0.6960762,0.45119488,0.5584811,-0.12868182,0.6868655,-0.7153018,,0.0035439376,-0.012397952,0.5780472,0.54232,-0.8082218,0.22949153,-0.68250746,-0.26450166,0.6813387,-0.4899719,-0.5261333,-0.695062,,0.022607123,-0.025714047,0.20092736,-0.9941201,0.09431259,0.053199526,0.09798382,0.99263525,0.0712352,-0.04608934,0.076029055,-0.99603975,,-0.3463722921418435,-0.058013169351174516,0.10915280316,0.005871318417566682,-0.0038258219934323326,-0.012889331764050398,-0.004246945719491262,,-1.4635273842614127,0.141032547749088,0.09033715381000001,-0.005661628474082157,-0.016942925970914614,0.0002571491950229222,0.003266881322685584
2.4415139839984477,,0.030023297,0.033071462,0.3359797,-0.70634186,-0.5697709,-0.4200501,-0.6960762,0.45119488,0.5584811,-0.12868182,0.6868655,-0.7153018,,0.0035444591,-0.012397787,0.5780476,0.5423207,-0.80821955,0.22949775,-0.6825073,-0.26449704,0.6813407,-0.48997137,-0.5261391,-0.6950579,,0.022607123,-0.025714047,0.20092736,-0.9941201,0.09431259,0.053199526,0.09798382,0.99263525,0.0712352,-0.04608934,0.076029055,-0.99603975,,-0.3463722921418435,-0.058013169351174516,0.10915280316,0.005871318417566682,-0.0038258219934323326,-0.012889331764050398,-0.004246945719491262,,-1.4635351069942868,0.141032547749088,0.09033715381000001,-0.005661628474082157,-0.016942925970914614,0.0002571491950229222,0.003266881322685584
2.469338021008298,,0.030022847,0.0330718,0.33598024,-0.7063416,-0.569768,-0.42005455,-0.6960764,0.45119023,0.5584845,-0.12868212,0.6868709,-0.7152965,,0.0035442878,-0.012398386,0.5780469,0.5423182,-0.8082218,0.22949569,-0.68251276,-0.26450166,0.6813335,-0.48996657,-0.5261333,-0.69506574,,0.022607123,-0.025714047,0.20092736,-0.9941201,0.09431259,0.053199526,0.09798382,0.99263525,0.0712352,-0.04608934,0.076029055,-0.99603975,,-0.34636456940896926,-0.058013169351174516,0.10915280316,0.005871318417566682,-0.0038258219934323326,-0.012889331764050398,-0.004246945719491262,,-1.4635273842614127,0.14102482501621377,0.09033715381000001,-0.005661628474082157,-0.016942925970914614,0.0002571491950229222,0.003266881322685584
2.494896326039452,,0.030021839,0.033071604,0.33598068,-0.706338,-0.56976515,-0.4200644,-0.69608104,0.45118555,0.5584826,-0.12867697,0.6868763,-0.7152922,,0.0035448093,-0.012398219,0.5780472,0.542319,-0.80821955,0.22950189,-0.6825126,-0.2644971,0.6813354,-0.48996603,-0.5261391,-0.6950618,,0.022607123,-0.025714047,0.20092736,-0.9941201,0.09431259,0.053199526,0.09798382,0.99263525,0.0712352,-0.04608934,0.076029055,-0.99603975,,-0.346356846676095,-0.058020892084048745,0.10915280316,0.005871318417566682,-0.0038258219934323326,-0.012889331764050398,-0.004246945719491262,,-1.4635351069942868,0.14102482501621377,0.09033715381000001,-0.005661628474082157,-0.016942925970914614,0.0002571491950229222,0.003266881322685584
2.523441009048838,,0.030023297,0.033071462,0.3359797,-0.70634186,-0.5697709,-0.4200501,-0.6960762,0.45119488,0.5584811,-0.12868182,0.6868655,-0.7153018,,0.0035448093,-0.012398219,0.5780472,0.542319,-0.80821955,0.22950189,-0.6825126,-0.2644971,0.6813354,-0.48996603,-0.5261391,-0.6950618,,0.022607123,-0.025714047,0.20092736,-0.9941201,0.09431259,0.053199526,0.09798382,0.99263525,0.0712352,-0.04608934,0.076029055,-0.99603975,,-0.3463722921418435,-0.058013169351174516,0.10915280316,0.005871318417566682,-0.0038258219934323326,-0.012889331764050398,-0.004246945719491262,,-1.4635351069942868,0.14102482501621377,0.09033715381000001,-0.005661628474082157,-0.016942925970914614,0.0002571491950229222,0.003266881322685584
2.545474634040147,,0.030023297,0.033071462,0.3359797,-0.70634186,-0.5697709,-0.4200501,-0.6960762,0.45119488,0.5584811,-0.12868182,0.6868655,-0.7153018,,0.0035448093,-0.012398219,0.5780472,0.542319,-0.80821955,0.22950189,-0.6825126,-0.2644971,0.6813354,-0.48996603,-0.5261391,-0.6950618,,0.022607123,-0.025714047,0.20092736,-0.9941201,0.09431259,0.053199526,0.09798382,0.99263525,0.0712352,-0.04608934,0.076029055,-0.99603975,,-0.3463722921418435,-0.058013169351174516,0.10915280316,0.005871318417566682,-0.0038258219934323326,-0.012889331764050398,-0.004246945719491262,,-1.4635351069942868,0.14102482501621377,0.09033715381000001,-0.005661628474082157,-0.016942925970914614,0.0002571491950229222,0.003266881322685584
2.5744754550396465,,0.030023297,0.033071462,0.3359797,-0.70634186,-0.5697709,-0.4200501,-0.6960762,0.45119488,0.5584811,-0.12868182,0.6868655,-0.7153018,,0.0035444591,-0.012397787,0.5780476,0.5423207,-0.80821955,0.22949775,-0.6825073,-0.26449704,0.6813407,-0.48997137,-0.5261391,-0.6950579,,0.022607123,-0.025714047,0.20092736,-0.9941201,0.09431259,0.053199526,0.09798382,0.99263525,0.0712352,-0.04608934,0.076029055,-0.99603975,,-0.3463722921418435,-0.058013169351174516,0.10915280316,0.005871318417566682,-0.0038258219934323326,-0.012889331764050398,-0.004246945719491262,,-1.4635351069942868,0.141032547749088,0.09033715381000001,-0.005661628474082157,-0.016942925970914614,0.0002571491950229222,0.003266881322685584
2.597245360026136,,0.030023297,0.033071462,0.3359797,-0.70634186,-0.5697709,-0.4200501,-0.6960762,0.45119488,0.5584811,-0.12868182,0.6868655,-0.7153018,,0.0035444591,-0.012397787,0.5780476,0.5423207,-0.80821955,0.22949775,-0.6825073,-0.26449704,0.6813407,-0.48997137,-0.5261391,-0.6950579,,0.022607123,-0.025714047,0.20092736,-0.9941201,0.09431259,0.053199526,0.09798382,0.99263525,0.0712352,-0.04608934,0.076029055,-0.99603975,,-0.3463722921418435,-0.058013169351174516,0.10915280316,0.005871318417566682,-0.0038258219934323326,-0.012889331764050398,-0.004246945719491262,,-1.4635351069942868,0.141032547749088,0.09033715381000001,-0.005661628474082157,-0.016942925970914614,0.0002571491950229222,0.003266881322685584
2.6253511790418997,,0.029995771,0.0330866,0.33598164,-0.70636016,-0.5697397,-0.4200617,-0.69606,0.45119682,0.55849963,-0.12866893,0.6868901,-0.7152805,,0.0035547,-0.01241876,0.5780757,0.5423083,-0.8082084,0.2295664,-0.6825698,-0.26449147,0.68128014,-0.48989806,-0.526159,-0.6950946,,0.022572132,-0.025692288,0.20092657,-0.9941167,0.09434637,0.05320297,0.09801782,0.99263185,0.07123538,-0.046090156,0.07603115,-0.99603957,,-0.346356846676095,-0.058013169351174516,0.10915280316,0.005871318417566682,-0.0038258219934323326,-0.012889331764050398,-0.004246945719491262,,-1.4635351069942868,0.14102482501621377,0.09033715381000001,-0.005661628474082157,-0.016942925970914614,0.0002571491950229222,0.003266881322685584
2.650828674028162,,0.029995771,0.0330866,0.33598164,-0.70636016,-0.5697397,-0.4200617,-0.69606,0.45119682,0.55849963,-0.12866893,0.6868901,-0.7152805,,0.0035547,-0.01241876,0.5780757,0.5423083,-0.8082084,0.2295664,-0.6825698,-0.26449147,0.68128014,-0.48989806,-0.526159,-0.6950946,,0.022572132,-0.025692288,0.20092657,-0.9941167,0.09434637,0.05320297,0.09801782,0.99263185,0.07123538,-0.046090156,0.07603115,-0.99603957,,-0.346356846676095,-0.058013169351174516,0.10915280316,0.005871318417566682,-0.0038258219934323326,-0.012889331764050398,-0.004246945719491262,,-1.4635351069942868,0.14102482501621377,0.09033715381000001,-0.005661628474082157,-0.016942925970914614,0.0002571491950229222,0.003266881322685584
2.6761020370176993,,0.029995771,0.0330866,0.33598164,-0.70636016,-0.5697397,-0.4200617,-0.69606,0.45119682,0.55849963,-0.12866893,0.6868901,-0.7152805,,0.0035541821,-0.012418922,0.57807535,0.54230756,-0.80821073,0.22956017,-0.68257004,-0.26449603,0.6812782,-0.4898986,-0.5261532,-0.6950986,,0.022572132,-0.025692288,0.20092657,-0.9941167,0.09434637,0.05320297,0.09801782,0.99263185,0.07123538,-0.046090156,0.07603115,-0.99603957,,-0.346356846676095,-0.058013169351174516,0.10915280316,0.005871318417566682,-0.0038258219934323326,-0.012889331764050398,-0.004246945719491262,,-1.4635273842614127,0.14102482501621377,0.09033715381000001,-0.005661628474082157,-0.016942925970914614,0.0002571491950229222,0.003266881322685584
2.7066568000009283,,0.029995771,0.0330866,0.33598164,-0.70636016,-0.5697739,-0.42001522,-0.69606,0.45124242,0.55846286,-0.12866893,0.6868317,-0.71533656,,0.0035547,-0.01241876,0.5780757,0.5423083,-0.8082084,0.2295664,-0.6825698,-0.26449147,0.68128014,-0.48989806,-0.526159,-0.6950946,,0.022572132,-0.025692288,0.20092657,-0.9941167,0.09434637,0.05320297,0.09801782,0.99263185,0.07123538,-0.046090156,0.07603115,-0.99603957,,-0.346356846676095,-0.058013169351174516,0.10915280316,0.005871318417566682,-0.0038258219934323326,-0.012971010504190961,-0.004083601653356982,,-1.4635351069942868,0.14102482501621377,0.09033715381000001,-0.005661628474082157,-0.016942925970914614,0.0002571491950229222,0.003266881322685584
2.7352386170532554,,0.029995771,0.0330866,0.33598164,-0.70636016,-0.56980824,-0.41996866,-0.69606,0.45128807,0.55842596,-0.12866893,0.68677324,-0.71539265,,0.0035547,-0.01241876,0.5780757,0.5423083,-0.8082084,0.2295664,-0.6825698,-0.26449147,0.68128014,-0.48989806,-0.526159,-0.6950946,,0.022572132,-0.025692288,0.20092657,-0.9941167,0.09434637,0.05320297,0.09801782,0.99263185,0.07123538,-0.046090156,0.07603115,-0.99603957,,-0.346356846676095,-0.058013169351174516,0.10915280316,0.005871318417566682,-0.0038258219934323326,-0.013052689244331523,-0.003920257587222703,,-1.4635351069942868,0.14102482501621377,0.09033715381000001,-0.005661628474082157,-0.016942925970914614,0.0002571491950229222,0.003266881322685584
2.7598267000284977,,0.02999578,0.033086594,0.3359816,-0.70612353,-0.57010514,-0.4199639,-0.6962461,0.45099702,0.55842906,-0.12896082,0.6867181,-0.71539307,,0.0035543498,-0.012418326,0.578076,0.54231006,-0.8082084,0.22956225,-0.6825646,-0.26449147,0.68128544,-0.48990342,-0.52615905,-0.6950908,,0.022572132,-0.025692288,0.20092657,-0.9941167,0.09434637,0.05320297,0.09801782,0.99263185,0.07123538,-0.046090156,0.07603115,-0.99603957,,-0.346356846676095,-0.058013169351174516,0.10915280316,0.0054519385305976335,-0.0038258219934323326,-0.013052689244331523,-0.003920257587222703,,-1.4635351069942868,0.141032547749088,0.09033715381000001,-0.005661628474082157,-0.016942925970914614,0.0002571491950229222,0.003266881322685584
2.783428627997637,,0.02999578,0.033086594,0.3359816,-0.70612353,-0.57010514,-0.4199639,-0.6962461,0.45099702,0.55842906,-0.12896082,0.6867181,-0.71539307,,0.0035543498,-0.012418326,0.578076,0.54231006,-0.8082084,0.22956225,-0.6825646,-0.26449147,0.68128544,-0.48990342,-0.52615905,-0.6950908,,0.022572132,-0.025692288,0.20092657,-0.9941167,0.09434637,0.05320297,0.09801782,0.99263185,0.07123538,-0.046090156,0.07603115,-0.99603957,,-0.346356846676095,-0.058013169351174516,0.10915280316,0.0054519385305976335,-0.0038258219934323326,-0.013052689244331523,-0.003920257587222703,,-1.4635351069942868,0.141032547749088,0.09033715381000001,-0.005661628474082157,-0.016942925970914614,0.0002571491950229222,0.003266881322685584
2.8113700510002673,,0.029995222,0.03308604,0.3359815,-0.70612013,-0.5701052,-0.4199693,-0.69625044,0.45099697,0.5584237,-0.12895536,0.6867181,-0.715394,,0.0035547,-0.01241876,0.5780757,0.5423083,-0.8082084,0.2295664,-0.6825698,-0.26449147,0.68128014,-0.48989806,-0.526159,-0.6950946,,0.022572132,-0.025692288,0.20092657,-0.9941167,0.09434637,0.05320297,0.09801782,0.99263185,0.07123538,-0.046090156,0.07603115,-0.99603957,,-0.346356846676095,-0.058020892084048745,0.10915280316,0.0054519385305976335,-0.0038258219934323326,-0.013052689244331523,-0.003920257587222703,,-1.4635351069942868,0.14102482501621377,0.09033715381000001,-0.005661628474082157,-0.016942925970914614,0.0002571491950229222,0.003266881322685584
2.8386770030483603,,0.02999578,0.033086594,0.3359816,-0.70612353,-0.57010514,-0.4199639,-0.6962461,0.45099702,0.55842906,-0.12896082,0.6867181,-0.71539307,,0.0035547,-0.01241876,0.5780757,0.5423083,-0.8082084,0.2295664,-0.6825698,-0.26449147,0.68128014,-0.48989806,-0.526159,-0.6950946,,0.022572132,-0.025692288,0.20092657,-0.9941167,0.09434637,0.05320297,0.09801782,0.99263185,0.07123538,-0.046090156,0.07603115,-0.99603957,,-0.346356846676095,-0.058013169351174516,0.10915280316,0.0054519385305976335,-0.0038258219934323326,-0.013052689244331523,-0.003920257587222703,,-1.4635351069942868,0.14102482501621377,0.09033715381000001,-0.005661628474082157,-0.016942925970914614,0.0002571491950229222,0.003266881322685584
2.86331742600305,,0.02999578,0.033086594,0.3359816,-0.70612353,-0.57010514,-0.4199639,-0.6962461,0.45099702,0.55842906,-0.12896082,0.6867181,-0.71539307,,0.0035541821,-0.012418922,0.57807535,0.54230756,-0.80821073,0.22956017,-0.68257004,-0.26449603,0.6812782,-0.4898986,-0.5261532,-0.6950986,,0.022572132,-0.025692288,0.20092657,-0.9941167,0.09434637,0.05320297,0.09801782,0.99263185,0.07123538,-0.046090156,0.07603115,-0.99603957,,-0.346356846676095,-0.058013169351174516,0.10915280316,0.0054519385305976335,-0.0038258219934323326,-0.013052689244331523,-0.003920257587222703,,-1.4635273842614127,0.14102482501621377,0.09033715381000001,-0.005661628474082157,-0.016942925970914614,0.0002571491950229222,0.003266881322685584
2.893537253024988,,0.029995222,0.03308604,0.3359815,-0.70612013,-0.5701052,-0.4199693,-0.69625044,0.45099697,0.5584237,-0.12895536,0.6867181,-0.715394,,0.0035543498,-0.012418326,0.578076,0.54231006,-0.8082084,0.22956225,-0.6825646,-0.26449147,0.68128544,-0.48990342,-0.52615905,-0.6950908,,0.022572132,-0.025692288,0.20092657,-0.9941167,0.09434637,0.05320297,0.09801782,0.99263185,0.07123538,-0.046090156,0.07603115,-0.99603957,,-0.346356846676095,-0.058020892084048745,0.10915280316,0.0054519385305976335,-0.0038258219934323326,-0.013052689244331523,-0.003920257587222703,,-1.4635351069942868,0.141032547749088,0.09033715381000001,-0.005661628474082157,-0.016942925970914614,0.0002571491950229222,0.003266881322685584
2.919555244036019,,0.02999578,0.033086594,0.3359816,-0.70612353,-0.57010514,-0.4199639,-0.6962461,0.45099702,0.55842906,-0.12896082,0.6867181,-0.71539307,,0.0035543498,-0.012418326,0.578076,0.54231006,-0.8082084,0.22956225,-0.6825646,-0.26449147,0.68128544,-0.48990342,-0.52615905,-0.6950908,,0.022572132,-0.025692288,0.20092657,-0.9941167,0.09434637,0.05320297,0.09801782,0.99263185,0.07123538,-0.046090156,0.07603115,-0.99603957,,-0.346356846676095,-0.058013169351174516,0.10915280316,0.0054519385305976335,-0.0038258219934323326,-0.013052689244331523,-0.003920257587222703,,-1.4635351069942868,0.141032547749088,0.09033715381000001,-0.005661628474082157,-0.016942925970914614,0.0002571491950229222,0.003266881322685584
2.944645309005864,,0.02999578,0.033086594,0.3359816,-0.70612353,-0.57010514,-0.4199639,-0.6962461,0.45099702,0.55842906,-0.12896082,0.6867181,-0.71539307,,0.0035547,-0.01241876,0.5780757,0.5423083,-0.8082084,0.2295664,-0.6825698,-0.26449147,0.68128014,-0.48989806,-0.526159,-0.6950946,,0.022572132,-0.025692288,0.20092657,-0.9941167,0.09434637,0.05320297,0.09801782,0.99263185,0.07123538,-0.046090156,0.07603115,-0.99603957,,-0.346356846676095,-0.058013169351174516,0.10915280316,0.0054519385305976335,-0.0038258219934323326,-0.013052689244331523,-0.003920257587222703,,-1.4635351069942868,0.14102482501621377,0.09033715381000001,-0.005661628474082157,-0.016942925970914614,0.0002571491950229222,0.003266881322685584
2.973318600037601,,0.02999578,0.033086594,0.3359816,-0.70612353,-0.57010514,-0.4199639,-0.6962461,0.45099702,0.55842906,-0.12896082,0.6867181,-0.71539307,,0.003553832,-0.012418486,0.5780757,0.5423093,-0.80821073,0.22955602,-0.68256474,-0.26449603,0.6812835,-0.48990396,-0.5261532,-0.69509476,,0.022572132,-0.025692288,0.20092657,-0.9941167,0.09434637,0.05320297,0.09801782,0.99263185,0.07123538,-0.046090156,0.07603115,-0.99603957,,-0.346356846676095,-0.058013169351174516,0.10915280316,0.0054519385305976335,-0.0038258219934323326,-0.013052689244331523,-0.003920257587222703,,-1.4635273842614127,0.141032547749088,0.09033715381000001,-0.005661628474082157,-0.016942925970914614,0.0002571491950229222,0.003266881322685584
2.999284384015482,,0.02999578,0.033086594,0.3359816,-0.70612353,-0.57010514,-0.4199639,-0.6962461,0.45099702,0.55842906,-0.12896082,0.6867181,-0.71539307,,0.0035547,-0.01241876,0.5780757,0.5423083,-0.8082084,0.2295664,-0.6825698,-0.26449147,0.68128014,-0.48989806,-0.526159,-0.6950946,,0.022572132,-0.025692288,0.20092657,-0.9941167,0.09434637,0.05320297,0.09801782,0.99263185,0.07123538,-0.046090156,0.07603115,-0.99603957,,-0.346356846676095,-0.058013169351174516,0.10915280316,0.0054519385305976335,-0.0038258219934323326,-0.013052689244331523,-0.003920257587222703,,-1.4635351069942868,0.14102482501621377,0.09033715381000001,-0.005661628474082157,-0.016942925970914614,0.0002571491950229222,0.003266881322685584
3.021512068051379,,0.02999578,0.033086594,0.3359816,-0.70612353,-0.57010514,-0.4199639,-0.6962461,0.45099702,0.55842906,-0.12896082,0.6867181,-0.71539307,,0.0035547,-0.01241876,0.5780757,0.5423083,-0.8082084,0.2295664,-0.6825698,-0.26449147,0.68128014,-0.48989806,-0.526159,-0.6950946,,0.022572132,-0.025692288,0.20092657,-0.9941167,0.09434637,0.05320297,0.09801782,0.99263185,0.07123538,-0.046090156,0.07603115,-0.99603957,,-0.346356846676095,-0.058013169351174516,0.10915280316,0.0054519385305976335,-0.0038258219934323326,-0.013052689244331523,-0.003920257587222703,,-1.4635351069942868,0.14102482501621377,0.09033715381000001,-0.005661628474082157,-0.016942925970914614,0.0002571491950229222,0.003266881322685584
3.0462793440092355,,0.02999578,0.033086594,0.3359816,-0.70612353,-0.57010514,-0.4199639,-0.6962461,0.45099702,0.55842906,-0.12896082,0.6867181,-0.71539307,,0.0035541821,-0.012418922,0.57807535,0.54230756,-0.80821073,0.22956017,-0.68257004,-0.26449603,0.6812782,-0.4898986,-0.5261532,-0.6950986,,0.022572132,-0.025692288,0.20092657,-0.9941167,0.09434637,0.05320297,0.09801782,0.99263185,0.07123538,-0.046090156,0.07603115,-0.99603957,,-0.346356846676095,-0.058013169351174516,0.10915280316,0.0054519385305976335,-0.0038258219934323326,-0.013052689244331523,-0.003920257587222703,,-1.4635273842614127,0.14102482501621377,0.09033715381000001,-0.005661628474082157,-0.016942925970914614,0.0002571491950229222,0.003266881322685584
3.0755303280311637,,0.02999578,0.033086594,0.3359816,-0.70612353,-0.57010514,-0.4199639,-0.6962461,0.45099702,0.55842906,-0.12896082,0.6867181,-0.71539307,,0.0035543498,-0.012418326,0.578076,0.54231006,-0.8082084,0.22956225,-0.6825646,-0.26449147,0.68128544,-0.48990342,-0.52615905,-0.6950908,,0.022572132,-0.025692288,0.20092657,-0.9941167,0.09434637,0.05320297,0.09801782,0.99263185,0.07123538,-0.046090156,0.07603115,-0.99603957,,-0.346356846676095,-0.058013169351174516,0.10915280316,0.0054519385305976335,-0.0038258219934323326,-0.013052689244331523,-0.003920257587222703,,-1.4635351069942868,0.141032547749088,0.09033715381000001,-0.005661628474082157,-0.016942925970914614,0.0002571491950229222,0.003266881322685584
3.104736319044605,,0.02999578,0.033086594,0.3359816,-0.70612353,-0.57010514,-0.4199639,-0.6962461,0.45099702,0.55842906,-0.12896082,0.6867181,-0.71539307,,0.0035533104,-0.012418659,0.57807535,0.54230857,-0.80821294,0.22954981,-0.682565,-0.26450056,0.6812815,-0.4899045,-0.5261474,-0.69509876,,0.022572132,-0.025692288,0.20092657,-0.9941167,0.09434637,0.05320297,0.09801782,0.99263185,0.07123538,-0.046090156,0.07603115,-0.99603957,,-0.346356846676095,-0.058013169351174516,0.10915280316,0.0054519385305976335,-0.0038258219934323326,-0.013052689244331523,-0.003920257587222703,,-1.4635196615285384,0.141032547749088,0.09033715381000001,-0.005661628474082157,-0.016942925970914614,0.0002571491950229222,0.003266881322685584
3.1328135560033843,,0.029995222,0.03308604,0.3359815,-0.70612013,-0.5701052,-0.4199693,-0.69625044,0.45099697,0.5584237,-0.12895536,0.6867181,-0.715394,,0.0035547,-0.01241876,0.5780757,0.5423083,-0.8082084,0.2295664,-0.6825698,-0.26449147,0.68128014,-0.48989806,-0.526159,-0.6950946,,0.022572132,-0.025692288,0.20092657,-0.9941167,0.09434637,0.05320297,0.09801782,0.99263185,0.07123538,-0.046090156,0.07603115,-0.99603957,,-0.346356846676095,-0.058020892084048745,0.10915280316,0.0054519385305976335,-0.0038258219934323326,-0.013052689244331523,-0.003920257587222703,,-1.4635351069942868,0.14102482501621377,0.09033715381000001,-0.005661628474082157,-0.016942925970914614,0.0002571491950229222,0.003266881322685584
3.1606879830360413,,0.029995222,0.03308604,0.3359815,-0.70612013,-0.5701052,-0.4199693,-0.69625044,0.45099697,0.5584237,-0.12895536,0.6867181,-0.715394,,0.0035543498,-0.012418326,0.578076,0.54231006,-0.8082084,0.22956225,-0.6825646,-0.26449147,0.68128544,-0.48990342,-0.52615905,-0.6950908,,0.022572132,-0.025692288,0.20092657,-0.9941167,0.09434637,0.05320297,0.09801782,0.99263185,0.07123538,-0.046090156,0.07603115,-0.99603957,,-0.346356846676095,-0.058020892084048745,0.10915280316,0.0054519385305976335,-0.0038258219934323326,-0.013052689244331523,-0.003920257587222703,,-1.4635351069942868,0.141032547749088,0.09033715381000001,-0.005661628474082157,-0.016942925970914614,0.0002571491950229222,0.003266881322685584
3.1864814099972136,,0.029996231,0.033086255,0.33598107,-0.7061237,-0.570108,-0.41995943,-0.6962459,0.45100164,0.5584256,-0.12896052,0.6867126,-0.7153984,,0.0035541821,-0.012418922,0.57807535,0.54230756,-0.80821073,0.22956017,-0.68257004,-0.26449603,0.6812782,-0.4898986,-0.5261532,-0.6950986,,0.022572132,-0.025692288,0.20092657,-0.9941167,0.09434637,0.05320297,0.09801782,0.99263185,0.07123538,-0.046090156,0.07603115,-0.99603957,,-0.34636456940896926,-0.058013169351174516,0.10915280316,0.0054519385305976335,-0.0038258219934323326,-0.013052689244331523,-0.003920257587222703,,-1.4635273842614127,0.14102482501621377,0.09033715381000001,-0.005661628474082157,-0.016942925970914614,0.0002571491950229222,0.003266881322685584
3.2122700060135685,,0.02999578,0.033086594,0.3359816,-0.70612353,-0.57010514,-0.4199639,-0.6962461,0.45099702,0.55842906,-0.12896082,0.6867181,-0.71539307,,0.0035541821,-0.012418922,0.57807535,0.54230756,-0.80821073,0.22956017,-0.68257004,-0.26449603,0.6812782,-0.4898986,-0.5261532,-0.6950986,,0.022572132,-0.025692288,0.20092657,-0.9941167,0.09434637,0.05320297,0.09801782,0.99263185,0.07123538,-0.046090156,0.07603115,-0.99603957,,-0.346356846676095,-0.058013169351174516,0.10915280316,0.0054519385305976335,-0.0038258219934323326,-0.013052689244331523,-0.003920257587222703,,-1.4635273842614127,0.14102482501621377,0.09033715381000001,-0.005661628474082157,-0.016942925970914614,0.0002571491950229222,0.003266881322685584
3.242109860002529,,0.02999578,0.033086594,0.3359816,-0.70612353,-0.57010514,-0.4199639,-0.6962461,0.45099702,0.55842906,-0.12896082,0.6867181,-0.71539307,,0.0035541821,-0.012418922,0.57807535,0.54230756,-0.80821073,0.22956017,-0.68257004,-0.26449603,0.6812782,-0.4898986,-0.5261532,-0.6950986,,0.022572132,-0.025692288,0.20092657,-0.9941167,0.09434637,0.05320297,0.09801782,0.99263185,0.07123538,-0.046090156,0.07603115,-0.99603957,,-0.346356846676095,-0.058013169351174516,0.10915280316,0.0054519385305976335,-0.0038258219934323326,-0.013052689244331523,-0.003920257587222703,,-1.4635273842614127,0.14102482501621377,0.09033715381000001,-0.005661628474082157,-0.016942925970914614,0.0002571491950229222,0.003266881322685584
3.267450938001275,,0.02999578,0.033086594,0.3359816,-0.70612353,-0.57010514,-0.4199639,-0.6962461,0.45099702,0.55842906,-0.12896082,0.6867181,-0.71539307,,0.0035543498,-0.012418326,0.578076,0.54231006,-0.8082084,0.22956225,-0.6825646,-0.26449147,0.68128544,-0.48990342,-0.52615905,-0.6950908,,0.022572132,-0.025692288,0.20092657,-0.9941167,0.09434637,0.05320297,0.09801782,0.99263185,0.07123538,-0.046090156,0.07603115,-0.99603957,,-0.346356846676095,-0.058013169351174516,0.10915280316,0.0054519385305976335,-0.0038258219934323326,-0.013052689244331523,-0.003920257587222703,,-1.4635351069942868,0.141032547749088,0.09033715381000001,-0.005661628474082157,-0.016942925970914614,0.0002571491950229222,0.003266881322685584
3.294401908002328,,0.02999578,0.033086594,0.3359816,-0.70612353,-0.57010514,-0.4199639,-0.6962461,0.45099702,0.55842906,-0.12896082,0.6867181,-0.71539307,,0.0035543498,-0.012418326,0.578076,0.54231006,-0.8082084,0.22956225,-0.6825646,-0.26449147,0.68128544,-0.48990342,-0.52615905,-0.6950908,,0.022572132,-0.025692288,0.20092657,-0.9941167,0.09434637,0.05320297,0.09801782,0.99263185,0.07123538,-0.046090156,0.07603115,-0.99603957,,-0.346356846676095,-0.058013169351174516,0.10915280316,0.0054519385305976335,-0.0038258219934323326,-0.013052689244331523,-0.003920257587222703,,-1.4635351069942868,0.141032547749088,0.09033715381000001,-0.005661628474082157,-0.016942925970914614,0.0002571491950229222,0.003266881322685584
3.3212493080063723,,0.029996231,0.033086255,0.33598107,-0.7061237,-0.570108,-0.41995943,-0.6962459,0.45100164,0.5584256,-0.12896052,0.6867126,-0.7153984,,0.0035543498,-0.012418326,0.578076,0.54231006,-0.8082084,0.22956225,-0.6825646,-0.26449147,0.68128544,-0.48990342,-0.52615905,-0.6950908,,0.022572132,-0.025692288,0.20092657,-0.9941167,0.09434637,0.05320297,0.09801782,0.99263185,0.07123538,-0.046090156,0.07603115,-0.99603957,,-0.34636456940896926,-0.058013169351174516,0.10915280316,0.0054519385305976335,-0.0038258219934323326,-0.013052689244331523,-0.003920257587222703,,-1.4635351069942868,0.141032547749088,0.09033715381000001,-0.005661628474082157,-0.016942925970914614,0.0002571491950229222,0.003266881322685584
3.3454821860068478,,0.02999578,0.033086594,0.3359816,-0.70612353,-0.57010514,-0.4199639,-0.6962461,0.45099702,0.55842906,-0.12896082,0.6867181,-0.71539307,,0.0035547,-0.01241876,0.5780757,0.5423083,-0.8082084,0.2295664,-0.6825698,-0.26449147,0.68128014,-0.48989806,-0.526159,-0.6950946,,0.022572132,-0.025692288,0.20092657,-0.9941167,0.09434637,0.05320297,0.09801782,0.99263185,0.07123538,-0.046090156,0.07603115,-0.99603957,,-0.346356846676095,-0.058013169351174516,0.10915280316,0.0054519385305976335,-0.0038258219934323326,-0.013052689244331523,-0.003920257587222703,,-1.4635351069942868,0.14102482501621377,0.09033715381000001,-0.005661628474082157,-0.016942925970914614,0.0002571491950229222,0.003266881322685584
3.3749383510439657,,0.02999668,0.0330859,0.3359805,-0.70612407,-0.5701109,-0.41995502,-0.6962457,0.4510063,0.55842215,-0.12896022,0.6867072,-0.7154036,,0.0035541821,-0.012418922,0.57807535,0.54230756,-0.80821073,0.22956017,-0.68257004,-0.26449603,0.6812782,-0.4898986,-0.5261532,-0.6950986,,0.022572132,-0.025692288,0.20092657,-0.9941167,0.09434637,0.05320297,0.09801782,0.99263185,0.07123538,-0.046090156,0.07603115,-0.99603957,,-0.3463722921418435,-0.058013169351174516,0.10915280316,0.0054519385305976335,-0.0038258219934323326,-0.013052689244331523,-0.003920257587222703,,-1.4635273842614127,0.14102482501621377,0.09033715381000001,-0.005661628474082157,-0.016942925970914614,0.0002571491950229222,0.003266881322685584
3.3994199730223045,,0.029996123,0.03308535,0.33598042,-0.7061208,-0.57011104,-0.41996044,-0.69624996,0.45100626,0.5584168,-0.12895477,0.6867072,-0.7154047,,0.0035541821,-0.012418922,0.57807535,0.54230756,-0.80821073,0.22956017,-0.68257004,-0.26449603,0.6812782,-0.4898986,-0.5261532,-0.6950986,,0.022572132,-0.025692288,0.20092657,-0.9941167,0.09434637,0.05320297,0.09801782,0.99263185,0.07123538,-0.046090156,0.07603115,-0.99603957,,-0.3463722921418435,-0.058020892084048745,0.10915280316,0.0054519385305976335,-0.0038258219934323326,-0.013052689244331523,-0.003920257587222703,,-1.4635273842614127,0.14102482501621377,0.09033715381000001,-0.005661628474082157,-0.016942925970914614,0.0002571491950229222,0.003266881322685584
3.4248425640398636,,0.029996675,0.033085905,0.33598053,-0.70624244,-0.5699625,-0.4199574,-0.6961525,0.45115185,0.55842066,-0.12881427,0.6867348,-0.71540344,,0.0035541821,-0.012418922,0.57807535,0.54230756,-0.80821073,0.22956017,-0.68257004,-0.26449603,0.6812782,-0.4898986,-0.5261532,-0.6950986,,0.022572132,-0.025692288,0.20092657,-0.9941167,0.09434637,0.05320297,0.09801782,0.99263185,0.07123538,-0.046090156,0.07603115,-0.99603957,,-0.3463722921418435,-0.058013169351174516,0.10915280316,0.005661628474082157,-0.0038258219934323326,-0.013052689244331523,-0.003920257587222703,,-1.4635273842614127,0.14102482501621377,0.09033715381000001,-0.005661628474082157,-0.016942925970914614,0.0002571491950229222,0.003266881322685584
3.4550373250385746,,0.02999667,0.033085905,0.33598053,-0.7063608,-0.569814,-0.41995978,-0.6960595,0.45129734,0.55841905,-0.12866831,0.6867624,-0.7154032,,0.0035547,-0.01241876,0.5780757,0.5423083,-0.8082084,0.2295664,-0.6825698,-0.26449147,0.68128014,-0.48989806,-0.526159,-0.6950946,,0.022572132,-0.025692288,0.20092657,-0.9941167,0.09434637,0.05320297,0.09801782,0.99263185,0.07123538,-0.046090156,0.07603115,-0.99603957,,-0.3463722921418435,-0.058013169351174516,0.10915280316,0.005871318417566682,-0.0038258219934323326,-0.013052689244331523,-0.003920257587222703,,-1.4635351069942868,0.14102482501621377,0.09033715381000001,-0.005661628474082157,-0.016942925970914614,0.0002571491950229222,0.003266881322685584
3.479465101030655,,0.029995771,0.0330866,0.33598164,-0.70636016,-0.56980824,-0.41996866,-0.69606,0.45128807,0.55842596,-0.12866893,0.68677324,-0.71539265,,0.003553832,-0.012418486,0.5780757,0.5423093,-0.80821073,0.22955602,-0.68256474,-0.26449603,0.6812835,-0.48990396,-0.5261532,-0.69509476,,0.022572132,-0.025692288,0.20092657,-0.9941167,0.09434637,0.05320297,0.09801782,0.99263185,0.07123538,-0.046090156,0.07603115,-0.99603957,,-0.346356846676095,-0.058013169351174516,0.10915280316,0.005871318417566682,-0.0038258219934323326,-0.013052689244331523,-0.003920257587222703,,-1.4635273842614127,0.141032547749088,0.09033715381000001,-0.005661628474082157,-0.016942925970914614,0.0002571491950229222,0.003266881322685584
3.5087588620372117,,0.029995214,0.033086047,0.33598152,-0.7063569,-0.56980836,-0.4199741,-0.69606435,0.451288,0.5584206,-0.12866347,0.68677324,-0.71539366,,0.0035536624,-0.012419095,0.57807505,0.5423068,-0.80821294,0.22955397,-0.6825703,-0.26450062,0.68127614,-0.4898991,-0.5261474,-0.69510263,,0.022572132,-0.025692288,0.20092657,-0.9941167,0.09434637,0.05320297,0.09801782,0.99263185,0.07123538,-0.046090156,0.07603115,-0.99603957,,-0.346356846676095,-0.058020892084048745,0.10915280316,0.005871318417566682,-0.0038258219934323326,-0.013052689244331523,-0.003920257587222703,,-1.4635196615285384,0.14102482501621377,0.09033715381000001,-0.005661628474082157,-0.016942925970914614,0.0002571491950229222,0.003266881322685584
3.5401771659962833,,0.029995771,0.0330866,0.33598164,-0.70636016,-0.56980824,-0.41996866,-0.69606,0.45128807,0.55842596,-0.12866893,0.68677324,-0.71539265,,0.0035536624,-0.012419095,0.57807505,0.5423068,-0.80821294,0.22955397,-0.6825703,-0.26450062,0.68127614,-0.4898991,-0.5261474,-0.69510263,,0.022572132,-0.025692288,0.20092657,-0.9941167,0.09434637,0.05320297,0.09801782,0.99263185,0.07123538,-0.046090156,0.07603115,-0.99603957,,-0.346356846676095,-0.058013169351174516,0.10915280316,0.005871318417566682,-0.0038258219934323326,-0.013052689244331523,-0.003920257587222703,,-1.4635196615285384,0.14102482501621377,0.09033715381000001,-0.005661628474082157,-0.016942925970914614,0.0002571491950229222,0.003266881322685584
3.5646352720214054,,0.029995771,0.0330866,0.33598164,-0.70636016,-0.56980824,-0.41996866,-0.69606,0.45128807,0.55842596,-0.12866893,0.68677324,-0.71539265,,0.0035541821,-0.012418922,0.57807535,0.54230756,-0.80821073,0.22956017,-0.68257004,-0.26449603,0.6812782,-0.4898986,-0.5261532,-0.6950986,,0.022572132,-0.025692288,0.20092657,-0.9941167,0.09434637,0.05320297,0.09801782,0.99263185,0.07123538,-0.046090156,0.07603115,-0.99603957,,-0.346356846676095,-0.058013169351174516,0.10915280316,0.005871318417566682,-0.0038258219934323326,-0.013052689244331523,-0.003920257587222703,,-1.4635273842614127,0.14102482501621377,0.09033715381000001,-0.005661628474082157,-0.016942925970914614,0.0002571491950229222,0.003266881322685584
3.5908876190078445,,0.029995665,0.0330857,0.33598095,-0.7063572,-0.5698113,-0.41996965,-0.6960641,0.45129263,0.5584171,-0.12866318,0.68676776,-0.71539897,,0.0035541821,-0.012418922,0.57807535,0.54230756,-0.80821073,0.22956017,-0.68257004,-0.26449603,0.6812782,-0.4898986,-0.5261532,-0.6950986,,0.022572132,-0.025692288,0.20092657,-0.9941167,0.09434637,0.05320297,0.09801782,0.99263185,0.07123538,-0.046090156,0.07603115,-0.99603957,,-0.34636456940896926,-0.058020892084048745,0.10915280316,0.005871318417566682,-0.0038258219934323326,-0.013052689244331523,-0.003920257587222703,,-1.4635273842614127,0.14102482501621377,0.09033715381000001,-0.005661628474082157,-0.016942925970914614,0.0002571491950229222,0.003266881322685584
3.618473452050239,,0.029995771,0.0330866,0.33598164,-0.70636016,-0.56980824,-0.41996866,-0.69606,0.45128807,0.55842596,-0.12866893,0.68677324,-0.71539265,,0.0035547,-0.01241876,0.5780757,0.5423083,-0.8082084,0.2295664,-0.6825698,-0.26449147,0.68128014,-0.48989806,-0.526159,-0.6950946,,0.022572132,-0.025692288,0.20092657,-0.9941167,0.09434637,0.05320297,0.09801782,0.99263185,0.07123538,-0.046090156,0.07603115,-0.99603957,,-0.346356846676095,-0.058013169351174516,0.10915280316,0.005871318417566682,-0.0038258219934323326,-0.013052689244331523,-0.003920257587222703,,-1.4635351069942868,0.14102482501621377,0.09033715381000001,-0.005661628474082157,-0.016942925970914614,0.0002571491950229222,0.003266881322685584
3.6437482260516845,,0.029995771,0.0330866,0.33598164,-0.70636016,-0.56980824,-0.41996866,-0.69606,0.45128807,0.55842596,-0.12866893,0.68677324,-0.71539265,,0.0035543498,-0.012418326,0.578076,0.54231006,-0.8082084,0.22956225,-0.6825646,-0.26449147,0.68128544,-0.48990342,-0.52615905,-0.6950908,,0.022572132,-0.025692288,0.20092657,-0.9941167,0.09434637,0.05320297,0.09801782,0.99263185,0.07123538,-0.046090156,0.07603115,-0.99603957,,-0.346356846676095,-0.058013169351174516,0.10915280316,0.005871318417566682,-0.0038258219934323326,-0.013052689244331523,-0.003920257587222703,,-1.4635351069942868,0.141032547749088,0.09033715381000001,-0.005661628474082157,-0.016942925970914614,0.0002571491950229222,0.003266881322685584
3.671869369049091,,0.029995214,0.033086047,0.33598152,-0.7063569,-0.56973976,-0.42006713,-0.69606435,0.4511968,0.5584943,-0.12866347,0.68689007,-0.7152815,,0.0035543498,-0.012418326,0.578076,0.54231006,-0.8082084,0.22956225,-0.6825646,-0.26449147,0.68128544,-0.48990342,-0.52615905,-0.6950908,,0.022572132,-0.025692288,0.20092657,-0.9941167,0.09434637,0.05320297,0.09801782,0.99263185,0.07123538,-0.046090156,0.07603115,-0.99603957,,-0.346356846676095,-0.058020892084048745,0.10915280316,0.005871318417566682,-0.0038258219934323326,-0.012889331764050398,-0.004246945719491262,,-1.4635351069942868,0.141032547749088,0.09033715381000001,-0.005661628474082157,-0.016942925970914614,0.0002571491950229222,0.003266881322685584
