AlexandreBanks6/ExpertPlaybackApp/resources/Motions/Motion_Best.csv
Time,si_T_psm1,Tx,Ty,Tz,R00,R01,R02,R10,R11,R12,R20,R21,R22,si_T_psm3,Tx,Ty,Tz,R00,R01,R02,R10,R11,R12,R20,R21,R22,si_T_ecm,Tx,Ty,Tz,R00,R01,R02,R10,R11,R12,R20,R21,R22,joint_vars_psm1,q1,q2,q3,q4,q5,q6,jaw,joint_vars_psm3,q1,q2,q3,q4,q5,q6,jaw
lci_T_si
0,-0.05289296,0.05194761,0.2950023,0.99479496,-0.10175492,0.005380285,-0.10110573,-0.9922601,-0.07209377,0.012674538,0.07117454,-0.99738336
rci_T_si
0,-0.064919405,0.05306145,1.1015538,0.9931736,-0.115787685,0.014122788,-0.11659551,-0.98188746,0.14934026,-0.0034247746,-0.14996745,-0.988685
ecm_T_lc
0,0.82637364,0.89959043,-4.471184,-0.8282249,-0.54140776,0.14464118,0.55436236,-0.82931954,0.07008122,0.08201124,0.13822663,0.9869993
ecm_T_rc
0,-0.10746905,0.019146087,-2.6037304,-0.34537515,0.93471545,0.08380301,-0.9384632,-0.34383708,-0.032600943,-0.0016580217,-0.0899056,0.9959489
0.03242577498895116,,0.5053485,-1.4929187,-3.9319937,-0.9548883,-0.0074416697,-0.29687196,-0.12020091,0.9238194,0.3634685,0.27155125,0.38275608,-0.8830389,,0.45390782,-1.409053,-3.6577904,-0.8192051,0.21834746,0.5303086,0.13725004,0.972459,-0.18837708,-0.55683506,-0.08153459,-0.8266117,,0.47417292,-1.5274459,-4.048775,-0.7673775,0.6361708,0.08011509,0.63174486,0.77151525,-0.07525018,-0.10968199,-0.0071329926,-0.9939411,,1.3342874496112653,-0.2615457942513615,0.15050186158,0.5466616826641549,0.0,0.0,0.0,,-1.4614654145839947,0.0279794612033154,0.12436606260000001,1.5668032577163657,0.07105097987802904,-0.17563637446468933,0.5088167660082799
0.062424902978818864,,0.5053485,-1.4929187,-3.9319937,-0.9548883,-0.0074416697,-0.29687196,-0.12020091,0.9238194,0.3634685,0.27155125,0.38275608,-0.8830389,,0.45390782,-1.409053,-3.6577904,-0.8192051,0.21834746,0.5303086,0.13725004,0.972459,-0.18837708,-0.55683506,-0.08153459,-0.8266117,,0.47417292,-1.5274459,-4.048775,-0.7673775,0.6361708,0.08011509,0.63174486,0.77151525,-0.07525018,-0.10968199,-0.0071329926,-0.9939411,,1.3342874496112653,-0.2615457942513615,0.15050186158,0.5466616826641549,0.0,0.0,0.0,,-1.4614654145839947,0.0279794612033154,0.12436606260000001,1.5668032577163657,0.07105097987802904,-0.17563637446468933,0.5088167660082799
0.09400421197642572,,0.50534904,-1.4929194,-3.9319942,-0.9548894,-0.0074416995,-0.2968682,-0.120197624,0.92382205,0.36346304,0.2715486,0.38274992,-0.8830424,,0.45390782,-1.409053,-3.6577904,-0.8192051,0.21834746,0.5303086,0.13725004,0.972459,-0.18837708,-0.55683506,-0.08153459,-0.8266117,,0.47417292,-1.5274459,-4.048775,-0.7673775,0.6361708,0.08011509,0.63174486,0.77151525,-0.07525018,-0.10968199,-0.0071329926,-0.9939411,,1.3342797268783912,-0.2615457942513615,0.15050186158,0.5466616826641549,0.0,0.0,0.0,,-1.4614654145839947,0.0279794612033154,0.12436606260000001,1.5668032577163657,0.07105097987802904,-0.17563637446468933,0.5088167660082799
0.11449951198301278,,0.50534904,-1.4929194,-3.9319942,-0.9548894,-0.0074416995,-0.2968682,-0.120197624,0.92382205,0.36346304,0.2715486,0.38274992,-0.8830424,,0.45390782,-1.409053,-3.6577904,-0.8192051,0.21834746,0.5303086,0.13725004,0.972459,-0.18837708,-0.55683506,-0.08153459,-0.8266117,,0.47417292,-1.5274459,-4.048775,-0.7673775,0.6361708,0.08011509,0.63174486,0.77151525,-0.07525018,-0.10968199,-0.0071329926,-0.9939411,,1.3342797268783912,-0.2615457942513615,0.15050186158,0.5466616826641549,0.0,0.0,0.0,,-1.4614654145839947,0.0279794612033154,0.12436606260000001,1.5668032577163657,0.07105097987802904,-0.17563637446468933,0.5088167660082799
0.14494055000250228,,0.5053485,-1.4929187,-3.9319937,-0.9548883,-0.0074416697,-0.29687196,-0.12020091,0.9238194,0.3634685,0.27155125,0.38275608,-0.8830389,,0.45390782,-1.409053,-3.6577904,-0.8192051,0.21834746,0.5303086,0.13725004,0.972459,-0.18837708,-0.55683506,-0.08153459,-0.8266117,,0.47417292,-1.5274459,-4.048775,-0.7673775,0.6361708,0.08011509,0.63174486,0.77151525,-0.07525018,-0.10968199,-0.0071329926,-0.9939411,,1.3342874496112653,-0.2615457942513615,0.15050186158,0.5466616826641549,0.0,0.0,0.0,,-1.4614654145839947,0.0279794612033154,0.12436606260000001,1.5668032577163657,0.07105097987802904,-0.17563637446468933,0.5088167660082799
0.1714490299928002,,0.5053485,-1.4929187,-3.9319937,-0.9548883,-0.0074416697,-0.29687196,-0.12020091,0.9238194,0.3634685,0.27155125,0.38275608,-0.8830389,,0.45390627,-1.4090527,-3.6577914,-0.8192137,0.21834557,0.5302961,0.13725069,0.97245926,-0.18837494,-0.5568223,-0.08153583,-0.82662016,,0.47417292,-1.5274459,-4.048775,-0.7673775,0.6361708,0.08011509,0.63174486,0.77151525,-0.07525018,-0.10968199,-0.0071329926,-0.9939411,,1.3342874496112653,-0.2615457942513615,0.15050186158,0.5466616826641549,0.0,0.0,0.0,,-1.4614499691182463,0.0279794612033154,0.12436606260000001,1.5668032577163657,0.07105097987802904,-0.17563637446468933,0.5088167660082799
0.20289063698146492,,0.50534904,-1.4929194,-3.9319942,-0.9548894,-0.0074416995,-0.2968682,-0.120197624,0.92382205,0.36346304,0.2715486,0.38274992,-0.8830424,,0.45390704,-1.4090528,-3.657791,-0.81920946,0.21834652,0.5303024,0.13725036,0.97245914,-0.18837601,-0.5568287,-0.081535205,-0.8266159,,0.47417292,-1.5274459,-4.048775,-0.7673775,0.6361708,0.08011509,0.63174486,0.77151525,-0.07525018,-0.10968199,-0.0071329926,-0.9939411,,1.3342797268783912,-0.2615457942513615,0.15050186158,0.5466616826641549,0.0,0.0,0.0,,-1.4614576918511204,0.0279794612033154,0.12436606260000001,1.5668032577163657,0.07105097987802904,-0.17563637446468933,0.5088167660082799
0.23604618798708543,,0.50534904,-1.4929194,-3.9319942,-0.9548894,-0.0074416995,-0.2968682,-0.120197624,0.92382205,0.36346304,0.2715486,0.38274992,-0.8830424,,0.45390782,-1.409053,-3.6577904,-0.8192051,0.21834746,0.5303086,0.13725004,0.972459,-0.18837708,-0.55683506,-0.08153459,-0.8266117,,0.47417292,-1.5274459,-4.048775,-0.7673775,0.6361708,0.08011509,0.63174486,0.77151525,-0.07525018,-0.10968199,-0.0071329926,-0.9939411,,1.3342797268783912,-0.2615457942513615,0.15050186158,0.5466616826641549,0.0,0.0,0.0,,-1.4614654145839947,0.0279794612033154,0.12436606260000001,1.5668032577163657,0.07105097987802904,-0.17563637446468933,0.5088167660082799
0.2667111479968298,,0.50534904,-1.4929194,-3.9319942,-0.9548894,-0.0074416995,-0.2968682,-0.120197624,0.92382205,0.36346304,0.2715486,0.38274992,-0.8830424,,0.45390782,-1.409053,-3.6577904,-0.8192051,0.21834746,0.5303086,0.13725004,0.972459,-0.18837708,-0.55683506,-0.08153459,-0.8266117,,0.47417292,-1.5274459,-4.048775,-0.7673775,0.6361708,0.08011509,0.63174486,0.77151525,-0.07525018,-0.10968199,-0.0071329926,-0.9939411,,1.3342797268783912,-0.2615457942513615,0.15050186158,0.5466616826641549,0.0,0.0,0.0,,-1.4614654145839947,0.0279794612033154,0.12436606260000001,1.5668032577163657,0.07105097987802904,-0.17563637446468933,0.5088167660082799
0.30230681199464016,,0.5053485,-1.4929187,-3.9319937,-0.9548883,-0.0074416697,-0.29687196,-0.12020091,0.9238194,0.3634685,0.27155125,0.38275608,-0.8830389,,0.45390782,-1.409053,-3.6577904,-0.8192051,0.21834746,0.5303086,0.13725004,0.972459,-0.18837708,-0.55683506,-0.08153459,-0.8266117,,0.47417292,-1.5274459,-4.048775,-0.7673775,0.6361708,0.08011509,0.63174486,0.77151525,-0.07525018,-0.10968199,-0.0071329926,-0.9939411,,1.3342874496112653,-0.2615457942513615,0.15050186158,0.5466616826641549,0.0,0.0,0.0,,-1.4614654145839947,0.0279794612033154,0.12436606260000001,1.5668032577163657,0.07105097987802904,-0.17563637446468933,0.5088167660082799
0.335080589982681,,0.50534904,-1.4929194,-3.9319942,-0.9548894,-0.0074416995,-0.2968682,-0.120197624,0.92382205,0.36346304,0.2715486,0.38274992,-0.8830424,,0.45390782,-1.409053,-3.6577904,-0.8192051,0.21834746,0.5303086,0.13725004,0.972459,-0.18837708,-0.55683506,-0.08153459,-0.8266117,,0.47417292,-1.5274459,-4.048775,-0.7673775,0.6361708,0.08011509,0.63174486,0.77151525,-0.07525018,-0.10968199,-0.0071329926,-0.9939411,,1.3342797268783912,-0.2615457942513615,0.15050186158,0.5466616826641549,0.0,0.0,0.0,,-1.4614654145839947,0.0279794612033154,0.12436606260000001,1.5668032577163657,0.07105097987802904,-0.17563637446468933,0.5088167660082799
0.37704936499358155,,0.5053672,-1.492945,-3.932005,-0.9548907,-0.0074608475,-0.2968632,-0.120208606,0.9238274,0.36344546,0.2715388,0.38273627,-0.8830513,,0.4537842,-1.4090147,-3.6577978,-0.8191516,0.21844755,0.53035,0.13732675,0.9724373,-0.18843246,-0.5568949,-0.081523515,-0.8265724,,0.4741462,-1.5274247,-4.0487804,-0.76736104,0.63619035,0.08011669,0.6317645,0.77149904,-0.075251274,-0.10968411,-0.0071300226,-0.9939409,,1.3342797268783912,-0.2615457942513615,0.15050186158,0.5466616826641549,0.0,0.0,0.0,,-1.4614654145839947,0.0279794612033154,0.12436606260000001,1.5668032577163657,0.07105097987802904,-0.17563637446468933,0.5088167660082799
0.4125873890006915,,0.5053672,-1.492945,-3.932005,-0.9548907,-0.0074608475,-0.2968632,-0.120208606,0.9238274,0.36344546,0.2715388,0.38273627,-0.8830513,,0.4537842,-1.4090147,-3.6577978,-0.8191516,0.21844755,0.53035,0.13732675,0.9724373,-0.18843246,-0.5568949,-0.081523515,-0.8265724,,0.4741462,-1.5274247,-4.0487804,-0.76736104,0.63619035,0.08011669,0.6317645,0.77149904,-0.075251274,-0.10968411,-0.0071300226,-0.9939409,,1.3342797268783912,-0.2615457942513615,0.15050186158,0.5466616826641549,0.0,0.0,0.0,,-1.4614654145839947,0.0279794612033154,0.12436606260000001,1.5668032577163657,0.07105097987802904,-0.17563637446468933,0.5088167660082799
0.4385673369979486,,0.50536776,-1.4929458,-3.9320054,-0.9548919,-0.0074608214,-0.29685944,-0.12020527,0.92383,0.36344,0.27153614,0.3827301,-0.8830548,,0.45378265,-1.4090143,-3.6577988,-0.8191602,0.21844567,0.5303375,0.13732746,0.9724377,-0.18843035,-0.5568821,-0.08152476,-0.82658094,,0.4741462,-1.5274247,-4.0487804,-0.76736104,0.63619035,0.08011669,0.6317645,0.77149904,-0.075251274,-0.10968411,-0.0071300226,-0.9939409,,1.334272004145517,-0.2615457942513615,0.15050186158,0.5466616826641549,0.0,0.0,0.0,,-1.4614499691182463,0.0279794612033154,0.12436606260000001,1.5668032577163657,0.07105097987802904,-0.17563637446468933,0.5088167660082799
0.4728127919952385,,0.5053667,-1.4929442,-3.9320045,-0.95488966,-0.007460881,-0.29686698,-0.12021183,0.9238249,0.36345088,0.27154148,0.38274246,-0.8830478,,0.4537842,-1.4090147,-3.6577978,-0.8191516,0.21844755,0.53035,0.13732675,0.9724373,-0.18843246,-0.5568949,-0.081523515,-0.8265724,,0.4741462,-1.5274247,-4.0487804,-0.76736104,0.63619035,0.08011669,0.6317645,0.77149904,-0.075251274,-0.10968411,-0.0071300226,-0.9939409,,1.3342874496112653,-0.2615457942513615,0.15050186158,0.5466616826641549,0.0,0.0,0.0,,-1.4614654145839947,0.0279794612033154,0.12436606260000001,1.5668032577163657,0.07105097987802904,-0.17563637446468933,0.5088167660082799
0.5077380439906847,,0.5053672,-1.492945,-3.932005,-0.9548907,-0.0074608475,-0.2968632,-0.120208606,0.9238274,0.36344546,0.2715388,0.38273627,-0.8830513,,0.45378342,-1.4090145,-3.6577983,-0.8191559,0.21844661,0.5303438,0.1373271,0.9724375,-0.18843138,-0.55688846,-0.08152413,-0.82657665,,0.4741462,-1.5274247,-4.0487804,-0.76736104,0.63619035,0.08011669,0.6317645,0.77149904,-0.075251274,-0.10968411,-0.0071300226,-0.9939409,,1.3342797268783912,-0.2615457942513615,0.15050186158,0.5466616826641549,0.0,0.0,0.0,,-1.4614576918511204,0.0279794612033154,0.12436606260000001,1.5668032577163657,0.07105097987802904,-0.17563637446468933,0.5088167660082799
0.5473848959954921,,0.5053667,-1.4929442,-3.9320045,-0.95488966,-0.007460881,-0.29686698,-0.12021183,0.9238249,0.36345088,0.27154148,0.38274246,-0.8830478,,0.4537842,-1.4090147,-3.6577978,-0.8191516,0.21844755,0.53035,0.13732675,0.9724373,-0.18843246,-0.5568949,-0.081523515,-0.8265724,,0.4741462,-1.5274247,-4.0487804,-0.76736104,0.63619035,0.08011669,0.6317645,0.77149904,-0.075251274,-0.10968411,-0.0071300226,-0.9939409,,1.3342874496112653,-0.2615457942513615,0.15050186158,0.5466616826641549,0.0,0.0,0.0,,-1.4614654145839947,0.0279794612033154,0.12436606260000001,1.5668032577163657,0.07105097987802904,-0.17563637446468933,0.5088167660082799
0.585402308992343,,0.5053672,-1.492945,-3.932005,-0.9548907,-0.0074608475,-0.2968632,-0.120208606,0.9238274,0.36344546,0.2715388,0.38273627,-0.8830513,,0.45378342,-1.4090145,-3.6577983,-0.8191559,0.21844661,0.5303438,0.1373271,0.9724375,-0.18843138,-0.55688846,-0.08152413,-0.82657665,,0.4741462,-1.5274247,-4.0487804,-0.76736104,0.63619035,0.08011669,0.6317645,0.77149904,-0.075251274,-0.10968411,-0.0071300226,-0.9939409,,1.3342797268783912,-0.2615457942513615,0.15050186158,0.5466616826641549,0.0,0.0,0.0,,-1.4614576918511204,0.0279794612033154,0.12436606260000001,1.5668032577163657,0.07105097987802904,-0.17563637446468933,0.5088167660082799
0.6161117349984124,,0.5053667,-1.4929442,-3.9320045,-0.95488966,-0.007460881,-0.29686698,-0.12021183,0.9238249,0.36345088,0.27154148,0.38274246,-0.8830478,,0.45378342,-1.4090145,-3.6577983,-0.8191559,0.21844661,0.5303438,0.1373271,0.9724375,-0.18843138,-0.55688846,-0.08152413,-0.82657665,,0.4741462,-1.5274247,-4.0487804,-0.76736104,0.63619035,0.08011669,0.6317645,0.77149904,-0.075251274,-0.10968411,-0.0071300226,-0.9939409,,1.3342874496112653,-0.2615457942513615,0.15050186158,0.5466616826641549,0.0,0.0,0.0,,-1.4614576918511204,0.0279794612033154,0.12436606260000001,1.5668032577163657,0.07105097987802904,-0.17563637446468933,0.5088167660082799
0.6496938939963002,,0.5053672,-1.492945,-3.932005,-0.9548907,-0.0074608475,-0.2968632,-0.120208606,0.9238274,0.36344546,0.2715388,0.38273627,-0.8830513,,0.45378342,-1.4090145,-3.6577983,-0.8191559,0.21844661,0.5303438,0.1373271,0.9724375,-0.18843138,-0.55688846,-0.08152413,-0.82657665,,0.4741462,-1.5274247,-4.0487804,-0.76736104,0.63619035,0.08011669,0.6317645,0.77149904,-0.075251274,-0.10968411,-0.0071300226,-0.9939409,,1.3342797268783912,-0.2615457942513615,0.15050186158,0.5466616826641549,0.0,0.0,0.0,,-1.4614576918511204,0.0279794612033154,0.12436606260000001,1.5668032577163657,0.07105097987802904,-0.17563637446468933,0.5088167660082799
0.6796301580034196,,0.5053667,-1.4929442,-3.9320045,-0.95488966,-0.007460881,-0.29686698,-0.12021183,0.9238249,0.36345088,0.27154148,0.38274246,-0.8830478,,0.4537842,-1.4090147,-3.6577978,-0.8191516,0.21844755,0.53035,0.13732675,0.9724373,-0.18843246,-0.5568949,-0.081523515,-0.8265724,,0.4741462,-1.5274247,-4.0487804,-0.76736104,0.63619035,0.08011669,0.6317645,0.77149904,-0.075251274,-0.10968411,-0.0071300226,-0.9939409,,1.3342874496112653,-0.2615457942513615,0.15050186158,0.5466616826641549,0.0,0.0,0.0,,-1.4614654145839947,0.0279794612033154,0.12436606260000001,1.5668032577163657,0.07105097987802904,-0.17563637446468933,0.5088167660082799
0.7102088449755684,,0.5053667,-1.4929442,-3.9320045,-0.95488966,-0.007460881,-0.29686698,-0.12021183,0.9238249,0.36345088,0.27154148,0.38274246,-0.8830478,,0.45378342,-1.4090145,-3.6577983,-0.8191559,0.21844661,0.5303438,0.1373271,0.9724375,-0.18843138,-0.55688846,-0.08152413,-0.82657665,,0.4741462,-1.5274247,-4.0487804,-0.76736104,0.63619035,0.08011669,0.6317645,0.77149904,-0.075251274,-0.10968411,-0.0071300226,-0.9939409,,1.3342874496112653,-0.2615457942513615,0.15050186158,0.5466616826641549,0.0,0.0,0.0,,-1.4614576918511204,0.0279794612033154,0.12436606260000001,1.5668032577163657,0.07105097987802904,-0.17563637446468933,0.5088167660082799
0.7314732979866676,,0.5053667,-1.4929442,-3.9320045,-0.95488966,-0.007460881,-0.29686698,-0.12021183,0.9238249,0.36345088,0.27154148,0.38274246,-0.8830478,,0.4537842,-1.4090147,-3.6577978,-0.8191516,0.21844755,0.53035,0.13732675,0.9724373,-0.18843246,-0.5568949,-0.081523515,-0.8265724,,0.4741462,-1.5274247,-4.0487804,-0.76736104,0.63619035,0.08011669,0.6317645,0.77149904,-0.075251274,-0.10968411,-0.0071300226,-0.9939409,,1.3342874496112653,-0.2615457942513615,0.15050186158,0.5466616826641549,0.0,0.0,0.0,,-1.4614654145839947,0.0279794612033154,0.12436606260000001,1.5668032577163657,0.07105097987802904,-0.17563637446468933,0.5088167660082799
0.7652592959930189,,0.5053672,-1.492945,-3.932005,-0.9548907,-0.0074608475,-0.2968632,-0.120208606,0.9238274,0.36344546,0.2715388,0.38273627,-0.8830513,,0.45378265,-1.4090143,-3.6577988,-0.8191602,0.21844567,0.5303375,0.13732746,0.9724377,-0.18843035,-0.5568821,-0.08152476,-0.82658094,,0.4741462,-1.5274247,-4.0487804,-0.76736104,0.63619035,0.08011669,0.6317645,0.77149904,-0.075251274,-0.10968411,-0.0071300226,-0.9939409,,1.3342797268783912,-0.2615457942513615,0.15050186158,0.5466616826641549,0.0,0.0,0.0,,-1.4614499691182463,0.0279794612033154,0.12436606260000001,1.5668032577163657,0.07105097987802904,-0.17563637446468933,0.5088167660082799
0.786574870988261,,0.5053672,-1.492945,-3.932005,-0.9548907,-0.0074608475,-0.2968632,-0.120208606,0.9238274,0.36344546,0.2715388,0.38273627,-0.8830513,,0.45378342,-1.4090145,-3.6577983,-0.8191559,0.21844661,0.5303438,0.1373271,0.9724375,-0.18843138,-0.55688846,-0.08152413,-0.82657665,,0.4741462,-1.5274247,-4.0487804,-0.76736104,0.63619035,0.08011669,0.6317645,0.77149904,-0.075251274,-0.10968411,-0.0071300226,-0.9939409,,1.3342797268783912,-0.2615457942513615,0.15050186158,0.5466616826641549,0.0,0.0,0.0,,-1.4614576918511204,0.0279794612033154,0.12436606260000001,1.5668032577163657,0.07105097987802904,-0.17563637446468933,0.5088167660082799
0.8193250789772719,,0.5053667,-1.4929442,-3.9320045,-0.95488966,-0.007460881,-0.29686698,-0.12021183,0.9238249,0.36345088,0.27154148,0.38274246,-0.8830478,,0.4537842,-1.4090147,-3.6577978,-0.8191516,0.21844755,0.53035,0.13732675,0.9724373,-0.18843246,-0.5568949,-0.081523515,-0.8265724,,0.4741462,-1.5274247,-4.0487804,-0.76736104,0.63619035,0.08011669,0.6317645,0.77149904,-0.075251274,-0.10968411,-0.0071300226,-0.9939409,,1.3342874496112653,-0.2615457942513615,0.15050186158,0.5466616826641549,0.0,0.0,0.0,,-1.4614654145839947,0.0279794612033154,0.12436606260000001,1.5668032577163657,0.07105097987802904,-0.17563637446468933,0.5088167660082799
0.8496225319977384,,0.5053667,-1.4929442,-3.9320045,-0.95488966,-0.007460881,-0.29686698,-0.12021183,0.9238249,0.36345088,0.27154148,0.38274246,-0.8830478,,0.4537842,-1.4090147,-3.6577978,-0.8191516,0.21844755,0.53035,0.13732675,0.9724373,-0.18843246,-0.5568949,-0.081523515,-0.8265724,,0.4741462,-1.5274247,-4.0487804,-0.76736104,0.63619035,0.08011669,0.6317645,0.77149904,-0.075251274,-0.10968411,-0.0071300226,-0.9939409,,1.3342874496112653,-0.2615457942513615,0.15050186158,0.5466616826641549,0.0,0.0,0.0,,-1.4614654145839947,0.0279794612033154,0.12436606260000001,1.5668032577163657,0.07105097987802904,-0.17563637446468933,0.5088167660082799
0.8804034740023781,,0.5053667,-1.4929442,-3.9320045,-0.95488966,-0.007460881,-0.29686698,-0.12021183,0.9238249,0.36345088,0.27154148,0.38274246,-0.8830478,,0.4537842,-1.4090147,-3.6577978,-0.8191516,0.21844755,0.53035,0.13732675,0.9724373,-0.18843246,-0.5568949,-0.081523515,-0.8265724,,0.4741462,-1.5274247,-4.0487804,-0.76736104,0.63619035,0.08011669,0.6317645,0.77149904,-0.075251274,-0.10968411,-0.0071300226,-0.9939409,,1.3342874496112653,-0.2615457942513615,0.15050186158,0.5466616826641549,0.0,0.0,0.0,,-1.4614654145839947,0.0279794612033154,0.12436606260000001,1.5668032577163657,0.07105097987802904,-0.17563637446468933,0.5088167660082799
0.9108585689973552,,0.5053672,-1.492945,-3.932005,-0.9548907,-0.0074608475,-0.2968632,-0.120208606,0.9238274,0.36344546,0.2715388,0.38273627,-0.8830513,,0.4537842,-1.4090147,-3.6577978,-0.8191516,0.21844755,0.53035,0.13732675,0.9724373,-0.18843246,-0.5568949,-0.081523515,-0.8265724,,0.4741462,-1.5274247,-4.0487804,-0.76736104,0.63619035,0.08011669,0.6317645,0.77149904,-0.075251274,-0.10968411,-0.0071300226,-0.9939409,,1.3342797268783912,-0.2615457942513615,0.15050186158,0.5466616826641549,0.0,0.0,0.0,,-1.4614654145839947,0.0279794612033154,0.12436606260000001,1.5668032577163657,0.07105097987802904,-0.17563637446468933,0.5088167660082799
0.9369746779848356,,0.5053672,-1.492945,-3.932005,-0.9548907,-0.0074608475,-0.2968632,-0.120208606,0.9238274,0.36344546,0.2715388,0.38273627,-0.8830513,,0.4537842,-1.4090147,-3.6577978,-0.8191516,0.21844755,0.53035,0.13732675,0.9724373,-0.18843246,-0.5568949,-0.081523515,-0.8265724,,0.4741462,-1.5274247,-4.0487804,-0.76736104,0.63619035,0.08011669,0.6317645,0.77149904,-0.075251274,-0.10968411,-0.0071300226,-0.9939409,,1.3342797268783912,-0.2615457942513615,0.15050186158,0.5466616826641549,0.0,0.0,0.0,,-1.4614654145839947,0.0279794612033154,0.12436606260000001,1.5668032577163657,0.07105097987802904,-0.17563637446468933,0.5088167660082799
0.965519110992318,,0.5053667,-1.4929442,-3.9320045,-0.95488966,-0.007460881,-0.29686698,-0.12021183,0.9238249,0.36345088,0.27154148,0.38274246,-0.8830478,,0.4537842,-1.4090147,-3.6577978,-0.8191516,0.21844755,0.53035,0.13732675,0.9724373,-0.18843246,-0.5568949,-0.081523515,-0.8265724,,0.4741462,-1.5274247,-4.0487804,-0.76736104,0.63619035,0.08011669,0.6317645,0.77149904,-0.075251274,-0.10968411,-0.0071300226,-0.9939409,,1.3342874496112653,-0.2615457942513615,0.15050186158,0.5466616826641549,0.0,0.0,0.0,,-1.4614654145839947,0.0279794612033154,0.12436606260000001,1.5668032577163657,0.07105097987802904,-0.17563637446468933,0.5088167660082799
0.9921206759754568,,0.5053667,-1.4929442,-3.9320045,-0.95488966,-0.007460881,-0.29686698,-0.12021183,0.9238249,0.36345088,0.27154148,0.38274246,-0.8830478,,0.4537842,-1.4090147,-3.6577978,-0.8191516,0.21844755,0.53035,0.13732675,0.9724373,-0.18843246,-0.5568949,-0.081523515,-0.8265724,,0.4741462,-1.5274247,-4.0487804,-0.76736104,0.63619035,0.08011669,0.6317645,0.77149904,-0.075251274,-0.10968411,-0.0071300226,-0.9939409,,1.3342874496112653,-0.2615457942513615,0.15050186158,0.5466616826641549,0.0,0.0,0.0,,-1.4614654145839947,0.0279794612033154,0.12436606260000001,1.5668032577163657,0.07105097987802904,-0.17563637446468933,0.5088167660082799
1.021429377986351,,0.50536776,-1.4929458,-3.9320054,-0.9548919,-0.0074608214,-0.29685944,-0.12020527,0.92383,0.36344,0.27153614,0.3827301,-0.8830548,,0.4537842,-1.4090147,-3.6577978,-0.8191516,0.21844755,0.53035,0.13732675,0.9724373,-0.18843246,-0.5568949,-0.081523515,-0.8265724,,0.4741462,-1.5274247,-4.0487804,-0.76736104,0.63619035,0.08011669,0.6317645,0.77149904,-0.075251274,-0.10968411,-0.0071300226,-0.9939409,,1.334272004145517,-0.2615457942513615,0.15050186158,0.5466616826641549,0.0,0.0,0.0,,-1.4614654145839947,0.0279794612033154,0.12436606260000001,1.5668032577163657,0.07105097987802904,-0.17563637446468933,0.5088167660082799
1.0529138559941202,,0.5053672,-1.492945,-3.932005,-0.9548907,-0.0074608475,-0.2968632,-0.120208606,0.9238274,0.36344546,0.2715388,0.38273627,-0.8830513,,0.4537842,-1.4090147,-3.6577978,-0.8191516,0.21844755,0.53035,0.13732675,0.9724373,-0.18843246,-0.5568949,-0.081523515,-0.8265724,,0.4741462,-1.5274247,-4.0487804,-0.76736104,0.63619035,0.08011669,0.6317645,0.77149904,-0.075251274,-0.10968411,-0.0071300226,-0.9939409,,1.3342797268783912,-0.2615457942513615,0.15050186158,0.5466616826641549,0.0,0.0,0.0,,-1.4614654145839947,0.0279794612033154,0.12436606260000001,1.5668032577163657,0.07105097987802904,-0.17563637446468933,0.5088167660082799
1.083204267983092,,0.5053667,-1.4929442,-3.9320045,-0.95488966,-0.007460881,-0.29686698,-0.12021183,0.9238249,0.36345088,0.27154148,0.38274246,-0.8830478,,0.4537842,-1.4090147,-3.6577978,-0.8191516,0.21844755,0.53035,0.13732675,0.9724373,-0.18843246,-0.5568949,-0.081523515,-0.8265724,,0.4741462,-1.5274247,-4.0487804,-0.76736104,0.63619035,0.08011669,0.6317645,0.77149904,-0.075251274,-0.10968411,-0.0071300226,-0.9939409,,1.3342874496112653,-0.2615457942513615,0.15050186158,0.5466616826641549,0.0,0.0,0.0,,-1.4614654145839947,0.0279794612033154,0.12436606260000001,1.5668032577163657,0.07105097987802904,-0.17563637446468933,0.5088167660082799
1.1124262209923472,,0.5053672,-1.492945,-3.932005,-0.9548907,-0.0074608475,-0.2968632,-0.120208606,0.9238274,0.36344546,0.2715388,0.38273627,-0.8830513,,0.45378342,-1.4090145,-3.6577983,-0.8191559,0.21844661,0.5303438,0.1373271,0.9724375,-0.18843138,-0.55688846,-0.08152413,-0.82657665,,0.4741462,-1.5274247,-4.0487804,-0.76736104,0.63619035,0.08011669,0.6317645,0.77149904,-0.075251274,-0.10968411,-0.0071300226,-0.9939409,,1.3342797268783912,-0.2615457942513615,0.15050186158,0.5466616826641549,0.0,0.0,0.0,,-1.4614576918511204,0.0279794612033154,0.12436606260000001,1.5668032577163657,0.07105097987802904,-0.17563637446468933,0.5088167660082799
1.134996805980336,,0.5053672,-1.492945,-3.932005,-0.9548907,-0.0074608475,-0.2968632,-0.120208606,0.9238274,0.36344546,0.2715388,0.38273627,-0.8830513,,0.4537842,-1.4090147,-3.6577978,-0.8191516,0.21844755,0.53035,0.13732675,0.9724373,-0.18843246,-0.5568949,-0.081523515,-0.8265724,,0.4741462,-1.5274247,-4.0487804,-0.76736104,0.63619035,0.08011669,0.6317645,0.77149904,-0.075251274,-0.10968411,-0.0071300226,-0.9939409,,1.3342797268783912,-0.2615457942513615,0.15050186158,0.5466616826641549,0.0,0.0,0.0,,-1.4614654145839947,0.0279794612033154,0.12436606260000001,1.5668032577163657,0.07105097987802904,-0.17563637446468933,0.5088167660082799
1.1648061180021614,,0.50536776,-1.4929458,-3.9320054,-0.9548919,-0.0074608214,-0.29685944,-0.12020527,0.92383,0.36344,0.27153614,0.3827301,-0.8830548,,0.4537842,-1.4090147,-3.6577978,-0.8191516,0.21844755,0.53035,0.13732675,0.9724373,-0.18843246,-0.5568949,-0.081523515,-0.8265724,,0.4741462,-1.5274247,-4.0487804,-0.76736104,0.63619035,0.08011669,0.6317645,0.77149904,-0.075251274,-0.10968411,-0.0071300226,-0.9939409,,1.334272004145517,-0.2615457942513615,0.15050186158,0.5466616826641549,0.0,0.0,0.0,,-1.4614654145839947,0.0279794612033154,0.12436606260000001,1.5668032577163657,0.07105097987802904,-0.17563637446468933,0.5088167660082799
1.1901483709807508,,0.5053672,-1.492945,-3.932005,-0.9548907,-0.0074608475,-0.2968632,-0.120208606,0.9238274,0.36344546,0.2715388,0.38273627,-0.8830513,,0.4537842,-1.4090147,-3.6577978,-0.8191516,0.21844755,0.53035,0.13732675,0.9724373,-0.18843246,-0.5568949,-0.081523515,-0.8265724,,0.4741462,-1.5274247,-4.0487804,-0.76736104,0.63619035,0.08011669,0.6317645,0.77149904,-0.075251274,-0.10968411,-0.0071300226,-0.9939409,,1.3342797268783912,-0.2615457942513615,0.15050186158,0.5466616826641549,0.0,0.0,0.0,,-1.4614654145839947,0.0279794612033154,0.12436606260000001,1.5668032577163657,0.07105097987802904,-0.17563637446468933,0.5088167660082799
1.2165942789870314,,0.5053672,-1.492945,-3.932005,-0.9548907,-0.0074608475,-0.2968632,-0.120208606,0.9238274,0.36344546,0.2715388,0.38273627,-0.8830513,,0.4537842,-1.4090147,-3.6577978,-0.8191516,0.21844755,0.53035,0.13732675,0.9724373,-0.18843246,-0.5568949,-0.081523515,-0.8265724,,0.4741462,-1.5274247,-4.0487804,-0.76736104,0.63619035,0.08011669,0.6317645,0.77149904,-0.075251274,-0.10968411,-0.0071300226,-0.9939409,,1.3342797268783912,-0.2615457942513615,0.15050186158,0.5466616826641549,0.0,0.0,0.0,,-1.4614654145839947,0.0279794612033154,0.12436606260000001,1.5668032577163657,0.07105097987802904,-0.17563637446468933,0.5088167660082799
1.2428550009790342,,0.5053667,-1.4929442,-3.9320045,-0.95488966,-0.007460881,-0.29686698,-0.12021183,0.9238249,0.36345088,0.27154148,0.38274246,-0.8830478,,0.4537842,-1.4090147,-3.6577978,-0.8191516,0.21844755,0.53035,0.13732675,0.9724373,-0.18843246,-0.5568949,-0.081523515,-0.8265724,,0.4741462,-1.5274247,-4.0487804,-0.76736104,0.63619035,0.08011669,0.6317645,0.77149904,-0.075251274,-0.10968411,-0.0071300226,-0.9939409,,1.3342874496112653,-0.2615457942513615,0.15050186158,0.5466616826641549,0.0,0.0,0.0,,-1.4614654145839947,0.0279794612033154,0.12436606260000001,1.5668032577163657,0.07105097987802904,-0.17563637446468933,0.5088167660082799
1.2706095969770104,,0.5053672,-1.492945,-3.932005,-0.9548907,-0.0074608475,-0.2968632,-0.120208606,0.9238274,0.36344546,0.2715388,0.38273627,-0.8830513,,0.4537842,-1.4090147,-3.6577978,-0.8191516,0.21844755,0.53035,0.13732675,0.9724373,-0.18843246,-0.5568949,-0.081523515,-0.8265724,,0.4741462,-1.5274247,-4.0487804,-0.76736104,0.63619035,0.08011669,0.6317645,0.77149904,-0.075251274,-0.10968411,-0.0071300226,-0.9939409,,1.3342797268783912,-0.2615457942513615,0.15050186158,0.5466616826641549,0.0,0.0,0.0,,-1.4614654145839947,0.0279794612033154,0.12436606260000001,1.5668032577163657,0.07105097987802904,-0.17563637446468933,0.5088167660082799
1.297469982993789,,0.5053672,-1.492945,-3.932005,-0.9548907,-0.0074608475,-0.2968632,-0.120208606,0.9238274,0.36344546,0.2715388,0.38273627,-0.8830513,,0.45378342,-1.4090145,-3.6577983,-0.8191559,0.21844661,0.5303438,0.1373271,0.9724375,-0.18843138,-0.55688846,-0.08152413,-0.82657665,,0.4741462,-1.5274247,-4.0487804,-0.76736104,0.63619035,0.08011669,0.6317645,0.77149904,-0.075251274,-0.10968411,-0.0071300226,-0.9939409,,1.3342797268783912,-0.2615457942513615,0.15050186158,0.5466616826641549,0.0,0.0,0.0,,-1.4614576918511204,0.0279794612033154,0.12436606260000001,1.5668032577163657,0.07105097987802904,-0.17563637446468933,0.5088167660082799
1.322480948001612,,0.5053672,-1.492945,-3.932005,-0.9548907,-0.0074608475,-0.2968632,-0.120208606,0.9238274,0.36344546,0.2715388,0.38273627,-0.8830513,,0.4537842,-1.4090147,-3.6577978,-0.8191516,0.21844755,0.53035,0.13732675,0.9724373,-0.18843246,-0.5568949,-0.081523515,-0.8265724,,0.4741462,-1.5274247,-4.0487804,-0.76736104,0.63619035,0.08011669,0.6317645,0.77149904,-0.075251274,-0.10968411,-0.0071300226,-0.9939409,,1.3342797268783912,-0.2615457942513615,0.15050186158,0.5466616826641549,0.0,0.0,0.0,,-1.4614654145839947,0.0279794612033154,0.12436606260000001,1.5668032577163657,0.07105097987802904,-0.17563637446468933,0.5088167660082799
1.3527917389874347,,0.5053672,-1.492945,-3.932005,-0.9548907,-0.0074608475,-0.2968632,-0.120208606,0.9238274,0.36344546,0.2715388,0.38273627,-0.8830513,,0.4537842,-1.4090147,-3.6577978,-0.8191516,0.21844755,0.53035,0.13732675,0.9724373,-0.18843246,-0.5568949,-0.081523515,-0.8265724,,0.4741462,-1.5274247,-4.0487804,-0.76736104,0.63619035,0.08011669,0.6317645,0.77149904,-0.075251274,-0.10968411,-0.0071300226,-0.9939409,,1.3342797268783912,-0.2615457942513615,0.15050186158,0.5466616826641549,0.0,0.0,0.0,,-1.4614654145839947,0.0279794612033154,0.12436606260000001,1.5668032577163657,0.07105097987802904,-0.17563637446468933,0.5088167660082799
1.3761270009854343,,0.5053667,-1.4929442,-3.9320045,-0.95488966,-0.007460881,-0.29686698,-0.12021183,0.9238249,0.36345088,0.27154148,0.38274246,-0.8830478,,0.4537842,-1.4090147,-3.6577978,-0.8191516,0.21844755,0.53035,0.13732675,0.9724373,-0.18843246,-0.5568949,-0.081523515,-0.8265724,,0.4741462,-1.5274247,-4.0487804,-0.76736104,0.63619035,0.08011669,0.6317645,0.77149904,-0.075251274,-0.10968411,-0.0071300226,-0.9939409,,1.3342874496112653,-0.2615457942513615,0.15050186158,0.5466616826641549,0.0,0.0,0.0,,-1.4614654145839947,0.0279794612033154,0.12436606260000001,1.5668032577163657,0.07105097987802904,-0.17563637446468933,0.5088167660082799
1.4030693529930431,,0.50536776,-1.4929458,-3.9320054,-0.9548919,-0.0074608214,-0.29685944,-0.12020527,0.92383,0.36344,0.27153614,0.3827301,-0.8830548,,0.4537842,-1.4090147,-3.6577978,-0.8191516,0.21844755,0.53035,0.13732675,0.9724373,-0.18843246,-0.5568949,-0.081523515,-0.8265724,,0.4741462,-1.5274247,-4.0487804,-0.76736104,0.63619035,0.08011669,0.6317645,0.77149904,-0.075251274,-0.10968411,-0.0071300226,-0.9939409,,1.334272004145517,-0.2615457942513615,0.15050186158,0.5466616826641549,0.0,0.0,0.0,,-1.4614654145839947,0.0279794612033154,0.12436606260000001,1.5668032577163657,0.07105097987802904,-0.17563637446468933,0.5088167660082799
1.4287939920031931,,0.50536776,-1.4929458,-3.9320054,-0.9548919,-0.0074608214,-0.29685944,-0.12020527,0.92383,0.36344,0.27153614,0.3827301,-0.8830548,,0.4537842,-1.4090147,-3.6577978,-0.8191516,0.21844755,0.53035,0.13732675,0.9724373,-0.18843246,-0.5568949,-0.081523515,-0.8265724,,0.4741462,-1.5274247,-4.0487804,-0.76736104,0.63619035,0.08011669,0.6317645,0.77149904,-0.075251274,-0.10968411,-0.0071300226,-0.9939409,,1.334272004145517,-0.2615457942513615,0.15050186158,0.5466616826641549,0.0,0.0,0.0,,-1.4614654145839947,0.0279794612033154,0.12436606260000001,1.5668032577163657,0.07105097987802904,-0.17563637446468933,0.5088167660082799
1.454264661995694,,0.50536776,-1.4929458,-3.9320054,-0.9548919,-0.0074608214,-0.29685944,-0.12020527,0.92383,0.36344,0.27153614,0.3827301,-0.8830548,,0.4537842,-1.4090147,-3.6577978,-0.8191516,0.21844755,0.53035,0.13732675,0.9724373,-0.18843246,-0.5568949,-0.081523515,-0.8265724,,0.4741462,-1.5274247,-4.0487804,-0.76736104,0.63619035,0.08011669,0.6317645,0.77149904,-0.075251274,-0.10968411,-0.0071300226,-0.9939409,,1.334272004145517,-0.2615457942513615,0.15050186158,0.5466616826641549,0.0,0.0,0.0,,-1.4614654145839947,0.0279794612033154,0.12436606260000001,1.5668032577163657,0.07105097987802904,-0.17563637446468933,0.5088167660082799
1.483576884987997,,0.5053667,-1.4929442,-3.9320045,-0.95488966,-0.007460881,-0.29686698,-0.12021183,0.9238249,0.36345088,0.27154148,0.38274246,-0.8830478,,0.45378342,-1.4090145,-3.6577983,-0.8191559,0.21844661,0.5303438,0.1373271,0.9724375,-0.18843138,-0.55688846,-0.08152413,-0.82657665,,0.4741462,-1.5274247,-4.0487804,-0.76736104,0.63619035,0.08011669,0.6317645,0.77149904,-0.075251274,-0.10968411,-0.0071300226,-0.9939409,,1.3342874496112653,-0.2615457942513615,0.15050186158,0.5466616826641549,0.0,0.0,0.0,,-1.4614576918511204,0.0279794612033154,0.12436606260000001,1.5668032577163657,0.07105097987802904,-0.17563637446468933,0.5088167660082799
1.5060010369925294,,0.50535005,-1.4929317,-3.9319887,-0.954881,-0.0074422285,-0.29689535,-0.12021319,0.9238152,0.36347523,0.27157134,0.3827663,-0.88302827,,0.45379394,-1.4090188,-3.6577826,-0.8191685,0.21844505,0.530325,0.13731566,0.9724359,-0.18844888,-0.5568727,-0.08154946,-0.82658476,,0.47415003,-1.5274253,-4.048773,-0.7673522,0.63620096,0.080117546,0.631775,0.7714904,-0.07525186,-0.10968525,-0.0071284203,-0.9939408,,1.3342951723441396,-0.2615457942513615,0.15050186158,0.5466616826641549,0.0,0.0,0.0,,-1.4614654145839947,0.0279794612033154,0.12436606260000001,1.5668032577163657,0.07105097987802904,-0.17563637446468933,0.5088167660082799
1.5351962879940402,,0.50535166,-1.492934,-3.9319904,-0.95488447,-0.0074421726,-0.2968841,-0.12020346,0.9238229,0.363459,0.2715634,0.38274783,-0.88303864,,0.45379394,-1.4090188,-3.6577826,-0.8191685,0.21844505,0.530325,0.13731566,0.9724359,-0.18844888,-0.5568727,-0.08154946,-0.82658476,,0.47415003,-1.5274253,-4.048773,-0.7673522,0.63620096,0.080117546,0.631775,0.7714904,-0.07525186,-0.10968525,-0.0071284203,-0.9939408,,1.334272004145517,-0.2615457942513615,0.15050186158,0.5466616826641549,0.0,0.0,0.0,,-1.4614654145839947,0.0279794612033154,0.12436606260000001,1.5668032577163657,0.07105097987802904,-0.17563637446468933,0.5088167660082799
1.5578940859995782,,0.50535166,-1.492934,-3.9319904,-0.95488447,-0.0074421726,-0.2968841,-0.12020346,0.9238229,0.363459,0.2715634,0.38274783,-0.88303864,,0.45379394,-1.4090188,-3.6577826,-0.8191685,0.21844505,0.530325,0.13731566,0.9724359,-0.18844888,-0.5568727,-0.08154946,-0.82658476,,0.47415003,-1.5274253,-4.048773,-0.7673522,0.63620096,0.080117546,0.631775,0.7714904,-0.07525186,-0.10968525,-0.0071284203,-0.9939408,,1.334272004145517,-0.2615457942513615,0.15050186158,0.5466616826641549,0.0,0.0,0.0,,-1.4614654145839947,0.0279794612033154,0.12436606260000001,1.5668032577163657,0.07105097987802904,-0.17563637446468933,0.5088167660082799
1.5846021990000736,,0.50535166,-1.492934,-3.9319904,-0.95488447,-0.0074421726,-0.2968841,-0.12020346,0.9238229,0.363459,0.2715634,0.38274783,-0.88303864,,0.45379394,-1.4090188,-3.6577826,-0.8191685,0.21844505,0.530325,0.13731566,0.9724359,-0.18844888,-0.5568727,-0.08154946,-0.82658476,,0.47415003,-1.5274253,-4.048773,-0.7673522,0.63620096,0.080117546,0.631775,0.7714904,-0.07525186,-0.10968525,-0.0071284203,-0.9939408,,1.334272004145517,-0.2615457942513615,0.15050186158,0.5466616826641549,0.0,0.0,0.0,,-1.4614654145839947,0.0279794612033154,0.12436606260000001,1.5668032577163657,0.07105097987802904,-0.17563637446468933,0.5088167660082799
1.6091368029883597,,0.5053511,-1.4929333,-3.9319897,-0.9548833,-0.007442169,-0.29688781,-0.12020674,0.9238203,0.3634644,0.27156603,0.382754,-0.88303524,,0.45379394,-1.4090188,-3.6577826,-0.8191685,0.21844505,0.530325,0.13731566,0.9724359,-0.18844888,-0.5568727,-0.08154946,-0.82658476,,0.47415003,-1.5274253,-4.048773,-0.7673522,0.63620096,0.080117546,0.631775,0.7714904,-0.07525186,-0.10968525,-0.0071284203,-0.9939408,,1.3342797268783912,-0.2615457942513615,0.15050186158,0.5466616826641549,0.0,0.0,0.0,,-1.4614654145839947,0.0279794612033154,0.12436606260000001,1.5668032577163657,0.07105097987802904,-0.17563637446468933,0.5088167660082799
1.6383998899837025,,0.5053511,-1.4929333,-3.9319897,-0.9548833,-0.007442169,-0.29688781,-0.12020674,0.9238203,0.3634644,0.27156603,0.382754,-0.88303524,,0.45379317,-1.4090186,-3.6577828,-0.81917286,0.21844411,0.53031874,0.13731599,0.972436,-0.18844777,-0.55686635,-0.08155008,-0.826589,,0.47415003,-1.5274253,-4.048773,-0.7673522,0.63620096,0.080117546,0.631775,0.7714904,-0.07525186,-0.10968525,-0.0071284203,-0.9939408,,1.3342797268783912,-0.2615457942513615,0.15050186158,0.5466616826641549,0.0,0.0,0.0,,-1.4614576918511204,0.0279794612033154,0.12436606260000001,1.5668032577163657,0.07105097987802904,-0.17563637446468933,0.5088167660082799
1.665925224981038,,0.5053511,-1.4929333,-3.9319897,-0.9548833,-0.007442169,-0.29688781,-0.12020674,0.9238203,0.3634644,0.27156603,0.382754,-0.88303524,,0.45379317,-1.4090186,-3.6577828,-0.81917286,0.21844411,0.53031874,0.13731599,0.972436,-0.18844777,-0.55686635,-0.08155008,-0.826589,,0.47415003,-1.5274253,-4.048773,-0.7673522,0.63620096,0.080117546,0.631775,0.7714904,-0.07525186,-0.10968525,-0.0071284203,-0.9939408,,1.3342797268783912,-0.2615457942513615,0.15050186158,0.5466616826641549,0.0,0.0,0.0,,-1.4614576918511204,0.0279794612033154,0.12436606260000001,1.5668032577163657,0.07105097987802904,-0.17563637446468933,0.5088167660082799
1.6877449479943607,,0.5053506,-1.4929324,-3.9319892,-0.9548821,-0.0074421987,-0.29689166,-0.12020996,0.92381775,0.36346984,0.27156872,0.38276017,-0.8830317,,0.45379394,-1.4090188,-3.6577826,-0.8191685,0.21844505,0.530325,0.13731566,0.9724359,-0.18844888,-0.5568727,-0.08154946,-0.82658476,,0.47415003,-1.5274253,-4.048773,-0.7673522,0.63620096,0.080117546,0.631775,0.7714904,-0.07525186,-0.10968525,-0.0071284203,-0.9939408,,1.3342874496112653,-0.2615457942513615,0.15050186158,0.5466616826641549,0.0,0.0,0.0,,-1.4614654145839947,0.0279794612033154,0.12436606260000001,1.5668032577163657,0.07105097987802904,-0.17563637446468933,0.5088167660082799
1.7154510989785194,,0.50535166,-1.492934,-3.9319904,-0.95488447,-0.0074421726,-0.2968841,-0.12020346,0.9238229,0.363459,0.2715634,0.38274783,-0.88303864,,0.45379317,-1.4090186,-3.6577828,-0.81917286,0.21844411,0.53031874,0.13731599,0.972436,-0.18844777,-0.55686635,-0.08155008,-0.826589,,0.47415003,-1.5274253,-4.048773,-0.7673522,0.63620096,0.080117546,0.631775,0.7714904,-0.07525186,-0.10968525,-0.0071284203,-0.9939408,,1.334272004145517,-0.2615457942513615,0.15050186158,0.5466616826641549,0.0,0.0,0.0,,-1.4614576918511204,0.0279794612033154,0.12436606260000001,1.5668032577163657,0.07105097987802904,-0.17563637446468933,0.5088167660082799
1.738825366977835,,0.5053511,-1.4929333,-3.9319897,-0.9548833,-0.007442169,-0.29688781,-0.12020674,0.9238203,0.3634644,0.27156603,0.382754,-0.88303524,,0.4537924,-1.4090185,-3.6577833,-0.8191771,0.21844319,0.5303124,0.13731635,0.9724361,-0.1884467,-0.5568599,-0.081550695,-0.8265932,,0.47415003,-1.5274253,-4.048773,-0.7673522,0.63620096,0.080117546,0.631775,0.7714904,-0.07525186,-0.10968525,-0.0071284203,-0.9939408,,1.3342797268783912,-0.2615457942513615,0.15050186158,0.5466616826641549,0.0,0.0,0.0,,-1.4614499691182463,0.0279794612033154,0.12436606260000001,1.5668032577163657,0.07105097987802904,-0.17563637446468933,0.5088167660082799
1.7675782759906724,,0.5053511,-1.4929333,-3.9319897,-0.9548833,-0.007442169,-0.29688781,-0.12020674,0.9238203,0.3634644,0.27156603,0.382754,-0.88303524,,0.4537924,-1.4090185,-3.6577833,-0.8191771,0.21844319,0.5303124,0.13731635,0.9724361,-0.1884467,-0.5568599,-0.081550695,-0.8265932,,0.47415003,-1.5274253,-4.048773,-0.7673522,0.63620096,0.080117546,0.631775,0.7714904,-0.07525186,-0.10968525,-0.0071284203,-0.9939408,,1.3342797268783912,-0.2615457942513615,0.15050186158,0.5466616826641549,0.0,0.0,0.0,,-1.4614499691182463,0.0279794612033154,0.12436606260000001,1.5668032577163657,0.07105097987802904,-0.17563637446468933,0.5088167660082799
1.7903181579895318,,0.5053506,-1.4929324,-3.9319892,-0.9548821,-0.0074421987,-0.29689166,-0.12020996,0.92381775,0.36346984,0.27156872,0.38276017,-0.8830317,,0.45379317,-1.4090186,-3.6577828,-0.81917286,0.21844411,0.53031874,0.13731599,0.972436,-0.18844777,-0.55686635,-0.08155008,-0.826589,,0.47415003,-1.5274253,-4.048773,-0.7673522,0.63620096,0.080117546,0.631775,0.7714904,-0.07525186,-0.10968525,-0.0071284203,-0.9939408,,1.3342874496112653,-0.2615457942513615,0.15050186158,0.5466616826641549,0.0,0.0,0.0,,-1.4614576918511204,0.0279794612033154,0.12436606260000001,1.5668032577163657,0.07105097987802904,-0.17563637446468933,0.5088167660082799
1.818843630986521,,0.5053506,-1.4929324,-3.9319892,-0.9548821,-0.0074421987,-0.29689166,-0.12020996,0.92381775,0.36346984,0.27156872,0.38276017,-0.8830317,,0.45379472,-1.4090189,-3.657782,-0.8191643,0.21844599,0.53033125,0.13731536,0.9724356,-0.1884499,-0.55687916,-0.08154884,-0.8265805,,0.47415003,-1.5274253,-4.048773,-0.7673522,0.63620096,0.080117546,0.631775,0.7714904,-0.07525186,-0.10968525,-0.0071284203,-0.9939408,,1.3342874496112653,-0.2615457942513615,0.15050186158,0.5466616826641549,0.0,0.0,0.0,,-1.4614731373168688,0.0279794612033154,0.12436606260000001,1.5668032577163657,0.07105097987802904,-0.17563637446468933,0.5088167660082799
1.8418659459857736,,0.50535166,-1.492934,-3.9319904,-0.95488447,-0.0074421726,-0.2968841,-0.12020346,0.9238229,0.363459,0.2715634,0.38274783,-0.88303864,,0.45379394,-1.4090188,-3.6577826,-0.8191685,0.21844505,0.530325,0.13731566,0.9724359,-0.18844888,-0.5568727,-0.08154946,-0.82658476,,0.47415003,-1.5274253,-4.048773,-0.7673522,0.63620096,0.080117546,0.631775,0.7714904,-0.07525186,-0.10968525,-0.0071284203,-0.9939408,,1.334272004145517,-0.2615457942513615,0.15050186158,0.5466616826641549,0.0,0.0,0.0,,-1.4614654145839947,0.0279794612033154,0.12436606260000001,1.5668032577163657,0.07105097987802904,-0.17563637446468933,0.5088167660082799
1.8694999360013753,,0.50535166,-1.492934,-3.9319904,-0.95488447,-0.0074421726,-0.2968841,-0.12020346,0.9238229,0.363459,0.2715634,0.38274783,-0.88303864,,0.45379394,-1.4090188,-3.6577826,-0.8191685,0.21844505,0.530325,0.13731566,0.9724359,-0.18844888,-0.5568727,-0.08154946,-0.82658476,,0.47415003,-1.5274253,-4.048773,-0.7673522,0.63620096,0.080117546,0.631775,0.7714904,-0.07525186,-0.10968525,-0.0071284203,-0.9939408,,1.334272004145517,-0.2615457942513615,0.15050186158,0.5466616826641549,0.0,0.0,0.0,,-1.4614654145839947,0.0279794612033154,0.12436606260000001,1.5668032577163657,0.07105097987802904,-0.17563637446468933,0.5088167660082799
1.8981604400032666,,0.5053511,-1.4929333,-3.9319897,-0.9548833,-0.007442169,-0.29688781,-0.12020674,0.9238203,0.3634644,0.27156603,0.382754,-0.88303524,,0.45379317,-1.4090186,-3.6577828,-0.81917286,0.21844411,0.53031874,0.13731599,0.972436,-0.18844777,-0.55686635,-0.08155008,-0.826589,,0.47415003,-1.5274253,-4.048773,-0.7673522,0.63620096,0.080117546,0.631775,0.7714904,-0.07525186,-0.10968525,-0.0071284203,-0.9939408,,1.3342797268783912,-0.2615457942513615,0.15050186158,0.5466616826641549,0.0,0.0,0.0,,-1.4614576918511204,0.0279794612033154,0.12436606260000001,1.5668032577163657,0.07105097987802904,-0.17563637446468933,0.5088167660082799
1.9198125249822624,,0.5053511,-1.4929333,-3.9319897,-0.9548833,-0.007442169,-0.29688781,-0.12020674,0.9238203,0.3634644,0.27156603,0.382754,-0.88303524,,0.4537924,-1.4090185,-3.6577833,-0.8191771,0.21844319,0.5303124,0.13731635,0.9724361,-0.1884467,-0.5568599,-0.081550695,-0.8265932,,0.47415003,-1.5274253,-4.048773,-0.7673522,0.63620096,0.080117546,0.631775,0.7714904,-0.07525186,-0.10968525,-0.0071284203,-0.9939408,,1.3342797268783912,-0.2615457942513615,0.15050186158,0.5466616826641549,0.0,0.0,0.0,,-1.4614499691182463,0.0279794612033154,0.12436606260000001,1.5668032577163657,0.07105097987802904,-0.17563637446468933,0.5088167660082799
1.9470354349759873,,0.5053506,-1.4929324,-3.9319892,-0.9548821,-0.0074421987,-0.29689166,-0.12020996,0.92381775,0.36346984,0.27156872,0.38276017,-0.8830317,,0.45379317,-1.4090186,-3.6577828,-0.81917286,0.21844411,0.53031874,0.13731599,0.972436,-0.18844777,-0.55686635,-0.08155008,-0.826589,,0.47415003,-1.5274253,-4.048773,-0.7673522,0.63620096,0.080117546,0.631775,0.7714904,-0.07525186,-0.10968525,-0.0071284203,-0.9939408,,1.3342874496112653,-0.2615457942513615,0.15050186158,0.5466616826641549,0.0,0.0,0.0,,-1.4614576918511204,0.0279794612033154,0.12436606260000001,1.5668032577163657,0.07105097987802904,-0.17563637446468933,0.5088167660082799
1.9715822720027063,,0.50535166,-1.492934,-3.9319904,-0.95488447,-0.0074421726,-0.2968841,-0.12020346,0.9238229,0.363459,0.2715634,0.38274783,-0.88303864,,0.45379394,-1.4090188,-3.6577826,-0.8191685,0.21844505,0.530325,0.13731566,0.9724359,-0.18844888,-0.5568727,-0.08154946,-0.82658476,,0.47415003,-1.5274253,-4.048773,-0.7673522,0.63620096,0.080117546,0.631775,0.7714904,-0.07525186,-0.10968525,-0.0071284203,-0.9939408,,1.334272004145517,-0.2615457942513615,0.15050186158,0.5466616826641549,0.0,0.0,0.0,,-1.4614654145839947,0.0279794612033154,0.12436606260000001,1.5668032577163657,0.07105097987802904,-0.17563637446468933,0.5088167660082799
2.0018164509965573,,0.5053511,-1.4929333,-3.9319897,-0.9548833,-0.007442169,-0.29688781,-0.12020674,0.9238203,0.3634644,0.27156603,0.382754,-0.88303524,,0.45379472,-1.4090189,-3.657782,-0.8191643,0.21844599,0.53033125,0.13731536,0.9724356,-0.1884499,-0.55687916,-0.08154884,-0.8265805,,0.47415003,-1.5274253,-4.048773,-0.7673522,0.63620096,0.080117546,0.631775,0.7714904,-0.07525186,-0.10968525,-0.0071284203,-0.9939408,,1.3342797268783912,-0.2615457942513615,0.15050186158,0.5466616826641549,0.0,0.0,0.0,,-1.4614731373168688,0.0279794612033154,0.12436606260000001,1.5668032577163657,0.07105097987802904,-0.17563637446468933,0.5088167660082799
2.028432597988285,,0.5053511,-1.4929333,-3.9319897,-0.9548833,-0.007442169,-0.29688781,-0.12020674,0.9238203,0.3634644,0.27156603,0.382754,-0.88303524,,0.4537924,-1.4090185,-3.6577833,-0.8191771,0.21844319,0.5303124,0.13731635,0.9724361,-0.1884467,-0.5568599,-0.081550695,-0.8265932,,0.47415003,-1.5274253,-4.048773,-0.7673522,0.63620096,0.080117546,0.631775,0.7714904,-0.07525186,-0.10968525,-0.0071284203,-0.9939408,,1.3342797268783912,-0.2615457942513615,0.15050186158,0.5466616826641549,0.0,0.0,0.0,,-1.4614499691182463,0.0279794612033154,0.12436606260000001,1.5668032577163657,0.07105097987802904,-0.17563637446468933,0.5088167660082799
2.0529168189968914,,0.5053511,-1.4929333,-3.9319897,-0.9548833,-0.007442169,-0.29688781,-0.12020674,0.9238203,0.3634644,0.27156603,0.382754,-0.88303524,,0.45379162,-1.4090184,-3.6577837,-0.81918144,0.21844225,0.5303062,0.13731664,0.97243625,-0.18844566,-0.55685353,-0.08155131,-0.8265976,,0.47415003,-1.5274253,-4.048773,-0.7673522,0.63620096,0.080117546,0.631775,0.7714904,-0.07525186,-0.10968525,-0.0071284203,-0.9939408,,1.3342797268783912,-0.2615457942513615,0.15050186158,0.5466616826641549,0.0,0.0,0.0,,-1.461442246385372,0.0279794612033154,0.12436606260000001,1.5668032577163657,0.07105097987802904,-0.17563637446468933,0.5088167660082799
2.0822310489893425,,0.50535005,-1.4929317,-3.9319887,-0.954881,-0.0074422285,-0.29689535,-0.12021319,0.9238152,0.36347523,0.27157134,0.3827663,-0.88302827,,0.4537924,-1.4090185,-3.6577833,-0.8191771,0.21844319,0.5303124,0.13731635,0.9724361,-0.1884467,-0.5568599,-0.081550695,-0.8265932,,0.47415003,-1.5274253,-4.048773,-0.7673522,0.63620096,0.080117546,0.631775,0.7714904,-0.07525186,-0.10968525,-0.0071284203,-0.9939408,,1.3342951723441396,-0.2615457942513615,0.15050186158,0.5466616826641549,0.0,0.0,0.0,,-1.4614499691182463,0.0279794612033154,0.12436606260000001,1.5668032577163657,0.07105097987802904,-0.17563637446468933,0.5088167660082799
2.1042669139860664,,0.5053511,-1.4929333,-3.9319897,-0.9548833,-0.007442169,-0.29688781,-0.12020674,0.9238203,0.3634644,0.27156603,0.382754,-0.88303524,,0.4537924,-1.4090185,-3.6577833,-0.8191771,0.21844319,0.5303124,0.13731635,0.9724361,-0.1884467,-0.5568599,-0.081550695,-0.8265932,,0.47415003,-1.5274253,-4.048773,-0.7673522,0.63620096,0.080117546,0.631775,0.7714904,-0.07525186,-0.10968525,-0.0071284203,-0.9939408,,1.3342797268783912,-0.2615457942513615,0.15050186158,0.5466616826641549,0.0,0.0,0.0,,-1.4614499691182463,0.0279794612033154,0.12436606260000001,1.5668032577163657,0.07105097987802904,-0.17563637446468933,0.5088167660082799
2.1324046999798156,,0.50535166,-1.492934,-3.9319904,-0.95488447,-0.0074421726,-0.2968841,-0.12020346,0.9238229,0.363459,0.2715634,0.38274783,-0.88303864,,0.45379394,-1.4090188,-3.6577826,-0.8191685,0.21844505,0.530325,0.13731566,0.9724359,-0.18844888,-0.5568727,-0.08154946,-0.82658476,,0.47415003,-1.5274253,-4.048773,-0.7673522,0.63620096,0.080117546,0.631775,0.7714904,-0.07525186,-0.10968525,-0.0071284203,-0.9939408,,1.334272004145517,-0.2615457942513615,0.15050186158,0.5466616826641549,0.0,0.0,0.0,,-1.4614654145839947,0.0279794612033154,0.12436606260000001,1.5668032577163657,0.07105097987802904,-0.17563637446468933,0.5088167660082799
2.1550516529823653,,0.5053511,-1.4929333,-3.9319897,-0.9548833,-0.007442169,-0.29688781,-0.12020674,0.9238203,0.3634644,0.27156603,0.382754,-0.88303524,,0.45379496,-1.4090171,-3.6577818,-0.8191641,0.21843868,0.5303345,0.1373164,0.9724384,-0.1884349,-0.5568791,-0.081535496,-0.8265818,,0.47415003,-1.5274253,-4.048773,-0.7673522,0.63620096,0.080117546,0.631775,0.7714904,-0.07525186,-0.10968525,-0.0071284203,-0.9939408,,1.3342797268783912,-0.2615457942513615,0.15050186158,0.5466616826641549,0.0,0.0,0.0,,-1.4614731373168688,0.027994906669063846,0.12436606260000001,1.5668032577163657,0.07105097987802904,-0.17563637446468933,0.5088167660082799
2.183927652979037,,0.5053506,-1.4929324,-3.9319892,-0.9548821,-0.0074421987,-0.29689166,-0.12020996,0.92381775,0.36346984,0.27156872,0.38276017,-0.8830317,,0.4537925,-1.4090177,-3.6577833,-0.8191771,0.21843953,0.5303141,0.13731688,0.9724375,-0.18843922,-0.5568599,-0.08154403,-0.8265939,,0.47415003,-1.5274253,-4.048773,-0.7673522,0.63620096,0.080117546,0.631775,0.7714904,-0.07525186,-0.10968525,-0.0071284203,-0.9939408,,1.3342874496112653,-0.2615457942513615,0.15050186158,0.5466616826641549,0.0,0.0,0.0,,-1.4614499691182463,0.027987183936189625,0.12436606260000001,1.5668032577163657,0.07105097987802904,-0.17563637446468933,0.5088167660082799
2.20580425998196,,0.5053506,-1.4929324,-3.9319892,-0.9548821,-0.0074421987,-0.29689166,-0.12020996,0.92381775,0.36346984,0.27156872,0.38276017,-0.8830317,,0.45379162,-1.4090184,-3.6577837,-0.81918144,0.21844225,0.5303062,0.13731664,0.97243625,-0.18844566,-0.55685353,-0.08155131,-0.8265976,,0.47415003,-1.5274253,-4.048773,-0.7673522,0.63620096,0.080117546,0.631775,0.7714904,-0.07525186,-0.10968525,-0.0071284203,-0.9939408,,1.3342874496112653,-0.2615457942513615,0.15050186158,0.5466616826641549,0.0,0.0,0.0,,-1.461442246385372,0.0279794612033154,0.12436606260000001,1.5668032577163657,0.07105097987802904,-0.17563637446468933,0.5088167660082799
2.235945059976075,,0.5053506,-1.4929324,-3.9319892,-0.9548821,-0.0074421987,-0.29689166,-0.12020996,0.92381775,0.36346984,0.27156872,0.38276017,-0.8830317,,0.45379174,-1.4090176,-3.6577837,-0.8191813,0.21843858,0.5303078,0.13731724,0.97243756,-0.18843815,-0.5568535,-0.081544645,-0.82659817,,0.47415003,-1.5274253,-4.048773,-0.7673522,0.63620096,0.080117546,0.631775,0.7714904,-0.07525186,-0.10968525,-0.0071284203,-0.9939408,,1.3342874496112653,-0.2615457942513615,0.15050186158,0.5466616826641549,0.0,0.0,0.0,,-1.461442246385372,0.027987183936189625,0.12436606260000001,1.5668032577163657,0.07105097987802904,-0.17563637446468933,0.5088167660082799
2.2640490389894694,,0.50535166,-1.492934,-3.9319904,-0.95488447,-0.0074421726,-0.2968841,-0.12020346,0.9238229,0.363459,0.2715634,0.38274783,-0.88303864,,0.45379317,-1.4090186,-3.6577828,-0.81917286,0.21844411,0.53031874,0.13731599,0.972436,-0.18844777,-0.55686635,-0.08155008,-0.826589,,0.47415003,-1.5274253,-4.048773,-0.7673522,0.63620096,0.080117546,0.631775,0.7714904,-0.07525186,-0.10968525,-0.0071284203,-0.9939408,,1.334272004145517,-0.2615457942513615,0.15050186158,0.5466616826641549,0.0,0.0,0.0,,-1.4614576918511204,0.0279794612033154,0.12436606260000001,1.5668032577163657,0.07105097987802904,-0.17563637446468933,0.5088167660082799
2.2862254649808165,,0.5053511,-1.4929333,-3.9319897,-0.9548833,-0.007442169,-0.29688781,-0.12020674,0.9238203,0.3634644,0.27156603,0.382754,-0.88303524,,0.45379406,-1.4090179,-3.6577823,-0.8191685,0.21844141,0.5303266,0.13731623,0.9724372,-0.18844137,-0.5568727,-0.08154279,-0.8265854,,0.47415003,-1.5274253,-4.048773,-0.7673522,0.63620096,0.080117546,0.631775,0.7714904,-0.07525186,-0.10968525,-0.0071284203,-0.9939408,,1.3342797268783912,-0.2615457942513615,0.15050186158,0.5466616826641549,0.0,0.0,0.0,,-1.4614654145839947,0.027987183936189625,0.12436606260000001,1.5668032577163657,0.07105097987802904,-0.17563637446468933,0.5088167660082799
2.313220531999832,,0.5053506,-1.4929324,-3.9319892,-0.9548821,-0.0074421987,-0.29689166,-0.12020996,0.92381775,0.36346984,0.27156872,0.38276017,-0.8830317,,0.45379496,-1.4090171,-3.6577818,-0.8191641,0.21843868,0.5303345,0.1373164,0.9724384,-0.1884349,-0.5568791,-0.081535496,-0.8265818,,0.47415003,-1.5274253,-4.048773,-0.7673522,0.63620096,0.080117546,0.631775,0.7714904,-0.07525186,-0.10968525,-0.0071284203,-0.9939408,,1.3342874496112653,-0.2615457942513615,0.15050186158,0.5466616826641549,0.0,0.0,0.0,,-1.4614731373168688,0.027994906669063846,0.12436606260000001,1.5668032577163657,0.07105097987802904,-0.17563637446468933,0.5088167660082799
2.338146288995631,,0.5053506,-1.4929324,-3.9319892,-0.9548821,-0.0074421987,-0.29689166,-0.12020996,0.92381775,0.36346984,0.27156872,0.38276017,-0.8830317,,0.45379418,-1.409017,-3.6577823,-0.8191684,0.21843775,0.5303282,0.13731673,0.9724386,-0.18843386,-0.5568727,-0.081536114,-0.8265861,,0.47415003,-1.5274253,-4.048773,-0.7673522,0.63620096,0.080117546,0.631775,0.7714904,-0.07525186,-0.10968525,-0.0071284203,-0.9939408,,1.3342874496112653,-0.2615457942513615,0.15050186158,0.5466616826641549,0.0,0.0,0.0,,-1.4614654145839947,0.027994906669063846,0.12436606260000001,1.5668032577163657,0.07105097987802904,-0.17563637446468933,0.5088167660082799
2.3684424629900604,,0.5053506,-1.4929324,-3.9319892,-0.9548821,-0.0074421987,-0.29689166,-0.12020996,0.92381775,0.36346984,0.27156872,0.38276017,-0.8830317,,0.4537925,-1.4090177,-3.6577833,-0.8191771,0.21843953,0.5303141,0.13731688,0.9724375,-0.18843922,-0.5568599,-0.08154403,-0.8265939,,0.47415003,-1.5274253,-4.048773,-0.7673522,0.63620096,0.080117546,0.631775,0.7714904,-0.07525186,-0.10968525,-0.0071284203,-0.9939408,,1.3342874496112653,-0.2615457942513615,0.15050186158,0.5466616826641549,0.0,0.0,0.0,,-1.4614499691182463,0.027987183936189625,0.12436606260000001,1.5668032577163657,0.07105097987802904,-0.17563637446468933,0.5088167660082799
2.3910458559985273,,0.5053511,-1.4929333,-3.9319897,-0.9548833,-0.007442169,-0.29688781,-0.12020674,0.9238203,0.3634644,0.27156603,0.382754,-0.88303524,,0.4537924,-1.4090185,-3.6577833,-0.8191771,0.21844319,0.5303124,0.13731635,0.9724361,-0.1884467,-0.5568599,-0.081550695,-0.8265932,,0.47415003,-1.5274253,-4.048773,-0.7673522,0.63620096,0.080117546,0.631775,0.7714904,-0.07525186,-0.10968525,-0.0071284203,-0.9939408,,1.3342797268783912,-0.2615457942513615,0.15050186158,0.5466616826641549,0.0,0.0,0.0,,-1.4614499691182463,0.0279794612033154,0.12436606260000001,1.5668032577163657,0.07105097987802904,-0.17563637446468933,0.5088167660082799
2.4196278659801465,,0.5053506,-1.4929324,-3.9319892,-0.9548821,-0.0074421987,-0.29689166,-0.12020996,0.92381775,0.36346984,0.27156872,0.38276017,-0.8830317,,0.4537924,-1.4090185,-3.6577833,-0.8191771,0.21844319,0.5303124,0.13731635,0.9724361,-0.1884467,-0.5568599,-0.081550695,-0.8265932,,0.47415003,-1.5274253,-4.048773,-0.7673522,0.63620096,0.080117546,0.631775,0.7714904,-0.07525186,-0.10968525,-0.0071284203,-0.9939408,,1.3342874496112653,-0.2615457942513615,0.15050186158,0.5466616826641549,0.0,0.0,0.0,,-1.4614499691182463,0.0279794612033154,0.12436606260000001,1.5668032577163657,0.07105097987802904,-0.17563637446468933,0.5088167660082799
2.4453921410022303,,0.5053506,-1.4929324,-3.9319892,-0.9548821,-0.0074421987,-0.29689166,-0.12020996,0.92381775,0.36346984,0.27156872,0.38276017,-0.8830317,,0.45379394,-1.4090188,-3.6577826,-0.8191685,0.21844505,0.530325,0.13731566,0.9724359,-0.18844888,-0.5568727,-0.08154946,-0.82658476,,0.47415003,-1.5274253,-4.048773,-0.7673522,0.63620096,0.080117546,0.631775,0.7714904,-0.07525186,-0.10968525,-0.0071284203,-0.9939408,,1.3342874496112653,-0.2615457942513615,0.15050186158,0.5466616826641549,0.0,0.0,0.0,,-1.4614654145839947,0.0279794612033154,0.12436606260000001,1.5668032577163657,0.07105097987802904,-0.17563637446468933,0.5088167660082799
2.4743834479886573,,0.5053511,-1.4929333,-3.9319897,-0.9548833,-0.007442169,-0.29688781,-0.12020674,0.9238203,0.3634644,0.27156603,0.382754,-0.88303524,,0.45379394,-1.4090188,-3.6577826,-0.8191685,0.21844505,0.530325,0.13731566,0.9724359,-0.18844888,-0.5568727,-0.08154946,-0.82658476,,0.47415003,-1.5274253,-4.048773,-0.7673522,0.63620096,0.080117546,0.631775,0.7714904,-0.07525186,-0.10968525,-0.0071284203,-0.9939408,,1.3342797268783912,-0.2615457942513615,0.15050186158,0.5466616826641549,0.0,0.0,0.0,,-1.4614654145839947,0.0279794612033154,0.12436606260000001,1.5668032577163657,0.07105097987802904,-0.17563637446468933,0.5088167660082799
2.503642312978627,,0.5053511,-1.4929333,-3.9319897,-0.9548833,-0.007442169,-0.29688781,-0.12020674,0.9238203,0.3634644,0.27156603,0.382754,-0.88303524,,0.45379317,-1.4090186,-3.6577828,-0.81917286,0.21844411,0.53031874,0.13731599,0.972436,-0.18844777,-0.55686635,-0.08155008,-0.826589,,0.47415003,-1.5274253,-4.048773,-0.7673522,0.63620096,0.080117546,0.631775,0.7714904,-0.07525186,-0.10968525,-0.0071284203,-0.9939408,,1.3342797268783912,-0.2615457942513615,0.15050186158,0.5466616826641549,0.0,0.0,0.0,,-1.4614576918511204,0.0279794612033154,0.12436606260000001,1.5668032577163657,0.07105097987802904,-0.17563637446468933,0.5088167660082799
2.5278513969969936,,0.50535166,-1.492934,-3.9319904,-0.95488447,-0.0074421726,-0.2968841,-0.12020346,0.9238229,0.363459,0.2715634,0.38274783,-0.88303864,,0.45379317,-1.4090186,-3.6577828,-0.81917286,0.21844411,0.53031874,0.13731599,0.972436,-0.18844777,-0.55686635,-0.08155008,-0.826589,,0.47415003,-1.5274253,-4.048773,-0.7673522,0.63620096,0.080117546,0.631775,0.7714904,-0.07525186,-0.10968525,-0.0071284203,-0.9939408,,1.334272004145517,-0.2615457942513615,0.15050186158,0.5466616826641549,0.0,0.0,0.0,,-1.4614576918511204,0.0279794612033154,0.12436606260000001,1.5668032577163657,0.07105097987802904,-0.17563637446468933,0.5088167660082799
2.5517205240030307,,0.5053511,-1.4929333,-3.9319897,-0.9548833,-0.007442169,-0.29688781,-0.12020674,0.9238203,0.3634644,0.27156603,0.382754,-0.88303524,,0.45379317,-1.4090186,-3.6577828,-0.81917286,0.21844411,0.53031874,0.13731599,0.972436,-0.18844777,-0.55686635,-0.08155008,-0.826589,,0.47415003,-1.5274253,-4.048773,-0.7673522,0.63620096,0.080117546,0.631775,0.7714904,-0.07525186,-0.10968525,-0.0071284203,-0.9939408,,1.3342797268783912,-0.2615457942513615,0.15050186158,0.5466616826641549,0.0,0.0,0.0,,-1.4614576918511204,0.0279794612033154,0.12436606260000001,1.5668032577163657,0.07105097987802904,-0.17563637446468933,0.5088167660082799
2.5785284059820697,,0.5053511,-1.4929333,-3.9319897,-0.9548833,-0.007442169,-0.29688781,-0.12020674,0.9238203,0.3634644,0.27156603,0.382754,-0.88303524,,0.4537924,-1.4090185,-3.6577833,-0.8191771,0.21844319,0.5303124,0.13731635,0.9724361,-0.1884467,-0.5568599,-0.081550695,-0.8265932,,0.47415003,-1.5274253,-4.048773,-0.7673522,0.63620096,0.080117546,0.631775,0.7714904,-0.07525186,-0.10968525,-0.0071284203,-0.9939408,,1.3342797268783912,-0.2615457942513615,0.15050186158,0.5466616826641549,0.0,0.0,0.0,,-1.4614499691182463,0.0279794612033154,0.12436606260000001,1.5668032577163657,0.07105097987802904,-0.17563637446468933,0.5088167660082799
2.6052847079990897,,0.5053511,-1.4929333,-3.9319897,-0.9548833,-0.007442169,-0.29688781,-0.12020674,0.9238203,0.3634644,0.27156603,0.382754,-0.88303524,,0.45379317,-1.4090186,-3.6577828,-0.81917286,0.21844411,0.53031874,0.13731599,0.972436,-0.18844777,-0.55686635,-0.08155008,-0.826589,,0.47415003,-1.5274253,-4.048773,-0.7673522,0.63620096,0.080117546,0.631775,0.7714904,-0.07525186,-0.10968525,-0.0071284203,-0.9939408,,1.3342797268783912,-0.2615457942513615,0.15050186158,0.5466616826641549,0.0,0.0,0.0,,-1.4614576918511204,0.0279794612033154,0.12436606260000001,1.5668032577163657,0.07105097987802904,-0.17563637446468933,0.5088167660082799
2.632577168988064,,0.5053511,-1.4929333,-3.9319897,-0.9548833,-0.007442169,-0.29688781,-0.12020674,0.9238203,0.3634644,0.27156603,0.382754,-0.88303524,,0.45379472,-1.4090189,-3.657782,-0.8191643,0.21844599,0.53033125,0.13731536,0.9724356,-0.1884499,-0.55687916,-0.08154884,-0.8265805,,0.47415003,-1.5274253,-4.048773,-0.7673522,0.63620096,0.080117546,0.631775,0.7714904,-0.07525186,-0.10968525,-0.0071284203,-0.9939408,,1.3342797268783912,-0.2615457942513615,0.15050186158,0.5466616826641549,0.0,0.0,0.0,,-1.4614731373168688,0.0279794612033154,0.12436606260000001,1.5668032577163657,0.07105097987802904,-0.17563637446468933,0.5088167660082799
2.656449706002604,,0.50531155,-1.4928906,-3.9319985,-0.95489573,-0.0074166246,-0.29684833,-0.1201654,0.9238257,0.36346412,0.27154046,0.38274133,-0.8830486,,0.45382905,-1.4090054,-3.6577935,-0.81917226,0.21841578,0.5303311,0.13729769,0.9724433,-0.18842292,-0.55687153,-0.08153763,-0.8265867,,0.47413525,-1.5274115,-4.048783,-0.76733863,0.6362171,0.080118865,0.6317911,0.77147704,-0.07525277,-0.109686986,-0.007125966,-0.9939406,,1.334272004145517,-0.2615457942513615,0.15050186158,0.5466616826641549,0.0,0.0,0.0,,-1.4614731373168688,0.0279794612033154,0.12436606260000001,1.5668032577163657,0.07105097987802904,-0.17563637446468933,0.5088167660082799
2.6857918559981044,,0.5053105,-1.492889,-3.9319975,-0.9548934,-0.0074167103,-0.2968558,-0.120171875,0.92382056,0.36347502,0.27154577,0.38275367,-0.88304156,,0.45382747,-1.409005,-3.6577945,-0.81918097,0.21841389,0.5303186,0.13729829,0.9724436,-0.18842077,-0.5568587,-0.08153886,-0.82659525,,0.47413525,-1.5274115,-4.048783,-0.76733863,0.6362171,0.080118865,0.6317911,0.77147704,-0.07525277,-0.109686986,-0.007125966,-0.9939406,,1.3342874496112653,-0.2615457942513615,0.15050186158,0.5466616826641549,0.0,0.0,0.0,,-1.4614576918511204,0.0279794612033154,0.12436606260000001,1.5668032577163657,0.07105097987802904,-0.17563637446468933,0.5088167660082799
2.711869986000238,,0.505311,-1.4928898,-3.931998,-0.95489454,-0.0074166805,-0.29685205,-0.120168656,0.9238232,0.36346954,0.27154312,0.3827475,-0.8830451,,0.45382592,-1.4090048,-3.6577954,-0.8191896,0.21841204,0.53030604,0.13729897,0.972444,-0.18841864,-0.55684584,-0.0815401,-0.8266038,,0.47413525,-1.5274115,-4.048783,-0.76733863,0.6362171,0.080118865,0.6317911,0.77147704,-0.07525277,-0.109686986,-0.007125966,-0.9939406,,1.3342797268783912,-0.2615457942513615,0.15050186158,0.5466616826641549,0.0,0.0,0.0,,-1.461442246385372,0.0279794612033154,0.12436606260000001,1.5668032577163657,0.07105097987802904,-0.17563637446468933,0.5088167660082799
2.7379881859815214,,0.5053105,-1.492889,-3.9319975,-0.9548934,-0.0074167103,-0.2968558,-0.120171875,0.92382056,0.36347502,0.27154577,0.38275367,-0.88304156,,0.4538267,-1.4090049,-3.657795,-0.81918526,0.21841298,0.5303123,0.13729867,0.97244376,-0.1884197,-0.5568523,-0.08153948,-0.8265995,,0.47413525,-1.5274115,-4.048783,-0.76733863,0.6362171,0.080118865,0.6317911,0.77147704,-0.07525277,-0.109686986,-0.007125966,-0.9939406,,1.3342874496112653,-0.2615457942513615,0.15050186158,0.5466616826641549,0.0,0.0,0.0,,-1.4614499691182463,0.0279794612033154,0.12436606260000001,1.5668032577163657,0.07105097987802904,-0.17563637446468933,0.5088167660082799
2.7673585349984933,,0.5053105,-1.492889,-3.9319975,-0.9548934,-0.0074167103,-0.2968558,-0.120171875,0.92382056,0.36347502,0.27154577,0.38275367,-0.88304156,,0.4538267,-1.4090049,-3.657795,-0.81918526,0.21841298,0.5303123,0.13729867,0.97244376,-0.1884197,-0.5568523,-0.08153948,-0.8265995,,0.47413525,-1.5274115,-4.048783,-0.76733863,0.6362171,0.080118865,0.6317911,0.77147704,-0.07525277,-0.109686986,-0.007125966,-0.9939406,,1.3342874496112653,-0.2615457942513615,0.15050186158,0.5466616826641549,0.0,0.0,0.0,,-1.4614499691182463,0.0279794612033154,0.12436606260000001,1.5668032577163657,0.07105097987802904,-0.17563637446468933,0.5088167660082799
2.7882533179945312,,0.5053105,-1.492889,-3.9319975,-0.9548934,-0.0074167103,-0.2968558,-0.120171875,0.92382056,0.36347502,0.27154577,0.38275367,-0.88304156,,0.45382747,-1.409005,-3.6577945,-0.81918097,0.21841389,0.5303186,0.13729829,0.9724436,-0.18842077,-0.5568587,-0.08153886,-0.82659525,,0.47413525,-1.5274115,-4.048783,-0.76733863,0.6362171,0.080118865,0.6317911,0.77147704,-0.07525277,-0.109686986,-0.007125966,-0.9939406,,1.3342874496112653,-0.2615457942513615,0.15050186158,0.5466616826641549,0.0,0.0,0.0,,-1.4614576918511204,0.0279794612033154,0.12436606260000001,1.5668032577163657,0.07105097987802904,-0.17563637446468933,0.5088167660082799
2.816612211987376,,0.5053105,-1.492889,-3.9319975,-0.9548934,-0.0074167103,-0.2968558,-0.120171875,0.92382056,0.36347502,0.27154577,0.38275367,-0.88304156,,0.45382926,-1.4090035,-3.6577935,-0.81917214,0.21840848,0.5303343,0.13729873,0.9724461,-0.1884079,-0.5568715,-0.08152428,-0.82658803,,0.47413525,-1.5274115,-4.048783,-0.76733863,0.6362171,0.080118865,0.6317911,0.77147704,-0.07525277,-0.109686986,-0.007125966,-0.9939406,,1.3342874496112653,-0.2615457942513615,0.15050186158,0.5466616826641549,0.0,0.0,0.0,,-1.4614731373168688,0.027994906669063846,0.12436606260000001,1.5668032577163657,0.07105097987802904,-0.17563637446468933,0.5088167660082799
2.837813592981547,,0.5053105,-1.492889,-3.9319975,-0.9548934,-0.0074167103,-0.2968558,-0.120171875,0.92382056,0.36347502,0.27154577,0.38275367,-0.88304156,,0.4538277,-1.4090033,-3.6577945,-0.8191808,0.2184066,0.53032184,0.13729939,0.9724463,-0.18840578,-0.55685866,-0.08152552,-0.8265966,,0.47413525,-1.5274115,-4.048783,-0.76733863,0.6362171,0.080118865,0.6317911,0.77147704,-0.07525277,-0.109686986,-0.007125966,-0.9939406,,1.3342874496112653,-0.2615457942513615,0.15050186158,0.5466616826641549,0.0,0.0,0.0,,-1.4614576918511204,0.027994906669063846,0.12436606260000001,1.5668032577163657,0.07105097987802904,-0.17563637446468933,0.5088167660082799
2.8664809209876694,,0.505311,-1.4928898,-3.931998,-0.95489454,-0.0074166805,-0.29685205,-0.120168656,0.9238232,0.36346954,0.27154312,0.3827475,-0.8830451,,0.4538276,-1.4090042,-3.6577945,-0.81918085,0.21841027,0.53032017,0.13729888,0.97244495,-0.18841326,-0.5568587,-0.081532195,-0.82659596,,0.47413525,-1.5274115,-4.048783,-0.76733863,0.6362171,0.080118865,0.6317911,0.77147704,-0.07525277,-0.109686986,-0.007125966,-0.9939406,,1.3342797268783912,-0.2615457942513615,0.15050186158,0.5466616826641549,0.0,0.0,0.0,,-1.4614576918511204,0.027987183936189625,0.12436606260000001,1.5668032577163657,0.07105097987802904,-0.17563637446468933,0.5088167660082799
2.8881466199818533,,0.505311,-1.4928898,-3.931998,-0.95489454,-0.0074166805,-0.29685205,-0.120168656,0.9238232,0.36346954,0.27154312,0.3827475,-0.8830451,,0.4538276,-1.4090042,-3.6577945,-0.81918085,0.21841027,0.53032017,0.13729888,0.97244495,-0.18841326,-0.5568587,-0.081532195,-0.82659596,,0.47413525,-1.5274115,-4.048783,-0.76733863,0.6362171,0.080118865,0.6317911,0.77147704,-0.07525277,-0.109686986,-0.007125966,-0.9939406,,1.3342797268783912,-0.2615457942513615,0.15050186158,0.5466616826641549,0.0,0.0,0.0,,-1.4614576918511204,0.027987183936189625,0.12436606260000001,1.5668032577163657,0.07105097987802904,-0.17563637446468933,0.5088167660082799
2.9170040799945127,,0.505311,-1.4928898,-3.931998,-0.95489454,-0.0074166805,-0.29685205,-0.120168656,0.9238232,0.36346954,0.27154312,0.3827475,-0.8830451,,0.4538267,-1.4090049,-3.657795,-0.81918526,0.21841298,0.5303123,0.13729867,0.97244376,-0.1884197,-0.5568523,-0.08153948,-0.8265995,,0.47413525,-1.5274115,-4.048783,-0.76733863,0.6362171,0.080118865,0.6317911,0.77147704,-0.07525277,-0.109686986,-0.007125966,-0.9939406,,1.3342797268783912,-0.2615457942513615,0.15050186158,0.5466616826641549,0.0,0.0,0.0,,-1.4614499691182463,0.0279794612033154,0.12436606260000001,1.5668032577163657,0.07105097987802904,-0.17563637446468933,0.5088167660082799
2.9413847730029374,,0.505311,-1.4928898,-3.931998,-0.95489454,-0.0074166805,-0.29685205,-0.120168656,0.9238232,0.36346954,0.27154312,0.3827475,-0.8830451,,0.45382836,-1.4090043,-3.657794,-0.8191765,0.2184112,0.5303264,0.13729852,0.97244483,-0.18841434,-0.5568651,-0.08153157,-0.8265917,,0.47413525,-1.5274115,-4.048783,-0.76733863,0.6362171,0.080118865,0.6317911,0.77147704,-0.07525277,-0.109686986,-0.007125966,-0.9939406,,1.3342797268783912,-0.2615457942513615,0.15050186158,0.5466616826641549,0.0,0.0,0.0,,-1.4614731373168688,0.027994906669063846,0.12436606260000001,1.5668032577163657,0.07105097987802904,-0.17563637446468933,0.5088167660082799
2.9693690619897097,,0.5053105,-1.492889,-3.9319975,-0.9548934,-0.0074167103,-0.2968558,-0.120171875,0.92382056,0.36347502,0.27154577,0.38275367,-0.88304156,,0.45382848,-1.4090034,-3.657794,-0.81917644,0.21840754,0.53032804,0.13729906,0.9724462,-0.18840681,-0.55686504,-0.08152491,-0.8265923,,0.47413525,-1.5274115,-4.048783,-0.76733863,0.6362171,0.080118865,0.6317911,0.77147704,-0.07525277,-0.109686986,-0.007125966,-0.9939406,,1.3342874496112653,-0.2615457942513615,0.15050186158,0.5466616826641549,0.0,0.0,0.0,,-1.4614654145839947,0.027994906669063846,0.12436606260000001,1.5668032577163657,0.07105097987802904,-0.17563637446468933,0.5088167660082799
3.002376156975515,,0.5053105,-1.492889,-3.9319975,-0.9548934,-0.0074167103,-0.2968558,-0.120171875,0.92382056,0.36347502,0.27154577,0.38275367,-0.88304156,,0.45382848,-1.4090034,-3.657794,-0.81917644,0.21840754,0.53032804,0.13729906,0.9724462,-0.18840681,-0.55686504,-0.08152491,-0.8265923,,0.47413525,-1.5274115,-4.048783,-0.76733863,0.6362171,0.080118865,0.6317911,0.77147704,-0.07525277,-0.109686986,-0.007125966,-0.9939406,,1.3342874496112653,-0.2615457942513615,0.15050186158,0.5466616826641549,0.0,0.0,0.0,,-1.4614654145839947,0.027994906669063846,0.12436606260000001,1.5668032577163657,0.07105097987802904,-0.17563637446468933,0.5088167660082799
3.0284117169794627,,0.5053105,-1.492889,-3.9319975,-0.9548934,-0.0074167103,-0.2968558,-0.120171875,0.92382056,0.36347502,0.27154577,0.38275367,-0.88304156,,0.4538276,-1.4090042,-3.6577945,-0.81918085,0.21841027,0.53032017,0.13729888,0.97244495,-0.18841326,-0.5568587,-0.081532195,-0.82659596,,0.47413525,-1.5274115,-4.048783,-0.76733863,0.6362171,0.080118865,0.6317911,0.77147704,-0.07525277,-0.109686986,-0.007125966,-0.9939406,,1.3342874496112653,-0.2615457942513615,0.15050186158,0.5466616826641549,0.0,0.0,0.0,,-1.4614576918511204,0.027987183936189625,0.12436606260000001,1.5668032577163657,0.07105097987802904,-0.17563637446468933,0.5088167660082799
3.060655287990812,,0.5053105,-1.492889,-3.9319975,-0.9548934,-0.0074167103,-0.2968558,-0.120171875,0.92382056,0.36347502,0.27154577,0.38275367,-0.88304156,,0.4538267,-1.4090049,-3.657795,-0.81918526,0.21841298,0.5303123,0.13729867,0.97244376,-0.1884197,-0.5568523,-0.08153948,-0.8265995,,0.47413525,-1.5274115,-4.048783,-0.76733863,0.6362171,0.080118865,0.6317911,0.77147704,-0.07525277,-0.109686986,-0.007125966,-0.9939406,,1.3342874496112653,-0.2615457942513615,0.15050186158,0.5466616826641549,0.0,0.0,0.0,,-1.4614499691182463,0.0279794612033154,0.12436606260000001,1.5668032577163657,0.07105097987802904,-0.17563637446468933,0.5088167660082799
3.0893665019830223,,0.50530994,-1.4928882,-3.931997,-0.9548923,-0.0074166805,-0.2968596,-0.12017516,0.923818,0.36348042,0.27154845,0.38275984,-0.8830381,,0.45382747,-1.409005,-3.6577945,-0.81918097,0.21841389,0.5303186,0.13729829,0.9724436,-0.18842077,-0.5568587,-0.08153886,-0.82659525,,0.47413525,-1.5274115,-4.048783,-0.76733863,0.6362171,0.080118865,0.6317911,0.77147704,-0.07525277,-0.109686986,-0.007125966,-0.9939406,,1.3342951723441396,-0.2615457942513615,0.15050186158,0.5466616826641549,0.0,0.0,0.0,,-1.4614576918511204,0.0279794612033154,0.12436606260000001,1.5668032577163657,0.07105097987802904,-0.17563637446468933,0.5088167660082799
3.115576311975019,,0.5053105,-1.492889,-3.9319975,-0.9548934,-0.0074167103,-0.2968558,-0.120171875,0.92382056,0.36347502,0.27154577,0.38275367,-0.88304156,,0.45382747,-1.409005,-3.6577945,-0.81918097,0.21841389,0.5303186,0.13729829,0.9724436,-0.18842077,-0.5568587,-0.08153886,-0.82659525,,0.47413525,-1.5274115,-4.048783,-0.76733863,0.6362171,0.080118865,0.6317911,0.77147704,-0.07525277,-0.109686986,-0.007125966,-0.9939406,,1.3342874496112653,-0.2615457942513615,0.15050186158,0.5466616826641549,0.0,0.0,0.0,,-1.4614576918511204,0.0279794612033154,0.12436606260000001,1.5668032577163657,0.07105097987802904,-0.17563637446468933,0.5088167660082799
3.1396826959971804,,0.5053105,-1.492889,-3.9319975,-0.9548934,-0.0074167103,-0.2968558,-0.120171875,0.92382056,0.36347502,0.27154577,0.38275367,-0.88304156,,0.45382747,-1.409005,-3.6577945,-0.81918097,0.21841389,0.5303186,0.13729829,0.9724436,-0.18842077,-0.5568587,-0.08153886,-0.82659525,,0.47413525,-1.5274115,-4.048783,-0.76733863,0.6362171,0.080118865,0.6317911,0.77147704,-0.07525277,-0.109686986,-0.007125966,-0.9939406,,1.3342874496112653,-0.2615457942513615,0.15050186158,0.5466616826641549,0.0,0.0,0.0,,-1.4614576918511204,0.0279794612033154,0.12436606260000001,1.5668032577163657,0.07105097987802904,-0.17563637446468933,0.5088167660082799
3.168576915981248,,0.5053105,-1.492889,-3.9319975,-0.9548934,-0.0074167103,-0.2968558,-0.120171875,0.92382056,0.36347502,0.27154577,0.38275367,-0.88304156,,0.45382747,-1.409005,-3.6577945,-0.81918097,0.21841389,0.5303186,0.13729829,0.9724436,-0.18842077,-0.5568587,-0.08153886,-0.82659525,,0.47413525,-1.5274115,-4.048783,-0.76733863,0.6362171,0.080118865,0.6317911,0.77147704,-0.07525277,-0.109686986,-0.007125966,-0.9939406,,1.3342874496112653,-0.2615457942513615,0.15050186158,0.5466616826641549,0.0,0.0,0.0,,-1.4614576918511204,0.0279794612033154,0.12436606260000001,1.5668032577163657,0.07105097987802904,-0.17563637446468933,0.5088167660082799
3.1928966109990142,,0.505311,-1.4928898,-3.931998,-0.95489454,-0.0074166805,-0.29685205,-0.120168656,0.9238232,0.36346954,0.27154312,0.3827475,-0.8830451,,0.45382747,-1.409005,-3.6577945,-0.81918097,0.21841389,0.5303186,0.13729829,0.9724436,-0.18842077,-0.5568587,-0.08153886,-0.82659525,,0.47413525,-1.5274115,-4.048783,-0.76733863,0.6362171,0.080118865,0.6317911,0.77147704,-0.07525277,-0.109686986,-0.007125966,-0.9939406,,1.3342797268783912,-0.2615457942513615,0.15050186158,0.5466616826641549,0.0,0.0,0.0,,-1.4614576918511204,0.0279794612033154,0.12436606260000001,1.5668032577163657,0.07105097987802904,-0.17563637446468933,0.5088167660082799
3.2197263519919943,,0.505311,-1.4928898,-3.931998,-0.95489454,-0.0074166805,-0.29685205,-0.120168656,0.9238232,0.36346954,0.27154312,0.3827475,-0.8830451,,0.4538267,-1.4090049,-3.657795,-0.81918526,0.21841298,0.5303123,0.13729867,0.97244376,-0.1884197,-0.5568523,-0.08153948,-0.8265995,,0.47413525,-1.5274115,-4.048783,-0.76733863,0.6362171,0.080118865,0.6317911,0.77147704,-0.07525277,-0.109686986,-0.007125966,-0.9939406,,1.3342797268783912,-0.2615457942513615,0.15050186158,0.5466616826641549,0.0,0.0,0.0,,-1.4614499691182463,0.0279794612033154,0.12436606260000001,1.5668032577163657,0.07105097987802904,-0.17563637446468933,0.5088167660082799
3.2436453179980163,,0.505311,-1.4928898,-3.931998,-0.95489454,-0.0074166805,-0.29685205,-0.120168656,0.9238232,0.36346954,0.27154312,0.3827475,-0.8830451,,0.45382747,-1.409005,-3.6577945,-0.81918097,0.21841389,0.5303186,0.13729829,0.9724436,-0.18842077,-0.5568587,-0.08153886,-0.82659525,,0.47413525,-1.5274115,-4.048783,-0.76733863,0.6362171,0.080118865,0.6317911,0.77147704,-0.07525277,-0.109686986,-0.007125966,-0.9939406,,1.3342797268783912,-0.2615457942513615,0.15050186158,0.5466616826641549,0.0,0.0,0.0,,-1.4614576918511204,0.0279794612033154,0.12436606260000001,1.5668032577163657,0.07105097987802904,-0.17563637446468933,0.5088167660082799
3.270895385998301,,0.5053105,-1.492889,-3.9319975,-0.9548934,-0.0074167103,-0.2968558,-0.120171875,0.92382056,0.36347502,0.27154577,0.38275367,-0.88304156,,0.45382747,-1.409005,-3.6577945,-0.81918097,0.21841389,0.5303186,0.13729829,0.9724436,-0.18842077,-0.5568587,-0.08153886,-0.82659525,,0.47413525,-1.5274115,-4.048783,-0.76733863,0.6362171,0.080118865,0.6317911,0.77147704,-0.07525277,-0.109686986,-0.007125966,-0.9939406,,1.3342874496112653,-0.2615457942513615,0.15050186158,0.5466616826641549,0.0,0.0,0.0,,-1.4614576918511204,0.0279794612033154,0.12436606260000001,1.5668032577163657,0.07105097987802904,-0.17563637446468933,0.5088167660082799
3.2972550289996434,,0.5053105,-1.492889,-3.9319975,-0.9548934,-0.0074167103,-0.2968558,-0.120171875,0.92382056,0.36347502,0.27154577,0.38275367,-0.88304156,,0.45382747,-1.409005,-3.6577945,-0.81918097,0.21841389,0.5303186,0.13729829,0.9724436,-0.18842077,-0.5568587,-0.08153886,-0.82659525,,0.47413525,-1.5274115,-4.048783,-0.76733863,0.6362171,0.080118865,0.6317911,0.77147704,-0.07525277,-0.109686986,-0.007125966,-0.9939406,,1.3342874496112653,-0.2615457942513615,0.15050186158,0.5466616826641549,0.0,0.0,0.0,,-1.4614576918511204,0.0279794612033154,0.12436606260000001,1.5668032577163657,0.07105097987802904,-0.17563637446468933,0.5088167660082799
3.3219953429943416,,0.5053105,-1.492889,-3.9319975,-0.9548934,-0.0074167103,-0.2968558,-0.120171875,0.92382056,0.36347502,0.27154577,0.38275367,-0.88304156,,0.45382825,-1.4090052,-3.657794,-0.8191766,0.21841484,0.5303248,0.13729799,0.97244346,-0.18842182,-0.5568651,-0.081538245,-0.826591,,0.47413525,-1.5274115,-4.048783,-0.76733863,0.6362171,0.080118865,0.6317911,0.77147704,-0.07525277,-0.109686986,-0.007125966,-0.9939406,,1.3342874496112653,-0.2615457942513615,0.15050186158,0.5466616826641549,0.0,0.0,0.0,,-1.4614654145839947,0.0279794612033154,0.12436606260000001,1.5668032577163657,0.07105097987802904,-0.17563637446468933,0.5088167660082799
3.348868847999256,,0.5053105,-1.492889,-3.9319975,-0.9548934,-0.0074167103,-0.2968558,-0.120171875,0.92382056,0.36347502,0.27154577,0.38275367,-0.88304156,,0.45382747,-1.409005,-3.6577945,-0.81918097,0.21841389,0.5303186,0.13729829,0.9724436,-0.18842077,-0.5568587,-0.08153886,-0.82659525,,0.47413525,-1.5274115,-4.048783,-0.76733863,0.6362171,0.080118865,0.6317911,0.77147704,-0.07525277,-0.109686986,-0.007125966,-0.9939406,,1.3342874496112653,-0.2615457942513615,0.15050186158,0.5466616826641549,0.0,0.0,0.0,,-1.4614576918511204,0.0279794612033154,0.12436606260000001,1.5668032577163657,0.07105097987802904,-0.17563637446468933,0.5088167660082799
3.37261137997848,,0.5053105,-1.492889,-3.9319975,-0.9548934,-0.0074167103,-0.2968558,-0.120171875,0.92382056,0.36347502,0.27154577,0.38275367,-0.88304156,,0.45382747,-1.409005,-3.6577945,-0.81918097,0.21841389,0.5303186,0.13729829,0.9724436,-0.18842077,-0.5568587,-0.08153886,-0.82659525,,0.47413525,-1.5274115,-4.048783,-0.76733863,0.6362171,0.080118865,0.6317911,0.77147704,-0.07525277,-0.109686986,-0.007125966,-0.9939406,,1.3342874496112653,-0.2615457942513615,0.15050186158,0.5466616826641549,0.0,0.0,0.0,,-1.4614576918511204,0.0279794612033154,0.12436606260000001,1.5668032577163657,0.07105097987802904,-0.17563637446468933,0.5088167660082799
3.401167538977461,,0.505311,-1.4928898,-3.931998,-0.95489454,-0.0074166805,-0.29685205,-0.120168656,0.9238232,0.36346954,0.27154312,0.3827475,-0.8830451,,0.45382747,-1.409005,-3.6577945,-0.81918097,0.21841389,0.5303186,0.13729829,0.9724436,-0.18842077,-0.5568587,-0.08153886,-0.82659525,,0.47413525,-1.5274115,-4.048783,-0.76733863,0.6362171,0.080118865,0.6317911,0.77147704,-0.07525277,-0.109686986,-0.007125966,-0.9939406,,1.3342797268783912,-0.2615457942513615,0.15050186158,0.5466616826641549,0.0,0.0,0.0,,-1.4614576918511204,0.0279794612033154,0.12436606260000001,1.5668032577163657,0.07105097987802904,-0.17563637446468933,0.5088167660082799
3.4222842329763807,,0.5053105,-1.492889,-3.9319975,-0.9548934,-0.0074167103,-0.2968558,-0.120171875,0.92382056,0.36347502,0.27154577,0.38275367,-0.88304156,,0.45382747,-1.409005,-3.6577945,-0.81918097,0.21841389,0.5303186,0.13729829,0.9724436,-0.18842077,-0.5568587,-0.08153886,-0.82659525,,0.47413525,-1.5274115,-4.048783,-0.76733863,0.6362171,0.080118865,0.6317911,0.77147704,-0.07525277,-0.109686986,-0.007125966,-0.9939406,,1.3342874496112653,-0.2615457942513615,0.15050186158,0.5466616826641549,0.0,0.0,0.0,,-1.4614576918511204,0.0279794612033154,0.12436606260000001,1.5668032577163657,0.07105097987802904,-0.17563637446468933,0.5088167660082799
3.450375146989245,,0.505311,-1.4928898,-3.931998,-0.95489454,-0.0074166805,-0.29685205,-0.120168656,0.9238232,0.36346954,0.27154312,0.3827475,-0.8830451,,0.45382747,-1.409005,-3.6577945,-0.81918097,0.21841389,0.5303186,0.13729829,0.9724436,-0.18842077,-0.5568587,-0.08153886,-0.82659525,,0.47413525,-1.5274115,-4.048783,-0.76733863,0.6362171,0.080118865,0.6317911,0.77147704,-0.07525277,-0.109686986,-0.007125966,-0.9939406,,1.3342797268783912,-0.2615457942513615,0.15050186158,0.5466616826641549,0.0,0.0,0.0,,-1.4614576918511204,0.0279794612033154,0.12436606260000001,1.5668032577163657,0.07105097987802904,-0.17563637446468933,0.5088167660082799
3.4734704220027197,,0.505311,-1.4928898,-3.931998,-0.95489454,-0.0074166805,-0.29685205,-0.120168656,0.9238232,0.36346954,0.27154312,0.3827475,-0.8830451,,0.45382825,-1.4090052,-3.657794,-0.8191766,0.21841484,0.5303248,0.13729799,0.97244346,-0.18842182,-0.5568651,-0.081538245,-0.826591,,0.47413525,-1.5274115,-4.048783,-0.76733863,0.6362171,0.080118865,0.6317911,0.77147704,-0.07525277,-0.109686986,-0.007125966,-0.9939406,,1.3342797268783912,-0.2615457942513615,0.15050186158,0.5466616826641549,0.0,0.0,0.0,,-1.4614654145839947,0.0279794612033154,0.12436606260000001,1.5668032577163657,0.07105097987802904,-0.17563637446468933,0.5088167660082799
3.5025234279746655,,0.5053105,-1.492889,-3.9319975,-0.9548934,-0.0074167103,-0.2968558,-0.120171875,0.92382056,0.36347502,0.27154577,0.38275367,-0.88304156,,0.45382747,-1.409005,-3.6577945,-0.81918097,0.21841389,0.5303186,0.13729829,0.9724436,-0.18842077,-0.5568587,-0.08153886,-0.82659525,,0.47413525,-1.5274115,-4.048783,-0.76733863,0.6362171,0.080118865,0.6317911,0.77147704,-0.07525277,-0.109686986,-0.007125966,-0.9939406,,1.3342874496112653,-0.2615457942513615,0.15050186158,0.5466616826641549,0.0,0.0,0.0,,-1.4614576918511204,0.0279794612033154,0.12436606260000001,1.5668032577163657,0.07105097987802904,-0.17563637446468933,0.5088167660082799
3.5241667089867406,,0.5053105,-1.492889,-3.9319975,-0.9548934,-0.0074167103,-0.2968558,-0.120171875,0.92382056,0.36347502,0.27154577,0.38275367,-0.88304156,,0.45382747,-1.409005,-3.6577945,-0.81918097,0.21841389,0.5303186,0.13729829,0.9724436,-0.18842077,-0.5568587,-0.08153886,-0.82659525,,0.47413525,-1.5274115,-4.048783,-0.76733863,0.6362171,0.080118865,0.6317911,0.77147704,-0.07525277,-0.109686986,-0.007125966,-0.9939406,,1.3342874496112653,-0.2615457942513615,0.15050186158,0.5466616826641549,0.0,0.0,0.0,,-1.4614576918511204,0.0279794612033154,0.12436606260000001,1.5668032577163657,0.07105097987802904,-0.17563637446468933,0.5088167660082799
3.5522724759939592,,0.5053105,-1.492889,-3.9319975,-0.9548934,-0.0074167103,-0.2968558,-0.120171875,0.92382056,0.36347502,0.27154577,0.38275367,-0.88304156,,0.4538267,-1.4090049,-3.657795,-0.81918526,0.21841298,0.5303123,0.13729867,0.97244376,-0.1884197,-0.5568523,-0.08153948,-0.8265995,,0.47413525,-1.5274115,-4.048783,-0.76733863,0.6362171,0.080118865,0.6317911,0.77147704,-0.07525277,-0.109686986,-0.007125966,-0.9939406,,1.3342874496112653,-0.2615457942513615,0.15050186158,0.5466616826641549,0.0,0.0,0.0,,-1.4614499691182463,0.0279794612033154,0.12436606260000001,1.5668032577163657,0.07105097987802904,-0.17563637446468933,0.5088167660082799
3.5770870479755104,,0.505311,-1.4928898,-3.931998,-0.95489454,-0.0074166805,-0.29685205,-0.120168656,0.9238232,0.36346954,0.27154312,0.3827475,-0.8830451,,0.45382747,-1.409005,-3.6577945,-0.81918097,0.21841389,0.5303186,0.13729829,0.9724436,-0.18842077,-0.5568587,-0.08153886,-0.82659525,,0.47413525,-1.5274115,-4.048783,-0.76733863,0.6362171,0.080118865,0.6317911,0.77147704,-0.07525277,-0.109686986,-0.007125966,-0.9939406,,1.3342797268783912,-0.2615457942513615,0.15050186158,0.5466616826641549,0.0,0.0,0.0,,-1.4614576918511204,0.0279794612033154,0.12436606260000001,1.5668032577163657,0.07105097987802904,-0.17563637446468933,0.5088167660082799
3.603601140988758,,0.505311,-1.4928898,-3.931998,-0.95489454,-0.0074166805,-0.29685205,-0.120168656,0.9238232,0.36346954,0.27154312,0.3827475,-0.8830451,,0.45382747,-1.409005,-3.6577945,-0.81918097,0.21841389,0.5303186,0.13729829,0.9724436,-0.18842077,-0.5568587,-0.08153886,-0.82659525,,0.47413525,-1.5274115,-4.048783,-0.76733863,0.6362171,0.080118865,0.6317911,0.77147704,-0.07525277,-0.109686986,-0.007125966,-0.9939406,,1.3342797268783912,-0.2615457942513615,0.15050186158,0.5466616826641549,0.0,0.0,0.0,,-1.4614576918511204,0.0279794612033154,0.12436606260000001,1.5668032577163657,0.07105097987802904,-0.17563637446468933,0.5088167660082799
3.6335285939858295,,0.5053105,-1.492889,-3.9319975,-0.9548934,-0.0074167103,-0.2968558,-0.120171875,0.92382056,0.36347502,0.27154577,0.38275367,-0.88304156,,0.45382825,-1.4090052,-3.657794,-0.8191766,0.21841484,0.5303248,0.13729799,0.97244346,-0.18842182,-0.5568651,-0.081538245,-0.826591,,0.47413525,-1.5274115,-4.048783,-0.76733863,0.6362171,0.080118865,0.6317911,0.77147704,-0.07525277,-0.109686986,-0.007125966,-0.9939406,,1.3342874496112653,-0.2615457942513615,0.15050186158,0.5466616826641549,0.0,0.0,0.0,,-1.4614654145839947,0.0279794612033154,0.12436606260000001,1.5668032577163657,0.07105097987802904,-0.17563637446468933,0.5088167660082799
3.655244033987401,,0.5053105,-1.492889,-3.9319975,-0.9548934,-0.0074167103,-0.2968558,-0.120171875,0.92382056,0.36347502,0.27154577,0.38275367,-0.88304156,,0.4538267,-1.4090049,-3.657795,-0.81918526,0.21841298,0.5303123,0.13729867,0.97244376,-0.1884197,-0.5568523,-0.08153948,-0.8265995,,0.47413525,-1.5274115,-4.048783,-0.76733863,0.6362171,0.080118865,0.6317911,0.77147704,-0.07525277,-0.109686986,-0.007125966,-0.9939406,,1.3342874496112653,-0.2615457942513615,0.15050186158,0.5466616826641549,0.0,0.0,0.0,,-1.4614499691182463,0.0279794612033154,0.12436606260000001,1.5668032577163657,0.07105097987802904,-0.17563637446468933,0.5088167660082799
3.6832682539825328,,0.5053105,-1.492889,-3.9319975,-0.9548934,-0.0074167103,-0.2968558,-0.120171875,0.92382056,0.36347502,0.27154577,0.38275367,-0.88304156,,0.45382747,-1.409005,-3.6577945,-0.81918097,0.21841389,0.5303186,0.13729829,0.9724436,-0.18842077,-0.5568587,-0.08153886,-0.82659525,,0.47413525,-1.5274115,-4.048783,-0.76733863,0.6362171,0.080118865,0.6317911,0.77147704,-0.07525277,-0.109686986,-0.007125966,-0.9939406,,1.3342874496112653,-0.2615457942513615,0.15050186158,0.5466616826641549,0.0,0.0,0.0,,-1.4614576918511204,0.0279794612033154,0.12436606260000001,1.5668032577163657,0.07105097987802904,-0.17563637446468933,0.5088167660082799
3.7072585369751323,,0.5053105,-1.492889,-3.9319975,-0.9548934,-0.0074167103,-0.2968558,-0.120171875,0.92382056,0.36347502,0.27154577,0.38275367,-0.88304156,,0.4538267,-1.4090049,-3.657795,-0.81918526,0.21841298,0.5303123,0.13729867,0.97244376,-0.1884197,-0.5568523,-0.08153948,-0.8265995,,0.47413525,-1.5274115,-4.048783,-0.76733863,0.6362171,0.080118865,0.6317911,0.77147704,-0.07525277,-0.109686986,-0.007125966,-0.9939406,,1.3342874496112653,-0.2615457942513615,0.15050186158,0.5466616826641549,0.0,0.0,0.0,,-1.4614499691182463,0.0279794612033154,0.12436606260000001,1.5668032577163657,0.07105097987802904,-0.17563637446468933,0.5088167660082799
3.736208877991885,,0.505311,-1.4928898,-3.931998,-0.95489454,-0.0074166805,-0.29685205,-0.120168656,0.9238232,0.36346954,0.27154312,0.3827475,-0.8830451,,0.45382747,-1.409005,-3.6577945,-0.81918097,0.21841389,0.5303186,0.13729829,0.9724436,-0.18842077,-0.5568587,-0.08153886,-0.82659525,,0.47413525,-1.5274115,-4.048783,-0.76733863,0.6362171,0.080118865,0.6317911,0.77147704,-0.07525277,-0.109686986,-0.007125966,-0.9939406,,1.3342797268783912,-0.2615457942513615,0.15050186158,0.5466616826641549,0.0,0.0,0.0,,-1.4614576918511204,0.0279794612033154,0.12436606260000001,1.5668032577163657,0.07105097987802904,-0.17563637446468933,0.5088167660082799
3.765074740978889,,0.505311,-1.4928898,-3.931998,-0.95489454,-0.0074166805,-0.29685205,-0.120168656,0.9238232,0.36346954,0.27154312,0.3827475,-0.8830451,,0.45382747,-1.409005,-3.6577945,-0.81918097,0.21841389,0.5303186,0.13729829,0.9724436,-0.18842077,-0.5568587,-0.08153886,-0.82659525,,0.47413525,-1.5274115,-4.048783,-0.76733863,0.6362171,0.080118865,0.6317911,0.77147704,-0.07525277,-0.109686986,-0.007125966,-0.9939406,,1.3342797268783912,-0.2615457942513615,0.15050186158,0.5466616826641549,0.0,0.0,0.0,,-1.4614576918511204,0.0279794612033154,0.12436606260000001,1.5668032577163657,0.07105097987802904,-0.17563637446468933,0.5088167660082799
3.7931725879898295,,0.5053362,-1.4928925,-3.9320135,-0.95489883,-0.007417634,-0.2968386,-0.120171376,0.9238134,0.36349365,0.27152723,0.38277116,-0.8830398,,0.45377344,-1.4090161,-3.6577907,-0.81914854,0.21847653,0.530343,0.13734822,0.97243047,-0.18845285,-0.5568942,-0.08152923,-0.8265723,,0.47412893,-1.5274096,-4.0487804,-0.767355,0.6361977,0.08011728,0.6317717,0.77149314,-0.075251676,-0.10968489,-0.007128931,-0.99394083,,1.3342874496112653,-0.2615457942513615,0.15050186158,0.5466616826641549,0.0,0.0,0.0,,-1.4614654145839947,0.0279794612033154,0.12436606260000001,1.5668032577163657,0.07105097987802904,-0.17563637446468933,0.5088167660082799
3.8179306669917423,,0.5053362,-1.4928925,-3.9320135,-0.95489883,-0.007417634,-0.2968386,-0.120171376,0.9238134,0.36349365,0.27152723,0.38277116,-0.8830398,,0.45377344,-1.4090161,-3.6577907,-0.81914854,0.21847653,0.530343,0.13734822,0.97243047,-0.18845285,-0.5568942,-0.08152923,-0.8265723,,0.47412893,-1.5274096,-4.0487804,-0.767355,0.6361977,0.08011728,0.6317717,0.77149314,-0.075251676,-0.10968489,-0.007128931,-0.99394083,,1.3342874496112653,-0.2615457942513615,0.15050186158,0.5466616826641549,0.0,0.0,0.0,,-1.4614654145839947,0.0279794612033154,0.12436606260000001,1.5668032577163657,0.07105097987802904,-0.17563637446468933,0.5088167660082799
3.840097223990597,,0.5053362,-1.4928925,-3.9320135,-0.95489883,-0.007417634,-0.2968386,-0.120171376,0.9238134,0.36349365,0.27152723,0.38277116,-0.8830398,,0.4537727,-1.4090159,-3.6577911,-0.81915283,0.2184756,0.53033674,0.13734855,0.97243065,-0.18845178,-0.55688775,-0.081529856,-0.8265766,,0.47412893,-1.5274096,-4.0487804,-0.767355,0.6361977,0.08011728,0.6317717,0.77149314,-0.075251676,-0.10968489,-0.007128931,-0.99394083,,1.3342874496112653,-0.2615457942513615,0.15050186158,0.5466616826641549,0.0,0.0,0.0,,-1.4614576918511204,0.0279794612033154,0.12436606260000001,1.5668032577163657,0.07105097987802904,-0.17563637446468933,0.5088167660082799
3.86981716498849,,0.50533676,-1.4928933,-3.932014,-0.9549,-0.0074176043,-0.2968349,-0.12016803,0.92381597,0.36348823,0.27152458,0.382765,-0.8830432,,0.4537719,-1.4090159,-3.6577916,-0.8191571,0.21847466,0.5303304,0.13734888,0.97243077,-0.18845072,-0.55688137,-0.081530474,-0.8265808,,0.47412893,-1.5274096,-4.0487804,-0.767355,0.6361977,0.08011728,0.6317717,0.77149314,-0.075251676,-0.10968489,-0.007128931,-0.99394083,,1.3342797268783912,-0.2615457942513615,0.15050186158,0.5466616826641549,0.0,0.0,0.0,,-1.4614499691182463,0.0279794612033154,0.12436606260000001,1.5668032577163657,0.07105097987802904,-0.17563637446468933,0.5088167660082799
3.895809579989873,,0.5053362,-1.4928925,-3.9320135,-0.95489883,-0.007417634,-0.2968386,-0.120171376,0.9238134,0.36349365,0.27152723,0.38277116,-0.8830398,,0.4537727,-1.4090159,-3.6577911,-0.81915283,0.2184756,0.53033674,0.13734855,0.97243065,-0.18845178,-0.55688775,-0.081529856,-0.8265766,,0.47412893,-1.5274096,-4.0487804,-0.767355,0.6361977,0.08011728,0.6317717,0.77149314,-0.075251676,-0.10968489,-0.007128931,-0.99394083,,1.3342874496112653,-0.2615457942513615,0.15050186158,0.5466616826641549,0.0,0.0,0.0,,-1.4614576918511204,0.0279794612033154,0.12436606260000001,1.5668032577163657,0.07105097987802904,-0.17563637446468933,0.5088167660082799
3.9216415009868797,,0.5053362,-1.4928925,-3.9320135,-0.95489883,-0.007417634,-0.2968386,-0.120171376,0.9238134,0.36349365,0.27152723,0.38277116,-0.8830398,,0.4537727,-1.4090159,-3.6577911,-0.81915283,0.2184756,0.53033674,0.13734855,0.97243065,-0.18845178,-0.55688775,-0.081529856,-0.8265766,,0.47412893,-1.5274096,-4.0487804,-0.767355,0.6361977,0.08011728,0.6317717,0.77149314,-0.075251676,-0.10968489,-0.007128931,-0.99394083,,1.3342874496112653,-0.2615457942513615,0.15050186158,0.5466616826641549,0.0,0.0,0.0,,-1.4614576918511204,0.0279794612033154,0.12436606260000001,1.5668032577163657,0.07105097987802904,-0.17563637446468933,0.5088167660082799
3.949540885980241,,0.5053362,-1.4928925,-3.9320135,-0.95489883,-0.007417634,-0.2968386,-0.120171376,0.9238134,0.36349365,0.27152723,0.38277116,-0.8830398,,0.45377344,-1.4090161,-3.6577907,-0.81914854,0.21847653,0.530343,0.13734822,0.97243047,-0.18845285,-0.5568942,-0.08152923,-0.8265723,,0.47412893,-1.5274096,-4.0487804,-0.767355,0.6361977,0.08011728,0.6317717,0.77149314,-0.075251676,-0.10968489,-0.007128931,-0.99394083,,1.3342874496112653,-0.2615457942513615,0.15050186158,0.5466616826641549,0.0,0.0,0.0,,-1.4614654145839947,0.0279794612033154,0.12436606260000001,1.5668032577163657,0.07105097987802904,-0.17563637446468933,0.5088167660082799
3.975128036981914,,0.5053362,-1.4928925,-3.9320135,-0.95489883,-0.007417634,-0.2968386,-0.120171376,0.9238134,0.36349365,0.27152723,0.38277116,-0.8830398,,0.45377344,-1.4090161,-3.6577907,-0.81914854,0.21847653,0.530343,0.13734822,0.97243047,-0.18845285,-0.5568942,-0.08152923,-0.8265723,,0.47412893,-1.5274096,-4.0487804,-0.767355,0.6361977,0.08011728,0.6317717,0.77149314,-0.075251676,-0.10968489,-0.007128931,-0.99394083,,1.3342874496112653,-0.2615457942513615,0.15050186158,0.5466616826641549,0.0,0.0,0.0,,-1.4614654145839947,0.0279794612033154,0.12436606260000001,1.5668032577163657,0.07105097987802904,-0.17563637446468933,0.5088167660082799
4.004267355980119,,0.50533676,-1.4928933,-3.932014,-0.9549,-0.0074176043,-0.2968349,-0.12016803,0.92381597,0.36348823,0.27152458,0.382765,-0.8830432,,0.45377344,-1.4090161,-3.6577907,-0.81914854,0.21847653,0.530343,0.13734822,0.97243047,-0.18845285,-0.5568942,-0.08152923,-0.8265723,,0.47412893,-1.5274096,-4.0487804,-0.767355,0.6361977,0.08011728,0.6317717,0.77149314,-0.075251676,-0.10968489,-0.007128931,-0.99394083,,1.3342797268783912,-0.2615457942513615,0.15050186158,0.5466616826641549,0.0,0.0,0.0,,-1.4614654145839947,0.0279794612033154,0.12436606260000001,1.5668032577163657,0.07105097987802904,-0.17563637446468933,0.5088167660082799
4.026448772987351,,0.50533676,-1.4928933,-3.932014,-0.9549,-0.0074176043,-0.2968349,-0.12016803,0.92381597,0.36348823,0.27152458,0.382765,-0.8830432,,0.45377344,-1.4090161,-3.6577907,-0.81914854,0.21847653,0.530343,0.13734822,0.97243047,-0.18845285,-0.5568942,-0.08152923,-0.8265723,,0.47412893,-1.5274096,-4.0487804,-0.767355,0.6361977,0.08011728,0.6317717,0.77149314,-0.075251676,-0.10968489,-0.007128931,-0.99394083,,1.3342797268783912,-0.2615457942513615,0.15050186158,0.5466616826641549,0.0,0.0,0.0,,-1.4614654145839947,0.0279794612033154,0.12436606260000001,1.5668032577163657,0.07105097987802904,-0.17563637446468933,0.5088167660082799
4.054111843986902,,0.5053362,-1.4928925,-3.9320135,-0.95489883,-0.007417634,-0.2968386,-0.120171376,0.9238134,0.36349365,0.27152723,0.38277116,-0.8830398,,0.4537727,-1.4090159,-3.6577911,-0.81915283,0.2184756,0.53033674,0.13734855,0.97243065,-0.18845178,-0.55688775,-0.081529856,-0.8265766,,0.47412893,-1.5274096,-4.0487804,-0.767355,0.6361977,0.08011728,0.6317717,0.77149314,-0.075251676,-0.10968489,-0.007128931,-0.99394083,,1.3342874496112653,-0.2615457942513615,0.15050186158,0.5466616826641549,0.0,0.0,0.0,,-1.4614576918511204,0.0279794612033154,0.12436606260000001,1.5668032577163657,0.07105097987802904,-0.17563637446468933,0.5088167660082799
4.080355621990748,,0.5053362,-1.4928925,-3.9320135,-0.95489883,-0.007417634,-0.2968386,-0.120171376,0.9238134,0.36349365,0.27152723,0.38277116,-0.8830398,,0.4537727,-1.4090159,-3.6577911,-0.81915283,0.2184756,0.53033674,0.13734855,0.97243065,-0.18845178,-0.55688775,-0.081529856,-0.8265766,,0.47412893,-1.5274096,-4.0487804,-0.767355,0.6361977,0.08011728,0.6317717,0.77149314,-0.075251676,-0.10968489,-0.007128931,-0.99394083,,1.3342874496112653,-0.2615457942513615,0.15050186158,0.5466616826641549,0.0,0.0,0.0,,-1.4614576918511204,0.0279794612033154,0.12436606260000001,1.5668032577163657,0.07105097987802904,-0.17563637446468933,0.5088167660082799
4.106463257980067,,0.5053362,-1.4928925,-3.9320135,-0.95489883,-0.007417634,-0.2968386,-0.120171376,0.9238134,0.36349365,0.27152723,0.38277116,-0.8830398,,0.45377344,-1.4090161,-3.6577907,-0.81914854,0.21847653,0.530343,0.13734822,0.97243047,-0.18845285,-0.5568942,-0.08152923,-0.8265723,,0.47412893,-1.5274096,-4.0487804,-0.767355,0.6361977,0.08011728,0.6317717,0.77149314,-0.075251676,-0.10968489,-0.007128931,-0.99394083,,1.3342874496112653,-0.2615457942513615,0.15050186158,0.5466616826641549,0.0,0.0,0.0,,-1.4614654145839947,0.0279794612033154,0.12436606260000001,1.5668032577163657,0.07105097987802904,-0.17563637446468933,0.5088167660082799
4.133119780977722,,0.50533676,-1.4928933,-3.932014,-0.9549,-0.0074176043,-0.2968349,-0.12016803,0.92381597,0.36348823,0.27152458,0.382765,-0.8830432,,0.4537719,-1.4090159,-3.6577916,-0.8191571,0.21847466,0.5303304,0.13734888,0.97243077,-0.18845072,-0.55688137,-0.081530474,-0.8265808,,0.47412893,-1.5274096,-4.0487804,-0.767355,0.6361977,0.08011728,0.6317717,0.77149314,-0.075251676,-0.10968489,-0.007128931,-0.99394083,,1.3342797268783912,-0.2615457942513615,0.15050186158,0.5466616826641549,0.0,0.0,0.0,,-1.4614499691182463,0.0279794612033154,0.12436606260000001,1.5668032577163657,0.07105097987802904,-0.17563637446468933,0.5088167660082799
4.158685665985104,,0.50533676,-1.4928933,-3.932014,-0.9549,-0.0074176043,-0.2968349,-0.12016803,0.92381597,0.36348823,0.27152458,0.382765,-0.8830432,,0.4537719,-1.4090159,-3.6577916,-0.8191571,0.21847466,0.5303304,0.13734888,0.97243077,-0.18845072,-0.55688137,-0.081530474,-0.8265808,,0.47412893,-1.5274096,-4.0487804,-0.767355,0.6361977,0.08011728,0.6317717,0.77149314,-0.075251676,-0.10968489,-0.007128931,-0.99394083,,1.3342797268783912,-0.2615457942513615,0.15050186158,0.5466616826641549,0.0,0.0,0.0,,-1.4614499691182463,0.0279794612033154,0.12436606260000001,1.5668032577163657,0.07105097987802904,-0.17563637446468933,0.5088167660082799
