AlexandreBanks6/ExpertPlaybackApp/resources/Motions/Motion_7.csv
Time,si_T_psm1,Tx,Ty,Tz,R00,R01,R02,R10,R11,R12,R20,R21,R22,si_T_psm3,Tx,Ty,Tz,R00,R01,R02,R10,R11,R12,R20,R21,R22,si_T_ecm,Tx,Ty,Tz,R00,R01,R02,R10,R11,R12,R20,R21,R22,joint_vars_psm1,q1,q2,q3,q4,q5,q6,jaw,joint_vars_psm3,q1,q2,q3,q4,q5,q6,jaw
si_T_lci
0,-0.059148963540792465,-0.059148963540792465,-0.059148963540792465,0.9975021481513977,-0.07061722129583359,-0.0016245769802480936,-0.07041484117507935,-0.9959354996681213,0.05616258084774017,-0.005584019236266613,-0.055907901376485825,-0.9984202980995178
si_T_rci
0,-0.05826728418469429,-0.05826728418469429,-0.05826728418469429,0.996613085269928,-0.07949592173099518,0.02104121632874012,-0.08126828074455261,-0.9912158846855164,0.10433872044086456,0.012561885640025139,-0.10569531470537186,-0.9943192005157471
lc_T_ecm
0,4.336808689942018e-18,1.1102230246251565e-16,-3.469446951953614e-18,0.9340208768844604,-0.32346540689468384,0.15157562494277954,-0.3336535692214966,-0.9415361881256104,0.046742480248212814,0.12759436666965485,-0.09423220157623291,-0.9873398542404175
rc_T_ecm
0,-8.326672684688674e-17,-1.119764003743029e-15,4.3725873616340394e-16,0.9962640404701233,-0.08602791279554367,-0.00755940331146121,0.08463667333126068,0.9552455544471741,0.28344762325286865,-0.017163321375846863,-0.2830284833908081,0.9589579105377197
0.057246222015237436,,,,,,,,,,,,,,,,,,,,,,,,,,,,0.1439242660999298,1.609935998916626,0.7220052480697632,0.9331405162811279,0.48868975043296814,-0.10115484148263931,-0.4333132207393646,2.918450355529785,0.4692763686180115,0.06733273714780807,0.9885537624359131,1.2263225317001343,,,,,,,,,,,,,,,,,,,,,
0.11192519101314247,,,,,,,,,,,,,,,,,,,,,,,,,,,,0.1439242660999298,1.609935998916626,0.7220052480697632,0.9331405162811279,0.48868975043296814,-0.10115484148263931,-0.4333132207393646,2.918450355529785,0.4692763686180115,0.06733273714780807,0.9885537624359131,1.2263225317001343,,,,,,,,,,,,,,,,,,,,,
0.13912201300263405,,,,,,,,,,,,,,,,,,,,,,,,,,,,0.1439242660999298,1.609935998916626,0.7220052480697632,0.9331405162811279,0.48868975043296814,-0.10115484148263931,-0.4333132207393646,2.918450355529785,0.4692763686180115,0.06733273714780807,0.9885537624359131,1.2263225317001343,,,,,,,,,,,,,,,,,,,,,
0.19921291200444102,,,,,,,,,,,,,,,,,,,,,,,,,,,,0.1439242660999298,1.609935998916626,0.7220052480697632,0.9331405162811279,0.48868975043296814,-0.10115484148263931,-0.4333132207393646,2.918450355529785,0.4692763686180115,0.06733273714780807,0.9885537624359131,1.2263225317001343,,,,,,,,,,,,,,,,,,,,,
0.23420999801601283,,,,,,,,,,,,,,,,,,,,,,,,,,,,0.1439242660999298,1.609935998916626,0.7220052480697632,0.9331405162811279,0.48868975043296814,-0.10115484148263931,-0.4333132207393646,2.918450355529785,0.4692763686180115,0.06733273714780807,0.9885537624359131,1.2263225317001343,,,,,,,,,,,,,,,,,,,,,
0.297920687997248,,,,,,,,,,,,,,,,,,,,,,,,,,,,0.1439242660999298,1.609935998916626,0.7220052480697632,0.9331405162811279,0.48868975043296814,-0.10115484148263931,-0.4333132207393646,2.918450355529785,0.4692763686180115,0.06733273714780807,0.9885537624359131,1.2263225317001343,,,,,,,,,,,,,,,,,,,,,
0.3348890610213857,,,,,,,,,,,,,,,,,,,,,,,,,,,,0.1439242660999298,1.609935998916626,0.7220052480697632,0.9331405162811279,0.48868975043296814,-0.10115484148263931,-0.4333132207393646,2.918450355529785,0.4692763686180115,0.06733273714780807,0.9885537624359131,1.2263225317001343,,,,,,,,,,,,,,,,,,,,,
0.38646826302283444,,,,,,,,,,,,,,,,,,,,,,,,,,,,0.1439242660999298,1.609935998916626,0.7220052480697632,0.9331405162811279,0.48868975043296814,-0.10115484148263931,-0.4333132207393646,2.918450355529785,0.4692763686180115,0.06733273714780807,0.9885537624359131,1.2263225317001343,,,,,,,,,,,,,,,,,,,,,
0.4352593200164847,,,,,,,,,,,,,,,,,,,,,,,,,,,,0.14394289255142212,1.6099361181259155,0.7220019102096558,0.933137059211731,0.48871859908103943,-0.10114868730306625,-0.43331876397132874,2.9184489250183105,0.4692772924900055,0.06733310222625732,0.9885494112968445,1.2263212203979492,,,,,,,,,,,,,,,,,,,,,
0.4712719270028174,,,,,,,,,,,,,,,,,,,,,,,,,,,,0.14394289255142212,1.6099361181259155,0.7220019102096558,0.933137059211731,0.48871859908103943,-0.10114868730306625,-0.43331876397132874,2.9184489250183105,0.4692772924900055,0.06733310222625732,0.9885494112968445,1.2263212203979492,,,,,,,,,,,,,,,,,,,,,
0.5295601329999045,,,,,,,,,,,,,,,,,,,,,,,,,,,,0.14394289255142212,1.6099361181259155,0.7220019102096558,0.933137059211731,0.48871859908103943,-0.10114868730306625,-0.43331876397132874,2.9184489250183105,0.4692772924900055,0.06733310222625732,0.9885494112968445,1.2263212203979492,,,,,,,,,,,,,,,,,,,,,
0.5667872840131167,,,,,,,,,,,,,,,,,,,,,,,,,,,,0.14394289255142212,1.6099361181259155,0.7220019102096558,0.933137059211731,0.48871859908103943,-0.10114868730306625,-0.43331876397132874,2.9184489250183105,0.4692772924900055,0.06733310222625732,0.9885494112968445,1.2263212203979492,,,,,,,,,,,,,,,,,,,,,
0.598179077001987,,,,,,,,,,,,,,,,,,,,,,,,,,,,0.14394289255142212,1.6099361181259155,0.7220019102096558,0.933137059211731,0.48871859908103943,-0.10114868730306625,-0.43331876397132874,2.9184489250183105,0.4692772924900055,0.06733310222625732,0.9885494112968445,1.2263212203979492,,,,,,,,,,,,,,,,,,,,,
0.6367168450087775,,,,,,,,,,,,,,,,,,,,,,,,,,,,0.14394289255142212,1.6099361181259155,0.7220019102096558,0.933137059211731,0.48871859908103943,-0.10114868730306625,-0.43331876397132874,2.9184489250183105,0.4692772924900055,0.06733310222625732,0.9885494112968445,1.2263212203979492,,,,,,,,,,,,,,,,,,,,,
0.6837920340185519,,,,,,,,,,,,,,,,,,,,,,,,,,,,0.14394289255142212,1.6099361181259155,0.7220019102096558,0.933137059211731,0.48871859908103943,-0.10114868730306625,-0.43331876397132874,2.9184489250183105,0.4692772924900055,0.06733310222625732,0.9885494112968445,1.2263212203979492,,,,,,,,,,,,,,,,,,,,,
0.7298475450079422,,,,,,,,,,,,,,,,,,,,,,,,,,,,0.14394289255142212,1.6099361181259155,0.7220019102096558,0.933137059211731,0.48871859908103943,-0.10114868730306625,-0.43331876397132874,2.9184489250183105,0.4692772924900055,0.06733310222625732,0.9885494112968445,1.2263212203979492,,,,,,,,,,,,,,,,,,,,,
0.7817744440108072,,,,,,,,,,,,,,,,,,,,,,,,,,,,0.14394289255142212,1.6099361181259155,0.7220019102096558,0.933137059211731,0.48871859908103943,-0.10114868730306625,-0.43331876397132874,2.9184489250183105,0.4692772924900055,0.06733310222625732,0.9885494112968445,1.2263212203979492,,,,,,,,,,,,,,,,,,,,,
0.8197604470187798,,,,,,,,,,,,,,,,,,,,,,,,,,,,0.14394289255142212,1.6099361181259155,0.7220019102096558,0.933137059211731,0.48871859908103943,-0.10114868730306625,-0.43331876397132874,2.9184489250183105,0.4692772924900055,0.06733310222625732,0.9885494112968445,1.2263212203979492,,,,,,,,,,,,,,,,,,,,,
0.8819036130153108,,,,,,,,,,,,,,,,,,,,,,,,,,,,0.14394289255142212,1.6099361181259155,0.7220019102096558,0.933137059211731,0.48871859908103943,-0.10114868730306625,-0.43331876397132874,2.9184489250183105,0.4692772924900055,0.06733310222625732,0.9885494112968445,1.2263212203979492,,,,,,,,,,,,,,,,,,,,,
0.929906731005758,,,,,,,,,,,,,,,,,,,,,,,,,,,,0.14394289255142212,1.6099361181259155,0.7220019102096558,0.933137059211731,0.48871859908103943,-0.10114868730306625,-0.43331876397132874,2.9184489250183105,0.4692772924900055,0.06733310222625732,0.9885494112968445,1.2263212203979492,,,,,,,,,,,,,,,,,,,,,
0.9690366389986593,,,,,,,,,,,,,,,,,,,,,,,,,,,,0.14394289255142212,1.6099361181259155,0.7220019102096558,0.933137059211731,0.48871859908103943,-0.10114868730306625,-0.43331876397132874,2.9184489250183105,0.4692772924900055,0.06733310222625732,0.9885494112968445,1.2263212203979492,,,,,,,,,,,,,,,,,,,,,
1.0148861760098953,,,,,,,,,,,,,,,,,,,,,,,,,,,,0.14394289255142212,1.6099361181259155,0.7220019102096558,0.933137059211731,0.48871859908103943,-0.10114868730306625,-0.43331876397132874,2.9184489250183105,0.4692772924900055,0.06733310222625732,0.9885494112968445,1.2263212203979492,,,,,,,,,,,,,,,,,,,,,
1.0709059979999438,,,,,,,,,,,,,,,,,,,,,,,,,,,,0.14394289255142212,1.6099361181259155,0.7220019102096558,0.933137059211731,0.48871859908103943,-0.10114868730306625,-0.43331876397132874,2.9184489250183105,0.4692772924900055,0.06733310222625732,0.9885494112968445,1.2263212203979492,,,,,,,,,,,,,,,,,,,,,
1.1060730339959264,,,,,,,,,,,,,,,,,,,,,,,,,,,,0.14394289255142212,1.6099361181259155,0.7220019102096558,0.933137059211731,0.48871859908103943,-0.10114868730306625,-0.43331876397132874,2.9184489250183105,0.4692772924900055,0.06733310222625732,0.9885494112968445,1.2263212203979492,,,,,,,,,,,,,,,,,,,,,
1.1650162790028844,,,,,,,,,,,,,,,,,,,,,,,,,,,,0.14394289255142212,1.6099361181259155,0.7220019102096558,0.933137059211731,0.48871859908103943,-0.10114868730306625,-0.43331876397132874,2.9184489250183105,0.4692772924900055,0.06733310222625732,0.9885494112968445,1.2263212203979492,,,,,,,,,,,,,,,,,,,,,
1.197364584018942,,,,,,,,,,,,,,,,,,,,,,,,,,,,0.14394289255142212,1.6099361181259155,0.7220019102096558,0.933137059211731,0.48871859908103943,-0.10114868730306625,-0.43331876397132874,2.9184489250183105,0.4692772924900055,0.06733310222625732,0.9885494112968445,1.2263212203979492,,,,,,,,,,,,,,,,,,,,,
1.2363275790121406,,,,,,,,,,,,,,,,,,,,,,,,,,,,0.14394289255142212,1.6099361181259155,0.7220019102096558,0.933137059211731,0.48871859908103943,-0.10114868730306625,-0.43331876397132874,2.9184489250183105,0.4692772924900055,0.06733310222625732,0.9885494112968445,1.2263212203979492,,,,,,,,,,,,,,,,,,,,,
1.2867223110224586,,,,,,,,,,,,,,,,,,,,,,,,,,,,0.14394289255142212,1.6099361181259155,0.7220019102096558,0.933137059211731,0.48871859908103943,-0.10114868730306625,-0.43331876397132874,2.9184489250183105,0.4692772924900055,0.06733310222625732,0.9885494112968445,1.2263212203979492,,,,,,,,,,,,,,,,,,,,,
1.329546487017069,,,,,,,,,,,,,,,,,,,,,,,,,,,,0.14394289255142212,1.6099361181259155,0.7220019102096558,0.933137059211731,0.48871859908103943,-0.10114868730306625,-0.43331876397132874,2.9184489250183105,0.4692772924900055,0.06733310222625732,0.9885494112968445,1.2263212203979492,,,,,,,,,,,,,,,,,,,,,
1.3861035070149228,,,,,,,,,,,,,,,,,,,,,,,,,,,,0.14394289255142212,1.6099361181259155,0.7220019102096558,0.933137059211731,0.48871859908103943,-0.10114868730306625,-0.43331876397132874,2.9184489250183105,0.4692772924900055,0.06733310222625732,0.9885494112968445,1.2263212203979492,,,,,,,,,,,,,,,,,,,,,
1.4309817950124852,,,,,,,,,,,,,,,,,,,,,,,,,,,,0.14394289255142212,1.6099361181259155,0.7220019102096558,0.933137059211731,0.48871859908103943,-0.10114868730306625,-0.43331876397132874,2.9184489250183105,0.4692772924900055,0.06733310222625732,0.9885494112968445,1.2263212203979492,,,,,,,,,,,,,,,,,,,,,
1.4873951010231394,,,,,,,,,,,,,,,,,,,,,,,,,,,,0.14394289255142212,1.6099361181259155,0.7220019102096558,0.933137059211731,0.48871859908103943,-0.10114868730306625,-0.43331876397132874,2.9184489250183105,0.4692772924900055,0.06733310222625732,0.9885494112968445,1.2263212203979492,,,,,,,,,,,,,,,,,,,,,
1.5313354069949128,,,,,,,,,,,,,,,,,,,,,,,,,,,,0.14394289255142212,1.6099361181259155,0.7220019102096558,0.933137059211731,0.48871859908103943,-0.10114868730306625,-0.43331876397132874,2.9184489250183105,0.4692772924900055,0.06733310222625732,0.9885494112968445,1.2263212203979492,,,,,,,,,,,,,,,,,,,,,
1.5884413589956239,,,,,,,,,,,,,,,,,,,,,,,,,,,,0.1439225822687149,1.60993492603302,0.7220119833946228,0.9331390261650085,0.4886930286884308,-0.10115623474121094,-0.4333190321922302,2.9184467792510986,0.46927690505981445,0.06733200699090958,0.988562285900116,1.2263249158859253,,,,,,,,,,,,,,,,,,,,,
1.6295151600206736,,,,,,,,,,,,,,,,,,,,,,,,,,,,0.1439225822687149,1.60993492603302,0.7220119833946228,0.9331390261650085,0.4886930286884308,-0.10115623474121094,-0.4333190321922302,2.9184467792510986,0.46927690505981445,0.06733200699090958,0.988562285900116,1.2263249158859253,,,,,,,,,,,,,,,,,,,,,
1.688899989996571,,,,,,,,,,,,,,,,,,,,,,,,,,,,0.1439225822687149,1.60993492603302,0.7220119833946228,0.9331390261650085,0.4886930286884308,-0.10115623474121094,-0.4333190321922302,2.9184467792510986,0.46927690505981445,0.06733200699090958,0.988562285900116,1.2263249158859253,,,,,,,,,,,,,,,,,,,,,
1.7325151530094445,,,,,,,,,,,,,,,,,,,,,,,,,,,,0.1439225822687149,1.60993492603302,0.7220119833946228,0.9331390261650085,0.4886930286884308,-0.10115623474121094,-0.4333190321922302,2.9184467792510986,0.46927690505981445,0.06733200699090958,0.988562285900116,1.2263249158859253,,,,,,,,,,,,,,,,,,,,,
1.7841959780198522,,,,,,,,,,,,,,,,,,,,,,,,,,,,0.1439225822687149,1.60993492603302,0.7220119833946228,0.9331390261650085,0.4886930286884308,-0.10115623474121094,-0.4333190321922302,2.9184467792510986,0.46927690505981445,0.06733200699090958,0.988562285900116,1.2263249158859253,,,,,,,,,,,,,,,,,,,,,
1.8168703530100174,,,,,,,,,,,,,,,,,,,,,,,,,,,,0.1439225822687149,1.60993492603302,0.7220119833946228,0.9331390261650085,0.4886930286884308,-0.10115623474121094,-0.4333190321922302,2.9184467792510986,0.46927690505981445,0.06733200699090958,0.988562285900116,1.2263249158859253,,,,,,,,,,,,,,,,,,,,,
1.8727608330082148,,,,,,,,,,,,,,,,,,,,,,,,,,,,0.1439225822687149,1.60993492603302,0.7220119833946228,0.9331390261650085,0.4886930286884308,-0.10115623474121094,-0.4333190321922302,2.9184467792510986,0.46927690505981445,0.06733200699090958,0.988562285900116,1.2263249158859253,,,,,,,,,,,,,,,,,,,,,
1.9184294820006471,,,,,,,,,,,,,,,,,,,,,,,,,,,,0.1439225822687149,1.60993492603302,0.7220119833946228,0.9331390261650085,0.4886930286884308,-0.10115623474121094,-0.4333190321922302,2.9184467792510986,0.46927690505981445,0.06733200699090958,0.988562285900116,1.2263249158859253,,,,,,,,,,,,,,,,,,,,,
1.9662420600070618,,,,,,,,,,,,,,,,,,,,,,,,,,,,0.1439225822687149,1.60993492603302,0.7220119833946228,0.9331390261650085,0.4886930286884308,-0.10115623474121094,-0.4333190321922302,2.9184467792510986,0.46927690505981445,0.06733200699090958,0.988562285900116,1.2263249158859253,,,,,,,,,,,,,,,,,,,,,
2.018823742022505,,,,,,,,,,,,,,,,,,,,,,,,,,,,0.1439225822687149,1.60993492603302,0.7220119833946228,0.9331390261650085,0.4886930286884308,-0.10115623474121094,-0.4333190321922302,2.9184467792510986,0.46927690505981445,0.06733200699090958,0.988562285900116,1.2263249158859253,,,,,,,,,,,,,,,,,,,,,
2.0560122260067146,,,,,,,,,,,,,,,,,,,,,,,,,,,,0.1439225822687149,1.60993492603302,0.7220119833946228,0.9331390261650085,0.4886930286884308,-0.10115623474121094,-0.4333190321922302,2.9184467792510986,0.46927690505981445,0.06733200699090958,0.988562285900116,1.2263249158859253,,,,,,,,,,,,,,,,,,,,,
2.1176277060003486,,,,,,,,,,,,,,,,,,,,,,,,,,,,0.1439225822687149,1.60993492603302,0.7220119833946228,0.9331390261650085,0.4886930286884308,-0.10115623474121094,-0.4333190321922302,2.9184467792510986,0.46927690505981445,0.06733200699090958,0.988562285900116,1.2263249158859253,,,,,,,,,,,,,,,,,,,,,
2.147520041995449,,,,,,,,,,,,,,,,,,,,,,,,,,,,0.1439225822687149,1.60993492603302,0.7220119833946228,0.9331390261650085,0.4886930286884308,-0.10115623474121094,-0.4333190321922302,2.9184467792510986,0.46927690505981445,0.06733200699090958,0.988562285900116,1.2263249158859253,,,,,,,,,,,,,,,,,,,,,
2.1875208020210266,,,,,,,,,,,,,,,,,,,,,,,,,,,,0.1439225822687149,1.60993492603302,0.7220119833946228,0.9331390261650085,0.4886930286884308,-0.10115623474121094,-0.4333190321922302,2.9184467792510986,0.46927690505981445,0.06733200699090958,0.988562285900116,1.2263249158859253,,,,,,,,,,,,,,,,,,,,,
2.2307104790234007,,,,,,,,,,,,,,,,,,,,,,,,,,,,0.1439225822687149,1.60993492603302,0.7220119833946228,0.9331390261650085,0.4886930286884308,-0.10115623474121094,-0.4333190321922302,2.9184467792510986,0.46927690505981445,0.06733200699090958,0.988562285900116,1.2263249158859253,,,,,,,,,,,,,,,,,,,,,
2.2710941090190317,,,,,,,,,,,,,,,,,,,,,,,,,,,,0.1439225822687149,1.60993492603302,0.7220119833946228,0.9331390261650085,0.4886930286884308,-0.10115623474121094,-0.4333190321922302,2.9184467792510986,0.46927690505981445,0.06733200699090958,0.988562285900116,1.2263249158859253,,,,,,,,,,,,,,,,,,,,,
2.320770470018033,,,,,,,,,,,,,,,,,,,,,,,,,,,,0.1439225822687149,1.60993492603302,0.7220119833946228,0.9331390261650085,0.4886930286884308,-0.10115623474121094,-0.4333190321922302,2.9184467792510986,0.46927690505981445,0.06733200699090958,0.988562285900116,1.2263249158859253,,,,,,,,,,,,,,,,,,,,,
2.3522186879999936,,,,,,,,,,,,,,,,,,,,,,,,,,,,0.1439225822687149,1.60993492603302,0.7220119833946228,0.9331390261650085,0.4886930286884308,-0.10115623474121094,-0.4333190321922302,2.9184467792510986,0.46927690505981445,0.06733200699090958,0.988562285900116,1.2263249158859253,,,,,,,,,,,,,,,,,,,,,
2.4040437180083245,,,,,,,,,,,,,,,,,,,,,,,,,,,,0.1439225822687149,1.60993492603302,0.7220119833946228,0.9331390261650085,0.4886930286884308,-0.10115623474121094,-0.4333190321922302,2.9184467792510986,0.46927690505981445,0.06733200699090958,0.988562285900116,1.2263249158859253,,,,,,,,,,,,,,,,,,,,,
2.4542247549979948,,,,,,,,,,,,,,,,,,,,,,,,,,,,0.1439225822687149,1.60993492603302,0.7220119833946228,0.9331390261650085,0.4886930286884308,-0.10115623474121094,-0.4333190321922302,2.9184467792510986,0.46927690505981445,0.06733200699090958,0.988562285900116,1.2263249158859253,,,,,,,,,,,,,,,,,,,,,
2.485061854007654,,,,,,,,,,,,,,,,,,,,,,,,,,,,0.1439225822687149,1.60993492603302,0.7220119833946228,0.9331390261650085,0.4886930286884308,-0.10115623474121094,-0.4333190321922302,2.9184467792510986,0.46927690505981445,0.06733200699090958,0.988562285900116,1.2263249158859253,,,,,,,,,,,,,,,,,,,,,
2.531923638016451,,,,,,,,,,,,,,,,,,,,,,,,,,,,0.1439225822687149,1.60993492603302,0.7220119833946228,0.9331390261650085,0.4886930286884308,-0.10115623474121094,-0.4333190321922302,2.9184467792510986,0.46927690505981445,0.06733200699090958,0.988562285900116,1.2263249158859253,,,,,,,,,,,,,,,,,,,,,
2.584548822022043,,,,,,,,,,,,,,,,,,,,,,,,,,,,0.1439225822687149,1.60993492603302,0.7220119833946228,0.9331390261650085,0.4886930286884308,-0.10115623474121094,-0.4333190321922302,2.9184467792510986,0.46927690505981445,0.06733200699090958,0.988562285900116,1.2263249158859253,,,,,,,,,,,,,,,,,,,,,
2.6203854780178517,,,,,,,,,,,,,,,,,,,,,,,,,,,,0.1439225822687149,1.60993492603302,0.7220119833946228,0.9331390261650085,0.4886930286884308,-0.10115623474121094,-0.4333190321922302,2.9184467792510986,0.46927690505981445,0.06733200699090958,0.988562285900116,1.2263249158859253,,,,,,,,,,,,,,,,,,,,,
2.6707960450148676,,,,,,,,,,,,,,,,,,,,,,,,,,,,0.1439225822687149,1.60993492603302,0.7220119833946228,0.9331390261650085,0.4886930286884308,-0.10115623474121094,-0.4333190321922302,2.9184467792510986,0.46927690505981445,0.06733200699090958,0.988562285900116,1.2263249158859253,,,,,,,,,,,,,,,,,,,,,
2.720699658995727,,,,,,,,,,,,,,,,,,,,,,,,,,,,0.143916055560112,1.6099326610565186,0.7220112085342407,0.9331335425376892,0.4887058734893799,-0.10116174072027206,-0.433341920375824,2.9184365272521973,0.4692799150943756,0.06733208149671555,0.9885612726211548,1.2263246774673462,,,,,,,,,,,,,,,,,,,,,
2.753840390010737,,,,,,,,,,,,,,,,,,,,,,,,,,,,0.143916055560112,1.6099326610565186,0.7220112085342407,0.9331335425376892,0.4887058734893799,-0.10116174072027206,-0.433341920375824,2.9184365272521973,0.4692799150943756,0.06733208149671555,0.9885612726211548,1.2263246774673462,,,,,,,,,,,,,,,,,,,,,
2.8057903830194846,,,,,,,,,,,,,,,,,,,,,,,,,,,,0.143916055560112,1.6099326610565186,0.7220112085342407,0.9331335425376892,0.4887058734893799,-0.10116174072027206,-0.433341920375824,2.9184365272521973,0.4692799150943756,0.06733208149671555,0.9885612726211548,1.2263246774673462,,,,,,,,,,,,,,,,,,,,,
2.8536935730080586,,,,,,,,,,,,,,,,,,,,,,,,,,,,0.143916055560112,1.6099326610565186,0.7220112085342407,0.9331335425376892,0.4887058734893799,-0.10116174072027206,-0.433341920375824,2.9184365272521973,0.4692799150943756,0.06733208149671555,0.9885612726211548,1.2263246774673462,,,,,,,,,,,,,,,,,,,,,
2.9015290650131647,,,,,,,,,,,,,,,,,,,,,,,,,,,,0.143916055560112,1.6099326610565186,0.7220112085342407,0.9331335425376892,0.4887058734893799,-0.10116174072027206,-0.433341920375824,2.9184365272521973,0.4692799150943756,0.06733208149671555,0.9885612726211548,1.2263246774673462,,,,,,,,,,,,,,,,,,,,,
2.933339631999843,,,,,,,,,,,,,,,,,,,,,,,,,,,,0.143916055560112,1.6099326610565186,0.7220112085342407,0.9331335425376892,0.4887058734893799,-0.10116174072027206,-0.433341920375824,2.9184365272521973,0.4692799150943756,0.06733208149671555,0.9885612726211548,1.2263246774673462,,,,,,,,,,,,,,,,,,,,,
2.978512211004272,,,,,,,,,,,,,,,,,,,,,,,,,,,,0.143916055560112,1.6099326610565186,0.7220112085342407,0.9331335425376892,0.4887058734893799,-0.10116174072027206,-0.433341920375824,2.9184365272521973,0.4692799150943756,0.06733208149671555,0.9885612726211548,1.2263246774673462,,,,,,,,,,,,,,,,,,,,,
3.038423011021223,,,,,,,,,,,,,,,,,,,,,,,,,,,,0.143916055560112,1.6099326610565186,0.7220112085342407,0.9331335425376892,0.4887058734893799,-0.10116174072027206,-0.433341920375824,2.9184365272521973,0.4692799150943756,0.06733208149671555,0.9885612726211548,1.2263246774673462,,,,,,,,,,,,,,,,,,,,,
3.0696657660009805,,,,,,,,,,,,,,,,,,,,,,,,,,,,0.143916055560112,1.6099326610565186,0.7220112085342407,0.9331335425376892,0.4887058734893799,-0.10116174072027206,-0.433341920375824,2.9184365272521973,0.4692799150943756,0.06733208149671555,0.9885612726211548,1.2263246774673462,,,,,,,,,,,,,,,,,,,,,
3.122125969006447,,,,,,,,,,,,,,,,,,,,,,,,,,,,0.143916055560112,1.6099326610565186,0.7220112085342407,0.9331335425376892,0.4887058734893799,-0.10116174072027206,-0.433341920375824,2.9184365272521973,0.4692799150943756,0.06733208149671555,0.9885612726211548,1.2263246774673462,,,,,,,,,,,,,,,,,,,,,
3.1678794080216903,,,,,,,,,,,,,,,,,,,,,,,,,,,,0.143916055560112,1.6099326610565186,0.7220112085342407,0.9331335425376892,0.4887058734893799,-0.10116174072027206,-0.433341920375824,2.9184365272521973,0.4692799150943756,0.06733208149671555,0.9885612726211548,1.2263246774673462,,,,,,,,,,,,,,,,,,,,,
3.1897835900017526,,,,,,,,,,,,,,,,,,,,,,,,,,,,0.143916055560112,1.6099326610565186,0.7220112085342407,0.9331335425376892,0.4887058734893799,-0.10116174072027206,-0.433341920375824,2.9184365272521973,0.4692799150943756,0.06733208149671555,0.9885612726211548,1.2263246774673462,,,,,,,,,,,,,,,,,,,,,
3.249518953001825,,,,,,,,,,,,,,,,,,,,,,,,,,,,0.143916055560112,1.6099326610565186,0.7220112085342407,0.9331335425376892,0.4887058734893799,-0.10116174072027206,-0.433341920375824,2.9184365272521973,0.4692799150943756,0.06733208149671555,0.9885612726211548,1.2263246774673462,,,,,,,,,,,,,,,,,,,,,
3.279460151999956,,,,,,,,,,,,,,,,,,,,,,,,,,,,0.143916055560112,1.6099326610565186,0.7220112085342407,0.9331335425376892,0.4887058734893799,-0.10116174072027206,-0.433341920375824,2.9184365272521973,0.4692799150943756,0.06733208149671555,0.9885612726211548,1.2263246774673462,,,,,,,,,,,,,,,,,,,,,
3.321472812007414,,,,,,,,,,,,,,,,,,,,,,,,,,,,0.143916055560112,1.6099326610565186,0.7220112085342407,0.9331335425376892,0.4887058734893799,-0.10116174072027206,-0.433341920375824,2.9184365272521973,0.4692799150943756,0.06733208149671555,0.9885612726211548,1.2263246774673462,,,,,,,,,,,,,,,,,,,,,
3.3686917750164866,,,,,,,,,,,,,,,,,,,,,,,,,,,,0.143916055560112,1.6099326610565186,0.7220112085342407,0.9331335425376892,0.4887058734893799,-0.10116174072027206,-0.433341920375824,2.9184365272521973,0.4692799150943756,0.06733208149671555,0.9885612726211548,1.2263246774673462,,,,,,,,,,,,,,,,,,,,,
3.3928578290215228,,,,,,,,,,,,,,,,,,,,,,,,,,,,0.143916055560112,1.6099326610565186,0.7220112085342407,0.9331335425376892,0.4887058734893799,-0.10116174072027206,-0.433341920375824,2.9184365272521973,0.4692799150943756,0.06733208149671555,0.9885612726211548,1.2263246774673462,,,,,,,,,,,,,,,,,,,,,
3.4443561040097848,,,,,,,,,,,,,,,,,,,,,,,,,,,,0.143916055560112,1.6099326610565186,0.7220112085342407,0.9331335425376892,0.4887058734893799,-0.10116174072027206,-0.433341920375824,2.9184365272521973,0.4692799150943756,0.06733208149671555,0.9885612726211548,1.2263246774673462,,,,,,,,,,,,,,,,,,,,,
3.4909200280089863,,,,,,,,,,,,,,,,,,,,,,,,,,,,0.143916055560112,1.6099326610565186,0.7220112085342407,0.9331335425376892,0.4887058734893799,-0.10116174072027206,-0.433341920375824,2.9184365272521973,0.4692799150943756,0.06733208149671555,0.9885612726211548,1.2263246774673462,,,,,,,,,,,,,,,,,,,,,
3.5214935500116553,,,,,,,,,,,,,,,,,,,,,,,,,,,,0.143916055560112,1.6099326610565186,0.7220112085342407,0.9331335425376892,0.4887058734893799,-0.10116174072027206,-0.433341920375824,2.9184365272521973,0.4692799150943756,0.06733208149671555,0.9885612726211548,1.2263246774673462,,,,,,,,,,,,,,,,,,,,,
3.571345091011608,,,,,,,,,,,,,,,,,,,,,,,,,,,,0.143916055560112,1.6099326610565186,0.7220112085342407,0.9331335425376892,0.4887058734893799,-0.10116174072027206,-0.433341920375824,2.9184365272521973,0.4692799150943756,0.06733208149671555,0.9885612726211548,1.2263246774673462,,,,,,,,,,,,,,,,,,,,,
3.6185296770127025,,,,,,,,,,,,,,,,,,,,,,,,,,,,0.143916055560112,1.6099326610565186,0.7220112085342407,0.9331335425376892,0.4887058734893799,-0.10116174072027206,-0.433341920375824,2.9184365272521973,0.4692799150943756,0.06733208149671555,0.9885612726211548,1.2263246774673462,,,,,,,,,,,,,,,,,,,,,
3.652505836013006,,,,,,,,,,,,,,,,,,,,,,,,,,,,0.143916055560112,1.6099326610565186,0.7220112085342407,0.9331335425376892,0.4887058734893799,-0.10116174072027206,-0.433341920375824,2.9184365272521973,0.4692799150943756,0.06733208149671555,0.9885612726211548,1.2263246774673462,,,,,,,,,,,,,,,,,,,,,
3.7040090509981383,,,,,,,,,,,,,,,,,,,,,,,,,,,,0.143916055560112,1.6099326610565186,0.7220112085342407,0.9331335425376892,0.4887058734893799,-0.10116174072027206,-0.433341920375824,2.9184365272521973,0.4692799150943756,0.06733208149671555,0.9885612726211548,1.2263246774673462,,,,,,,,,,,,,,,,,,,,,
3.753267215011874,,,,,,,,,,,,,,,,,,,,,,,,,,,,0.143916055560112,1.6099326610565186,0.7220112085342407,0.9331335425376892,0.4887058734893799,-0.10116174072027206,-0.433341920375824,2.9184365272521973,0.4692799150943756,0.06733208149671555,0.9885612726211548,1.2263246774673462,,,,,,,,,,,,,,,,,,,,,
3.780465482996078,,,,,,,,,,,,,,,,,,,,,,,,,,,,0.143916055560112,1.6099326610565186,0.7220112085342407,0.9331335425376892,0.4887058734893799,-0.10116174072027206,-0.433341920375824,2.9184365272521973,0.4692799150943756,0.06733208149671555,0.9885612726211548,1.2263246774673462,,,,,,,,,,,,,,,,,,,,,
3.817459621001035,,,,,,,,,,,,,,,,,,,,,,,,,,,,0.143916055560112,1.6099326610565186,0.7220112085342407,0.9331335425376892,0.4887058734893799,-0.10116174072027206,-0.433341920375824,2.9184365272521973,0.4692799150943756,0.06733208149671555,0.9885612726211548,1.2263246774673462,,,,,,,,,,,,,,,,,,,,,
3.874107775016455,,,,,,,,,,,,,,,,,,,,,,,,,,,,0.14392004907131195,1.609933614730835,0.7220102548599243,0.9331362843513489,0.4887004792690277,-0.1011587381362915,-0.43333059549331665,2.9184415340423584,0.46927833557128906,0.0673321783542633,0.9885600805282593,1.226324439048767,,,,,,,,,,,,,,,,,,,,,
3.906356871011667,,,,,,,,,,,,,,,,,,,,,,,,,,,,0.14392004907131195,1.609933614730835,0.7220102548599243,0.9331362843513489,0.4887004792690277,-0.1011587381362915,-0.43333059549331665,2.9184415340423584,0.46927833557128906,0.0673321783542633,0.9885600805282593,1.226324439048767,,,,,,,,,,,,,,,,,,,,,
3.9568581920175347,,,,,,,,,,,,,,,,,,,,,,,,,,,,0.14392004907131195,1.609933614730835,0.7220102548599243,0.9331362843513489,0.4887004792690277,-0.1011587381362915,-0.43333059549331665,2.9184415340423584,0.46927833557128906,0.0673321783542633,0.9885600805282593,1.226324439048767,,,,,,,,,,,,,,,,,,,,,
4.00190900801681,,,,,,,,,,,,,,,,,,,,,,,,,,,,0.14392004907131195,1.609933614730835,0.7220102548599243,0.9331362843513489,0.4887004792690277,-0.1011587381362915,-0.43333059549331665,2.9184415340423584,0.46927833557128906,0.0673321783542633,0.9885600805282593,1.226324439048767,,,,,,,,,,,,,,,,,,,,,
4.041841286001727,,,,,,,,,,,,,,,,,,,,,,,,,,,,0.14392004907131195,1.609933614730835,0.7220102548599243,0.9331362843513489,0.4887004792690277,-0.1011587381362915,-0.43333059549331665,2.9184415340423584,0.46927833557128906,0.0673321783542633,0.9885600805282593,1.226324439048767,,,,,,,,,,,,,,,,,,,,,
4.095069275004789,,,,,,,,,,,,,,,,,,,,,,,,,,,,0.14392004907131195,1.609933614730835,0.7220102548599243,0.9331362843513489,0.4887004792690277,-0.1011587381362915,-0.43333059549331665,2.9184415340423584,0.46927833557128906,0.0673321783542633,0.9885600805282593,1.226324439048767,,,,,,,,,,,,,,,,,,,,,
4.138599872996565,,,,,,,,,,,,,,,,,,,,,,,,,,,,0.14392004907131195,1.609933614730835,0.7220102548599243,0.9331362843513489,0.4887004792690277,-0.1011587381362915,-0.43333059549331665,2.9184415340423584,0.46927833557128906,0.0673321783542633,0.9885600805282593,1.226324439048767,,,,,,,,,,,,,,,,,,,,,
4.184667666995665,,,,,,,,,,,,,,,,,,,,,,,,,,,,0.14392004907131195,1.609933614730835,0.7220102548599243,0.9331362843513489,0.4887004792690277,-0.1011587381362915,-0.43333059549331665,2.9184415340423584,0.46927833557128906,0.0673321783542633,0.9885600805282593,1.226324439048767,,,,,,,,,,,,,,,,,,,,,
4.220519994996721,,,,,,,,,,,,,,,,,,,,,,,,,,,,0.14392004907131195,1.609933614730835,0.7220102548599243,0.9331362843513489,0.4887004792690277,-0.1011587381362915,-0.43333059549331665,2.9184415340423584,0.46927833557128906,0.0673321783542633,0.9885600805282593,1.226324439048767,,,,,,,,,,,,,,,,,,,,,
4.268845017999411,,,,,,,,,,,,,,,,,,,,,,,,,,,,0.14392004907131195,1.609933614730835,0.7220102548599243,0.9331362843513489,0.4887004792690277,-0.1011587381362915,-0.43333059549331665,2.9184415340423584,0.46927833557128906,0.0673321783542633,0.9885600805282593,1.226324439048767,,,,,,,,,,,,,,,,,,,,,
4.318957573006628,,,,,,,,,,,,,,,,,,,,,,,,,,,,0.14392004907131195,1.609933614730835,0.7220102548599243,0.9331362843513489,0.4887004792690277,-0.1011587381362915,-0.43333059549331665,2.9184415340423584,0.46927833557128906,0.0673321783542633,0.9885600805282593,1.226324439048767,,,,,,,,,,,,,,,,,,,,,
4.350603733997559,,,,,,,,,,,,,,,,,,,,,,,,,,,,0.14392004907131195,1.609933614730835,0.7220102548599243,0.9331362843513489,0.4887004792690277,-0.1011587381362915,-0.43333059549331665,2.9184415340423584,0.46927833557128906,0.0673321783542633,0.9885600805282593,1.226324439048767,,,,,,,,,,,,,,,,,,,,,
4.385121619998245,,,,,,,,,,,,,,,,,,,,,,,,,,,,0.14392004907131195,1.609933614730835,0.7220102548599243,0.9331362843513489,0.4887004792690277,-0.1011587381362915,-0.43333059549331665,2.9184415340423584,0.46927833557128906,0.0673321783542633,0.9885600805282593,1.226324439048767,,,,,,,,,,,,,,,,,,,,,
4.437127027020324,,,,,,,,,,,,,,,,,,,,,,,,,,,,0.14392004907131195,1.609933614730835,0.7220102548599243,0.9331362843513489,0.4887004792690277,-0.1011587381362915,-0.43333059549331665,2.9184415340423584,0.46927833557128906,0.0673321783542633,0.9885600805282593,1.226324439048767,,,,,,,,,,,,,,,,,,,,,
4.464433631015709,,,,,,,,,,,,,,,,,,,,,,,,,,,,0.14392004907131195,1.609933614730835,0.7220102548599243,0.9331362843513489,0.4887004792690277,-0.1011587381362915,-0.43333059549331665,2.9184415340423584,0.46927833557128906,0.0673321783542633,0.9885600805282593,1.226324439048767,,,,,,,,,,,,,,,,,,,,,
4.5189235910074785,,,,,,,,,,,,,,,,,,,,,,,,,,,,0.14392004907131195,1.609933614730835,0.7220102548599243,0.9331362843513489,0.4887004792690277,-0.1011587381362915,-0.43333059549331665,2.9184415340423584,0.46927833557128906,0.0673321783542633,0.9885600805282593,1.226324439048767,,,,,,,,,,,,,,,,,,,,,
4.551913531002356,,,,,,,,,,,,,,,,,,,,,,,,,,,,0.14392004907131195,1.609933614730835,0.7220102548599243,0.9331362843513489,0.4887004792690277,-0.1011587381362915,-0.43333059549331665,2.9184415340423584,0.46927833557128906,0.0673321783542633,0.9885600805282593,1.226324439048767,,,,,,,,,,,,,,,,,,,,,
4.5994363840145525,,,,,,,,,,,,,,,,,,,,,,,,,,,,0.14392004907131195,1.609933614730835,0.7220102548599243,0.9331362843513489,0.4887004792690277,-0.1011587381362915,-0.43333059549331665,2.9184415340423584,0.46927833557128906,0.0673321783542633,0.9885600805282593,1.226324439048767,,,,,,,,,,,,,,,,,,,,,
4.654512513021473,,,,,,,,,,,,,,,,,,,,,,,,,,,,0.14392004907131195,1.609933614730835,0.7220102548599243,0.9331362843513489,0.4887004792690277,-0.1011587381362915,-0.43333059549331665,2.9184415340423584,0.46927833557128906,0.0673321783542633,0.9885600805282593,1.226324439048767,,,,,,,,,,,,,,,,,,,,,
4.702949860016815,,,,,,,,,,,,,,,,,,,,,,,,,,,,0.14392004907131195,1.609933614730835,0.7220102548599243,0.9331362843513489,0.4887004792690277,-0.1011587381362915,-0.43333059549331665,2.9184415340423584,0.46927833557128906,0.0673321783542633,0.9885600805282593,1.226324439048767,,,,,,,,,,,,,,,,,,,,,
4.764861244999338,,,,,,,,,,,,,,,,,,,,,,,,,,,,0.14392004907131195,1.609933614730835,0.7220102548599243,0.9331362843513489,0.4887004792690277,-0.1011587381362915,-0.43333059549331665,2.9184415340423584,0.46927833557128906,0.0673321783542633,0.9885600805282593,1.226324439048767,,,,,,,,,,,,,,,,,,,,,
4.835928098007571,,,,,,,,,,,,,,,,,,,,,,,,,,,,0.14392004907131195,1.609933614730835,0.7220102548599243,0.9331362843513489,0.4887004792690277,-0.1011587381362915,-0.43333059549331665,2.9184415340423584,0.46927833557128906,0.0673321783542633,0.9885600805282593,1.226324439048767,,,,,,,,,,,,,,,,,,,,,
4.8690656700055115,,,,,,,,,,,,,,,,,,,,,,,,,,,,0.14392004907131195,1.609933614730835,0.7220102548599243,0.9331362843513489,0.4887004792690277,-0.1011587381362915,-0.43333059549331665,2.9184415340423584,0.46927833557128906,0.0673321783542633,0.9885600805282593,1.226324439048767,,,,,,,,,,,,,,,,,,,,,
4.9410250520159025,,,,,,,,,,,,,,,,,,,,,,,,,,,,0.14392004907131195,1.609933614730835,0.7220102548599243,0.9331362843513489,0.4887004792690277,-0.1011587381362915,-0.43333059549331665,2.9184415340423584,0.46927833557128906,0.0673321783542633,0.9885600805282593,1.226324439048767,,,,,,,,,,,,,,,,,,,,,
5.008353968005395,,,,,,,,,,,,,,,,,,,,,,,,,,,,0.14393462240695953,1.6099364757537842,0.7220054268836975,0.9331391453742981,0.4887039363384247,-0.10115114599466324,-0.4333142936229706,2.918450355529785,0.4692767858505249,0.06733270734548569,0.9885538816452026,1.2263225317001343,,,,,,,,,,,,,,,,,,,,,
5.105708153016167,,,,,,,,,,,,,,,,,,,,,,,,,,,,0.14393462240695953,1.6099364757537842,0.7220054268836975,0.9331391453742981,0.4887039363384247,-0.10115114599466324,-0.4333142936229706,2.918450355529785,0.4692767858505249,0.06733270734548569,0.9885538816452026,1.2263225317001343,,,,,,,,,,,,,,,,,,,,,
5.144524105009623,,,,,,,,,,,,,,,,,,,,,,,,,,,,0.14393462240695953,1.6099364757537842,0.7220054268836975,0.9331391453742981,0.4887039363384247,-0.10115114599466324,-0.4333142936229706,2.918450355529785,0.4692767858505249,0.06733270734548569,0.9885538816452026,1.2263225317001343,,,,,,,,,,,,,,,,,,,,,
5.203663969004992,,,,,,,,,,,,,,,,,,,,,,,,,,,,0.14393462240695953,1.6099364757537842,0.7220054268836975,0.9331391453742981,0.4887039363384247,-0.10115114599466324,-0.4333142936229706,2.918450355529785,0.4692767858505249,0.06733270734548569,0.9885538816452026,1.2263225317001343,,,,,,,,,,,,,,,,,,,,,
5.282507558003999,,,,,,,,,,,,,,,,,,,,,,,,,,,,0.14393462240695953,1.6099364757537842,0.7220054268836975,0.9331391453742981,0.4887039363384247,-0.10115114599466324,-0.4333142936229706,2.918450355529785,0.4692767858505249,0.06733270734548569,0.9885538816452026,1.2263225317001343,,,,,,,,,,,,,,,,,,,,,
5.387945768015925,,,,,,,,,,,,,,,,,,,,,,,,,,,,0.14393462240695953,1.6099364757537842,0.7220054268836975,0.9331391453742981,0.4887039363384247,-0.10115114599466324,-0.4333142936229706,2.918450355529785,0.4692767858505249,0.06733270734548569,0.9885538816452026,1.2263225317001343,,,,,,,,,,,,,,,,,,,,,
5.421701542014489,,,,,,,,,,,,,,,,,,,,,,,,,,,,0.14393462240695953,1.6099364757537842,0.7220054268836975,0.9331391453742981,0.4887039363384247,-0.10115114599466324,-0.4333142936229706,2.918450355529785,0.4692767858505249,0.06733270734548569,0.9885538816452026,1.2263225317001343,,,,,,,,,,,,,,,,,,,,,
5.474442776001524,,,,,,,,,,,,,,,,,,,,,,,,,,,,0.14393462240695953,1.6099364757537842,0.7220054268836975,0.9331391453742981,0.4887039363384247,-0.10115114599466324,-0.4333142936229706,2.918450355529785,0.4692767858505249,0.06733270734548569,0.9885538816452026,1.2263225317001343,,,,,,,,,,,,,,,,,,,,,
5.518275894020917,,,,,,,,,,,,,,,,,,,,,,,,,,,,0.14393462240695953,1.6099364757537842,0.7220054268836975,0.9331391453742981,0.4887039363384247,-0.10115114599466324,-0.4333142936229706,2.918450355529785,0.4692767858505249,0.06733270734548569,0.9885538816452026,1.2263225317001343,,,,,,,,,,,,,,,,,,,,,
5.571669630007818,,,,,,,,,,,,,,,,,,,,,,,,,,,,0.14393462240695953,1.6099364757537842,0.7220054268836975,0.9331391453742981,0.4887039363384247,-0.10115114599466324,-0.4333142936229706,2.918450355529785,0.4692767858505249,0.06733270734548569,0.9885538816452026,1.2263225317001343,,,,,,,,,,,,,,,,,,,,,
5.622193412011256,,,,,,,,,,,,,,,,,,,,,,,,,,,,0.14393462240695953,1.6099364757537842,0.7220054268836975,0.9331391453742981,0.4887039363384247,-0.10115114599466324,-0.4333142936229706,2.918450355529785,0.4692767858505249,0.06733270734548569,0.9885538816452026,1.2263225317001343,,,,,,,,,,,,,,,,,,,,,
5.658301026996924,,,,,,,,,,,,,,,,,,,,,,,,,,,,0.14393462240695953,1.6099364757537842,0.7220054268836975,0.9331391453742981,0.4887039363384247,-0.10115114599466324,-0.4333142936229706,2.918450355529785,0.4692767858505249,0.06733270734548569,0.9885538816452026,1.2263225317001343,,,,,,,,,,,,,,,,,,,,,
5.714287740003783,,,,,,,,,,,,,,,,,,,,,,,,,,,,0.14393462240695953,1.6099364757537842,0.7220054268836975,0.9331391453742981,0.4887039363384247,-0.10115114599466324,-0.4333142936229706,2.918450355529785,0.4692767858505249,0.06733270734548569,0.9885538816452026,1.2263225317001343,,,,,,,,,,,,,,,,,,,,,
5.753884797013598,,,,,,,,,,,,,,,,,,,,,,,,,,,,0.14393462240695953,1.6099364757537842,0.7220054268836975,0.9331391453742981,0.4887039363384247,-0.10115114599466324,-0.4333142936229706,2.918450355529785,0.4692767858505249,0.06733270734548569,0.9885538816452026,1.2263225317001343,,,,,,,,,,,,,,,,,,,,,
5.787383449001936,,,,,,,,,,,,,,,,,,,,,,,,,,,,0.14393462240695953,1.6099364757537842,0.7220054268836975,0.9331391453742981,0.4887039363384247,-0.10115114599466324,-0.4333142936229706,2.918450355529785,0.4692767858505249,0.06733270734548569,0.9885538816452026,1.2263225317001343,,,,,,,,,,,,,,,,,,,,,
5.833002658007899,,,,,,,,,,,,,,,,,,,,,,,,,,,,0.14393462240695953,1.6099364757537842,0.7220054268836975,0.9331391453742981,0.4887039363384247,-0.10115114599466324,-0.4333142936229706,2.918450355529785,0.4692767858505249,0.06733270734548569,0.9885538816452026,1.2263225317001343,,,,,,,,,,,,,,,,,,,,,
5.889165429020068,,,,,,,,,,,,,,,,,,,,,,,,,,,,0.14393462240695953,1.6099364757537842,0.7220054268836975,0.9331391453742981,0.4887039363384247,-0.10115114599466324,-0.4333142936229706,2.918450355529785,0.4692767858505249,0.06733270734548569,0.9885538816452026,1.2263225317001343,,,,,,,,,,,,,,,,,,,,,
5.921906257019145,,,,,,,,,,,,,,,,,,,,,,,,,,,,0.14393462240695953,1.6099364757537842,0.7220054268836975,0.9331391453742981,0.4887039363384247,-0.10115114599466324,-0.4333142936229706,2.918450355529785,0.4692767858505249,0.06733270734548569,0.9885538816452026,1.2263225317001343,,,,,,,,,,,,,,,,,,,,,
5.973904101003427,,,,,,,,,,,,,,,,,,,,,,,,,,,,0.14393462240695953,1.6099364757537842,0.7220054268836975,0.9331391453742981,0.4887039363384247,-0.10115114599466324,-0.4333142936229706,2.918450355529785,0.4692767858505249,0.06733270734548569,0.9885538816452026,1.2263225317001343,,,,,,,,,,,,,,,,,,,,,
6.023804677010048,,,,,,,,,,,,,,,,,,,,,,,,,,,,0.14393462240695953,1.6099364757537842,0.7220054268836975,0.9331391453742981,0.4887039363384247,-0.10115114599466324,-0.4333142936229706,2.918450355529785,0.4692767858505249,0.06733270734548569,0.9885538816452026,1.2263225317001343,,,,,,,,,,,,,,,,,,,,,
6.055580137006473,,,,,,,,,,,,,,,,,,,,,,,,,,,,0.14393462240695953,1.6099364757537842,0.7220054268836975,0.9331391453742981,0.4887039363384247,-0.10115114599466324,-0.4333142936229706,2.918450355529785,0.4692767858505249,0.06733270734548569,0.9885538816452026,1.2263225317001343,,,,,,,,,,,,,,,,,,,,,
6.105188576999353,,,,,,,,,,,,,,,,,,,,,,,,,,,,0.14393462240695953,1.6099364757537842,0.7220054268836975,0.9331391453742981,0.4887039363384247,-0.10115114599466324,-0.4333142936229706,2.918450355529785,0.4692767858505249,0.06733270734548569,0.9885538816452026,1.2263225317001343,,,,,,,,,,,,,,,,,,,,,
6.153711977007333,,,,,,,,,,,,,,,,,,,,,,,,,,,,0.14393462240695953,1.6099364757537842,0.7220054268836975,0.9331391453742981,0.4887039363384247,-0.10115114599466324,-0.4333142936229706,2.918450355529785,0.4692767858505249,0.06733270734548569,0.9885538816452026,1.2263225317001343,,,,,,,,,,,,,,,,,,,,,
6.186377288016956,,,,,,,,,,,,,,,,,,,,,,,,,,,,0.1438918262720108,1.6099419593811035,0.7220014333724976,0.9331517815589905,0.48862242698669434,-0.10116305202245712,-0.4332854151725769,2.9184670448303223,0.46927398443222046,0.06733311712741852,0.9885488748550415,1.2263211011886597,,,,,,,,,,,,,,,,,,,,,
6.228379595995648,,,,,,,,,,,,,,,,,,,,,,,,,,,,0.1438918262720108,1.6099419593811035,0.7220014333724976,0.9331517815589905,0.48862242698669434,-0.10116305202245712,-0.4332854151725769,2.9184670448303223,0.46927398443222046,0.06733311712741852,0.9885488748550415,1.2263211011886597,,,,,,,,,,,,,,,,,,,,,
6.2889313510095235,,,,,,,,,,,,,,,,,,,,,,,,,,,,0.1438918262720108,1.6099419593811035,0.7220014333724976,0.9331517815589905,0.48862242698669434,-0.10116305202245712,-0.4332854151725769,2.9184670448303223,0.46927398443222046,0.06733311712741852,0.9885488748550415,1.2263211011886597,,,,,,,,,,,,,,,,,,,,,
6.320782627008157,,,,,,,,,,,,,,,,,,,,,,,,,,,,0.1438918262720108,1.6099419593811035,0.7220014333724976,0.9331517815589905,0.48862242698669434,-0.10116305202245712,-0.4332854151725769,2.9184670448303223,0.46927398443222046,0.06733311712741852,0.9885488748550415,1.2263211011886597,,,,,,,,,,,,,,,,,,,,,
6.369877895020181,,,,,,,,,,,,,,,,,,,,,,,,,,,,0.1438918262720108,1.6099419593811035,0.7220014333724976,0.9331517815589905,0.48862242698669434,-0.10116305202245712,-0.4332854151725769,2.9184670448303223,0.46927398443222046,0.06733311712741852,0.9885488748550415,1.2263211011886597,,,,,,,,,,,,,,,,,,,,,
6.421621387999039,,,,,,,,,,,,,,,,,,,,,,,,,,,,0.1438918262720108,1.6099419593811035,0.7220014333724976,0.9331517815589905,0.48862242698669434,-0.10116305202245712,-0.4332854151725769,2.9184670448303223,0.46927398443222046,0.06733311712741852,0.9885488748550415,1.2263211011886597,,,,,,,,,,,,,,,,,,,,,
6.454563357023289,,,,,,,,,,,,,,,,,,,,,,,,,,,,0.1438918262720108,1.6099419593811035,0.7220014333724976,0.9331517815589905,0.48862242698669434,-0.10116305202245712,-0.4332854151725769,2.9184670448303223,0.46927398443222046,0.06733311712741852,0.9885488748550415,1.2263211011886597,,,,,,,,,,,,,,,,,,,,,
6.5057037670048885,,,,,,,,,,,,,,,,,,,,,,,,,,,,0.1438918262720108,1.6099419593811035,0.7220014333724976,0.9331517815589905,0.48862242698669434,-0.10116305202245712,-0.4332854151725769,2.9184670448303223,0.46927398443222046,0.06733311712741852,0.9885488748550415,1.2263211011886597,,,,,,,,,,,,,,,,,,,,,
6.554716512997402,,,,,,,,,,,,,,,,,,,,,,,,,,,,0.1438918262720108,1.6099419593811035,0.7220014333724976,0.9331517815589905,0.48862242698669434,-0.10116305202245712,-0.4332854151725769,2.9184670448303223,0.46927398443222046,0.06733311712741852,0.9885488748550415,1.2263211011886597,,,,,,,,,,,,,,,,,,,,,
6.588706661015749,,,,,,,,,,,,,,,,,,,,,,,,,,,,0.1438918262720108,1.6099419593811035,0.7220014333724976,0.9331517815589905,0.48862242698669434,-0.10116305202245712,-0.4332854151725769,2.9184670448303223,0.46927398443222046,0.06733311712741852,0.9885488748550415,1.2263211011886597,,,,,,,,,,,,,,,,,,,,,
6.631243010022445,,,,,,,,,,,,,,,,,,,,,,,,,,,,0.1438918262720108,1.6099419593811035,0.7220014333724976,0.9331517815589905,0.48862242698669434,-0.10116305202245712,-0.4332854151725769,2.9184670448303223,0.46927398443222046,0.06733311712741852,0.9885488748550415,1.2263211011886597,,,,,,,,,,,,,,,,,,,,,
6.68790453101974,,,,,,,,,,,,,,,,,,,,,,,,,,,,0.1438918262720108,1.6099419593811035,0.7220014333724976,0.9331517815589905,0.48862242698669434,-0.10116305202245712,-0.4332854151725769,2.9184670448303223,0.46927398443222046,0.06733311712741852,0.9885488748550415,1.2263211011886597,,,,,,,,,,,,,,,,,,,,,
6.722707872017054,,,,,,,,,,,,,,,,,,,,,,,,,,,,0.1438918262720108,1.6099419593811035,0.7220014333724976,0.9331517815589905,0.48862242698669434,-0.10116305202245712,-0.4332854151725769,2.9184670448303223,0.46927398443222046,0.06733311712741852,0.9885488748550415,1.2263211011886597,,,,,,,,,,,,,,,,,,,,,
6.770817098004045,,,,,,,,,,,,,,,,,,,,,,,,,,,,0.1438918262720108,1.6099419593811035,0.7220014333724976,0.9331517815589905,0.48862242698669434,-0.10116305202245712,-0.4332854151725769,2.9184670448303223,0.46927398443222046,0.06733311712741852,0.9885488748550415,1.2263211011886597,,,,,,,,,,,,,,,,,,,,,
6.821931743004825,,,,,,,,,,,,,,,,,,,,,,,,,,,,0.1438918262720108,1.6099419593811035,0.7220014333724976,0.9331517815589905,0.48862242698669434,-0.10116305202245712,-0.4332854151725769,2.9184670448303223,0.46927398443222046,0.06733311712741852,0.9885488748550415,1.2263211011886597,,,,,,,,,,,,,,,,,,,,,
6.852910156012513,,,,,,,,,,,,,,,,,,,,,,,,,,,,0.1438918262720108,1.6099419593811035,0.7220014333724976,0.9331517815589905,0.48862242698669434,-0.10116305202245712,-0.4332854151725769,2.9184670448303223,0.46927398443222046,0.06733311712741852,0.9885488748550415,1.2263211011886597,,,,,,,,,,,,,,,,,,,,,
6.9041297110088635,,,,,,,,,,,,,,,,,,,,,,,,,,,,0.1438918262720108,1.6099419593811035,0.7220014333724976,0.9331517815589905,0.48862242698669434,-0.10116305202245712,-0.4332854151725769,2.9184670448303223,0.46927398443222046,0.06733311712741852,0.9885488748550415,1.2263211011886597,,,,,,,,,,,,,,,,,,,,,
6.927292381995358,,,,,,,,,,,,,,,,,,,,,,,,,,,,0.1438918262720108,1.6099419593811035,0.7220014333724976,0.9331517815589905,0.48862242698669434,-0.10116305202245712,-0.4332854151725769,2.9184670448303223,0.46927398443222046,0.06733311712741852,0.9885488748550415,1.2263211011886597,,,,,,,,,,,,,,,,,,,,,
6.984704116010107,,,,,,,,,,,,,,,,,,,,,,,,,,,,0.1438918262720108,1.6099419593811035,0.7220014333724976,0.9331517815589905,0.48862242698669434,-0.10116305202245712,-0.4332854151725769,2.9184670448303223,0.46927398443222046,0.06733311712741852,0.9885488748550415,1.2263211011886597,,,,,,,,,,,,,,,,,,,,,
7.024490014999174,,,,,,,,,,,,,,,,,,,,,,,,,,,,0.1438918262720108,1.6099419593811035,0.7220014333724976,0.9331517815589905,0.48862242698669434,-0.10116305202245712,-0.4332854151725769,2.9184670448303223,0.46927398443222046,0.06733311712741852,0.9885488748550415,1.2263211011886597,,,,,,,,,,,,,,,,,,,,,
7.0713091240031645,,,,,,,,,,,,,,,,,,,,,,,,,,,,0.1438918262720108,1.6099419593811035,0.7220014333724976,0.9331517815589905,0.48862242698669434,-0.10116305202245712,-0.4332854151725769,2.9184670448303223,0.46927398443222046,0.06733311712741852,0.9885488748550415,1.2263211011886597,,,,,,,,,,,,,,,,,,,,,
7.101484305021586,,,,,,,,,,,,,,,,,,,,,,,,,,,,0.1438918262720108,1.6099419593811035,0.7220014333724976,0.9331517815589905,0.48862242698669434,-0.10116305202245712,-0.4332854151725769,2.9184670448303223,0.46927398443222046,0.06733311712741852,0.9885488748550415,1.2263211011886597,,,,,,,,,,,,,,,,,,,,,
7.152950119023444,,,,,,,,,,,,,,,,,,,,,,,,,,,,0.1438918262720108,1.6099419593811035,0.7220014333724976,0.9331517815589905,0.48862242698669434,-0.10116305202245712,-0.4332854151725769,2.9184670448303223,0.46927398443222046,0.06733311712741852,0.9885488748550415,1.2263211011886597,,,,,,,,,,,,,,,,,,,,,
7.190576909022639,,,,,,,,,,,,,,,,,,,,,,,,,,,,0.1438918262720108,1.6099419593811035,0.7220014333724976,0.9331517815589905,0.48862242698669434,-0.10116305202245712,-0.4332854151725769,2.9184670448303223,0.46927398443222046,0.06733311712741852,0.9885488748550415,1.2263211011886597,,,,,,,,,,,,,,,,,,,,,
7.234616205998464,,,,,,,,,,,,,,,,,,,,,,,,,,,,0.1438918262720108,1.6099419593811035,0.7220014333724976,0.9331517815589905,0.48862242698669434,-0.10116305202245712,-0.4332854151725769,2.9184670448303223,0.46927398443222046,0.06733311712741852,0.9885488748550415,1.2263211011886597,,,,,,,,,,,,,,,,,,,,,
7.273773941997206,,,,,,,,,,,,,,,,,,,,,,,,,,,,0.1438918262720108,1.6099419593811035,0.7220014333724976,0.9331517815589905,0.48862242698669434,-0.10116305202245712,-0.4332854151725769,2.9184670448303223,0.46927398443222046,0.06733311712741852,0.9885488748550415,1.2263211011886597,,,,,,,,,,,,,,,,,,,,,
7.323495956021361,,,,,,,,,,,,,,,,,,,,,,,,,,,,0.1438918262720108,1.6099419593811035,0.7220014333724976,0.9331517815589905,0.48862242698669434,-0.10116305202245712,-0.4332854151725769,2.9184670448303223,0.46927398443222046,0.06733311712741852,0.9885488748550415,1.2263211011886597,,,,,,,,,,,,,,,,,,,,,
7.3538938790152315,,,,,,,,,,,,,,,,,,,,,,,,,,,,0.1439846009016037,1.6099293231964111,0.7220027446746826,0.9331229329109192,0.488803893327713,-0.10113794356584549,-0.4333532452583313,2.918428421020508,0.46928051114082336,0.06733299046754837,0.9885505437850952,1.2263214588165283,,,,,,,,,,,,,,,,,,,,,
7.392155239998829,,,,,,,,,,,,,,,,,,,,,,,,,,,,0.1439846009016037,1.6099293231964111,0.7220027446746826,0.9331229329109192,0.488803893327713,-0.10113794356584549,-0.4333532452583313,2.918428421020508,0.46928051114082336,0.06733299046754837,0.9885505437850952,1.2263214588165283,,,,,,,,,,,,,,,,,,,,,
7.433523797022644,,,,,,,,,,,,,,,,,,,,,,,,,,,,0.1439846009016037,1.6099293231964111,0.7220027446746826,0.9331229329109192,0.488803893327713,-0.10113794356584549,-0.4333532452583313,2.918428421020508,0.46928051114082336,0.06733299046754837,0.9885505437850952,1.2263214588165283,,,,,,,,,,,,,,,,,,,,,
7.4743970690178685,,,,,,,,,,,,,,,,,,,,,,,,,,,,0.1439846009016037,1.6099293231964111,0.7220027446746826,0.9331229329109192,0.488803893327713,-0.10113794356584549,-0.4333532452583313,2.918428421020508,0.46928051114082336,0.06733299046754837,0.9885505437850952,1.2263214588165283,,,,,,,,,,,,,,,,,,,,,
7.522206587018445,,,,,,,,,,,,,,,,,,,,,,,,,,,,0.1439846009016037,1.6099293231964111,0.7220027446746826,0.9331229329109192,0.488803893327713,-0.10113794356584549,-0.4333532452583313,2.918428421020508,0.46928051114082336,0.06733299046754837,0.9885505437850952,1.2263214588165283,,,,,,,,,,,,,,,,,,,,,
7.555465997022111,,,,,,,,,,,,,,,,,,,,,,,,,,,,0.1439846009016037,1.6099293231964111,0.7220027446746826,0.9331229329109192,0.488803893327713,-0.10113794356584549,-0.4333532452583313,2.918428421020508,0.46928051114082336,0.06733299046754837,0.9885505437850952,1.2263214588165283,,,,,,,,,,,,,,,,,,,,,
7.605835701018805,,,,,,,,,,,,,,,,,,,,,,,,,,,,0.1439846009016037,1.6099293231964111,0.7220027446746826,0.9331229329109192,0.488803893327713,-0.10113794356584549,-0.4333532452583313,2.918428421020508,0.46928051114082336,0.06733299046754837,0.9885505437850952,1.2263214588165283,,,,,,,,,,,,,,,,,,,,,
7.655828985996777,,,,,,,,,,,,,,,,,,,,,,,,,,,,0.1439846009016037,1.6099293231964111,0.7220027446746826,0.9331229329109192,0.488803893327713,-0.10113794356584549,-0.4333532452583313,2.918428421020508,0.46928051114082336,0.06733299046754837,0.9885505437850952,1.2263214588165283,,,,,,,,,,,,,,,,,,,,,
7.687444848997984,,,,,,,,,,,,,,,,,,,,,,,,,,,,0.1439846009016037,1.6099293231964111,0.7220027446746826,0.9331229329109192,0.488803893327713,-0.10113794356584549,-0.4333532452583313,2.918428421020508,0.46928051114082336,0.06733299046754837,0.9885505437850952,1.2263214588165283,,,,,,,,,,,,,,,,,,,,,
7.727024605002953,,,,,,,,,,,,,,,,,,,,,,,,,,,,0.1439846009016037,1.6099293231964111,0.7220027446746826,0.9331229329109192,0.488803893327713,-0.10113794356584549,-0.4333532452583313,2.918428421020508,0.46928051114082336,0.06733299046754837,0.9885505437850952,1.2263214588165283,,,,,,,,,,,,,,,,,,,,,
7.787071732018376,,,,,,,,,,,,,,,,,,,,,,,,,,,,0.1439846009016037,1.6099293231964111,0.7220027446746826,0.9331229329109192,0.488803893327713,-0.10113794356584549,-0.4333532452583313,2.918428421020508,0.46928051114082336,0.06733299046754837,0.9885505437850952,1.2263214588165283,,,,,,,,,,,,,,,,,,,,,
7.817028666002443,,,,,,,,,,,,,,,,,,,,,,,,,,,,0.1439846009016037,1.6099293231964111,0.7220027446746826,0.9331229329109192,0.488803893327713,-0.10113794356584549,-0.4333532452583313,2.918428421020508,0.46928051114082336,0.06733299046754837,0.9885505437850952,1.2263214588165283,,,,,,,,,,,,,,,,,,,,,
7.8603170569986105,,,,,,,,,,,,,,,,,,,,,,,,,,,,0.1439846009016037,1.6099293231964111,0.7220027446746826,0.9331229329109192,0.488803893327713,-0.10113794356584549,-0.4333532452583313,2.918428421020508,0.46928051114082336,0.06733299046754837,0.9885505437850952,1.2263214588165283,,,,,,,,,,,,,,,,,,,,,
7.907413228007499,,,,,,,,,,,,,,,,,,,,,,,,,,,,0.1439846009016037,1.6099293231964111,0.7220027446746826,0.9331229329109192,0.488803893327713,-0.10113794356584549,-0.4333532452583313,2.918428421020508,0.46928051114082336,0.06733299046754837,0.9885505437850952,1.2263214588165283,,,,,,,,,,,,,,,,,,,,,
7.940924377006013,,,,,,,,,,,,,,,,,,,,,,,,,,,,0.1439846009016037,1.6099293231964111,0.7220027446746826,0.9331229329109192,0.488803893327713,-0.10113794356584549,-0.4333532452583313,2.918428421020508,0.46928051114082336,0.06733299046754837,0.9885505437850952,1.2263214588165283,,,,,,,,,,,,,,,,,,,,,
7.994069198000943,,,,,,,,,,,,,,,,,,,,,,,,,,,,0.1439846009016037,1.6099293231964111,0.7220027446746826,0.9331229329109192,0.488803893327713,-0.10113794356584549,-0.4333532452583313,2.918428421020508,0.46928051114082336,0.06733299046754837,0.9885505437850952,1.2263214588165283,,,,,,,,,,,,,,,,,,,,,
8.040996038995218,,,,,,,,,,,,,,,,,,,,,,,,,,,,0.1439846009016037,1.6099293231964111,0.7220027446746826,0.9331229329109192,0.488803893327713,-0.10113794356584549,-0.4333532452583313,2.918428421020508,0.46928051114082336,0.06733299046754837,0.9885505437850952,1.2263214588165283,,,,,,,,,,,,,,,,,,,,,
8.073030779021792,,,,,,,,,,,,,,,,,,,,,,,,,,,,0.1439846009016037,1.6099293231964111,0.7220027446746826,0.9331229329109192,0.488803893327713,-0.10113794356584549,-0.4333532452583313,2.918428421020508,0.46928051114082336,0.06733299046754837,0.9885505437850952,1.2263214588165283,,,,,,,,,,,,,,,,,,,,,
8.128119556000456,,,,,,,,,,,,,,,,,,,,,,,,,,,,0.1439846009016037,1.6099293231964111,0.7220027446746826,0.9331229329109192,0.488803893327713,-0.10113794356584549,-0.4333532452583313,2.918428421020508,0.46928051114082336,0.06733299046754837,0.9885505437850952,1.2263214588165283,,,,,,,,,,,,,,,,,,,,,
8.170608456013724,,,,,,,,,,,,,,,,,,,,,,,,,,,,0.1439846009016037,1.6099293231964111,0.7220027446746826,0.9331229329109192,0.488803893327713,-0.10113794356584549,-0.4333532452583313,2.918428421020508,0.46928051114082336,0.06733299046754837,0.9885505437850952,1.2263214588165283,,,,,,,,,,,,,,,,,,,,,
8.208428520010784,,,,,,,,,,,,,,,,,,,,,,,,,,,,0.1439846009016037,1.6099293231964111,0.7220027446746826,0.9331229329109192,0.488803893327713,-0.10113794356584549,-0.4333532452583313,2.918428421020508,0.46928051114082336,0.06733299046754837,0.9885505437850952,1.2263214588165283,,,,,,,,,,,,,,,,,,,,,
8.255533172021387,,,,,,,,,,,,,,,,,,,,,,,,,,,,0.1439846009016037,1.6099293231964111,0.7220027446746826,0.9331229329109192,0.488803893327713,-0.10113794356584549,-0.4333532452583313,2.918428421020508,0.46928051114082336,0.06733299046754837,0.9885505437850952,1.2263214588165283,,,,,,,,,,,,,,,,,,,,,
8.287132716010092,,,,,,,,,,,,,,,,,,,,,,,,,,,,0.1439846009016037,1.6099293231964111,0.7220027446746826,0.9331229329109192,0.488803893327713,-0.10113794356584549,-0.4333532452583313,2.918428421020508,0.46928051114082336,0.06733299046754837,0.9885505437850952,1.2263214588165283,,,,,,,,,,,,,,,,,,,,,
8.326070241018897,,,,,,,,,,,,,,,,,,,,,,,,,,,,0.1439846009016037,1.6099293231964111,0.7220027446746826,0.9331229329109192,0.488803893327713,-0.10113794356584549,-0.4333532452583313,2.918428421020508,0.46928051114082336,0.06733299046754837,0.9885505437850952,1.2263214588165283,,,,,,,,,,,,,,,,,,,,,
8.371644364000531,,,,,,,,,,,,,,,,,,,,,,,,,,,,0.1439846009016037,1.6099293231964111,0.7220027446746826,0.9331229329109192,0.488803893327713,-0.10113794356584549,-0.4333532452583313,2.918428421020508,0.46928051114082336,0.06733299046754837,0.9885505437850952,1.2263214588165283,,,,,,,,,,,,,,,,,,,,,
8.396187987003941,,,,,,,,,,,,,,,,,,,,,,,,,,,,0.1439846009016037,1.6099293231964111,0.7220027446746826,0.9331229329109192,0.488803893327713,-0.10113794356584549,-0.4333532452583313,2.918428421020508,0.46928051114082336,0.06733299046754837,0.9885505437850952,1.2263214588165283,,,,,,,,,,,,,,,,,,,,,
8.454250528011471,,,,,,,,,,,,,,,,,,,,,,,,,,,,0.1439846009016037,1.6099293231964111,0.7220027446746826,0.9331229329109192,0.488803893327713,-0.10113794356584549,-0.4333532452583313,2.918428421020508,0.46928051114082336,0.06733299046754837,0.9885505437850952,1.2263214588165283,,,,,,,,,,,,,,,,,,,,,
8.486204250017181,,,,,,,,,,,,,,,,,,,,,,,,,,,,0.1439283937215805,1.609938144683838,0.7220073938369751,0.9331410527229309,0.4886920154094696,-0.10115288197994232,-0.4333101212978363,2.9184539318084717,0.4692766070365906,0.06733248382806778,0.9885565042495728,1.2263232469558716,,,,,,,,,,,,,,,,,,,,,
8.528209273004904,,,,,,,,,,,,,,,,,,,,,,,,,,,,0.1439283937215805,1.609938144683838,0.7220073938369751,0.9331410527229309,0.4886920154094696,-0.10115288197994232,-0.4333101212978363,2.9184539318084717,0.4692766070365906,0.06733248382806778,0.9885565042495728,1.2263232469558716,,,,,,,,,,,,,,,,,,,,,
8.575985561998095,,,,,,,,,,,,,,,,,,,,,,,,,,,,0.1439283937215805,1.609938144683838,0.7220073938369751,0.9331410527229309,0.4886920154094696,-0.10115288197994232,-0.4333101212978363,2.9184539318084717,0.4692766070365906,0.06733248382806778,0.9885565042495728,1.2263232469558716,,,,,,,,,,,,,,,,,,,,,
8.602416581998114,,,,,,,,,,,,,,,,,,,,,,,,,,,,0.1439283937215805,1.609938144683838,0.7220073938369751,0.9331410527229309,0.4886920154094696,-0.10115288197994232,-0.4333101212978363,2.9184539318084717,0.4692766070365906,0.06733248382806778,0.9885565042495728,1.2263232469558716,,,,,,,,,,,,,,,,,,,,,
8.657158898015041,,,,,,,,,,,,,,,,,,,,,,,,,,,,0.1439283937215805,1.609938144683838,0.7220073938369751,0.9331410527229309,0.4886920154094696,-0.10115288197994232,-0.4333101212978363,2.9184539318084717,0.4692766070365906,0.06733248382806778,0.9885565042495728,1.2263232469558716,,,,,,,,,,,,,,,,,,,,,
8.684397469012765,,,,,,,,,,,,,,,,,,,,,,,,,,,,0.1439283937215805,1.609938144683838,0.7220073938369751,0.9331410527229309,0.4886920154094696,-0.10115288197994232,-0.4333101212978363,2.9184539318084717,0.4692766070365906,0.06733248382806778,0.9885565042495728,1.2263232469558716,,,,,,,,,,,,,,,,,,,,,
8.72791538402089,,,,,,,,,,,,,,,,,,,,,,,,,,,,0.1439283937215805,1.609938144683838,0.7220073938369751,0.9331410527229309,0.4886920154094696,-0.10115288197994232,-0.4333101212978363,2.9184539318084717,0.4692766070365906,0.06733248382806778,0.9885565042495728,1.2263232469558716,,,,,,,,,,,,,,,,,,,,,
8.776836335018743,,,,,,,,,,,,,,,,,,,,,,,,,,,,0.1439283937215805,1.609938144683838,0.7220073938369751,0.9331410527229309,0.4886920154094696,-0.10115288197994232,-0.4333101212978363,2.9184539318084717,0.4692766070365906,0.06733248382806778,0.9885565042495728,1.2263232469558716,,,,,,,,,,,,,,,,,,,,,
8.801678453019122,,,,,,,,,,,,,,,,,,,,,,,,,,,,0.1439283937215805,1.609938144683838,0.7220073938369751,0.9331410527229309,0.4886920154094696,-0.10115288197994232,-0.4333101212978363,2.9184539318084717,0.4692766070365906,0.06733248382806778,0.9885565042495728,1.2263232469558716,,,,,,,,,,,,,,,,,,,,,
8.849994504998904,,,,,,,,,,,,,,,,,,,,,,,,,,,,0.1439283937215805,1.609938144683838,0.7220073938369751,0.9331410527229309,0.4886920154094696,-0.10115288197994232,-0.4333101212978363,2.9184539318084717,0.4692766070365906,0.06733248382806778,0.9885565042495728,1.2263232469558716,,,,,,,,,,,,,,,,,,,,,
8.890869441995164,,,,,,,,,,,,,,,,,,,,,,,,,,,,0.1439283937215805,1.609938144683838,0.7220073938369751,0.9331410527229309,0.4886920154094696,-0.10115288197994232,-0.4333101212978363,2.9184539318084717,0.4692766070365906,0.06733248382806778,0.9885565042495728,1.2263232469558716,,,,,,,,,,,,,,,,,,,,,
8.922156601998722,,,,,,,,,,,,,,,,,,,,,,,,,,,,0.1439283937215805,1.609938144683838,0.7220073938369751,0.9331410527229309,0.4886920154094696,-0.10115288197994232,-0.4333101212978363,2.9184539318084717,0.4692766070365906,0.06733248382806778,0.9885565042495728,1.2263232469558716,,,,,,,,,,,,,,,,,,,,,
8.956563304003794,,,,,,,,,,,,,,,,,,,,,,,,,,,,0.1439283937215805,1.609938144683838,0.7220073938369751,0.9331410527229309,0.4886920154094696,-0.10115288197994232,-0.4333101212978363,2.9184539318084717,0.4692766070365906,0.06733248382806778,0.9885565042495728,1.2263232469558716,,,,,,,,,,,,,,,,,,,,,
9.021544051996898,,,,,,,,,,,,,,,,,,,,,,,,,,,,0.1439283937215805,1.609938144683838,0.7220073938369751,0.9331410527229309,0.4886920154094696,-0.10115288197994232,-0.4333101212978363,2.9184539318084717,0.4692766070365906,0.06733248382806778,0.9885565042495728,1.2263232469558716,,,,,,,,,,,,,,,,,,,,,
9.058241435996024,,,,,,,,,,,,,,,,,,,,,,,,,,,,0.1439283937215805,1.609938144683838,0.7220073938369751,0.9331410527229309,0.4886920154094696,-0.10115288197994232,-0.4333101212978363,2.9184539318084717,0.4692766070365906,0.06733248382806778,0.9885565042495728,1.2263232469558716,,,,,,,,,,,,,,,,,,,,,
9.104047386004822,,,,,,,,,,,,,,,,,,,,,,,,,,,,0.1439283937215805,1.609938144683838,0.7220073938369751,0.9331410527229309,0.4886920154094696,-0.10115288197994232,-0.4333101212978363,2.9184539318084717,0.4692766070365906,0.06733248382806778,0.9885565042495728,1.2263232469558716,,,,,,,,,,,,,,,,,,,,,
9.143382248003036,,,,,,,,,,,,,,,,,,,,,,,,,,,,0.1439283937215805,1.609938144683838,0.7220073938369751,0.9331410527229309,0.4886920154094696,-0.10115288197994232,-0.4333101212978363,2.9184539318084717,0.4692766070365906,0.06733248382806778,0.9885565042495728,1.2263232469558716,,,,,,,,,,,,,,,,,,,,,
9.192125891015166,,,,,,,,,,,,,,,,,,,,,,,,,,,,0.1439283937215805,1.609938144683838,0.7220073938369751,0.9331410527229309,0.4886920154094696,-0.10115288197994232,-0.4333101212978363,2.9184539318084717,0.4692766070365906,0.06733248382806778,0.9885565042495728,1.2263232469558716,,,,,,,,,,,,,,,,,,,,,
9.22520050802268,,,,,,,,,,,,,,,,,,,,,,,,,,,,0.1439283937215805,1.609938144683838,0.7220073938369751,0.9331410527229309,0.4886920154094696,-0.10115288197994232,-0.4333101212978363,2.9184539318084717,0.4692766070365906,0.06733248382806778,0.9885565042495728,1.2263232469558716,,,,,,,,,,,,,,,,,,,,,
9.277033866004786,,,,,,,,,,,,,,,,,,,,,,,,,,,,0.1439283937215805,1.609938144683838,0.7220073938369751,0.9331410527229309,0.4886920154094696,-0.10115288197994232,-0.4333101212978363,2.9184539318084717,0.4692766070365906,0.06733248382806778,0.9885565042495728,1.2263232469558716,,,,,,,,,,,,,,,,,,,,,
9.322150366002461,,,,,,,,,,,,,,,,,,,,,,,,,,,,0.1439283937215805,1.609938144683838,0.7220073938369751,0.9331410527229309,0.4886920154094696,-0.10115288197994232,-0.4333101212978363,2.9184539318084717,0.4692766070365906,0.06733248382806778,0.9885565042495728,1.2263232469558716,,,,,,,,,,,,,,,,,,,,,
9.357551462017,,,,,,,,,,,,,,,,,,,,,,,,,,,,0.1439283937215805,1.609938144683838,0.7220073938369751,0.9331410527229309,0.4886920154094696,-0.10115288197994232,-0.4333101212978363,2.9184539318084717,0.4692766070365906,0.06733248382806778,0.9885565042495728,1.2263232469558716,,,,,,,,,,,,,,,,,,,,,
9.413486199016916,,,,,,,,,,,,,,,,,,,,,,,,,,,,0.1439283937215805,1.609938144683838,0.7220073938369751,0.9331410527229309,0.4886920154094696,-0.10115288197994232,-0.4333101212978363,2.9184539318084717,0.4692766070365906,0.06733248382806778,0.9885565042495728,1.2263232469558716,,,,,,,,,,,,,,,,,,,,,
9.454182998015312,,,,,,,,,,,,,,,,,,,,,,,,,,,,0.1439283937215805,1.609938144683838,0.7220073938369751,0.9331410527229309,0.4886920154094696,-0.10115288197994232,-0.4333101212978363,2.9184539318084717,0.4692766070365906,0.06733248382806778,0.9885565042495728,1.2263232469558716,,,,,,,,,,,,,,,,,,,,,
9.499216800002614,,,,,,,,,,,,,,,,,,,,,,,,,,,,0.1439283937215805,1.609938144683838,0.7220073938369751,0.9331410527229309,0.4886920154094696,-0.10115288197994232,-0.4333101212978363,2.9184539318084717,0.4692766070365906,0.06733248382806778,0.9885565042495728,1.2263232469558716,,,,,,,,,,,,,,,,,,,,,
9.542061928019393,,,,,,,,,,,,,,,,,,,,,,,,,,,,0.1439283937215805,1.609938144683838,0.7220073938369751,0.9331410527229309,0.4886920154094696,-0.10115288197994232,-0.4333101212978363,2.9184539318084717,0.4692766070365906,0.06733248382806778,0.9885565042495728,1.2263232469558716,,,,,,,,,,,,,,,,,,,,,
9.576620581006864,,,,,,,,,,,,,,,,,,,,,,,,,,,,0.1439283937215805,1.609938144683838,0.7220073938369751,0.9331410527229309,0.4886920154094696,-0.10115288197994232,-0.4333101212978363,2.9184539318084717,0.4692766070365906,0.06733248382806778,0.9885565042495728,1.2263232469558716,,,,,,,,,,,,,,,,,,,,,
9.627972821006551,,,,,,,,,,,,,,,,,,,,,,,,,,,,0.14401410520076752,1.609923005104065,0.722011923789978,0.9331086874008179,0.4888782501220703,-0.10113237798213959,-0.43339282274246216,2.918407440185547,0.4692847728729248,0.06733200699090958,0.9885622262954712,1.2263249158859253,,,,,,,,,,,,,,,,,,,,,
9.681101811002009,,,,,,,,,,,,,,,,,,,,,,,,,,,,0.14401410520076752,1.609923005104065,0.722011923789978,0.9331086874008179,0.4888782501220703,-0.10113237798213959,-0.43339282274246216,2.918407440185547,0.4692847728729248,0.06733200699090958,0.9885622262954712,1.2263249158859253,,,,,,,,,,,,,,,,,,,,,
9.727702972013503,,,,,,,,,,,,,,,,,,,,,,,,,,,,0.14401410520076752,1.609923005104065,0.722011923789978,0.9331086874008179,0.4888782501220703,-0.10113237798213959,-0.43339282274246216,2.918407440185547,0.4692847728729248,0.06733200699090958,0.9885622262954712,1.2263249158859253,,,,,,,,,,,,,,,,,,,,,
9.772444959002314,,,,,,,,,,,,,,,,,,,,,,,,,,,,0.14401410520076752,1.609923005104065,0.722011923789978,0.9331086874008179,0.4888782501220703,-0.10113237798213959,-0.43339282274246216,2.918407440185547,0.4692847728729248,0.06733200699090958,0.9885622262954712,1.2263249158859253,,,,,,,,,,,,,,,,,,,,,
9.821579896000912,,,,,,,,,,,,,,,,,,,,,,,,,,,,0.14401410520076752,1.609923005104065,0.722011923789978,0.9331086874008179,0.4888782501220703,-0.10113237798213959,-0.43339282274246216,2.918407440185547,0.4692847728729248,0.06733200699090958,0.9885622262954712,1.2263249158859253,,,,,,,,,,,,,,,,,,,,,
9.853449212008854,,,,,,,,,,,,,,,,,,,,,,,,,,,,0.14401410520076752,1.609923005104065,0.722011923789978,0.9331086874008179,0.4888782501220703,-0.10113237798213959,-0.43339282274246216,2.918407440185547,0.4692847728729248,0.06733200699090958,0.9885622262954712,1.2263249158859253,,,,,,,,,,,,,,,,,,,,,
9.90282365999883,,,,,,,,,,,,,,,,,,,,,,,,,,,,0.14401410520076752,1.609923005104065,0.722011923789978,0.9331086874008179,0.4888782501220703,-0.10113237798213959,-0.43339282274246216,2.918407440185547,0.4692847728729248,0.06733200699090958,0.9885622262954712,1.2263249158859253,,,,,,,,,,,,,,,,,,,,,
9.942300741997315,,,,,,,,,,,,,,,,,,,,,,,,,,,,0.14401410520076752,1.609923005104065,0.722011923789978,0.9331086874008179,0.4888782501220703,-0.10113237798213959,-0.43339282274246216,2.918407440185547,0.4692847728729248,0.06733200699090958,0.9885622262954712,1.2263249158859253,,,,,,,,,,,,,,,,,,,,,
9.988510204013437,,,,,,,,,,,,,,,,,,,,,,,,,,,,0.14401410520076752,1.609923005104065,0.722011923789978,0.9331086874008179,0.4888782501220703,-0.10113237798213959,-0.43339282274246216,2.918407440185547,0.4692847728729248,0.06733200699090958,0.9885622262954712,1.2263249158859253,,,,,,,,,,,,,,,,,,,,,
10.02636219302076,,,,,,,,,,,,,,,,,,,,,,,,,,,,0.14401410520076752,1.609923005104065,0.722011923789978,0.9331086874008179,0.4888782501220703,-0.10113237798213959,-0.43339282274246216,2.918407440185547,0.4692847728729248,0.06733200699090958,0.9885622262954712,1.2263249158859253,,,,,,,,,,,,,,,,,,,,,
10.07309502302087,,,,,,,,,,,,,,,,,,,,,,,,,,,,0.14401410520076752,1.609923005104065,0.722011923789978,0.9331086874008179,0.4888782501220703,-0.10113237798213959,-0.43339282274246216,2.918407440185547,0.4692847728729248,0.06733200699090958,0.9885622262954712,1.2263249158859253,,,,,,,,,,,,,,,,,,,,,
10.109566643019207,,,,,,,,,,,,,,,,,,,,,,,,,,,,0.14401410520076752,1.609923005104065,0.722011923789978,0.9331086874008179,0.4888782501220703,-0.10113237798213959,-0.43339282274246216,2.918407440185547,0.4692847728729248,0.06733200699090958,0.9885622262954712,1.2263249158859253,,,,,,,,,,,,,,,,,,,,,
10.173031451995485,,,,,,,,,,,,,,,,,,,,,,,,,,,,0.14401410520076752,1.609923005104065,0.722011923789978,0.9331086874008179,0.4888782501220703,-0.10113237798213959,-0.43339282274246216,2.918407440185547,0.4692847728729248,0.06733200699090958,0.9885622262954712,1.2263249158859253,,,,,,,,,,,,,,,,,,,,,
10.20412885901169,,,,,,,,,,,,,,,,,,,,,,,,,,,,0.14401410520076752,1.609923005104065,0.722011923789978,0.9331086874008179,0.4888782501220703,-0.10113237798213959,-0.43339282274246216,2.918407440185547,0.4692847728729248,0.06733200699090958,0.9885622262954712,1.2263249158859253,,,,,,,,,,,,,,,,,,,,,
10.254703639016952,,,,,,,,,,,,,,,,,,,,,,,,,,,,0.14401410520076752,1.609923005104065,0.722011923789978,0.9331086874008179,0.4888782501220703,-0.10113237798213959,-0.43339282274246216,2.918407440185547,0.4692847728729248,0.06733200699090958,0.9885622262954712,1.2263249158859253,,,,,,,,,,,,,,,,,,,,,
10.295959412003867,,,,,,,,,,,,,,,,,,,,,,,,,,,,0.14401410520076752,1.609923005104065,0.722011923789978,0.9331086874008179,0.4888782501220703,-0.10113237798213959,-0.43339282274246216,2.918407440185547,0.4692847728729248,0.06733200699090958,0.9885622262954712,1.2263249158859253,,,,,,,,,,,,,,,,,,,,,
10.343778167007258,,,,,,,,,,,,,,,,,,,,,,,,,,,,0.14401410520076752,1.609923005104065,0.722011923789978,0.9331086874008179,0.4888782501220703,-0.10113237798213959,-0.43339282274246216,2.918407440185547,0.4692847728729248,0.06733200699090958,0.9885622262954712,1.2263249158859253,,,,,,,,,,,,,,,,,,,,,
10.377218850015197,,,,,,,,,,,,,,,,,,,,,,,,,,,,0.14401410520076752,1.609923005104065,0.722011923789978,0.9331086874008179,0.4888782501220703,-0.10113237798213959,-0.43339282274246216,2.918407440185547,0.4692847728729248,0.06733200699090958,0.9885622262954712,1.2263249158859253,,,,,,,,,,,,,,,,,,,,,
10.4358183350123,,,,,,,,,,,,,,,,,,,,,,,,,,,,0.14401410520076752,1.609923005104065,0.722011923789978,0.9331086874008179,0.4888782501220703,-0.10113237798213959,-0.43339282274246216,2.918407440185547,0.4692847728729248,0.06733200699090958,0.9885622262954712,1.2263249158859253,,,,,,,,,,,,,,,,,,,,,
10.476417196012335,,,,,,,,,,,,,,,,,,,,,,,,,,,,0.14401410520076752,1.609923005104065,0.722011923789978,0.9331086874008179,0.4888782501220703,-0.10113237798213959,-0.43339282274246216,2.918407440185547,0.4692847728729248,0.06733200699090958,0.9885622262954712,1.2263249158859253,,,,,,,,,,,,,,,,,,,,,
10.512311461003264,,,,,,,,,,,,,,,,,,,,,,,,,,,,0.14401410520076752,1.609923005104065,0.722011923789978,0.9331086874008179,0.4888782501220703,-0.10113237798213959,-0.43339282274246216,2.918407440185547,0.4692847728729248,0.06733200699090958,0.9885622262954712,1.2263249158859253,,,,,,,,,,,,,,,,,,,,,
10.56770959199639,,,,,,,,,,,,,,,,,,,,,,,,,,,,0.14401410520076752,1.609923005104065,0.722011923789978,0.9331086874008179,0.4888782501220703,-0.10113237798213959,-0.43339282274246216,2.918407440185547,0.4692847728729248,0.06733200699090958,0.9885622262954712,1.2263249158859253,,,,,,,,,,,,,,,,,,,,,
10.62041988800047,,,,,,,,,,,,,,,,,,,,,,,,,,,,0.14401410520076752,1.609923005104065,0.722011923789978,0.9331086874008179,0.4888782501220703,-0.10113237798213959,-0.43339282274246216,2.918407440185547,0.4692847728729248,0.06733200699090958,0.9885622262954712,1.2263249158859253,,,,,,,,,,,,,,,,,,,,,
10.658829143998446,,,,,,,,,,,,,,,,,,,,,,,,,,,,0.14401410520076752,1.609923005104065,0.722011923789978,0.9331086874008179,0.4888782501220703,-0.10113237798213959,-0.43339282274246216,2.918407440185547,0.4692847728729248,0.06733200699090958,0.9885622262954712,1.2263249158859253,,,,,,,,,,,,,,,,,,,,,
10.688698701007525,,,,,,,,,,,,,,,,,,,,,,,,,,,,0.14401410520076752,1.609923005104065,0.722011923789978,0.9331086874008179,0.4888782501220703,-0.10113237798213959,-0.43339282274246216,2.918407440185547,0.4692847728729248,0.06733200699090958,0.9885622262954712,1.2263249158859253,,,,,,,,,,,,,,,,,,,,,
10.739577180007473,,,,,,,,,,,,,,,,,,,,,,,,,,,,0.14401410520076752,1.609923005104065,0.722011923789978,0.9331086874008179,0.4888782501220703,-0.10113237798213959,-0.43339282274246216,2.918407440185547,0.4692847728729248,0.06733200699090958,0.9885622262954712,1.2263249158859253,,,,,,,,,,,,,,,,,,,,,
10.770143766014371,,,,,,,,,,,,,,,,,,,,,,,,,,,,0.14392898976802826,1.6099343299865723,0.7220066785812378,0.933136522769928,0.4887075126171112,-0.10115477442741394,-0.4333258271217346,2.9184439182281494,0.4692777991294861,0.06733257323503494,0.9885554313659668,1.2263230085372925,,,,,,,,,,,,,,,,,,,,,
10.81291695102118,,,,,,,,,,,,,,,,,,,,,,,,,,,,0.14392898976802826,1.6099343299865723,0.7220066785812378,0.933136522769928,0.4887075126171112,-0.10115477442741394,-0.4333258271217346,2.9184439182281494,0.4692777991294861,0.06733257323503494,0.9885554313659668,1.2263230085372925,,,,,,,,,,,,,,,,,,,,,
10.859211948001757,,,,,,,,,,,,,,,,,,,,,,,,,,,,0.14392898976802826,1.6099343299865723,0.7220066785812378,0.933136522769928,0.4887075126171112,-0.10115477442741394,-0.4333258271217346,2.9184439182281494,0.4692777991294861,0.06733257323503494,0.9885554313659668,1.2263230085372925,,,,,,,,,,,,,,,,,,,,,
10.890784093004186,,,,,,,,,,,,,,,,,,,,,,,,,,,,0.14392898976802826,1.6099343299865723,0.7220066785812378,0.933136522769928,0.4887075126171112,-0.10115477442741394,-0.4333258271217346,2.9184439182281494,0.4692777991294861,0.06733257323503494,0.9885554313659668,1.2263230085372925,,,,,,,,,,,,,,,,,,,,,
10.935280580015387,,,,,,,,,,,,,,,,,,,,,,,,,,,,0.14392898976802826,1.6099343299865723,0.7220066785812378,0.933136522769928,0.4887075126171112,-0.10115477442741394,-0.4333258271217346,2.9184439182281494,0.4692777991294861,0.06733257323503494,0.9885554313659668,1.2263230085372925,,,,,,,,,,,,,,,,,,,,,
10.991718994016992,,,,,,,,,,,,,,,,,,,,,,,,,,,,0.14392898976802826,1.6099343299865723,0.7220066785812378,0.933136522769928,0.4887075126171112,-0.10115477442741394,-0.4333258271217346,2.9184439182281494,0.4692777991294861,0.06733257323503494,0.9885554313659668,1.2263230085372925,,,,,,,,,,,,,,,,,,,,,
11.024649485014379,,,,,,,,,,,,,,,,,,,,,,,,,,,,0.14392898976802826,1.6099343299865723,0.7220066785812378,0.933136522769928,0.4887075126171112,-0.10115477442741394,-0.4333258271217346,2.9184439182281494,0.4692777991294861,0.06733257323503494,0.9885554313659668,1.2263230085372925,,,,,,,,,,,,,,,,,,,,,
11.083995774999494,,,,,,,,,,,,,,,,,,,,,,,,,,,,0.14392898976802826,1.6099343299865723,0.7220066785812378,0.933136522769928,0.4887075126171112,-0.10115477442741394,-0.4333258271217346,2.9184439182281494,0.4692777991294861,0.06733257323503494,0.9885554313659668,1.2263230085372925,,,,,,,,,,,,,,,,,,,,,
11.130277428019326,,,,,,,,,,,,,,,,,,,,,,,,,,,,0.14392898976802826,1.6099343299865723,0.7220066785812378,0.933136522769928,0.4887075126171112,-0.10115477442741394,-0.4333258271217346,2.9184439182281494,0.4692777991294861,0.06733257323503494,0.9885554313659668,1.2263230085372925,,,,,,,,,,,,,,,,,,,,,
11.165252699021949,,,,,,,,,,,,,,,,,,,,,,,,,,,,0.14392898976802826,1.6099343299865723,0.7220066785812378,0.933136522769928,0.4887075126171112,-0.10115477442741394,-0.4333258271217346,2.9184439182281494,0.4692777991294861,0.06733257323503494,0.9885554313659668,1.2263230085372925,,,,,,,,,,,,,,,,,,,,,
11.223520942003233,,,,,,,,,,,,,,,,,,,,,,,,,,,,0.14392898976802826,1.6099343299865723,0.7220066785812378,0.933136522769928,0.4887075126171112,-0.10115477442741394,-0.4333258271217346,2.9184439182281494,0.4692777991294861,0.06733257323503494,0.9885554313659668,1.2263230085372925,,,,,,,,,,,,,,,,,,,,,
11.248114285001066,,,,,,,,,,,,,,,,,,,,,,,,,,,,0.14392898976802826,1.6099343299865723,0.7220066785812378,0.933136522769928,0.4887075126171112,-0.10115477442741394,-0.4333258271217346,2.9184439182281494,0.4692777991294861,0.06733257323503494,0.9885554313659668,1.2263230085372925,,,,,,,,,,,,,,,,,,,,,
11.306251800997416,,,,,,,,,,,,,,,,,,,,,,,,,,,,0.14392898976802826,1.6099343299865723,0.7220066785812378,0.933136522769928,0.4887075126171112,-0.10115477442741394,-0.4333258271217346,2.9184439182281494,0.4692777991294861,0.06733257323503494,0.9885554313659668,1.2263230085372925,,,,,,,,,,,,,,,,,,,,,
11.351854809006909,,,,,,,,,,,,,,,,,,,,,,,,,,,,0.14392898976802826,1.6099343299865723,0.7220066785812378,0.933136522769928,0.4887075126171112,-0.10115477442741394,-0.4333258271217346,2.9184439182281494,0.4692777991294861,0.06733257323503494,0.9885554313659668,1.2263230085372925,,,,,,,,,,,,,,,,,,,,,
11.396765099023469,,,,,,,,,,,,,,,,,,,,,,,,,,,,0.14392898976802826,1.6099343299865723,0.7220066785812378,0.933136522769928,0.4887075126171112,-0.10115477442741394,-0.4333258271217346,2.9184439182281494,0.4692777991294861,0.06733257323503494,0.9885554313659668,1.2263230085372925,,,,,,,,,,,,,,,,,,,,,
11.432181030017091,,,,,,,,,,,,,,,,,,,,,,,,,,,,0.14392898976802826,1.6099343299865723,0.7220066785812378,0.933136522769928,0.4887075126171112,-0.10115477442741394,-0.4333258271217346,2.9184439182281494,0.4692777991294861,0.06733257323503494,0.9885554313659668,1.2263230085372925,,,,,,,,,,,,,,,,,,,,,
11.481807400996331,,,,,,,,,,,,,,,,,,,,,,,,,,,,0.14392898976802826,1.6099343299865723,0.7220066785812378,0.933136522769928,0.4887075126171112,-0.10115477442741394,-0.4333258271217346,2.9184439182281494,0.4692777991294861,0.06733257323503494,0.9885554313659668,1.2263230085372925,,,,,,,,,,,,,,,,,,,,,
11.528368435014272,,,,,,,,,,,,,,,,,,,,,,,,,,,,0.14392898976802826,1.6099343299865723,0.7220066785812378,0.933136522769928,0.4887075126171112,-0.10115477442741394,-0.4333258271217346,2.9184439182281494,0.4692777991294861,0.06733257323503494,0.9885554313659668,1.2263230085372925,,,,,,,,,,,,,,,,,,,,,
11.569276134017855,,,,,,,,,,,,,,,,,,,,,,,,,,,,0.14392898976802826,1.6099343299865723,0.7220066785812378,0.933136522769928,0.4887075126171112,-0.10115477442741394,-0.4333258271217346,2.9184439182281494,0.4692777991294861,0.06733257323503494,0.9885554313659668,1.2263230085372925,,,,,,,,,,,,,,,,,,,,,
11.62594182099565,,,,,,,,,,,,,,,,,,,,,,,,,,,,0.14392898976802826,1.6099343299865723,0.7220066785812378,0.933136522769928,0.4887075126171112,-0.10115477442741394,-0.4333258271217346,2.9184439182281494,0.4692777991294861,0.06733257323503494,0.9885554313659668,1.2263230085372925,,,,,,,,,,,,,,,,,,,,,
11.652499568008352,,,,,,,,,,,,,,,,,,,,,,,,,,,,0.14392898976802826,1.6099343299865723,0.7220066785812378,0.933136522769928,0.4887075126171112,-0.10115477442741394,-0.4333258271217346,2.9184439182281494,0.4692777991294861,0.06733257323503494,0.9885554313659668,1.2263230085372925,,,,,,,,,,,,,,,,,,,,,
11.706317920004949,,,,,,,,,,,,,,,,,,,,,,,,,,,,0.14392898976802826,1.6099343299865723,0.7220066785812378,0.933136522769928,0.4887075126171112,-0.10115477442741394,-0.4333258271217346,2.9184439182281494,0.4692777991294861,0.06733257323503494,0.9885554313659668,1.2263230085372925,,,,,,,,,,,,,,,,,,,,,
11.741347077011596,,,,,,,,,,,,,,,,,,,,,,,,,,,,0.14392898976802826,1.6099343299865723,0.7220066785812378,0.933136522769928,0.4887075126171112,-0.10115477442741394,-0.4333258271217346,2.9184439182281494,0.4692777991294861,0.06733257323503494,0.9885554313659668,1.2263230085372925,,,,,,,,,,,,,,,,,,,,,
11.791777125996305,,,,,,,,,,,,,,,,,,,,,,,,,,,,0.14392898976802826,1.6099343299865723,0.7220066785812378,0.933136522769928,0.4887075126171112,-0.10115477442741394,-0.4333258271217346,2.9184439182281494,0.4692777991294861,0.06733257323503494,0.9885554313659668,1.2263230085372925,,,,,,,,,,,,,,,,,,,,,
11.841672859009122,,,,,,,,,,,,,,,,,,,,,,,,,,,,0.14392898976802826,1.6099343299865723,0.7220066785812378,0.933136522769928,0.4887075126171112,-0.10115477442741394,-0.4333258271217346,2.9184439182281494,0.4692777991294861,0.06733257323503494,0.9885554313659668,1.2263230085372925,,,,,,,,,,,,,,,,,,,,,
11.873866815003566,,,,,,,,,,,,,,,,,,,,,,,,,,,,0.14392898976802826,1.6099343299865723,0.7220066785812378,0.933136522769928,0.4887075126171112,-0.10115477442741394,-0.4333258271217346,2.9184439182281494,0.4692777991294861,0.06733257323503494,0.9885554313659668,1.2263230085372925,,,,,,,,,,,,,,,,,,,,,
11.913923281012103,,,,,,,,,,,,,,,,,,,,,,,,,,,,0.14393383264541626,1.6099352836608887,0.7220124006271362,0.9331371188163757,0.48870980739593506,-0.1011524423956871,-0.43332168459892273,2.9184463024139404,0.469277560710907,0.06733196973800659,0.988562822341919,1.2263250350952148,,,,,,,,,,,,,,,,,,,,,
11.960891212016577,,,,,,,,,,,,,,,,,,,,,,,,,,,,0.14393383264541626,1.6099352836608887,0.7220124006271362,0.9331371188163757,0.48870980739593506,-0.1011524423956871,-0.43332168459892273,2.9184463024139404,0.469277560710907,0.06733196973800659,0.988562822341919,1.2263250350952148,,,,,,,,,,,,,,,,,,,,,
11.994380537013058,,,,,,,,,,,,,,,,,,,,,,,,,,,,0.14393383264541626,1.6099352836608887,0.7220124006271362,0.9331371188163757,0.48870980739593506,-0.1011524423956871,-0.43332168459892273,2.9184463024139404,0.469277560710907,0.06733196973800659,0.988562822341919,1.2263250350952148,,,,,,,,,,,,,,,,,,,,,
12.060136731015518,,,,,,,,,,,,,,,,,,,,,,,,,,,,0.14393383264541626,1.6099352836608887,0.7220124006271362,0.9331371188163757,0.48870980739593506,-0.1011524423956871,-0.43332168459892273,2.9184463024139404,0.469277560710907,0.06733196973800659,0.988562822341919,1.2263250350952148,,,,,,,,,,,,,,,,,,,,,
12.096111173013924,,,,,,,,,,,,,,,,,,,,,,,,,,,,0.14393383264541626,1.6099352836608887,0.7220124006271362,0.9331371188163757,0.48870980739593506,-0.1011524423956871,-0.43332168459892273,2.9184463024139404,0.469277560710907,0.06733196973800659,0.988562822341919,1.2263250350952148,,,,,,,,,,,,,,,,,,,,,
12.157280675019138,,,,,,,,,,,,,,,,,,,,,,,,,,,,0.14393383264541626,1.6099352836608887,0.7220124006271362,0.9331371188163757,0.48870980739593506,-0.1011524423956871,-0.43332168459892273,2.9184463024139404,0.469277560710907,0.06733196973800659,0.988562822341919,1.2263250350952148,,,,,,,,,,,,,,,,,,,,,
12.189279850019375,,,,,,,,,,,,,,,,,,,,,,,,,,,,0.14393383264541626,1.6099352836608887,0.7220124006271362,0.9331371188163757,0.48870980739593506,-0.1011524423956871,-0.43332168459892273,2.9184463024139404,0.469277560710907,0.06733196973800659,0.988562822341919,1.2263250350952148,,,,,,,,,,,,,,,,,,,,,
12.22732950700447,,,,,,,,,,,,,,,,,,,,,,,,,,,,0.14393383264541626,1.6099352836608887,0.7220124006271362,0.9331371188163757,0.48870980739593506,-0.1011524423956871,-0.43332168459892273,2.9184463024139404,0.469277560710907,0.06733196973800659,0.988562822341919,1.2263250350952148,,,,,,,,,,,,,,,,,,,,,
12.269365275016753,,,,,,,,,,,,,,,,,,,,,,,,,,,,0.14393383264541626,1.6099352836608887,0.7220124006271362,0.9331371188163757,0.48870980739593506,-0.1011524423956871,-0.43332168459892273,2.9184463024139404,0.469277560710907,0.06733196973800659,0.988562822341919,1.2263250350952148,,,,,,,,,,,,,,,,,,,,,
12.323206945002312,,,,,,,,,,,,,,,,,,,,,,,,,,,,0.14393383264541626,1.6099352836608887,0.7220124006271362,0.9331371188163757,0.48870980739593506,-0.1011524423956871,-0.43332168459892273,2.9184463024139404,0.469277560710907,0.06733196973800659,0.988562822341919,1.2263250350952148,,,,,,,,,,,,,,,,,,,,,
12.360638177022338,,,,,,,,,,,,,,,,,,,,,,,,,,,,0.14393383264541626,1.6099352836608887,0.7220124006271362,0.9331371188163757,0.48870980739593506,-0.1011524423956871,-0.43332168459892273,2.9184463024139404,0.469277560710907,0.06733196973800659,0.988562822341919,1.2263250350952148,,,,,,,,,,,,,,,,,,,,,
12.407196751009906,,,,,,,,,,,,,,,,,,,,,,,,,,,,0.14393383264541626,1.6099352836608887,0.7220124006271362,0.9331371188163757,0.48870980739593506,-0.1011524423956871,-0.43332168459892273,2.9184463024139404,0.469277560710907,0.06733196973800659,0.988562822341919,1.2263250350952148,,,,,,,,,,,,,,,,,,,,,
12.438682628009701,,,,,,,,,,,,,,,,,,,,,,,,,,,,0.14393383264541626,1.6099352836608887,0.7220124006271362,0.9331371188163757,0.48870980739593506,-0.1011524423956871,-0.43332168459892273,2.9184463024139404,0.469277560710907,0.06733196973800659,0.988562822341919,1.2263250350952148,,,,,,,,,,,,,,,,,,,,,
12.47768501000246,,,,,,,,,,,,,,,,,,,,,,,,,,,,0.14393383264541626,1.6099352836608887,0.7220124006271362,0.9331371188163757,0.48870980739593506,-0.1011524423956871,-0.43332168459892273,2.9184463024139404,0.469277560710907,0.06733196973800659,0.988562822341919,1.2263250350952148,,,,,,,,,,,,,,,,,,,,,
12.52515077701537,,,,,,,,,,,,,,,,,,,,,,,,,,,,0.14393383264541626,1.6099352836608887,0.7220124006271362,0.9331371188163757,0.48870980739593506,-0.1011524423956871,-0.43332168459892273,2.9184463024139404,0.469277560710907,0.06733196973800659,0.988562822341919,1.2263250350952148,,,,,,,,,,,,,,,,,,,,,
12.558084953023354,,,,,,,,,,,,,,,,,,,,,,,,,,,,0.14393383264541626,1.6099352836608887,0.7220124006271362,0.9331371188163757,0.48870980739593506,-0.1011524423956871,-0.43332168459892273,2.9184463024139404,0.469277560710907,0.06733196973800659,0.988562822341919,1.2263250350952148,,,,,,,,,,,,,,,,,,,,,
12.596249370020814,,,,,,,,,,,,,,,,,,,,,,,,,,,,0.14393383264541626,1.6099352836608887,0.7220124006271362,0.9331371188163757,0.48870980739593506,-0.1011524423956871,-0.43332168459892273,2.9184463024139404,0.469277560710907,0.06733196973800659,0.988562822341919,1.2263250350952148,,,,,,,,,,,,,,,,,,,,,
12.643109188007656,,,,,,,,,,,,,,,,,,,,,,,,,,,,0.14393383264541626,1.6099352836608887,0.7220124006271362,0.9331371188163757,0.48870980739593506,-0.1011524423956871,-0.43332168459892273,2.9184463024139404,0.469277560710907,0.06733196973800659,0.988562822341919,1.2263250350952148,,,,,,,,,,,,,,,,,,,,,
12.693065928004216,,,,,,,,,,,,,,,,,,,,,,,,,,,,0.14393383264541626,1.6099352836608887,0.7220124006271362,0.9331371188163757,0.48870980739593506,-0.1011524423956871,-0.43332168459892273,2.9184463024139404,0.469277560710907,0.06733196973800659,0.988562822341919,1.2263250350952148,,,,,,,,,,,,,,,,,,,,,
12.728518631018233,,,,,,,,,,,,,,,,,,,,,,,,,,,,0.14393383264541626,1.6099352836608887,0.7220124006271362,0.9331371188163757,0.48870980739593506,-0.1011524423956871,-0.43332168459892273,2.9184463024139404,0.469277560710907,0.06733196973800659,0.988562822341919,1.2263250350952148,,,,,,,,,,,,,,,,,,,,,
12.79309815200395,,,,,,,,,,,,,,,,,,,,,,,,,,,,0.14393383264541626,1.6099352836608887,0.7220124006271362,0.9331371188163757,0.48870980739593506,-0.1011524423956871,-0.43332168459892273,2.9184463024139404,0.469277560710907,0.06733196973800659,0.988562822341919,1.2263250350952148,,,,,,,,,,,,,,,,,,,,,
12.822989817010239,,,,,,,,,,,,,,,,,,,,,,,,,,,,0.14393383264541626,1.6099352836608887,0.7220124006271362,0.9331371188163757,0.48870980739593506,-0.1011524423956871,-0.43332168459892273,2.9184463024139404,0.469277560710907,0.06733196973800659,0.988562822341919,1.2263250350952148,,,,,,,,,,,,,,,,,,,,,
12.86465559899807,,,,,,,,,,,,,,,,,,,,,,,,,,,,0.14393383264541626,1.6099352836608887,0.7220124006271362,0.9331371188163757,0.48870980739593506,-0.1011524423956871,-0.43332168459892273,2.9184463024139404,0.469277560710907,0.06733196973800659,0.988562822341919,1.2263250350952148,,,,,,,,,,,,,,,,,,,,,
12.907445520017063,,,,,,,,,,,,,,,,,,,,,,,,,,,,0.14393383264541626,1.6099352836608887,0.7220124006271362,0.9331371188163757,0.48870980739593506,-0.1011524423956871,-0.43332168459892273,2.9184463024139404,0.469277560710907,0.06733196973800659,0.988562822341919,1.2263250350952148,,,,,,,,,,,,,,,,,,,,,
12.946702761022607,,,,,,,,,,,,,,,,,,,,,,,,,,,,0.14393383264541626,1.6099352836608887,0.7220124006271362,0.9331371188163757,0.48870980739593506,-0.1011524423956871,-0.43332168459892273,2.9184463024139404,0.469277560710907,0.06733196973800659,0.988562822341919,1.2263250350952148,,,,,,,,,,,,,,,,,,,,,
12.991863583010854,,,,,,,,,,,,,,,,,,,,,,,,,,,,0.14393383264541626,1.6099352836608887,0.7220124006271362,0.9331371188163757,0.48870980739593506,-0.1011524423956871,-0.43332168459892273,2.9184463024139404,0.469277560710907,0.06733196973800659,0.988562822341919,1.2263250350952148,,,,,,,,,,,,,,,,,,,,,
13.025928176008165,,,,,,,,,,,,,,,,,,,,,,,,,,,,0.14393383264541626,1.6099352836608887,0.7220124006271362,0.9331371188163757,0.48870980739593506,-0.1011524423956871,-0.43332168459892273,2.9184463024139404,0.469277560710907,0.06733196973800659,0.988562822341919,1.2263250350952148,,,,,,,,,,,,,,,,,,,,,
13.078102815023158,,,,,,,,,,,,,,,,,,,,,,,,,,,,0.1439710110425949,1.6099237203598022,0.7220102548599243,0.9331210851669312,0.488797664642334,-0.10114456713199615,-0.4333648383617401,2.9184176921844482,0.4692804217338562,0.0673321783542633,0.9885600805282593,1.226324439048767,,,,,,,,,,,,,,,,,,,,,
13.128567904001102,,,,,,,,,,,,,,,,,,,,,,,,,,,,0.1439710110425949,1.6099237203598022,0.7220102548599243,0.9331210851669312,0.488797664642334,-0.10114456713199615,-0.4333648383617401,2.9184176921844482,0.4692804217338562,0.0673321783542633,0.9885600805282593,1.226324439048767,,,,,,,,,,,,,,,,,,,,,
13.164708227996016,,,,,,,,,,,,,,,,,,,,,,,,,,,,0.1439710110425949,1.6099237203598022,0.7220102548599243,0.9331210851669312,0.488797664642334,-0.10114456713199615,-0.4333648383617401,2.9184176921844482,0.4692804217338562,0.0673321783542633,0.9885600805282593,1.226324439048767,,,,,,,,,,,,,,,,,,,,,
13.226893101003952,,,,,,,,,,,,,,,,,,,,,,,,,,,,0.1439710110425949,1.6099237203598022,0.7220102548599243,0.9331210851669312,0.488797664642334,-0.10114456713199615,-0.4333648383617401,2.9184176921844482,0.4692804217338562,0.0673321783542633,0.9885600805282593,1.226324439048767,,,,,,,,,,,,,,,,,,,,,
13.26680158500676,,,,,,,,,,,,,,,,,,,,,,,,,,,,0.1439710110425949,1.6099237203598022,0.7220102548599243,0.9331210851669312,0.488797664642334,-0.10114456713199615,-0.4333648383617401,2.9184176921844482,0.4692804217338562,0.0673321783542633,0.9885600805282593,1.226324439048767,,,,,,,,,,,,,,,,,,,,,
13.327148003008915,,,,,,,,,,,,,,,,,,,,,,,,,,,,0.1439710110425949,1.6099237203598022,0.7220102548599243,0.9331210851669312,0.488797664642334,-0.10114456713199615,-0.4333648383617401,2.9184176921844482,0.4692804217338562,0.0673321783542633,0.9885600805282593,1.226324439048767,,,,,,,,,,,,,,,,,,,,,
13.36858882001252,,,,,,,,,,,,,,,,,,,,,,,,,,,,0.1439710110425949,1.6099237203598022,0.7220102548599243,0.9331210851669312,0.488797664642334,-0.10114456713199615,-0.4333648383617401,2.9184176921844482,0.4692804217338562,0.0673321783542633,0.9885600805282593,1.226324439048767,,,,,,,,,,,,,,,,,,,,,
13.425986094021937,,,,,,,,,,,,,,,,,,,,,,,,,,,,0.1439710110425949,1.6099237203598022,0.7220102548599243,0.9331210851669312,0.488797664642334,-0.10114456713199615,-0.4333648383617401,2.9184176921844482,0.4692804217338562,0.0673321783542633,0.9885600805282593,1.226324439048767,,,,,,,,,,,,,,,,,,,,,
13.459960182022769,,,,,,,,,,,,,,,,,,,,,,,,,,,,0.1439710110425949,1.6099237203598022,0.7220102548599243,0.9331210851669312,0.488797664642334,-0.10114456713199615,-0.4333648383617401,2.9184176921844482,0.4692804217338562,0.0673321783542633,0.9885600805282593,1.226324439048767,,,,,,,,,,,,,,,,,,,,,
13.52744758699555,,,,,,,,,,,,,,,,,,,,,,,,,,,,0.1439710110425949,1.6099237203598022,0.7220102548599243,0.9331210851669312,0.488797664642334,-0.10114456713199615,-0.4333648383617401,2.9184176921844482,0.4692804217338562,0.0673321783542633,0.9885600805282593,1.226324439048767,,,,,,,,,,,,,,,,,,,,,
13.559891974000493,,,,,,,,,,,,,,,,,,,,,,,,,,,,0.1439710110425949,1.6099237203598022,0.7220102548599243,0.9331210851669312,0.488797664642334,-0.10114456713199615,-0.4333648383617401,2.9184176921844482,0.4692804217338562,0.0673321783542633,0.9885600805282593,1.226324439048767,,,,,,,,,,,,,,,,,,,,,
13.613968649995513,,,,,,,,,,,,,,,,,,,,,,,,,,,,0.1439710110425949,1.6099237203598022,0.7220102548599243,0.9331210851669312,0.488797664642334,-0.10114456713199615,-0.4333648383617401,2.9184176921844482,0.4692804217338562,0.0673321783542633,0.9885600805282593,1.226324439048767,,,,,,,,,,,,,,,,,,,,,
13.670758747000946,,,,,,,,,,,,,,,,,,,,,,,,,,,,0.1439710110425949,1.6099237203598022,0.7220102548599243,0.9331210851669312,0.488797664642334,-0.10114456713199615,-0.4333648383617401,2.9184176921844482,0.4692804217338562,0.0673321783542633,0.9885600805282593,1.226324439048767,,,,,,,,,,,,,,,,,,,,,
13.710799927008338,,,,,,,,,,,,,,,,,,,,,,,,,,,,0.1439710110425949,1.6099237203598022,0.7220102548599243,0.9331210851669312,0.488797664642334,-0.10114456713199615,-0.4333648383617401,2.9184176921844482,0.4692804217338562,0.0673321783542633,0.9885600805282593,1.226324439048767,,,,,,,,,,,,,,,,,,,,,
13.764026201999513,,,,,,,,,,,,,,,,,,,,,,,,,,,,0.1439710110425949,1.6099237203598022,0.7220102548599243,0.9331210851669312,0.488797664642334,-0.10114456713199615,-0.4333648383617401,2.9184176921844482,0.4692804217338562,0.0673321783542633,0.9885600805282593,1.226324439048767,,,,,,,,,,,,,,,,,,,,,
13.80502145801438,,,,,,,,,,,,,,,,,,,,,,,,,,,,0.1439710110425949,1.6099237203598022,0.7220102548599243,0.9331210851669312,0.488797664642334,-0.10114456713199615,-0.4333648383617401,2.9184176921844482,0.4692804217338562,0.0673321783542633,0.9885600805282593,1.226324439048767,,,,,,,,,,,,,,,,,,,,,
13.854505113005871,,,,,,,,,,,,,,,,,,,,,,,,,,,,0.1439710110425949,1.6099237203598022,0.7220102548599243,0.9331210851669312,0.488797664642334,-0.10114456713199615,-0.4333648383617401,2.9184176921844482,0.4692804217338562,0.0673321783542633,0.9885600805282593,1.226324439048767,,,,,,,,,,,,,,,,,,,,,
13.89666736900108,,,,,,,,,,,,,,,,,,,,,,,,,,,,0.1439710110425949,1.6099237203598022,0.7220102548599243,0.9331210851669312,0.488797664642334,-0.10114456713199615,-0.4333648383617401,2.9184176921844482,0.4692804217338562,0.0673321783542633,0.9885600805282593,1.226324439048767,,,,,,,,,,,,,,,,,,,,,
13.942836621019524,,,,,,,,,,,,,,,,,,,,,,,,,,,,0.1439710110425949,1.6099237203598022,0.7220102548599243,0.9331210851669312,0.488797664642334,-0.10114456713199615,-0.4333648383617401,2.9184176921844482,0.4692804217338562,0.0673321783542633,0.9885600805282593,1.226324439048767,,,,,,,,,,,,,,,,,,,,,
13.98091705099796,,,,,,,,,,,,,,,,,,,,,,,,,,,,0.1439710110425949,1.6099237203598022,0.7220102548599243,0.9331210851669312,0.488797664642334,-0.10114456713199615,-0.4333648383617401,2.9184176921844482,0.4692804217338562,0.0673321783542633,0.9885600805282593,1.226324439048767,,,,,,,,,,,,,,,,,,,,,
14.03653191201738,,,,,,,,,,,,,,,,,,,,,,,,,,,,0.1439710110425949,1.6099237203598022,0.7220102548599243,0.9331210851669312,0.488797664642334,-0.10114456713199615,-0.4333648383617401,2.9184176921844482,0.4692804217338562,0.0673321783542633,0.9885600805282593,1.226324439048767,,,,,,,,,,,,,,,,,,,,,
14.078615734004416,,,,,,,,,,,,,,,,,,,,,,,,,,,,0.1439710110425949,1.6099237203598022,0.7220102548599243,0.9331210851669312,0.488797664642334,-0.10114456713199615,-0.4333648383617401,2.9184176921844482,0.4692804217338562,0.0673321783542633,0.9885600805282593,1.226324439048767,,,,,,,,,,,,,,,,,,,,,
14.126736375008477,,,,,,,,,,,,,,,,,,,,,,,,,,,,0.1439710110425949,1.6099237203598022,0.7220102548599243,0.9331210851669312,0.488797664642334,-0.10114456713199615,-0.4333648383617401,2.9184176921844482,0.4692804217338562,0.0673321783542633,0.9885600805282593,1.226324439048767,,,,,,,,,,,,,,,,,,,,,
14.160256071016192,,,,,,,,,,,,,,,,,,,,,,,,,,,,0.1439710110425949,1.6099237203598022,0.7220102548599243,0.9331210851669312,0.488797664642334,-0.10114456713199615,-0.4333648383617401,2.9184176921844482,0.4692804217338562,0.0673321783542633,0.9885600805282593,1.226324439048767,,,,,,,,,,,,,,,,,,,,,
14.21852202800801,,,,,,,,,,,,,,,,,,,,,,,,,,,,0.1439710110425949,1.6099237203598022,0.7220102548599243,0.9331210851669312,0.488797664642334,-0.10114456713199615,-0.4333648383617401,2.9184176921844482,0.4692804217338562,0.0673321783542633,0.9885600805282593,1.226324439048767,,,,,,,,,,,,,,,,,,,,,
14.259355785005027,,,,,,,,,,,,,,,,,,,,,,,,,,,,0.14394941926002502,1.6099293231964111,0.722011387348175,0.933128833770752,0.48875200748443604,-0.10114991664886475,-0.4333455264568329,2.918431043624878,0.46927928924560547,0.06733205169439316,0.9885614514350891,1.2263245582580566,,,,,,,,,,,,,,,,,,,,,
14.308585081016645,,,,,,,,,,,,,,,,,,,,,,,,,,,,0.14394941926002502,1.6099293231964111,0.722011387348175,0.933128833770752,0.48875200748443604,-0.10114991664886475,-0.4333455264568329,2.918431043624878,0.46927928924560547,0.06733205169439316,0.9885614514350891,1.2263245582580566,,,,,,,,,,,,,,,,,,,,,
14.359146560018416,,,,,,,,,,,,,,,,,,,,,,,,,,,,0.14394941926002502,1.6099293231964111,0.722011387348175,0.933128833770752,0.48875200748443604,-0.10114991664886475,-0.4333455264568329,2.918431043624878,0.46927928924560547,0.06733205169439316,0.9885614514350891,1.2263245582580566,,,,,,,,,,,,,,,,,,,,,
14.390691578999395,,,,,,,,,,,,,,,,,,,,,,,,,,,,0.14394941926002502,1.6099293231964111,0.722011387348175,0.933128833770752,0.48875200748443604,-0.10114991664886475,-0.4333455264568329,2.918431043624878,0.46927928924560547,0.06733205169439316,0.9885614514350891,1.2263245582580566,,,,,,,,,,,,,,,,,,,,,
14.44368496601237,,,,,,,,,,,,,,,,,,,,,,,,,,,,0.14394941926002502,1.6099293231964111,0.722011387348175,0.933128833770752,0.48875200748443604,-0.10114991664886475,-0.4333455264568329,2.918431043624878,0.46927928924560547,0.06733205169439316,0.9885614514350891,1.2263245582580566,,,,,,,,,,,,,,,,,,,,,
14.478818066010717,,,,,,,,,,,,,,,,,,,,,,,,,,,,0.14394941926002502,1.6099293231964111,0.722011387348175,0.933128833770752,0.48875200748443604,-0.10114991664886475,-0.4333455264568329,2.918431043624878,0.46927928924560547,0.06733205169439316,0.9885614514350891,1.2263245582580566,,,,,,,,,,,,,,,,,,,,,
14.53180236701155,,,,,,,,,,,,,,,,,,,,,,,,,,,,0.14394941926002502,1.6099293231964111,0.722011387348175,0.933128833770752,0.48875200748443604,-0.10114991664886475,-0.4333455264568329,2.918431043624878,0.46927928924560547,0.06733205169439316,0.9885614514350891,1.2263245582580566,,,,,,,,,,,,,,,,,,,,,
14.579363309021574,,,,,,,,,,,,,,,,,,,,,,,,,,,,0.14394941926002502,1.6099293231964111,0.722011387348175,0.933128833770752,0.48875200748443604,-0.10114991664886475,-0.4333455264568329,2.918431043624878,0.46927928924560547,0.06733205169439316,0.9885614514350891,1.2263245582580566,,,,,,,,,,,,,,,,,,,,,
14.610800680005923,,,,,,,,,,,,,,,,,,,,,,,,,,,,0.14394941926002502,1.6099293231964111,0.722011387348175,0.933128833770752,0.48875200748443604,-0.10114991664886475,-0.4333455264568329,2.918431043624878,0.46927928924560547,0.06733205169439316,0.9885614514350891,1.2263245582580566,,,,,,,,,,,,,,,,,,,,,
14.662513229995966,,,,,,,,,,,,,,,,,,,,,,,,,,,,0.14394941926002502,1.6099293231964111,0.722011387348175,0.933128833770752,0.48875200748443604,-0.10114991664886475,-0.4333455264568329,2.918431043624878,0.46927928924560547,0.06733205169439316,0.9885614514350891,1.2263245582580566,,,,,,,,,,,,,,,,,,,,,
14.712457262998214,,,,,,,,,,,,,,,,,,,,,,,,,,,,0.14394941926002502,1.6099293231964111,0.722011387348175,0.933128833770752,0.48875200748443604,-0.10114991664886475,-0.4333455264568329,2.918431043624878,0.46927928924560547,0.06733205169439316,0.9885614514350891,1.2263245582580566,,,,,,,,,,,,,,,,,,,,,
14.754162257013377,,,,,,,,,,,,,,,,,,,,,,,,,,,,0.14394941926002502,1.6099293231964111,0.722011387348175,0.933128833770752,0.48875200748443604,-0.10114991664886475,-0.4333455264568329,2.918431043624878,0.46927928924560547,0.06733205169439316,0.9885614514350891,1.2263245582580566,,,,,,,,,,,,,,,,,,,,,
14.813698445999762,,,,,,,,,,,,,,,,,,,,,,,,,,,,0.14394941926002502,1.6099293231964111,0.722011387348175,0.933128833770752,0.48875200748443604,-0.10114991664886475,-0.4333455264568329,2.918431043624878,0.46927928924560547,0.06733205169439316,0.9885614514350891,1.2263245582580566,,,,,,,,,,,,,,,,,,,,,
