AlexandreBanks6/ExpertPlaybackApp/resources/Motions/Motion_24.csv
Time,si_T_psm1,Tx,Ty,Tz,R00,R01,R02,R10,R11,R12,R20,R21,R22,si_T_psm3,Tx,Ty,Tz,R00,R01,R02,R10,R11,R12,R20,R21,R22,si_T_ecm,Tx,Ty,Tz,R00,R01,R02,R10,R11,R12,R20,R21,R22,joint_vars_psm1,q1,q2,q3,q4,q5,q6,jaw,joint_vars_psm3,q1,q2,q3,q4,q5,q6,jaw
lci_T_si
,,-0.039366093,0.03843114,0.3462509,0.99970466,-0.024052996,0.0034670003,-0.023895346,-0.9989148,-0.03997822,0.0044248337,0.03988357,-0.99919456
rci_T_si
,,-0.04742317,0.0407196,0.45824578,0.9990876,-0.036336508,-0.022444164,-0.036526453,-0.99929976,-0.0081117535,-0.022133697,0.008924157,-0.9997152
ecm_T_lc
,,0.15482447,0.9507957,-4.577456,-0.99988085,0.015432724,0.00034810763,-0.015051688,-0.97970253,0.19989099,0.0034259045,0.19986194,0.97981805
ecm_T_rc
,,-0.008239545,0.013894887,-0.24892122,-0.99980205,-0.018179558,0.00808652,0.017913941,-0.9993341,-0.031788383,0.008659034,-0.031637233,0.9994619
0.021554623000156425,,0.2045654,-1.5895123,-3.96319,-0.58325076,-0.647305,-0.49072903,-0.8044256,0.544158,0.23830998,0.112774864,0.5337494,-0.83808917,,0.1513687,-1.5357584,-3.6798248,0.3016227,-0.94014734,0.15857796,-0.87430143,-0.33907917,-0.34730724,0.3802904,-0.033889193,-0.9242461,,0.19842733,-1.6514837,-4.016938,-0.9999529,0.009245254,0.0029845026,0.008645774,0.98697376,-0.16064884,-0.0044308645,-0.16061544,-0.98700714,,-0.20919338809699353,-0.11129230345044941,0.15482758131000002,0.00020968994348452436,0.0,0.0,0.0,,-1.506396274446233,0.04095365243201257,0.07533000448,0.0012581396609071462,-0.5488688195577742,0.42126516482326365,-0.0003266881322685593
0.04671596900016084,,0.20456466,-1.5895118,-3.9631894,-0.5832502,-0.64730173,-0.490734,-0.8044261,0.5441555,0.23831417,0.1127744,0.53375596,-0.83808506,,0.15136829,-1.5357586,-3.679825,0.30162567,-0.9401474,0.15857206,-0.87429976,-0.33907983,-0.34731087,0.38029194,-0.03388166,-0.92424566,,0.19842733,-1.6514837,-4.016938,-0.9999529,0.009245254,0.0029845026,0.008645774,0.98697376,-0.16064884,-0.0044308645,-0.16061544,-0.98700714,,-0.20918566536411928,-0.11129230345044941,0.15482758131000002,0.00020968994348452436,0.0,0.0,0.0,,-1.5063885517133586,0.04095365243201257,0.07533000448,0.0012581396609071462,-0.5488688195577742,0.42126516482326365,-0.0003266881322685593
0.07029944699979751,,0.20456466,-1.5895118,-3.9631894,-0.5832502,-0.64730173,-0.490734,-0.8044261,0.5441555,0.23831417,0.1127744,0.53375596,-0.83808506,,0.15136829,-1.5357586,-3.679825,0.30162567,-0.9401474,0.15857206,-0.87429976,-0.33907983,-0.34731087,0.38029194,-0.03388166,-0.92424566,,0.19842733,-1.6514837,-4.016938,-0.9999529,0.009245254,0.0029845026,0.008645774,0.98697376,-0.16064884,-0.0044308645,-0.16061544,-0.98700714,,-0.20918566536411928,-0.11129230345044941,0.15482758131000002,0.00020968994348452436,0.0,0.0,0.0,,-1.5063885517133586,0.04095365243201257,0.07533000448,0.0012581396609071462,-0.5488688195577742,0.42126516482326365,-0.0003266881322685593
0.09409041499975501,,0.2045654,-1.5895123,-3.96319,-0.58325076,-0.647305,-0.49072903,-0.8044256,0.544158,0.23830998,0.112774864,0.5337494,-0.83808917,,0.15136829,-1.5357586,-3.679825,0.30162567,-0.9401474,0.15857206,-0.87429976,-0.33907983,-0.34731087,0.38029194,-0.03388166,-0.92424566,,0.19842733,-1.6514837,-4.016938,-0.9999529,0.009245254,0.0029845026,0.008645774,0.98697376,-0.16064884,-0.0044308645,-0.16061544,-0.98700714,,-0.20919338809699353,-0.11129230345044941,0.15482758131000002,0.00020968994348452436,0.0,0.0,0.0,,-1.5063885517133586,0.04095365243201257,0.07533000448,0.0012581396609071462,-0.5488688195577742,0.42126516482326365,-0.0003266881322685593
0.11848065100002714,,0.20456466,-1.5895118,-3.9631894,-0.5832502,-0.64730173,-0.490734,-0.8044261,0.5441555,0.23831417,0.1127744,0.53375596,-0.83808506,,0.15136829,-1.5357586,-3.679825,0.30162567,-0.9401474,0.15857206,-0.87429976,-0.33907983,-0.34731087,0.38029194,-0.03388166,-0.92424566,,0.19842733,-1.6514837,-4.016938,-0.9999529,0.009245254,0.0029845026,0.008645774,0.98697376,-0.16064884,-0.0044308645,-0.16061544,-0.98700714,,-0.20918566536411928,-0.11129230345044941,0.15482758131000002,0.00020968994348452436,0.0,0.0,0.0,,-1.5063885517133586,0.04095365243201257,0.07533000448,0.0012581396609071462,-0.5488688195577742,0.42126516482326365,-0.0003266881322685593
0.14661255800001527,,0.20456466,-1.5895118,-3.9631894,-0.5832502,-0.64730173,-0.490734,-0.8044261,0.5441555,0.23831417,0.1127744,0.53375596,-0.83808506,,0.1513687,-1.5357584,-3.6798248,0.3016227,-0.94014734,0.15857796,-0.87430143,-0.33907917,-0.34730724,0.3802904,-0.033889193,-0.9242461,,0.19842733,-1.6514837,-4.016938,-0.9999529,0.009245254,0.0029845026,0.008645774,0.98697376,-0.16064884,-0.0044308645,-0.16061544,-0.98700714,,-0.20918566536411928,-0.11129230345044941,0.15482758131000002,0.00020968994348452436,0.0,0.0,0.0,,-1.506396274446233,0.04095365243201257,0.07533000448,0.0012581396609071462,-0.5488688195577742,0.42126516482326365,-0.0003266881322685593
0.17375384900014978,,0.20459951,-1.5895452,-3.9631777,-0.583213,-0.6473179,-0.4907571,-0.8044537,0.54411787,0.23830663,0.11276957,0.5337748,-0.8380737,,0.15127194,-1.5357656,-3.6797872,0.30151653,-0.9401821,0.15857367,-0.87431866,-0.3389808,-0.3473599,0.38033497,-0.033909176,-0.924227,,0.19841929,-1.6514827,-4.0169296,-0.9999529,0.009248618,0.0029847228,0.008649055,0.98697376,-0.1606488,-0.004431622,-0.1606154,-0.98700714,,-0.20918566536411928,-0.11129230345044941,0.15482758131000002,0.00020968994348452436,0.0,0.0,0.0,,-1.506396274446233,0.04095365243201257,0.07533000448,0.0012581396609071462,-0.5488688195577742,0.42126516482326365,-0.0003266881322685593
0.20238603600000715,,0.20459884,-1.5895461,-3.9631777,-0.5832092,-0.6473179,-0.4907616,-0.8044555,0.54411787,0.23830041,0.11277604,0.5337748,-0.8380728,,0.15127154,-1.5357659,-3.6797874,0.3015195,-0.94018215,0.1585678,-0.87431693,-0.33898145,-0.34736353,0.38033652,-0.033901636,-0.92422664,,0.19841929,-1.6514827,-4.0169296,-0.9999529,0.009248618,0.0029847228,0.008649055,0.98697376,-0.1606488,-0.004431622,-0.1606154,-0.98700714,,-0.20918566536411928,-0.11130002618332363,0.15482758131000002,0.00020968994348452436,0.0,0.0,0.0,,-1.5063885517133586,0.04095365243201257,0.07533000448,0.0012581396609071462,-0.5488688195577742,0.42126516482326365,-0.0003266881322685593
0.23162414099988382,,0.20459951,-1.5895452,-3.9631777,-0.583213,-0.6473179,-0.4907571,-0.8044537,0.54411787,0.23830663,0.11276957,0.5337748,-0.8380737,,0.15127154,-1.5357659,-3.6797874,0.3015195,-0.94018215,0.1585678,-0.87431693,-0.33898145,-0.34736353,0.38033652,-0.033901636,-0.92422664,,0.19841929,-1.6514827,-4.0169296,-0.9999529,0.009248618,0.0029847228,0.008649055,0.98697376,-0.1606488,-0.004431622,-0.1606154,-0.98700714,,-0.20918566536411928,-0.11129230345044941,0.15482758131000002,0.00020968994348452436,0.0,0.0,0.0,,-1.5063885517133586,0.04095365243201257,0.07533000448,0.0012581396609071462,-0.5488688195577742,0.42126516482326365,-0.0003266881322685593
0.25103923400001804,,0.20459951,-1.5895452,-3.9631777,-0.583213,-0.6473179,-0.4907571,-0.8044537,0.54411787,0.23830663,0.11276957,0.5337748,-0.8380737,,0.15127194,-1.5357656,-3.6797872,0.30151653,-0.9401821,0.15857367,-0.87431866,-0.3389808,-0.3473599,0.38033497,-0.033909176,-0.924227,,0.19841929,-1.6514827,-4.0169296,-0.9999529,0.009248618,0.0029847228,0.008649055,0.98697376,-0.1606488,-0.004431622,-0.1606154,-0.98700714,,-0.20918566536411928,-0.11129230345044941,0.15482758131000002,0.00020968994348452436,0.0,0.0,0.0,,-1.506396274446233,0.04095365243201257,0.07533000448,0.0012581396609071462,-0.5488688195577742,0.42126516482326365,-0.0003266881322685593
0.27932388899989746,,0.20460024,-1.5895458,-3.9631784,-0.5832135,-0.64732105,-0.49075213,-0.80445325,0.5441204,0.23830242,0.11277002,0.5337683,-0.8380778,,0.15127194,-1.5357656,-3.6797872,0.30151653,-0.9401821,0.15857367,-0.87431866,-0.3389808,-0.3473599,0.38033497,-0.033909176,-0.924227,,0.19841929,-1.6514827,-4.0169296,-0.9999529,0.009248618,0.0029847228,0.008649055,0.98697376,-0.1606488,-0.004431622,-0.1606154,-0.98700714,,-0.20919338809699353,-0.11129230345044941,0.15482758131000002,0.00020968994348452436,0.0,0.0,0.0,,-1.506396274446233,0.04095365243201257,0.07533000448,0.0012581396609071462,-0.5488688195577742,0.42126516482326365,-0.0003266881322685593
0.30223862499997267,,0.20459951,-1.5895452,-3.9631777,-0.583213,-0.6473179,-0.4907571,-0.8044537,0.54411787,0.23830663,0.11276957,0.5337748,-0.8380737,,0.15127236,-1.5357654,-3.679787,0.30151355,-0.94018203,0.15857957,-0.87432045,-0.33898014,-0.34735626,0.38033342,-0.033916708,-0.92422736,,0.19841929,-1.6514827,-4.0169296,-0.9999529,0.009248618,0.0029847228,0.008649055,0.98697376,-0.1606488,-0.004431622,-0.1606154,-0.98700714,,-0.20918566536411928,-0.11129230345044941,0.15482758131000002,0.00020968994348452436,0.0,0.0,0.0,,-1.506403997179107,0.04095365243201257,0.07533000448,0.0012581396609071462,-0.5488688195577742,0.42126516482326365,-0.0003266881322685593
0.3263395280000623,,0.20459951,-1.5895452,-3.9631777,-0.583213,-0.6473179,-0.4907571,-0.8044537,0.54411787,0.23830663,0.11276957,0.5337748,-0.8380737,,0.15127194,-1.5357656,-3.6797872,0.30151653,-0.9401821,0.15857367,-0.87431866,-0.3389808,-0.3473599,0.38033497,-0.033909176,-0.924227,,0.19841929,-1.6514827,-4.0169296,-0.9999529,0.009248618,0.0029847228,0.008649055,0.98697376,-0.1606488,-0.004431622,-0.1606154,-0.98700714,,-0.20918566536411928,-0.11129230345044941,0.15482758131000002,0.00020968994348452436,0.0,0.0,0.0,,-1.506396274446233,0.04095365243201257,0.07533000448,0.0012581396609071462,-0.5488688195577742,0.42126516482326365,-0.0003266881322685593
0.3501065909999852,,0.20459884,-1.5895461,-3.9631777,-0.5832092,-0.6473179,-0.4907616,-0.8044555,0.54411787,0.23830041,0.11277604,0.5337748,-0.8380728,,0.15127154,-1.5357659,-3.6797874,0.3015195,-0.94018215,0.1585678,-0.87431693,-0.33898145,-0.34736353,0.38033652,-0.033901636,-0.92422664,,0.19841929,-1.6514827,-4.0169296,-0.9999529,0.009248618,0.0029847228,0.008649055,0.98697376,-0.1606488,-0.004431622,-0.1606154,-0.98700714,,-0.20918566536411928,-0.11130002618332363,0.15482758131000002,0.00020968994348452436,0.0,0.0,0.0,,-1.5063885517133586,0.04095365243201257,0.07533000448,0.0012581396609071462,-0.5488688195577742,0.42126516482326365,-0.0003266881322685593
0.3725293419997797,,0.20459884,-1.5895461,-3.9631777,-0.5832092,-0.6473179,-0.4907616,-0.8044555,0.54411787,0.23830041,0.11277604,0.5337748,-0.8380728,,0.15127154,-1.5357659,-3.6797874,0.3015195,-0.94018215,0.1585678,-0.87431693,-0.33898145,-0.34736353,0.38033652,-0.033901636,-0.92422664,,0.19841929,-1.6514827,-4.0169296,-0.9999529,0.009248618,0.0029847228,0.008649055,0.98697376,-0.1606488,-0.004431622,-0.1606154,-0.98700714,,-0.20918566536411928,-0.11130002618332363,0.15482758131000002,0.00020968994348452436,0.0,0.0,0.0,,-1.5063885517133586,0.04095365243201257,0.07533000448,0.0012581396609071462,-0.5488688195577742,0.42126516482326365,-0.0003266881322685593
0.3998705459998746,,0.20460024,-1.5895458,-3.9631784,-0.5832135,-0.64732105,-0.49075213,-0.80445325,0.5441204,0.23830242,0.11277002,0.5337683,-0.8380778,,0.15127154,-1.5357659,-3.6797874,0.3015195,-0.94018215,0.1585678,-0.87431693,-0.33898145,-0.34736353,0.38033652,-0.033901636,-0.92422664,,0.19841929,-1.6514827,-4.0169296,-0.9999529,0.009248618,0.0029847228,0.008649055,0.98697376,-0.1606488,-0.004431622,-0.1606154,-0.98700714,,-0.20919338809699353,-0.11129230345044941,0.15482758131000002,0.00020968994348452436,0.0,0.0,0.0,,-1.5063885517133586,0.04095365243201257,0.07533000448,0.0012581396609071462,-0.5488688195577742,0.42126516482326365,-0.0003266881322685593
0.4218963089997487,,0.20459951,-1.5895452,-3.9631777,-0.583213,-0.6473179,-0.4907571,-0.8044537,0.54411787,0.23830663,0.11276957,0.5337748,-0.8380737,,0.15127154,-1.5357659,-3.6797874,0.3015195,-0.94018215,0.1585678,-0.87431693,-0.33898145,-0.34736353,0.38033652,-0.033901636,-0.92422664,,0.19841929,-1.6514827,-4.0169296,-0.9999529,0.009248618,0.0029847228,0.008649055,0.98697376,-0.1606488,-0.004431622,-0.1606154,-0.98700714,,-0.20918566536411928,-0.11129230345044941,0.15482758131000002,0.00020968994348452436,0.0,0.0,0.0,,-1.5063885517133586,0.04095365243201257,0.07533000448,0.0012581396609071462,-0.5488688195577742,0.42126516482326365,-0.0003266881322685593
0.4486980570000014,,0.20459957,-1.5895468,-3.9631782,-0.583074,-0.64744335,-0.49075663,-0.8045691,0.54395163,0.23829624,0.112664565,0.5337919,-0.83807695,,0.15127154,-1.5357659,-3.6797874,0.3015195,-0.94018215,0.1585678,-0.87431693,-0.33898145,-0.34736353,0.38033652,-0.033901636,-0.92422664,,0.19841929,-1.6514827,-4.0169296,-0.9999529,0.009248618,0.0029847228,0.008649055,0.98697376,-0.1606488,-0.004431622,-0.1606154,-0.98700714,,-0.20919338809699353,-0.11130002618332363,0.15482758131000002,0.0,0.0,0.0,0.0,,-1.5063885517133586,0.04095365243201257,0.07533000448,0.0012581396609071462,-0.5488688195577742,0.42126516482326365,-0.0003266881322685593
0.4715035459998944,,0.20459957,-1.5895468,-3.9631782,-0.58293825,-0.64756566,-0.49075663,-0.8046832,0.54378295,0.23829624,0.11255264,0.5338155,-0.83807695,,0.1512718,-1.5357664,-3.6797874,0.3015154,-0.9401831,0.15856995,-0.8743156,-0.33897868,-0.34736973,0.3803429,-0.03390284,-0.92422396,,0.19841929,-1.6514827,-4.0169296,-0.9999529,0.009248618,0.0029847228,0.008649055,0.98697376,-0.1606488,-0.004431622,-0.1606154,-0.98700714,,-0.20919338809699353,-0.11130002618332363,0.15482758131000002,-0.00020968994348452436,0.0,0.0,0.0,,-1.5063885517133586,0.04094592969913835,0.07533000448,0.0012581396609071462,-0.5488688195577742,0.42126516482326365,-0.0003266881322685593
0.4957555229998434,,0.20459951,-1.5895452,-3.9631777,-0.5829414,-0.6475623,-0.4907571,-0.80468184,0.54378045,0.23830663,0.112545714,0.533822,-0.8380737,,0.15127194,-1.5357656,-3.6797872,0.30151653,-0.9401821,0.15857367,-0.87431866,-0.3389808,-0.3473599,0.38033497,-0.033909176,-0.924227,,0.19841929,-1.6514827,-4.0169296,-0.9999529,0.009248618,0.0029847228,0.008649055,0.98697376,-0.1606488,-0.004431622,-0.1606154,-0.98700714,,-0.20918566536411928,-0.11129230345044941,0.15482758131000002,-0.00020968994348452436,0.0,0.0,0.0,,-1.506396274446233,0.04095365243201257,0.07533000448,0.0012581396609071462,-0.5488688195577742,0.42126516482326365,-0.0003266881322685593
0.5177921909998986,,0.20459951,-1.5895452,-3.9631777,-0.5829414,-0.6475623,-0.4907571,-0.80468184,0.54378045,0.23830663,0.112545714,0.533822,-0.8380737,,0.15127194,-1.5357656,-3.6797872,0.30151653,-0.9401951,0.15849689,-0.87431866,-0.3389524,-0.3473876,0.38033497,-0.033833683,-0.92422974,,0.19841929,-1.6514827,-4.0169296,-0.9999529,0.009248618,0.0029847228,0.008649055,0.98697376,-0.1606488,-0.004431622,-0.1606154,-0.98700714,,-0.20918566536411928,-0.11129230345044941,0.15482758131000002,-0.00020968994348452436,0.0,0.0,0.0,,-1.506396274446233,0.04095365243201257,0.07533000448,0.0012581396609071462,-0.5488688195577742,0.42134684356340424,-0.0001633440661342779
0.5471336770001471,,0.20459884,-1.5895461,-3.9631777,-0.5829377,-0.6475623,-0.4907616,-0.8046836,0.54378045,0.23830041,0.11255217,0.533822,-0.8380728,,0.15127154,-1.5357659,-3.6797874,0.3015195,-0.9402081,0.15841423,-0.87431693,-0.33892468,-0.3474189,0.38033652,-0.03375066,-0.9242322,,0.19841929,-1.6514827,-4.0169296,-0.9999529,0.009248618,0.0029847228,0.008649055,0.98697376,-0.1606488,-0.004431622,-0.1606154,-0.98700714,,-0.20918566536411928,-0.11130002618332363,0.15482758131000002,-0.00020968994348452436,0.0,0.0,0.0,,-1.5063885517133586,0.04095365243201257,0.07533000448,0.0012581396609071462,-0.5488688195577742,0.4214285223035448,0.0
0.5716108560000066,,0.20460024,-1.5895458,-3.9631784,-0.58294195,-0.64756566,-0.49075213,-0.8046813,0.54378295,0.23830242,0.11254616,0.5338155,-0.8380778,,0.15127154,-1.5357659,-3.6797874,0.3015195,-0.9402081,0.15841423,-0.87431693,-0.33892468,-0.3474189,0.38033652,-0.03375066,-0.9242322,,0.19841929,-1.6514827,-4.0169296,-0.9999529,0.009248618,0.0029847228,0.008649055,0.98697376,-0.1606488,-0.004431622,-0.1606154,-0.98700714,,-0.20919338809699353,-0.11129230345044941,0.15482758131000002,-0.00020968994348452436,0.0,0.0,0.0,,-1.5063885517133586,0.04095365243201257,0.07533000448,0.0012581396609071462,-0.5488688195577742,0.4214285223035448,0.0
0.5940317949998644,,0.20460024,-1.5895458,-3.9631784,-0.58294195,-0.64756566,-0.49075213,-0.8046813,0.54378295,0.23830242,0.11254616,0.5338155,-0.8380778,,0.15127154,-1.5357659,-3.6797874,0.3015195,-0.9402081,0.15841423,-0.87431693,-0.33892468,-0.3474189,0.38033652,-0.03375066,-0.9242322,,0.19841929,-1.6514827,-4.0169296,-0.9999529,0.009248618,0.0029847228,0.008649055,0.98697376,-0.1606488,-0.004431622,-0.1606154,-0.98700714,,-0.20919338809699353,-0.11129230345044941,0.15482758131000002,-0.00020968994348452436,0.0,0.0,0.0,,-1.5063885517133586,0.04095365243201257,0.07533000448,0.0012581396609071462,-0.5488688195577742,0.4214285223035448,0.0
0.6164282899999307,,0.20460024,-1.5895458,-3.9631784,-0.58294195,-0.64756566,-0.49075213,-0.8046813,0.54378295,0.23830242,0.11254616,0.5338155,-0.8380778,,0.1512718,-1.5357664,-3.6797874,0.3015154,-0.940209,0.15841635,-0.8743156,-0.33892193,-0.34742507,0.3803429,-0.033751868,-0.92422944,,0.19841929,-1.6514827,-4.0169296,-0.9999529,0.009248618,0.0029847228,0.008649055,0.98697376,-0.1606488,-0.004431622,-0.1606154,-0.98700714,,-0.20919338809699353,-0.11129230345044941,0.15482758131000002,-0.00020968994348452436,0.0,0.0,0.0,,-1.5063885517133586,0.04094592969913835,0.07533000448,0.0012581396609071462,-0.5488688195577742,0.4214285223035448,0.0
0.6433984969999074,,0.20459884,-1.5895461,-3.9631777,-0.5829377,-0.6475623,-0.4907616,-0.8046836,0.54378045,0.23830041,0.11255217,0.533822,-0.8380728,,0.15127154,-1.5357659,-3.6797874,0.3015195,-0.9402081,0.15841423,-0.87431693,-0.33892468,-0.3474189,0.38033652,-0.03375066,-0.9242322,,0.19841929,-1.6514827,-4.0169296,-0.9999529,0.009248618,0.0029847228,0.008649055,0.98697376,-0.1606488,-0.004431622,-0.1606154,-0.98700714,,-0.20918566536411928,-0.11130002618332363,0.15482758131000002,-0.00020968994348452436,0.0,0.0,0.0,,-1.5063885517133586,0.04095365243201257,0.07533000448,0.0012581396609071462,-0.5488688195577742,0.4214285223035448,0.0
0.6686628170000404,,0.20460024,-1.5895458,-3.9631784,-0.58294195,-0.64756566,-0.49075213,-0.8046813,0.54378295,0.23830242,0.11254616,0.5338155,-0.8380778,,0.15127154,-1.5357659,-3.6797874,0.3015195,-0.9402081,0.15841423,-0.87431693,-0.33892468,-0.3474189,0.38033652,-0.03375066,-0.9242322,,0.19841929,-1.6514827,-4.0169296,-0.9999529,0.009248618,0.0029847228,0.008649055,0.98697376,-0.1606488,-0.004431622,-0.1606154,-0.98700714,,-0.20919338809699353,-0.11129230345044941,0.15482758131000002,-0.00020968994348452436,0.0,0.0,0.0,,-1.5063885517133586,0.04095365243201257,0.07533000448,0.0012581396609071462,-0.5488688195577742,0.4214285223035448,0.0
0.6943890809998265,,0.20459951,-1.5895452,-3.9631777,-0.5829414,-0.6475623,-0.4907571,-0.80468184,0.54378045,0.23830663,0.112545714,0.533822,-0.8380737,,0.15127194,-1.5357656,-3.6797872,0.30151653,-0.940208,0.1584201,-0.87431866,-0.33892405,-0.34741527,0.38033497,-0.0337582,-0.92423254,,0.19841929,-1.6514827,-4.0169296,-0.9999529,0.009248618,0.0029847228,0.008649055,0.98697376,-0.1606488,-0.004431622,-0.1606154,-0.98700714,,-0.20918566536411928,-0.11129230345044941,0.15482758131000002,-0.00020968994348452436,0.0,0.0,0.0,,-1.506396274446233,0.04095365243201257,0.07533000448,0.0012581396609071462,-0.5488688195577742,0.4214285223035448,0.0
0.716708626000127,,0.20459951,-1.5895452,-3.9631777,-0.5829414,-0.6475623,-0.4907571,-0.80468184,0.54378045,0.23830663,0.112545714,0.533822,-0.8380737,,0.15127194,-1.5357656,-3.6797872,0.30151653,-0.940208,0.1584201,-0.87431866,-0.33892405,-0.34741527,0.38033497,-0.0337582,-0.92423254,,0.19841929,-1.6514827,-4.0169296,-0.9999529,0.009248618,0.0029847228,0.008649055,0.98697376,-0.1606488,-0.004431622,-0.1606154,-0.98700714,,-0.20918566536411928,-0.11129230345044941,0.15482758131000002,-0.00020968994348452436,0.0,0.0,0.0,,-1.506396274446233,0.04095365243201257,0.07533000448,0.0012581396609071462,-0.5488688195577742,0.4214285223035448,0.0
0.7413056909999796,,0.20459951,-1.5895452,-3.9631777,-0.5829414,-0.6475623,-0.4907571,-0.80468184,0.54378045,0.23830663,0.112545714,0.533822,-0.8380737,,0.15127154,-1.5357659,-3.6797874,0.3015195,-0.9402081,0.15841423,-0.87431693,-0.33892468,-0.3474189,0.38033652,-0.03375066,-0.9242322,,0.19841929,-1.6514827,-4.0169296,-0.9999529,0.009248618,0.0029847228,0.008649055,0.98697376,-0.1606488,-0.004431622,-0.1606154,-0.98700714,,-0.20918566536411928,-0.11129230345044941,0.15482758131000002,-0.00020968994348452436,0.0,0.0,0.0,,-1.5063885517133586,0.04095365243201257,0.07533000448,0.0012581396609071462,-0.5488688195577742,0.4214285223035448,0.0
0.7675944630000231,,0.20459884,-1.5895461,-3.9631777,-0.5829377,-0.6475623,-0.4907616,-0.8046836,0.54378045,0.23830041,0.11255217,0.533822,-0.8380728,,0.15127194,-1.5357656,-3.6797872,0.30151653,-0.940208,0.1584201,-0.87431866,-0.33892405,-0.34741527,0.38033497,-0.0337582,-0.92423254,,0.19841929,-1.6514827,-4.0169296,-0.9999529,0.009248618,0.0029847228,0.008649055,0.98697376,-0.1606488,-0.004431622,-0.1606154,-0.98700714,,-0.20918566536411928,-0.11130002618332363,0.15482758131000002,-0.00020968994348452436,0.0,0.0,0.0,,-1.506396274446233,0.04095365243201257,0.07533000448,0.0012581396609071462,-0.5488688195577742,0.4214285223035448,0.0
0.7901799669998582,,0.20460099,-1.5895464,-3.9631789,-0.58294255,-0.64756894,-0.49074715,-0.8046809,0.5437855,0.23829825,0.11254662,0.533809,-0.8380819,,0.15127194,-1.5357656,-3.6797872,0.30151653,-0.940208,0.1584201,-0.87431866,-0.33892405,-0.34741527,0.38033497,-0.0337582,-0.92423254,,0.19841929,-1.6514827,-4.0169296,-0.9999529,0.009248618,0.0029847228,0.008649055,0.98697376,-0.1606488,-0.004431622,-0.1606154,-0.98700714,,-0.20920111082986775,-0.11129230345044941,0.15482758131000002,-0.00020968994348452436,0.0,0.0,0.0,,-1.506396274446233,0.04095365243201257,0.07533000448,0.0012581396609071462,-0.5488688195577742,0.4214285223035448,0.0
0.8152443959997981,,0.20460024,-1.5895458,-3.9631784,-0.58294195,-0.64756566,-0.49075213,-0.8046813,0.54378295,0.23830242,0.11254616,0.5338155,-0.8380778,,0.15127194,-1.5357656,-3.6797872,0.30151653,-0.940208,0.1584201,-0.87431866,-0.33892405,-0.34741527,0.38033497,-0.0337582,-0.92423254,,0.19841929,-1.6514827,-4.0169296,-0.9999529,0.009248618,0.0029847228,0.008649055,0.98697376,-0.1606488,-0.004431622,-0.1606154,-0.98700714,,-0.20919338809699353,-0.11129230345044941,0.15482758131000002,-0.00020968994348452436,0.0,0.0,0.0,,-1.506396274446233,0.04095365243201257,0.07533000448,0.0012581396609071462,-0.5488688195577742,0.4214285223035448,0.0
0.8365784309999071,,0.20459884,-1.5895461,-3.9631777,-0.5829377,-0.6475623,-0.4907616,-0.8046836,0.54378045,0.23830041,0.11255217,0.533822,-0.8380728,,0.15127236,-1.5357654,-3.679787,0.30151355,-0.94020796,0.15842597,-0.87432045,-0.3389234,-0.34741163,0.38033342,-0.033765726,-0.9242329,,0.19841929,-1.6514827,-4.0169296,-0.9999529,0.009248618,0.0029847228,0.008649055,0.98697376,-0.1606488,-0.004431622,-0.1606154,-0.98700714,,-0.20918566536411928,-0.11130002618332363,0.15482758131000002,-0.00020968994348452436,0.0,0.0,0.0,,-1.506403997179107,0.04095365243201257,0.07533000448,0.0012581396609071462,-0.5488688195577742,0.4214285223035448,0.0
0.8650179309997839,,0.20460024,-1.5895458,-3.9631784,-0.58294195,-0.64756566,-0.49075213,-0.8046813,0.54378295,0.23830242,0.11254616,0.5338155,-0.8380778,,0.15127194,-1.5357656,-3.6797872,0.30151653,-0.940208,0.1584201,-0.87431866,-0.33892405,-0.34741527,0.38033497,-0.0337582,-0.92423254,,0.19841929,-1.6514827,-4.0169296,-0.9999529,0.009248618,0.0029847228,0.008649055,0.98697376,-0.1606488,-0.004431622,-0.1606154,-0.98700714,,-0.20919338809699353,-0.11129230345044941,0.15482758131000002,-0.00020968994348452436,0.0,0.0,0.0,,-1.506396274446233,0.04095365243201257,0.07533000448,0.0012581396609071462,-0.5488688195577742,0.4214285223035448,0.0
0.8849125420001656,,0.20460024,-1.5895458,-3.9631784,-0.58294195,-0.64756566,-0.49075213,-0.8046813,0.54378295,0.23830242,0.11254616,0.5338155,-0.8380778,,0.15127194,-1.5357656,-3.6797872,0.30151653,-0.940208,0.1584201,-0.87431866,-0.33892405,-0.34741527,0.38033497,-0.0337582,-0.92423254,,0.19841929,-1.6514827,-4.0169296,-0.9999529,0.009248618,0.0029847228,0.008649055,0.98697376,-0.1606488,-0.004431622,-0.1606154,-0.98700714,,-0.20919338809699353,-0.11129230345044941,0.15482758131000002,-0.00020968994348452436,0.0,0.0,0.0,,-1.506396274446233,0.04095365243201257,0.07533000448,0.0012581396609071462,-0.5488688195577742,0.4214285223035448,0.0
0.9117497339998408,,0.20459884,-1.5895461,-3.9631777,-0.5829377,-0.6475623,-0.4907616,-0.8046836,0.54378045,0.23830041,0.11255217,0.533822,-0.8380728,,0.15127154,-1.5357659,-3.6797874,0.3015195,-0.9402081,0.15841423,-0.87431693,-0.33892468,-0.3474189,0.38033652,-0.03375066,-0.9242322,,0.19841929,-1.6514827,-4.0169296,-0.9999529,0.009248618,0.0029847228,0.008649055,0.98697376,-0.1606488,-0.004431622,-0.1606154,-0.98700714,,-0.20918566536411928,-0.11130002618332363,0.15482758131000002,-0.00020968994348452436,0.0,0.0,0.0,,-1.5063885517133586,0.04095365243201257,0.07533000448,0.0012581396609071462,-0.5488688195577742,0.4214285223035448,0.0
0.935139061999962,,0.20460024,-1.5895458,-3.9631784,-0.58294195,-0.64756566,-0.49075213,-0.8046813,0.54378295,0.23830242,0.11254616,0.5338155,-0.8380778,,0.15127154,-1.5357659,-3.6797874,0.3015195,-0.9402081,0.15841423,-0.87431693,-0.33892468,-0.3474189,0.38033652,-0.03375066,-0.9242322,,0.19841929,-1.6514827,-4.0169296,-0.9999529,0.009248618,0.0029847228,0.008649055,0.98697376,-0.1606488,-0.004431622,-0.1606154,-0.98700714,,-0.20919338809699353,-0.11129230345044941,0.15482758131000002,-0.00020968994348452436,0.0,0.0,0.0,,-1.5063885517133586,0.04095365243201257,0.07533000448,0.0012581396609071462,-0.5488688195577742,0.4214285223035448,0.0
0.9578562809997493,,0.20459951,-1.5895452,-3.9631777,-0.5829414,-0.6475623,-0.4907571,-0.80468184,0.54378045,0.23830663,0.112545714,0.533822,-0.8380737,,0.15127236,-1.5357654,-3.679787,0.30151355,-0.94020796,0.15842597,-0.87432045,-0.3389234,-0.34741163,0.38033342,-0.033765726,-0.9242329,,0.19841929,-1.6514827,-4.0169296,-0.9999529,0.009248618,0.0029847228,0.008649055,0.98697376,-0.1606488,-0.004431622,-0.1606154,-0.98700714,,-0.20918566536411928,-0.11129230345044941,0.15482758131000002,-0.00020968994348452436,0.0,0.0,0.0,,-1.506403997179107,0.04095365243201257,0.07533000448,0.0012581396609071462,-0.5488688195577742,0.4214285223035448,0.0
0.9811210879997816,,0.20460099,-1.5895464,-3.9631789,-0.58294255,-0.64756894,-0.49074715,-0.8046809,0.5437855,0.23829825,0.11254662,0.533809,-0.8380819,,0.15127194,-1.5357656,-3.6797872,0.30151653,-0.940208,0.1584201,-0.87431866,-0.33892405,-0.34741527,0.38033497,-0.0337582,-0.92423254,,0.19841929,-1.6514827,-4.0169296,-0.9999529,0.009248618,0.0029847228,0.008649055,0.98697376,-0.1606488,-0.004431622,-0.1606154,-0.98700714,,-0.20920111082986775,-0.11129230345044941,0.15482758131000002,-0.00020968994348452436,0.0,0.0,0.0,,-1.506396274446233,0.04095365243201257,0.07533000448,0.0012581396609071462,-0.5488688195577742,0.4214285223035448,0.0
1.0082775519999814,,0.20459884,-1.5895461,-3.9631777,-0.5829377,-0.6475623,-0.4907616,-0.8046836,0.54378045,0.23830041,0.11255217,0.533822,-0.8380728,,0.15127154,-1.5357659,-3.6797874,0.3015195,-0.9402081,0.15841423,-0.87431693,-0.33892468,-0.3474189,0.38033652,-0.03375066,-0.9242322,,0.19841929,-1.6514827,-4.0169296,-0.9999529,0.009248618,0.0029847228,0.008649055,0.98697376,-0.1606488,-0.004431622,-0.1606154,-0.98700714,,-0.20918566536411928,-0.11130002618332363,0.15482758131000002,-0.00020968994348452436,0.0,0.0,0.0,,-1.5063885517133586,0.04095365243201257,0.07533000448,0.0012581396609071462,-0.5488688195577742,0.4214285223035448,0.0
1.032137356000021,,0.20459884,-1.5895461,-3.9631777,-0.5829377,-0.6475623,-0.4907616,-0.8046836,0.54378045,0.23830041,0.11255217,0.533822,-0.8380728,,0.15127236,-1.5357654,-3.679787,0.30151355,-0.94020796,0.15842597,-0.87432045,-0.3389234,-0.34741163,0.38033342,-0.033765726,-0.9242329,,0.19841929,-1.6514827,-4.0169296,-0.9999529,0.009248618,0.0029847228,0.008649055,0.98697376,-0.1606488,-0.004431622,-0.1606154,-0.98700714,,-0.20918566536411928,-0.11130002618332363,0.15482758131000002,-0.00020968994348452436,0.0,0.0,0.0,,-1.506403997179107,0.04095365243201257,0.07533000448,0.0012581396609071462,-0.5488688195577742,0.4214285223035448,0.0
1.0602810129998943,,0.20460099,-1.5895464,-3.9631789,-0.58294255,-0.64756894,-0.49074715,-0.8046809,0.5437855,0.23829825,0.11254662,0.533809,-0.8380819,,0.15127194,-1.5357656,-3.6797872,0.30151653,-0.940208,0.1584201,-0.87431866,-0.33892405,-0.34741527,0.38033497,-0.0337582,-0.92423254,,0.19841929,-1.6514827,-4.0169296,-0.9999529,0.009248618,0.0029847228,0.008649055,0.98697376,-0.1606488,-0.004431622,-0.1606154,-0.98700714,,-0.20920111082986775,-0.11129230345044941,0.15482758131000002,-0.00020968994348452436,0.0,0.0,0.0,,-1.506396274446233,0.04095365243201257,0.07533000448,0.0012581396609071462,-0.5488688195577742,0.4214285223035448,0.0
1.0831159310000658,,0.20459951,-1.5895452,-3.9631777,-0.5829414,-0.6475623,-0.4907571,-0.80468184,0.54378045,0.23830663,0.112545714,0.533822,-0.8380737,,0.15127154,-1.5357659,-3.6797874,0.3015195,-0.9402081,0.15841423,-0.87431693,-0.33892468,-0.3474189,0.38033652,-0.03375066,-0.9242322,,0.19841929,-1.6514827,-4.0169296,-0.9999529,0.009248618,0.0029847228,0.008649055,0.98697376,-0.1606488,-0.004431622,-0.1606154,-0.98700714,,-0.20918566536411928,-0.11129230345044941,0.15482758131000002,-0.00020968994348452436,0.0,0.0,0.0,,-1.5063885517133586,0.04095365243201257,0.07533000448,0.0012581396609071462,-0.5488688195577742,0.4214285223035448,0.0
1.109370146999936,,0.20459884,-1.5895461,-3.9631777,-0.5829377,-0.6475623,-0.4907616,-0.8046836,0.54378045,0.23830041,0.11255217,0.533822,-0.8380728,,0.15127154,-1.5357659,-3.6797874,0.3015195,-0.9402081,0.15841423,-0.87431693,-0.33892468,-0.3474189,0.38033652,-0.03375066,-0.9242322,,0.19841929,-1.6514827,-4.0169296,-0.9999529,0.009248618,0.0029847228,0.008649055,0.98697376,-0.1606488,-0.004431622,-0.1606154,-0.98700714,,-0.20918566536411928,-0.11130002618332363,0.15482758131000002,-0.00020968994348452436,0.0,0.0,0.0,,-1.5063885517133586,0.04095365243201257,0.07533000448,0.0012581396609071462,-0.5488688195577742,0.4214285223035448,0.0
1.1392460940001001,,0.20459951,-1.5895452,-3.9631777,-0.5829414,-0.6475623,-0.4907571,-0.80468184,0.54378045,0.23830663,0.112545714,0.533822,-0.8380737,,0.15127154,-1.5357659,-3.6797874,0.3015195,-0.9402081,0.15841423,-0.87431693,-0.33892468,-0.3474189,0.38033652,-0.03375066,-0.9242322,,0.19841929,-1.6514827,-4.0169296,-0.9999529,0.009248618,0.0029847228,0.008649055,0.98697376,-0.1606488,-0.004431622,-0.1606154,-0.98700714,,-0.20918566536411928,-0.11129230345044941,0.15482758131000002,-0.00020968994348452436,0.0,0.0,0.0,,-1.5063885517133586,0.04095365243201257,0.07533000448,0.0012581396609071462,-0.5488688195577742,0.4214285223035448,0.0
1.1635038280001027,,0.20459951,-1.5895452,-3.9631777,-0.5829414,-0.6475623,-0.4907571,-0.80468184,0.54378045,0.23830663,0.112545714,0.533822,-0.8380737,,0.15127194,-1.5357656,-3.6797872,0.30151653,-0.940208,0.1584201,-0.87431866,-0.33892405,-0.34741527,0.38033497,-0.0337582,-0.92423254,,0.19841929,-1.6514827,-4.0169296,-0.9999529,0.009248618,0.0029847228,0.008649055,0.98697376,-0.1606488,-0.004431622,-0.1606154,-0.98700714,,-0.20918566536411928,-0.11129230345044941,0.15482758131000002,-0.00020968994348452436,0.0,0.0,0.0,,-1.506396274446233,0.04095365243201257,0.07533000448,0.0012581396609071462,-0.5488688195577742,0.4214285223035448,0.0
1.184479630000169,,0.20459884,-1.5895461,-3.9631777,-0.5829377,-0.6475623,-0.4907616,-0.8046836,0.54378045,0.23830041,0.11255217,0.533822,-0.8380728,,0.15127154,-1.5357659,-3.6797874,0.3015195,-0.9402081,0.15841423,-0.87431693,-0.33892468,-0.3474189,0.38033652,-0.03375066,-0.9242322,,0.19841929,-1.6514827,-4.0169296,-0.9999529,0.009248618,0.0029847228,0.008649055,0.98697376,-0.1606488,-0.004431622,-0.1606154,-0.98700714,,-0.20918566536411928,-0.11130002618332363,0.15482758131000002,-0.00020968994348452436,0.0,0.0,0.0,,-1.5063885517133586,0.04095365243201257,0.07533000448,0.0012581396609071462,-0.5488688195577742,0.4214285223035448,0.0
1.2122532389998923,,0.20460024,-1.5895458,-3.9631784,-0.58294195,-0.64756566,-0.49075213,-0.8046813,0.54378295,0.23830242,0.11254616,0.5338155,-0.8380778,,0.15127154,-1.5357659,-3.6797874,0.3015195,-0.9402081,0.15841423,-0.87431693,-0.33892468,-0.3474189,0.38033652,-0.03375066,-0.9242322,,0.19841929,-1.6514827,-4.0169296,-0.9999529,0.009248618,0.0029847228,0.008649055,0.98697376,-0.1606488,-0.004431622,-0.1606154,-0.98700714,,-0.20919338809699353,-0.11129230345044941,0.15482758131000002,-0.00020968994348452436,0.0,0.0,0.0,,-1.5063885517133586,0.04095365243201257,0.07533000448,0.0012581396609071462,-0.5488688195577742,0.4214285223035448,0.0
1.2376479129998188,,0.20460024,-1.5895458,-3.9631784,-0.58294195,-0.64756566,-0.49075213,-0.8046813,0.54378295,0.23830242,0.11254616,0.5338155,-0.8380778,,0.15127154,-1.5357659,-3.6797874,0.3015195,-0.9402081,0.15841423,-0.87431693,-0.33892468,-0.3474189,0.38033652,-0.03375066,-0.9242322,,0.19841929,-1.6514827,-4.0169296,-0.9999529,0.009248618,0.0029847228,0.008649055,0.98697376,-0.1606488,-0.004431622,-0.1606154,-0.98700714,,-0.20919338809699353,-0.11129230345044941,0.15482758131000002,-0.00020968994348452436,0.0,0.0,0.0,,-1.5063885517133586,0.04095365243201257,0.07533000448,0.0012581396609071462,-0.5488688195577742,0.4214285223035448,0.0
1.2633101239998723,,0.20460099,-1.5895464,-3.9631789,-0.58294255,-0.64756894,-0.49074715,-0.8046809,0.5437855,0.23829825,0.11254662,0.533809,-0.8380819,,0.15127194,-1.5357656,-3.6797872,0.30151653,-0.940208,0.1584201,-0.87431866,-0.33892405,-0.34741527,0.38033497,-0.0337582,-0.92423254,,0.19841929,-1.6514827,-4.0169296,-0.9999529,0.009248618,0.0029847228,0.008649055,0.98697376,-0.1606488,-0.004431622,-0.1606154,-0.98700714,,-0.20920111082986775,-0.11129230345044941,0.15482758131000002,-0.00020968994348452436,0.0,0.0,0.0,,-1.506396274446233,0.04095365243201257,0.07533000448,0.0012581396609071462,-0.5488688195577742,0.4214285223035448,0.0
1.2843618849997256,,0.20459951,-1.5895452,-3.9631777,-0.5829414,-0.6475623,-0.4907571,-0.80468184,0.54378045,0.23830663,0.112545714,0.533822,-0.8380737,,0.15127154,-1.5357659,-3.6797874,0.3015195,-0.9402081,0.15841423,-0.87431693,-0.33892468,-0.3474189,0.38033652,-0.03375066,-0.9242322,,0.19841929,-1.6514827,-4.0169296,-0.9999529,0.009248618,0.0029847228,0.008649055,0.98697376,-0.1606488,-0.004431622,-0.1606154,-0.98700714,,-0.20918566536411928,-0.11129230345044941,0.15482758131000002,-0.00020968994348452436,0.0,0.0,0.0,,-1.5063885517133586,0.04095365243201257,0.07533000448,0.0012581396609071462,-0.5488688195577742,0.4214285223035448,0.0
1.3123972099997445,,0.20454504,-1.5895133,-3.9631803,-0.583264,-0.64727515,-0.49075282,-0.804413,0.5441724,0.2383193,0.11279595,0.533771,-0.8380726,,0.15129238,-1.535771,-3.6797986,0.3015424,-0.9401972,0.15843466,-0.8743174,-0.3389528,-0.34739044,0.38031733,-0.033769235,-0.9242394,,0.19839165,-1.651476,-4.0169353,-0.99995244,0.009298436,0.0029879906,0.008697701,0.98697346,-0.16064812,-0.0044428427,-0.16061446,-0.98700726,,-0.20918566536411928,-0.11130002618332363,0.15482758131000002,0.00020968994348452436,0.0,0.0,0.0,,-1.506396274446233,0.04095365243201257,0.07533000448,0.0012581396609071462,-0.5488688195577742,0.4214285223035448,0.0
1.3332539240000187,,0.20454645,-1.589513,-3.963181,-0.58326834,-0.6472784,-0.4907433,-0.8044107,0.54417497,0.23832132,0.112789944,0.5337644,-0.83807755,,0.1512928,-1.5357708,-3.6797984,0.30153945,-0.9401843,0.15851733,-0.87431914,-0.3389805,-0.34735912,0.38031578,-0.033852268,-0.92423695,,0.19839165,-1.651476,-4.0169353,-0.99995244,0.009298436,0.0029879906,0.008697701,0.98697346,-0.16064812,-0.0044428427,-0.16061446,-0.98700726,,-0.20919338809699353,-0.11129230345044941,0.15482758131000002,0.00020968994348452436,0.0,0.0,0.0,,-1.506403997179107,0.04095365243201257,0.07533000448,0.0012581396609071462,-0.5488688195577742,0.42134684356340424,-0.0001633440661342779
1.354405252000106,,0.20454645,-1.589513,-3.963181,-0.58326834,-0.6472784,-0.4907433,-0.8044107,0.54417497,0.23832132,0.112789944,0.5337644,-0.83807755,,0.15129156,-1.5357715,-3.6797988,0.30154836,-0.9401715,0.15857647,-0.874314,-0.33901083,-0.3473423,0.38032043,-0.033905134,-0.92423314,,0.19839165,-1.651476,-4.0169353,-0.99995244,0.009298436,0.0029879906,0.008697701,0.98697346,-0.16064812,-0.0044428427,-0.16061446,-0.98700726,,-0.20919338809699353,-0.11129230345044941,0.15482758131000002,0.00020968994348452436,0.0,0.0,0.0,,-1.5063808289804843,0.04095365243201257,0.07533000448,0.0012581396609071462,-0.5488688195577742,0.42126516482326365,-0.0003266881322685593
1.3829680049998387,,0.20454504,-1.5895133,-3.9631803,-0.583264,-0.64727515,-0.49075282,-0.804413,0.5441724,0.2383193,0.11279595,0.533771,-0.8380726,,0.15129265,-1.5357714,-3.6797986,0.30153835,-0.9401723,0.15859038,-0.8743161,-0.33900678,-0.34734118,0.38032377,-0.033921428,-0.9242312,,0.19839165,-1.651476,-4.0169353,-0.99995244,0.009298436,0.0029879906,0.008697701,0.98697346,-0.16064812,-0.0044428427,-0.16061446,-0.98700726,,-0.20918566536411928,-0.11130002618332363,0.15482758131000002,0.00020968994348452436,0.0,0.0,0.0,,-1.506396274446233,0.04094592969913835,0.07533000448,0.0012581396609071462,-0.5488688195577742,0.42126516482326365,-0.0003266881322685593
1.4101803479998125,,0.2045457,-1.5895123,-3.9631803,-0.5832678,-0.64727515,-0.49074832,-0.80441123,0.5441724,0.23832554,0.11278948,0.533771,-0.8380735,,0.15129238,-1.535771,-3.6797986,0.3015424,-0.94017136,0.15858825,-0.8743174,-0.33900952,-0.34733504,0.38031733,-0.03392022,-0.9242339,,0.19839165,-1.651476,-4.0169353,-0.99995244,0.009298436,0.0029879906,0.008697701,0.98697346,-0.16064812,-0.0044428427,-0.16061446,-0.98700726,,-0.20918566536411928,-0.11129230345044941,0.15482758131000002,0.00020968994348452436,0.0,0.0,0.0,,-1.506396274446233,0.04095365243201257,0.07533000448,0.0012581396609071462,-0.5488688195577742,0.42126516482326365,-0.0003266881322685593
1.43406028399977,,0.20454364,-1.5895137,-3.9631796,-0.58325964,-0.64727193,-0.49076226,-0.80441535,0.5441699,0.23831728,0.112801984,0.5337775,-0.83806765,,0.15129238,-1.535771,-3.6797986,0.3015424,-0.94017136,0.15858825,-0.8743174,-0.33900952,-0.34733504,0.38031733,-0.03392022,-0.9242339,,0.19839165,-1.651476,-4.0169353,-0.99995244,0.009298436,0.0029879906,0.008697701,0.98697346,-0.16064812,-0.0044428427,-0.16061446,-0.98700726,,-0.20917794263124506,-0.11130774891619785,0.15482758131000002,0.00020968994348452436,0.0,0.0,0.0,,-1.506396274446233,0.04095365243201257,0.07533000448,0.0012581396609071462,-0.5488688195577742,0.42126516482326365,-0.0003266881322685593
1.4536332220000077,,0.20454578,-1.5895139,-3.9631808,-0.5832645,-0.6472784,-0.49074784,-0.8044126,0.54417497,0.23831512,0.11279641,0.5337644,-0.8380767,,0.15129198,-1.5357713,-3.6797986,0.30154538,-0.9401714,0.15858236,-0.8743158,-0.33901015,-0.34733868,0.38031888,-0.03391268,-0.9242335,,0.19839165,-1.651476,-4.0169353,-0.99995244,0.009298436,0.0029879906,0.008697701,0.98697346,-0.16064812,-0.0044428427,-0.16061446,-0.98700726,,-0.20919338809699353,-0.11130002618332363,0.15482758131000002,0.00020968994348452436,0.0,0.0,0.0,,-1.5063885517133586,0.04095365243201257,0.07533000448,0.0012581396609071462,-0.5488688195577742,0.42126516482326365,-0.0003266881322685593
1.480412928000078,,0.20454645,-1.589513,-3.963181,-0.58326834,-0.6472784,-0.4907433,-0.8044107,0.54417497,0.23832132,0.112789944,0.5337644,-0.83807755,,0.15129198,-1.5357713,-3.6797986,0.30154538,-0.9401714,0.15858236,-0.8743158,-0.33901015,-0.34733868,0.38031888,-0.03391268,-0.9242335,,0.19839165,-1.651476,-4.0169353,-0.99995244,0.009298436,0.0029879906,0.008697701,0.98697346,-0.16064812,-0.0044428427,-0.16061446,-0.98700726,,-0.20919338809699353,-0.11129230345044941,0.15482758131000002,0.00020968994348452436,0.0,0.0,0.0,,-1.5063885517133586,0.04095365243201257,0.07533000448,0.0012581396609071462,-0.5488688195577742,0.42126516482326365,-0.0003266881322685593
1.5041781969998738,,0.2045457,-1.5895123,-3.9631803,-0.5832678,-0.64727515,-0.49074832,-0.80441123,0.5441724,0.23832554,0.11278948,0.533771,-0.8380735,,0.15129225,-1.5357716,-3.6797986,0.30154127,-0.9401724,0.1585845,-0.87431437,-0.33900744,-0.34734488,0.3803253,-0.03391388,-0.9242308,,0.19839165,-1.651476,-4.0169353,-0.99995244,0.009298436,0.0029879906,0.008697701,0.98697346,-0.16064812,-0.0044428427,-0.16061446,-0.98700726,,-0.20918566536411928,-0.11129230345044941,0.15482758131000002,0.00020968994348452436,0.0,0.0,0.0,,-1.5063885517133586,0.04094592969913835,0.07533000448,0.0012581396609071462,-0.5488688195577742,0.42126516482326365,-0.0003266881322685593
1.5309367800000473,,0.20454718,-1.5895137,-3.9631815,-0.5832689,-0.6472817,-0.49073836,-0.80441034,0.5441774,0.23831719,0.112790406,0.5337579,-0.8380817,,0.15129238,-1.535771,-3.6797986,0.3015424,-0.94017136,0.15858825,-0.8743174,-0.33900952,-0.34733504,0.38031733,-0.03392022,-0.9242339,,0.19839165,-1.651476,-4.0169353,-0.99995244,0.009298436,0.0029879906,0.008697701,0.98697346,-0.16064812,-0.0044428427,-0.16061446,-0.98700726,,-0.20920111082986775,-0.11129230345044941,0.15482758131000002,0.00020968994348452436,0.0,0.0,0.0,,-1.506396274446233,0.04095365243201257,0.07533000448,0.0012581396609071462,-0.5488688195577742,0.42126516482326365,-0.0003266881322685593
1.5524686349999683,,0.20454504,-1.5895133,-3.9631803,-0.583264,-0.64727515,-0.49075282,-0.804413,0.5441724,0.2383193,0.11279595,0.533771,-0.8380726,,0.15129198,-1.5357713,-3.6797986,0.30154538,-0.9401714,0.15858236,-0.8743158,-0.33901015,-0.34733868,0.38031888,-0.03391268,-0.9242335,,0.19839165,-1.651476,-4.0169353,-0.99995244,0.009298436,0.0029879906,0.008697701,0.98697346,-0.16064812,-0.0044428427,-0.16061446,-0.98700726,,-0.20918566536411928,-0.11130002618332363,0.15482758131000002,0.00020968994348452436,0.0,0.0,0.0,,-1.5063885517133586,0.04095365243201257,0.07533000448,0.0012581396609071462,-0.5488688195577742,0.42126516482326365,-0.0003266881322685593
1.5808782119997886,,0.20454578,-1.5895139,-3.9631808,-0.5832645,-0.6472784,-0.49074784,-0.8044126,0.54417497,0.23831512,0.11279641,0.5337644,-0.8380767,,0.1512928,-1.5357708,-3.6797984,0.30153945,-0.94017136,0.15859412,-0.87431914,-0.33900887,-0.3473314,0.38031578,-0.033927754,-0.9242342,,0.19839165,-1.651476,-4.0169353,-0.99995244,0.009298436,0.0029879906,0.008697701,0.98697346,-0.16064812,-0.0044428427,-0.16061446,-0.98700726,,-0.20919338809699353,-0.11130002618332363,0.15482758131000002,0.00020968994348452436,0.0,0.0,0.0,,-1.506403997179107,0.04095365243201257,0.07533000448,0.0012581396609071462,-0.5488688195577742,0.42126516482326365,-0.0003266881322685593
1.6025648229997387,,0.20454718,-1.5895137,-3.9631815,-0.5832689,-0.6472817,-0.49073836,-0.80441034,0.5441774,0.23831719,0.112790406,0.5337579,-0.8380817,,0.15129238,-1.535771,-3.6797986,0.3015424,-0.94017136,0.15858825,-0.8743174,-0.33900952,-0.34733504,0.38031733,-0.03392022,-0.9242339,,0.19839165,-1.651476,-4.0169353,-0.99995244,0.009298436,0.0029879906,0.008697701,0.98697346,-0.16064812,-0.0044428427,-0.16061446,-0.98700726,,-0.20920111082986775,-0.11129230345044941,0.15482758131000002,0.00020968994348452436,0.0,0.0,0.0,,-1.506396274446233,0.04095365243201257,0.07533000448,0.0012581396609071462,-0.5488688195577742,0.42126516482326365,-0.0003266881322685593
1.6309430569999677,,0.20454437,-1.5895143,-3.96318,-0.5832602,-0.64727515,-0.49075732,-0.80441487,0.5441724,0.2383131,0.11280243,0.533771,-0.8380717,,0.15129198,-1.5357713,-3.6797986,0.30154538,-0.9401714,0.15858236,-0.8743158,-0.33901015,-0.34733868,0.38031888,-0.03391268,-0.9242335,,0.19839165,-1.651476,-4.0169353,-0.99995244,0.009298436,0.0029879906,0.008697701,0.98697346,-0.16064812,-0.0044428427,-0.16061446,-0.98700726,,-0.20918566536411928,-0.11130774891619785,0.15482758131000002,0.00020968994348452436,0.0,0.0,0.0,,-1.5063885517133586,0.04095365243201257,0.07533000448,0.0012581396609071462,-0.5488688195577742,0.42126516482326365,-0.0003266881322685593
1.6519187169997167,,0.20454504,-1.5895133,-3.9631803,-0.583264,-0.64727515,-0.49075282,-0.804413,0.5441724,0.2383193,0.11279595,0.533771,-0.8380726,,0.15129198,-1.5357713,-3.6797986,0.30154538,-0.9401714,0.15858236,-0.8743158,-0.33901015,-0.34733868,0.38031888,-0.03391268,-0.9242335,,0.19839165,-1.651476,-4.0169353,-0.99995244,0.009298436,0.0029879906,0.008697701,0.98697346,-0.16064812,-0.0044428427,-0.16061446,-0.98700726,,-0.20918566536411928,-0.11130002618332363,0.15482758131000002,0.00020968994348452436,0.0,0.0,0.0,,-1.5063885517133586,0.04095365243201257,0.07533000448,0.0012581396609071462,-0.5488688195577742,0.42126516482326365,-0.0003266881322685593
1.6792878349997409,,0.20454645,-1.589513,-3.963181,-0.58326834,-0.6472784,-0.4907433,-0.8044107,0.54417497,0.23832132,0.112789944,0.5337644,-0.83807755,,0.15129198,-1.5357713,-3.6797986,0.30154538,-0.9401714,0.15858236,-0.8743158,-0.33901015,-0.34733868,0.38031888,-0.03391268,-0.9242335,,0.19839165,-1.651476,-4.0169353,-0.99995244,0.009298436,0.0029879906,0.008697701,0.98697346,-0.16064812,-0.0044428427,-0.16061446,-0.98700726,,-0.20919338809699353,-0.11129230345044941,0.15482758131000002,0.00020968994348452436,0.0,0.0,0.0,,-1.5063885517133586,0.04095365243201257,0.07533000448,0.0012581396609071462,-0.5488688195577742,0.42126516482326365,-0.0003266881322685593
1.7027452819997961,,0.2045457,-1.5895123,-3.9631803,-0.5832678,-0.64727515,-0.49074832,-0.80441123,0.5441724,0.23832554,0.11278948,0.533771,-0.8380735,,0.15129238,-1.535771,-3.6797986,0.3015424,-0.94017136,0.15858825,-0.8743174,-0.33900952,-0.34733504,0.38031733,-0.03392022,-0.9242339,,0.19839165,-1.651476,-4.0169353,-0.99995244,0.009298436,0.0029879906,0.008697701,0.98697346,-0.16064812,-0.0044428427,-0.16061446,-0.98700726,,-0.20918566536411928,-0.11129230345044941,0.15482758131000002,0.00020968994348452436,0.0,0.0,0.0,,-1.506396274446233,0.04095365243201257,0.07533000448,0.0012581396609071462,-0.5488688195577742,0.42126516482326365,-0.0003266881322685593
1.7305066869998882,,0.20454718,-1.5895137,-3.9631815,-0.5832689,-0.6472817,-0.49073836,-0.80441034,0.5441774,0.23831719,0.112790406,0.5337579,-0.8380817,,0.15129238,-1.535771,-3.6797986,0.3015424,-0.94017136,0.15858825,-0.8743174,-0.33900952,-0.34733504,0.38031733,-0.03392022,-0.9242339,,0.19839165,-1.651476,-4.0169353,-0.99995244,0.009298436,0.0029879906,0.008697701,0.98697346,-0.16064812,-0.0044428427,-0.16061446,-0.98700726,,-0.20920111082986775,-0.11129230345044941,0.15482758131000002,0.00020968994348452436,0.0,0.0,0.0,,-1.506396274446233,0.04095365243201257,0.07533000448,0.0012581396609071462,-0.5488688195577742,0.42126516482326365,-0.0003266881322685593
1.7514191760001268,,0.20454645,-1.589513,-3.963181,-0.58326834,-0.6472784,-0.4907433,-0.8044107,0.54417497,0.23832132,0.112789944,0.5337644,-0.83807755,,0.15129198,-1.5357713,-3.6797986,0.30154538,-0.9401714,0.15858236,-0.8743158,-0.33901015,-0.34733868,0.38031888,-0.03391268,-0.9242335,,0.19839165,-1.651476,-4.0169353,-0.99995244,0.009298436,0.0029879906,0.008697701,0.98697346,-0.16064812,-0.0044428427,-0.16061446,-0.98700726,,-0.20919338809699353,-0.11129230345044941,0.15482758131000002,0.00020968994348452436,0.0,0.0,0.0,,-1.5063885517133586,0.04095365243201257,0.07533000448,0.0012581396609071462,-0.5488688195577742,0.42126516482326365,-0.0003266881322685593
1.779817661999914,,0.2045457,-1.5895123,-3.9631803,-0.5832678,-0.64727515,-0.49074832,-0.80441123,0.5441724,0.23832554,0.11278948,0.533771,-0.8380735,,0.15129198,-1.5357713,-3.6797986,0.30154538,-0.9401714,0.15858236,-0.8743158,-0.33901015,-0.34733868,0.38031888,-0.03391268,-0.9242335,,0.19839165,-1.651476,-4.0169353,-0.99995244,0.009298436,0.0029879906,0.008697701,0.98697346,-0.16064812,-0.0044428427,-0.16061446,-0.98700726,,-0.20918566536411928,-0.11129230345044941,0.15482758131000002,0.00020968994348452436,0.0,0.0,0.0,,-1.5063885517133586,0.04095365243201257,0.07533000448,0.0012581396609071462,-0.5488688195577742,0.42126516482326365,-0.0003266881322685593
1.8014640530000179,,0.20454718,-1.5895137,-3.9631815,-0.5832689,-0.6472817,-0.49073836,-0.80441034,0.5441774,0.23831719,0.112790406,0.5337579,-0.8380817,,0.15129198,-1.5357713,-3.6797986,0.30154538,-0.9401714,0.15858236,-0.8743158,-0.33901015,-0.34733868,0.38031888,-0.03391268,-0.9242335,,0.19839165,-1.651476,-4.0169353,-0.99995244,0.009298436,0.0029879906,0.008697701,0.98697346,-0.16064812,-0.0044428427,-0.16061446,-0.98700726,,-0.20920111082986775,-0.11129230345044941,0.15482758131000002,0.00020968994348452436,0.0,0.0,0.0,,-1.5063885517133586,0.04095365243201257,0.07533000448,0.0012581396609071462,-0.5488688195577742,0.42126516482326365,-0.0003266881322685593
1.8267057519997252,,0.20454645,-1.589513,-3.963181,-0.58326834,-0.6472784,-0.4907433,-0.8044107,0.54417497,0.23832132,0.112789944,0.5337644,-0.83807755,,0.15129198,-1.5357713,-3.6797986,0.30154538,-0.9401714,0.15858236,-0.8743158,-0.33901015,-0.34733868,0.38031888,-0.03391268,-0.9242335,,0.19839165,-1.651476,-4.0169353,-0.99995244,0.009298436,0.0029879906,0.008697701,0.98697346,-0.16064812,-0.0044428427,-0.16061446,-0.98700726,,-0.20919338809699353,-0.11129230345044941,0.15482758131000002,0.00020968994348452436,0.0,0.0,0.0,,-1.5063885517133586,0.04095365243201257,0.07533000448,0.0012581396609071462,-0.5488688195577742,0.42126516482326365,-0.0003266881322685593
1.8482265510001525,,0.2045457,-1.5895123,-3.9631803,-0.5832678,-0.64727515,-0.49074832,-0.80441123,0.5441724,0.23832554,0.11278948,0.533771,-0.8380735,,0.15129238,-1.535771,-3.6797986,0.3015424,-0.94017136,0.15858825,-0.8743174,-0.33900952,-0.34733504,0.38031733,-0.03392022,-0.9242339,,0.19839165,-1.651476,-4.0169353,-0.99995244,0.009298436,0.0029879906,0.008697701,0.98697346,-0.16064812,-0.0044428427,-0.16061446,-0.98700726,,-0.20918566536411928,-0.11129230345044941,0.15482758131000002,0.00020968994348452436,0.0,0.0,0.0,,-1.506396274446233,0.04095365243201257,0.07533000448,0.0012581396609071462,-0.5488688195577742,0.42126516482326365,-0.0003266881322685593
1.8732554580001306,,0.2045457,-1.5895123,-3.9631803,-0.5832678,-0.64727515,-0.49074832,-0.80441123,0.5441724,0.23832554,0.11278948,0.533771,-0.8380735,,0.15129198,-1.5357713,-3.6797986,0.30154538,-0.9401714,0.15858236,-0.8743158,-0.33901015,-0.34733868,0.38031888,-0.03391268,-0.9242335,,0.19839165,-1.651476,-4.0169353,-0.99995244,0.009298436,0.0029879906,0.008697701,0.98697346,-0.16064812,-0.0044428427,-0.16061446,-0.98700726,,-0.20918566536411928,-0.11129230345044941,0.15482758131000002,0.00020968994348452436,0.0,0.0,0.0,,-1.5063885517133586,0.04095365243201257,0.07533000448,0.0012581396609071462,-0.5488688195577742,0.42126516482326365,-0.0003266881322685593
1.898749435999889,,0.2045457,-1.5895123,-3.9631803,-0.5832678,-0.64727515,-0.49074832,-0.80441123,0.5441724,0.23832554,0.11278948,0.533771,-0.8380735,,0.15129238,-1.535771,-3.6797986,0.3015424,-0.94017136,0.15858825,-0.8743174,-0.33900952,-0.34733504,0.38031733,-0.03392022,-0.9242339,,0.19839165,-1.651476,-4.0169353,-0.99995244,0.009298436,0.0029879906,0.008697701,0.98697346,-0.16064812,-0.0044428427,-0.16061446,-0.98700726,,-0.20918566536411928,-0.11129230345044941,0.15482758131000002,0.00020968994348452436,0.0,0.0,0.0,,-1.506396274446233,0.04095365243201257,0.07533000448,0.0012581396609071462,-0.5488688195577742,0.42126516482326365,-0.0003266881322685593
1.9195538479998504,,0.2045457,-1.5895123,-3.9631803,-0.5832678,-0.64727515,-0.49074832,-0.80441123,0.5441724,0.23832554,0.11278948,0.533771,-0.8380735,,0.15129198,-1.5357713,-3.6797986,0.30154538,-0.9401714,0.15858236,-0.8743158,-0.33901015,-0.34733868,0.38031888,-0.03391268,-0.9242335,,0.19839165,-1.651476,-4.0169353,-0.99995244,0.009298436,0.0029879906,0.008697701,0.98697346,-0.16064812,-0.0044428427,-0.16061446,-0.98700726,,-0.20918566536411928,-0.11129230345044941,0.15482758131000002,0.00020968994348452436,0.0,0.0,0.0,,-1.5063885517133586,0.04095365243201257,0.07533000448,0.0012581396609071462,-0.5488688195577742,0.42126516482326365,-0.0003266881322685593
1.9478733030000512,,0.20454645,-1.589513,-3.963181,-0.58326834,-0.6472784,-0.4907433,-0.8044107,0.54417497,0.23832132,0.112789944,0.5337644,-0.83807755,,0.15129198,-1.5357713,-3.6797986,0.30154538,-0.9401714,0.15858236,-0.8743158,-0.33901015,-0.34733868,0.38031888,-0.03391268,-0.9242335,,0.19839165,-1.651476,-4.0169353,-0.99995244,0.009298436,0.0029879906,0.008697701,0.98697346,-0.16064812,-0.0044428427,-0.16061446,-0.98700726,,-0.20919338809699353,-0.11129230345044941,0.15482758131000002,0.00020968994348452436,0.0,0.0,0.0,,-1.5063885517133586,0.04095365243201257,0.07533000448,0.0012581396609071462,-0.5488688195577742,0.42126516482326365,-0.0003266881322685593
1.9692665039997337,,0.20454645,-1.589513,-3.963181,-0.58326834,-0.6472784,-0.4907433,-0.8044107,0.54417497,0.23832132,0.112789944,0.5337644,-0.83807755,,0.15129238,-1.535771,-3.6797986,0.3015424,-0.94017136,0.15858825,-0.8743174,-0.33900952,-0.34733504,0.38031733,-0.03392022,-0.9242339,,0.19839165,-1.651476,-4.0169353,-0.99995244,0.009298436,0.0029879906,0.008697701,0.98697346,-0.16064812,-0.0044428427,-0.16061446,-0.98700726,,-0.20919338809699353,-0.11129230345044941,0.15482758131000002,0.00020968994348452436,0.0,0.0,0.0,,-1.506396274446233,0.04095365243201257,0.07533000448,0.0012581396609071462,-0.5488688195577742,0.42126516482326365,-0.0003266881322685593
1.9974220059998515,,0.20454504,-1.5895133,-3.9631803,-0.583264,-0.64727515,-0.49075282,-0.804413,0.5441724,0.2383193,0.11279595,0.533771,-0.8380726,,0.15129198,-1.5357713,-3.6797986,0.30154538,-0.9401714,0.15858236,-0.8743158,-0.33901015,-0.34733868,0.38031888,-0.03391268,-0.9242335,,0.19839165,-1.651476,-4.0169353,-0.99995244,0.009298436,0.0029879906,0.008697701,0.98697346,-0.16064812,-0.0044428427,-0.16061446,-0.98700726,,-0.20918566536411928,-0.11130002618332363,0.15482758131000002,0.00020968994348452436,0.0,0.0,0.0,,-1.5063885517133586,0.04095365243201257,0.07533000448,0.0012581396609071462,-0.5488688195577742,0.42126516482326365,-0.0003266881322685593
2.019180919000064,,0.20454578,-1.5895139,-3.9631808,-0.5832645,-0.6472784,-0.49074784,-0.8044126,0.54417497,0.23831512,0.11279641,0.5337644,-0.8380767,,0.15129238,-1.535771,-3.6797986,0.3015424,-0.94017136,0.15858825,-0.8743174,-0.33900952,-0.34733504,0.38031733,-0.03392022,-0.9242339,,0.19839165,-1.651476,-4.0169353,-0.99995244,0.009298436,0.0029879906,0.008697701,0.98697346,-0.16064812,-0.0044428427,-0.16061446,-0.98700726,,-0.20919338809699353,-0.11130002618332363,0.15482758131000002,0.00020968994348452436,0.0,0.0,0.0,,-1.506396274446233,0.04095365243201257,0.07533000448,0.0012581396609071462,-0.5488688195577742,0.42126516482326365,-0.0003266881322685593
2.0449993189999986,,0.2045457,-1.5895123,-3.9631803,-0.5832678,-0.64727515,-0.49074832,-0.80441123,0.5441724,0.23832554,0.11278948,0.533771,-0.8380735,,0.15129198,-1.5357713,-3.6797986,0.30154538,-0.9401714,0.15858236,-0.8743158,-0.33901015,-0.34733868,0.38031888,-0.03391268,-0.9242335,,0.19839165,-1.651476,-4.0169353,-0.99995244,0.009298436,0.0029879906,0.008697701,0.98697346,-0.16064812,-0.0044428427,-0.16061446,-0.98700726,,-0.20918566536411928,-0.11129230345044941,0.15482758131000002,0.00020968994348452436,0.0,0.0,0.0,,-1.5063885517133586,0.04095365243201257,0.07533000448,0.0012581396609071462,-0.5488688195577742,0.42126516482326365,-0.0003266881322685593
2.0682180610001524,,0.2045457,-1.5895123,-3.9631803,-0.5832678,-0.64727515,-0.49074832,-0.80441123,0.5441724,0.23832554,0.11278948,0.533771,-0.8380735,,0.15129225,-1.5357716,-3.6797986,0.30154127,-0.9401724,0.1585845,-0.87431437,-0.33900744,-0.34734488,0.3803253,-0.03391388,-0.9242308,,0.19839165,-1.651476,-4.0169353,-0.99995244,0.009298436,0.0029879906,0.008697701,0.98697346,-0.16064812,-0.0044428427,-0.16061446,-0.98700726,,-0.20918566536411928,-0.11129230345044941,0.15482758131000002,0.00020968994348452436,0.0,0.0,0.0,,-1.5063885517133586,0.04094592969913835,0.07533000448,0.0012581396609071462,-0.5488688195577742,0.42126516482326365,-0.0003266881322685593
2.0939552669997283,,0.20454645,-1.589513,-3.963181,-0.58326834,-0.6472784,-0.4907433,-0.8044107,0.54417497,0.23832132,0.112789944,0.5337644,-0.83807755,,0.15129238,-1.535771,-3.6797986,0.3015424,-0.94017136,0.15858825,-0.8743174,-0.33900952,-0.34733504,0.38031733,-0.03392022,-0.9242339,,0.19839165,-1.651476,-4.0169353,-0.99995244,0.009298436,0.0029879906,0.008697701,0.98697346,-0.16064812,-0.0044428427,-0.16061446,-0.98700726,,-0.20919338809699353,-0.11129230345044941,0.15482758131000002,0.00020968994348452436,0.0,0.0,0.0,,-1.506396274446233,0.04095365243201257,0.07533000448,0.0012581396609071462,-0.5488688195577742,0.42126516482326365,-0.0003266881322685593
2.118177756000023,,0.20454645,-1.589513,-3.963181,-0.58326834,-0.6472784,-0.4907433,-0.8044107,0.54417497,0.23832132,0.112789944,0.5337644,-0.83807755,,0.15129198,-1.5357713,-3.6797986,0.30154538,-0.9401714,0.15858236,-0.8743158,-0.33901015,-0.34733868,0.38031888,-0.03391268,-0.9242335,,0.19839165,-1.651476,-4.0169353,-0.99995244,0.009298436,0.0029879906,0.008697701,0.98697346,-0.16064812,-0.0044428427,-0.16061446,-0.98700726,,-0.20919338809699353,-0.11129230345044941,0.15482758131000002,0.00020968994348452436,0.0,0.0,0.0,,-1.5063885517133586,0.04095365243201257,0.07533000448,0.0012581396609071462,-0.5488688195577742,0.42126516482326365,-0.0003266881322685593
2.143759874999887,,0.2045457,-1.5895123,-3.9631803,-0.583132,-0.64739746,-0.49074832,-0.8045253,0.5440037,0.23832554,0.11267756,0.5337946,-0.8380735,,0.15129238,-1.535771,-3.6797986,0.3015424,-0.94018435,0.15851146,-0.8743174,-0.33898115,-0.34736276,0.38031733,-0.033844724,-0.9242366,,0.19839165,-1.651476,-4.0169353,-0.99995244,0.009298436,0.0029879906,0.008697701,0.98697346,-0.16064812,-0.0044428427,-0.16061446,-0.98700726,,-0.20918566536411928,-0.11129230345044941,0.15482758131000002,0.0,0.0,0.0,0.0,,-1.506396274446233,0.04095365243201257,0.07533000448,0.0012581396609071462,-0.5488688195577742,0.42134684356340424,-0.0001633440661342779
2.166558455000086,,0.2045457,-1.5895123,-3.9631803,-0.58299625,-0.64751965,-0.49074832,-0.8046394,0.54383504,0.23832554,0.112565614,0.53381824,-0.8380735,,0.15129225,-1.5357716,-3.6797986,0.30154127,-0.9401983,0.1584309,-0.87431437,-0.33895063,-0.34740025,0.3803253,-0.033762902,-0.92423636,,0.19839165,-1.651476,-4.0169353,-0.99995244,0.009298436,0.0029879906,0.008697701,0.98697346,-0.16064812,-0.0044428427,-0.16061446,-0.98700726,,-0.20918566536411928,-0.11129230345044941,0.15482758131000002,-0.00020968994348452436,0.0,0.0,0.0,,-1.5063885517133586,0.04094592969913835,0.07533000448,0.0012581396609071462,-0.5488688195577742,0.4214285223035448,0.0
2.1917981950000467,,0.2045457,-1.5895123,-3.9631803,-0.58299625,-0.64751965,-0.49074832,-0.8046394,0.54383504,0.23832554,0.112565614,0.53381824,-0.8380735,,0.15129225,-1.5357716,-3.6797986,0.30154127,-0.9401983,0.1584309,-0.87431437,-0.33895063,-0.34740025,0.3803253,-0.033762902,-0.92423636,,0.19839165,-1.651476,-4.0169353,-0.99995244,0.009298436,0.0029879906,0.008697701,0.98697346,-0.16064812,-0.0044428427,-0.16061446,-0.98700726,,-0.20918566536411928,-0.11129230345044941,0.15482758131000002,-0.00020968994348452436,0.0,0.0,0.0,,-1.5063885517133586,0.04094592969913835,0.07533000448,0.0012581396609071462,-0.5488688195577742,0.4214285223035448,0.0
2.2159073009997883,,0.2045457,-1.5895123,-3.9631803,-0.58299625,-0.64751965,-0.49074832,-0.8046394,0.54383504,0.23832554,0.112565614,0.53381824,-0.8380735,,0.15129198,-1.5357713,-3.6797986,0.30154538,-0.9401973,0.15842879,-0.8743158,-0.33895344,-0.34739405,0.38031888,-0.0337617,-0.92423904,,0.19839165,-1.651476,-4.0169353,-0.99995244,0.009298436,0.0029879906,0.008697701,0.98697346,-0.16064812,-0.0044428427,-0.16061446,-0.98700726,,-0.20918566536411928,-0.11129230345044941,0.15482758131000002,-0.00020968994348452436,0.0,0.0,0.0,,-1.5063885517133586,0.04095365243201257,0.07533000448,0.0012581396609071462,-0.5488688195577742,0.4214285223035448,0.0
2.2422880469998745,,0.20454645,-1.589513,-3.963181,-0.58299685,-0.6475229,-0.4907433,-0.804639,0.54383755,0.23832132,0.112566076,0.5338116,-0.83807755,,0.15129198,-1.5357713,-3.6797986,0.30154538,-0.9401973,0.15842879,-0.8743158,-0.33895344,-0.34739405,0.38031888,-0.0337617,-0.92423904,,0.19839165,-1.651476,-4.0169353,-0.99995244,0.009298436,0.0029879906,0.008697701,0.98697346,-0.16064812,-0.0044428427,-0.16061446,-0.98700726,,-0.20919338809699353,-0.11129230345044941,0.15482758131000002,-0.00020968994348452436,0.0,0.0,0.0,,-1.5063885517133586,0.04095365243201257,0.07533000448,0.0012581396609071462,-0.5488688195577742,0.4214285223035448,0.0
2.266925605999859,,0.2045457,-1.5895123,-3.9631803,-0.58299625,-0.64751965,-0.49074832,-0.8046394,0.54383504,0.23832554,0.112565614,0.53381824,-0.8380735,,0.15129238,-1.535771,-3.6797986,0.3015424,-0.9401972,0.15843466,-0.8743174,-0.3389528,-0.34739044,0.38031733,-0.033769235,-0.9242394,,0.19839165,-1.651476,-4.0169353,-0.99995244,0.009298436,0.0029879906,0.008697701,0.98697346,-0.16064812,-0.0044428427,-0.16061446,-0.98700726,,-0.20918566536411928,-0.11129230345044941,0.15482758131000002,-0.00020968994348452436,0.0,0.0,0.0,,-1.506396274446233,0.04095365243201257,0.07533000448,0.0012581396609071462,-0.5488688195577742,0.4214285223035448,0.0
2.286112788000082,,0.2045457,-1.5895123,-3.9631803,-0.58299625,-0.64751965,-0.49074832,-0.8046394,0.54383504,0.23832554,0.112565614,0.53381824,-0.8380735,,0.15129238,-1.535771,-3.6797986,0.3015424,-0.9401972,0.15843466,-0.8743174,-0.3389528,-0.34739044,0.38031733,-0.033769235,-0.9242394,,0.19839165,-1.651476,-4.0169353,-0.99995244,0.009298436,0.0029879906,0.008697701,0.98697346,-0.16064812,-0.0044428427,-0.16061446,-0.98700726,,-0.20918566536411928,-0.11129230345044941,0.15482758131000002,-0.00020968994348452436,0.0,0.0,0.0,,-1.506396274446233,0.04095365243201257,0.07533000448,0.0012581396609071462,-0.5488688195577742,0.4214285223035448,0.0
2.3114929560001656,,0.2045457,-1.5895123,-3.9631803,-0.58299625,-0.64751965,-0.49074832,-0.8046394,0.54383504,0.23832554,0.112565614,0.53381824,-0.8380735,,0.15129198,-1.5357713,-3.6797986,0.30154538,-0.9401973,0.15842879,-0.8743158,-0.33895344,-0.34739405,0.38031888,-0.0337617,-0.92423904,,0.19839165,-1.651476,-4.0169353,-0.99995244,0.009298436,0.0029879906,0.008697701,0.98697346,-0.16064812,-0.0044428427,-0.16061446,-0.98700726,,-0.20918566536411928,-0.11129230345044941,0.15482758131000002,-0.00020968994348452436,0.0,0.0,0.0,,-1.5063885517133586,0.04095365243201257,0.07533000448,0.0012581396609071462,-0.5488688195577742,0.4214285223035448,0.0
2.334408478000114,,0.20454645,-1.589513,-3.963181,-0.58299685,-0.6475229,-0.4907433,-0.804639,0.54383755,0.23832132,0.112566076,0.5338116,-0.83807755,,0.15129198,-1.5357713,-3.6797986,0.30154538,-0.9401973,0.15842879,-0.8743158,-0.33895344,-0.34739405,0.38031888,-0.0337617,-0.92423904,,0.19839165,-1.651476,-4.0169353,-0.99995244,0.009298436,0.0029879906,0.008697701,0.98697346,-0.16064812,-0.0044428427,-0.16061446,-0.98700726,,-0.20919338809699353,-0.11129230345044941,0.15482758131000002,-0.00020968994348452436,0.0,0.0,0.0,,-1.5063885517133586,0.04095365243201257,0.07533000448,0.0012581396609071462,-0.5488688195577742,0.4214285223035448,0.0
2.3580071540000063,,0.20454645,-1.589513,-3.963181,-0.58299685,-0.6475229,-0.4907433,-0.804639,0.54383755,0.23832132,0.112566076,0.5338116,-0.83807755,,0.15129198,-1.5357713,-3.6797986,0.30154538,-0.9401973,0.15842879,-0.8743158,-0.33895344,-0.34739405,0.38031888,-0.0337617,-0.92423904,,0.19839165,-1.651476,-4.0169353,-0.99995244,0.009298436,0.0029879906,0.008697701,0.98697346,-0.16064812,-0.0044428427,-0.16061446,-0.98700726,,-0.20919338809699353,-0.11129230345044941,0.15482758131000002,-0.00020968994348452436,0.0,0.0,0.0,,-1.5063885517133586,0.04095365243201257,0.07533000448,0.0012581396609071462,-0.5488688195577742,0.4214285223035448,0.0
2.383034688999942,,0.20454645,-1.589513,-3.963181,-0.58299685,-0.6475229,-0.4907433,-0.804639,0.54383755,0.23832132,0.112566076,0.5338116,-0.83807755,,0.15129198,-1.5357713,-3.6797986,0.30154538,-0.9401973,0.15842879,-0.8743158,-0.33895344,-0.34739405,0.38031888,-0.0337617,-0.92423904,,0.19839165,-1.651476,-4.0169353,-0.99995244,0.009298436,0.0029879906,0.008697701,0.98697346,-0.16064812,-0.0044428427,-0.16061446,-0.98700726,,-0.20919338809699353,-0.11129230345044941,0.15482758131000002,-0.00020968994348452436,0.0,0.0,0.0,,-1.5063885517133586,0.04095365243201257,0.07533000448,0.0012581396609071462,-0.5488688195577742,0.4214285223035448,0.0
2.4075140869999814,,0.2045457,-1.5895123,-3.9631803,-0.58299625,-0.64751965,-0.49074832,-0.8046394,0.54383504,0.23832554,0.112565614,0.53381824,-0.8380735,,0.15129238,-1.535771,-3.6797986,0.3015424,-0.9401972,0.15843466,-0.8743174,-0.3389528,-0.34739044,0.38031733,-0.033769235,-0.9242394,,0.19839165,-1.651476,-4.0169353,-0.99995244,0.009298436,0.0029879906,0.008697701,0.98697346,-0.16064812,-0.0044428427,-0.16061446,-0.98700726,,-0.20918566536411928,-0.11129230345044941,0.15482758131000002,-0.00020968994348452436,0.0,0.0,0.0,,-1.506396274446233,0.04095365243201257,0.07533000448,0.0012581396609071462,-0.5488688195577742,0.4214285223035448,0.0
2.4287300709997908,,0.2045457,-1.5895123,-3.9631803,-0.58299625,-0.64751965,-0.49074832,-0.8046394,0.54383504,0.23832554,0.112565614,0.53381824,-0.8380735,,0.15129198,-1.5357713,-3.6797986,0.30154538,-0.9401973,0.15842879,-0.8743158,-0.33895344,-0.34739405,0.38031888,-0.0337617,-0.92423904,,0.19839165,-1.651476,-4.0169353,-0.99995244,0.009298436,0.0029879906,0.008697701,0.98697346,-0.16064812,-0.0044428427,-0.16061446,-0.98700726,,-0.20918566536411928,-0.11129230345044941,0.15482758131000002,-0.00020968994348452436,0.0,0.0,0.0,,-1.5063885517133586,0.04095365243201257,0.07533000448,0.0012581396609071462,-0.5488688195577742,0.4214285223035448,0.0
2.4519241829998464,,0.20456462,-1.5895256,-3.9631765,-0.58297175,-0.647519,-0.49077797,-0.80465806,0.5438019,0.23833756,0.11255784,0.5338525,-0.83805263,,0.15126553,-1.5357833,-3.6797996,0.30152747,-0.94021136,0.15837857,-0.874317,-0.3389187,-0.3474247,0.3803301,-0.03371499,-0.9242361,,0.19840631,-1.6514713,-4.0169344,-0.9999525,0.009278631,0.0029866917,0.008678369,0.9869735,-0.16064839,-0.004438383,-0.16061482,-0.9870072,,-0.20918566536411928,-0.11129230345044941,0.15482758131000002,-0.00020968994348452436,0.0,0.0,0.0,,-1.506396274446233,0.04095365243201257,0.07533000448,0.0012581396609071462,-0.5488688195577742,0.4214285223035448,0.0
2.4774871599997823,,0.20456395,-1.5895265,-3.9631765,-0.58296794,-0.647519,-0.49078247,-0.80465996,0.5438019,0.23833135,0.11256431,0.5338525,-0.83805174,,0.15126513,-1.5357835,-3.6797998,0.30153048,-0.94021136,0.1583727,-0.87431526,-0.33891937,-0.34742832,0.38033164,-0.03370746,-0.9242357,,0.19840631,-1.6514713,-4.0169344,-0.9999525,0.009278631,0.0029866917,0.008678369,0.9869735,-0.16064839,-0.004438383,-0.16061482,-0.9870072,,-0.20918566536411928,-0.11130002618332363,0.15482758131000002,-0.00020968994348452436,0.0,0.0,0.0,,-1.5063885517133586,0.04095365243201257,0.07533000448,0.0012581396609071462,-0.5488688195577742,0.4214285223035448,0.0
2.4995441659998505,,0.20456535,-1.5895262,-3.9631772,-0.5829723,-0.64752233,-0.490773,-0.8046575,0.5438044,0.23833345,0.11255829,0.533846,-0.8380567,,0.15126513,-1.5357835,-3.6797998,0.30153048,-0.94021136,0.1583727,-0.87431526,-0.33891937,-0.34742832,0.38033164,-0.03370746,-0.9242357,,0.19840631,-1.6514713,-4.0169344,-0.9999525,0.009278631,0.0029866917,0.008678369,0.9869735,-0.16064839,-0.004438383,-0.16061482,-0.9870072,,-0.20919338809699353,-0.11129230345044941,0.15482758131000002,-0.00020968994348452436,0.0,0.0,0.0,,-1.5063885517133586,0.04095365243201257,0.07533000448,0.0012581396609071462,-0.5488688195577742,0.4214285223035448,0.0
2.523316704000081,,0.20456535,-1.5895262,-3.9631772,-0.5829723,-0.64752233,-0.490773,-0.8046575,0.5438044,0.23833345,0.11255829,0.533846,-0.8380567,,0.15126553,-1.5357833,-3.6797996,0.30152747,-0.94021136,0.15837857,-0.874317,-0.3389187,-0.3474247,0.3803301,-0.03371499,-0.9242361,,0.19840631,-1.6514713,-4.0169344,-0.9999525,0.009278631,0.0029866917,0.008678369,0.9869735,-0.16064839,-0.004438383,-0.16061482,-0.9870072,,-0.20919338809699353,-0.11129230345044941,0.15482758131000002,-0.00020968994348452436,0.0,0.0,0.0,,-1.506396274446233,0.04095365243201257,0.07533000448,0.0012581396609071462,-0.5488688195577742,0.4214285223035448,0.0
2.546767477999765,,0.20456462,-1.5895256,-3.9631765,-0.58297175,-0.647519,-0.49077797,-0.80465806,0.5438019,0.23833756,0.11255784,0.5338525,-0.83805263,,0.15126513,-1.5357835,-3.6797998,0.30153048,-0.94021136,0.1583727,-0.87431526,-0.33891937,-0.34742832,0.38033164,-0.03370746,-0.9242357,,0.19840631,-1.6514713,-4.0169344,-0.9999525,0.009278631,0.0029866917,0.008678369,0.9869735,-0.16064839,-0.004438383,-0.16061482,-0.9870072,,-0.20918566536411928,-0.11129230345044941,0.15482758131000002,-0.00020968994348452436,0.0,0.0,0.0,,-1.5063885517133586,0.04095365243201257,0.07533000448,0.0012581396609071462,-0.5488688195577742,0.4214285223035448,0.0
2.567642522999904,,0.20456462,-1.5895256,-3.9631765,-0.58297175,-0.647519,-0.49077797,-0.80465806,0.5438019,0.23833756,0.11255784,0.5338525,-0.83805263,,0.15126513,-1.5357835,-3.6797998,0.30153048,-0.94021136,0.1583727,-0.87431526,-0.33891937,-0.34742832,0.38033164,-0.03370746,-0.9242357,,0.19840631,-1.6514713,-4.0169344,-0.9999525,0.009278631,0.0029866917,0.008678369,0.9869735,-0.16064839,-0.004438383,-0.16061482,-0.9870072,,-0.20918566536411928,-0.11129230345044941,0.15482758131000002,-0.00020968994348452436,0.0,0.0,0.0,,-1.5063885517133586,0.04095365243201257,0.07533000448,0.0012581396609071462,-0.5488688195577742,0.4214285223035448,0.0
2.5965977229998316,,0.20456462,-1.5895256,-3.9631765,-0.58297175,-0.647519,-0.49077797,-0.80465806,0.5438019,0.23833756,0.11255784,0.5338525,-0.83805263,,0.15126553,-1.5357833,-3.6797996,0.30152747,-0.94021136,0.15837857,-0.874317,-0.3389187,-0.3474247,0.3803301,-0.03371499,-0.9242361,,0.19840631,-1.6514713,-4.0169344,-0.9999525,0.009278631,0.0029866917,0.008678369,0.9869735,-0.16064839,-0.004438383,-0.16061482,-0.9870072,,-0.20918566536411928,-0.11129230345044941,0.15482758131000002,-0.00020968994348452436,0.0,0.0,0.0,,-1.506396274446233,0.04095365243201257,0.07533000448,0.0012581396609071462,-0.5488688195577742,0.4214285223035448,0.0
2.6258332019997397,,0.20456535,-1.5895262,-3.9631772,-0.5829723,-0.64752233,-0.490773,-0.8046575,0.5438044,0.23833345,0.11255829,0.533846,-0.8380567,,0.1512654,-1.535784,-3.6797998,0.30152637,-0.94021237,0.15837482,-0.87431383,-0.3389166,-0.34743446,0.38033804,-0.033708654,-0.9242331,,0.19840631,-1.6514713,-4.0169344,-0.9999525,0.009278631,0.0029866917,0.008678369,0.9869735,-0.16064839,-0.004438383,-0.16061482,-0.9870072,,-0.20919338809699353,-0.11129230345044941,0.15482758131000002,-0.00020968994348452436,0.0,0.0,0.0,,-1.5063885517133586,0.04094592969913835,0.07533000448,0.0012581396609071462,-0.5488688195577742,0.4214285223035448,0.0
2.647841306999908,,0.20456535,-1.5895262,-3.9631772,-0.5829723,-0.64752233,-0.490773,-0.8046575,0.5438044,0.23833345,0.11255829,0.533846,-0.8380567,,0.15126513,-1.5357835,-3.6797998,0.30153048,-0.94021136,0.1583727,-0.87431526,-0.33891937,-0.34742832,0.38033164,-0.03370746,-0.9242357,,0.19840631,-1.6514713,-4.0169344,-0.9999525,0.009278631,0.0029866917,0.008678369,0.9869735,-0.16064839,-0.004438383,-0.16061482,-0.9870072,,-0.20919338809699353,-0.11129230345044941,0.15482758131000002,-0.00020968994348452436,0.0,0.0,0.0,,-1.5063885517133586,0.04095365243201257,0.07533000448,0.0012581396609071462,-0.5488688195577742,0.4214285223035448,0.0
2.6736044869999205,,0.20456462,-1.5895256,-3.9631765,-0.58297175,-0.647519,-0.49077797,-0.80465806,0.5438019,0.23833756,0.11255784,0.5338525,-0.83805263,,0.15126513,-1.5357835,-3.6797998,0.30153048,-0.94021136,0.1583727,-0.87431526,-0.33891937,-0.34742832,0.38033164,-0.03370746,-0.9242357,,0.19840631,-1.6514713,-4.0169344,-0.9999525,0.009278631,0.0029866917,0.008678369,0.9869735,-0.16064839,-0.004438383,-0.16061482,-0.9870072,,-0.20918566536411928,-0.11129230345044941,0.15482758131000002,-0.00020968994348452436,0.0,0.0,0.0,,-1.5063885517133586,0.04095365243201257,0.07533000448,0.0012581396609071462,-0.5488688195577742,0.4214285223035448,0.0
2.6998678740001196,,0.20456462,-1.5895256,-3.9631765,-0.58297175,-0.647519,-0.49077797,-0.80465806,0.5438019,0.23833756,0.11255784,0.5338525,-0.83805263,,0.15126553,-1.5357833,-3.6797996,0.30152747,-0.94021136,0.15837857,-0.874317,-0.3389187,-0.3474247,0.3803301,-0.03371499,-0.9242361,,0.19840631,-1.6514713,-4.0169344,-0.9999525,0.009278631,0.0029866917,0.008678369,0.9869735,-0.16064839,-0.004438383,-0.16061482,-0.9870072,,-0.20918566536411928,-0.11129230345044941,0.15482758131000002,-0.00020968994348452436,0.0,0.0,0.0,,-1.506396274446233,0.04095365243201257,0.07533000448,0.0012581396609071462,-0.5488688195577742,0.4214285223035448,0.0
2.7278273920001084,,0.20456535,-1.5895262,-3.9631772,-0.5829723,-0.64752233,-0.490773,-0.8046575,0.5438044,0.23833345,0.11255829,0.533846,-0.8380567,,0.1512658,-1.5357838,-3.6797996,0.30152342,-0.94021237,0.15838069,-0.8743156,-0.3389159,-0.34743086,0.38033652,-0.033716206,-0.92423344,,0.19840631,-1.6514713,-4.0169344,-0.9999525,0.009278631,0.0029866917,0.008678369,0.9869735,-0.16064839,-0.004438383,-0.16061482,-0.9870072,,-0.20919338809699353,-0.11129230345044941,0.15482758131000002,-0.00020968994348452436,0.0,0.0,0.0,,-1.506396274446233,0.04094592969913835,0.07533000448,0.0012581396609071462,-0.5488688195577742,0.4214285223035448,0.0
2.7552208570000403,,0.20456462,-1.5895256,-3.9631765,-0.58297175,-0.647519,-0.49077797,-0.80465806,0.5438019,0.23833756,0.11255784,0.5338525,-0.83805263,,0.1512654,-1.535784,-3.6797998,0.30152637,-0.94021237,0.15837482,-0.87431383,-0.3389166,-0.34743446,0.38033804,-0.033708654,-0.9242331,,0.19840631,-1.6514713,-4.0169344,-0.9999525,0.009278631,0.0029866917,0.008678369,0.9869735,-0.16064839,-0.004438383,-0.16061482,-0.9870072,,-0.20918566536411928,-0.11129230345044941,0.15482758131000002,-0.00020968994348452436,0.0,0.0,0.0,,-1.5063885517133586,0.04094592969913835,0.07533000448,0.0012581396609071462,-0.5488688195577742,0.4214285223035448,0.0
2.7858082819998344,,0.20456462,-1.5895256,-3.9631765,-0.58297175,-0.647519,-0.49077797,-0.80465806,0.5438019,0.23833756,0.11255784,0.5338525,-0.83805263,,0.15126513,-1.5357835,-3.6797998,0.30153048,-0.94021136,0.1583727,-0.87431526,-0.33891937,-0.34742832,0.38033164,-0.03370746,-0.9242357,,0.19840631,-1.6514713,-4.0169344,-0.9999525,0.009278631,0.0029866917,0.008678369,0.9869735,-0.16064839,-0.004438383,-0.16061482,-0.9870072,,-0.20918566536411928,-0.11129230345044941,0.15482758131000002,-0.00020968994348452436,0.0,0.0,0.0,,-1.5063885517133586,0.04095365243201257,0.07533000448,0.0012581396609071462,-0.5488688195577742,0.4214285223035448,0.0
2.8170569230001092,,0.20456462,-1.5895256,-3.9631765,-0.58297175,-0.647519,-0.49077797,-0.80465806,0.5438019,0.23833756,0.11255784,0.5338525,-0.83805263,,0.15126513,-1.5357835,-3.6797998,0.30153048,-0.94021136,0.1583727,-0.87431526,-0.33891937,-0.34742832,0.38033164,-0.03370746,-0.9242357,,0.19840631,-1.6514713,-4.0169344,-0.9999525,0.009278631,0.0029866917,0.008678369,0.9869735,-0.16064839,-0.004438383,-0.16061482,-0.9870072,,-0.20918566536411928,-0.11129230345044941,0.15482758131000002,-0.00020968994348452436,0.0,0.0,0.0,,-1.5063885517133586,0.04095365243201257,0.07533000448,0.0012581396609071462,-0.5488688195577742,0.4214285223035448,0.0
2.8460818499997913,,0.20456535,-1.5895262,-3.9631772,-0.5829723,-0.64752233,-0.490773,-0.8046575,0.5438044,0.23833345,0.11255829,0.533846,-0.8380567,,0.15126553,-1.5357833,-3.6797996,0.30152747,-0.94021136,0.15837857,-0.874317,-0.3389187,-0.3474247,0.3803301,-0.03371499,-0.9242361,,0.19840631,-1.6514713,-4.0169344,-0.9999525,0.009278631,0.0029866917,0.008678369,0.9869735,-0.16064839,-0.004438383,-0.16061482,-0.9870072,,-0.20919338809699353,-0.11129230345044941,0.15482758131000002,-0.00020968994348452436,0.0,0.0,0.0,,-1.506396274446233,0.04095365243201257,0.07533000448,0.0012581396609071462,-0.5488688195577742,0.4214285223035448,0.0
2.8714758649998657,,0.20456462,-1.5895256,-3.9631765,-0.58297175,-0.647519,-0.49077797,-0.80465806,0.5438019,0.23833756,0.11255784,0.5338525,-0.83805263,,0.1512658,-1.5357838,-3.6797996,0.30152342,-0.94021237,0.15838069,-0.8743156,-0.3389159,-0.34743086,0.38033652,-0.033716206,-0.92423344,,0.19840631,-1.6514713,-4.0169344,-0.9999525,0.009278631,0.0029866917,0.008678369,0.9869735,-0.16064839,-0.004438383,-0.16061482,-0.9870072,,-0.20918566536411928,-0.11129230345044941,0.15482758131000002,-0.00020968994348452436,0.0,0.0,0.0,,-1.506396274446233,0.04094592969913835,0.07533000448,0.0012581396609071462,-0.5488688195577742,0.4214285223035448,0.0
2.897575365999728,,0.20456462,-1.5895256,-3.9631765,-0.58297175,-0.647519,-0.49077797,-0.80465806,0.5438019,0.23833756,0.11255784,0.5338525,-0.83805263,,0.15126513,-1.5357835,-3.6797998,0.30153048,-0.9401984,0.15844947,-0.87431526,-0.3389477,-0.34740064,0.38033164,-0.033782944,-0.924233,,0.19840631,-1.6514713,-4.0169344,-0.9999525,0.009278631,0.0029866917,0.008678369,0.9869735,-0.16064839,-0.004438383,-0.16061482,-0.9870072,,-0.20918566536411928,-0.11129230345044941,0.15482758131000002,-0.00020968994348452436,0.0,0.0,0.0,,-1.5063885517133586,0.04095365243201257,0.07533000448,0.0012581396609071462,-0.5488688195577742,0.42134684356340424,-0.0001633440661342779
2.9186617209998076,,0.20456535,-1.5895262,-3.9631772,-0.5829723,-0.64752233,-0.490773,-0.8046575,0.5438044,0.23833345,0.11255829,0.533846,-0.8380567,,0.15126513,-1.5357835,-3.6797998,0.30153048,-0.9401855,0.15852627,-0.87431526,-0.33897611,-0.34737295,0.38033164,-0.033858433,-0.92423016,,0.19840631,-1.6514713,-4.0169344,-0.9999525,0.009278631,0.0029866917,0.008678369,0.9869735,-0.16064839,-0.004438383,-0.16061482,-0.9870072,,-0.20919338809699353,-0.11129230345044941,0.15482758131000002,-0.00020968994348452436,0.0,0.0,0.0,,-1.5063885517133586,0.04095365243201257,0.07533000448,0.0012581396609071462,-0.5488688195577742,0.42126516482326365,-0.0003266881322685593
2.947775490999902,,0.20456462,-1.5895256,-3.9631765,-0.58297175,-0.647519,-0.49077797,-0.80465806,0.5438019,0.23833756,0.11255784,0.5338525,-0.83805263,,0.15126595,-1.535783,-3.6797996,0.30152452,-0.9401855,0.15853803,-0.8743187,-0.33897483,-0.34736568,0.38032854,-0.033873506,-0.92423093,,0.19840631,-1.6514713,-4.0169344,-0.9999525,0.009278631,0.0029866917,0.008678369,0.9869735,-0.16064839,-0.004438383,-0.16061482,-0.9870072,,-0.20918566536411928,-0.11129230345044941,0.15482758131000002,-0.00020968994348452436,0.0,0.0,0.0,,-1.506403997179107,0.04095365243201257,0.07533000448,0.0012581396609071462,-0.5488688195577742,0.42126516482326365,-0.0003266881322685593
2.976797798000007,,0.20456462,-1.5895256,-3.9631765,-0.58297175,-0.647519,-0.49077797,-0.80465806,0.5438019,0.23833756,0.11255784,0.5338525,-0.83805263,,0.15126553,-1.5357833,-3.6797996,0.30152747,-0.9401855,0.15853216,-0.874317,-0.33897546,-0.3473693,0.3803301,-0.033865966,-0.9242306,,0.19840631,-1.6514713,-4.0169344,-0.9999525,0.009278631,0.0029866917,0.008678369,0.9869735,-0.16064839,-0.004438383,-0.16061482,-0.9870072,,-0.20918566536411928,-0.11129230345044941,0.15482758131000002,-0.00020968994348452436,0.0,0.0,0.0,,-1.506396274446233,0.04095365243201257,0.07533000448,0.0012581396609071462,-0.5488688195577742,0.42126516482326365,-0.0003266881322685593
2.999394602999928,,0.20456462,-1.5895256,-3.9631765,-0.58310753,-0.64739686,-0.49077797,-0.8045441,0.5439706,0.23833756,0.11266978,0.533829,-0.83805263,,0.15126513,-1.5357835,-3.6797998,0.30153048,-0.9401855,0.15852627,-0.87431526,-0.33897611,-0.34737295,0.38033164,-0.033858433,-0.92423016,,0.19840631,-1.6514713,-4.0169344,-0.9999525,0.009278631,0.0029866917,0.008678369,0.9869735,-0.16064839,-0.004438383,-0.16061482,-0.9870072,,-0.20918566536411928,-0.11129230345044941,0.15482758131000002,0.0,0.0,0.0,0.0,,-1.5063885517133586,0.04095365243201257,0.07533000448,0.0012581396609071462,-0.5488688195577742,0.42126516482326365,-0.0003266881322685593
3.022381444000075,,0.20456395,-1.5895265,-3.9631765,-0.5832395,-0.6472745,-0.49078247,-0.80443174,0.5441393,0.23833135,0.112788185,0.5338053,-0.83805174,,0.15126513,-1.5357835,-3.6797998,0.30153048,-0.9401855,0.15852627,-0.87431526,-0.33897611,-0.34737295,0.38033164,-0.033858433,-0.92423016,,0.19840631,-1.6514713,-4.0169344,-0.9999525,0.009278631,0.0029866917,0.008678369,0.9869735,-0.16064839,-0.004438383,-0.16061482,-0.9870072,,-0.20918566536411928,-0.11130002618332363,0.15482758131000002,0.00020968994348452436,0.0,0.0,0.0,,-1.5063885517133586,0.04095365243201257,0.07533000448,0.0012581396609071462,-0.5488688195577742,0.42126516482326365,-0.0003266881322685593
3.04856907400017,,0.20456462,-1.5895256,-3.9631765,-0.58324325,-0.6472745,-0.49077797,-0.80442995,0.5441393,0.23833756,0.112781726,0.5338053,-0.83805263,,0.15126513,-1.5357835,-3.6797998,0.30153048,-0.9401855,0.15852627,-0.87431526,-0.33897611,-0.34737295,0.38033164,-0.033858433,-0.92423016,,0.19840631,-1.6514713,-4.0169344,-0.9999525,0.009278631,0.0029866917,0.008678369,0.9869735,-0.16064839,-0.004438383,-0.16061482,-0.9870072,,-0.20918566536411928,-0.11129230345044941,0.15482758131000002,0.00020968994348452436,0.0,0.0,0.0,,-1.5063885517133586,0.04095365243201257,0.07533000448,0.0012581396609071462,-0.5488688195577742,0.42126516482326365,-0.0003266881322685593
3.078518556999825,,0.20456462,-1.5895256,-3.9631765,-0.58324325,-0.6472745,-0.49077797,-0.80442995,0.5441393,0.23833756,0.112781726,0.5338053,-0.83805263,,0.15126553,-1.5357833,-3.6797996,0.30152747,-0.9401855,0.15853216,-0.874317,-0.33897546,-0.3473693,0.3803301,-0.033865966,-0.9242306,,0.19840631,-1.6514713,-4.0169344,-0.9999525,0.009278631,0.0029866917,0.008678369,0.9869735,-0.16064839,-0.004438383,-0.16061482,-0.9870072,,-0.20918566536411928,-0.11129230345044941,0.15482758131000002,0.00020968994348452436,0.0,0.0,0.0,,-1.506396274446233,0.04095365243201257,0.07533000448,0.0012581396609071462,-0.5488688195577742,0.42126516482326365,-0.0003266881322685593
3.1021248100000776,,0.20456535,-1.5895262,-3.9631772,-0.5832438,-0.6472778,-0.490773,-0.8044295,0.5441418,0.23833345,0.11278217,0.53379875,-0.8380567,,0.15126513,-1.5357835,-3.6797998,0.30153048,-0.9401855,0.15852627,-0.87431526,-0.33897611,-0.34737295,0.38033164,-0.033858433,-0.92423016,,0.19840631,-1.6514713,-4.0169344,-0.9999525,0.009278631,0.0029866917,0.008678369,0.9869735,-0.16064839,-0.004438383,-0.16061482,-0.9870072,,-0.20919338809699353,-0.11129230345044941,0.15482758131000002,0.00020968994348452436,0.0,0.0,0.0,,-1.5063885517133586,0.04095365243201257,0.07533000448,0.0012581396609071462,-0.5488688195577742,0.42126516482326365,-0.0003266881322685593
3.1285795349999717,,0.20456462,-1.5895256,-3.9631765,-0.58324325,-0.6472745,-0.49077797,-0.80442995,0.5441393,0.23833756,0.112781726,0.5338053,-0.83805263,,0.15126595,-1.535783,-3.6797996,0.30152452,-0.9401855,0.15853803,-0.8743187,-0.33897483,-0.34736568,0.38032854,-0.033873506,-0.92423093,,0.19840631,-1.6514713,-4.0169344,-0.9999525,0.009278631,0.0029866917,0.008678369,0.9869735,-0.16064839,-0.004438383,-0.16061482,-0.9870072,,-0.20918566536411928,-0.11129230345044941,0.15482758131000002,0.00020968994348452436,0.0,0.0,0.0,,-1.506403997179107,0.04095365243201257,0.07533000448,0.0012581396609071462,-0.5488688195577742,0.42126516482326365,-0.0003266881322685593
3.1499119669997526,,0.20456462,-1.5895256,-3.9631765,-0.58324325,-0.6472745,-0.49077797,-0.80442995,0.5441393,0.23833756,0.112781726,0.5338053,-0.83805263,,0.15126553,-1.5357833,-3.6797996,0.30152747,-0.9401855,0.15853216,-0.874317,-0.33897546,-0.3473693,0.3803301,-0.033865966,-0.9242306,,0.19840631,-1.6514713,-4.0169344,-0.9999525,0.009278631,0.0029866917,0.008678369,0.9869735,-0.16064839,-0.004438383,-0.16061482,-0.9870072,,-0.20918566536411928,-0.11129230345044941,0.15482758131000002,0.00020968994348452436,0.0,0.0,0.0,,-1.506396274446233,0.04095365243201257,0.07533000448,0.0012581396609071462,-0.5488688195577742,0.42126516482326365,-0.0003266881322685593
3.1782777180001176,,0.20456462,-1.5895256,-3.9631765,-0.58324325,-0.6472745,-0.49077797,-0.80442995,0.5441393,0.23833756,0.112781726,0.5338053,-0.83805263,,0.15126513,-1.5357835,-3.6797998,0.30153048,-0.9401855,0.15852627,-0.87431526,-0.33897611,-0.34737295,0.38033164,-0.033858433,-0.92423016,,0.19840631,-1.6514713,-4.0169344,-0.9999525,0.009278631,0.0029866917,0.008678369,0.9869735,-0.16064839,-0.004438383,-0.16061482,-0.9870072,,-0.20918566536411928,-0.11129230345044941,0.15482758131000002,0.00020968994348452436,0.0,0.0,0.0,,-1.5063885517133586,0.04095365243201257,0.07533000448,0.0012581396609071462,-0.5488688195577742,0.42126516482326365,-0.0003266881322685593
3.2014641480000137,,0.20456462,-1.5895256,-3.9631765,-0.58324325,-0.6472745,-0.49077797,-0.80442995,0.5441393,0.23833756,0.112781726,0.5338053,-0.83805263,,0.15126513,-1.5357835,-3.6797998,0.30153048,-0.9401855,0.15852627,-0.87431526,-0.33897611,-0.34737295,0.38033164,-0.033858433,-0.92423016,,0.19840631,-1.6514713,-4.0169344,-0.9999525,0.009278631,0.0029866917,0.008678369,0.9869735,-0.16064839,-0.004438383,-0.16061482,-0.9870072,,-0.20918566536411928,-0.11129230345044941,0.15482758131000002,0.00020968994348452436,0.0,0.0,0.0,,-1.5063885517133586,0.04095365243201257,0.07533000448,0.0012581396609071462,-0.5488688195577742,0.42126516482326365,-0.0003266881322685593
3.2297599429998627,,0.20456462,-1.5895256,-3.9631765,-0.58324325,-0.6472745,-0.49077797,-0.80442995,0.5441393,0.23833756,0.112781726,0.5338053,-0.83805263,,0.15126513,-1.5357835,-3.6797998,0.30153048,-0.9401855,0.15852627,-0.87431526,-0.33897611,-0.34737295,0.38033164,-0.033858433,-0.92423016,,0.19840631,-1.6514713,-4.0169344,-0.9999525,0.009278631,0.0029866917,0.008678369,0.9869735,-0.16064839,-0.004438383,-0.16061482,-0.9870072,,-0.20918566536411928,-0.11129230345044941,0.15482758131000002,0.00020968994348452436,0.0,0.0,0.0,,-1.5063885517133586,0.04095365243201257,0.07533000448,0.0012581396609071462,-0.5488688195577742,0.42126516482326365,-0.0003266881322685593
3.2519353650000085,,0.20456462,-1.5895256,-3.9631765,-0.58324325,-0.6472745,-0.49077797,-0.80442995,0.5441393,0.23833756,0.112781726,0.5338053,-0.83805263,,0.15126513,-1.5357835,-3.6797998,0.30153048,-0.9401855,0.15852627,-0.87431526,-0.33897611,-0.34737295,0.38033164,-0.033858433,-0.92423016,,0.19840631,-1.6514713,-4.0169344,-0.9999525,0.009278631,0.0029866917,0.008678369,0.9869735,-0.16064839,-0.004438383,-0.16061482,-0.9870072,,-0.20918566536411928,-0.11129230345044941,0.15482758131000002,0.00020968994348452436,0.0,0.0,0.0,,-1.5063885517133586,0.04095365243201257,0.07533000448,0.0012581396609071462,-0.5488688195577742,0.42126516482326365,-0.0003266881322685593
3.2798706580001635,,0.20456535,-1.5895262,-3.9631772,-0.5832438,-0.6472778,-0.490773,-0.8044295,0.5441418,0.23833345,0.11278217,0.53379875,-0.8380567,,0.15126513,-1.5357835,-3.6797998,0.30153048,-0.9401855,0.15852627,-0.87431526,-0.33897611,-0.34737295,0.38033164,-0.033858433,-0.92423016,,0.19840631,-1.6514713,-4.0169344,-0.9999525,0.009278631,0.0029866917,0.008678369,0.9869735,-0.16064839,-0.004438383,-0.16061482,-0.9870072,,-0.20919338809699353,-0.11129230345044941,0.15482758131000002,0.00020968994348452436,0.0,0.0,0.0,,-1.5063885517133586,0.04095365243201257,0.07533000448,0.0012581396609071462,-0.5488688195577742,0.42126516482326365,-0.0003266881322685593
3.306447281000146,,0.20456462,-1.5895256,-3.9631765,-0.58324325,-0.6472745,-0.49077797,-0.80442995,0.5441393,0.23833756,0.112781726,0.5338053,-0.83805263,,0.15126513,-1.5357835,-3.6797998,0.30153048,-0.9401855,0.15852627,-0.87431526,-0.33897611,-0.34737295,0.38033164,-0.033858433,-0.92423016,,0.19840631,-1.6514713,-4.0169344,-0.9999525,0.009278631,0.0029866917,0.008678369,0.9869735,-0.16064839,-0.004438383,-0.16061482,-0.9870072,,-0.20918566536411928,-0.11129230345044941,0.15482758131000002,0.00020968994348452436,0.0,0.0,0.0,,-1.5063885517133586,0.04095365243201257,0.07533000448,0.0012581396609071462,-0.5488688195577742,0.42126516482326365,-0.0003266881322685593
3.336912785000095,,0.20456535,-1.5895262,-3.9631772,-0.5832438,-0.6472778,-0.490773,-0.8044295,0.5441418,0.23833345,0.11278217,0.53379875,-0.8380567,,0.15126553,-1.5357833,-3.6797996,0.30152747,-0.9401855,0.15853216,-0.874317,-0.33897546,-0.3473693,0.3803301,-0.033865966,-0.9242306,,0.19840631,-1.6514713,-4.0169344,-0.9999525,0.009278631,0.0029866917,0.008678369,0.9869735,-0.16064839,-0.004438383,-0.16061482,-0.9870072,,-0.20919338809699353,-0.11129230345044941,0.15482758131000002,0.00020968994348452436,0.0,0.0,0.0,,-1.506396274446233,0.04095365243201257,0.07533000448,0.0012581396609071462,-0.5488688195577742,0.42126516482326365,-0.0003266881322685593
3.365024098000049,,0.20456535,-1.5895262,-3.9631772,-0.5832438,-0.6472778,-0.490773,-0.8044295,0.5441418,0.23833345,0.11278217,0.53379875,-0.8380567,,0.15126513,-1.5357835,-3.6797998,0.30153048,-0.9401855,0.15852627,-0.87431526,-0.33897611,-0.34737295,0.38033164,-0.033858433,-0.92423016,,0.19840631,-1.6514713,-4.0169344,-0.9999525,0.009278631,0.0029866917,0.008678369,0.9869735,-0.16064839,-0.004438383,-0.16061482,-0.9870072,,-0.20919338809699353,-0.11129230345044941,0.15482758131000002,0.00020968994348452436,0.0,0.0,0.0,,-1.5063885517133586,0.04095365243201257,0.07533000448,0.0012581396609071462,-0.5488688195577742,0.42126516482326365,-0.0003266881322685593
3.395685073000095,,0.20456535,-1.5895262,-3.9631772,-0.5832438,-0.6472778,-0.490773,-0.8044295,0.5441418,0.23833345,0.11278217,0.53379875,-0.8380567,,0.15126553,-1.5357833,-3.6797996,0.30152747,-0.9401855,0.15853216,-0.874317,-0.33897546,-0.3473693,0.3803301,-0.033865966,-0.9242306,,0.19840631,-1.6514713,-4.0169344,-0.9999525,0.009278631,0.0029866917,0.008678369,0.9869735,-0.16064839,-0.004438383,-0.16061482,-0.9870072,,-0.20919338809699353,-0.11129230345044941,0.15482758131000002,0.00020968994348452436,0.0,0.0,0.0,,-1.506396274446233,0.04095365243201257,0.07533000448,0.0012581396609071462,-0.5488688195577742,0.42126516482326365,-0.0003266881322685593
3.4193829370001367,,0.20456462,-1.5895256,-3.9631765,-0.58324325,-0.6472745,-0.49077797,-0.80442995,0.5441393,0.23833756,0.112781726,0.5338053,-0.83805263,,0.15126513,-1.5357835,-3.6797998,0.30153048,-0.9401855,0.15852627,-0.87431526,-0.33897611,-0.34737295,0.38033164,-0.033858433,-0.92423016,,0.19840631,-1.6514713,-4.0169344,-0.9999525,0.009278631,0.0029866917,0.008678369,0.9869735,-0.16064839,-0.004438383,-0.16061482,-0.9870072,,-0.20918566536411928,-0.11129230345044941,0.15482758131000002,0.00020968994348452436,0.0,0.0,0.0,,-1.5063885517133586,0.04095365243201257,0.07533000448,0.0012581396609071462,-0.5488688195577742,0.42126516482326365,-0.0003266881322685593
3.4465086279997195,,0.20456395,-1.5895265,-3.9631765,-0.5832395,-0.6472745,-0.49078247,-0.80443174,0.5441393,0.23833135,0.112788185,0.5338053,-0.83805174,,0.15126553,-1.5357833,-3.6797996,0.30152747,-0.9401855,0.15853216,-0.874317,-0.33897546,-0.3473693,0.3803301,-0.033865966,-0.9242306,,0.19840631,-1.6514713,-4.0169344,-0.9999525,0.009278631,0.0029866917,0.008678369,0.9869735,-0.16064839,-0.004438383,-0.16061482,-0.9870072,,-0.20918566536411928,-0.11130002618332363,0.15482758131000002,0.00020968994348452436,0.0,0.0,0.0,,-1.506396274446233,0.04095365243201257,0.07533000448,0.0012581396609071462,-0.5488688195577742,0.42126516482326365,-0.0003266881322685593
3.47239631299999,,0.20456535,-1.5895262,-3.9631772,-0.5832438,-0.6472778,-0.490773,-0.8044295,0.5441418,0.23833345,0.11278217,0.53379875,-0.8380567,,0.15126513,-1.5357835,-3.6797998,0.30153048,-0.9401855,0.15852627,-0.87431526,-0.33897611,-0.34737295,0.38033164,-0.033858433,-0.92423016,,0.19840631,-1.6514713,-4.0169344,-0.9999525,0.009278631,0.0029866917,0.008678369,0.9869735,-0.16064839,-0.004438383,-0.16061482,-0.9870072,,-0.20919338809699353,-0.11129230345044941,0.15482758131000002,0.00020968994348452436,0.0,0.0,0.0,,-1.5063885517133586,0.04095365243201257,0.07533000448,0.0012581396609071462,-0.5488688195577742,0.42126516482326365,-0.0003266881322685593
3.5017066149998755,,0.20456462,-1.5895256,-3.9631765,-0.58324325,-0.6472745,-0.49077797,-0.80442995,0.5441393,0.23833756,0.112781726,0.5338053,-0.83805263,,0.15126513,-1.5357835,-3.6797998,0.30153048,-0.9401855,0.15852627,-0.87431526,-0.33897611,-0.34737295,0.38033164,-0.033858433,-0.92423016,,0.19840631,-1.6514713,-4.0169344,-0.9999525,0.009278631,0.0029866917,0.008678369,0.9869735,-0.16064839,-0.004438383,-0.16061482,-0.9870072,,-0.20918566536411928,-0.11129230345044941,0.15482758131000002,0.00020968994348452436,0.0,0.0,0.0,,-1.5063885517133586,0.04095365243201257,0.07533000448,0.0012581396609071462,-0.5488688195577742,0.42126516482326365,-0.0003266881322685593
3.5274374669997997,,0.20456462,-1.5895256,-3.9631765,-0.58324325,-0.6472745,-0.49077797,-0.80442995,0.5441393,0.23833756,0.112781726,0.5338053,-0.83805263,,0.15126553,-1.5357833,-3.6797996,0.30152747,-0.9401855,0.15853216,-0.874317,-0.33897546,-0.3473693,0.3803301,-0.033865966,-0.9242306,,0.19840631,-1.6514713,-4.0169344,-0.9999525,0.009278631,0.0029866917,0.008678369,0.9869735,-0.16064839,-0.004438383,-0.16061482,-0.9870072,,-0.20918566536411928,-0.11129230345044941,0.15482758131000002,0.00020968994348452436,0.0,0.0,0.0,,-1.506396274446233,0.04095365243201257,0.07533000448,0.0012581396609071462,-0.5488688195577742,0.42126516482326365,-0.0003266881322685593
3.5515734679997877,,0.20456535,-1.5895262,-3.9631772,-0.5832438,-0.6472778,-0.490773,-0.8044295,0.5441418,0.23833345,0.11278217,0.53379875,-0.8380567,,0.15126513,-1.5357835,-3.6797998,0.30153048,-0.9401855,0.15852627,-0.87431526,-0.33897611,-0.34737295,0.38033164,-0.033858433,-0.92423016,,0.19840631,-1.6514713,-4.0169344,-0.9999525,0.009278631,0.0029866917,0.008678369,0.9869735,-0.16064839,-0.004438383,-0.16061482,-0.9870072,,-0.20919338809699353,-0.11129230345044941,0.15482758131000002,0.00020968994348452436,0.0,0.0,0.0,,-1.5063885517133586,0.04095365243201257,0.07533000448,0.0012581396609071462,-0.5488688195577742,0.42126516482326365,-0.0003266881322685593
3.584051034999902,,0.20458272,-1.5895325,-3.9631746,-0.58323413,-0.6472819,-0.49077913,-0.804435,0.5441403,0.23831865,0.11279334,0.5337955,-0.8380573,,0.15129568,-1.5357809,-3.6798081,0.3015483,-0.94017667,0.15854493,-0.87432164,-0.3389985,-0.34733528,0.380303,-0.033880904,-0.9242412,,0.19844712,-1.6514829,-4.016932,-0.9999531,0.009215972,0.002982582,0.008617179,0.986974,-0.16064924,-0.004424269,-0.16061598,-0.9870071,,-0.20918566536411928,-0.11129230345044941,0.15482758131000002,0.00020968994348452436,0.0,0.0,0.0,,-1.506396274446233,0.04095365243201257,0.07533000448,0.0012581396609071462,-0.5488688195577742,0.42126516482326365,-0.0003266881322685593
3.614358667000033,,0.20458345,-1.5895332,-3.963175,-0.58323467,-0.6472851,-0.49077415,-0.80443454,0.54414284,0.23831451,0.11279379,0.533789,-0.8380614,,0.15129527,-1.5357811,-3.6798084,0.30155125,-0.94017667,0.15853906,-0.8743199,-0.33899912,-0.3473389,0.38030455,-0.03387337,-0.9242408,,0.19844712,-1.6514829,-4.016932,-0.9999531,0.009215972,0.002982582,0.008617179,0.986974,-0.16064924,-0.004424269,-0.16061598,-0.9870071,,-0.20919338809699353,-0.11129230345044941,0.15482758131000002,0.00020968994348452436,0.0,0.0,0.0,,-1.5063885517133586,0.04095365243201257,0.07533000448,0.0012581396609071462,-0.5488688195577742,0.42126516482326365,-0.0003266881322685593
3.6428442559999894,,0.20458272,-1.5895325,-3.9631746,-0.58323413,-0.6472819,-0.49077913,-0.804435,0.5441403,0.23831865,0.11279334,0.5337955,-0.8380573,,0.15129527,-1.5357811,-3.6798084,0.30155125,-0.94017667,0.15853906,-0.8743199,-0.33899912,-0.3473389,0.38030455,-0.03387337,-0.9242408,,0.19844712,-1.6514829,-4.016932,-0.9999531,0.009215972,0.002982582,0.008617179,0.986974,-0.16064924,-0.004424269,-0.16061598,-0.9870071,,-0.20918566536411928,-0.11129230345044941,0.15482758131000002,0.00020968994348452436,0.0,0.0,0.0,,-1.5063885517133586,0.04095365243201257,0.07533000448,0.0012581396609071462,-0.5488688195577742,0.42126516482326365,-0.0003266881322685593
3.667209866000121,,0.20458345,-1.5895332,-3.963175,-0.58323467,-0.6472851,-0.49077415,-0.80443454,0.54414284,0.23831451,0.11279379,0.533789,-0.8380614,,0.15129527,-1.5357811,-3.6798084,0.30155125,-0.9401896,0.15846227,-0.8743199,-0.33897075,-0.34736663,0.38030455,-0.03379788,-0.92424357,,0.19844712,-1.6514829,-4.016932,-0.9999531,0.009215972,0.002982582,0.008617179,0.986974,-0.16064924,-0.004424269,-0.16061598,-0.9870071,,-0.20919338809699353,-0.11129230345044941,0.15482758131000002,0.00020968994348452436,0.0,0.0,0.0,,-1.5063885517133586,0.04095365243201257,0.07533000448,0.0012581396609071462,-0.5488688195577742,0.42134684356340424,-0.0001633440661342779
3.695582456000011,,0.20458272,-1.5895325,-3.9631746,-0.58323413,-0.6472819,-0.49077913,-0.804435,0.5441403,0.23831865,0.11279334,0.5337955,-0.8380573,,0.15129568,-1.5357809,-3.6798081,0.3015483,-0.94020253,0.15839134,-0.87432164,-0.33894175,-0.34739065,0.380303,-0.033729922,-0.9242467,,0.19844712,-1.6514829,-4.016932,-0.9999531,0.009215972,0.002982582,0.008617179,0.986974,-0.16064924,-0.004424269,-0.16061598,-0.9870071,,-0.20918566536411928,-0.11129230345044941,0.15482758131000002,0.00020968994348452436,0.0,0.0,0.0,,-1.506396274446233,0.04095365243201257,0.07533000448,0.0012581396609071462,-0.5488688195577742,0.4214285223035448,0.0
3.724007706000066,,0.20458272,-1.5895325,-3.9631746,-0.58323413,-0.6472819,-0.49077913,-0.804435,0.5441403,0.23831865,0.11279334,0.5337955,-0.8380573,,0.15129568,-1.5357809,-3.6798081,0.3015483,-0.94020253,0.15839134,-0.87432164,-0.33894175,-0.34739065,0.380303,-0.033729922,-0.9242467,,0.19844712,-1.6514829,-4.016932,-0.9999531,0.009215972,0.002982582,0.008617179,0.986974,-0.16064924,-0.004424269,-0.16061598,-0.9870071,,-0.20918566536411928,-0.11129230345044941,0.15482758131000002,0.00020968994348452436,0.0,0.0,0.0,,-1.506396274446233,0.04095365243201257,0.07533000448,0.0012581396609071462,-0.5488688195577742,0.4214285223035448,0.0
3.7494414819998383,,0.20458345,-1.5895332,-3.963175,-0.58323467,-0.6472851,-0.49077415,-0.80443454,0.54414284,0.23831451,0.11279379,0.533789,-0.8380614,,0.15129568,-1.5357809,-3.6798081,0.3015483,-0.94020253,0.15839134,-0.87432164,-0.33894175,-0.34739065,0.380303,-0.033729922,-0.9242467,,0.19844712,-1.6514829,-4.016932,-0.9999531,0.009215972,0.002982582,0.008617179,0.986974,-0.16064924,-0.004424269,-0.16061598,-0.9870071,,-0.20919338809699353,-0.11129230345044941,0.15482758131000002,0.00020968994348452436,0.0,0.0,0.0,,-1.506396274446233,0.04095365243201257,0.07533000448,0.0012581396609071462,-0.5488688195577742,0.4214285223035448,0.0
3.7801065909998215,,0.20458272,-1.5895325,-3.9631746,-0.58323413,-0.6472819,-0.49077913,-0.804435,0.5441403,0.23831865,0.11279334,0.5337955,-0.8380573,,0.15129527,-1.5357811,-3.6798084,0.30155125,-0.94020253,0.15838547,-0.8743199,-0.33894238,-0.3473943,0.38030455,-0.03372239,-0.9242463,,0.19844712,-1.6514829,-4.016932,-0.9999531,0.009215972,0.002982582,0.008617179,0.986974,-0.16064924,-0.004424269,-0.16061598,-0.9870071,,-0.20918566536411928,-0.11129230345044941,0.15482758131000002,0.00020968994348452436,0.0,0.0,0.0,,-1.5063885517133586,0.04095365243201257,0.07533000448,0.0012581396609071462,-0.5488688195577742,0.4214285223035448,0.0
