AlexandreBanks6/ExpertPlaybackApp/resources/Motions/Motion_1.csv
Time,si_T_psm1,Tx,Ty,Tz,R00,R01,R02,R10,R11,R12,R20,R21,R22,si_T_psm3,Tx,Ty,Tz,R00,R01,R02,R10,R11,R12,R20,R21,R22,si_T_ecm,Tx,Ty,Tz,R00,R01,R02,R10,R11,R12,R20,R21,R22,joint_vars_psm1,q1,q2,q3,q4,q5,q6,jaw,joint_vars_psm3,q1,q2,q3,q4,q5,q6,jaw
lci_T_si
,,-0.07381702,0.06540081,0.6053372,0.9980878,0.0040217075,-0.06168115,-0.005895837,-0.9871373,-0.15976584,-0.0615303,0.159824,-0.98522604
rci_T_si
,,-0.074449144,0.05332554,0.572377,0.9948092,-0.001958001,-0.10173891,-0.017027201,-0.9889213,-0.14746088,-0.100323044,0.14842777,-0.9838214
ecm_T_lc
,,0.022782804,0.054864287,-0.33796614,-0.99125,-0.12739496,-0.0345537,0.12872347,-0.990897,-0.03941251,-0.029218202,-0.043515522,0.99862534
ecm_T_rc
,,0.022707665,0.067641795,-0.42994186,-0.99723834,0.02928547,-0.06824988,-0.024871755,-0.9975983,-0.06464576,-0.069979146,-0.06276973,0.9955716
0.04146481299994775,,0.0900538,0.03150227,0.3575474,-0.5984516,-0.6906108,-0.4060941,-0.7572173,0.32201672,0.56826663,-0.26168197,0.6475816,-0.7156539,,-0.2335069,0.1644924,0.20958425,0.19952083,-0.8141937,-0.545234,-0.9161948,-0.35234708,0.19088842,-0.34753174,0.4614544,-0.81626064,,0.09928383,-0.021927826,0.27446824,-0.9873198,0.14670408,-0.060642615,0.13100702,0.968747,0.21063271,0.08964804,0.20001724,-0.97568244,,-0.5178555756139988,0.020303064726336237,0.14358874701000002,-0.00020968994348452436,0.0005465459990617618,0.001923011849290619,-0.0001633440661342792,,-1.3830256167804964,0.030080044545104465,0.14062024291000003,0.12937869512995154,-0.020905384464112386,1.1811323437488452,0.11532091069080108
0.09250661699979901,,0.09005317,0.031501465,0.35754716,-0.5984485,-0.6906108,-0.4060987,-0.7572217,0.32201675,0.5682608,-0.26167643,0.6475816,-0.715656,,-0.23350118,0.16449052,0.20958108,0.19951873,-0.81419915,-0.54522663,-0.9161978,-0.35234028,0.19088683,-0.34752518,0.46144986,-0.816266,,0.09928383,-0.021927826,0.27446824,-0.9873198,0.14670408,-0.060642615,0.13100702,0.968747,0.21063271,0.08964804,0.20001724,-0.97568244,,-0.5178555756139988,0.020295341993462012,0.14358874701000002,-0.00020968994348452436,0.0005465459990617618,0.001923011849290619,-0.0001633440661342792,,-1.3830333395133705,0.03007232181223024,0.14062024291000003,0.12937869512995154,-0.020905384464112386,1.1811323437488452,0.11532091069080108
0.12423180099995079,,0.0900538,0.03150227,0.3575474,-0.5984516,-0.6906108,-0.4060941,-0.7572173,0.32201672,0.56826663,-0.26168197,0.6475816,-0.7156539,,-0.2335022,0.16449374,0.20958263,0.19952166,-0.81419784,-0.54522765,-0.9161947,-0.35234627,0.19089058,-0.34753162,0.4614479,-0.8162644,,0.09928383,-0.021927826,0.27446824,-0.9873198,0.14670408,-0.060642615,0.13100702,0.968747,0.21063271,0.08964804,0.20001724,-0.97568244,,-0.5178555756139988,0.020303064726336237,0.14358874701000002,-0.00020968994348452436,0.0005465459990617618,0.001923011849290619,-0.0001633440661342792,,-1.3830333395133705,0.030080044545104465,0.14062024291000003,0.12937869512995154,-0.020905384464112386,1.1811323437488452,0.11532091069080108
0.16086245299993607,,0.09005317,0.031501465,0.35754716,-0.5984485,-0.6906108,-0.4060987,-0.7572217,0.32201675,0.5682608,-0.26167643,0.6475816,-0.715656,,-0.2335022,0.16449374,0.20958263,0.19952166,-0.81419784,-0.54522765,-0.9161947,-0.35234627,0.19089058,-0.34753162,0.4614479,-0.8162644,,0.09928383,-0.021927826,0.27446824,-0.9873198,0.14670408,-0.060642615,0.13100702,0.968747,0.21063271,0.08964804,0.20001724,-0.97568244,,-0.5178555756139988,0.020295341993462012,0.14358874701000002,-0.00020968994348452436,0.0005465459990617618,0.001923011849290619,-0.0001633440661342792,,-1.3830333395133705,0.030080044545104465,0.14062024291000003,0.12937869512995154,-0.020905384464112386,1.1811323437488452,0.11532091069080108
0.18606933000000936,,0.09005317,0.031501465,0.35754716,-0.5984485,-0.6906108,-0.4060987,-0.7572217,0.32201675,0.5682608,-0.26167643,0.6475816,-0.715656,,-0.2335069,0.1644924,0.20958425,0.19952083,-0.8141937,-0.545234,-0.9161948,-0.35234708,0.19088842,-0.34753174,0.4614544,-0.81626064,,0.09928383,-0.021927826,0.27446824,-0.9873198,0.14670408,-0.060642615,0.13100702,0.968747,0.21063271,0.08964804,0.20001724,-0.97568244,,-0.5178555756139988,0.020295341993462012,0.14358874701000002,-0.00020968994348452436,0.0005465459990617618,0.001923011849290619,-0.0001633440661342792,,-1.3830256167804964,0.030080044545104465,0.14062024291000003,0.12937869512995154,-0.020905384464112386,1.1811323437488452,0.11532091069080108
0.22052569199968275,,0.0900538,0.03150227,0.3575474,-0.5984516,-0.6906108,-0.4060941,-0.7572173,0.32201672,0.56826663,-0.26168197,0.6475816,-0.7156539,,-0.23350592,0.16448918,0.20958275,0.19951782,-0.81419516,-0.54523295,-0.9161979,-0.35234106,0.19088465,-0.3475253,0.46145642,-0.8162623,,0.09928383,-0.021927826,0.27446824,-0.9873198,0.14670408,-0.060642615,0.13100702,0.968747,0.21063271,0.08964804,0.20001724,-0.97568244,,-0.5178555756139988,0.020303064726336237,0.14358874701000002,-0.00020968994348452436,0.0005465459990617618,0.001923011849290619,-0.0001633440661342792,,-1.3830256167804964,0.03007232181223024,0.14062024291000003,0.12937869512995154,-0.020905384464112386,1.1811323437488452,0.11532091069080108
0.25329943499991714,,0.0900538,0.03150227,0.3575474,-0.5984516,-0.6906108,-0.4060941,-0.7572173,0.32201672,0.56826663,-0.26168197,0.6475816,-0.7156539,,-0.2335069,0.1644924,0.20958425,0.19952083,-0.8141937,-0.545234,-0.9161948,-0.35234708,0.19088842,-0.34753174,0.4614544,-0.81626064,,0.09928383,-0.021927826,0.27446824,-0.9873198,0.14670408,-0.060642615,0.13100702,0.968747,0.21063271,0.08964804,0.20001724,-0.97568244,,-0.5178555756139988,0.020303064726336237,0.14358874701000002,-0.00020968994348452436,0.0005465459990617618,0.001923011849290619,-0.0001633440661342792,,-1.3830256167804964,0.030080044545104465,0.14062024291000003,0.12937869512995154,-0.020905384464112386,1.1811323437488452,0.11532091069080108
0.28488673199990444,,0.09005317,0.031501465,0.35754716,-0.5984485,-0.6906108,-0.4060987,-0.7572217,0.32201675,0.5682608,-0.26167643,0.6475816,-0.715656,,-0.2335022,0.16449374,0.20958263,0.19952166,-0.81419784,-0.54522765,-0.9161947,-0.35234627,0.19089058,-0.34753162,0.4614479,-0.8162644,,0.09928383,-0.021927826,0.27446824,-0.9873198,0.14670408,-0.060642615,0.13100702,0.968747,0.21063271,0.08964804,0.20001724,-0.97568244,,-0.5178555756139988,0.020295341993462012,0.14358874701000002,-0.00020968994348452436,0.0005465459990617618,0.001923011849290619,-0.0001633440661342792,,-1.3830333395133705,0.030080044545104465,0.14062024291000003,0.12937869512995154,-0.020905384464112386,1.1811323437488452,0.11532091069080108
0.32729893699979584,,0.0900538,0.03150227,0.3575474,-0.5984516,-0.6906108,-0.4060941,-0.7572173,0.32201672,0.56826663,-0.26168197,0.6475816,-0.7156539,,-0.2335022,0.16449374,0.20958263,0.19952166,-0.81419784,-0.54522765,-0.9161947,-0.35234627,0.19089058,-0.34753162,0.4614479,-0.8162644,,0.09928383,-0.021927826,0.27446824,-0.9873198,0.14670408,-0.060642615,0.13100702,0.968747,0.21063271,0.08964804,0.20001724,-0.97568244,,-0.5178555756139988,0.020303064726336237,0.14358874701000002,-0.00020968994348452436,0.0005465459990617618,0.001923011849290619,-0.0001633440661342792,,-1.3830333395133705,0.030080044545104465,0.14062024291000003,0.12937869512995154,-0.020905384464112386,1.1811323437488452,0.11532091069080108
0.37323481999965225,,0.0900538,0.03150227,0.3575474,-0.5984516,-0.6906108,-0.4060941,-0.7572173,0.32201672,0.56826663,-0.26168197,0.6475816,-0.7156539,,-0.2335022,0.16449374,0.20958263,0.19952166,-0.81419784,-0.54522765,-0.9161947,-0.35234627,0.19089058,-0.34753162,0.4614479,-0.8162644,,0.09928383,-0.021927826,0.27446824,-0.9873198,0.14670408,-0.060642615,0.13100702,0.968747,0.21063271,0.08964804,0.20001724,-0.97568244,,-0.5178555756139988,0.020303064726336237,0.14358874701000002,-0.00020968994348452436,0.0005465459990617618,0.001923011849290619,-0.0001633440661342792,,-1.3830333395133705,0.030080044545104465,0.14062024291000003,0.12937869512995154,-0.020905384464112386,1.1811323437488452,0.11532091069080108
0.41663336999999956,,0.09005317,0.031501465,0.35754716,-0.5984485,-0.6906108,-0.4060987,-0.7572217,0.32201675,0.5682608,-0.26167643,0.6475816,-0.715656,,-0.2335069,0.1644924,0.20958425,0.19952083,-0.8141937,-0.545234,-0.9161948,-0.35234708,0.19088842,-0.34753174,0.4614544,-0.81626064,,0.09928383,-0.021927826,0.27446824,-0.9873198,0.14670408,-0.060642615,0.13100702,0.968747,0.21063271,0.08964804,0.20001724,-0.97568244,,-0.5178555756139988,0.020295341993462012,0.14358874701000002,-0.00020968994348452436,0.0005465459990617618,0.001923011849290619,-0.0001633440661342792,,-1.3830256167804964,0.030080044545104465,0.14062024291000003,0.12937869512995154,-0.020905384464112386,1.1811323437488452,0.11532091069080108
0.4636838189999253,,0.0900538,0.03150227,0.3575474,-0.5984516,-0.6906108,-0.4060941,-0.7572173,0.32201672,0.56826663,-0.26168197,0.6475816,-0.7156539,,-0.2335022,0.16449374,0.20958263,0.19952166,-0.81419784,-0.54522765,-0.9161947,-0.35234627,0.19089058,-0.34753162,0.4614479,-0.8162644,,0.09928383,-0.021927826,0.27446824,-0.9873198,0.14670408,-0.060642615,0.13100702,0.968747,0.21063271,0.08964804,0.20001724,-0.97568244,,-0.5178555756139988,0.020303064726336237,0.14358874701000002,0.0,0.0005465459990617618,0.001923011849290619,-0.0001633440661342792,,-1.3830333395133705,0.030080044545104465,0.14062024291000003,0.12937869512995154,-0.020905384464112386,1.1811323437488452,0.11532091069080108
0.5020336399998087,,0.09005317,0.031501465,0.35754716,-0.5987384,-0.6903599,-0.40609804,-0.7570861,0.3223344,0.5682613,-0.2614054,0.64769113,-0.7156559,,-0.2335069,0.1644924,0.20958425,0.19952083,-0.8141937,-0.545234,-0.9161948,-0.35234708,0.19088842,-0.34753174,0.4614544,-0.81626064,,0.09928383,-0.021927826,0.27446824,-0.9873198,0.14670408,-0.060642615,0.13100702,0.968747,0.21063271,0.08964804,0.20001724,-0.97568244,,-0.5178555756139988,0.020295341993462012,0.14358874701000002,0.00020968994348452436,0.0005465459990617618,0.001923011849290619,-0.0001633440661342792,,-1.3830256167804964,0.030080044545104465,0.14062024291000003,0.12937869512995154,-0.020905384464112386,1.1811323437488452,0.11532091069080108
0.5301115409997692,,0.090053804,0.03150227,0.3575474,-0.59874153,-0.6903599,-0.40609345,-0.75708175,0.32233438,0.56826717,-0.26141095,0.64769113,-0.71565384,,-0.2335022,0.16449374,0.20958263,0.19952166,-0.81419784,-0.54522765,-0.9161947,-0.35234627,0.19089058,-0.34753162,0.4614479,-0.8162644,,0.09928383,-0.021927826,0.27446824,-0.9873198,0.14670408,-0.060642615,0.13100702,0.968747,0.21063271,0.08964804,0.20001724,-0.97568244,,-0.5178555756139988,0.020303064726336237,0.14358874701000002,0.00020968994348452436,0.0005465459990617618,0.001923011849290619,-0.0001633440661342792,,-1.3830333395133705,0.030080044545104465,0.14062024291000003,0.12937869512995154,-0.020905384464112386,1.1811323437488452,0.11532091069080108
0.5606779809995714,,0.09005317,0.031501465,0.35754716,-0.5987384,-0.6903599,-0.40609804,-0.7570861,0.3223344,0.5682613,-0.2614054,0.64769113,-0.7156559,,-0.2335069,0.1644924,0.20958425,0.19952083,-0.8141937,-0.545234,-0.9161948,-0.35234708,0.19088842,-0.34753174,0.4614544,-0.81626064,,0.09928383,-0.021927826,0.27446824,-0.9873198,0.14670408,-0.060642615,0.13100702,0.968747,0.21063271,0.08964804,0.20001724,-0.97568244,,-0.5178555756139988,0.020295341993462012,0.14358874701000002,0.00020968994348452436,0.0005465459990617618,0.001923011849290619,-0.0001633440661342792,,-1.3830256167804964,0.030080044545104465,0.14062024291000003,0.12937869512995154,-0.020905384464112386,1.1811323437488452,0.11532091069080108
0.5899214909995862,,0.090053804,0.03150227,0.3575474,-0.59874153,-0.6903599,-0.40609345,-0.75708175,0.32233438,0.56826717,-0.26141095,0.64769113,-0.71565384,,-0.2335069,0.1644924,0.20958425,0.19952083,-0.8141937,-0.545234,-0.9161948,-0.35234708,0.19088842,-0.34753174,0.4614544,-0.81626064,,0.09928383,-0.021927826,0.27446824,-0.9873198,0.14670408,-0.060642615,0.13100702,0.968747,0.21063271,0.08964804,0.20001724,-0.97568244,,-0.5178555756139988,0.020303064726336237,0.14358874701000002,0.00020968994348452436,0.0005465459990617618,0.001923011849290619,-0.0001633440661342792,,-1.3830256167804964,0.030080044545104465,0.14062024291000003,0.12937869512995154,-0.020905384464112386,1.1811323437488452,0.11532091069080108
0.618526350999673,,0.090053804,0.03150227,0.3575474,-0.59874153,-0.6903599,-0.40609345,-0.75708175,0.32233438,0.56826717,-0.26141095,0.64769113,-0.71565384,,-0.2335022,0.16449374,0.20958263,0.19952166,-0.81419784,-0.54522765,-0.9161947,-0.35234627,0.19089058,-0.34753162,0.4614479,-0.8162644,,0.09928383,-0.021927826,0.27446824,-0.9873198,0.14670408,-0.060642615,0.13100702,0.968747,0.21063271,0.08964804,0.20001724,-0.97568244,,-0.5178555756139988,0.020303064726336237,0.14358874701000002,0.00020968994348452436,0.0005465459990617618,0.001923011849290619,-0.0001633440661342792,,-1.3830333395133705,0.030080044545104465,0.14062024291000003,0.12937869512995154,-0.020905384464112386,1.1811323437488452,0.11532091069080108
0.6468268300000091,,0.090053804,0.03150227,0.3575474,-0.59874153,-0.6903599,-0.40609345,-0.75708175,0.32233438,0.56826717,-0.26141095,0.64769113,-0.71565384,,-0.2335022,0.16449374,0.20958263,0.19952166,-0.81419784,-0.54522765,-0.9161947,-0.35234627,0.19089058,-0.34753162,0.4614479,-0.8162644,,0.09928383,-0.021927826,0.27446824,-0.9873198,0.14670408,-0.060642615,0.13100702,0.968747,0.21063271,0.08964804,0.20001724,-0.97568244,,-0.5178555756139988,0.020303064726336237,0.14358874701000002,0.00020968994348452436,0.0005465459990617618,0.001923011849290619,-0.0001633440661342792,,-1.3830333395133705,0.030080044545104465,0.14062024291000003,0.12937869512995154,-0.020905384464112386,1.1811323437488452,0.11532091069080108
0.6794920359998287,,0.090054534,0.031501926,0.35754675,-0.5987414,-0.69036317,-0.40608808,-0.7570818,0.32233864,0.56826466,-0.26141107,0.6476855,-0.71565884,,-0.2335022,0.16449374,0.20958263,0.19952166,-0.81419784,-0.54522765,-0.9161947,-0.35234627,0.19089058,-0.34753162,0.4614479,-0.8162644,,0.09928383,-0.021927826,0.27446824,-0.9873198,0.14670408,-0.060642615,0.13100702,0.968747,0.21063271,0.08964804,0.20001724,-0.97568244,,-0.517863298346873,0.020303064726336237,0.14358874701000002,0.00020968994348452436,0.0005465459990617618,0.001923011849290619,-0.0001633440661342792,,-1.3830333395133705,0.030080044545104465,0.14062024291000003,0.12937869512995154,-0.020905384464112386,1.1811323437488452,0.11532091069080108
0.7035165309998774,,0.090014085,0.031537548,0.3575333,-0.59876704,-0.69035304,-0.40606734,-0.7570476,0.32232875,0.568316,-0.26145148,0.64770114,-0.7156299,,-0.23348296,0.16449654,0.20959175,0.19955872,-0.81419003,-0.5452256,-0.91618097,-0.3523845,0.19088627,-0.34754676,0.46143228,-0.8162668,,0.0993102,-0.021943279,0.27447188,-0.987324,0.14667484,-0.060645532,0.13097776,0.9687511,0.21063265,0.089644924,0.20001945,-0.97568226,,-0.5178555756139988,0.020303064726336237,0.14358874701000002,0.00020968994348452436,0.0005465459990617618,0.001923011849290619,-0.0001633440661342792,,-1.3830256167804964,0.030080044545104465,0.14062024291000003,0.12937869512995154,-0.020905384464112386,1.1811323437488452,0.11532091069080108
0.7331891179997001,,0.090014085,0.031537548,0.3575333,-0.59876704,-0.69035304,-0.40606734,-0.7570476,0.32232875,0.568316,-0.26145148,0.64770114,-0.7156299,,-0.23347822,0.16449788,0.20959008,0.1995596,-0.8141942,-0.5452193,-0.91618085,-0.35238373,0.19088843,-0.34754658,0.46142575,-0.8162705,,0.0993102,-0.021943279,0.27447188,-0.987324,0.14667484,-0.060645532,0.13097776,0.9687511,0.21063265,0.089644924,0.20001945,-0.97568226,,-0.5178555756139988,0.020303064726336237,0.14358874701000002,0.00020968994348452436,0.0005465459990617618,0.001923011849290619,-0.0001633440661342792,,-1.3830333395133705,0.030080044545104465,0.14062024291000003,0.12937869512995154,-0.020905384464112386,1.1811323437488452,0.11532091069080108
0.7634963729997253,,0.090014085,0.031537548,0.3575333,-0.59876704,-0.69035304,-0.40606734,-0.7570476,0.32232875,0.568316,-0.26145148,0.64770114,-0.7156299,,-0.23347822,0.16449788,0.20959008,0.1995596,-0.8141942,-0.5452193,-0.91618085,-0.35238373,0.19088843,-0.34754658,0.46142575,-0.8162705,,0.0993102,-0.021943279,0.27447188,-0.987324,0.14667484,-0.060645532,0.13097776,0.9687511,0.21063265,0.089644924,0.20001945,-0.97568226,,-0.5178555756139988,0.020303064726336237,0.14358874701000002,0.00020968994348452436,0.0005465459990617618,0.001923011849290619,-0.0001633440661342792,,-1.3830333395133705,0.030080044545104465,0.14062024291000003,0.12937869512995154,-0.020905384464112386,1.1811323437488452,0.11532091069080108
0.8015955179998855,,0.090014815,0.031537194,0.35753262,-0.5987669,-0.6903563,-0.40606204,-0.7570477,0.322333,0.5683135,-0.2614516,0.6476956,-0.71563494,,-0.23348296,0.16449654,0.20959175,0.19955872,-0.81419003,-0.5452256,-0.91618097,-0.3523845,0.19088627,-0.34754676,0.46143228,-0.8162668,,0.0993102,-0.021943279,0.27447188,-0.987324,0.14667484,-0.060645532,0.13097776,0.9687511,0.21063265,0.089644924,0.20001945,-0.97568226,,-0.517863298346873,0.020303064726336237,0.14358874701000002,0.00020968994348452436,0.0005465459990617618,0.001923011849290619,-0.0001633440661342792,,-1.3830256167804964,0.030080044545104465,0.14062024291000003,0.12937869512995154,-0.020905384464112386,1.1811323437488452,0.11532091069080108
0.8456216349995884,,0.090014085,0.031537548,0.3575333,-0.59876704,-0.69035304,-0.40606734,-0.7570476,0.32232875,0.568316,-0.26145148,0.64770114,-0.7156299,,-0.23347822,0.16449788,0.20959008,0.1995596,-0.8141942,-0.5452193,-0.91618085,-0.35238373,0.19088843,-0.34754658,0.46142575,-0.8162705,,0.0993102,-0.021943279,0.27447188,-0.987324,0.14667484,-0.060645532,0.13097776,0.9687511,0.21063265,0.089644924,0.20001945,-0.97568226,,-0.5178555756139988,0.020303064726336237,0.14358874701000002,0.00020968994348452436,0.0005465459990617618,0.001923011849290619,-0.0001633440661342792,,-1.3830333395133705,0.030080044545104465,0.14062024291000003,0.12937869512995154,-0.020905384464112386,1.1811323437488452,0.11532091069080108
0.8985080179995748,,0.090014085,0.031537548,0.3575333,-0.59876704,-0.69035304,-0.40606734,-0.7570476,0.32232875,0.568316,-0.26145148,0.64770114,-0.7156299,,-0.23348296,0.16449654,0.20959175,0.19955872,-0.81419003,-0.5452256,-0.91618097,-0.3523845,0.19088627,-0.34754676,0.46143228,-0.8162668,,0.0993102,-0.021943279,0.27447188,-0.987324,0.14667484,-0.060645532,0.13097776,0.9687511,0.21063265,0.089644924,0.20001945,-0.97568226,,-0.5178555756139988,0.020303064726336237,0.14358874701000002,0.00020968994348452436,0.0005465459990617618,0.001923011849290619,-0.0001633440661342792,,-1.3830256167804964,0.030080044545104465,0.14062024291000003,0.12937869512995154,-0.020905384464112386,1.1811323437488452,0.11532091069080108
0.9376563769997119,,0.090014085,0.031537548,0.3575333,-0.59876704,-0.69035304,-0.40606734,-0.7570476,0.32232875,0.568316,-0.26145148,0.64770114,-0.7156299,,-0.23347822,0.16449788,0.20959008,0.1995596,-0.8141942,-0.5452193,-0.91618085,-0.35238373,0.19088843,-0.34754658,0.46142575,-0.8162705,,0.0993102,-0.021943279,0.27447188,-0.987324,0.14667484,-0.060645532,0.13097776,0.9687511,0.21063265,0.089644924,0.20001945,-0.97568226,,-0.5178555756139988,0.020303064726336237,0.14358874701000002,0.00020968994348452436,0.0005465459990617618,0.001923011849290619,-0.0001633440661342792,,-1.3830333395133705,0.030080044545104465,0.14062024291000003,0.12937869512995154,-0.020905384464112386,1.1811323437488452,0.11532091069080108
0.9669614979998187,,0.090014085,0.031537548,0.3575333,-0.59876704,-0.69035304,-0.40606734,-0.7570476,0.32232875,0.568316,-0.26145148,0.64770114,-0.7156299,,-0.23347822,0.16449788,0.20959008,0.1995596,-0.8141942,-0.5452193,-0.91618085,-0.35238373,0.19088843,-0.34754658,0.46142575,-0.8162705,,0.0993102,-0.021943279,0.27447188,-0.987324,0.14667484,-0.060645532,0.13097776,0.9687511,0.21063265,0.089644924,0.20001945,-0.97568226,,-0.5178555756139988,0.020303064726336237,0.14358874701000002,0.00020968994348452436,0.0005465459990617618,0.001923011849290619,-0.0001633440661342792,,-1.3830333395133705,0.030080044545104465,0.14062024291000003,0.12937869512995154,-0.020905384464112386,1.1811323437488452,0.11532091069080108
0.9954882849997375,,0.090014085,0.031537548,0.3575333,-0.59876704,-0.69035304,-0.40606734,-0.7570476,0.32232875,0.568316,-0.26145148,0.64770114,-0.7156299,,-0.23347822,0.16449788,0.20959008,0.1995596,-0.8141942,-0.5452193,-0.91618085,-0.35238373,0.19088843,-0.34754658,0.46142575,-0.8162705,,0.0993102,-0.021943279,0.27447188,-0.987324,0.14667484,-0.060645532,0.13097776,0.9687511,0.21063265,0.089644924,0.20001945,-0.97568226,,-0.5178555756139988,0.020303064726336237,0.14358874701000002,0.00020968994348452436,0.0005465459990617618,0.001923011849290619,-0.0001633440661342792,,-1.3830333395133705,0.030080044545104465,0.14062024291000003,0.12937869512995154,-0.020905384464112386,1.1811323437488452,0.11532091069080108
1.0269685079997544,,0.090014085,0.031537548,0.3575333,-0.59876704,-0.69035304,-0.40606734,-0.7570476,0.32232875,0.568316,-0.26145148,0.64770114,-0.7156299,,-0.23347822,0.16449788,0.20959008,0.1995596,-0.8141942,-0.5452193,-0.91618085,-0.35238373,0.19088843,-0.34754658,0.46142575,-0.8162705,,0.0993102,-0.021943279,0.27447188,-0.987324,0.14667484,-0.060645532,0.13097776,0.9687511,0.21063265,0.089644924,0.20001945,-0.97568226,,-0.5178555756139988,0.020303064726336237,0.14358874701000002,0.00020968994348452436,0.0005465459990617618,0.001923011849290619,-0.0001633440661342792,,-1.3830333395133705,0.030080044545104465,0.14062024291000003,0.12937869512995154,-0.020905384464112386,1.1811323437488452,0.11532091069080108
1.0564751619999697,,0.090013444,0.031536743,0.357533,-0.59876394,-0.69035304,-0.40607202,-0.75705194,0.32232875,0.56831014,-0.26144594,0.64770114,-0.71563196,,-0.23348296,0.16449654,0.20959175,0.19955872,-0.81419003,-0.5452256,-0.91618097,-0.3523845,0.19088627,-0.34754676,0.46143228,-0.8162668,,0.0993102,-0.021943279,0.27447188,-0.987324,0.14667484,-0.060645532,0.13097776,0.9687511,0.21063265,0.089644924,0.20001945,-0.97568226,,-0.5178555756139988,0.020295341993462012,0.14358874701000002,0.00020968994348452436,0.0005465459990617618,0.001923011849290619,-0.0001633440661342792,,-1.3830256167804964,0.030080044545104465,0.14062024291000003,0.12937869512995154,-0.020905384464112386,1.1811323437488452,0.11532091069080108
1.087514672999987,,0.090014085,0.031537548,0.3575333,-0.59876704,-0.69035304,-0.40606734,-0.7570476,0.32232875,0.568316,-0.26145148,0.64770114,-0.7156299,,-0.23348197,0.1644933,0.20959027,0.19955571,-0.8141914,-0.5452246,-0.91618407,-0.35237858,0.1908825,-0.34754032,0.46143427,-0.8162683,,0.0993102,-0.021943279,0.27447188,-0.987324,0.14667484,-0.060645532,0.13097776,0.9687511,0.21063265,0.089644924,0.20001945,-0.97568226,,-0.5178555756139988,0.020303064726336237,0.14358874701000002,0.00020968994348452436,0.0005465459990617618,0.001923011849290619,-0.0001633440661342792,,-1.3830333395133705,0.030080044545104465,0.14062024291000003,0.12937869512995154,-0.020905384464112386,1.1811323437488452,0.11532091069080108
1.1179771429997345,,0.090014085,0.031537548,0.3575333,-0.5984771,-0.6906041,-0.406068,-0.75718325,0.3220111,0.5683154,-0.2617225,0.6475916,-0.71563,,-0.23347822,0.16449788,0.20959008,0.1995596,-0.8141942,-0.5452193,-0.91618085,-0.35238373,0.19088843,-0.34754658,0.46142575,-0.8162705,,0.0993102,-0.021943279,0.27447188,-0.987324,0.14667484,-0.060645532,0.13097776,0.9687511,0.21063265,0.089644924,0.20001945,-0.97568226,,-0.5178555756139988,0.020303064726336237,0.14358874701000002,-0.00020968994348452436,0.0005465459990617618,0.001923011849290619,-0.0001633440661342792,,-1.3830333395133705,0.030080044545104465,0.14062024291000003,0.12937869512995154,-0.020905384464112386,1.1811323437488452,0.11532091069080108
1.1675583559999723,,0.090013444,0.03153675,0.35753304,-0.5984741,-0.690604,-0.40607262,-0.7571876,0.3220111,0.56830955,-0.26171696,0.6475916,-0.715632,,-0.23348296,0.16449654,0.20959175,0.19955872,-0.81419003,-0.5452256,-0.91618097,-0.3523845,0.19088627,-0.34754676,0.46143228,-0.8162668,,0.0993102,-0.021943279,0.27447188,-0.987324,0.14667484,-0.060645532,0.13097776,0.9687511,0.21063265,0.089644924,0.20001945,-0.97568226,,-0.5178555756139988,0.020295341993462012,0.14358874701000002,-0.00020968994348452436,0.0005465459990617618,0.001923011849290619,-0.0001633440661342792,,-1.3830256167804964,0.030080044545104465,0.14062024291000003,0.12937869512995154,-0.020905384464112386,1.1811323437488452,0.11532091069080108
1.2193380069998057,,0.090013444,0.03153675,0.35753304,-0.5984741,-0.690604,-0.40607262,-0.7571876,0.3220111,0.56830955,-0.26171696,0.6475916,-0.715632,,-0.23347822,0.16449788,0.20959008,0.1995596,-0.8141942,-0.5452193,-0.91618085,-0.35238373,0.19088843,-0.34754658,0.46142575,-0.8162705,,0.0993102,-0.021943279,0.27447188,-0.987324,0.14667484,-0.060645532,0.13097776,0.9687511,0.21063265,0.089644924,0.20001945,-0.97568226,,-0.5178555756139988,0.020295341993462012,0.14358874701000002,-0.00020968994348452436,0.0005465459990617618,0.001923011849290619,-0.0001633440661342792,,-1.3830333395133705,0.030080044545104465,0.14062024291000003,0.12937869512995154,-0.020905384464112386,1.1811323437488452,0.11532091069080108
1.2876613069997802,,0.090014085,0.031537548,0.3575333,-0.5984771,-0.6906703,-0.40595517,-0.75718325,0.32210392,0.5682628,-0.2617225,0.64747465,-0.71573573,,-0.23347822,0.16449788,0.20959008,0.1995596,-0.8141942,-0.5452193,-0.91618085,-0.35238373,0.19088843,-0.34754658,0.46142575,-0.8162705,,0.0993102,-0.021943279,0.27447188,-0.987324,0.14667484,-0.060645532,0.13097776,0.9687511,0.21063265,0.089644924,0.20001945,-0.97568226,,-0.5178555756139988,0.020303064726336237,0.14358874701000002,-0.00020968994348452436,0.0005465459990617618,0.0017596543690094947,0.0001633440661342792,,-1.3830333395133705,0.030080044545104465,0.14062024291000003,0.12937869512995154,-0.020905384464112386,1.1811323437488452,0.11532091069080108
1.3315058459998,,0.090014085,0.031537548,0.3575333,-0.5984771,-0.6906703,-0.40595517,-0.75718325,0.32210392,0.5682628,-0.2617225,0.64747465,-0.71573573,,-0.23348197,0.1644933,0.20959027,0.19955571,-0.8141914,-0.5452246,-0.91618407,-0.35237858,0.1908825,-0.34754032,0.46143427,-0.8162683,,0.0993102,-0.021943279,0.27447188,-0.987324,0.14667484,-0.060645532,0.13097776,0.9687511,0.21063265,0.089644924,0.20001945,-0.97568226,,-0.5178555756139988,0.020303064726336237,0.14358874701000002,-0.00020968994348452436,0.0005465459990617618,0.0017596543690094947,0.0001633440661342792,,-1.3830256167804964,0.03007232181223024,0.14062024291000003,0.12937869512995154,-0.020905384464112386,1.1811323437488452,0.11532091069080108
1.3813124739999694,,0.090014085,0.031537548,0.3575333,-0.5984771,-0.6906703,-0.40595517,-0.75718325,0.32210392,0.5682628,-0.2617225,0.64747465,-0.71573573,,-0.23347822,0.16449788,0.20959008,0.1995596,-0.8141942,-0.5452193,-0.91618085,-0.35238373,0.19088843,-0.34754658,0.46142575,-0.8162705,,0.0993102,-0.021943279,0.27447188,-0.987324,0.14667484,-0.060645532,0.13097776,0.9687511,0.21063265,0.089644924,0.20001945,-0.97568226,,-0.5178555756139988,0.020303064726336237,0.14358874701000002,-0.00020968994348452436,0.0005465459990617618,0.0017596543690094947,0.0001633440661342792,,-1.3830333395133705,0.030080044545104465,0.14062024291000003,0.12937869512995154,-0.020905384464112386,1.1811323437488452,0.11532091069080108
1.4170312849996662,,0.090013444,0.03153675,0.35753304,-0.5984741,-0.6906703,-0.40595978,-0.7571876,0.32210392,0.568257,-0.26171696,0.6474747,-0.7157378,,-0.23347822,0.16449788,0.20959008,0.1995596,-0.8141942,-0.5452193,-0.91618085,-0.35238373,0.19088843,-0.34754658,0.46142575,-0.8162705,,0.0993102,-0.021943279,0.27447188,-0.987324,0.14667484,-0.060645532,0.13097776,0.9687511,0.21063265,0.089644924,0.20001945,-0.97568226,,-0.5178555756139988,0.020295341993462012,0.14358874701000002,-0.00020968994348452436,0.0005465459990617618,0.0017596543690094947,0.0001633440661342792,,-1.3830333395133705,0.030080044545104465,0.14062024291000003,0.12937869512995154,-0.020905384464112386,1.1811323437488452,0.11532091069080108
1.4477834299996175,,0.090014085,0.031537548,0.3575333,-0.5984771,-0.6906703,-0.40595517,-0.75718325,0.32210392,0.5682628,-0.2617225,0.64747465,-0.71573573,,-0.23347822,0.16449788,0.20959008,0.1995596,-0.8141942,-0.5452193,-0.91618085,-0.35238373,0.19088843,-0.34754658,0.46142575,-0.8162705,,0.0993102,-0.021943279,0.27447188,-0.987324,0.14667484,-0.060645532,0.13097776,0.9687511,0.21063265,0.089644924,0.20001945,-0.97568226,,-0.5178555756139988,0.020303064726336237,0.14358874701000002,-0.00020968994348452436,0.0005465459990617618,0.0017596543690094947,0.0001633440661342792,,-1.3830333395133705,0.030080044545104465,0.14062024291000003,0.12937869512995154,-0.020905384464112386,1.1811323437488452,0.11532091069080108
1.4761803889996372,,0.090013444,0.03153675,0.35753304,-0.5984741,-0.6906703,-0.40595978,-0.7571876,0.32210392,0.568257,-0.26171696,0.6474747,-0.7157378,,-0.23347822,0.16449788,0.20959008,0.1995596,-0.8141942,-0.5452193,-0.91618085,-0.35238373,0.19088843,-0.34754658,0.46142575,-0.8162705,,0.0993102,-0.021943279,0.27447188,-0.987324,0.14667484,-0.060645532,0.13097776,0.9687511,0.21063265,0.089644924,0.20001945,-0.97568226,,-0.5178555756139988,0.020295341993462012,0.14358874701000002,-0.00020968994348452436,0.0005465459990617618,0.0017596543690094947,0.0001633440661342792,,-1.3830333395133705,0.030080044545104465,0.14062024291000003,0.12937869512995154,-0.020905384464112386,1.1811323437488452,0.11532091069080108
1.5093581679998351,,0.090014085,0.031537548,0.3575333,-0.5984771,-0.6906703,-0.40595517,-0.75718325,0.32210392,0.5682628,-0.2617225,0.64747465,-0.71573573,,-0.23347822,0.16449788,0.20959008,0.1995596,-0.8141942,-0.5452193,-0.91618085,-0.35238373,0.19088843,-0.34754658,0.46142575,-0.8162705,,0.0993102,-0.021943279,0.27447188,-0.987324,0.14667484,-0.060645532,0.13097776,0.9687511,0.21063265,0.089644924,0.20001945,-0.97568226,,-0.5178555756139988,0.020303064726336237,0.14358874701000002,-0.00020968994348452436,0.0005465459990617618,0.0017596543690094947,0.0001633440661342792,,-1.3830333395133705,0.030080044545104465,0.14062024291000003,0.12937869512995154,-0.020905384464112386,1.1811323437488452,0.11532091069080108
1.5376980579999326,,0.090014085,0.031537548,0.3575333,-0.5984771,-0.6906703,-0.40595517,-0.75718325,0.32210392,0.5682628,-0.2617225,0.64747465,-0.71573573,,-0.23348296,0.16449654,0.20959175,0.19955872,-0.81419003,-0.5452256,-0.91618097,-0.3523845,0.19088627,-0.34754676,0.46143228,-0.8162668,,0.0993102,-0.021943279,0.27447188,-0.987324,0.14667484,-0.060645532,0.13097776,0.9687511,0.21063265,0.089644924,0.20001945,-0.97568226,,-0.5178555756139988,0.020303064726336237,0.14358874701000002,-0.00020968994348452436,0.0005465459990617618,0.0017596543690094947,0.0001633440661342792,,-1.3830256167804964,0.030080044545104465,0.14062024291000003,0.12937869512995154,-0.020905384464112386,1.1811323437488452,0.11532091069080108
1.5682635260000097,,0.090013444,0.03153675,0.35753304,-0.5984741,-0.6906703,-0.40595978,-0.7571876,0.32210392,0.568257,-0.26171696,0.6474747,-0.7157378,,-0.23347822,0.16449788,0.20959008,0.1995596,-0.8141942,-0.5452193,-0.91618085,-0.35238373,0.19088843,-0.34754658,0.46142575,-0.8162705,,0.0993102,-0.021943279,0.27447188,-0.987324,0.14667484,-0.060645532,0.13097776,0.9687511,0.21063265,0.089644924,0.20001945,-0.97568226,,-0.5178555756139988,0.020295341993462012,0.14358874701000002,-0.00020968994348452436,0.0005465459990617618,0.0017596543690094947,0.0001633440661342792,,-1.3830333395133705,0.030080044545104465,0.14062024291000003,0.12937869512995154,-0.020905384464112386,1.1811323437488452,0.11532091069080108
1.5960602249997464,,0.090014085,0.031537548,0.3575333,-0.5984771,-0.6906703,-0.40595517,-0.75718325,0.32210392,0.5682628,-0.2617225,0.64747465,-0.71573573,,-0.23347822,0.16449788,0.20959008,0.1995596,-0.8141942,-0.5452193,-0.91618085,-0.35238373,0.19088843,-0.34754658,0.46142575,-0.8162705,,0.0993102,-0.021943279,0.27447188,-0.987324,0.14667484,-0.060645532,0.13097776,0.9687511,0.21063265,0.089644924,0.20001945,-0.97568226,,-0.5178555756139988,0.020303064726336237,0.14358874701000002,-0.00020968994348452436,0.0005465459990617618,0.0017596543690094947,0.0001633440661342792,,-1.3830333395133705,0.030080044545104465,0.14062024291000003,0.12937869512995154,-0.020905384464112386,1.1811323437488452,0.11532091069080108
1.6371829209997486,,0.090014085,0.031537548,0.3575333,-0.5984771,-0.6906703,-0.40595517,-0.75718325,0.32210392,0.5682628,-0.2617225,0.64747465,-0.71573573,,-0.23347822,0.16449788,0.20959008,0.1995596,-0.8141942,-0.5452193,-0.91618085,-0.35238373,0.19088843,-0.34754658,0.46142575,-0.8162705,,0.0993102,-0.021943279,0.27447188,-0.987324,0.14667484,-0.060645532,0.13097776,0.9687511,0.21063265,0.089644924,0.20001945,-0.97568226,,-0.5178555756139988,0.020303064726336237,0.14358874701000002,-0.00020968994348452436,0.0005465459990617618,0.0017596543690094947,0.0001633440661342792,,-1.3830333395133705,0.030080044545104465,0.14062024291000003,0.12937869512995154,-0.020905384464112386,1.1811323437488452,0.11532091069080108
1.695414148999589,,0.090013444,0.03153675,0.35753304,-0.5984741,-0.6906703,-0.40595978,-0.7571876,0.32210392,0.568257,-0.26171696,0.6474747,-0.7157378,,-0.23347822,0.16449788,0.20959008,0.1995596,-0.8141942,-0.5452193,-0.91618085,-0.35238373,0.19088843,-0.34754658,0.46142575,-0.8162705,,0.0993102,-0.021943279,0.27447188,-0.987324,0.14667484,-0.060645532,0.13097776,0.9687511,0.21063265,0.089644924,0.20001945,-0.97568226,,-0.5178555756139988,0.020295341993462012,0.14358874701000002,-0.00020968994348452436,0.0005465459990617618,0.0017596543690094947,0.0001633440661342792,,-1.3830333395133705,0.030080044545104465,0.14062024291000003,0.12937869512995154,-0.020905384464112386,1.1811323437488452,0.11532091069080108
1.7484640269999545,,0.090014085,0.031537548,0.3575333,-0.5984771,-0.6906703,-0.40595517,-0.75718325,0.32210392,0.5682628,-0.2617225,0.64747465,-0.71573573,,-0.23347822,0.16449788,0.20959008,0.1995596,-0.8141942,-0.5452193,-0.91618085,-0.35238373,0.19088843,-0.34754658,0.46142575,-0.8162705,,0.0993102,-0.021943279,0.27447188,-0.987324,0.14667484,-0.060645532,0.13097776,0.9687511,0.21063265,0.089644924,0.20001945,-0.97568226,,-0.5178555756139988,0.020303064726336237,0.14358874701000002,-0.00020968994348452436,0.0005465459990617618,0.0017596543690094947,0.0001633440661342792,,-1.3830333395133705,0.030080044545104465,0.14062024291000003,0.12937869512995154,-0.020905384464112386,1.1811323437488452,0.11532091069080108
1.8066482719996202,,0.090014085,0.031537548,0.3575333,-0.59876704,-0.6904194,-0.40595454,-0.7570476,0.32242155,0.56826323,-0.26145148,0.64758426,-0.7157357,,-0.23348296,0.16449654,0.20959175,0.19955872,-0.81419003,-0.5452256,-0.91618097,-0.3523845,0.19088627,-0.34754676,0.46143228,-0.8162668,,0.0993102,-0.021943279,0.27447188,-0.987324,0.14667484,-0.060645532,0.13097776,0.9687511,0.21063265,0.089644924,0.20001945,-0.97568226,,-0.5178555756139988,0.020303064726336237,0.14358874701000002,0.00020968994348452436,0.0005465459990617618,0.0017596543690094947,0.0001633440661342792,,-1.3830256167804964,0.030080044545104465,0.14062024291000003,0.12937869512995154,-0.020905384464112386,1.1811323437488452,0.11532091069080108
1.8507912349996332,,0.09012894,0.031465027,0.35749176,-0.5986557,-0.69050467,-0.40597373,-0.75711316,0.32231715,0.5682353,-0.26151687,0.6475452,-0.7157471,,-0.23348877,0.16454896,0.20956174,0.19957165,-0.8141802,-0.5452357,-0.9161517,-0.35243282,0.19093744,-0.3476164,0.46141285,-0.8162481,,0.09929574,-0.021932174,0.27447504,-0.9873221,0.1466882,-0.060644202,0.13099113,0.9687493,0.21063268,0.08964635,0.20001847,-0.9756823,,-0.5178555756139988,0.020303064726336237,0.14358874701000002,0.00020968994348452436,0.0005465459990617618,0.0017596543690094947,0.0001633440661342792,,-1.3830333395133705,0.030080044545104465,0.14062024291000003,0.12937869512995154,-0.020905384464112386,1.1811323437488452,0.11532091069080108
1.878773732999889,,0.09012894,0.031465027,0.35749176,-0.5986557,-0.69050467,-0.40597373,-0.75711316,0.32231715,0.5682353,-0.26151687,0.6475452,-0.7157471,,-0.23349348,0.16454764,0.20956336,0.19957073,-0.814176,-0.545242,-0.91615176,-0.35243365,0.19093525,-0.34761655,0.46141934,-0.8162443,,0.09929574,-0.021932174,0.27447504,-0.9873221,0.1466882,-0.060644202,0.13099113,0.9687493,0.21063268,0.08964635,0.20001847,-0.9756823,,-0.5178555756139988,0.020303064726336237,0.14358874701000002,0.00020968994348452436,0.0005465459990617618,0.0017596543690094947,0.0001633440661342792,,-1.3830256167804964,0.030080044545104465,0.14062024291000003,0.12937869512995154,-0.020905384464112386,1.1811323437488452,0.11532091069080108
1.9127632749996337,,0.09012894,0.031465027,0.35749176,-0.5986557,-0.69050467,-0.40597373,-0.75711316,0.32231715,0.5682353,-0.26151687,0.6475452,-0.7157471,,-0.23348877,0.16454896,0.20956174,0.19957165,-0.8141802,-0.5452357,-0.9161517,-0.35243282,0.19093744,-0.3476164,0.46141285,-0.8162481,,0.09929574,-0.021932174,0.27447504,-0.9873221,0.1466882,-0.060644202,0.13099113,0.9687493,0.21063268,0.08964635,0.20001847,-0.9756823,,-0.5178555756139988,0.020303064726336237,0.14358874701000002,0.00020968994348452436,0.0005465459990617618,0.0017596543690094947,0.0001633440661342792,,-1.3830333395133705,0.030080044545104465,0.14062024291000003,0.12937869512995154,-0.020905384464112386,1.1811323437488452,0.11532091069080108
1.9380804269999317,,0.09012831,0.031464223,0.3574915,-0.59865254,-0.69050467,-0.40597835,-0.7571175,0.32231718,0.56822944,-0.26151133,0.6475452,-0.71574914,,-0.23348877,0.16454896,0.20956174,0.19957165,-0.8141802,-0.5452357,-0.9161517,-0.35243282,0.19093744,-0.3476164,0.46141285,-0.8162481,,0.09929574,-0.021932174,0.27447504,-0.9873221,0.1466882,-0.060644202,0.13099113,0.9687493,0.21063268,0.08964635,0.20001847,-0.9756823,,-0.5178555756139988,0.020295341993462012,0.14358874701000002,0.00020968994348452436,0.0005465459990617618,0.0017596543690094947,0.0001633440661342792,,-1.3830333395133705,0.030080044545104465,0.14062024291000003,0.12937869512995154,-0.020905384464112386,1.1811323437488452,0.11532091069080108
1.9714524149999306,,0.09012831,0.031464223,0.3574915,-0.59865254,-0.69050467,-0.40597835,-0.7571175,0.32231718,0.56822944,-0.26151133,0.6475452,-0.71574914,,-0.23348877,0.16454896,0.20956174,0.19957165,-0.8141802,-0.5452357,-0.9161517,-0.35243282,0.19093744,-0.3476164,0.46141285,-0.8162481,,0.09929574,-0.021932174,0.27447504,-0.9873221,0.1466882,-0.060644202,0.13099113,0.9687493,0.21063268,0.08964635,0.20001847,-0.9756823,,-0.5178555756139988,0.020295341993462012,0.14358874701000002,0.00020968994348452436,0.0005465459990617618,0.0017596543690094947,0.0001633440661342792,,-1.3830333395133705,0.030080044545104465,0.14062024291000003,0.12937869512995154,-0.020905384464112386,1.1811323437488452,0.11532091069080108
2.003176754999913,,0.09012894,0.031465027,0.35749176,-0.5986557,-0.69050467,-0.40597373,-0.75711316,0.32231715,0.5682353,-0.26151687,0.6475452,-0.7157471,,-0.23349348,0.16454764,0.20956336,0.19957073,-0.814176,-0.545242,-0.91615176,-0.35243365,0.19093525,-0.34761655,0.46141934,-0.8162443,,0.09929574,-0.021932174,0.27447504,-0.9873221,0.1466882,-0.060644202,0.13099113,0.9687493,0.21063268,0.08964635,0.20001847,-0.9756823,,-0.5178555756139988,0.020303064726336237,0.14358874701000002,0.00020968994348452436,0.0005465459990617618,0.0017596543690094947,0.0001633440661342792,,-1.3830256167804964,0.030080044545104465,0.14062024291000003,0.12937869512995154,-0.020905384464112386,1.1811323437488452,0.11532091069080108
2.0382782779997797,,0.09012894,0.031465027,0.35749176,-0.5986557,-0.69050467,-0.40597373,-0.75711316,0.32231715,0.5682353,-0.26151687,0.6475452,-0.7157471,,-0.23348877,0.16454896,0.20956174,0.19957165,-0.8141802,-0.5452357,-0.9161517,-0.35243282,0.19093744,-0.3476164,0.46141285,-0.8162481,,0.09929574,-0.021932174,0.27447504,-0.9873221,0.1466882,-0.060644202,0.13099113,0.9687493,0.21063268,0.08964635,0.20001847,-0.9756823,,-0.5178555756139988,0.020303064726336237,0.14358874701000002,0.00020968994348452436,0.0005465459990617618,0.0017596543690094947,0.0001633440661342792,,-1.3830333395133705,0.030080044545104465,0.14062024291000003,0.12937869512995154,-0.020905384464112386,1.1811323437488452,0.11532091069080108
2.084481486999721,,0.09012894,0.031465027,0.35749176,-0.5986557,-0.69050467,-0.40597373,-0.75711316,0.32231715,0.5682353,-0.26151687,0.6475452,-0.7157471,,-0.23348778,0.16454573,0.2095603,0.1995687,-0.81418157,-0.5452346,-0.91615486,-0.3524269,0.19093364,-0.34760997,0.46141484,-0.81624955,,0.09929574,-0.021932174,0.27447504,-0.9873221,0.1466882,-0.060644202,0.13099113,0.9687493,0.21063268,0.08964635,0.20001847,-0.9756823,,-0.5178555756139988,0.020303064726336237,0.14358874701000002,0.00020968994348452436,0.0005465459990617618,0.0017596543690094947,0.0001633440661342792,,-1.3830333395133705,0.03007232181223024,0.14062024291000003,0.12937869512995154,-0.020905384464112386,1.1811323437488452,0.11532091069080108
2.1311843969997426,,0.09012894,0.031465027,0.35749176,-0.5986557,-0.69050467,-0.40597373,-0.75711316,0.32231715,0.5682353,-0.26151687,0.6475452,-0.7157471,,-0.23348877,0.16454896,0.20956174,0.19957165,-0.8141802,-0.5452357,-0.9161517,-0.35243282,0.19093744,-0.3476164,0.46141285,-0.8162481,,0.09929574,-0.021932174,0.27447504,-0.9873221,0.1466882,-0.060644202,0.13099113,0.9687493,0.21063268,0.08964635,0.20001847,-0.9756823,,-0.5178555756139988,0.020303064726336237,0.14358874701000002,0.00020968994348452436,0.0005465459990617618,0.0017596543690094947,0.0001633440661342792,,-1.3830333395133705,0.030080044545104465,0.14062024291000003,0.12937869512995154,-0.020905384464112386,1.1811323437488452,0.11532091069080108
2.1845690739996826,,0.09012894,0.031465027,0.35749176,-0.5986557,-0.69050467,-0.40597373,-0.75711316,0.32231715,0.5682353,-0.26151687,0.6475452,-0.7157471,,-0.23349252,0.1645444,0.2095619,0.19956776,-0.81417745,-0.545241,-0.9161549,-0.3524277,0.1909315,-0.34761012,0.4614214,-0.8162459,,0.09929574,-0.021932174,0.27447504,-0.9873221,0.1466882,-0.060644202,0.13099113,0.9687493,0.21063268,0.08964635,0.20001847,-0.9756823,,-0.5178555756139988,0.020303064726336237,0.14358874701000002,0.00020968994348452436,0.0005465459990617618,0.0017596543690094947,0.0001633440661342792,,-1.3830256167804964,0.03007232181223024,0.14062024291000003,0.12937869512995154,-0.020905384464112386,1.1811323437488452,0.11532091069080108
2.2221376679999594,,0.09012894,0.031465027,0.35749176,-0.5986557,-0.69050467,-0.40597373,-0.75711316,0.32231715,0.5682353,-0.26151687,0.6475452,-0.7157471,,-0.23348877,0.16454896,0.20956174,0.19957165,-0.8141802,-0.5452357,-0.9161517,-0.35243282,0.19093744,-0.3476164,0.46141285,-0.8162481,,0.09929574,-0.021932174,0.27447504,-0.9873221,0.1466882,-0.060644202,0.13099113,0.9687493,0.21063268,0.08964635,0.20001847,-0.9756823,,-0.5178555756139988,0.020303064726336237,0.14358874701000002,0.00020968994348452436,0.0005465459990617618,0.0017596543690094947,0.0001633440661342792,,-1.3830333395133705,0.030080044545104465,0.14062024291000003,0.12937869512995154,-0.020905384464112386,1.1811323437488452,0.11532091069080108
2.2656298160000006,,0.09012831,0.031464223,0.3574915,-0.59865254,-0.69050467,-0.40597835,-0.7571175,0.32231718,0.56822944,-0.26151133,0.6475452,-0.71574914,,-0.23349348,0.16454764,0.20956336,0.19957073,-0.814176,-0.545242,-0.91615176,-0.35243365,0.19093525,-0.34761655,0.46141934,-0.8162443,,0.09929574,-0.021932174,0.27447504,-0.9873221,0.1466882,-0.060644202,0.13099113,0.9687493,0.21063268,0.08964635,0.20001847,-0.9756823,,-0.5178555756139988,0.020295341993462012,0.14358874701000002,0.00020968994348452436,0.0005465459990617618,0.0017596543690094947,0.0001633440661342792,,-1.3830256167804964,0.030080044545104465,0.14062024291000003,0.12937869512995154,-0.020905384464112386,1.1811323437488452,0.11532091069080108
2.302590207999856,,0.09012894,0.031465027,0.35749176,-0.5986557,-0.69050467,-0.40597373,-0.75711316,0.32231715,0.5682353,-0.26151687,0.6475452,-0.7157471,,-0.23348877,0.16454896,0.20956174,0.19957165,-0.8141802,-0.5452357,-0.9161517,-0.35243282,0.19093744,-0.3476164,0.46141285,-0.8162481,,0.09929574,-0.021932174,0.27447504,-0.9873221,0.1466882,-0.060644202,0.13099113,0.9687493,0.21063268,0.08964635,0.20001847,-0.9756823,,-0.5178555756139988,0.020303064726336237,0.14358874701000002,0.00020968994348452436,0.0005465459990617618,0.0017596543690094947,0.0001633440661342792,,-1.3830333395133705,0.030080044545104465,0.14062024291000003,0.12937869512995154,-0.020905384464112386,1.1811323437488452,0.11532091069080108
2.33915337299959,,0.09012894,0.031465027,0.35749176,-0.5986557,-0.69050467,-0.40597373,-0.75711316,0.32231715,0.5682353,-0.26151687,0.6475452,-0.7157471,,-0.23349252,0.1645444,0.2095619,0.19956776,-0.81417745,-0.545241,-0.9161549,-0.3524277,0.1909315,-0.34761012,0.4614214,-0.8162459,,0.09929574,-0.021932174,0.27447504,-0.9873221,0.1466882,-0.060644202,0.13099113,0.9687493,0.21063268,0.08964635,0.20001847,-0.9756823,,-0.5178555756139988,0.020303064726336237,0.14358874701000002,0.00020968994348452436,0.0005465459990617618,0.0017596543690094947,0.0001633440661342792,,-1.3830256167804964,0.03007232181223024,0.14062024291000003,0.12937869512995154,-0.020905384464112386,1.1811323437488452,0.11532091069080108
2.3670325469997806,,0.09012894,0.031465027,0.35749176,-0.5986557,-0.69050467,-0.40597373,-0.75711316,0.32231715,0.5682353,-0.26151687,0.6475452,-0.7157471,,-0.23349348,0.16454764,0.20956336,0.19957073,-0.814176,-0.545242,-0.91615176,-0.35243365,0.19093525,-0.34761655,0.46141934,-0.8162443,,0.09929574,-0.021932174,0.27447504,-0.9873221,0.1466882,-0.060644202,0.13099113,0.9687493,0.21063268,0.08964635,0.20001847,-0.9756823,,-0.5178555756139988,0.020303064726336237,0.14358874701000002,0.00020968994348452436,0.0005465459990617618,0.0017596543690094947,0.0001633440661342792,,-1.3830256167804964,0.030080044545104465,0.14062024291000003,0.12937869512995154,-0.020905384464112386,1.1811323437488452,0.11532091069080108
2.3969112519998816,,0.09012894,0.031465027,0.35749176,-0.5986557,-0.69050467,-0.40597373,-0.75711316,0.32231715,0.5682353,-0.26151687,0.6475452,-0.7157471,,-0.23348877,0.16454896,0.20956174,0.19957165,-0.8141802,-0.5452357,-0.9161517,-0.35243282,0.19093744,-0.3476164,0.46141285,-0.8162481,,0.09929574,-0.021932174,0.27447504,-0.9873221,0.1466882,-0.060644202,0.13099113,0.9687493,0.21063268,0.08964635,0.20001847,-0.9756823,,-0.5178555756139988,0.020303064726336237,0.14358874701000002,0.00020968994348452436,0.0005465459990617618,0.0017596543690094947,0.0001633440661342792,,-1.3830333395133705,0.030080044545104465,0.14062024291000003,0.12937869512995154,-0.020905384464112386,1.1811323437488452,0.11532091069080108
2.4259518320000097,,0.09012894,0.031465027,0.35749176,-0.5986557,-0.69050467,-0.40597373,-0.75711316,0.32231715,0.5682353,-0.26151687,0.6475452,-0.7157471,,-0.23348778,0.16454573,0.2095603,0.1995687,-0.81418157,-0.5452346,-0.91615486,-0.3524269,0.19093364,-0.34760997,0.46141484,-0.81624955,,0.09929574,-0.021932174,0.27447504,-0.9873221,0.1466882,-0.060644202,0.13099113,0.9687493,0.21063268,0.08964635,0.20001847,-0.9756823,,-0.5178555756139988,0.020303064726336237,0.14358874701000002,0.00020968994348452436,0.0005465459990617618,0.0017596543690094947,0.0001633440661342792,,-1.3830333395133705,0.03007232181223024,0.14062024291000003,0.12937869512995154,-0.020905384464112386,1.1811323437488452,0.11532091069080108
2.450946376999582,,0.09012894,0.031465027,0.35749176,-0.5986557,-0.69050467,-0.40597373,-0.75711316,0.32231715,0.5682353,-0.26151687,0.6475452,-0.7157471,,-0.23349252,0.1645444,0.2095619,0.19956776,-0.81417745,-0.545241,-0.9161549,-0.3524277,0.1909315,-0.34761012,0.4614214,-0.8162459,,0.09929574,-0.021932174,0.27447504,-0.9873221,0.1466882,-0.060644202,0.13099113,0.9687493,0.21063268,0.08964635,0.20001847,-0.9756823,,-0.5178555756139988,0.020303064726336237,0.14358874701000002,0.00020968994348452436,0.0005465459990617618,0.0017596543690094947,0.0001633440661342792,,-1.3830256167804964,0.03007232181223024,0.14062024291000003,0.12937869512995154,-0.020905384464112386,1.1811323437488452,0.11532091069080108
2.483847429999969,,0.09012894,0.031465027,0.35749176,-0.5985108,-0.69063014,-0.40597403,-0.75718087,0.32215834,0.56823504,-0.26165235,0.6474905,-0.7157471,,-0.23349348,0.16454764,0.20956336,0.19957073,-0.814176,-0.545242,-0.91615176,-0.35243365,0.19093525,-0.34761655,0.46141934,-0.8162443,,0.09929574,-0.021932174,0.27447504,-0.9873221,0.1466882,-0.060644202,0.13099113,0.9687493,0.21063268,0.08964635,0.20001847,-0.9756823,,-0.5178555756139988,0.020303064726336237,0.14358874701000002,0.0,0.0005465459990617618,0.0017596543690094947,0.0001633440661342792,,-1.3830256167804964,0.030080044545104465,0.14062024291000003,0.12937869512995154,-0.020905384464112386,1.1811323437488452,0.11532091069080108
2.5338295049996304,,0.09012831,0.031464223,0.3574915,-0.5983626,-0.6907556,-0.40597895,-0.75725305,0.3219995,0.56822896,-0.26178232,0.64743567,-0.71574914,,-0.23349348,0.16454764,0.20956336,0.19957073,-0.814176,-0.545242,-0.91615176,-0.35243365,0.19093525,-0.34761655,0.46141934,-0.8162443,,0.09929574,-0.021932174,0.27447504,-0.9873221,0.1466882,-0.060644202,0.13099113,0.9687493,0.21063268,0.08964635,0.20001847,-0.9756823,,-0.5178555756139988,0.020295341993462012,0.14358874701000002,-0.00020968994348452436,0.0005465459990617618,0.0017596543690094947,0.0001633440661342792,,-1.3830256167804964,0.030080044545104465,0.14062024291000003,0.12937869512995154,-0.020905384464112386,1.1811323437488452,0.11532091069080108
2.5863441699998475,,0.09012894,0.031465027,0.35749176,-0.5983658,-0.6907556,-0.4059743,-0.7572487,0.3219995,0.5682348,-0.26178786,0.64743567,-0.7157472,,-0.23348877,0.16454896,0.20956174,0.19957165,-0.8141802,-0.5452357,-0.9161517,-0.35243282,0.19093744,-0.3476164,0.46141285,-0.8162481,,0.09929574,-0.021932174,0.27447504,-0.9873221,0.1466882,-0.060644202,0.13099113,0.9687493,0.21063268,0.08964635,0.20001847,-0.9756823,,-0.5178555756139988,0.020303064726336237,0.14358874701000002,-0.00020968994348452436,0.0005465459990617618,0.0017596543690094947,0.0001633440661342792,,-1.3830333395133705,0.030080044545104465,0.14062024291000003,0.12937869512995154,-0.020905384464112386,1.1811323437488452,0.11532091069080108
2.645448930999919,,0.09012894,0.031465027,0.35749176,-0.5983658,-0.6907556,-0.4059743,-0.7572487,0.3219995,0.5682348,-0.26178786,0.64743567,-0.7157472,,-0.23348877,0.16454896,0.20956174,0.19957165,-0.8141802,-0.5452357,-0.9161517,-0.35243282,0.19093744,-0.3476164,0.46141285,-0.8162481,,0.09929574,-0.021932174,0.27447504,-0.9873221,0.1466882,-0.060644202,0.13099113,0.9687493,0.21063268,0.08964635,0.20001847,-0.9756823,,-0.5178555756139988,0.020303064726336237,0.14358874701000002,-0.00020968994348452436,0.0005465459990617618,0.0017596543690094947,0.0001633440661342792,,-1.3830333395133705,0.030080044545104465,0.14062024291000003,0.12937869512995154,-0.020905384464112386,1.1811323437488452,0.11532091069080108
2.6987715000000208,,0.09012894,0.031465027,0.35749176,-0.5983658,-0.6907556,-0.4059743,-0.7572487,0.3219995,0.5682348,-0.26178786,0.64743567,-0.7157472,,-0.23348877,0.16454896,0.20956174,0.19957165,-0.8141802,-0.5452357,-0.9161517,-0.35243282,0.19093744,-0.3476164,0.46141285,-0.8162481,,0.09929574,-0.021932174,0.27447504,-0.9873221,0.1466882,-0.060644202,0.13099113,0.9687493,0.21063268,0.08964635,0.20001847,-0.9756823,,-0.5178555756139988,0.020303064726336237,0.14358874701000002,-0.00020968994348452436,0.0005465459990617618,0.0017596543690094947,0.0001633440661342792,,-1.3830256167804964,0.030080044545104465,0.14062024291000003,0.12937869512995154,-0.020905384464112386,1.1811323437488452,0.11532091069080108
2.768489233999844,,0.09012894,0.031465027,0.35749176,-0.5983658,-0.6907556,-0.4059743,-0.7572487,0.3219995,0.5682348,-0.26178786,0.64743567,-0.7157472,,-0.23348877,0.16454896,0.20956174,0.19957165,-0.8141802,-0.5452357,-0.9161517,-0.35243282,0.19093744,-0.3476164,0.46141285,-0.8162481,,0.09929574,-0.021932174,0.27447504,-0.9873221,0.1466882,-0.060644202,0.13099113,0.9687493,0.21063268,0.08964635,0.20001847,-0.9756823,,-0.5178555756139988,0.020303064726336237,0.14358874701000002,-0.00020968994348452436,0.0005465459990617618,0.0017596543690094947,0.0001633440661342792,,-1.3830333395133705,0.030080044545104465,0.14062024291000003,0.12937869512995154,-0.020905384464112386,1.1811323437488452,0.11532091069080108
2.8141204119997383,,0.09012894,0.031465027,0.35749176,-0.5983658,-0.6907556,-0.4059743,-0.7572487,0.3219995,0.5682348,-0.26178786,0.64743567,-0.7157472,,-0.23349348,0.16454764,0.20956336,0.19957073,-0.814176,-0.545242,-0.91615176,-0.35243365,0.19093525,-0.34761655,0.46141934,-0.8162443,,0.09929574,-0.021932174,0.27447504,-0.9873221,0.1466882,-0.060644202,0.13099113,0.9687493,0.21063268,0.08964635,0.20001847,-0.9756823,,-0.5178555756139988,0.020303064726336237,0.14358874701000002,-0.00020968994348452436,0.0005465459990617618,0.0017596543690094947,0.0001633440661342792,,-1.3830256167804964,0.030080044545104465,0.14062024291000003,0.12937869512995154,-0.020905384464112386,1.1811323437488452,0.11532091069080108
2.851106955999967,,0.09012894,0.031465027,0.35749176,-0.5983658,-0.6907556,-0.4059743,-0.7572487,0.3219995,0.5682348,-0.26178786,0.64743567,-0.7157472,,-0.23349348,0.16454764,0.20956336,0.19957073,-0.814176,-0.545242,-0.91615176,-0.35243365,0.19093525,-0.34761655,0.46141934,-0.8162443,,0.09929574,-0.021932174,0.27447504,-0.9873221,0.1466882,-0.060644202,0.13099113,0.9687493,0.21063268,0.08964635,0.20001847,-0.9756823,,-0.5178555756139988,0.020303064726336237,0.14358874701000002,-0.00020968994348452436,0.0005465459990617618,0.0017596543690094947,0.0001633440661342792,,-1.3830256167804964,0.030080044545104465,0.14062024291000003,0.12937869512995154,-0.020905384464112386,1.1811323437488452,0.11532091069080108
2.8838495499999226,,0.09012894,0.031465027,0.35749176,-0.5983658,-0.6907556,-0.4059743,-0.7572487,0.3219995,0.5682348,-0.26178786,0.64743567,-0.7157472,,-0.23348877,0.16454896,0.20956174,0.19957165,-0.8141802,-0.5452357,-0.9161517,-0.35243282,0.19093744,-0.3476164,0.46141285,-0.8162481,,0.09929574,-0.021932174,0.27447504,-0.9873221,0.1466882,-0.060644202,0.13099113,0.9687493,0.21063268,0.08964635,0.20001847,-0.9756823,,-0.5178555756139988,0.020303064726336237,0.14358874701000002,-0.00020968994348452436,0.0005465459990617618,0.0017596543690094947,0.0001633440661342792,,-1.3830333395133705,0.030080044545104465,0.14062024291000003,0.12937869512995154,-0.020905384464112386,1.1811323437488452,0.11532091069080108
2.9135182469999563,,0.09012894,0.031465027,0.35749176,-0.5983658,-0.6907556,-0.4059743,-0.7572487,0.3219995,0.5682348,-0.26178786,0.64743567,-0.7157472,,-0.23348877,0.16454896,0.20956174,0.19957165,-0.8141802,-0.5452357,-0.9161517,-0.35243282,0.19093744,-0.3476164,0.46141285,-0.8162481,,0.09929574,-0.021932174,0.27447504,-0.9873221,0.1466882,-0.060644202,0.13099113,0.9687493,0.21063268,0.08964635,0.20001847,-0.9756823,,-0.5178555756139988,0.020303064726336237,0.14358874701000002,-0.00020968994348452436,0.0005465459990617618,0.0017596543690094947,0.0001633440661342792,,-1.3830333395133705,0.030080044545104465,0.14062024291000003,0.12937869512995154,-0.020905384464112386,1.1811323437488452,0.11532091069080108
2.9413591569996242,,0.09012894,0.031465027,0.35749176,-0.5983658,-0.6907556,-0.4059743,-0.7572487,0.3219995,0.5682348,-0.26178786,0.64743567,-0.7157472,,-0.23348877,0.16454896,0.20956174,0.19957165,-0.8141802,-0.5452357,-0.9161517,-0.35243282,0.19093744,-0.3476164,0.46141285,-0.8162481,,0.09929574,-0.021932174,0.27447504,-0.9873221,0.1466882,-0.060644202,0.13099113,0.9687493,0.21063268,0.08964635,0.20001847,-0.9756823,,-0.5178555756139988,0.020303064726336237,0.14358874701000002,-0.00020968994348452436,0.0005465459990617618,0.0017596543690094947,0.0001633440661342792,,-1.3830333395133705,0.030080044545104465,0.14062024291000003,0.12937869512995154,-0.020905384464112386,1.1811323437488452,0.11532091069080108
2.9695936139996775,,0.09012894,0.031465027,0.35749176,-0.5983658,-0.6907556,-0.4059743,-0.7572487,0.3219995,0.5682348,-0.26178786,0.64743567,-0.7157472,,-0.23348877,0.16454896,0.20956174,0.19957165,-0.8141802,-0.5452357,-0.9161517,-0.35243282,0.19093744,-0.3476164,0.46141285,-0.8162481,,0.09929574,-0.021932174,0.27447504,-0.9873221,0.1466882,-0.060644202,0.13099113,0.9687493,0.21063268,0.08964635,0.20001847,-0.9756823,,-0.5178555756139988,0.020303064726336237,0.14358874701000002,-0.00020968994348452436,0.0005465459990617618,0.0017596543690094947,0.0001633440661342792,,-1.3830333395133705,0.030080044545104465,0.14062024291000003,0.12937869512995154,-0.020905384464112386,1.1811323437488452,0.11532091069080108
3.001740391999647,,0.09018117,0.031427696,0.3575061,-0.59834385,-0.6907487,-0.4060184,-0.75727,0.3219665,0.56822515,-0.26177645,0.6474594,-0.7157298,,-0.23354599,0.16452283,0.20957994,0.19951619,-0.8142235,-0.5451911,-0.9161774,-0.3523577,0.19095263,-0.34758037,0.46139362,-0.81627434,,0.09934036,-0.021953005,0.2744673,-0.98732984,0.14663382,-0.060649604,0.13093668,0.9687567,0.21063256,0.08964056,0.20002258,-0.975682,,-0.5178555756139988,0.020303064726336237,0.14358874701000002,-0.00020968994348452436,0.0005465459990617618,0.0017596543690094947,0.0001633440661342792,,-1.3830333395133705,0.030080044545104465,0.14062024291000003,0.12937869512995154,-0.020905384464112386,1.1811323437488452,0.11532091069080108
3.0307091619997664,,0.09018117,0.031427696,0.3575061,-0.59834385,-0.6907487,-0.4060184,-0.75727,0.3219665,0.56822515,-0.26177645,0.6474594,-0.7157298,,-0.23355073,0.16452149,0.20958158,0.19951528,-0.8142196,-0.5451975,-0.9161776,-0.35235843,0.19095045,-0.3475805,0.46140003,-0.81627053,,0.09934036,-0.021953005,0.2744673,-0.98732984,0.14663382,-0.060649604,0.13093668,0.9687567,0.21063256,0.08964056,0.20002258,-0.975682,,-0.5178555756139988,0.020303064726336237,0.14358874701000002,-0.00020968994348452436,0.0005465459990617618,0.0017596543690094947,0.0001633440661342792,,-1.3830256167804964,0.030080044545104465,0.14062024291000003,0.12937869512995154,-0.020905384464112386,1.1811323437488452,0.11532091069080108
3.0548174269997617,,0.09018117,0.031427696,0.3575061,-0.59834385,-0.6907487,-0.4060184,-0.75727,0.3219665,0.56822515,-0.26177645,0.6474594,-0.7157298,,-0.23354599,0.16452283,0.20957994,0.19951619,-0.8142235,-0.5451911,-0.9161774,-0.3523577,0.19095263,-0.34758037,0.46139362,-0.81627434,,0.09934036,-0.021953005,0.2744673,-0.98732984,0.14663382,-0.060649604,0.13093668,0.9687567,0.21063256,0.08964056,0.20002258,-0.975682,,-0.5178555756139988,0.020303064726336237,0.14358874701000002,-0.00020968994348452436,0.0005465459990617618,0.0017596543690094947,0.0001633440661342792,,-1.3830333395133705,0.030080044545104465,0.14062024291000003,0.12937869512995154,-0.020905384464112386,1.1811323437488452,0.11532091069080108
3.1035172499996406,,0.09018117,0.031427696,0.3575061,-0.59834385,-0.6907487,-0.4060184,-0.75727,0.3219665,0.56822515,-0.26177645,0.6474594,-0.7157298,,-0.23355073,0.16452149,0.20958158,0.19951528,-0.8142196,-0.5451975,-0.9161776,-0.35235843,0.19095045,-0.3475805,0.46140003,-0.81627053,,0.09934036,-0.021953005,0.2744673,-0.98732984,0.14663382,-0.060649604,0.13093668,0.9687567,0.21063256,0.08964056,0.20002258,-0.975682,,-0.5178555756139988,0.020303064726336237,0.14358874701000002,-0.00020968994348452436,0.0005465459990617618,0.0017596543690094947,0.0001633440661342792,,-1.3830256167804964,0.030080044545104465,0.14062024291000003,0.12937869512995154,-0.020905384464112386,1.1811323437488452,0.11532091069080108
3.1544232269998247,,0.09018117,0.031427696,0.3575061,-0.59834385,-0.6907487,-0.4060184,-0.75727,0.3219665,0.56822515,-0.26177645,0.6474594,-0.7157298,,-0.23354599,0.16452283,0.20957994,0.19951619,-0.8142235,-0.5451911,-0.9161774,-0.3523577,0.19095263,-0.34758037,0.46139362,-0.81627434,,0.09934036,-0.021953005,0.2744673,-0.98732984,0.14663382,-0.060649604,0.13093668,0.9687567,0.21063256,0.08964056,0.20002258,-0.975682,,-0.5178555756139988,0.020303064726336237,0.14358874701000002,-0.00020968994348452436,0.0005465459990617618,0.0017596543690094947,0.0001633440661342792,,-1.3830333395133705,0.030080044545104465,0.14062024291000003,0.12937869512995154,-0.020905384464112386,1.1811323437488452,0.11532091069080108
3.213769489999777,,0.09018117,0.031427696,0.3575061,-0.59863377,-0.6904979,-0.4060178,-0.75713444,0.32228416,0.56822556,-0.26150545,0.647569,-0.7157297,,-0.23354599,0.16452283,0.20957994,0.19951619,-0.8142235,-0.5451911,-0.9161774,-0.3523577,0.19095263,-0.34758037,0.46139362,-0.81627434,,0.09934036,-0.021953005,0.2744673,-0.98732984,0.14663382,-0.060649604,0.13093668,0.9687567,0.21063256,0.08964056,0.20002258,-0.975682,,-0.5178555756139988,0.020303064726336237,0.14358874701000002,0.00020968994348452436,0.0005465459990617618,0.0017596543690094947,0.0001633440661342792,,-1.3830333395133705,0.030080044545104465,0.14062024291000003,0.12937869512995154,-0.020905384464112386,1.1811323437488452,0.11532091069080108
3.2670458989996405,,0.09018054,0.03142689,0.35750583,-0.5986306,-0.6904979,-0.4060224,-0.7571388,0.32228416,0.5682198,-0.2614999,0.64756906,-0.71573186,,-0.23354599,0.16452283,0.20957994,0.19951619,-0.8142235,-0.5451911,-0.9161774,-0.3523577,0.19095263,-0.34758037,0.46139362,-0.81627434,,0.09934036,-0.021953005,0.2744673,-0.98732984,0.14663382,-0.060649604,0.13093668,0.9687567,0.21063256,0.08964056,0.20002258,-0.975682,,-0.5178555756139988,0.020295341993462012,0.14358874701000002,0.00020968994348452436,0.0005465459990617618,0.0017596543690094947,0.0001633440661342792,,-1.3830333395133705,0.030080044545104465,0.14062024291000003,0.12937869512995154,-0.020905384464112386,1.1811323437488452,0.11532091069080108
3.316950977999568,,0.09018117,0.031427696,0.3575061,-0.59863377,-0.6904979,-0.4060178,-0.75713444,0.32228416,0.56822556,-0.26150545,0.647569,-0.7157297,,-0.23355073,0.16452149,0.20958158,0.19951528,-0.8142196,-0.5451975,-0.9161776,-0.35235843,0.19095045,-0.3475805,0.46140003,-0.81627053,,0.09934036,-0.021953005,0.2744673,-0.98732984,0.14663382,-0.060649604,0.13093668,0.9687567,0.21063256,0.08964056,0.20002258,-0.975682,,-0.5178555756139988,0.020303064726336237,0.14358874701000002,0.00020968994348452436,0.0005465459990617618,0.0017596543690094947,0.0001633440661342792,,-1.3830256167804964,0.030080044545104465,0.14062024291000003,0.12937869512995154,-0.020905384464112386,1.1811323437488452,0.11532091069080108
3.35601920299996,,0.09018117,0.031427696,0.3575061,-0.59863377,-0.6904979,-0.4060178,-0.75713444,0.32228416,0.56822556,-0.26150545,0.647569,-0.7157297,,-0.23354599,0.16452283,0.20957994,0.19951619,-0.8142235,-0.5451911,-0.9161774,-0.3523577,0.19095263,-0.34758037,0.46139362,-0.81627434,,0.09934036,-0.021953005,0.2744673,-0.98732984,0.14663382,-0.060649604,0.13093668,0.9687567,0.21063256,0.08964056,0.20002258,-0.975682,,-0.5178555756139988,0.020303064726336237,0.14358874701000002,0.00020968994348452436,0.0005465459990617618,0.0017596543690094947,0.0001633440661342792,,-1.3830333395133705,0.030080044545104465,0.14062024291000003,0.12937869512995154,-0.020905384464112386,1.1811323437488452,0.11532091069080108
3.3899407839999185,,0.09018117,0.031427696,0.3575061,-0.59863377,-0.6904979,-0.4060178,-0.75713444,0.32228416,0.56822556,-0.26150545,0.647569,-0.7157297,,-0.23355073,0.16452149,0.20958158,0.19951528,-0.8142196,-0.5451975,-0.9161776,-0.35235843,0.19095045,-0.3475805,0.46140003,-0.81627053,,0.09934036,-0.021953005,0.2744673,-0.98732984,0.14663382,-0.060649604,0.13093668,0.9687567,0.21063256,0.08964056,0.20002258,-0.975682,,-0.5178555756139988,0.020303064726336237,0.14358874701000002,0.00020968994348452436,0.0005465459990617618,0.0017596543690094947,0.0001633440661342792,,-1.3830256167804964,0.030080044545104465,0.14062024291000003,0.12937869512995154,-0.020905384464112386,1.1811323437488452,0.11532091069080108
3.421760572999574,,0.09018117,0.031427696,0.3575061,-0.59863377,-0.6904979,-0.4060178,-0.75713444,0.32228416,0.56822556,-0.26150545,0.647569,-0.7157297,,-0.23354599,0.16452283,0.20957994,0.19951619,-0.8142235,-0.5451911,-0.9161774,-0.3523577,0.19095263,-0.34758037,0.46139362,-0.81627434,,0.09934036,-0.021953005,0.2744673,-0.98732984,0.14663382,-0.060649604,0.13093668,0.9687567,0.21063256,0.08964056,0.20002258,-0.975682,,-0.5178555756139988,0.020303064726336237,0.14358874701000002,0.00020968994348452436,0.0005465459990617618,0.0017596543690094947,0.0001633440661342792,,-1.3830333395133705,0.030080044545104465,0.14062024291000003,0.12937869512995154,-0.020905384464112386,1.1811323437488452,0.11532091069080108
3.45498734199964,,0.09018117,0.031427696,0.3575061,-0.59863377,-0.6904979,-0.4060178,-0.75713444,0.32228416,0.56822556,-0.26150545,0.647569,-0.7157297,,-0.23354599,0.16452283,0.20957994,0.19951619,-0.8142235,-0.5451911,-0.9161774,-0.3523577,0.19095263,-0.34758037,0.46139362,-0.81627434,,0.09934036,-0.021953005,0.2744673,-0.98732984,0.14663382,-0.060649604,0.13093668,0.9687567,0.21063256,0.08964056,0.20002258,-0.975682,,-0.5178555756139988,0.020303064726336237,0.14358874701000002,0.00020968994348452436,0.0005465459990617618,0.0017596543690094947,0.0001633440661342792,,-1.3830333395133705,0.030080044545104465,0.14062024291000003,0.12937869512995154,-0.020905384464112386,1.1811323437488452,0.11532091069080108
3.485163788999671,,0.09018054,0.03142689,0.35750583,-0.5986306,-0.6904979,-0.4060224,-0.7571388,0.32228416,0.5682198,-0.2614999,0.64756906,-0.71573186,,-0.23355073,0.16452149,0.20958158,0.19951528,-0.8142196,-0.5451975,-0.9161776,-0.35235843,0.19095045,-0.3475805,0.46140003,-0.81627053,,0.09934036,-0.021953005,0.2744673,-0.98732984,0.14663382,-0.060649604,0.13093668,0.9687567,0.21063256,0.08964056,0.20002258,-0.975682,,-0.5178555756139988,0.020295341993462012,0.14358874701000002,0.00020968994348452436,0.0005465459990617618,0.0017596543690094947,0.0001633440661342792,,-1.3830256167804964,0.030080044545104465,0.14062024291000003,0.12937869512995154,-0.020905384464112386,1.1811323437488452,0.11532091069080108
3.5120663619995867,,0.09018117,0.031427696,0.3575061,-0.59863377,-0.6904979,-0.4060178,-0.75713444,0.32228416,0.56822556,-0.26150545,0.647569,-0.7157297,,-0.23354599,0.16452283,0.20957994,0.19951619,-0.8142235,-0.5451911,-0.9161774,-0.3523577,0.19095263,-0.34758037,0.46139362,-0.81627434,,0.09934036,-0.021953005,0.2744673,-0.98732984,0.14663382,-0.060649604,0.13093668,0.9687567,0.21063256,0.08964056,0.20002258,-0.975682,,-0.5178555756139988,0.020303064726336237,0.14358874701000002,0.00020968994348452436,0.0005465459990617618,0.0017596543690094947,0.0001633440661342792,,-1.3830333395133705,0.030080044545104465,0.14062024291000003,0.12937869512995154,-0.020905384464112386,1.1811323437488452,0.11532091069080108
3.54349573699983,,0.09018054,0.03142689,0.35750583,-0.5986306,-0.6904979,-0.4060224,-0.7571388,0.32228416,0.5682198,-0.2614999,0.64756906,-0.71573186,,-0.23354599,0.16452283,0.20957994,0.19951619,-0.8142235,-0.5451911,-0.9161774,-0.3523577,0.19095263,-0.34758037,0.46139362,-0.81627434,,0.09934036,-0.021953005,0.2744673,-0.98732984,0.14663382,-0.060649604,0.13093668,0.9687567,0.21063256,0.08964056,0.20002258,-0.975682,,-0.5178555756139988,0.020295341993462012,0.14358874701000002,0.00020968994348452436,0.0005465459990617618,0.0017596543690094947,0.0001633440661342792,,-1.3830333395133705,0.030080044545104465,0.14062024291000003,0.12937869512995154,-0.020905384464112386,1.1811323437488452,0.11532091069080108
3.576399016999858,,0.09018117,0.031427696,0.3575061,-0.59863377,-0.6904979,-0.4060178,-0.75713444,0.32228416,0.56822556,-0.26150545,0.647569,-0.7157297,,-0.23355073,0.16452149,0.20958158,0.19951528,-0.8142196,-0.5451975,-0.9161776,-0.35235843,0.19095045,-0.3475805,0.46140003,-0.81627053,,0.09934036,-0.021953005,0.2744673,-0.98732984,0.14663382,-0.060649604,0.13093668,0.9687567,0.21063256,0.08964056,0.20002258,-0.975682,,-0.5178555756139988,0.020303064726336237,0.14358874701000002,0.00020968994348452436,0.0005465459990617618,0.0017596543690094947,0.0001633440661342792,,-1.3830256167804964,0.030080044545104465,0.14062024291000003,0.12937869512995154,-0.020905384464112386,1.1811323437488452,0.11532091069080108
3.616638858999977,,0.09018117,0.031427696,0.3575061,-0.59863377,-0.6904979,-0.4060178,-0.75713444,0.32228416,0.56822556,-0.26150545,0.647569,-0.7157297,,-0.23354599,0.16452283,0.20957994,0.19951619,-0.8142235,-0.5451911,-0.9161774,-0.3523577,0.19095263,-0.34758037,0.46139362,-0.81627434,,0.09934036,-0.021953005,0.2744673,-0.98732984,0.14663382,-0.060649604,0.13093668,0.9687567,0.21063256,0.08964056,0.20002258,-0.975682,,-0.5178555756139988,0.020303064726336237,0.14358874701000002,0.00020968994348452436,0.0005465459990617618,0.0017596543690094947,0.0001633440661342792,,-1.3830333395133705,0.030080044545104465,0.14062024291000003,0.12937869512995154,-0.020905384464112386,1.1811323437488452,0.11532091069080108
3.659695284999998,,0.09018117,0.031427696,0.3575061,-0.59863377,-0.6904979,-0.4060178,-0.75713444,0.32228416,0.56822556,-0.26150545,0.647569,-0.7157297,,-0.23355073,0.16452149,0.20958158,0.19951528,-0.8142196,-0.5451975,-0.9161776,-0.35235843,0.19095045,-0.3475805,0.46140003,-0.81627053,,0.09934036,-0.021953005,0.2744673,-0.98732984,0.14663382,-0.060649604,0.13093668,0.9687567,0.21063256,0.08964056,0.20002258,-0.975682,,-0.5178555756139988,0.020303064726336237,0.14358874701000002,0.00020968994348452436,0.0005465459990617618,0.0017596543690094947,0.0001633440661342792,,-1.3830256167804964,0.030080044545104465,0.14062024291000003,0.12937869512995154,-0.020905384464112386,1.1811323437488452,0.11532091069080108
3.7283199720000084,,0.09018054,0.03142689,0.35750583,-0.5986306,-0.6904979,-0.4060224,-0.7571388,0.32228416,0.5682198,-0.2614999,0.64756906,-0.71573186,,-0.23355073,0.16452149,0.20958158,0.19951528,-0.8142196,-0.5451975,-0.9161776,-0.35235843,0.19095045,-0.3475805,0.46140003,-0.81627053,,0.09934036,-0.021953005,0.2744673,-0.98732984,0.14663382,-0.060649604,0.13093668,0.9687567,0.21063256,0.08964056,0.20002258,-0.975682,,-0.5178555756139988,0.020295341993462012,0.14358874701000002,0.00020968994348452436,0.0005465459990617618,0.0017596543690094947,0.0001633440661342792,,-1.3830256167804964,0.030080044545104465,0.14062024291000003,0.12937869512995154,-0.020905384464112386,1.1811323437488452,0.11532091069080108
3.785256655000012,,0.09018117,0.031427696,0.3575061,-0.59863377,-0.6904979,-0.4060178,-0.75713444,0.32228416,0.56822556,-0.26150545,0.647569,-0.7157297,,-0.23354599,0.16452283,0.20957994,0.19951619,-0.8142235,-0.5451911,-0.9161774,-0.3523577,0.19095263,-0.34758037,0.46139362,-0.81627434,,0.09934036,-0.021953005,0.2744673,-0.98732984,0.14663382,-0.060649604,0.13093668,0.9687567,0.21063256,0.08964056,0.20002258,-0.975682,,-0.5178555756139988,0.020303064726336237,0.14358874701000002,0.00020968994348452436,0.0005465459990617618,0.0017596543690094947,0.0001633440661342792,,-1.3830333395133705,0.030080044545104465,0.14062024291000003,0.12937869512995154,-0.020905384464112386,1.1811323437488452,0.11532091069080108
3.8331487589998687,,0.09018054,0.03142689,0.35750583,-0.59848565,-0.6906233,-0.40602273,-0.7572066,0.32212535,0.5682195,-0.26163542,0.6475143,-0.7157318,,-0.23354599,0.16452283,0.20957994,0.19951619,-0.8142235,-0.5451911,-0.9161774,-0.3523577,0.19095263,-0.34758037,0.46139362,-0.81627434,,0.09934036,-0.021953005,0.2744673,-0.98732984,0.14663382,-0.060649604,0.13093668,0.9687567,0.21063256,0.08964056,0.20002258,-0.975682,,-0.5178555756139988,0.020295341993462012,0.14358874701000002,0.0,0.0005465459990617618,0.0017596543690094947,0.0001633440661342792,,-1.3830333395133705,0.030080044545104465,0.14062024291000003,0.12937869512995154,-0.020905384464112386,1.1811323437488452,0.11532091069080108
3.8686337839999396,,0.09018117,0.031427696,0.3575061,-0.59834385,-0.6907487,-0.4060184,-0.75727,0.3219665,0.56822515,-0.26177645,0.6474594,-0.7157298,,-0.23354599,0.16452283,0.20957994,0.19951619,-0.8142235,-0.5451911,-0.9161774,-0.3523577,0.19095263,-0.34758037,0.46139362,-0.81627434,,0.09934036,-0.021953005,0.2744673,-0.98732984,0.14663382,-0.060649604,0.13093668,0.9687567,0.21063256,0.08964056,0.20002258,-0.975682,,-0.5178555756139988,0.020303064726336237,0.14358874701000002,-0.00020968994348452436,0.0005465459990617618,0.0017596543690094947,0.0001633440661342792,,-1.3830333395133705,0.030080044545104465,0.14062024291000003,0.12937869512995154,-0.020905384464112386,1.1811323437488452,0.11532091069080108
3.8935011059998033,,0.09018054,0.03142689,0.35750583,-0.5983407,-0.6907487,-0.40602303,-0.7572743,0.3219665,0.5682193,-0.26177093,0.6474594,-0.71573186,,-0.23354599,0.16452283,0.20957994,0.19951619,-0.8142235,-0.5451911,-0.9161774,-0.3523577,0.19095263,-0.34758037,0.46139362,-0.81627434,,0.09934036,-0.021953005,0.2744673,-0.98732984,0.14663382,-0.060649604,0.13093668,0.9687567,0.21063256,0.08964056,0.20002258,-0.975682,,-0.5178555756139988,0.020295341993462012,0.14358874701000002,-0.00020968994348452436,0.0005465459990617618,0.0017596543690094947,0.0001633440661342792,,-1.3830333395133705,0.030080044545104465,0.14062024291000003,0.12937869512995154,-0.020905384464112386,1.1811323437488452,0.11532091069080108
3.921889094999642,,0.09018117,0.031427696,0.3575061,-0.59834385,-0.6907487,-0.4060184,-0.75727,0.3219665,0.56822515,-0.26177645,0.6474594,-0.7157298,,-0.23354599,0.16452283,0.20957994,0.19951619,-0.8142235,-0.5451911,-0.9161774,-0.3523577,0.19095263,-0.34758037,0.46139362,-0.81627434,,0.09934036,-0.021953005,0.2744673,-0.98732984,0.14663382,-0.060649604,0.13093668,0.9687567,0.21063256,0.08964056,0.20002258,-0.975682,,-0.5178555756139988,0.020303064726336237,0.14358874701000002,-0.00020968994348452436,0.0005465459990617618,0.0017596543690094947,0.0001633440661342792,,-1.3830333395133705,0.030080044545104465,0.14062024291000003,0.12937869512995154,-0.020905384464112386,1.1811323437488452,0.11532091069080108
3.9521775749999506,,0.09018117,0.031427696,0.3575061,-0.59834385,-0.6907487,-0.4060184,-0.75727,0.3219665,0.56822515,-0.26177645,0.6474594,-0.7157298,,-0.23355073,0.16452149,0.20958158,0.19951528,-0.8142196,-0.5451975,-0.9161776,-0.35235843,0.19095045,-0.3475805,0.46140003,-0.81627053,,0.09934036,-0.021953005,0.2744673,-0.98732984,0.14663382,-0.060649604,0.13093668,0.9687567,0.21063256,0.08964056,0.20002258,-0.975682,,-0.5178555756139988,0.020303064726336237,0.14358874701000002,-0.00020968994348452436,0.0005465459990617618,0.0017596543690094947,0.0001633440661342792,,-1.3830256167804964,0.030080044545104465,0.14062024291000003,0.12937869512995154,-0.020905384464112386,1.1811323437488452,0.11532091069080108
3.989126572999794,,0.09018117,0.031427696,0.3575061,-0.59834385,-0.6907487,-0.4060184,-0.75727,0.3219665,0.56822515,-0.26177645,0.6474594,-0.7157298,,-0.23354599,0.16452283,0.20957994,0.19951619,-0.8142235,-0.5451911,-0.9161774,-0.3523577,0.19095263,-0.34758037,0.46139362,-0.81627434,,0.09934036,-0.021953005,0.2744673,-0.98732984,0.14663382,-0.060649604,0.13093668,0.9687567,0.21063256,0.08964056,0.20002258,-0.975682,,-0.5178555756139988,0.020303064726336237,0.14358874701000002,-0.00020968994348452436,0.0005465459990617618,0.0017596543690094947,0.0001633440661342792,,-1.3830333395133705,0.030080044545104465,0.14062024291000003,0.12937869512995154,-0.020905384464112386,1.1811323437488452,0.11532091069080108
4.017866131999654,,0.09018054,0.03142689,0.35750583,-0.5983407,-0.6907487,-0.40602303,-0.7572743,0.3219665,0.5682193,-0.26177093,0.6474594,-0.71573186,,-0.23354599,0.16452283,0.20957994,0.19951619,-0.8142235,-0.5451911,-0.9161774,-0.3523577,0.19095263,-0.34758037,0.46139362,-0.81627434,,0.09934036,-0.021953005,0.2744673,-0.98732984,0.14663382,-0.060649604,0.13093668,0.9687567,0.21063256,0.08964056,0.20002258,-0.975682,,-0.5178555756139988,0.020295341993462012,0.14358874701000002,-0.00020968994348452436,0.0005465459990617618,0.0017596543690094947,0.0001633440661342792,,-1.3830333395133705,0.030080044545104465,0.14062024291000003,0.12937869512995154,-0.020905384464112386,1.1811323437488452,0.11532091069080108
4.048787395999625,,0.09018054,0.03142689,0.35750583,-0.5983407,-0.6907487,-0.40602303,-0.7572743,0.3219665,0.5682193,-0.26177093,0.6474594,-0.71573186,,-0.23355073,0.16452149,0.20958158,0.19951528,-0.8142196,-0.5451975,-0.9161776,-0.35235843,0.19095045,-0.3475805,0.46140003,-0.81627053,,0.09934036,-0.021953005,0.2744673,-0.98732984,0.14663382,-0.060649604,0.13093668,0.9687567,0.21063256,0.08964056,0.20002258,-0.975682,,-0.5178555756139988,0.020295341993462012,0.14358874701000002,-0.00020968994348452436,0.0005465459990617618,0.0017596543690094947,0.0001633440661342792,,-1.3830256167804964,0.030080044545104465,0.14062024291000003,0.12937869512995154,-0.020905384464112386,1.1811323437488452,0.11532091069080108
4.089235651999843,,0.09018117,0.031427696,0.3575061,-0.59834385,-0.6907487,-0.4060184,-0.75727,0.3219665,0.56822515,-0.26177645,0.6474594,-0.7157298,,-0.23354599,0.16452283,0.20957994,0.19951619,-0.8142235,-0.5451911,-0.9161774,-0.3523577,0.19095263,-0.34758037,0.46139362,-0.81627434,,0.09934036,-0.021953005,0.2744673,-0.98732984,0.14663382,-0.060649604,0.13093668,0.9687567,0.21063256,0.08964056,0.20002258,-0.975682,,-0.5178555756139988,0.020303064726336237,0.14358874701000002,-0.00020968994348452436,0.0005465459990617618,0.0017596543690094947,0.0001633440661342792,,-1.3830333395133705,0.030080044545104465,0.14062024291000003,0.12937869512995154,-0.020905384464112386,1.1811323437488452,0.11532091069080108
4.134912817999975,,0.09005825,0.031498276,0.35753185,-0.5984315,-0.6906962,-0.40597862,-0.7572124,0.32205427,0.56825197,-0.2617423,0.6474719,-0.7157311,,-0.2334655,0.16452985,0.20958307,0.1996031,-0.8141658,-0.5452458,-0.9161591,-0.35244268,0.1908837,-0.34757882,0.46143088,-0.8162539,,0.09921821,-0.02190772,0.27448666,-0.9873075,0.14679085,-0.060633995,0.13109386,0.9687353,0.2106329,0.08965727,0.2000107,-0.9756829,,-0.5178555756139988,0.020303064726336237,0.14358874701000002,-0.00020968994348452436,0.0005465459990617618,0.0017596543690094947,0.0001633440661342792,,-1.3830256167804964,0.030080044545104465,0.14062024291000003,0.12937869512995154,-0.020905384464112386,1.1811323437488452,0.11532091069080108
4.199551548999807,,0.09005825,0.031498276,0.35753185,-0.5984315,-0.6906962,-0.40597862,-0.7572124,0.32205427,0.56825197,-0.2617423,0.6474719,-0.7157311,,-0.23346078,0.16453117,0.20958143,0.19960399,-0.8141697,-0.54523945,-0.916159,-0.35244188,0.19088584,-0.34757864,0.46142444,-0.81625766,,0.09921821,-0.02190772,0.27448666,-0.9873075,0.14679085,-0.060633995,0.13109386,0.9687353,0.2106329,0.08965727,0.2000107,-0.9756829,,-0.5178555756139988,0.020303064726336237,0.14358874701000002,-0.00020968994348452436,0.0005465459990617618,0.0017596543690094947,0.0001633440661342792,,-1.3830333395133705,0.030080044545104465,0.14062024291000003,0.12937869512995154,-0.020905384464112386,1.1811323437488452,0.11532091069080108
4.251446778999707,,0.09005825,0.031498276,0.35753185,-0.5984315,-0.6906962,-0.40597862,-0.7572124,0.32205427,0.56825197,-0.2617423,0.6474719,-0.7157311,,-0.23346078,0.16453117,0.20958143,0.19960399,-0.8141697,-0.54523945,-0.916159,-0.35244188,0.19088584,-0.34757864,0.46142444,-0.81625766,,0.09921821,-0.02190772,0.27448666,-0.9873075,0.14679085,-0.060633995,0.13109386,0.9687353,0.2106329,0.08965727,0.2000107,-0.9756829,,-0.5178555756139988,0.020303064726336237,0.14358874701000002,-0.00020968994348452436,0.0005465459990617618,0.0017596543690094947,0.0001633440661342792,,-1.3830333395133705,0.030080044545104465,0.14062024291000003,0.12937869512995154,-0.020905384464112386,1.1811323437488452,0.11532091069080108
4.289597899,,0.09005761,0.03149748,0.35753155,-0.5984284,-0.6906962,-0.40598324,-0.7572168,0.32205427,0.5682461,-0.26173675,0.6474719,-0.7157331,,-0.23346078,0.16453117,0.20958143,0.19960399,-0.8141697,-0.54523945,-0.916159,-0.35244188,0.19088584,-0.34757864,0.46142444,-0.81625766,,0.09921821,-0.02190772,0.27448666,-0.9873075,0.14679085,-0.060633995,0.13109386,0.9687353,0.2106329,0.08965727,0.2000107,-0.9756829,,-0.5178555756139988,0.020295341993462012,0.14358874701000002,-0.00020968994348452436,0.0005465459990617618,0.0017596543690094947,0.0001633440661342792,,-1.3830333395133705,0.030080044545104465,0.14062024291000003,0.12937869512995154,-0.020905384464112386,1.1811323437488452,0.11532091069080108
4.327559608999763,,0.09005825,0.031498276,0.35753185,-0.5984315,-0.6906962,-0.40597862,-0.7572124,0.32205427,0.56825197,-0.2617423,0.6474719,-0.7157311,,-0.23346078,0.16453117,0.20958143,0.19960399,-0.8141697,-0.54523945,-0.916159,-0.35244188,0.19088584,-0.34757864,0.46142444,-0.81625766,,0.09921821,-0.02190772,0.27448666,-0.9873075,0.14679085,-0.060633995,0.13109386,0.9687353,0.2106329,0.08965727,0.2000107,-0.9756829,,-0.5178555756139988,0.020303064726336237,0.14358874701000002,-0.00020968994348452436,0.0005465459990617618,0.0017596543690094947,0.0001633440661342792,,-1.3830333395133705,0.030080044545104465,0.14062024291000003,0.12937869512995154,-0.020905384464112386,1.1811323437488452,0.11532091069080108
4.3579441529996075,,0.09005825,0.031498276,0.35753185,-0.5984315,-0.6906962,-0.40597862,-0.7572124,0.32205427,0.56825197,-0.2617423,0.6474719,-0.7157311,,-0.23346078,0.16453117,0.20958143,0.19960399,-0.8141697,-0.54523945,-0.916159,-0.35244188,0.19088584,-0.34757864,0.46142444,-0.81625766,,0.09921821,-0.02190772,0.27448666,-0.9873075,0.14679085,-0.060633995,0.13109386,0.9687353,0.2106329,0.08965727,0.2000107,-0.9756829,,-0.5178555756139988,0.020303064726336237,0.14358874701000002,-0.00020968994348452436,0.0005465459990617618,0.0017596543690094947,0.0001633440661342792,,-1.3830333395133705,0.030080044545104465,0.14062024291000003,0.12937869512995154,-0.020905384464112386,1.1811323437488452,0.11532091069080108
4.390293037999982,,0.09005761,0.03149748,0.35753155,-0.5984284,-0.6906962,-0.40598324,-0.7572168,0.32205427,0.5682461,-0.26173675,0.6474719,-0.7157331,,-0.2334655,0.16452985,0.20958307,0.1996031,-0.8141658,-0.5452458,-0.9161591,-0.35244268,0.1908837,-0.34757882,0.46143088,-0.8162539,,0.09921821,-0.02190772,0.27448666,-0.9873075,0.14679085,-0.060633995,0.13109386,0.9687353,0.2106329,0.08965727,0.2000107,-0.9756829,,-0.5178555756139988,0.020295341993462012,0.14358874701000002,-0.00020968994348452436,0.0005465459990617618,0.0017596543690094947,0.0001633440661342792,,-1.3830256167804964,0.030080044545104465,0.14062024291000003,0.12937869512995154,-0.020905384464112386,1.1811323437488452,0.11532091069080108
4.42204959899982,,0.09005825,0.031498276,0.35753185,-0.59872144,-0.6904452,-0.40597805,-0.7570768,0.3223719,0.56825244,-0.26147127,0.64758146,-0.715731,,-0.2334655,0.16452985,0.20958307,0.1996031,-0.8141658,-0.5452458,-0.9161591,-0.35244268,0.1908837,-0.34757882,0.46143088,-0.8162539,,0.09921821,-0.02190772,0.27448666,-0.9873075,0.14679085,-0.060633995,0.13109386,0.9687353,0.2106329,0.08965727,0.2000107,-0.9756829,,-0.5178555756139988,0.020303064726336237,0.14358874701000002,0.00020968994348452436,0.0005465459990617618,0.0017596543690094947,0.0001633440661342792,,-1.3830256167804964,0.030080044545104465,0.14062024291000003,0.12937869512995154,-0.020905384464112386,1.1811323437488452,0.11532091069080108
4.452876185999685,,0.09005825,0.031498276,0.35753185,-0.59872144,-0.6904452,-0.40597805,-0.7570768,0.3223719,0.56825244,-0.26147127,0.64758146,-0.715731,,-0.23346078,0.16453117,0.20958143,0.19960399,-0.8141697,-0.54523945,-0.916159,-0.35244188,0.19088584,-0.34757864,0.46142444,-0.81625766,,0.09921821,-0.02190772,0.27448666,-0.9873075,0.14679085,-0.060633995,0.13109386,0.9687353,0.2106329,0.08965727,0.2000107,-0.9756829,,-0.5178555756139988,0.020303064726336237,0.14358874701000002,0.00020968994348452436,0.0005465459990617618,0.0017596543690094947,0.0001633440661342792,,-1.3830333395133705,0.030080044545104465,0.14062024291000003,0.12937869512995154,-0.020905384464112386,1.1811323437488452,0.11532091069080108
4.483064600999569,,0.09005825,0.031498276,0.35753185,-0.59872144,-0.6904452,-0.40597805,-0.7570768,0.3223719,0.56825244,-0.26147127,0.64758146,-0.715731,,-0.2334655,0.16452985,0.20958307,0.1996031,-0.8141658,-0.5452458,-0.9161591,-0.35244268,0.1908837,-0.34757882,0.46143088,-0.8162539,,0.09921821,-0.02190772,0.27448666,-0.9873075,0.14679085,-0.060633995,0.13109386,0.9687353,0.2106329,0.08965727,0.2000107,-0.9756829,,-0.5178555756139988,0.020303064726336237,0.14358874701000002,0.00020968994348452436,0.0005465459990617618,0.0017596543690094947,0.0001633440661342792,,-1.3830256167804964,0.030080044545104465,0.14062024291000003,0.12937869512995154,-0.020905384464112386,1.1811323437488452,0.11532091069080108
4.515837667999676,,0.09005898,0.031497944,0.35753116,-0.5987213,-0.69044846,-0.40597266,-0.75707686,0.32237616,0.56824994,-0.26147136,0.6475759,-0.715736,,-0.23346078,0.16453117,0.20958143,0.19960399,-0.8141697,-0.54523945,-0.916159,-0.35244188,0.19088584,-0.34757864,0.46142444,-0.81625766,,0.09921821,-0.02190772,0.27448666,-0.9873075,0.14679085,-0.060633995,0.13109386,0.9687353,0.2106329,0.08965727,0.2000107,-0.9756829,,-0.517863298346873,0.020303064726336237,0.14358874701000002,0.00020968994348452436,0.0005465459990617618,0.0017596543690094947,0.0001633440661342792,,-1.3830333395133705,0.030080044545104465,0.14062024291000003,0.12937869512995154,-0.020905384464112386,1.1811323437488452,0.11532091069080108
4.5438424819999454,,0.09005762,0.03149748,0.35753155,-0.59871835,-0.6904451,-0.40598264,-0.7570812,0.32237193,0.5682466,-0.2614657,0.64758146,-0.71573305,,-0.2334655,0.16452985,0.20958307,0.1996031,-0.8141658,-0.5452458,-0.9161591,-0.35244268,0.1908837,-0.34757882,0.46143088,-0.8162539,,0.09921821,-0.02190772,0.27448666,-0.9873075,0.14679085,-0.060633995,0.13109386,0.9687353,0.2106329,0.08965727,0.2000107,-0.9756829,,-0.5178555756139988,0.020295341993462012,0.14358874701000002,0.00020968994348452436,0.0005465459990617618,0.0017596543690094947,0.0001633440661342792,,-1.3830256167804964,0.030080044545104465,0.14062024291000003,0.12937869512995154,-0.020905384464112386,1.1811323437488452,0.11532091069080108
4.581537354999909,,0.09005971,0.031497598,0.35753047,-0.59872127,-0.6904517,-0.40596732,-0.757077,0.32238048,0.5682475,-0.26147148,0.6475704,-0.715741,,-0.2334598,0.16452792,0.20958003,0.19960104,-0.81417125,-0.5452384,-0.91616195,-0.3524359,0.19088207,-0.3475722,0.46142638,-0.8162592,,0.09921821,-0.02190772,0.27448666,-0.9873075,0.14679085,-0.060633995,0.13109386,0.9687353,0.2106329,0.08965727,0.2000107,-0.9756829,,-0.5178710210797471,0.020303064726336237,0.14358874701000002,0.00020968994348452436,0.0005465459990617618,0.0017596543690094947,0.0001633440661342792,,-1.3830333395133705,0.03007232181223024,0.14062024291000003,0.12937869512995154,-0.020905384464112386,1.1811323437488452,0.11532091069080108
4.622970530999737,,0.09005908,0.031496793,0.35753018,-0.5987181,-0.6904516,-0.40597197,-0.75708133,0.32238048,0.56824166,-0.26146594,0.6475704,-0.71574306,,-0.2334655,0.16452985,0.20958307,0.1996031,-0.8141658,-0.5452458,-0.9161591,-0.35244268,0.1908837,-0.34757882,0.46143088,-0.8162539,,0.09921821,-0.02190772,0.27448666,-0.9873075,0.14679085,-0.060633995,0.13109386,0.9687353,0.2106329,0.08965727,0.2000107,-0.9756829,,-0.5178710210797471,0.020295341993462012,0.14358874701000002,0.00020968994348452436,0.0005465459990617618,0.0017596543690094947,0.0001633440661342792,,-1.3830256167804964,0.030080044545104465,0.14062024291000003,0.12937869512995154,-0.020905384464112386,1.1811323437488452,0.11532091069080108
4.682527983,,0.09005825,0.031498276,0.35753185,-0.59872144,-0.6904452,-0.40597805,-0.7570768,0.3223719,0.56825244,-0.26147127,0.64758146,-0.715731,,-0.2334598,0.16452792,0.20958003,0.19960104,-0.81417125,-0.5452384,-0.91616195,-0.3524359,0.19088207,-0.3475722,0.46142638,-0.8162592,,0.09921821,-0.02190772,0.27448666,-0.9873075,0.14679085,-0.060633995,0.13109386,0.9687353,0.2106329,0.08965727,0.2000107,-0.9756829,,-0.5178555756139988,0.020303064726336237,0.14358874701000002,0.00020968994348452436,0.0005465459990617618,0.0017596543690094947,0.0001633440661342792,,-1.3830333395133705,0.03007232181223024,0.14062024291000003,0.12937869512995154,-0.020905384464112386,1.1811323437488452,0.11532091069080108
4.749447501999839,,0.09005908,0.031496793,0.35753018,-0.5987181,-0.6904516,-0.40597197,-0.75708133,0.32238048,0.56824166,-0.26146594,0.6475704,-0.71574306,,-0.23346078,0.16453117,0.20958143,0.19960399,-0.8141697,-0.54523945,-0.916159,-0.35244188,0.19088584,-0.34757864,0.46142444,-0.81625766,,0.09921821,-0.02190772,0.27448666,-0.9873075,0.14679085,-0.060633995,0.13109386,0.9687353,0.2106329,0.08965727,0.2000107,-0.9756829,,-0.5178710210797471,0.020295341993462012,0.14358874701000002,0.00020968994348452436,0.0005465459990617618,0.0017596543690094947,0.0001633440661342792,,-1.3830333395133705,0.030080044545104465,0.14062024291000003,0.12937869512995154,-0.020905384464112386,1.1811323437488452,0.11532091069080108
4.7875516529998094,,0.09005825,0.031498276,0.35753185,-0.59872144,-0.6904452,-0.40597805,-0.7570768,0.3223719,0.56825244,-0.26147127,0.64758146,-0.715731,,-0.2334646,0.1645266,0.20958157,0.19960016,-0.81416714,-0.54524475,-0.91616213,-0.35243672,0.19087991,-0.3475724,0.4614329,-0.81625545,,0.09921821,-0.02190772,0.27448666,-0.9873075,0.14679085,-0.060633995,0.13109386,0.9687353,0.2106329,0.08965727,0.2000107,-0.9756829,,-0.5178555756139988,0.020303064726336237,0.14358874701000002,0.00020968994348452436,0.0005465459990617618,0.0017596543690094947,0.0001633440661342792,,-1.3830256167804964,0.03007232181223024,0.14062024291000003,0.12937869512995154,-0.020905384464112386,1.1811323437488452,0.11532091069080108
4.8365214129999,,0.09005825,0.031498276,0.35753185,-0.59872144,-0.6904452,-0.40597805,-0.7570768,0.3223719,0.56825244,-0.26147127,0.64758146,-0.715731,,-0.23346078,0.16453117,0.20958143,0.19960399,-0.8141697,-0.54523945,-0.916159,-0.35244188,0.19088584,-0.34757864,0.46142444,-0.81625766,,0.09921821,-0.02190772,0.27448666,-0.9873075,0.14679085,-0.060633995,0.13109386,0.9687353,0.2106329,0.08965727,0.2000107,-0.9756829,,-0.5178555756139988,0.020303064726336237,0.14358874701000002,0.00020968994348452436,0.0005465459990617618,0.0017596543690094947,0.0001633440661342792,,-1.3830333395133705,0.030080044545104465,0.14062024291000003,0.12937869512995154,-0.020905384464112386,1.1811323437488452,0.11532091069080108
4.874388129999716,,0.09005762,0.03149748,0.35753155,-0.59871835,-0.6904451,-0.40598264,-0.7570812,0.32237193,0.5682466,-0.2614657,0.64758146,-0.71573305,,-0.2334655,0.16452985,0.20958307,0.1996031,-0.8141658,-0.5452458,-0.9161591,-0.35244268,0.1908837,-0.34757882,0.46143088,-0.8162539,,0.09921821,-0.02190772,0.27448666,-0.9873075,0.14679085,-0.060633995,0.13109386,0.9687353,0.2106329,0.08965727,0.2000107,-0.9756829,,-0.5178555756139988,0.020295341993462012,0.14358874701000002,0.00020968994348452436,0.0005465459990617618,0.0017596543690094947,0.0001633440661342792,,-1.3830256167804964,0.030080044545104465,0.14062024291000003,0.12937869512995154,-0.020905384464112386,1.1811323437488452,0.11532091069080108
4.902565301999857,,0.09005825,0.031498276,0.35753185,-0.59872144,-0.6904452,-0.40597805,-0.7570768,0.3223719,0.56825244,-0.26147127,0.64758146,-0.715731,,-0.23346078,0.16453117,0.20958143,0.19960399,-0.8141697,-0.54523945,-0.916159,-0.35244188,0.19088584,-0.34757864,0.46142444,-0.81625766,,0.09921821,-0.02190772,0.27448666,-0.9873075,0.14679085,-0.060633995,0.13109386,0.9687353,0.2106329,0.08965727,0.2000107,-0.9756829,,-0.5178555756139988,0.020303064726336237,0.14358874701000002,0.00020968994348452436,0.0005465459990617618,0.0017596543690094947,0.0001633440661342792,,-1.3830333395133705,0.030080044545104465,0.14062024291000003,0.12937869512995154,-0.020905384464112386,1.1811323437488452,0.11532091069080108
4.926804506999815,,0.09005825,0.031498276,0.35753185,-0.59872144,-0.6904452,-0.40597805,-0.7570768,0.3223719,0.56825244,-0.26147127,0.64758146,-0.715731,,-0.2334598,0.16452792,0.20958003,0.19960104,-0.81417125,-0.5452384,-0.91616195,-0.3524359,0.19088207,-0.3475722,0.46142638,-0.8162592,,0.09921821,-0.02190772,0.27448666,-0.9873075,0.14679085,-0.060633995,0.13109386,0.9687353,0.2106329,0.08965727,0.2000107,-0.9756829,,-0.5178555756139988,0.020303064726336237,0.14358874701000002,0.00020968994348452436,0.0005465459990617618,0.0017596543690094947,0.0001633440661342792,,-1.3830333395133705,0.03007232181223024,0.14062024291000003,0.12937869512995154,-0.020905384464112386,1.1811323437488452,0.11532091069080108
4.956641660999594,,0.09005762,0.03149748,0.35753155,-0.59871835,-0.6904451,-0.40598264,-0.7570812,0.32237193,0.5682466,-0.2614657,0.64758146,-0.71573305,,-0.2334655,0.16452985,0.20958307,0.1996031,-0.8141658,-0.5452458,-0.9161591,-0.35244268,0.1908837,-0.34757882,0.46143088,-0.8162539,,0.09921821,-0.02190772,0.27448666,-0.9873075,0.14679085,-0.060633995,0.13109386,0.9687353,0.2106329,0.08965727,0.2000107,-0.9756829,,-0.5178555756139988,0.020295341993462012,0.14358874701000002,0.00020968994348452436,0.0005465459990617618,0.0017596543690094947,0.0001633440661342792,,-1.3830256167804964,0.030080044545104465,0.14062024291000003,0.12937869512995154,-0.020905384464112386,1.1811323437488452,0.11532091069080108
4.988110157999927,,0.09005825,0.031498276,0.35753185,-0.59872144,-0.6904452,-0.40597805,-0.7570768,0.3223719,0.56825244,-0.26147127,0.64758146,-0.715731,,-0.23346078,0.16453117,0.20958143,0.19960399,-0.8141697,-0.54523945,-0.916159,-0.35244188,0.19088584,-0.34757864,0.46142444,-0.81625766,,0.09921821,-0.02190772,0.27448666,-0.9873075,0.14679085,-0.060633995,0.13109386,0.9687353,0.2106329,0.08965727,0.2000107,-0.9756829,,-0.5178555756139988,0.020303064726336237,0.14358874701000002,0.00020968994348452436,0.0005465459990617618,0.0017596543690094947,0.0001633440661342792,,-1.3830333395133705,0.030080044545104465,0.14062024291000003,0.12937869512995154,-0.020905384464112386,1.1811323437488452,0.11532091069080108
5.020590029999767,,0.09005762,0.03149748,0.35753155,-0.59871835,-0.6904451,-0.40598264,-0.7570812,0.32237193,0.5682466,-0.2614657,0.64758146,-0.71573305,,-0.23346078,0.16453117,0.20958143,0.19960399,-0.8141697,-0.54523945,-0.916159,-0.35244188,0.19088584,-0.34757864,0.46142444,-0.81625766,,0.09921821,-0.02190772,0.27448666,-0.9873075,0.14679085,-0.060633995,0.13109386,0.9687353,0.2106329,0.08965727,0.2000107,-0.9756829,,-0.5178555756139988,0.020295341993462012,0.14358874701000002,0.00020968994348452436,0.0005465459990617618,0.0017596543690094947,0.0001633440661342792,,-1.3830333395133705,0.030080044545104465,0.14062024291000003,0.12937869512995154,-0.020905384464112386,1.1811323437488452,0.11532091069080108
5.049302930999602,,0.09005825,0.031498276,0.35753185,-0.59872144,-0.6904452,-0.40597805,-0.7570768,0.3223719,0.56825244,-0.26147127,0.64758146,-0.715731,,-0.2334646,0.1645266,0.20958157,0.19960016,-0.81416714,-0.54524475,-0.91616213,-0.35243672,0.19087991,-0.3475724,0.4614329,-0.81625545,,0.09921821,-0.02190772,0.27448666,-0.9873075,0.14679085,-0.060633995,0.13109386,0.9687353,0.2106329,0.08965727,0.2000107,-0.9756829,,-0.5178555756139988,0.020303064726336237,0.14358874701000002,0.00020968994348452436,0.0005465459990617618,0.0017596543690094947,0.0001633440661342792,,-1.3830256167804964,0.03007232181223024,0.14062024291000003,0.12937869512995154,-0.020905384464112386,1.1811323437488452,0.11532091069080108
5.089532360999783,,0.09005825,0.031498276,0.35753185,-0.5984315,-0.6906962,-0.40597862,-0.7572124,0.32205427,0.56825197,-0.2617423,0.6474719,-0.7157311,,-0.2334655,0.16452985,0.20958307,0.1996031,-0.8141658,-0.5452458,-0.9161591,-0.35244268,0.1908837,-0.34757882,0.46143088,-0.8162539,,0.09921821,-0.02190772,0.27448666,-0.9873075,0.14679085,-0.060633995,0.13109386,0.9687353,0.2106329,0.08965727,0.2000107,-0.9756829,,-0.5178555756139988,0.020303064726336237,0.14358874701000002,-0.00020968994348452436,0.0005465459990617618,0.0017596543690094947,0.0001633440661342792,,-1.3830256167804964,0.030080044545104465,0.14062024291000003,0.12937869512995154,-0.020905384464112386,1.1811323437488452,0.11532091069080108
5.13039304699987,,0.09005825,0.031498276,0.35753185,-0.5984315,-0.6906962,-0.40597862,-0.7572124,0.32205427,0.56825197,-0.2617423,0.6474719,-0.7157311,,-0.23346078,0.16453117,0.20958143,0.19960399,-0.8141697,-0.54523945,-0.916159,-0.35244188,0.19088584,-0.34757864,0.46142444,-0.81625766,,0.09921821,-0.02190772,0.27448666,-0.9873075,0.14679085,-0.060633995,0.13109386,0.9687353,0.2106329,0.08965727,0.2000107,-0.9756829,,-0.5178555756139988,0.020303064726336237,0.14358874701000002,-0.00020968994348452436,0.0005465459990617618,0.0017596543690094947,0.0001633440661342792,,-1.3830333395133705,0.030080044545104465,0.14062024291000003,0.12937869512995154,-0.020905384464112386,1.1811323437488452,0.11532091069080108
5.170887872999629,,0.09005825,0.031498276,0.35753185,-0.5984315,-0.6906962,-0.40597862,-0.7572124,0.32205427,0.56825197,-0.2617423,0.6474719,-0.7157311,,-0.23346078,0.16453117,0.20958143,0.19960399,-0.8141697,-0.54523945,-0.916159,-0.35244188,0.19088584,-0.34757864,0.46142444,-0.81625766,,0.09921821,-0.02190772,0.27448666,-0.9873075,0.14679085,-0.060633995,0.13109386,0.9687353,0.2106329,0.08965727,0.2000107,-0.9756829,,-0.5178555756139988,0.020303064726336237,0.14358874701000002,-0.00020968994348452436,0.0005465459990617618,0.0017596543690094947,0.0001633440661342792,,-1.3830333395133705,0.030080044545104465,0.14062024291000003,0.12937869512995154,-0.020905384464112386,1.1811323437488452,0.11532091069080108
5.22133243899998,,0.09005761,0.03149748,0.35753155,-0.5984284,-0.6906962,-0.40598324,-0.7572168,0.32205427,0.5682461,-0.26173675,0.6474719,-0.7157331,,-0.23346078,0.16453117,0.20958143,0.19960399,-0.8141697,-0.54523945,-0.916159,-0.35244188,0.19088584,-0.34757864,0.46142444,-0.81625766,,0.09921821,-0.02190772,0.27448666,-0.9873075,0.14679085,-0.060633995,0.13109386,0.9687353,0.2106329,0.08965727,0.2000107,-0.9756829,,-0.5178555756139988,0.020295341993462012,0.14358874701000002,-0.00020968994348452436,0.0005465459990617618,0.0017596543690094947,0.0001633440661342792,,-1.3830333395133705,0.030080044545104465,0.14062024291000003,0.12937869512995154,-0.020905384464112386,1.1811323437488452,0.11532091069080108
5.275491069999589,,0.090101,0.031459928,0.35752577,-0.5983994,-0.6907142,-0.4059951,-0.75724125,0.32203984,0.5682217,-0.2617322,0.64745975,-0.7157458,,-0.2335398,0.16450396,0.20960492,0.19946228,-0.8142387,-0.54518807,-0.9162132,-0.35227978,0.19092464,-0.34751695,0.4614262,-0.8162829,,0.099296436,-0.021932954,0.27447602,-0.9873241,0.14667353,-0.060645662,0.13097644,0.9687512,0.21063265,0.08964478,0.20001955,-0.97568226,,-0.5178555756139988,0.020303064726336237,0.14358874701000002,-0.00020968994348452436,0.0005465459990617618,0.0017596543690094947,0.0001633440661342792,,-1.3830333395133705,0.030080044545104465,0.14062024291000003,0.12937869512995154,-0.020905384464112386,1.1811323437488452,0.11532091069080108
5.319001137999749,,0.090101,0.031459928,0.35752577,-0.5983994,-0.6907142,-0.4059951,-0.75724125,0.32203984,0.5682217,-0.2617322,0.64745975,-0.7157458,,-0.2335398,0.16450396,0.20960492,0.19946228,-0.8142387,-0.54518807,-0.9162132,-0.35227978,0.19092464,-0.34751695,0.4614262,-0.8162829,,0.099296436,-0.021932954,0.27447602,-0.9873241,0.14667353,-0.060645662,0.13097644,0.9687512,0.21063265,0.08964478,0.20001955,-0.97568226,,-0.5178555756139988,0.020303064726336237,0.14358874701000002,-0.00020968994348452436,0.0005465459990617618,0.0017596543690094947,0.0001633440661342792,,-1.3830333395133705,0.030080044545104465,0.14062024291000003,0.12937869512995154,-0.020905384464112386,1.1811323437488452,0.11532091069080108
