AlexandreBanks6/ExpertPlaybackApp/resources/Motions/Motion_Best.csv
Time,si_T_psm1,Tx,Ty,Tz,R00,R01,R02,R10,R11,R12,R20,R21,R22,si_T_psm3,Tx,Ty,Tz,R00,R01,R02,R10,R11,R12,R20,R21,R22,si_T_ecm,Tx,Ty,Tz,R00,R01,R02,R10,R11,R12,R20,R21,R22,joint_vars_psm1,q1,q2,q3,q4,q5,q6,jaw,joint_vars_psm3,q1,q2,q3,q4,q5,q6,jaw
lci_T_si
,,-0.05259757,0.062123336,0.45057753,0.9998706,0.014300841,0.007368833,0.015261801,-0.98805976,-0.15331346,0.005088336,0.15340608,-0.9881501
rci_T_si
,,-0.07092951,0.07347256,0.541568,0.9977099,0.0008559175,0.067633286,0.01218736,-0.9858292,-0.16730905,0.066531666,0.16775016,-0.98358196
ecm_T_lc
,,-0.039348,0.051043153,-0.2725159,-0.9888841,-0.12934415,0.07333705,0.13224038,-0.9905602,0.036096916,0.06797584,0.045393787,0.9966537
ecm_T_rc
,,0.010096899,0.19171284,-0.6841031,-0.99695045,-0.013193613,-0.07691395,0.014341901,-0.9997935,-0.014396289,-0.07670814,-0.015455482,0.99693376
0.031122284999582916,,0.029159527,0.029792862,0.33052692,-0.7145062,-0.5601311,-0.4192064,-0.68229216,0.42530447,0.5946373,-0.15478449,0.7108932,-0.6860557,,0.00028656423,-0.020373313,0.5731357,0.54399157,-0.8096259,0.22040631,-0.64946926,-0.23995689,0.72153336,-0.53128415,-0.5356552,-0.6563616,,0.024495171,-0.022703497,0.17667153,-0.99035805,0.11728073,0.07373015,0.124899656,0.98616236,0.1090132,-0.05992475,0.117171004,-0.9913021,,-0.3389353003839653,-0.05596664513950502,0.10918780299000001,0.0,0.0,8.167874014056223e-05,-0.00016334406613427926,,-1.4636046115901549,0.17995512143517953,0.08948160241000001,-0.0077585279089274015,-0.017216198970445497,-0.001888698461660539,0.0021234728597456284
0.052547416009474546,,0.029159082,0.02979319,0.33052748,-0.714506,-0.56012815,-0.4192107,-0.68229234,0.42529958,0.59464055,-0.15478478,0.71089846,-0.6860502,,0.00028656423,-0.020373313,0.5731357,0.54399157,-0.8096259,0.22040631,-0.64946926,-0.23995689,0.72153336,-0.53128415,-0.5356552,-0.6563616,,0.024495171,-0.022703497,0.17667153,-0.99035805,0.11728073,0.07373015,0.124899656,0.98616236,0.1090132,-0.05992475,0.117171004,-0.9913021,,-0.33892757765109105,-0.05596664513950502,0.10918780299000001,0.0,0.0,8.167874014056223e-05,-0.00016334406613427926,,-1.4636046115901549,0.17995512143517953,0.08948160241000001,-0.0077585279089274015,-0.017216198970445497,-0.001888698461660539,0.0021234728597456284
0.08261438098270446,,0.029159527,0.029792862,0.33052692,-0.7145062,-0.5601311,-0.4192064,-0.68229216,0.42530447,0.5946373,-0.15478449,0.7108932,-0.6860557,,0.00028656423,-0.020373313,0.5731357,0.54399157,-0.8096259,0.22040631,-0.64946926,-0.23995689,0.72153336,-0.53128415,-0.5356552,-0.6563616,,0.024495171,-0.022703497,0.17667153,-0.99035805,0.11728073,0.07373015,0.124899656,0.98616236,0.1090132,-0.05992475,0.117171004,-0.9913021,,-0.3389353003839653,-0.05596664513950502,0.10918780299000001,0.0,0.0,8.167874014056223e-05,-0.00016334406613427926,,-1.4636046115901549,0.17995512143517953,0.08948160241000001,-0.0077585279089274015,-0.017216198970445497,-0.001888698461660539,0.0021234728597456284
0.11034586001187563,,0.029159082,0.02979319,0.33052748,-0.714506,-0.56012815,-0.4192107,-0.68229234,0.42529958,0.59464055,-0.15478478,0.71089846,-0.6860502,,0.00028656423,-0.020373313,0.5731357,0.54399157,-0.8096259,0.22040631,-0.64946926,-0.23995689,0.72153336,-0.53128415,-0.5356552,-0.6563616,,0.024495171,-0.022703497,0.17667153,-0.99035805,0.11728073,0.07373015,0.124899656,0.98616236,0.1090132,-0.05992475,0.117171004,-0.9913021,,-0.33892757765109105,-0.05596664513950502,0.10918780299000001,0.0,0.0,8.167874014056223e-05,-0.00016334406613427926,,-1.4636046115901549,0.17995512143517953,0.08948160241000001,-0.0077585279089274015,-0.017216198970445497,-0.001888698461660539,0.0021234728597456284
0.13304419396445155,,0.029159082,0.02979319,0.33052748,-0.714506,-0.56012815,-0.4192107,-0.68229234,0.42529958,0.59464055,-0.15478478,0.71089846,-0.6860502,,0.00028656423,-0.020373313,0.5731357,0.54399157,-0.8096259,0.22040631,-0.64946926,-0.23995689,0.72153336,-0.53128415,-0.5356552,-0.6563616,,0.024495171,-0.022703497,0.17667153,-0.99035805,0.11728073,0.07373015,0.124899656,0.98616236,0.1090132,-0.05992475,0.117171004,-0.9913021,,-0.33892757765109105,-0.05596664513950502,0.10918780299000001,0.0,0.0,8.167874014056223e-05,-0.00016334406613427926,,-1.4636046115901549,0.17995512143517953,0.08948160241000001,-0.0077585279089274015,-0.017216198970445497,-0.001888698461660539,0.0021234728597456284
0.16123721696203575,,0.029159527,0.029792862,0.33052692,-0.7145062,-0.5601311,-0.4192064,-0.68229216,0.42530447,0.5946373,-0.15478449,0.7108932,-0.6860557,,0.00028707646,-0.020373167,0.57313603,0.54399264,-0.8096236,0.2204125,-0.64946896,-0.23995218,0.7215352,-0.53128344,-0.53566086,-0.6563575,,0.024495171,-0.022703497,0.17667153,-0.99035805,0.11728073,0.07373015,0.124899656,0.98616236,0.1090132,-0.05992475,0.117171004,-0.9913021,,-0.3389353003839653,-0.05596664513950502,0.10918780299000001,0.0,0.0,8.167874014056223e-05,-0.00016334406613427926,,-1.4636123343230292,0.17995512143517953,0.08948160241000001,-0.0077585279089274015,-0.017216198970445497,-0.001888698461660539,0.0021234728597456284
0.18306570599088445,,0.029159527,0.029792862,0.33052692,-0.7145062,-0.5601311,-0.4192064,-0.68229216,0.42530447,0.5946373,-0.15478449,0.7108932,-0.6860557,,0.0002875887,-0.020373015,0.5731363,0.5439936,-0.8096212,0.22041872,-0.64946866,-0.2399475,0.72153705,-0.5312827,-0.53566647,-0.6563535,,0.024495171,-0.022703497,0.17667153,-0.99035805,0.11728073,0.07373015,0.124899656,0.98616236,0.1090132,-0.05992475,0.117171004,-0.9913021,,-0.3389353003839653,-0.05596664513950502,0.10918780299000001,0.0,0.0,8.167874014056223e-05,-0.00016334406613427926,,-1.4636200570559033,0.17995512143517953,0.08948160241000001,-0.0077585279089274015,-0.017216198970445497,-0.001888698461660539,0.0021234728597456284
0.21157509397016838,,0.029197559,0.029774725,0.33053708,-0.7144887,-0.560148,-0.4192135,-0.68231136,0.42530248,0.5946166,-0.15478082,0.710881,-0.68606925,,0.00024702772,-0.020378128,0.5731674,0.54397637,-0.8096136,0.22048904,-0.6495179,-0.2399155,0.7215032,-0.5312401,-0.53569233,-0.65636694,,0.024538482,-0.022723846,0.17667228,-0.9903629,0.117242195,0.07372566,0.12486081,0.98616713,0.10901377,-0.059924815,0.11716868,-0.9913024,,-0.3389353003839653,-0.05596664513950502,0.10918780299000001,0.0,0.0,8.167874014056223e-05,-0.00016334406613427926,,-1.4636200570559033,0.17995512143517953,0.08948160241000001,-0.0077585279089274015,-0.017216198970445497,-0.001888698461660539,0.0021234728597456284
0.23443225101800635,,0.029197559,0.029774725,0.33053708,-0.7144887,-0.560148,-0.4192135,-0.68231136,0.42530248,0.5946166,-0.15478082,0.710881,-0.68606925,,0.00024702772,-0.020378128,0.5731674,0.54397637,-0.8096136,0.22048904,-0.6495179,-0.2399155,0.7215032,-0.5312401,-0.53569233,-0.65636694,,0.024538482,-0.022723846,0.17667228,-0.9903629,0.117242195,0.07372566,0.12486081,0.98616713,0.10901377,-0.059924815,0.11716868,-0.9913024,,-0.3389353003839653,-0.05596664513950502,0.10918780299000001,0.0,0.0,8.167874014056223e-05,-0.00016334406613427926,,-1.4636200570559033,0.17995512143517953,0.08948160241000001,-0.0077585279089274015,-0.017216198970445497,-0.001888698461660539,0.0021234728597456284
0.2646146079641767,,0.029197115,0.029775057,0.33053768,-0.7144885,-0.56014514,-0.4192178,-0.6823115,0.42529765,0.59461987,-0.15478112,0.71088624,-0.68606377,,0.0002465155,-0.020378277,0.5731671,0.5439754,-0.80961597,0.22048283,-0.64951813,-0.23992023,0.72150135,-0.5312408,-0.5356866,-0.656371,,0.024538482,-0.022723846,0.17667228,-0.9903629,0.117242195,0.07372566,0.12486081,0.98616713,0.10901377,-0.059924815,0.11716868,-0.9913024,,-0.33892757765109105,-0.05596664513950502,0.10918780299000001,0.0,0.0,8.167874014056223e-05,-0.00016334406613427926,,-1.4636123343230292,0.17995512143517953,0.08948160241000001,-0.0077585279089274015,-0.017216198970445497,-0.001888698461660539,0.0021234728597456284
0.2949733679997735,,0.029197559,0.029774725,0.33053708,-0.7144887,-0.560148,-0.4192135,-0.68231136,0.42530248,0.5946166,-0.15478082,0.710881,-0.68606925,,0.00024600327,-0.02037843,0.5731667,0.54397434,-0.8096183,0.22047663,-0.64951843,-0.23992491,0.72149956,-0.53124154,-0.535681,-0.656375,,0.024538482,-0.022723846,0.17667228,-0.9903629,0.117242195,0.07372566,0.12486081,0.98616713,0.10901377,-0.059924815,0.11716868,-0.9913024,,-0.3389353003839653,-0.05596664513950502,0.10918780299000001,0.0,0.0,8.167874014056223e-05,-0.00016334406613427926,,-1.4636046115901549,0.17995512143517953,0.08948160241000001,-0.0077585279089274015,-0.017216198970445497,-0.001888698461660539,0.0021234728597456284
0.31936574698193,,0.029197559,0.029774725,0.33053708,-0.7144887,-0.560148,-0.4192135,-0.68231136,0.42530248,0.5946166,-0.15478082,0.710881,-0.68606925,,0.00024600327,-0.02037843,0.5731667,0.54397434,-0.8096183,0.22047663,-0.64951843,-0.23992491,0.72149956,-0.53124154,-0.535681,-0.656375,,0.024538482,-0.022723846,0.17667228,-0.9903629,0.117242195,0.07372566,0.12486081,0.98616713,0.10901377,-0.059924815,0.11716868,-0.9913024,,-0.3389353003839653,-0.05596664513950502,0.10918780299000001,0.0,0.0,8.167874014056223e-05,-0.00016334406613427926,,-1.4636046115901549,0.17995512143517953,0.08948160241000001,-0.0077585279089274015,-0.017216198970445497,-0.001888698461660539,0.0021234728597456284
0.3484822029713541,,0.029197559,0.029774725,0.33053708,-0.7144887,-0.560148,-0.4192135,-0.68231136,0.42530248,0.5946166,-0.15478082,0.710881,-0.68606925,,0.00024600327,-0.02037843,0.5731667,0.54397434,-0.8096183,0.22047663,-0.64951843,-0.23992491,0.72149956,-0.53124154,-0.535681,-0.656375,,0.024538482,-0.022723846,0.17667228,-0.9903629,0.117242195,0.07372566,0.12486081,0.98616713,0.10901377,-0.059924815,0.11716868,-0.9913024,,-0.3389353003839653,-0.05596664513950502,0.10918780299000001,0.0,0.0,8.167874014056223e-05,-0.00016334406613427926,,-1.4636046115901549,0.17995512143517953,0.08948160241000001,-0.0077585279089274015,-0.017216198970445497,-0.001888698461660539,0.0021234728597456284
0.3724307469674386,,0.029197559,0.029774725,0.33053708,-0.7144887,-0.560148,-0.4192135,-0.68231136,0.42530248,0.5946166,-0.15478082,0.710881,-0.68606925,,0.00024600327,-0.02037843,0.5731667,0.54397434,-0.8096183,0.22047663,-0.64951843,-0.23992491,0.72149956,-0.53124154,-0.535681,-0.656375,,0.024538482,-0.022723846,0.17667228,-0.9903629,0.117242195,0.07372566,0.12486081,0.98616713,0.10901377,-0.059924815,0.11716868,-0.9913024,,-0.3389353003839653,-0.05596664513950502,0.10918780299000001,0.0,0.0,8.167874014056223e-05,-0.00016334406613427926,,-1.4636046115901549,0.17995512143517953,0.08948160241000001,-0.0077585279089274015,-0.017216198970445497,-0.001888698461660539,0.0021234728597456284
0.39937495201593265,,0.029197115,0.029775057,0.33053768,-0.7144885,-0.56014514,-0.4192178,-0.6823115,0.42529765,0.59461987,-0.15478112,0.71088624,-0.68606377,,0.00024600327,-0.02037843,0.5731667,0.54397434,-0.8096183,0.22047663,-0.64951843,-0.23992491,0.72149956,-0.53124154,-0.535681,-0.656375,,0.024538482,-0.022723846,0.17667228,-0.9903629,0.117242195,0.07372566,0.12486081,0.98616713,0.10901377,-0.059924815,0.11716868,-0.9913024,,-0.33892757765109105,-0.05596664513950502,0.10918780299000001,0.0,0.0,8.167874014056223e-05,-0.00016334406613427926,,-1.4636046115901549,0.17995512143517953,0.08948160241000001,-0.0077585279089274015,-0.017216198970445497,-0.001888698461660539,0.0021234728597456284
0.4247447740053758,,0.029197559,0.029774725,0.33053708,-0.7144887,-0.560148,-0.4192135,-0.68231136,0.42530248,0.5946166,-0.15478082,0.710881,-0.68606925,,0.00024600327,-0.02037843,0.5731667,0.54397434,-0.8096183,0.22047663,-0.64951843,-0.23992491,0.72149956,-0.53124154,-0.535681,-0.656375,,0.024538482,-0.022723846,0.17667228,-0.9903629,0.117242195,0.07372566,0.12486081,0.98616713,0.10901377,-0.059924815,0.11716868,-0.9913024,,-0.3389353003839653,-0.05596664513950502,0.10918780299000001,0.0,0.0,8.167874014056223e-05,-0.00016334406613427926,,-1.4636046115901549,0.17995512143517953,0.08948160241000001,-0.0077585279089274015,-0.017216198970445497,-0.001888698461660539,0.0021234728597456284
0.4501282299752347,,0.029197559,0.029774725,0.33053708,-0.7144887,-0.560148,-0.4192135,-0.68231136,0.42530248,0.5946166,-0.15478082,0.710881,-0.68606925,,0.00024600327,-0.02037843,0.5731667,0.54397434,-0.8096183,0.22047663,-0.64951843,-0.23992491,0.72149956,-0.53124154,-0.535681,-0.656375,,0.024538482,-0.022723846,0.17667228,-0.9903629,0.117242195,0.07372566,0.12486081,0.98616713,0.10901377,-0.059924815,0.11716868,-0.9913024,,-0.3389353003839653,-0.05596664513950502,0.10918780299000001,0.0,0.0,8.167874014056223e-05,-0.00016334406613427926,,-1.4636046115901549,0.17995512143517953,0.08948160241000001,-0.0077585279089274015,-0.017216198970445497,-0.001888698461660539,0.0021234728597456284
0.4757306519895792,,0.029197559,0.029774725,0.33053708,-0.7144887,-0.560148,-0.4192135,-0.68231136,0.42530248,0.5946166,-0.15478082,0.710881,-0.68606925,,0.00024600327,-0.02037843,0.5731667,0.54397434,-0.8096183,0.22047663,-0.64951843,-0.23992491,0.72149956,-0.53124154,-0.535681,-0.656375,,0.024538482,-0.022723846,0.17667228,-0.9903629,0.117242195,0.07372566,0.12486081,0.98616713,0.10901377,-0.059924815,0.11716868,-0.9913024,,-0.3389353003839653,-0.05596664513950502,0.10918780299000001,0.0,0.0,8.167874014056223e-05,-0.00016334406613427926,,-1.4636046115901549,0.17995512143517953,0.08948160241000001,-0.0077585279089274015,-0.017216198970445497,-0.001888698461660539,0.0021234728597456284
0.5024544839980081,,0.029197559,0.029774725,0.33053708,-0.7144887,-0.560148,-0.4192135,-0.68231136,0.42530248,0.5946166,-0.15478082,0.710881,-0.68606925,,0.00024600327,-0.02037843,0.5731667,0.54397434,-0.8096183,0.22047663,-0.64951843,-0.23992491,0.72149956,-0.53124154,-0.535681,-0.656375,,0.024538482,-0.022723846,0.17667228,-0.9903629,0.117242195,0.07372566,0.12486081,0.98616713,0.10901377,-0.059924815,0.11716868,-0.9913024,,-0.3389353003839653,-0.05596664513950502,0.10918780299000001,0.0,0.0,8.167874014056223e-05,-0.00016334406613427926,,-1.4636046115901549,0.17995512143517953,0.08948160241000001,-0.0077585279089274015,-0.017216198970445497,-0.001888698461660539,0.0021234728597456284
0.5317985009751283,,0.029197115,0.029775057,0.33053768,-0.7144885,-0.56014514,-0.4192178,-0.6823115,0.42529765,0.59461987,-0.15478112,0.71088624,-0.68606377,,0.00024600327,-0.02037843,0.5731667,0.54397434,-0.8096183,0.22047663,-0.64951843,-0.23992491,0.72149956,-0.53124154,-0.535681,-0.656375,,0.024538482,-0.022723846,0.17667228,-0.9903629,0.117242195,0.07372566,0.12486081,0.98616713,0.10901377,-0.059924815,0.11716868,-0.9913024,,-0.33892757765109105,-0.05596664513950502,0.10918780299000001,0.0,0.0,8.167874014056223e-05,-0.00016334406613427926,,-1.4636046115901549,0.17995512143517953,0.08948160241000001,-0.0077585279089274015,-0.017216198970445497,-0.001888698461660539,0.0021234728597456284
0.5552039180183783,,0.029197559,0.029774725,0.33053708,-0.7144887,-0.560148,-0.4192135,-0.68231136,0.42530248,0.5946166,-0.15478082,0.710881,-0.68606925,,0.00024600327,-0.02037843,0.5731667,0.54397434,-0.8096183,0.22047663,-0.64951843,-0.23992491,0.72149956,-0.53124154,-0.535681,-0.656375,,0.024538482,-0.022723846,0.17667228,-0.9903629,0.117242195,0.07372566,0.12486081,0.98616713,0.10901377,-0.059924815,0.11716868,-0.9913024,,-0.3389353003839653,-0.05596664513950502,0.10918780299000001,0.0,0.0,8.167874014056223e-05,-0.00016334406613427926,,-1.4636046115901549,0.17995512143517953,0.08948160241000001,-0.0077585279089274015,-0.017216198970445497,-0.001888698461660539,0.0021234728597456284
0.5830728519940749,,0.029197559,0.029774725,0.33053708,-0.7144887,-0.560148,-0.4192135,-0.68231136,0.42530248,0.5946166,-0.15478082,0.710881,-0.68606925,,0.00024600327,-0.02037843,0.5731667,0.54397434,-0.8096183,0.22047663,-0.64951843,-0.23992491,0.72149956,-0.53124154,-0.535681,-0.656375,,0.024538482,-0.022723846,0.17667228,-0.9903629,0.117242195,0.07372566,0.12486081,0.98616713,0.10901377,-0.059924815,0.11716868,-0.9913024,,-0.3389353003839653,-0.05596664513950502,0.10918780299000001,0.0,0.0,8.167874014056223e-05,-0.00016334406613427926,,-1.4636046115901549,0.17995512143517953,0.08948160241000001,-0.0077585279089274015,-0.017216198970445497,-0.001888698461660539,0.0021234728597456284
0.6067802309989929,,0.029197559,0.029774725,0.33053708,-0.7144887,-0.560148,-0.4192135,-0.68231136,0.42530248,0.5946166,-0.15478082,0.710881,-0.68606925,,0.00024600327,-0.02037843,0.5731667,0.54397434,-0.8096183,0.22047663,-0.64951843,-0.23992491,0.72149956,-0.53124154,-0.535681,-0.656375,,0.024538482,-0.022723846,0.17667228,-0.9903629,0.117242195,0.07372566,0.12486081,0.98616713,0.10901377,-0.059924815,0.11716868,-0.9913024,,-0.3389353003839653,-0.05596664513950502,0.10918780299000001,0.0,0.0,8.167874014056223e-05,-0.00016334406613427926,,-1.4636046115901549,0.17995512143517953,0.08948160241000001,-0.0077585279089274015,-0.017216198970445497,-0.001888698461660539,0.0021234728597456284
0.634075872018002,,0.029197559,0.029774725,0.33053708,-0.7144887,-0.560148,-0.4192135,-0.68231136,0.42530248,0.5946166,-0.15478082,0.710881,-0.68606925,,0.00024600327,-0.02037843,0.5731667,0.54397434,-0.8096183,0.22047663,-0.64951843,-0.23992491,0.72149956,-0.53124154,-0.535681,-0.656375,,0.024538482,-0.022723846,0.17667228,-0.9903629,0.117242195,0.07372566,0.12486081,0.98616713,0.10901377,-0.059924815,0.11716868,-0.9913024,,-0.3389353003839653,-0.05596664513950502,0.10918780299000001,0.0,0.0,8.167874014056223e-05,-0.00016334406613427926,,-1.4636046115901549,0.17995512143517953,0.08948160241000001,-0.0077585279089274015,-0.017216198970445497,-0.001888698461660539,0.0021234728597456284
0.6634990890161134,,0.029197559,0.029774725,0.33053708,-0.7144887,-0.560148,-0.4192135,-0.68231136,0.42530248,0.5946166,-0.15478082,0.710881,-0.68606925,,0.00024600327,-0.02037843,0.5731667,0.54397434,-0.8096183,0.22047663,-0.64951843,-0.23992491,0.72149956,-0.53124154,-0.535681,-0.656375,,0.024538482,-0.022723846,0.17667228,-0.9903629,0.117242195,0.07372566,0.12486081,0.98616713,0.10901377,-0.059924815,0.11716868,-0.9913024,,-0.3389353003839653,-0.05596664513950502,0.10918780299000001,0.0,0.0,8.167874014056223e-05,-0.00016334406613427926,,-1.4636046115901549,0.17995512143517953,0.08948160241000001,-0.0077585279089274015,-0.017216198970445497,-0.001888698461660539,0.0021234728597456284
0.6840299449977465,,0.029197115,0.029775057,0.33053768,-0.7144885,-0.56014514,-0.4192178,-0.6823115,0.42529765,0.59461987,-0.15478112,0.71088624,-0.68606377,,0.00024600327,-0.02037843,0.5731667,0.54397434,-0.8096183,0.22047663,-0.64951843,-0.23992491,0.72149956,-0.53124154,-0.535681,-0.656375,,0.024538482,-0.022723846,0.17667228,-0.9903629,0.117242195,0.07372566,0.12486081,0.98616713,0.10901377,-0.059924815,0.11716868,-0.9913024,,-0.33892757765109105,-0.05596664513950502,0.10918780299000001,0.0,0.0,8.167874014056223e-05,-0.00016334406613427926,,-1.4636046115901549,0.17995512143517953,0.08948160241000001,-0.0077585279089274015,-0.017216198970445497,-0.001888698461660539,0.0021234728597456284
0.7077703649993055,,0.029197559,0.029774725,0.33053708,-0.7144887,-0.560148,-0.4192135,-0.68231136,0.42530248,0.5946166,-0.15478082,0.710881,-0.68606925,,0.00024600327,-0.02037843,0.5731667,0.54397434,-0.8096183,0.22047663,-0.64951843,-0.23992491,0.72149956,-0.53124154,-0.535681,-0.656375,,0.024538482,-0.022723846,0.17667228,-0.9903629,0.117242195,0.07372566,0.12486081,0.98616713,0.10901377,-0.059924815,0.11716868,-0.9913024,,-0.3389353003839653,-0.05596664513950502,0.10918780299000001,0.0,0.0,8.167874014056223e-05,-0.00016334406613427926,,-1.4636046115901549,0.17995512143517953,0.08948160241000001,-0.0077585279089274015,-0.017216198970445497,-0.001888698461660539,0.0021234728597456284
0.7349382219836116,,0.029197559,0.029774725,0.33053708,-0.7144887,-0.560148,-0.4192135,-0.68231136,0.42530248,0.5946166,-0.15478082,0.710881,-0.68606925,,0.00024600327,-0.02037843,0.5731667,0.54397434,-0.8096183,0.22047663,-0.64951843,-0.23992491,0.72149956,-0.53124154,-0.535681,-0.656375,,0.024538482,-0.022723846,0.17667228,-0.9903629,0.117242195,0.07372566,0.12486081,0.98616713,0.10901377,-0.059924815,0.11716868,-0.9913024,,-0.3389353003839653,-0.05596664513950502,0.10918780299000001,0.0,0.0,8.167874014056223e-05,-0.00016334406613427926,,-1.4636046115901549,0.17995512143517953,0.08948160241000001,-0.0077585279089274015,-0.017216198970445497,-0.001888698461660539,0.0021234728597456284
0.7631930999923497,,0.029197559,0.029774725,0.33053708,-0.7144887,-0.560148,-0.4192135,-0.68231136,0.42530248,0.5946166,-0.15478082,0.710881,-0.68606925,,0.00024600327,-0.02037843,0.5731667,0.54397434,-0.8096183,0.22047663,-0.64951843,-0.23992491,0.72149956,-0.53124154,-0.535681,-0.656375,,0.024538482,-0.022723846,0.17667228,-0.9903629,0.117242195,0.07372566,0.12486081,0.98616713,0.10901377,-0.059924815,0.11716868,-0.9913024,,-0.3389353003839653,-0.05596664513950502,0.10918780299000001,0.0,0.0,8.167874014056223e-05,-0.00016334406613427926,,-1.4636046115901549,0.17995512143517953,0.08948160241000001,-0.0077585279089274015,-0.017216198970445497,-0.001888698461660539,0.0021234728597456284
0.7847055720048957,,0.029197559,0.029774725,0.33053708,-0.7144887,-0.560148,-0.4192135,-0.68231136,0.42530248,0.5946166,-0.15478082,0.710881,-0.68606925,,0.00024600327,-0.02037843,0.5731667,0.54397434,-0.8096183,0.22047663,-0.64951843,-0.23992491,0.72149956,-0.53124154,-0.535681,-0.656375,,0.024538482,-0.022723846,0.17667228,-0.9903629,0.117242195,0.07372566,0.12486081,0.98616713,0.10901377,-0.059924815,0.11716868,-0.9913024,,-0.3389353003839653,-0.05596664513950502,0.10918780299000001,0.0,0.0,8.167874014056223e-05,-0.00016334406613427926,,-1.4636046115901549,0.17995512143517953,0.08948160241000001,-0.0077585279089274015,-0.017216198970445497,-0.001888698461660539,0.0021234728597456284
0.8138779929722659,,0.029197559,0.029774725,0.33053708,-0.7144887,-0.560148,-0.4192135,-0.68231136,0.42530248,0.5946166,-0.15478082,0.710881,-0.68606925,,0.00024600327,-0.02037843,0.5731667,0.54397434,-0.8096183,0.22047663,-0.64951843,-0.23992491,0.72149956,-0.53124154,-0.535681,-0.656375,,0.024538482,-0.022723846,0.17667228,-0.9903629,0.117242195,0.07372566,0.12486081,0.98616713,0.10901377,-0.059924815,0.11716868,-0.9913024,,-0.3389353003839653,-0.05596664513950502,0.10918780299000001,0.0,0.0,8.167874014056223e-05,-0.00016334406613427926,,-1.4636046115901549,0.17995512143517953,0.08948160241000001,-0.0077585279089274015,-0.017216198970445497,-0.001888698461660539,0.0021234728597456284
0.8367402799776755,,0.029197115,0.029775057,0.33053768,-0.7144885,-0.56014514,-0.4192178,-0.6823115,0.42529765,0.59461987,-0.15478112,0.71088624,-0.68606377,,0.00024600327,-0.02037843,0.5731667,0.54397434,-0.8096183,0.22047663,-0.64951843,-0.23992491,0.72149956,-0.53124154,-0.535681,-0.656375,,0.024538482,-0.022723846,0.17667228,-0.9903629,0.117242195,0.07372566,0.12486081,0.98616713,0.10901377,-0.059924815,0.11716868,-0.9913024,,-0.33892757765109105,-0.05596664513950502,0.10918780299000001,0.0,0.0,8.167874014056223e-05,-0.00016334406613427926,,-1.4636046115901549,0.17995512143517953,0.08948160241000001,-0.0077585279089274015,-0.017216198970445497,-0.001888698461660539,0.0021234728597456284
0.8646404729806818,,0.029197559,0.029774725,0.33053708,-0.7144887,-0.560148,-0.4192135,-0.68231136,0.42530248,0.5946166,-0.15478082,0.710881,-0.68606925,,0.00024600327,-0.02037843,0.5731667,0.54397434,-0.8096183,0.22047663,-0.64951843,-0.23992491,0.72149956,-0.53124154,-0.535681,-0.656375,,0.024538482,-0.022723846,0.17667228,-0.9903629,0.117242195,0.07372566,0.12486081,0.98616713,0.10901377,-0.059924815,0.11716868,-0.9913024,,-0.3389353003839653,-0.05596664513950502,0.10918780299000001,0.0,0.0,8.167874014056223e-05,-0.00016334406613427926,,-1.4636046115901549,0.17995512143517953,0.08948160241000001,-0.0077585279089274015,-0.017216198970445497,-0.001888698461660539,0.0021234728597456284
0.88659672398353,,0.029197559,0.029774725,0.33053708,-0.7144887,-0.560148,-0.4192135,-0.68231136,0.42530248,0.5946166,-0.15478082,0.710881,-0.68606925,,0.0002465155,-0.020378277,0.5731671,0.5439754,-0.80961597,0.22048283,-0.64951813,-0.23992023,0.72150135,-0.5312408,-0.5356866,-0.656371,,0.024538482,-0.022723846,0.17667228,-0.9903629,0.117242195,0.07372566,0.12486081,0.98616713,0.10901377,-0.059924815,0.11716868,-0.9913024,,-0.3389353003839653,-0.05596664513950502,0.10918780299000001,0.0,0.0,8.167874014056223e-05,-0.00016334406613427926,,-1.4636123343230292,0.17995512143517953,0.08948160241000001,-0.0077585279089274015,-0.017216198970445497,-0.001888698461660539,0.0021234728597456284
0.9174886560067534,,0.029197559,0.029774725,0.33053708,-0.7144887,-0.560148,-0.4192135,-0.68231136,0.42530248,0.5946166,-0.15478082,0.710881,-0.68606925,,0.00024702772,-0.020378128,0.5731674,0.54397637,-0.8096136,0.22048904,-0.6495179,-0.2399155,0.7215032,-0.5312401,-0.53569233,-0.65636694,,0.024538482,-0.022723846,0.17667228,-0.9903629,0.117242195,0.07372566,0.12486081,0.98616713,0.10901377,-0.059924815,0.11716868,-0.9913024,,-0.3389353003839653,-0.05596664513950502,0.10918780299000001,0.0,0.0,8.167874014056223e-05,-0.00016334406613427926,,-1.4636200570559033,0.17995512143517953,0.08948160241000001,-0.0077585279089274015,-0.017216198970445497,-0.001888698461660539,0.0021234728597456284
0.945565658970736,,0.029197559,0.029774725,0.33053708,-0.7144887,-0.560148,-0.4192135,-0.68231136,0.42530248,0.5946166,-0.15478082,0.710881,-0.68606925,,0.00024702772,-0.020378128,0.5731674,0.54397637,-0.8096136,0.22048904,-0.6495179,-0.2399155,0.7215032,-0.5312401,-0.53569233,-0.65636694,,0.024538482,-0.022723846,0.17667228,-0.9903629,0.117242195,0.07372566,0.12486081,0.98616713,0.10901377,-0.059924815,0.11716868,-0.9913024,,-0.3389353003839653,-0.05596664513950502,0.10918780299000001,0.0,0.0,8.167874014056223e-05,-0.00016334406613427926,,-1.4636200570559033,0.17995512143517953,0.08948160241000001,-0.0077585279089274015,-0.017216198970445497,-0.001888698461660539,0.0021234728597456284
0.9668775660102256,,0.029197559,0.029774725,0.33053708,-0.7144887,-0.560148,-0.4192135,-0.68231136,0.42530248,0.5946166,-0.15478082,0.710881,-0.68606925,,0.00024702772,-0.020378128,0.5731674,0.54397637,-0.8096136,0.22048904,-0.6495179,-0.2399155,0.7215032,-0.5312401,-0.53569233,-0.65636694,,0.024538482,-0.022723846,0.17667228,-0.9903629,0.117242195,0.07372566,0.12486081,0.98616713,0.10901377,-0.059924815,0.11716868,-0.9913024,,-0.3389353003839653,-0.05596664513950502,0.10918780299000001,0.0,0.0,8.167874014056223e-05,-0.00016334406613427926,,-1.4636200570559033,0.17995512143517953,0.08948160241000001,-0.0077585279089274015,-0.017216198970445497,-0.001888698461660539,0.0021234728597456284
0.9902508839732036,,0.029197115,0.029775057,0.33053768,-0.7144885,-0.56014514,-0.4192178,-0.6823115,0.42529765,0.59461987,-0.15478112,0.71088624,-0.68606377,,0.00024702772,-0.020378128,0.5731674,0.54397637,-0.8096136,0.22048904,-0.6495179,-0.2399155,0.7215032,-0.5312401,-0.53569233,-0.65636694,,0.024538482,-0.022723846,0.17667228,-0.9903629,0.117242195,0.07372566,0.12486081,0.98616713,0.10901377,-0.059924815,0.11716868,-0.9913024,,-0.33892757765109105,-0.05596664513950502,0.10918780299000001,0.0,0.0,8.167874014056223e-05,-0.00016334406613427926,,-1.4636200570559033,0.17995512143517953,0.08948160241000001,-0.0077585279089274015,-0.017216198970445497,-0.001888698461660539,0.0021234728597456284
1.0178700849646702,,0.029197559,0.029774725,0.33053708,-0.7144887,-0.560148,-0.4192135,-0.68231136,0.42530248,0.5946166,-0.15478082,0.710881,-0.68606925,,0.00024702772,-0.020378128,0.5731674,0.54397637,-0.8096136,0.22048904,-0.6495179,-0.2399155,0.7215032,-0.5312401,-0.53569233,-0.65636694,,0.024538482,-0.022723846,0.17667228,-0.9903629,0.117242195,0.07372566,0.12486081,0.98616713,0.10901377,-0.059924815,0.11716868,-0.9913024,,-0.3389353003839653,-0.05596664513950502,0.10918780299000001,0.0,0.0,8.167874014056223e-05,-0.00016334406613427926,,-1.4636200570559033,0.17995512143517953,0.08948160241000001,-0.0077585279089274015,-0.017216198970445497,-0.001888698461660539,0.0021234728597456284
1.0451661209808663,,0.029197559,0.029774725,0.33053708,-0.7144887,-0.560148,-0.4192135,-0.68231136,0.42530248,0.5946166,-0.15478082,0.710881,-0.68606925,,0.00024702772,-0.020378128,0.5731674,0.54397637,-0.8096136,0.22048904,-0.6495179,-0.2399155,0.7215032,-0.5312401,-0.53569233,-0.65636694,,0.024538482,-0.022723846,0.17667228,-0.9903629,0.117242195,0.07372566,0.12486081,0.98616713,0.10901377,-0.059924815,0.11716868,-0.9913024,,-0.3389353003839653,-0.05596664513950502,0.10918780299000001,0.0,0.0,8.167874014056223e-05,-0.00016334406613427926,,-1.4636200570559033,0.17995512143517953,0.08948160241000001,-0.0077585279089274015,-0.017216198970445497,-0.001888698461660539,0.0021234728597456284
1.067420708015561,,0.029197559,0.029774725,0.33053708,-0.7144887,-0.560148,-0.4192135,-0.68231136,0.42530248,0.5946166,-0.15478082,0.710881,-0.68606925,,0.0002465155,-0.020378277,0.5731671,0.5439754,-0.80961597,0.22048283,-0.64951813,-0.23992023,0.72150135,-0.5312408,-0.5356866,-0.656371,,0.024538482,-0.022723846,0.17667228,-0.9903629,0.117242195,0.07372566,0.12486081,0.98616713,0.10901377,-0.059924815,0.11716868,-0.9913024,,-0.3389353003839653,-0.05596664513950502,0.10918780299000001,0.0,0.0,8.167874014056223e-05,-0.00016334406613427926,,-1.4636123343230292,0.17995512143517953,0.08948160241000001,-0.0077585279089274015,-0.017216198970445497,-0.001888698461660539,0.0021234728597456284
1.09525226498954,,0.029197559,0.029774725,0.33053708,-0.7144887,-0.560148,-0.4192135,-0.68231136,0.42530248,0.5946166,-0.15478082,0.710881,-0.68606925,,0.00024702772,-0.020378128,0.5731674,0.54397637,-0.8096136,0.22048904,-0.6495179,-0.2399155,0.7215032,-0.5312401,-0.53569233,-0.65636694,,0.024538482,-0.022723846,0.17667228,-0.9903629,0.117242195,0.07372566,0.12486081,0.98616713,0.10901377,-0.059924815,0.11716868,-0.9913024,,-0.3389353003839653,-0.05596664513950502,0.10918780299000001,0.0,0.0,8.167874014056223e-05,-0.00016334406613427926,,-1.4636200570559033,0.17995512143517953,0.08948160241000001,-0.0077585279089274015,-0.017216198970445497,-0.001888698461660539,0.0021234728597456284
1.117924898979254,,0.029197559,0.029774725,0.33053708,-0.7144887,-0.560148,-0.4192135,-0.68231136,0.42530248,0.5946166,-0.15478082,0.710881,-0.68606925,,0.00024702772,-0.020378128,0.5731674,0.54397637,-0.8096136,0.22048904,-0.6495179,-0.2399155,0.7215032,-0.5312401,-0.53569233,-0.65636694,,0.024538482,-0.022723846,0.17667228,-0.9903629,0.117242195,0.07372566,0.12486081,0.98616713,0.10901377,-0.059924815,0.11716868,-0.9913024,,-0.3389353003839653,-0.05596664513950502,0.10918780299000001,0.0,0.0,8.167874014056223e-05,-0.00016334406613427926,,-1.4636200570559033,0.17995512143517953,0.08948160241000001,-0.0077585279089274015,-0.017216198970445497,-0.001888698461660539,0.0021234728597456284
1.143413464014884,,0.029197559,0.029774725,0.33053708,-0.7144887,-0.560148,-0.4192135,-0.68231136,0.42530248,0.5946166,-0.15478082,0.710881,-0.68606925,,0.00024702772,-0.020378128,0.5731674,0.54397637,-0.8096136,0.22048904,-0.6495179,-0.2399155,0.7215032,-0.5312401,-0.53569233,-0.65636694,,0.024538482,-0.022723846,0.17667228,-0.9903629,0.117242195,0.07372566,0.12486081,0.98616713,0.10901377,-0.059924815,0.11716868,-0.9913024,,-0.3389353003839653,-0.05596664513950502,0.10918780299000001,0.0,0.0,8.167874014056223e-05,-0.00016334406613427926,,-1.4636200570559033,0.17995512143517953,0.08948160241000001,-0.0077585279089274015,-0.017216198970445497,-0.001888698461660539,0.0021234728597456284
1.1684245549840853,,0.029197559,0.029774725,0.33053708,-0.7144887,-0.560148,-0.4192135,-0.68231136,0.42530248,0.5946166,-0.15478082,0.710881,-0.68606925,,0.00024600327,-0.02037843,0.5731667,0.54397434,-0.8096183,0.22047663,-0.64951843,-0.23992491,0.72149956,-0.53124154,-0.535681,-0.656375,,0.024538482,-0.022723846,0.17667228,-0.9903629,0.117242195,0.07372566,0.12486081,0.98616713,0.10901377,-0.059924815,0.11716868,-0.9913024,,-0.3389353003839653,-0.05596664513950502,0.10918780299000001,0.0,0.0,8.167874014056223e-05,-0.00016334406613427926,,-1.4636046115901549,0.17995512143517953,0.08948160241000001,-0.0077585279089274015,-0.017216198970445497,-0.001888698461660539,0.0021234728597456284
1.1935607899795286,,0.029197559,0.029774725,0.33053708,-0.7144887,-0.560148,-0.4192135,-0.68231136,0.42530248,0.5946166,-0.15478082,0.710881,-0.68606925,,0.00024600327,-0.02037843,0.5731667,0.54397434,-0.8096183,0.22047663,-0.64951843,-0.23992491,0.72149956,-0.53124154,-0.535681,-0.656375,,0.024538482,-0.022723846,0.17667228,-0.9903629,0.117242195,0.07372566,0.12486081,0.98616713,0.10901377,-0.059924815,0.11716868,-0.9913024,,-0.3389353003839653,-0.05596664513950502,0.10918780299000001,0.0,0.0,8.167874014056223e-05,-0.00016334406613427926,,-1.4636046115901549,0.17995512143517953,0.08948160241000001,-0.0077585279089274015,-0.017216198970445497,-0.001888698461660539,0.0021234728597456284
1.2178824240108952,,0.029197115,0.029775057,0.33053768,-0.7144885,-0.56014514,-0.4192178,-0.6823115,0.42529765,0.59461987,-0.15478112,0.71088624,-0.68606377,,0.00024600327,-0.02037843,0.5731667,0.54397434,-0.8096183,0.22047663,-0.64951843,-0.23992491,0.72149956,-0.53124154,-0.535681,-0.656375,,0.024538482,-0.022723846,0.17667228,-0.9903629,0.117242195,0.07372566,0.12486081,0.98616713,0.10901377,-0.059924815,0.11716868,-0.9913024,,-0.33892757765109105,-0.05596664513950502,0.10918780299000001,0.0,0.0,8.167874014056223e-05,-0.00016334406613427926,,-1.4636046115901549,0.17995512143517953,0.08948160241000001,-0.0077585279089274015,-0.017216198970445497,-0.001888698461660539,0.0021234728597456284
1.2417876789695583,,0.029197559,0.029774725,0.33053708,-0.7144887,-0.560148,-0.4192135,-0.68231136,0.42530248,0.5946166,-0.15478082,0.710881,-0.68606925,,0.0002465155,-0.020378277,0.5731671,0.5439754,-0.80961597,0.22048283,-0.64951813,-0.23992023,0.72150135,-0.5312408,-0.5356866,-0.656371,,0.024538482,-0.022723846,0.17667228,-0.9903629,0.117242195,0.07372566,0.12486081,0.98616713,0.10901377,-0.059924815,0.11716868,-0.9913024,,-0.3389353003839653,-0.05596664513950502,0.10918780299000001,0.0,0.0,8.167874014056223e-05,-0.00016334406613427926,,-1.4636123343230292,0.17995512143517953,0.08948160241000001,-0.0077585279089274015,-0.017216198970445497,-0.001888698461660539,0.0021234728597456284
1.268905350996647,,0.029197115,0.029775057,0.33053768,-0.7144885,-0.56014514,-0.4192178,-0.6823115,0.42529765,0.59461987,-0.15478112,0.71088624,-0.68606377,,0.00024702772,-0.020378128,0.5731674,0.54397637,-0.8096136,0.22048904,-0.6495179,-0.2399155,0.7215032,-0.5312401,-0.53569233,-0.65636694,,0.024538482,-0.022723846,0.17667228,-0.9903629,0.117242195,0.07372566,0.12486081,0.98616713,0.10901377,-0.059924815,0.11716868,-0.9913024,,-0.33892757765109105,-0.05596664513950502,0.10918780299000001,0.0,0.0,8.167874014056223e-05,-0.00016334406613427926,,-1.4636200570559033,0.17995512143517953,0.08948160241000001,-0.0077585279089274015,-0.017216198970445497,-0.001888698461660539,0.0021234728597456284
1.2977665269863792,,0.029197559,0.029774725,0.33053708,-0.7144887,-0.560148,-0.4192135,-0.68231136,0.42530248,0.5946166,-0.15478082,0.710881,-0.68606925,,0.00024702772,-0.020378128,0.5731674,0.54397637,-0.8096136,0.22048904,-0.6495179,-0.2399155,0.7215032,-0.5312401,-0.53569233,-0.65636694,,0.024538482,-0.022723846,0.17667228,-0.9903629,0.117242195,0.07372566,0.12486081,0.98616713,0.10901377,-0.059924815,0.11716868,-0.9913024,,-0.3389353003839653,-0.05596664513950502,0.10918780299000001,0.0,0.0,8.167874014056223e-05,-0.00016334406613427926,,-1.4636200570559033,0.17995512143517953,0.08948160241000001,-0.0077585279089274015,-0.017216198970445497,-0.001888698461660539,0.0021234728597456284
1.3176489420002326,,0.029197559,0.029774725,0.33053708,-0.7144887,-0.560148,-0.4192135,-0.68231136,0.42530248,0.5946166,-0.15478082,0.710881,-0.68606925,,0.00024702772,-0.020378128,0.5731674,0.54397637,-0.8096136,0.22048904,-0.6495179,-0.2399155,0.7215032,-0.5312401,-0.53569233,-0.65636694,,0.024538482,-0.022723846,0.17667228,-0.9903629,0.117242195,0.07372566,0.12486081,0.98616713,0.10901377,-0.059924815,0.11716868,-0.9913024,,-0.3389353003839653,-0.05596664513950502,0.10918780299000001,0.0,0.0,8.167874014056223e-05,-0.00016334406613427926,,-1.4636200570559033,0.17995512143517953,0.08948160241000001,-0.0077585279089274015,-0.017216198970445497,-0.001888698461660539,0.0021234728597456284
1.345272317994386,,0.029187074,0.02978152,0.3305334,-0.71449023,-0.5601264,-0.41923994,-0.68230975,0.425274,0.59463894,-0.15478115,0.7109151,-0.6860338,,0.00022362731,-0.020393904,0.5731426,0.5439528,-0.80962455,0.22050738,-0.64950615,-0.23986131,0.7215319,-0.5312787,-0.5357002,-0.6563293,,0.02446911,-0.022691391,0.17666696,-0.9903555,0.11730103,0.07373252,0.12492014,0.9861598,0.10901289,-0.059924718,0.11717223,-0.99130195,,-0.33892757765109105,-0.05596664513950502,0.10918780299000001,0.0,0.0,8.167874014056223e-05,-0.00016334406613427926,,-1.4636200570559033,0.17995512143517953,0.08948160241000001,-0.0077585279089274015,-0.017216198970445497,-0.001888698461660539,0.0021234728597456284
1.3690400489722379,,0.029187074,0.02978152,0.3305334,-0.71449023,-0.5601264,-0.41923994,-0.68230975,0.425274,0.59463894,-0.15478115,0.7109151,-0.6860338,,0.000222601,-0.020394202,0.57314193,0.54395074,-0.80962926,0.22049497,-0.6495067,-0.23987067,0.7215283,-0.53128016,-0.5356889,-0.6563374,,0.02446911,-0.022691391,0.17666696,-0.9903555,0.11730103,0.07373252,0.12492014,0.9861598,0.10901289,-0.059924718,0.11717223,-0.99130195,,-0.33892757765109105,-0.05596664513950502,0.10918780299000001,0.0,0.0,8.167874014056223e-05,-0.00016334406613427926,,-1.4636046115901549,0.17995512143517953,0.08948160241000001,-0.0077585279089274015,-0.017216198970445497,-0.001888698461660539,0.0021234728597456284
1.3975997240049765,,0.02918752,0.029781193,0.33053285,-0.7144905,-0.56012934,-0.41923562,-0.68230957,0.4252789,0.5946356,-0.15478085,0.7109099,-0.68603927,,0.000222601,-0.020394202,0.57314193,0.54395074,-0.80962926,0.22049497,-0.6495067,-0.23987067,0.7215283,-0.53128016,-0.5356889,-0.6563374,,0.02446911,-0.022691391,0.17666696,-0.9903555,0.11730103,0.07373252,0.12492014,0.9861598,0.10901289,-0.059924718,0.11717223,-0.99130195,,-0.3389353003839653,-0.05596664513950502,0.10918780299000001,0.0,0.0,8.167874014056223e-05,-0.00016334406613427926,,-1.4636046115901549,0.17995512143517953,0.08948160241000001,-0.0077585279089274015,-0.017216198970445497,-0.001888698461660539,0.0021234728597456284
1.4202965979930013,,0.02918752,0.029781193,0.33053285,-0.7144905,-0.56012934,-0.41923562,-0.68230957,0.4252789,0.5946356,-0.15478085,0.7109099,-0.68603927,,0.000222601,-0.020394202,0.57314193,0.54395074,-0.80962926,0.22049497,-0.6495067,-0.23987067,0.7215283,-0.53128016,-0.5356889,-0.6563374,,0.02446911,-0.022691391,0.17666696,-0.9903555,0.11730103,0.07373252,0.12492014,0.9861598,0.10901289,-0.059924718,0.11717223,-0.99130195,,-0.3389353003839653,-0.05596664513950502,0.10918780299000001,0.0,0.0,8.167874014056223e-05,-0.00016334406613427926,,-1.4636046115901549,0.17995512143517953,0.08948160241000001,-0.0077585279089274015,-0.017216198970445497,-0.001888698461660539,0.0021234728597456284
1.4483050219714642,,0.02918752,0.029781193,0.33053285,-0.7144905,-0.56012934,-0.41923562,-0.68230957,0.4252789,0.5946356,-0.15478085,0.7109099,-0.68603927,,0.000222601,-0.020394202,0.57314193,0.54395074,-0.80962926,0.22049497,-0.6495067,-0.23987067,0.7215283,-0.53128016,-0.5356889,-0.6563374,,0.02446911,-0.022691391,0.17666696,-0.9903555,0.11730103,0.07373252,0.12492014,0.9861598,0.10901289,-0.059924718,0.11717223,-0.99130195,,-0.3389353003839653,-0.05596664513950502,0.10918780299000001,0.0,0.0,8.167874014056223e-05,-0.00016334406613427926,,-1.4636046115901549,0.17995512143517953,0.08948160241000001,-0.0077585279089274015,-0.017216198970445497,-0.001888698461660539,0.0021234728597456284
1.4704561139806174,,0.02918752,0.029781193,0.33053285,-0.7144905,-0.56012934,-0.41923562,-0.68230957,0.4252789,0.5946356,-0.15478085,0.7109099,-0.68603927,,0.000222601,-0.020394202,0.57314193,0.54395074,-0.80962926,0.22049497,-0.6495067,-0.23987067,0.7215283,-0.53128016,-0.5356889,-0.6563374,,0.02446911,-0.022691391,0.17666696,-0.9903555,0.11730103,0.07373252,0.12492014,0.9861598,0.10901289,-0.059924718,0.11717223,-0.99130195,,-0.3389353003839653,-0.05596664513950502,0.10918780299000001,0.0,0.0,8.167874014056223e-05,-0.00016334406613427926,,-1.4636046115901549,0.17995512143517953,0.08948160241000001,-0.0077585279089274015,-0.017216198970445497,-0.001888698461660539,0.0021234728597456284
1.499125397996977,,0.029187074,0.02978152,0.3305334,-0.71449023,-0.5601264,-0.41923994,-0.68230975,0.425274,0.59463894,-0.15478115,0.7109151,-0.6860338,,0.000222601,-0.020394202,0.57314193,0.54395074,-0.80962926,0.22049497,-0.6495067,-0.23987067,0.7215283,-0.53128016,-0.5356889,-0.6563374,,0.02446911,-0.022691391,0.17666696,-0.9903555,0.11730103,0.07373252,0.12492014,0.9861598,0.10901289,-0.059924718,0.11717223,-0.99130195,,-0.33892757765109105,-0.05596664513950502,0.10918780299000001,0.0,0.0,8.167874014056223e-05,-0.00016334406613427926,,-1.4636046115901549,0.17995512143517953,0.08948160241000001,-0.0077585279089274015,-0.017216198970445497,-0.001888698461660539,0.0021234728597456284
1.5228375180158764,,0.02918752,0.029781193,0.33053285,-0.7144905,-0.56012934,-0.41923562,-0.68230957,0.4252789,0.5946356,-0.15478085,0.7109099,-0.68603927,,0.000222601,-0.020394202,0.57314193,0.54395074,-0.80962926,0.22049497,-0.6495067,-0.23987067,0.7215283,-0.53128016,-0.5356889,-0.6563374,,0.02446911,-0.022691391,0.17666696,-0.9903555,0.11730103,0.07373252,0.12492014,0.9861598,0.10901289,-0.059924718,0.11717223,-0.99130195,,-0.3389353003839653,-0.05596664513950502,0.10918780299000001,0.0,0.0,8.167874014056223e-05,-0.00016334406613427926,,-1.4636046115901549,0.17995512143517953,0.08948160241000001,-0.0077585279089274015,-0.017216198970445497,-0.001888698461660539,0.0021234728597456284
1.5485155209898949,,0.02918752,0.029781193,0.33053285,-0.7144905,-0.56012934,-0.41923562,-0.68230957,0.4252789,0.5946356,-0.15478085,0.7109099,-0.68603927,,0.000222601,-0.020394202,0.57314193,0.54395074,-0.80962926,0.22049497,-0.6495067,-0.23987067,0.7215283,-0.53128016,-0.5356889,-0.6563374,,0.02446911,-0.022691391,0.17666696,-0.9903555,0.11730103,0.07373252,0.12492014,0.9861598,0.10901289,-0.059924718,0.11717223,-0.99130195,,-0.3389353003839653,-0.05596664513950502,0.10918780299000001,0.0,0.0,8.167874014056223e-05,-0.00016334406613427926,,-1.4636046115901549,0.17995512143517953,0.08948160241000001,-0.0077585279089274015,-0.017216198970445497,-0.001888698461660539,0.0021234728597456284
1.5745794079848565,,0.02918752,0.029781193,0.33053285,-0.7144905,-0.56012934,-0.41923562,-0.68230957,0.4252789,0.5946356,-0.15478085,0.7109099,-0.68603927,,0.000222601,-0.020394202,0.57314193,0.54395074,-0.80962926,0.22049497,-0.6495067,-0.23987067,0.7215283,-0.53128016,-0.5356889,-0.6563374,,0.02446911,-0.022691391,0.17666696,-0.9903555,0.11730103,0.07373252,0.12492014,0.9861598,0.10901289,-0.059924718,0.11717223,-0.99130195,,-0.3389353003839653,-0.05596664513950502,0.10918780299000001,0.0,0.0,8.167874014056223e-05,-0.00016334406613427926,,-1.4636046115901549,0.17995512143517953,0.08948160241000001,-0.0077585279089274015,-0.017216198970445497,-0.001888698461660539,0.0021234728597456284
1.6040844309609383,,0.02918752,0.029781193,0.33053285,-0.7144905,-0.56012934,-0.41923562,-0.68230957,0.4252789,0.5946356,-0.15478085,0.7109099,-0.68603927,,0.000222601,-0.020394202,0.57314193,0.54395074,-0.80962926,0.22049497,-0.6495067,-0.23987067,0.7215283,-0.53128016,-0.5356889,-0.6563374,,0.02446911,-0.022691391,0.17666696,-0.9903555,0.11730103,0.07373252,0.12492014,0.9861598,0.10901289,-0.059924718,0.11717223,-0.99130195,,-0.3389353003839653,-0.05596664513950502,0.10918780299000001,0.0,0.0,8.167874014056223e-05,-0.00016334406613427926,,-1.4636046115901549,0.17995512143517953,0.08948160241000001,-0.0077585279089274015,-0.017216198970445497,-0.001888698461660539,0.0021234728597456284
1.634715566993691,,0.029187074,0.02978152,0.3305334,-0.71449023,-0.5601264,-0.41923994,-0.68230975,0.425274,0.59463894,-0.15478115,0.7109151,-0.6860338,,0.000222601,-0.020394202,0.57314193,0.54395074,-0.80962926,0.22049497,-0.6495067,-0.23987067,0.7215283,-0.53128016,-0.5356889,-0.6563374,,0.02446911,-0.022691391,0.17666696,-0.9903555,0.11730103,0.07373252,0.12492014,0.9861598,0.10901289,-0.059924718,0.11717223,-0.99130195,,-0.33892757765109105,-0.05596664513950502,0.10918780299000001,0.0,0.0,8.167874014056223e-05,-0.00016334406613427926,,-1.4636046115901549,0.17995512143517953,0.08948160241000001,-0.0077585279089274015,-0.017216198970445497,-0.001888698461660539,0.0021234728597456284
1.6637282780138776,,0.029187074,0.02978152,0.3305334,-0.71449023,-0.5601264,-0.41923994,-0.68230975,0.425274,0.59463894,-0.15478115,0.7109151,-0.6860338,,0.000222601,-0.020394202,0.57314193,0.54395074,-0.80962926,0.22049497,-0.6495067,-0.23987067,0.7215283,-0.53128016,-0.5356889,-0.6563374,,0.02446911,-0.022691391,0.17666696,-0.9903555,0.11730103,0.07373252,0.12492014,0.9861598,0.10901289,-0.059924718,0.11717223,-0.99130195,,-0.33892757765109105,-0.05596664513950502,0.10918780299000001,0.0,0.0,8.167874014056223e-05,-0.00016334406613427926,,-1.4636046115901549,0.17995512143517953,0.08948160241000001,-0.0077585279089274015,-0.017216198970445497,-0.001888698461660539,0.0021234728597456284
1.686173513007816,,0.02918752,0.029781193,0.33053285,-0.7144905,-0.56012934,-0.41923562,-0.68230957,0.4252789,0.5946356,-0.15478085,0.7109099,-0.68603927,,0.000222601,-0.020394202,0.57314193,0.54395074,-0.80962926,0.22049497,-0.6495067,-0.23987067,0.7215283,-0.53128016,-0.5356889,-0.6563374,,0.02446911,-0.022691391,0.17666696,-0.9903555,0.11730103,0.07373252,0.12492014,0.9861598,0.10901289,-0.059924718,0.11717223,-0.99130195,,-0.3389353003839653,-0.05596664513950502,0.10918780299000001,0.0,0.0,8.167874014056223e-05,-0.00016334406613427926,,-1.4636046115901549,0.17995512143517953,0.08948160241000001,-0.0077585279089274015,-0.017216198970445497,-0.001888698461660539,0.0021234728597456284
1.7144537349813618,,0.02918752,0.029781193,0.33053285,-0.7144905,-0.56012934,-0.41923562,-0.68230957,0.4252789,0.5946356,-0.15478085,0.7109099,-0.68603927,,0.000222601,-0.020394202,0.57314193,0.54395074,-0.80962926,0.22049497,-0.6495067,-0.23987067,0.7215283,-0.53128016,-0.5356889,-0.6563374,,0.02446911,-0.022691391,0.17666696,-0.9903555,0.11730103,0.07373252,0.12492014,0.9861598,0.10901289,-0.059924718,0.11717223,-0.99130195,,-0.3389353003839653,-0.05596664513950502,0.10918780299000001,0.0,0.0,8.167874014056223e-05,-0.00016334406613427926,,-1.4636046115901549,0.17995512143517953,0.08948160241000001,-0.0077585279089274015,-0.017216198970445497,-0.001888698461660539,0.0021234728597456284
1.7390139689669013,,0.02918752,0.029781193,0.33053285,-0.7144905,-0.56012934,-0.41923562,-0.68230957,0.4252789,0.5946356,-0.15478085,0.7109099,-0.68603927,,0.000222601,-0.020394202,0.57314193,0.54395074,-0.80962926,0.22049497,-0.6495067,-0.23987067,0.7215283,-0.53128016,-0.5356889,-0.6563374,,0.02446911,-0.022691391,0.17666696,-0.9903555,0.11730103,0.07373252,0.12492014,0.9861598,0.10901289,-0.059924718,0.11717223,-0.99130195,,-0.3389353003839653,-0.05596664513950502,0.10918780299000001,0.0,0.0,8.167874014056223e-05,-0.00016334406613427926,,-1.4636046115901549,0.17995512143517953,0.08948160241000001,-0.0077585279089274015,-0.017216198970445497,-0.001888698461660539,0.0021234728597456284
1.7591516459942795,,0.02918752,0.029781193,0.33053285,-0.7144905,-0.56012934,-0.41923562,-0.68230957,0.4252789,0.5946356,-0.15478085,0.7109099,-0.68603927,,0.000222601,-0.020394202,0.57314193,0.54395074,-0.80962926,0.22049497,-0.6495067,-0.23987067,0.7215283,-0.53128016,-0.5356889,-0.6563374,,0.02446911,-0.022691391,0.17666696,-0.9903555,0.11730103,0.07373252,0.12492014,0.9861598,0.10901289,-0.059924718,0.11717223,-0.99130195,,-0.3389353003839653,-0.05596664513950502,0.10918780299000001,0.0,0.0,8.167874014056223e-05,-0.00016334406613427926,,-1.4636046115901549,0.17995512143517953,0.08948160241000001,-0.0077585279089274015,-0.017216198970445497,-0.001888698461660539,0.0021234728597456284
1.7845680669997819,,0.02918752,0.029781193,0.33053285,-0.7144905,-0.56012934,-0.41923562,-0.68230957,0.4252789,0.5946356,-0.15478085,0.7109099,-0.68603927,,0.000222601,-0.020394202,0.57314193,0.54395074,-0.80962926,0.22049497,-0.6495067,-0.23987067,0.7215283,-0.53128016,-0.5356889,-0.6563374,,0.02446911,-0.022691391,0.17666696,-0.9903555,0.11730103,0.07373252,0.12492014,0.9861598,0.10901289,-0.059924718,0.11717223,-0.99130195,,-0.3389353003839653,-0.05596664513950502,0.10918780299000001,0.0,0.0,8.167874014056223e-05,-0.00016334406613427926,,-1.4636046115901549,0.17995512143517953,0.08948160241000001,-0.0077585279089274015,-0.017216198970445497,-0.001888698461660539,0.0021234728597456284
1.810586699983105,,0.029187074,0.02978152,0.3305334,-0.71449023,-0.5601264,-0.41923994,-0.68230975,0.425274,0.59463894,-0.15478115,0.7109151,-0.6860338,,0.000222601,-0.020394202,0.57314193,0.54395074,-0.80962926,0.22049497,-0.6495067,-0.23987067,0.7215283,-0.53128016,-0.5356889,-0.6563374,,0.02446911,-0.022691391,0.17666696,-0.9903555,0.11730103,0.07373252,0.12492014,0.9861598,0.10901289,-0.059924718,0.11717223,-0.99130195,,-0.33892757765109105,-0.05596664513950502,0.10918780299000001,0.0,0.0,8.167874014056223e-05,-0.00016334406613427926,,-1.4636046115901549,0.17995512143517953,0.08948160241000001,-0.0077585279089274015,-0.017216198970445497,-0.001888698461660539,0.0021234728597456284
1.8353275620029308,,0.02918752,0.029781193,0.33053285,-0.7144905,-0.56012934,-0.41923562,-0.68230957,0.4252789,0.5946356,-0.15478085,0.7109099,-0.68603927,,0.000222601,-0.020394202,0.57314193,0.54395074,-0.80962926,0.22049497,-0.6495067,-0.23987067,0.7215283,-0.53128016,-0.5356889,-0.6563374,,0.02446911,-0.022691391,0.17666696,-0.9903555,0.11730103,0.07373252,0.12492014,0.9861598,0.10901289,-0.059924718,0.11717223,-0.99130195,,-0.3389353003839653,-0.05596664513950502,0.10918780299000001,0.0,0.0,8.167874014056223e-05,-0.00016334406613427926,,-1.4636046115901549,0.17995512143517953,0.08948160241000001,-0.0077585279089274015,-0.017216198970445497,-0.001888698461660539,0.0021234728597456284
1.8639694610028528,,0.02918752,0.029781193,0.33053285,-0.7144905,-0.56012934,-0.41923562,-0.68230957,0.4252789,0.5946356,-0.15478085,0.7109099,-0.68603927,,0.000222601,-0.020394202,0.57314193,0.54395074,-0.80962926,0.22049497,-0.6495067,-0.23987067,0.7215283,-0.53128016,-0.5356889,-0.6563374,,0.02446911,-0.022691391,0.17666696,-0.9903555,0.11730103,0.07373252,0.12492014,0.9861598,0.10901289,-0.059924718,0.11717223,-0.99130195,,-0.3389353003839653,-0.05596664513950502,0.10918780299000001,0.0,0.0,8.167874014056223e-05,-0.00016334406613427926,,-1.4636046115901549,0.17995512143517953,0.08948160241000001,-0.0077585279089274015,-0.017216198970445497,-0.001888698461660539,0.0021234728597456284
1.8846815539873205,,0.02918752,0.029781193,0.33053285,-0.7144905,-0.56012934,-0.41923562,-0.68230957,0.4252789,0.5946356,-0.15478085,0.7109099,-0.68603927,,0.000222601,-0.020394202,0.57314193,0.54395074,-0.80962926,0.22049497,-0.6495067,-0.23987067,0.7215283,-0.53128016,-0.5356889,-0.6563374,,0.02446911,-0.022691391,0.17666696,-0.9903555,0.11730103,0.07373252,0.12492014,0.9861598,0.10901289,-0.059924718,0.11717223,-0.99130195,,-0.3389353003839653,-0.05596664513950502,0.10918780299000001,0.0,0.0,8.167874014056223e-05,-0.00016334406613427926,,-1.4636046115901549,0.17995512143517953,0.08948160241000001,-0.0077585279089274015,-0.017216198970445497,-0.001888698461660539,0.0021234728597456284
1.9144866290153004,,0.02918752,0.029781193,0.33053285,-0.7144905,-0.56012934,-0.41923562,-0.68230957,0.4252789,0.5946356,-0.15478085,0.7109099,-0.68603927,,0.000222601,-0.020394202,0.57314193,0.54395074,-0.80962926,0.22049497,-0.6495067,-0.23987067,0.7215283,-0.53128016,-0.5356889,-0.6563374,,0.02446911,-0.022691391,0.17666696,-0.9903555,0.11730103,0.07373252,0.12492014,0.9861598,0.10901289,-0.059924718,0.11717223,-0.99130195,,-0.3389353003839653,-0.05596664513950502,0.10918780299000001,0.0,0.0,8.167874014056223e-05,-0.00016334406613427926,,-1.4636046115901549,0.17995512143517953,0.08948160241000001,-0.0077585279089274015,-0.017216198970445497,-0.001888698461660539,0.0021234728597456284
1.935386536992155,,0.029187074,0.02978152,0.3305334,-0.71449023,-0.5601264,-0.41923994,-0.68230975,0.425274,0.59463894,-0.15478115,0.7109151,-0.6860338,,0.000222601,-0.020394202,0.57314193,0.54395074,-0.80962926,0.22049497,-0.6495067,-0.23987067,0.7215283,-0.53128016,-0.5356889,-0.6563374,,0.02446911,-0.022691391,0.17666696,-0.9903555,0.11730103,0.07373252,0.12492014,0.9861598,0.10901289,-0.059924718,0.11717223,-0.99130195,,-0.33892757765109105,-0.05596664513950502,0.10918780299000001,0.0,0.0,8.167874014056223e-05,-0.00016334406613427926,,-1.4636046115901549,0.17995512143517953,0.08948160241000001,-0.0077585279089274015,-0.017216198970445497,-0.001888698461660539,0.0021234728597456284
1.9596006289939396,,0.02918752,0.029781193,0.33053285,-0.7144905,-0.56012934,-0.41923562,-0.68230957,0.4252789,0.5946356,-0.15478085,0.7109099,-0.68603927,,0.000222601,-0.020394202,0.57314193,0.54395074,-0.80962926,0.22049497,-0.6495067,-0.23987067,0.7215283,-0.53128016,-0.5356889,-0.6563374,,0.02446911,-0.022691391,0.17666696,-0.9903555,0.11730103,0.07373252,0.12492014,0.9861598,0.10901289,-0.059924718,0.11717223,-0.99130195,,-0.3389353003839653,-0.05596664513950502,0.10918780299000001,0.0,0.0,8.167874014056223e-05,-0.00016334406613427926,,-1.4636046115901549,0.17995512143517953,0.08948160241000001,-0.0077585279089274015,-0.017216198970445497,-0.001888698461660539,0.0021234728597456284
1.9852005089633167,,0.02918752,0.029781193,0.33053285,-0.7144905,-0.56012934,-0.41923562,-0.68230957,0.4252789,0.5946356,-0.15478085,0.7109099,-0.68603927,,0.000222601,-0.020394202,0.57314193,0.54395074,-0.80962926,0.22049497,-0.6495067,-0.23987067,0.7215283,-0.53128016,-0.5356889,-0.6563374,,0.02446911,-0.022691391,0.17666696,-0.9903555,0.11730103,0.07373252,0.12492014,0.9861598,0.10901289,-0.059924718,0.11717223,-0.99130195,,-0.3389353003839653,-0.05596664513950502,0.10918780299000001,0.0,0.0,8.167874014056223e-05,-0.00016334406613427926,,-1.4636046115901549,0.17995512143517953,0.08948160241000001,-0.0077585279089274015,-0.017216198970445497,-0.001888698461660539,0.0021234728597456284
2.008087091962807,,0.02918752,0.029781193,0.33053285,-0.7144905,-0.56012934,-0.41923562,-0.68230957,0.4252789,0.5946356,-0.15478085,0.7109099,-0.68603927,,0.00022311322,-0.020394057,0.5731423,0.54395175,-0.8096269,0.2205012,-0.64950645,-0.23986599,0.72153014,-0.53127944,-0.53569454,-0.6563333,,0.02446911,-0.022691391,0.17666696,-0.9903555,0.11730103,0.07373252,0.12492014,0.9861598,0.10901289,-0.059924718,0.11717223,-0.99130195,,-0.3389353003839653,-0.05596664513950502,0.10918780299000001,0.0,0.0,8.167874014056223e-05,-0.00016334406613427926,,-1.4636123343230292,0.17995512143517953,0.08948160241000001,-0.0077585279089274015,-0.017216198970445497,-0.001888698461660539,0.0021234728597456284
2.0352371979970485,,0.02918752,0.029781193,0.33053285,-0.7144905,-0.56012934,-0.41923562,-0.68230957,0.4252789,0.5946356,-0.15478085,0.7109099,-0.68603927,,0.00022362731,-0.020393904,0.5731426,0.5439528,-0.80962455,0.22050738,-0.64950615,-0.23986131,0.7215319,-0.5312787,-0.5357002,-0.6563293,,0.02446911,-0.022691391,0.17666696,-0.9903555,0.11730103,0.07373252,0.12492014,0.9861598,0.10901289,-0.059924718,0.11717223,-0.99130195,,-0.3389353003839653,-0.05596664513950502,0.10918780299000001,0.0,0.0,8.167874014056223e-05,-0.00016334406613427926,,-1.4636200570559033,0.17995512143517953,0.08948160241000001,-0.0077585279089274015,-0.017216198970445497,-0.001888698461660539,0.0021234728597456284
2.060835114971269,,0.02918752,0.029781193,0.33053285,-0.7144905,-0.56012934,-0.41923562,-0.68230957,0.4252789,0.5946356,-0.15478085,0.7109099,-0.68603927,,0.00022362731,-0.020393904,0.5731426,0.5439528,-0.80962455,0.22050738,-0.64950615,-0.23986131,0.7215319,-0.5312787,-0.5357002,-0.6563293,,0.02446911,-0.022691391,0.17666696,-0.9903555,0.11730103,0.07373252,0.12492014,0.9861598,0.10901289,-0.059924718,0.11717223,-0.99130195,,-0.3389353003839653,-0.05596664513950502,0.10918780299000001,0.0,0.0,8.167874014056223e-05,-0.00016334406613427926,,-1.4636200570559033,0.17995512143517953,0.08948160241000001,-0.0077585279089274015,-0.017216198970445497,-0.001888698461660539,0.0021234728597456284
2.08641391096171,,0.029187074,0.02978152,0.3305334,-0.71449023,-0.5601264,-0.41923994,-0.68230975,0.425274,0.59463894,-0.15478115,0.7109151,-0.6860338,,0.00022362731,-0.020393904,0.5731426,0.5439528,-0.80962455,0.22050738,-0.64950615,-0.23986131,0.7215319,-0.5312787,-0.5357002,-0.6563293,,0.02446911,-0.022691391,0.17666696,-0.9903555,0.11730103,0.07373252,0.12492014,0.9861598,0.10901289,-0.059924718,0.11717223,-0.99130195,,-0.33892757765109105,-0.05596664513950502,0.10918780299000001,0.0,0.0,8.167874014056223e-05,-0.00016334406613427926,,-1.4636200570559033,0.17995512143517953,0.08948160241000001,-0.0077585279089274015,-0.017216198970445497,-0.001888698461660539,0.0021234728597456284
2.114007974974811,,0.02918752,0.029781193,0.33053285,-0.7144905,-0.56012934,-0.41923562,-0.68230957,0.4252789,0.5946356,-0.15478085,0.7109099,-0.68603927,,0.00022362731,-0.020393904,0.5731426,0.5439528,-0.80962455,0.22050738,-0.64950615,-0.23986131,0.7215319,-0.5312787,-0.5357002,-0.6563293,,0.02446911,-0.022691391,0.17666696,-0.9903555,0.11730103,0.07373252,0.12492014,0.9861598,0.10901289,-0.059924718,0.11717223,-0.99130195,,-0.3389353003839653,-0.05596664513950502,0.10918780299000001,0.0,0.0,8.167874014056223e-05,-0.00016334406613427926,,-1.4636200570559033,0.17995512143517953,0.08948160241000001,-0.0077585279089274015,-0.017216198970445497,-0.001888698461660539,0.0021234728597456284
2.1368917860090733,,0.02918752,0.029781193,0.33053285,-0.7144905,-0.56012934,-0.41923562,-0.68230957,0.4252789,0.5946356,-0.15478085,0.7109099,-0.68603927,,0.00022311322,-0.020394057,0.5731423,0.54395175,-0.8096269,0.2205012,-0.64950645,-0.23986599,0.72153014,-0.53127944,-0.53569454,-0.6563333,,0.02446911,-0.022691391,0.17666696,-0.9903555,0.11730103,0.07373252,0.12492014,0.9861598,0.10901289,-0.059924718,0.11717223,-0.99130195,,-0.3389353003839653,-0.05596664513950502,0.10918780299000001,0.0,0.0,8.167874014056223e-05,-0.00016334406613427926,,-1.4636123343230292,0.17995512143517953,0.08948160241000001,-0.0077585279089274015,-0.017216198970445497,-0.001888698461660539,0.0021234728597456284
2.166110032994766,,0.02918752,0.029781193,0.33053285,-0.7144905,-0.56012934,-0.41923562,-0.68230957,0.4252789,0.5946356,-0.15478085,0.7109099,-0.68603927,,0.000222601,-0.020394202,0.57314193,0.54395074,-0.80962926,0.22049497,-0.6495067,-0.23987067,0.7215283,-0.53128016,-0.5356889,-0.6563374,,0.02446911,-0.022691391,0.17666696,-0.9903555,0.11730103,0.07373252,0.12492014,0.9861598,0.10901289,-0.059924718,0.11717223,-0.99130195,,-0.3389353003839653,-0.05596664513950502,0.10918780299000001,0.0,0.0,8.167874014056223e-05,-0.00016334406613427926,,-1.4636046115901549,0.17995512143517953,0.08948160241000001,-0.0077585279089274015,-0.017216198970445497,-0.001888698461660539,0.0021234728597456284
2.187840625003446,,0.02918752,0.029781193,0.33053285,-0.7144905,-0.56012934,-0.41923562,-0.68230957,0.4252789,0.5946356,-0.15478085,0.7109099,-0.68603927,,0.00022397377,-0.020394314,0.57314223,0.54395115,-0.80962455,0.22051154,-0.64951175,-0.23986137,0.7215268,-0.53127366,-0.53570014,-0.6563334,,0.02446911,-0.022691391,0.17666696,-0.9903555,0.11730103,0.07373252,0.12492014,0.9861598,0.10901289,-0.059924718,0.11717223,-0.99130195,,-0.3389353003839653,-0.05596664513950502,0.10918780299000001,0.0,0.0,8.167874014056223e-05,-0.00016334406613427926,,-1.4636200570559033,0.1799473987023053,0.08948160241000001,-0.0077585279089274015,-0.017216198970445497,-0.001888698461660539,0.0021234728597456284
2.21575978200417,,0.02918752,0.029781193,0.33053285,-0.7144905,-0.56012934,-0.41923562,-0.68230957,0.4252789,0.5946356,-0.15478085,0.7109099,-0.68603927,,0.00022362731,-0.020393904,0.5731426,0.5439528,-0.80962455,0.22050738,-0.64950615,-0.23986131,0.7215319,-0.5312787,-0.5357002,-0.6563293,,0.02446911,-0.022691391,0.17666696,-0.9903555,0.11730103,0.07373252,0.12492014,0.9861598,0.10901289,-0.059924718,0.11717223,-0.99130195,,-0.3389353003839653,-0.05596664513950502,0.10918780299000001,0.0,0.0,8.167874014056223e-05,-0.00016334406613427926,,-1.4636200570559033,0.17995512143517953,0.08948160241000001,-0.0077585279089274015,-0.017216198970445497,-0.001888698461660539,0.0021234728597456284
2.2375691260094754,,0.02918752,0.029781193,0.33053285,-0.7144905,-0.56012934,-0.41923562,-0.68230957,0.4252789,0.5946356,-0.15478085,0.7109099,-0.68603927,,0.00022362731,-0.020393904,0.5731426,0.5439528,-0.80962455,0.22050738,-0.64950615,-0.23986131,0.7215319,-0.5312787,-0.5357002,-0.6563293,,0.02446911,-0.022691391,0.17666696,-0.9903555,0.11730103,0.07373252,0.12492014,0.9861598,0.10901289,-0.059924718,0.11717223,-0.99130195,,-0.3389353003839653,-0.05596664513950502,0.10918780299000001,0.0,0.0,8.167874014056223e-05,-0.00016334406613427926,,-1.4636200570559033,0.17995512143517953,0.08948160241000001,-0.0077585279089274015,-0.017216198970445497,-0.001888698461660539,0.0021234728597456284
2.2667114220093936,,0.02918752,0.029781193,0.33053285,-0.7144905,-0.56012934,-0.41923562,-0.68230957,0.4252789,0.5946356,-0.15478085,0.7109099,-0.68603927,,0.00022311322,-0.020394057,0.5731423,0.54395175,-0.8096269,0.2205012,-0.64950645,-0.23986599,0.72153014,-0.53127944,-0.53569454,-0.6563333,,0.02446911,-0.022691391,0.17666696,-0.9903555,0.11730103,0.07373252,0.12492014,0.9861598,0.10901289,-0.059924718,0.11717223,-0.99130195,,-0.3389353003839653,-0.05596664513950502,0.10918780299000001,0.0,0.0,8.167874014056223e-05,-0.00016334406613427926,,-1.4636123343230292,0.17995512143517953,0.08948160241000001,-0.0077585279089274015,-0.017216198970445497,-0.001888698461660539,0.0021234728597456284
2.2880023369798437,,0.02918752,0.029781193,0.33053285,-0.7144905,-0.56012934,-0.41923562,-0.68230957,0.4252789,0.5946356,-0.15478085,0.7109099,-0.68603927,,0.000222601,-0.020394202,0.57314193,0.54395074,-0.80962926,0.22049497,-0.6495067,-0.23987067,0.7215283,-0.53128016,-0.5356889,-0.6563374,,0.02446911,-0.022691391,0.17666696,-0.9903555,0.11730103,0.07373252,0.12492014,0.9861598,0.10901289,-0.059924718,0.11717223,-0.99130195,,-0.3389353003839653,-0.05596664513950502,0.10918780299000001,0.0,0.0,8.167874014056223e-05,-0.00016334406613427926,,-1.4636046115901549,0.17995512143517953,0.08948160241000001,-0.0077585279089274015,-0.017216198970445497,-0.001888698461660539,0.0021234728597456284
2.316348195017781,,0.029187074,0.02978152,0.3305334,-0.71449023,-0.5601264,-0.41923994,-0.68230975,0.425274,0.59463894,-0.15478115,0.7109151,-0.6860338,,0.000222601,-0.020394202,0.57314193,0.54395074,-0.80962926,0.22049497,-0.6495067,-0.23987067,0.7215283,-0.53128016,-0.5356889,-0.6563374,,0.02446911,-0.022691391,0.17666696,-0.9903555,0.11730103,0.07373252,0.12492014,0.9861598,0.10901289,-0.059924718,0.11717223,-0.99130195,,-0.33892757765109105,-0.05596664513950502,0.10918780299000001,0.0,0.0,8.167874014056223e-05,-0.00016334406613427926,,-1.4636046115901549,0.17995512143517953,0.08948160241000001,-0.0077585279089274015,-0.017216198970445497,-0.001888698461660539,0.0021234728597456284
2.338120146014262,,0.02918752,0.029781193,0.33053285,-0.7144905,-0.56012934,-0.41923562,-0.68230957,0.4252789,0.5946356,-0.15478085,0.7109099,-0.68603927,,0.000222601,-0.020394202,0.57314193,0.54395074,-0.80962926,0.22049497,-0.6495067,-0.23987067,0.7215283,-0.53128016,-0.5356889,-0.6563374,,0.02446911,-0.022691391,0.17666696,-0.9903555,0.11730103,0.07373252,0.12492014,0.9861598,0.10901289,-0.059924718,0.11717223,-0.99130195,,-0.3389353003839653,-0.05596664513950502,0.10918780299000001,0.0,0.0,8.167874014056223e-05,-0.00016334406613427926,,-1.4636046115901549,0.17995512143517953,0.08948160241000001,-0.0077585279089274015,-0.017216198970445497,-0.001888698461660539,0.0021234728597456284
2.367289963993244,,0.02918752,0.029781193,0.33053285,-0.7144905,-0.56012934,-0.41923562,-0.68230957,0.4252789,0.5946356,-0.15478085,0.7109099,-0.68603927,,0.00022345968,-0.020394463,0.57314193,0.5439501,-0.8096269,0.22050534,-0.649512,-0.23986605,0.7215251,-0.5312744,-0.5356945,-0.65633744,,0.02446911,-0.022691391,0.17666696,-0.9903555,0.11730103,0.07373252,0.12492014,0.9861598,0.10901289,-0.059924718,0.11717223,-0.99130195,,-0.3389353003839653,-0.05596664513950502,0.10918780299000001,0.0,0.0,8.167874014056223e-05,-0.00016334406613427926,,-1.4636123343230292,0.1799473987023053,0.08948160241000001,-0.0077585279089274015,-0.017216198970445497,-0.001888698461660539,0.0021234728597456284
2.388658534968272,,0.029187074,0.02978152,0.3305334,-0.71449023,-0.5601264,-0.41923994,-0.68230975,0.425274,0.59463894,-0.15478115,0.7109151,-0.6860338,,0.00022397377,-0.020394314,0.57314223,0.54395115,-0.80962455,0.22051154,-0.64951175,-0.23986137,0.7215268,-0.53127366,-0.53570014,-0.6563334,,0.02446911,-0.022691391,0.17666696,-0.9903555,0.11730103,0.07373252,0.12492014,0.9861598,0.10901289,-0.059924718,0.11717223,-0.99130195,,-0.33892757765109105,-0.05596664513950502,0.10918780299000001,0.0,0.0,8.167874014056223e-05,-0.00016334406613427926,,-1.4636200570559033,0.1799473987023053,0.08948160241000001,-0.0077585279089274015,-0.017216198970445497,-0.001888698461660539,0.0021234728597456284
2.4171620960114524,,0.029187074,0.02978152,0.3305334,-0.71449023,-0.5601264,-0.41923994,-0.68230975,0.425274,0.59463894,-0.15478115,0.7109151,-0.6860338,,0.00022362731,-0.020393904,0.5731426,0.5439528,-0.80962455,0.22050738,-0.64950615,-0.23986131,0.7215319,-0.5312787,-0.5357002,-0.6563293,,0.02446911,-0.022691391,0.17666696,-0.9903555,0.11730103,0.07373252,0.12492014,0.9861598,0.10901289,-0.059924718,0.11717223,-0.99130195,,-0.33892757765109105,-0.05596664513950502,0.10918780299000001,0.0,0.0,8.167874014056223e-05,-0.00016334406613427926,,-1.4636200570559033,0.17995512143517953,0.08948160241000001,-0.0077585279089274015,-0.017216198970445497,-0.001888698461660539,0.0021234728597456284
2.4436348119634204,,0.02918663,0.029781852,0.33053398,-0.71448994,-0.5601235,-0.41924426,-0.6823099,0.42526913,0.59464216,-0.15478146,0.7109204,-0.6860283,,0.00022362731,-0.020393904,0.5731426,0.5439528,-0.80962455,0.22050738,-0.64950615,-0.23986131,0.7215319,-0.5312787,-0.5357002,-0.6563293,,0.02446911,-0.022691391,0.17666696,-0.9903555,0.11730103,0.07373252,0.12492014,0.9861598,0.10901289,-0.059924718,0.11717223,-0.99130195,,-0.33891985491821686,-0.05596664513950502,0.10918780299000001,0.0,0.0,8.167874014056223e-05,-0.00016334406613427926,,-1.4636200570559033,0.17995512143517953,0.08948160241000001,-0.0077585279089274015,-0.017216198970445497,-0.001888698461660539,0.0021234728597456284
2.469317150011193,,0.029187074,0.02978152,0.3305334,-0.71449023,-0.5601264,-0.41923994,-0.68230975,0.425274,0.59463894,-0.15478115,0.7109151,-0.6860338,,0.00022311322,-0.020394057,0.5731423,0.54395175,-0.8096269,0.2205012,-0.64950645,-0.23986599,0.72153014,-0.53127944,-0.53569454,-0.6563333,,0.02446911,-0.022691391,0.17666696,-0.9903555,0.11730103,0.07373252,0.12492014,0.9861598,0.10901289,-0.059924718,0.11717223,-0.99130195,,-0.33892757765109105,-0.05596664513950502,0.10918780299000001,0.0,0.0,8.167874014056223e-05,-0.00016334406613427926,,-1.4636123343230292,0.17995512143517953,0.08948160241000001,-0.0077585279089274015,-0.017216198970445497,-0.001888698461660539,0.0021234728597456284
2.4930985560058616,,0.029183667,0.029783413,0.33053246,-0.71449316,-0.5601477,-0.41920653,-0.6823051,0.42530218,0.59462404,-0.15478787,0.71088153,-0.68606704,,0.00021507032,-0.020357754,0.5731461,0.54394114,-0.809646,0.22045715,-0.6495185,-0.23990571,0.7215059,-0.53127545,-0.5356478,-0.6563746,,0.024450505,-0.022680327,0.17666775,-0.9903516,0.117331706,0.07373609,0.12495109,0.98615587,0.10901242,-0.059924662,0.11717406,-0.9913017,,-0.3389353003839653,-0.05596664513950502,0.10918780299000001,0.0,0.0,8.167874014056223e-05,-0.00016334406613427926,,-1.4636046115901549,0.17995512143517953,0.08948160241000001,-0.0077585279089274015,-0.017216198970445497,-0.001888698461660539,0.0021234728597456284
2.5183545500040054,,0.029183224,0.029783748,0.330533,-0.714493,-0.5601447,-0.41921082,-0.6823052,0.4252973,0.5946273,-0.15478818,0.7108867,-0.6860615,,0.00021507032,-0.020357754,0.5731461,0.54394114,-0.809646,0.22045715,-0.6495185,-0.23990571,0.7215059,-0.53127545,-0.5356478,-0.6563746,,0.024450505,-0.022680327,0.17666775,-0.9903516,0.117331706,0.07373609,0.12495109,0.98615587,0.10901242,-0.059924662,0.11717406,-0.9913017,,-0.33892757765109105,-0.05596664513950502,0.10918780299000001,0.0,0.0,8.167874014056223e-05,-0.00016334406613427926,,-1.4636046115901549,0.17995512143517953,0.08948160241000001,-0.0077585279089274015,-0.017216198970445497,-0.001888698461660539,0.0021234728597456284
2.547758131986484,,0.029183667,0.029783413,0.33053246,-0.71449316,-0.5601477,-0.41920653,-0.6823051,0.42530218,0.59462404,-0.15478787,0.71088153,-0.68606704,,0.00021558441,-0.020357601,0.57314646,0.5439422,-0.8096437,0.22046337,-0.6495182,-0.23990104,0.7215077,-0.53127474,-0.5356535,-0.6563706,,0.024450505,-0.022680327,0.17666775,-0.9903516,0.117331706,0.07373609,0.12495109,0.98615587,0.10901242,-0.059924662,0.11717406,-0.9913017,,-0.3389353003839653,-0.05596664513950502,0.10918780299000001,0.0,0.0,8.167874014056223e-05,-0.00016334406613427926,,-1.4636123343230292,0.17995512143517953,0.08948160241000001,-0.0077585279089274015,-0.017216198970445497,-0.001888698461660539,0.0021234728597456284
2.56995337898843,,0.029183224,0.029783748,0.330533,-0.714493,-0.56017894,-0.41916507,-0.6823052,0.4253459,0.5945926,-0.15478818,0.7108307,-0.6861196,,0.0002160985,-0.020357456,0.57314676,0.54394317,-0.8096413,0.22046956,-0.649518,-0.23989636,0.7215095,-0.5312741,-0.53565913,-0.65636647,,0.024450505,-0.022680327,0.17666775,-0.9903516,0.117331706,0.07373609,0.12495109,0.98615587,0.10901242,-0.059924662,0.11717406,-0.9913017,,-0.33892757765109105,-0.05596664513950502,0.10918780299000001,0.0,0.0,0.0,0.0,,-1.4636200570559033,0.17995512143517953,0.08948160241000001,-0.0077585279089274015,-0.017216198970445497,-0.001888698461660539,0.0021234728597456284
2.5936645689653233,,0.029182779,0.02978409,0.33053356,-0.71449274,-0.5601761,-0.41916943,-0.6823054,0.42534095,0.5945959,-0.1547885,0.71083593,-0.6861142,,0.0002160985,-0.020357456,0.57314676,0.54394317,-0.8096413,0.22046956,-0.649518,-0.23989636,0.7215095,-0.5312741,-0.53565913,-0.65636647,,0.024450505,-0.022680327,0.17666775,-0.9903516,0.117331706,0.07373609,0.12495109,0.98615587,0.10901242,-0.059924662,0.11717406,-0.9913017,,-0.33891985491821686,-0.05596664513950502,0.10918780299000001,0.0,0.0,0.0,0.0,,-1.4636200570559033,0.17995512143517953,0.08948160241000001,-0.0077585279089274015,-0.017216198970445497,-0.001888698461660539,0.0021234728597456284
2.6195529850083403,,0.029182779,0.02978409,0.33053356,-0.71449274,-0.56021035,-0.41912362,-0.6823054,0.42538953,0.5945611,-0.1547885,0.71077985,-0.6861722,,0.0002160985,-0.020357456,0.57314676,0.54394317,-0.8096413,0.22046956,-0.649518,-0.23989636,0.7215095,-0.5312741,-0.53565913,-0.65636647,,0.024450505,-0.022680327,0.17666775,-0.9903516,0.117331706,0.07373609,0.12495109,0.98615587,0.10901242,-0.059924662,0.11717406,-0.9913017,,-0.33891985491821686,-0.05596664513950502,0.10918780299000001,0.0,0.0,-8.167874014056223e-05,0.00016334406613427926,,-1.4636200570559033,0.17995512143517953,0.08948160241000001,-0.0077585279089274015,-0.017216198970445497,-0.001888698461660539,0.0021234728597456284
2.6436542659648694,,0.029183224,0.029783748,0.330533,-0.714493,-0.5602132,-0.41911933,-0.6823052,0.42539442,0.5945579,-0.15478818,0.71077466,-0.6861777,,0.00021558441,-0.020357601,0.57314646,0.5439422,-0.8096437,0.22046337,-0.6495182,-0.23990104,0.7215077,-0.53127474,-0.5356535,-0.6563706,,0.024450505,-0.022680327,0.17666775,-0.9903516,0.117331706,0.07373609,0.12495109,0.98615587,0.10901242,-0.059924662,0.11717406,-0.9913017,,-0.33892757765109105,-0.05596664513950502,0.10918780299000001,0.0,0.0,-8.167874014056223e-05,0.00016334406613427926,,-1.4636123343230292,0.17995512143517953,0.08948160241000001,-0.0077585279089274015,-0.017216198970445497,-0.001888698461660539,0.0021234728597456284
2.6710365539765917,,0.029183224,0.029783748,0.330533,-0.714493,-0.5602132,-0.41911933,-0.6823052,0.42539442,0.5945579,-0.15478818,0.71077466,-0.6861777,,0.00021507032,-0.020357754,0.5731461,0.54394114,-0.809646,0.22045715,-0.6495185,-0.23990571,0.7215059,-0.53127545,-0.5356478,-0.6563746,,0.024450505,-0.022680327,0.17666775,-0.9903516,0.117331706,0.07373609,0.12495109,0.98615587,0.10901242,-0.059924662,0.11717406,-0.9913017,,-0.33892757765109105,-0.05596664513950502,0.10918780299000001,0.0,0.0,-8.167874014056223e-05,0.00016334406613427926,,-1.4636046115901549,0.17995512143517953,0.08948160241000001,-0.0077585279089274015,-0.017216198970445497,-0.001888698461660539,0.0021234728597456284
2.699295597965829,,0.029183667,0.029783413,0.33053246,-0.71449316,-0.56021607,-0.419115,-0.6823051,0.4253993,0.59455454,-0.15478787,0.7107695,-0.68618315,,0.00021507032,-0.020357754,0.5731461,0.54394114,-0.809646,0.22045715,-0.6495185,-0.23990571,0.7215059,-0.53127545,-0.5356478,-0.6563746,,0.024450505,-0.022680327,0.17666775,-0.9903516,0.117331706,0.07373609,0.12495109,0.98615587,0.10901242,-0.059924662,0.11717406,-0.9913017,,-0.3389353003839653,-0.05596664513950502,0.10918780299000001,0.0,0.0,-8.167874014056223e-05,0.00016334406613427926,,-1.4636046115901549,0.17995512143517953,0.08948160241000001,-0.0077585279089274015,-0.017216198970445497,-0.001888698461660539,0.0021234728597456284
2.7222956069745123,,0.029183667,0.029783413,0.33053246,-0.71449316,-0.56021607,-0.419115,-0.6823051,0.4253993,0.59455454,-0.15478787,0.7107695,-0.68618315,,0.00021558441,-0.020357601,0.57314646,0.5439422,-0.8096437,0.22046337,-0.6495182,-0.23990104,0.7215077,-0.53127474,-0.5356535,-0.6563706,,0.024450505,-0.022680327,0.17666775,-0.9903516,0.117331706,0.07373609,0.12495109,0.98615587,0.10901242,-0.059924662,0.11717406,-0.9913017,,-0.3389353003839653,-0.05596664513950502,0.10918780299000001,0.0,0.0,-8.167874014056223e-05,0.00016334406613427926,,-1.4636123343230292,0.17995512143517953,0.08948160241000001,-0.0077585279089274015,-0.017216198970445497,-0.001888698461660539,0.0021234728597456284
2.7497995339799672,,0.029183667,0.029783413,0.33053246,-0.71449316,-0.56021607,-0.419115,-0.6823051,0.4253993,0.59455454,-0.15478787,0.7107695,-0.68618315,,0.0002160985,-0.020357456,0.57314676,0.54394317,-0.8096413,0.22046956,-0.649518,-0.23989636,0.7215095,-0.5312741,-0.53565913,-0.65636647,,0.024450505,-0.022680327,0.17666775,-0.9903516,0.117331706,0.07373609,0.12495109,0.98615587,0.10901242,-0.059924662,0.11717406,-0.9913017,,-0.3389353003839653,-0.05596664513950502,0.10918780299000001,0.0,0.0,-8.167874014056223e-05,0.00016334406613427926,,-1.4636200570559033,0.17995512143517953,0.08948160241000001,-0.0077585279089274015,-0.017216198970445497,-0.001888698461660539,0.0021234728597456284
2.773788379970938,,0.029182779,0.02978409,0.33053356,-0.71449274,-0.56021035,-0.41912362,-0.6823054,0.42538953,0.5945611,-0.1547885,0.71077985,-0.6861722,,0.0002160985,-0.020357456,0.57314676,0.54394317,-0.8096413,0.22046956,-0.649518,-0.23989636,0.7215095,-0.5312741,-0.53565913,-0.65636647,,0.024450505,-0.022680327,0.17666775,-0.9903516,0.117331706,0.07373609,0.12495109,0.98615587,0.10901242,-0.059924662,0.11717406,-0.9913017,,-0.33891985491821686,-0.05596664513950502,0.10918780299000001,0.0,0.0,-8.167874014056223e-05,0.00016334406613427926,,-1.4636200570559033,0.17995512143517953,0.08948160241000001,-0.0077585279089274015,-0.017216198970445497,-0.001888698461660539,0.0021234728597456284
2.801393357978668,,0.029183224,0.029783748,0.330533,-0.714493,-0.5602132,-0.41911933,-0.6823052,0.42539442,0.5945579,-0.15478818,0.71077466,-0.6861777,,0.00021558441,-0.020357601,0.57314646,0.5439422,-0.8096437,0.22046337,-0.6495182,-0.23990104,0.7215077,-0.53127474,-0.5356535,-0.6563706,,0.024450505,-0.022680327,0.17666775,-0.9903516,0.117331706,0.07373609,0.12495109,0.98615587,0.10901242,-0.059924662,0.11717406,-0.9913017,,-0.33892757765109105,-0.05596664513950502,0.10918780299000001,0.0,0.0,-8.167874014056223e-05,0.00016334406613427926,,-1.4636123343230292,0.17995512143517953,0.08948160241000001,-0.0077585279089274015,-0.017216198970445497,-0.001888698461660539,0.0021234728597456284
2.8225803559762426,,0.029183667,0.029783413,0.33053246,-0.71449316,-0.56021607,-0.419115,-0.6823051,0.4253993,0.59455454,-0.15478787,0.7107695,-0.68618315,,0.00021558441,-0.020357601,0.57314646,0.5439422,-0.8096437,0.22046337,-0.6495182,-0.23990104,0.7215077,-0.53127474,-0.5356535,-0.6563706,,0.024450505,-0.022680327,0.17666775,-0.9903516,0.117331706,0.07373609,0.12495109,0.98615587,0.10901242,-0.059924662,0.11717406,-0.9913017,,-0.3389353003839653,-0.05596664513950502,0.10918780299000001,0.0,0.0,-8.167874014056223e-05,0.00016334406613427926,,-1.4636123343230292,0.17995512143517953,0.08948160241000001,-0.0077585279089274015,-0.017216198970445497,-0.001888698461660539,0.0021234728597456284
2.8515424099750817,,0.0291831,0.029782865,0.3305323,-0.7144899,-0.56021607,-0.41912055,-0.6823096,0.4253993,0.59454936,-0.15478256,0.7107695,-0.6861844,,0.00021507032,-0.020357754,0.5731461,0.54394114,-0.809646,0.22045715,-0.6495185,-0.23990571,0.7215059,-0.53127545,-0.5356478,-0.6563746,,0.024450505,-0.022680327,0.17666775,-0.9903516,0.117331706,0.07373609,0.12495109,0.98615587,0.10901242,-0.059924662,0.11717406,-0.9913017,,-0.3389353003839653,-0.05597436787237925,0.10918780299000001,0.0,0.0,-8.167874014056223e-05,0.00016334406613427926,,-1.4636046115901549,0.17995512143517953,0.08948160241000001,-0.0077585279089274015,-0.017216198970445497,-0.001888698461660539,0.0021234728597456284
2.8762068229843862,,0.029183224,0.029783748,0.330533,-0.714493,-0.5602132,-0.41911933,-0.6823052,0.42539442,0.5945579,-0.15478818,0.71077466,-0.6861777,,0.00021507032,-0.020357754,0.5731461,0.54394114,-0.809646,0.22045715,-0.6495185,-0.23990571,0.7215059,-0.53127545,-0.5356478,-0.6563746,,0.024450505,-0.022680327,0.17666775,-0.9903516,0.117331706,0.07373609,0.12495109,0.98615587,0.10901242,-0.059924662,0.11717406,-0.9913017,,-0.33892757765109105,-0.05596664513950502,0.10918780299000001,0.0,0.0,-8.167874014056223e-05,0.00016334406613427926,,-1.4636046115901549,0.17995512143517953,0.08948160241000001,-0.0077585279089274015,-0.017216198970445497,-0.001888698461660539,0.0021234728597456284
2.9023795690154657,,0.029183224,0.029783748,0.330533,-0.714493,-0.5602132,-0.41911933,-0.6823052,0.42539442,0.5945579,-0.15478818,0.71077466,-0.6861777,,0.00021507032,-0.020357754,0.5731461,0.54394114,-0.809646,0.22045715,-0.6495185,-0.23990571,0.7215059,-0.53127545,-0.5356478,-0.6563746,,0.024450505,-0.022680327,0.17666775,-0.9903516,0.117331706,0.07373609,0.12495109,0.98615587,0.10901242,-0.059924662,0.11717406,-0.9913017,,-0.33892757765109105,-0.05596664513950502,0.10918780299000001,0.0,0.0,-8.167874014056223e-05,0.00016334406613427926,,-1.4636046115901549,0.17995512143517953,0.08948160241000001,-0.0077585279089274015,-0.017216198970445497,-0.001888698461660539,0.0021234728597456284
2.923889024008531,,0.029183224,0.029783748,0.330533,-0.714493,-0.5602132,-0.41911933,-0.6823052,0.42539442,0.5945579,-0.15478818,0.71077466,-0.6861777,,0.00021558441,-0.020357601,0.57314646,0.5439422,-0.8096437,0.22046337,-0.6495182,-0.23990104,0.7215077,-0.53127474,-0.5356535,-0.6563706,,0.024450505,-0.022680327,0.17666775,-0.9903516,0.117331706,0.07373609,0.12495109,0.98615587,0.10901242,-0.059924662,0.11717406,-0.9913017,,-0.33892757765109105,-0.05596664513950502,0.10918780299000001,0.0,0.0,-8.167874014056223e-05,0.00016334406613427926,,-1.4636123343230292,0.17995512143517953,0.08948160241000001,-0.0077585279089274015,-0.017216198970445497,-0.001888698461660539,0.0021234728597456284
2.952320566982962,,0.029183667,0.029783413,0.33053246,-0.71449316,-0.56021607,-0.419115,-0.6823051,0.4253993,0.59455454,-0.15478787,0.7107695,-0.68618315,,0.0002160985,-0.020357456,0.57314676,0.54394317,-0.8096413,0.22046956,-0.649518,-0.23989636,0.7215095,-0.5312741,-0.53565913,-0.65636647,,0.024450505,-0.022680327,0.17666775,-0.9903516,0.117331706,0.07373609,0.12495109,0.98615587,0.10901242,-0.059924662,0.11717406,-0.9913017,,-0.3389353003839653,-0.05596664513950502,0.10918780299000001,0.0,0.0,-8.167874014056223e-05,0.00016334406613427926,,-1.4636200570559033,0.17995512143517953,0.08948160241000001,-0.0077585279089274015,-0.017216198970445497,-0.001888698461660539,0.0021234728597456284
2.97785737097729,,0.029183667,0.029783413,0.33053246,-0.71449316,-0.56021607,-0.419115,-0.6823051,0.4253993,0.59455454,-0.15478787,0.7107695,-0.68618315,,0.0002160985,-0.020357456,0.57314676,0.54394317,-0.8096413,0.22046956,-0.649518,-0.23989636,0.7215095,-0.5312741,-0.53565913,-0.65636647,,0.024450505,-0.022680327,0.17666775,-0.9903516,0.117331706,0.07373609,0.12495109,0.98615587,0.10901242,-0.059924662,0.11717406,-0.9913017,,-0.3389353003839653,-0.05596664513950502,0.10918780299000001,0.0,0.0,-8.167874014056223e-05,0.00016334406613427926,,-1.4636200570559033,0.17995512143517953,0.08948160241000001,-0.0077585279089274015,-0.017216198970445497,-0.001888698461660539,0.0021234728597456284
3.0038695089751855,,0.029183224,0.029783748,0.330533,-0.714493,-0.5602132,-0.41911933,-0.6823052,0.42539442,0.5945579,-0.15478818,0.71077466,-0.6861777,,0.00021558441,-0.020357601,0.57314646,0.5439422,-0.8096437,0.22046337,-0.6495182,-0.23990104,0.7215077,-0.53127474,-0.5356535,-0.6563706,,0.024450505,-0.022680327,0.17666775,-0.9903516,0.117331706,0.07373609,0.12495109,0.98615587,0.10901242,-0.059924662,0.11717406,-0.9913017,,-0.33892757765109105,-0.05596664513950502,0.10918780299000001,0.0,0.0,-8.167874014056223e-05,0.00016334406613427926,,-1.4636123343230292,0.17995512143517953,0.08948160241000001,-0.0077585279089274015,-0.017216198970445497,-0.001888698461660539,0.0021234728597456284
3.0295709769707173,,0.029183667,0.029783413,0.33053246,-0.71449316,-0.56021607,-0.419115,-0.6823051,0.4253993,0.59455454,-0.15478787,0.7107695,-0.68618315,,0.00021507032,-0.020357754,0.5731461,0.54394114,-0.809646,0.22045715,-0.6495185,-0.23990571,0.7215059,-0.53127545,-0.5356478,-0.6563746,,0.024450505,-0.022680327,0.17666775,-0.9903516,0.117331706,0.07373609,0.12495109,0.98615587,0.10901242,-0.059924662,0.11717406,-0.9913017,,-0.3389353003839653,-0.05596664513950502,0.10918780299000001,0.0,0.0,-8.167874014056223e-05,0.00016334406613427926,,-1.4636046115901549,0.17995512143517953,0.08948160241000001,-0.0077585279089274015,-0.017216198970445497,-0.001888698461660539,0.0021234728597456284
3.0543435349827632,,0.029182779,0.02978409,0.33053356,-0.71449274,-0.56021035,-0.41912362,-0.6823054,0.42538953,0.5945611,-0.1547885,0.71077985,-0.6861722,,0.00021507032,-0.020357754,0.5731461,0.54394114,-0.809646,0.22045715,-0.6495185,-0.23990571,0.7215059,-0.53127545,-0.5356478,-0.6563746,,0.024450505,-0.022680327,0.17666775,-0.9903516,0.117331706,0.07373609,0.12495109,0.98615587,0.10901242,-0.059924662,0.11717406,-0.9913017,,-0.33891985491821686,-0.05596664513950502,0.10918780299000001,0.0,0.0,-8.167874014056223e-05,0.00016334406613427926,,-1.4636046115901549,0.17995512143517953,0.08948160241000001,-0.0077585279089274015,-0.017216198970445497,-0.001888698461660539,0.0021234728597456284
3.083056380972266,,0.029183224,0.029783748,0.330533,-0.714493,-0.5602132,-0.41911933,-0.6823052,0.42539442,0.5945579,-0.15478818,0.71077466,-0.6861777,,0.00021507032,-0.020357754,0.5731461,0.54394114,-0.809646,0.22045715,-0.6495185,-0.23990571,0.7215059,-0.53127545,-0.5356478,-0.6563746,,0.024450505,-0.022680327,0.17666775,-0.9903516,0.117331706,0.07373609,0.12495109,0.98615587,0.10901242,-0.059924662,0.11717406,-0.9913017,,-0.33892757765109105,-0.05596664513950502,0.10918780299000001,0.0,0.0,-8.167874014056223e-05,0.00016334406613427926,,-1.4636046115901549,0.17995512143517953,0.08948160241000001,-0.0077585279089274015,-0.017216198970445497,-0.001888698461660539,0.0021234728597456284
3.106023550964892,,0.029183667,0.029783413,0.33053246,-0.71449316,-0.56021607,-0.419115,-0.6823051,0.4253993,0.59455454,-0.15478787,0.7107695,-0.68618315,,0.0002160985,-0.020357456,0.57314676,0.54394317,-0.8096413,0.22046956,-0.649518,-0.23989636,0.7215095,-0.5312741,-0.53565913,-0.65636647,,0.024450505,-0.022680327,0.17666775,-0.9903516,0.117331706,0.07373609,0.12495109,0.98615587,0.10901242,-0.059924662,0.11717406,-0.9913017,,-0.3389353003839653,-0.05596664513950502,0.10918780299000001,0.0,0.0,-8.167874014056223e-05,0.00016334406613427926,,-1.4636200570559033,0.17995512143517953,0.08948160241000001,-0.0077585279089274015,-0.017216198970445497,-0.001888698461660539,0.0021234728597456284
3.1345219669747166,,0.029182779,0.02978409,0.33053356,-0.71449274,-0.56021035,-0.41912362,-0.6823054,0.42538953,0.5945611,-0.1547885,0.71077985,-0.6861722,,0.0002160985,-0.020357456,0.57314676,0.54394317,-0.8096413,0.22046956,-0.649518,-0.23989636,0.7215095,-0.5312741,-0.53565913,-0.65636647,,0.024450505,-0.022680327,0.17666775,-0.9903516,0.117331706,0.07373609,0.12495109,0.98615587,0.10901242,-0.059924662,0.11717406,-0.9913017,,-0.33891985491821686,-0.05596664513950502,0.10918780299000001,0.0,0.0,-8.167874014056223e-05,0.00016334406613427926,,-1.4636200570559033,0.17995512143517953,0.08948160241000001,-0.0077585279089274015,-0.017216198970445497,-0.001888698461660539,0.0021234728597456284
3.1578375449753366,,0.029183224,0.029783748,0.330533,-0.714493,-0.5602132,-0.41911933,-0.6823052,0.42539442,0.5945579,-0.15478818,0.71077466,-0.6861777,,0.0002160985,-0.020357456,0.57314676,0.54394317,-0.8096413,0.22046956,-0.649518,-0.23989636,0.7215095,-0.5312741,-0.53565913,-0.65636647,,0.024450505,-0.022680327,0.17666775,-0.9903516,0.117331706,0.07373609,0.12495109,0.98615587,0.10901242,-0.059924662,0.11717406,-0.9913017,,-0.33892757765109105,-0.05596664513950502,0.10918780299000001,0.0,0.0,-8.167874014056223e-05,0.00016334406613427926,,-1.4636200570559033,0.17995512143517953,0.08948160241000001,-0.0077585279089274015,-0.017216198970445497,-0.001888698461660539,0.0021234728597456284
3.1865078730043024,,0.029183667,0.029783413,0.33053246,-0.71449316,-0.56021607,-0.419115,-0.6823051,0.4253993,0.59455454,-0.15478787,0.7107695,-0.68618315,,0.0002160985,-0.020357456,0.57314676,0.54394317,-0.8096413,0.22046956,-0.649518,-0.23989636,0.7215095,-0.5312741,-0.53565913,-0.65636647,,0.024450505,-0.022680327,0.17666775,-0.9903516,0.117331706,0.07373609,0.12495109,0.98615587,0.10901242,-0.059924662,0.11717406,-0.9913017,,-0.3389353003839653,-0.05596664513950502,0.10918780299000001,0.0,0.0,-8.167874014056223e-05,0.00016334406613427926,,-1.4636200570559033,0.17995512143517953,0.08948160241000001,-0.0077585279089274015,-0.017216198970445497,-0.001888698461660539,0.0021234728597456284
3.2111620439682156,,0.029183224,0.029783748,0.330533,-0.714493,-0.5602132,-0.41911933,-0.6823052,0.42539442,0.5945579,-0.15478818,0.71077466,-0.6861777,,0.0002160985,-0.020357456,0.57314676,0.54394317,-0.8096413,0.22046956,-0.649518,-0.23989636,0.7215095,-0.5312741,-0.53565913,-0.65636647,,0.024450505,-0.022680327,0.17666775,-0.9903516,0.117331706,0.07373609,0.12495109,0.98615587,0.10901242,-0.059924662,0.11717406,-0.9913017,,-0.33892757765109105,-0.05596664513950502,0.10918780299000001,0.0,0.0,-8.167874014056223e-05,0.00016334406613427926,,-1.4636200570559033,0.17995512143517953,0.08948160241000001,-0.0077585279089274015,-0.017216198970445497,-0.001888698461660539,0.0021234728597456284
3.236812345974613,,0.029183667,0.029783413,0.33053246,-0.71449316,-0.56021607,-0.419115,-0.6823051,0.4253993,0.59455454,-0.15478787,0.7107695,-0.68618315,,0.0002160985,-0.020357456,0.57314676,0.54394317,-0.8096413,0.22046956,-0.649518,-0.23989636,0.7215095,-0.5312741,-0.53565913,-0.65636647,,0.024450505,-0.022680327,0.17666775,-0.9903516,0.117331706,0.07373609,0.12495109,0.98615587,0.10901242,-0.059924662,0.11717406,-0.9913017,,-0.3389353003839653,-0.05596664513950502,0.10918780299000001,0.0,0.0,-8.167874014056223e-05,0.00016334406613427926,,-1.4636200570559033,0.17995512143517953,0.08948160241000001,-0.0077585279089274015,-0.017216198970445497,-0.001888698461660539,0.0021234728597456284
3.2606620169826783,,0.029183667,0.029783413,0.33053246,-0.71449316,-0.56021607,-0.419115,-0.6823051,0.4253993,0.59455454,-0.15478787,0.7107695,-0.68618315,,0.0002160985,-0.020357456,0.57314676,0.54394317,-0.8096413,0.22046956,-0.649518,-0.23989636,0.7215095,-0.5312741,-0.53565913,-0.65636647,,0.024450505,-0.022680327,0.17666775,-0.9903516,0.117331706,0.07373609,0.12495109,0.98615587,0.10901242,-0.059924662,0.11717406,-0.9913017,,-0.3389353003839653,-0.05596664513950502,0.10918780299000001,0.0,0.0,-8.167874014056223e-05,0.00016334406613427926,,-1.4636200570559033,0.17995512143517953,0.08948160241000001,-0.0077585279089274015,-0.017216198970445497,-0.001888698461660539,0.0021234728597456284
3.286245969007723,,0.029183667,0.029783413,0.33053246,-0.71449316,-0.56021607,-0.419115,-0.6823051,0.4253993,0.59455454,-0.15478787,0.7107695,-0.68618315,,0.0002160985,-0.020357456,0.57314676,0.54394317,-0.8096413,0.22046956,-0.649518,-0.23989636,0.7215095,-0.5312741,-0.53565913,-0.65636647,,0.024450505,-0.022680327,0.17666775,-0.9903516,0.117331706,0.07373609,0.12495109,0.98615587,0.10901242,-0.059924662,0.11717406,-0.9913017,,-0.3389353003839653,-0.05596664513950502,0.10918780299000001,0.0,0.0,-8.167874014056223e-05,0.00016334406613427926,,-1.4636200570559033,0.17995512143517953,0.08948160241000001,-0.0077585279089274015,-0.017216198970445497,-0.001888698461660539,0.0021234728597456284
3.313305577961728,,0.029183667,0.029783413,0.33053246,-0.71449316,-0.56021607,-0.419115,-0.6823051,0.4253993,0.59455454,-0.15478787,0.7107695,-0.68618315,,0.0002160985,-0.020357456,0.57314676,0.54394317,-0.8096413,0.22046956,-0.649518,-0.23989636,0.7215095,-0.5312741,-0.53565913,-0.65636647,,0.024450505,-0.022680327,0.17666775,-0.9903516,0.117331706,0.07373609,0.12495109,0.98615587,0.10901242,-0.059924662,0.11717406,-0.9913017,,-0.3389353003839653,-0.05596664513950502,0.10918780299000001,0.0,0.0,-8.167874014056223e-05,0.00016334406613427926,,-1.4636200570559033,0.17995512143517953,0.08948160241000001,-0.0077585279089274015,-0.017216198970445497,-0.001888698461660539,0.0021234728597456284
3.3380540210055187,,0.029183667,0.029783413,0.33053246,-0.71449316,-0.56021607,-0.419115,-0.6823051,0.4253993,0.59455454,-0.15478787,0.7107695,-0.68618315,,0.0002160985,-0.020357456,0.57314676,0.54394317,-0.8096413,0.22046956,-0.649518,-0.23989636,0.7215095,-0.5312741,-0.53565913,-0.65636647,,0.024450505,-0.022680327,0.17666775,-0.9903516,0.117331706,0.07373609,0.12495109,0.98615587,0.10901242,-0.059924662,0.11717406,-0.9913017,,-0.3389353003839653,-0.05596664513950502,0.10918780299000001,0.0,0.0,-8.167874014056223e-05,0.00016334406613427926,,-1.4636200570559033,0.17995512143517953,0.08948160241000001,-0.0077585279089274015,-0.017216198970445497,-0.001888698461660539,0.0021234728597456284
3.367767804011237,,0.029183224,0.029783748,0.330533,-0.714493,-0.5602132,-0.41911933,-0.6823052,0.42539442,0.5945579,-0.15478818,0.71077466,-0.6861777,,0.0002160985,-0.020357456,0.57314676,0.54394317,-0.8096413,0.22046956,-0.649518,-0.23989636,0.7215095,-0.5312741,-0.53565913,-0.65636647,,0.024450505,-0.022680327,0.17666775,-0.9903516,0.117331706,0.07373609,0.12495109,0.98615587,0.10901242,-0.059924662,0.11717406,-0.9913017,,-0.33892757765109105,-0.05596664513950502,0.10918780299000001,0.0,0.0,-8.167874014056223e-05,0.00016334406613427926,,-1.4636200570559033,0.17995512143517953,0.08948160241000001,-0.0077585279089274015,-0.017216198970445497,-0.001888698461660539,0.0021234728597456284
3.390037844015751,,0.029183667,0.029783413,0.33053246,-0.71449316,-0.56021607,-0.419115,-0.6823051,0.4253993,0.59455454,-0.15478787,0.7107695,-0.68618315,,0.0002160985,-0.020357456,0.57314676,0.54394317,-0.8096413,0.22046956,-0.649518,-0.23989636,0.7215095,-0.5312741,-0.53565913,-0.65636647,,0.024450505,-0.022680327,0.17666775,-0.9903516,0.117331706,0.07373609,0.12495109,0.98615587,0.10901242,-0.059924662,0.11717406,-0.9913017,,-0.3389353003839653,-0.05596664513950502,0.10918780299000001,0.0,0.0,-8.167874014056223e-05,0.00016334406613427926,,-1.4636200570559033,0.17995512143517953,0.08948160241000001,-0.0077585279089274015,-0.017216198970445497,-0.001888698461660539,0.0021234728597456284
3.4145589339896105,,0.029183667,0.029783413,0.33053246,-0.71449316,-0.56021607,-0.419115,-0.6823051,0.4253993,0.59455454,-0.15478787,0.7107695,-0.68618315,,0.0002160985,-0.020357456,0.57314676,0.54394317,-0.8096413,0.22046956,-0.649518,-0.23989636,0.7215095,-0.5312741,-0.53565913,-0.65636647,,0.024450505,-0.022680327,0.17666775,-0.9903516,0.117331706,0.07373609,0.12495109,0.98615587,0.10901242,-0.059924662,0.11717406,-0.9913017,,-0.3389353003839653,-0.05596664513950502,0.10918780299000001,0.0,0.0,-8.167874014056223e-05,0.00016334406613427926,,-1.4636200570559033,0.17995512143517953,0.08948160241000001,-0.0077585279089274015,-0.017216198970445497,-0.001888698461660539,0.0021234728597456284
3.4416141739930026,,0.029183667,0.029783413,0.33053246,-0.71449316,-0.56021607,-0.419115,-0.6823051,0.4253993,0.59455454,-0.15478787,0.7107695,-0.68618315,,0.0002160985,-0.020357456,0.57314676,0.54394317,-0.8096413,0.22046956,-0.649518,-0.23989636,0.7215095,-0.5312741,-0.53565913,-0.65636647,,0.024450505,-0.022680327,0.17666775,-0.9903516,0.117331706,0.07373609,0.12495109,0.98615587,0.10901242,-0.059924662,0.11717406,-0.9913017,,-0.3389353003839653,-0.05596664513950502,0.10918780299000001,0.0,0.0,-8.167874014056223e-05,0.00016334406613427926,,-1.4636200570559033,0.17995512143517953,0.08948160241000001,-0.0077585279089274015,-0.017216198970445497,-0.001888698461660539,0.0021234728597456284
3.468759390001651,,0.029183667,0.029783413,0.33053246,-0.71449316,-0.56021607,-0.419115,-0.6823051,0.4253993,0.59455454,-0.15478787,0.7107695,-0.68618315,,0.0002160985,-0.020357456,0.57314676,0.54394317,-0.8096413,0.22046956,-0.649518,-0.23989636,0.7215095,-0.5312741,-0.53565913,-0.65636647,,0.024450505,-0.022680327,0.17666775,-0.9903516,0.117331706,0.07373609,0.12495109,0.98615587,0.10901242,-0.059924662,0.11717406,-0.9913017,,-0.3389353003839653,-0.05596664513950502,0.10918780299000001,0.0,0.0,-8.167874014056223e-05,0.00016334406613427926,,-1.4636200570559033,0.17995512143517953,0.08948160241000001,-0.0077585279089274015,-0.017216198970445497,-0.001888698461660539,0.0021234728597456284
3.4907842929824255,,0.029183224,0.029783748,0.330533,-0.714493,-0.5602132,-0.41911933,-0.6823052,0.42539442,0.5945579,-0.15478818,0.71077466,-0.6861777,,0.0002160985,-0.020357456,0.57314676,0.54394317,-0.8096413,0.22046956,-0.649518,-0.23989636,0.7215095,-0.5312741,-0.53565913,-0.65636647,,0.024450505,-0.022680327,0.17666775,-0.9903516,0.117331706,0.07373609,0.12495109,0.98615587,0.10901242,-0.059924662,0.11717406,-0.9913017,,-0.33892757765109105,-0.05596664513950502,0.10918780299000001,0.0,0.0,-8.167874014056223e-05,0.00016334406613427926,,-1.4636200570559033,0.17995512143517953,0.08948160241000001,-0.0077585279089274015,-0.017216198970445497,-0.001888698461660539,0.0021234728597456284
3.5188654820085503,,0.029183224,0.029783748,0.330533,-0.714493,-0.5602132,-0.41911933,-0.6823052,0.42539442,0.5945579,-0.15478818,0.71077466,-0.6861777,,0.0002160985,-0.020357456,0.57314676,0.54394317,-0.8096413,0.22046956,-0.649518,-0.23989636,0.7215095,-0.5312741,-0.53565913,-0.65636647,,0.024450505,-0.022680327,0.17666775,-0.9903516,0.117331706,0.07373609,0.12495109,0.98615587,0.10901242,-0.059924662,0.11717406,-0.9913017,,-0.33892757765109105,-0.05596664513950502,0.10918780299000001,0.0,0.0,-8.167874014056223e-05,0.00016334406613427926,,-1.4636200570559033,0.17995512143517953,0.08948160241000001,-0.0077585279089274015,-0.017216198970445497,-0.001888698461660539,0.0021234728597456284
3.546924925001804,,0.029183224,0.029783748,0.330533,-0.714493,-0.5602132,-0.41911933,-0.6823052,0.42539442,0.5945579,-0.15478818,0.71077466,-0.6861777,,0.0002160985,-0.020357456,0.57314676,0.54394317,-0.8096413,0.22046956,-0.649518,-0.23989636,0.7215095,-0.5312741,-0.53565913,-0.65636647,,0.024450505,-0.022680327,0.17666775,-0.9903516,0.117331706,0.07373609,0.12495109,0.98615587,0.10901242,-0.059924662,0.11717406,-0.9913017,,-0.33892757765109105,-0.05596664513950502,0.10918780299000001,0.0,0.0,-8.167874014056223e-05,0.00016334406613427926,,-1.4636200570559033,0.17995512143517953,0.08948160241000001,-0.0077585279089274015,-0.017216198970445497,-0.001888698461660539,0.0021234728597456284
3.571398974978365,,0.029182779,0.02978409,0.33053356,-0.71449274,-0.56021035,-0.41912362,-0.6823054,0.42538953,0.5945611,-0.1547885,0.71077985,-0.6861722,,0.0002160985,-0.020357456,0.57314676,0.54394317,-0.8096413,0.22046956,-0.649518,-0.23989636,0.7215095,-0.5312741,-0.53565913,-0.65636647,,0.024450505,-0.022680327,0.17666775,-0.9903516,0.117331706,0.07373609,0.12495109,0.98615587,0.10901242,-0.059924662,0.11717406,-0.9913017,,-0.33891985491821686,-0.05596664513950502,0.10918780299000001,0.0,0.0,-8.167874014056223e-05,0.00016334406613427926,,-1.4636200570559033,0.17995512143517953,0.08948160241000001,-0.0077585279089274015,-0.017216198970445497,-0.001888698461660539,0.0021234728597456284
3.5986601659678854,,0.029182779,0.02978409,0.33053356,-0.71449274,-0.56021035,-0.41912362,-0.6823054,0.42538953,0.5945611,-0.1547885,0.71077985,-0.6861722,,0.0002160985,-0.020357456,0.57314676,0.54394317,-0.8096413,0.22046956,-0.649518,-0.23989636,0.7215095,-0.5312741,-0.53565913,-0.65636647,,0.024450505,-0.022680327,0.17666775,-0.9903516,0.117331706,0.07373609,0.12495109,0.98615587,0.10901242,-0.059924662,0.11717406,-0.9913017,,-0.33891985491821686,-0.05596664513950502,0.10918780299000001,0.0,0.0,-8.167874014056223e-05,0.00016334406613427926,,-1.4636200570559033,0.17995512143517953,0.08948160241000001,-0.0077585279089274015,-0.017216198970445497,-0.001888698461660539,0.0021234728597456284
3.6225535279954784,,0.029194035,0.02976846,0.33054227,-0.71448255,-0.56020546,-0.41914698,-0.6823199,0.42538387,0.5945487,-0.15477107,0.7107871,-0.6861687,,0.00013542548,-0.020403184,0.57313275,0.54388714,-0.80965537,0.22055574,-0.64955497,-0.23979524,0.72150993,-0.5312862,-0.53568304,-0.6563372,,0.02452164,-0.02271229,0.1766753,-0.99036324,0.11723921,0.07372531,0.12485777,0.9861676,0.10901382,-0.059924822,0.1171685,-0.9913024,,-0.33891985491821686,-0.05596664513950502,0.10918780299000001,0.0,0.0,-8.167874014056223e-05,0.00016334406613427926,,-1.4636200570559033,0.17995512143517953,0.08948160241000001,-0.0077585279089274015,-0.017216198970445497,-0.001888698461660539,0.0021234728597456284
3.651147399970796,,0.029194478,0.029768132,0.33054173,-0.7144829,-0.56020844,-0.41914272,-0.6823197,0.42538875,0.5945454,-0.15477078,0.7107819,-0.68617415,,0.00013542548,-0.020403184,0.57313275,0.54388714,-0.80965537,0.22055574,-0.64955497,-0.23979524,0.72150993,-0.5312862,-0.53568304,-0.6563372,,0.02452164,-0.02271229,0.1766753,-0.99036324,0.11723921,0.07372531,0.12485777,0.9861676,0.10901382,-0.059924822,0.1171685,-0.9913024,,-0.33892757765109105,-0.05596664513950502,0.10918780299000001,0.0,0.0,-8.167874014056223e-05,0.00016334406613427926,,-1.4636200570559033,0.17995512143517953,0.08948160241000001,-0.0077585279089274015,-0.017216198970445497,-0.001888698461660539,0.0021234728597456284
