AlexandreBanks6/ExpertPlaybackApp/resources/Motions/Motion_SecondBest.csv
Time,si_T_psm1,Tx,Ty,Tz,R00,R01,R02,R10,R11,R12,R20,R21,R22,si_T_psm3,Tx,Ty,Tz,R00,R01,R02,R10,R11,R12,R20,R21,R22,si_T_ecm,Tx,Ty,Tz,R00,R01,R02,R10,R11,R12,R20,R21,R22,joint_vars_psm1,q1,q2,q3,q4,q5,q6,jaw,joint_vars_psm3,q1,q2,q3,q4,q5,q6,jaw
lci_T_si
,,-0.039814696,0.038520727,0.34320205,0.9997607,-0.021756286,-0.0022762395,-0.021836635,-0.99875087,-0.044942643,-0.001295611,0.044981595,-0.99898696
rci_T_si
,,-0.048280437,0.0406009,0.45419854,0.9982469,-0.033235703,-0.04897468,-0.03489551,-0.9988315,-0.03343492,-0.047806222,0.0350853,-0.99824023
ecm_T_lc
,,0.15482447,0.9507957,-4.577456,-0.99988085,0.015432724,0.00034810763,-0.015051688,-0.97970253,0.19989099,0.0034259045,0.19986194,0.97981805
ecm_T_rc
,,-0.008239545,0.013894887,-0.24892122,-0.99980205,-0.018179558,0.00808652,0.017913941,-0.9993341,-0.031788383,0.008659034,-0.031637233,0.9994619
0.026639688000159367,,0.18641129,-1.5682348,-3.9727364,-0.5811815,-0.64531165,-0.4957832,-0.8061888,0.53956145,0.2427609,0.11084897,0.54078305,-0.8338262,,0.13452858,-1.5160655,-3.6887739,0.30552873,-0.9396461,0.15400495,-0.875533,-0.34081262,-0.34247425,0.37429136,-0.030200679,-0.9268192,,0.18005978,-1.6303421,-4.0294094,-0.9999795,0.006011908,-0.0022135698,0.0062831366,0.98779786,-0.15561408,0.0012510212,-0.15562476,-0.9878154,,-0.20919338809699353,-0.11125368978607829,0.15482758131000002,-0.00020968994348452436,0.0009564554983580831,0.0006902919966551704,0.0,,-1.5062958789188678,0.04091503876764145,0.0753274119,0.0010484497174226219,-0.5488688195577742,0.4214285223035448,-0.0006533762645371186
0.04701687700026014,,0.18641129,-1.5682348,-3.9727364,-0.5811815,-0.64531165,-0.4957832,-0.8061888,0.53956145,0.2427609,0.11084897,0.54078305,-0.8338262,,0.13452858,-1.5160655,-3.6887739,0.30552873,-0.9396461,0.15400495,-0.875533,-0.34081262,-0.34247425,0.37429136,-0.030200679,-0.9268192,,0.18005978,-1.6303421,-4.0294094,-0.9999795,0.006011908,-0.0022135698,0.0062831366,0.98779786,-0.15561408,0.0012510212,-0.15562476,-0.9878154,,-0.20919338809699353,-0.11125368978607829,0.15482758131000002,-0.00020968994348452436,0.0009564554983580831,0.0006902919966551704,0.0,,-1.5062958789188678,0.04091503876764145,0.0753274119,0.0010484497174226219,-0.5488688195577742,0.4214285223035448,-0.0006533762645371186
0.07289429899992683,,0.18641056,-1.5682342,-3.9727356,-0.58118093,-0.6453084,-0.49578813,-0.80618936,0.5395588,0.24276507,0.11084852,0.54078954,-0.833822,,0.13452858,-1.5160655,-3.6887739,0.30552873,-0.9396461,0.15400495,-0.875533,-0.34081262,-0.34247425,0.37429136,-0.030200679,-0.9268192,,0.18005978,-1.6303421,-4.0294094,-0.9999795,0.006011908,-0.0022135698,0.0062831366,0.98779786,-0.15561408,0.0012510212,-0.15562476,-0.9878154,,-0.20918566536411928,-0.11125368978607829,0.15482758131000002,-0.00020968994348452436,0.0009564554983580831,0.0006902919966551704,0.0,,-1.5062958789188678,0.04091503876764145,0.0753274119,0.0010484497174226219,-0.5488688195577742,0.4214285223035448,-0.0006533762645371186
0.09745539499999722,,0.18641056,-1.5682342,-3.9727356,-0.58118093,-0.6453084,-0.49578813,-0.80618936,0.5395588,0.24276507,0.11084852,0.54078954,-0.833822,,0.13452858,-1.5160655,-3.6887739,0.30552873,-0.9396461,0.15400495,-0.875533,-0.34081262,-0.34247425,0.37429136,-0.030200679,-0.9268192,,0.18005978,-1.6303421,-4.0294094,-0.9999795,0.006011908,-0.0022135698,0.0062831366,0.98779786,-0.15561408,0.0012510212,-0.15562476,-0.9878154,,-0.20918566536411928,-0.11125368978607829,0.15482758131000002,-0.00020968994348452436,0.0009564554983580831,0.0006902919966551704,0.0,,-1.5062958789188678,0.04091503876764145,0.0753274119,0.0010484497174226219,-0.5488688195577742,0.4214285223035448,-0.0006533762645371186
0.12099746100011544,,0.18641056,-1.5682342,-3.9727356,-0.58118093,-0.6453084,-0.49578813,-0.80618936,0.5395588,0.24276507,0.11084852,0.54078954,-0.833822,,0.13452816,-1.5160657,-3.688774,0.30553174,-0.93964607,0.15399906,-0.8755312,-0.3408133,-0.3424779,0.3742929,-0.030193143,-0.9268188,,0.18005978,-1.6303421,-4.0294094,-0.9999795,0.006011908,-0.0022135698,0.0062831366,0.98779786,-0.15561408,0.0012510212,-0.15562476,-0.9878154,,-0.20918566536411928,-0.11125368978607829,0.15482758131000002,-0.00020968994348452436,0.0009564554983580831,0.0006902919966551704,0.0,,-1.5062881561859938,0.04091503876764145,0.0753274119,0.0010484497174226219,-0.5488688195577742,0.4214285223035448,-0.0006533762645371186
0.14566502800016679,,0.18641056,-1.5682342,-3.9727356,-0.58118093,-0.6453084,-0.49578813,-0.80618936,0.5395588,0.24276507,0.11084852,0.54078954,-0.833822,,0.13452776,-1.516066,-3.6887743,0.30553472,-0.93964607,0.1539932,-0.8755296,-0.340814,-0.34248155,0.37429446,-0.030185603,-0.92681843,,0.18005978,-1.6303421,-4.0294094,-0.9999795,0.006011908,-0.0022135698,0.0062831366,0.98779786,-0.15561408,0.0012510212,-0.15562476,-0.9878154,,-0.20918566536411928,-0.11125368978607829,0.15482758131000002,-0.00020968994348452436,0.0009564554983580831,0.0006902919966551704,0.0,,-1.5062804334531195,0.04091503876764145,0.0753274119,0.0010484497174226219,-0.5488688195577742,0.4214285223035448,-0.0006533762645371186
0.16883196900016628,,0.18641129,-1.5682348,-3.9727364,-0.5811815,-0.64531165,-0.4957832,-0.8061888,0.53956145,0.2427609,0.11084897,0.54078305,-0.8338262,,0.13452776,-1.516066,-3.6887743,0.30553472,-0.93964607,0.1539932,-0.8755296,-0.340814,-0.34248155,0.37429446,-0.030185603,-0.92681843,,0.18005978,-1.6303421,-4.0294094,-0.9999795,0.006011908,-0.0022135698,0.0062831366,0.98779786,-0.15561408,0.0012510212,-0.15562476,-0.9878154,,-0.20919338809699353,-0.11125368978607829,0.15482758131000002,-0.00020968994348452436,0.0009564554983580831,0.0006902919966551704,0.0,,-1.5062804334531195,0.04091503876764145,0.0753274119,0.0010484497174226219,-0.5488688195577742,0.4214285223035448,-0.0006533762645371186
0.19500087300002633,,0.18641129,-1.5682348,-3.9727364,-0.5811815,-0.64531165,-0.4957832,-0.8061888,0.53956145,0.2427609,0.11084897,0.54078305,-0.8338262,,0.13452776,-1.516066,-3.6887743,0.30553472,-0.93964607,0.1539932,-0.8755296,-0.340814,-0.34248155,0.37429446,-0.030185603,-0.92681843,,0.18005978,-1.6303421,-4.0294094,-0.9999795,0.006011908,-0.0022135698,0.0062831366,0.98779786,-0.15561408,0.0012510212,-0.15562476,-0.9878154,,-0.20919338809699353,-0.11125368978607829,0.15482758131000002,-0.00020968994348452436,0.0009564554983580831,0.0006902919966551704,0.0,,-1.5062804334531195,0.04091503876764145,0.0753274119,0.0010484497174226219,-0.5488688195577742,0.4214285223035448,-0.0006533762645371186
0.2162928880002255,,0.18641056,-1.5682342,-3.9727356,-0.58118093,-0.6453084,-0.49578813,-0.80618936,0.5395588,0.24276507,0.11084852,0.54078954,-0.833822,,0.13452776,-1.516066,-3.6887743,0.30553472,-0.93964607,0.1539932,-0.8755296,-0.340814,-0.34248155,0.37429446,-0.030185603,-0.92681843,,0.18005978,-1.6303421,-4.0294094,-0.9999795,0.006011908,-0.0022135698,0.0062831366,0.98779786,-0.15561408,0.0012510212,-0.15562476,-0.9878154,,-0.20918566536411928,-0.11125368978607829,0.15482758131000002,-0.00020968994348452436,0.0009564554983580831,0.0006902919966551704,0.0,,-1.5062804334531195,0.04091503876764145,0.0753274119,0.0010484497174226219,-0.5488688195577742,0.4214285223035448,-0.0006533762645371186
0.24162155400017582,,0.18641129,-1.5682348,-3.9727364,-0.5811815,-0.64531165,-0.4957832,-0.8061888,0.53956145,0.2427609,0.11084897,0.54078305,-0.8338262,,0.13452776,-1.516066,-3.6887743,0.30553472,-0.93964607,0.1539932,-0.8755296,-0.340814,-0.34248155,0.37429446,-0.030185603,-0.92681843,,0.18005978,-1.6303421,-4.0294094,-0.9999795,0.006011908,-0.0022135698,0.0062831366,0.98779786,-0.15561408,0.0012510212,-0.15562476,-0.9878154,,-0.20919338809699353,-0.11125368978607829,0.15482758131000002,-0.00020968994348452436,0.0009564554983580831,0.0006902919966551704,0.0,,-1.5062804334531195,0.04091503876764145,0.0753274119,0.0010484497174226219,-0.5488688195577742,0.4214285223035448,-0.0006533762645371186
0.2666727760001777,,0.18641129,-1.5682348,-3.9727364,-0.5811815,-0.64531165,-0.4957832,-0.8061888,0.53956145,0.2427609,0.11084897,0.54078305,-0.8338262,,0.13452776,-1.516066,-3.6887743,0.30553472,-0.93964607,0.1539932,-0.8755296,-0.340814,-0.34248155,0.37429446,-0.030185603,-0.92681843,,0.18005978,-1.6303421,-4.0294094,-0.9999795,0.006011908,-0.0022135698,0.0062831366,0.98779786,-0.15561408,0.0012510212,-0.15562476,-0.9878154,,-0.20919338809699353,-0.11125368978607829,0.15482758131000002,-0.00020968994348452436,0.0009564554983580831,0.0006902919966551704,0.0,,-1.5062804334531195,0.04091503876764145,0.0753274119,0.0010484497174226219,-0.5488688195577742,0.4214285223035448,-0.0006533762645371186
0.29508339999983946,,0.18641056,-1.5682342,-3.9727356,-0.58118093,-0.6453084,-0.49578813,-0.80618936,0.5395588,0.24276507,0.11084852,0.54078954,-0.833822,,0.13452776,-1.516066,-3.6887743,0.30553472,-0.93964607,0.1539932,-0.8755296,-0.340814,-0.34248155,0.37429446,-0.030185603,-0.92681843,,0.18005978,-1.6303421,-4.0294094,-0.9999795,0.006011908,-0.0022135698,0.0062831366,0.98779786,-0.15561408,0.0012510212,-0.15562476,-0.9878154,,-0.20918566536411928,-0.11125368978607829,0.15482758131000002,-0.00020968994348452436,0.0009564554983580831,0.0006902919966551704,0.0,,-1.5062804334531195,0.04091503876764145,0.0753274119,0.0010484497174226219,-0.5488688195577742,0.4214285223035448,-0.0006533762645371186
0.31552407300023333,,0.18641196,-1.568234,-3.9727364,-0.5811854,-0.64531165,-0.49577868,-0.806187,0.5395614,0.24276713,0.11084255,0.54078305,-0.833827,,0.13452749,-1.5160655,-3.6887743,0.30553877,-0.93964505,0.15399104,-0.87553096,-0.34081677,-0.3424754,0.37428802,-0.03018441,-0.926821,,0.18005978,-1.6303421,-4.0294094,-0.9999795,0.006011908,-0.0022135698,0.0062831366,0.98779786,-0.15561408,0.0012510212,-0.15562476,-0.9878154,,-0.20919338809699353,-0.11124596705320407,0.15482758131000002,-0.00020968994348452436,0.0009564554983580831,0.0006902919966551704,0.0,,-1.5062804334531195,0.04092276150051568,0.0753274119,0.0010484497174226219,-0.5488688195577742,0.4214285223035448,-0.0006533762645371186
0.34051391000002695,,0.18641129,-1.5682348,-3.9727364,-0.5811815,-0.64531165,-0.4957832,-0.8061888,0.53956145,0.2427609,0.11084897,0.54078305,-0.8338262,,0.13452776,-1.516066,-3.6887743,0.30553472,-0.93964607,0.1539932,-0.8755296,-0.340814,-0.34248155,0.37429446,-0.030185603,-0.92681843,,0.18005978,-1.6303421,-4.0294094,-0.9999795,0.006011908,-0.0022135698,0.0062831366,0.98779786,-0.15561408,0.0012510212,-0.15562476,-0.9878154,,-0.20919338809699353,-0.11125368978607829,0.15482758131000002,-0.00020968994348452436,0.0009564554983580831,0.0006902919966551704,0.0,,-1.5062804334531195,0.04091503876764145,0.0753274119,0.0010484497174226219,-0.5488688195577742,0.4214285223035448,-0.0006533762645371186
0.3642633580002439,,0.18641129,-1.5682348,-3.9727364,-0.5811815,-0.64531165,-0.4957832,-0.8061888,0.53956145,0.2427609,0.11084897,0.54078305,-0.8338262,,0.13452776,-1.516066,-3.6887743,0.30553472,-0.93964607,0.1539932,-0.8755296,-0.340814,-0.34248155,0.37429446,-0.030185603,-0.92681843,,0.18005978,-1.6303421,-4.0294094,-0.9999795,0.006011908,-0.0022135698,0.0062831366,0.98779786,-0.15561408,0.0012510212,-0.15562476,-0.9878154,,-0.20919338809699353,-0.11125368978607829,0.15482758131000002,-0.00020968994348452436,0.0009564554983580831,0.0006902919966551704,0.0,,-1.5062804334531195,0.04091503876764145,0.0753274119,0.0010484497174226219,-0.5488688195577742,0.4214285223035448,-0.0006533762645371186
0.3865499660000751,,0.18641129,-1.5682348,-3.9727364,-0.5811815,-0.64531165,-0.4957832,-0.8061888,0.53956145,0.2427609,0.11084897,0.54078305,-0.8338262,,0.13452776,-1.516066,-3.6887743,0.30553472,-0.93964607,0.1539932,-0.8755296,-0.340814,-0.34248155,0.37429446,-0.030185603,-0.92681843,,0.18005978,-1.6303421,-4.0294094,-0.9999795,0.006011908,-0.0022135698,0.0062831366,0.98779786,-0.15561408,0.0012510212,-0.15562476,-0.9878154,,-0.20919338809699353,-0.11125368978607829,0.15482758131000002,-0.00020968994348452436,0.0009564554983580831,0.0006902919966551704,0.0,,-1.5062804334531195,0.04091503876764145,0.0753274119,0.0010484497174226219,-0.5488688195577742,0.4214285223035448,-0.0006533762645371186
0.41253317300015624,,0.18641056,-1.5682342,-3.9727356,-0.58118093,-0.6453084,-0.49578813,-0.80618936,0.5395588,0.24276507,0.11084852,0.54078954,-0.833822,,0.13452776,-1.516066,-3.6887743,0.30553472,-0.93964607,0.1539932,-0.8755296,-0.340814,-0.34248155,0.37429446,-0.030185603,-0.92681843,,0.18005978,-1.6303421,-4.0294094,-0.9999795,0.006011908,-0.0022135698,0.0062831366,0.98779786,-0.15561408,0.0012510212,-0.15562476,-0.9878154,,-0.20918566536411928,-0.11125368978607829,0.15482758131000002,-0.00020968994348452436,0.0009564554983580831,0.0006902919966551704,0.0,,-1.5062804334531195,0.04091503876764145,0.0753274119,0.0010484497174226219,-0.5488688195577742,0.4214285223035448,-0.0006533762645371186
0.43560661199990136,,0.18641056,-1.5682342,-3.9727356,-0.58131635,-0.6451866,-0.49578792,-0.8060761,0.5397279,0.24276507,0.110961795,0.5407661,-0.83382213,,0.13452776,-1.516066,-3.6887743,0.30553472,-0.93964607,0.1539932,-0.8755296,-0.340814,-0.34248155,0.37429446,-0.030185603,-0.92681843,,0.18005978,-1.6303421,-4.0294094,-0.9999795,0.006011908,-0.0022135698,0.0062831366,0.98779786,-0.15561408,0.0012510212,-0.15562476,-0.9878154,,-0.20918566536411928,-0.11125368978607829,0.15482758131000002,0.0,0.0009564554983580831,0.0006902919966551704,0.0,,-1.5062804334531195,0.04091503876764145,0.0753274119,0.0010484497174226219,-0.5488688195577742,0.4214285223035448,-0.0006533762645371186
0.46117677600022944,,0.18641129,-1.5682348,-3.9727364,-0.58145225,-0.6450681,-0.49578276,-0.8059624,0.5398996,0.24276093,0.11107553,0.54073614,-0.8338264,,0.13452816,-1.5160657,-3.688774,0.30553174,-0.93964607,0.15399906,-0.8755312,-0.3408133,-0.3424779,0.3742929,-0.030193143,-0.9268188,,0.18005978,-1.6303421,-4.0294094,-0.9999795,0.006011908,-0.0022135698,0.0062831366,0.98779786,-0.15561408,0.0012510212,-0.15562476,-0.9878154,,-0.20919338809699353,-0.11125368978607829,0.15482758131000002,0.00020968994348452436,0.0009564554983580831,0.0006902919966551704,0.0,,-1.5062881561859938,0.04091503876764145,0.0753274119,0.0010484497174226219,-0.5488688195577742,0.4214285223035448,-0.0006533762645371186
0.48170470300010493,,0.18641129,-1.5682348,-3.9727364,-0.58145225,-0.6450681,-0.49578276,-0.8059624,0.5398996,0.24276093,0.11107553,0.54073614,-0.8338264,,0.13452776,-1.516066,-3.6887743,0.30553472,-0.93964607,0.1539932,-0.8755296,-0.340814,-0.34248155,0.37429446,-0.030185603,-0.92681843,,0.18005978,-1.6303421,-4.0294094,-0.9999795,0.006011908,-0.0022135698,0.0062831366,0.98779786,-0.15561408,0.0012510212,-0.15562476,-0.9878154,,-0.20919338809699353,-0.11125368978607829,0.15482758131000002,0.00020968994348452436,0.0009564554983580831,0.0006902919966551704,0.0,,-1.5062804334531195,0.04091503876764145,0.0753274119,0.0010484497174226219,-0.5488688195577742,0.4214285223035448,-0.0006533762645371186
0.5075940249998894,,0.18641129,-1.5682348,-3.9727364,-0.58145225,-0.6450681,-0.49578276,-0.8059624,0.5398996,0.24276093,0.11107553,0.54073614,-0.8338264,,0.13452776,-1.516066,-3.6887743,0.30553472,-0.93964607,0.1539932,-0.8755296,-0.340814,-0.34248155,0.37429446,-0.030185603,-0.92681843,,0.18005978,-1.6303421,-4.0294094,-0.9999795,0.006011908,-0.0022135698,0.0062831366,0.98779786,-0.15561408,0.0012510212,-0.15562476,-0.9878154,,-0.20919338809699353,-0.11125368978607829,0.15482758131000002,0.00020968994348452436,0.0009564554983580831,0.0006902919966551704,0.0,,-1.5062804334531195,0.04091503876764145,0.0753274119,0.0010484497174226219,-0.5488688195577742,0.4214285223035448,-0.0006533762645371186
0.5305295749999459,,0.18641129,-1.5682348,-3.9727364,-0.58145225,-0.6450681,-0.49578276,-0.8059624,0.5398996,0.24276093,0.11107553,0.54073614,-0.8338264,,0.13452776,-1.516066,-3.6887743,0.30553472,-0.93964607,0.1539932,-0.8755296,-0.340814,-0.34248155,0.37429446,-0.030185603,-0.92681843,,0.18005978,-1.6303421,-4.0294094,-0.9999795,0.006011908,-0.0022135698,0.0062831366,0.98779786,-0.15561408,0.0012510212,-0.15562476,-0.9878154,,-0.20919338809699353,-0.11125368978607829,0.15482758131000002,0.00020968994348452436,0.0009564554983580831,0.0006902919966551704,0.0,,-1.5062804334531195,0.04091503876764145,0.0753274119,0.0010484497174226219,-0.5488688195577742,0.4214285223035448,-0.0006533762645371186
0.5519419659999585,,0.18641056,-1.5682342,-3.9727356,-0.5814517,-0.64506483,-0.49578768,-0.8059629,0.539897,0.24276508,0.11107507,0.54074264,-0.83382225,,0.13452776,-1.516066,-3.6887743,0.30553472,-0.93964607,0.1539932,-0.8755296,-0.340814,-0.34248155,0.37429446,-0.030185603,-0.92681843,,0.18005978,-1.6303421,-4.0294094,-0.9999795,0.006011908,-0.0022135698,0.0062831366,0.98779786,-0.15561408,0.0012510212,-0.15562476,-0.9878154,,-0.20918566536411928,-0.11125368978607829,0.15482758131000002,0.00020968994348452436,0.0009564554983580831,0.0006902919966551704,0.0,,-1.5062804334531195,0.04091503876764145,0.0753274119,0.0010484497174226219,-0.5488688195577742,0.4214285223035448,-0.0006533762645371186
0.5751889470002425,,0.18641056,-1.5682342,-3.9727356,-0.5814517,-0.64506483,-0.49578768,-0.8059629,0.539897,0.24276508,0.11107507,0.54074264,-0.83382225,,0.13452776,-1.516066,-3.6887743,0.30553472,-0.93964607,0.1539932,-0.8755296,-0.340814,-0.34248155,0.37429446,-0.030185603,-0.92681843,,0.18005978,-1.6303421,-4.0294094,-0.9999795,0.006011908,-0.0022135698,0.0062831366,0.98779786,-0.15561408,0.0012510212,-0.15562476,-0.9878154,,-0.20918566536411928,-0.11125368978607829,0.15482758131000002,0.00020968994348452436,0.0009564554983580831,0.0006902919966551704,0.0,,-1.5062804334531195,0.04091503876764145,0.0753274119,0.0010484497174226219,-0.5488688195577742,0.4214285223035448,-0.0006533762645371186
0.5999408910001875,,0.18641056,-1.5682342,-3.9727356,-0.5814517,-0.64506483,-0.49578768,-0.8059629,0.539897,0.24276508,0.11107507,0.54074264,-0.83382225,,0.13452776,-1.516066,-3.6887743,0.30553472,-0.93964607,0.1539932,-0.8755296,-0.340814,-0.34248155,0.37429446,-0.030185603,-0.92681843,,0.18005978,-1.6303421,-4.0294094,-0.9999795,0.006011908,-0.0022135698,0.0062831366,0.98779786,-0.15561408,0.0012510212,-0.15562476,-0.9878154,,-0.20918566536411928,-0.11125368978607829,0.15482758131000002,0.00020968994348452436,0.0009564554983580831,0.0006902919966551704,0.0,,-1.5062804334531195,0.04091503876764145,0.0753274119,0.0010484497174226219,-0.5488688195577742,0.4214285223035448,-0.0006533762645371186
0.6271749550001005,,0.18641129,-1.5682348,-3.9727364,-0.58145225,-0.6450681,-0.49578276,-0.8059624,0.5398996,0.24276093,0.11107553,0.54073614,-0.8338264,,0.13452776,-1.516066,-3.6887743,0.30553472,-0.93964607,0.1539932,-0.8755296,-0.340814,-0.34248155,0.37429446,-0.030185603,-0.92681843,,0.18005978,-1.6303421,-4.0294094,-0.9999795,0.006011908,-0.0022135698,0.0062831366,0.98779786,-0.15561408,0.0012510212,-0.15562476,-0.9878154,,-0.20919338809699353,-0.11125368978607829,0.15482758131000002,0.00020968994348452436,0.0009564554983580831,0.0006902919966551704,0.0,,-1.5062804334531195,0.04091503876764145,0.0753274119,0.0010484497174226219,-0.5488688195577742,0.4214285223035448,-0.0006533762645371186
0.6498203129999638,,0.18641129,-1.5682348,-3.9727364,-0.58145225,-0.6450681,-0.49578276,-0.8059624,0.5398996,0.24276093,0.11107553,0.54073614,-0.8338264,,0.13452776,-1.516066,-3.6887743,0.30553472,-0.93964607,0.1539932,-0.8755296,-0.340814,-0.34248155,0.37429446,-0.030185603,-0.92681843,,0.18005978,-1.6303421,-4.0294094,-0.9999795,0.006011908,-0.0022135698,0.0062831366,0.98779786,-0.15561408,0.0012510212,-0.15562476,-0.9878154,,-0.20919338809699353,-0.11125368978607829,0.15482758131000002,0.00020968994348452436,0.0009564554983580831,0.0006902919966551704,0.0,,-1.5062804334531195,0.04091503876764145,0.0753274119,0.0010484497174226219,-0.5488688195577742,0.4214285223035448,-0.0006533762645371186
0.6778898130000925,,0.18641129,-1.5682348,-3.9727364,-0.58145225,-0.6450681,-0.49578276,-0.8059624,0.5398996,0.24276093,0.11107553,0.54073614,-0.8338264,,0.13452776,-1.516066,-3.6887743,0.30553472,-0.93964607,0.1539932,-0.8755296,-0.340814,-0.34248155,0.37429446,-0.030185603,-0.92681843,,0.18005978,-1.6303421,-4.0294094,-0.9999795,0.006011908,-0.0022135698,0.0062831366,0.98779786,-0.15561408,0.0012510212,-0.15562476,-0.9878154,,-0.20919338809699353,-0.11125368978607829,0.15482758131000002,0.00020968994348452436,0.0009564554983580831,0.0006902919966551704,0.0,,-1.5062804334531195,0.04091503876764145,0.0753274119,0.0010484497174226219,-0.5488688195577742,0.4214285223035448,-0.0006533762645371186
0.701188731000002,,0.18641129,-1.5682348,-3.9727364,-0.58145225,-0.6450681,-0.49578276,-0.8059624,0.5398996,0.24276093,0.11107553,0.54073614,-0.8338264,,0.13452776,-1.516066,-3.6887743,0.30553472,-0.93964607,0.1539932,-0.8755296,-0.340814,-0.34248155,0.37429446,-0.030185603,-0.92681843,,0.18005978,-1.6303421,-4.0294094,-0.9999795,0.006011908,-0.0022135698,0.0062831366,0.98779786,-0.15561408,0.0012510212,-0.15562476,-0.9878154,,-0.20919338809699353,-0.11125368978607829,0.15482758131000002,0.00020968994348452436,0.0009564554983580831,0.0006902919966551704,0.0,,-1.5062804334531195,0.04091503876764145,0.0753274119,0.0010484497174226219,-0.5488688195577742,0.4214285223035448,-0.0006533762645371186
0.7293339799998648,,0.18641129,-1.5682348,-3.9727364,-0.58145225,-0.6450681,-0.49578276,-0.8059624,0.5398996,0.24276093,0.11107553,0.54073614,-0.8338264,,0.13452776,-1.516066,-3.6887743,0.30553472,-0.93964607,0.1539932,-0.8755296,-0.340814,-0.34248155,0.37429446,-0.030185603,-0.92681843,,0.18005978,-1.6303421,-4.0294094,-0.9999795,0.006011908,-0.0022135698,0.0062831366,0.98779786,-0.15561408,0.0012510212,-0.15562476,-0.9878154,,-0.20919338809699353,-0.11125368978607829,0.15482758131000002,0.00020968994348452436,0.0009564554983580831,0.0006902919966551704,0.0,,-1.5062804334531195,0.04091503876764145,0.0753274119,0.0010484497174226219,-0.5488688195577742,0.4214285223035448,-0.0006533762645371186
0.7504003100002592,,0.18641129,-1.5682348,-3.9727364,-0.58145225,-0.6450681,-0.49578276,-0.8059624,0.5398996,0.24276093,0.11107553,0.54073614,-0.8338264,,0.13452776,-1.516066,-3.6887743,0.30553472,-0.93964607,0.1539932,-0.8755296,-0.340814,-0.34248155,0.37429446,-0.030185603,-0.92681843,,0.18005978,-1.6303421,-4.0294094,-0.9999795,0.006011908,-0.0022135698,0.0062831366,0.98779786,-0.15561408,0.0012510212,-0.15562476,-0.9878154,,-0.20919338809699353,-0.11125368978607829,0.15482758131000002,0.00020968994348452436,0.0009564554983580831,0.0006902919966551704,0.0,,-1.5062804334531195,0.04091503876764145,0.0753274119,0.0010484497174226219,-0.5488688195577742,0.4214285223035448,-0.0006533762645371186
0.7775517640002363,,0.18641056,-1.5682342,-3.9727356,-0.5814517,-0.64506483,-0.49578768,-0.8059629,0.539897,0.24276508,0.11107507,0.54074264,-0.83382225,,0.13452776,-1.516066,-3.6887743,0.30553472,-0.93964607,0.1539932,-0.8755296,-0.340814,-0.34248155,0.37429446,-0.030185603,-0.92681843,,0.18005978,-1.6303421,-4.0294094,-0.9999795,0.006011908,-0.0022135698,0.0062831366,0.98779786,-0.15561408,0.0012510212,-0.15562476,-0.9878154,,-0.20918566536411928,-0.11125368978607829,0.15482758131000002,0.00020968994348452436,0.0009564554983580831,0.0006902919966551704,0.0,,-1.5062804334531195,0.04091503876764145,0.0753274119,0.0010484497174226219,-0.5488688195577742,0.4214285223035448,-0.0006533762645371186
0.7984677270001157,,0.18641056,-1.5682342,-3.9727356,-0.5814517,-0.64506483,-0.49578768,-0.8059629,0.539897,0.24276508,0.11107507,0.54074264,-0.83382225,,0.13452858,-1.5160655,-3.6887739,0.30552873,-0.9396461,0.15400495,-0.875533,-0.34081262,-0.34247425,0.37429136,-0.030200679,-0.9268192,,0.18005978,-1.6303421,-4.0294094,-0.9999795,0.006011908,-0.0022135698,0.0062831366,0.98779786,-0.15561408,0.0012510212,-0.15562476,-0.9878154,,-0.20918566536411928,-0.11125368978607829,0.15482758131000002,0.00020968994348452436,0.0009564554983580831,0.0006902919966551704,0.0,,-1.5062881561859938,0.04092276150051568,0.0753274119,0.0010484497174226219,-0.5488688195577742,0.4214285223035448,-0.0006533762645371186
0.8278586380001798,,0.18641056,-1.5682342,-3.9727356,-0.5814517,-0.64506483,-0.49578768,-0.8059629,0.539897,0.24276508,0.11107507,0.54074264,-0.83382225,,0.13452749,-1.5160655,-3.6887743,0.30553877,-0.93964505,0.15399104,-0.87553096,-0.34081677,-0.3424754,0.37428802,-0.03018441,-0.926821,,0.18005978,-1.6303421,-4.0294094,-0.9999795,0.006011908,-0.0022135698,0.0062831366,0.98779786,-0.15561408,0.0012510212,-0.15562476,-0.9878154,,-0.20918566536411928,-0.11125368978607829,0.15482758131000002,0.00020968994348452436,0.0009564554983580831,0.0006902919966551704,0.0,,-1.5062804334531195,0.04092276150051568,0.0753274119,0.0010484497174226219,-0.5488688195577742,0.4214285223035448,-0.0006533762645371186
0.8490422909999324,,0.18641056,-1.5682342,-3.9727356,-0.5814517,-0.64506483,-0.49578768,-0.8059629,0.539897,0.24276508,0.11107507,0.54074264,-0.83382225,,0.13452776,-1.516066,-3.6887743,0.30553472,-0.93964607,0.1539932,-0.8755296,-0.340814,-0.34248155,0.37429446,-0.030185603,-0.92681843,,0.18005978,-1.6303421,-4.0294094,-0.9999795,0.006011908,-0.0022135698,0.0062831366,0.98779786,-0.15561408,0.0012510212,-0.15562476,-0.9878154,,-0.20918566536411928,-0.11125368978607829,0.15482758131000002,0.00020968994348452436,0.0009564554983580831,0.0006902919966551704,0.0,,-1.5062804334531195,0.04091503876764145,0.0753274119,0.0010484497174226219,-0.5488688195577742,0.4214285223035448,-0.0006533762645371186
0.8747052650001024,,0.18641129,-1.5682348,-3.9727364,-0.58145225,-0.6450681,-0.49578276,-0.8059624,0.5398996,0.24276093,0.11107553,0.54073614,-0.8338264,,0.13452776,-1.516066,-3.6887743,0.30553472,-0.93964607,0.1539932,-0.8755296,-0.340814,-0.34248155,0.37429446,-0.030185603,-0.92681843,,0.18005978,-1.6303421,-4.0294094,-0.9999795,0.006011908,-0.0022135698,0.0062831366,0.98779786,-0.15561408,0.0012510212,-0.15562476,-0.9878154,,-0.20919338809699353,-0.11125368978607829,0.15482758131000002,0.00020968994348452436,0.0009564554983580831,0.0006902919966551704,0.0,,-1.5062804334531195,0.04091503876764145,0.0753274119,0.0010484497174226219,-0.5488688195577742,0.4214285223035448,-0.0006533762645371186
0.8973823850001281,,0.18641129,-1.5682348,-3.9727364,-0.58145225,-0.6450681,-0.49578276,-0.8059624,0.5398996,0.24276093,0.11107553,0.54073614,-0.8338264,,0.13452776,-1.516066,-3.6887743,0.30553472,-0.93964607,0.1539932,-0.8755296,-0.340814,-0.34248155,0.37429446,-0.030185603,-0.92681843,,0.18005978,-1.6303421,-4.0294094,-0.9999795,0.006011908,-0.0022135698,0.0062831366,0.98779786,-0.15561408,0.0012510212,-0.15562476,-0.9878154,,-0.20919338809699353,-0.11125368978607829,0.15482758131000002,0.00020968994348452436,0.0009564554983580831,0.0006902919966551704,0.0,,-1.5062804334531195,0.04091503876764145,0.0753274119,0.0010484497174226219,-0.5488688195577742,0.4214285223035448,-0.0006533762645371186
0.9203391840001132,,0.18641056,-1.5682342,-3.9727356,-0.5814517,-0.64506483,-0.49578768,-0.8059629,0.539897,0.24276508,0.11107507,0.54074264,-0.83382225,,0.13452776,-1.516066,-3.6887743,0.30553472,-0.93964607,0.1539932,-0.8755296,-0.340814,-0.34248155,0.37429446,-0.030185603,-0.92681843,,0.18005978,-1.6303421,-4.0294094,-0.9999795,0.006011908,-0.0022135698,0.0062831366,0.98779786,-0.15561408,0.0012510212,-0.15562476,-0.9878154,,-0.20918566536411928,-0.11125368978607829,0.15482758131000002,0.00020968994348452436,0.0009564554983580831,0.0006902919966551704,0.0,,-1.5062804334531195,0.04091503876764145,0.0753274119,0.0010484497174226219,-0.5488688195577742,0.4214285223035448,-0.0006533762645371186
0.9457889969999087,,0.18633327,-1.5681782,-3.9727495,-0.5815166,-0.64502674,-0.49576092,-0.8059194,0.5399354,0.24282417,0.11105082,0.5407496,-0.833821,,0.13459504,-1.5160102,-3.6888123,0.305645,-0.9396162,0.15395623,-0.8755185,-0.340901,-0.34242344,0.3742304,-0.030131523,-0.9268461,,0.18000205,-1.6303213,-4.02941,-0.999979,0.0060877483,-0.0022085994,0.006357278,0.9877976,-0.15561303,0.0012343153,-0.1556238,-0.98781556,,-0.20918566536411928,-0.11125368978607829,0.15482758131000002,0.00020968994348452436,0.0009564554983580831,0.0006902919966551704,0.0,,-1.5062804334531195,0.04092276150051568,0.0753274119,0.0010484497174226219,-0.5488688195577742,0.4214285223035448,-0.0006533762645371186
0.9668012100000851,,0.18633401,-1.5681788,-3.9727502,-0.58151716,-0.6450301,-0.49575597,-0.805919,0.53993803,0.24282,0.11105128,0.5407431,-0.8338252,,0.1345953,-1.5160106,-3.6888123,0.30564097,-0.9396171,0.15395841,-0.8755172,-0.34089822,-0.3424296,0.37423685,-0.030132715,-0.9268434,,0.18000205,-1.6303213,-4.02941,-0.999979,0.0060877483,-0.0022085994,0.006357278,0.9877976,-0.15561303,0.0012343153,-0.1556238,-0.98781556,,-0.20919338809699353,-0.11125368978607829,0.15482758131000002,0.00020968994348452436,0.0009564554983580831,0.0006902919966551704,0.0,,-1.5062804334531195,0.04091503876764145,0.0753274119,0.0010484497174226219,-0.5488688195577742,0.4214285223035448,-0.0006533762645371186
0.9934486759998435,,0.18633327,-1.5681782,-3.9727495,-0.5815166,-0.64502674,-0.49576092,-0.8059194,0.5399354,0.24282417,0.11105082,0.5407496,-0.833821,,0.1345953,-1.5160106,-3.6888123,0.30564097,-0.9396171,0.15395841,-0.8755172,-0.34089822,-0.3424296,0.37423685,-0.030132715,-0.9268434,,0.18000205,-1.6303213,-4.02941,-0.999979,0.0060877483,-0.0022085994,0.006357278,0.9877976,-0.15561303,0.0012343153,-0.1556238,-0.98781556,,-0.20918566536411928,-0.11125368978607829,0.15482758131000002,0.00020968994348452436,0.0009564554983580831,0.0006902919966551704,0.0,,-1.5062804334531195,0.04091503876764145,0.0753274119,0.0010484497174226219,-0.5488688195577742,0.4214285223035448,-0.0006533762645371186
1.014094476000082,,0.18633401,-1.5681788,-3.9727502,-0.58151716,-0.6450301,-0.49575597,-0.805919,0.53993803,0.24282,0.11105128,0.5407431,-0.8338252,,0.1345953,-1.5160106,-3.6888123,0.30564097,-0.9396171,0.15395841,-0.8755172,-0.34089822,-0.3424296,0.37423685,-0.030132715,-0.9268434,,0.18000205,-1.6303213,-4.02941,-0.999979,0.0060877483,-0.0022085994,0.006357278,0.9877976,-0.15561303,0.0012343153,-0.1556238,-0.98781556,,-0.20919338809699353,-0.11125368978607829,0.15482758131000002,0.00020968994348452436,0.0009564554983580831,0.0006902919966551704,0.0,,-1.5062804334531195,0.04091503876764145,0.0753274119,0.0010484497174226219,-0.5488688195577742,0.4214285223035448,-0.0006533762645371186
1.0424834770001326,,0.18633327,-1.5681782,-3.9727495,-0.5815166,-0.64502674,-0.49576092,-0.8059194,0.5399354,0.24282417,0.11105082,0.5407496,-0.833821,,0.1345953,-1.5160106,-3.6888123,0.30564097,-0.9396171,0.15395841,-0.8755172,-0.34089822,-0.3424296,0.37423685,-0.030132715,-0.9268434,,0.18000205,-1.6303213,-4.02941,-0.999979,0.0060877483,-0.0022085994,0.006357278,0.9877976,-0.15561303,0.0012343153,-0.1556238,-0.98781556,,-0.20918566536411928,-0.11125368978607829,0.15482758131000002,0.00020968994348452436,0.0009564554983580831,0.0006902919966551704,0.0,,-1.5062804334531195,0.04091503876764145,0.0753274119,0.0010484497174226219,-0.5488688195577742,0.4214285223035448,-0.0006533762645371186
1.0679463760002363,,0.18633327,-1.5681782,-3.9727495,-0.5815166,-0.64502674,-0.49576092,-0.8059194,0.5399354,0.24282417,0.11105082,0.5407496,-0.833821,,0.13459504,-1.5160102,-3.6888123,0.305645,-0.9396162,0.15395623,-0.8755185,-0.340901,-0.34242344,0.3742304,-0.030131523,-0.9268461,,0.18000205,-1.6303213,-4.02941,-0.999979,0.0060877483,-0.0022085994,0.006357278,0.9877976,-0.15561303,0.0012343153,-0.1556238,-0.98781556,,-0.20918566536411928,-0.11125368978607829,0.15482758131000002,0.00020968994348452436,0.0009564554983580831,0.0006902919966551704,0.0,,-1.5062804334531195,0.04092276150051568,0.0753274119,0.0010484497174226219,-0.5488688195577742,0.4214285223035448,-0.0006533762645371186
1.0968350570001348,,0.18633401,-1.5681788,-3.9727502,-0.58151716,-0.6450301,-0.49575597,-0.805919,0.53993803,0.24282,0.11105128,0.5407431,-0.8338252,,0.1345953,-1.5160106,-3.6888123,0.30564097,-0.9396171,0.15395841,-0.8755172,-0.34089822,-0.3424296,0.37423685,-0.030132715,-0.9268434,,0.18000205,-1.6303213,-4.02941,-0.999979,0.0060877483,-0.0022085994,0.006357278,0.9877976,-0.15561303,0.0012343153,-0.1556238,-0.98781556,,-0.20919338809699353,-0.11125368978607829,0.15482758131000002,0.00020968994348452436,0.0009564554983580831,0.0006902919966551704,0.0,,-1.5062804334531195,0.04091503876764145,0.0753274119,0.0010484497174226219,-0.5488688195577742,0.4214285223035448,-0.0006533762645371186
1.1212120230002256,,0.18633327,-1.5681782,-3.9727495,-0.5815166,-0.64502674,-0.49576092,-0.8059194,0.5399354,0.24282417,0.11105082,0.5407496,-0.833821,,0.1345953,-1.5160106,-3.6888123,0.30564097,-0.9396171,0.15395841,-0.8755172,-0.34089822,-0.3424296,0.37423685,-0.030132715,-0.9268434,,0.18000205,-1.6303213,-4.02941,-0.999979,0.0060877483,-0.0022085994,0.006357278,0.9877976,-0.15561303,0.0012343153,-0.1556238,-0.98781556,,-0.20918566536411928,-0.11125368978607829,0.15482758131000002,0.00020968994348452436,0.0009564554983580831,0.0006902919966551704,0.0,,-1.5062804334531195,0.04091503876764145,0.0753274119,0.0010484497174226219,-0.5488688195577742,0.4214285223035448,-0.0006533762645371186
1.1462693200001013,,0.18633401,-1.5681788,-3.9727502,-0.58151716,-0.6450301,-0.49575597,-0.805919,0.53993803,0.24282,0.11105128,0.5407431,-0.8338252,,0.1345953,-1.5160106,-3.6888123,0.30564097,-0.9396171,0.15395841,-0.8755172,-0.34089822,-0.3424296,0.37423685,-0.030132715,-0.9268434,,0.18000205,-1.6303213,-4.02941,-0.999979,0.0060877483,-0.0022085994,0.006357278,0.9877976,-0.15561303,0.0012343153,-0.1556238,-0.98781556,,-0.20919338809699353,-0.11125368978607829,0.15482758131000002,0.00020968994348452436,0.0009564554983580831,0.0006902919966551704,0.0,,-1.5062804334531195,0.04091503876764145,0.0753274119,0.0010484497174226219,-0.5488688195577742,0.4214285223035448,-0.0006533762645371186
1.1693073080000431,,0.18633401,-1.5681788,-3.9727502,-0.58151716,-0.6450301,-0.49575597,-0.805919,0.53993803,0.24282,0.11105128,0.5407431,-0.8338252,,0.13459504,-1.5160102,-3.6888123,0.305645,-0.9396162,0.15395623,-0.8755185,-0.340901,-0.34242344,0.3742304,-0.030131523,-0.9268461,,0.18000205,-1.6303213,-4.02941,-0.999979,0.0060877483,-0.0022085994,0.006357278,0.9877976,-0.15561303,0.0012343153,-0.1556238,-0.98781556,,-0.20919338809699353,-0.11125368978607829,0.15482758131000002,0.00020968994348452436,0.0009564554983580831,0.0006902919966551704,0.0,,-1.5062804334531195,0.04092276150051568,0.0753274119,0.0010484497174226219,-0.5488688195577742,0.4214285223035448,-0.0006533762645371186
1.1943559760002245,,0.18633327,-1.5681782,-3.9727495,-0.5815166,-0.64502674,-0.49576092,-0.8059194,0.5399354,0.24282417,0.11105082,0.5407496,-0.833821,,0.13459504,-1.5160102,-3.6888123,0.305645,-0.9396162,0.15395623,-0.8755185,-0.340901,-0.34242344,0.3742304,-0.030131523,-0.9268461,,0.18000205,-1.6303213,-4.02941,-0.999979,0.0060877483,-0.0022085994,0.006357278,0.9877976,-0.15561303,0.0012343153,-0.1556238,-0.98781556,,-0.20918566536411928,-0.11125368978607829,0.15482758131000002,0.00020968994348452436,0.0009564554983580831,0.0006902919966551704,0.0,,-1.5062804334531195,0.04092276150051568,0.0753274119,0.0010484497174226219,-0.5488688195577742,0.4214285223035448,-0.0006533762645371186
1.2162147359999835,,0.18633327,-1.5681782,-3.9727495,-0.5815166,-0.64502674,-0.49576092,-0.8059194,0.5399354,0.24282417,0.11105082,0.5407496,-0.833821,,0.13459504,-1.5160102,-3.6888123,0.305645,-0.9396162,0.15395623,-0.8755185,-0.340901,-0.34242344,0.3742304,-0.030131523,-0.9268461,,0.18000205,-1.6303213,-4.02941,-0.999979,0.0060877483,-0.0022085994,0.006357278,0.9877976,-0.15561303,0.0012343153,-0.1556238,-0.98781556,,-0.20918566536411928,-0.11125368978607829,0.15482758131000002,0.00020968994348452436,0.0009564554983580831,0.0006902919966551704,0.0,,-1.5062804334531195,0.04092276150051568,0.0753274119,0.0010484497174226219,-0.5488688195577742,0.4214285223035448,-0.0006533762645371186
1.2441646000002038,,0.18633401,-1.5681788,-3.9727502,-0.58151716,-0.6450301,-0.49575597,-0.805919,0.53993803,0.24282,0.11105128,0.5407431,-0.8338252,,0.1345953,-1.5160106,-3.6888123,0.30564097,-0.9396171,0.15395841,-0.8755172,-0.34089822,-0.3424296,0.37423685,-0.030132715,-0.9268434,,0.18000205,-1.6303213,-4.02941,-0.999979,0.0060877483,-0.0022085994,0.006357278,0.9877976,-0.15561303,0.0012343153,-0.1556238,-0.98781556,,-0.20919338809699353,-0.11125368978607829,0.15482758131000002,0.00020968994348452436,0.0009564554983580831,0.0006902919966551704,0.0,,-1.5062804334531195,0.04091503876764145,0.0753274119,0.0010484497174226219,-0.5488688195577742,0.4214285223035448,-0.0006533762645371186
1.2681955540001582,,0.18633401,-1.5681788,-3.9727502,-0.58151716,-0.6450301,-0.49575597,-0.805919,0.53993803,0.24282,0.11105128,0.5407431,-0.8338252,,0.1345953,-1.5160106,-3.6888123,0.30564097,-0.9396171,0.15395841,-0.8755172,-0.34089822,-0.3424296,0.37423685,-0.030132715,-0.9268434,,0.18000205,-1.6303213,-4.02941,-0.999979,0.0060877483,-0.0022085994,0.006357278,0.9877976,-0.15561303,0.0012343153,-0.1556238,-0.98781556,,-0.20919338809699353,-0.11125368978607829,0.15482758131000002,0.00020968994348452436,0.0009564554983580831,0.0006902919966551704,0.0,,-1.5062804334531195,0.04091503876764145,0.0753274119,0.0010484497174226219,-0.5488688195577742,0.4214285223035448,-0.0006533762645371186
1.2957753690002392,,0.18633401,-1.5681788,-3.9727502,-0.58138186,-0.64515185,-0.49575618,-0.80603224,0.53976893,0.24281998,0.11093802,0.5407666,-0.83382505,,0.1345953,-1.5160106,-3.6888123,0.30564097,-0.9396171,0.15395841,-0.8755172,-0.34089822,-0.3424296,0.37423685,-0.030132715,-0.9268434,,0.18000205,-1.6303213,-4.02941,-0.999979,0.0060877483,-0.0022085994,0.006357278,0.9877976,-0.15561303,0.0012343153,-0.1556238,-0.98781556,,-0.20919338809699353,-0.11125368978607829,0.15482758131000002,0.0,0.0009564554983580831,0.0006902919966551704,0.0,,-1.5062804334531195,0.04091503876764145,0.0753274119,0.0010484497174226219,-0.5488688195577742,0.4214285223035448,-0.0006533762645371186
1.3162405829998534,,0.186334,-1.5681788,-3.9727502,-0.58124644,-0.6452736,-0.4957564,-0.80614537,0.5395999,0.24281996,0.110824734,0.54078996,-0.83382493,,0.1345953,-1.5160106,-3.6888123,0.30564097,-0.9396171,0.15395841,-0.8755172,-0.34089822,-0.3424296,0.37423685,-0.030132715,-0.9268434,,0.18000205,-1.6303213,-4.02941,-0.999979,0.0060877483,-0.0022085994,0.006357278,0.9877976,-0.15561303,0.0012343153,-0.1556238,-0.98781556,,-0.20919338809699353,-0.11125368978607829,0.15482758131000002,-0.00020968994348452436,0.0009564554983580831,0.0006902919966551704,0.0,,-1.5062804334531195,0.04091503876764145,0.0753274119,0.0010484497174226219,-0.5488688195577742,0.4214285223035448,-0.0006533762645371186
1.3428024009999717,,0.18633327,-1.5681782,-3.9727495,-0.58124584,-0.64527035,-0.49576136,-0.80614585,0.53959733,0.24282414,0.11082426,0.54079646,-0.83382076,,0.1345953,-1.5160106,-3.6888123,0.30564097,-0.9396171,0.15395841,-0.8755172,-0.34089822,-0.3424296,0.37423685,-0.030132715,-0.9268434,,0.18000205,-1.6303213,-4.02941,-0.999979,0.0060877483,-0.0022085994,0.006357278,0.9877976,-0.15561303,0.0012343153,-0.1556238,-0.98781556,,-0.20918566536411928,-0.11125368978607829,0.15482758131000002,-0.00020968994348452436,0.0009564554983580831,0.0006902919966551704,0.0,,-1.5062804334531195,0.04091503876764145,0.0753274119,0.0010484497174226219,-0.5488688195577742,0.4214285223035448,-0.0006533762645371186
1.3663965440000538,,0.186334,-1.5681788,-3.9727502,-0.58124644,-0.6452736,-0.4957564,-0.80614537,0.5395999,0.24281996,0.110824734,0.54078996,-0.83382493,,0.1345953,-1.5160106,-3.6888123,0.30564097,-0.9396171,0.15395841,-0.8755172,-0.34089822,-0.3424296,0.37423685,-0.030132715,-0.9268434,,0.18000205,-1.6303213,-4.02941,-0.999979,0.0060877483,-0.0022085994,0.006357278,0.9877976,-0.15561303,0.0012343153,-0.1556238,-0.98781556,,-0.20919338809699353,-0.11125368978607829,0.15482758131000002,-0.00020968994348452436,0.0009564554983580831,0.0006902919966551704,0.0,,-1.5062804334531195,0.04091503876764145,0.0753274119,0.0010484497174226219,-0.5488688195577742,0.4214285223035448,-0.0006533762645371186
1.3947570469999846,,0.186334,-1.5681788,-3.9727502,-0.58124644,-0.6452736,-0.4957564,-0.80614537,0.5395999,0.24281996,0.110824734,0.54078996,-0.83382493,,0.1345953,-1.5160106,-3.6888123,0.30564097,-0.9396171,0.15395841,-0.8755172,-0.34089822,-0.3424296,0.37423685,-0.030132715,-0.9268434,,0.18000205,-1.6303213,-4.02941,-0.999979,0.0060877483,-0.0022085994,0.006357278,0.9877976,-0.15561303,0.0012343153,-0.1556238,-0.98781556,,-0.20919338809699353,-0.11125368978607829,0.15482758131000002,-0.00020968994348452436,0.0009564554983580831,0.0006902919966551704,0.0,,-1.5062804334531195,0.04091503876764145,0.0753274119,0.0010484497174226219,-0.5488688195577742,0.4214285223035448,-0.0006533762645371186
1.4151657580000574,,0.186334,-1.5681788,-3.9727502,-0.58124644,-0.6452736,-0.4957564,-0.80614537,0.5395999,0.24281996,0.110824734,0.54078996,-0.83382493,,0.1345953,-1.5160106,-3.6888123,0.30564097,-0.9396171,0.15395841,-0.8755172,-0.34089822,-0.3424296,0.37423685,-0.030132715,-0.9268434,,0.18000205,-1.6303213,-4.02941,-0.999979,0.0060877483,-0.0022085994,0.006357278,0.9877976,-0.15561303,0.0012343153,-0.1556238,-0.98781556,,-0.20919338809699353,-0.11125368978607829,0.15482758131000002,-0.00020968994348452436,0.0009564554983580831,0.0006902919966551704,0.0,,-1.5062804334531195,0.04091503876764145,0.0753274119,0.0010484497174226219,-0.5488688195577742,0.4214285223035448,-0.0006533762645371186
1.4380071139999018,,0.186334,-1.5681788,-3.9727502,-0.58124644,-0.6452736,-0.4957564,-0.80614537,0.5395999,0.24281996,0.110824734,0.54078996,-0.83382493,,0.1345953,-1.5160106,-3.6888123,0.30564097,-0.9396171,0.15395841,-0.8755172,-0.34089822,-0.3424296,0.37423685,-0.030132715,-0.9268434,,0.18000205,-1.6303213,-4.02941,-0.999979,0.0060877483,-0.0022085994,0.006357278,0.9877976,-0.15561303,0.0012343153,-0.1556238,-0.98781556,,-0.20919338809699353,-0.11125368978607829,0.15482758131000002,-0.00020968994348452436,0.0009564554983580831,0.0006902919966551704,0.0,,-1.5062804334531195,0.04091503876764145,0.0753274119,0.0010484497174226219,-0.5488688195577742,0.4214285223035448,-0.0006533762645371186
1.4626310039998316,,0.18633327,-1.5681782,-3.9727495,-0.58124584,-0.64527035,-0.49576136,-0.80614585,0.53959733,0.24282414,0.11082426,0.54079646,-0.83382076,,0.1345953,-1.5160106,-3.6888123,0.30564097,-0.9396171,0.15395841,-0.8755172,-0.34089822,-0.3424296,0.37423685,-0.030132715,-0.9268434,,0.18000205,-1.6303213,-4.02941,-0.999979,0.0060877483,-0.0022085994,0.006357278,0.9877976,-0.15561303,0.0012343153,-0.1556238,-0.98781556,,-0.20918566536411928,-0.11125368978607829,0.15482758131000002,-0.00020968994348452436,0.0009564554983580831,0.0006902919966551704,0.0,,-1.5062804334531195,0.04091503876764145,0.0753274119,0.0010484497174226219,-0.5488688195577742,0.4214285223035448,-0.0006533762645371186
1.4876555760001793,,0.18633327,-1.5681782,-3.9727495,-0.58124584,-0.64527035,-0.49576136,-0.80614585,0.53959733,0.24282414,0.11082426,0.54079646,-0.83382076,,0.1345953,-1.5160106,-3.6888123,0.30564097,-0.9396171,0.15395841,-0.8755172,-0.34089822,-0.3424296,0.37423685,-0.030132715,-0.9268434,,0.18000205,-1.6303213,-4.02941,-0.999979,0.0060877483,-0.0022085994,0.006357278,0.9877976,-0.15561303,0.0012343153,-0.1556238,-0.98781556,,-0.20918566536411928,-0.11125368978607829,0.15482758131000002,-0.00020968994348452436,0.0009564554983580831,0.0006902919966551704,0.0,,-1.5062804334531195,0.04091503876764145,0.0753274119,0.0010484497174226219,-0.5488688195577742,0.4214285223035448,-0.0006533762645371186
1.5116240800002743,,0.186334,-1.5681788,-3.9727502,-0.58124644,-0.6452736,-0.4957564,-0.80614537,0.5395999,0.24281996,0.110824734,0.54078996,-0.83382493,,0.1345953,-1.5160106,-3.6888123,0.30564097,-0.9396171,0.15395841,-0.8755172,-0.34089822,-0.3424296,0.37423685,-0.030132715,-0.9268434,,0.18000205,-1.6303213,-4.02941,-0.999979,0.0060877483,-0.0022085994,0.006357278,0.9877976,-0.15561303,0.0012343153,-0.1556238,-0.98781556,,-0.20919338809699353,-0.11125368978607829,0.15482758131000002,-0.00020968994348452436,0.0009564554983580831,0.0006902919966551704,0.0,,-1.5062804334531195,0.04091503876764145,0.0753274119,0.0010484497174226219,-0.5488688195577742,0.4214285223035448,-0.0006533762645371186
1.5356147060001604,,0.18633327,-1.5681782,-3.9727495,-0.58124584,-0.64527035,-0.49576136,-0.80614585,0.53959733,0.24282414,0.11082426,0.54079646,-0.83382076,,0.1345953,-1.5160106,-3.6888123,0.30564097,-0.9396171,0.15395841,-0.8755172,-0.34089822,-0.3424296,0.37423685,-0.030132715,-0.9268434,,0.18000205,-1.6303213,-4.02941,-0.999979,0.0060877483,-0.0022085994,0.006357278,0.9877976,-0.15561303,0.0012343153,-0.1556238,-0.98781556,,-0.20918566536411928,-0.11125368978607829,0.15482758131000002,-0.00020968994348452436,0.0009564554983580831,0.0006902919966551704,0.0,,-1.5062804334531195,0.04091503876764145,0.0753274119,0.0010484497174226219,-0.5488688195577742,0.4214285223035448,-0.0006533762645371186
1.5629666999998335,,0.18633327,-1.5681782,-3.9727495,-0.58124584,-0.64527035,-0.49576136,-0.80614585,0.53959733,0.24282414,0.11082426,0.54079646,-0.83382076,,0.1345953,-1.5160106,-3.6888123,0.30564097,-0.9396171,0.15395841,-0.8755172,-0.34089822,-0.3424296,0.37423685,-0.030132715,-0.9268434,,0.18000205,-1.6303213,-4.02941,-0.999979,0.0060877483,-0.0022085994,0.006357278,0.9877976,-0.15561303,0.0012343153,-0.1556238,-0.98781556,,-0.20918566536411928,-0.11125368978607829,0.15482758131000002,-0.00020968994348452436,0.0009564554983580831,0.0006902919966551704,0.0,,-1.5062804334531195,0.04091503876764145,0.0753274119,0.0010484497174226219,-0.5488688195577742,0.4214285223035448,-0.0006533762645371186
1.582176478999827,,0.186334,-1.5681788,-3.9727502,-0.58124644,-0.6452736,-0.4957564,-0.80614537,0.5395999,0.24281996,0.110824734,0.54078996,-0.83382493,,0.1345953,-1.5160106,-3.6888123,0.30564097,-0.9396171,0.15395841,-0.8755172,-0.34089822,-0.3424296,0.37423685,-0.030132715,-0.9268434,,0.18000205,-1.6303213,-4.02941,-0.999979,0.0060877483,-0.0022085994,0.006357278,0.9877976,-0.15561303,0.0012343153,-0.1556238,-0.98781556,,-0.20919338809699353,-0.11125368978607829,0.15482758131000002,-0.00020968994348452436,0.0009564554983580831,0.0006902919966551704,0.0,,-1.5062804334531195,0.04091503876764145,0.0753274119,0.0010484497174226219,-0.5488688195577742,0.4214285223035448,-0.0006533762645371186
1.607414856000105,,0.18633327,-1.5681782,-3.9727495,-0.58124584,-0.64527035,-0.49576136,-0.80614585,0.53959733,0.24282414,0.11082426,0.54079646,-0.83382076,,0.1345953,-1.5160106,-3.6888123,0.30564097,-0.9396171,0.15395841,-0.8755172,-0.34089822,-0.3424296,0.37423685,-0.030132715,-0.9268434,,0.18000205,-1.6303213,-4.02941,-0.999979,0.0060877483,-0.0022085994,0.006357278,0.9877976,-0.15561303,0.0012343153,-0.1556238,-0.98781556,,-0.20918566536411928,-0.11125368978607829,0.15482758131000002,-0.00020968994348452436,0.0009564554983580831,0.0006902919966551704,0.0,,-1.5062804334531195,0.04091503876764145,0.0753274119,0.0010484497174226219,-0.5488688195577742,0.4214285223035448,-0.0006533762645371186
1.6300268410000172,,0.186334,-1.5681788,-3.9727502,-0.58124644,-0.6452736,-0.4957564,-0.80614537,0.5395999,0.24281996,0.110824734,0.54078996,-0.83382493,,0.13459612,-1.5160102,-3.688812,0.30563498,-0.93961716,0.15397015,-0.8755206,-0.34089684,-0.3424223,0.37423378,-0.03014778,-0.9268441,,0.18000205,-1.6303213,-4.02941,-0.999979,0.0060877483,-0.0022085994,0.006357278,0.9877976,-0.15561303,0.0012343153,-0.1556238,-0.98781556,,-0.20919338809699353,-0.11125368978607829,0.15482758131000002,-0.00020968994348452436,0.0009564554983580831,0.0006902919966551704,0.0,,-1.5062958789188678,0.04091503876764145,0.0753274119,0.0010484497174226219,-0.5488688195577742,0.4214285223035448,-0.0006533762645371186
1.6504071570002452,,0.186334,-1.5681788,-3.9727502,-0.58124644,-0.6452736,-0.4957564,-0.80614537,0.5395999,0.24281996,0.110824734,0.54078996,-0.83382493,,0.13459612,-1.5160102,-3.688812,0.30563498,-0.93961716,0.15397015,-0.8755206,-0.34089684,-0.3424223,0.37423378,-0.03014778,-0.9268441,,0.18000205,-1.6303213,-4.02941,-0.999979,0.0060877483,-0.0022085994,0.006357278,0.9877976,-0.15561303,0.0012343153,-0.1556238,-0.98781556,,-0.20919338809699353,-0.11125368978607829,0.15482758131000002,-0.00020968994348452436,0.0009564554983580831,0.0006902919966551704,0.0,,-1.5062958789188678,0.04091503876764145,0.0753274119,0.0010484497174226219,-0.5488688195577742,0.4214285223035448,-0.0006533762645371186
1.6771502159999727,,0.18633327,-1.5681782,-3.9727495,-0.58124584,-0.64527035,-0.49576136,-0.80614585,0.53959733,0.24282414,0.11082426,0.54079646,-0.83382076,,0.13459612,-1.5160102,-3.688812,0.30563498,-0.93961716,0.15397015,-0.8755206,-0.34089684,-0.3424223,0.37423378,-0.03014778,-0.9268441,,0.18000205,-1.6303213,-4.02941,-0.999979,0.0060877483,-0.0022085994,0.006357278,0.9877976,-0.15561303,0.0012343153,-0.1556238,-0.98781556,,-0.20918566536411928,-0.11125368978607829,0.15482758131000002,-0.00020968994348452436,0.0009564554983580831,0.0006902919966551704,0.0,,-1.5062958789188678,0.04091503876764145,0.0753274119,0.0010484497174226219,-0.5488688195577742,0.4214285223035448,-0.0006533762645371186
1.7001446560002478,,0.186334,-1.5681788,-3.9727502,-0.58124644,-0.6452736,-0.4957564,-0.80614537,0.5395999,0.24281996,0.110824734,0.54078996,-0.83382493,,0.13459612,-1.5160102,-3.688812,0.30563498,-0.93961716,0.15397015,-0.8755206,-0.34089684,-0.3424223,0.37423378,-0.03014778,-0.9268441,,0.18000205,-1.6303213,-4.02941,-0.999979,0.0060877483,-0.0022085994,0.006357278,0.9877976,-0.15561303,0.0012343153,-0.1556238,-0.98781556,,-0.20919338809699353,-0.11125368978607829,0.15482758131000002,-0.00020968994348452436,0.0009564554983580831,0.0006902919966551704,0.0,,-1.5062958789188678,0.04091503876764145,0.0753274119,0.0010484497174226219,-0.5488688195577742,0.4214285223035448,-0.0006533762645371186
1.7265906050001831,,0.186334,-1.5681788,-3.9727502,-0.58124644,-0.6452736,-0.4957564,-0.80614537,0.5395999,0.24281996,0.110824734,0.54078996,-0.83382493,,0.13459612,-1.5160102,-3.688812,0.30563498,-0.93961716,0.15397015,-0.8755206,-0.34089684,-0.3424223,0.37423378,-0.03014778,-0.9268441,,0.18000205,-1.6303213,-4.02941,-0.999979,0.0060877483,-0.0022085994,0.006357278,0.9877976,-0.15561303,0.0012343153,-0.1556238,-0.98781556,,-0.20919338809699353,-0.11125368978607829,0.15482758131000002,-0.00020968994348452436,0.0009564554983580831,0.0006902919966551704,0.0,,-1.5062958789188678,0.04091503876764145,0.0753274119,0.0010484497174226219,-0.5488688195577742,0.4214285223035448,-0.0006533762645371186
1.747175117000097,,0.18633327,-1.5681782,-3.9727495,-0.58124584,-0.64527035,-0.49576136,-0.80614585,0.53959733,0.24282414,0.11082426,0.54079646,-0.83382076,,0.13459612,-1.5160102,-3.688812,0.30563498,-0.93961716,0.15397015,-0.8755206,-0.34089684,-0.3424223,0.37423378,-0.03014778,-0.9268441,,0.18000205,-1.6303213,-4.02941,-0.999979,0.0060877483,-0.0022085994,0.006357278,0.9877976,-0.15561303,0.0012343153,-0.1556238,-0.98781556,,-0.20918566536411928,-0.11125368978607829,0.15482758131000002,-0.00020968994348452436,0.0009564554983580831,0.0006902919966551704,0.0,,-1.5062958789188678,0.04091503876764145,0.0753274119,0.0010484497174226219,-0.5488688195577742,0.4214285223035448,-0.0006533762645371186
1.7679582740001933,,0.186334,-1.5681788,-3.9727502,-0.58124644,-0.6452736,-0.4957564,-0.80614537,0.5395999,0.24281996,0.110824734,0.54078996,-0.83382493,,0.13459612,-1.5160102,-3.688812,0.30563498,-0.93961716,0.15397015,-0.8755206,-0.34089684,-0.3424223,0.37423378,-0.03014778,-0.9268441,,0.18000205,-1.6303213,-4.02941,-0.999979,0.0060877483,-0.0022085994,0.006357278,0.9877976,-0.15561303,0.0012343153,-0.1556238,-0.98781556,,-0.20919338809699353,-0.11125368978607829,0.15482758131000002,-0.00020968994348452436,0.0009564554983580831,0.0006902919966551704,0.0,,-1.5062958789188678,0.04091503876764145,0.0753274119,0.0010484497174226219,-0.5488688195577742,0.4214285223035448,-0.0006533762645371186
1.7890536600002633,,0.186334,-1.5681788,-3.9727502,-0.58124644,-0.6452736,-0.4957564,-0.80614537,0.5395999,0.24281996,0.110824734,0.54078996,-0.83382493,,0.13459612,-1.5160102,-3.688812,0.30563498,-0.93961716,0.15397015,-0.8755206,-0.34089684,-0.3424223,0.37423378,-0.03014778,-0.9268441,,0.18000205,-1.6303213,-4.02941,-0.999979,0.0060877483,-0.0022085994,0.006357278,0.9877976,-0.15561303,0.0012343153,-0.1556238,-0.98781556,,-0.20919338809699353,-0.11125368978607829,0.15482758131000002,-0.00020968994348452436,0.0009564554983580831,0.0006902919966551704,0.0,,-1.5062958789188678,0.04091503876764145,0.0753274119,0.0010484497174226219,-0.5488688195577742,0.4214285223035448,-0.0006533762645371186
1.8136636540002655,,0.18633327,-1.5681782,-3.9727495,-0.58124584,-0.64527035,-0.49576136,-0.80614585,0.53959733,0.24282414,0.11082426,0.54079646,-0.83382076,,0.13459612,-1.5160102,-3.688812,0.30563498,-0.93961716,0.15397015,-0.8755206,-0.34089684,-0.3424223,0.37423378,-0.03014778,-0.9268441,,0.18000205,-1.6303213,-4.02941,-0.999979,0.0060877483,-0.0022085994,0.006357278,0.9877976,-0.15561303,0.0012343153,-0.1556238,-0.98781556,,-0.20918566536411928,-0.11125368978607829,0.15482758131000002,-0.00020968994348452436,0.0009564554983580831,0.0006902919966551704,0.0,,-1.5062958789188678,0.04091503876764145,0.0753274119,0.0010484497174226219,-0.5488688195577742,0.4214285223035448,-0.0006533762645371186
1.8359447739999268,,0.18633327,-1.5681782,-3.9727495,-0.58124584,-0.64527035,-0.49576136,-0.80614585,0.53959733,0.24282414,0.11082426,0.54079646,-0.83382076,,0.13459612,-1.5160102,-3.688812,0.30563498,-0.93961716,0.15397015,-0.8755206,-0.34089684,-0.3424223,0.37423378,-0.03014778,-0.9268441,,0.18000205,-1.6303213,-4.02941,-0.999979,0.0060877483,-0.0022085994,0.006357278,0.9877976,-0.15561303,0.0012343153,-0.1556238,-0.98781556,,-0.20918566536411928,-0.11125368978607829,0.15482758131000002,-0.00020968994348452436,0.0009564554983580831,0.0006902919966551704,0.0,,-1.5062958789188678,0.04091503876764145,0.0753274119,0.0010484497174226219,-0.5488688195577742,0.4214285223035448,-0.0006533762645371186
1.8584448020001219,,0.18633327,-1.5681782,-3.9727495,-0.58124584,-0.64527035,-0.49576136,-0.80614585,0.53959733,0.24282414,0.11082426,0.54079646,-0.83382076,,0.13459572,-1.5160104,-3.6888123,0.30563796,-0.93961716,0.15396427,-0.87551886,-0.34089753,-0.34242594,0.37423533,-0.03014025,-0.92684376,,0.18000205,-1.6303213,-4.02941,-0.999979,0.0060877483,-0.0022085994,0.006357278,0.9877976,-0.15561303,0.0012343153,-0.1556238,-0.98781556,,-0.20918566536411928,-0.11125368978607829,0.15482758131000002,-0.00020968994348452436,0.0009564554983580831,0.0006902919966551704,0.0,,-1.5062881561859938,0.04091503876764145,0.0753274119,0.0010484497174226219,-0.5488688195577742,0.4214285223035448,-0.0006533762645371186
1.8812040030002208,,0.18633327,-1.5681782,-3.9727495,-0.58124584,-0.64527035,-0.49576136,-0.80614585,0.53959733,0.24282414,0.11082426,0.54079646,-0.83382076,,0.1345953,-1.5160106,-3.6888123,0.30564097,-0.9396046,0.15403514,-0.8755172,-0.3409262,-0.34240177,0.37423685,-0.030208416,-0.9268409,,0.18000205,-1.6303213,-4.02941,-0.999979,0.0060877483,-0.0022085994,0.006357278,0.9877976,-0.15561303,0.0012343153,-0.1556238,-0.98781556,,-0.20918566536411928,-0.11125368978607829,0.15482758131000002,-0.00020968994348452436,0.0009564554983580831,0.0006902919966551704,0.0,,-1.5062804334531195,0.04091503876764145,0.0753274119,0.0010484497174226219,-0.5488688195577742,0.42134684356340424,-0.0004900321984028372
1.9072233699998833,,0.186334,-1.5681788,-3.9727502,-0.58124644,-0.6452736,-0.4957564,-0.80614537,0.5395999,0.24281996,0.110824734,0.54078996,-0.83382493,,0.1345953,-1.5160106,-3.6888123,0.30564097,-0.93959194,0.15411188,-0.8755172,-0.34095418,-0.3423739,0.37423685,-0.030284122,-0.92683846,,0.18000205,-1.6303213,-4.02941,-0.999979,0.0060877483,-0.0022085994,0.006357278,0.9877976,-0.15561303,0.0012343153,-0.1556238,-0.98781556,,-0.20919338809699353,-0.11125368978607829,0.15482758131000002,-0.00020968994348452436,0.0009564554983580831,0.0006902919966551704,0.0,,-1.5062804334531195,0.04091503876764145,0.0753274119,0.0010484497174226219,-0.5488688195577742,0.42126516482326365,-0.0003266881322685593
1.9308641220000027,,0.186334,-1.5681788,-3.9727502,-0.58124644,-0.6452736,-0.4957564,-0.80614537,0.5395999,0.24281996,0.110824734,0.54078996,-0.83382493,,0.1345953,-1.5160106,-3.6888123,0.30564097,-0.93959194,0.15411188,-0.8755172,-0.34095418,-0.3423739,0.37423685,-0.030284122,-0.92683846,,0.18000205,-1.6303213,-4.02941,-0.999979,0.0060877483,-0.0022085994,0.006357278,0.9877976,-0.15561303,0.0012343153,-0.1556238,-0.98781556,,-0.20919338809699353,-0.11125368978607829,0.15482758131000002,-0.00020968994348452436,0.0009564554983580831,0.0006902919966551704,0.0,,-1.5062804334531195,0.04091503876764145,0.0753274119,0.0010484497174226219,-0.5488688195577742,0.42126516482326365,-0.0003266881322685593
1.9516715869999643,,0.18633327,-1.5681782,-3.9727495,-0.58124584,-0.64527035,-0.49576136,-0.80614585,0.53959733,0.24282414,0.11082426,0.54079646,-0.83382076,,0.13459572,-1.5160104,-3.6888123,0.30563796,-0.939592,0.15411776,-0.87551886,-0.34095347,-0.34237024,0.37423533,-0.030291658,-0.9268388,,0.18000205,-1.6303213,-4.02941,-0.999979,0.0060877483,-0.0022085994,0.006357278,0.9877976,-0.15561303,0.0012343153,-0.1556238,-0.98781556,,-0.20918566536411928,-0.11125368978607829,0.15482758131000002,-0.00020968994348452436,0.0009564554983580831,0.0006902919966551704,0.0,,-1.5062881561859938,0.04091503876764145,0.0753274119,0.0010484497174226219,-0.5488688195577742,0.42126516482326365,-0.0003266881322685593
1.9763562490002187,,0.186334,-1.5681788,-3.9727502,-0.58124644,-0.6452736,-0.4957564,-0.80614537,0.5395999,0.24281996,0.110824734,0.54078996,-0.83382493,,0.13459612,-1.5160102,-3.688812,0.30563498,-0.939592,0.15412362,-0.8755206,-0.34095278,-0.3423666,0.37423378,-0.030299194,-0.92683923,,0.18000205,-1.6303213,-4.02941,-0.999979,0.0060877483,-0.0022085994,0.006357278,0.9877976,-0.15561303,0.0012343153,-0.1556238,-0.98781556,,-0.20919338809699353,-0.11125368978607829,0.15482758131000002,-0.00020968994348452436,0.0009564554983580831,0.0006902919966551704,0.0,,-1.5062958789188678,0.04091503876764145,0.0753274119,0.0010484497174226219,-0.5488688195577742,0.42126516482326365,-0.0003266881322685593
1.9978250899998784,,0.18633327,-1.5681782,-3.9727495,-0.58124584,-0.64527035,-0.49576136,-0.80614585,0.53959733,0.24282414,0.11082426,0.54079646,-0.83382076,,0.13459612,-1.5160102,-3.688812,0.30563498,-0.939592,0.15412362,-0.8755206,-0.34095278,-0.3423666,0.37423378,-0.030299194,-0.92683923,,0.18000205,-1.6303213,-4.02941,-0.999979,0.0060877483,-0.0022085994,0.006357278,0.9877976,-0.15561303,0.0012343153,-0.1556238,-0.98781556,,-0.20918566536411928,-0.11125368978607829,0.15482758131000002,-0.00020968994348452436,0.0009564554983580831,0.0006902919966551704,0.0,,-1.5062958789188678,0.04091503876764145,0.0753274119,0.0010484497174226219,-0.5488688195577742,0.42126516482326365,-0.0003266881322685593
2.0212175850001586,,0.18633327,-1.5681782,-3.9727495,-0.58124584,-0.64527035,-0.49576136,-0.80614585,0.53959733,0.24282414,0.11082426,0.54079646,-0.83382076,,0.13459612,-1.5160102,-3.688812,0.30563498,-0.939592,0.15412362,-0.8755206,-0.34095278,-0.3423666,0.37423378,-0.030299194,-0.92683923,,0.18000205,-1.6303213,-4.02941,-0.999979,0.0060877483,-0.0022085994,0.006357278,0.9877976,-0.15561303,0.0012343153,-0.1556238,-0.98781556,,-0.20918566536411928,-0.11125368978607829,0.15482758131000002,-0.00020968994348452436,0.0009564554983580831,0.0006902919966551704,0.0,,-1.5062958789188678,0.04091503876764145,0.0753274119,0.0010484497174226219,-0.5488688195577742,0.42126516482326365,-0.0003266881322685593
2.0457307960000435,,0.186334,-1.5681788,-3.9727502,-0.58124644,-0.6452736,-0.4957564,-0.80614537,0.5395999,0.24281996,0.110824734,0.54078996,-0.83382493,,0.13459572,-1.5160104,-3.6888123,0.30563796,-0.939592,0.15411776,-0.87551886,-0.34095347,-0.34237024,0.37423533,-0.030291658,-0.9268388,,0.18000205,-1.6303213,-4.02941,-0.999979,0.0060877483,-0.0022085994,0.006357278,0.9877976,-0.15561303,0.0012343153,-0.1556238,-0.98781556,,-0.20919338809699353,-0.11125368978607829,0.15482758131000002,-0.00020968994348452436,0.0009564554983580831,0.0006902919966551704,0.0,,-1.5062881561859938,0.04091503876764145,0.0753274119,0.0010484497174226219,-0.5488688195577742,0.42126516482326365,-0.0003266881322685593
2.0658439829999224,,0.186334,-1.5681788,-3.9727502,-0.58124644,-0.6452736,-0.4957564,-0.80614537,0.5395999,0.24281996,0.110824734,0.54078996,-0.83382493,,0.1345953,-1.5160106,-3.6888123,0.30564097,-0.93959194,0.15411188,-0.8755172,-0.34095418,-0.3423739,0.37423685,-0.030284122,-0.92683846,,0.18000205,-1.6303213,-4.02941,-0.999979,0.0060877483,-0.0022085994,0.006357278,0.9877976,-0.15561303,0.0012343153,-0.1556238,-0.98781556,,-0.20919338809699353,-0.11125368978607829,0.15482758131000002,-0.00020968994348452436,0.0009564554983580831,0.0006902919966551704,0.0,,-1.5062804334531195,0.04091503876764145,0.0753274119,0.0010484497174226219,-0.5488688195577742,0.42126516482326365,-0.0003266881322685593
2.0874908830001004,,0.18640521,-1.5682062,-3.9727342,-0.581198,-0.64529204,-0.49578923,-0.8061777,0.5395671,0.2427856,0.1108439,0.5408007,-0.83381534,,0.13459441,-1.5160213,-3.6887944,0.30563918,-0.93958896,0.15413342,-0.8755062,-0.3409613,-0.34239453,0.37426364,-0.030295603,-0.92682725,,0.18001664,-1.6303293,-4.02941,-0.9999789,0.006097185,-0.002207981,0.0063665067,0.98779756,-0.1556129,0.0012322362,-0.15562367,-0.98781556,,-0.20918566536411928,-0.11125368978607829,0.15482758131000002,-0.00020968994348452436,0.0009564554983580831,0.0006902919966551704,0.0,,-1.5062804334531195,0.04091503876764145,0.0753274119,0.0010484497174226219,-0.5488688195577742,0.42126516482326365,-0.0003266881322685593
2.1129060920002303,,0.18640596,-1.5682068,-3.9727347,-0.5811986,-0.6452953,-0.49578428,-0.8061772,0.5395696,0.24278146,0.11084435,0.54079425,-0.8338195,,0.13459441,-1.5160213,-3.6887944,0.30563918,-0.93958896,0.15413342,-0.8755062,-0.3409613,-0.34239453,0.37426364,-0.030295603,-0.92682725,,0.18001664,-1.6303293,-4.02941,-0.9999789,0.006097185,-0.002207981,0.0063665067,0.98779756,-0.1556129,0.0012322362,-0.15562367,-0.98781556,,-0.20919338809699353,-0.11125368978607829,0.15482758131000002,-0.00020968994348452436,0.0009564554983580831,0.0006902919966551704,0.0,,-1.5062804334531195,0.04091503876764145,0.0753274119,0.0010484497174226219,-0.5488688195577742,0.42126516482326365,-0.0003266881322685593
2.138156527999854,,0.18640596,-1.5682068,-3.9727347,-0.5811986,-0.6452953,-0.49578428,-0.8061772,0.5395696,0.24278146,0.11084435,0.54079425,-0.8338195,,0.13459441,-1.5160213,-3.6887944,0.30563918,-0.93958896,0.15413342,-0.8755062,-0.3409613,-0.34239453,0.37426364,-0.030295603,-0.92682725,,0.18001664,-1.6303293,-4.02941,-0.9999789,0.006097185,-0.002207981,0.0063665067,0.98779756,-0.1556129,0.0012322362,-0.15562367,-0.98781556,,-0.20919338809699353,-0.11125368978607829,0.15482758131000002,-0.00020968994348452436,0.0009564554983580831,0.0006902919966551704,0.0,,-1.5062804334531195,0.04091503876764145,0.0753274119,0.0010484497174226219,-0.5488688195577742,0.42126516482326365,-0.0003266881322685593
2.1629496149998886,,0.18640521,-1.5682062,-3.9727342,-0.58133334,-0.6451702,-0.49578902,-0.8060644,0.53973615,0.24278562,0.11095718,0.5407773,-0.83381546,,0.13459441,-1.5160213,-3.6887944,0.30563918,-0.93958896,0.15413342,-0.8755062,-0.3409613,-0.34239453,0.37426364,-0.030295603,-0.92682725,,0.18001664,-1.6303293,-4.02941,-0.9999789,0.006097185,-0.002207981,0.0063665067,0.98779756,-0.1556129,0.0012322362,-0.15562367,-0.98781556,,-0.20918566536411928,-0.11125368978607829,0.15482758131000002,0.0,0.0009564554983580831,0.0006902919966551704,0.0,,-1.5062804334531195,0.04091503876764145,0.0753274119,0.0010484497174226219,-0.5488688195577742,0.42126516482326365,-0.0003266881322685593
2.182668885000112,,0.18640596,-1.5682068,-3.9727347,-0.58146924,-0.6450517,-0.49578384,-0.80595076,0.53990775,0.24278149,0.111070916,0.54074734,-0.8338198,,0.13459441,-1.5160213,-3.6887944,0.30563918,-0.93958896,0.15413342,-0.8755062,-0.3409613,-0.34239453,0.37426364,-0.030295603,-0.92682725,,0.18001664,-1.6303293,-4.02941,-0.9999789,0.006097185,-0.002207981,0.0063665067,0.98779756,-0.1556129,0.0012322362,-0.15562367,-0.98781556,,-0.20919338809699353,-0.11125368978607829,0.15482758131000002,0.00020968994348452436,0.0009564554983580831,0.0006902919966551704,0.0,,-1.5062804334531195,0.04091503876764145,0.0753274119,0.0010484497174226219,-0.5488688195577742,0.42126516482326365,-0.0003266881322685593
2.2074367790000906,,0.18640521,-1.5682062,-3.9727342,-0.5814687,-0.64504844,-0.4957888,-0.8059513,0.5399052,0.24278563,0.111070454,0.54075384,-0.8338156,,0.13459441,-1.5160213,-3.6887944,0.30563918,-0.93958896,0.15413342,-0.8755062,-0.3409613,-0.34239453,0.37426364,-0.030295603,-0.92682725,,0.18001664,-1.6303293,-4.02941,-0.9999789,0.006097185,-0.002207981,0.0063665067,0.98779756,-0.1556129,0.0012322362,-0.15562367,-0.98781556,,-0.20918566536411928,-0.11125368978607829,0.15482758131000002,0.00020968994348452436,0.0009564554983580831,0.0006902919966551704,0.0,,-1.5062804334531195,0.04091503876764145,0.0753274119,0.0010484497174226219,-0.5488688195577742,0.42126516482326365,-0.0003266881322685593
2.2297037630000887,,0.18640521,-1.5682062,-3.9727342,-0.5814687,-0.64504844,-0.4957888,-0.8059513,0.5399052,0.24278563,0.111070454,0.54075384,-0.8338156,,0.13459441,-1.5160213,-3.6887944,0.30563918,-0.93958896,0.15413342,-0.8755062,-0.3409613,-0.34239453,0.37426364,-0.030295603,-0.92682725,,0.18001664,-1.6303293,-4.02941,-0.9999789,0.006097185,-0.002207981,0.0063665067,0.98779756,-0.1556129,0.0012322362,-0.15562367,-0.98781556,,-0.20918566536411928,-0.11125368978607829,0.15482758131000002,0.00020968994348452436,0.0009564554983580831,0.0006902919966551704,0.0,,-1.5062804334531195,0.04091503876764145,0.0753274119,0.0010484497174226219,-0.5488688195577742,0.42126516482326365,-0.0003266881322685593
2.24998901500021,,0.18640596,-1.5682068,-3.9727347,-0.58146924,-0.6450517,-0.49578384,-0.80595076,0.53990775,0.24278149,0.111070916,0.54074734,-0.8338198,,0.13459441,-1.5160213,-3.6887944,0.30563918,-0.93958896,0.15413342,-0.8755062,-0.3409613,-0.34239453,0.37426364,-0.030295603,-0.92682725,,0.18001664,-1.6303293,-4.02941,-0.9999789,0.006097185,-0.002207981,0.0063665067,0.98779756,-0.1556129,0.0012322362,-0.15562367,-0.98781556,,-0.20919338809699353,-0.11125368978607829,0.15482758131000002,0.00020968994348452436,0.0009564554983580831,0.0006902919966551704,0.0,,-1.5062804334531195,0.04091503876764145,0.0753274119,0.0010484497174226219,-0.5488688195577742,0.42126516482326365,-0.0003266881322685593
2.276439569000104,,0.18640521,-1.5682062,-3.9727342,-0.5814687,-0.64504844,-0.4957888,-0.8059513,0.5399052,0.24278563,0.111070454,0.54075384,-0.8338156,,0.13459441,-1.5160213,-3.6887944,0.30563918,-0.93958896,0.15413342,-0.8755062,-0.3409613,-0.34239453,0.37426364,-0.030295603,-0.92682725,,0.18001664,-1.6303293,-4.02941,-0.9999789,0.006097185,-0.002207981,0.0063665067,0.98779756,-0.1556129,0.0012322362,-0.15562367,-0.98781556,,-0.20918566536411928,-0.11125368978607829,0.15482758131000002,0.00020968994348452436,0.0009564554983580831,0.0006902919966551704,0.0,,-1.5062804334531195,0.04091503876764145,0.0753274119,0.0010484497174226219,-0.5488688195577742,0.42126516482326365,-0.0003266881322685593
2.2984255930000472,,0.18640596,-1.5682068,-3.9727347,-0.58146924,-0.6450517,-0.49578384,-0.80595076,0.53990775,0.24278149,0.111070916,0.54074734,-0.8338198,,0.13459441,-1.5160213,-3.6887944,0.30563918,-0.93958896,0.15413342,-0.8755062,-0.3409613,-0.34239453,0.37426364,-0.030295603,-0.92682725,,0.18001664,-1.6303293,-4.02941,-0.9999789,0.006097185,-0.002207981,0.0063665067,0.98779756,-0.1556129,0.0012322362,-0.15562367,-0.98781556,,-0.20919338809699353,-0.11125368978607829,0.15482758131000002,0.00020968994348452436,0.0009564554983580831,0.0006902919966551704,0.0,,-1.5062804334531195,0.04091503876764145,0.0753274119,0.0010484497174226219,-0.5488688195577742,0.42126516482326365,-0.0003266881322685593
2.3251591020002707,,0.18640596,-1.5682068,-3.9727347,-0.58146924,-0.6450517,-0.49578384,-0.80595076,0.53990775,0.24278149,0.111070916,0.54074734,-0.8338198,,0.13459441,-1.5160213,-3.6887944,0.30563918,-0.93958896,0.15413342,-0.8755062,-0.3409613,-0.34239453,0.37426364,-0.030295603,-0.92682725,,0.18001664,-1.6303293,-4.02941,-0.9999789,0.006097185,-0.002207981,0.0063665067,0.98779756,-0.1556129,0.0012322362,-0.15562367,-0.98781556,,-0.20919338809699353,-0.11125368978607829,0.15482758131000002,0.00020968994348452436,0.0009564554983580831,0.0006902919966551704,0.0,,-1.5062804334531195,0.04091503876764145,0.0753274119,0.0010484497174226219,-0.5488688195577742,0.42126516482326365,-0.0003266881322685593
2.346510773999853,,0.18640596,-1.5682068,-3.9727347,-0.58146924,-0.6450517,-0.49578384,-0.80595076,0.53990775,0.24278149,0.111070916,0.54074734,-0.8338198,,0.13459441,-1.5160213,-3.6887944,0.30563918,-0.93958896,0.15413342,-0.8755062,-0.3409613,-0.34239453,0.37426364,-0.030295603,-0.92682725,,0.18001664,-1.6303293,-4.02941,-0.9999789,0.006097185,-0.002207981,0.0063665067,0.98779756,-0.1556129,0.0012322362,-0.15562367,-0.98781556,,-0.20919338809699353,-0.11125368978607829,0.15482758131000002,0.00020968994348452436,0.0009564554983580831,0.0006902919966551704,0.0,,-1.5062804334531195,0.04091503876764145,0.0753274119,0.0010484497174226219,-0.5488688195577742,0.42126516482326365,-0.0003266881322685593
2.3702474760002588,,0.18640521,-1.5682062,-3.9727342,-0.5814687,-0.64504844,-0.4957888,-0.8059513,0.5399052,0.24278563,0.111070454,0.54075384,-0.8338156,,0.13459441,-1.5160213,-3.6887944,0.30563918,-0.93958896,0.15413342,-0.8755062,-0.3409613,-0.34239453,0.37426364,-0.030295603,-0.92682725,,0.18001664,-1.6303293,-4.02941,-0.9999789,0.006097185,-0.002207981,0.0063665067,0.98779756,-0.1556129,0.0012322362,-0.15562367,-0.98781556,,-0.20918566536411928,-0.11125368978607829,0.15482758131000002,0.00020968994348452436,0.0009564554983580831,0.0006902919966551704,0.0,,-1.5062804334531195,0.04091503876764145,0.0753274119,0.0010484497174226219,-0.5488688195577742,0.42126516482326365,-0.0003266881322685593
2.3954401250002775,,0.18640521,-1.5682062,-3.9727342,-0.5814687,-0.64504844,-0.4957888,-0.8059513,0.5399052,0.24278563,0.111070454,0.54075384,-0.8338156,,0.13459441,-1.5160213,-3.6887944,0.30563918,-0.93958896,0.15413342,-0.8755062,-0.3409613,-0.34239453,0.37426364,-0.030295603,-0.92682725,,0.18001664,-1.6303293,-4.02941,-0.9999789,0.006097185,-0.002207981,0.0063665067,0.98779756,-0.1556129,0.0012322362,-0.15562367,-0.98781556,,-0.20918566536411928,-0.11125368978607829,0.15482758131000002,0.00020968994348452436,0.0009564554983580831,0.0006902919966551704,0.0,,-1.5062804334531195,0.04091503876764145,0.0753274119,0.0010484497174226219,-0.5488688195577742,0.42126516482326365,-0.0003266881322685593
2.4156981659998564,,0.18640521,-1.5682062,-3.9727342,-0.5814687,-0.64504844,-0.4957888,-0.8059513,0.5399052,0.24278563,0.111070454,0.54075384,-0.8338156,,0.13459413,-1.5160208,-3.6887941,0.30564323,-0.939588,0.15413126,-0.8755076,-0.34096408,-0.34238836,0.3742572,-0.030294403,-0.9268298,,0.18001664,-1.6303293,-4.02941,-0.9999789,0.006097185,-0.002207981,0.0063665067,0.98779756,-0.1556129,0.0012322362,-0.15562367,-0.98781556,,-0.20918566536411928,-0.11125368978607829,0.15482758131000002,0.00020968994348452436,0.0009564554983580831,0.0006902919966551704,0.0,,-1.5062804334531195,0.04092276150051568,0.0753274119,0.0010484497174226219,-0.5488688195577742,0.42126516482326365,-0.0003266881322685593
2.44093954400023,,0.18640521,-1.5682062,-3.9727342,-0.5814687,-0.64504844,-0.4957888,-0.8059513,0.5399052,0.24278563,0.111070454,0.54075384,-0.8338156,,0.13459523,-1.5160208,-3.688794,0.30563322,-0.93958896,0.15414517,-0.8755097,-0.34095997,-0.34238723,0.3742606,-0.030310668,-0.92682797,,0.18001664,-1.6303293,-4.02941,-0.9999789,0.006097185,-0.002207981,0.0063665067,0.98779756,-0.1556129,0.0012322362,-0.15562367,-0.98781556,,-0.20918566536411928,-0.11125368978607829,0.15482758131000002,0.00020968994348452436,0.0009564554983580831,0.0006902919966551704,0.0,,-1.5062958789188678,0.04091503876764145,0.0753274119,0.0010484497174226219,-0.5488688195577742,0.42126516482326365,-0.0003266881322685593
2.462832402999993,,0.18640596,-1.5682068,-3.9727347,-0.58146924,-0.6450517,-0.49578384,-0.80595076,0.53990775,0.24278149,0.111070916,0.54074734,-0.8338198,,0.13459523,-1.5160208,-3.688794,0.30563322,-0.93958896,0.15414517,-0.8755097,-0.34095997,-0.34238723,0.3742606,-0.030310668,-0.92682797,,0.18001664,-1.6303293,-4.02941,-0.9999789,0.006097185,-0.002207981,0.0063665067,0.98779756,-0.1556129,0.0012322362,-0.15562367,-0.98781556,,-0.20919338809699353,-0.11125368978607829,0.15482758131000002,0.00020968994348452436,0.0009564554983580831,0.0006902919966551704,0.0,,-1.5062958789188678,0.04091503876764145,0.0753274119,0.0010484497174226219,-0.5488688195577742,0.42126516482326365,-0.0003266881322685593
2.483426455999961,,0.18640521,-1.5682062,-3.9727342,-0.5814687,-0.64504844,-0.4957888,-0.8059513,0.5399052,0.24278563,0.111070454,0.54075384,-0.8338156,,0.13459523,-1.5160208,-3.688794,0.30563322,-0.93958896,0.15414517,-0.8755097,-0.34095997,-0.34238723,0.3742606,-0.030310668,-0.92682797,,0.18001664,-1.6303293,-4.02941,-0.9999789,0.006097185,-0.002207981,0.0063665067,0.98779756,-0.1556129,0.0012322362,-0.15562367,-0.98781556,,-0.20918566536411928,-0.11125368978607829,0.15482758131000002,0.00020968994348452436,0.0009564554983580831,0.0006902919966551704,0.0,,-1.5062958789188678,0.04091503876764145,0.0753274119,0.0010484497174226219,-0.5488688195577742,0.42126516482326365,-0.0003266881322685593
2.510335610999846,,0.18640596,-1.5682068,-3.9727347,-0.58146924,-0.6450517,-0.49578384,-0.80595076,0.53990775,0.24278149,0.111070916,0.54074734,-0.8338198,,0.13459523,-1.5160208,-3.688794,0.30563322,-0.93958896,0.15414517,-0.8755097,-0.34095997,-0.34238723,0.3742606,-0.030310668,-0.92682797,,0.18001664,-1.6303293,-4.02941,-0.9999789,0.006097185,-0.002207981,0.0063665067,0.98779756,-0.1556129,0.0012322362,-0.15562367,-0.98781556,,-0.20919338809699353,-0.11125368978607829,0.15482758131000002,0.00020968994348452436,0.0009564554983580831,0.0006902919966551704,0.0,,-1.5062958789188678,0.04091503876764145,0.0753274119,0.0010484497174226219,-0.5488688195577742,0.42126516482326365,-0.0003266881322685593
2.5333420010001646,,0.18640521,-1.5682062,-3.9727342,-0.5814687,-0.64504844,-0.4957888,-0.8059513,0.5399052,0.24278563,0.111070454,0.54075384,-0.8338156,,0.13459523,-1.5160208,-3.688794,0.30563322,-0.93958896,0.15414517,-0.8755097,-0.34095997,-0.34238723,0.3742606,-0.030310668,-0.92682797,,0.18001664,-1.6303293,-4.02941,-0.9999789,0.006097185,-0.002207981,0.0063665067,0.98779756,-0.1556129,0.0012322362,-0.15562367,-0.98781556,,-0.20918566536411928,-0.11125368978607829,0.15482758131000002,0.00020968994348452436,0.0009564554983580831,0.0006902919966551704,0.0,,-1.5062958789188678,0.04091503876764145,0.0753274119,0.0010484497174226219,-0.5488688195577742,0.42126516482326365,-0.0003266881322685593
2.559780752000279,,0.18640521,-1.5682062,-3.9727342,-0.5814687,-0.64504844,-0.4957888,-0.8059513,0.5399052,0.24278563,0.111070454,0.54075384,-0.8338156,,0.13459496,-1.5160203,-3.688794,0.30563727,-0.93958795,0.15414299,-0.87551105,-0.34096268,-0.34238106,0.37425417,-0.030309483,-0.9268306,,0.18001664,-1.6303293,-4.02941,-0.9999789,0.006097185,-0.002207981,0.0063665067,0.98779756,-0.1556129,0.0012322362,-0.15562367,-0.98781556,,-0.20918566536411928,-0.11125368978607829,0.15482758131000002,0.00020968994348452436,0.0009564554983580831,0.0006902919966551704,0.0,,-1.5062958789188678,0.04092276150051568,0.0753274119,0.0010484497174226219,-0.5488688195577742,0.42126516482326365,-0.0003266881322685593
2.5814836009999453,,0.18640521,-1.5682062,-3.9727342,-0.5814687,-0.64504844,-0.4957888,-0.8059513,0.5399052,0.24278563,0.111070454,0.54075384,-0.8338156,,0.13459523,-1.5160208,-3.688794,0.30563322,-0.93958896,0.15414517,-0.8755097,-0.34095997,-0.34238723,0.3742606,-0.030310668,-0.92682797,,0.18001664,-1.6303293,-4.02941,-0.9999789,0.006097185,-0.002207981,0.0063665067,0.98779756,-0.1556129,0.0012322362,-0.15562367,-0.98781556,,-0.20918566536411928,-0.11125368978607829,0.15482758131000002,0.00020968994348452436,0.0009564554983580831,0.0006902919966551704,0.0,,-1.5062958789188678,0.04091503876764145,0.0753274119,0.0010484497174226219,-0.5488688195577742,0.42126516482326365,-0.0003266881322685593
2.604902678000144,,0.18640596,-1.5682068,-3.9727347,-0.58146924,-0.6450517,-0.49578384,-0.80595076,0.53990775,0.24278149,0.111070916,0.54074734,-0.8338198,,0.13459523,-1.5160208,-3.688794,0.30563322,-0.93958896,0.15414517,-0.8755097,-0.34095997,-0.34238723,0.3742606,-0.030310668,-0.92682797,,0.18001664,-1.6303293,-4.02941,-0.9999789,0.006097185,-0.002207981,0.0063665067,0.98779756,-0.1556129,0.0012322362,-0.15562367,-0.98781556,,-0.20919338809699353,-0.11125368978607829,0.15482758131000002,0.00020968994348452436,0.0009564554983580831,0.0006902919966551704,0.0,,-1.5062958789188678,0.04091503876764145,0.0753274119,0.0010484497174226219,-0.5488688195577742,0.42126516482326365,-0.0003266881322685593
2.6285951109998678,,0.18640596,-1.5682068,-3.9727347,-0.58146924,-0.6450517,-0.49578384,-0.80595076,0.53990775,0.24278149,0.111070916,0.54074734,-0.8338198,,0.13459523,-1.5160208,-3.688794,0.30563322,-0.93958896,0.15414517,-0.8755097,-0.34095997,-0.34238723,0.3742606,-0.030310668,-0.92682797,,0.18001664,-1.6303293,-4.02941,-0.9999789,0.006097185,-0.002207981,0.0063665067,0.98779756,-0.1556129,0.0012322362,-0.15562367,-0.98781556,,-0.20919338809699353,-0.11125368978607829,0.15482758131000002,0.00020968994348452436,0.0009564554983580831,0.0006902919966551704,0.0,,-1.5062958789188678,0.04091503876764145,0.0753274119,0.0010484497174226219,-0.5488688195577742,0.42126516482326365,-0.0003266881322685593
2.649724055000206,,0.18640596,-1.5682068,-3.9727347,-0.58146924,-0.6450517,-0.49578384,-0.80595076,0.53990775,0.24278149,0.111070916,0.54074734,-0.8338198,,0.13459523,-1.5160208,-3.688794,0.30563322,-0.93958896,0.15414517,-0.8755097,-0.34095997,-0.34238723,0.3742606,-0.030310668,-0.92682797,,0.18001664,-1.6303293,-4.02941,-0.9999789,0.006097185,-0.002207981,0.0063665067,0.98779756,-0.1556129,0.0012322362,-0.15562367,-0.98781556,,-0.20919338809699353,-0.11125368978607829,0.15482758131000002,0.00020968994348452436,0.0009564554983580831,0.0006902919966551704,0.0,,-1.5062958789188678,0.04091503876764145,0.0753274119,0.0010484497174226219,-0.5488688195577742,0.42126516482326365,-0.0003266881322685593
2.6769107159998384,,0.18640596,-1.5682068,-3.9727347,-0.58146924,-0.6450517,-0.49578384,-0.80595076,0.53990775,0.24278149,0.111070916,0.54074734,-0.8338198,,0.13459523,-1.5160208,-3.688794,0.30563322,-0.93958896,0.15414517,-0.8755097,-0.34095997,-0.34238723,0.3742606,-0.030310668,-0.92682797,,0.18001664,-1.6303293,-4.02941,-0.9999789,0.006097185,-0.002207981,0.0063665067,0.98779756,-0.1556129,0.0012322362,-0.15562367,-0.98781556,,-0.20919338809699353,-0.11125368978607829,0.15482758131000002,0.00020968994348452436,0.0009564554983580831,0.0006902919966551704,0.0,,-1.5062958789188678,0.04091503876764145,0.0753274119,0.0010484497174226219,-0.5488688195577742,0.42126516482326365,-0.0003266881322685593
2.702701215000161,,0.18640596,-1.5682068,-3.9727347,-0.58146924,-0.6450517,-0.49578384,-0.80595076,0.53990775,0.24278149,0.111070916,0.54074734,-0.8338198,,0.13459523,-1.5160208,-3.688794,0.30563322,-0.93958896,0.15414517,-0.8755097,-0.34095997,-0.34238723,0.3742606,-0.030310668,-0.92682797,,0.18001664,-1.6303293,-4.02941,-0.9999789,0.006097185,-0.002207981,0.0063665067,0.98779756,-0.1556129,0.0012322362,-0.15562367,-0.98781556,,-0.20919338809699353,-0.11125368978607829,0.15482758131000002,0.00020968994348452436,0.0009564554983580831,0.0006902919966551704,0.0,,-1.5062958789188678,0.04091503876764145,0.0753274119,0.0010484497174226219,-0.5488688195577742,0.42126516482326365,-0.0003266881322685593
2.728974747999928,,0.18640521,-1.5682062,-3.9727342,-0.5814687,-0.64504844,-0.4957888,-0.8059513,0.5399052,0.24278563,0.111070454,0.54075384,-0.8338156,,0.13459523,-1.5160208,-3.688794,0.30563322,-0.93958896,0.15414517,-0.8755097,-0.34095997,-0.34238723,0.3742606,-0.030310668,-0.92682797,,0.18001664,-1.6303293,-4.02941,-0.9999789,0.006097185,-0.002207981,0.0063665067,0.98779756,-0.1556129,0.0012322362,-0.15562367,-0.98781556,,-0.20918566536411928,-0.11125368978607829,0.15482758131000002,0.00020968994348452436,0.0009564554983580831,0.0006902919966551704,0.0,,-1.5062958789188678,0.04091503876764145,0.0753274119,0.0010484497174226219,-0.5488688195577742,0.42126516482326365,-0.0003266881322685593
2.7493053460002557,,0.18640521,-1.5682062,-3.9727342,-0.5814687,-0.64504844,-0.4957888,-0.8059513,0.5399052,0.24278563,0.111070454,0.54075384,-0.8338156,,0.13459523,-1.5160208,-3.688794,0.30563322,-0.93958896,0.15414517,-0.8755097,-0.34095997,-0.34238723,0.3742606,-0.030310668,-0.92682797,,0.18001664,-1.6303293,-4.02941,-0.9999789,0.006097185,-0.002207981,0.0063665067,0.98779756,-0.1556129,0.0012322362,-0.15562367,-0.98781556,,-0.20918566536411928,-0.11125368978607829,0.15482758131000002,0.00020968994348452436,0.0009564554983580831,0.0006902919966551704,0.0,,-1.5062958789188678,0.04091503876764145,0.0753274119,0.0010484497174226219,-0.5488688195577742,0.42126516482326365,-0.0003266881322685593
2.776514641000176,,0.18640596,-1.5682068,-3.9727347,-0.58146924,-0.6450517,-0.49578384,-0.80595076,0.53990775,0.24278149,0.111070916,0.54074734,-0.8338198,,0.13459523,-1.5160208,-3.688794,0.30563322,-0.93958896,0.15414517,-0.8755097,-0.34095997,-0.34238723,0.3742606,-0.030310668,-0.92682797,,0.18001664,-1.6303293,-4.02941,-0.9999789,0.006097185,-0.002207981,0.0063665067,0.98779756,-0.1556129,0.0012322362,-0.15562367,-0.98781556,,-0.20919338809699353,-0.11125368978607829,0.15482758131000002,0.00020968994348452436,0.0009564554983580831,0.0006902919966551704,0.0,,-1.5062958789188678,0.04091503876764145,0.0753274119,0.0010484497174226219,-0.5488688195577742,0.42126516482326365,-0.0003266881322685593
2.7991597000000183,,0.18640521,-1.5682062,-3.9727342,-0.5814687,-0.64504844,-0.4957888,-0.8059513,0.5399052,0.24278563,0.111070454,0.54075384,-0.8338156,,0.13459523,-1.5160208,-3.688794,0.30563322,-0.93958896,0.15414517,-0.8755097,-0.34095997,-0.34238723,0.3742606,-0.030310668,-0.92682797,,0.18001664,-1.6303293,-4.02941,-0.9999789,0.006097185,-0.002207981,0.0063665067,0.98779756,-0.1556129,0.0012322362,-0.15562367,-0.98781556,,-0.20918566536411928,-0.11125368978607829,0.15482758131000002,0.00020968994348452436,0.0009564554983580831,0.0006902919966551704,0.0,,-1.5062958789188678,0.04091503876764145,0.0753274119,0.0010484497174226219,-0.5488688195577742,0.42126516482326365,-0.0003266881322685593
2.82697972699998,,0.18640596,-1.5682068,-3.9727347,-0.58146924,-0.6450517,-0.49578384,-0.80595076,0.53990775,0.24278149,0.111070916,0.54074734,-0.8338198,,0.13459496,-1.5160203,-3.688794,0.30563727,-0.93958795,0.15414299,-0.87551105,-0.34096268,-0.34238106,0.37425417,-0.030309483,-0.9268306,,0.18001664,-1.6303293,-4.02941,-0.9999789,0.006097185,-0.002207981,0.0063665067,0.98779756,-0.1556129,0.0012322362,-0.15562367,-0.98781556,,-0.20919338809699353,-0.11125368978607829,0.15482758131000002,0.00020968994348452436,0.0009564554983580831,0.0006902919966551704,0.0,,-1.5062958789188678,0.04092276150051568,0.0753274119,0.0010484497174226219,-0.5488688195577742,0.42126516482326365,-0.0003266881322685593
2.848238966000281,,0.18640596,-1.5682068,-3.9727347,-0.58146924,-0.6450517,-0.49578384,-0.80595076,0.53990775,0.24278149,0.111070916,0.54074734,-0.8338198,,0.13459523,-1.5160208,-3.688794,0.30563322,-0.93958896,0.15414517,-0.8755097,-0.34095997,-0.34238723,0.3742606,-0.030310668,-0.92682797,,0.18001664,-1.6303293,-4.02941,-0.9999789,0.006097185,-0.002207981,0.0063665067,0.98779756,-0.1556129,0.0012322362,-0.15562367,-0.98781556,,-0.20919338809699353,-0.11125368978607829,0.15482758131000002,0.00020968994348452436,0.0009564554983580831,0.0006902919966551704,0.0,,-1.5062958789188678,0.04091503876764145,0.0753274119,0.0010484497174226219,-0.5488688195577742,0.42126516482326365,-0.0003266881322685593
2.874724702000094,,0.18640596,-1.5682068,-3.9727347,-0.58146924,-0.6450517,-0.49578384,-0.80595076,0.53990775,0.24278149,0.111070916,0.54074734,-0.8338198,,0.13459523,-1.5160208,-3.688794,0.30563322,-0.93958896,0.15414517,-0.8755097,-0.34095997,-0.34238723,0.3742606,-0.030310668,-0.92682797,,0.18001664,-1.6303293,-4.02941,-0.9999789,0.006097185,-0.002207981,0.0063665067,0.98779756,-0.1556129,0.0012322362,-0.15562367,-0.98781556,,-0.20919338809699353,-0.11125368978607829,0.15482758131000002,0.00020968994348452436,0.0009564554983580831,0.0006902919966551704,0.0,,-1.5062958789188678,0.04091503876764145,0.0753274119,0.0010484497174226219,-0.5488688195577742,0.42126516482326365,-0.0003266881322685593
2.896740192999914,,0.18640521,-1.5682062,-3.9727342,-0.5814687,-0.64504844,-0.4957888,-0.8059513,0.5399052,0.24278563,0.111070454,0.54075384,-0.8338156,,0.13459523,-1.5160208,-3.688794,0.30563322,-0.93958896,0.15414517,-0.8755097,-0.34095997,-0.34238723,0.3742606,-0.030310668,-0.92682797,,0.18001664,-1.6303293,-4.02941,-0.9999789,0.006097185,-0.002207981,0.0063665067,0.98779756,-0.1556129,0.0012322362,-0.15562367,-0.98781556,,-0.20918566536411928,-0.11125368978607829,0.15482758131000002,0.00020968994348452436,0.0009564554983580831,0.0006902919966551704,0.0,,-1.5062958789188678,0.04091503876764145,0.0753274119,0.0010484497174226219,-0.5488688195577742,0.42126516482326365,-0.0003266881322685593
2.9185563840001123,,0.18640521,-1.5682062,-3.9727342,-0.5814687,-0.64504844,-0.4957888,-0.8059513,0.5399052,0.24278563,0.111070454,0.54075384,-0.8338156,,0.13459523,-1.5160208,-3.688794,0.30563322,-0.93958896,0.15414517,-0.8755097,-0.34095997,-0.34238723,0.3742606,-0.030310668,-0.92682797,,0.18001664,-1.6303293,-4.02941,-0.9999789,0.006097185,-0.002207981,0.0063665067,0.98779756,-0.1556129,0.0012322362,-0.15562367,-0.98781556,,-0.20918566536411928,-0.11125368978607829,0.15482758131000002,0.00020968994348452436,0.0009564554983580831,0.0006902919966551704,0.0,,-1.5062958789188678,0.04091503876764145,0.0753274119,0.0010484497174226219,-0.5488688195577742,0.42126516482326365,-0.0003266881322685593
2.94448076100025,,0.18640521,-1.5682062,-3.9727342,-0.5814687,-0.64504844,-0.4957888,-0.8059513,0.5399052,0.24278563,0.111070454,0.54075384,-0.8338156,,0.13459523,-1.5160208,-3.688794,0.30563322,-0.93958896,0.15414517,-0.8755097,-0.34095997,-0.34238723,0.3742606,-0.030310668,-0.92682797,,0.18001664,-1.6303293,-4.02941,-0.9999789,0.006097185,-0.002207981,0.0063665067,0.98779756,-0.1556129,0.0012322362,-0.15562367,-0.98781556,,-0.20918566536411928,-0.11125368978607829,0.15482758131000002,0.00020968994348452436,0.0009564554983580831,0.0006902919966551704,0.0,,-1.5062958789188678,0.04091503876764145,0.0753274119,0.0010484497174226219,-0.5488688195577742,0.42126516482326365,-0.0003266881322685593
2.968088867000006,,0.18640596,-1.5682068,-3.9727347,-0.58146924,-0.6450517,-0.49578384,-0.80595076,0.53990775,0.24278149,0.111070916,0.54074734,-0.8338198,,0.13459523,-1.5160208,-3.688794,0.30563322,-0.93958896,0.15414517,-0.8755097,-0.34095997,-0.34238723,0.3742606,-0.030310668,-0.92682797,,0.18001664,-1.6303293,-4.02941,-0.9999789,0.006097185,-0.002207981,0.0063665067,0.98779756,-0.1556129,0.0012322362,-0.15562367,-0.98781556,,-0.20919338809699353,-0.11125368978607829,0.15482758131000002,0.00020968994348452436,0.0009564554983580831,0.0006902919966551704,0.0,,-1.5062958789188678,0.04091503876764145,0.0753274119,0.0010484497174226219,-0.5488688195577742,0.42126516482326365,-0.0003266881322685593
2.993802878000224,,0.18640596,-1.5682068,-3.9727347,-0.58146924,-0.6450517,-0.49578384,-0.80595076,0.53990775,0.24278149,0.111070916,0.54074734,-0.8338198,,0.13459523,-1.5160208,-3.688794,0.30563322,-0.93958896,0.15414517,-0.8755097,-0.34095997,-0.34238723,0.3742606,-0.030310668,-0.92682797,,0.18001664,-1.6303293,-4.02941,-0.9999789,0.006097185,-0.002207981,0.0063665067,0.98779756,-0.1556129,0.0012322362,-0.15562367,-0.98781556,,-0.20919338809699353,-0.11125368978607829,0.15482758131000002,0.00020968994348452436,0.0009564554983580831,0.0006902919966551704,0.0,,-1.5062958789188678,0.04091503876764145,0.0753274119,0.0010484497174226219,-0.5488688195577742,0.42126516482326365,-0.0003266881322685593
3.015890118000243,,0.18640596,-1.5682068,-3.9727347,-0.5813339,-0.64517355,-0.49578404,-0.806064,0.5397387,0.24278148,0.11095764,0.54077077,-0.8338196,,0.13459481,-1.516021,-3.6887941,0.30563623,-0.93958896,0.15413928,-0.875508,-0.34096062,-0.3423909,0.3742621,-0.030303136,-0.92682755,,0.18001664,-1.6303293,-4.02941,-0.9999789,0.006097185,-0.002207981,0.0063665067,0.98779756,-0.1556129,0.0012322362,-0.15562367,-0.98781556,,-0.20919338809699353,-0.11125368978607829,0.15482758131000002,0.0,0.0009564554983580831,0.0006902919966551704,0.0,,-1.5062881561859938,0.04091503876764145,0.0753274119,0.0010484497174226219,-0.5488688195577742,0.42126516482326365,-0.0003266881322685593
3.042790798000169,,0.18640521,-1.5682062,-3.9727342,-0.581198,-0.64529204,-0.49578923,-0.8061777,0.5395671,0.2427856,0.1108439,0.5408007,-0.83381534,,0.13459441,-1.5160213,-3.6887944,0.30563918,-0.93958896,0.15413342,-0.8755062,-0.3409613,-0.34239453,0.37426364,-0.030295603,-0.92682725,,0.18001664,-1.6303293,-4.02941,-0.9999789,0.006097185,-0.002207981,0.0063665067,0.98779756,-0.1556129,0.0012322362,-0.15562367,-0.98781556,,-0.20918566536411928,-0.11125368978607829,0.15482758131000002,-0.00020968994348452436,0.0009564554983580831,0.0006902919966551704,0.0,,-1.5062804334531195,0.04091503876764145,0.0753274119,0.0010484497174226219,-0.5488688195577742,0.42126516482326365,-0.0003266881322685593
3.063881520999985,,0.18640521,-1.5682062,-3.9727342,-0.581198,-0.64529204,-0.49578923,-0.8061777,0.5395671,0.2427856,0.1108439,0.5408007,-0.83381534,,0.13459441,-1.5160213,-3.6887944,0.30563918,-0.93958896,0.15413342,-0.8755062,-0.3409613,-0.34239453,0.37426364,-0.030295603,-0.92682725,,0.18001664,-1.6303293,-4.02941,-0.9999789,0.006097185,-0.002207981,0.0063665067,0.98779756,-0.1556129,0.0012322362,-0.15562367,-0.98781556,,-0.20918566536411928,-0.11125368978607829,0.15482758131000002,-0.00020968994348452436,0.0009564554983580831,0.0006902919966551704,0.0,,-1.5062804334531195,0.04091503876764145,0.0753274119,0.0010484497174226219,-0.5488688195577742,0.42126516482326365,-0.0003266881322685593
3.087280815000213,,0.18640661,-1.5682058,-3.972735,-0.5812023,-0.6452953,-0.49577975,-0.80617535,0.5395696,0.24278769,0.11083793,0.54079425,-0.8338204,,0.13459441,-1.5160213,-3.6887944,0.30563918,-0.93958896,0.15413342,-0.8755062,-0.3409613,-0.34239453,0.37426364,-0.030295603,-0.92682725,,0.18001664,-1.6303293,-4.02941,-0.9999789,0.006097185,-0.002207981,0.0063665067,0.98779756,-0.1556129,0.0012322362,-0.15562367,-0.98781556,,-0.20919338809699353,-0.11124596705320407,0.15482758131000002,-0.00020968994348452436,0.0009564554983580831,0.0006902919966551704,0.0,,-1.5062804334531195,0.04091503876764145,0.0753274119,0.0010484497174226219,-0.5488688195577742,0.42126516482326365,-0.0003266881322685593
3.1135134360001757,,0.18640521,-1.5682062,-3.9727342,-0.581198,-0.64529204,-0.49578923,-0.8061777,0.5395671,0.2427856,0.1108439,0.5408007,-0.83381534,,0.13459441,-1.5160213,-3.6887944,0.30563918,-0.93958896,0.15413342,-0.8755062,-0.3409613,-0.34239453,0.37426364,-0.030295603,-0.92682725,,0.18001664,-1.6303293,-4.02941,-0.9999789,0.006097185,-0.002207981,0.0063665067,0.98779756,-0.1556129,0.0012322362,-0.15562367,-0.98781556,,-0.20918566536411928,-0.11125368978607829,0.15482758131000002,-0.00020968994348452436,0.0009564554983580831,0.0006902919966551704,0.0,,-1.5062804334531195,0.04091503876764145,0.0753274119,0.0010484497174226219,-0.5488688195577742,0.42126516482326365,-0.0003266881322685593
3.137786860000233,,0.18640596,-1.5682068,-3.9727347,-0.5811986,-0.6452953,-0.49578428,-0.8061772,0.5395696,0.24278146,0.11084435,0.54079425,-0.8338195,,0.13459441,-1.5160213,-3.6887944,0.30563918,-0.93958896,0.15413342,-0.8755062,-0.3409613,-0.34239453,0.37426364,-0.030295603,-0.92682725,,0.18001664,-1.6303293,-4.02941,-0.9999789,0.006097185,-0.002207981,0.0063665067,0.98779756,-0.1556129,0.0012322362,-0.15562367,-0.98781556,,-0.20919338809699353,-0.11125368978607829,0.15482758131000002,-0.00020968994348452436,0.0009564554983580831,0.0006902919966551704,0.0,,-1.5062804334531195,0.04091503876764145,0.0753274119,0.0010484497174226219,-0.5488688195577742,0.42126516482326365,-0.0003266881322685593
3.1620466469998973,,0.18640596,-1.5682068,-3.9727347,-0.5811986,-0.6452953,-0.49578428,-0.8061772,0.5395696,0.24278146,0.11084435,0.54079425,-0.8338195,,0.13459441,-1.5160213,-3.6887944,0.30563918,-0.93958896,0.15413342,-0.8755062,-0.3409613,-0.34239453,0.37426364,-0.030295603,-0.92682725,,0.18001664,-1.6303293,-4.02941,-0.9999789,0.006097185,-0.002207981,0.0063665067,0.98779756,-0.1556129,0.0012322362,-0.15562367,-0.98781556,,-0.20919338809699353,-0.11125368978607829,0.15482758131000002,-0.00020968994348452436,0.0009564554983580831,0.0006902919966551704,0.0,,-1.5062804334531195,0.04091503876764145,0.0753274119,0.0010484497174226219,-0.5488688195577742,0.42126516482326365,-0.0003266881322685593
3.1834701779998795,,0.18640521,-1.5682062,-3.9727342,-0.581198,-0.64529204,-0.49578923,-0.8061777,0.5395671,0.2427856,0.1108439,0.5408007,-0.83381534,,0.13459441,-1.5160213,-3.6887944,0.30563918,-0.93958896,0.15413342,-0.8755062,-0.3409613,-0.34239453,0.37426364,-0.030295603,-0.92682725,,0.18001664,-1.6303293,-4.02941,-0.9999789,0.006097185,-0.002207981,0.0063665067,0.98779756,-0.1556129,0.0012322362,-0.15562367,-0.98781556,,-0.20918566536411928,-0.11125368978607829,0.15482758131000002,-0.00020968994348452436,0.0009564554983580831,0.0006902919966551704,0.0,,-1.5062804334531195,0.04091503876764145,0.0753274119,0.0010484497174226219,-0.5488688195577742,0.42126516482326365,-0.0003266881322685593
3.211947429000247,,0.18633808,-1.5681976,-3.9727135,-0.5812622,-0.6452537,-0.49576384,-0.80612636,0.53964525,0.24278222,0.11088047,0.5407684,-0.8338314,,0.13459441,-1.5160213,-3.6887944,0.30563918,-0.93958896,0.15413342,-0.8755062,-0.3409613,-0.34239453,0.37426364,-0.030295603,-0.92682725,,0.18001664,-1.6303293,-4.02941,-0.9999789,0.006097185,-0.002207981,0.0063665067,0.98779756,-0.1556129,0.0012322362,-0.15562367,-0.98781556,,-0.20918566536411928,-0.11125368978607829,0.15482758131000002,-0.00020968994348452436,0.0009564554983580831,0.0006902919966551704,0.0,,-1.5062804334531195,0.04091503876764145,0.0753274119,0.0010484497174226219,-0.5488688195577742,0.42126516482326365,-0.0003266881322685593
3.2341974760001904,,0.18632434,-1.5681949,-3.972721,-0.58125544,-0.6452607,-0.4957627,-0.806131,0.5396422,0.24277362,0.11088215,0.5407632,-0.8338346,,0.13455689,-1.5160452,-3.6887853,0.30556718,-0.93961525,0.15411627,-0.87551963,-0.34088895,-0.3424325,0.3742913,-0.030295692,-0.92681605,,0.1800026,-1.630326,-4.029417,-0.999979,0.0060882326,-0.0022085677,0.0063577476,0.9877976,-0.15561303,0.0012342093,-0.15562378,-0.98781556,,-0.20919338809699353,-0.11125368978607829,0.15482758131000002,-0.00020968994348452436,0.0009564554983580831,0.0006902919966551704,0.0,,-1.5062804334531195,0.04091503876764145,0.0753274119,0.0010484497174226219,-0.5488688195577742,0.42126516482326365,-0.0003266881322685593
3.26160995500004,,0.18632361,-1.5681943,-3.9727206,-0.5812549,-0.6452574,-0.49576762,-0.8061315,0.5396397,0.2427778,0.11088169,0.54076964,-0.8338305,,0.13455772,-1.5160447,-3.6887848,0.3055612,-0.9396153,0.154128,-0.87552303,-0.3408876,-0.3424252,0.37428823,-0.030310769,-0.9268168,,0.1800026,-1.630326,-4.029417,-0.999979,0.0060882326,-0.0022085677,0.0063577476,0.9877976,-0.15561303,0.0012342093,-0.15562378,-0.98781556,,-0.20918566536411928,-0.11125368978607829,0.15482758131000002,-0.00020968994348452436,0.0009564554983580831,0.0006902919966551704,0.0,,-1.5062958789188678,0.04091503876764145,0.0753274119,0.0010484497174226219,-0.5488688195577742,0.42126516482326365,-0.0003266881322685593
3.2813203559999238,,0.18632434,-1.5681949,-3.972721,-0.58125544,-0.6452607,-0.4957627,-0.806131,0.5396422,0.24277362,0.11088215,0.5407632,-0.8338346,,0.13455772,-1.5160447,-3.6887848,0.3055612,-0.9396153,0.154128,-0.87552303,-0.3408876,-0.3424252,0.37428823,-0.030310769,-0.9268168,,0.1800026,-1.630326,-4.029417,-0.999979,0.0060882326,-0.0022085677,0.0063577476,0.9877976,-0.15561303,0.0012342093,-0.15562378,-0.98781556,,-0.20919338809699353,-0.11125368978607829,0.15482758131000002,-0.00020968994348452436,0.0009564554983580831,0.0006902919966551704,0.0,,-1.5062958789188678,0.04091503876764145,0.0753274119,0.0010484497174226219,-0.5488688195577742,0.42126516482326365,-0.0003266881322685593
3.3061645110001336,,0.18632434,-1.5681949,-3.972721,-0.58125544,-0.6452607,-0.4957627,-0.806131,0.5396422,0.24277362,0.11088215,0.5407632,-0.8338346,,0.13455772,-1.5160447,-3.6887848,0.3055612,-0.9396153,0.154128,-0.87552303,-0.3408876,-0.3424252,0.37428823,-0.030310769,-0.9268168,,0.1800026,-1.630326,-4.029417,-0.999979,0.0060882326,-0.0022085677,0.0063577476,0.9877976,-0.15561303,0.0012342093,-0.15562378,-0.98781556,,-0.20919338809699353,-0.11125368978607829,0.15482758131000002,-0.00020968994348452436,0.0009564554983580831,0.0006902919966551704,0.0,,-1.5062958789188678,0.04091503876764145,0.0753274119,0.0010484497174226219,-0.5488688195577742,0.42126516482326365,-0.0003266881322685593
3.327974336999887,,0.18632361,-1.5681943,-3.9727206,-0.5812549,-0.6452574,-0.49576762,-0.8061315,0.5396397,0.2427778,0.11088169,0.54076964,-0.8338305,,0.13455772,-1.5160447,-3.6887848,0.3055612,-0.9396153,0.154128,-0.87552303,-0.3408876,-0.3424252,0.37428823,-0.030310769,-0.9268168,,0.1800026,-1.630326,-4.029417,-0.999979,0.0060882326,-0.0022085677,0.0063577476,0.9877976,-0.15561303,0.0012342093,-0.15562378,-0.98781556,,-0.20918566536411928,-0.11125368978607829,0.15482758131000002,-0.00020968994348452436,0.0009564554983580831,0.0006902919966551704,0.0,,-1.5062958789188678,0.04091503876764145,0.0753274119,0.0010484497174226219,-0.5488688195577742,0.42126516482326365,-0.0003266881322685593
3.3490005070002553,,0.18632361,-1.5681943,-3.9727206,-0.5812549,-0.6452574,-0.49576762,-0.8061315,0.5396397,0.2427778,0.11088169,0.54076964,-0.8338305,,0.13455772,-1.5160447,-3.6887848,0.3055612,-0.9396153,0.154128,-0.87552303,-0.3408876,-0.3424252,0.37428823,-0.030310769,-0.9268168,,0.1800026,-1.630326,-4.029417,-0.999979,0.0060882326,-0.0022085677,0.0063577476,0.9877976,-0.15561303,0.0012342093,-0.15562378,-0.98781556,,-0.20918566536411928,-0.11125368978607829,0.15482758131000002,-0.00020968994348452436,0.0009564554983580831,0.0006902919966551704,0.0,,-1.5062958789188678,0.04091503876764145,0.0753274119,0.0010484497174226219,-0.5488688195577742,0.42126516482326365,-0.0003266881322685593
3.3755046109999967,,0.18632361,-1.5681943,-3.9727206,-0.5812549,-0.6452574,-0.49576762,-0.8061315,0.5396397,0.2427778,0.11088169,0.54076964,-0.8338305,,0.13455746,-1.5160443,-3.6887848,0.30556524,-0.9396143,0.15412585,-0.87552434,-0.34089038,-0.34241903,0.37428182,-0.030309588,-0.9268195,,0.1800026,-1.630326,-4.029417,-0.999979,0.0060882326,-0.0022085677,0.0063577476,0.9877976,-0.15561303,0.0012342093,-0.15562378,-0.98781556,,-0.20918566536411928,-0.11125368978607829,0.15482758131000002,-0.00020968994348452436,0.0009564554983580831,0.0006902919966551704,0.0,,-1.5062958789188678,0.04092276150051568,0.0753274119,0.0010484497174226219,-0.5488688195577742,0.42126516482326365,-0.0003266881322685593
