AlexandreBanks6/ExpertPlaybackApp/resources/Motions/Motion_Best.csv
Time,si_T_psm1,Tx,Ty,Tz,R00,R01,R02,R10,R11,R12,R20,R21,R22,si_T_psm3,Tx,Ty,Tz,R00,R01,R02,R10,R11,R12,R20,R21,R22,si_T_ecm,Tx,Ty,Tz,R00,R01,R02,R10,R11,R12,R20,R21,R22,joint_vars_psm1,q1,q2,q3,q4,q5,q6,jaw,joint_vars_psm3,q1,q2,q3,q4,q5,q6,jaw
lci_T_si
,,-0.05525186,0.066691525,0.4040655,0.9968903,0.02804535,-0.073641956,0.012225793,-0.9782536,-0.20705168,-0.07784735,0.20550749,-0.97555447
rci_T_si
,,-0.07175273,0.075524986,0.4803801,0.99967945,0.0071507012,-0.024287555,-2.1753583e-05,-0.95904446,-0.2832556,-0.025318323,0.28316534,-0.95873684
ecm_T_lc
,,-0.039348,0.051043153,-0.2725159,-0.9888841,-0.12934415,0.07333705,0.13224038,-0.9905602,0.036096916,0.06797584,0.045393787,0.9966537
ecm_T_rc
,,0.010096899,0.19171284,-0.6841031,-0.99695045,-0.013193613,-0.07691395,0.014341901,-0.9997935,-0.014396289,-0.07670814,-0.015455482,0.99693376
0.0238691670820117,,0.13656531,-0.070545286,0.485408,-0.4647582,-0.67506623,-0.57296187,-0.8840957,0.38941085,0.2583289,0.0487285,0.62661374,-0.77780503,,-0.49881485,-0.05029154,0.7450856,0.009114847,-0.46635735,0.8845494,-0.9376311,0.30343136,0.16963872,-0.3475123,-0.83092725,-0.4345055,,0.03813974,-0.017559648,0.12796617,-0.993097,0.116929,-0.009264539,0.113889545,0.9801435,0.16232026,0.028060537,0.16014466,-0.9866946,,-0.24416192255148209,-0.28189519537494306,0.10295783325,0.0037744189827214384,-0.022818295460828555,0.016401463933507197,-0.0017967847274770713,,-0.6574362495827325,-0.10841944682123789,0.13362935094,-0.002935659208783341,-0.0006831824988272023,-0.005650494732200622,-0.0022868169258799097
0.051526458002626896,,0.13656619,-0.07054562,0.4854073,-0.46475628,-0.6750628,-0.57296735,-0.88409674,0.3894072,0.2583309,0.04872799,0.6266195,-0.77780044,,-0.49881485,-0.05029154,0.7450856,0.009114847,-0.46635735,0.8845494,-0.9376311,0.30343136,0.16963872,-0.3475123,-0.83092725,-0.4345055,,0.03813974,-0.017559648,0.12796617,-0.993097,0.116929,-0.009264539,0.113889545,0.9801435,0.16232026,0.028060537,0.16014466,-0.9866946,,-0.24415419981860786,-0.28189519537494306,0.10295783325,0.0037744189827214384,-0.022818295460828555,0.016401463933507197,-0.0017967847274770713,,-0.6574362495827325,-0.10841944682123789,0.13362935094,-0.002935659208783341,-0.0006831824988272023,-0.005650494732200622,-0.0022868169258799097
0.07542021316476166,,0.13656531,-0.070545286,0.485408,-0.4647582,-0.67506623,-0.57296187,-0.8840957,0.38941085,0.2583289,0.0487285,0.62661374,-0.77780503,,-0.49881485,-0.05029154,0.7450856,0.009114847,-0.46635735,0.8845494,-0.9376311,0.30343136,0.16963872,-0.3475123,-0.83092725,-0.4345055,,0.03813974,-0.017559648,0.12796617,-0.993097,0.116929,-0.009264539,0.113889545,0.9801435,0.16232026,0.028060537,0.16014466,-0.9866946,,-0.24416192255148209,-0.28189519537494306,0.10295783325,0.0037744189827214384,-0.022818295460828555,0.016401463933507197,-0.0017967847274770713,,-0.6574362495827325,-0.10841944682123789,0.13362935094,-0.002935659208783341,-0.0006831824988272023,-0.005650494732200622,-0.0022868169258799097
0.10518770501948893,,0.13656442,-0.07054494,0.4854087,-0.46476012,-0.6750694,-0.5729565,-0.8840946,0.3894146,0.25832692,0.048728988,0.6266079,-0.7778097,,-0.49881485,-0.05029154,0.7450856,0.009114847,-0.46635735,0.8845494,-0.9376311,0.30343136,0.16963872,-0.3475123,-0.83092725,-0.4345055,,0.03813974,-0.017559648,0.12796617,-0.993097,0.116929,-0.009264539,0.113889545,0.9801435,0.16232026,0.028060537,0.16014466,-0.9866946,,-0.24416964528435633,-0.28189519537494306,0.10295783325,0.0037744189827214384,-0.022818295460828555,0.016401463933507197,-0.0017967847274770713,,-0.6574362495827325,-0.10841944682123789,0.13362935094,-0.002935659208783341,-0.0006831824988272023,-0.005650494732200622,-0.0022868169258799097
0.1344611980021,,0.13656531,-0.070545286,0.485408,-0.4647582,-0.67506623,-0.57296187,-0.8840957,0.38941085,0.2583289,0.0487285,0.62661374,-0.77780503,,-0.4988153,-0.050288565,0.74508643,0.009107836,-0.46635652,0.8845499,-0.9376322,0.30343208,0.16963126,-0.34750947,-0.8309275,-0.4345073,,0.03813974,-0.017559648,0.12796617,-0.993097,0.116929,-0.009264539,0.113889545,0.9801435,0.16232026,0.028060537,0.16014466,-0.9866946,,-0.24416192255148209,-0.28189519537494306,0.10295783325,0.0037744189827214384,-0.022818295460828555,0.016401463933507197,-0.0017967847274770713,,-0.6574362495827325,-0.10842716955411212,0.13362935094,-0.002935659208783341,-0.0006831824988272023,-0.005650494732200622,-0.0022868169258799097
0.15763059817254543,,0.13656442,-0.07054494,0.4854087,-0.46476012,-0.6750694,-0.5729565,-0.8840946,0.3894146,0.25832692,0.048728988,0.6266079,-0.7778097,,-0.49881485,-0.05029154,0.7450856,0.009114847,-0.46635735,0.8845494,-0.9376311,0.30343136,0.16963872,-0.3475123,-0.83092725,-0.4345055,,0.03813974,-0.017559648,0.12796617,-0.993097,0.116929,-0.009264539,0.113889545,0.9801435,0.16232026,0.028060537,0.16014466,-0.9866946,,-0.24416964528435633,-0.28189519537494306,0.10295783325,0.0037744189827214384,-0.022818295460828555,0.016401463933507197,-0.0017967847274770713,,-0.6574362495827325,-0.10841944682123789,0.13362935094,-0.002935659208783341,-0.0006831824988272023,-0.005650494732200622,-0.0022868169258799097
0.19115050206892192,,0.13656442,-0.07054494,0.4854087,-0.46476012,-0.6750694,-0.5729565,-0.8840946,0.3894146,0.25832692,0.048728988,0.6266079,-0.7778097,,-0.49881485,-0.05029154,0.7450856,0.009114847,-0.46635735,0.8845494,-0.9376311,0.30343136,0.16963872,-0.3475123,-0.83092725,-0.4345055,,0.03813974,-0.017559648,0.12796617,-0.993097,0.116929,-0.009264539,0.113889545,0.9801435,0.16232026,0.028060537,0.16014466,-0.9866946,,-0.24416964528435633,-0.28189519537494306,0.10295783325,0.0037744189827214384,-0.022818295460828555,0.016401463933507197,-0.0017967847274770713,,-0.6574362495827325,-0.10841944682123789,0.13362935094,-0.002935659208783341,-0.0006831824988272023,-0.005650494732200622,-0.0022868169258799097
0.22083671507425606,,0.13656442,-0.07054494,0.4854087,-0.46476012,-0.6750694,-0.5729565,-0.8840946,0.3894146,0.25832692,0.048728988,0.6266079,-0.7778097,,-0.49881485,-0.05029154,0.7450856,0.009114847,-0.46635735,0.8845494,-0.9376311,0.30343136,0.16963872,-0.3475123,-0.83092725,-0.4345055,,0.03813974,-0.017559648,0.12796617,-0.993097,0.116929,-0.009264539,0.113889545,0.9801435,0.16232026,0.028060537,0.16014466,-0.9866946,,-0.24416964528435633,-0.28189519537494306,0.10295783325,0.0037744189827214384,-0.022818295460828555,0.016401463933507197,-0.0017967847274770713,,-0.6574362495827325,-0.10841944682123789,0.13362935094,-0.002935659208783341,-0.0006831824988272023,-0.005650494732200622,-0.0022868169258799097
0.2447329480201006,,0.13656442,-0.07054494,0.4854087,-0.46476012,-0.6750694,-0.5729565,-0.8840946,0.3894146,0.25832692,0.048728988,0.6266079,-0.7778097,,-0.49881485,-0.05029154,0.7450856,0.009114847,-0.46635735,0.8845494,-0.9376311,0.30343136,0.16963872,-0.3475123,-0.83092725,-0.4345055,,0.03813974,-0.017559648,0.12796617,-0.993097,0.116929,-0.009264539,0.113889545,0.9801435,0.16232026,0.028060537,0.16014466,-0.9866946,,-0.24416964528435633,-0.28189519537494306,0.10295783325,0.0037744189827214384,-0.022818295460828555,0.016401463933507197,-0.0017967847274770713,,-0.6574362495827325,-0.10841944682123789,0.13362935094,-0.002935659208783341,-0.0006831824988272023,-0.005650494732200622,-0.0022868169258799097
0.27430686820298433,,0.13656442,-0.07054494,0.4854087,-0.46476012,-0.6750694,-0.5729565,-0.8840946,0.3894146,0.25832692,0.048728988,0.6266079,-0.7778097,,-0.49881485,-0.05029154,0.7450856,0.009114847,-0.46635735,0.8845494,-0.9376311,0.30343136,0.16963872,-0.3475123,-0.83092725,-0.4345055,,0.03813974,-0.017559648,0.12796617,-0.993097,0.116929,-0.009264539,0.113889545,0.9801435,0.16232026,0.028060537,0.16014466,-0.9866946,,-0.24416964528435633,-0.28189519537494306,0.10295783325,0.0037744189827214384,-0.022818295460828555,0.016401463933507197,-0.0017967847274770713,,-0.6574362495827325,-0.10841944682123789,0.13362935094,-0.002935659208783341,-0.0006831824988272023,-0.005650494732200622,-0.0022868169258799097
0.30171770113520324,,0.13656531,-0.070545286,0.485408,-0.4647582,-0.67506623,-0.57296187,-0.8840957,0.38941085,0.2583289,0.0487285,0.62661374,-0.77780503,,-0.4988153,-0.050288565,0.74508643,0.009107836,-0.46635652,0.8845499,-0.9376322,0.30343208,0.16963126,-0.34750947,-0.8309275,-0.4345073,,0.03813974,-0.017559648,0.12796617,-0.993097,0.116929,-0.009264539,0.113889545,0.9801435,0.16232026,0.028060537,0.16014466,-0.9866946,,-0.24416192255148209,-0.28189519537494306,0.10295783325,0.0037744189827214384,-0.022818295460828555,0.016401463933507197,-0.0017967847274770713,,-0.6574362495827325,-0.10842716955411212,0.13362935094,-0.002935659208783341,-0.0006831824988272023,-0.005650494732200622,-0.0022868169258799097
0.3263148870319128,,0.13656442,-0.07054494,0.4854087,-0.46476012,-0.6750694,-0.5729565,-0.8840946,0.3894146,0.25832692,0.048728988,0.6266079,-0.7778097,,-0.4988153,-0.050288565,0.74508643,0.009107836,-0.46635652,0.8845499,-0.9376322,0.30343208,0.16963126,-0.34750947,-0.8309275,-0.4345073,,0.03813974,-0.017559648,0.12796617,-0.993097,0.116929,-0.009264539,0.113889545,0.9801435,0.16232026,0.028060537,0.16014466,-0.9866946,,-0.24416964528435633,-0.28189519537494306,0.10295783325,0.0037744189827214384,-0.022818295460828555,0.016401463933507197,-0.0017967847274770713,,-0.6574362495827325,-0.10842716955411212,0.13362935094,-0.002935659208783341,-0.0006831824988272023,-0.005650494732200622,-0.0022868169258799097
0.3553016691002995,,0.13656442,-0.07054494,0.4854087,-0.46476012,-0.6750694,-0.5729565,-0.8840946,0.3894146,0.25832692,0.048728988,0.6266079,-0.7778097,,-0.49880156,-0.05032795,0.7451153,0.009273782,-0.4664058,0.8845222,-0.93776286,0.30303368,0.16962072,-0.34715214,-0.83104515,-0.43456787,,0.03813974,-0.017559648,0.12796617,-0.993097,0.116929,-0.009264539,0.113889545,0.9801435,0.16232026,0.028060537,0.16014466,-0.9866946,,-0.24416964528435633,-0.28189519537494306,0.10295783325,0.0037744189827214384,-0.022818295460828555,0.016401463933507197,-0.0017967847274770713,,-0.6574362495827325,-0.10841944682123789,0.13362935094,-0.0033550390957523897,-0.0006831824988272023,-0.005650494732200622,-0.0022868169258799097
0.3769990592263639,,0.13656442,-0.07054494,0.4854087,-0.46476012,-0.6750694,-0.5729565,-0.8840946,0.3894146,0.25832692,0.048728988,0.6266079,-0.7778097,,-0.49880156,-0.05032795,0.7451153,0.009273782,-0.4664058,0.8845222,-0.93776286,0.30303368,0.16962072,-0.34715214,-0.83104515,-0.43456787,,0.03813974,-0.017559648,0.12796617,-0.993097,0.116929,-0.009264539,0.113889545,0.9801435,0.16232026,0.028060537,0.16014466,-0.9866946,,-0.24416964528435633,-0.28189519537494306,0.10295783325,0.0037744189827214384,-0.022818295460828555,0.016401463933507197,-0.0017967847274770713,,-0.6574362495827325,-0.10841944682123789,0.13362935094,-0.0033550390957523897,-0.0006831824988272023,-0.005650494732200622,-0.0022868169258799097
0.40593425021506846,,0.13656442,-0.07054494,0.4854087,-0.46476012,-0.6750694,-0.5729565,-0.8840946,0.3894146,0.25832692,0.048728988,0.6266079,-0.7778097,,-0.49880156,-0.05032795,0.7451153,0.009273782,-0.4664058,0.8845222,-0.93776286,0.30303368,0.16962072,-0.34715214,-0.83104515,-0.43456787,,0.03813974,-0.017559648,0.12796617,-0.993097,0.116929,-0.009264539,0.113889545,0.9801435,0.16232026,0.028060537,0.16014466,-0.9866946,,-0.24416964528435633,-0.28189519537494306,0.10295783325,0.0037744189827214384,-0.022818295460828555,0.016401463933507197,-0.0017967847274770713,,-0.6574362495827325,-0.10841944682123789,0.13362935094,-0.0033550390957523897,-0.0006831824988272023,-0.005650494732200622,-0.0022868169258799097
0.43027563602663577,,0.13656531,-0.070545286,0.485408,-0.4647582,-0.67506623,-0.57296187,-0.8840957,0.38941085,0.2583289,0.0487285,0.62661374,-0.77780503,,-0.49880156,-0.05032795,0.7451153,0.009273782,-0.4664058,0.8845222,-0.93776286,0.30303368,0.16962072,-0.34715214,-0.83104515,-0.43456787,,0.03813974,-0.017559648,0.12796617,-0.993097,0.116929,-0.009264539,0.113889545,0.9801435,0.16232026,0.028060537,0.16014466,-0.9866946,,-0.24416192255148209,-0.28189519537494306,0.10295783325,0.0037744189827214384,-0.022818295460828555,0.016401463933507197,-0.0017967847274770713,,-0.6574362495827325,-0.10841944682123789,0.13362935094,-0.0033550390957523897,-0.0006831824988272023,-0.005650494732200622,-0.0022868169258799097
0.45890199206769466,,0.13656531,-0.070545286,0.485408,-0.4647582,-0.67506623,-0.57296187,-0.8840957,0.38941085,0.2583289,0.0487285,0.62661374,-0.77780503,,-0.49880156,-0.05032795,0.7451153,0.009273782,-0.4664058,0.8845222,-0.93776286,0.30303368,0.16962072,-0.34715214,-0.83104515,-0.43456787,,0.03813974,-0.017559648,0.12796617,-0.993097,0.116929,-0.009264539,0.113889545,0.9801435,0.16232026,0.028060537,0.16014466,-0.9866946,,-0.24416192255148209,-0.28189519537494306,0.10295783325,0.0037744189827214384,-0.022818295460828555,0.016401463933507197,-0.0017967847274770713,,-0.6574362495827325,-0.10841944682123789,0.13362935094,-0.0033550390957523897,-0.0006831824988272023,-0.005650494732200622,-0.0022868169258799097
0.48703885916620493,,0.13656442,-0.07054494,0.4854087,-0.46476012,-0.6750694,-0.5729565,-0.8840946,0.3894146,0.25832692,0.048728988,0.6266079,-0.7778097,,-0.49880296,-0.050326645,0.74510926,0.009275794,-0.46639222,0.88452923,-0.93776274,0.30303562,0.1696179,-0.3471524,-0.831052,-0.43455443,,0.03813974,-0.017559648,0.12796617,-0.993097,0.116929,-0.009264539,0.113889545,0.9801435,0.16232026,0.028060537,0.16014466,-0.9866946,,-0.24416964528435633,-0.28189519537494306,0.10295783325,0.0037744189827214384,-0.022818295460828555,0.016401463933507197,-0.0017967847274770713,,-0.657451695048481,-0.10841944682123789,0.13362935094,-0.0033550390957523897,-0.0006831824988272023,-0.005650494732200622,-0.0022868169258799097
0.5107134231366217,,0.13656442,-0.07054494,0.4854087,-0.46476012,-0.6750694,-0.5729565,-0.8840946,0.3894146,0.25832692,0.048728988,0.6266079,-0.7778097,,-0.49880344,-0.05032365,0.74511015,0.009268776,-0.46639138,0.8845298,-0.9377639,0.3030363,0.16961044,-0.34714958,-0.83105224,-0.43455628,,0.03813974,-0.017559648,0.12796617,-0.993097,0.116929,-0.009264539,0.113889545,0.9801435,0.16232026,0.028060537,0.16014466,-0.9866946,,-0.24416964528435633,-0.28189519537494306,0.10295783325,0.0037744189827214384,-0.022818295460828555,0.016401463933507197,-0.0017967847274770713,,-0.657451695048481,-0.10842716955411212,0.13362935094,-0.0033550390957523897,-0.0006831824988272023,-0.005650494732200622,-0.0022868169258799097
0.5414358030539006,,0.13656442,-0.07054494,0.4854087,-0.46476012,-0.6750694,-0.5729565,-0.8840946,0.3894146,0.25832692,0.048728988,0.6266079,-0.7778097,,-0.49880296,-0.050326645,0.74510926,0.009275794,-0.46639222,0.88452923,-0.93776274,0.30303562,0.1696179,-0.3471524,-0.831052,-0.43455443,,0.03813974,-0.017559648,0.12796617,-0.993097,0.116929,-0.009264539,0.113889545,0.9801435,0.16232026,0.028060537,0.16014466,-0.9866946,,-0.24416964528435633,-0.28189519537494306,0.10295783325,0.0037744189827214384,-0.022818295460828555,0.016401463933507197,-0.0017967847274770713,,-0.657451695048481,-0.10841944682123789,0.13362935094,-0.0033550390957523897,-0.0006831824988272023,-0.005650494732200622,-0.0022868169258799097
0.5718329881783575,,0.13656442,-0.07054494,0.4854087,-0.46476012,-0.6750694,-0.5729565,-0.8840946,0.3894146,0.25832692,0.048728988,0.6266079,-0.7778097,,-0.49880296,-0.050326645,0.74510926,0.009275794,-0.46639222,0.88452923,-0.93776274,0.30303562,0.1696179,-0.3471524,-0.831052,-0.43455443,,0.03813974,-0.017559648,0.12796617,-0.993097,0.116929,-0.009264539,0.113889545,0.9801435,0.16232026,0.028060537,0.16014466,-0.9866946,,-0.24416964528435633,-0.28189519537494306,0.10295783325,0.0037744189827214384,-0.022818295460828555,0.016401463933507197,-0.0017967847274770713,,-0.657451695048481,-0.10841944682123789,0.13362935094,-0.0033550390957523897,-0.0006831824988272023,-0.005650494732200622,-0.0022868169258799097
0.5990434640552849,,0.13656531,-0.070545286,0.485408,-0.4647582,-0.67506623,-0.57296187,-0.8840957,0.38941085,0.2583289,0.0487285,0.62661374,-0.77780503,,-0.49880296,-0.050326645,0.74510926,0.009275794,-0.46639222,0.88452923,-0.93776274,0.30303562,0.1696179,-0.3471524,-0.831052,-0.43455443,,0.03813974,-0.017559648,0.12796617,-0.993097,0.116929,-0.009264539,0.113889545,0.9801435,0.16232026,0.028060537,0.16014466,-0.9866946,,-0.24416192255148209,-0.28189519537494306,0.10295783325,0.0037744189827214384,-0.022818295460828555,0.016401463933507197,-0.0017967847274770713,,-0.657451695048481,-0.10841944682123789,0.13362935094,-0.0033550390957523897,-0.0006831824988272023,-0.005650494732200622,-0.0022868169258799097
0.6231495072133839,,0.13656442,-0.07054494,0.4854087,-0.46476012,-0.6750694,-0.5729565,-0.8840946,0.3894146,0.25832692,0.048728988,0.6266079,-0.7778097,,-0.49880296,-0.050326645,0.74510926,0.009275794,-0.46639222,0.88452923,-0.93776274,0.30303562,0.1696179,-0.3471524,-0.831052,-0.43455443,,0.03813974,-0.017559648,0.12796617,-0.993097,0.116929,-0.009264539,0.113889545,0.9801435,0.16232026,0.028060537,0.16014466,-0.9866946,,-0.24416964528435633,-0.28189519537494306,0.10295783325,0.0037744189827214384,-0.022818295460828555,0.016401463933507197,-0.0017967847274770713,,-0.657451695048481,-0.10841944682123789,0.13362935094,-0.0033550390957523897,-0.0006831824988272023,-0.005650494732200622,-0.0022868169258799097
0.6522386120632291,,0.13656442,-0.07054494,0.4854087,-0.46476012,-0.6750694,-0.5729565,-0.8840946,0.3894146,0.25832692,0.048728988,0.6266079,-0.7778097,,-0.49880296,-0.050326645,0.74510926,0.009275794,-0.46639222,0.88452923,-0.93776274,0.30303562,0.1696179,-0.3471524,-0.831052,-0.43455443,,0.03813974,-0.017559648,0.12796617,-0.993097,0.116929,-0.009264539,0.113889545,0.9801435,0.16232026,0.028060537,0.16014466,-0.9866946,,-0.24416964528435633,-0.28189519537494306,0.10295783325,0.0037744189827214384,-0.022818295460828555,0.016401463933507197,-0.0017967847274770713,,-0.657451695048481,-0.10841944682123789,0.13362935094,-0.0033550390957523897,-0.0006831824988272023,-0.005650494732200622,-0.0022868169258799097
0.6795753221958876,,0.13663465,-0.07050412,0.48538727,-0.46459812,-0.674956,-0.5732215,-0.88416654,0.38937834,0.25813568,0.048969775,0.62675256,-0.777678,,-0.49880344,-0.05032365,0.74511015,0.009268776,-0.46639138,0.8845298,-0.9377639,0.3030363,0.16961044,-0.34714958,-0.83105224,-0.43455628,,0.03813974,-0.017559648,0.12796617,-0.993097,0.116929,-0.009264539,0.113889545,0.9801435,0.16232026,0.028060537,0.16014466,-0.9866946,,-0.24416964528435633,-0.28189519537494306,0.10295783325,0.0037744189827214384,-0.023091568460359434,0.016624299740900038,-0.0017967847274770713,,-0.657451695048481,-0.10842716955411212,0.13362935094,-0.0033550390957523897,-0.0006831824988272023,-0.005650494732200622,-0.0022868169258799097
0.7076525820884854,,0.13663465,-0.07050412,0.48538727,-0.46459812,-0.674956,-0.5732215,-0.88416654,0.38937834,0.25813568,0.048969775,0.62675256,-0.777678,,-0.49880296,-0.050326645,0.74510926,0.009275794,-0.46639222,0.88452923,-0.93776274,0.30303562,0.1696179,-0.3471524,-0.831052,-0.43455443,,0.03813974,-0.017559648,0.12796617,-0.993097,0.116929,-0.009264539,0.113889545,0.9801435,0.16232026,0.028060537,0.16014466,-0.9866946,,-0.24416964528435633,-0.28189519537494306,0.10295783325,0.0037744189827214384,-0.023091568460359434,0.016624299740900038,-0.0017967847274770713,,-0.657451695048481,-0.10841944682123789,0.13362935094,-0.0033550390957523897,-0.0006831824988272023,-0.005650494732200622,-0.0022868169258799097
0.7341081041377038,,0.13663553,-0.07050446,0.48538658,-0.46459624,-0.6749527,-0.5732269,-0.8841675,0.38937464,0.25813767,0.04896928,0.6267585,-0.7776733,,-0.49880296,-0.050326645,0.74510926,0.009275794,-0.46639222,0.88452923,-0.93776274,0.30303562,0.1696179,-0.3471524,-0.831052,-0.43455443,,0.03813974,-0.017559648,0.12796617,-0.993097,0.116929,-0.009264539,0.113889545,0.9801435,0.16232026,0.028060537,0.16014466,-0.9866946,,-0.24416192255148209,-0.28189519537494306,0.10295783325,0.0037744189827214384,-0.023091568460359434,0.016624299740900038,-0.0017967847274770713,,-0.657451695048481,-0.10841944682123789,0.13362935094,-0.0033550390957523897,-0.0006831824988272023,-0.005650494732200622,-0.0022868169258799097
0.7567867310717702,,0.13663553,-0.07050446,0.48538658,-0.46459624,-0.6749527,-0.5732269,-0.8841675,0.38937464,0.25813767,0.04896928,0.6267585,-0.7776733,,-0.49880344,-0.05032365,0.74511015,0.009268776,-0.46639138,0.8845298,-0.9377639,0.3030363,0.16961044,-0.34714958,-0.83105224,-0.43455628,,0.03813974,-0.017559648,0.12796617,-0.993097,0.116929,-0.009264539,0.113889545,0.9801435,0.16232026,0.028060537,0.16014466,-0.9866946,,-0.24416192255148209,-0.28189519537494306,0.10295783325,0.0037744189827214384,-0.023091568460359434,0.016624299740900038,-0.0017967847274770713,,-0.657451695048481,-0.10842716955411212,0.13362935094,-0.0033550390957523897,-0.0006831824988272023,-0.005650494732200622,-0.0022868169258799097
0.7843804662115872,,0.13667043,-0.07051404,0.48539686,-0.4645628,-0.6749925,-0.5732071,-0.8841862,0.38934684,0.25811583,0.04895009,0.6267328,-0.7776951,,-0.49880844,-0.050346673,0.7451519,0.00925751,-0.46642247,0.88451356,-0.9377731,0.30301365,0.1696004,-0.34712517,-0.8310432,-0.4345933,,0.038169388,-0.017570822,0.12797643,-0.9931007,0.116897315,-0.00926903,0.113857575,0.98014736,0.16231918,0.0280597,0.16014397,-0.9866947,,-0.24416964528435633,-0.28189519537494306,0.10295783325,0.0037744189827214384,-0.023091568460359434,0.016624299740900038,-0.0017967847274770713,,-0.657451695048481,-0.10841944682123789,0.13362935094,-0.0033550390957523897,-0.0006831824988272023,-0.005650494732200622,-0.0022868169258799097
0.8116994160227478,,0.1366713,-0.07051437,0.48539618,-0.46456093,-0.67498916,-0.5732126,-0.8841872,0.3893431,0.25811785,0.048949603,0.62673867,-0.7776904,,-0.49880844,-0.050346673,0.7451519,0.00925751,-0.46642247,0.88451356,-0.9377731,0.30301365,0.1696004,-0.34712517,-0.8310432,-0.4345933,,0.038169388,-0.017570822,0.12797643,-0.9931007,0.116897315,-0.00926903,0.113857575,0.98014736,0.16231918,0.0280597,0.16014397,-0.9866947,,-0.24416192255148209,-0.28189519537494306,0.10295783325,0.0037744189827214384,-0.023091568460359434,0.016624299740900038,-0.0017967847274770713,,-0.657451695048481,-0.10841944682123789,0.13362935094,-0.0033550390957523897,-0.0006831824988272023,-0.005650494732200622,-0.0022868169258799097
0.8434221860952675,,0.13667043,-0.07051404,0.48539686,-0.4645628,-0.6749925,-0.5732071,-0.8841862,0.38934684,0.25811583,0.04895009,0.6267328,-0.7776951,,-0.49880844,-0.050346673,0.7451519,0.00925751,-0.46642247,0.88451356,-0.9377731,0.30301365,0.1696004,-0.34712517,-0.8310432,-0.4345933,,0.038169388,-0.017570822,0.12797643,-0.9931007,0.116897315,-0.00926903,0.113857575,0.98014736,0.16231918,0.0280597,0.16014397,-0.9866947,,-0.24416964528435633,-0.28189519537494306,0.10295783325,0.0037744189827214384,-0.023091568460359434,0.016624299740900038,-0.0017967847274770713,,-0.657451695048481,-0.10841944682123789,0.13362935094,-0.0033550390957523897,-0.0006831824988272023,-0.005650494732200622,-0.0022868169258799097
0.8933268501423299,,0.13667043,-0.07051404,0.48539686,-0.4645628,-0.6749925,-0.5732071,-0.8841862,0.38934684,0.25811583,0.04895009,0.6267328,-0.7776951,,-0.4988089,-0.050343707,0.74515265,0.009250492,-0.4664216,0.8845141,-0.9377742,0.30301437,0.16959295,-0.3471223,-0.8310434,-0.4345951,,0.038169388,-0.017570822,0.12797643,-0.9931007,0.116897315,-0.00926903,0.113857575,0.98014736,0.16231918,0.0280597,0.16014397,-0.9866947,,-0.24416964528435633,-0.28189519537494306,0.10295783325,0.0037744189827214384,-0.023091568460359434,0.016624299740900038,-0.0017967847274770713,,-0.657451695048481,-0.10842716955411212,0.13362935094,-0.0033550390957523897,-0.0006831824988272023,-0.005650494732200622,-0.0022868169258799097
0.9573636800050735,,0.1366713,-0.07051437,0.48539618,-0.46456093,-0.67498916,-0.5732126,-0.8841872,0.3893431,0.25811785,0.048949603,0.62673867,-0.7776904,,-0.49882025,-0.050311588,0.7451282,0.009096526,-0.4663876,0.88453364,-0.9376413,0.3034094,0.16962123,-0.3474851,-0.8309184,-0.43454432,,0.038169388,-0.017570822,0.12797643,-0.9931007,0.116897315,-0.00926903,0.113857575,0.98014736,0.16231918,0.0280597,0.16014397,-0.9866947,,-0.24416192255148209,-0.28189519537494306,0.10295783325,0.0037744189827214384,-0.023091568460359434,0.016624299740900038,-0.0017967847274770713,,-0.6574362495827325,-0.10841944682123789,0.13362935094,-0.002935659208783341,-0.0006831824988272023,-0.005650494732200622,-0.0022868169258799097
0.9872124651446939,,0.1366713,-0.07051437,0.48539618,-0.46456093,-0.67498916,-0.5732126,-0.8841872,0.3893431,0.25811785,0.048949603,0.62673867,-0.7776904,,-0.49882025,-0.050311588,0.7451282,0.009096526,-0.4663876,0.88453364,-0.9376413,0.3034094,0.16962123,-0.3474851,-0.8309184,-0.43454432,,0.038169388,-0.017570822,0.12797643,-0.9931007,0.116897315,-0.00926903,0.113857575,0.98014736,0.16231918,0.0280597,0.16014397,-0.9866947,,-0.24416192255148209,-0.28189519537494306,0.10295783325,0.0037744189827214384,-0.023091568460359434,0.016624299740900038,-0.0017967847274770713,,-0.6574362495827325,-0.10841944682123789,0.13362935094,-0.002935659208783341,-0.0006831824988272023,-0.005650494732200622,-0.0022868169258799097
1.0175269960891455,,0.13667043,-0.07051404,0.48539686,-0.4645628,-0.6749925,-0.5732071,-0.8841862,0.38934684,0.25811583,0.04895009,0.6267328,-0.7776951,,-0.4988207,-0.0503086,0.74512905,0.0090895,-0.46638674,0.8845341,-0.9376424,0.30341008,0.16961376,-0.3474822,-0.8309185,-0.43454614,,0.038169388,-0.017570822,0.12797643,-0.9931007,0.116897315,-0.00926903,0.113857575,0.98014736,0.16231918,0.0280597,0.16014397,-0.9866947,,-0.24416964528435633,-0.28189519537494306,0.10295783325,0.0037744189827214384,-0.023091568460359434,0.016624299740900038,-0.0017967847274770713,,-0.6574362495827325,-0.10842716955411212,0.13362935094,-0.002935659208783341,-0.0006831824988272023,-0.005650494732200622,-0.0022868169258799097
1.047308700159192,,0.13667043,-0.07051404,0.48539686,-0.4645628,-0.6749925,-0.5732071,-0.8841862,0.38934684,0.25811583,0.04895009,0.6267328,-0.7776951,,-0.49882025,-0.050311588,0.7451282,0.009096526,-0.4663876,0.88453364,-0.9376413,0.3034094,0.16962123,-0.3474851,-0.8309184,-0.43454432,,0.038169388,-0.017570822,0.12797643,-0.9931007,0.116897315,-0.00926903,0.113857575,0.98014736,0.16231918,0.0280597,0.16014397,-0.9866947,,-0.24416964528435633,-0.28189519537494306,0.10295783325,0.0037744189827214384,-0.023091568460359434,0.016624299740900038,-0.0017967847274770713,,-0.6574362495827325,-0.10841944682123789,0.13362935094,-0.002935659208783341,-0.0006831824988272023,-0.005650494732200622,-0.0022868169258799097
1.0769952291157097,,0.13667218,-0.07051472,0.48539546,-0.46455896,-0.6749858,-0.573218,-0.8841882,0.38933945,0.25811988,0.04894911,0.6267446,-0.77768576,,-0.49882025,-0.050311588,0.7451282,0.009096526,-0.4663876,0.88453364,-0.9376413,0.3034094,0.16962123,-0.3474851,-0.8309184,-0.43454432,,0.038169388,-0.017570822,0.12797643,-0.9931007,0.116897315,-0.00926903,0.113857575,0.98014736,0.16231918,0.0280597,0.16014397,-0.9866947,,-0.24415419981860786,-0.28189519537494306,0.10295783325,0.0037744189827214384,-0.023091568460359434,0.016624299740900038,-0.0017967847274770713,,-0.6574362495827325,-0.10841944682123789,0.13362935094,-0.002935659208783341,-0.0006831824988272023,-0.005650494732200622,-0.0022868169258799097
1.1075633340515196,,0.1366713,-0.07051437,0.48539618,-0.46456093,-0.67498916,-0.5732126,-0.8841872,0.3893431,0.25811785,0.048949603,0.62673867,-0.7776904,,-0.4988207,-0.0503086,0.74512905,0.0090895,-0.46638674,0.8845341,-0.9376424,0.30341008,0.16961376,-0.3474822,-0.8309185,-0.43454614,,0.038169388,-0.017570822,0.12797643,-0.9931007,0.116897315,-0.00926903,0.113857575,0.98014736,0.16231918,0.0280597,0.16014397,-0.9866947,,-0.24416192255148209,-0.28189519537494306,0.10295783325,0.0037744189827214384,-0.023091568460359434,0.016624299740900038,-0.0017967847274770713,,-0.6574362495827325,-0.10842716955411212,0.13362935094,-0.002935659208783341,-0.0006831824988272023,-0.005650494732200622,-0.0022868169258799097
1.130186925176531,,0.1366713,-0.07051437,0.48539618,-0.46456093,-0.67498916,-0.5732126,-0.8841872,0.3893431,0.25811785,0.048949603,0.62673867,-0.7776904,,-0.4988207,-0.0503086,0.74512905,0.0090895,-0.46638674,0.8845341,-0.9376424,0.30341008,0.16961376,-0.3474822,-0.8309185,-0.43454614,,0.038169388,-0.017570822,0.12797643,-0.9931007,0.116897315,-0.00926903,0.113857575,0.98014736,0.16231918,0.0280597,0.16014397,-0.9866947,,-0.24416192255148209,-0.28189519537494306,0.10295783325,0.0037744189827214384,-0.023091568460359434,0.016624299740900038,-0.0017967847274770713,,-0.6574362495827325,-0.10842716955411212,0.13362935094,-0.002935659208783341,-0.0006831824988272023,-0.005650494732200622,-0.0022868169258799097
1.1579628351610154,,0.13667043,-0.07051404,0.48539686,-0.4645628,-0.6749925,-0.5732071,-0.8841862,0.38934684,0.25811583,0.04895009,0.6267328,-0.7776951,,-0.49882025,-0.050311588,0.7451282,0.009096526,-0.4663876,0.88453364,-0.9376413,0.3034094,0.16962123,-0.3474851,-0.8309184,-0.43454432,,0.038169388,-0.017570822,0.12797643,-0.9931007,0.116897315,-0.00926903,0.113857575,0.98014736,0.16231918,0.0280597,0.16014397,-0.9866947,,-0.24416964528435633,-0.28189519537494306,0.10295783325,0.0037744189827214384,-0.023091568460359434,0.016624299740900038,-0.0017967847274770713,,-0.6574362495827325,-0.10841944682123789,0.13362935094,-0.002935659208783341,-0.0006831824988272023,-0.005650494732200622,-0.0022868169258799097
1.1808053262066096,,0.13667043,-0.07051404,0.48539686,-0.4645628,-0.6749925,-0.5732071,-0.8841862,0.38934684,0.25811583,0.04895009,0.6267328,-0.7776951,,-0.49882025,-0.050311588,0.7451282,0.009096526,-0.4663876,0.88453364,-0.9376413,0.3034094,0.16962123,-0.3474851,-0.8309184,-0.43454432,,0.038169388,-0.017570822,0.12797643,-0.9931007,0.116897315,-0.00926903,0.113857575,0.98014736,0.16231918,0.0280597,0.16014397,-0.9866947,,-0.24416964528435633,-0.28189519537494306,0.10295783325,0.0037744189827214384,-0.023091568460359434,0.016624299740900038,-0.0017967847274770713,,-0.6574362495827325,-0.10841944682123789,0.13362935094,-0.002935659208783341,-0.0006831824988272023,-0.005650494732200622,-0.0022868169258799097
1.2096509211696684,,0.13667043,-0.07051404,0.48539686,-0.4645628,-0.6749925,-0.5732071,-0.8841862,0.38934684,0.25811583,0.04895009,0.6267328,-0.7776951,,-0.49882025,-0.050311588,0.7451282,0.009096526,-0.4663876,0.88453364,-0.9376413,0.3034094,0.16962123,-0.3474851,-0.8309184,-0.43454432,,0.038169388,-0.017570822,0.12797643,-0.9931007,0.116897315,-0.00926903,0.113857575,0.98014736,0.16231918,0.0280597,0.16014397,-0.9866947,,-0.24416964528435633,-0.28189519537494306,0.10295783325,0.0037744189827214384,-0.023091568460359434,0.016624299740900038,-0.0017967847274770713,,-0.6574362495827325,-0.10841944682123789,0.13362935094,-0.002935659208783341,-0.0006831824988272023,-0.005650494732200622,-0.0022868169258799097
1.2371024112217128,,0.13667043,-0.07051404,0.48539686,-0.4645628,-0.6749925,-0.5732071,-0.8841862,0.38934684,0.25811583,0.04895009,0.6267328,-0.7776951,,-0.49882025,-0.050311588,0.7451282,0.009096526,-0.4663876,0.88453364,-0.9376413,0.3034094,0.16962123,-0.3474851,-0.8309184,-0.43454432,,0.038169388,-0.017570822,0.12797643,-0.9931007,0.116897315,-0.00926903,0.113857575,0.98014736,0.16231918,0.0280597,0.16014397,-0.9866947,,-0.24416964528435633,-0.28189519537494306,0.10295783325,0.0037744189827214384,-0.023091568460359434,0.016624299740900038,-0.0017967847274770713,,-0.6574362495827325,-0.10841944682123789,0.13362935094,-0.002935659208783341,-0.0006831824988272023,-0.005650494732200622,-0.0022868169258799097
1.275082612177357,,0.13667043,-0.07051404,0.48539686,-0.4645628,-0.6749925,-0.5732071,-0.8841862,0.38934684,0.25811583,0.04895009,0.6267328,-0.7776951,,-0.49882025,-0.050311588,0.7451282,0.009096526,-0.4663876,0.88453364,-0.9376413,0.3034094,0.16962123,-0.3474851,-0.8309184,-0.43454432,,0.038169388,-0.017570822,0.12797643,-0.9931007,0.116897315,-0.00926903,0.113857575,0.98014736,0.16231918,0.0280597,0.16014397,-0.9866947,,-0.24416964528435633,-0.28189519537494306,0.10295783325,0.0037744189827214384,-0.023091568460359434,0.016624299740900038,-0.0017967847274770713,,-0.6574362495827325,-0.10841944682123789,0.13362935094,-0.002935659208783341,-0.0006831824988272023,-0.005650494732200622,-0.0022868169258799097
1.3278128230012953,,0.13667043,-0.07051404,0.48539686,-0.4645628,-0.6749925,-0.5732071,-0.8841862,0.38934684,0.25811583,0.04895009,0.6267328,-0.7776951,,-0.4988207,-0.0503086,0.74512905,0.0090895,-0.46638674,0.8845341,-0.9376424,0.30341008,0.16961376,-0.3474822,-0.8309185,-0.43454614,,0.038169388,-0.017570822,0.12797643,-0.9931007,0.116897315,-0.00926903,0.113857575,0.98014736,0.16231918,0.0280597,0.16014397,-0.9866947,,-0.24416964528435633,-0.28189519537494306,0.10295783325,0.0037744189827214384,-0.023091568460359434,0.016624299740900038,-0.0017967847274770713,,-0.6574362495827325,-0.10842716955411212,0.13362935094,-0.002935659208783341,-0.0006831824988272023,-0.005650494732200622,-0.0022868169258799097
1.3840323821641505,,0.13667043,-0.07051404,0.48539686,-0.4645628,-0.6749925,-0.5732071,-0.8841862,0.38934684,0.25811583,0.04895009,0.6267328,-0.7776951,,-0.49882025,-0.050311588,0.7451282,0.009096526,-0.4663876,0.88453364,-0.9376413,0.3034094,0.16962123,-0.3474851,-0.8309184,-0.43454432,,0.038169388,-0.017570822,0.12797643,-0.9931007,0.116897315,-0.00926903,0.113857575,0.98014736,0.16231918,0.0280597,0.16014397,-0.9866947,,-0.24416964528435633,-0.28189519537494306,0.10295783325,0.0037744189827214384,-0.023091568460359434,0.016624299740900038,-0.0017967847274770713,,-0.6574362495827325,-0.10841944682123789,0.13362935094,-0.002935659208783341,-0.0006831824988272023,-0.005650494732200622,-0.0022868169258799097
1.4522893112152815,,0.13667043,-0.07051404,0.48539686,-0.4645628,-0.6749925,-0.5732071,-0.8841862,0.38934684,0.25811583,0.04895009,0.6267328,-0.7776951,,-0.49882025,-0.050311588,0.7451282,0.009096526,-0.4663876,0.88453364,-0.9376413,0.3034094,0.16962123,-0.3474851,-0.8309184,-0.43454432,,0.038169388,-0.017570822,0.12797643,-0.9931007,0.116897315,-0.00926903,0.113857575,0.98014736,0.16231918,0.0280597,0.16014397,-0.9866947,,-0.24416964528435633,-0.28189519537494306,0.10295783325,0.0037744189827214384,-0.023091568460359434,0.016624299740900038,-0.0017967847274770713,,-0.6574362495827325,-0.10841944682123789,0.13362935094,-0.002935659208783341,-0.0006831824988272023,-0.005650494732200622,-0.0022868169258799097
1.5282231201417744,,0.13667043,-0.07051404,0.48539686,-0.4645628,-0.6749925,-0.5732071,-0.8841862,0.38934684,0.25811583,0.04895009,0.6267328,-0.7776951,,-0.49880695,-0.050348006,0.74515784,0.009255476,-0.466436,0.8845064,-0.9377733,0.30301172,0.16960323,-0.3471249,-0.83103627,-0.43460667,,0.038169388,-0.017570822,0.12797643,-0.9931007,0.116897315,-0.00926903,0.113857575,0.98014736,0.16231918,0.0280597,0.16014397,-0.9866947,,-0.24416964528435633,-0.28189519537494306,0.10295783325,0.0037744189827214384,-0.023091568460359434,0.016624299740900038,-0.0017967847274770713,,-0.6574362495827325,-0.10841944682123789,0.13362935094,-0.0033550390957523897,-0.0006831824988272023,-0.005650494732200622,-0.0022868169258799097
1.611641496187076,,0.13667043,-0.07051404,0.48539686,-0.4645628,-0.6749925,-0.5732071,-0.8841862,0.38934684,0.25811583,0.04895009,0.6267328,-0.7776951,,-0.49880695,-0.050348006,0.74515784,0.009255476,-0.466436,0.8845064,-0.9377733,0.30301172,0.16960323,-0.3471249,-0.83103627,-0.43460667,,0.038169388,-0.017570822,0.12797643,-0.9931007,0.116897315,-0.00926903,0.113857575,0.98014736,0.16231918,0.0280597,0.16014397,-0.9866947,,-0.24416192255148209,-0.28189519537494306,0.10295783325,0.0037744189827214384,-0.023091568460359434,0.016624299740900038,-0.0017967847274770713,,-0.6574362495827325,-0.10841944682123789,0.13362935094,-0.0033550390957523897,-0.0006831824988272023,-0.005650494732200622,-0.0022868169258799097
1.702983068069443,,0.13667043,-0.07051404,0.48539686,-0.4645628,-0.6749925,-0.5732071,-0.8841862,0.38934684,0.25811583,0.04895009,0.6267328,-0.7776951,,-0.4988074,-0.05034501,0.7451587,0.009248465,-0.46643513,0.88450694,-0.9377743,0.30301237,0.16959576,-0.34712204,-0.83103645,-0.43460852,,0.038169388,-0.017570822,0.12797643,-0.9931007,0.116897315,-0.00926903,0.113857575,0.98014736,0.16231918,0.0280597,0.16014397,-0.9866947,,-0.24416964528435633,-0.28189519537494306,0.10295783325,0.0037744189827214384,-0.023091568460359434,0.016624299740900038,-0.0017967847274770713,,-0.6574362495827325,-0.10842716955411212,0.13362935094,-0.0033550390957523897,-0.0006831824988272023,-0.005650494732200622,-0.0022868169258799097
1.7800862330477685,,0.1366713,-0.07051437,0.48539618,-0.46456093,-0.67498916,-0.5732126,-0.8841872,0.3893431,0.25811785,0.048949603,0.62673867,-0.7776904,,-0.4988074,-0.05034501,0.7451587,0.009248465,-0.46643513,0.88450694,-0.9377743,0.30301237,0.16959576,-0.34712204,-0.83103645,-0.43460852,,0.038169388,-0.017570822,0.12797643,-0.9931007,0.116897315,-0.00926903,0.113857575,0.98014736,0.16231918,0.0280597,0.16014397,-0.9866947,,-0.24416192255148209,-0.28189519537494306,0.10295783325,0.0037744189827214384,-0.023091568460359434,0.016624299740900038,-0.0017967847274770713,,-0.6574362495827325,-0.10842716955411212,0.13362935094,-0.0033550390957523897,-0.0006831824988272023,-0.005650494732200622,-0.0022868169258799097
1.8467773681040853,,0.13667043,-0.07051404,0.48539686,-0.4645628,-0.6749925,-0.5732071,-0.8841862,0.38934684,0.25811583,0.04895009,0.6267328,-0.7776951,,-0.49880695,-0.050348006,0.74515784,0.009255476,-0.466436,0.8845064,-0.9377733,0.30301172,0.16960323,-0.3471249,-0.83103627,-0.43460667,,0.038169388,-0.017570822,0.12797643,-0.9931007,0.116897315,-0.00926903,0.113857575,0.98014736,0.16231918,0.0280597,0.16014397,-0.9866947,,-0.24416964528435633,-0.28189519537494306,0.10295783325,0.0037744189827214384,-0.023091568460359434,0.016624299740900038,-0.0017967847274770713,,-0.6574362495827325,-0.10841944682123789,0.13362935094,-0.0033550390957523897,-0.0006831824988272023,-0.005650494732200622,-0.0022868169258799097
1.9239613490644842,,0.13660431,-0.07048751,0.48539883,-0.4646107,-0.67495114,-0.5732173,-0.88415945,0.38939318,0.2581371,0.048976928,0.6267487,-0.7776807,,-0.4987805,-0.050330184,0.74512035,0.009248301,-0.46641737,0.8845165,-0.9377594,0.3030515,0.16960812,-0.3471622,-0.8310322,-0.43458456,,0.03816473,-0.017563889,0.1279694,-0.99310136,0.116892174,-0.009269763,0.1138524,0.98014796,0.162319,0.028059568,0.16014385,-0.9866947,,-0.24415419981860786,-0.28189519537494306,0.10295783325,0.0037744189827214384,-0.023091568460359434,0.016624299740900038,-0.0017967847274770713,,-0.6574362495827325,-0.10841944682123789,0.13362935094,-0.0033550390957523897,-0.0006831824988272023,-0.005650494732200622,-0.0022868169258799097
1.9923994690179825,,0.13660257,-0.07048683,0.4854002,-0.4646145,-0.6749577,-0.57320637,-0.8841575,0.3894005,0.25813308,0.04897791,0.62673694,-0.77768993,,-0.4987805,-0.050330184,0.74512035,0.009248301,-0.46641737,0.8845165,-0.9377594,0.3030515,0.16960812,-0.3471622,-0.8310322,-0.43458456,,0.03816473,-0.017563889,0.1279694,-0.99310136,0.116892174,-0.009269763,0.1138524,0.98014796,0.162319,0.028059568,0.16014385,-0.9866947,,-0.24416964528435633,-0.28189519537494306,0.10295783325,0.0037744189827214384,-0.023091568460359434,0.016624299740900038,-0.0017967847274770713,,-0.6574362495827325,-0.10841944682123789,0.13362935094,-0.0033550390957523897,-0.0006831824988272023,-0.005650494732200622,-0.0022868169258799097
2.0609337480273098,,0.13660257,-0.07048683,0.4854002,-0.4646145,-0.6749577,-0.57320637,-0.8841575,0.3894005,0.25813308,0.04897791,0.62673694,-0.77768993,,-0.4987805,-0.050330184,0.74512035,0.009248301,-0.46641737,0.8845165,-0.9377594,0.3030515,0.16960812,-0.3471622,-0.8310322,-0.43458456,,0.03816473,-0.017563889,0.1279694,-0.99310136,0.116892174,-0.009269763,0.1138524,0.98014796,0.162319,0.028059568,0.16014385,-0.9866947,,-0.24416964528435633,-0.28189519537494306,0.10295783325,0.0037744189827214384,-0.023091568460359434,0.016624299740900038,-0.0017967847274770713,,-0.6574362495827325,-0.10841944682123789,0.13362935094,-0.0033550390957523897,-0.0006831824988272023,-0.005650494732200622,-0.0022868169258799097
2.0951388601679355,,0.13660257,-0.07048683,0.4854002,-0.4646145,-0.6749577,-0.57320637,-0.8841575,0.3894005,0.25813308,0.04897791,0.62673694,-0.77768993,,-0.4987876,-0.050308987,0.7451063,0.009161785,-0.46639228,0.88453054,-0.93769455,0.30325106,0.16960964,-0.34733945,-0.8309733,-0.43455523,,0.03816473,-0.017563889,0.1279694,-0.99310136,0.116892174,-0.009269763,0.1138524,0.98014796,0.162319,0.028059568,0.16014385,-0.9866947,,-0.24416964528435633,-0.28189519537494306,0.10295783325,0.0037744189827214384,-0.023091568460359434,0.016624299740900038,-0.0017967847274770713,,-0.6574362495827325,-0.10842716955411212,0.13362935094,-0.003145349152267865,-0.0006831824988272023,-0.005650494732200622,-0.0022868169258799097
2.1239056282211095,,0.13660257,-0.07048683,0.4854002,-0.4646145,-0.6749577,-0.57320637,-0.8841575,0.3894005,0.25813308,0.04897791,0.62673694,-0.77768993,,-0.4987938,-0.05029376,0.7450906,0.009089351,-0.4663689,0.88454366,-0.9376275,0.30344918,0.16962609,-0.34752238,-0.83091426,-0.43452218,,0.03816473,-0.017563889,0.1279694,-0.99310136,0.116892174,-0.009269763,0.1138524,0.98014796,0.162319,0.028059568,0.16014385,-0.9866947,,-0.24416964528435633,-0.28189519537494306,0.10295783325,0.0037744189827214384,-0.023091568460359434,0.016624299740900038,-0.0017967847274770713,,-0.6574362495827325,-0.10841944682123789,0.13362935094,-0.002935659208783341,-0.0006831824988272023,-0.005650494732200622,-0.0022868169258799097
2.148297964129597,,0.13660257,-0.07048683,0.4854002,-0.4646145,-0.6749577,-0.57320637,-0.8841575,0.3894005,0.25813308,0.04897791,0.62673694,-0.77768993,,-0.4987938,-0.05029376,0.7450906,0.009089351,-0.4663689,0.88454366,-0.9376275,0.30344918,0.16962609,-0.34752238,-0.83091426,-0.43452218,,0.03816473,-0.017563889,0.1279694,-0.99310136,0.116892174,-0.009269763,0.1138524,0.98014796,0.162319,0.028059568,0.16014385,-0.9866947,,-0.24416964528435633,-0.28189519537494306,0.10295783325,0.0037744189827214384,-0.023091568460359434,0.016624299740900038,-0.0017967847274770713,,-0.6574362495827325,-0.10841944682123789,0.13362935094,-0.002935659208783341,-0.0006831824988272023,-0.005650494732200622,-0.0022868169258799097
2.1787660741247237,,0.13660257,-0.07048683,0.4854002,-0.4646145,-0.6749577,-0.57320637,-0.8841575,0.3894005,0.25813308,0.04897791,0.62673694,-0.77768993,,-0.49879423,-0.05029078,0.74509144,0.009082317,-0.46636805,0.88454413,-0.9376286,0.30344987,0.16961865,-0.34751952,-0.8309145,-0.43452403,,0.03816473,-0.017563889,0.1279694,-0.99310136,0.116892174,-0.009269763,0.1138524,0.98014796,0.162319,0.028059568,0.16014385,-0.9866947,,-0.24416964528435633,-0.28189519537494306,0.10295783325,0.0037744189827214384,-0.023091568460359434,0.016624299740900038,-0.0017967847274770713,,-0.6574362495827325,-0.10842716955411212,0.13362935094,-0.002935659208783341,-0.0006831824988272023,-0.005650494732200622,-0.0022868169258799097
2.229863387066871,,0.13660342,-0.07048717,0.48539954,-0.46461257,-0.6749544,-0.5732118,-0.8841585,0.38939685,0.25813508,0.048977423,0.62674284,-0.7776853,,-0.4987938,-0.05029376,0.7450906,0.009089351,-0.4663689,0.88454366,-0.9376275,0.30344918,0.16962609,-0.34752238,-0.83091426,-0.43452218,,0.03816473,-0.017563889,0.1279694,-0.99310136,0.116892174,-0.009269763,0.1138524,0.98014796,0.162319,0.028059568,0.16014385,-0.9866947,,-0.24416192255148209,-0.28189519537494306,0.10295783325,0.0037744189827214384,-0.023091568460359434,0.016624299740900038,-0.0017967847274770713,,-0.6574362495827325,-0.10841944682123789,0.13362935094,-0.002935659208783341,-0.0006831824988272023,-0.005650494732200622,-0.0022868169258799097
2.2901828391477466,,0.13660257,-0.07048683,0.4854002,-0.4646145,-0.6749577,-0.57320637,-0.8841575,0.3894005,0.25813308,0.04897791,0.62673694,-0.77768993,,-0.4987938,-0.05029376,0.7450906,0.009089351,-0.4663689,0.88454366,-0.9376275,0.30344918,0.16962609,-0.34752238,-0.83091426,-0.43452218,,0.03816473,-0.017563889,0.1279694,-0.99310136,0.116892174,-0.009269763,0.1138524,0.98014796,0.162319,0.028059568,0.16014385,-0.9866947,,-0.24416964528435633,-0.28189519537494306,0.10295783325,0.0037744189827214384,-0.023091568460359434,0.016624299740900038,-0.0017967847274770713,,-0.6574362495827325,-0.10841944682123789,0.13362935094,-0.002935659208783341,-0.0006831824988272023,-0.005650494732200622,-0.0022868169258799097
2.325252452166751,,0.13660342,-0.07048717,0.48539954,-0.46461257,-0.6749544,-0.5732118,-0.8841585,0.38939685,0.25813508,0.048977423,0.62674284,-0.7776853,,-0.4987938,-0.05029376,0.7450906,0.009089351,-0.4663689,0.88454366,-0.9376275,0.30344918,0.16962609,-0.34752238,-0.83091426,-0.43452218,,0.03816473,-0.017563889,0.1279694,-0.99310136,0.116892174,-0.009269763,0.1138524,0.98014796,0.162319,0.028059568,0.16014385,-0.9866947,,-0.24416192255148209,-0.28189519537494306,0.10295783325,0.0037744189827214384,-0.023091568460359434,0.016624299740900038,-0.0017967847274770713,,-0.6574362495827325,-0.10841944682123789,0.13362935094,-0.002935659208783341,-0.0006831824988272023,-0.005650494732200622,-0.0022868169258799097
2.35558294900693,,0.13660257,-0.07048683,0.4854002,-0.4646145,-0.6749577,-0.57320637,-0.8841575,0.3894005,0.25813308,0.04897791,0.62673694,-0.77768993,,-0.4987938,-0.05029376,0.7450906,0.009089351,-0.4663689,0.88454366,-0.9376275,0.30344918,0.16962609,-0.34752238,-0.83091426,-0.43452218,,0.03816473,-0.017563889,0.1279694,-0.99310136,0.116892174,-0.009269763,0.1138524,0.98014796,0.162319,0.028059568,0.16014385,-0.9866947,,-0.24416964528435633,-0.28189519537494306,0.10295783325,0.0037744189827214384,-0.023091568460359434,0.016624299740900038,-0.0017967847274770713,,-0.6574362495827325,-0.10841944682123789,0.13362935094,-0.002935659208783341,-0.0006831824988272023,-0.005650494732200622,-0.0022868169258799097
2.3889486650004983,,0.13660257,-0.07048683,0.4854002,-0.4646145,-0.6749577,-0.57320637,-0.8841575,0.3894005,0.25813308,0.04897791,0.62673694,-0.77768993,,-0.49879423,-0.05029078,0.74509144,0.009082317,-0.46636805,0.88454413,-0.9376286,0.30344987,0.16961865,-0.34751952,-0.8309145,-0.43452403,,0.03816473,-0.017563889,0.1279694,-0.99310136,0.116892174,-0.009269763,0.1138524,0.98014796,0.162319,0.028059568,0.16014385,-0.9866947,,-0.24416964528435633,-0.28189519537494306,0.10295783325,0.0037744189827214384,-0.023091568460359434,0.016624299740900038,-0.0017967847274770713,,-0.6574362495827325,-0.10842716955411212,0.13362935094,-0.002935659208783341,-0.0006831824988272023,-0.005650494732200622,-0.0022868169258799097
2.421812647022307,,0.13660257,-0.07048683,0.4854002,-0.4646145,-0.6749577,-0.57320637,-0.8841575,0.3894005,0.25813308,0.04897791,0.62673694,-0.77768993,,-0.4987938,-0.05029376,0.7450906,0.009089351,-0.4663689,0.88454366,-0.9376275,0.30344918,0.16962609,-0.34752238,-0.83091426,-0.43452218,,0.03816473,-0.017563889,0.1279694,-0.99310136,0.116892174,-0.009269763,0.1138524,0.98014796,0.162319,0.028059568,0.16014385,-0.9866947,,-0.24416964528435633,-0.28189519537494306,0.10295783325,0.0037744189827214384,-0.023091568460359434,0.016624299740900038,-0.0017967847274770713,,-0.6574362495827325,-0.10841944682123789,0.13362935094,-0.002935659208783341,-0.0006831824988272023,-0.005650494732200622,-0.0022868169258799097
2.4454170691315085,,0.13660257,-0.07048683,0.4854002,-0.4646145,-0.6749577,-0.57320637,-0.8841575,0.3894005,0.25813308,0.04897791,0.62673694,-0.77768993,,-0.4987938,-0.05029376,0.7450906,0.009089351,-0.4663689,0.88454366,-0.9376275,0.30344918,0.16962609,-0.34752238,-0.83091426,-0.43452218,,0.03816473,-0.017563889,0.1279694,-0.99310136,0.116892174,-0.009269763,0.1138524,0.98014796,0.162319,0.028059568,0.16014385,-0.9866947,,-0.24416964528435633,-0.28189519537494306,0.10295783325,0.0037744189827214384,-0.023091568460359434,0.016624299740900038,-0.0017967847274770713,,-0.6574362495827325,-0.10841944682123789,0.13362935094,-0.002935659208783341,-0.0006831824988272023,-0.005650494732200622,-0.0022868169258799097
2.472489334177226,,0.13660404,-0.07048621,0.48539984,-0.46460828,-0.674955,-0.5732147,-0.88416034,0.3893972,0.25812793,0.04898346,0.62674206,-0.7776856,,-0.49879423,-0.05029078,0.74509144,0.009082317,-0.46636805,0.88454413,-0.9376286,0.30344987,0.16961865,-0.34751952,-0.8309145,-0.43452403,,0.03816473,-0.017563889,0.1279694,-0.99310136,0.116892174,-0.009269763,0.1138524,0.98014796,0.162319,0.028059568,0.16014385,-0.9866947,,-0.24416192255148209,-0.28190291810781726,0.10295783325,0.0037744189827214384,-0.023091568460359434,0.016624299740900038,-0.0017967847274770713,,-0.6574362495827325,-0.10842716955411212,0.13362935094,-0.002935659208783341,-0.0006831824988272023,-0.005650494732200622,-0.0022868169258799097
2.4957143261563033,,0.13660257,-0.07048683,0.4854002,-0.4646145,-0.6749577,-0.57320637,-0.8841575,0.3894005,0.25813308,0.04897791,0.62673694,-0.77768993,,-0.4987938,-0.05029376,0.7450906,0.009089351,-0.4663689,0.88454366,-0.9376275,0.30344918,0.16962609,-0.34752238,-0.83091426,-0.43452218,,0.03816473,-0.017563889,0.1279694,-0.99310136,0.116892174,-0.009269763,0.1138524,0.98014796,0.162319,0.028059568,0.16014385,-0.9866947,,-0.24416964528435633,-0.28189519537494306,0.10295783325,0.0037744189827214384,-0.023091568460359434,0.016624299740900038,-0.0017967847274770713,,-0.6574362495827325,-0.10841944682123789,0.13362935094,-0.002935659208783341,-0.0006831824988272023,-0.005650494732200622,-0.0022868169258799097
2.5232846231665462,,0.13660342,-0.07048717,0.48539954,-0.46461257,-0.6749544,-0.5732118,-0.8841585,0.38939685,0.25813508,0.048977423,0.62674284,-0.7776853,,-0.49879423,-0.05029078,0.74509144,0.009082317,-0.46636805,0.88454413,-0.9376286,0.30344987,0.16961865,-0.34751952,-0.8309145,-0.43452403,,0.03816473,-0.017563889,0.1279694,-0.99310136,0.116892174,-0.009269763,0.1138524,0.98014796,0.162319,0.028059568,0.16014385,-0.9866947,,-0.24416192255148209,-0.28189519537494306,0.10295783325,0.0037744189827214384,-0.023091568460359434,0.016624299740900038,-0.0017967847274770713,,-0.6574362495827325,-0.10842716955411212,0.13362935094,-0.002935659208783341,-0.0006831824988272023,-0.005650494732200622,-0.0022868169258799097
2.545800347113982,,0.13660342,-0.07048717,0.48539954,-0.46461257,-0.6749544,-0.5732118,-0.8841585,0.38939685,0.25813508,0.048977423,0.62674284,-0.7776853,,-0.49879423,-0.05029078,0.74509144,0.009082317,-0.46636805,0.88454413,-0.9376286,0.30344987,0.16961865,-0.34751952,-0.8309145,-0.43452403,,0.03816473,-0.017563889,0.1279694,-0.99310136,0.116892174,-0.009269763,0.1138524,0.98014796,0.162319,0.028059568,0.16014385,-0.9866947,,-0.24416192255148209,-0.28189519537494306,0.10295783325,0.0037744189827214384,-0.023091568460359434,0.016624299740900038,-0.0017967847274770713,,-0.6574362495827325,-0.10842716955411212,0.13362935094,-0.002935659208783341,-0.0006831824988272023,-0.005650494732200622,-0.0022868169258799097
2.5724877901375294,,0.13660257,-0.07048683,0.4854002,-0.4646145,-0.6749577,-0.57320637,-0.8841575,0.3894005,0.25813308,0.04897791,0.62673694,-0.77768993,,-0.4987938,-0.05029376,0.7450906,0.009089351,-0.4663689,0.88454366,-0.9376275,0.30344918,0.16962609,-0.34752238,-0.83091426,-0.43452218,,0.03816473,-0.017563889,0.1279694,-0.99310136,0.116892174,-0.009269763,0.1138524,0.98014796,0.162319,0.028059568,0.16014385,-0.9866947,,-0.24416964528435633,-0.28189519537494306,0.10295783325,0.0037744189827214384,-0.023091568460359434,0.016624299740900038,-0.0017967847274770713,,-0.6574362495827325,-0.10841944682123789,0.13362935094,-0.002935659208783341,-0.0006831824988272023,-0.005650494732200622,-0.0022868169258799097
2.595080665079877,,0.13660431,-0.07048751,0.48539883,-0.4646107,-0.67495114,-0.5732173,-0.88415945,0.38939318,0.2581371,0.048976928,0.6267487,-0.7776807,,-0.4987938,-0.05029376,0.7450906,0.009089351,-0.4663689,0.88454366,-0.9376275,0.30344918,0.16962609,-0.34752238,-0.83091426,-0.43452218,,0.03816473,-0.017563889,0.1279694,-0.99310136,0.116892174,-0.009269763,0.1138524,0.98014796,0.162319,0.028059568,0.16014385,-0.9866947,,-0.24415419981860786,-0.28189519537494306,0.10295783325,0.0037744189827214384,-0.023091568460359434,0.016624299740900038,-0.0017967847274770713,,-0.6574362495827325,-0.10841944682123789,0.13362935094,-0.002935659208783341,-0.0006831824988272023,-0.005650494732200622,-0.0022868169258799097
2.6209350880235434,,0.13660342,-0.07048717,0.48539954,-0.46461257,-0.6749544,-0.5732118,-0.8841585,0.38939685,0.25813508,0.048977423,0.62674284,-0.7776853,,-0.4987805,-0.050330184,0.74512035,0.009248301,-0.46641737,0.8845165,-0.9377594,0.3030515,0.16960812,-0.3471622,-0.8310322,-0.43458456,,0.03816473,-0.017563889,0.1279694,-0.99310136,0.116892174,-0.009269763,0.1138524,0.98014796,0.162319,0.028059568,0.16014385,-0.9866947,,-0.24416192255148209,-0.28189519537494306,0.10295783325,0.0037744189827214384,-0.023091568460359434,0.016624299740900038,-0.0017967847274770713,,-0.6574362495827325,-0.10841944682123789,0.13362935094,-0.0033550390957523897,-0.0006831824988272023,-0.005650494732200622,-0.0022868169258799097
2.6426521211396903,,0.13660342,-0.07048717,0.48539954,-0.46461257,-0.6749544,-0.5732118,-0.8841585,0.38939685,0.25813508,0.048977423,0.62674284,-0.7776853,,-0.4987805,-0.050330184,0.74512035,0.009248301,-0.46641737,0.8845165,-0.9377594,0.3030515,0.16960812,-0.3471622,-0.8310322,-0.43458456,,0.03816473,-0.017563889,0.1279694,-0.99310136,0.116892174,-0.009269763,0.1138524,0.98014796,0.162319,0.028059568,0.16014385,-0.9866947,,-0.24416192255148209,-0.28189519537494306,0.10295783325,0.0037744189827214384,-0.023091568460359434,0.016624299740900038,-0.0017967847274770713,,-0.6574362495827325,-0.10841944682123789,0.13362935094,-0.0033550390957523897,-0.0006831824988272023,-0.005650494732200622,-0.0022868169258799097
2.663467367179692,,0.13660257,-0.07048683,0.4854002,-0.4646145,-0.6749577,-0.57320637,-0.8841575,0.3894005,0.25813308,0.04897791,0.62673694,-0.77768993,,-0.4987805,-0.050330184,0.74512035,0.009248301,-0.46641737,0.8845165,-0.9377594,0.3030515,0.16960812,-0.3471622,-0.8310322,-0.43458456,,0.03816473,-0.017563889,0.1279694,-0.99310136,0.116892174,-0.009269763,0.1138524,0.98014796,0.162319,0.028059568,0.16014385,-0.9866947,,-0.24416964528435633,-0.28189519537494306,0.10295783325,0.0037744189827214384,-0.023091568460359434,0.016624299740900038,-0.0017967847274770713,,-0.6574362495827325,-0.10841944682123789,0.13362935094,-0.0033550390957523897,-0.0006831824988272023,-0.005650494732200622,-0.0022868169258799097
2.6893483251333237,,0.13660257,-0.07048683,0.4854002,-0.4646145,-0.6749577,-0.57320637,-0.8841575,0.3894005,0.25813308,0.04897791,0.62673694,-0.77768993,,-0.49878094,-0.050327197,0.7451211,0.009241268,-0.46641654,0.88451695,-0.93776053,0.30305222,0.16960065,-0.34715936,-0.83103245,-0.4345864,,0.03816473,-0.017563889,0.1279694,-0.99310136,0.116892174,-0.009269763,0.1138524,0.98014796,0.162319,0.028059568,0.16014385,-0.9866947,,-0.24416964528435633,-0.28189519537494306,0.10295783325,0.0037744189827214384,-0.023091568460359434,0.016624299740900038,-0.0017967847274770713,,-0.6574362495827325,-0.10842716955411212,0.13362935094,-0.0033550390957523897,-0.0006831824988272023,-0.005650494732200622,-0.0022868169258799097
2.7125009482260793,,0.13660342,-0.07048717,0.48539954,-0.46461257,-0.6749544,-0.5732118,-0.8841585,0.38939685,0.25813508,0.048977423,0.62674284,-0.7776853,,-0.4987805,-0.050330184,0.74512035,0.009248301,-0.46641737,0.8845165,-0.9377594,0.3030515,0.16960812,-0.3471622,-0.8310322,-0.43458456,,0.03816473,-0.017563889,0.1279694,-0.99310136,0.116892174,-0.009269763,0.1138524,0.98014796,0.162319,0.028059568,0.16014385,-0.9866947,,-0.24416192255148209,-0.28189519537494306,0.10295783325,0.0037744189827214384,-0.023091568460359434,0.016624299740900038,-0.0017967847274770713,,-0.6574362495827325,-0.10841944682123789,0.13362935094,-0.0033550390957523897,-0.0006831824988272023,-0.005650494732200622,-0.0022868169258799097
2.739934954093769,,0.13660257,-0.07048683,0.4854002,-0.4646145,-0.6749577,-0.57320637,-0.8841575,0.3894005,0.25813308,0.04897791,0.62673694,-0.77768993,,-0.4987805,-0.050330184,0.74512035,0.009248301,-0.46641737,0.8845165,-0.9377594,0.3030515,0.16960812,-0.3471622,-0.8310322,-0.43458456,,0.03816473,-0.017563889,0.1279694,-0.99310136,0.116892174,-0.009269763,0.1138524,0.98014796,0.162319,0.028059568,0.16014385,-0.9866947,,-0.24416964528435633,-0.28189519537494306,0.10295783325,0.0037744189827214384,-0.023091568460359434,0.016624299740900038,-0.0017967847274770713,,-0.6574362495827325,-0.10841944682123789,0.13362935094,-0.0033550390957523897,-0.0006831824988272023,-0.005650494732200622,-0.0022868169258799097
2.7633120859973133,,0.13660257,-0.07048683,0.4854002,-0.4646145,-0.6749577,-0.57320637,-0.8841575,0.3894005,0.25813308,0.04897791,0.62673694,-0.77768993,,-0.49878094,-0.050327197,0.7451211,0.009241268,-0.46641654,0.88451695,-0.93776053,0.30305222,0.16960065,-0.34715936,-0.83103245,-0.4345864,,0.03816473,-0.017563889,0.1279694,-0.99310136,0.116892174,-0.009269763,0.1138524,0.98014796,0.162319,0.028059568,0.16014385,-0.9866947,,-0.24416964528435633,-0.28189519537494306,0.10295783325,0.0037744189827214384,-0.023091568460359434,0.016624299740900038,-0.0017967847274770713,,-0.6574362495827325,-0.10842716955411212,0.13362935094,-0.0033550390957523897,-0.0006831824988272023,-0.005650494732200622,-0.0022868169258799097
2.795050132088363,,0.13660257,-0.07048683,0.4854002,-0.4646145,-0.6749577,-0.57320637,-0.8841575,0.3894005,0.25813308,0.04897791,0.62673694,-0.77768993,,-0.4987805,-0.050330184,0.74512035,0.009248301,-0.46641737,0.8845165,-0.9377594,0.3030515,0.16960812,-0.3471622,-0.8310322,-0.43458456,,0.03816473,-0.017563889,0.1279694,-0.99310136,0.116892174,-0.009269763,0.1138524,0.98014796,0.162319,0.028059568,0.16014385,-0.9866947,,-0.24416964528435633,-0.28189519537494306,0.10295783325,0.0037744189827214384,-0.023091568460359434,0.016624299740900038,-0.0017967847274770713,,-0.6574362495827325,-0.10841944682123789,0.13362935094,-0.0033550390957523897,-0.0006831824988272023,-0.005650494732200622,-0.0022868169258799097
2.8304311870597303,,0.13660342,-0.07048717,0.48539954,-0.46461257,-0.6749544,-0.5732118,-0.8841585,0.38939685,0.25813508,0.048977423,0.62674284,-0.7776853,,-0.4987805,-0.050330184,0.74512035,0.009248301,-0.46641737,0.8845165,-0.9377594,0.3030515,0.16960812,-0.3471622,-0.8310322,-0.43458456,,0.03816473,-0.017563889,0.1279694,-0.99310136,0.116892174,-0.009269763,0.1138524,0.98014796,0.162319,0.028059568,0.16014385,-0.9866947,,-0.24416192255148209,-0.28189519537494306,0.10295783325,0.0037744189827214384,-0.023091568460359434,0.016624299740900038,-0.0017967847274770713,,-0.6574362495827325,-0.10841944682123789,0.13362935094,-0.0033550390957523897,-0.0006831824988272023,-0.005650494732200622,-0.0022868169258799097
2.86135666212067,,0.13660257,-0.07048683,0.4854002,-0.4646145,-0.6749577,-0.57320637,-0.8841575,0.3894005,0.25813308,0.04897791,0.62673694,-0.77768993,,-0.4987805,-0.050330184,0.74512035,0.009248301,-0.46641737,0.8845165,-0.9377594,0.3030515,0.16960812,-0.3471622,-0.8310322,-0.43458456,,0.03816473,-0.017563889,0.1279694,-0.99310136,0.116892174,-0.009269763,0.1138524,0.98014796,0.162319,0.028059568,0.16014385,-0.9866947,,-0.24416964528435633,-0.28189519537494306,0.10295783325,0.0037744189827214384,-0.023091568460359434,0.016624299740900038,-0.0017967847274770713,,-0.6574362495827325,-0.10841944682123789,0.13362935094,-0.0033550390957523897,-0.0006831824988272023,-0.005650494732200622,-0.0022868169258799097
2.8869234391022474,,0.13660257,-0.07048683,0.4854002,-0.4646145,-0.6749577,-0.57320637,-0.8841575,0.3894005,0.25813308,0.04897791,0.62673694,-0.77768993,,-0.4987805,-0.050330184,0.74512035,0.009248301,-0.46641737,0.8845165,-0.9377594,0.3030515,0.16960812,-0.3471622,-0.8310322,-0.43458456,,0.03816473,-0.017563889,0.1279694,-0.99310136,0.116892174,-0.009269763,0.1138524,0.98014796,0.162319,0.028059568,0.16014385,-0.9866947,,-0.24416964528435633,-0.28189519537494306,0.10295783325,0.0037744189827214384,-0.023091568460359434,0.016624299740900038,-0.0017967847274770713,,-0.6574362495827325,-0.10841944682123789,0.13362935094,-0.0033550390957523897,-0.0006831824988272023,-0.005650494732200622,-0.0022868169258799097
2.909785151015967,,0.13660342,-0.07048717,0.48539954,-0.46461257,-0.6749544,-0.5732118,-0.8841585,0.38939685,0.25813508,0.048977423,0.62674284,-0.7776853,,-0.49878094,-0.050327197,0.7451211,0.009241268,-0.46641654,0.88451695,-0.93776053,0.30305222,0.16960065,-0.34715936,-0.83103245,-0.4345864,,0.03816473,-0.017563889,0.1279694,-0.99310136,0.116892174,-0.009269763,0.1138524,0.98014796,0.162319,0.028059568,0.16014385,-0.9866947,,-0.24416192255148209,-0.28189519537494306,0.10295783325,0.0037744189827214384,-0.023091568460359434,0.016624299740900038,-0.0017967847274770713,,-0.6574362495827325,-0.10842716955411212,0.13362935094,-0.0033550390957523897,-0.0006831824988272023,-0.005650494732200622,-0.0022868169258799097
2.934053954202682,,0.13660257,-0.07048683,0.4854002,-0.4646145,-0.6749577,-0.57320637,-0.8841575,0.3894005,0.25813308,0.04897791,0.62673694,-0.77768993,,-0.4987805,-0.050330184,0.74512035,0.009248301,-0.46641737,0.8845165,-0.9377594,0.3030515,0.16960812,-0.3471622,-0.8310322,-0.43458456,,0.03816473,-0.017563889,0.1279694,-0.99310136,0.116892174,-0.009269763,0.1138524,0.98014796,0.162319,0.028059568,0.16014385,-0.9866947,,-0.24416964528435633,-0.28189519537494306,0.10295783325,0.0037744189827214384,-0.023091568460359434,0.016624299740900038,-0.0017967847274770713,,-0.6574362495827325,-0.10841944682123789,0.13362935094,-0.0033550390957523897,-0.0006831824988272023,-0.005650494732200622,-0.0022868169258799097
2.9564783992245793,,0.13660257,-0.07048683,0.4854002,-0.4646145,-0.6749577,-0.57320637,-0.8841575,0.3894005,0.25813308,0.04897791,0.62673694,-0.77768993,,-0.4987805,-0.050330184,0.74512035,0.009248301,-0.46641737,0.8845165,-0.9377594,0.3030515,0.16960812,-0.3471622,-0.8310322,-0.43458456,,0.03816473,-0.017563889,0.1279694,-0.99310136,0.116892174,-0.009269763,0.1138524,0.98014796,0.162319,0.028059568,0.16014385,-0.9866947,,-0.24416964528435633,-0.28189519537494306,0.10295783325,0.0037744189827214384,-0.023091568460359434,0.016624299740900038,-0.0017967847274770713,,-0.6574362495827325,-0.10841944682123789,0.13362935094,-0.0033550390957523897,-0.0006831824988272023,-0.005650494732200622,-0.0022868169258799097
2.9805784611962736,,0.13660342,-0.07048717,0.48539954,-0.46461257,-0.6749544,-0.5732118,-0.8841585,0.38939685,0.25813508,0.048977423,0.62674284,-0.7776853,,-0.49878094,-0.050327197,0.7451211,0.009241268,-0.46641654,0.88451695,-0.93776053,0.30305222,0.16960065,-0.34715936,-0.83103245,-0.4345864,,0.03816473,-0.017563889,0.1279694,-0.99310136,0.116892174,-0.009269763,0.1138524,0.98014796,0.162319,0.028059568,0.16014385,-0.9866947,,-0.24416192255148209,-0.28189519537494306,0.10295783325,0.0037744189827214384,-0.023091568460359434,0.016624299740900038,-0.0017967847274770713,,-0.6574362495827325,-0.10842716955411212,0.13362935094,-0.0033550390957523897,-0.0006831824988272023,-0.005650494732200622,-0.0022868169258799097
3.007841139100492,,0.13660257,-0.07048683,0.4854002,-0.4646145,-0.6749577,-0.57320637,-0.8841575,0.3894005,0.25813308,0.04897791,0.62673694,-0.77768993,,-0.4987805,-0.050330184,0.74512035,0.009248301,-0.46641737,0.8845165,-0.9377594,0.3030515,0.16960812,-0.3471622,-0.8310322,-0.43458456,,0.03816473,-0.017563889,0.1279694,-0.99310136,0.116892174,-0.009269763,0.1138524,0.98014796,0.162319,0.028059568,0.16014385,-0.9866947,,-0.24416964528435633,-0.28189519537494306,0.10295783325,0.0037744189827214384,-0.023091568460359434,0.016624299740900038,-0.0017967847274770713,,-0.6574362495827325,-0.10841944682123789,0.13362935094,-0.0033550390957523897,-0.0006831824988272023,-0.005650494732200622,-0.0022868169258799097
3.0321923771407455,,0.13660257,-0.07048683,0.4854002,-0.4646145,-0.6749577,-0.57320637,-0.8841575,0.3894005,0.25813308,0.04897791,0.62673694,-0.77768993,,-0.4987805,-0.050330184,0.74512035,0.009248301,-0.46641737,0.8845165,-0.9377594,0.3030515,0.16960812,-0.3471622,-0.8310322,-0.43458456,,0.03816473,-0.017563889,0.1279694,-0.99310136,0.116892174,-0.009269763,0.1138524,0.98014796,0.162319,0.028059568,0.16014385,-0.9866947,,-0.24416964528435633,-0.28189519537494306,0.10295783325,0.0037744189827214384,-0.023091568460359434,0.016624299740900038,-0.0017967847274770713,,-0.6574362495827325,-0.10841944682123789,0.13362935094,-0.0033550390957523897,-0.0006831824988272023,-0.005650494732200622,-0.0022868169258799097
3.055728663224727,,0.13660315,-0.070485875,0.48540053,-0.4646102,-0.6749582,-0.57320917,-0.8841594,0.38940087,0.2581259,0.04898396,0.6267363,-0.77769023,,-0.49878094,-0.050327197,0.7451211,0.009241268,-0.46641654,0.88451695,-0.93776053,0.30305222,0.16960065,-0.34715936,-0.83103245,-0.4345864,,0.03816473,-0.017563889,0.1279694,-0.99310136,0.116892174,-0.009269763,0.1138524,0.98014796,0.162319,0.028059568,0.16014385,-0.9866947,,-0.24416964528435633,-0.28190291810781726,0.10295783325,0.0037744189827214384,-0.023091568460359434,0.016624299740900038,-0.0017967847274770713,,-0.6574362495827325,-0.10842716955411212,0.13362935094,-0.0033550390957523897,-0.0006831824988272023,-0.005650494732200622,-0.0022868169258799097
3.0774388720747083,,0.13663405,-0.070493646,0.48537967,-0.46458066,-0.6749989,-0.5731851,-0.8841784,0.3893481,0.25814104,0.048923545,0.6267252,-0.7777029,,-0.49881262,-0.05033517,0.74512845,0.0092550665,-0.46639568,0.88452774,-0.93776494,0.30303958,0.16959947,-0.3471474,-0.8310487,-0.4345648,,0.038146626,-0.01755929,0.1279716,-0.99309933,0.116909236,-0.009267342,0.113869585,0.98014605,0.16231959,0.028060015,0.16014422,-0.98669463,,-0.24416964528435633,-0.28189519537494306,0.10295783325,0.0037744189827214384,-0.023091568460359434,0.016624299740900038,-0.0017967847274770713,,-0.6574362495827325,-0.10841944682123789,0.13362935094,-0.0033550390957523897,-0.0006831824988272023,-0.005650494732200622,-0.0022868169258799097
3.1058231650386006,,0.13663578,-0.070494324,0.48537827,-0.4645768,-0.67499226,-0.573196,-0.8841803,0.38934076,0.25814506,0.048922583,0.6267369,-0.77769357,,-0.49881262,-0.05033517,0.74512845,0.0092550665,-0.46639568,0.88452774,-0.93776494,0.30303958,0.16959947,-0.3471474,-0.8310487,-0.4345648,,0.038146626,-0.01755929,0.1279716,-0.99309933,0.116909236,-0.009267342,0.113869585,0.98014605,0.16231959,0.028060015,0.16014422,-0.98669463,,-0.24415419981860786,-0.28189519537494306,0.10295783325,0.0037744189827214384,-0.023091568460359434,0.016624299740900038,-0.0017967847274770713,,-0.6574362495827325,-0.10841944682123789,0.13362935094,-0.0033550390957523897,-0.0006831824988272023,-0.005650494732200622,-0.0022868169258799097
3.126862639095634,,0.13663578,-0.070494324,0.48537827,-0.4645768,-0.67499226,-0.573196,-0.8841803,0.38934076,0.25814506,0.048922583,0.6267369,-0.77769357,,-0.49881262,-0.05033517,0.74512845,0.0092550665,-0.46639568,0.88452774,-0.93776494,0.30303958,0.16959947,-0.3471474,-0.8310487,-0.4345648,,0.038146626,-0.01755929,0.1279716,-0.99309933,0.116909236,-0.009267342,0.113869585,0.98014605,0.16231959,0.028060015,0.16014422,-0.98669463,,-0.24415419981860786,-0.28189519537494306,0.10295783325,0.0037744189827214384,-0.023091568460359434,0.016624299740900038,-0.0017967847274770713,,-0.6574362495827325,-0.10841944682123789,0.13362935094,-0.0033550390957523897,-0.0006831824988272023,-0.005650494732200622,-0.0022868169258799097
3.154108784161508,,0.13663405,-0.070493646,0.48537967,-0.46458066,-0.6749989,-0.5731851,-0.8841784,0.3893481,0.25814104,0.048923545,0.6267252,-0.7777029,,-0.49881262,-0.05033517,0.74512845,0.0092550665,-0.46639568,0.88452774,-0.93776494,0.30303958,0.16959947,-0.3471474,-0.8310487,-0.4345648,,0.038146626,-0.01755929,0.1279716,-0.99309933,0.116909236,-0.009267342,0.113869585,0.98014605,0.16231959,0.028060015,0.16014422,-0.98669463,,-0.24416964528435633,-0.28189519537494306,0.10295783325,0.0037744189827214384,-0.023091568460359434,0.016624299740900038,-0.0017967847274770713,,-0.6574362495827325,-0.10841944682123789,0.13362935094,-0.0033550390957523897,-0.0006831824988272023,-0.005650494732200622,-0.0022868169258799097
3.1760827861726284,,0.13663405,-0.070493646,0.48537967,-0.46458066,-0.6749989,-0.5731851,-0.8841784,0.3893481,0.25814104,0.048923545,0.6267252,-0.7777029,,-0.4988259,-0.050298773,0.7450988,0.009096116,-0.46634716,0.884555,-0.93763304,0.30343726,0.16961749,-0.34750757,-0.8309308,-0.43450242,,0.038146626,-0.01755929,0.1279716,-0.99309933,0.116909236,-0.009267342,0.113869585,0.98014605,0.16231959,0.028060015,0.16014422,-0.98669463,,-0.24416964528435633,-0.28189519537494306,0.10295783325,0.0037744189827214384,-0.023091568460359434,0.016624299740900038,-0.0017967847274770713,,-0.6574362495827325,-0.10841944682123789,0.13362935094,-0.002935659208783341,-0.0006831824988272023,-0.005650494732200622,-0.0022868169258799097
3.197209862060845,,0.13663489,-0.07049399,0.485379,-0.46457875,-0.67499566,-0.5731905,-0.88417935,0.38934445,0.25814307,0.048923064,0.62673104,-0.7776983,,-0.49882632,-0.0502958,0.74509966,0.009089105,-0.46634632,0.8845555,-0.9376342,0.30343798,0.16961005,-0.34750473,-0.830931,-0.43450427,,0.038146626,-0.01755929,0.1279716,-0.99309933,0.116909236,-0.009267342,0.113869585,0.98014605,0.16231959,0.028060015,0.16014422,-0.98669463,,-0.24416192255148209,-0.28189519537494306,0.10295783325,0.0037744189827214384,-0.023091568460359434,0.016624299740900038,-0.0017967847274770713,,-0.6574362495827325,-0.10842716955411212,0.13362935094,-0.002935659208783341,-0.0006831824988272023,-0.005650494732200622,-0.0022868169258799097
3.224004010204226,,0.13663405,-0.070493646,0.48537967,-0.46458066,-0.6749989,-0.5731851,-0.8841784,0.3893481,0.25814104,0.048923545,0.6267252,-0.7777029,,-0.4988259,-0.050298773,0.7450988,0.009096116,-0.46634716,0.884555,-0.93763304,0.30343726,0.16961749,-0.34750757,-0.8309308,-0.43450242,,0.038146626,-0.01755929,0.1279716,-0.99309933,0.116909236,-0.009267342,0.113869585,0.98014605,0.16231959,0.028060015,0.16014422,-0.98669463,,-0.24416964528435633,-0.28189519537494306,0.10295783325,0.0037744189827214384,-0.023091568460359434,0.016624299740900038,-0.0017967847274770713,,-0.6574362495827325,-0.10841944682123789,0.13362935094,-0.002935659208783341,-0.0006831824988272023,-0.005650494732200622,-0.0022868169258799097
3.2462895822245628,,0.13663405,-0.070493646,0.48537967,-0.46458066,-0.6749989,-0.5731851,-0.8841784,0.3893481,0.25814104,0.048923545,0.6267252,-0.7777029,,-0.4988259,-0.050298773,0.7450988,0.009096116,-0.46634716,0.884555,-0.93763304,0.30343726,0.16961749,-0.34750757,-0.8309308,-0.43450242,,0.038146626,-0.01755929,0.1279716,-0.99309933,0.116909236,-0.009267342,0.113869585,0.98014605,0.16231959,0.028060015,0.16014422,-0.98669463,,-0.24416964528435633,-0.28189519537494306,0.10295783325,0.0037744189827214384,-0.023091568460359434,0.016624299740900038,-0.0017967847274770713,,-0.6574362495827325,-0.10841944682123789,0.13362935094,-0.002935659208783341,-0.0006831824988272023,-0.005650494732200622,-0.0022868169258799097
3.2768126712180674,,0.13663578,-0.070494324,0.48537827,-0.4645768,-0.67499226,-0.573196,-0.8841803,0.38934076,0.25814506,0.048922583,0.6267369,-0.77769357,,-0.4988259,-0.050298773,0.7450988,0.009096116,-0.46634716,0.884555,-0.93763304,0.30343726,0.16961749,-0.34750757,-0.8309308,-0.43450242,,0.038146626,-0.01755929,0.1279716,-0.99309933,0.116909236,-0.009267342,0.113869585,0.98014605,0.16231959,0.028060015,0.16014422,-0.98669463,,-0.24415419981860786,-0.28189519537494306,0.10295783325,0.0037744189827214384,-0.023091568460359434,0.016624299740900038,-0.0017967847274770713,,-0.6574362495827325,-0.10841944682123789,0.13362935094,-0.002935659208783341,-0.0006831824988272023,-0.005650494732200622,-0.0022868169258799097
3.30877487314865,,0.13663405,-0.070493646,0.48537967,-0.46458066,-0.6749989,-0.5731851,-0.8841784,0.3893481,0.25814104,0.048923545,0.6267252,-0.7777029,,-0.4988259,-0.050298773,0.7450988,0.009096116,-0.46634716,0.884555,-0.93763304,0.30343726,0.16961749,-0.34750757,-0.8309308,-0.43450242,,0.038146626,-0.01755929,0.1279716,-0.99309933,0.116909236,-0.009267342,0.113869585,0.98014605,0.16231959,0.028060015,0.16014422,-0.98669463,,-0.24416964528435633,-0.28189519537494306,0.10295783325,0.0037744189827214384,-0.023091568460359434,0.016624299740900038,-0.0017967847274770713,,-0.6574362495827325,-0.10841944682123789,0.13362935094,-0.002935659208783341,-0.0006831824988272023,-0.005650494732200622,-0.0022868169258799097
3.330557411070913,,0.13663405,-0.070493646,0.48537967,-0.46458066,-0.6749989,-0.5731851,-0.8841784,0.3893481,0.25814104,0.048923545,0.6267252,-0.7777029,,-0.4988259,-0.050298773,0.7450988,0.009096116,-0.46634716,0.884555,-0.93763304,0.30343726,0.16961749,-0.34750757,-0.8309308,-0.43450242,,0.038146626,-0.01755929,0.1279716,-0.99309933,0.116909236,-0.009267342,0.113869585,0.98014605,0.16231959,0.028060015,0.16014422,-0.98669463,,-0.24416964528435633,-0.28189519537494306,0.10295783325,0.0037744189827214384,-0.023091568460359434,0.016624299740900038,-0.0017967847274770713,,-0.6574362495827325,-0.10841944682123789,0.13362935094,-0.002935659208783341,-0.0006831824988272023,-0.005650494732200622,-0.0022868169258799097
3.3585926091764122,,0.13663489,-0.07049399,0.485379,-0.46457875,-0.67499566,-0.5731905,-0.88417935,0.38934445,0.25814307,0.048923064,0.62673104,-0.7776983,,-0.4988259,-0.050298773,0.7450988,0.009096116,-0.46634716,0.884555,-0.93763304,0.30343726,0.16961749,-0.34750757,-0.8309308,-0.43450242,,0.038146626,-0.01755929,0.1279716,-0.99309933,0.116909236,-0.009267342,0.113869585,0.98014605,0.16231959,0.028060015,0.16014422,-0.98669463,,-0.24416192255148209,-0.28189519537494306,0.10295783325,0.0037744189827214384,-0.023091568460359434,0.016624299740900038,-0.0017967847274770713,,-0.6574362495827325,-0.10841944682123789,0.13362935094,-0.002935659208783341,-0.0006831824988272023,-0.005650494732200622,-0.0022868169258799097
3.380029478110373,,0.13663489,-0.07049399,0.485379,-0.46457875,-0.67499566,-0.5731905,-0.88417935,0.38934445,0.25814307,0.048923064,0.62673104,-0.7776983,,-0.4988259,-0.050298773,0.7450988,0.009096116,-0.46634716,0.884555,-0.93763304,0.30343726,0.16961749,-0.34750757,-0.8309308,-0.43450242,,0.038146626,-0.01755929,0.1279716,-0.99309933,0.116909236,-0.009267342,0.113869585,0.98014605,0.16231959,0.028060015,0.16014422,-0.98669463,,-0.24416192255148209,-0.28189519537494306,0.10295783325,0.0037744189827214384,-0.023091568460359434,0.016624299740900038,-0.0017967847274770713,,-0.6574362495827325,-0.10841944682123789,0.13362935094,-0.002935659208783341,-0.0006831824988272023,-0.005650494732200622,-0.0022868169258799097
3.4080853890627623,,0.13663405,-0.070493646,0.48537967,-0.46458066,-0.6749989,-0.5731851,-0.8841784,0.3893481,0.25814104,0.048923545,0.6267252,-0.7777029,,-0.4988259,-0.050298773,0.7450988,0.009096116,-0.46634716,0.884555,-0.93763304,0.30343726,0.16961749,-0.34750757,-0.8309308,-0.43450242,,0.038146626,-0.01755929,0.1279716,-0.99309933,0.116909236,-0.009267342,0.113869585,0.98014605,0.16231959,0.028060015,0.16014422,-0.98669463,,-0.24416964528435633,-0.28189519537494306,0.10295783325,0.0037744189827214384,-0.023091568460359434,0.016624299740900038,-0.0017967847274770713,,-0.6574362495827325,-0.10841944682123789,0.13362935094,-0.002935659208783341,-0.0006831824988272023,-0.005650494732200622,-0.0022868169258799097
3.429173663025722,,0.13663405,-0.070493646,0.48537967,-0.46458066,-0.6749989,-0.5731851,-0.8841784,0.3893481,0.25814104,0.048923545,0.6267252,-0.7777029,,-0.4988259,-0.050298773,0.7450988,0.009096116,-0.46634716,0.884555,-0.93763304,0.30343726,0.16961749,-0.34750757,-0.8309308,-0.43450242,,0.038146626,-0.01755929,0.1279716,-0.99309933,0.116909236,-0.009267342,0.113869585,0.98014605,0.16231959,0.028060015,0.16014422,-0.98669463,,-0.24416964528435633,-0.28189519537494306,0.10295783325,0.0037744189827214384,-0.023091568460359434,0.016624299740900038,-0.0017967847274770713,,-0.6574362495827325,-0.10841944682123789,0.13362935094,-0.002935659208783341,-0.0006831824988272023,-0.005650494732200622,-0.0022868169258799097
3.455410895170644,,0.13663405,-0.070493646,0.48537967,-0.46458066,-0.6749989,-0.5731851,-0.8841784,0.3893481,0.25814104,0.048923545,0.6267252,-0.7777029,,-0.49882632,-0.0502958,0.74509966,0.009089105,-0.46634632,0.8845555,-0.9376342,0.30343798,0.16961005,-0.34750473,-0.830931,-0.43450427,,0.038146626,-0.01755929,0.1279716,-0.99309933,0.116909236,-0.009267342,0.113869585,0.98014605,0.16231959,0.028060015,0.16014422,-0.98669463,,-0.24416964528435633,-0.28189519537494306,0.10295783325,0.0037744189827214384,-0.023091568460359434,0.016624299740900038,-0.0017967847274770713,,-0.6574362495827325,-0.10842716955411212,0.13362935094,-0.002935659208783341,-0.0006831824988272023,-0.005650494732200622,-0.0022868169258799097
3.4785092850215733,,0.13663405,-0.070493646,0.48537967,-0.46458066,-0.6749989,-0.5731851,-0.8841784,0.3893481,0.25814104,0.048923545,0.6267252,-0.7777029,,-0.4988259,-0.050298773,0.7450988,0.009096116,-0.46634716,0.884555,-0.93763304,0.30343726,0.16961749,-0.34750757,-0.8309308,-0.43450242,,0.038146626,-0.01755929,0.1279716,-0.99309933,0.116909236,-0.009267342,0.113869585,0.98014605,0.16231959,0.028060015,0.16014422,-0.98669463,,-0.24416964528435633,-0.28189519537494306,0.10295783325,0.0037744189827214384,-0.023091568460359434,0.016624299740900038,-0.0017967847274770713,,-0.6574362495827325,-0.10841944682123789,0.13362935094,-0.002935659208783341,-0.0006831824988272023,-0.005650494732200622,-0.0022868169258799097
3.5055112801492214,,0.13663489,-0.07049399,0.485379,-0.46457875,-0.67499566,-0.5731905,-0.88417935,0.38934445,0.25814307,0.048923064,0.62673104,-0.7776983,,-0.4988259,-0.050298773,0.7450988,0.009096116,-0.46634716,0.884555,-0.93763304,0.30343726,0.16961749,-0.34750757,-0.8309308,-0.43450242,,0.038146626,-0.01755929,0.1279716,-0.99309933,0.116909236,-0.009267342,0.113869585,0.98014605,0.16231959,0.028060015,0.16014422,-0.98669463,,-0.24416192255148209,-0.28189519537494306,0.10295783325,0.0037744189827214384,-0.023091568460359434,0.016624299740900038,-0.0017967847274770713,,-0.6574362495827325,-0.10841944682123789,0.13362935094,-0.002935659208783341,-0.0006831824988272023,-0.005650494732200622,-0.0022868169258799097
3.5261449951212853,,0.13663489,-0.07049399,0.485379,-0.46457875,-0.67499566,-0.5731905,-0.88417935,0.38934445,0.25814307,0.048923064,0.62673104,-0.7776983,,-0.49882632,-0.0502958,0.74509966,0.009089105,-0.46634632,0.8845555,-0.9376342,0.30343798,0.16961005,-0.34750473,-0.830931,-0.43450427,,0.038146626,-0.01755929,0.1279716,-0.99309933,0.116909236,-0.009267342,0.113869585,0.98014605,0.16231959,0.028060015,0.16014422,-0.98669463,,-0.24416192255148209,-0.28189519537494306,0.10295783325,0.0037744189827214384,-0.023091568460359434,0.016624299740900038,-0.0017967847274770713,,-0.6574362495827325,-0.10842716955411212,0.13362935094,-0.002935659208783341,-0.0006831824988272023,-0.005650494732200622,-0.0022868169258799097
3.5492066491860896,,0.13663405,-0.070493646,0.48537967,-0.46458066,-0.6749989,-0.5731851,-0.8841784,0.3893481,0.25814104,0.048923545,0.6267252,-0.7777029,,-0.4988259,-0.050298773,0.7450988,0.009096116,-0.46634716,0.884555,-0.93763304,0.30343726,0.16961749,-0.34750757,-0.8309308,-0.43450242,,0.038146626,-0.01755929,0.1279716,-0.99309933,0.116909236,-0.009267342,0.113869585,0.98014605,0.16231959,0.028060015,0.16014422,-0.98669463,,-0.24416964528435633,-0.28189519537494306,0.10295783325,0.0037744189827214384,-0.023091568460359434,0.016624299740900038,-0.0017967847274770713,,-0.6574362495827325,-0.10841944682123789,0.13362935094,-0.002935659208783341,-0.0006831824988272023,-0.005650494732200622,-0.0022868169258799097
3.576124344021082,,0.13663405,-0.070493646,0.48537967,-0.46458066,-0.6749989,-0.5731851,-0.8841784,0.3893481,0.25814104,0.048923545,0.6267252,-0.7777029,,-0.49882776,-0.050294474,0.7450936,0.0090911165,-0.4663328,0.8845626,-0.93763417,0.30343992,0.16960722,-0.347505,-0.8309379,-0.43449086,,0.038146626,-0.01755929,0.1279716,-0.99309933,0.116909236,-0.009267342,0.113869585,0.98014605,0.16231959,0.028060015,0.16014422,-0.98669463,,-0.24416964528435633,-0.28189519537494306,0.10295783325,0.0037744189827214384,-0.023091568460359434,0.016624299740900038,-0.0017967847274770713,,-0.657451695048481,-0.10842716955411212,0.13362935094,-0.002935659208783341,-0.0006831824988272023,-0.005650494732200622,-0.0022868169258799097
3.5968140391632915,,0.13663405,-0.070493646,0.48537967,-0.46458066,-0.6749989,-0.5731851,-0.8841784,0.3893481,0.25814104,0.048923545,0.6267252,-0.7777029,,-0.49882776,-0.050294474,0.7450936,0.0090911165,-0.4663328,0.8845626,-0.93763417,0.30343992,0.16960722,-0.347505,-0.8309379,-0.43449086,,0.038146626,-0.01755929,0.1279716,-0.99309933,0.116909236,-0.009267342,0.113869585,0.98014605,0.16231959,0.028060015,0.16014422,-0.98669463,,-0.24416964528435633,-0.28189519537494306,0.10295783325,0.0037744189827214384,-0.023091568460359434,0.016624299740900038,-0.0017967847274770713,,-0.657451695048481,-0.10842716955411212,0.13362935094,-0.002935659208783341,-0.0006831824988272023,-0.005650494732200622,-0.0022868169258799097
3.6263335631228983,,0.13663405,-0.070493646,0.48537967,-0.46458066,-0.6749989,-0.5731851,-0.8841784,0.3893481,0.25814104,0.048923545,0.6267252,-0.7777029,,-0.49882734,-0.050297454,0.7450928,0.0090981275,-0.46633366,0.8845621,-0.937633,0.30343923,0.16961466,-0.34750786,-0.8309377,-0.43448904,,0.038146626,-0.01755929,0.1279716,-0.99309933,0.116909236,-0.009267342,0.113869585,0.98014605,0.16231959,0.028060015,0.16014422,-0.98669463,,-0.24416964528435633,-0.28189519537494306,0.10295783325,0.0037744189827214384,-0.023091568460359434,0.016624299740900038,-0.0017967847274770713,,-0.657451695048481,-0.10841944682123789,0.13362935094,-0.002935659208783341,-0.0006831824988272023,-0.005650494732200622,-0.0022868169258799097
3.6469069600570947,,0.13663405,-0.070493646,0.48537967,-0.46458066,-0.6749989,-0.5731851,-0.8841784,0.3893481,0.25814104,0.048923545,0.6267252,-0.7777029,,-0.49882734,-0.050297454,0.7450928,0.0090981275,-0.46633366,0.8845621,-0.937633,0.30343923,0.16961466,-0.34750786,-0.8309377,-0.43448904,,0.038146626,-0.01755929,0.1279716,-0.99309933,0.116909236,-0.009267342,0.113869585,0.98014605,0.16231959,0.028060015,0.16014422,-0.98669463,,-0.24416964528435633,-0.28189519537494306,0.10295783325,0.0037744189827214384,-0.023091568460359434,0.016624299740900038,-0.0017967847274770713,,-0.657451695048481,-0.10841944682123789,0.13362935094,-0.002935659208783341,-0.0006831824988272023,-0.005650494732200622,-0.0022868169258799097
3.6764959641732275,,0.13663489,-0.07049399,0.485379,-0.46457875,-0.67499566,-0.5731905,-0.88417935,0.38934445,0.25814307,0.048923064,0.62673104,-0.7776983,,-0.49882734,-0.050297454,0.7450928,0.0090981275,-0.46633366,0.8845621,-0.937633,0.30343923,0.16961466,-0.34750786,-0.8309377,-0.43448904,,0.038146626,-0.01755929,0.1279716,-0.99309933,0.116909236,-0.009267342,0.113869585,0.98014605,0.16231959,0.028060015,0.16014422,-0.98669463,,-0.24416192255148209,-0.28189519537494306,0.10295783325,0.0037744189827214384,-0.023091568460359434,0.016624299740900038,-0.0017967847274770713,,-0.657451695048481,-0.10841944682123789,0.13362935094,-0.002935659208783341,-0.0006831824988272023,-0.005650494732200622,-0.0022868169258799097
3.7037157360464334,,0.13663405,-0.070493646,0.48537967,-0.46458066,-0.6749989,-0.5731851,-0.8841784,0.3893481,0.25814104,0.048923545,0.6267252,-0.7777029,,-0.49882734,-0.050297454,0.7450928,0.0090981275,-0.46633366,0.8845621,-0.937633,0.30343923,0.16961466,-0.34750786,-0.8309377,-0.43448904,,0.038146626,-0.01755929,0.1279716,-0.99309933,0.116909236,-0.009267342,0.113869585,0.98014605,0.16231959,0.028060015,0.16014422,-0.98669463,,-0.24416964528435633,-0.28189519537494306,0.10295783325,0.0037744189827214384,-0.023091568460359434,0.016624299740900038,-0.0017967847274770713,,-0.657451695048481,-0.10841944682123789,0.13362935094,-0.002935659208783341,-0.0006831824988272023,-0.005650494732200622,-0.0022868169258799097
3.730219413060695,,0.13663489,-0.07049399,0.485379,-0.46457875,-0.67499566,-0.5731905,-0.88417935,0.38934445,0.25814307,0.048923064,0.62673104,-0.7776983,,-0.49882114,-0.050312676,0.7451085,0.009170592,-0.466357,0.88454896,-0.9377001,0.30324113,0.16959822,-0.3473249,-0.83099693,-0.43452206,,0.038146626,-0.01755929,0.1279716,-0.99309933,0.116909236,-0.009267342,0.113869585,0.98014605,0.16231959,0.028060015,0.16014422,-0.98669463,,-0.24416192255148209,-0.28189519537494306,0.10295783325,0.0037744189827214384,-0.023091568460359434,0.016624299740900038,-0.0017967847274770713,,-0.657451695048481,-0.10842716955411212,0.13362935094,-0.003145349152267865,-0.0006831824988272023,-0.005650494732200622,-0.0022868169258799097
3.7553235441446304,,0.13663405,-0.070493646,0.48537967,-0.46458066,-0.6749989,-0.5731851,-0.8841784,0.3893481,0.25814104,0.048923545,0.6267252,-0.7777029,,-0.4988141,-0.050333872,0.74512243,0.009257108,-0.46638212,0.88453496,-0.9377649,0.30304155,0.16959667,-0.3471476,-0.8310555,-0.43455142,,0.038146626,-0.01755929,0.1279716,-0.99309933,0.116909236,-0.009267342,0.113869585,0.98014605,0.16231959,0.028060015,0.16014422,-0.98669463,,-0.24416964528435633,-0.28189519537494306,0.10295783325,0.0037744189827214384,-0.023091568460359434,0.016624299740900038,-0.0017967847274770713,,-0.657451695048481,-0.10841944682123789,0.13362935094,-0.0033550390957523897,-0.0006831824988272023,-0.005650494732200622,-0.0022868169258799097
3.7804603870026767,,0.13663578,-0.070494324,0.48537827,-0.4645768,-0.67499226,-0.573196,-0.8841803,0.38934076,0.25814506,0.048922583,0.6267369,-0.77769357,,-0.4988141,-0.050333872,0.74512243,0.009257108,-0.46638212,0.88453496,-0.9377649,0.30304155,0.16959667,-0.3471476,-0.8310555,-0.43455142,,0.038146626,-0.01755929,0.1279716,-0.99309933,0.116909236,-0.009267342,0.113869585,0.98014605,0.16231959,0.028060015,0.16014422,-0.98669463,,-0.24415419981860786,-0.28189519537494306,0.10295783325,0.0037744189827214384,-0.023091568460359434,0.016624299740900038,-0.0017967847274770713,,-0.657451695048481,-0.10841944682123789,0.13362935094,-0.0033550390957523897,-0.0006831824988272023,-0.005650494732200622,-0.0022868169258799097
3.813202451216057,,0.13663551,-0.07049303,0.48537934,-0.46457443,-0.6749962,-0.57319343,-0.88418126,0.38934478,0.2581359,0.0489291,0.6267302,-0.7776985,,-0.49881262,-0.05033517,0.74512845,0.0092550665,-0.46639568,0.88452774,-0.93776494,0.30303958,0.16959947,-0.3471474,-0.8310487,-0.4345648,,0.038146626,-0.01755929,0.1279716,-0.99309933,0.116909236,-0.009267342,0.113869585,0.98014605,0.16231959,0.028060015,0.16014422,-0.98669463,,-0.24416192255148209,-0.28190291810781726,0.10295783325,0.0037744189827214384,-0.023091568460359434,0.016624299740900038,-0.0017967847274770713,,-0.6574362495827325,-0.10841944682123789,0.13362935094,-0.0033550390957523897,-0.0006831824988272023,-0.005650494732200622,-0.0022868169258799097
3.845673445146531,,0.13663405,-0.070493646,0.48537967,-0.46458066,-0.6749989,-0.5731851,-0.8841784,0.3893481,0.25814104,0.048923545,0.6267252,-0.7777029,,-0.4988141,-0.050333872,0.74512243,0.009257108,-0.46638212,0.88453496,-0.9377649,0.30304155,0.16959667,-0.3471476,-0.8310555,-0.43455142,,0.038146626,-0.01755929,0.1279716,-0.99309933,0.116909236,-0.009267342,0.113869585,0.98014605,0.16231959,0.028060015,0.16014422,-0.98669463,,-0.24416964528435633,-0.28189519537494306,0.10295783325,0.0037744189827214384,-0.023091568460359434,0.016624299740900038,-0.0017967847274770713,,-0.657451695048481,-0.10841944682123789,0.13362935094,-0.0033550390957523897,-0.0006831824988272023,-0.005650494732200622,-0.0022868169258799097
3.875392316142097,,0.13663489,-0.07049399,0.485379,-0.46457875,-0.67499566,-0.5731905,-0.88417935,0.38934445,0.25814307,0.048923064,0.62673104,-0.7776983,,-0.49881446,-0.050330885,0.74512327,0.009250067,-0.46638122,0.8845354,-0.9377661,0.30304223,0.1695892,-0.3471448,-0.8310558,-0.43455327,,0.038146626,-0.01755929,0.1279716,-0.99309933,0.116909236,-0.009267342,0.113869585,0.98014605,0.16231959,0.028060015,0.16014422,-0.98669463,,-0.24416192255148209,-0.28189519537494306,0.10295783325,0.0037744189827214384,-0.023091568460359434,0.016624299740900038,-0.0017967847274770713,,-0.657451695048481,-0.10842716955411212,0.13362935094,-0.0033550390957523897,-0.0006831824988272023,-0.005650494732200622,-0.0022868169258799097
3.904367746086791,,0.13663405,-0.070493646,0.48537967,-0.46458066,-0.6749989,-0.5731851,-0.8841784,0.3893481,0.25814104,0.048923545,0.6267252,-0.7777029,,-0.4988141,-0.050333872,0.74512243,0.009257108,-0.46638212,0.88453496,-0.9377649,0.30304155,0.16959667,-0.3471476,-0.8310555,-0.43455142,,0.038146626,-0.01755929,0.1279716,-0.99309933,0.116909236,-0.009267342,0.113869585,0.98014605,0.16231959,0.028060015,0.16014422,-0.98669463,,-0.24416964528435633,-0.28189519537494306,0.10295783325,0.0037744189827214384,-0.023091568460359434,0.016624299740900038,-0.0017967847274770713,,-0.657451695048481,-0.10841944682123789,0.13362935094,-0.0033550390957523897,-0.0006831824988272023,-0.005650494732200622,-0.0022868169258799097
3.925911106169224,,0.13663578,-0.070494324,0.48537827,-0.4645768,-0.67499226,-0.573196,-0.8841803,0.38934076,0.25814506,0.048922583,0.6267369,-0.77769357,,-0.4988141,-0.050333872,0.74512243,0.009257108,-0.46638212,0.88453496,-0.9377649,0.30304155,0.16959667,-0.3471476,-0.8310555,-0.43455142,,0.038146626,-0.01755929,0.1279716,-0.99309933,0.116909236,-0.009267342,0.113869585,0.98014605,0.16231959,0.028060015,0.16014422,-0.98669463,,-0.24415419981860786,-0.28189519537494306,0.10295783325,0.0037744189827214384,-0.023091568460359434,0.016624299740900038,-0.0017967847274770713,,-0.657451695048481,-0.10841944682123789,0.13362935094,-0.0033550390957523897,-0.0006831824988272023,-0.005650494732200622,-0.0022868169258799097
3.9542325621005148,,0.13663578,-0.070494324,0.48537827,-0.4645768,-0.67499226,-0.573196,-0.8841803,0.38934076,0.25814506,0.048922583,0.6267369,-0.77769357,,-0.49881446,-0.050330885,0.74512327,0.009250067,-0.46638122,0.8845354,-0.9377661,0.30304223,0.1695892,-0.3471448,-0.8310558,-0.43455327,,0.038146626,-0.01755929,0.1279716,-0.99309933,0.116909236,-0.009267342,0.113869585,0.98014605,0.16231959,0.028060015,0.16014422,-0.98669463,,-0.24415419981860786,-0.28189519537494306,0.10295783325,0.0037744189827214384,-0.023091568460359434,0.016624299740900038,-0.0017967847274770713,,-0.657451695048481,-0.10842716955411212,0.13362935094,-0.0033550390957523897,-0.0006831824988272023,-0.005650494732200622,-0.0022868169258799097
3.9790368610993028,,0.13663578,-0.070494324,0.48537827,-0.4645768,-0.67499226,-0.573196,-0.8841803,0.38934076,0.25814506,0.048922583,0.6267369,-0.77769357,,-0.4988141,-0.050333872,0.74512243,0.009257108,-0.46638212,0.88453496,-0.9377649,0.30304155,0.16959667,-0.3471476,-0.8310555,-0.43455142,,0.038146626,-0.01755929,0.1279716,-0.99309933,0.116909236,-0.009267342,0.113869585,0.98014605,0.16231959,0.028060015,0.16014422,-0.98669463,,-0.24415419981860786,-0.28189519537494306,0.10295783325,0.0037744189827214384,-0.023091568460359434,0.016624299740900038,-0.0017967847274770713,,-0.657451695048481,-0.10841944682123789,0.13362935094,-0.0033550390957523897,-0.0006831824988272023,-0.005650494732200622,-0.0022868169258799097
4.00421074219048,,0.13663578,-0.070494324,0.48537827,-0.4645768,-0.67499226,-0.573196,-0.8841803,0.38934076,0.25814506,0.048922583,0.6267369,-0.77769357,,-0.4988141,-0.050333872,0.74512243,0.009257108,-0.46638212,0.88453496,-0.9377649,0.30304155,0.16959667,-0.3471476,-0.8310555,-0.43455142,,0.038146626,-0.01755929,0.1279716,-0.99309933,0.116909236,-0.009267342,0.113869585,0.98014605,0.16231959,0.028060015,0.16014422,-0.98669463,,-0.24415419981860786,-0.28189519537494306,0.10295783325,0.0037744189827214384,-0.023091568460359434,0.016624299740900038,-0.0017967847274770713,,-0.657451695048481,-0.10841944682123789,0.13362935094,-0.0033550390957523897,-0.0006831824988272023,-0.005650494732200622,-0.0022868169258799097
4.025568256154656,,0.13663551,-0.07049303,0.48537934,-0.46457443,-0.6749962,-0.57319343,-0.88418126,0.38934478,0.2581359,0.0489291,0.6267302,-0.7776985,,-0.4988141,-0.050333872,0.74512243,0.009257108,-0.46638212,0.88453496,-0.9377649,0.30304155,0.16959667,-0.3471476,-0.8310555,-0.43455142,,0.038146626,-0.01755929,0.1279716,-0.99309933,0.116909236,-0.009267342,0.113869585,0.98014605,0.16231959,0.028060015,0.16014422,-0.98669463,,-0.24416192255148209,-0.28190291810781726,0.10295783325,0.0037744189827214384,-0.023091568460359434,0.016624299740900038,-0.0017967847274770713,,-0.657451695048481,-0.10841944682123789,0.13362935094,-0.0033550390957523897,-0.0006831824988272023,-0.005650494732200622,-0.0022868169258799097
4.0547710680402815,,0.13663489,-0.07049399,0.485379,-0.46457875,-0.67499566,-0.5731905,-0.88417935,0.38934445,0.25814307,0.048923064,0.62673104,-0.7776983,,-0.4988141,-0.050333872,0.74512243,0.009257108,-0.46638212,0.88453496,-0.9377649,0.30304155,0.16959667,-0.3471476,-0.8310555,-0.43455142,,0.038146626,-0.01755929,0.1279716,-0.99309933,0.116909236,-0.009267342,0.113869585,0.98014605,0.16231959,0.028060015,0.16014422,-0.98669463,,-0.24416192255148209,-0.28189519537494306,0.10295783325,0.0037744189827214384,-0.023091568460359434,0.016624299740900038,-0.0017967847274770713,,-0.657451695048481,-0.10841944682123789,0.13362935094,-0.0033550390957523897,-0.0006831824988272023,-0.005650494732200622,-0.0022868169258799097
4.080358839128166,,0.13663405,-0.070493646,0.48537967,-0.46458066,-0.6749989,-0.5731851,-0.8841784,0.3893481,0.25814104,0.048923545,0.6267252,-0.7777029,,-0.4988141,-0.050333872,0.74512243,0.009257108,-0.46638212,0.88453496,-0.9377649,0.30304155,0.16959667,-0.3471476,-0.8310555,-0.43455142,,0.038146626,-0.01755929,0.1279716,-0.99309933,0.116909236,-0.009267342,0.113869585,0.98014605,0.16231959,0.028060015,0.16014422,-0.98669463,,-0.24416964528435633,-0.28189519537494306,0.10295783325,0.0037744189827214384,-0.023091568460359434,0.016624299740900038,-0.0017967847274770713,,-0.657451695048481,-0.10841944682123789,0.13362935094,-0.0033550390957523897,-0.0006831824988272023,-0.005650494732200622,-0.0022868169258799097
4.108936814125627,,0.13663489,-0.07049399,0.485379,-0.46457875,-0.67499566,-0.5731905,-0.88417935,0.38934445,0.25814307,0.048923064,0.62673104,-0.7776983,,-0.49881446,-0.050330885,0.74512327,0.009250067,-0.46638122,0.8845354,-0.9377661,0.30304223,0.1695892,-0.3471448,-0.8310558,-0.43455327,,0.038146626,-0.01755929,0.1279716,-0.99309933,0.116909236,-0.009267342,0.113869585,0.98014605,0.16231959,0.028060015,0.16014422,-0.98669463,,-0.24416192255148209,-0.28189519537494306,0.10295783325,0.0037744189827214384,-0.023091568460359434,0.016624299740900038,-0.0017967847274770713,,-0.657451695048481,-0.10842716955411212,0.13362935094,-0.0033550390957523897,-0.0006831824988272023,-0.005650494732200622,-0.0022868169258799097
4.136394649045542,,0.13663405,-0.070493646,0.48537967,-0.46458066,-0.6749989,-0.5731851,-0.8841784,0.3893481,0.25814104,0.048923545,0.6267252,-0.7777029,,-0.4988141,-0.050333872,0.74512243,0.009257108,-0.46638212,0.88453496,-0.9377649,0.30304155,0.16959667,-0.3471476,-0.8310555,-0.43455142,,0.038146626,-0.01755929,0.1279716,-0.99309933,0.116909236,-0.009267342,0.113869585,0.98014605,0.16231959,0.028060015,0.16014422,-0.98669463,,-0.24416964528435633,-0.28189519537494306,0.10295783325,0.0037744189827214384,-0.023091568460359434,0.016624299740900038,-0.0017967847274770713,,-0.657451695048481,-0.10841944682123789,0.13362935094,-0.0033550390957523897,-0.0006831824988272023,-0.005650494732200622,-0.0022868169258799097
4.15891172317788,,0.13663405,-0.070493646,0.48537967,-0.46458066,-0.6749989,-0.5731851,-0.8841784,0.3893481,0.25814104,0.048923545,0.6267252,-0.7777029,,-0.4988141,-0.050333872,0.74512243,0.009257108,-0.46638212,0.88453496,-0.9377649,0.30304155,0.16959667,-0.3471476,-0.8310555,-0.43455142,,0.038146626,-0.01755929,0.1279716,-0.99309933,0.116909236,-0.009267342,0.113869585,0.98014605,0.16231959,0.028060015,0.16014422,-0.98669463,,-0.24416964528435633,-0.28189519537494306,0.10295783325,0.0037744189827214384,-0.023091568460359434,0.016624299740900038,-0.0017967847274770713,,-0.657451695048481,-0.10841944682123789,0.13362935094,-0.0033550390957523897,-0.0006831824988272023,-0.005650494732200622,-0.0022868169258799097
4.180837375111878,,0.13660042,-0.07051344,0.48539,-0.46465546,-0.6750529,-0.5730609,-0.88414544,0.3893629,0.25823155,0.048808705,0.6266579,-0.7777644,,-0.49881446,-0.050330885,0.74512327,0.009250067,-0.46638122,0.8845354,-0.9377661,0.30304223,0.1695892,-0.3471448,-0.8310558,-0.43455327,,0.038146626,-0.01755929,0.1279716,-0.99309933,0.116909236,-0.009267342,0.113869585,0.98014605,0.16231959,0.028060015,0.16014422,-0.98669463,,-0.24416192255148209,-0.28190291810781726,0.10295783325,0.0037744189827214384,-0.022954931960593998,0.01651288183720362,-0.0017967847274770713,,-0.657451695048481,-0.10842716955411212,0.13362935094,-0.0033550390957523897,-0.0006831824988272023,-0.005650494732200622,-0.0022868169258799097
4.211154915159568,,0.13656643,-0.07054064,0.48542827,-0.46476308,-0.67508584,-0.5729346,-0.8840918,0.38944122,0.2582964,0.04875208,0.6265736,-0.77783585,,-0.4988291,-0.050313227,0.74511397,0.009193063,-0.46641695,0.8845171,-0.9377589,0.30307832,0.16956347,-0.3471653,-0.83102256,-0.43460044,,0.03817796,-0.01757171,0.12796594,-0.9931029,0.116877824,-0.009271798,0.113837905,0.98014975,0.16231851,0.028059192,0.16014355,-0.98669475,,-0.24416964528435633,-0.28189519537494306,0.10295783325,0.0037744189827214384,-0.022818295460828555,0.016401463933507197,-0.0017967847274770713,,-0.657451695048481,-0.10841944682123789,0.13362935094,-0.0033550390957523897,-0.0006831824988272023,-0.005650494732200622,-0.0022868169258799097
4.238952144049108,,0.1365682,-0.0705413,0.4854269,-0.46475923,-0.6750793,-0.5729456,-0.8840938,0.38943386,0.2583004,0.04875111,0.6265852,-0.7778265,,-0.4988291,-0.050313227,0.74511397,0.009193063,-0.46641695,0.8845171,-0.9377589,0.30307832,0.16956347,-0.3471653,-0.83102256,-0.43460044,,0.03817796,-0.01757171,0.12796594,-0.9931029,0.116877824,-0.009271798,0.113837905,0.98014975,0.16231851,0.028059192,0.16014355,-0.98669475,,-0.24415419981860786,-0.28189519537494306,0.10295783325,0.0037744189827214384,-0.022818295460828555,0.016401463933507197,-0.0017967847274770713,,-0.657451695048481,-0.10841944682123789,0.13362935094,-0.0033550390957523897,-0.0006831824988272023,-0.005650494732200622,-0.0022868169258799097
4.2614884411450475,,0.13656732,-0.07054097,0.48542756,-0.4647612,-0.6750826,-0.5729401,-0.8840929,0.38943756,0.2582984,0.048751604,0.6265793,-0.7778312,,-0.49882954,-0.05031024,0.7451148,0.009186029,-0.46641606,0.8845176,-0.93776,0.303079,0.16955604,-0.34716246,-0.8310228,-0.4346023,,0.03817796,-0.01757171,0.12796594,-0.9931029,0.116877824,-0.009271798,0.113837905,0.98014975,0.16231851,0.028059192,0.16014355,-0.98669475,,-0.24416192255148209,-0.28189519537494306,0.10295783325,0.0037744189827214384,-0.022818295460828555,0.016401463933507197,-0.0017967847274770713,,-0.657451695048481,-0.10842716955411212,0.13362935094,-0.0033550390957523897,-0.0006831824988272023,-0.005650494732200622,-0.0022868169258799097
