AlexandreBanks6/ExpertPlaybackApp/resources/Motions/Motion_2.csv
Time,si_T_psm1,Tx,Ty,Tz,R00,R01,R02,R10,R11,R12,R20,R21,R22,si_T_psm3,Tx,Ty,Tz,R00,R01,R02,R10,R11,R12,R20,R21,R22,si_T_ecm,Tx,Ty,Tz,R00,R01,R02,R10,R11,R12,R20,R21,R22,joint_vars_psm1,q1,q2,q3,q4,q5,q6,jaw,joint_vars_psm3,q1,q2,q3,q4,q5,q6,jaw
lci_T_si
,,-0.07321693,0.061868988,0.580958,0.9998141,-0.0008262855,0.019263282,0.004044288,-0.9678683,-0.25142503,0.01885207,0.2514562,-0.96768504
rci_T_si
,,-0.07515654,0.051514145,0.56157786,0.997678,0.0033747356,-0.068024114,-0.00815971,-0.98565525,-0.16857389,-0.067617215,0.1687375,-0.983339
ecm_T_lc
,,0.022782804,0.054864287,-0.33796614,-0.99125,-0.12739496,-0.0345537,0.12872347,-0.990897,-0.03941251,-0.029218202,-0.043515522,0.99862534
ecm_T_rc
,,0.022707665,0.067641795,-0.42994186,-0.99723834,0.02928547,-0.06824988,-0.024871755,-0.9975983,-0.06464576,-0.069979146,-0.06276973,0.9955716
0.027467780000279163,,0.05634823,-0.051556345,0.38483182,-0.6784727,-0.07279206,-0.7310102,-0.54093754,0.72278,0.43008795,0.49705267,0.6872338,-0.5297625,,-0.14751011,0.16160497,0.16012684,0.2295336,-0.90995073,-0.34540382,-0.89280283,-0.33816212,0.29757226,-0.38757855,0.24007475,-0.8900264,,0.07422404,-0.041850347,0.23911057,-0.9922302,0.123965606,-0.010560981,0.11544815,0.9490389,0.29325205,0.04637594,0.28975427,-0.95597684,,-0.19697602468997033,-0.28945575085880887,0.08132793831000001,0.8687454358563844,0.001229728497888964,0.011820801068800478,0.00016334406613427964,,-1.5556827556495336,0.0006641550271833078,0.13107565964,0.12937869512995154,-0.020905384464112386,1.181050665008705,0.11515756662466692
0.05430397700001777,,0.05634823,-0.051556345,0.38483182,-0.6784727,-0.07279206,-0.7310102,-0.54093754,0.72278,0.43008795,0.49705267,0.6872338,-0.5297625,,-0.14751011,0.16160497,0.16012684,0.2295336,-0.90995073,-0.34540382,-0.89280283,-0.33816212,0.29757226,-0.38757855,0.24007475,-0.8900264,,0.07422404,-0.041850347,0.23911057,-0.9922302,0.123965606,-0.010560981,0.11544815,0.9490389,0.29325205,0.04637594,0.28975427,-0.95597684,,-0.19697602468997033,-0.28945575085880887,0.08132793831000001,0.8687454358563844,0.001229728497888964,0.011820801068800478,0.00016334406613427964,,-1.5556827556495336,0.0006641550271833078,0.13107565964,0.12937869512995154,-0.020905384464112386,1.181050665008705,0.11515756662466692
0.08603568200032896,,0.05634823,-0.051556345,0.38483182,-0.6784727,-0.07279206,-0.7310102,-0.54093754,0.72278,0.43008795,0.49705267,0.6872338,-0.5297625,,-0.14755574,0.16159517,0.16013974,0.22953133,-0.90992236,-0.34548,-0.8927989,-0.3381878,0.297555,-0.38758904,0.24014604,-0.8900026,,0.07422404,-0.041850347,0.23911057,-0.9922302,0.123965606,-0.010560981,0.11544815,0.9490389,0.29325205,0.04637594,0.28975427,-0.95597684,,-0.19697602468997033,-0.28945575085880887,0.08132793831000001,0.8687454358563844,0.001229728497888964,0.011820801068800478,0.00016334406613427964,,-1.5556827556495336,0.0006641550271833078,0.13107565964,0.12937869512995154,-0.020905384464112386,1.1811323437488452,0.11532091069080108
0.11838179400001536,,0.05634823,-0.051556345,0.38483182,-0.6784727,-0.07279206,-0.7310102,-0.54093754,0.72278,0.43008795,0.49705267,0.6872338,-0.5297625,,-0.1476013,0.16158538,0.16015264,0.22952907,-0.909894,-0.3455562,-0.89279497,-0.33821344,0.29753774,-0.3875995,0.24021734,-0.8899788,,0.07422404,-0.041850347,0.23911057,-0.9922302,0.123965606,-0.010560981,0.11544815,0.9490389,0.29325205,0.04637594,0.28975427,-0.95597684,,-0.19697602468997033,-0.28945575085880887,0.08132793831000001,0.8687454358563844,0.001229728497888964,0.011820801068800478,0.00016334406613427964,,-1.5556827556495336,0.0006641550271833078,0.13107565964,0.12937869512995154,-0.020905384464112386,1.181214022488986,0.11548425475693569
0.16848069100024077,,0.05634823,-0.051556345,0.38483182,-0.6784727,-0.07279206,-0.7310102,-0.54093754,0.72278,0.43008795,0.49705267,0.6872338,-0.5297625,,-0.1476013,0.16158538,0.16015264,0.22952907,-0.909894,-0.3455562,-0.89279497,-0.33821344,0.29753774,-0.3875995,0.24021734,-0.8899788,,0.07422404,-0.041850347,0.23911057,-0.9922302,0.123965606,-0.010560981,0.11544815,0.9490389,0.29325205,0.04637594,0.28975427,-0.95597684,,-0.19697602468997033,-0.28945575085880887,0.08132793831000001,0.8687454358563844,0.001229728497888964,0.011820801068800478,0.00016334406613427964,,-1.5556827556495336,0.0006641550271833078,0.13107565964,0.12937869512995154,-0.020905384464112386,1.181214022488986,0.11548425475693569
0.2365156340001704,,0.05634823,-0.051556345,0.38483182,-0.6784727,-0.07279206,-0.7310102,-0.54093754,0.72278,0.43008795,0.49705267,0.6872338,-0.5297625,,-0.1476013,0.16158538,0.16015264,0.22952907,-0.909894,-0.3455562,-0.89279497,-0.33821344,0.29753774,-0.3875995,0.24021734,-0.8899788,,0.07422404,-0.041850347,0.23911057,-0.9922302,0.123965606,-0.010560981,0.11544815,0.9490389,0.29325205,0.04637594,0.28975427,-0.95597684,,-0.19697602468997033,-0.28945575085880887,0.08132793831000001,0.8687454358563844,0.001229728497888964,0.011820801068800478,0.00016334406613427964,,-1.5556827556495336,0.0006641550271833078,0.13107565964,0.12937869512995154,-0.020905384464112386,1.181214022488986,0.11548425475693569
0.28706558300018514,,0.05634823,-0.051556345,0.38483182,-0.6784727,-0.07279206,-0.7310102,-0.54093754,0.72278,0.43008795,0.49705267,0.6872338,-0.5297625,,-0.1476013,0.16158538,0.16015264,0.22952907,-0.909894,-0.3455562,-0.89279497,-0.33821344,0.29753774,-0.3875995,0.24021734,-0.8899788,,0.07422404,-0.041850347,0.23911057,-0.9922302,0.123965606,-0.010560981,0.11544815,0.9490389,0.29325205,0.04637594,0.28975427,-0.95597684,,-0.19697602468997033,-0.28945575085880887,0.08132793831000001,0.8687454358563844,0.001229728497888964,0.011820801068800478,0.00016334406613427964,,-1.5556827556495336,0.0006641550271833078,0.13107565964,0.12937869512995154,-0.020905384464112386,1.181214022488986,0.11548425475693569
0.3374748860001091,,0.05634823,-0.051556345,0.38483182,-0.6784727,-0.07279206,-0.7310102,-0.54093754,0.72278,0.43008795,0.49705267,0.6872338,-0.5297625,,-0.1476013,0.16158538,0.16015264,0.22952907,-0.909894,-0.3455562,-0.89279497,-0.33821344,0.29753774,-0.3875995,0.24021734,-0.8899788,,0.07422404,-0.041850347,0.23911057,-0.9922302,0.123965606,-0.010560981,0.11544815,0.9490389,0.29325205,0.04637594,0.28975427,-0.95597684,,-0.19697602468997033,-0.28945575085880887,0.08132793831000001,0.8687454358563844,0.001229728497888964,0.011820801068800478,0.00016334406613427964,,-1.5556827556495336,0.0006641550271833078,0.13107565964,0.12937869512995154,-0.020905384464112386,1.181214022488986,0.11548425475693569
0.37757230100032757,,0.05634823,-0.051556345,0.38483182,-0.6784727,-0.07279206,-0.7310102,-0.54093754,0.72278,0.43008795,0.49705267,0.6872338,-0.5297625,,-0.1476013,0.16158538,0.16015264,0.22952907,-0.909894,-0.3455562,-0.89279497,-0.33821344,0.29753774,-0.3875995,0.24021734,-0.8899788,,0.07422404,-0.041850347,0.23911057,-0.9922302,0.123965606,-0.010560981,0.11544815,0.9490389,0.29325205,0.04637594,0.28975427,-0.95597684,,-0.19697602468997033,-0.28945575085880887,0.08132793831000001,0.8687454358563844,0.001229728497888964,0.011820801068800478,0.00016334406613427964,,-1.5556827556495336,0.0006641550271833078,0.13107565964,0.12937869512995154,-0.020905384464112386,1.181214022488986,0.11548425475693569
0.4143587270000353,,0.05634823,-0.051556345,0.38483182,-0.6784727,-0.07279206,-0.7310102,-0.54093754,0.72278,0.43008795,0.49705267,0.6872338,-0.5297625,,-0.1476013,0.16158538,0.16015264,0.22952907,-0.909894,-0.3455562,-0.89279497,-0.33821344,0.29753774,-0.3875995,0.24021734,-0.8899788,,0.07422404,-0.041850347,0.23911057,-0.9922302,0.123965606,-0.010560981,0.11544815,0.9490389,0.29325205,0.04637594,0.28975427,-0.95597684,,-0.19697602468997033,-0.28945575085880887,0.08132793831000001,0.8687454358563844,0.001229728497888964,0.011820801068800478,0.00016334406613427964,,-1.5556827556495336,0.0006641550271833078,0.13107565964,0.12937869512995154,-0.020905384464112386,1.181214022488986,0.11548425475693569
0.4468382710001606,,0.05634823,-0.051556345,0.38483182,-0.6784727,-0.07279206,-0.7310102,-0.54093754,0.72278,0.43008795,0.49705267,0.6872338,-0.5297625,,-0.1476013,0.16158538,0.16015264,0.22952907,-0.909894,-0.3455562,-0.89279497,-0.33821344,0.29753774,-0.3875995,0.24021734,-0.8899788,,0.07422404,-0.041850347,0.23911057,-0.9922302,0.123965606,-0.010560981,0.11544815,0.9490389,0.29325205,0.04637594,0.28975427,-0.95597684,,-0.19697602468997033,-0.28945575085880887,0.08132793831000001,0.8687454358563844,0.001229728497888964,0.011820801068800478,0.00016334406613427964,,-1.5556827556495336,0.0006641550271833078,0.13107565964,0.12937869512995154,-0.020905384464112386,1.181214022488986,0.11548425475693569
0.47371009100015726,,0.05634823,-0.051556345,0.38483182,-0.6784727,-0.07279206,-0.7310102,-0.54093754,0.72278,0.43008795,0.49705267,0.6872338,-0.5297625,,-0.1476013,0.16158538,0.16015264,0.22952907,-0.909894,-0.3455562,-0.89279497,-0.33821344,0.29753774,-0.3875995,0.24021734,-0.8899788,,0.07422404,-0.041850347,0.23911057,-0.9922302,0.123965606,-0.010560981,0.11544815,0.9490389,0.29325205,0.04637594,0.28975427,-0.95597684,,-0.19697602468997033,-0.28945575085880887,0.08132793831000001,0.8687454358563844,0.001229728497888964,0.011820801068800478,0.00016334406613427964,,-1.5556827556495336,0.0006641550271833078,0.13107565964,0.12937869512995154,-0.020905384464112386,1.181214022488986,0.11548425475693569
0.5048357360001319,,0.05634823,-0.051556345,0.38483182,-0.6784727,-0.07279206,-0.7310102,-0.54093754,0.72278,0.43008795,0.49705267,0.6872338,-0.5297625,,-0.1476013,0.16158538,0.16015264,0.22952907,-0.909894,-0.3455562,-0.89279497,-0.33821344,0.29753774,-0.3875995,0.24021734,-0.8899788,,0.07422404,-0.041850347,0.23911057,-0.9922302,0.123965606,-0.010560981,0.11544815,0.9490389,0.29325205,0.04637594,0.28975427,-0.95597684,,-0.19697602468997033,-0.28945575085880887,0.08132793831000001,0.8687454358563844,0.001229728497888964,0.011820801068800478,0.00016334406613427964,,-1.5556827556495336,0.0006641550271833078,0.13107565964,0.12937869512995154,-0.020905384464112386,1.181214022488986,0.11548425475693569
0.5329358240001056,,0.05634823,-0.051556345,0.38483182,-0.6784727,-0.07279206,-0.7310102,-0.54093754,0.72278,0.43008795,0.49705267,0.6872338,-0.5297625,,-0.1476013,0.16158538,0.16015264,0.22952907,-0.909894,-0.3455562,-0.89279497,-0.33821344,0.29753774,-0.3875995,0.24021734,-0.8899788,,0.07422404,-0.041850347,0.23911057,-0.9922302,0.123965606,-0.010560981,0.11544815,0.9490389,0.29325205,0.04637594,0.28975427,-0.95597684,,-0.19697602468997033,-0.28945575085880887,0.08132793831000001,0.8687454358563844,0.001229728497888964,0.011820801068800478,0.00016334406613427964,,-1.5556827556495336,0.0006641550271833078,0.13107565964,0.12937869512995154,-0.020905384464112386,1.181214022488986,0.11548425475693569
0.5637785210001311,,0.05634823,-0.051556345,0.38483182,-0.6784727,-0.07279206,-0.7310102,-0.54093754,0.72278,0.43008795,0.49705267,0.6872338,-0.5297625,,-0.1476013,0.16158538,0.16015264,0.22952907,-0.909894,-0.3455562,-0.89279497,-0.33821344,0.29753774,-0.3875995,0.24021734,-0.8899788,,0.07422404,-0.041850347,0.23911057,-0.9922302,0.123965606,-0.010560981,0.11544815,0.9490389,0.29325205,0.04637594,0.28975427,-0.95597684,,-0.19697602468997033,-0.28945575085880887,0.08132793831000001,0.8687454358563844,0.001229728497888964,0.011820801068800478,0.00016334406613427964,,-1.5556827556495336,0.0006641550271833078,0.13107565964,0.12937869512995154,-0.020905384464112386,1.181214022488986,0.11548425475693569
0.5896178180000788,,0.05634823,-0.051556345,0.38483182,-0.6784727,-0.07279206,-0.7310102,-0.54093754,0.72278,0.43008795,0.49705267,0.6872338,-0.5297625,,-0.1476013,0.16158538,0.16015264,0.22952907,-0.909894,-0.3455562,-0.89279497,-0.33821344,0.29753774,-0.3875995,0.24021734,-0.8899788,,0.07422404,-0.041850347,0.23911057,-0.9922302,0.123965606,-0.010560981,0.11544815,0.9490389,0.29325205,0.04637594,0.28975427,-0.95597684,,-0.19697602468997033,-0.28945575085880887,0.08132793831000001,0.8687454358563844,0.001229728497888964,0.011820801068800478,0.00016334406613427964,,-1.5556827556495336,0.0006641550271833078,0.13107565964,0.12937869512995154,-0.020905384464112386,1.181214022488986,0.11548425475693569
0.6185533170000781,,0.05634823,-0.051556345,0.38483182,-0.6784727,-0.07279206,-0.7310102,-0.54093754,0.72278,0.43008795,0.49705267,0.6872338,-0.5297625,,-0.1476013,0.16158538,0.16015264,0.22952907,-0.909894,-0.3455562,-0.89279497,-0.33821344,0.29753774,-0.3875995,0.24021734,-0.8899788,,0.07422404,-0.041850347,0.23911057,-0.9922302,0.123965606,-0.010560981,0.11544815,0.9490389,0.29325205,0.04637594,0.28975427,-0.95597684,,-0.19697602468997033,-0.28945575085880887,0.08132793831000001,0.8687454358563844,0.001229728497888964,0.011820801068800478,0.00016334406613427964,,-1.5556827556495336,0.0006641550271833078,0.13107565964,0.12937869512995154,-0.020905384464112386,1.181214022488986,0.11548425475693569
0.6560207880002054,,0.05634823,-0.051556345,0.38483182,-0.6784727,-0.07279206,-0.7310102,-0.54093754,0.72278,0.43008795,0.49705267,0.6872338,-0.5297625,,-0.14751011,0.16160497,0.16012684,0.2295336,-0.90995073,-0.34540382,-0.89280283,-0.33816212,0.29757226,-0.38757855,0.24007475,-0.8900264,,0.07422404,-0.041850347,0.23911057,-0.9922302,0.123965606,-0.010560981,0.11544815,0.9490389,0.29325205,0.04637594,0.28975427,-0.95597684,,-0.19697602468997033,-0.28945575085880887,0.08132793831000001,0.8687454358563844,0.001229728497888964,0.011820801068800478,0.00016334406613427964,,-1.5556827556495336,0.0006641550271833078,0.13107565964,0.12937869512995154,-0.020905384464112386,1.181050665008705,0.11515756662466692
0.7172414820001904,,0.05634823,-0.051556345,0.38483182,-0.6784727,-0.07279206,-0.7310102,-0.54093754,0.72278,0.43008795,0.49705267,0.6872338,-0.5297625,,-0.14751011,0.16160497,0.16012684,0.2295336,-0.90995073,-0.34540382,-0.89280283,-0.33816212,0.29757226,-0.38757855,0.24007475,-0.8900264,,0.07422404,-0.041850347,0.23911057,-0.9922302,0.123965606,-0.010560981,0.11544815,0.9490389,0.29325205,0.04637594,0.28975427,-0.95597684,,-0.19697602468997033,-0.28945575085880887,0.08132793831000001,0.8687454358563844,0.001229728497888964,0.011820801068800478,0.00016334406613427964,,-1.5556827556495336,0.0006641550271833078,0.13107565964,0.12937869512995154,-0.020905384464112386,1.181050665008705,0.11515756662466692
0.7599631080001927,,0.05634823,-0.051556345,0.38483182,-0.6784727,-0.07279206,-0.7310102,-0.54093754,0.72278,0.43008795,0.49705267,0.6872338,-0.5297625,,-0.14751011,0.16160497,0.16012684,0.2295336,-0.90995073,-0.34540382,-0.89280283,-0.33816212,0.29757226,-0.38757855,0.24007475,-0.8900264,,0.07422404,-0.041850347,0.23911057,-0.9922302,0.123965606,-0.010560981,0.11544815,0.9490389,0.29325205,0.04637594,0.28975427,-0.95597684,,-0.19697602468997033,-0.28945575085880887,0.08132793831000001,0.8687454358563844,0.001229728497888964,0.011820801068800478,0.00016334406613427964,,-1.5556827556495336,0.0006641550271833078,0.13107565964,0.12937869512995154,-0.020905384464112386,1.181050665008705,0.11515756662466692
0.8206958280002254,,0.05634823,-0.051556345,0.38483182,-0.6784727,-0.07279206,-0.7310102,-0.54093754,0.72278,0.43008795,0.49705267,0.6872338,-0.5297625,,-0.14751011,0.16160497,0.16012684,0.2295336,-0.90995073,-0.34540382,-0.89280283,-0.33816212,0.29757226,-0.38757855,0.24007475,-0.8900264,,0.07422404,-0.041850347,0.23911057,-0.9922302,0.123965606,-0.010560981,0.11544815,0.9490389,0.29325205,0.04637594,0.28975427,-0.95597684,,-0.19697602468997033,-0.28945575085880887,0.08132793831000001,0.8687454358563844,0.001229728497888964,0.011820801068800478,0.00016334406613427964,,-1.5556827556495336,0.0006641550271833078,0.13107565964,0.12937869512995154,-0.020905384464112386,1.181050665008705,0.11515756662466692
0.8757044890003272,,0.05634823,-0.051556345,0.38483182,-0.6784727,-0.07279206,-0.7310102,-0.54093754,0.72278,0.43008795,0.49705267,0.6872338,-0.5297625,,-0.14751011,0.16160497,0.16012684,0.2295336,-0.90995073,-0.34540382,-0.89280283,-0.33816212,0.29757226,-0.38757855,0.24007475,-0.8900264,,0.07422404,-0.041850347,0.23911057,-0.9922302,0.123965606,-0.010560981,0.11544815,0.9490389,0.29325205,0.04637594,0.28975427,-0.95597684,,-0.19697602468997033,-0.28945575085880887,0.08132793831000001,0.8687454358563844,0.001229728497888964,0.011820801068800478,0.00016334406613427964,,-1.5556827556495336,0.0006641550271833078,0.13107565964,0.12937869512995154,-0.020905384464112386,1.181050665008705,0.11515756662466692
0.9336573020000287,,0.05634823,-0.051556345,0.38483182,-0.6784727,-0.07279206,-0.7310102,-0.54093754,0.72278,0.43008795,0.49705267,0.6872338,-0.5297625,,-0.14751011,0.16160497,0.16012684,0.2295336,-0.90995073,-0.34540382,-0.89280283,-0.33816212,0.29757226,-0.38757855,0.24007475,-0.8900264,,0.07422404,-0.041850347,0.23911057,-0.9922302,0.123965606,-0.010560981,0.11544815,0.9490389,0.29325205,0.04637594,0.28975427,-0.95597684,,-0.19697602468997033,-0.28945575085880887,0.08132793831000001,0.8687454358563844,0.001229728497888964,0.011820801068800478,0.00016334406613427964,,-1.5556827556495336,0.0006641550271833078,0.13107565964,0.12937869512995154,-0.020905384464112386,1.181050665008705,0.11515756662466692
0.9839584360001936,,0.05634823,-0.051556345,0.38483182,-0.6784727,-0.07279206,-0.7310102,-0.54093754,0.72278,0.43008795,0.49705267,0.6872338,-0.5297625,,-0.14751011,0.16160497,0.16012684,0.2295336,-0.90995073,-0.34540382,-0.89280283,-0.33816212,0.29757226,-0.38757855,0.24007475,-0.8900264,,0.07422404,-0.041850347,0.23911057,-0.9922302,0.123965606,-0.010560981,0.11544815,0.9490389,0.29325205,0.04637594,0.28975427,-0.95597684,,-0.19697602468997033,-0.28945575085880887,0.08132793831000001,0.8687454358563844,0.001229728497888964,0.011820801068800478,0.00016334406613427964,,-1.5556827556495336,0.0006641550271833078,0.13107565964,0.12937869512995154,-0.020905384464112386,1.181050665008705,0.11515756662466692
1.0196427160003623,,0.05634823,-0.051556345,0.38483182,-0.6784727,-0.07279206,-0.7310102,-0.54093754,0.72278,0.43008795,0.49705267,0.6872338,-0.5297625,,-0.14751011,0.16160497,0.16012684,0.2295336,-0.90995073,-0.34540382,-0.89280283,-0.33816212,0.29757226,-0.38757855,0.24007475,-0.8900264,,0.07422404,-0.041850347,0.23911057,-0.9922302,0.123965606,-0.010560981,0.11544815,0.9490389,0.29325205,0.04637594,0.28975427,-0.95597684,,-0.19697602468997033,-0.28945575085880887,0.08132793831000001,0.8687454358563844,0.001229728497888964,0.011820801068800478,0.00016334406613427964,,-1.5556827556495336,0.0006641550271833078,0.13107565964,0.12937869512995154,-0.020905384464112386,1.181050665008705,0.11515756662466692
1.0561641210001653,,0.05634823,-0.051556345,0.38483182,-0.6784727,-0.07279206,-0.7310102,-0.54093754,0.72278,0.43008795,0.49705267,0.6872338,-0.5297625,,-0.14751011,0.16160497,0.16012684,0.2295336,-0.90995073,-0.34540382,-0.89280283,-0.33816212,0.29757226,-0.38757855,0.24007475,-0.8900264,,0.07422404,-0.041850347,0.23911057,-0.9922302,0.123965606,-0.010560981,0.11544815,0.9490389,0.29325205,0.04637594,0.28975427,-0.95597684,,-0.19697602468997033,-0.28945575085880887,0.08132793831000001,0.8687454358563844,0.001229728497888964,0.011820801068800478,0.00016334406613427964,,-1.5556827556495336,0.0006641550271833078,0.13107565964,0.12937869512995154,-0.020905384464112386,1.181050665008705,0.11515756662466692
1.1040913060001003,,0.05632987,-0.051547408,0.38483542,-0.67847353,-0.07276692,-0.731012,-0.54092515,0.72278166,0.43010077,0.49706495,0.6872348,-0.5297497,,-0.14741692,0.161601,0.16012323,0.22959127,-0.9099457,-0.34537902,-0.89279526,-0.33820212,0.29755014,-0.3875624,0.24003778,-0.8900434,,0.0741908,-0.041841324,0.2391187,-0.99222374,0.12401833,-0.010555805,0.11550008,0.9490326,0.2932522,0.04638645,0.2897526,-0.95597684,,-0.19697602468997033,-0.28945575085880887,0.08132793831000001,0.8687454358563844,0.001229728497888964,0.011820801068800478,0.00016334406613427964,,-1.5556827556495336,0.0006641550271833078,0.13107565964,0.12937869512995154,-0.020905384464112386,1.181050665008705,0.11515756662466692
1.133838083000228,,0.05632987,-0.051547408,0.38483542,-0.67847353,-0.07276692,-0.731012,-0.54092515,0.72278166,0.43010077,0.49706495,0.6872348,-0.5297497,,-0.14741692,0.161601,0.16012323,0.22959127,-0.9099457,-0.34537902,-0.89279526,-0.33820212,0.29755014,-0.3875624,0.24003778,-0.8900434,,0.0741908,-0.041841324,0.2391187,-0.99222374,0.12401833,-0.010555805,0.11550008,0.9490326,0.2932522,0.04638645,0.2897526,-0.95597684,,-0.19697602468997033,-0.28945575085880887,0.08132793831000001,0.8687454358563844,0.001229728497888964,0.011820801068800478,0.00016334406613427964,,-1.5556827556495336,0.0006641550271833078,0.13107565964,0.12937869512995154,-0.020905384464112386,1.181050665008705,0.11515756662466692
1.1644638230000055,,0.05632987,-0.051547408,0.38483542,-0.67847353,-0.07276692,-0.731012,-0.54092515,0.72278166,0.43010077,0.49706495,0.6872348,-0.5297497,,-0.14741692,0.161601,0.16012323,0.22959127,-0.9099457,-0.34537902,-0.89279526,-0.33820212,0.29755014,-0.3875624,0.24003778,-0.8900434,,0.0741908,-0.041841324,0.2391187,-0.99222374,0.12401833,-0.010555805,0.11550008,0.9490326,0.2932522,0.04638645,0.2897526,-0.95597684,,-0.19697602468997033,-0.28945575085880887,0.08132793831000001,0.8687454358563844,0.001229728497888964,0.011820801068800478,0.00016334406613427964,,-1.5556827556495336,0.0006641550271833078,0.13107565964,0.12937869512995154,-0.020905384464112386,1.181050665008705,0.11515756662466692
1.189846566000142,,0.05632987,-0.051547408,0.38483542,-0.67847353,-0.07276692,-0.731012,-0.54092515,0.72278166,0.43010077,0.49706495,0.6872348,-0.5297497,,-0.14746252,0.16159123,0.16013612,0.22958897,-0.90991735,-0.34545523,-0.8927912,-0.33822775,0.29753292,-0.38757285,0.24010904,-0.89001966,,0.0741908,-0.041841324,0.2391187,-0.99222374,0.12401833,-0.010555805,0.11550008,0.9490326,0.2932522,0.04638645,0.2897526,-0.95597684,,-0.19697602468997033,-0.28945575085880887,0.08132793831000001,0.8687454358563844,0.001229728497888964,0.011820801068800478,0.00016334406613427964,,-1.5556827556495336,0.0006641550271833078,0.13107565964,0.12937869512995154,-0.020905384464112386,1.1811323437488452,0.11532091069080108
1.2212707400003637,,0.05632987,-0.051547408,0.38483542,-0.67847353,-0.07276692,-0.731012,-0.54092515,0.72278166,0.43010077,0.49706495,0.6872348,-0.5297497,,-0.14750805,0.16158146,0.16014896,0.2295867,-0.909889,-0.34553137,-0.8927872,-0.33825344,0.2975156,-0.38758335,0.24018036,-0.8899958,,0.0741908,-0.041841324,0.2391187,-0.99222374,0.12401833,-0.010555805,0.11550008,0.9490326,0.2932522,0.04638645,0.2897526,-0.95597684,,-0.19697602468997033,-0.28945575085880887,0.08132793831000001,0.8687454358563844,0.001229728497888964,0.011820801068800478,0.00016334406613427964,,-1.5556827556495336,0.0006641550271833078,0.13107565964,0.12937869512995154,-0.020905384464112386,1.181214022488986,0.11548425475693569
1.2529403910002657,,0.05632987,-0.051547408,0.38483542,-0.67847353,-0.07276692,-0.731012,-0.54092515,0.72278166,0.43010077,0.49706495,0.6872348,-0.5297497,,-0.14750805,0.16158146,0.16014896,0.2295867,-0.909889,-0.34553137,-0.8927872,-0.33825344,0.2975156,-0.38758335,0.24018036,-0.8899958,,0.0741908,-0.041841324,0.2391187,-0.99222374,0.12401833,-0.010555805,0.11550008,0.9490326,0.2932522,0.04638645,0.2897526,-0.95597684,,-0.19697602468997033,-0.28945575085880887,0.08132793831000001,0.8687454358563844,0.001229728497888964,0.011820801068800478,0.00016334406613427964,,-1.5556827556495336,0.0006641550271833078,0.13107565964,0.12937869512995154,-0.020905384464112386,1.181214022488986,0.11548425475693569
1.2851246550003452,,0.05632987,-0.051547408,0.38483542,-0.67847353,-0.07276692,-0.731012,-0.54092515,0.72278166,0.43010077,0.49706495,0.6872348,-0.5297497,,-0.14750805,0.16158146,0.16014896,0.2295867,-0.909889,-0.34553137,-0.8927872,-0.33825344,0.2975156,-0.38758335,0.24018036,-0.8899958,,0.0741908,-0.041841324,0.2391187,-0.99222374,0.12401833,-0.010555805,0.11550008,0.9490326,0.2932522,0.04638645,0.2897526,-0.95597684,,-0.19697602468997033,-0.28945575085880887,0.08132793831000001,0.8687454358563844,0.001229728497888964,0.011820801068800478,0.00016334406613427964,,-1.5556827556495336,0.0006641550271833078,0.13107565964,0.12937869512995154,-0.020905384464112386,1.181214022488986,0.11548425475693569
1.3332242350002161,,0.05632987,-0.051547408,0.38483542,-0.67847353,-0.07276692,-0.731012,-0.54092515,0.72278166,0.43010077,0.49706495,0.6872348,-0.5297497,,-0.14750805,0.16158146,0.16014896,0.2295867,-0.909889,-0.34553137,-0.8927872,-0.33825344,0.2975156,-0.38758335,0.24018036,-0.8899958,,0.0741908,-0.041841324,0.2391187,-0.99222374,0.12401833,-0.010555805,0.11550008,0.9490326,0.2932522,0.04638645,0.2897526,-0.95597684,,-0.19697602468997033,-0.28945575085880887,0.08132793831000001,0.8687454358563844,0.001229728497888964,0.011820801068800478,0.00016334406613427964,,-1.5556827556495336,0.0006641550271833078,0.13107565964,0.12937869512995154,-0.020905384464112386,1.181214022488986,0.11548425475693569
1.3764229520002118,,0.05632987,-0.051547408,0.38483542,-0.67847353,-0.07276692,-0.731012,-0.54092515,0.72278166,0.43010077,0.49706495,0.6872348,-0.5297497,,-0.14750805,0.16158146,0.16014896,0.2295867,-0.909889,-0.34553137,-0.8927872,-0.33825344,0.2975156,-0.38758335,0.24018036,-0.8899958,,0.0741908,-0.041841324,0.2391187,-0.99222374,0.12401833,-0.010555805,0.11550008,0.9490326,0.2932522,0.04638645,0.2897526,-0.95597684,,-0.19697602468997033,-0.28945575085880887,0.08132793831000001,0.8687454358563844,0.001229728497888964,0.011820801068800478,0.00016334406613427964,,-1.5556827556495336,0.0006641550271833078,0.13107565964,0.12937869512995154,-0.020905384464112386,1.181214022488986,0.11548425475693569
1.427343585000017,,0.05632987,-0.051547408,0.38483542,-0.67847353,-0.07276692,-0.731012,-0.54092515,0.72278166,0.43010077,0.49706495,0.6872348,-0.5297497,,-0.14750805,0.16158146,0.16014896,0.2295867,-0.909889,-0.34553137,-0.8927872,-0.33825344,0.2975156,-0.38758335,0.24018036,-0.8899958,,0.0741908,-0.041841324,0.2391187,-0.99222374,0.12401833,-0.010555805,0.11550008,0.9490326,0.2932522,0.04638645,0.2897526,-0.95597684,,-0.19697602468997033,-0.28945575085880887,0.08132793831000001,0.8687454358563844,0.001229728497888964,0.011820801068800478,0.00016334406613427964,,-1.5556827556495336,0.0006641550271833078,0.13107565964,0.12937869512995154,-0.020905384464112386,1.181214022488986,0.11548425475693569
1.4893977370002176,,0.05632987,-0.051547408,0.38483542,-0.67847353,-0.07276692,-0.731012,-0.54092515,0.72278166,0.43010077,0.49706495,0.6872348,-0.5297497,,-0.14750805,0.16158146,0.16014896,0.2295867,-0.909889,-0.34553137,-0.8927872,-0.33825344,0.2975156,-0.38758335,0.24018036,-0.8899958,,0.0741908,-0.041841324,0.2391187,-0.99222374,0.12401833,-0.010555805,0.11550008,0.9490326,0.2932522,0.04638645,0.2897526,-0.95597684,,-0.19697602468997033,-0.28945575085880887,0.08132793831000001,0.8687454358563844,0.001229728497888964,0.011820801068800478,0.00016334406613427964,,-1.5556827556495336,0.0006641550271833078,0.13107565964,0.12937869512995154,-0.020905384464112386,1.181214022488986,0.11548425475693569
1.5376436850001483,,0.05632987,-0.051547408,0.38483542,-0.67847353,-0.07276692,-0.731012,-0.54092515,0.72278166,0.43010077,0.49706495,0.6872348,-0.5297497,,-0.14750805,0.16158146,0.16014896,0.2295867,-0.909889,-0.34553137,-0.8927872,-0.33825344,0.2975156,-0.38758335,0.24018036,-0.8899958,,0.0741908,-0.041841324,0.2391187,-0.99222374,0.12401833,-0.010555805,0.11550008,0.9490326,0.2932522,0.04638645,0.2897526,-0.95597684,,-0.19697602468997033,-0.28945575085880887,0.08132793831000001,0.8687454358563844,0.001229728497888964,0.011820801068800478,0.00016334406613427964,,-1.5556827556495336,0.0006641550271833078,0.13107565964,0.12937869512995154,-0.020905384464112386,1.181214022488986,0.11548425475693569
1.5848629730003267,,0.05632987,-0.051547408,0.38483542,-0.67847353,-0.07276692,-0.731012,-0.54092515,0.72278166,0.43010077,0.49706495,0.6872348,-0.5297497,,-0.14750805,0.16158146,0.16014896,0.2295867,-0.909889,-0.34553137,-0.8927872,-0.33825344,0.2975156,-0.38758335,0.24018036,-0.8899958,,0.0741908,-0.041841324,0.2391187,-0.99222374,0.12401833,-0.010555805,0.11550008,0.9490326,0.2932522,0.04638645,0.2897526,-0.95597684,,-0.19697602468997033,-0.28945575085880887,0.08132793831000001,0.8687454358563844,0.001229728497888964,0.011820801068800478,0.00016334406613427964,,-1.5556827556495336,0.0006641550271833078,0.13107565964,0.12937869512995154,-0.020905384464112386,1.181214022488986,0.11548425475693569
1.6527057200000854,,0.05632987,-0.051547408,0.38483542,-0.67847353,-0.07276692,-0.731012,-0.54092515,0.72278166,0.43010077,0.49706495,0.6872348,-0.5297497,,-0.14750916,0.1615845,0.16015056,0.22959115,-0.90988743,-0.34553263,-0.89278376,-0.33825928,0.2975193,-0.38758865,0.24017812,-0.88999414,,0.0741908,-0.041841324,0.2391187,-0.99222374,0.12401833,-0.010555805,0.11550008,0.9490326,0.2932522,0.04638645,0.2897526,-0.95597684,,-0.19697602468997033,-0.28945575085880887,0.08132793831000001,0.8687454358563844,0.001229728497888964,0.011820801068800478,0.00016334406613427964,,-1.5556827556495336,0.0006718777600575323,0.13107565964,0.12937869512995154,-0.020905384464112386,1.181214022488986,0.11548425475693569
1.6838508740001998,,0.05632987,-0.051547408,0.38483542,-0.67847353,-0.07276692,-0.731012,-0.54092515,0.72278166,0.43010077,0.49706495,0.6872348,-0.5297497,,-0.14750805,0.16158146,0.16014896,0.2295867,-0.909889,-0.34553137,-0.8927872,-0.33825344,0.2975156,-0.38758335,0.24018036,-0.8899958,,0.0741908,-0.041841324,0.2391187,-0.99222374,0.12401833,-0.010555805,0.11550008,0.9490326,0.2932522,0.04638645,0.2897526,-0.95597684,,-0.19697602468997033,-0.28945575085880887,0.08132793831000001,0.8687454358563844,0.001229728497888964,0.011820801068800478,0.00016334406613427964,,-1.5556827556495336,0.0006641550271833078,0.13107565964,0.12937869512995154,-0.020905384464112386,1.181214022488986,0.11548425475693569
1.7132975340000485,,0.05632987,-0.051547408,0.38483542,-0.67847353,-0.07276692,-0.731012,-0.54092515,0.72278166,0.43010077,0.49706495,0.6872348,-0.5297497,,-0.14750805,0.16158146,0.16014896,0.2295867,-0.909889,-0.34553137,-0.8927872,-0.33825344,0.2975156,-0.38758335,0.24018036,-0.8899958,,0.0741908,-0.041841324,0.2391187,-0.99222374,0.12401833,-0.010555805,0.11550008,0.9490326,0.2932522,0.04638645,0.2897526,-0.95597684,,-0.19697602468997033,-0.28945575085880887,0.08132793831000001,0.8687454358563844,0.001229728497888964,0.011820801068800478,0.00016334406613427964,,-1.5556827556495336,0.0006641550271833078,0.13107565964,0.12937869512995154,-0.020905384464112386,1.181214022488986,0.11548425475693569
1.740026928000134,,0.05632987,-0.051547408,0.38483542,-0.67847353,-0.07276692,-0.731012,-0.54092515,0.72278166,0.43010077,0.49706495,0.6872348,-0.5297497,,-0.14750916,0.1615845,0.16015056,0.22959115,-0.90988743,-0.34553263,-0.89278376,-0.33825928,0.2975193,-0.38758865,0.24017812,-0.88999414,,0.0741908,-0.041841324,0.2391187,-0.99222374,0.12401833,-0.010555805,0.11550008,0.9490326,0.2932522,0.04638645,0.2897526,-0.95597684,,-0.19697602468997033,-0.28945575085880887,0.08132793831000001,0.8687454358563844,0.001229728497888964,0.011820801068800478,0.00016334406613427964,,-1.5556827556495336,0.0006718777600575323,0.13107565964,0.12937869512995154,-0.020905384464112386,1.181214022488986,0.11548425475693569
1.7732913510003527,,0.05632987,-0.051547408,0.38483542,-0.67847353,-0.07276692,-0.731012,-0.54092515,0.72278166,0.43010077,0.49706495,0.6872348,-0.5297497,,-0.14750805,0.16158146,0.16014896,0.2295867,-0.909889,-0.34553137,-0.8927872,-0.33825344,0.2975156,-0.38758335,0.24018036,-0.8899958,,0.0741908,-0.041841324,0.2391187,-0.99222374,0.12401833,-0.010555805,0.11550008,0.9490326,0.2932522,0.04638645,0.2897526,-0.95597684,,-0.19697602468997033,-0.28945575085880887,0.08132793831000001,0.8687454358563844,0.001229728497888964,0.011820801068800478,0.00016334406613427964,,-1.5556827556495336,0.0006641550271833078,0.13107565964,0.12937869512995154,-0.020905384464112386,1.181214022488986,0.11548425475693569
1.8046871940000528,,0.05632987,-0.051547408,0.38483542,-0.67847353,-0.07276692,-0.731012,-0.54092515,0.72278166,0.43010077,0.49706495,0.6872348,-0.5297497,,-0.14750805,0.16158146,0.16014896,0.2295867,-0.909889,-0.34553137,-0.8927872,-0.33825344,0.2975156,-0.38758335,0.24018036,-0.8899958,,0.0741908,-0.041841324,0.2391187,-0.99222374,0.12401833,-0.010555805,0.11550008,0.9490326,0.2932522,0.04638645,0.2897526,-0.95597684,,-0.19697602468997033,-0.28945575085880887,0.08132793831000001,0.8687454358563844,0.001229728497888964,0.011820801068800478,0.00016334406613427964,,-1.5556827556495336,0.0006641550271833078,0.13107565964,0.12937869512995154,-0.020905384464112386,1.181214022488986,0.11548425475693569
1.8366412570003376,,0.05632987,-0.051547408,0.38483542,-0.67847353,-0.07276692,-0.731012,-0.54092515,0.72278166,0.43010077,0.49706495,0.6872348,-0.5297497,,-0.14750805,0.16158146,0.16014896,0.2295867,-0.909889,-0.34553137,-0.8927872,-0.33825344,0.2975156,-0.38758335,0.24018036,-0.8899958,,0.0741908,-0.041841324,0.2391187,-0.99222374,0.12401833,-0.010555805,0.11550008,0.9490326,0.2932522,0.04638645,0.2897526,-0.95597684,,-0.19697602468997033,-0.28945575085880887,0.08132793831000001,0.8687454358563844,0.001229728497888964,0.011820801068800478,0.00016334406613427964,,-1.5556827556495336,0.0006641550271833078,0.13107565964,0.12937869512995154,-0.020905384464112386,1.181214022488986,0.11548425475693569
1.8658709579999595,,0.05632987,-0.051547408,0.38483542,-0.67847353,-0.07276692,-0.731012,-0.54092515,0.72278166,0.43010077,0.49706495,0.6872348,-0.5297497,,-0.14746362,0.1615943,0.16013762,0.2295934,-0.9099158,-0.34545636,-0.8927878,-0.33823365,0.29753655,-0.38757816,0.24010684,-0.890018,,0.0741908,-0.041841324,0.2391187,-0.99222374,0.12401833,-0.010555805,0.11550008,0.9490326,0.2932522,0.04638645,0.2897526,-0.95597684,,-0.19697602468997033,-0.28945575085880887,0.08132793831000001,0.8687454358563844,0.001229728497888964,0.011820801068800478,0.00016334406613427964,,-1.5556827556495336,0.0006718777600575323,0.13107565964,0.12937869512995154,-0.020905384464112386,1.1811323437488452,0.11532091069080108
1.894480582000142,,0.05632987,-0.051547408,0.38483542,-0.67847353,-0.07276692,-0.731012,-0.54092515,0.72278166,0.43010077,0.49706495,0.6872348,-0.5297497,,-0.14741692,0.161601,0.16012323,0.22959127,-0.9099457,-0.34537902,-0.89279526,-0.33820212,0.29755014,-0.3875624,0.24003778,-0.8900434,,0.0741908,-0.041841324,0.2391187,-0.99222374,0.12401833,-0.010555805,0.11550008,0.9490326,0.2932522,0.04638645,0.2897526,-0.95597684,,-0.19697602468997033,-0.28945575085880887,0.08132793831000001,0.8687454358563844,0.001229728497888964,0.011820801068800478,0.00016334406613427964,,-1.5556827556495336,0.0006641550271833078,0.13107565964,0.12937869512995154,-0.020905384464112386,1.181050665008705,0.11515756662466692
1.9507073560002937,,0.05632987,-0.051547408,0.38483542,-0.67847353,-0.07276692,-0.731012,-0.54092515,0.72278166,0.43010077,0.49706495,0.6872348,-0.5297497,,-0.14741692,0.161601,0.16012323,0.22959127,-0.9099457,-0.34537902,-0.89279526,-0.33820212,0.29755014,-0.3875624,0.24003778,-0.8900434,,0.0741908,-0.041841324,0.2391187,-0.99222374,0.12401833,-0.010555805,0.11550008,0.9490326,0.2932522,0.04638645,0.2897526,-0.95597684,,-0.19697602468997033,-0.28945575085880887,0.08132793831000001,0.8687454358563844,0.001229728497888964,0.011820801068800478,0.00016334406613427964,,-1.5556827556495336,0.0006641550271833078,0.13107565964,0.12937869512995154,-0.020905384464112386,1.181050665008705,0.11515756662466692
2.011206090000087,,0.05632987,-0.051547408,0.38483542,-0.67847353,-0.07276692,-0.731012,-0.54092515,0.72278166,0.43010077,0.49706495,0.6872348,-0.5297497,,-0.14741692,0.161601,0.16012323,0.22959127,-0.9099457,-0.34537902,-0.89279526,-0.33820212,0.29755014,-0.3875624,0.24003778,-0.8900434,,0.0741908,-0.041841324,0.2391187,-0.99222374,0.12401833,-0.010555805,0.11550008,0.9490326,0.2932522,0.04638645,0.2897526,-0.95597684,,-0.19697602468997033,-0.28945575085880887,0.08132793831000001,0.8687454358563844,0.001229728497888964,0.011820801068800478,0.00016334406613427964,,-1.5556827556495336,0.0006641550271833078,0.13107565964,0.12937869512995154,-0.020905384464112386,1.181050665008705,0.11515756662466692
2.070723306000218,,0.05632987,-0.051547408,0.38483542,-0.67847353,-0.07276692,-0.731012,-0.54092515,0.72278166,0.43010077,0.49706495,0.6872348,-0.5297497,,-0.14741692,0.161601,0.16012323,0.22959127,-0.9099457,-0.34537902,-0.89279526,-0.33820212,0.29755014,-0.3875624,0.24003778,-0.8900434,,0.0741908,-0.041841324,0.2391187,-0.99222374,0.12401833,-0.010555805,0.11550008,0.9490326,0.2932522,0.04638645,0.2897526,-0.95597684,,-0.19697602468997033,-0.28945575085880887,0.08132793831000001,0.8687454358563844,0.001229728497888964,0.011820801068800478,0.00016334406613427964,,-1.5556827556495336,0.0006641550271833078,0.13107565964,0.12937869512995154,-0.020905384464112386,1.181050665008705,0.11515756662466692
2.1106986620002317,,0.05632987,-0.051547408,0.38483542,-0.67847353,-0.07276692,-0.731012,-0.54092515,0.72278166,0.43010077,0.49706495,0.6872348,-0.5297497,,-0.14741802,0.1616041,0.16012472,0.22959569,-0.9099442,-0.34538022,-0.89279175,-0.33820796,0.2975538,-0.38756767,0.24003555,-0.8900417,,0.0741908,-0.041841324,0.2391187,-0.99222374,0.12401833,-0.010555805,0.11550008,0.9490326,0.2932522,0.04638645,0.2897526,-0.95597684,,-0.19697602468997033,-0.28945575085880887,0.08132793831000001,0.8687454358563844,0.001229728497888964,0.011820801068800478,0.00016334406613427964,,-1.5556827556495336,0.0006718777600575323,0.13107565964,0.12937869512995154,-0.020905384464112386,1.181050665008705,0.11515756662466692
2.1661894470003062,,0.05632987,-0.051547408,0.38483542,-0.67847353,-0.07276692,-0.731012,-0.54092515,0.72278166,0.43010077,0.49706495,0.6872348,-0.5297497,,-0.14741692,0.161601,0.16012323,0.22959127,-0.9099457,-0.34537902,-0.89279526,-0.33820212,0.29755014,-0.3875624,0.24003778,-0.8900434,,0.0741908,-0.041841324,0.2391187,-0.99222374,0.12401833,-0.010555805,0.11550008,0.9490326,0.2932522,0.04638645,0.2897526,-0.95597684,,-0.19697602468997033,-0.28945575085880887,0.08132793831000001,0.8687454358563844,0.001229728497888964,0.011820801068800478,0.00016334406613427964,,-1.5556827556495336,0.0006641550271833078,0.13107565964,0.12937869512995154,-0.020905384464112386,1.181050665008705,0.11515756662466692
2.206393688999924,,0.05629067,-0.051523857,0.3848431,-0.6784989,-0.07271682,-0.7309934,-0.5408941,0.72277445,0.43015188,0.4970641,0.68724763,-0.52973384,,-0.14741692,0.161601,0.16012323,0.22959127,-0.9099457,-0.34537902,-0.89279526,-0.33820212,0.29755014,-0.3875624,0.24003778,-0.8900434,,0.0741908,-0.041841324,0.2391187,-0.99222374,0.12401833,-0.010555805,0.11550008,0.9490326,0.2932522,0.04638645,0.2897526,-0.95597684,,-0.19697602468997033,-0.28945575085880887,0.08132793831000001,0.8687454358563844,0.001229728497888964,0.011820801068800478,0.00016334406613427964,,-1.5556827556495336,0.0006641550271833078,0.13107565964,0.12937869512995154,-0.020905384464112386,1.181050665008705,0.11515756662466692
2.235765196000102,,0.056331854,-0.051537763,0.38483053,-0.6784759,-0.07276187,-0.7310102,-0.5409298,0.72277033,0.4301139,0.49705672,0.68724716,-0.52974147,,-0.14748907,0.16160959,0.16011192,0.22953354,-0.90996647,-0.3453624,-0.8927979,-0.3381517,0.29759932,-0.3875903,0.24002987,-0.8900335,,0.074233025,-0.041854233,0.2391063,-0.9922302,0.12396564,-0.010560977,0.115448184,0.9490389,0.29325205,0.046375953,0.28975427,-0.95597684,,-0.19697602468997033,-0.28945575085880887,0.08132793831000001,0.8687454358563844,0.001229728497888964,0.011820801068800478,0.00016334406613427964,,-1.5556827556495336,0.0006641550271833078,0.13107565964,0.12937869512995154,-0.020905384464112386,1.181050665008705,0.11515756662466692
2.263636929000313,,0.056331854,-0.051537763,0.38483053,-0.6784759,-0.07276187,-0.7310102,-0.5409298,0.72277033,0.4301139,0.49705672,0.68724716,-0.52974147,,-0.14748907,0.16160959,0.16011192,0.22953354,-0.90996647,-0.3453624,-0.8927979,-0.3381517,0.29759932,-0.3875903,0.24002987,-0.8900335,,0.074233025,-0.041854233,0.2391063,-0.9922302,0.12396564,-0.010560977,0.115448184,0.9490389,0.29325205,0.046375953,0.28975427,-0.95597684,,-0.19697602468997033,-0.28945575085880887,0.08132793831000001,0.8687454358563844,0.001229728497888964,0.011820801068800478,0.00016334406613427964,,-1.5556827556495336,0.0006641550271833078,0.13107565964,0.12937869512995154,-0.020905384464112386,1.181050665008705,0.11515756662466692
2.2971327440000096,,0.056331854,-0.051537763,0.38483053,-0.6784759,-0.07276187,-0.7310102,-0.5409298,0.72277033,0.4301139,0.49705672,0.68724716,-0.52974147,,-0.14748907,0.16160959,0.16011192,0.22953354,-0.90996647,-0.3453624,-0.8927979,-0.3381517,0.29759932,-0.3875903,0.24002987,-0.8900335,,0.074233025,-0.041854233,0.2391063,-0.9922302,0.12396564,-0.010560977,0.115448184,0.9490389,0.29325205,0.046375953,0.28975427,-0.95597684,,-0.19697602468997033,-0.28945575085880887,0.08132793831000001,0.8687454358563844,0.001229728497888964,0.011820801068800478,0.00016334406613427964,,-1.5556827556495336,0.0006641550271833078,0.13107565964,0.12937869512995154,-0.020905384464112386,1.181050665008705,0.11515756662466692
2.3234649640003227,,0.056331854,-0.051537763,0.38483053,-0.6784759,-0.07276187,-0.7310102,-0.5409298,0.72277033,0.4301139,0.49705672,0.68724716,-0.52974147,,-0.14748907,0.16160959,0.16011192,0.22953354,-0.90996647,-0.3453624,-0.8927979,-0.3381517,0.29759932,-0.3875903,0.24002987,-0.8900335,,0.074233025,-0.041854233,0.2391063,-0.9922302,0.12396564,-0.010560977,0.115448184,0.9490389,0.29325205,0.046375953,0.28975427,-0.95597684,,-0.19697602468997033,-0.28945575085880887,0.08132793831000001,0.8687454358563844,0.001229728497888964,0.011820801068800478,0.00016334406613427964,,-1.5556827556495336,0.0006641550271833078,0.13107565964,0.12937869512995154,-0.020905384464112386,1.181050665008705,0.11515756662466692
2.3558359270000437,,0.056331854,-0.051537763,0.38483053,-0.6784759,-0.07276187,-0.7310102,-0.5409298,0.72277033,0.4301139,0.49705672,0.68724716,-0.52974147,,-0.14748907,0.16160959,0.16011192,0.22953354,-0.90996647,-0.3453624,-0.8927979,-0.3381517,0.29759932,-0.3875903,0.24002987,-0.8900335,,0.074233025,-0.041854233,0.2391063,-0.9922302,0.12396564,-0.010560977,0.115448184,0.9490389,0.29325205,0.046375953,0.28975427,-0.95597684,,-0.19697602468997033,-0.28945575085880887,0.08132793831000001,0.8687454358563844,0.001229728497888964,0.011820801068800478,0.00016334406613427964,,-1.5556827556495336,0.0006641550271833078,0.13107565964,0.12937869512995154,-0.020905384464112386,1.181050665008705,0.11515756662466692
2.385663014000329,,0.056331854,-0.051537763,0.38483053,-0.6784759,-0.07276187,-0.7310102,-0.5409298,0.72277033,0.4301139,0.49705672,0.68724716,-0.52974147,,-0.14748907,0.16160959,0.16011192,0.22953354,-0.90996647,-0.3453624,-0.8927979,-0.3381517,0.29759932,-0.3875903,0.24002987,-0.8900335,,0.074233025,-0.041854233,0.2391063,-0.9922302,0.12396564,-0.010560977,0.115448184,0.9490389,0.29325205,0.046375953,0.28975427,-0.95597684,,-0.19697602468997033,-0.28945575085880887,0.08132793831000001,0.8687454358563844,0.001229728497888964,0.011820801068800478,0.00016334406613427964,,-1.5556827556495336,0.0006641550271833078,0.13107565964,0.12937869512995154,-0.020905384464112386,1.181050665008705,0.11515756662466692
2.4143441810001605,,0.056331854,-0.051537763,0.38483053,-0.6784759,-0.07276187,-0.7310102,-0.5409298,0.72277033,0.4301139,0.49705672,0.68724716,-0.52974147,,-0.14748907,0.16160959,0.16011192,0.22953354,-0.90996647,-0.3453624,-0.8927979,-0.3381517,0.29759932,-0.3875903,0.24002987,-0.8900335,,0.074233025,-0.041854233,0.2391063,-0.9922302,0.12396564,-0.010560977,0.115448184,0.9490389,0.29325205,0.046375953,0.28975427,-0.95597684,,-0.19697602468997033,-0.28945575085880887,0.08132793831000001,0.8687454358563844,0.001229728497888964,0.011820801068800478,0.00016334406613427964,,-1.5556827556495336,0.0006641550271833078,0.13107565964,0.12937869512995154,-0.020905384464112386,1.181050665008705,0.11515756662466692
2.4486552370003665,,0.056330167,-0.05153911,0.3848318,-0.67827636,-0.07259676,-0.7312118,-0.54104495,0.7226763,0.43012714,0.49720368,0.6873635,-0.5294524,,-0.14748907,0.16160959,0.16011192,0.22953354,-0.90996647,-0.3453624,-0.8927979,-0.3381517,0.29759932,-0.3875903,0.24002987,-0.8900335,,0.074233025,-0.041854233,0.2391063,-0.9922302,0.12396564,-0.010560977,0.115448184,0.9490389,0.29325205,0.046375953,0.28975427,-0.95597684,,-0.19697602468997033,-0.28945575085880887,0.08132793831000001,0.8687454358563844,0.0009564554983580831,0.012043636876193321,0.00016334406613427964,,-1.5556827556495336,0.0006641550271833078,0.13107565964,0.12937869512995154,-0.020905384464112386,1.181050665008705,0.11515756662466692
2.4902147770003467,,0.056330167,-0.05153911,0.3848318,-0.67827636,-0.07259676,-0.7312118,-0.54104495,0.7226763,0.43012714,0.49720368,0.6873635,-0.5294524,,-0.14748907,0.16160959,0.16011192,0.22953354,-0.90996647,-0.3453624,-0.8927979,-0.3381517,0.29759932,-0.3875903,0.24002987,-0.8900335,,0.074233025,-0.041854233,0.2391063,-0.9922302,0.12396564,-0.010560977,0.115448184,0.9490389,0.29325205,0.046375953,0.28975427,-0.95597684,,-0.19697602468997033,-0.28945575085880887,0.08132793831000001,0.8687454358563844,0.0009564554983580831,0.012043636876193321,0.00016334406613427964,,-1.5556827556495336,0.0006641550271833078,0.13107565964,0.12937869512995154,-0.020905384464112386,1.181050665008705,0.11515756662466692
2.551165416999993,,0.056330167,-0.05153911,0.3848318,-0.67827636,-0.07259676,-0.7312118,-0.54104495,0.7226763,0.43012714,0.49720368,0.6873635,-0.5294524,,-0.1475802,0.16159002,0.16013773,0.22952901,-0.9099098,-0.34551477,-0.89278984,-0.338203,0.29756477,-0.38761124,0.24017242,-0.8899858,,0.074233025,-0.041854233,0.2391063,-0.9922302,0.12396564,-0.010560977,0.115448184,0.9490389,0.29325205,0.046375953,0.28975427,-0.95597684,,-0.19697602468997033,-0.28945575085880887,0.08132793831000001,0.8687454358563844,0.0009564554983580831,0.012043636876193321,0.00016334406613427964,,-1.5556827556495336,0.0006641550271833078,0.13107565964,0.12937869512995154,-0.020905384464112386,1.181214022488986,0.11548425475693569
2.5956466790003105,,0.056330167,-0.05153911,0.3848318,-0.67827636,-0.07259676,-0.7312118,-0.54104495,0.7226763,0.43012714,0.49720368,0.6873635,-0.5294524,,-0.1475802,0.16159002,0.16013773,0.22952901,-0.9099098,-0.34551477,-0.89278984,-0.338203,0.29756477,-0.38761124,0.24017242,-0.8899858,,0.074233025,-0.041854233,0.2391063,-0.9922302,0.12396564,-0.010560977,0.115448184,0.9490389,0.29325205,0.046375953,0.28975427,-0.95597684,,-0.19697602468997033,-0.28945575085880887,0.08132793831000001,0.8687454358563844,0.0009564554983580831,0.012043636876193321,0.00016334406613427964,,-1.5556827556495336,0.0006641550271833078,0.13107565964,0.12937869512995154,-0.020905384464112386,1.181214022488986,0.11548425475693569
2.6437974030000078,,0.056330167,-0.05153911,0.3848318,-0.67827636,-0.07259676,-0.7312118,-0.54104495,0.7226763,0.43012714,0.49720368,0.6873635,-0.5294524,,-0.1475802,0.16159002,0.16013773,0.22952901,-0.9099098,-0.34551477,-0.89278984,-0.338203,0.29756477,-0.38761124,0.24017242,-0.8899858,,0.074233025,-0.041854233,0.2391063,-0.9922302,0.12396564,-0.010560977,0.115448184,0.9490389,0.29325205,0.046375953,0.28975427,-0.95597684,,-0.19697602468997033,-0.28945575085880887,0.08132793831000001,0.8687454358563844,0.0009564554983580831,0.012043636876193321,0.00016334406613427964,,-1.5556827556495336,0.0006641550271833078,0.13107565964,0.12937869512995154,-0.020905384464112386,1.181214022488986,0.11548425475693569
2.706935545000306,,0.056330167,-0.05153911,0.3848318,-0.67827636,-0.07259676,-0.7312118,-0.54104495,0.7226763,0.43012714,0.49720368,0.6873635,-0.5294524,,-0.1475802,0.16159002,0.16013773,0.22952901,-0.9099098,-0.34551477,-0.89278984,-0.338203,0.29756477,-0.38761124,0.24017242,-0.8899858,,0.074233025,-0.041854233,0.2391063,-0.9922302,0.12396564,-0.010560977,0.115448184,0.9490389,0.29325205,0.046375953,0.28975427,-0.95597684,,-0.19697602468997033,-0.28945575085880887,0.08132793831000001,0.8687454358563844,0.0009564554983580831,0.012043636876193321,0.00016334406613427964,,-1.5556827556495336,0.0006641550271833078,0.13107565964,0.12937869512995154,-0.020905384464112386,1.181214022488986,0.11548425475693569
2.748308568000084,,0.056330167,-0.05153911,0.3848318,-0.67827636,-0.07259676,-0.7312118,-0.54104495,0.7226763,0.43012714,0.49720368,0.6873635,-0.5294524,,-0.1475802,0.16159002,0.16013773,0.22952901,-0.9099098,-0.34551477,-0.89278984,-0.338203,0.29756477,-0.38761124,0.24017242,-0.8899858,,0.074233025,-0.041854233,0.2391063,-0.9922302,0.12396564,-0.010560977,0.115448184,0.9490389,0.29325205,0.046375953,0.28975427,-0.95597684,,-0.19697602468997033,-0.28945575085880887,0.08132793831000001,0.8687454358563844,0.0009564554983580831,0.012043636876193321,0.00016334406613427964,,-1.5556827556495336,0.0006641550271833078,0.13107565964,0.12937869512995154,-0.020905384464112386,1.181214022488986,0.11548425475693569
2.795745783000257,,0.056330167,-0.05153911,0.3848318,-0.67827636,-0.07259676,-0.7312118,-0.54104495,0.7226763,0.43012714,0.49720368,0.6873635,-0.5294524,,-0.1475802,0.16159002,0.16013773,0.22952901,-0.9099098,-0.34551477,-0.89278984,-0.338203,0.29756477,-0.38761124,0.24017242,-0.8899858,,0.074233025,-0.041854233,0.2391063,-0.9922302,0.12396564,-0.010560977,0.115448184,0.9490389,0.29325205,0.046375953,0.28975427,-0.95597684,,-0.19697602468997033,-0.28945575085880887,0.08132793831000001,0.8687454358563844,0.0009564554983580831,0.012043636876193321,0.00016334406613427964,,-1.5556827556495336,0.0006641550271833078,0.13107565964,0.12937869512995154,-0.020905384464112386,1.181214022488986,0.11548425475693569
2.8261146310001095,,0.056330167,-0.05153911,0.3848318,-0.67827636,-0.07259676,-0.7312118,-0.54104495,0.7226763,0.43012714,0.49720368,0.6873635,-0.5294524,,-0.1475802,0.16159002,0.16013773,0.22952901,-0.9099098,-0.34551477,-0.89278984,-0.338203,0.29756477,-0.38761124,0.24017242,-0.8899858,,0.074233025,-0.041854233,0.2391063,-0.9922302,0.12396564,-0.010560977,0.115448184,0.9490389,0.29325205,0.046375953,0.28975427,-0.95597684,,-0.19697602468997033,-0.28945575085880887,0.08132793831000001,0.8687454358563844,0.0009564554983580831,0.012043636876193321,0.00016334406613427964,,-1.5556827556495336,0.0006641550271833078,0.13107565964,0.12937869512995154,-0.020905384464112386,1.181214022488986,0.11548425475693569
2.857569901000261,,0.056330167,-0.05153911,0.3848318,-0.67827636,-0.07259676,-0.7312118,-0.54104495,0.7226763,0.43012714,0.49720368,0.6873635,-0.5294524,,-0.1475802,0.16159002,0.16013773,0.22952901,-0.9099098,-0.34551477,-0.89278984,-0.338203,0.29756477,-0.38761124,0.24017242,-0.8899858,,0.074233025,-0.041854233,0.2391063,-0.9922302,0.12396564,-0.010560977,0.115448184,0.9490389,0.29325205,0.046375953,0.28975427,-0.95597684,,-0.19697602468997033,-0.28945575085880887,0.08132793831000001,0.8687454358563844,0.0009564554983580831,0.012043636876193321,0.00016334406613427964,,-1.5556827556495336,0.0006641550271833078,0.13107565964,0.12937869512995154,-0.020905384464112386,1.181214022488986,0.11548425475693569
2.888539963000312,,0.056330167,-0.05153911,0.3848318,-0.67827636,-0.07259676,-0.7312118,-0.54104495,0.7226763,0.43012714,0.49720368,0.6873635,-0.5294524,,-0.1475802,0.16159002,0.16013773,0.22952901,-0.9099098,-0.34551477,-0.89278984,-0.338203,0.29756477,-0.38761124,0.24017242,-0.8899858,,0.074233025,-0.041854233,0.2391063,-0.9922302,0.12396564,-0.010560977,0.115448184,0.9490389,0.29325205,0.046375953,0.28975427,-0.95597684,,-0.19697602468997033,-0.28945575085880887,0.08132793831000001,0.8687454358563844,0.0009564554983580831,0.012043636876193321,0.00016334406613427964,,-1.5556827556495336,0.0006641550271833078,0.13107565964,0.12937869512995154,-0.020905384464112386,1.181214022488986,0.11548425475693569
2.9181577680001283,,0.056330167,-0.05153911,0.3848318,-0.67827636,-0.07259676,-0.7312118,-0.54104495,0.7226763,0.43012714,0.49720368,0.6873635,-0.5294524,,-0.1475802,0.16159002,0.16013773,0.22952901,-0.9099098,-0.34551477,-0.89278984,-0.338203,0.29756477,-0.38761124,0.24017242,-0.8899858,,0.074233025,-0.041854233,0.2391063,-0.9922302,0.12396564,-0.010560977,0.115448184,0.9490389,0.29325205,0.046375953,0.28975427,-0.95597684,,-0.19697602468997033,-0.28945575085880887,0.08132793831000001,0.8687454358563844,0.0009564554983580831,0.012043636876193321,0.00016334406613427964,,-1.5556827556495336,0.0006641550271833078,0.13107565964,0.12937869512995154,-0.020905384464112386,1.181214022488986,0.11548425475693569
2.9492476840000563,,0.056330167,-0.05153911,0.3848318,-0.67827636,-0.07259676,-0.7312118,-0.54104495,0.7226763,0.43012714,0.49720368,0.6873635,-0.5294524,,-0.1475802,0.16159002,0.16013773,0.22952901,-0.9099098,-0.34551477,-0.89278984,-0.338203,0.29756477,-0.38761124,0.24017242,-0.8899858,,0.074233025,-0.041854233,0.2391063,-0.9922302,0.12396564,-0.010560977,0.115448184,0.9490389,0.29325205,0.046375953,0.28975427,-0.95597684,,-0.19697602468997033,-0.28945575085880887,0.08132793831000001,0.8687454358563844,0.0009564554983580831,0.012043636876193321,0.00016334406613427964,,-1.5556827556495336,0.0006641550271833078,0.13107565964,0.12937869512995154,-0.020905384464112386,1.181214022488986,0.11548425475693569
2.982950104000338,,0.056330167,-0.05153911,0.3848318,-0.67827636,-0.07259676,-0.7312118,-0.54104495,0.7226763,0.43012714,0.49720368,0.6873635,-0.5294524,,-0.1475802,0.16159002,0.16013773,0.22952901,-0.9099098,-0.34551477,-0.89278984,-0.338203,0.29756477,-0.38761124,0.24017242,-0.8899858,,0.074233025,-0.041854233,0.2391063,-0.9922302,0.12396564,-0.010560977,0.115448184,0.9490389,0.29325205,0.046375953,0.28975427,-0.95597684,,-0.19697602468997033,-0.28945575085880887,0.08132793831000001,0.8687454358563844,0.0009564554983580831,0.012043636876193321,0.00016334406613427964,,-1.5556827556495336,0.0006641550271833078,0.13107565964,0.12937869512995154,-0.020905384464112386,1.181214022488986,0.11548425475693569
3.007342862000314,,0.056330167,-0.05153911,0.3848318,-0.67827636,-0.07259676,-0.7312118,-0.54104495,0.7226763,0.43012714,0.49720368,0.6873635,-0.5294524,,-0.14758131,0.1615931,0.16013926,0.22953339,-0.90990824,-0.34551603,-0.89278644,-0.33820885,0.29756847,-0.38761652,0.24017018,-0.8899841,,0.074233025,-0.041854233,0.2391063,-0.9922302,0.12396564,-0.010560977,0.115448184,0.9490389,0.29325205,0.046375953,0.28975427,-0.95597684,,-0.19697602468997033,-0.28945575085880887,0.08132793831000001,0.8687454358563844,0.0009564554983580831,0.012043636876193321,0.00016334406613427964,,-1.5556827556495336,0.0006718777600575323,0.13107565964,0.12937869512995154,-0.020905384464112386,1.181214022488986,0.11548425475693569
3.0543936349999967,,0.056329537,-0.051539045,0.38483268,-0.6782677,-0.07259267,-0.7312201,-0.5410529,0.7226698,0.4301279,0.49720675,0.6873707,-0.5294403,,-0.1475802,0.16159002,0.16013773,0.22952901,-0.9099098,-0.34551477,-0.89278984,-0.338203,0.29756477,-0.38761124,0.24017242,-0.8899858,,0.074233025,-0.041854233,0.2391063,-0.9922302,0.12396564,-0.010560977,0.115448184,0.9490389,0.29325205,0.046375953,0.28975427,-0.95597684,,-0.1969605792242219,-0.28945575085880887,0.08132793831000001,0.8687454358563844,0.0009564554983580831,0.012043636876193321,0.00016334406613427964,,-1.5556827556495336,0.0006641550271833078,0.13107565964,0.12937869512995154,-0.020905384464112386,1.181214022488986,0.11548425475693569
3.1027200000003177,,0.056330167,-0.05153911,0.3848318,-0.67827636,-0.07259676,-0.7312118,-0.54104495,0.7226763,0.43012714,0.49720368,0.6873635,-0.5294524,,-0.14748907,0.16160959,0.16011192,0.22953354,-0.90996647,-0.3453624,-0.8927979,-0.3381517,0.29759932,-0.3875903,0.24002987,-0.8900335,,0.074233025,-0.041854233,0.2391063,-0.9922302,0.12396564,-0.010560977,0.115448184,0.9490389,0.29325205,0.046375953,0.28975427,-0.95597684,,-0.19697602468997033,-0.28945575085880887,0.08132793831000001,0.8687454358563844,0.0009564554983580831,0.012043636876193321,0.00016334406613427964,,-1.5556827556495336,0.0006641550271833078,0.13107565964,0.12937869512995154,-0.020905384464112386,1.181050665008705,0.11515756662466692
3.1569352740002614,,0.056330167,-0.05153911,0.3848318,-0.67827636,-0.07259676,-0.7312118,-0.54104495,0.7226763,0.43012714,0.49720368,0.6873635,-0.5294524,,-0.14748907,0.16160959,0.16011192,0.22953354,-0.90996647,-0.3453624,-0.8927979,-0.3381517,0.29759932,-0.3875903,0.24002987,-0.8900335,,0.074233025,-0.041854233,0.2391063,-0.9922302,0.12396564,-0.010560977,0.115448184,0.9490389,0.29325205,0.046375953,0.28975427,-0.95597684,,-0.19697602468997033,-0.28945575085880887,0.08132793831000001,0.8687454358563844,0.0009564554983580831,0.012043636876193321,0.00016334406613427964,,-1.5556827556495336,0.0006641550271833078,0.13107565964,0.12937869512995154,-0.020905384464112386,1.181050665008705,0.11515756662466692
3.2251703110000562,,0.056330167,-0.05153911,0.3848318,-0.67827636,-0.07259676,-0.7312118,-0.54104495,0.7226763,0.43012714,0.49720368,0.6873635,-0.5294524,,-0.14748907,0.16160959,0.16011192,0.22953354,-0.90996647,-0.3453624,-0.8927979,-0.3381517,0.29759932,-0.3875903,0.24002987,-0.8900335,,0.074233025,-0.041854233,0.2391063,-0.9922302,0.12396564,-0.010560977,0.115448184,0.9490389,0.29325205,0.046375953,0.28975427,-0.95597684,,-0.19697602468997033,-0.28945575085880887,0.08132793831000001,0.8687454358563844,0.0009564554983580831,0.012043636876193321,0.00016334406613427964,,-1.5556827556495336,0.0006641550271833078,0.13107565964,0.12937869512995154,-0.020905384464112386,1.181050665008705,0.11515756662466692
3.274621819999993,,0.056330167,-0.05153911,0.3848318,-0.67827636,-0.07259676,-0.7312118,-0.54104495,0.7226763,0.43012714,0.49720368,0.6873635,-0.5294524,,-0.14748907,0.16160959,0.16011192,0.22953354,-0.90996647,-0.3453624,-0.8927979,-0.3381517,0.29759932,-0.3875903,0.24002987,-0.8900335,,0.074233025,-0.041854233,0.2391063,-0.9922302,0.12396564,-0.010560977,0.115448184,0.9490389,0.29325205,0.046375953,0.28975427,-0.95597684,,-0.19697602468997033,-0.28945575085880887,0.08132793831000001,0.8687454358563844,0.0009564554983580831,0.012043636876193321,0.00016334406613427964,,-1.5556827556495336,0.0006641550271833078,0.13107565964,0.12937869512995154,-0.020905384464112386,1.181050665008705,0.11515756662466692
3.3230457419999766,,0.056330167,-0.05153911,0.3848318,-0.67827636,-0.07259676,-0.7312118,-0.54104495,0.7226763,0.43012714,0.49720368,0.6873635,-0.5294524,,-0.14748907,0.16160959,0.16011192,0.22953354,-0.90996647,-0.3453624,-0.8927979,-0.3381517,0.29759932,-0.3875903,0.24002987,-0.8900335,,0.074233025,-0.041854233,0.2391063,-0.9922302,0.12396564,-0.010560977,0.115448184,0.9490389,0.29325205,0.046375953,0.28975427,-0.95597684,,-0.19697602468997033,-0.28945575085880887,0.08132793831000001,0.8687454358563844,0.0009564554983580831,0.012043636876193321,0.00016334406613427964,,-1.5556827556495336,0.0006641550271833078,0.13107565964,0.12937869512995154,-0.020905384464112386,1.181050665008705,0.11515756662466692
3.3645666410002377,,0.056334455,-0.051556416,0.38484123,-0.6782758,-0.072615,-0.7312106,-0.54105043,0.72267985,0.43011415,0.4971985,0.6873579,-0.52946466,,-0.14750238,0.16162363,0.16013111,0.2295424,-0.9099574,-0.3453805,-0.89279115,-0.3381684,0.2976005,-0.38760054,0.24004073,-0.89002603,,0.07418637,-0.04183915,0.23911923,-0.99222416,0.124015085,-0.010556123,0.11549688,0.94903296,0.2932522,0.046385806,0.28975272,-0.95597684,,-0.19697602468997033,-0.28945575085880887,0.08132793831000001,0.8687454358563844,0.0009564554983580831,0.012043636876193321,0.00016334406613427964,,-1.5556827556495336,0.0006718777600575323,0.13107565964,0.12937869512995154,-0.020905384464112386,1.181050665008705,0.11515756662466692
3.3941685419999885,,0.056334455,-0.051556416,0.38484123,-0.6782758,-0.072615,-0.7312106,-0.54105043,0.72267985,0.43011415,0.4971985,0.6873579,-0.52946466,,-0.1475013,0.16162054,0.16012958,0.22953802,-0.90995914,-0.3453793,-0.8927946,-0.3381626,0.2975968,-0.38759524,0.24004298,-0.89002764,,0.07418637,-0.04183915,0.23911923,-0.99222416,0.124015085,-0.010556123,0.11549688,0.94903296,0.2932522,0.046385806,0.28975272,-0.95597684,,-0.19697602468997033,-0.28945575085880887,0.08132793831000001,0.8687454358563844,0.0009564554983580831,0.012043636876193321,0.00016334406613427964,,-1.5556827556495336,0.0006641550271833078,0.13107565964,0.12937869512995154,-0.020905384464112386,1.181050665008705,0.11515756662466692
3.4273523680003564,,0.056334455,-0.051556416,0.38484123,-0.6782758,-0.072615,-0.7312106,-0.54105043,0.72267985,0.43011415,0.4971985,0.6873579,-0.52946466,,-0.1475013,0.16162054,0.16012958,0.22953802,-0.90995914,-0.3453793,-0.8927946,-0.3381626,0.2975968,-0.38759524,0.24004298,-0.89002764,,0.07418637,-0.04183915,0.23911923,-0.99222416,0.124015085,-0.010556123,0.11549688,0.94903296,0.2932522,0.046385806,0.28975272,-0.95597684,,-0.19697602468997033,-0.28945575085880887,0.08132793831000001,0.8687454358563844,0.0009564554983580831,0.012043636876193321,0.00016334406613427964,,-1.5556827556495336,0.0006641550271833078,0.13107565964,0.12937869512995154,-0.020905384464112386,1.181050665008705,0.11515756662466692
3.4558879460000753,,0.056334455,-0.051556416,0.38484123,-0.6782758,-0.072615,-0.7312106,-0.54105043,0.72267985,0.43011415,0.4971985,0.6873579,-0.52946466,,-0.1475013,0.16162054,0.16012958,0.22953802,-0.90995914,-0.3453793,-0.8927946,-0.3381626,0.2975968,-0.38759524,0.24004298,-0.89002764,,0.07418637,-0.04183915,0.23911923,-0.99222416,0.124015085,-0.010556123,0.11549688,0.94903296,0.2932522,0.046385806,0.28975272,-0.95597684,,-0.19697602468997033,-0.28945575085880887,0.08132793831000001,0.8687454358563844,0.0009564554983580831,0.012043636876193321,0.00016334406613427964,,-1.5556827556495336,0.0006641550271833078,0.13107565964,0.12937869512995154,-0.020905384464112386,1.181050665008705,0.11515756662466692
3.4903666919999523,,0.056334455,-0.051556416,0.38484123,-0.6782758,-0.072615,-0.7312106,-0.54105043,0.72267985,0.43011415,0.4971985,0.6873579,-0.52946466,,-0.14750238,0.16162363,0.16013111,0.2295424,-0.9099574,-0.3453805,-0.89279115,-0.3381684,0.2976005,-0.38760054,0.24004073,-0.89002603,,0.07418637,-0.04183915,0.23911923,-0.99222416,0.124015085,-0.010556123,0.11549688,0.94903296,0.2932522,0.046385806,0.28975272,-0.95597684,,-0.19697602468997033,-0.28945575085880887,0.08132793831000001,0.8687454358563844,0.0009564554983580831,0.012043636876193321,0.00016334406613427964,,-1.5556827556495336,0.0006718777600575323,0.13107565964,0.12937869512995154,-0.020905384464112386,1.181050665008705,0.11515756662466692
3.5216114820000257,,0.056334455,-0.051556416,0.38484123,-0.6782758,-0.072615,-0.7312106,-0.54105043,0.72267985,0.43011415,0.4971985,0.6873579,-0.52946466,,-0.1475013,0.16162054,0.16012958,0.22953802,-0.90995914,-0.3453793,-0.8927946,-0.3381626,0.2975968,-0.38759524,0.24004298,-0.89002764,,0.07418637,-0.04183915,0.23911923,-0.99222416,0.124015085,-0.010556123,0.11549688,0.94903296,0.2932522,0.046385806,0.28975272,-0.95597684,,-0.19697602468997033,-0.28945575085880887,0.08132793831000001,0.8687454358563844,0.0009564554983580831,0.012043636876193321,0.00016334406613427964,,-1.5556827556495336,0.0006641550271833078,0.13107565964,0.12937869512995154,-0.020905384464112386,1.181050665008705,0.11515756662466692
3.5513552669999626,,0.056334455,-0.051556416,0.38484123,-0.6782758,-0.072615,-0.7312106,-0.54105043,0.72267985,0.43011415,0.4971985,0.6873579,-0.52946466,,-0.1475013,0.16162054,0.16012958,0.22953802,-0.90995914,-0.3453793,-0.8927946,-0.3381626,0.2975968,-0.38759524,0.24004298,-0.89002764,,0.07418637,-0.04183915,0.23911923,-0.99222416,0.124015085,-0.010556123,0.11549688,0.94903296,0.2932522,0.046385806,0.28975272,-0.95597684,,-0.19697602468997033,-0.28945575085880887,0.08132793831000001,0.8687454358563844,0.0009564554983580831,0.012043636876193321,0.00016334406613427964,,-1.5556827556495336,0.0006641550271833078,0.13107565964,0.12937869512995154,-0.020905384464112386,1.181050665008705,0.11515756662466692
3.5778930850001416,,0.056334455,-0.051556416,0.38484123,-0.6782758,-0.072615,-0.7312106,-0.54105043,0.72267985,0.43011415,0.4971985,0.6873579,-0.52946466,,-0.1475013,0.16162054,0.16012958,0.22953802,-0.90995914,-0.3453793,-0.8927946,-0.3381626,0.2975968,-0.38759524,0.24004298,-0.89002764,,0.07418637,-0.04183915,0.23911923,-0.99222416,0.124015085,-0.010556123,0.11549688,0.94903296,0.2932522,0.046385806,0.28975272,-0.95597684,,-0.19697602468997033,-0.28945575085880887,0.08132793831000001,0.8687454358563844,0.0009564554983580831,0.012043636876193321,0.00016334406613427964,,-1.5556827556495336,0.0006641550271833078,0.13107565964,0.12937869512995154,-0.020905384464112386,1.181050665008705,0.11515756662466692
3.6218535719999636,,0.056334455,-0.051556416,0.38484123,-0.6782758,-0.072615,-0.7312106,-0.54105043,0.72267985,0.43011415,0.4971985,0.6873579,-0.52946466,,-0.14750238,0.16162363,0.16013111,0.2295424,-0.9099574,-0.3453805,-0.89279115,-0.3381684,0.2976005,-0.38760054,0.24004073,-0.89002603,,0.07418637,-0.04183915,0.23911923,-0.99222416,0.124015085,-0.010556123,0.11549688,0.94903296,0.2932522,0.046385806,0.28975272,-0.95597684,,-0.19697602468997033,-0.28945575085880887,0.08132793831000001,0.8687454358563844,0.0009564554983580831,0.012043636876193321,0.00016334406613427964,,-1.5556827556495336,0.0006718777600575323,0.13107565964,0.12937869512995154,-0.020905384464112386,1.181050665008705,0.11515756662466692
3.6608049510000455,,0.056334455,-0.051556416,0.38484123,-0.6782758,-0.072734445,-0.7311987,-0.54105043,0.72275007,0.42999607,0.4971985,0.68727136,-0.5295769,,-0.14759244,0.16160095,0.16015537,0.22953343,-0.9099023,-0.34553164,-0.8927867,-0.3382139,0.2975623,-0.38761622,0.24018553,-0.8899801,,0.07418637,-0.04183915,0.23911923,-0.99222416,0.124015085,-0.010556123,0.11549688,0.94903296,0.2932522,0.046385806,0.28975272,-0.95597684,,-0.19697602468997033,-0.28945575085880887,0.08132793831000001,0.8687454358563844,0.0009564554983580831,0.011880279395912196,-0.00016334406613427964,,-1.5556827556495336,0.0006641550271833078,0.13107565964,0.12937869512995154,-0.020905384464112386,1.181214022488986,0.11548425475693569
3.7076976600001217,,0.056333825,-0.051556356,0.38484216,-0.67826724,-0.07273035,-0.73120713,-0.5410584,0.72274363,0.42999685,0.49720156,0.68727857,-0.5295647,,-0.14759244,0.16160095,0.16015537,0.22953343,-0.9099023,-0.34553164,-0.8927867,-0.3382139,0.2975623,-0.38761622,0.24018553,-0.8899801,,0.07418637,-0.04183915,0.23911923,-0.99222416,0.124015085,-0.010556123,0.11549688,0.94903296,0.2932522,0.046385806,0.28975272,-0.95597684,,-0.1969605792242219,-0.28945575085880887,0.08132793831000001,0.8687454358563844,0.0009564554983580831,0.011880279395912196,-0.00016334406613427964,,-1.5556827556495336,0.0006641550271833078,0.13107565964,0.12937869512995154,-0.020905384464112386,1.181214022488986,0.11548425475693569
3.776575473000321,,0.056334455,-0.051556416,0.38484123,-0.6782758,-0.072734445,-0.7311987,-0.54105043,0.72275007,0.42999607,0.4971985,0.68727136,-0.5295769,,-0.14759244,0.16160095,0.16015537,0.22953343,-0.9099023,-0.34553164,-0.8927867,-0.3382139,0.2975623,-0.38761622,0.24018553,-0.8899801,,0.07418637,-0.04183915,0.23911923,-0.99222416,0.124015085,-0.010556123,0.11549688,0.94903296,0.2932522,0.046385806,0.28975272,-0.95597684,,-0.19697602468997033,-0.28945575085880887,0.08132793831000001,0.8687454358563844,0.0009564554983580831,0.011880279395912196,-0.00016334406613427964,,-1.5556827556495336,0.0006641550271833078,0.13107565964,0.12937869512995154,-0.020905384464112386,1.181214022488986,0.11548425475693569
3.836540113999945,,0.056334455,-0.051556416,0.38484123,-0.6782758,-0.072734445,-0.7311987,-0.54105043,0.72275007,0.42999607,0.4971985,0.68727136,-0.5295769,,-0.14759244,0.16160095,0.16015537,0.22953343,-0.9099023,-0.34553164,-0.8927867,-0.3382139,0.2975623,-0.38761622,0.24018553,-0.8899801,,0.07418637,-0.04183915,0.23911923,-0.99222416,0.124015085,-0.010556123,0.11549688,0.94903296,0.2932522,0.046385806,0.28975272,-0.95597684,,-0.19697602468997033,-0.28945575085880887,0.08132793831000001,0.8687454358563844,0.0009564554983580831,0.011880279395912196,-0.00016334406613427964,,-1.5556827556495336,0.0006641550271833078,0.13107565964,0.12937869512995154,-0.020905384464112386,1.181214022488986,0.11548425475693569
3.884150747000149,,0.056334455,-0.051556416,0.38484123,-0.6782758,-0.072734445,-0.7311987,-0.54105043,0.72275007,0.42999607,0.4971985,0.68727136,-0.5295769,,-0.14759244,0.16160095,0.16015537,0.22953343,-0.9099023,-0.34553164,-0.8927867,-0.3382139,0.2975623,-0.38761622,0.24018553,-0.8899801,,0.07418637,-0.04183915,0.23911923,-0.99222416,0.124015085,-0.010556123,0.11549688,0.94903296,0.2932522,0.046385806,0.28975272,-0.95597684,,-0.19697602468997033,-0.28945575085880887,0.08132793831000001,0.8687454358563844,0.0009564554983580831,0.011880279395912196,-0.00016334406613427964,,-1.5556827556495336,0.0006641550271833078,0.13107565964,0.12937869512995154,-0.020905384464112386,1.181214022488986,0.11548425475693569
3.926867090000087,,0.056334455,-0.051556416,0.38484123,-0.6782758,-0.072734445,-0.7311987,-0.54105043,0.72275007,0.42999607,0.4971985,0.68727136,-0.5295769,,-0.14759244,0.16160095,0.16015537,0.22953343,-0.9099023,-0.34553164,-0.8927867,-0.3382139,0.2975623,-0.38761622,0.24018553,-0.8899801,,0.07418637,-0.04183915,0.23911923,-0.99222416,0.124015085,-0.010556123,0.11549688,0.94903296,0.2932522,0.046385806,0.28975272,-0.95597684,,-0.19697602468997033,-0.28945575085880887,0.08132793831000001,0.8687454358563844,0.0009564554983580831,0.011880279395912196,-0.00016334406613427964,,-1.5556827556495336,0.0006641550271833078,0.13107565964,0.12937869512995154,-0.020905384464112386,1.181214022488986,0.11548425475693569
3.961944055999993,,0.056334455,-0.051556416,0.38484123,-0.6782758,-0.072734445,-0.7311987,-0.54105043,0.72275007,0.42999607,0.4971985,0.68727136,-0.5295769,,-0.14759244,0.16160095,0.16015537,0.22953343,-0.9099023,-0.34553164,-0.8927867,-0.3382139,0.2975623,-0.38761622,0.24018553,-0.8899801,,0.07418637,-0.04183915,0.23911923,-0.99222416,0.124015085,-0.010556123,0.11549688,0.94903296,0.2932522,0.046385806,0.28975272,-0.95597684,,-0.19697602468997033,-0.28945575085880887,0.08132793831000001,0.8687454358563844,0.0009564554983580831,0.011880279395912196,-0.00016334406613427964,,-1.5556827556495336,0.0006641550271833078,0.13107565964,0.12937869512995154,-0.020905384464112386,1.181214022488986,0.11548425475693569
3.9901415869999255,,0.056334455,-0.051556416,0.38484123,-0.6782758,-0.072734445,-0.7311987,-0.54105043,0.72275007,0.42999607,0.4971985,0.68727136,-0.5295769,,-0.14759244,0.16160095,0.16015537,0.22953343,-0.9099023,-0.34553164,-0.8927867,-0.3382139,0.2975623,-0.38761622,0.24018553,-0.8899801,,0.07418637,-0.04183915,0.23911923,-0.99222416,0.124015085,-0.010556123,0.11549688,0.94903296,0.2932522,0.046385806,0.28975272,-0.95597684,,-0.19697602468997033,-0.28945575085880887,0.08132793831000001,0.8687454358563844,0.0009564554983580831,0.011880279395912196,-0.00016334406613427964,,-1.5556827556495336,0.0006641550271833078,0.13107565964,0.12937869512995154,-0.020905384464112386,1.181214022488986,0.11548425475693569
4.021583720000308,,0.056334455,-0.051556416,0.38484123,-0.6782758,-0.072734445,-0.7311987,-0.54105043,0.72275007,0.42999607,0.4971985,0.68727136,-0.5295769,,-0.14759244,0.16160095,0.16015537,0.22953343,-0.9099023,-0.34553164,-0.8927867,-0.3382139,0.2975623,-0.38761622,0.24018553,-0.8899801,,0.07418637,-0.04183915,0.23911923,-0.99222416,0.124015085,-0.010556123,0.11549688,0.94903296,0.2932522,0.046385806,0.28975272,-0.95597684,,-0.19697602468997033,-0.28945575085880887,0.08132793831000001,0.8687454358563844,0.0009564554983580831,0.011880279395912196,-0.00016334406613427964,,-1.5556827556495336,0.0006641550271833078,0.13107565964,0.12937869512995154,-0.020905384464112386,1.181214022488986,0.11548425475693569
4.049201160999928,,0.056334455,-0.051556416,0.38484123,-0.6782758,-0.07279416,-0.73119277,-0.54105043,0.72278523,0.42993706,0.4971985,0.68722814,-0.5296331,,-0.14759244,0.16160095,0.16015537,0.22953343,-0.9099023,-0.34553164,-0.8927867,-0.3382139,0.2975623,-0.38761622,0.24018553,-0.8899801,,0.07418637,-0.04183915,0.23911923,-0.99222416,0.124015085,-0.010556123,0.11549688,0.94903296,0.2932522,0.046385806,0.28975272,-0.95597684,,-0.19697602468997033,-0.28945575085880887,0.08132793831000001,0.8687454358563844,0.0009564554983580831,0.011798600655771634,0.0,,-1.5556827556495336,0.0006641550271833078,0.13107565964,0.12937869512995154,-0.020905384464112386,1.181214022488986,0.11548425475693569
4.0909096760001376,,0.056334455,-0.051556416,0.38484123,-0.6782758,-0.0728539,-0.7311868,-0.54105043,0.72282034,0.42987803,0.4971985,0.6871848,-0.52968925,,-0.14759244,0.16160095,0.16015537,0.22953343,-0.9099023,-0.34553164,-0.8927867,-0.3382139,0.2975623,-0.38761622,0.24018553,-0.8899801,,0.07418637,-0.04183915,0.23911923,-0.99222416,0.124015085,-0.010556123,0.11549688,0.94903296,0.2932522,0.046385806,0.28975272,-0.95597684,,-0.19697602468997033,-0.28945575085880887,0.08132793831000001,0.8687454358563844,0.0009564554983580831,0.011716921915631071,0.00016334406613427964,,-1.5556827556495336,0.0006641550271833078,0.13107565964,0.12937869512995154,-0.020905384464112386,1.181214022488986,0.11548425475693569
4.138676363000286,,0.056334455,-0.051556416,0.38484123,-0.6782758,-0.0728539,-0.7311868,-0.54105043,0.72282034,0.42987803,0.4971985,0.6871848,-0.52968925,,-0.14759244,0.16160095,0.16015537,0.22953343,-0.9099023,-0.34553164,-0.8927867,-0.3382139,0.2975623,-0.38761622,0.24018553,-0.8899801,,0.07418637,-0.04183915,0.23911923,-0.99222416,0.124015085,-0.010556123,0.11549688,0.94903296,0.2932522,0.046385806,0.28975272,-0.95597684,,-0.19697602468997033,-0.28945575085880887,0.08132793831000001,0.8687454358563844,0.0009564554983580831,0.011716921915631071,0.00016334406613427964,,-1.5556827556495336,0.0006641550271833078,0.13107565964,0.12937869512995154,-0.020905384464112386,1.181214022488986,0.11548425475693569
4.188018091000231,,0.056334455,-0.051556416,0.38484123,-0.6782758,-0.0728539,-0.7311868,-0.54105043,0.72282034,0.42987803,0.4971985,0.6871848,-0.52968925,,-0.14759244,0.16160095,0.16015537,0.22953343,-0.9099023,-0.34553164,-0.8927867,-0.3382139,0.2975623,-0.38761622,0.24018553,-0.8899801,,0.07418637,-0.04183915,0.23911923,-0.99222416,0.124015085,-0.010556123,0.11549688,0.94903296,0.2932522,0.046385806,0.28975272,-0.95597684,,-0.19697602468997033,-0.28945575085880887,0.08132793831000001,0.8687454358563844,0.0009564554983580831,0.011716921915631071,0.00016334406613427964,,-1.5556827556495336,0.0006641550271833078,0.13107565964,0.12937869512995154,-0.020905384464112386,1.181214022488986,0.11548425475693569
4.248360592000154,,0.056334455,-0.051556416,0.38484123,-0.6782758,-0.0728539,-0.7311868,-0.54105043,0.72282034,0.42987803,0.4971985,0.6871848,-0.52968925,,-0.1475013,0.16162054,0.16012958,0.22953802,-0.90995914,-0.3453793,-0.8927946,-0.3381626,0.2975968,-0.38759524,0.24004298,-0.89002764,,0.07418637,-0.04183915,0.23911923,-0.99222416,0.124015085,-0.010556123,0.11549688,0.94903296,0.2932522,0.046385806,0.28975272,-0.95597684,,-0.19697602468997033,-0.28945575085880887,0.08132793831000001,0.8687454358563844,0.0009564554983580831,0.011716921915631071,0.00016334406613427964,,-1.5556827556495336,0.0006641550271833078,0.13107565964,0.12937869512995154,-0.020905384464112386,1.181050665008705,0.11515756662466692
4.308394943000167,,0.056334455,-0.051556416,0.38484123,-0.6782758,-0.0728539,-0.7311868,-0.54105043,0.72282034,0.42987803,0.4971985,0.6871848,-0.52968925,,-0.1475013,0.16162054,0.16012958,0.22953802,-0.90995914,-0.3453793,-0.8927946,-0.3381626,0.2975968,-0.38759524,0.24004298,-0.89002764,,0.07418637,-0.04183915,0.23911923,-0.99222416,0.124015085,-0.010556123,0.11549688,0.94903296,0.2932522,0.046385806,0.28975272,-0.95597684,,-0.19697602468997033,-0.28945575085880887,0.08132793831000001,0.8687454358563844,0.0009564554983580831,0.011716921915631071,0.00016334406613427964,,-1.5556827556495336,0.0006641550271833078,0.13107565964,0.12937869512995154,-0.020905384464112386,1.181050665008705,0.11515756662466692
4.351756371000192,,0.056334455,-0.051556416,0.38484123,-0.6782758,-0.0728539,-0.7311868,-0.54105043,0.72282034,0.42987803,0.4971985,0.6871848,-0.52968925,,-0.1475013,0.16162054,0.16012958,0.22953802,-0.90995914,-0.3453793,-0.8927946,-0.3381626,0.2975968,-0.38759524,0.24004298,-0.89002764,,0.07418637,-0.04183915,0.23911923,-0.99222416,0.124015085,-0.010556123,0.11549688,0.94903296,0.2932522,0.046385806,0.28975272,-0.95597684,,-0.19697602468997033,-0.28945575085880887,0.08132793831000001,0.8687454358563844,0.0009564554983580831,0.011716921915631071,0.00016334406613427964,,-1.5556827556495336,0.0006641550271833078,0.13107565964,0.12937869512995154,-0.020905384464112386,1.181050665008705,0.11515756662466692
4.3957869670002765,,0.056334455,-0.051556416,0.38484123,-0.6782758,-0.0728539,-0.7311868,-0.54105043,0.72282034,0.42987803,0.4971985,0.6871848,-0.52968925,,-0.1475013,0.16162054,0.16012958,0.22953802,-0.90995914,-0.3453793,-0.8927946,-0.3381626,0.2975968,-0.38759524,0.24004298,-0.89002764,,0.07418637,-0.04183915,0.23911923,-0.99222416,0.124015085,-0.010556123,0.11549688,0.94903296,0.2932522,0.046385806,0.28975272,-0.95597684,,-0.19697602468997033,-0.28945575085880887,0.08132793831000001,0.8687454358563844,0.0009564554983580831,0.011716921915631071,0.00016334406613427964,,-1.5556827556495336,0.0006641550271833078,0.13107565964,0.12937869512995154,-0.020905384464112386,1.181050665008705,0.11515756662466692
4.4353309560001435,,0.056334455,-0.051556416,0.38484123,-0.6782758,-0.0728539,-0.7311868,-0.54105043,0.72282034,0.42987803,0.4971985,0.6871848,-0.52968925,,-0.1475013,0.16162054,0.16012958,0.22953802,-0.90995914,-0.3453793,-0.8927946,-0.3381626,0.2975968,-0.38759524,0.24004298,-0.89002764,,0.07418637,-0.04183915,0.23911923,-0.99222416,0.124015085,-0.010556123,0.11549688,0.94903296,0.2932522,0.046385806,0.28975272,-0.95597684,,-0.19697602468997033,-0.28945575085880887,0.08132793831000001,0.8687454358563844,0.0009564554983580831,0.011716921915631071,0.00016334406613427964,,-1.5556827556495336,0.0006641550271833078,0.13107565964,0.12937869512995154,-0.020905384464112386,1.181050665008705,0.11515756662466692
4.466768906000198,,0.056334455,-0.051556416,0.38484123,-0.6782758,-0.0728539,-0.7311868,-0.54105043,0.72282034,0.42987803,0.4971985,0.6871848,-0.52968925,,-0.1475013,0.16162054,0.16012958,0.22953802,-0.90995914,-0.3453793,-0.8927946,-0.3381626,0.2975968,-0.38759524,0.24004298,-0.89002764,,0.07418637,-0.04183915,0.23911923,-0.99222416,0.124015085,-0.010556123,0.11549688,0.94903296,0.2932522,0.046385806,0.28975272,-0.95597684,,-0.19697602468997033,-0.28945575085880887,0.08132793831000001,0.8687454358563844,0.0009564554983580831,0.011716921915631071,0.00016334406613427964,,-1.5556827556495336,0.0006641550271833078,0.13107565964,0.12937869512995154,-0.020905384464112386,1.181050665008705,0.11515756662466692
4.499433652000334,,0.056334455,-0.051556416,0.38484123,-0.6782758,-0.0728539,-0.7311868,-0.54105043,0.72282034,0.42987803,0.4971985,0.6871848,-0.52968925,,-0.1475013,0.16162054,0.16012958,0.22953802,-0.90995914,-0.3453793,-0.8927946,-0.3381626,0.2975968,-0.38759524,0.24004298,-0.89002764,,0.07418637,-0.04183915,0.23911923,-0.99222416,0.124015085,-0.010556123,0.11549688,0.94903296,0.2932522,0.046385806,0.28975272,-0.95597684,,-0.19697602468997033,-0.28945575085880887,0.08132793831000001,0.8687454358563844,0.0009564554983580831,0.011716921915631071,0.00016334406613427964,,-1.5556827556495336,0.0006641550271833078,0.13107565964,0.12937869512995154,-0.020905384464112386,1.181050665008705,0.11515756662466692
4.524919794000198,,0.05634656,-0.051554766,0.3848145,-0.6782799,-0.07287865,-0.73118055,-0.5410651,0.7228113,0.42987472,0.49717698,0.6871917,-0.5297006,,-0.14760116,0.16168058,0.1601239,0.22946195,-0.90997744,-0.34538153,-0.89279634,-0.33810502,0.29765666,-0.38763598,0.24005452,-0.8900069,,0.07421095,-0.04184387,0.2391139,-0.99222904,0.123975515,-0.01056001,0.11545791,0.9490377,0.29325208,0.04637792,0.28975397,-0.95597684,,-0.19697602468997033,-0.28945575085880887,0.08132793831000001,0.8687454358563844,0.0009564554983580831,0.011716921915631071,0.00016334406613427964,,-1.5556827556495336,0.0006641550271833078,0.13107565964,0.12937869512995154,-0.020905384464112386,1.181050665008705,0.11515756662466692
4.586865917000068,,0.05634656,-0.051554766,0.3848145,-0.6782799,-0.07287865,-0.73118055,-0.5410651,0.7228113,0.42987472,0.49717698,0.6871917,-0.5297006,,-0.14760116,0.16168058,0.1601239,0.22946195,-0.90997744,-0.34538153,-0.89279634,-0.33810502,0.29765666,-0.38763598,0.24005452,-0.8900069,,0.07421095,-0.04184387,0.2391139,-0.99222904,0.123975515,-0.01056001,0.11545791,0.9490377,0.29325208,0.04637792,0.28975397,-0.95597684,,-0.19697602468997033,-0.28945575085880887,0.08132793831000001,0.8687454358563844,0.0009564554983580831,0.011716921915631071,0.00016334406613427964,,-1.5556827556495336,0.0006641550271833078,0.13107565964,0.12937869512995154,-0.020905384464112386,1.181050665008705,0.11515756662466692
4.640801643000032,,0.05634656,-0.051554766,0.3848145,-0.6782799,-0.07287865,-0.73118055,-0.5410651,0.7228113,0.42987472,0.49717698,0.6871917,-0.5297006,,-0.14760116,0.16168058,0.1601239,0.22946195,-0.90997744,-0.34538153,-0.89279634,-0.33810502,0.29765666,-0.38763598,0.24005452,-0.8900069,,0.07421095,-0.04184387,0.2391139,-0.99222904,0.123975515,-0.01056001,0.11545791,0.9490377,0.29325208,0.04637792,0.28975397,-0.95597684,,-0.19697602468997033,-0.28945575085880887,0.08132793831000001,0.8687454358563844,0.0009564554983580831,0.011716921915631071,0.00016334406613427964,,-1.5556827556495336,0.0006641550271833078,0.13107565964,0.12937869512995154,-0.020905384464112386,1.181050665008705,0.11515756662466692
4.718883582000217,,0.05634656,-0.051554766,0.3848145,-0.6782799,-0.07287865,-0.73118055,-0.5410651,0.7228113,0.42987472,0.49717698,0.6871917,-0.5297006,,-0.14760116,0.16168058,0.1601239,0.22946195,-0.90997744,-0.34538153,-0.89279634,-0.33810502,0.29765666,-0.38763598,0.24005452,-0.8900069,,0.07421095,-0.04184387,0.2391139,-0.99222904,0.123975515,-0.01056001,0.11545791,0.9490377,0.29325208,0.04637792,0.28975397,-0.95597684,,-0.19697602468997033,-0.28945575085880887,0.08132793831000001,0.8687454358563844,0.0009564554983580831,0.011716921915631071,0.00016334406613427964,,-1.5556827556495336,0.0006641550271833078,0.13107565964,0.12937869512995154,-0.020905384464112386,1.181050665008705,0.11515756662466692
4.761304948000088,,0.05634656,-0.051554766,0.3848145,-0.6782799,-0.07287865,-0.73118055,-0.5410651,0.7228113,0.42987472,0.49717698,0.6871917,-0.5297006,,-0.14760116,0.16168058,0.1601239,0.22946195,-0.90997744,-0.34538153,-0.89279634,-0.33810502,0.29765666,-0.38763598,0.24005452,-0.8900069,,0.07421095,-0.04184387,0.2391139,-0.99222904,0.123975515,-0.01056001,0.11545791,0.9490377,0.29325208,0.04637792,0.28975397,-0.95597684,,-0.19697602468997033,-0.28945575085880887,0.08132793831000001,0.8687454358563844,0.0009564554983580831,0.011716921915631071,0.00016334406613427964,,-1.5556827556495336,0.0006641550271833078,0.13107565964,0.12937869512995154,-0.020905384464112386,1.181050665008705,0.11515756662466692
4.815360721000161,,0.05634656,-0.051554766,0.3848145,-0.6782799,-0.07287865,-0.73118055,-0.5410651,0.7228113,0.42987472,0.49717698,0.6871917,-0.5297006,,-0.14769232,0.161661,0.1601497,0.22945742,-0.9099207,-0.3455339,-0.89278847,-0.33815634,0.29762214,-0.387657,0.24019712,-0.8899592,,0.07421095,-0.04184387,0.2391139,-0.99222904,0.123975515,-0.01056001,0.11545791,0.9490377,0.29325208,0.04637792,0.28975397,-0.95597684,,-0.19697602468997033,-0.28945575085880887,0.08132793831000001,0.8687454358563844,0.0009564554983580831,0.011716921915631071,0.00016334406613427964,,-1.5556827556495336,0.0006641550271833078,0.13107565964,0.12937869512995154,-0.020905384464112386,1.181214022488986,0.11548425475693569
4.850934386000063,,0.05634656,-0.051554766,0.3848145,-0.6782799,-0.07287865,-0.73118055,-0.5410651,0.7228113,0.42987472,0.49717698,0.6871917,-0.5297006,,-0.14769232,0.161661,0.1601497,0.22945742,-0.9099207,-0.3455339,-0.89278847,-0.33815634,0.29762214,-0.387657,0.24019712,-0.8899592,,0.07421095,-0.04184387,0.2391139,-0.99222904,0.123975515,-0.01056001,0.11545791,0.9490377,0.29325208,0.04637792,0.28975397,-0.95597684,,-0.19697602468997033,-0.28945575085880887,0.08132793831000001,0.8687454358563844,0.0009564554983580831,0.011716921915631071,0.00016334406613427964,,-1.5556827556495336,0.0006641550271833078,0.13107565964,0.12937869512995154,-0.020905384464112386,1.181214022488986,0.11548425475693569
4.879884902999947,,0.05634656,-0.051554766,0.3848145,-0.6782799,-0.07287865,-0.73118055,-0.5410651,0.7228113,0.42987472,0.49717698,0.6871917,-0.5297006,,-0.14769232,0.161661,0.1601497,0.22945742,-0.9099207,-0.3455339,-0.89278847,-0.33815634,0.29762214,-0.387657,0.24019712,-0.8899592,,0.07421095,-0.04184387,0.2391139,-0.99222904,0.123975515,-0.01056001,0.11545791,0.9490377,0.29325208,0.04637792,0.28975397,-0.95597684,,-0.19697602468997033,-0.28945575085880887,0.08132793831000001,0.8687454358563844,0.0009564554983580831,0.011716921915631071,0.00016334406613427964,,-1.5556827556495336,0.0006641550271833078,0.13107565964,0.12937869512995154,-0.020905384464112386,1.181214022488986,0.11548425475693569
4.909066651000103,,0.05634656,-0.051554766,0.3848145,-0.6782799,-0.07287865,-0.73118055,-0.5410651,0.7228113,0.42987472,0.49717698,0.6871917,-0.5297006,,-0.14769232,0.161661,0.1601497,0.22945742,-0.9099207,-0.3455339,-0.89278847,-0.33815634,0.29762214,-0.387657,0.24019712,-0.8899592,,0.07421095,-0.04184387,0.2391139,-0.99222904,0.123975515,-0.01056001,0.11545791,0.9490377,0.29325208,0.04637792,0.28975397,-0.95597684,,-0.19697602468997033,-0.28945575085880887,0.08132793831000001,0.8687454358563844,0.0009564554983580831,0.011716921915631071,0.00016334406613427964,,-1.5556827556495336,0.0006641550271833078,0.13107565964,0.12937869512995154,-0.020905384464112386,1.181214022488986,0.11548425475693569
4.942533191000166,,0.05634656,-0.051554766,0.3848145,-0.6782799,-0.07287865,-0.73118055,-0.5410651,0.7228113,0.42987472,0.49717698,0.6871917,-0.5297006,,-0.14770225,0.16165847,0.16015063,0.22945607,-0.90991557,-0.3455481,-0.8927886,-0.33815992,0.2976176,-0.3876574,0.2402113,-0.88995516,,0.07421095,-0.04184387,0.2391139,-0.99222904,0.123975515,-0.01056001,0.11545791,0.9490377,0.29325208,0.04637792,0.28975397,-0.95597684,,-0.19697602468997033,-0.28945575085880887,0.08132793831000001,0.8687454358563844,0.0009564554983580831,0.011716921915631071,0.00016334406613427964,,-1.5556673101837852,0.0006641550271833078,0.13107565964,0.12937869512995154,-0.020905384464112386,1.181214022488986,0.11548425475693569
4.991289379000136,,0.05634656,-0.051554766,0.3848145,-0.6782799,-0.07287865,-0.73118055,-0.5410651,0.7228113,0.42987472,0.49717698,0.6871917,-0.5297006,,-0.14769727,0.16165975,0.16015014,0.22945677,-0.90991807,-0.345541,-0.89278847,-0.33815813,0.29761988,-0.38765717,0.24020422,-0.88995725,,0.07421095,-0.04184387,0.2391139,-0.99222904,0.123975515,-0.01056001,0.11545791,0.9490377,0.29325208,0.04637792,0.28975397,-0.95597684,,-0.19697602468997033,-0.28945575085880887,0.08132793831000001,0.8687454358563844,0.0009564554983580831,0.011716921915631071,0.00016334406613427964,,-1.5556750329166595,0.0006641550271833078,0.13107565964,0.12937869512995154,-0.020905384464112386,1.181214022488986,0.11548425475693569
5.049181413000042,,0.05634656,-0.051554766,0.3848145,-0.6782799,-0.07287865,-0.73118055,-0.5410651,0.7228113,0.42987472,0.49717698,0.6871917,-0.5297006,,-0.14769232,0.161661,0.1601497,0.22945742,-0.9099207,-0.3455339,-0.89278847,-0.33815634,0.29762214,-0.387657,0.24019712,-0.8899592,,0.07421095,-0.04184387,0.2391139,-0.99222904,0.123975515,-0.01056001,0.11545791,0.9490377,0.29325208,0.04637792,0.28975397,-0.95597684,,-0.19697602468997033,-0.28945575085880887,0.08132793831000001,0.8687454358563844,0.0009564554983580831,0.011716921915631071,0.00016334406613427964,,-1.5556827556495336,0.0006641550271833078,0.13107565964,0.12937869512995154,-0.020905384464112386,1.181214022488986,0.11548425475693569
5.112776974000099,,0.05634656,-0.051554766,0.3848145,-0.6782799,-0.07287865,-0.73118055,-0.5410651,0.7228113,0.42987472,0.49717698,0.6871917,-0.5297006,,-0.14769337,0.1616641,0.16015126,0.22946182,-0.90991914,-0.34553513,-0.892785,-0.3381622,0.29762578,-0.3876623,0.24019486,-0.8899575,,0.07421095,-0.04184387,0.2391139,-0.99222904,0.123975515,-0.01056001,0.11545791,0.9490377,0.29325208,0.04637792,0.28975397,-0.95597684,,-0.19697602468997033,-0.28945575085880887,0.08132793831000001,0.8687454358563844,0.0009564554983580831,0.011716921915631071,0.00016334406613427964,,-1.5556827556495336,0.0006718777600575323,0.13107565964,0.12937869512995154,-0.020905384464112386,1.181214022488986,0.11548425475693569
5.167165535000095,,0.05634656,-0.051554766,0.3848145,-0.6782799,-0.07287865,-0.73118055,-0.5410651,0.7228113,0.42987472,0.49717698,0.6871917,-0.5297006,,-0.14769232,0.161661,0.1601497,0.22945742,-0.9099207,-0.3455339,-0.89278847,-0.33815634,0.29762214,-0.387657,0.24019712,-0.8899592,,0.07421095,-0.04184387,0.2391139,-0.99222904,0.123975515,-0.01056001,0.11545791,0.9490377,0.29325208,0.04637792,0.28975397,-0.95597684,,-0.19697602468997033,-0.28945575085880887,0.08132793831000001,0.8687454358563844,0.0009564554983580831,0.011716921915631071,0.00016334406613427964,,-1.5556827556495336,0.0006641550271833078,0.13107565964,0.12937869512995154,-0.020905384464112386,1.181214022488986,0.11548425475693569
5.209527032000096,,0.05634656,-0.051554766,0.3848145,-0.6782799,-0.07287865,-0.73118055,-0.5410651,0.7228113,0.42987472,0.49717698,0.6871917,-0.5297006,,-0.14769232,0.161661,0.1601497,0.22945742,-0.9099207,-0.3455339,-0.89278847,-0.33815634,0.29762214,-0.387657,0.24019712,-0.8899592,,0.07421095,-0.04184387,0.2391139,-0.99222904,0.123975515,-0.01056001,0.11545791,0.9490377,0.29325208,0.04637792,0.28975397,-0.95597684,,-0.19697602468997033,-0.28945575085880887,0.08132793831000001,0.8687454358563844,0.0009564554983580831,0.011716921915631071,0.00016334406613427964,,-1.5556827556495336,0.0006641550271833078,0.13107565964,0.12937869512995154,-0.020905384464112386,1.181214022488986,0.11548425475693569
5.258839085000091,,0.05634656,-0.051554766,0.3848145,-0.6782799,-0.07287865,-0.73118055,-0.5410651,0.7228113,0.42987472,0.49717698,0.6871917,-0.5297006,,-0.14769232,0.161661,0.1601497,0.22945742,-0.9099207,-0.3455339,-0.89278847,-0.33815634,0.29762214,-0.387657,0.24019712,-0.8899592,,0.07421095,-0.04184387,0.2391139,-0.99222904,0.123975515,-0.01056001,0.11545791,0.9490377,0.29325208,0.04637792,0.28975397,-0.95597684,,-0.19697602468997033,-0.28945575085880887,0.08132793831000001,0.8687454358563844,0.0009564554983580831,0.011716921915631071,0.00016334406613427964,,-1.5556827556495336,0.0006641550271833078,0.13107565964,0.12937869512995154,-0.020905384464112386,1.181214022488986,0.11548425475693569
5.291444459000104,,0.05634656,-0.051554766,0.3848145,-0.6782799,-0.07287865,-0.73118055,-0.5410651,0.7228113,0.42987472,0.49717698,0.6871917,-0.5297006,,-0.14769232,0.161661,0.1601497,0.22945742,-0.9099207,-0.3455339,-0.89278847,-0.33815634,0.29762214,-0.387657,0.24019712,-0.8899592,,0.07421095,-0.04184387,0.2391139,-0.99222904,0.123975515,-0.01056001,0.11545791,0.9490377,0.29325208,0.04637792,0.28975397,-0.95597684,,-0.19697602468997033,-0.28945575085880887,0.08132793831000001,0.8687454358563844,0.0009564554983580831,0.011716921915631071,0.00016334406613427964,,-1.5556827556495336,0.0006641550271833078,0.13107565964,0.12937869512995154,-0.020905384464112386,1.181214022488986,0.11548425475693569
5.321904394000285,,0.05634656,-0.051554766,0.3848145,-0.6782799,-0.07287865,-0.73118055,-0.5410651,0.7228113,0.42987472,0.49717698,0.6871917,-0.5297006,,-0.14769232,0.161661,0.1601497,0.22945742,-0.9099207,-0.3455339,-0.89278847,-0.33815634,0.29762214,-0.387657,0.24019712,-0.8899592,,0.07421095,-0.04184387,0.2391139,-0.99222904,0.123975515,-0.01056001,0.11545791,0.9490377,0.29325208,0.04637792,0.28975397,-0.95597684,,-0.19697602468997033,-0.28945575085880887,0.08132793831000001,0.8687454358563844,0.0009564554983580831,0.011716921915631071,0.00016334406613427964,,-1.5556827556495336,0.0006641550271833078,0.13107565964,0.12937869512995154,-0.020905384464112386,1.181214022488986,0.11548425475693569
5.350215427999956,,0.05634656,-0.051554766,0.3848145,-0.6782799,-0.07287865,-0.73118055,-0.5410651,0.7228113,0.42987472,0.49717698,0.6871917,-0.5297006,,-0.14760229,0.16168365,0.1601255,0.22946641,-0.90997577,-0.3453828,-0.8927929,-0.3381109,0.29766032,-0.3876413,0.24005234,-0.8900051,,0.07421095,-0.04184387,0.2391139,-0.99222904,0.123975515,-0.01056001,0.11545791,0.9490377,0.29325208,0.04637792,0.28975397,-0.95597684,,-0.19697602468997033,-0.28945575085880887,0.08132793831000001,0.8687454358563844,0.0009564554983580831,0.011716921915631071,0.00016334406613427964,,-1.5556827556495336,0.0006718777600575323,0.13107565964,0.12937869512995154,-0.020905384464112386,1.181050665008705,0.11515756662466692
5.382493799000258,,0.05634656,-0.051554766,0.3848145,-0.6782799,-0.07287865,-0.73118055,-0.5410651,0.7228113,0.42987472,0.49717698,0.6871917,-0.5297006,,-0.14760116,0.16168058,0.1601239,0.22946195,-0.90997744,-0.34538153,-0.89279634,-0.33810502,0.29765666,-0.38763598,0.24005452,-0.8900069,,0.07421095,-0.04184387,0.2391139,-0.99222904,0.123975515,-0.01056001,0.11545791,0.9490377,0.29325208,0.04637792,0.28975397,-0.95597684,,-0.19697602468997033,-0.28945575085880887,0.08132793831000001,0.8687454358563844,0.0009564554983580831,0.011716921915631071,0.00016334406613427964,,-1.5556827556495336,0.0006641550271833078,0.13107565964,0.12937869512995154,-0.020905384464112386,1.181050665008705,0.11515756662466692
5.436916071000269,,0.05634656,-0.051554766,0.3848145,-0.6782799,-0.07287865,-0.73118055,-0.5410651,0.7228113,0.42987472,0.49717698,0.6871917,-0.5297006,,-0.14761108,0.16167805,0.16012482,0.2294606,-0.9099723,-0.34539568,-0.8927966,-0.33810854,0.29765213,-0.38763642,0.2400687,-0.8900029,,0.07421095,-0.04184387,0.2391139,-0.99222904,0.123975515,-0.01056001,0.11545791,0.9490377,0.29325208,0.04637792,0.28975397,-0.95597684,,-0.19697602468997033,-0.28945575085880887,0.08132793831000001,0.8687454358563844,0.0009564554983580831,0.011716921915631071,0.00016334406613427964,,-1.5556673101837852,0.0006641550271833078,0.13107565964,0.12937869512995154,-0.020905384464112386,1.181050665008705,0.11515756662466692
5.487852450999981,,0.05634656,-0.051554766,0.3848145,-0.6782799,-0.07287865,-0.73118055,-0.5410651,0.7228113,0.42987472,0.49717698,0.6871917,-0.5297006,,-0.14760116,0.16168058,0.1601239,0.22946195,-0.90997744,-0.34538153,-0.89279634,-0.33810502,0.29765666,-0.38763598,0.24005452,-0.8900069,,0.07421095,-0.04184387,0.2391139,-0.99222904,0.123975515,-0.01056001,0.11545791,0.9490377,0.29325208,0.04637792,0.28975397,-0.95597684,,-0.19697602468997033,-0.28945575085880887,0.08132793831000001,0.8687454358563844,0.0009564554983580831,0.011716921915631071,0.00016334406613427964,,-1.5556827556495336,0.0006641550271833078,0.13107565964,0.12937869512995154,-0.020905384464112386,1.181050665008705,0.11515756662466692
5.555668356000297,,0.05634656,-0.051554766,0.3848145,-0.6782799,-0.07287865,-0.73118055,-0.5410651,0.7228113,0.42987472,0.49717698,0.6871917,-0.5297006,,-0.14760613,0.1616793,0.1601244,0.22946128,-0.9099748,-0.34538868,-0.89279646,-0.3381068,0.29765436,-0.38763624,0.24006167,-0.8900048,,0.07421095,-0.04184387,0.2391139,-0.99222904,0.123975515,-0.01056001,0.11545791,0.9490377,0.29325208,0.04637792,0.28975397,-0.95597684,,-0.19697602468997033,-0.28945575085880887,0.08132793831000001,0.8687454358563844,0.0009564554983580831,0.011716921915631071,0.00016334406613427964,,-1.5556750329166595,0.0006641550271833078,0.13107565964,0.12937869512995154,-0.020905384464112386,1.181050665008705,0.11515756662466692
5.607630977000099,,0.05634656,-0.051554766,0.3848145,-0.6782799,-0.07287865,-0.73118055,-0.5410651,0.7228113,0.42987472,0.49717698,0.6871917,-0.5297006,,-0.14760116,0.16168058,0.1601239,0.22946195,-0.90997744,-0.34538153,-0.89279634,-0.33810502,0.29765666,-0.38763598,0.24005452,-0.8900069,,0.07421095,-0.04184387,0.2391139,-0.99222904,0.123975515,-0.01056001,0.11545791,0.9490377,0.29325208,0.04637792,0.28975397,-0.95597684,,-0.19697602468997033,-0.28945575085880887,0.08132793831000001,0.8687454358563844,0.0009564554983580831,0.011716921915631071,0.00016334406613427964,,-1.5556827556495336,0.0006641550271833078,0.13107565964,0.12937869512995154,-0.020905384464112386,1.181050665008705,0.11515756662466692
5.65740772900017,,0.056352995,-0.051560402,0.38481212,-0.6782692,-0.07288491,-0.73118985,-0.5410789,0.7228044,0.42986876,0.4971764,0.68719816,-0.5296926,,-0.14743379,0.16167055,0.16010262,0.22963353,-0.90992993,-0.3453925,-0.89274454,-0.3382696,0.2976254,-0.387654,0.24000247,-0.89001304,,0.07417863,-0.041835427,0.2391083,-0.9922246,0.12401158,-0.010556467,0.11549343,0.9490334,0.2932522,0.046385106,0.28975284,-0.95597684,,-0.19697602468997033,-0.28945575085880887,0.08132793831000001,0.8687454358563844,0.0009564554983580831,0.011716921915631071,0.00016334406613427964,,-1.5556827556495336,0.0006641550271833078,0.13107565964,0.12937869512995154,-0.020905384464112386,1.181050665008705,0.11515756662466692
5.702952823000032,,0.056352995,-0.051560402,0.38481212,-0.6782692,-0.07288491,-0.73118985,-0.5410789,0.7228044,0.42986876,0.4971764,0.68719816,-0.5296926,,-0.14743486,0.16167364,0.16010413,0.22963794,-0.90992826,-0.34539372,-0.892741,-0.33827546,0.29762906,-0.3876593,0.24000019,-0.89001137,,0.07417863,-0.041835427,0.2391083,-0.9922246,0.12401158,-0.010556467,0.11549343,0.9490334,0.2932522,0.046385106,0.28975284,-0.95597684,,-0.19697602468997033,-0.28945575085880887,0.08132793831000001,0.8687454358563844,0.0009564554983580831,0.011716921915631071,0.00016334406613427964,,-1.5556827556495336,0.0006718777600575323,0.13107565964,0.12937869512995154,-0.020905384464112386,1.181050665008705,0.11515756662466692
5.734014097999989,,0.056352995,-0.051560402,0.38481212,-0.6782692,-0.07288491,-0.73118985,-0.5410789,0.7228044,0.42986876,0.4971764,0.68719816,-0.5296926,,-0.14743379,0.16167055,0.16010262,0.22963353,-0.90992993,-0.3453925,-0.89274454,-0.3382696,0.2976254,-0.387654,0.24000247,-0.89001304,,0.07417863,-0.041835427,0.2391083,-0.9922246,0.12401158,-0.010556467,0.11549343,0.9490334,0.2932522,0.046385106,0.28975284,-0.95597684,,-0.19697602468997033,-0.28945575085880887,0.08132793831000001,0.8687454358563844,0.0009564554983580831,0.011716921915631071,0.00016334406613427964,,-1.5556827556495336,0.0006641550271833078,0.13107565964,0.12937869512995154,-0.020905384464112386,1.181050665008705,0.11515756662466692
5.763834643000337,,0.056352995,-0.051560402,0.38481212,-0.6782692,-0.07288491,-0.73118985,-0.5410789,0.7228044,0.42986876,0.4971764,0.68719816,-0.5296926,,-0.14743379,0.16167055,0.16010262,0.22963353,-0.90992993,-0.3453925,-0.89274454,-0.3382696,0.2976254,-0.387654,0.24000247,-0.89001304,,0.07417863,-0.041835427,0.2391083,-0.9922246,0.12401158,-0.010556467,0.11549343,0.9490334,0.2932522,0.046385106,0.28975284,-0.95597684,,-0.19697602468997033,-0.28945575085880887,0.08132793831000001,0.8687454358563844,0.0009564554983580831,0.011716921915631071,0.00016334406613427964,,-1.5556827556495336,0.0006641550271833078,0.13107565964,0.12937869512995154,-0.020905384464112386,1.181050665008705,0.11515756662466692
