AlexandreBanks6/ExpertPlaybackApp/resources/Motions/Motion_31.csv
Time,si_T_psm1,Tx,Ty,Tz,R00,R01,R02,R10,R11,R12,R20,R21,R22,si_T_psm3,Tx,Ty,Tz,R00,R01,R02,R10,R11,R12,R20,R21,R22,si_T_ecm,Tx,Ty,Tz,R00,R01,R02,R10,R11,R12,R20,R21,R22,joint_vars_psm1,q1,q2,q3,q4,q5,q6,jaw,joint_vars_psm3,q1,q2,q3,q4,q5,q6,jaw
lci_T_si
,,-0.052600633,0.062476072,0.45473593,0.99986446,0.015321897,0.006021306,0.015962016,-0.99179685,-0.1268234,0.0040287375,0.12690231,-0.99190706
rci_T_si
,,-0.07128698,0.073966585,0.54984736,0.9996142,-0.0011538129,0.027750997,0.0025363704,-0.99117005,-0.13257241,0.027658923,0.13259165,-0.99078476
ecm_T_lc
,,-0.039348,0.051043153,-0.2725159,-0.9888841,-0.12934415,0.07333705,0.13224038,-0.9905602,0.036096916,0.06797584,0.045393787,0.9966537
ecm_T_rc
,,0.010096899,0.19171284,-0.6841031,-0.99695045,-0.013193613,-0.07691395,0.014341901,-0.9997935,-0.014396289,-0.07670814,-0.015455482,0.99693376
0.028984847012907267,,0.029664304,0.038653776,0.33112645,-0.7142043,-0.5596223,-0.42039865,-0.68666756,0.44380465,0.57578206,-0.13564561,0.69990015,-0.7012417,,0.0008814242,-0.004968645,0.5749817,0.54357684,-0.81022507,0.21922493,-0.66338426,-0.25468615,0.7036023,-0.51424265,-0.52789223,-0.67593205,,0.024638651,-0.018117694,0.18135697,-0.9905188,0.116559505,0.0727068,0.12244118,0.9890411,0.082497716,-0.062294118,0.090617865,-0.99393547,,-0.3389121321853426,-0.05598981333812769,0.1091865067,0.00020968994348452436,0.00013663649976544044,0.0002152970568658275,0.0,,-1.4636123343230292,0.1798238349763177,0.08948419499000002,-0.007339148021958352,-0.017352835470210937,-0.0016139230776829935,0.001796784727477069
0.04986205598106608,,0.02966475,0.038653426,0.33112592,-0.7142046,-0.5596252,-0.4203943,-0.6866674,0.4438094,0.57577866,-0.1356453,0.69989485,-0.7012471,,0.0008814242,-0.004968645,0.5749817,0.54357684,-0.81022507,0.21922493,-0.66338426,-0.25468615,0.7036023,-0.51424265,-0.52789223,-0.67593205,,0.024638651,-0.018117694,0.18135697,-0.9905188,0.116559505,0.0727068,0.12244118,0.9890411,0.082497716,-0.062294118,0.090617865,-0.99393547,,-0.33891985491821686,-0.05598981333812769,0.1091865067,0.00020968994348452436,0.00013663649976544044,0.0002152970568658275,0.0,,-1.4636123343230292,0.1798238349763177,0.08948419499000002,-0.007339148021958352,-0.017352835470210937,-0.0016139230776829935,0.001796784727477069
0.07853217702358961,,0.029664304,0.038653776,0.33112645,-0.7142043,-0.5596223,-0.42039865,-0.68666756,0.44380465,0.57578206,-0.13564561,0.69990015,-0.7012417,,0.0008814242,-0.004968645,0.5749817,0.54357684,-0.81022507,0.21922493,-0.66338426,-0.25468615,0.7036023,-0.51424265,-0.52789223,-0.67593205,,0.024638651,-0.018117694,0.18135697,-0.9905188,0.116559505,0.0727068,0.12244118,0.9890411,0.082497716,-0.062294118,0.090617865,-0.99393547,,-0.3389121321853426,-0.05598981333812769,0.1091865067,0.00020968994348452436,0.00013663649976544044,0.0002152970568658275,0.0,,-1.4636123343230292,0.1798238349763177,0.08948419499000002,-0.007339148021958352,-0.017352835470210937,-0.0016139230776829935,0.001796784727477069
0.1025455659837462,,0.02966475,0.038653426,0.33112592,-0.7142046,-0.5596252,-0.4203943,-0.6866674,0.4438094,0.57577866,-0.1356453,0.69989485,-0.7012471,,0.0008814242,-0.004968645,0.5749817,0.54357684,-0.81022507,0.21922493,-0.66338426,-0.25468615,0.7036023,-0.51424265,-0.52789223,-0.67593205,,0.024638651,-0.018117694,0.18135697,-0.9905188,0.116559505,0.0727068,0.12244118,0.9890411,0.082497716,-0.062294118,0.090617865,-0.99393547,,-0.33891985491821686,-0.05598981333812769,0.1091865067,0.00020968994348452436,0.00013663649976544044,0.0002152970568658275,0.0,,-1.4636123343230292,0.1798238349763177,0.08948419499000002,-0.007339148021958352,-0.017352835470210937,-0.0016139230776829935,0.001796784727477069
0.1312396270222962,,0.029664304,0.038653776,0.33112645,-0.7142043,-0.5596223,-0.42039865,-0.68666756,0.44380465,0.57578206,-0.13564561,0.69990015,-0.7012417,,0.0008814242,-0.004968645,0.5749817,0.54357684,-0.81022507,0.21922493,-0.66338426,-0.25468615,0.7036023,-0.51424265,-0.52789223,-0.67593205,,0.024638651,-0.018117694,0.18135697,-0.9905188,0.116559505,0.0727068,0.12244118,0.9890411,0.082497716,-0.062294118,0.090617865,-0.99393547,,-0.3389121321853426,-0.05598981333812769,0.1091865067,0.00020968994348452436,0.00013663649976544044,0.0002152970568658275,0.0,,-1.4636123343230292,0.1798238349763177,0.08948419499000002,-0.007339148021958352,-0.017352835470210937,-0.0016139230776829935,0.001796784727477069
0.1593079420272261,,0.029664304,0.038653776,0.33112645,-0.7142043,-0.5596223,-0.42039865,-0.68666756,0.44380465,0.57578206,-0.13564561,0.69990015,-0.7012417,,0.0008814242,-0.004968645,0.5749817,0.54357684,-0.81022507,0.21922493,-0.66338426,-0.25468615,0.7036023,-0.51424265,-0.52789223,-0.67593205,,0.024638651,-0.018117694,0.18135697,-0.9905188,0.116559505,0.0727068,0.12244118,0.9890411,0.082497716,-0.062294118,0.090617865,-0.99393547,,-0.3389121321853426,-0.05598981333812769,0.1091865067,0.00020968994348452436,0.00013663649976544044,0.0002152970568658275,0.0,,-1.4636123343230292,0.1798238349763177,0.08948419499000002,-0.007339148021958352,-0.017352835470210937,-0.0016139230776829935,0.001796784727477069
0.18870766699546948,,0.029664304,0.038653776,0.33112645,-0.7142043,-0.5596223,-0.42039865,-0.68666756,0.44380465,0.57578206,-0.13564561,0.69990015,-0.7012417,,0.0008814242,-0.004968645,0.5749817,0.54357684,-0.81022507,0.21922493,-0.66338426,-0.25468615,0.7036023,-0.51424265,-0.52789223,-0.67593205,,0.024638651,-0.018117694,0.18135697,-0.9905188,0.116559505,0.0727068,0.12244118,0.9890411,0.082497716,-0.062294118,0.090617865,-0.99393547,,-0.3389121321853426,-0.05598981333812769,0.1091865067,0.00020968994348452436,0.00013663649976544044,0.0002152970568658275,0.0,,-1.4636123343230292,0.1798238349763177,0.08948419499000002,-0.007339148021958352,-0.017352835470210937,-0.0016139230776829935,0.001796784727477069
0.21784092497546226,,0.029664304,0.038653776,0.33112645,-0.71408695,-0.559772,-0.42039865,-0.68676066,0.4436607,0.575782,-0.13579233,0.6998717,-0.7012417,,0.0008814242,-0.004968645,0.5749817,0.54357684,-0.81022507,0.21922493,-0.66338426,-0.25468615,0.7036023,-0.51424265,-0.52789223,-0.67593205,,0.024638651,-0.018117694,0.18135697,-0.9905188,0.116559505,0.0727068,0.12244118,0.9890411,0.082497716,-0.062294118,0.090617865,-0.99393547,,-0.3389121321853426,-0.05598981333812769,0.1091865067,0.0,0.00013663649976544044,0.0002152970568658275,0.0,,-1.4636123343230292,0.1798238349763177,0.08948419499000002,-0.007339148021958352,-0.017352835470210937,-0.0016139230776829935,0.001796784727477069
0.24523152102483436,,0.029664304,0.038653776,0.33112645,-0.7139696,-0.5599217,-0.4203987,-0.6868537,0.44351667,0.575782,-0.13593906,0.6998432,-0.7012417,,0.0008814242,-0.004968645,0.5749817,0.54357684,-0.81022507,0.21922493,-0.66338426,-0.25468615,0.7036023,-0.51424265,-0.52789223,-0.67593205,,0.024638651,-0.018117694,0.18135697,-0.9905188,0.116559505,0.0727068,0.12244118,0.9890411,0.082497716,-0.062294118,0.090617865,-0.99393547,,-0.3389121321853426,-0.05598981333812769,0.1091865067,-0.00020968994348452436,0.00013663649976544044,0.0002152970568658275,0.0,,-1.4636123343230292,0.1798238349763177,0.08948419499000002,-0.007339148021958352,-0.017352835470210937,-0.0016139230776829935,0.001796784727477069
0.2689077149843797,,0.029664304,0.038653776,0.33112645,-0.7139696,-0.5599217,-0.4203987,-0.6868537,0.44351667,0.575782,-0.13593906,0.6998432,-0.7012417,,0.0008815918,-0.0049680676,0.5749823,0.54357946,-0.8102227,0.21922699,-0.6633786,-0.2546816,0.70360935,-0.5142472,-0.5278981,-0.67592406,,0.024638651,-0.018117694,0.18135697,-0.9905188,0.116559505,0.0727068,0.12244118,0.9890411,0.082497716,-0.062294118,0.090617865,-0.99393547,,-0.3389121321853426,-0.05598981333812769,0.1091865067,-0.00020968994348452436,0.00013663649976544044,0.0002152970568658275,0.0,,-1.4636200570559033,0.17983155770919193,0.08948419499000002,-0.007339148021958352,-0.017352835470210937,-0.0016139230776829935,0.001796784727477069
0.2986129969940521,,0.02966475,0.038653426,0.33112592,-0.7139697,-0.55992466,-0.42039442,-0.68685347,0.44352135,0.57577866,-0.13593876,0.69983786,-0.7012471,,0.0008819401,-0.0049684886,0.574982,0.54357773,-0.8102227,0.21923114,-0.66338396,-0.25468165,0.7036042,-0.514242,-0.5278981,-0.675928,,0.024638651,-0.018117694,0.18135697,-0.9905188,0.116559505,0.0727068,0.12244118,0.9890411,0.082497716,-0.062294118,0.090617865,-0.99393547,,-0.33891985491821686,-0.05598981333812769,0.1091865067,-0.00020968994348452436,0.00013663649976544044,0.0002152970568658275,0.0,,-1.4636200570559033,0.1798238349763177,0.08948419499000002,-0.007339148021958352,-0.017352835470210937,-0.0016139230776829935,0.001796784727477069
0.3252737629809417,,0.02966475,0.038653426,0.33112592,-0.7139697,-0.55992466,-0.42039442,-0.68685347,0.44352135,0.57577866,-0.13593876,0.69983786,-0.7012471,,0.00088245235,-0.004968336,0.57498235,0.54357874,-0.8102203,0.21923736,-0.6633837,-0.25467712,0.7036061,-0.5142413,-0.52790385,-0.67592406,,0.024638651,-0.018117694,0.18135697,-0.9905188,0.116559505,0.0727068,0.12244118,0.9890411,0.082497716,-0.062294118,0.090617865,-0.99393547,,-0.33891985491821686,-0.05598981333812769,0.1091865067,-0.00020968994348452436,0.00013663649976544044,0.0002152970568658275,0.0,,-1.4636277797887776,0.1798238349763177,0.08948419499000002,-0.007339148021958352,-0.017352835470210937,-0.0016139230776829935,0.001796784727477069
0.349591446982231,,0.029665314,0.038653977,0.331126,-0.713973,-0.55992466,-0.4203889,-0.68684906,0.44352135,0.5757839,-0.13594416,0.69983786,-0.701246,,0.0008815918,-0.0049680676,0.5749823,0.54357946,-0.8102227,0.21922699,-0.6633786,-0.2546816,0.70360935,-0.5142472,-0.5278981,-0.67592406,,0.024638651,-0.018117694,0.18135697,-0.9905188,0.116559505,0.0727068,0.12244118,0.9890411,0.082497716,-0.062294118,0.090617865,-0.99393547,,-0.33891985491821686,-0.05598209060525347,0.1091865067,-0.00020968994348452436,0.00013663649976544044,0.0002152970568658275,0.0,,-1.4636200570559033,0.17983155770919193,0.08948419499000002,-0.007339148021958352,-0.017352835470210937,-0.0016139230776829935,0.001796784727477069
0.37894942302955315,,0.02966475,0.038653426,0.33112592,-0.7139697,-0.55992466,-0.42039442,-0.68685347,0.44352135,0.57577866,-0.13593876,0.69983786,-0.7012471,,0.0008819401,-0.0049684886,0.574982,0.54357773,-0.8102227,0.21923114,-0.66338396,-0.25468165,0.7036042,-0.514242,-0.5278981,-0.675928,,0.024638651,-0.018117694,0.18135697,-0.9905188,0.116559505,0.0727068,0.12244118,0.9890411,0.082497716,-0.062294118,0.090617865,-0.99393547,,-0.33891985491821686,-0.05598981333812769,0.1091865067,-0.00020968994348452436,0.00013663649976544044,0.0002152970568658275,0.0,,-1.4636200570559033,0.1798238349763177,0.08948419499000002,-0.007339148021958352,-0.017352835470210937,-0.0016139230776829935,0.001796784727477069
0.40513046202249825,,0.029664304,0.038653776,0.33112645,-0.7139696,-0.5599217,-0.4203987,-0.6868537,0.44351667,0.575782,-0.13593906,0.6998432,-0.7012417,,0.00088245235,-0.004968336,0.57498235,0.54357874,-0.8102203,0.21923736,-0.6633837,-0.25467712,0.7036061,-0.5142413,-0.52790385,-0.67592406,,0.024638651,-0.018117694,0.18135697,-0.9905188,0.116559505,0.0727068,0.12244118,0.9890411,0.082497716,-0.062294118,0.090617865,-0.99393547,,-0.3389121321853426,-0.05598981333812769,0.1091865067,-0.00020968994348452436,0.00013663649976544044,0.0002152970568658275,0.0,,-1.4636277797887776,0.1798238349763177,0.08948419499000002,-0.007339148021958352,-0.017352835470210937,-0.0016139230776829935,0.001796784727477069
0.4318230099743232,,0.029665314,0.038653977,0.331126,-0.713973,-0.55992466,-0.4203889,-0.68684906,0.44352135,0.5757839,-0.13594416,0.69983786,-0.701246,,0.00088245235,-0.004968336,0.57498235,0.54357874,-0.8102203,0.21923736,-0.6633837,-0.25467712,0.7036061,-0.5142413,-0.52790385,-0.67592406,,0.024638651,-0.018117694,0.18135697,-0.9905188,0.116559505,0.0727068,0.12244118,0.9890411,0.082497716,-0.062294118,0.090617865,-0.99393547,,-0.33891985491821686,-0.05598209060525347,0.1091865067,-0.00020968994348452436,0.00013663649976544044,0.0002152970568658275,0.0,,-1.4636277797887776,0.1798238349763177,0.08948419499000002,-0.007339148021958352,-0.017352835470210937,-0.0016139230776829935,0.001796784727477069
0.4621046729735099,,0.02966487,0.038654327,0.33112657,-0.7139728,-0.5599217,-0.42039317,-0.68684924,0.44351667,0.57578737,-0.13594447,0.6998432,-0.7012406,,0.0008819401,-0.0049684886,0.574982,0.54357773,-0.8102227,0.21923114,-0.66338396,-0.25468165,0.7036042,-0.514242,-0.5278981,-0.675928,,0.024638651,-0.018117694,0.18135697,-0.9905188,0.116559505,0.0727068,0.12244118,0.9890411,0.082497716,-0.062294118,0.090617865,-0.99393547,,-0.3389121321853426,-0.05598209060525347,0.1091865067,-0.00020968994348452436,0.00013663649976544044,0.0002152970568658275,0.0,,-1.4636200570559033,0.1798238349763177,0.08948419499000002,-0.007339148021958352,-0.017352835470210937,-0.0016139230776829935,0.001796784727477069
0.4830440420191735,,0.02966475,0.038653426,0.33112592,-0.7139697,-0.55992466,-0.42039442,-0.68685347,0.44352135,0.57577866,-0.13593876,0.69983786,-0.7012471,,0.0008814242,-0.004968645,0.5749817,0.54357684,-0.81022507,0.21922493,-0.66338426,-0.25468615,0.7036023,-0.51424265,-0.52789223,-0.67593205,,0.024638651,-0.018117694,0.18135697,-0.9905188,0.116559505,0.0727068,0.12244118,0.9890411,0.082497716,-0.062294118,0.090617865,-0.99393547,,-0.33891985491821686,-0.05598981333812769,0.1091865067,-0.00020968994348452436,0.00013663649976544044,0.0002152970568658275,0.0,,-1.4636123343230292,0.1798238349763177,0.08948419499000002,-0.007339148021958352,-0.017352835470210937,-0.0016139230776829935,0.001796784727477069
0.5135164179955609,,0.02966475,0.038653426,0.33112592,-0.7139697,-0.55992466,-0.42039442,-0.68685347,0.44352135,0.57577866,-0.13593876,0.69983786,-0.7012471,,0.00088245235,-0.004968336,0.57498235,0.54357874,-0.8102203,0.21923736,-0.6633837,-0.25467712,0.7036061,-0.5142413,-0.52790385,-0.67592406,,0.024638651,-0.018117694,0.18135697,-0.9905188,0.116559505,0.0727068,0.12244118,0.9890411,0.082497716,-0.062294118,0.090617865,-0.99393547,,-0.33891985491821686,-0.05598981333812769,0.1091865067,-0.00020968994348452436,0.00013663649976544044,0.0002152970568658275,0.0,,-1.4636277797887776,0.1798238349763177,0.08948419499000002,-0.007339148021958352,-0.017352835470210937,-0.0016139230776829935,0.001796784727477069
0.5416301459772512,,0.029665314,0.038653977,0.331126,-0.713973,-0.55992466,-0.4203889,-0.68684906,0.44352135,0.5757839,-0.13594416,0.69983786,-0.701246,,0.00088245235,-0.004968336,0.57498235,0.54357874,-0.8102203,0.21923736,-0.6633837,-0.25467712,0.7036061,-0.5142413,-0.52790385,-0.67592406,,0.024638651,-0.018117694,0.18135697,-0.9905188,0.116559505,0.0727068,0.12244118,0.9890411,0.082497716,-0.062294118,0.090617865,-0.99393547,,-0.33891985491821686,-0.05598209060525347,0.1091865067,-0.00020968994348452436,0.00013663649976544044,0.0002152970568658275,0.0,,-1.4636277797887776,0.1798238349763177,0.08948419499000002,-0.007339148021958352,-0.017352835470210937,-0.0016139230776829935,0.001796784727477069
0.565926939016208,,0.02966475,0.038653426,0.33112592,-0.7139697,-0.55992466,-0.42039442,-0.68685347,0.44352135,0.57577866,-0.13593876,0.69983786,-0.7012471,,0.0008819401,-0.0049684886,0.574982,0.54357773,-0.8102227,0.21923114,-0.66338396,-0.25468165,0.7036042,-0.514242,-0.5278981,-0.675928,,0.024638651,-0.018117694,0.18135697,-0.9905188,0.116559505,0.0727068,0.12244118,0.9890411,0.082497716,-0.062294118,0.090617865,-0.99393547,,-0.33891985491821686,-0.05598981333812769,0.1091865067,-0.00020968994348452436,0.00013663649976544044,0.0002152970568658275,0.0,,-1.4636200570559033,0.1798238349763177,0.08948419499000002,-0.007339148021958352,-0.017352835470210937,-0.0016139230776829935,0.001796784727477069
0.5942285230266862,,0.029663863,0.038654134,0.331127,-0.7139693,-0.5599188,-0.42040306,-0.68685395,0.44351193,0.57578546,-0.13593936,0.69984865,-0.70123625,,0.0008819401,-0.0049684886,0.574982,0.54357773,-0.8102227,0.21923114,-0.66338396,-0.25468165,0.7036042,-0.514242,-0.5278981,-0.675928,,0.024638651,-0.018117694,0.18135697,-0.9905188,0.116559505,0.0727068,0.12244118,0.9890411,0.082497716,-0.062294118,0.090617865,-0.99393547,,-0.33890440945246836,-0.05598981333812769,0.1091865067,-0.00020968994348452436,0.00013663649976544044,0.0002152970568658275,0.0,,-1.4636200570559033,0.1798238349763177,0.08948419499000002,-0.007339148021958352,-0.017352835470210937,-0.0016139230776829935,0.001796784727477069
0.6161997489980422,,0.029665314,0.038653977,0.331126,-0.713973,-0.55992466,-0.4203889,-0.68684906,0.44352135,0.5757839,-0.13594416,0.69983786,-0.701246,,0.0008815918,-0.0049680676,0.5749823,0.54357946,-0.8102227,0.21922699,-0.6633786,-0.2546816,0.70360935,-0.5142472,-0.5278981,-0.67592406,,0.024638651,-0.018117694,0.18135697,-0.9905188,0.116559505,0.0727068,0.12244118,0.9890411,0.082497716,-0.062294118,0.090617865,-0.99393547,,-0.33891985491821686,-0.05598209060525347,0.1091865067,-0.00020968994348452436,0.00013663649976544044,0.0002152970568658275,0.0,,-1.4636200570559033,0.17983155770919193,0.08948419499000002,-0.007339148021958352,-0.017352835470210937,-0.0016139230776829935,0.001796784727477069
0.6469828379922546,,0.02966475,0.038653426,0.33112592,-0.7139697,-0.55992466,-0.42039442,-0.68685347,0.44352135,0.57577866,-0.13593876,0.69983786,-0.7012471,,0.0008810777,-0.004968228,0.574982,0.54357845,-0.81022507,0.21922079,-0.6633789,-0.25468615,0.70360744,-0.5142479,-0.52789235,-0.675928,,0.024638651,-0.018117694,0.18135697,-0.9905188,0.116559505,0.0727068,0.12244118,0.9890411,0.082497716,-0.062294118,0.090617865,-0.99393547,,-0.33891985491821686,-0.05598981333812769,0.1091865067,-0.00020968994348452436,0.00013663649976544044,0.0002152970568658275,0.0,,-1.4636123343230292,0.17983155770919193,0.08948419499000002,-0.007339148021958352,-0.017352835470210937,-0.0016139230776829935,0.001796784727477069
0.6759892840054817,,0.02966475,0.038653426,0.33112592,-0.7139697,-0.55992466,-0.42039442,-0.68685347,0.44352135,0.57577866,-0.13593876,0.69983786,-0.7012471,,0.0008814242,-0.004968645,0.5749817,0.54357684,-0.81022507,0.21922493,-0.66338426,-0.25468615,0.7036023,-0.51424265,-0.52789223,-0.67593205,,0.024638651,-0.018117694,0.18135697,-0.9905188,0.116559505,0.0727068,0.12244118,0.9890411,0.082497716,-0.062294118,0.090617865,-0.99393547,,-0.33891985491821686,-0.05598981333812769,0.1091865067,-0.00020968994348452436,0.00013663649976544044,0.0002152970568658275,0.0,,-1.4636123343230292,0.1798238349763177,0.08948419499000002,-0.007339148021958352,-0.017352835470210937,-0.0016139230776829935,0.001796784727477069
0.7032694009831175,,0.029665759,0.03865362,0.33112544,-0.7139733,-0.5599276,-0.42038456,-0.6868489,0.4435261,0.5757805,-0.13594386,0.6998325,-0.7012514,,0.00088245235,-0.004968336,0.57498235,0.54357874,-0.8102203,0.21923736,-0.6633837,-0.25467712,0.7036061,-0.5142413,-0.52790385,-0.67592406,,0.024638651,-0.018117694,0.18135697,-0.9905188,0.116559505,0.0727068,0.12244118,0.9890411,0.082497716,-0.062294118,0.090617865,-0.99393547,,-0.33892757765109105,-0.05598209060525347,0.1091865067,-0.00020968994348452436,0.00013663649976544044,0.0002152970568658275,0.0,,-1.4636277797887776,0.1798238349763177,0.08948419499000002,-0.007339148021958352,-0.017352835470210937,-0.0016139230776829935,0.001796784727477069
0.7288086710032076,,0.029665314,0.038653977,0.331126,-0.713973,-0.55992466,-0.4203889,-0.68684906,0.44352135,0.5757839,-0.13594416,0.69983786,-0.701246,,0.0008815918,-0.0049680676,0.5749823,0.54357946,-0.8102227,0.21922699,-0.6633786,-0.2546816,0.70360935,-0.5142472,-0.5278981,-0.67592406,,0.024638651,-0.018117694,0.18135697,-0.9905188,0.116559505,0.0727068,0.12244118,0.9890411,0.082497716,-0.062294118,0.090617865,-0.99393547,,-0.33891985491821686,-0.05598209060525347,0.1091865067,-0.00020968994348452436,0.00013663649976544044,0.0002152970568658275,0.0,,-1.4636200570559033,0.17983155770919193,0.08948419499000002,-0.007339148021958352,-0.017352835470210937,-0.0016139230776829935,0.001796784727477069
0.754448601976037,,0.029664304,0.038653776,0.33112645,-0.7139696,-0.5599217,-0.4203987,-0.6868537,0.44351667,0.575782,-0.13593906,0.6998432,-0.7012417,,0.0008814242,-0.004968645,0.5749817,0.54357684,-0.81022507,0.21922493,-0.66338426,-0.25468615,0.7036023,-0.51424265,-0.52789223,-0.67593205,,0.024638651,-0.018117694,0.18135697,-0.9905188,0.116559505,0.0727068,0.12244118,0.9890411,0.082497716,-0.062294118,0.090617865,-0.99393547,,-0.3389121321853426,-0.05598981333812769,0.1091865067,-0.00020968994348452436,0.00013663649976544044,0.0002152970568658275,0.0,,-1.4636123343230292,0.1798238349763177,0.08948419499000002,-0.007339148021958352,-0.017352835470210937,-0.0016139230776829935,0.001796784727477069
0.781657861021813,,0.029665314,0.038653977,0.331126,-0.713973,-0.55992466,-0.4203889,-0.68684906,0.44352135,0.5757839,-0.13594416,0.69983786,-0.701246,,0.00088245235,-0.004968336,0.57498235,0.54357874,-0.8102203,0.21923736,-0.6633837,-0.25467712,0.7036061,-0.5142413,-0.52790385,-0.67592406,,0.024638651,-0.018117694,0.18135697,-0.9905188,0.116559505,0.0727068,0.12244118,0.9890411,0.082497716,-0.062294118,0.090617865,-0.99393547,,-0.33891985491821686,-0.05598209060525347,0.1091865067,-0.00020968994348452436,0.00013663649976544044,0.0002152970568658275,0.0,,-1.4636277797887776,0.1798238349763177,0.08948419499000002,-0.007339148021958352,-0.017352835470210937,-0.0016139230776829935,0.001796784727477069
0.8089238369720988,,0.02966487,0.038654327,0.33112657,-0.7139728,-0.5599217,-0.42039317,-0.68684924,0.44351667,0.57578737,-0.13594447,0.6998432,-0.7012406,,0.000921255,-0.004993053,0.57499635,0.54355294,-0.81024253,0.21921931,-0.66341615,-0.25469655,0.7035685,-0.51422673,-0.5278604,-0.67596906,,0.024638651,-0.018117694,0.18135697,-0.9905188,0.116559505,0.0727068,0.12244118,0.9890411,0.082497716,-0.062294118,0.090617865,-0.99393547,,-0.3389121321853426,-0.05598209060525347,0.1091865067,-0.00020968994348452436,0.00013663649976544044,0.0002152970568658275,0.0,,-1.4636277797887776,0.1798238349763177,0.08948419499000002,-0.007339148021958352,-0.017352835470210937,-0.0016139230776829935,0.001796784727477069
0.8339434289955534,,0.029624201,0.038686723,0.33112472,-0.714006,-0.5598882,-0.42038143,-0.68681705,0.44353876,0.5758088,-0.13593307,0.69985604,-0.70123005,,0.0009626318,-0.005012607,0.57499456,0.54358983,-0.8102315,0.21916845,-0.6633823,-0.254748,0.70358187,-0.51423144,-0.52785236,-0.6759717,,0.024680905,-0.01813746,0.18135524,-0.9905257,0.11650446,0.072700396,0.12238566,0.9890479,0.08249854,-0.062292717,0.09061442,-0.9939358,,-0.3389121321853426,-0.05598981333812769,0.1091865067,-0.00020968994348452436,0.00013663649976544044,0.0002152970568658275,0.0,,-1.4636200570559033,0.17983155770919193,0.08948419499000002,-0.007339148021958352,-0.017352835470210937,-0.0016139230776829935,0.001796784727477069
0.8633876140229404,,0.029624768,0.038687274,0.33112484,-0.7140093,-0.5598882,-0.42037597,-0.6868125,0.44353876,0.57581407,-0.1359385,0.69985604,-0.7012289,,0.0009629782,-0.0050130207,0.5749942,0.54358816,-0.8102315,0.21917263,-0.6633877,-0.25474808,0.7035767,-0.51422626,-0.5278523,-0.6759757,,0.024680905,-0.01813746,0.18135524,-0.9905257,0.11650446,0.072700396,0.12238566,0.9890479,0.08249854,-0.062292717,0.09061442,-0.9939358,,-0.3389121321853426,-0.05598209060525347,0.1091865067,-0.00020968994348452436,0.00013663649976544044,0.0002152970568658275,0.0,,-1.4636200570559033,0.1798238349763177,0.08948419499000002,-0.007339148021958352,-0.017352835470210937,-0.0016139230776829935,0.001796784727477069
0.8883620799751952,,0.029624768,0.038687274,0.33112484,-0.7140093,-0.5598882,-0.42037597,-0.6868125,0.44353876,0.57581407,-0.1359385,0.69985604,-0.7012289,,0.00096349046,-0.0050128642,0.57499456,0.54358906,-0.81022924,0.21917883,-0.6633875,-0.25474355,0.7035786,-0.51422554,-0.5278581,-0.6759717,,0.024680905,-0.01813746,0.18135524,-0.9905257,0.11650446,0.072700396,0.12238566,0.9890479,0.08249854,-0.062292717,0.09061442,-0.9939358,,-0.3389121321853426,-0.05598209060525347,0.1091865067,-0.00020968994348452436,0.00013663649976544044,0.0002152970568658275,0.0,,-1.4636277797887776,0.1798238349763177,0.08948419499000002,-0.007339148021958352,-0.017352835470210937,-0.0016139230776829935,0.001796784727477069
0.9165117280208506,,0.029624768,0.038687274,0.33112484,-0.7140093,-0.5598882,-0.42037597,-0.6868125,0.44353876,0.57581407,-0.1359385,0.69985604,-0.7012289,,0.0009624623,-0.0050131846,0.5749939,0.5435871,-0.81023395,0.2191664,-0.663388,-0.2547526,0.7035748,-0.5142269,-0.5278465,-0.6759797,,0.024680905,-0.01813746,0.18135524,-0.9905257,0.11650446,0.072700396,0.12238566,0.9890479,0.08249854,-0.062292717,0.09061442,-0.9939358,,-0.3389121321853426,-0.05598209060525347,0.1091865067,-0.00020968994348452436,0.00013663649976544044,0.0002152970568658275,0.0,,-1.4636123343230292,0.1798238349763177,0.08948419499000002,-0.007339148021958352,-0.017352835470210937,-0.0016139230776829935,0.001796784727477069
0.9456657900009304,,0.029624645,0.03868638,0.3311242,-0.71412367,-0.5597414,-0.4203771,-0.68672377,0.44368753,0.57580537,-0.13578606,0.69987917,-0.7012354,,0.0009624623,-0.0050131846,0.5749939,0.5435871,-0.81023395,0.2191664,-0.663388,-0.2547526,0.7035748,-0.5142269,-0.5278465,-0.6759797,,0.024680905,-0.01813746,0.18135524,-0.9905257,0.11650446,0.072700396,0.12238566,0.9890479,0.08249854,-0.062292717,0.09061442,-0.9939358,,-0.33891985491821686,-0.05598981333812769,0.1091865067,0.0,0.00013663649976544044,0.0002152970568658275,0.0,,-1.4636123343230292,0.1798238349763177,0.08948419499000002,-0.007339148021958352,-0.017352835470210937,-0.0016139230776829935,0.001796784727477069
0.9688040799810551,,0.02962521,0.038686924,0.3311243,-0.71424425,-0.55959165,-0.4203715,-0.68662626,0.4438315,0.57581073,-0.13564473,0.69990754,-0.7012344,,0.0009629782,-0.0050130207,0.5749942,0.54358816,-0.8102315,0.21917263,-0.6633877,-0.25474808,0.7035767,-0.51422626,-0.5278523,-0.6759757,,0.024680905,-0.01813746,0.18135524,-0.9905257,0.11650446,0.072700396,0.12238566,0.9890479,0.08249854,-0.062292717,0.09061442,-0.9939358,,-0.33891985491821686,-0.05598209060525347,0.1091865067,0.00020968994348452436,0.00013663649976544044,0.0002152970568658275,0.0,,-1.4636200570559033,0.1798238349763177,0.08948419499000002,-0.007339148021958352,-0.017352835470210937,-0.0016139230776829935,0.001796784727477069
0.9976215360220522,,0.029624768,0.038687266,0.33112484,-0.71424395,-0.55958873,-0.42037585,-0.68662643,0.44382676,0.5758141,-0.13564503,0.6999129,-0.701229,,0.00096349046,-0.0050128642,0.57499456,0.54358906,-0.81022924,0.21917883,-0.6633875,-0.25474355,0.7035786,-0.51422554,-0.5278581,-0.6759717,,0.024680905,-0.01813746,0.18135524,-0.9905257,0.11650446,0.072700396,0.12238566,0.9890479,0.08249854,-0.062292717,0.09061442,-0.9939358,,-0.3389121321853426,-0.05598209060525347,0.1091865067,0.00020968994348452436,0.00013663649976544044,0.0002152970568658275,0.0,,-1.4636277797887776,0.1798238349763177,0.08948419499000002,-0.007339148021958352,-0.017352835470210937,-0.0016139230776829935,0.001796784727477069
1.0196781430277042,,0.029624768,0.038687266,0.33112484,-0.71424395,-0.55958873,-0.42037585,-0.68662643,0.44382676,0.5758141,-0.13564503,0.6999129,-0.701229,,0.0009626318,-0.005012607,0.57499456,0.54358983,-0.8102315,0.21916845,-0.6633823,-0.254748,0.70358187,-0.51423144,-0.52785236,-0.6759717,,0.024680905,-0.01813746,0.18135524,-0.9905257,0.11650446,0.072700396,0.12238566,0.9890479,0.08249854,-0.062292717,0.09061442,-0.9939358,,-0.3389121321853426,-0.05598209060525347,0.1091865067,0.00020968994348452436,0.00013663649976544044,0.0002152970568658275,0.0,,-1.4636200570559033,0.17983155770919193,0.08948419499000002,-0.007339148021958352,-0.017352835470210937,-0.0016139230776829935,0.001796784727477069
1.0489639739971608,,0.029624768,0.038687266,0.33112484,-0.71424395,-0.55958873,-0.42037585,-0.68662643,0.44382676,0.5758141,-0.13564503,0.6999129,-0.701229,,0.0009621177,-0.0050127637,0.5749942,0.54358876,-0.81023395,0.21916226,-0.6633826,-0.25475255,0.7035799,-0.51423216,-0.5278465,-0.6759757,,0.024680905,-0.01813746,0.18135524,-0.9905257,0.11650446,0.072700396,0.12238566,0.9890479,0.08249854,-0.062292717,0.09061442,-0.9939358,,-0.3389121321853426,-0.05598209060525347,0.1091865067,0.00020968994348452436,0.00013663649976544044,0.0002152970568658275,0.0,,-1.4636123343230292,0.17983155770919193,0.08948419499000002,-0.007339148021958352,-0.017352835470210937,-0.0016139230776829935,0.001796784727477069
1.0780679719755426,,0.029624768,0.038687266,0.33112484,-0.71424395,-0.55958873,-0.42037585,-0.68662643,0.44382676,0.5758141,-0.13564503,0.6999129,-0.701229,,0.0009629782,-0.0050130207,0.5749942,0.54358816,-0.8102315,0.21917263,-0.6633877,-0.25474808,0.7035767,-0.51422626,-0.5278523,-0.6759757,,0.024680905,-0.01813746,0.18135524,-0.9905257,0.11650446,0.072700396,0.12238566,0.9890479,0.08249854,-0.062292717,0.09061442,-0.9939358,,-0.3389121321853426,-0.05598209060525347,0.1091865067,0.00020968994348452436,0.00013663649976544044,0.0002152970568658275,0.0,,-1.4636200570559033,0.1798238349763177,0.08948419499000002,-0.007339148021958352,-0.017352835470210937,-0.0016139230776829935,0.001796784727477069
1.1009572080220096,,0.02962521,0.038686924,0.3311243,-0.71424425,-0.55959165,-0.4203715,-0.68662626,0.4438315,0.57581073,-0.13564473,0.69990754,-0.7012344,,0.0009626318,-0.005012607,0.57499456,0.54358983,-0.8102315,0.21916845,-0.6633823,-0.254748,0.70358187,-0.51423144,-0.52785236,-0.6759717,,0.024680905,-0.01813746,0.18135524,-0.9905257,0.11650446,0.072700396,0.12238566,0.9890479,0.08249854,-0.062292717,0.09061442,-0.9939358,,-0.33891985491821686,-0.05598209060525347,0.1091865067,0.00020968994348452436,0.00013663649976544044,0.0002152970568658275,0.0,,-1.4636200570559033,0.17983155770919193,0.08948419499000002,-0.007339148021958352,-0.017352835470210937,-0.0016139230776829935,0.001796784727477069
1.1295862990082242,,0.02962521,0.038686924,0.3311243,-0.71424425,-0.55959165,-0.4203715,-0.68662626,0.4438315,0.57581073,-0.13564473,0.69990754,-0.7012344,,0.0009629782,-0.0050130207,0.5749942,0.54358816,-0.8102315,0.21917263,-0.6633877,-0.25474808,0.7035767,-0.51422626,-0.5278523,-0.6759757,,0.024680905,-0.01813746,0.18135524,-0.9905257,0.11650446,0.072700396,0.12238566,0.9890479,0.08249854,-0.062292717,0.09061442,-0.9939358,,-0.33891985491821686,-0.05598209060525347,0.1091865067,0.00020968994348452436,0.00013663649976544044,0.0002152970568658275,0.0,,-1.4636200570559033,0.1798238349763177,0.08948419499000002,-0.007339148021958352,-0.017352835470210937,-0.0016139230776829935,0.001796784727477069
1.1588192880153656,,0.029624768,0.038687266,0.33112484,-0.71424395,-0.55958873,-0.42037585,-0.68662643,0.44382676,0.5758141,-0.13564503,0.6999129,-0.701229,,0.00096349046,-0.0050128642,0.57499456,0.54358906,-0.81022924,0.21917883,-0.6633875,-0.25474355,0.7035786,-0.51422554,-0.5278581,-0.6759717,,0.024680905,-0.01813746,0.18135524,-0.9905257,0.11650446,0.072700396,0.12238566,0.9890479,0.08249854,-0.062292717,0.09061442,-0.9939358,,-0.3389121321853426,-0.05598209060525347,0.1091865067,0.00020968994348452436,0.00013663649976544044,0.0002152970568658275,0.0,,-1.4636277797887776,0.1798238349763177,0.08948419499000002,-0.007339148021958352,-0.017352835470210937,-0.0016139230776829935,0.001796784727477069
1.1839993399917148,,0.02962521,0.038686924,0.3311243,-0.71424425,-0.55959165,-0.4203715,-0.68662626,0.4438315,0.57581073,-0.13564473,0.69990754,-0.7012344,,0.00096349046,-0.0050128642,0.57499456,0.54358906,-0.81022924,0.21917883,-0.6633875,-0.25474355,0.7035786,-0.51422554,-0.5278581,-0.6759717,,0.024680905,-0.01813746,0.18135524,-0.9905257,0.11650446,0.072700396,0.12238566,0.9890479,0.08249854,-0.062292717,0.09061442,-0.9939358,,-0.33891985491821686,-0.05598209060525347,0.1091865067,0.00020968994348452436,0.00013663649976544044,0.0002152970568658275,0.0,,-1.4636277797887776,0.1798238349763177,0.08948419499000002,-0.007339148021958352,-0.017352835470210937,-0.0016139230776829935,0.001796784727477069
1.2122165010077879,,0.029624768,0.038687266,0.33112484,-0.71424395,-0.55958873,-0.42037585,-0.68662643,0.44382676,0.5758141,-0.13564503,0.6999129,-0.701229,,0.0009626318,-0.005012607,0.57499456,0.54358983,-0.8102315,0.21916845,-0.6633823,-0.254748,0.70358187,-0.51423144,-0.52785236,-0.6759717,,0.024680905,-0.01813746,0.18135524,-0.9905257,0.11650446,0.072700396,0.12238566,0.9890479,0.08249854,-0.062292717,0.09061442,-0.9939358,,-0.3389121321853426,-0.05598209060525347,0.1091865067,0.00020968994348452436,0.00013663649976544044,0.0002152970568658275,0.0,,-1.4636200570559033,0.17983155770919193,0.08948419499000002,-0.007339148021958352,-0.017352835470210937,-0.0016139230776829935,0.001796784727477069
1.2395085450261831,,0.029625654,0.038686566,0.3311237,-0.7142445,-0.5595946,-0.4203672,-0.6866261,0.44383624,0.5758073,-0.13564444,0.69990224,-0.70123976,,0.0009621177,-0.0050127637,0.5749942,0.54358876,-0.81023395,0.21916226,-0.6633826,-0.25475255,0.7035799,-0.51423216,-0.5278465,-0.6759757,,0.024680905,-0.01813746,0.18135524,-0.9905257,0.11650446,0.072700396,0.12238566,0.9890479,0.08249854,-0.062292717,0.09061442,-0.9939358,,-0.33892757765109105,-0.05598209060525347,0.1091865067,0.00020968994348452436,0.00013663649976544044,0.0002152970568658275,0.0,,-1.4636123343230292,0.17983155770919193,0.08948419499000002,-0.007339148021958352,-0.017352835470210937,-0.0016139230776829935,0.001796784727477069
1.263607626024168,,0.029624645,0.03868638,0.3311242,-0.714241,-0.55959165,-0.42037705,-0.6866307,0.4438315,0.57580537,-0.13563931,0.69990754,-0.7012354,,0.0009629782,-0.0050130207,0.5749942,0.54358816,-0.8102315,0.21917263,-0.6633877,-0.25474808,0.7035767,-0.51422626,-0.5278523,-0.6759757,,0.024680905,-0.01813746,0.18135524,-0.9905257,0.11650446,0.072700396,0.12238566,0.9890479,0.08249854,-0.062292717,0.09061442,-0.9939358,,-0.33891985491821686,-0.05598981333812769,0.1091865067,0.00020968994348452436,0.00013663649976544044,0.0002152970568658275,0.0,,-1.4636200570559033,0.1798238349763177,0.08948419499000002,-0.007339148021958352,-0.017352835470210937,-0.0016139230776829935,0.001796784727477069
1.2921835460001603,,0.029625654,0.038686566,0.3311237,-0.7142445,-0.5595946,-0.4203672,-0.6866261,0.44383624,0.5758073,-0.13564444,0.69990224,-0.70123976,,0.0009629782,-0.0050130207,0.5749942,0.54358816,-0.8102315,0.21917263,-0.6633877,-0.25474808,0.7035767,-0.51422626,-0.5278523,-0.6759757,,0.024680905,-0.01813746,0.18135524,-0.9905257,0.11650446,0.072700396,0.12238566,0.9890479,0.08249854,-0.062292717,0.09061442,-0.9939358,,-0.33892757765109105,-0.05598209060525347,0.1091865067,0.00020968994348452436,0.00013663649976544044,0.0002152970568658275,0.0,,-1.4636200570559033,0.1798238349763177,0.08948419499000002,-0.007339148021958352,-0.017352835470210937,-0.0016139230776829935,0.001796784727477069
1.317416834004689,,0.029625654,0.038686566,0.3311237,-0.7142445,-0.5595946,-0.4203672,-0.6866261,0.44383624,0.5758073,-0.13564444,0.69990224,-0.70123976,,0.0009624623,-0.0050131846,0.5749939,0.5435871,-0.81023395,0.2191664,-0.663388,-0.2547526,0.7035748,-0.5142269,-0.5278465,-0.6759797,,0.024680905,-0.01813746,0.18135524,-0.9905257,0.11650446,0.072700396,0.12238566,0.9890479,0.08249854,-0.062292717,0.09061442,-0.9939358,,-0.33892757765109105,-0.05598209060525347,0.1091865067,0.00020968994348452436,0.00013663649976544044,0.0002152970568658275,0.0,,-1.4636123343230292,0.1798238349763177,0.08948419499000002,-0.007339148021958352,-0.017352835470210937,-0.0016139230776829935,0.001796784727477069
1.3469942099764012,,0.029624768,0.038687266,0.33112484,-0.71424395,-0.55958873,-0.42037585,-0.68662643,0.44382676,0.5758141,-0.13564503,0.6999129,-0.701229,,0.00096349046,-0.0050128642,0.57499456,0.54358906,-0.81022924,0.21917883,-0.6633875,-0.25474355,0.7035786,-0.51422554,-0.5278581,-0.6759717,,0.024680905,-0.01813746,0.18135524,-0.9905257,0.11650446,0.072700396,0.12238566,0.9890479,0.08249854,-0.062292717,0.09061442,-0.9939358,,-0.3389121321853426,-0.05598209060525347,0.1091865067,0.00020968994348452436,0.00013663649976544044,0.0002152970568658275,0.0,,-1.4636277797887776,0.1798238349763177,0.08948419499000002,-0.007339148021958352,-0.017352835470210937,-0.0016139230776829935,0.001796784727477069
1.3712381930090487,,0.02962521,0.038686924,0.3311243,-0.71424425,-0.55959165,-0.4203715,-0.68662626,0.4438315,0.57581073,-0.13564473,0.69990754,-0.7012344,,0.00096349046,-0.0050128642,0.57499456,0.54358906,-0.81022924,0.21917883,-0.6633875,-0.25474355,0.7035786,-0.51422554,-0.5278581,-0.6759717,,0.024680905,-0.01813746,0.18135524,-0.9905257,0.11650446,0.072700396,0.12238566,0.9890479,0.08249854,-0.062292717,0.09061442,-0.9939358,,-0.33891985491821686,-0.05598209060525347,0.1091865067,0.00020968994348452436,0.00013663649976544044,0.0002152970568658275,0.0,,-1.4636277797887776,0.1798238349763177,0.08948419499000002,-0.007339148021958352,-0.017352835470210937,-0.0016139230776829935,0.001796784727477069
1.398558160988614,,0.02962521,0.038686924,0.3311243,-0.71424425,-0.55959165,-0.4203715,-0.68662626,0.4438315,0.57581073,-0.13564473,0.69990754,-0.7012344,,0.000963144,-0.005012447,0.5749949,0.5435908,-0.81022924,0.21917465,-0.663382,-0.2547435,0.7035837,-0.5142308,-0.52785814,-0.67596763,,0.024680905,-0.01813746,0.18135524,-0.9905257,0.11650446,0.072700396,0.12238566,0.9890479,0.08249854,-0.062292717,0.09061442,-0.9939358,,-0.33891985491821686,-0.05598209060525347,0.1091865067,0.00020968994348452436,0.00013663649976544044,0.0002152970568658275,0.0,,-1.4636277797887776,0.17983155770919193,0.08948419499000002,-0.007339148021958352,-0.017352835470210937,-0.0016139230776829935,0.001796784727477069
1.4241636539809406,,0.02962521,0.038686924,0.3311243,-0.71424425,-0.55959165,-0.4203715,-0.68662626,0.4438315,0.57581073,-0.13564473,0.69990754,-0.7012344,,0.0009629782,-0.0050130207,0.5749942,0.54358816,-0.8102315,0.21917263,-0.6633877,-0.25474808,0.7035767,-0.51422626,-0.5278523,-0.6759757,,0.024680905,-0.01813746,0.18135524,-0.9905257,0.11650446,0.072700396,0.12238566,0.9890479,0.08249854,-0.062292717,0.09061442,-0.9939358,,-0.33891985491821686,-0.05598209060525347,0.1091865067,0.00020968994348452436,0.00013663649976544044,0.0002152970568658275,0.0,,-1.4636200570559033,0.1798238349763177,0.08948419499000002,-0.007339148021958352,-0.017352835470210937,-0.0016139230776829935,0.001796784727477069
1.4500186090008356,,0.02962521,0.038686924,0.3311243,-0.71424425,-0.55959165,-0.4203715,-0.68662626,0.4438315,0.57581073,-0.13564473,0.69990754,-0.7012344,,0.0009629782,-0.0050130207,0.5749942,0.54358816,-0.8102315,0.21917263,-0.6633877,-0.25474808,0.7035767,-0.51422626,-0.5278523,-0.6759757,,0.024680905,-0.01813746,0.18135524,-0.9905257,0.11650446,0.072700396,0.12238566,0.9890479,0.08249854,-0.062292717,0.09061442,-0.9939358,,-0.33891985491821686,-0.05598209060525347,0.1091865067,0.00020968994348452436,0.00013663649976544044,0.0002152970568658275,0.0,,-1.4636200570559033,0.1798238349763177,0.08948419499000002,-0.007339148021958352,-0.017352835470210937,-0.0016139230776829935,0.001796784727477069
1.4791056630201638,,0.02962521,0.038686924,0.3311243,-0.71424425,-0.55959165,-0.4203715,-0.68662626,0.4438315,0.57581073,-0.13564473,0.69990754,-0.7012344,,0.00096349046,-0.0050128642,0.57499456,0.54358906,-0.81022924,0.21917883,-0.6633875,-0.25474355,0.7035786,-0.51422554,-0.5278581,-0.6759717,,0.024680905,-0.01813746,0.18135524,-0.9905257,0.11650446,0.072700396,0.12238566,0.9890479,0.08249854,-0.062292717,0.09061442,-0.9939358,,-0.33891985491821686,-0.05598209060525347,0.1091865067,0.00020968994348452436,0.00013663649976544044,0.0002152970568658275,0.0,,-1.4636277797887776,0.1798238349763177,0.08948419499000002,-0.007339148021958352,-0.017352835470210937,-0.0016139230776829935,0.001796784727477069
1.5024879479897209,,0.029625654,0.038686566,0.3311237,-0.7142445,-0.5595946,-0.4203672,-0.6866261,0.44383624,0.5758073,-0.13564444,0.69990224,-0.70123976,,0.0009621177,-0.0050127637,0.5749942,0.54358876,-0.81023395,0.21916226,-0.6633826,-0.25475255,0.7035799,-0.51423216,-0.5278465,-0.6759757,,0.024680905,-0.01813746,0.18135524,-0.9905257,0.11650446,0.072700396,0.12238566,0.9890479,0.08249854,-0.062292717,0.09061442,-0.9939358,,-0.33892757765109105,-0.05598209060525347,0.1091865067,0.00020968994348452436,0.00013663649976544044,0.0002152970568658275,0.0,,-1.4636123343230292,0.17983155770919193,0.08948419499000002,-0.007339148021958352,-0.017352835470210937,-0.0016139230776829935,0.001796784727477069
1.5317262259777635,,0.029624201,0.038686723,0.33112472,-0.71424073,-0.55958873,-0.42038137,-0.6866309,0.44382676,0.5758088,-0.13563961,0.6999129,-0.70123,,0.0009629782,-0.0050130207,0.5749942,0.54358816,-0.8102315,0.21917263,-0.6633877,-0.25474808,0.7035767,-0.51422626,-0.5278523,-0.6759757,,0.024680905,-0.01813746,0.18135524,-0.9905257,0.11650446,0.072700396,0.12238566,0.9890479,0.08249854,-0.062292717,0.09061442,-0.9939358,,-0.3389121321853426,-0.05598981333812769,0.1091865067,0.00020968994348452436,0.00013663649976544044,0.0002152970568658275,0.0,,-1.4636200570559033,0.1798238349763177,0.08948419499000002,-0.007339148021958352,-0.017352835470210937,-0.0016139230776829935,0.001796784727477069
1.5553392610163428,,0.02962521,0.038686924,0.3311243,-0.71424425,-0.55959165,-0.4203715,-0.68662626,0.4438315,0.57581073,-0.13564473,0.69990754,-0.7012344,,0.0009629782,-0.0050130207,0.5749942,0.54358816,-0.8102315,0.21917263,-0.6633877,-0.25474808,0.7035767,-0.51422626,-0.5278523,-0.6759757,,0.024680905,-0.01813746,0.18135524,-0.9905257,0.11650446,0.072700396,0.12238566,0.9890479,0.08249854,-0.062292717,0.09061442,-0.9939358,,-0.33891985491821686,-0.05598209060525347,0.1091865067,0.00020968994348452436,0.00013663649976544044,0.0002152970568658275,0.0,,-1.4636200570559033,0.1798238349763177,0.08948419499000002,-0.007339148021958352,-0.017352835470210937,-0.0016139230776829935,0.001796784727477069
1.5820615360280499,,0.029625654,0.038686566,0.3311237,-0.7142445,-0.5595946,-0.4203672,-0.6866261,0.44383624,0.5758073,-0.13564444,0.69990224,-0.70123976,,0.0009624623,-0.0050131846,0.5749939,0.5435871,-0.81023395,0.2191664,-0.663388,-0.2547526,0.7035748,-0.5142269,-0.5278465,-0.6759797,,0.024680905,-0.01813746,0.18135524,-0.9905257,0.11650446,0.072700396,0.12238566,0.9890479,0.08249854,-0.062292717,0.09061442,-0.9939358,,-0.33892757765109105,-0.05598209060525347,0.1091865067,0.00020968994348452436,0.00013663649976544044,0.0002152970568658275,0.0,,-1.4636123343230292,0.1798238349763177,0.08948419499000002,-0.007339148021958352,-0.017352835470210937,-0.0016139230776829935,0.001796784727477069
1.6097810260253027,,0.029624768,0.038687266,0.33112484,-0.71424395,-0.55958873,-0.42037585,-0.68662643,0.44382676,0.5758141,-0.13564503,0.6999129,-0.701229,,0.0009624623,-0.0050131846,0.5749939,0.5435871,-0.81023395,0.2191664,-0.663388,-0.2547526,0.7035748,-0.5142269,-0.5278465,-0.6759797,,0.024680905,-0.01813746,0.18135524,-0.9905257,0.11650446,0.072700396,0.12238566,0.9890479,0.08249854,-0.062292717,0.09061442,-0.9939358,,-0.3389121321853426,-0.05598209060525347,0.1091865067,0.00020968994348452436,0.00013663649976544044,0.0002152970568658275,0.0,,-1.4636123343230292,0.1798238349763177,0.08948419499000002,-0.007339148021958352,-0.017352835470210937,-0.0016139230776829935,0.001796784727477069
1.6336304200231098,,0.029625654,0.038686566,0.3311237,-0.7142445,-0.5595946,-0.4203672,-0.6866261,0.44383624,0.5758073,-0.13564444,0.69990224,-0.70123976,,0.0009621177,-0.0050127637,0.5749942,0.54358876,-0.81023395,0.21916226,-0.6633826,-0.25475255,0.7035799,-0.51423216,-0.5278465,-0.6759757,,0.024680905,-0.01813746,0.18135524,-0.9905257,0.11650446,0.072700396,0.12238566,0.9890479,0.08249854,-0.062292717,0.09061442,-0.9939358,,-0.33892757765109105,-0.05598209060525347,0.1091865067,0.00020968994348452436,0.00013663649976544044,0.0002152970568658275,0.0,,-1.4636123343230292,0.17983155770919193,0.08948419499000002,-0.007339148021958352,-0.017352835470210937,-0.0016139230776829935,0.001796784727477069
1.6627437659772113,,0.029624324,0.038687624,0.33112538,-0.71424377,-0.5595858,-0.42038012,-0.6866266,0.4438221,0.5758175,-0.13564534,0.69991827,-0.70122355,,0.0009624623,-0.0050131846,0.5749939,0.5435871,-0.81023395,0.2191664,-0.663388,-0.2547526,0.7035748,-0.5142269,-0.5278465,-0.6759797,,0.024680905,-0.01813746,0.18135524,-0.9905257,0.11650446,0.072700396,0.12238566,0.9890479,0.08249854,-0.062292717,0.09061442,-0.9939358,,-0.33890440945246836,-0.05598209060525347,0.1091865067,0.00020968994348452436,0.00013663649976544044,0.0002152970568658275,0.0,,-1.4636123343230292,0.1798238349763177,0.08948419499000002,-0.007339148021958352,-0.017352835470210937,-0.0016139230776829935,0.001796784727477069
1.6847684379899874,,0.029624768,0.038687266,0.33112484,-0.7141266,-0.5597384,-0.4203759,-0.68671954,0.4436828,0.5758141,-0.13579176,0.6998845,-0.701229,,0.0009624623,-0.0050131846,0.5749939,0.5435871,-0.81023395,0.2191664,-0.663388,-0.2547526,0.7035748,-0.5142269,-0.5278465,-0.6759797,,0.024680905,-0.01813746,0.18135524,-0.9905257,0.11650446,0.072700396,0.12238566,0.9890479,0.08249854,-0.062292717,0.09061442,-0.9939358,,-0.3389121321853426,-0.05598209060525347,0.1091865067,0.0,0.00013663649976544044,0.0002152970568658275,0.0,,-1.4636123343230292,0.1798238349763177,0.08948419499000002,-0.007339148021958352,-0.017352835470210937,-0.0016139230776829935,0.001796784727477069
1.7138205770170316,,0.029625654,0.038686566,0.3311237,-0.7140097,-0.5598941,-0.42036727,-0.6868122,0.4435482,0.5758072,-0.13593788,0.6998453,-0.70123976,,0.0009624623,-0.0050131846,0.5749939,0.5435871,-0.81023395,0.2191664,-0.663388,-0.2547526,0.7035748,-0.5142269,-0.5278465,-0.6759797,,0.024680905,-0.01813746,0.18135524,-0.9905257,0.11650446,0.072700396,0.12238566,0.9890479,0.08249854,-0.062292717,0.09061442,-0.9939358,,-0.33892757765109105,-0.05598209060525347,0.1091865067,-0.00020968994348452436,0.00013663649976544044,0.0002152970568658275,0.0,,-1.4636123343230292,0.1798238349763177,0.08948419499000002,-0.007339148021958352,-0.017352835470210937,-0.0016139230776829935,0.001796784727477069
1.7383903290028684,,0.02962521,0.038686924,0.3311243,-0.71400946,-0.5598911,-0.42037156,-0.68681234,0.4435435,0.5758107,-0.13593818,0.6998507,-0.70123434,,0.0009624623,-0.0050131846,0.5749939,0.5435871,-0.81023395,0.2191664,-0.663388,-0.2547526,0.7035748,-0.5142269,-0.5278465,-0.6759797,,0.024680905,-0.01813746,0.18135524,-0.9905257,0.11650446,0.072700396,0.12238566,0.9890479,0.08249854,-0.062292717,0.09061442,-0.9939358,,-0.33891985491821686,-0.05598209060525347,0.1091865067,-0.00020968994348452436,0.00013663649976544044,0.0002152970568658275,0.0,,-1.4636123343230292,0.1798238349763177,0.08948419499000002,-0.007339148021958352,-0.017352835470210937,-0.0016139230776829935,0.001796784727477069
1.765718869981356,,0.02962521,0.038686924,0.3311243,-0.71400946,-0.5598911,-0.42037156,-0.68681234,0.4435435,0.5758107,-0.13593818,0.6998507,-0.70123434,,0.0009621177,-0.0050127637,0.5749942,0.54358876,-0.81023395,0.21916226,-0.6633826,-0.25475255,0.7035799,-0.51423216,-0.5278465,-0.6759757,,0.024680905,-0.01813746,0.18135524,-0.9905257,0.11650446,0.072700396,0.12238566,0.9890479,0.08249854,-0.062292717,0.09061442,-0.9939358,,-0.33891985491821686,-0.05598209060525347,0.1091865067,-0.00020968994348452436,0.00013663649976544044,0.0002152970568658275,0.0,,-1.4636123343230292,0.17983155770919193,0.08948419499000002,-0.007339148021958352,-0.017352835470210937,-0.0016139230776829935,0.001796784727477069
1.7933486870024353,,0.02962521,0.038686924,0.3311243,-0.71400946,-0.5598911,-0.42037156,-0.68681234,0.4435435,0.5758107,-0.13593818,0.6998507,-0.70123434,,0.0009629782,-0.0050130207,0.5749942,0.54358816,-0.8102315,0.21917263,-0.6633877,-0.25474808,0.7035767,-0.51422626,-0.5278523,-0.6759757,,0.024680905,-0.01813746,0.18135524,-0.9905257,0.11650446,0.072700396,0.12238566,0.9890479,0.08249854,-0.062292717,0.09061442,-0.9939358,,-0.33891985491821686,-0.05598209060525347,0.1091865067,-0.00020968994348452436,0.00013663649976544044,0.0002152970568658275,0.0,,-1.4636200570559033,0.1798238349763177,0.08948419499000002,-0.007339148021958352,-0.017352835470210937,-0.0016139230776829935,0.001796784727477069
1.8172497740015388,,0.029624324,0.038687624,0.33112538,-0.714009,-0.5598852,-0.42038023,-0.6868128,0.44353402,0.5758175,-0.1359388,0.69986135,-0.70122355,,0.0009624623,-0.0050131846,0.5749939,0.5435871,-0.81023395,0.2191664,-0.663388,-0.2547526,0.7035748,-0.5142269,-0.5278465,-0.6759797,,0.024680905,-0.01813746,0.18135524,-0.9905257,0.11650446,0.072700396,0.12238566,0.9890479,0.08249854,-0.062292717,0.09061442,-0.9939358,,-0.33890440945246836,-0.05598209060525347,0.1091865067,-0.00020968994348452436,0.00013663649976544044,0.0002152970568658275,0.0,,-1.4636123343230292,0.1798238349763177,0.08948419499000002,-0.007339148021958352,-0.017352835470210937,-0.0016139230776829935,0.001796784727477069
1.8468655860051513,,0.02962521,0.038686924,0.3311243,-0.71400946,-0.5598911,-0.42037156,-0.68681234,0.4435435,0.5758107,-0.13593818,0.6998507,-0.70123434,,0.0009624623,-0.0050131846,0.5749939,0.5435871,-0.81023395,0.2191664,-0.663388,-0.2547526,0.7035748,-0.5142269,-0.5278465,-0.6759797,,0.024680905,-0.01813746,0.18135524,-0.9905257,0.11650446,0.072700396,0.12238566,0.9890479,0.08249854,-0.062292717,0.09061442,-0.9939358,,-0.33891985491821686,-0.05598209060525347,0.1091865067,-0.00020968994348452436,0.00013663649976544044,0.0002152970568658275,0.0,,-1.4636123343230292,0.1798238349763177,0.08948419499000002,-0.007339148021958352,-0.017352835470210937,-0.0016139230776829935,0.001796784727477069
1.8682465060264803,,0.02962521,0.038686924,0.3311243,-0.71400946,-0.5598911,-0.42037156,-0.68681234,0.4435435,0.5758107,-0.13593818,0.6998507,-0.70123434,,0.0009624623,-0.0050131846,0.5749939,0.5435871,-0.81023395,0.2191664,-0.663388,-0.2547526,0.7035748,-0.5142269,-0.5278465,-0.6759797,,0.024680905,-0.01813746,0.18135524,-0.9905257,0.11650446,0.072700396,0.12238566,0.9890479,0.08249854,-0.062292717,0.09061442,-0.9939358,,-0.33891985491821686,-0.05598209060525347,0.1091865067,-0.00020968994348452436,0.00013663649976544044,0.0002152970568658275,0.0,,-1.4636123343230292,0.1798238349763177,0.08948419499000002,-0.007339148021958352,-0.017352835470210937,-0.0016139230776829935,0.001796784727477069
1.89888479601359,,0.029624768,0.038687274,0.33112484,-0.7140093,-0.5598882,-0.42037597,-0.6868125,0.44353876,0.57581407,-0.1359385,0.69985604,-0.7012289,,0.0009624623,-0.0050131846,0.5749939,0.5435871,-0.81023395,0.2191664,-0.663388,-0.2547526,0.7035748,-0.5142269,-0.5278465,-0.6759797,,0.024680905,-0.01813746,0.18135524,-0.9905257,0.11650446,0.072700396,0.12238566,0.9890479,0.08249854,-0.062292717,0.09061442,-0.9939358,,-0.3389121321853426,-0.05598209060525347,0.1091865067,-0.00020968994348452436,0.00013663649976544044,0.0002152970568658275,0.0,,-1.4636123343230292,0.1798238349763177,0.08948419499000002,-0.007339148021958352,-0.017352835470210937,-0.0016139230776829935,0.001796784727477069
1.9260034579783678,,0.029625654,0.038686566,0.3311237,-0.7140097,-0.5598941,-0.42036727,-0.6868122,0.4435482,0.5758072,-0.13593788,0.6998453,-0.70123976,,0.0009624623,-0.0050131846,0.5749939,0.5435871,-0.81023395,0.2191664,-0.663388,-0.2547526,0.7035748,-0.5142269,-0.5278465,-0.6759797,,0.024680905,-0.01813746,0.18135524,-0.9905257,0.11650446,0.072700396,0.12238566,0.9890479,0.08249854,-0.062292717,0.09061442,-0.9939358,,-0.33892757765109105,-0.05598209060525347,0.1091865067,-0.00020968994348452436,0.00013663649976544044,0.0002152970568658275,0.0,,-1.4636123343230292,0.1798238349763177,0.08948419499000002,-0.007339148021958352,-0.017352835470210937,-0.0016139230776829935,0.001796784727477069
1.949484255979769,,0.02962521,0.038686924,0.3311243,-0.71400946,-0.5598911,-0.42037156,-0.68681234,0.4435435,0.5758107,-0.13593818,0.6998507,-0.70123434,,0.0010311082,-0.0050232913,0.5750048,0.5436356,-0.81021404,0.21911976,-0.663357,-0.25481674,0.70358074,-0.5142156,-0.5278461,-0.6759886,,0.024680905,-0.01813746,0.18135524,-0.9905257,0.11650446,0.072700396,0.12238566,0.9890479,0.08249854,-0.062292717,0.09061442,-0.9939358,,-0.33891985491821686,-0.05598209060525347,0.1091865067,-0.00020968994348452436,0.00013663649976544044,0.0002152970568658275,0.0,,-1.4636123343230292,0.1798238349763177,0.08948419499000002,-0.007339148021958352,-0.017352835470210937,-0.0016139230776829935,0.001796784727477069
1.9777803670149297,,0.029697143,0.03864589,0.33111745,-0.71395504,-0.5599368,-0.4204035,-0.68686455,0.44349042,0.57578933,-0.13596073,0.6998479,-0.70123285,,0.0010173805,-0.0050138608,0.5750092,0.5436193,-0.8102201,0.2191381,-0.66337,-0.25479543,0.70357615,-0.5142161,-0.5278472,-0.67598736,,0.02466717,-0.018128049,0.18135963,-0.99052274,0.11652941,0.0727033,0.122410834,0.9890448,0.08249816,-0.062293362,0.09061599,-0.99393564,,-0.3389121321853426,-0.05598209060525347,0.1091865067,-0.00020968994348452436,0.00013663649976544044,0.0002152970568658275,0.0,,-1.4636123343230292,0.1798238349763177,0.08948419499000002,-0.007339148021958352,-0.017352835470210937,-0.0016139230776829935,0.001796784727477069
2.000839665008243,,0.02969803,0.03864518,0.33111635,-0.7139556,-0.5599427,-0.42039484,-0.68686414,0.44349986,0.5757825,-0.13596013,0.69983715,-0.70124364,,0.0010173805,-0.0050138608,0.5750092,0.5436193,-0.8102201,0.2191381,-0.66337,-0.25479543,0.70357615,-0.5142161,-0.5278472,-0.67598736,,0.02466717,-0.018128049,0.18135963,-0.99052274,0.11652941,0.0727033,0.122410834,0.9890448,0.08249816,-0.062293362,0.09061599,-0.99393564,,-0.33891985491821686,-0.05598209060525347,0.1091865067,-0.00020968994348452436,0.00013663649976544044,0.0002152970568658275,0.0,,-1.4636123343230292,0.1798238349763177,0.08948419499000002,-0.007339148021958352,-0.017352835470210937,-0.0016139230776829935,0.001796784727477069
2.0301954899914563,,0.029697586,0.038645547,0.3311169,-0.71395534,-0.55993974,-0.42039922,-0.6868644,0.4434951,0.57578593,-0.13596043,0.6998425,-0.70123816,,0.0010184087,-0.0050135367,0.5750099,0.54362136,-0.8102155,0.21915051,-0.6633695,-0.25478637,0.70357996,-0.51421475,-0.52785873,-0.6759794,,0.02466717,-0.018128049,0.18135963,-0.99052274,0.11652941,0.0727033,0.122410834,0.9890448,0.08249816,-0.062293362,0.09061599,-0.99393564,,-0.33891985491821686,-0.05598209060525347,0.1091865067,-0.00020968994348452436,0.00013663649976544044,0.0002152970568658275,0.0,,-1.4636277797887776,0.1798238349763177,0.08948419499000002,-0.007339148021958352,-0.017352835470210937,-0.0016139230776829935,0.001796784727477069
2.0523220429895446,,0.029697143,0.03864589,0.33111745,-0.71395504,-0.5599368,-0.4204035,-0.68686455,0.44349042,0.57578933,-0.13596073,0.6998479,-0.70123285,,0.0010184087,-0.0050135367,0.5750099,0.54362136,-0.8102155,0.21915051,-0.6633695,-0.25478637,0.70357996,-0.51421475,-0.52785873,-0.6759794,,0.02466717,-0.018128049,0.18135963,-0.99052274,0.11652941,0.0727033,0.122410834,0.9890448,0.08249816,-0.062293362,0.09061599,-0.99393564,,-0.3389121321853426,-0.05598209060525347,0.1091865067,-0.00020968994348452436,0.00013663649976544044,0.0002152970568658275,0.0,,-1.4636277797887776,0.1798238349763177,0.08948419499000002,-0.007339148021958352,-0.017352835470210937,-0.0016139230776829935,0.001796784727477069
2.080203054996673,,0.029697586,0.038645547,0.3311169,-0.71395534,-0.55993974,-0.42039922,-0.6868644,0.4434951,0.57578593,-0.13596043,0.6998425,-0.70123816,,0.0010184087,-0.0050135367,0.5750099,0.54362136,-0.8102155,0.21915051,-0.6633695,-0.25478637,0.70357996,-0.51421475,-0.52785873,-0.6759794,,0.02466717,-0.018128049,0.18135963,-0.99052274,0.11652941,0.0727033,0.122410834,0.9890448,0.08249816,-0.062293362,0.09061599,-0.99393564,,-0.33891985491821686,-0.05598209060525347,0.1091865067,-0.00020968994348452436,0.00013663649976544044,0.0002152970568658275,0.0,,-1.4636277797887776,0.1798238349763177,0.08948419499000002,-0.007339148021958352,-0.017352835470210937,-0.0016139230776829935,0.001796784727477069
2.1015493129962124,,0.029697586,0.038645547,0.3311169,-0.71395534,-0.55993974,-0.42039922,-0.6868644,0.4434951,0.57578593,-0.13596043,0.6998425,-0.70123816,,0.0010180641,-0.0050131194,0.57501024,0.54362303,-0.81021553,0.21914637,-0.6633641,-0.2547863,0.70358515,-0.51422,-0.5278588,-0.67597544,,0.02466717,-0.018128049,0.18135963,-0.99052274,0.11652941,0.0727033,0.122410834,0.9890448,0.08249816,-0.062293362,0.09061599,-0.99393564,,-0.33891985491821686,-0.05598209060525347,0.1091865067,-0.00020968994348452436,0.00013663649976544044,0.0002152970568658275,0.0,,-1.4636277797887776,0.17983155770919193,0.08948419499000002,-0.007339148021958352,-0.017352835470210937,-0.0016139230776829935,0.001796784727477069
2.1307513429783285,,0.029697143,0.03864589,0.33111745,-0.71395504,-0.5599368,-0.4204035,-0.68686455,0.44349042,0.57578933,-0.13596073,0.6998479,-0.70123285,,0.0010184087,-0.0050135367,0.5750099,0.54362136,-0.8102155,0.21915051,-0.6633695,-0.25478637,0.70357996,-0.51421475,-0.52785873,-0.6759794,,0.02466717,-0.018128049,0.18135963,-0.99052274,0.11652941,0.0727033,0.122410834,0.9890448,0.08249816,-0.062293362,0.09061599,-0.99393564,,-0.3389121321853426,-0.05598209060525347,0.1091865067,-0.00020968994348452436,0.00013663649976544044,0.0002152970568658275,0.0,,-1.4636277797887776,0.1798238349763177,0.08948419499000002,-0.007339148021958352,-0.017352835470210937,-0.0016139230776829935,0.001796784727477069
2.160021283023525,,0.029697143,0.03864589,0.33111745,-0.71395504,-0.5599368,-0.4204035,-0.68686455,0.44349042,0.57578933,-0.13596073,0.6998479,-0.70123285,,0.0010184087,-0.0050135367,0.5750099,0.54362136,-0.8102155,0.21915051,-0.6633695,-0.25478637,0.70357996,-0.51421475,-0.52785873,-0.6759794,,0.02466717,-0.018128049,0.18135963,-0.99052274,0.11652941,0.0727033,0.122410834,0.9890448,0.08249816,-0.062293362,0.09061599,-0.99393564,,-0.3389121321853426,-0.05598209060525347,0.1091865067,-0.00020968994348452436,0.00013663649976544044,0.0002152970568658275,0.0,,-1.4636277797887776,0.1798238349763177,0.08948419499000002,-0.007339148021958352,-0.017352835470210937,-0.0016139230776829935,0.001796784727477069
2.183383146999404,,0.029697143,0.03864589,0.33111745,-0.71395504,-0.5599368,-0.4204035,-0.68686455,0.44349042,0.57578933,-0.13596073,0.6998479,-0.70123285,,0.0010184087,-0.0050135367,0.5750099,0.54362136,-0.8102155,0.21915051,-0.6633695,-0.25478637,0.70357996,-0.51421475,-0.52785873,-0.6759794,,0.02466717,-0.018128049,0.18135963,-0.99052274,0.11652941,0.0727033,0.122410834,0.9890448,0.08249816,-0.062293362,0.09061599,-0.99393564,,-0.3389121321853426,-0.05598209060525347,0.1091865067,-0.00020968994348452436,0.00013663649976544044,0.0002152970568658275,0.0,,-1.4636277797887776,0.1798238349763177,0.08948419499000002,-0.007339148021958352,-0.017352835470210937,-0.0016139230776829935,0.001796784727477069
2.213444034976419,,0.029697143,0.03864589,0.33111745,-0.71395504,-0.5599368,-0.4204035,-0.68686455,0.44349042,0.57578933,-0.13596073,0.6998479,-0.70123285,,0.0010184087,-0.0050135367,0.5750099,0.54362136,-0.8102155,0.21915051,-0.6633695,-0.25478637,0.70357996,-0.51421475,-0.52785873,-0.6759794,,0.02466717,-0.018128049,0.18135963,-0.99052274,0.11652941,0.0727033,0.122410834,0.9890448,0.08249816,-0.062293362,0.09061599,-0.99393564,,-0.3389121321853426,-0.05598209060525347,0.1091865067,-0.00020968994348452436,0.00013663649976544044,0.0002152970568658275,0.0,,-1.4636277797887776,0.1798238349763177,0.08948419499000002,-0.007339148021958352,-0.017352835470210937,-0.0016139230776829935,0.001796784727477069
2.2378126970143057,,0.029697586,0.038645547,0.3311169,-0.71395534,-0.55993974,-0.42039922,-0.6868644,0.4434951,0.57578593,-0.13596043,0.6998425,-0.70123816,,0.0010184087,-0.0050135367,0.5750099,0.54362136,-0.8102155,0.21915051,-0.6633695,-0.25478637,0.70357996,-0.51421475,-0.52785873,-0.6759794,,0.02466717,-0.018128049,0.18135963,-0.99052274,0.11652941,0.0727033,0.122410834,0.9890448,0.08249816,-0.062293362,0.09061599,-0.99393564,,-0.33891985491821686,-0.05598209060525347,0.1091865067,-0.00020968994348452436,0.00013663649976544044,0.0002152970568658275,0.0,,-1.4636277797887776,0.1798238349763177,0.08948419499000002,-0.007339148021958352,-0.017352835470210937,-0.0016139230776829935,0.001796784727477069
2.2661174749955535,,0.029697143,0.03864589,0.33111745,-0.71395504,-0.5599368,-0.4204035,-0.68686455,0.44349042,0.57578933,-0.13596073,0.6998479,-0.70123285,,0.0010178946,-0.0050137006,0.5750096,0.5436203,-0.81019986,0.21921049,-0.6633698,-0.25473344,0.70359886,-0.5142154,-0.5279082,-0.6759403,,0.02466717,-0.018128049,0.18135963,-0.99052274,0.11652941,0.0727033,0.122410834,0.9890448,0.08249816,-0.062293362,0.09061599,-0.99393564,,-0.3389121321853426,-0.05598209060525347,0.1091865067,-0.00020968994348452436,0.00013663649976544044,0.0002152970568658275,0.0,,-1.4636200570559033,0.1798238349763177,0.08948419499000002,-0.007339148021958352,-0.017352835470210937,-0.0016956018178235551,0.0019601287936113505
2.292934659984894,,0.029697143,0.03864589,0.33111745,-0.71395504,-0.5599368,-0.4204035,-0.68686455,0.44349042,0.57578933,-0.13596073,0.6998479,-0.70123285,,0.0010173805,-0.0050138608,0.5750092,0.5436193,-0.81018436,0.21927047,-0.66337,-0.2546805,0.70361775,-0.5142161,-0.5279576,-0.6759011,,0.02466717,-0.018128049,0.18135963,-0.99052274,0.11652941,0.0727033,0.122410834,0.9890448,0.08249816,-0.062293362,0.09061599,-0.99393564,,-0.3389121321853426,-0.05598209060525347,0.1091865067,-0.00020968994348452436,0.00013663649976544044,0.0002152970568658275,0.0,,-1.4636123343230292,0.1798238349763177,0.08948419499000002,-0.007339148021958352,-0.017352835470210937,-0.0017772805579641168,0.0021234728597456284
2.3177963870111853,,0.029697143,0.03864589,0.33111745,-0.71395504,-0.5599368,-0.4204035,-0.68686455,0.44349042,0.57578933,-0.13596073,0.6998479,-0.70123285,,0.0010170359,-0.005013436,0.5750096,0.54362094,-0.81018436,0.21926633,-0.6633645,-0.25468045,0.70362294,-0.5142214,-0.5279577,-0.6758971,,0.02466717,-0.018128049,0.18135963,-0.99052274,0.11652941,0.0727033,0.122410834,0.9890448,0.08249816,-0.062293362,0.09061599,-0.99393564,,-0.3389121321853426,-0.05598209060525347,0.1091865067,-0.00020968994348452436,0.00013663649976544044,0.0002152970568658275,0.0,,-1.4636123343230292,0.17983155770919193,0.08948419499000002,-0.007339148021958352,-0.017352835470210937,-0.0017772805579641168,0.0021234728597456284
2.347828379017301,,0.029697143,0.03864589,0.33111745,-0.71395504,-0.5599368,-0.4204035,-0.68686455,0.44349042,0.57578933,-0.13596073,0.6998479,-0.70123285,,0.0010173805,-0.0050138608,0.5750092,0.5436193,-0.81018436,0.21927047,-0.66337,-0.2546805,0.70361775,-0.5142161,-0.5279576,-0.6759011,,0.02466717,-0.018128049,0.18135963,-0.99052274,0.11652941,0.0727033,0.122410834,0.9890448,0.08249816,-0.062293362,0.09061599,-0.99393564,,-0.3389121321853426,-0.05598209060525347,0.1091865067,-0.00020968994348452436,0.00013663649976544044,0.0002152970568658275,0.0,,-1.4636123343230292,0.1798238349763177,0.08948419499000002,-0.007339148021958352,-0.017352835470210937,-0.0017772805579641168,0.0021234728597456284
2.373705047997646,,0.029697143,0.03864589,0.33111745,-0.71395504,-0.5599368,-0.4204035,-0.68686455,0.44349042,0.57578933,-0.13596073,0.6998479,-0.70123285,,0.0010173805,-0.0050138608,0.5750092,0.5436193,-0.81018436,0.21927047,-0.66337,-0.2546805,0.70361775,-0.5142161,-0.5279576,-0.6759011,,0.02466717,-0.018128049,0.18135963,-0.99052274,0.11652941,0.0727033,0.122410834,0.9890448,0.08249816,-0.062293362,0.09061599,-0.99393564,,-0.3389121321853426,-0.05598209060525347,0.1091865067,-0.00020968994348452436,0.00013663649976544044,0.0002152970568658275,0.0,,-1.4636123343230292,0.1798238349763177,0.08948419499000002,-0.007339148021958352,-0.017352835470210937,-0.0017772805579641168,0.0021234728597456284
2.3995322289993055,,0.029697143,0.03864589,0.33111745,-0.71407247,-0.55978715,-0.42040345,-0.6867715,0.44363445,0.5757893,-0.13581401,0.6998763,-0.70123285,,0.0010173805,-0.0050138608,0.5750092,0.5436193,-0.81018436,0.21927047,-0.66337,-0.2546805,0.70361775,-0.5142161,-0.5279576,-0.6759011,,0.02466717,-0.018128049,0.18135963,-0.99052274,0.11652941,0.0727033,0.122410834,0.9890448,0.08249816,-0.062293362,0.09061599,-0.99393564,,-0.3389121321853426,-0.05598209060525347,0.1091865067,0.0,0.00013663649976544044,0.0002152970568658275,0.0,,-1.4636123343230292,0.1798238349763177,0.08948419499000002,-0.007339148021958352,-0.017352835470210937,-0.0017772805579641168,0.0021234728597456284
2.4266710410011,,0.029697143,0.03864589,0.33111745,-0.7141899,-0.5596373,-0.4204034,-0.68667847,0.44377849,0.57578933,-0.1356673,0.6999048,-0.70123285,,0.0010173805,-0.0050138608,0.5750092,0.5436193,-0.81018436,0.21927047,-0.66337,-0.2546805,0.70361775,-0.5142161,-0.5279576,-0.6759011,,0.02466717,-0.018128049,0.18135963,-0.99052274,0.11652941,0.0727033,0.122410834,0.9890448,0.08249816,-0.062293362,0.09061599,-0.99393564,,-0.3389121321853426,-0.05598209060525347,0.1091865067,0.00020968994348452436,0.00013663649976544044,0.0002152970568658275,0.0,,-1.4636123343230292,0.17983155770919193,0.08948419499000002,-0.007339148021958352,-0.017352835470210937,-0.0017772805579641168,0.0021234728597456284
2.4512927400064655,,0.029697143,0.03864589,0.33111745,-0.7141899,-0.5596373,-0.4204034,-0.68667847,0.44377849,0.57578933,-0.1356673,0.6999048,-0.70123285,,0.0010170359,-0.005013436,0.5750096,0.54362094,-0.81018436,0.21926633,-0.6633645,-0.25468045,0.70362294,-0.5142214,-0.5279577,-0.6758971,,0.02466717,-0.018128049,0.18135963,-0.99052274,0.11652941,0.0727033,0.122410834,0.9890448,0.08249816,-0.062293362,0.09061599,-0.99393564,,-0.3389121321853426,-0.05598209060525347,0.1091865067,0.00020968994348452436,0.00013663649976544044,0.0002152970568658275,0.0,,-1.4636123343230292,0.17983155770919193,0.08948419499000002,-0.007339148021958352,-0.017352835470210937,-0.0017772805579641168,0.0021234728597456284
2.4793773500132374,,0.029697586,0.038645547,0.3311169,-0.7141901,-0.5596403,-0.4203991,-0.68667823,0.44378316,0.57578593,-0.13566698,0.69989944,-0.7012382,,0.0010178946,-0.0050137006,0.5750096,0.5436203,-0.810182,0.21927667,-0.6633698,-0.25467598,0.7036197,-0.5142154,-0.5279634,-0.6758971,,0.02466717,-0.018128049,0.18135963,-0.99052274,0.11652941,0.0727033,0.122410834,0.9890448,0.08249816,-0.062293362,0.09061599,-0.99393564,,-0.33891985491821686,-0.05598209060525347,0.1091865067,0.00020968994348452436,0.00013663649976544044,0.0002152970568658275,0.0,,-1.4636200570559033,0.1798238349763177,0.08948419499000002,-0.007339148021958352,-0.017352835470210937,-0.0017772805579641168,0.0021234728597456284
2.5035343099734746,,0.029697586,0.038645547,0.3311169,-0.7141901,-0.5596403,-0.4203991,-0.68667823,0.44378316,0.57578593,-0.13566698,0.69989944,-0.7012382,,0.0010173805,-0.0050138608,0.5750092,0.5436193,-0.81018436,0.21927047,-0.66337,-0.2546805,0.70361775,-0.5142161,-0.5279576,-0.6759011,,0.02466717,-0.018128049,0.18135963,-0.99052274,0.11652941,0.0727033,0.122410834,0.9890448,0.08249816,-0.062293362,0.09061599,-0.99393564,,-0.33891985491821686,-0.05598209060525347,0.1091865067,0.00020968994348452436,0.00013663649976544044,0.0002152970568658275,0.0,,-1.4636123343230292,0.1798238349763177,0.08948419499000002,-0.007339148021958352,-0.017352835470210937,-0.0017772805579641168,0.0021234728597456284
2.5309037850238383,,0.029697143,0.03864589,0.33111745,-0.7141899,-0.5596373,-0.4204034,-0.68667847,0.44377849,0.57578933,-0.1356673,0.6999048,-0.70123285,,0.0010173805,-0.0050138608,0.5750092,0.5436193,-0.81018436,0.21927047,-0.66337,-0.2546805,0.70361775,-0.5142161,-0.5279576,-0.6759011,,0.02466717,-0.018128049,0.18135963,-0.99052274,0.11652941,0.0727033,0.122410834,0.9890448,0.08249816,-0.062293362,0.09061599,-0.99393564,,-0.3389121321853426,-0.05598209060525347,0.1091865067,0.00020968994348452436,0.00013663649976544044,0.0002152970568658275,0.0,,-1.4636123343230292,0.1798238349763177,0.08948419499000002,-0.007339148021958352,-0.017352835470210937,-0.0017772805579641168,0.0021234728597456284
2.5523136840201914,,0.029697143,0.03864589,0.33111745,-0.7141899,-0.5596373,-0.4204034,-0.68667847,0.44377849,0.57578933,-0.1356673,0.6999048,-0.70123285,,0.0010170359,-0.005013436,0.5750096,0.54362094,-0.81018436,0.21926633,-0.6633645,-0.25468045,0.70362294,-0.5142214,-0.5279577,-0.6758971,,0.02466717,-0.018128049,0.18135963,-0.99052274,0.11652941,0.0727033,0.122410834,0.9890448,0.08249816,-0.062293362,0.09061599,-0.99393564,,-0.3389121321853426,-0.05598209060525347,0.1091865067,0.00020968994348452436,0.00013663649976544044,0.0002152970568658275,0.0,,-1.4636123343230292,0.17983155770919193,0.08948419499000002,-0.007339148021958352,-0.017352835470210937,-0.0017772805579641168,0.0021234728597456284
2.581753976002801,,0.029697143,0.03864589,0.33111745,-0.7141899,-0.5596373,-0.4204034,-0.68667847,0.44377849,0.57578933,-0.1356673,0.6999048,-0.70123285,,0.0010170359,-0.005013436,0.5750096,0.54362094,-0.81018436,0.21926633,-0.6633645,-0.25468045,0.70362294,-0.5142214,-0.5279577,-0.6758971,,0.02466717,-0.018128049,0.18135963,-0.99052274,0.11652941,0.0727033,0.122410834,0.9890448,0.08249816,-0.062293362,0.09061599,-0.99393564,,-0.3389121321853426,-0.05598209060525347,0.1091865067,0.00020968994348452436,0.00013663649976544044,0.0002152970568658275,0.0,,-1.4636123343230292,0.17983155770919193,0.08948419499000002,-0.007339148021958352,-0.017352835470210937,-0.0017772805579641168,0.0021234728597456284
2.6121621489874087,,0.029697143,0.03864589,0.33111745,-0.7141899,-0.5596373,-0.4204034,-0.68667847,0.44377849,0.57578933,-0.1356673,0.6999048,-0.70123285,,0.0010173805,-0.0050138608,0.5750092,0.5436193,-0.81018436,0.21927047,-0.66337,-0.2546805,0.70361775,-0.5142161,-0.5279576,-0.6759011,,0.02466717,-0.018128049,0.18135963,-0.99052274,0.11652941,0.0727033,0.122410834,0.9890448,0.08249816,-0.062293362,0.09061599,-0.99393564,,-0.3389121321853426,-0.05598209060525347,0.1091865067,0.00020968994348452436,0.00013663649976544044,0.0002152970568658275,0.0,,-1.4636123343230292,0.1798238349763177,0.08948419499000002,-0.007339148021958352,-0.017352835470210937,-0.0017772805579641168,0.0021234728597456284
2.6432423570076935,,0.029697143,0.03864589,0.33111745,-0.7141899,-0.5596373,-0.4204034,-0.68667847,0.44377849,0.57578933,-0.1356673,0.6999048,-0.70123285,,0.0010178946,-0.0050137006,0.5750096,0.5436203,-0.810182,0.21927667,-0.6633698,-0.25467598,0.7036197,-0.5142154,-0.5279634,-0.6758971,,0.02466717,-0.018128049,0.18135963,-0.99052274,0.11652941,0.0727033,0.122410834,0.9890448,0.08249816,-0.062293362,0.09061599,-0.99393564,,-0.3389121321853426,-0.05598209060525347,0.1091865067,0.00020968994348452436,0.00013663649976544044,0.0002152970568658275,0.0,,-1.4636200570559033,0.1798238349763177,0.08948419499000002,-0.007339148021958352,-0.017352835470210937,-0.0017772805579641168,0.0021234728597456284
2.6715441800188273,,0.029697143,0.03864589,0.33111745,-0.7141899,-0.5596373,-0.4204034,-0.68667847,0.44377849,0.57578933,-0.1356673,0.6999048,-0.70123285,,0.0010178946,-0.0050137006,0.5750096,0.5436203,-0.810182,0.21927667,-0.6633698,-0.25467598,0.7036197,-0.5142154,-0.5279634,-0.6758971,,0.02466717,-0.018128049,0.18135963,-0.99052274,0.11652941,0.0727033,0.122410834,0.9890448,0.08249816,-0.062293362,0.09061599,-0.99393564,,-0.3389121321853426,-0.05598209060525347,0.1091865067,0.00020968994348452436,0.00013663649976544044,0.0002152970568658275,0.0,,-1.4636200570559033,0.1798238349763177,0.08948419499000002,-0.007339148021958352,-0.017352835470210937,-0.0017772805579641168,0.0021234728597456284
2.705411967006512,,0.029697143,0.03864589,0.33111745,-0.7141899,-0.5596373,-0.4204034,-0.68667847,0.44377849,0.57578933,-0.1356673,0.6999048,-0.70123285,,0.0010184087,-0.0050135367,0.5750099,0.54362136,-0.81017965,0.21928287,-0.6633695,-0.25467142,0.7036216,-0.51421475,-0.5279692,-0.6758932,,0.02466717,-0.018128049,0.18135963,-0.99052274,0.11652941,0.0727033,0.122410834,0.9890448,0.08249816,-0.062293362,0.09061599,-0.99393564,,-0.3389121321853426,-0.05598209060525347,0.1091865067,0.00020968994348452436,0.00013663649976544044,0.0002152970568658275,0.0,,-1.4636277797887776,0.1798238349763177,0.08948419499000002,-0.007339148021958352,-0.017352835470210937,-0.0017772805579641168,0.0021234728597456284
2.729127916973084,,0.029697143,0.03864589,0.33111745,-0.7141899,-0.5596373,-0.4204034,-0.68667847,0.44377849,0.57578933,-0.1356673,0.6999048,-0.70123285,,0.0010184087,-0.0050135367,0.5750099,0.54362136,-0.81017965,0.21928287,-0.6633695,-0.25467142,0.7036216,-0.51421475,-0.5279692,-0.6758932,,0.02466717,-0.018128049,0.18135963,-0.99052274,0.11652941,0.0727033,0.122410834,0.9890448,0.08249816,-0.062293362,0.09061599,-0.99393564,,-0.3389121321853426,-0.05598209060525347,0.1091865067,0.00020968994348452436,0.00013663649976544044,0.0002152970568658275,0.0,,-1.4636277797887776,0.1798238349763177,0.08948419499000002,-0.007339148021958352,-0.017352835470210937,-0.0017772805579641168,0.0021234728597456284
2.7561990930116735,,0.029697143,0.03864589,0.33111745,-0.7141899,-0.5596373,-0.4204034,-0.68667847,0.44377849,0.57578933,-0.1356673,0.6999048,-0.70123285,,0.0010184087,-0.0050135367,0.5750099,0.54362136,-0.81017965,0.21928287,-0.6633695,-0.25467142,0.7036216,-0.51421475,-0.5279692,-0.6758932,,0.02466717,-0.018128049,0.18135963,-0.99052274,0.11652941,0.0727033,0.122410834,0.9890448,0.08249816,-0.062293362,0.09061599,-0.99393564,,-0.3389121321853426,-0.05598209060525347,0.1091865067,0.00020968994348452436,0.00013663649976544044,0.0002152970568658275,0.0,,-1.4636277797887776,0.1798238349763177,0.08948419499000002,-0.007339148021958352,-0.017352835470210937,-0.0017772805579641168,0.0021234728597456284
2.7842508120229468,,0.029697143,0.03864589,0.33111745,-0.7141899,-0.5596373,-0.4204034,-0.68667847,0.44377849,0.57578933,-0.1356673,0.6999048,-0.70123285,,0.0010180641,-0.0050131194,0.57501024,0.54362303,-0.81017965,0.2192787,-0.6633641,-0.2546714,0.7036267,-0.51422,-0.52796924,-0.67588913,,0.02466717,-0.018128049,0.18135963,-0.99052274,0.11652941,0.0727033,0.122410834,0.9890448,0.08249816,-0.062293362,0.09061599,-0.99393564,,-0.3389121321853426,-0.05598209060525347,0.1091865067,0.00020968994348452436,0.00013663649976544044,0.0002152970568658275,0.0,,-1.4636277797887776,0.17983155770919193,0.08948419499000002,-0.007339148021958352,-0.017352835470210937,-0.0017772805579641168,0.0021234728597456284
2.8120449570124038,,0.029697586,0.038645547,0.3311169,-0.7141901,-0.5596403,-0.4203991,-0.68667823,0.44378316,0.57578593,-0.13566698,0.69989944,-0.7012382,,0.0010184087,-0.0050135367,0.5750099,0.54362136,-0.81017965,0.21928287,-0.6633695,-0.25467142,0.7036216,-0.51421475,-0.5279692,-0.6758932,,0.02466717,-0.018128049,0.18135963,-0.99052274,0.11652941,0.0727033,0.122410834,0.9890448,0.08249816,-0.062293362,0.09061599,-0.99393564,,-0.33891985491821686,-0.05598209060525347,0.1091865067,0.00020968994348452436,0.00013663649976544044,0.0002152970568658275,0.0,,-1.4636277797887776,0.1798238349763177,0.08948419499000002,-0.007339148021958352,-0.017352835470210937,-0.0017772805579641168,0.0021234728597456284
2.8357847640290856,,0.029697143,0.03864589,0.33111745,-0.7141899,-0.5596373,-0.4204034,-0.68667847,0.44377849,0.57578933,-0.1356673,0.6999048,-0.70123285,,0.0010184087,-0.0050135367,0.5750099,0.54362136,-0.81017965,0.21928287,-0.6633695,-0.25467142,0.7036216,-0.51421475,-0.5279692,-0.6758932,,0.02466717,-0.018128049,0.18135963,-0.99052274,0.11652941,0.0727033,0.122410834,0.9890448,0.08249816,-0.062293362,0.09061599,-0.99393564,,-0.3389121321853426,-0.05598209060525347,0.1091865067,0.00020968994348452436,0.00013663649976544044,0.0002152970568658275,0.0,,-1.4636277797887776,0.1798238349763177,0.08948419499000002,-0.007339148021958352,-0.017352835470210937,-0.0017772805579641168,0.0021234728597456284
2.8625036400044337,,0.029697586,0.038645547,0.3311169,-0.7141901,-0.5596403,-0.4203991,-0.68667823,0.44378316,0.57578593,-0.13566698,0.69989944,-0.7012382,,0.0010184087,-0.0050135367,0.5750099,0.54362136,-0.81017965,0.21928287,-0.6633695,-0.25467142,0.7036216,-0.51421475,-0.5279692,-0.6758932,,0.02466717,-0.018128049,0.18135963,-0.99052274,0.11652941,0.0727033,0.122410834,0.9890448,0.08249816,-0.062293362,0.09061599,-0.99393564,,-0.33891985491821686,-0.05598209060525347,0.1091865067,0.00020968994348452436,0.00013663649976544044,0.0002152970568658275,0.0,,-1.4636277797887776,0.1798238349763177,0.08948419499000002,-0.007339148021958352,-0.017352835470210937,-0.0017772805579641168,0.0021234728597456284
2.8897394990199246,,0.029697143,0.03864589,0.33111745,-0.7141899,-0.5596373,-0.4204034,-0.68667847,0.44377849,0.57578933,-0.1356673,0.6999048,-0.70123285,,0.0010184087,-0.0050135367,0.5750099,0.54362136,-0.81017965,0.21928287,-0.6633695,-0.25467142,0.7036216,-0.51421475,-0.5279692,-0.6758932,,0.02466717,-0.018128049,0.18135963,-0.99052274,0.11652941,0.0727033,0.122410834,0.9890448,0.08249816,-0.062293362,0.09061599,-0.99393564,,-0.3389121321853426,-0.05598209060525347,0.1091865067,0.00020968994348452436,0.00013663649976544044,0.0002152970568658275,0.0,,-1.4636277797887776,0.1798238349763177,0.08948419499000002,-0.007339148021958352,-0.017352835470210937,-0.0017772805579641168,0.0021234728597456284
2.9165742589975707,,0.029697143,0.03864589,0.33111745,-0.7141899,-0.5596373,-0.4204034,-0.68667847,0.44377849,0.57578933,-0.1356673,0.6999048,-0.70123285,,0.0010170359,-0.005013436,0.5750096,0.54362094,-0.81018436,0.21926633,-0.6633645,-0.25468045,0.70362294,-0.5142214,-0.5279577,-0.6758971,,0.02466717,-0.018128049,0.18135963,-0.99052274,0.11652941,0.0727033,0.122410834,0.9890448,0.08249816,-0.062293362,0.09061599,-0.99393564,,-0.3389121321853426,-0.05598209060525347,0.1091865067,0.00020968994348452436,0.00013663649976544044,0.0002152970568658275,0.0,,-1.4636123343230292,0.17983155770919193,0.08948419499000002,-0.007339148021958352,-0.017352835470210937,-0.0017772805579641168,0.0021234728597456284
2.9443876689765602,,0.029697586,0.038645547,0.3311169,-0.7141901,-0.5596403,-0.4203991,-0.68667823,0.44378316,0.57578593,-0.13566698,0.69989944,-0.7012382,,0.0010173805,-0.0050138608,0.5750092,0.5436193,-0.81018436,0.21927047,-0.66337,-0.2546805,0.70361775,-0.5142161,-0.5279576,-0.6759011,,0.02466717,-0.018128049,0.18135963,-0.99052274,0.11652941,0.0727033,0.122410834,0.9890448,0.08249816,-0.062293362,0.09061599,-0.99393564,,-0.33891985491821686,-0.05598209060525347,0.1091865067,0.00020968994348452436,0.00013663649976544044,0.0002152970568658275,0.0,,-1.4636123343230292,0.1798238349763177,0.08948419499000002,-0.007339148021958352,-0.017352835470210937,-0.0017772805579641168,0.0021234728597456284
2.966767115984112,,0.029697143,0.03864589,0.33111745,-0.7141899,-0.5596373,-0.4204034,-0.68667847,0.44377849,0.57578933,-0.1356673,0.6999048,-0.70123285,,0.0010178946,-0.0050137006,0.5750096,0.5436203,-0.810182,0.21927667,-0.6633698,-0.25467598,0.7036197,-0.5142154,-0.5279634,-0.6758971,,0.02466717,-0.018128049,0.18135963,-0.99052274,0.11652941,0.0727033,0.122410834,0.9890448,0.08249816,-0.062293362,0.09061599,-0.99393564,,-0.3389121321853426,-0.05598209060525347,0.1091865067,0.00020968994348452436,0.00013663649976544044,0.0002152970568658275,0.0,,-1.4636200570559033,0.1798238349763177,0.08948419499000002,-0.007339148021958352,-0.017352835470210937,-0.0017772805579641168,0.0021234728597456284
2.9953179539879784,,0.029697143,0.03864589,0.33111745,-0.7141899,-0.5596373,-0.4204034,-0.68667847,0.44377849,0.57578933,-0.1356673,0.6999048,-0.70123285,,0.0010178946,-0.0050137006,0.5750096,0.5436203,-0.810182,0.21927667,-0.6633698,-0.25467598,0.7036197,-0.5142154,-0.5279634,-0.6758971,,0.02466717,-0.018128049,0.18135963,-0.99052274,0.11652941,0.0727033,0.122410834,0.9890448,0.08249816,-0.062293362,0.09061599,-0.99393564,,-0.3389121321853426,-0.05598209060525347,0.1091865067,0.00020968994348452436,0.00013663649976544044,0.0002152970568658275,0.0,,-1.4636200570559033,0.1798238349763177,0.08948419499000002,-0.007339148021958352,-0.017352835470210937,-0.0017772805579641168,0.0021234728597456284
3.01882850099355,,0.029697143,0.03864589,0.33111745,-0.7141899,-0.5596373,-0.4204034,-0.68667847,0.44377849,0.57578933,-0.1356673,0.6999048,-0.70123285,,0.0010184087,-0.0050135367,0.5750099,0.54362136,-0.81017965,0.21928287,-0.6633695,-0.25467142,0.7036216,-0.51421475,-0.5279692,-0.6758932,,0.02466717,-0.018128049,0.18135963,-0.99052274,0.11652941,0.0727033,0.122410834,0.9890448,0.08249816,-0.062293362,0.09061599,-0.99393564,,-0.3389121321853426,-0.05598209060525347,0.1091865067,0.00020968994348452436,0.00013663649976544044,0.0002152970568658275,0.0,,-1.4636277797887776,0.1798238349763177,0.08948419499000002,-0.007339148021958352,-0.017352835470210937,-0.0017772805579641168,0.0021234728597456284
3.0491471069981344,,0.029697143,0.03864589,0.33111745,-0.7141899,-0.5596373,-0.4204034,-0.68667847,0.44377849,0.57578933,-0.1356673,0.6999048,-0.70123285,,0.0010184087,-0.0050135367,0.5750099,0.54362136,-0.81017965,0.21928287,-0.6633695,-0.25467142,0.7036216,-0.51421475,-0.5279692,-0.6758932,,0.02466717,-0.018128049,0.18135963,-0.99052274,0.11652941,0.0727033,0.122410834,0.9890448,0.08249816,-0.062293362,0.09061599,-0.99393564,,-0.3389121321853426,-0.05598209060525347,0.1091865067,0.00020968994348452436,0.00013663649976544044,0.0002152970568658275,0.0,,-1.4636277797887776,0.1798238349763177,0.08948419499000002,-0.007339148021958352,-0.017352835470210937,-0.0017772805579641168,0.0021234728597456284
3.0759863079874776,,0.029697586,0.038645547,0.3311169,-0.7141901,-0.5596403,-0.4203991,-0.68667823,0.44378316,0.57578593,-0.13566698,0.69989944,-0.7012382,,0.0010175481,-0.0050132796,0.5750099,0.54362196,-0.81018203,0.21927251,-0.66336435,-0.25467592,0.70362484,-0.51422065,-0.52796346,-0.6758932,,0.02466717,-0.018128049,0.18135963,-0.99052274,0.11652941,0.0727033,0.122410834,0.9890448,0.08249816,-0.062293362,0.09061599,-0.99393564,,-0.33891985491821686,-0.05598209060525347,0.1091865067,0.00020968994348452436,0.00013663649976544044,0.0002152970568658275,0.0,,-1.4636200570559033,0.17983155770919193,0.08948419499000002,-0.007339148021958352,-0.017352835470210937,-0.0017772805579641168,0.0021234728597456284
3.1000716679845937,,0.029651698,0.038672823,0.33111405,-0.7141016,-0.55976313,-0.42038566,-0.6867394,0.44364178,0.5758221,-0.13582331,0.69989085,-0.7012166,,0.0010667015,-0.004985079,0.5749954,0.5436769,-0.8101646,0.21920046,-0.6632971,-0.2547322,0.70366806,-0.5142494,-0.527963,-0.67587155,,0.024655087,-0.018126354,0.18135798,-0.9905182,0.11656441,0.07270738,0.12244609,0.9890406,0.08249766,-0.06229424,0.09061818,-0.9939354,,-0.3389121321853426,-0.05598209060525347,0.1091865067,0.0,0.00013663649976544044,0.0002152970568658275,0.0,,-1.4636200570559033,0.17983155770919193,0.08948419499000002,-0.007339148021958352,-0.017352835470210937,-0.0017772805579641168,0.0021234728597456284
3.1293635480105877,,0.029651698,0.038672823,0.33111405,-0.7139842,-0.55991274,-0.42038572,-0.68683255,0.44349775,0.5758221,-0.13597004,0.69986236,-0.7012166,,0.0010665357,-0.0049856566,0.5749947,0.5436742,-0.81016684,0.21919844,-0.6633028,-0.25473678,0.7036611,-0.51424485,-0.5279572,-0.6758796,,0.024655087,-0.018126354,0.18135798,-0.9905182,0.11656441,0.07270738,0.12244609,0.9890406,0.08249766,-0.06229424,0.09061818,-0.9939354,,-0.3389121321853426,-0.05598209060525347,0.1091865067,-0.00020968994348452436,0.00013663649976544044,0.0002152970568658275,0.0,,-1.4636123343230292,0.1798238349763177,0.08948419499000002,-0.007339148021958352,-0.017352835470210937,-0.0017772805579641168,0.0021234728597456284
3.1561027779825963,,0.029652143,0.038672473,0.33111352,-0.7139845,-0.5599158,-0.42038143,-0.68683225,0.4435025,0.57581866,-0.13596973,0.699857,-0.70122194,,0.0010665357,-0.0049856566,0.5749947,0.5436742,-0.81016684,0.21919844,-0.6633028,-0.25473678,0.7036611,-0.51424485,-0.5279572,-0.6758796,,0.024655087,-0.018126354,0.18135798,-0.9905182,0.11656441,0.07270738,0.12244609,0.9890406,0.08249766,-0.06229424,0.09061818,-0.9939354,,-0.33891985491821686,-0.05598209060525347,0.1091865067,-0.00020968994348452436,0.00013663649976544044,0.0002152970568658275,0.0,,-1.4636123343230292,0.1798238349763177,0.08948419499000002,-0.007339148021958352,-0.017352835470210937,-0.0017772805579641168,0.0021234728597456284
3.1824053180171177,,0.029652143,0.038672473,0.33111352,-0.7139845,-0.5599158,-0.42038143,-0.68683225,0.4435025,0.57581866,-0.13596973,0.699857,-0.70122194,,0.0010670498,-0.0049855,0.57499504,0.54367524,-0.8101646,0.21920462,-0.6633025,-0.25473222,0.70366293,-0.5142442,-0.527963,-0.6758756,,0.024655087,-0.018126354,0.18135798,-0.9905182,0.11656441,0.07270738,0.12244609,0.9890406,0.08249766,-0.06229424,0.09061818,-0.9939354,,-0.33891985491821686,-0.05598209060525347,0.1091865067,-0.00020968994348452436,0.00013663649976544044,0.0002152970568658275,0.0,,-1.4636200570559033,0.1798238349763177,0.08948419499000002,-0.007339148021958352,-0.017352835470210937,-0.0017772805579641168,0.0021234728597456284
3.208887320011854,,0.029652143,0.038672473,0.33111352,-0.7139845,-0.5599158,-0.42038143,-0.68683225,0.4435025,0.57581866,-0.13596973,0.699857,-0.70122194,,0.0010675639,-0.004985336,0.5749954,0.54367626,-0.8101622,0.21921082,-0.6633022,-0.2547277,0.70366484,-0.5142435,-0.52796876,-0.6758716,,0.024655087,-0.018126354,0.18135798,-0.9905182,0.11656441,0.07270738,0.12244609,0.9890406,0.08249766,-0.06229424,0.09061818,-0.9939354,,-0.33891985491821686,-0.05598209060525347,0.1091865067,-0.00020968994348452436,0.00013663649976544044,0.0002152970568658275,0.0,,-1.4636277797887776,0.1798238349763177,0.08948419499000002,-0.007339148021958352,-0.017352835470210937,-0.0017772805579641168,0.0021234728597456284
3.2329850789974444,,0.029651698,0.038672823,0.33111405,-0.7139842,-0.55991274,-0.42038572,-0.68683255,0.44349775,0.5758221,-0.13597004,0.69986236,-0.7012166,,0.0010675639,-0.004985336,0.5749954,0.54367626,-0.8101622,0.21921082,-0.6633022,-0.2547277,0.70366484,-0.5142435,-0.52796876,-0.6758716,,0.024655087,-0.018126354,0.18135798,-0.9905182,0.11656441,0.07270738,0.12244609,0.9890406,0.08249766,-0.06229424,0.09061818,-0.9939354,,-0.3389121321853426,-0.05598209060525347,0.1091865067,-0.00020968994348452436,0.00013663649976544044,0.0002152970568658275,0.0,,-1.4636277797887776,0.1798238349763177,0.08948419499000002,-0.007339148021958352,-0.017352835470210937,-0.0017772805579641168,0.0021234728597456284
3.25961352098966,,0.029652143,0.038672473,0.33111352,-0.7139845,-0.5599158,-0.42038143,-0.68683225,0.4435025,0.57581866,-0.13596973,0.699857,-0.70122194,,0.0010672156,-0.004984919,0.5749957,0.5436779,-0.8101622,0.21920666,-0.6632968,-0.25472766,0.70367,-0.51424867,-0.5279688,-0.67586756,,0.024655087,-0.018126354,0.18135798,-0.9905182,0.11656441,0.07270738,0.12244609,0.9890406,0.08249766,-0.06229424,0.09061818,-0.9939354,,-0.33891985491821686,-0.05598209060525347,0.1091865067,-0.00020968994348452436,0.00013663649976544044,0.0002152970568658275,0.0,,-1.4636277797887776,0.17983155770919193,0.08948419499000002,-0.007339148021958352,-0.017352835470210937,-0.0017772805579641168,0.0021234728597456284
3.283628299017437,,0.029652143,0.038672473,0.33111352,-0.7139845,-0.5599158,-0.42038143,-0.68683225,0.4435025,0.57581866,-0.13596973,0.699857,-0.70122194,,0.0010667015,-0.004985079,0.5749954,0.5436769,-0.8101646,0.21920046,-0.6632971,-0.2547322,0.70366806,-0.5142494,-0.527963,-0.67587155,,0.024655087,-0.018126354,0.18135798,-0.9905182,0.11656441,0.07270738,0.12244609,0.9890406,0.08249766,-0.06229424,0.09061818,-0.9939354,,-0.33891985491821686,-0.05598209060525347,0.1091865067,-0.00020968994348452436,0.00013663649976544044,0.0002152970568658275,0.0,,-1.4636200570559033,0.17983155770919193,0.08948419499000002,-0.007339148021958352,-0.017352835470210937,-0.0017772805579641168,0.0021234728597456284
3.3133138539851643,,0.029652584,0.03867212,0.33111295,-0.71398467,-0.5599187,-0.4203771,-0.68683213,0.44350725,0.57581526,-0.13596943,0.6998517,-0.70122737,,0.0010665357,-0.0049856566,0.5749947,0.5436742,-0.81016684,0.21919844,-0.6633028,-0.25473678,0.7036611,-0.51424485,-0.5279572,-0.6758796,,0.024655087,-0.018126354,0.18135798,-0.9905182,0.11656441,0.07270738,0.12244609,0.9890406,0.08249766,-0.06229424,0.09061818,-0.9939354,,-0.33892757765109105,-0.05598209060525347,0.1091865067,-0.00020968994348452436,0.00013663649976544044,0.0002152970568658275,0.0,,-1.4636123343230292,0.1798238349763177,0.08948419499000002,-0.007339148021958352,-0.017352835470210937,-0.0017772805579641168,0.0021234728597456284
3.3363431160105392,,0.029652584,0.03867212,0.33111295,-0.71398467,-0.5599187,-0.4203771,-0.68683213,0.44350725,0.57581526,-0.13596943,0.6998517,-0.70122737,,0.0010665357,-0.0049856566,0.5749947,0.5436742,-0.81016684,0.21919844,-0.6633028,-0.25473678,0.7036611,-0.51424485,-0.5279572,-0.6758796,,0.024655087,-0.018126354,0.18135798,-0.9905182,0.11656441,0.07270738,0.12244609,0.9890406,0.08249766,-0.06229424,0.09061818,-0.9939354,,-0.33892757765109105,-0.05598209060525347,0.1091865067,-0.00020968994348452436,0.00013663649976544044,0.0002152970568658275,0.0,,-1.4636123343230292,0.1798238349763177,0.08948419499000002,-0.007339148021958352,-0.017352835470210937,-0.0017772805579641168,0.0021234728597456284
3.3653679590206593,,0.029652584,0.03867212,0.33111295,-0.71398467,-0.5599187,-0.4203771,-0.68683213,0.44350725,0.57581526,-0.13596943,0.6998517,-0.70122737,,0.0010670498,-0.0049855,0.57499504,0.54367524,-0.8101646,0.21920462,-0.6633025,-0.25473222,0.70366293,-0.5142442,-0.527963,-0.6758756,,0.024655087,-0.018126354,0.18135798,-0.9905182,0.11656441,0.07270738,0.12244609,0.9890406,0.08249766,-0.06229424,0.09061818,-0.9939354,,-0.33892757765109105,-0.05598209060525347,0.1091865067,-0.00020968994348452436,0.00013663649976544044,0.0002152970568658275,0.0,,-1.4636200570559033,0.1798238349763177,0.08948419499000002,-0.007339148021958352,-0.017352835470210937,-0.0017772805579641168,0.0021234728597456284
3.3927431509946473,,0.029652143,0.038672473,0.33111352,-0.7139845,-0.5599158,-0.42038143,-0.68683225,0.4435025,0.57581866,-0.13596973,0.699857,-0.70122194,,0.0010670498,-0.0049855,0.57499504,0.54367524,-0.8101646,0.21920462,-0.6633025,-0.25473222,0.70366293,-0.5142442,-0.527963,-0.6758756,,0.024655087,-0.018126354,0.18135798,-0.9905182,0.11656441,0.07270738,0.12244609,0.9890406,0.08249766,-0.06229424,0.09061818,-0.9939354,,-0.33891985491821686,-0.05598209060525347,0.1091865067,-0.00020968994348452436,0.00013663649976544044,0.0002152970568658275,0.0,,-1.4636200570559033,0.1798238349763177,0.08948419499000002,-0.007339148021958352,-0.017352835470210937,-0.0017772805579641168,0.0021234728597456284
3.417509921011515,,0.029651698,0.038672823,0.33111405,-0.7139842,-0.55991274,-0.42038572,-0.68683255,0.44349775,0.5758221,-0.13597004,0.69986236,-0.7012166,,0.0010675639,-0.004985336,0.5749954,0.54367626,-0.8101622,0.21921082,-0.6633022,-0.2547277,0.70366484,-0.5142435,-0.52796876,-0.6758716,,0.024655087,-0.018126354,0.18135798,-0.9905182,0.11656441,0.07270738,0.12244609,0.9890406,0.08249766,-0.06229424,0.09061818,-0.9939354,,-0.3389121321853426,-0.05598209060525347,0.1091865067,-0.00020968994348452436,0.00013663649976544044,0.0002152970568658275,0.0,,-1.4636277797887776,0.1798238349763177,0.08948419499000002,-0.007339148021958352,-0.017352835470210937,-0.0017772805579641168,0.0021234728597456284
3.4451458220137283,,0.029651698,0.038672823,0.33111405,-0.7139842,-0.55991274,-0.42038572,-0.68683255,0.44349775,0.5758221,-0.13597004,0.69986236,-0.7012166,,0.0010667015,-0.004985079,0.5749954,0.5436769,-0.8101646,0.21920046,-0.6632971,-0.2547322,0.70366806,-0.5142494,-0.527963,-0.67587155,,0.024655087,-0.018126354,0.18135798,-0.9905182,0.11656441,0.07270738,0.12244609,0.9890406,0.08249766,-0.06229424,0.09061818,-0.9939354,,-0.3389121321853426,-0.05598209060525347,0.1091865067,-0.00020968994348452436,0.00013663649976544044,0.0002152970568658275,0.0,,-1.4636200570559033,0.17983155770919193,0.08948419499000002,-0.007339148021958352,-0.017352835470210937,-0.0017772805579641168,0.0021234728597456284
3.4676964150276035,,0.029651698,0.038672823,0.33111405,-0.7139842,-0.55991274,-0.42038572,-0.68683255,0.44349775,0.5758221,-0.13597004,0.69986236,-0.7012166,,0.0010667015,-0.004985079,0.5749954,0.5436769,-0.8101646,0.21920046,-0.6632971,-0.2547322,0.70366806,-0.5142494,-0.527963,-0.67587155,,0.024655087,-0.018126354,0.18135798,-0.9905182,0.11656441,0.07270738,0.12244609,0.9890406,0.08249766,-0.06229424,0.09061818,-0.9939354,,-0.3389121321853426,-0.05598209060525347,0.1091865067,-0.00020968994348452436,0.00013663649976544044,0.0002152970568658275,0.0,,-1.4636200570559033,0.17983155770919193,0.08948419499000002,-0.007339148021958352,-0.017352835470210937,-0.0017772805579641168,0.0021234728597456284
3.4961210589972325,,0.029651698,0.038672823,0.33111405,-0.7139842,-0.55991274,-0.42038572,-0.68683255,0.44349775,0.5758221,-0.13597004,0.69986236,-0.7012166,,0.0010665357,-0.0049856566,0.5749947,0.5436742,-0.81016684,0.21919844,-0.6633028,-0.25473678,0.7036611,-0.51424485,-0.5279572,-0.6758796,,0.024655087,-0.018126354,0.18135798,-0.9905182,0.11656441,0.07270738,0.12244609,0.9890406,0.08249766,-0.06229424,0.09061818,-0.9939354,,-0.3389121321853426,-0.05598209060525347,0.1091865067,-0.00020968994348452436,0.00013663649976544044,0.0002152970568658275,0.0,,-1.4636123343230292,0.1798238349763177,0.08948419499000002,-0.007339148021958352,-0.017352835470210937,-0.0017772805579641168,0.0021234728597456284
3.5247373550082557,,0.029651698,0.038672823,0.33111405,-0.7139842,-0.55991274,-0.42038572,-0.68683255,0.44349775,0.5758221,-0.13597004,0.69986236,-0.7012166,,0.0010665357,-0.0049856566,0.5749947,0.5436742,-0.81016684,0.21919844,-0.6633028,-0.25473678,0.7036611,-0.51424485,-0.5279572,-0.6758796,,0.024655087,-0.018126354,0.18135798,-0.9905182,0.11656441,0.07270738,0.12244609,0.9890406,0.08249766,-0.06229424,0.09061818,-0.9939354,,-0.3389121321853426,-0.05598209060525347,0.1091865067,-0.00020968994348452436,0.00013663649976544044,0.0002152970568658275,0.0,,-1.4636123343230292,0.1798238349763177,0.08948419499000002,-0.007339148021958352,-0.017352835470210937,-0.0017772805579641168,0.0021234728597456284
3.5496016619727015,,0.029652143,0.038672473,0.33111352,-0.7139845,-0.5599158,-0.42038143,-0.68683225,0.4435025,0.57581866,-0.13596973,0.699857,-0.70122194,,0.0010665357,-0.0049856566,0.5749947,0.5436742,-0.81016684,0.21919844,-0.6633028,-0.25473678,0.7036611,-0.51424485,-0.5279572,-0.6758796,,0.024655087,-0.018126354,0.18135798,-0.9905182,0.11656441,0.07270738,0.12244609,0.9890406,0.08249766,-0.06229424,0.09061818,-0.9939354,,-0.33891985491821686,-0.05598209060525347,0.1091865067,-0.00020968994348452436,0.00013663649976544044,0.0002152970568658275,0.0,,-1.4636123343230292,0.1798238349763177,0.08948419499000002,-0.007339148021958352,-0.017352835470210937,-0.0017772805579641168,0.0021234728597456284
3.5750357669894584,,0.029651698,0.038672823,0.33111405,-0.7139842,-0.55991274,-0.42038572,-0.68683255,0.44349775,0.5758221,-0.13597004,0.69986236,-0.7012166,,0.0010670498,-0.0049855,0.57499504,0.54367524,-0.8101646,0.21920462,-0.6633025,-0.25473222,0.70366293,-0.5142442,-0.527963,-0.6758756,,0.024655087,-0.018126354,0.18135798,-0.9905182,0.11656441,0.07270738,0.12244609,0.9890406,0.08249766,-0.06229424,0.09061818,-0.9939354,,-0.3389121321853426,-0.05598209060525347,0.1091865067,-0.00020968994348452436,0.00013663649976544044,0.0002152970568658275,0.0,,-1.4636200570559033,0.1798238349763177,0.08948419499000002,-0.007339148021958352,-0.017352835470210937,-0.0017772805579641168,0.0021234728597456284
3.601910264987964,,0.029651698,0.038672823,0.33111405,-0.7139842,-0.55991274,-0.42038572,-0.68683255,0.44349775,0.5758221,-0.13597004,0.69986236,-0.7012166,,0.0010667015,-0.004985079,0.5749954,0.5436769,-0.8101646,0.21920046,-0.6632971,-0.2547322,0.70366806,-0.5142494,-0.527963,-0.67587155,,0.024655087,-0.018126354,0.18135798,-0.9905182,0.11656441,0.07270738,0.12244609,0.9890406,0.08249766,-0.06229424,0.09061818,-0.9939354,,-0.3389121321853426,-0.05598209060525347,0.1091865067,-0.00020968994348452436,0.00013663649976544044,0.0002152970568658275,0.0,,-1.4636200570559033,0.17983155770919193,0.08948419499000002,-0.007339148021958352,-0.017352835470210937,-0.0017772805579641168,0.0021234728597456284
3.628467136004474,,0.029651698,0.038672823,0.33111405,-0.7139842,-0.55991274,-0.42038572,-0.68683255,0.44349775,0.5758221,-0.13597004,0.69986236,-0.7012166,,0.0010667015,-0.004985079,0.5749954,0.5436769,-0.8101646,0.21920046,-0.6632971,-0.2547322,0.70366806,-0.5142494,-0.527963,-0.67587155,,0.024655087,-0.018126354,0.18135798,-0.9905182,0.11656441,0.07270738,0.12244609,0.9890406,0.08249766,-0.06229424,0.09061818,-0.9939354,,-0.3389121321853426,-0.05598209060525347,0.1091865067,-0.00020968994348452436,0.00013663649976544044,0.0002152970568658275,0.0,,-1.4636200570559033,0.17983155770919193,0.08948419499000002,-0.007339148021958352,-0.017352835470210937,-0.0017772805579641168,0.0021234728597456284
3.6529492359841242,,0.029651698,0.038672823,0.33111405,-0.7139842,-0.55991274,-0.42038572,-0.68683255,0.44349775,0.5758221,-0.13597004,0.69986236,-0.7012166,,0.0010667015,-0.004985079,0.5749954,0.5436769,-0.8101646,0.21920046,-0.6632971,-0.2547322,0.70366806,-0.5142494,-0.527963,-0.67587155,,0.024655087,-0.018126354,0.18135798,-0.9905182,0.11656441,0.07270738,0.12244609,0.9890406,0.08249766,-0.06229424,0.09061818,-0.9939354,,-0.3389121321853426,-0.05598209060525347,0.1091865067,-0.00020968994348452436,0.00013663649976544044,0.0002152970568658275,0.0,,-1.4636200570559033,0.17983155770919193,0.08948419499000002,-0.007339148021958352,-0.017352835470210937,-0.0017772805579641168,0.0021234728597456284
3.681810627982486,,0.029652143,0.038672473,0.33111352,-0.7139845,-0.5599158,-0.42038143,-0.68683225,0.4435025,0.57581866,-0.13596973,0.699857,-0.70122194,,0.0010665357,-0.0049856566,0.5749947,0.5436742,-0.81016684,0.21919844,-0.6633028,-0.25473678,0.7036611,-0.51424485,-0.5279572,-0.6758796,,0.024655087,-0.018126354,0.18135798,-0.9905182,0.11656441,0.07270738,0.12244609,0.9890406,0.08249766,-0.06229424,0.09061818,-0.9939354,,-0.33891985491821686,-0.05598209060525347,0.1091865067,-0.00020968994348452436,0.00013663649976544044,0.0002152970568658275,0.0,,-1.4636123343230292,0.1798238349763177,0.08948419499000002,-0.007339148021958352,-0.017352835470210937,-0.0017772805579641168,0.0021234728597456284
3.7075218789977953,,0.029652143,0.038672473,0.33111352,-0.7139845,-0.5599158,-0.42038143,-0.68683225,0.4435025,0.57581866,-0.13596973,0.699857,-0.70122194,,0.0010670498,-0.0049855,0.57499504,0.54367524,-0.8101646,0.21920462,-0.6633025,-0.25473222,0.70366293,-0.5142442,-0.527963,-0.6758756,,0.024655087,-0.018126354,0.18135798,-0.9905182,0.11656441,0.07270738,0.12244609,0.9890406,0.08249766,-0.06229424,0.09061818,-0.9939354,,-0.33891985491821686,-0.05598209060525347,0.1091865067,-0.00020968994348452436,0.00013663649976544044,0.0002152970568658275,0.0,,-1.4636200570559033,0.1798238349763177,0.08948419499000002,-0.007339148021958352,-0.017352835470210937,-0.0017772805579641168,0.0021234728597456284
3.7381493430002593,,0.029652143,0.038672473,0.33111352,-0.7139845,-0.5599158,-0.42038143,-0.68683225,0.4435025,0.57581866,-0.13596973,0.699857,-0.70122194,,0.0010675639,-0.004985336,0.5749954,0.54367626,-0.8101622,0.21921082,-0.6633022,-0.2547277,0.70366484,-0.5142435,-0.52796876,-0.6758716,,0.024655087,-0.018126354,0.18135798,-0.9905182,0.11656441,0.07270738,0.12244609,0.9890406,0.08249766,-0.06229424,0.09061818,-0.9939354,,-0.33891985491821686,-0.05598209060525347,0.1091865067,-0.00020968994348452436,0.00013663649976544044,0.0002152970568658275,0.0,,-1.4636277797887776,0.1798238349763177,0.08948419499000002,-0.007339148021958352,-0.017352835470210937,-0.0017772805579641168,0.0021234728597456284
