AlexandreBanks6/ExpertPlaybackApp/resources/Motions/Motion_Best10.csv
Time,si_T_psm1,Tx,Ty,Tz,R00,R01,R02,R10,R11,R12,R20,R21,R22,si_T_psm3,Tx,Ty,Tz,R00,R01,R02,R10,R11,R12,R20,R21,R22,si_T_ecm,Tx,Ty,Tz,R00,R01,R02,R10,R11,R12,R20,R21,R22,joint_vars_psm1,q1,q2,q3,q4,q5,q6,jaw,joint_vars_psm3,q1,q2,q3,q4,q5,q6,jaw
lci_T_si
,,-0.04925053,0.04819296,0.30166662,0.9950491,0.09831694,0.0145249115,0.09922715,-0.99102014,-0.08962747,0.005582582,0.090624996,-0.99586946
rci_T_si
,,-0.05723813,0.050633118,0.39916697,0.99631953,0.08553455,0.005583757,0.08571636,-0.9940423,-0.0673249,-0.00020811456,0.06755573,-0.9977155
ecm_T_lc
,,0.15482447,0.9507957,-4.577456,-0.99988085,0.015432724,0.00034810763,-0.015051688,-0.97970253,0.19989099,0.0034259045,0.19986194,0.97981805
ecm_T_rc
,,-0.008239545,0.013894887,-0.24892122,-0.99980205,-0.018179558,0.00808652,0.017913941,-0.9993341,-0.031788383,0.008659034,-0.031637233,0.9994619
0.021401228999820887,,0.43602538,-1.3308345,-4.0337753,-0.57430536,-0.6657079,-0.47645158,-0.81420803,0.52497476,0.24792477,0.08507953,0.5303153,-0.8435207,,0.37616357,-1.283355,-3.7506263,0.30658406,-0.9340293,0.18328993,-0.8768573,-0.35206074,-0.3273751,0.37030712,-0.06035115,-0.9269468,,0.43337318,-1.3947423,-4.134354,-0.99339676,-0.111078076,0.02871022,-0.11357148,0.98753977,-0.10893444,-0.016252255,-0.11147575,-0.9936342,,-0.20913932896687396,-0.11111468059434225,0.15482758131000002,0.00020968994348452436,0.00013663649976544044,-2.973916355585917e-05,0.00016334406613427926,,-1.5060101378025217,0.04091503876764145,0.07532481932000001,0.0004193798869690487,-0.5487321830580089,0.4205819957385834,-0.0011434084629399592
0.0470812109997496,,0.4360246,-1.3308339,-4.033775,-0.5743047,-0.66570485,-0.47645664,-0.8142085,0.52497214,0.2479288,0.085079074,0.5303218,-0.8435166,,0.37616318,-1.2833552,-3.7506266,0.30658698,-0.9340295,0.18328409,-0.8768556,-0.35206154,-0.3273788,0.37030876,-0.060343623,-0.92694664,,0.43337318,-1.3947423,-4.134354,-0.99339676,-0.111078076,0.02871022,-0.11357148,0.98753977,-0.10893444,-0.016252255,-0.11147575,-0.9936342,,-0.20913160623399973,-0.11111468059434225,0.15482758131000002,0.00020968994348452436,0.00013663649976544044,-2.973916355585917e-05,0.00016334406613427926,,-1.5060024150696474,0.04091503876764145,0.07532481932000001,0.0004193798869690487,-0.5487321830580089,0.4205819957385834,-0.0011434084629399592
0.07083053899987135,,0.43602395,-1.3308349,-4.0337744,-0.5743011,-0.66570485,-0.47646108,-0.8142104,0.52497214,0.2479225,0.08508559,0.5303218,-0.84351593,,0.3761625,-1.2833551,-3.7506268,0.30659413,-0.9340287,0.1832761,-0.87685513,-0.3520651,-0.32737637,0.37030405,-0.06033493,-0.926949,,0.43337318,-1.3947423,-4.134354,-0.99339676,-0.111078076,0.02871022,-0.11357148,0.98753977,-0.10893444,-0.016252255,-0.11147575,-0.9936342,,-0.20913160623399973,-0.11112240332721647,0.15482758131000002,0.00020968994348452436,0.00013663649976544044,-2.973916355585917e-05,0.00016334406613427926,,-1.505994692336773,0.04092276150051568,0.07532481932000001,0.0004193798869690487,-0.5487321830580089,0.4205819957385834,-0.0011434084629399592
0.09060573500028113,,0.4360246,-1.3308339,-4.033775,-0.5743047,-0.66570485,-0.47645664,-0.8142085,0.52497214,0.2479288,0.085079074,0.5303218,-0.8435166,,0.3761625,-1.2833551,-3.7506268,0.30659413,-0.9340287,0.1832761,-0.87685513,-0.3520651,-0.32737637,0.37030405,-0.06033493,-0.926949,,0.43337318,-1.3947423,-4.134354,-0.99339676,-0.111078076,0.02871022,-0.11357148,0.98753977,-0.10893444,-0.016252255,-0.11147575,-0.9936342,,-0.20913160623399973,-0.11111468059434225,0.15482758131000002,0.00020968994348452436,0.00013663649976544044,-2.973916355585917e-05,0.00016334406613427926,,-1.505994692336773,0.04092276150051568,0.07532481932000001,0.0004193798869690487,-0.5487321830580089,0.4205819957385834,-0.0011434084629399592
0.11690783599988208,,0.43602538,-1.3308345,-4.0337753,-0.57430536,-0.6657079,-0.47645158,-0.81420803,0.52497476,0.24792477,0.08507953,0.5303153,-0.8435207,,0.3761625,-1.2833551,-3.7506268,0.30659413,-0.9340287,0.1832761,-0.87685513,-0.3520651,-0.32737637,0.37030405,-0.06033493,-0.926949,,0.43337318,-1.3947423,-4.134354,-0.99339676,-0.111078076,0.02871022,-0.11357148,0.98753977,-0.10893444,-0.016252255,-0.11147575,-0.9936342,,-0.20913932896687396,-0.11111468059434225,0.15482758131000002,0.00020968994348452436,0.00013663649976544044,-2.973916355585917e-05,0.00016334406613427926,,-1.505994692336773,0.04092276150051568,0.07532481932000001,0.0004193798869690487,-0.5487321830580089,0.4205819957385834,-0.0011434084629399592
0.1427884719996655,,0.43602613,-1.3308351,-4.033776,-0.5743059,-0.6657111,-0.47644642,-0.8142076,0.52497745,0.24792072,0.08507998,0.5303088,-0.84352475,,0.37616318,-1.2833552,-3.7506266,0.30658698,-0.9340295,0.18328409,-0.8768556,-0.35206154,-0.3273788,0.37030876,-0.060343623,-0.92694664,,0.43337318,-1.3947423,-4.134354,-0.99339676,-0.111078076,0.02871022,-0.11357148,0.98753977,-0.10893444,-0.016252255,-0.11147575,-0.9936342,,-0.20914705169974818,-0.11111468059434225,0.15482758131000002,0.00020968994348452436,0.00013663649976544044,-2.973916355585917e-05,0.00016334406613427926,,-1.5060024150696474,0.04091503876764145,0.07532481932000001,0.0004193798869690487,-0.5487321830580089,0.4205819957385834,-0.0011434084629399592
0.1641000380004698,,0.43602538,-1.3308345,-4.0337753,-0.57430536,-0.6657079,-0.47645158,-0.81420803,0.52497476,0.24792477,0.08507953,0.5303153,-0.8435207,,0.37616318,-1.2833552,-3.7506266,0.30658698,-0.9340295,0.18328409,-0.8768556,-0.35206154,-0.3273788,0.37030876,-0.060343623,-0.92694664,,0.43337318,-1.3947423,-4.134354,-0.99339676,-0.111078076,0.02871022,-0.11357148,0.98753977,-0.10893444,-0.016252255,-0.11147575,-0.9936342,,-0.20913932896687396,-0.11111468059434225,0.15482758131000002,0.00020968994348452436,0.00013663649976544044,-2.973916355585917e-05,0.00016334406613427926,,-1.5060024150696474,0.04091503876764145,0.07532481932000001,0.0004193798869690487,-0.5487321830580089,0.4205819957385834,-0.0011434084629399592
0.20103980000021693,,0.4360246,-1.3308339,-4.033775,-0.5743047,-0.66570485,-0.47645664,-0.8142085,0.52497214,0.2479288,0.085079074,0.5303218,-0.8435166,,0.37616357,-1.283355,-3.7506263,0.30658406,-0.9340293,0.18328993,-0.8768573,-0.35206074,-0.3273751,0.37030712,-0.06035115,-0.9269468,,0.43337318,-1.3947423,-4.134354,-0.99339676,-0.111078076,0.02871022,-0.11357148,0.98753977,-0.10893444,-0.016252255,-0.11147575,-0.9936342,,-0.20913160623399973,-0.11111468059434225,0.15482758131000002,0.00020968994348452436,0.00013663649976544044,-2.973916355585917e-05,0.00016334406613427926,,-1.5060101378025217,0.04091503876764145,0.07532481932000001,0.0004193798869690487,-0.5487321830580089,0.4205819957385834,-0.0011434084629399592
0.22320036999917647,,0.4360246,-1.3308339,-4.033775,-0.5743047,-0.66570485,-0.47645664,-0.8142085,0.52497214,0.2479288,0.085079074,0.5303218,-0.8435166,,0.3761629,-1.2833549,-3.7506266,0.3065912,-0.93402857,0.18328193,-0.8768568,-0.3520643,-0.32737264,0.3703024,-0.060342446,-0.9269492,,0.43337318,-1.3947423,-4.134354,-0.99339676,-0.111078076,0.02871022,-0.11357148,0.98753977,-0.10893444,-0.016252255,-0.11147575,-0.9936342,,-0.20913160623399973,-0.11111468059434225,0.15482758131000002,0.00020968994348452436,0.00013663649976544044,-2.973916355585917e-05,0.00016334406613427926,,-1.5060024150696474,0.04092276150051568,0.07532481932000001,0.0004193798869690487,-0.5487321830580089,0.4205819957385834,-0.0011434084629399592
0.2508213450000767,,0.43602538,-1.3308345,-4.0337753,-0.57430536,-0.6657079,-0.47645158,-0.81420803,0.52497476,0.24792477,0.08507953,0.5303153,-0.8435207,,0.3761625,-1.2833551,-3.7506268,0.30659413,-0.9340287,0.1832761,-0.87685513,-0.3520651,-0.32737637,0.37030405,-0.06033493,-0.926949,,0.43337318,-1.3947423,-4.134354,-0.99339676,-0.111078076,0.02871022,-0.11357148,0.98753977,-0.10893444,-0.016252255,-0.11147575,-0.9936342,,-0.20913932896687396,-0.11111468059434225,0.15482758131000002,0.00020968994348452436,0.00013663649976544044,-2.973916355585917e-05,0.00016334406613427926,,-1.505994692336773,0.04092276150051568,0.07532481932000001,0.0004193798869690487,-0.5487321830580089,0.4205819957385834,-0.0011434084629399592
0.27421286400021927,,0.43602547,-1.330836,-4.033776,-0.5743022,-0.6657111,-0.47645086,-0.8142095,0.52497745,0.24791446,0.0850865,0.5303088,-0.84352404,,0.3761625,-1.2833551,-3.7506268,0.30659413,-0.9340287,0.1832761,-0.87685513,-0.3520651,-0.32737637,0.37030405,-0.06033493,-0.926949,,0.43337318,-1.3947423,-4.134354,-0.99339676,-0.111078076,0.02871022,-0.11357148,0.98753977,-0.10893444,-0.016252255,-0.11147575,-0.9936342,,-0.20914705169974818,-0.11112240332721647,0.15482758131000002,0.00020968994348452436,0.00013663649976544044,-2.973916355585917e-05,0.00016334406613427926,,-1.505994692336773,0.04092276150051568,0.07532481932000001,0.0004193798869690487,-0.5487321830580089,0.4205819957385834,-0.0011434084629399592
0.30076625699985016,,0.43602538,-1.3308345,-4.0337753,-0.57430536,-0.6657079,-0.47645158,-0.81420803,0.52497476,0.24792477,0.08507953,0.5303153,-0.8435207,,0.37616277,-1.2833555,-3.7506268,0.30658987,-0.93402964,0.18327825,-0.87685394,-0.35206234,-0.3273825,0.37031037,-0.060336098,-0.92694646,,0.43337318,-1.3947423,-4.134354,-0.99339676,-0.111078076,0.02871022,-0.11357148,0.98753977,-0.10893444,-0.016252255,-0.11147575,-0.9936342,,-0.20913932896687396,-0.11111468059434225,0.15482758131000002,0.00020968994348452436,0.00013663649976544044,-2.973916355585917e-05,0.00016334406613427926,,-1.505994692336773,0.04091503876764145,0.07532481932000001,0.0004193798869690487,-0.5487321830580089,0.4205819957385834,-0.0011434084629399592
0.32333932099936646,,0.43602538,-1.3308345,-4.0337753,-0.57430536,-0.6657079,-0.47645158,-0.81420803,0.52497476,0.24792477,0.08507953,0.5303153,-0.8435207,,0.37616277,-1.2833555,-3.7506268,0.30658987,-0.93402964,0.18327825,-0.87685394,-0.35206234,-0.3273825,0.37031037,-0.060336098,-0.92694646,,0.43337318,-1.3947423,-4.134354,-0.99339676,-0.111078076,0.02871022,-0.11357148,0.98753977,-0.10893444,-0.016252255,-0.11147575,-0.9936342,,-0.20913932896687396,-0.11111468059434225,0.15482758131000002,0.00020968994348452436,0.00013663649976544044,-2.973916355585917e-05,0.00016334406613427926,,-1.505994692336773,0.04091503876764145,0.07532481932000001,0.0004193798869690487,-0.5487321830580089,0.4205819957385834,-0.0011434084629399592
0.351087851999182,,0.4360246,-1.3308339,-4.033775,-0.5743047,-0.66570485,-0.47645664,-0.8142085,0.52497214,0.2479288,0.085079074,0.5303218,-0.8435166,,0.3761625,-1.2833551,-3.7506268,0.30659413,-0.9340287,0.1832761,-0.87685513,-0.3520651,-0.32737637,0.37030405,-0.06033493,-0.926949,,0.43337318,-1.3947423,-4.134354,-0.99339676,-0.111078076,0.02871022,-0.11357148,0.98753977,-0.10893444,-0.016252255,-0.11147575,-0.9936342,,-0.20913160623399973,-0.11111468059434225,0.15482758131000002,0.00020968994348452436,0.00013663649976544044,-2.973916355585917e-05,0.00016334406613427926,,-1.505994692336773,0.04092276150051568,0.07532481932000001,0.0004193798869690487,-0.5487321830580089,0.4205819957385834,-0.0011434084629399592
0.3727836189991649,,0.4360246,-1.3308339,-4.033775,-0.5743047,-0.66570485,-0.47645664,-0.8142085,0.52497214,0.2479288,0.085079074,0.5303218,-0.8435166,,0.3761625,-1.2833551,-3.7506268,0.30659413,-0.9340287,0.1832761,-0.87685513,-0.3520651,-0.32737637,0.37030405,-0.06033493,-0.926949,,0.43337318,-1.3947423,-4.134354,-0.99339676,-0.111078076,0.02871022,-0.11357148,0.98753977,-0.10893444,-0.016252255,-0.11147575,-0.9936342,,-0.20913160623399973,-0.11111468059434225,0.15482758131000002,0.00020968994348452436,0.00013663649976544044,-2.973916355585917e-05,0.00016334406613427926,,-1.505994692336773,0.04092276150051568,0.07532481932000001,0.0004193798869690487,-0.5487321830580089,0.4205819957385834,-0.0011434084629399592
0.3994758049993834,,0.43602613,-1.3308351,-4.033776,-0.5743059,-0.6657111,-0.47644642,-0.8142076,0.52497745,0.24792072,0.08507998,0.5303088,-0.84352475,,0.3761629,-1.2833549,-3.7506266,0.3065912,-0.93402857,0.18328193,-0.8768568,-0.3520643,-0.32737264,0.3703024,-0.060342446,-0.9269492,,0.43337318,-1.3947423,-4.134354,-0.99339676,-0.111078076,0.02871022,-0.11357148,0.98753977,-0.10893444,-0.016252255,-0.11147575,-0.9936342,,-0.20914705169974818,-0.11111468059434225,0.15482758131000002,0.00020968994348452436,0.00013663649976544044,-2.973916355585917e-05,0.00016334406613427926,,-1.5060024150696474,0.04092276150051568,0.07532481932000001,0.0004193798869690487,-0.5487321830580089,0.4205819957385834,-0.0011434084629399592
0.4228230230000918,,0.43602613,-1.3308351,-4.033776,-0.5743059,-0.6657111,-0.47644642,-0.8142076,0.52497745,0.24792072,0.08507998,0.5303088,-0.84352475,,0.37616277,-1.2833555,-3.7506268,0.30658987,-0.93402964,0.18327825,-0.87685394,-0.35206234,-0.3273825,0.37031037,-0.060336098,-0.92694646,,0.43337318,-1.3947423,-4.134354,-0.99339676,-0.111078076,0.02871022,-0.11357148,0.98753977,-0.10893444,-0.016252255,-0.11147575,-0.9936342,,-0.20914705169974818,-0.11111468059434225,0.15482758131000002,0.00020968994348452436,0.00013663649976544044,-2.973916355585917e-05,0.00016334406613427926,,-1.505994692336773,0.04091503876764145,0.07532481932000001,0.0004193798869690487,-0.5487321830580089,0.4205819957385834,-0.0011434084629399592
0.4498492820002866,,0.43602395,-1.3308349,-4.0337744,-0.5743011,-0.66570485,-0.47646108,-0.8142104,0.52497214,0.2479225,0.08508559,0.5303218,-0.84351593,,0.37616277,-1.2833555,-3.7506268,0.30658987,-0.93402964,0.18327825,-0.87685394,-0.35206234,-0.3273825,0.37031037,-0.060336098,-0.92694646,,0.43337318,-1.3947423,-4.134354,-0.99339676,-0.111078076,0.02871022,-0.11357148,0.98753977,-0.10893444,-0.016252255,-0.11147575,-0.9936342,,-0.20913160623399973,-0.11112240332721647,0.15482758131000002,0.00020968994348452436,0.00013663649976544044,-2.973916355585917e-05,0.00016334406613427926,,-1.505994692336773,0.04091503876764145,0.07532481932000001,0.0004193798869690487,-0.5487321830580089,0.4205819957385834,-0.0011434084629399592
0.4743103870005143,,0.4360246,-1.3308339,-4.033775,-0.5743047,-0.66570485,-0.47645664,-0.8142085,0.52497214,0.2479288,0.085079074,0.5303218,-0.8435166,,0.3761625,-1.2833551,-3.7506268,0.30659413,-0.9340287,0.1832761,-0.87685513,-0.3520651,-0.32737637,0.37030405,-0.06033493,-0.926949,,0.43337318,-1.3947423,-4.134354,-0.99339676,-0.111078076,0.02871022,-0.11357148,0.98753977,-0.10893444,-0.016252255,-0.11147575,-0.9936342,,-0.20913160623399973,-0.11111468059434225,0.15482758131000002,0.00020968994348452436,0.00013663649976544044,-2.973916355585917e-05,0.00016334406613427926,,-1.505994692336773,0.04092276150051568,0.07532481932000001,0.0004193798869690487,-0.5487321830580089,0.4205819957385834,-0.0011434084629399592
0.49825790700015204,,0.4360246,-1.3308339,-4.033775,-0.5743047,-0.66570485,-0.47645664,-0.8142085,0.52497214,0.2479288,0.085079074,0.5303218,-0.8435166,,0.3761625,-1.2833551,-3.7506268,0.30659413,-0.9340287,0.1832761,-0.87685513,-0.3520651,-0.32737637,0.37030405,-0.06033493,-0.926949,,0.43337318,-1.3947423,-4.134354,-0.99339676,-0.111078076,0.02871022,-0.11357148,0.98753977,-0.10893444,-0.016252255,-0.11147575,-0.9936342,,-0.20913160623399973,-0.11111468059434225,0.15482758131000002,0.00020968994348452436,0.00013663649976544044,-2.973916355585917e-05,0.00016334406613427926,,-1.505994692336773,0.04092276150051568,0.07532481932000001,0.0004193798869690487,-0.5487321830580089,0.4205819957385834,-0.0011434084629399592
0.5233956129995931,,0.4360246,-1.3308339,-4.033775,-0.5743047,-0.66570485,-0.47645664,-0.8142085,0.52497214,0.2479288,0.085079074,0.5303218,-0.8435166,,0.37616277,-1.2833555,-3.7506268,0.30658987,-0.93402964,0.18327825,-0.87685394,-0.35206234,-0.3273825,0.37031037,-0.060336098,-0.92694646,,0.43337318,-1.3947423,-4.134354,-0.99339676,-0.111078076,0.02871022,-0.11357148,0.98753977,-0.10893444,-0.016252255,-0.11147575,-0.9936342,,-0.20913160623399973,-0.11111468059434225,0.15482758131000002,0.00020968994348452436,0.00013663649976544044,-2.973916355585917e-05,0.00016334406613427926,,-1.505994692336773,0.04091503876764145,0.07532481932000001,0.0004193798869690487,-0.5487321830580089,0.4205819957385834,-0.0011434084629399592
0.5502110840006935,,0.4360246,-1.3308339,-4.033775,-0.5743047,-0.66570485,-0.47645664,-0.8142085,0.52497214,0.2479288,0.085079074,0.5303218,-0.8435166,,0.37616277,-1.2833555,-3.7506268,0.30658987,-0.93402964,0.18327825,-0.87685394,-0.35206234,-0.3273825,0.37031037,-0.060336098,-0.92694646,,0.43337318,-1.3947423,-4.134354,-0.99339676,-0.111078076,0.02871022,-0.11357148,0.98753977,-0.10893444,-0.016252255,-0.11147575,-0.9936342,,-0.20913160623399973,-0.11111468059434225,0.15482758131000002,0.00020968994348452436,0.00013663649976544044,-2.973916355585917e-05,0.00016334406613427926,,-1.505994692336773,0.04091503876764145,0.07532481932000001,0.0004193798869690487,-0.5487321830580089,0.4205819957385834,-0.0011434084629399592
0.5751122599995142,,0.4360246,-1.3308339,-4.033775,-0.5743047,-0.66570485,-0.47645664,-0.8142085,0.52497214,0.2479288,0.085079074,0.5303218,-0.8435166,,0.37616277,-1.2833555,-3.7506268,0.30658987,-0.93402964,0.18327825,-0.87685394,-0.35206234,-0.3273825,0.37031037,-0.060336098,-0.92694646,,0.43337318,-1.3947423,-4.134354,-0.99339676,-0.111078076,0.02871022,-0.11357148,0.98753977,-0.10893444,-0.016252255,-0.11147575,-0.9936342,,-0.20913160623399973,-0.11111468059434225,0.15482758131000002,0.00020968994348452436,0.00013663649976544044,-2.973916355585917e-05,0.00016334406613427926,,-1.505994692336773,0.04091503876764145,0.07532481932000001,0.0004193798869690487,-0.5487321830580089,0.4205819957385834,-0.0011434084629399592
0.5983007939994422,,0.4360246,-1.3308339,-4.033775,-0.5743047,-0.66570485,-0.47645664,-0.8142085,0.52497214,0.2479288,0.085079074,0.5303218,-0.8435166,,0.3761625,-1.2833551,-3.7506268,0.30659413,-0.9340287,0.1832761,-0.87685513,-0.3520651,-0.32737637,0.37030405,-0.06033493,-0.926949,,0.43337318,-1.3947423,-4.134354,-0.99339676,-0.111078076,0.02871022,-0.11357148,0.98753977,-0.10893444,-0.016252255,-0.11147575,-0.9936342,,-0.20913160623399973,-0.11111468059434225,0.15482758131000002,0.00020968994348452436,0.00013663649976544044,-2.973916355585917e-05,0.00016334406613427926,,-1.505994692336773,0.04092276150051568,0.07532481932000001,0.0004193798869690487,-0.5487321830580089,0.4205819957385834,-0.0011434084629399592
0.6273166840001068,,0.4360246,-1.3308339,-4.033775,-0.5743047,-0.66570485,-0.47645664,-0.8142085,0.52497214,0.2479288,0.085079074,0.5303218,-0.8435166,,0.3761629,-1.2833549,-3.7506266,0.3065912,-0.93402857,0.18328193,-0.8768568,-0.3520643,-0.32737264,0.3703024,-0.060342446,-0.9269492,,0.43337318,-1.3947423,-4.134354,-0.99339676,-0.111078076,0.02871022,-0.11357148,0.98753977,-0.10893444,-0.016252255,-0.11147575,-0.9936342,,-0.20913160623399973,-0.11111468059434225,0.15482758131000002,0.00020968994348452436,0.00013663649976544044,-2.973916355585917e-05,0.00016334406613427926,,-1.5060024150696474,0.04092276150051568,0.07532481932000001,0.0004193798869690487,-0.5487321830580089,0.4205819957385834,-0.0011434084629399592
0.6495294260002993,,0.4360246,-1.3308339,-4.033775,-0.5743047,-0.66570485,-0.47645664,-0.8142085,0.52497214,0.2479288,0.085079074,0.5303218,-0.8435166,,0.37616357,-1.283355,-3.7506263,0.30658406,-0.9340293,0.18328993,-0.8768573,-0.35206074,-0.3273751,0.37030712,-0.06035115,-0.9269468,,0.43337318,-1.3947423,-4.134354,-0.99339676,-0.111078076,0.02871022,-0.11357148,0.98753977,-0.10893444,-0.016252255,-0.11147575,-0.9936342,,-0.20913160623399973,-0.11111468059434225,0.15482758131000002,0.00020968994348452436,0.00013663649976544044,-2.973916355585917e-05,0.00016334406613427926,,-1.5060101378025217,0.04091503876764145,0.07532481932000001,0.0004193798869690487,-0.5487321830580089,0.4205819957385834,-0.0011434084629399592
0.6808270479996281,,0.4360246,-1.3308339,-4.033775,-0.5743047,-0.66570485,-0.47645664,-0.8142085,0.52497214,0.2479288,0.085079074,0.5303218,-0.8435166,,0.37616357,-1.283355,-3.7506263,0.30658406,-0.9340293,0.18328993,-0.8768573,-0.35206074,-0.3273751,0.37030712,-0.06035115,-0.9269468,,0.43337318,-1.3947423,-4.134354,-0.99339676,-0.111078076,0.02871022,-0.11357148,0.98753977,-0.10893444,-0.016252255,-0.11147575,-0.9936342,,-0.20913160623399973,-0.11111468059434225,0.15482758131000002,0.00020968994348452436,0.00013663649976544044,-2.973916355585917e-05,0.00016334406613427926,,-1.5060101378025217,0.04091503876764145,0.07532481932000001,0.0004193798869690487,-0.5487321830580089,0.4205819957385834,-0.0011434084629399592
0.7061277009997866,,0.4360246,-1.3308339,-4.033775,-0.5743047,-0.66570485,-0.47645664,-0.8142085,0.52497214,0.2479288,0.085079074,0.5303218,-0.8435166,,0.3761633,-1.2833546,-3.7506263,0.3065883,-0.9340283,0.18328775,-0.8768585,-0.3520635,-0.32736892,0.37030077,-0.060349975,-0.9269494,,0.43337318,-1.3947423,-4.134354,-0.99339676,-0.111078076,0.02871022,-0.11357148,0.98753977,-0.10893444,-0.016252255,-0.11147575,-0.9936342,,-0.20913160623399973,-0.11111468059434225,0.15482758131000002,0.00020968994348452436,0.00013663649976544044,-2.973916355585917e-05,0.00016334406613427926,,-1.5060101378025217,0.04092276150051568,0.07532481932000001,0.0004193798869690487,-0.5487321830580089,0.4205819957385834,-0.0011434084629399592
0.7335189820005326,,0.4360246,-1.3308339,-4.033775,-0.5743047,-0.66570485,-0.47645664,-0.8142085,0.52497214,0.2479288,0.085079074,0.5303218,-0.8435166,,0.3761633,-1.2833546,-3.7506263,0.3065883,-0.9340283,0.18328775,-0.8768585,-0.3520635,-0.32736892,0.37030077,-0.060349975,-0.9269494,,0.43337318,-1.3947423,-4.134354,-0.99339676,-0.111078076,0.02871022,-0.11357148,0.98753977,-0.10893444,-0.016252255,-0.11147575,-0.9936342,,-0.20913160623399973,-0.11111468059434225,0.15482758131000002,0.00020968994348452436,0.00013663649976544044,-2.973916355585917e-05,0.00016334406613427926,,-1.5060101378025217,0.04092276150051568,0.07532481932000001,0.0004193798869690487,-0.5487321830580089,0.4205819957385834,-0.0011434084629399592
0.7584109710005578,,0.4360246,-1.3308339,-4.033775,-0.5743047,-0.66570485,-0.47645664,-0.8142085,0.52497214,0.2479288,0.085079074,0.5303218,-0.8435166,,0.3761633,-1.2833546,-3.7506263,0.3065883,-0.9340283,0.18328775,-0.8768585,-0.3520635,-0.32736892,0.37030077,-0.060349975,-0.9269494,,0.43337318,-1.3947423,-4.134354,-0.99339676,-0.111078076,0.02871022,-0.11357148,0.98753977,-0.10893444,-0.016252255,-0.11147575,-0.9936342,,-0.20913160623399973,-0.11111468059434225,0.15482758131000002,0.00020968994348452436,0.00013663649976544044,-2.973916355585917e-05,0.00016334406613427926,,-1.5060101378025217,0.04092276150051568,0.07532481932000001,0.0004193798869690487,-0.5487321830580089,0.4205819957385834,-0.0011434084629399592
0.7862933750002412,,0.4360246,-1.3308339,-4.033775,-0.5743047,-0.66570485,-0.47645664,-0.8142085,0.52497214,0.2479288,0.085079074,0.5303218,-0.8435166,,0.37616357,-1.283355,-3.7506263,0.30658406,-0.9340293,0.18328993,-0.8768573,-0.35206074,-0.3273751,0.37030712,-0.06035115,-0.9269468,,0.43337318,-1.3947423,-4.134354,-0.99339676,-0.111078076,0.02871022,-0.11357148,0.98753977,-0.10893444,-0.016252255,-0.11147575,-0.9936342,,-0.20913160623399973,-0.11111468059434225,0.15482758131000002,0.00020968994348452436,0.00013663649976544044,-2.973916355585917e-05,0.00016334406613427926,,-1.5060101378025217,0.04091503876764145,0.07532481932000001,0.0004193798869690487,-0.5487321830580089,0.4205819957385834,-0.0011434084629399592
0.80757764900045,,0.4360246,-1.3308339,-4.033775,-0.5743047,-0.66570485,-0.47645664,-0.8142085,0.52497214,0.2479288,0.085079074,0.5303218,-0.8435166,,0.37616357,-1.283355,-3.7506263,0.30658406,-0.9340293,0.18328993,-0.8768573,-0.35206074,-0.3273751,0.37030712,-0.06035115,-0.9269468,,0.43337318,-1.3947423,-4.134354,-0.99339676,-0.111078076,0.02871022,-0.11357148,0.98753977,-0.10893444,-0.016252255,-0.11147575,-0.9936342,,-0.20913160623399973,-0.11111468059434225,0.15482758131000002,0.00020968994348452436,0.00013663649976544044,-2.973916355585917e-05,0.00016334406613427926,,-1.5060101378025217,0.04091503876764145,0.07532481932000001,0.0004193798869690487,-0.5487321830580089,0.4205819957385834,-0.0011434084629399592
0.832625437000388,,0.4360246,-1.3308339,-4.033775,-0.5743047,-0.66570485,-0.47645664,-0.8142085,0.52497214,0.2479288,0.085079074,0.5303218,-0.8435166,,0.37616357,-1.283355,-3.7506263,0.30658406,-0.9340293,0.18328993,-0.8768573,-0.35206074,-0.3273751,0.37030712,-0.06035115,-0.9269468,,0.43337318,-1.3947423,-4.134354,-0.99339676,-0.111078076,0.02871022,-0.11357148,0.98753977,-0.10893444,-0.016252255,-0.11147575,-0.9936342,,-0.20913160623399973,-0.11111468059434225,0.15482758131000002,0.00020968994348452436,0.00013663649976544044,-2.973916355585917e-05,0.00016334406613427926,,-1.5060101378025217,0.04091503876764145,0.07532481932000001,0.0004193798869690487,-0.5487321830580089,0.4205819957385834,-0.0011434084629399592
0.8550566169997182,,0.4360246,-1.3308339,-4.033775,-0.5743047,-0.66570485,-0.47645664,-0.8142085,0.52497214,0.2479288,0.085079074,0.5303218,-0.8435166,,0.3761633,-1.2833546,-3.7506263,0.3065883,-0.9340283,0.18328775,-0.8768585,-0.3520635,-0.32736892,0.37030077,-0.060349975,-0.9269494,,0.43337318,-1.3947423,-4.134354,-0.99339676,-0.111078076,0.02871022,-0.11357148,0.98753977,-0.10893444,-0.016252255,-0.11147575,-0.9936342,,-0.20913160623399973,-0.11111468059434225,0.15482758131000002,0.00020968994348452436,0.00013663649976544044,-2.973916355585917e-05,0.00016334406613427926,,-1.5060101378025217,0.04092276150051568,0.07532481932000001,0.0004193798869690487,-0.5487321830580089,0.4205819957385834,-0.0011434084629399592
0.8831561749993853,,0.43605694,-1.3308626,-4.033766,-0.5741266,-0.66584516,-0.4764752,-0.81434596,0.524766,0.24791381,0.08496577,0.5303496,-0.8435105,,0.37615353,-1.2833763,-3.7506218,0.30658,-0.9340279,0.183304,-0.87686765,-0.3520604,-0.32734787,0.37028617,-0.060375053,-0.92695355,,0.43338066,-1.3947506,-4.134344,-0.99339676,-0.11107807,0.02871022,-0.11357148,0.98753977,-0.10893444,-0.016252259,-0.11147575,-0.9936342,,-0.20913160623399973,-0.11111468059434225,0.15482758131000002,0.0,0.00013663649976544044,-2.973916355585917e-05,0.00016334406613427926,,-1.5060101378025217,0.04092276150051568,0.07532481932000001,0.0004193798869690487,-0.5487321830580089,0.4205819957385834,-0.0011434084629399592
0.9079841189995932,,0.43605694,-1.3308626,-4.033766,-0.57398707,-0.6659655,-0.47647524,-0.814456,0.5245952,0.24791384,0.08485455,0.5303675,-0.8435105,,0.3761538,-1.2833767,-3.7506218,0.30657578,-0.93402886,0.18330619,-0.8768664,-0.35205764,-0.32735407,0.37029248,-0.060376227,-0.92695093,,0.43338066,-1.3947506,-4.134344,-0.99339676,-0.11107807,0.02871022,-0.11357148,0.98753977,-0.10893444,-0.016252259,-0.11147575,-0.9936342,,-0.20913160623399973,-0.11111468059434225,0.15482758131000002,-0.00020968994348452436,0.00013663649976544044,-2.973916355585917e-05,0.00016334406613427926,,-1.5060101378025217,0.04091503876764145,0.07532481932000001,0.0004193798869690487,-0.5487321830580089,0.4205819957385834,-0.0011434084629399592
0.9311507799993706,,0.43605846,-1.3308638,-4.0337667,-0.57398814,-0.6659719,-0.476465,-0.8144551,0.5246005,0.24790578,0.08485547,0.5303544,-0.8435186,,0.3761538,-1.2833767,-3.7506218,0.30657578,-0.93402886,0.18330619,-0.8768664,-0.35205764,-0.32735407,0.37029248,-0.060376227,-0.92695093,,0.43338066,-1.3947506,-4.134344,-0.99339676,-0.11107807,0.02871022,-0.11357148,0.98753977,-0.10893444,-0.016252259,-0.11147575,-0.9936342,,-0.20914705169974818,-0.11111468059434225,0.15482758131000002,-0.00020968994348452436,0.00013663649976544044,-2.973916355585917e-05,0.00016334406613427926,,-1.5060101378025217,0.04091503876764145,0.07532481932000001,0.0004193798869690487,-0.5487321830580089,0.4205819957385834,-0.0011434084629399592
0.9554566639999393,,0.43605694,-1.3308626,-4.033766,-0.57398707,-0.6659655,-0.47647524,-0.814456,0.5245952,0.24791384,0.08485455,0.5303675,-0.8435105,,0.3761538,-1.2833767,-3.7506218,0.30657578,-0.93402886,0.18330619,-0.8768664,-0.35205764,-0.32735407,0.37029248,-0.060376227,-0.92695093,,0.43338066,-1.3947506,-4.134344,-0.99339676,-0.11107807,0.02871022,-0.11357148,0.98753977,-0.10893444,-0.016252259,-0.11147575,-0.9936342,,-0.20913160623399973,-0.11111468059434225,0.15482758131000002,-0.00020968994348452436,0.00013663649976544044,-2.973916355585917e-05,0.00016334406613427926,,-1.5060101378025217,0.04091503876764145,0.07532481932000001,0.0004193798869690487,-0.5487321830580089,0.4205819957385834,-0.0011434084629399592
0.9809856369993213,,0.43605694,-1.3308626,-4.033766,-0.57398707,-0.6659655,-0.47647524,-0.814456,0.5245952,0.24791384,0.08485455,0.5303675,-0.8435105,,0.37615353,-1.2833763,-3.7506218,0.30658,-0.9340279,0.183304,-0.87686765,-0.3520604,-0.32734787,0.37028617,-0.060375053,-0.92695355,,0.43338066,-1.3947506,-4.134344,-0.99339676,-0.11107807,0.02871022,-0.11357148,0.98753977,-0.10893444,-0.016252259,-0.11147575,-0.9936342,,-0.20913160623399973,-0.11111468059434225,0.15482758131000002,-0.00020968994348452436,0.00013663649976544044,-2.973916355585917e-05,0.00016334406613427926,,-1.5060101378025217,0.04092276150051568,0.07532481932000001,0.0004193798869690487,-0.5487321830580089,0.4205819957385834,-0.0011434084629399592
1.00603526300074,,0.43605694,-1.3308626,-4.033766,-0.57398707,-0.6659655,-0.47647524,-0.814456,0.5245952,0.24791384,0.08485455,0.5303675,-0.8435105,,0.37615353,-1.2833763,-3.7506218,0.30658,-0.9340279,0.183304,-0.87686765,-0.3520604,-0.32734787,0.37028617,-0.060375053,-0.92695355,,0.43338066,-1.3947506,-4.134344,-0.99339676,-0.11107807,0.02871022,-0.11357148,0.98753977,-0.10893444,-0.016252259,-0.11147575,-0.9936342,,-0.20913160623399973,-0.11111468059434225,0.15482758131000002,-0.00020968994348452436,0.00013663649976544044,-2.973916355585917e-05,0.00016334406613427926,,-1.5060101378025217,0.04092276150051568,0.07532481932000001,0.0004193798869690487,-0.5487321830580089,0.4205819957385834,-0.0011434084629399592
1.0314182759993855,,0.43605694,-1.3308626,-4.033766,-0.57398707,-0.6659655,-0.47647524,-0.814456,0.5245952,0.24791384,0.08485455,0.5303675,-0.8435105,,0.3761538,-1.2833767,-3.7506218,0.30657578,-0.93402886,0.18330619,-0.8768664,-0.35205764,-0.32735407,0.37029248,-0.060376227,-0.92695093,,0.43338066,-1.3947506,-4.134344,-0.99339676,-0.11107807,0.02871022,-0.11357148,0.98753977,-0.10893444,-0.016252259,-0.11147575,-0.9936342,,-0.20913160623399973,-0.11111468059434225,0.15482758131000002,-0.00020968994348452436,0.00013663649976544044,-2.973916355585917e-05,0.00016334406613427926,,-1.5060101378025217,0.04091503876764145,0.07532481932000001,0.0004193798869690487,-0.5487321830580089,0.4205819957385834,-0.0011434084629399592
1.0524729089993343,,0.43605846,-1.3308638,-4.0337667,-0.57398814,-0.6659719,-0.476465,-0.8144551,0.5246005,0.24790578,0.08485547,0.5303544,-0.8435186,,0.3761534,-1.2833769,-3.750622,0.3065787,-0.9340291,0.18330035,-0.8768647,-0.3520584,-0.3273578,0.37029412,-0.0603687,-0.9269508,,0.43338066,-1.3947506,-4.134344,-0.99339676,-0.11107807,0.02871022,-0.11357148,0.98753977,-0.10893444,-0.016252259,-0.11147575,-0.9936342,,-0.20914705169974818,-0.11111468059434225,0.15482758131000002,-0.00020968994348452436,0.00013663649976544044,-2.973916355585917e-05,0.00016334406613427926,,-1.5060024150696474,0.04091503876764145,0.07532481932000001,0.0004193798869690487,-0.5487321830580089,0.4205819957385834,-0.0011434084629399592
1.0748301700004959,,0.4360577,-1.3308632,-4.0337663,-0.57398754,-0.66596866,-0.4764701,-0.8144555,0.5245979,0.24790978,0.084855005,0.530361,-0.84351456,,0.376153,-1.2833772,-3.7506223,0.30658156,-0.9340292,0.1832945,-0.87686294,-0.35205925,-0.32736152,0.37029576,-0.060361177,-0.92695063,,0.43338066,-1.3947506,-4.134344,-0.99339676,-0.11107807,0.02871022,-0.11357148,0.98753977,-0.10893444,-0.016252259,-0.11147575,-0.9936342,,-0.20913932896687396,-0.11111468059434225,0.15482758131000002,-0.00020968994348452436,0.00013663649976544044,-2.973916355585917e-05,0.00016334406613427926,,-1.505994692336773,0.04091503876764145,0.07532481932000001,0.0004193798869690487,-0.5487321830580089,0.4205819957385834,-0.0011434084629399592
1.1012351800000033,,0.4360563,-1.3308636,-4.0337653,-0.57398325,-0.6659655,-0.47647965,-0.8144579,0.5245952,0.24790755,0.08486107,0.5303675,-0.84350985,,0.376153,-1.2833772,-3.7506223,0.30658156,-0.9340292,0.1832945,-0.87686294,-0.35205925,-0.32736152,0.37029576,-0.060361177,-0.92695063,,0.43338066,-1.3947506,-4.134344,-0.99339676,-0.11107807,0.02871022,-0.11357148,0.98753977,-0.10893444,-0.016252259,-0.11147575,-0.9936342,,-0.20913160623399973,-0.11112240332721647,0.15482758131000002,-0.00020968994348452436,0.00013663649976544044,-2.973916355585917e-05,0.00016334406613427926,,-1.505994692336773,0.04091503876764145,0.07532481932000001,0.0004193798869690487,-0.5487321830580089,0.4205819957385834,-0.0011434084629399592
1.124827928000741,,0.43605694,-1.3308626,-4.033766,-0.57398707,-0.6659655,-0.47647524,-0.814456,0.5245952,0.24791384,0.08485455,0.5303675,-0.8435105,,0.37615353,-1.2833763,-3.7506218,0.30658,-0.9340279,0.183304,-0.87686765,-0.3520604,-0.32734787,0.37028617,-0.060375053,-0.92695355,,0.43338066,-1.3947506,-4.134344,-0.99339676,-0.11107807,0.02871022,-0.11357148,0.98753977,-0.10893444,-0.016252259,-0.11147575,-0.9936342,,-0.20913160623399973,-0.11111468059434225,0.15482758131000002,-0.00020968994348452436,0.00013663649976544044,-2.973916355585917e-05,0.00016334406613427926,,-1.5060101378025217,0.04092276150051568,0.07532481932000001,0.0004193798869690487,-0.5487321830580089,0.4205819957385834,-0.0011434084629399592
1.152965833000053,,0.43605694,-1.3308626,-4.033766,-0.57398707,-0.6659655,-0.47647524,-0.814456,0.5245952,0.24791384,0.08485455,0.5303675,-0.8435105,,0.3761538,-1.2833767,-3.7506218,0.30657578,-0.93402886,0.18330619,-0.8768664,-0.35205764,-0.32735407,0.37029248,-0.060376227,-0.92695093,,0.43338066,-1.3947506,-4.134344,-0.99339676,-0.11107807,0.02871022,-0.11357148,0.98753977,-0.10893444,-0.016252259,-0.11147575,-0.9936342,,-0.20913160623399973,-0.11111468059434225,0.15482758131000002,-0.00020968994348452436,0.00013663649976544044,-2.973916355585917e-05,0.00016334406613427926,,-1.5060101378025217,0.04091503876764145,0.07532481932000001,0.0004193798869690487,-0.5487321830580089,0.4205819957385834,-0.0011434084629399592
1.17903557200043,,0.4360563,-1.3308636,-4.0337653,-0.57398325,-0.6659655,-0.47647965,-0.8144579,0.5245952,0.24790755,0.08486107,0.5303675,-0.84350985,,0.3761538,-1.2833767,-3.7506218,0.30657578,-0.93402886,0.18330619,-0.8768664,-0.35205764,-0.32735407,0.37029248,-0.060376227,-0.92695093,,0.43338066,-1.3947506,-4.134344,-0.99339676,-0.11107807,0.02871022,-0.11357148,0.98753977,-0.10893444,-0.016252259,-0.11147575,-0.9936342,,-0.20913160623399973,-0.11112240332721647,0.15482758131000002,-0.00020968994348452436,0.00013663649976544044,-2.973916355585917e-05,0.00016334406613427926,,-1.5060101378025217,0.04091503876764145,0.07532481932000001,0.0004193798869690487,-0.5487321830580089,0.4205819957385834,-0.0011434084629399592
1.2021211989995209,,0.4360563,-1.3308636,-4.0337653,-0.57398325,-0.6659655,-0.47647965,-0.8144579,0.5245952,0.24790755,0.08486107,0.5303675,-0.84350985,,0.3761538,-1.2833767,-3.7506218,0.30657578,-0.93402886,0.18330619,-0.8768664,-0.35205764,-0.32735407,0.37029248,-0.060376227,-0.92695093,,0.43338066,-1.3947506,-4.134344,-0.99339676,-0.11107807,0.02871022,-0.11357148,0.98753977,-0.10893444,-0.016252259,-0.11147575,-0.9936342,,-0.20913160623399973,-0.11112240332721647,0.15482758131000002,-0.00020968994348452436,0.00013663649976544044,-2.973916355585917e-05,0.00016334406613427926,,-1.5060101378025217,0.04091503876764145,0.07532481932000001,0.0004193798869690487,-0.5487321830580089,0.4205819957385834,-0.0011434084629399592
1.224276414999622,,0.43605694,-1.3308626,-4.033766,-0.57398707,-0.6659655,-0.47647524,-0.814456,0.5245952,0.24791384,0.08485455,0.5303675,-0.8435105,,0.37615353,-1.2833763,-3.7506218,0.30658,-0.9340279,0.183304,-0.87686765,-0.3520604,-0.32734787,0.37028617,-0.060375053,-0.92695355,,0.43338066,-1.3947506,-4.134344,-0.99339676,-0.11107807,0.02871022,-0.11357148,0.98753977,-0.10893444,-0.016252259,-0.11147575,-0.9936342,,-0.20913160623399973,-0.11111468059434225,0.15482758131000002,-0.00020968994348452436,0.00013663649976544044,-2.973916355585917e-05,0.00016334406613427926,,-1.5060101378025217,0.04092276150051568,0.07532481932000001,0.0004193798869690487,-0.5487321830580089,0.4205819957385834,-0.0011434084629399592
1.2523870450004324,,0.43605703,-1.3308642,-4.0337663,-0.5739839,-0.66596866,-0.47647452,-0.8144574,0.5245979,0.24790353,0.084861524,0.530361,-0.8435139,,0.3761538,-1.2833767,-3.7506218,0.30657578,-0.93402886,0.18330619,-0.8768664,-0.35205764,-0.32735407,0.37029248,-0.060376227,-0.92695093,,0.43338066,-1.3947506,-4.134344,-0.99339676,-0.11107807,0.02871022,-0.11357148,0.98753977,-0.10893444,-0.016252259,-0.11147575,-0.9936342,,-0.20913932896687396,-0.11112240332721647,0.15482758131000002,-0.00020968994348452436,0.00013663649976544044,-2.973916355585917e-05,0.00016334406613427926,,-1.5060101378025217,0.04091503876764145,0.07532481932000001,0.0004193798869690487,-0.5487321830580089,0.4205819957385834,-0.0011434084629399592
1.2778911229997902,,0.43605846,-1.3308638,-4.0337667,-0.57398814,-0.6659719,-0.476465,-0.8144551,0.5246005,0.24790578,0.08485547,0.5303544,-0.8435186,,0.3761538,-1.2833767,-3.7506218,0.30657578,-0.93402886,0.18330619,-0.8768664,-0.35205764,-0.32735407,0.37029248,-0.060376227,-0.92695093,,0.43338066,-1.3947506,-4.134344,-0.99339676,-0.11107807,0.02871022,-0.11357148,0.98753977,-0.10893444,-0.016252259,-0.11147575,-0.9936342,,-0.20914705169974818,-0.11111468059434225,0.15482758131000002,-0.00020968994348452436,0.00013663649976544044,-2.973916355585917e-05,0.00016334406613427926,,-1.5060101378025217,0.04091503876764145,0.07532481932000001,0.0004193798869690487,-0.5487321830580089,0.4205819957385834,-0.0011434084629399592
1.3023102709994419,,0.43605846,-1.3308638,-4.0337667,-0.57398814,-0.6659719,-0.476465,-0.8144551,0.5246005,0.24790578,0.08485547,0.5303544,-0.8435186,,0.3761538,-1.2833767,-3.7506218,0.30657578,-0.93402886,0.18330619,-0.8768664,-0.35205764,-0.32735407,0.37029248,-0.060376227,-0.92695093,,0.43338066,-1.3947506,-4.134344,-0.99339676,-0.11107807,0.02871022,-0.11357148,0.98753977,-0.10893444,-0.016252259,-0.11147575,-0.9936342,,-0.20914705169974818,-0.11111468059434225,0.15482758131000002,-0.00020968994348452436,0.00013663649976544044,-2.973916355585917e-05,0.00016334406613427926,,-1.5060101378025217,0.04091503876764145,0.07532481932000001,0.0004193798869690487,-0.5487321830580089,0.4205819957385834,-0.0011434084629399592
1.3240079570005037,,0.4360578,-1.3308648,-4.0337667,-0.57398444,-0.6659719,-0.47646943,-0.814457,0.5246005,0.24789947,0.08486197,0.5303544,-0.843518,,0.3761538,-1.2833767,-3.7506218,0.30657578,-0.93402886,0.18330619,-0.8768664,-0.35205764,-0.32735407,0.37029248,-0.060376227,-0.92695093,,0.43338066,-1.3947506,-4.134344,-0.99339676,-0.11107807,0.02871022,-0.11357148,0.98753977,-0.10893444,-0.016252259,-0.11147575,-0.9936342,,-0.20914705169974818,-0.11112240332721647,0.15482758131000002,-0.00020968994348452436,0.00013663649976544044,-2.973916355585917e-05,0.00016334406613427926,,-1.5060101378025217,0.04091503876764145,0.07532481932000001,0.0004193798869690487,-0.5487321830580089,0.4205819957385834,-0.0011434084629399592
1.3531492530000833,,0.4360577,-1.3308632,-4.0337663,-0.57398754,-0.66596866,-0.4764701,-0.8144555,0.5245979,0.24790978,0.084855005,0.530361,-0.84351456,,0.37615353,-1.2833763,-3.7506218,0.30658,-0.9340279,0.183304,-0.87686765,-0.3520604,-0.32734787,0.37028617,-0.060375053,-0.92695355,,0.43338066,-1.3947506,-4.134344,-0.99339676,-0.11107807,0.02871022,-0.11357148,0.98753977,-0.10893444,-0.016252259,-0.11147575,-0.9936342,,-0.20913932896687396,-0.11111468059434225,0.15482758131000002,-0.00020968994348452436,0.00013663649976544044,-2.973916355585917e-05,0.00016334406613427926,,-1.5060101378025217,0.04092276150051568,0.07532481932000001,0.0004193798869690487,-0.5487321830580089,0.4205819957385834,-0.0011434084629399592
1.3776119470003323,,0.43605703,-1.3308642,-4.0337663,-0.5739839,-0.66596866,-0.47647452,-0.8144574,0.5245979,0.24790353,0.084861524,0.530361,-0.8435139,,0.3761538,-1.2833767,-3.7506218,0.30657578,-0.93402886,0.18330619,-0.8768664,-0.35205764,-0.32735407,0.37029248,-0.060376227,-0.92695093,,0.43338066,-1.3947506,-4.134344,-0.99339676,-0.11107807,0.02871022,-0.11357148,0.98753977,-0.10893444,-0.016252259,-0.11147575,-0.9936342,,-0.20913932896687396,-0.11112240332721647,0.15482758131000002,-0.00020968994348452436,0.00013663649976544044,-2.973916355585917e-05,0.00016334406613427926,,-1.5060101378025217,0.04091503876764145,0.07532481932000001,0.0004193798869690487,-0.5487321830580089,0.4205819957385834,-0.0011434084629399592
1.4009411059996637,,0.43605846,-1.3308638,-4.0337667,-0.57398814,-0.6659719,-0.476465,-0.8144551,0.5246005,0.24790578,0.08485547,0.5303544,-0.8435186,,0.37615353,-1.2833763,-3.7506218,0.30658,-0.9340279,0.183304,-0.87686765,-0.3520604,-0.32734787,0.37028617,-0.060375053,-0.92695355,,0.43338066,-1.3947506,-4.134344,-0.99339676,-0.11107807,0.02871022,-0.11357148,0.98753977,-0.10893444,-0.016252259,-0.11147575,-0.9936342,,-0.20914705169974818,-0.11111468059434225,0.15482758131000002,-0.00020968994348452436,0.00013663649976544044,-2.973916355585917e-05,0.00016334406613427926,,-1.5060101378025217,0.04092276150051568,0.07532481932000001,0.0004193798869690487,-0.5487321830580089,0.4205819957385834,-0.0011434084629399592
1.4232135290003498,,0.43605846,-1.3308638,-4.0337667,-0.57398814,-0.6659719,-0.476465,-0.8144551,0.5246005,0.24790578,0.08485547,0.5303544,-0.8435186,,0.37615353,-1.2833763,-3.7506218,0.30658,-0.9340279,0.183304,-0.87686765,-0.3520604,-0.32734787,0.37028617,-0.060375053,-0.92695355,,0.43338066,-1.3947506,-4.134344,-0.99339676,-0.11107807,0.02871022,-0.11357148,0.98753977,-0.10893444,-0.016252259,-0.11147575,-0.9936342,,-0.20914705169974818,-0.11111468059434225,0.15482758131000002,-0.00020968994348452436,0.00013663649976544044,-2.973916355585917e-05,0.00016334406613427926,,-1.5060101378025217,0.04092276150051568,0.07532481932000001,0.0004193798869690487,-0.5487321830580089,0.4205819957385834,-0.0011434084629399592
1.4501299990006373,,0.4360578,-1.3308648,-4.0337667,-0.57398444,-0.6659719,-0.47646943,-0.814457,0.5246005,0.24789947,0.08486197,0.5303544,-0.843518,,0.3761538,-1.2833767,-3.7506218,0.30657578,-0.93402886,0.18330619,-0.8768664,-0.35205764,-0.32735407,0.37029248,-0.060376227,-0.92695093,,0.43338066,-1.3947506,-4.134344,-0.99339676,-0.11107807,0.02871022,-0.11357148,0.98753977,-0.10893444,-0.016252259,-0.11147575,-0.9936342,,-0.20914705169974818,-0.11112240332721647,0.15482758131000002,-0.00020968994348452436,0.00013663649976544044,-2.973916355585917e-05,0.00016334406613427926,,-1.5060101378025217,0.04091503876764145,0.07532481932000001,0.0004193798869690487,-0.5487321830580089,0.4205819957385834,-0.0011434084629399592
1.4732558289997542,,0.4360577,-1.3308632,-4.0337663,-0.57398754,-0.66596866,-0.4764701,-0.8144555,0.5245979,0.24790978,0.084855005,0.530361,-0.84351456,,0.3761538,-1.2833767,-3.7506218,0.30657578,-0.93402886,0.18330619,-0.8768664,-0.35205764,-0.32735407,0.37029248,-0.060376227,-0.92695093,,0.43338066,-1.3947506,-4.134344,-0.99339676,-0.11107807,0.02871022,-0.11357148,0.98753977,-0.10893444,-0.016252259,-0.11147575,-0.9936342,,-0.20913932896687396,-0.11111468059434225,0.15482758131000002,-0.00020968994348452436,0.00013663649976544044,-2.973916355585917e-05,0.00016334406613427926,,-1.5060101378025217,0.04091503876764145,0.07532481932000001,0.0004193798869690487,-0.5487321830580089,0.4205819957385834,-0.0011434084629399592
1.4964275479997013,,0.43605694,-1.3308626,-4.033766,-0.57398707,-0.6659655,-0.47647524,-0.814456,0.5245952,0.24791384,0.08485455,0.5303675,-0.8435105,,0.3761538,-1.2833767,-3.7506218,0.30657578,-0.93402886,0.18330619,-0.8768664,-0.35205764,-0.32735407,0.37029248,-0.060376227,-0.92695093,,0.43338066,-1.3947506,-4.134344,-0.99339676,-0.11107807,0.02871022,-0.11357148,0.98753977,-0.10893444,-0.016252259,-0.11147575,-0.9936342,,-0.20913160623399973,-0.11111468059434225,0.15482758131000002,-0.00020968994348452436,0.00013663649976544044,-2.973916355585917e-05,0.00016334406613427926,,-1.5060101378025217,0.04091503876764145,0.07532481932000001,0.0004193798869690487,-0.5487321830580089,0.4205819957385834,-0.0011434084629399592
1.52146714599985,,0.4360577,-1.3308632,-4.0337663,-0.57398754,-0.66596866,-0.4764701,-0.8144555,0.5245979,0.24790978,0.084855005,0.530361,-0.84351456,,0.3761531,-1.2833766,-3.750622,0.3065829,-0.9340281,0.18329817,-0.8768659,-0.35206118,-0.32735163,0.37028778,-0.060367525,-0.92695343,,0.43338066,-1.3947506,-4.134344,-0.99339676,-0.11107807,0.02871022,-0.11357148,0.98753977,-0.10893444,-0.016252259,-0.11147575,-0.9936342,,-0.20913932896687396,-0.11111468059434225,0.15482758131000002,-0.00020968994348452436,0.00013663649976544044,-2.973916355585917e-05,0.00016334406613427926,,-1.5060024150696474,0.04092276150051568,0.07532481932000001,0.0004193798869690487,-0.5487321830580089,0.4205819957385834,-0.0011434084629399592
1.5461766759999591,,0.4360577,-1.3308632,-4.0337663,-0.57398754,-0.66596866,-0.4764701,-0.8144555,0.5245979,0.24790978,0.084855005,0.530361,-0.84351456,,0.37615272,-1.2833768,-3.7506223,0.30658585,-0.93402827,0.18329234,-0.8768642,-0.352062,-0.32735533,0.37028942,-0.060360007,-0.92695326,,0.43338066,-1.3947506,-4.134344,-0.99339676,-0.11107807,0.02871022,-0.11357148,0.98753977,-0.10893444,-0.016252259,-0.11147575,-0.9936342,,-0.20913932896687396,-0.11111468059434225,0.15482758131000002,-0.00020968994348452436,0.00013663649976544044,-2.973916355585917e-05,0.00016334406613427926,,-1.505994692336773,0.04092276150051568,0.07532481932000001,0.0004193798869690487,-0.5487321830580089,0.4205819957385834,-0.0011434084629399592
1.5722609999993438,,0.4360563,-1.3308636,-4.0337653,-0.57398325,-0.6659655,-0.47647965,-0.8144579,0.5245952,0.24790755,0.08486107,0.5303675,-0.84350985,,0.3761538,-1.2833767,-3.7506218,0.30657578,-0.93402886,0.18330619,-0.8768664,-0.35205764,-0.32735407,0.37029248,-0.060376227,-0.92695093,,0.43338066,-1.3947506,-4.134344,-0.99339676,-0.11107807,0.02871022,-0.11357148,0.98753977,-0.10893444,-0.016252259,-0.11147575,-0.9936342,,-0.20913160623399973,-0.11112240332721647,0.15482758131000002,-0.00020968994348452436,0.00013663649976544044,-2.973916355585917e-05,0.00016334406613427926,,-1.5060101378025217,0.04091503876764145,0.07532481932000001,0.0004193798869690487,-0.5487321830580089,0.4205819957385834,-0.0011434084629399592
1.5955059389998496,,0.43605846,-1.3308638,-4.0337667,-0.57398814,-0.6659719,-0.476465,-0.8144551,0.5246005,0.24790578,0.08485547,0.5303544,-0.8435186,,0.3761538,-1.2833767,-3.7506218,0.30657578,-0.93402886,0.18330619,-0.8768664,-0.35205764,-0.32735407,0.37029248,-0.060376227,-0.92695093,,0.43338066,-1.3947506,-4.134344,-0.99339676,-0.11107807,0.02871022,-0.11357148,0.98753977,-0.10893444,-0.016252259,-0.11147575,-0.9936342,,-0.20914705169974818,-0.11111468059434225,0.15482758131000002,-0.00020968994348452436,0.00013663649976544044,-2.973916355585917e-05,0.00016334406613427926,,-1.5060101378025217,0.04091503876764145,0.07532481932000001,0.0004193798869690487,-0.5487321830580089,0.4205819957385834,-0.0011434084629399592
1.616928100000223,,0.4360577,-1.3308632,-4.0337663,-0.57398754,-0.66596866,-0.4764701,-0.8144555,0.5245979,0.24790978,0.084855005,0.530361,-0.84351456,,0.3761538,-1.2833767,-3.7506218,0.30657578,-0.93402886,0.18330619,-0.8768664,-0.35205764,-0.32735407,0.37029248,-0.060376227,-0.92695093,,0.43338066,-1.3947506,-4.134344,-0.99339676,-0.11107807,0.02871022,-0.11357148,0.98753977,-0.10893444,-0.016252259,-0.11147575,-0.9936342,,-0.20913932896687396,-0.11111468059434225,0.15482758131000002,-0.00020968994348452436,0.00013663649976544044,-2.973916355585917e-05,0.00016334406613427926,,-1.5060101378025217,0.04091503876764145,0.07532481932000001,0.0004193798869690487,-0.5487321830580089,0.4205819957385834,-0.0011434084629399592
1.6427331430004415,,0.43605703,-1.3308642,-4.0337663,-0.5739839,-0.66596866,-0.47647452,-0.8144574,0.5245979,0.24790353,0.084861524,0.530361,-0.8435139,,0.3761538,-1.2833767,-3.7506218,0.30657578,-0.93402886,0.18330619,-0.8768664,-0.35205764,-0.32735407,0.37029248,-0.060376227,-0.92695093,,0.43338066,-1.3947506,-4.134344,-0.99339676,-0.11107807,0.02871022,-0.11357148,0.98753977,-0.10893444,-0.016252259,-0.11147575,-0.9936342,,-0.20913932896687396,-0.11112240332721647,0.15482758131000002,-0.00020968994348452436,0.00013663649976544044,-2.973916355585917e-05,0.00016334406613427926,,-1.5060101378025217,0.04091503876764145,0.07532481932000001,0.0004193798869690487,-0.5487321830580089,0.4205819957385834,-0.0011434084629399592
1.6688409870002943,,0.43605846,-1.3308638,-4.0337667,-0.57398814,-0.6659719,-0.476465,-0.8144551,0.5246005,0.24790578,0.08485547,0.5303544,-0.8435186,,0.37615272,-1.2833768,-3.7506223,0.30658585,-0.93402827,0.18329234,-0.8768642,-0.352062,-0.32735533,0.37028942,-0.060360007,-0.92695326,,0.43338066,-1.3947506,-4.134344,-0.99339676,-0.11107807,0.02871022,-0.11357148,0.98753977,-0.10893444,-0.016252259,-0.11147575,-0.9936342,,-0.20914705169974818,-0.11111468059434225,0.15482758131000002,-0.00020968994348452436,0.00013663649976544044,-2.973916355585917e-05,0.00016334406613427926,,-1.505994692336773,0.04092276150051568,0.07532481932000001,0.0004193798869690487,-0.5487321830580089,0.4205819957385834,-0.0011434084629399592
1.6910010470000998,,0.43605694,-1.3308626,-4.033766,-0.57398707,-0.6659655,-0.47647524,-0.814456,0.5245952,0.24791384,0.08485455,0.5303675,-0.8435105,,0.376153,-1.2833772,-3.7506223,0.30658156,-0.9340292,0.1832945,-0.87686294,-0.35205925,-0.32736152,0.37029576,-0.060361177,-0.92695063,,0.43338066,-1.3947506,-4.134344,-0.99339676,-0.11107807,0.02871022,-0.11357148,0.98753977,-0.10893444,-0.016252259,-0.11147575,-0.9936342,,-0.20913160623399973,-0.11111468059434225,0.15482758131000002,-0.00020968994348452436,0.00013663649976544044,-2.973916355585917e-05,0.00016334406613427926,,-1.505994692336773,0.04091503876764145,0.07532481932000001,0.0004193798869690487,-0.5487321830580089,0.4205819957385834,-0.0011434084629399592
1.7163110069996037,,0.4360563,-1.3308636,-4.0337653,-0.57398325,-0.6659655,-0.47647965,-0.8144579,0.5245952,0.24790755,0.08486107,0.5303675,-0.84350985,,0.376153,-1.2833772,-3.7506223,0.30658156,-0.9340292,0.1832945,-0.87686294,-0.35205925,-0.32736152,0.37029576,-0.060361177,-0.92695063,,0.43338066,-1.3947506,-4.134344,-0.99339676,-0.11107807,0.02871022,-0.11357148,0.98753977,-0.10893444,-0.016252259,-0.11147575,-0.9936342,,-0.20913160623399973,-0.11112240332721647,0.15482758131000002,-0.00020968994348452436,0.00013663649976544044,-2.973916355585917e-05,0.00016334406613427926,,-1.505994692336773,0.04091503876764145,0.07532481932000001,0.0004193798869690487,-0.5487321830580089,0.4205819957385834,-0.0011434084629399592
1.739052647999415,,0.4360577,-1.3308632,-4.0337663,-0.57398754,-0.66596866,-0.4764701,-0.8144555,0.5245979,0.24790978,0.084855005,0.530361,-0.84351456,,0.376153,-1.2833772,-3.7506223,0.30658156,-0.9340292,0.1832945,-0.87686294,-0.35205925,-0.32736152,0.37029576,-0.060361177,-0.92695063,,0.43338066,-1.3947506,-4.134344,-0.99339676,-0.11107807,0.02871022,-0.11357148,0.98753977,-0.10893444,-0.016252259,-0.11147575,-0.9936342,,-0.20913932896687396,-0.11111468059434225,0.15482758131000002,-0.00020968994348452436,0.00013663649976544044,-2.973916355585917e-05,0.00016334406613427926,,-1.505994692336773,0.04091503876764145,0.07532481932000001,0.0004193798869690487,-0.5487321830580089,0.4205819957385834,-0.0011434084629399592
1.7638113760003762,,0.43605694,-1.3308626,-4.033766,-0.57398707,-0.6659655,-0.47647524,-0.814456,0.5245952,0.24791384,0.08485455,0.5303675,-0.8435105,,0.3761538,-1.2833767,-3.7506218,0.30657578,-0.93402886,0.18330619,-0.8768664,-0.35205764,-0.32735407,0.37029248,-0.060376227,-0.92695093,,0.43338066,-1.3947506,-4.134344,-0.99339676,-0.11107807,0.02871022,-0.11357148,0.98753977,-0.10893444,-0.016252259,-0.11147575,-0.9936342,,-0.20913160623399973,-0.11111468059434225,0.15482758131000002,-0.00020968994348452436,0.00013663649976544044,-2.973916355585917e-05,0.00016334406613427926,,-1.5060101378025217,0.04091503876764145,0.07532481932000001,0.0004193798869690487,-0.5487321830580089,0.4205819957385834,-0.0011434084629399592
1.7870148080000945,,0.4360577,-1.3308632,-4.0337663,-0.57398754,-0.66596866,-0.4764701,-0.8144555,0.5245979,0.24790978,0.084855005,0.530361,-0.84351456,,0.37615353,-1.2833763,-3.7506218,0.30658,-0.9340279,0.183304,-0.87686765,-0.3520604,-0.32734787,0.37028617,-0.060375053,-0.92695355,,0.43338066,-1.3947506,-4.134344,-0.99339676,-0.11107807,0.02871022,-0.11357148,0.98753977,-0.10893444,-0.016252259,-0.11147575,-0.9936342,,-0.20913932896687396,-0.11111468059434225,0.15482758131000002,-0.00020968994348452436,0.00013663649976544044,-2.973916355585917e-05,0.00016334406613427926,,-1.5060101378025217,0.04092276150051568,0.07532481932000001,0.0004193798869690487,-0.5487321830580089,0.4205819957385834,-0.0011434084629399592
1.8122115400001348,,0.43605846,-1.3308638,-4.0337667,-0.5741278,-0.6658515,-0.476465,-0.8143451,0.5247712,0.24790576,0.08496668,0.5303366,-0.8435187,,0.3761538,-1.2833767,-3.7506218,0.30657578,-0.93402886,0.18330619,-0.8768664,-0.35205764,-0.32735407,0.37029248,-0.060376227,-0.92695093,,0.43338066,-1.3947506,-4.134344,-0.99339676,-0.11107807,0.02871022,-0.11357148,0.98753977,-0.10893444,-0.016252259,-0.11147575,-0.9936342,,-0.20914705169974818,-0.11111468059434225,0.15482758131000002,0.0,0.00013663649976544044,-2.973916355585917e-05,0.00016334406613427926,,-1.5060101378025217,0.04091503876764145,0.07532481932000001,0.0004193798869690487,-0.5487321830580089,0.4205819957385834,-0.0011434084629399592
1.8355189060002886,,0.43605846,-1.3308638,-4.0337667,-0.5742674,-0.6657311,-0.47646496,-0.81423503,0.5249419,0.24790573,0.08507789,0.53031874,-0.8435187,,0.3761534,-1.2833769,-3.750622,0.3065787,-0.9340291,0.18330035,-0.8768647,-0.3520584,-0.3273578,0.37029412,-0.0603687,-0.9269508,,0.43338066,-1.3947506,-4.134344,-0.99339676,-0.11107807,0.02871022,-0.11357148,0.98753977,-0.10893444,-0.016252259,-0.11147575,-0.9936342,,-0.20914705169974818,-0.11111468059434225,0.15482758131000002,0.00020968994348452436,0.00013663649976544044,-2.973916355585917e-05,0.00016334406613427926,,-1.5060024150696474,0.04091503876764145,0.07532481932000001,0.0004193798869690487,-0.5487321830580089,0.4205819957385834,-0.0011434084629399592
1.857059042000401,,0.43605846,-1.3308638,-4.0337667,-0.5742674,-0.6657311,-0.47646496,-0.81423503,0.5249419,0.24790573,0.08507789,0.53031874,-0.8435187,,0.37615272,-1.2833768,-3.7506223,0.30658585,-0.93402827,0.18329234,-0.8768642,-0.352062,-0.32735533,0.37028942,-0.060360007,-0.92695326,,0.43338066,-1.3947506,-4.134344,-0.99339676,-0.11107807,0.02871022,-0.11357148,0.98753977,-0.10893444,-0.016252259,-0.11147575,-0.9936342,,-0.20914705169974818,-0.11111468059434225,0.15482758131000002,0.00020968994348452436,0.00013663649976544044,-2.973916355585917e-05,0.00016334406613427926,,-1.505994692336773,0.04092276150051568,0.07532481932000001,0.0004193798869690487,-0.5487321830580089,0.4205819957385834,-0.0011434084629399592
1.8841100310000911,,0.43605846,-1.3308638,-4.0337667,-0.5742674,-0.6657311,-0.47646496,-0.81423503,0.5249419,0.24790573,0.08507789,0.53031874,-0.8435187,,0.376153,-1.2833772,-3.7506223,0.30658156,-0.9340292,0.1832945,-0.87686294,-0.35205925,-0.32736152,0.37029576,-0.060361177,-0.92695063,,0.43338066,-1.3947506,-4.134344,-0.99339676,-0.11107807,0.02871022,-0.11357148,0.98753977,-0.10893444,-0.016252259,-0.11147575,-0.9936342,,-0.20914705169974818,-0.11111468059434225,0.15482758131000002,0.00020968994348452436,0.00013663649976544044,-2.973916355585917e-05,0.00016334406613427926,,-1.505994692336773,0.04091503876764145,0.07532481932000001,0.0004193798869690487,-0.5487321830580089,0.4205819957385834,-0.0011434084629399592
1.9072949050005263,,0.43605846,-1.3308638,-4.0337667,-0.5742674,-0.6657311,-0.47646496,-0.81423503,0.5249419,0.24790573,0.08507789,0.53031874,-0.8435187,,0.37615272,-1.2833768,-3.7506223,0.30658585,-0.93402827,0.18329234,-0.8768642,-0.352062,-0.32735533,0.37028942,-0.060360007,-0.92695326,,0.43338066,-1.3947506,-4.134344,-0.99339676,-0.11107807,0.02871022,-0.11357148,0.98753977,-0.10893444,-0.016252259,-0.11147575,-0.9936342,,-0.20914705169974818,-0.11111468059434225,0.15482758131000002,0.00020968994348452436,0.00013663649976544044,-2.973916355585917e-05,0.00016334406613427926,,-1.505994692336773,0.04092276150051568,0.07532481932000001,0.0004193798869690487,-0.5487321830580089,0.4205819957385834,-0.0011434084629399592
1.934615964999466,,0.43605846,-1.3308638,-4.0337667,-0.5742674,-0.6657311,-0.47646496,-0.81423503,0.5249419,0.24790573,0.08507789,0.53031874,-0.8435187,,0.3761538,-1.2833767,-3.7506218,0.30657578,-0.93402886,0.18330619,-0.8768664,-0.35205764,-0.32735407,0.37029248,-0.060376227,-0.92695093,,0.43338066,-1.3947506,-4.134344,-0.99339676,-0.11107807,0.02871022,-0.11357148,0.98753977,-0.10893444,-0.016252259,-0.11147575,-0.9936342,,-0.20914705169974818,-0.11111468059434225,0.15482758131000002,0.00020968994348452436,0.00013663649976544044,-2.973916355585917e-05,0.00016334406613427926,,-1.5060101378025217,0.04091503876764145,0.07532481932000001,0.0004193798869690487,-0.5487321830580089,0.4205819957385834,-0.0011434084629399592
1.9564504600002692,,0.43605846,-1.3308638,-4.0337667,-0.5742674,-0.6657311,-0.47646496,-0.81423503,0.5249419,0.24790573,0.08507789,0.53031874,-0.8435187,,0.37615353,-1.2833763,-3.7506218,0.30658,-0.9340279,0.183304,-0.87686765,-0.3520604,-0.32734787,0.37028617,-0.060375053,-0.92695355,,0.43338066,-1.3947506,-4.134344,-0.99339676,-0.11107807,0.02871022,-0.11357148,0.98753977,-0.10893444,-0.016252259,-0.11147575,-0.9936342,,-0.20914705169974818,-0.11111468059434225,0.15482758131000002,0.00020968994348452436,0.00013663649976544044,-2.973916355585917e-05,0.00016334406613427926,,-1.5060101378025217,0.04092276150051568,0.07532481932000001,0.0004193798869690487,-0.5487321830580089,0.4205819957385834,-0.0011434084629399592
1.9851949299991247,,0.4360563,-1.3308636,-4.0337653,-0.57426256,-0.6657247,-0.47647962,-0.8142378,0.5249368,0.2479075,0.0850835,0.53033185,-0.8435099,,0.3761538,-1.2833767,-3.7506218,0.30657578,-0.93402886,0.18330619,-0.8768664,-0.35205764,-0.32735407,0.37029248,-0.060376227,-0.92695093,,0.43338066,-1.3947506,-4.134344,-0.99339676,-0.11107807,0.02871022,-0.11357148,0.98753977,-0.10893444,-0.016252259,-0.11147575,-0.9936342,,-0.20913160623399973,-0.11112240332721647,0.15482758131000002,0.00020968994348452436,0.00013663649976544044,-2.973916355585917e-05,0.00016334406613427926,,-1.5060101378025217,0.04091503876764145,0.07532481932000001,0.0004193798869690487,-0.5487321830580089,0.4205819957385834,-0.0011434084629399592
2.008474713000396,,0.43606564,-1.3308543,-4.033763,-0.57425636,-0.6657313,-0.47647777,-0.81424147,0.52493715,0.24789459,0.08508968,0.53032315,-0.8435147,,0.37624097,-1.2833616,-3.7506146,0.3066707,-0.93399996,0.18329494,-0.87683034,-0.35214287,-0.32735896,0.37029925,-0.060327172,-0.92695147,,0.43338066,-1.3947506,-4.134344,-0.99339676,-0.11107807,0.02871022,-0.11357148,0.98753977,-0.10893444,-0.016252259,-0.11147575,-0.9936342,,-0.20913932896687396,-0.11111468059434225,0.15482758131000002,0.00020968994348452436,0.00013663649976544044,-2.973916355585917e-05,0.00016334406613427926,,-1.5060024150696474,0.04092276150051568,0.07532481932000001,0.0004193798869690487,-0.5487321830580089,0.4205819957385834,-0.0011434084629399592
2.031352097999843,,0.43602127,-1.3308445,-4.033777,-0.5742952,-0.6657087,-0.47646278,-0.814215,0.52496505,0.24792278,0.085081935,0.530324,-0.843515,,0.37619662,-1.2833508,-3.7506304,0.30662423,-0.9340171,0.18328503,-0.87684274,-0.35209662,-0.32737574,0.37030855,-0.0603308,-0.9269475,,0.433335,-1.3947412,-4.1343594,-0.993402,-0.11103027,0.028714962,-0.113524474,0.98754525,-0.108933866,-0.016262367,-0.11147494,-0.99363416,,-0.20913160623399973,-0.11111468059434225,0.15482758131000002,0.00020968994348452436,0.00013663649976544044,-2.973916355585917e-05,0.00016334406613427926,,-1.505994692336773,0.04091503876764145,0.07532481932000001,0.0004193798869690487,-0.5487321830580089,0.4205819957385834,-0.0011434084629399592
2.0550741000006383,,0.436022,-1.3308451,-4.033778,-0.57429576,-0.6657118,-0.4764577,-0.81421447,0.5249676,0.24791875,0.08508238,0.53031754,-0.843519,,0.376197,-1.2833506,-3.7506301,0.3066213,-0.93401694,0.18329087,-0.87684435,-0.35209584,-0.327372,0.37030694,-0.060338326,-0.92694765,,0.433335,-1.3947412,-4.1343594,-0.993402,-0.11103027,0.028714962,-0.113524474,0.98754525,-0.108933866,-0.016262367,-0.11147494,-0.99363416,,-0.20913932896687396,-0.11111468059434225,0.15482758131000002,0.00020968994348452436,0.00013663649976544044,-2.973916355585917e-05,0.00016334406613427926,,-1.5060024150696474,0.04091503876764145,0.07532481932000001,0.0004193798869690487,-0.5487321830580089,0.4205819957385834,-0.0011434084629399592
2.080608497999492,,0.43602276,-1.3308457,-4.0337787,-0.5742963,-0.66571504,-0.47645253,-0.81421405,0.52497023,0.24791473,0.08508284,0.530311,-0.8435231,,0.37619716,-1.28335,-3.75063,0.30662265,-0.93401575,0.18329452,-0.8768473,-0.3520978,-0.32736212,0.37029895,-0.06034469,-0.92695045,,0.433335,-1.3947412,-4.1343594,-0.993402,-0.11103027,0.028714962,-0.113524474,0.98754525,-0.108933866,-0.016262367,-0.11147494,-0.99363416,,-0.20913932896687396,-0.11111468059434225,0.15482758131000002,0.00020968994348452436,0.00013663649976544044,-2.973916355585917e-05,0.00016334406613427926,,-1.5060101378025217,0.04092276150051568,0.07532481932000001,0.0004193798869690487,-0.5487321830580089,0.4205819957385834,-0.0011434084629399592
2.1054215090007347,,0.4360206,-1.3308455,-4.033777,-0.5742915,-0.6657087,-0.4764672,-0.81421685,0.52496505,0.24791649,0.08508844,0.530324,-0.84351426,,0.376197,-1.2833506,-3.7506301,0.3066213,-0.93401694,0.18329087,-0.87684435,-0.35209584,-0.327372,0.37030694,-0.060338326,-0.92694765,,0.433335,-1.3947412,-4.1343594,-0.993402,-0.11103027,0.028714962,-0.113524474,0.98754525,-0.108933866,-0.016262367,-0.11147494,-0.99363416,,-0.20913160623399973,-0.11112240332721647,0.15482758131000002,0.00020968994348452436,0.00013663649976544044,-2.973916355585917e-05,0.00016334406613427926,,-1.5060024150696474,0.04091503876764145,0.07532481932000001,0.0004193798869690487,-0.5487321830580089,0.4205819957385834,-0.0011434084629399592
2.1289725810001983,,0.43602136,-1.3308461,-4.033778,-0.5742921,-0.6657118,-0.4764621,-0.81421643,0.5249676,0.24791247,0.0850889,0.53031754,-0.8435183,,0.37619674,-1.2833502,-3.7506301,0.30662557,-0.934016,0.1832887,-0.87684554,-0.3520986,-0.32736582,0.3703006,-0.060337156,-0.9269503,,0.433335,-1.3947412,-4.1343594,-0.993402,-0.11103027,0.028714962,-0.113524474,0.98754525,-0.108933866,-0.016262367,-0.11147494,-0.99363416,,-0.20913932896687396,-0.11112240332721647,0.15482758131000002,0.00020968994348452436,0.00013663649976544044,-2.973916355585917e-05,0.00016334406613427926,,-1.5060024150696474,0.04092276150051568,0.07532481932000001,0.0004193798869690487,-0.5487321830580089,0.4205819957385834,-0.0011434084629399592
2.1553856909995375,,0.436022,-1.3308451,-4.033778,-0.57429576,-0.6657118,-0.4764577,-0.81421447,0.5249676,0.24791875,0.08508238,0.53031754,-0.843519,,0.37619632,-1.2833505,-3.7506304,0.30662847,-0.93401617,0.18328285,-0.87684387,-0.3520994,-0.32736957,0.37030223,-0.06032964,-0.9269501,,0.433335,-1.3947412,-4.1343594,-0.993402,-0.11103027,0.028714962,-0.113524474,0.98754525,-0.108933866,-0.016262367,-0.11147494,-0.99363416,,-0.20913932896687396,-0.11111468059434225,0.15482758131000002,0.00020968994348452436,0.00013663649976544044,-2.973916355585917e-05,0.00016334406613427926,,-1.505994692336773,0.04092276150051568,0.07532481932000001,0.0004193798869690487,-0.5487321830580089,0.4205819957385834,-0.0011434084629399592
2.1794677170000796,,0.4360206,-1.3308455,-4.033777,-0.5742915,-0.6657087,-0.4764672,-0.81421685,0.52496505,0.24791649,0.08508844,0.530324,-0.84351426,,0.376197,-1.2833506,-3.7506301,0.3066213,-0.93401694,0.18329087,-0.87684435,-0.35209584,-0.327372,0.37030694,-0.060338326,-0.92694765,,0.433335,-1.3947412,-4.1343594,-0.993402,-0.11103027,0.028714962,-0.113524474,0.98754525,-0.108933866,-0.016262367,-0.11147494,-0.99363416,,-0.20913160623399973,-0.11112240332721647,0.15482758131000002,0.00020968994348452436,0.00013663649976544044,-2.973916355585917e-05,0.00016334406613427926,,-1.5060024150696474,0.04091503876764145,0.07532481932000001,0.0004193798869690487,-0.5487321830580089,0.4205819957385834,-0.0011434084629399592
2.207275404000029,,0.43602276,-1.3308457,-4.0337787,-0.5742963,-0.66571504,-0.47645253,-0.81421405,0.52497023,0.24791473,0.08508284,0.530311,-0.8435231,,0.37619716,-1.28335,-3.75063,0.30662265,-0.93401575,0.18329452,-0.8768473,-0.3520978,-0.32736212,0.37029895,-0.06034469,-0.92695045,,0.433335,-1.3947412,-4.1343594,-0.993402,-0.11103027,0.028714962,-0.113524474,0.98754525,-0.108933866,-0.016262367,-0.11147494,-0.99363416,,-0.20914705169974818,-0.11111468059434225,0.15482758131000002,0.00020968994348452436,0.00013663649976544044,-2.973916355585917e-05,0.00016334406613427926,,-1.5060101378025217,0.04092276150051568,0.07532481932000001,0.0004193798869690487,-0.5487321830580089,0.4205819957385834,-0.0011434084629399592
2.2301888349993533,,0.43602127,-1.3308445,-4.033777,-0.5742952,-0.6657087,-0.47646278,-0.814215,0.52496505,0.24792278,0.085081935,0.530324,-0.843515,,0.37619743,-1.2833503,-3.75063,0.3066184,-0.9340167,0.18329668,-0.8768461,-0.35209504,-0.3273683,0.3703053,-0.06034586,-0.92694783,,0.433335,-1.3947412,-4.1343594,-0.993402,-0.11103027,0.028714962,-0.113524474,0.98754525,-0.108933866,-0.016262367,-0.11147494,-0.99363416,,-0.20913160623399973,-0.11111468059434225,0.15482758131000002,0.00020968994348452436,0.00013663649976544044,-2.973916355585917e-05,0.00016334406613427926,,-1.5060101378025217,0.04091503876764145,0.07532481932000001,0.0004193798869690487,-0.5487321830580089,0.4205819957385834,-0.0011434084629399592
2.25495879600021,,0.4360206,-1.3308455,-4.033777,-0.5742915,-0.6657087,-0.4764672,-0.81421685,0.52496505,0.24791649,0.08508844,0.530324,-0.84351426,,0.37619743,-1.2833503,-3.75063,0.3066184,-0.9340167,0.18329668,-0.8768461,-0.35209504,-0.3273683,0.3703053,-0.06034586,-0.92694783,,0.433335,-1.3947412,-4.1343594,-0.993402,-0.11103027,0.028714962,-0.113524474,0.98754525,-0.108933866,-0.016262367,-0.11147494,-0.99363416,,-0.20913160623399973,-0.11112240332721647,0.15482758131000002,0.00020968994348452436,0.00013663649976544044,-2.973916355585917e-05,0.00016334406613427926,,-1.5060101378025217,0.04091503876764145,0.07532481932000001,0.0004193798869690487,-0.5487321830580089,0.4205819957385834,-0.0011434084629399592
2.279818159999195,,0.436022,-1.3308451,-4.033778,-0.57429576,-0.6657118,-0.4764577,-0.81421447,0.5249676,0.24791875,0.08508238,0.53031754,-0.843519,,0.37619743,-1.2833503,-3.75063,0.3066184,-0.9340167,0.18329668,-0.8768461,-0.35209504,-0.3273683,0.3703053,-0.06034586,-0.92694783,,0.433335,-1.3947412,-4.1343594,-0.993402,-0.11103027,0.028714962,-0.113524474,0.98754525,-0.108933866,-0.016262367,-0.11147494,-0.99363416,,-0.20913932896687396,-0.11111468059434225,0.15482758131000002,0.00020968994348452436,0.00013663649976544044,-2.973916355585917e-05,0.00016334406613427926,,-1.5060101378025217,0.04091503876764145,0.07532481932000001,0.0004193798869690487,-0.5487321830580089,0.4205819957385834,-0.0011434084629399592
2.3029287749996,,0.43602127,-1.3308445,-4.033777,-0.5742952,-0.6657087,-0.47646278,-0.814215,0.52496505,0.24792278,0.085081935,0.530324,-0.843515,,0.37619743,-1.2833503,-3.75063,0.3066184,-0.9340167,0.18329668,-0.8768461,-0.35209504,-0.3273683,0.3703053,-0.06034586,-0.92694783,,0.433335,-1.3947412,-4.1343594,-0.993402,-0.11103027,0.028714962,-0.113524474,0.98754525,-0.108933866,-0.016262367,-0.11147494,-0.99363416,,-0.20913160623399973,-0.11111468059434225,0.15482758131000002,0.00020968994348452436,0.00013663649976544044,-2.973916355585917e-05,0.00016334406613427926,,-1.5060101378025217,0.04091503876764145,0.07532481932000001,0.0004193798869690487,-0.5487321830580089,0.4205819957385834,-0.0011434084629399592
2.3293571960002737,,0.43602136,-1.3308461,-4.033778,-0.5742921,-0.6657118,-0.4764621,-0.81421643,0.5249676,0.24791247,0.0850889,0.53031754,-0.8435183,,0.37619716,-1.28335,-3.75063,0.30662265,-0.93401575,0.18329452,-0.8768473,-0.3520978,-0.32736212,0.37029895,-0.06034469,-0.92695045,,0.433335,-1.3947412,-4.1343594,-0.993402,-0.11103027,0.028714962,-0.113524474,0.98754525,-0.108933866,-0.016262367,-0.11147494,-0.99363416,,-0.20913932896687396,-0.11112240332721647,0.15482758131000002,0.00020968994348452436,0.00013663649976544044,-2.973916355585917e-05,0.00016334406613427926,,-1.5060101378025217,0.04092276150051568,0.07532481932000001,0.0004193798869690487,-0.5487321830580089,0.4205819957385834,-0.0011434084629399592
2.3534641139995074,,0.43602276,-1.3308457,-4.0337787,-0.5742963,-0.66571504,-0.47645253,-0.81421405,0.52497023,0.24791473,0.08508284,0.530311,-0.8435231,,0.37619716,-1.28335,-3.75063,0.30662265,-0.93401575,0.18329452,-0.8768473,-0.3520978,-0.32736212,0.37029895,-0.06034469,-0.92695045,,0.433335,-1.3947412,-4.1343594,-0.993402,-0.11103027,0.028714962,-0.113524474,0.98754525,-0.108933866,-0.016262367,-0.11147494,-0.99363416,,-0.20914705169974818,-0.11111468059434225,0.15482758131000002,0.00020968994348452436,0.00013663649976544044,-2.973916355585917e-05,0.00016334406613427926,,-1.5060101378025217,0.04092276150051568,0.07532481932000001,0.0004193798869690487,-0.5487321830580089,0.4205819957385834,-0.0011434084629399592
2.374466040000698,,0.436022,-1.3308451,-4.033778,-0.57429576,-0.6657118,-0.4764577,-0.81421447,0.5249676,0.24791875,0.08508238,0.53031754,-0.843519,,0.37619716,-1.28335,-3.75063,0.30662265,-0.93401575,0.18329452,-0.8768473,-0.3520978,-0.32736212,0.37029895,-0.06034469,-0.92695045,,0.433335,-1.3947412,-4.1343594,-0.993402,-0.11103027,0.028714962,-0.113524474,0.98754525,-0.108933866,-0.016262367,-0.11147494,-0.99363416,,-0.20913932896687396,-0.11111468059434225,0.15482758131000002,0.00020968994348452436,0.00013663649976544044,-2.973916355585917e-05,0.00016334406613427926,,-1.5060101378025217,0.04092276150051568,0.07532481932000001,0.0004193798869690487,-0.5487321830580089,0.4205819957385834,-0.0011434084629399592
2.401388186999611,,0.43602136,-1.3308461,-4.033778,-0.5742921,-0.6657118,-0.4764621,-0.81421643,0.5249676,0.24791247,0.0850889,0.53031754,-0.8435183,,0.37619743,-1.2833503,-3.75063,0.3066184,-0.9340167,0.18329668,-0.8768461,-0.35209504,-0.3273683,0.3703053,-0.06034586,-0.92694783,,0.433335,-1.3947412,-4.1343594,-0.993402,-0.11103027,0.028714962,-0.113524474,0.98754525,-0.108933866,-0.016262367,-0.11147494,-0.99363416,,-0.20913932896687396,-0.11112240332721647,0.15482758131000002,0.00020968994348452436,0.00013663649976544044,-2.973916355585917e-05,0.00016334406613427926,,-1.5060101378025217,0.04091503876764145,0.07532481932000001,0.0004193798869690487,-0.5487321830580089,0.4205819957385834,-0.0011434084629399592
2.42421822399956,,0.43602276,-1.3308457,-4.0337787,-0.5742963,-0.66571504,-0.47645253,-0.81421405,0.52497023,0.24791473,0.08508284,0.530311,-0.8435231,,0.37619743,-1.2833503,-3.75063,0.3066184,-0.9340167,0.18329668,-0.8768461,-0.35209504,-0.3273683,0.3703053,-0.06034586,-0.92694783,,0.433335,-1.3947412,-4.1343594,-0.993402,-0.11103027,0.028714962,-0.113524474,0.98754525,-0.108933866,-0.016262367,-0.11147494,-0.99363416,,-0.20914705169974818,-0.11111468059434225,0.15482758131000002,0.00020968994348452436,0.00013663649976544044,-2.973916355585917e-05,0.00016334406613427926,,-1.5060101378025217,0.04091503876764145,0.07532481932000001,0.0004193798869690487,-0.5487321830580089,0.4205819957385834,-0.0011434084629399592
2.451972783999736,,0.43602127,-1.3308445,-4.033777,-0.5742952,-0.6657087,-0.47646278,-0.814215,0.52496505,0.24792278,0.085081935,0.530324,-0.843515,,0.37619743,-1.2833503,-3.75063,0.3066184,-0.9340167,0.18329668,-0.8768461,-0.35209504,-0.3273683,0.3703053,-0.06034586,-0.92694783,,0.433335,-1.3947412,-4.1343594,-0.993402,-0.11103027,0.028714962,-0.113524474,0.98754525,-0.108933866,-0.016262367,-0.11147494,-0.99363416,,-0.20913160623399973,-0.11111468059434225,0.15482758131000002,0.00020968994348452436,0.00013663649976544044,-2.973916355585917e-05,0.00016334406613427926,,-1.5060101378025217,0.04091503876764145,0.07532481932000001,0.0004193798869690487,-0.5487321830580089,0.4205819957385834,-0.0011434084629399592
2.4740572970003996,,0.4360221,-1.3308467,-4.0337787,-0.57429266,-0.66571504,-0.476457,-0.814216,0.52497023,0.2479084,0.085089356,0.530311,-0.84352237,,0.37619743,-1.2833503,-3.75063,0.3066184,-0.9340167,0.18329668,-0.8768461,-0.35209504,-0.3273683,0.3703053,-0.06034586,-0.92694783,,0.433335,-1.3947412,-4.1343594,-0.993402,-0.11103027,0.028714962,-0.113524474,0.98754525,-0.108933866,-0.016262367,-0.11147494,-0.99363416,,-0.20914705169974818,-0.11112240332721647,0.15482758131000002,0.00020968994348452436,0.00013663649976544044,-2.973916355585917e-05,0.00016334406613427926,,-1.5060101378025217,0.04091503876764145,0.07532481932000001,0.0004193798869690487,-0.5487321830580089,0.4205819957385834,-0.0011434084629399592
2.500843812000312,,0.43602058,-1.3308471,-4.0337777,-0.5741655,-0.66560566,-0.47676295,-0.8142823,0.5249124,0.2478132,0.08531289,0.5305055,-0.84337753,,0.37619716,-1.28335,-3.75063,0.30662265,-0.93401575,0.18329452,-0.8768473,-0.3520978,-0.32736212,0.37029895,-0.06034469,-0.92695045,,0.433335,-1.3947412,-4.1343594,-0.993402,-0.11103027,0.028714962,-0.113524474,0.98754525,-0.108933866,-0.016262367,-0.11147494,-0.99363416,,-0.20913932896687396,-0.11111468059434225,0.15482758131000002,0.00020968994348452436,-0.00013663649976544044,0.00019309664383698364,0.00016334406613427926,,-1.5060101378025217,0.04092276150051568,0.07532481932000001,0.0004193798869690487,-0.5487321830580089,0.4205819957385834,-0.0011434084629399592
2.522393457000362,,0.43601918,-1.3308475,-4.033777,-0.57416135,-0.66560245,-0.47677246,-0.8142846,0.5249098,0.24781096,0.085318945,0.53051203,-0.8433728,,0.37619743,-1.2833503,-3.75063,0.3066184,-0.9340167,0.18329668,-0.8768461,-0.35209504,-0.3273683,0.3703053,-0.06034586,-0.92694783,,0.433335,-1.3947412,-4.1343594,-0.993402,-0.11103027,0.028714962,-0.113524474,0.98754525,-0.108933866,-0.016262367,-0.11147494,-0.99363416,,-0.20913160623399973,-0.11112240332721647,0.15482758131000002,0.00020968994348452436,-0.00013663649976544044,0.00019309664383698364,0.00016334406613427926,,-1.5060101378025217,0.04091503876764145,0.07532481932000001,0.0004193798869690487,-0.5487321830580089,0.4205819957385834,-0.0011434084629399592
2.5483159300001716,,0.43602136,-1.3308477,-4.0337787,-0.5741661,-0.66564775,-0.47670346,-0.8142818,0.52493525,0.24776629,0.08531334,0.53043,-0.8434249,,0.37619743,-1.2833503,-3.75063,0.3066184,-0.9340167,0.18329668,-0.8768461,-0.35209504,-0.3273683,0.3703053,-0.06034586,-0.92694783,,0.433335,-1.3947412,-4.1343594,-0.993402,-0.11103027,0.028714962,-0.113524474,0.98754525,-0.108933866,-0.016262367,-0.11147494,-0.99363416,,-0.20914705169974818,-0.11111468059434225,0.15482758131000002,0.00020968994348452436,-0.00013663649976544044,0.0001114179036964214,0.0,,-1.5060101378025217,0.04091503876764145,0.07532481932000001,0.0004193798869690487,-0.5487321830580089,0.4205819957385834,-0.0011434084629399592
2.5723927290000574,,0.43601984,-1.3308465,-4.033777,-0.5741649,-0.66568035,-0.47665927,-0.8142827,0.52495027,0.24773149,0.08531243,0.53037417,-0.84346014,,0.37619743,-1.2833503,-3.75063,0.3066184,-0.9340167,0.18329668,-0.8768461,-0.35209504,-0.3273683,0.3703053,-0.06034586,-0.92694783,,0.433335,-1.3947412,-4.1343594,-0.993402,-0.11103027,0.028714962,-0.113524474,0.98754525,-0.108933866,-0.016262367,-0.11147494,-0.99363416,,-0.20913160623399973,-0.11111468059434225,0.15482758131000002,0.00020968994348452436,-0.00013663649976544044,2.973916355585917e-05,-0.00016334406613427926,,-1.5060101378025217,0.04091503876764145,0.07532481932000001,0.0004193798869690487,-0.5487321830580089,0.4205819957385834,-0.0011434084629399592
2.5992922479999834,,0.43602058,-1.3308471,-4.0337777,-0.5741655,-0.66568345,-0.47665417,-0.8142823,0.5249529,0.24772748,0.08531289,0.5303677,-0.8434642,,0.37619743,-1.2833503,-3.75063,0.3066184,-0.9340167,0.18329668,-0.8768461,-0.35209504,-0.3273683,0.3703053,-0.06034586,-0.92694783,,0.433335,-1.3947412,-4.1343594,-0.993402,-0.11103027,0.028714962,-0.113524474,0.98754525,-0.108933866,-0.016262367,-0.11147494,-0.99363416,,-0.20913932896687396,-0.11111468059434225,0.15482758131000002,0.00020968994348452436,-0.00013663649976544044,2.973916355585917e-05,-0.00016334406613427926,,-1.5060101378025217,0.04091503876764145,0.07532481932000001,0.0004193798869690487,-0.5487321830580089,0.4205819957385834,-0.0011434084629399592
2.6220429129989498,,0.43602058,-1.3308471,-4.0337777,-0.5741655,-0.66568345,-0.47665417,-0.8142823,0.5249529,0.24772748,0.08531289,0.5303677,-0.8434642,,0.37619716,-1.28335,-3.75063,0.30662265,-0.93401575,0.18329452,-0.8768473,-0.3520978,-0.32736212,0.37029895,-0.06034469,-0.92695045,,0.433335,-1.3947412,-4.1343594,-0.993402,-0.11103027,0.028714962,-0.113524474,0.98754525,-0.108933866,-0.016262367,-0.11147494,-0.99363416,,-0.20913932896687396,-0.11111468059434225,0.15482758131000002,0.00020968994348452436,-0.00013663649976544044,2.973916355585917e-05,-0.00016334406613427926,,-1.5060101378025217,0.04092276150051568,0.07532481932000001,0.0004193798869690487,-0.5487321830580089,0.4205819957385834,-0.0011434084629399592
2.6474624990005395,,0.43601984,-1.3308465,-4.033777,-0.5741649,-0.66568035,-0.47665927,-0.8142827,0.52495027,0.24773149,0.08531243,0.53037417,-0.84346014,,0.37619743,-1.2833503,-3.75063,0.3066184,-0.9340167,0.18329668,-0.8768461,-0.35209504,-0.3273683,0.3703053,-0.06034586,-0.92694783,,0.433335,-1.3947412,-4.1343594,-0.993402,-0.11103027,0.028714962,-0.113524474,0.98754525,-0.108933866,-0.016262367,-0.11147494,-0.99363416,,-0.20913160623399973,-0.11111468059434225,0.15482758131000002,0.00020968994348452436,-0.00013663649976544044,2.973916355585917e-05,-0.00016334406613427926,,-1.5060101378025217,0.04091503876764145,0.07532481932000001,0.0004193798869690487,-0.5487321830580089,0.4205819957385834,-0.0011434084629399592
2.669759630000044,,0.43602067,-1.3308487,-4.033778,-0.5741624,-0.66568667,-0.4766535,-0.8142837,0.5249555,0.24771714,0.08531986,0.5303611,-0.8434676,,0.37619716,-1.28335,-3.75063,0.30662265,-0.93401575,0.18329452,-0.8768473,-0.3520978,-0.32736212,0.37029895,-0.06034469,-0.92695045,,0.433335,-1.3947412,-4.1343594,-0.993402,-0.11103027,0.028714962,-0.113524474,0.98754525,-0.108933866,-0.016262367,-0.11147494,-0.99363416,,-0.20914705169974818,-0.11112240332721647,0.15482758131000002,0.00020968994348452436,-0.00013663649976544044,2.973916355585917e-05,-0.00016334406613427926,,-1.5060101378025217,0.04092276150051568,0.07532481932000001,0.0004193798869690487,-0.5487321830580089,0.4205819957385834,-0.0011434084629399592
2.695146845000636,,0.43602058,-1.3308471,-4.0337777,-0.57388633,-0.6659244,-0.47665414,-0.8145023,0.52461135,0.24772744,0.085090466,0.5304033,-0.84346426,,0.37619743,-1.2833503,-3.75063,0.3066184,-0.9340167,0.18329668,-0.8768461,-0.35209504,-0.3273683,0.3703053,-0.06034586,-0.92694783,,0.433335,-1.3947412,-4.1343594,-0.993402,-0.11103027,0.028714962,-0.113524474,0.98754525,-0.108933866,-0.016262367,-0.11147494,-0.99363416,,-0.20913932896687396,-0.11111468059434225,0.15482758131000002,-0.00020968994348452436,-0.00013663649976544044,2.973916355585917e-05,-0.00016334406613427926,,-1.5060101378025217,0.04091503876764145,0.07532481932000001,0.0004193798869690487,-0.5487321830580089,0.4205819957385834,-0.0011434084629399592
2.7204861019999953,,0.43602058,-1.3308471,-4.0337777,-0.57388633,-0.6659244,-0.47665414,-0.8145023,0.52461135,0.24772744,0.085090466,0.5304033,-0.84346426,,0.37619743,-1.2833503,-3.75063,0.3066184,-0.9340167,0.18329668,-0.8768461,-0.35209504,-0.3273683,0.3703053,-0.06034586,-0.92694783,,0.433335,-1.3947412,-4.1343594,-0.993402,-0.11103027,0.028714962,-0.113524474,0.98754525,-0.108933866,-0.016262367,-0.11147494,-0.99363416,,-0.20913932896687396,-0.11111468059434225,0.15482758131000002,-0.00020968994348452436,-0.00013663649976544044,2.973916355585917e-05,-0.00016334406613427926,,-1.5060101378025217,0.04091503876764145,0.07532481932000001,0.0004193798869690487,-0.5487321830580089,0.4205819957385834,-0.0011434084629399592
2.744368358999054,,0.43602136,-1.3308477,-4.0337787,-0.57388693,-0.6659274,-0.47664902,-0.81450194,0.524614,0.24772339,0.08509092,0.5303968,-0.8434683,,0.37619716,-1.28335,-3.75063,0.30662265,-0.93401575,0.18329452,-0.8768473,-0.3520978,-0.32736212,0.37029895,-0.06034469,-0.92695045,,0.433335,-1.3947412,-4.1343594,-0.993402,-0.11103027,0.028714962,-0.113524474,0.98754525,-0.108933866,-0.016262367,-0.11147494,-0.99363416,,-0.20914705169974818,-0.11111468059434225,0.15482758131000002,-0.00020968994348452436,-0.00013663649976544044,2.973916355585917e-05,-0.00016334406613427926,,-1.5060101378025217,0.04092276150051568,0.07532481932000001,0.0004193798869690487,-0.5487321830580089,0.4205819957385834,-0.0011434084629399592
2.7683463409994147,,0.43601984,-1.3308465,-4.033777,-0.5738858,-0.6659211,-0.47665924,-0.8145028,0.52460885,0.24773143,0.08509001,0.53040993,-0.84346014,,0.37619716,-1.28335,-3.75063,0.30662265,-0.93401575,0.18329452,-0.8768473,-0.3520978,-0.32736212,0.37029895,-0.06034469,-0.92695045,,0.433335,-1.3947412,-4.1343594,-0.993402,-0.11103027,0.028714962,-0.113524474,0.98754525,-0.108933866,-0.016262367,-0.11147494,-0.99363416,,-0.20913160623399973,-0.11111468059434225,0.15482758131000002,-0.00020968994348452436,-0.00013663649976544044,2.973916355585917e-05,-0.00016334406613427926,,-1.5060101378025217,0.04092276150051568,0.07532481932000001,0.0004193798869690487,-0.5487321830580089,0.4205819957385834,-0.0011434084629399592
2.7893228009997983,,0.43601993,-1.3308481,-4.0337777,-0.57388264,-0.6659244,-0.4766586,-0.8145042,0.52461135,0.24772114,0.08509698,0.5304033,-0.84346354,,0.37619743,-1.2833503,-3.75063,0.3066184,-0.9340167,0.18329668,-0.8768461,-0.35209504,-0.3273683,0.3703053,-0.06034586,-0.92694783,,0.433335,-1.3947412,-4.1343594,-0.993402,-0.11103027,0.028714962,-0.113524474,0.98754525,-0.108933866,-0.016262367,-0.11147494,-0.99363416,,-0.20913932896687396,-0.11112240332721647,0.15482758131000002,-0.00020968994348452436,-0.00013663649976544044,2.973916355585917e-05,-0.00016334406613427926,,-1.5060101378025217,0.04091503876764145,0.07532481932000001,0.0004193798869690487,-0.5487321830580089,0.4205819957385834,-0.0011434084629399592
2.819463657999222,,0.43602058,-1.3308471,-4.0337777,-0.57388633,-0.6659244,-0.47665414,-0.8145023,0.52461135,0.24772744,0.085090466,0.5304033,-0.84346426,,0.37619632,-1.2833505,-3.7506304,0.30662847,-0.93401617,0.18328285,-0.87684387,-0.3520994,-0.32736957,0.37030223,-0.06032964,-0.9269501,,0.433335,-1.3947412,-4.1343594,-0.993402,-0.11103027,0.028714962,-0.113524474,0.98754525,-0.108933866,-0.016262367,-0.11147494,-0.99363416,,-0.20913932896687396,-0.11111468059434225,0.15482758131000002,-0.00020968994348452436,-0.00013663649976544044,2.973916355585917e-05,-0.00016334406613427926,,-1.505994692336773,0.04092276150051568,0.07532481932000001,0.0004193798869690487,-0.5487321830580089,0.4205819957385834,-0.0011434084629399592
2.8414171730000817,,0.43601918,-1.3308475,-4.033777,-0.57388204,-0.6659211,-0.47666368,-0.8145047,0.52460885,0.24772514,0.08509652,0.53040993,-0.8434595,,0.376197,-1.2833506,-3.7506301,0.3066213,-0.93401694,0.18329087,-0.87684435,-0.35209584,-0.327372,0.37030694,-0.060338326,-0.92694765,,0.433335,-1.3947412,-4.1343594,-0.993402,-0.11103027,0.028714962,-0.113524474,0.98754525,-0.108933866,-0.016262367,-0.11147494,-0.99363416,,-0.20913160623399973,-0.11112240332721647,0.15482758131000002,-0.00020968994348452436,-0.00013663649976544044,2.973916355585917e-05,-0.00016334406613427926,,-1.5060024150696474,0.04091503876764145,0.07532481932000001,0.0004193798869690487,-0.5487321830580089,0.4205819957385834,-0.0011434084629399592
2.867803011999058,,0.43601993,-1.3308481,-4.0337777,-0.57388264,-0.6659244,-0.4766586,-0.8145042,0.52461135,0.24772114,0.08509698,0.5304033,-0.84346354,,0.37619716,-1.28335,-3.75063,0.30662265,-0.93401575,0.18329452,-0.8768473,-0.3520978,-0.32736212,0.37029895,-0.06034469,-0.92695045,,0.433335,-1.3947412,-4.1343594,-0.993402,-0.11103027,0.028714962,-0.113524474,0.98754525,-0.108933866,-0.016262367,-0.11147494,-0.99363416,,-0.20913932896687396,-0.11112240332721647,0.15482758131000002,-0.00020968994348452436,-0.00013663649976544044,2.973916355585917e-05,-0.00016334406613427926,,-1.5060101378025217,0.04092276150051568,0.07532481932000001,0.0004193798869690487,-0.5487321830580089,0.4205819957385834,-0.0011434084629399592
2.8879007380000985,,0.43602058,-1.3308471,-4.0337777,-0.57388633,-0.6659244,-0.47665414,-0.8145023,0.52461135,0.24772744,0.085090466,0.5304033,-0.84346426,,0.37619632,-1.2833505,-3.7506304,0.30662847,-0.93401617,0.18328285,-0.87684387,-0.3520994,-0.32736957,0.37030223,-0.06032964,-0.9269501,,0.433335,-1.3947412,-4.1343594,-0.993402,-0.11103027,0.028714962,-0.113524474,0.98754525,-0.108933866,-0.016262367,-0.11147494,-0.99363416,,-0.20913932896687396,-0.11111468059434225,0.15482758131000002,-0.00020968994348452436,-0.00013663649976544044,2.973916355585917e-05,-0.00016334406613427926,,-1.505994692336773,0.04092276150051568,0.07532481932000001,0.0004193798869690487,-0.5487321830580089,0.4205819957385834,-0.0011434084629399592
2.91507515900048,,0.43601918,-1.3308475,-4.033777,-0.57388204,-0.6659211,-0.47666368,-0.8145047,0.52460885,0.24772514,0.08509652,0.53040993,-0.8434595,,0.37619662,-1.2833508,-3.7506304,0.30662423,-0.9340171,0.18328503,-0.87684274,-0.35209662,-0.32737574,0.37030855,-0.0603308,-0.9269475,,0.433335,-1.3947412,-4.1343594,-0.993402,-0.11103027,0.028714962,-0.113524474,0.98754525,-0.108933866,-0.016262367,-0.11147494,-0.99363416,,-0.20913160623399973,-0.11112240332721647,0.15482758131000002,-0.00020968994348452436,-0.00013663649976544044,2.973916355585917e-05,-0.00016334406613427926,,-1.505994692336773,0.04091503876764145,0.07532481932000001,0.0004193798869690487,-0.5487321830580089,0.4205819957385834,-0.0011434084629399592
2.938628914000219,,0.43602136,-1.3308477,-4.0337787,-0.57388693,-0.6659274,-0.47664902,-0.81450194,0.524614,0.24772339,0.08509092,0.5303968,-0.8434683,,0.37619662,-1.2833508,-3.7506304,0.30662423,-0.9340171,0.18328503,-0.87684274,-0.35209662,-0.32737574,0.37030855,-0.0603308,-0.9269475,,0.433335,-1.3947412,-4.1343594,-0.993402,-0.11103027,0.028714962,-0.113524474,0.98754525,-0.108933866,-0.016262367,-0.11147494,-0.99363416,,-0.20914705169974818,-0.11111468059434225,0.15482758131000002,-0.00020968994348452436,-0.00013663649976544044,2.973916355585917e-05,-0.00016334406613427926,,-1.505994692336773,0.04091503876764145,0.07532481932000001,0.0004193798869690487,-0.5487321830580089,0.4205819957385834,-0.0011434084629399592
2.9649264630006655,,0.43602058,-1.3308471,-4.0337777,-0.57388633,-0.6659244,-0.47665414,-0.8145023,0.52461135,0.24772744,0.085090466,0.5304033,-0.84346426,,0.37619662,-1.2833508,-3.7506304,0.30662423,-0.9340171,0.18328503,-0.87684274,-0.35209662,-0.32737574,0.37030855,-0.0603308,-0.9269475,,0.433335,-1.3947412,-4.1343594,-0.993402,-0.11103027,0.028714962,-0.113524474,0.98754525,-0.108933866,-0.016262367,-0.11147494,-0.99363416,,-0.20913932896687396,-0.11111468059434225,0.15482758131000002,-0.00020968994348452436,-0.00013663649976544044,2.973916355585917e-05,-0.00016334406613427926,,-1.505994692336773,0.04091503876764145,0.07532481932000001,0.0004193798869690487,-0.5487321830580089,0.4205819957385834,-0.0011434084629399592
2.9872796519994154,,0.43601993,-1.3308481,-4.0337777,-0.57388264,-0.6659244,-0.4766586,-0.8145042,0.52461135,0.24772114,0.08509698,0.5304033,-0.84346354,,0.37619674,-1.2833502,-3.7506301,0.30662557,-0.934016,0.1832887,-0.87684554,-0.3520986,-0.32736582,0.3703006,-0.060337156,-0.9269503,,0.433335,-1.3947412,-4.1343594,-0.993402,-0.11103027,0.028714962,-0.113524474,0.98754525,-0.108933866,-0.016262367,-0.11147494,-0.99363416,,-0.20913932896687396,-0.11112240332721647,0.15482758131000002,-0.00020968994348452436,-0.00013663649976544044,2.973916355585917e-05,-0.00016334406613427926,,-1.5060024150696474,0.04092276150051568,0.07532481932000001,0.0004193798869690487,-0.5487321830580089,0.4205819957385834,-0.0011434084629399592
3.0079518769998685,,0.43602058,-1.3308471,-4.0337777,-0.57388633,-0.6659244,-0.47665414,-0.8145023,0.52461135,0.24772744,0.085090466,0.5304033,-0.84346426,,0.37619632,-1.2833505,-3.7506304,0.30662847,-0.93401617,0.18328285,-0.87684387,-0.3520994,-0.32736957,0.37030223,-0.06032964,-0.9269501,,0.433335,-1.3947412,-4.1343594,-0.993402,-0.11103027,0.028714962,-0.113524474,0.98754525,-0.108933866,-0.016262367,-0.11147494,-0.99363416,,-0.20914705169974818,-0.11111468059434225,0.15482758131000002,-0.00020968994348452436,-0.00013663649976544044,2.973916355585917e-05,-0.00016334406613427926,,-1.505994692336773,0.04092276150051568,0.07532481932000001,0.0004193798869690487,-0.5487321830580089,0.4205819957385834,-0.0011434084629399592
3.0364930639989325,,0.43601984,-1.3308465,-4.033777,-0.5738858,-0.6659211,-0.47665924,-0.8145028,0.52460885,0.24773143,0.08509001,0.53040993,-0.84346014,,0.37619743,-1.2833503,-3.75063,0.3066184,-0.9340167,0.18329668,-0.8768461,-0.35209504,-0.3273683,0.3703053,-0.06034586,-0.92694783,,0.433335,-1.3947412,-4.1343594,-0.993402,-0.11103027,0.028714962,-0.113524474,0.98754525,-0.108933866,-0.016262367,-0.11147494,-0.99363416,,-0.20913160623399973,-0.11111468059434225,0.15482758131000002,-0.00020968994348452436,-0.00013663649976544044,2.973916355585917e-05,-0.00016334406613427926,,-1.5060101378025217,0.04091503876764145,0.07532481932000001,0.0004193798869690487,-0.5487321830580089,0.4205819957385834,-0.0011434084629399592
3.057558919999792,,0.43601984,-1.3308465,-4.033777,-0.5738858,-0.6659211,-0.47665924,-0.8145028,0.52460885,0.24773143,0.08509001,0.53040993,-0.84346014,,0.37619716,-1.28335,-3.75063,0.30662265,-0.93401575,0.18329452,-0.8768473,-0.3520978,-0.32736212,0.37029895,-0.06034469,-0.92695045,,0.433335,-1.3947412,-4.1343594,-0.993402,-0.11103027,0.028714962,-0.113524474,0.98754525,-0.108933866,-0.016262367,-0.11147494,-0.99363416,,-0.20913160623399973,-0.11111468059434225,0.15482758131000002,-0.00020968994348452436,-0.00013663649976544044,2.973916355585917e-05,-0.00016334406613427926,,-1.5060101378025217,0.04092276150051568,0.07532481932000001,0.0004193798869690487,-0.5487321830580089,0.4205819957385834,-0.0011434084629399592
3.084015725999052,,0.43602058,-1.3308471,-4.0337777,-0.57388633,-0.6659244,-0.47665414,-0.8145023,0.52461135,0.24772744,0.085090466,0.5304033,-0.84346426,,0.37619743,-1.2833503,-3.75063,0.3066184,-0.9340167,0.18329668,-0.8768461,-0.35209504,-0.3273683,0.3703053,-0.06034586,-0.92694783,,0.433335,-1.3947412,-4.1343594,-0.993402,-0.11103027,0.028714962,-0.113524474,0.98754525,-0.108933866,-0.016262367,-0.11147494,-0.99363416,,-0.20913932896687396,-0.11111468059434225,0.15482758131000002,-0.00020968994348452436,-0.00013663649976544044,2.973916355585917e-05,-0.00016334406613427926,,-1.5060101378025217,0.04091503876764145,0.07532481932000001,0.0004193798869690487,-0.5487321830580089,0.4205819957385834,-0.0011434084629399592
3.107471978999456,,0.43601993,-1.3308481,-4.0337777,-0.57388264,-0.6659244,-0.4766586,-0.8145042,0.52461135,0.24772114,0.08509698,0.5304033,-0.84346354,,0.37619716,-1.28335,-3.75063,0.30662265,-0.93401575,0.18329452,-0.8768473,-0.3520978,-0.32736212,0.37029895,-0.06034469,-0.92695045,,0.433335,-1.3947412,-4.1343594,-0.993402,-0.11103027,0.028714962,-0.113524474,0.98754525,-0.108933866,-0.016262367,-0.11147494,-0.99363416,,-0.20913932896687396,-0.11112240332721647,0.15482758131000002,-0.00020968994348452436,-0.00013663649976544044,2.973916355585917e-05,-0.00016334406613427926,,-1.5060101378025217,0.04092276150051568,0.07532481932000001,0.0004193798869690487,-0.5487321830580089,0.4205819957385834,-0.0011434084629399592
3.135259791999488,,0.43602058,-1.3308471,-4.0337777,-0.57388633,-0.6659244,-0.47665414,-0.8145023,0.52461135,0.24772744,0.085090466,0.5304033,-0.84346426,,0.37619716,-1.28335,-3.75063,0.30662265,-0.93401575,0.18329452,-0.8768473,-0.3520978,-0.32736212,0.37029895,-0.06034469,-0.92695045,,0.433335,-1.3947412,-4.1343594,-0.993402,-0.11103027,0.028714962,-0.113524474,0.98754525,-0.108933866,-0.016262367,-0.11147494,-0.99363416,,-0.20913932896687396,-0.11111468059434225,0.15482758131000002,-0.00020968994348452436,-0.00013663649976544044,2.973916355585917e-05,-0.00016334406613427926,,-1.5060101378025217,0.04092276150051568,0.07532481932000001,0.0004193798869690487,-0.5487321830580089,0.4205819957385834,-0.0011434084629399592
3.157296036999469,,0.43597266,-1.330846,-4.033805,-0.57393086,-0.6659119,-0.4766177,-0.814475,0.5246307,0.24777631,0.08505106,0.5303997,-0.8434704,,0.37615174,-1.2833443,-3.7506402,0.3065474,-0.9340378,0.18330818,-0.8768738,-0.35203227,-0.3273616,0.3702985,-0.0603863,-0.9269479,,0.433335,-1.3947412,-4.1343594,-0.993402,-0.11103027,0.028714962,-0.113524474,0.98754525,-0.108933866,-0.016262367,-0.11147494,-0.99363416,,-0.20913932896687396,-0.11111468059434225,0.15482758131000002,-0.00020968994348452436,-0.00013663649976544044,2.973916355585917e-05,-0.00016334406613427926,,-1.5060101378025217,0.04091503876764145,0.07532481932000001,0.0004193798869690487,-0.5487321830580089,0.4205819957385834,-0.0011434084629399592
3.1845704709994607,,0.43601465,-1.3308508,-4.033793,-0.573874,-0.665935,-0.4766542,-0.81451356,0.5245873,0.24774161,0.08506688,0.5304138,-0.84346,,0.3761959,-1.2833519,-3.7506282,0.30660793,-0.9340164,0.18331654,-0.8768534,-0.35209164,-0.3273524,0.3702967,-0.060372926,-0.9269495,,0.43338114,-1.3947462,-4.134348,-0.9933951,-0.11109434,0.028708607,-0.11358748,0.9875379,-0.108934626,-0.016248818,-0.11147602,-0.9936343,,-0.20913160623399973,-0.11112240332721647,0.15482758131000002,-0.00020968994348452436,-0.00013663649976544044,2.973916355585917e-05,-0.00016334406613427926,,-1.5060101378025217,0.04091503876764145,0.07532481932000001,0.0004193798869690487,-0.5487321830580089,0.4205819957385834,-0.0011434084629399592
3.2085418879996723,,0.43601608,-1.3308506,-4.033794,-0.57387817,-0.6659381,-0.47664467,-0.8145111,0.52458984,0.2477439,0.08506082,0.5304073,-0.84346473,,0.3761959,-1.2833519,-3.7506282,0.30660793,-0.9340164,0.18331654,-0.8768534,-0.35209164,-0.3273524,0.3702967,-0.060372926,-0.9269495,,0.43338114,-1.3947462,-4.134348,-0.9933951,-0.11109434,0.028708607,-0.11358748,0.9875379,-0.108934626,-0.016248818,-0.11147602,-0.9936343,,-0.20913932896687396,-0.11111468059434225,0.15482758131000002,-0.00020968994348452436,-0.00013663649976544044,2.973916355585917e-05,-0.00016334406613427926,,-1.5060101378025217,0.04091503876764145,0.07532481932000001,0.0004193798869690487,-0.5487321830580089,0.4205819957385834,-0.0011434084629399592
3.2358961709996947,,0.4360153,-1.3308499,-4.0337934,-0.5738777,-0.665935,-0.4766498,-0.8145116,0.5245873,0.24774793,0.085060365,0.5304138,-0.8434607,,0.3761959,-1.2833519,-3.7506282,0.30660793,-0.9340164,0.18331654,-0.8768534,-0.35209164,-0.3273524,0.3702967,-0.060372926,-0.9269495,,0.43338114,-1.3947462,-4.134348,-0.9933951,-0.11109434,0.028708607,-0.11358748,0.9875379,-0.108934626,-0.016248818,-0.11147602,-0.9936343,,-0.20913160623399973,-0.11111468059434225,0.15482758131000002,-0.00020968994348452436,-0.00013663649976544044,2.973916355585917e-05,-0.00016334406613427926,,-1.5060101378025217,0.04091503876764145,0.07532481932000001,0.0004193798869690487,-0.5487321830580089,0.4205819957385834,-0.0011434084629399592
3.2558417540003575,,0.43601608,-1.3308506,-4.033794,-0.57387817,-0.6659381,-0.47664467,-0.8145111,0.52458984,0.2477439,0.08506082,0.5304073,-0.84346473,,0.3761959,-1.2833519,-3.7506282,0.30660793,-0.9340164,0.18331654,-0.8768534,-0.35209164,-0.3273524,0.3702967,-0.060372926,-0.9269495,,0.43338114,-1.3947462,-4.134348,-0.9933951,-0.11109434,0.028708607,-0.11358748,0.9875379,-0.108934626,-0.016248818,-0.11147602,-0.9936343,,-0.20913932896687396,-0.11111468059434225,0.15482758131000002,-0.00020968994348452436,-0.00013663649976544044,2.973916355585917e-05,-0.00016334406613427926,,-1.5060101378025217,0.04091503876764145,0.07532481932000001,0.0004193798869690487,-0.5487321830580089,0.4205819957385834,-0.0011434084629399592
3.284032637000564,,0.43601683,-1.3308511,-4.0337944,-0.57387877,-0.6659413,-0.47663954,-0.81451064,0.5245925,0.24773985,0.085061274,0.5304007,-0.8434688,,0.3761959,-1.2833519,-3.7506282,0.30660793,-0.9340164,0.18331654,-0.8768534,-0.35209164,-0.3273524,0.3702967,-0.060372926,-0.9269495,,0.43338114,-1.3947462,-4.134348,-0.9933951,-0.11109434,0.028708607,-0.11358748,0.9875379,-0.108934626,-0.016248818,-0.11147602,-0.9936343,,-0.20914705169974818,-0.11111468059434225,0.15482758131000002,-0.00020968994348452436,-0.00013663649976544044,2.973916355585917e-05,-0.00016334406613427926,,-1.5060101378025217,0.04091503876764145,0.07532481932000001,0.0004193798869690487,-0.5487321830580089,0.4205819957385834,-0.0011434084629399592
3.310842724000395,,0.43601683,-1.3308511,-4.0337944,-0.57387877,-0.6659413,-0.47663954,-0.81451064,0.5245925,0.24773985,0.085061274,0.5304007,-0.8434688,,0.37619525,-1.2833518,-3.7506285,0.30661508,-0.9340156,0.18330857,-0.87685287,-0.35209516,-0.32734993,0.37029195,-0.060364228,-0.926952,,0.43338114,-1.3947462,-4.134348,-0.9933951,-0.11109434,0.028708607,-0.11358748,0.9875379,-0.108934626,-0.016248818,-0.11147602,-0.9936343,,-0.20914705169974818,-0.11111468059434225,0.15482758131000002,-0.00020968994348452436,-0.00013663649976544044,2.973916355585917e-05,-0.00016334406613427926,,-1.5060024150696474,0.04092276150051568,0.07532481932000001,0.0004193798869690487,-0.5487321830580089,0.4205819957385834,-0.0011434084629399592
3.334602630000518,,0.43601683,-1.3308511,-4.0337944,-0.57387877,-0.6659413,-0.47663954,-0.81451064,0.5245925,0.24773985,0.085061274,0.5304007,-0.8434688,,0.3761951,-1.2833524,-3.7506287,0.30661377,-0.93401676,0.1833049,-0.87685,-0.35209322,-0.32735983,0.37029994,-0.060357884,-0.9269492,,0.43338114,-1.3947462,-4.134348,-0.9933951,-0.11109434,0.028708607,-0.11358748,0.9875379,-0.108934626,-0.016248818,-0.11147602,-0.9936343,,-0.20914705169974818,-0.11111468059434225,0.15482758131000002,-0.00020968994348452436,-0.00013663649976544044,2.973916355585917e-05,-0.00016334406613427926,,-1.505994692336773,0.04091503876764145,0.07532481932000001,0.0004193798869690487,-0.5487321830580089,0.4205819957385834,-0.0011434084629399592
3.3552489449994027,,0.43601683,-1.3308511,-4.0337944,-0.57387877,-0.6659413,-0.47663954,-0.81451064,0.5245925,0.24773985,0.085061274,0.5304007,-0.8434688,,0.3761951,-1.2833524,-3.7506287,0.30661377,-0.93401676,0.1833049,-0.87685,-0.35209322,-0.32735983,0.37029994,-0.060357884,-0.9269492,,0.43338114,-1.3947462,-4.134348,-0.9933951,-0.11109434,0.028708607,-0.11358748,0.9875379,-0.108934626,-0.016248818,-0.11147602,-0.9936343,,-0.20914705169974818,-0.11111468059434225,0.15482758131000002,-0.00020968994348452436,-0.00013663649976544044,2.973916355585917e-05,-0.00016334406613427926,,-1.505994692336773,0.04091503876764145,0.07532481932000001,0.0004193798869690487,-0.5487321830580089,0.4205819957385834,-0.0011434084629399592
