AlexandreBanks6/ExpertPlaybackApp/resources/Motions/Motion_21.csv
Time,si_T_psm1,Tx,Ty,Tz,R00,R01,R02,R10,R11,R12,R20,R21,R22,si_T_psm3,Tx,Ty,Tz,R00,R01,R02,R10,R11,R12,R20,R21,R22,si_T_ecm,Tx,Ty,Tz,R00,R01,R02,R10,R11,R12,R20,R21,R22,joint_vars_psm1,q1,q2,q3,q4,q5,q6,jaw,joint_vars_psm3,q1,q2,q3,q4,q5,q6,jaw
lci_T_si
0,-0.053238943,0.05317068,0.29721978,0.99481297,-0.1015328,0.0061885146,-0.100771934,-0.99199575,-0.07608878,0.0138644865,0.07507047,-0.9970818
rci_T_si
0,-0.06583554,0.054787815,1.1032166,0.9919933,-0.12379015,0.025006143,-0.12624687,-0.9772245,0.17056938,0.0033218083,-0.17236063,-0.9850283
ecm_T_lc
0,0.82637364,0.89959043,-4.471184,-0.8282249,-0.54140776,0.14464118,0.55436236,-0.82931954,0.07008122,0.08201124,0.13822663,0.9869993
ecm_T_rc
0,-0.10746905,0.019146087,-2.6037304,-0.34537515,0.93471545,0.08380301,-0.9384632,-0.34383708,-0.032600943,-0.0016580217,-0.0899056,0.9959489
0.02397090700105764,,0.5111687,-1.4765875,-3.9376662,-0.9582542,-0.0067598224,-0.28583744,-0.11601491,0.9229151,0.36710775,0.2613221,0.384944,-0.88517165,,,,,,,,,,,,,,,0.4798326,-1.5104451,-4.051829,-0.7673282,0.6360743,0.08134439,0.63206816,0.7716205,-0.07135514,-0.108154185,-0.0033376045,-0.9941285,,1.335268236686292,-0.2617929217033367,0.15050186158,0.5466616826641549,0.012980467477716843,-0.00021150085330863024,-0.0008167203306713965,,,,,,,,
0.054938650981057435,,0.51116925,-1.4765884,-3.937667,-0.95825547,-0.006759815,-0.28583366,-0.11601172,0.92291766,0.36710227,0.26131943,0.38493782,-0.88517517,,,,,,,,,,,,,,,0.4798326,-1.5104451,-4.051829,-0.7673282,0.6360743,0.08134439,0.63206816,0.7716205,-0.07135514,-0.108154185,-0.0033376045,-0.9941285,,1.3352605139534177,-0.2617929217033367,0.15050186158,0.5466616826641549,0.012980467477716843,-0.00021150085330863024,-0.0008167203306713965,,,,,,,,
0.09183753200341016,,0.5111687,-1.4765875,-3.9376662,-0.9582542,-0.0067598224,-0.28583744,-0.11601491,0.9229151,0.36710775,0.2613221,0.384944,-0.88517165,,,,,,,,,,,,,,,0.4798326,-1.5104451,-4.051829,-0.7673282,0.6360743,0.08134439,0.63206816,0.7716205,-0.07135514,-0.108154185,-0.0033376045,-0.9941285,,1.335268236686292,-0.2617929217033367,0.15050186158,0.5466616826641549,0.012980467477716843,-0.00021150085330863024,-0.0008167203306713965,,,,,,,,
0.14123167100478895,,0.5111687,-1.4765875,-3.9376662,-0.9582542,-0.0067598224,-0.28583744,-0.11601491,0.9229151,0.36710775,0.2613221,0.384944,-0.88517165,,,,,,,,,,,,,,,0.4798326,-1.5104451,-4.051829,-0.7673282,0.6360743,0.08134439,0.63206816,0.7716205,-0.07135514,-0.108154185,-0.0033376045,-0.9941285,,1.335268236686292,-0.2617929217033367,0.15050186158,0.5466616826641549,0.012980467477716843,-0.00021150085330863024,-0.0008167203306713965,,,,,,,,
0.19107396798790433,,0.5111687,-1.4765875,-3.9376662,-0.9582542,-0.0067598224,-0.28583744,-0.11601491,0.9229151,0.36710775,0.2613221,0.384944,-0.88517165,,,,,,,,,,,,,,,0.4798326,-1.5104451,-4.051829,-0.7673282,0.6360743,0.08134439,0.63206816,0.7716205,-0.07135514,-0.108154185,-0.0033376045,-0.9941285,,1.335268236686292,-0.2617929217033367,0.15050186158,0.5466616826641549,0.012980467477716843,-0.00021150085330863024,-0.0008167203306713965,,,,,,,,
0.23903750200406648,,0.51116925,-1.4765884,-3.937667,-0.95825547,-0.006759815,-0.28583366,-0.11601172,0.92291766,0.36710227,0.26131943,0.38493782,-0.88517517,,,,,,,,,,,,,,,0.4798326,-1.5104451,-4.051829,-0.7673282,0.6360743,0.08134439,0.63206816,0.7716205,-0.07135514,-0.108154185,-0.0033376045,-0.9941285,,1.3352605139534177,-0.2617929217033367,0.15050186158,0.5466616826641549,0.012980467477716843,-0.00021150085330863024,-0.0008167203306713965,,,,,,,,
0.2832433169824071,,0.5111687,-1.4765875,-3.9376662,-0.9582542,-0.0067598224,-0.28583744,-0.11601491,0.9229151,0.36710775,0.2613221,0.384944,-0.88517165,,,,,,,,,,,,,,,0.4798326,-1.5104451,-4.051829,-0.7673282,0.6360743,0.08134439,0.63206816,0.7716205,-0.07135514,-0.108154185,-0.0033376045,-0.9941285,,1.335268236686292,-0.2617929217033367,0.15050186158,0.5466616826641549,0.012980467477716843,-0.00021150085330863024,-0.0008167203306713965,,,,,,,,
0.3387222559831571,,0.5111687,-1.4765875,-3.9376662,-0.9582542,-0.0067598224,-0.28583744,-0.11601491,0.9229151,0.36710775,0.2613221,0.384944,-0.88517165,,,,,,,,,,,,,,,0.4798326,-1.5104451,-4.051829,-0.7673282,0.6360743,0.08134439,0.63206816,0.7716205,-0.07135514,-0.108154185,-0.0033376045,-0.9941285,,1.335268236686292,-0.2617929217033367,0.15050186158,0.5466616826641549,0.012980467477716843,-0.00021150085330863024,-0.0008167203306713965,,,,,,,,
0.36794077800004743,,0.51116246,-1.4765866,-3.9376786,-0.9582545,-0.006760504,-0.28583676,-0.11601445,0.9229165,0.36710462,0.26132163,0.3849408,-0.88517314,,,,,,,,,,,,,,,0.47984764,-1.5104611,-4.0518312,-0.7673531,0.63604456,0.08134188,0.6320384,0.77164507,-0.07135338,-0.108151,-0.0033420455,-0.9941288,,1.335268236686292,-0.2617929217033367,0.15050186158,0.5466616826641549,0.012980467477716843,-0.00021150085330863024,-0.0008167203306713965,,,,,,,,
0.40535749099217355,,0.51116246,-1.4765866,-3.9376786,-0.9582545,-0.006760504,-0.28583676,-0.11601445,0.9229165,0.36710462,0.26132163,0.3849408,-0.88517314,,,,,,,,,,,,,,,0.47984764,-1.5104611,-4.0518312,-0.7673531,0.63604456,0.08134188,0.6320384,0.77164507,-0.07135338,-0.108151,-0.0033420455,-0.9941288,,1.335268236686292,-0.2617929217033367,0.15050186158,0.5466616826641549,0.012980467477716843,-0.00021150085330863024,-0.0008167203306713965,,,,,,,,
0.4607118139974773,,0.51116246,-1.4765866,-3.9376786,-0.9582545,-0.006760504,-0.28583676,-0.11601445,0.9229165,0.36710462,0.26132163,0.3849408,-0.88517314,,,,,,,,,,,,,,,0.47984764,-1.5104611,-4.0518312,-0.7673531,0.63604456,0.08134188,0.6320384,0.77164507,-0.07135338,-0.108151,-0.0033420455,-0.9941288,,1.335268236686292,-0.2617929217033367,0.15050186158,0.5466616826641549,0.012980467477716843,-0.00021150085330863024,-0.0008167203306713965,,,,,,,,
0.5076755349873565,,0.51116484,-1.4765863,-3.9376793,-0.9583326,-0.006824095,-0.2855733,-0.115914,0.9229983,0.36693063,0.26107976,0.3847435,-0.88533026,,,,,,,,,,,,,,,0.47984764,-1.5104611,-4.0518312,-0.7673531,0.63604456,0.08134188,0.6320384,0.77164507,-0.07135338,-0.108151,-0.0033420455,-0.9941288,,1.335268236686292,-0.2617929217033367,0.15050186158,0.5466616826641549,0.013253740477247724,-0.00043433666070147314,-0.0008167203306713965,,,,,,,,
0.5432308400049806,,0.5111654,-1.476587,-3.9376798,-0.95833373,-0.0068240575,-0.28556955,-0.115910865,0.9230009,0.36692515,0.26107702,0.38473734,-0.8853338,,,,,,,,,,,,,,,0.47984764,-1.5104611,-4.0518312,-0.7673531,0.63604456,0.08134188,0.6320384,0.77164507,-0.07135338,-0.108151,-0.0033420455,-0.9941288,,1.3352605139534177,-0.2617929217033367,0.15050186158,0.5466616826641549,0.013253740477247724,-0.00043433666070147314,-0.0008167203306713965,,,,,,,,
0.5927398350031581,,0.51116484,-1.4765863,-3.9376793,-0.9583326,-0.006824095,-0.2855733,-0.115914,0.9229983,0.36693063,0.26107976,0.3847435,-0.88533026,,,,,,,,,,,,,,,0.47984764,-1.5104611,-4.0518312,-0.7673531,0.63604456,0.08134188,0.6320384,0.77164507,-0.07135338,-0.108151,-0.0033420455,-0.9941288,,1.335268236686292,-0.2617929217033367,0.15050186158,0.5466616826641549,0.013253740477247724,-0.00043433666070147314,-0.0008167203306713965,,,,,,,,
0.6432680049911141,,0.51116484,-1.4765863,-3.9376793,-0.9583326,-0.006824095,-0.2855733,-0.115914,0.9229983,0.36693063,0.26107976,0.3847435,-0.88533026,,,,,,,,,,,,,,,0.47984764,-1.5104611,-4.0518312,-0.7673531,0.63604456,0.08134188,0.6320384,0.77164507,-0.07135338,-0.108151,-0.0033420455,-0.9941288,,1.335268236686292,-0.2617929217033367,0.15050186158,0.5466616826641549,0.013253740477247724,-0.00043433666070147314,-0.0008167203306713965,,,,,,,,
0.6744621369871311,,0.5111654,-1.476587,-3.9376798,-0.95833373,-0.0068240575,-0.28556955,-0.115910865,0.9230009,0.36692515,0.26107702,0.38473734,-0.8853338,,,,,,,,,,,,,,,0.47984764,-1.5104611,-4.0518312,-0.7673531,0.63604456,0.08134188,0.6320384,0.77164507,-0.07135338,-0.108151,-0.0033420455,-0.9941288,,1.3352605139534177,-0.2617929217033367,0.15050186158,0.5466616826641549,0.013253740477247724,-0.00043433666070147314,-0.0008167203306713965,,,,,,,,
0.7357737409765832,,0.51116484,-1.4765863,-3.9376793,-0.9583326,-0.006824095,-0.2855733,-0.115914,0.9229983,0.36693063,0.26107976,0.3847435,-0.88533026,,,,,,,,,,,,,,,0.47984764,-1.5104611,-4.0518312,-0.7673531,0.63604456,0.08134188,0.6320384,0.77164507,-0.07135338,-0.108151,-0.0033420455,-0.9941288,,1.335268236686292,-0.2617929217033367,0.15050186158,0.5466616826641549,0.013253740477247724,-0.00043433666070147314,-0.0008167203306713965,,,,,,,,
0.7736159189953469,,0.51116484,-1.4765863,-3.9376793,-0.9583326,-0.006824095,-0.2855733,-0.115914,0.9229983,0.36693063,0.26107976,0.3847435,-0.88533026,,,,,,,,,,,,,,,0.47984764,-1.5104611,-4.0518312,-0.7673531,0.63604456,0.08134188,0.6320384,0.77164507,-0.07135338,-0.108151,-0.0033420455,-0.9941288,,1.335268236686292,-0.2617929217033367,0.15050186158,0.5466616826641549,0.013253740477247724,-0.00043433666070147314,-0.0008167203306713965,,,,,,,,
0.8222930310002994,,0.5111654,-1.476587,-3.9376798,-0.95833373,-0.0068240575,-0.28556955,-0.115910865,0.9230009,0.36692515,0.26107702,0.38473734,-0.8853338,,,,,,,,,,,,,,,0.47984764,-1.5104611,-4.0518312,-0.7673531,0.63604456,0.08134188,0.6320384,0.77164507,-0.07135338,-0.108151,-0.0033420455,-0.9941288,,1.3352605139534177,-0.2617929217033367,0.15050186158,0.5466616826641549,0.013253740477247724,-0.00043433666070147314,-0.0008167203306713965,,,,,,,,
0.8553643850027584,,0.5111654,-1.476587,-3.9376798,-0.95833373,-0.0068240575,-0.28556955,-0.115910865,0.9230009,0.36692515,0.26107702,0.38473734,-0.8853338,,,,,,,,,,,,,,,0.47984764,-1.5104611,-4.0518312,-0.7673531,0.63604456,0.08134188,0.6320384,0.77164507,-0.07135338,-0.108151,-0.0033420455,-0.9941288,,1.3352605139534177,-0.2617929217033367,0.15050186158,0.5466616826641549,0.013253740477247724,-0.00043433666070147314,-0.0008167203306713965,,,,,,,,
0.8884238459868357,,0.51116484,-1.4765863,-3.9376793,-0.9583326,-0.006824095,-0.2855733,-0.115914,0.9229983,0.36693063,0.26107976,0.3847435,-0.88533026,,,,,,,,,,,,,,,0.47984764,-1.5104611,-4.0518312,-0.7673531,0.63604456,0.08134188,0.6320384,0.77164507,-0.07135338,-0.108151,-0.0033420455,-0.9941288,,1.335268236686292,-0.2617929217033367,0.15050186158,0.5466616826641549,0.013253740477247724,-0.00043433666070147314,-0.0008167203306713965,,,,,,,,
0.9287383479822893,,0.5111654,-1.476587,-3.9376798,-0.95833373,-0.0068240575,-0.28556955,-0.115910865,0.9230009,0.36692515,0.26107702,0.38473734,-0.8853338,,,,,,,,,,,,,,,0.47984764,-1.5104611,-4.0518312,-0.7673531,0.63604456,0.08134188,0.6320384,0.77164507,-0.07135338,-0.108151,-0.0033420455,-0.9941288,,1.3352605139534177,-0.2617929217033367,0.15050186158,0.5466616826641549,0.013253740477247724,-0.00043433666070147314,-0.0008167203306713965,,,,,,,,
0.9875551309960429,,0.51116484,-1.4765863,-3.9376793,-0.9583326,-0.006824095,-0.2855733,-0.115914,0.9229983,0.36693063,0.26107976,0.3847435,-0.88533026,,,,,,,,,,,,,,,0.47984764,-1.5104611,-4.0518312,-0.7673531,0.63604456,0.08134188,0.6320384,0.77164507,-0.07135338,-0.108151,-0.0033420455,-0.9941288,,1.335268236686292,-0.2617929217033367,0.15050186158,0.5466616826641549,0.013253740477247724,-0.00043433666070147314,-0.0008167203306713965,,,,,,,,
1.027234209002927,,0.51116484,-1.4765863,-3.9376793,-0.9583326,-0.006824095,-0.2855733,-0.115914,0.9229983,0.36693063,0.26107976,0.3847435,-0.88533026,,,,,,,,,,,,,,,0.47984764,-1.5104611,-4.0518312,-0.7673531,0.63604456,0.08134188,0.6320384,0.77164507,-0.07135338,-0.108151,-0.0033420455,-0.9941288,,1.335268236686292,-0.2617929217033367,0.15050186158,0.5466616826641549,0.013253740477247724,-0.00043433666070147314,-0.0008167203306713965,,,,,,,,
1.077419434004696,,0.5111654,-1.476587,-3.9376798,-0.95833373,-0.0068240575,-0.28556955,-0.115910865,0.9230009,0.36692515,0.26107702,0.38473734,-0.8853338,,,,,,,,,,,,,,,0.47984764,-1.5104611,-4.0518312,-0.7673531,0.63604456,0.08134188,0.6320384,0.77164507,-0.07135338,-0.108151,-0.0033420455,-0.9941288,,1.3352605139534177,-0.2617929217033367,0.15050186158,0.5466616826641549,0.013253740477247724,-0.00043433666070147314,-0.0008167203306713965,,,,,,,,
1.1194818679941818,,0.51116484,-1.4765863,-3.9376793,-0.9583326,-0.006824095,-0.2855733,-0.115914,0.9229983,0.36693063,0.26107976,0.3847435,-0.88533026,,,,,,,,,,,,,,,0.47984764,-1.5104611,-4.0518312,-0.7673531,0.63604456,0.08134188,0.6320384,0.77164507,-0.07135338,-0.108151,-0.0033420455,-0.9941288,,1.335268236686292,-0.2617929217033367,0.15050186158,0.5466616826641549,0.013253740477247724,-0.00043433666070147314,-0.0008167203306713965,,,,,,,,
1.1615939189796336,,0.51116484,-1.4765863,-3.9376793,-0.9583326,-0.006824095,-0.2855733,-0.115914,0.9229983,0.36693063,0.26107976,0.3847435,-0.88533026,,,,,,,,,,,,,,,0.47984764,-1.5104611,-4.0518312,-0.7673531,0.63604456,0.08134188,0.6320384,0.77164507,-0.07135338,-0.108151,-0.0033420455,-0.9941288,,1.335268236686292,-0.2617929217033367,0.15050186158,0.5466616826641549,0.013253740477247724,-0.00043433666070147314,-0.0008167203306713965,,,,,,,,
1.2034089259977918,,0.5111654,-1.476587,-3.9376798,-0.95833373,-0.0068240575,-0.28556955,-0.115910865,0.9230009,0.36692515,0.26107702,0.38473734,-0.8853338,,,,,,,,,,,,,,,0.47984764,-1.5104611,-4.0518312,-0.7673531,0.63604456,0.08134188,0.6320384,0.77164507,-0.07135338,-0.108151,-0.0033420455,-0.9941288,,1.3352605139534177,-0.2617929217033367,0.15050186158,0.5466616826641549,0.013253740477247724,-0.00043433666070147314,-0.0008167203306713965,,,,,,,,
1.243020018999232,,0.51116484,-1.4765863,-3.9376793,-0.9583326,-0.006824095,-0.2855733,-0.115914,0.9229983,0.36693063,0.26107976,0.3847435,-0.88533026,,,,,,,,,,,,,,,0.47984764,-1.5104611,-4.0518312,-0.7673531,0.63604456,0.08134188,0.6320384,0.77164507,-0.07135338,-0.108151,-0.0033420455,-0.9941288,,1.335268236686292,-0.2617929217033367,0.15050186158,0.5466616826641549,0.013253740477247724,-0.00043433666070147314,-0.0008167203306713965,,,,,,,,
1.3061796149995644,,0.51116484,-1.4765863,-3.9376793,-0.9583326,-0.006824095,-0.2855733,-0.115914,0.9229983,0.36693063,0.26107976,0.3847435,-0.88533026,,,,,,,,,,,,,,,0.47984764,-1.5104611,-4.0518312,-0.7673531,0.63604456,0.08134188,0.6320384,0.77164507,-0.07135338,-0.108151,-0.0033420455,-0.9941288,,1.335268236686292,-0.2617929217033367,0.15050186158,0.5466616826641549,0.013253740477247724,-0.00043433666070147314,-0.0008167203306713965,,,,,,,,
1.3362591280019842,,0.5111654,-1.476587,-3.9376798,-0.95833373,-0.0068240575,-0.28556955,-0.115910865,0.9230009,0.36692515,0.26107702,0.38473734,-0.8853338,,,,,,,,,,,,,,,0.47984764,-1.5104611,-4.0518312,-0.7673531,0.63604456,0.08134188,0.6320384,0.77164507,-0.07135338,-0.108151,-0.0033420455,-0.9941288,,1.3352605139534177,-0.2617929217033367,0.15050186158,0.5466616826641549,0.013253740477247724,-0.00043433666070147314,-0.0008167203306713965,,,,,,,,
1.391991769982269,,0.51116484,-1.4765863,-3.9376793,-0.9583326,-0.006824095,-0.2855733,-0.115914,0.9229983,0.36693063,0.26107976,0.3847435,-0.88533026,,,,,,,,,,,,,,,0.47984764,-1.5104611,-4.0518312,-0.7673531,0.63604456,0.08134188,0.6320384,0.77164507,-0.07135338,-0.108151,-0.0033420455,-0.9941288,,1.335268236686292,-0.2617929217033367,0.15050186158,0.5466616826641549,0.013253740477247724,-0.00043433666070147314,-0.0008167203306713965,,,,,,,,
1.440100795996841,,0.51116484,-1.4765863,-3.9376793,-0.9583326,-0.006824095,-0.2855733,-0.115914,0.9229983,0.36693063,0.26107976,0.3847435,-0.88533026,,,,,,,,,,,,,,,0.47984764,-1.5104611,-4.0518312,-0.7673531,0.63604456,0.08134188,0.6320384,0.77164507,-0.07135338,-0.108151,-0.0033420455,-0.9941288,,1.335268236686292,-0.2617929217033367,0.15050186158,0.5466616826641549,0.013253740477247724,-0.00043433666070147314,-0.0008167203306713965,,,,,,,,
1.4634288939996623,,0.51116484,-1.4765863,-3.9376793,-0.9583326,-0.006824095,-0.2855733,-0.115914,0.9229983,0.36693063,0.26107976,0.3847435,-0.88533026,,,,,,,,,,,,,,,0.47984764,-1.5104611,-4.0518312,-0.7673531,0.63604456,0.08134188,0.6320384,0.77164507,-0.07135338,-0.108151,-0.0033420455,-0.9941288,,1.335268236686292,-0.2617929217033367,0.15050186158,0.5466616826641549,0.013253740477247724,-0.00043433666070147314,-0.0008167203306713965,,,,,,,,
1.5191495599865448,,0.5111649,-1.4765747,-3.9376695,-0.9583278,-0.0068227276,-0.28558937,-0.11592339,0.9229915,0.36694452,0.26109302,0.38475963,-0.8853194,,,,,,,,,,,,,,,0.47985783,-1.5104755,-4.051823,-0.76738167,0.6360104,0.08133901,0.63200444,0.771673,-0.07135138,-0.10814736,-0.0033471168,-0.99412924,,1.335268236686292,-0.2617929217033367,0.15050186158,0.5466616826641549,0.013253740477247724,-0.00043433666070147314,-0.0008167203306713965,,,,,,,,
1.5536420029820874,,0.51116544,-1.4765755,-3.93767,-0.95832884,-0.0068226904,-0.2855856,-0.115920186,0.92299414,0.36693904,0.26109034,0.38475347,-0.8853229,,,,,,,,,,,,,,,0.47985783,-1.5104755,-4.051823,-0.76738167,0.6360104,0.08133901,0.63200444,0.771673,-0.07135138,-0.10814736,-0.0033471168,-0.99412924,,1.3352605139534177,-0.2617929217033367,0.15050186158,0.5466616826641549,0.013253740477247724,-0.00043433666070147314,-0.0008167203306713965,,,,,,,,
1.6043867580010556,,0.51116544,-1.4765755,-3.93767,-0.95832884,-0.0068226904,-0.2855856,-0.115920186,0.92299414,0.36693904,0.26109034,0.38475347,-0.8853229,,,,,,,,,,,,,,,0.47985783,-1.5104755,-4.051823,-0.76738167,0.6360104,0.08133901,0.63200444,0.771673,-0.07135138,-0.10814736,-0.0033471168,-0.99412924,,1.3352605139534177,-0.2617929217033367,0.15050186158,0.5466616826641549,0.013253740477247724,-0.00043433666070147314,-0.0008167203306713965,,,,,,,,
1.6550535909773316,,0.5111649,-1.4765747,-3.9376695,-0.9583278,-0.0068227276,-0.28558937,-0.11592339,0.9229915,0.36694452,0.26109302,0.38475963,-0.8853194,,,,,,,,,,,,,,,0.47985783,-1.5104755,-4.051823,-0.76738167,0.6360104,0.08133901,0.63200444,0.771673,-0.07135138,-0.10814736,-0.0033471168,-0.99412924,,1.335268236686292,-0.2617929217033367,0.15050186158,0.5466616826641549,0.013253740477247724,-0.00043433666070147314,-0.0008167203306713965,,,,,,,,
1.686983138002688,,0.5111649,-1.4765747,-3.9376695,-0.9583278,-0.0068227276,-0.28558937,-0.11592339,0.9229915,0.36694452,0.26109302,0.38475963,-0.8853194,,,,,,,,,,,,,,,0.47985783,-1.5104755,-4.051823,-0.76738167,0.6360104,0.08133901,0.63200444,0.771673,-0.07135138,-0.10814736,-0.0033471168,-0.99412924,,1.335268236686292,-0.2617929217033367,0.15050186158,0.5466616826641549,0.013253740477247724,-0.00043433666070147314,-0.0008167203306713965,,,,,,,,
1.7440967619768344,,0.51116544,-1.4765755,-3.93767,-0.95832884,-0.0068226904,-0.2855856,-0.115920186,0.92299414,0.36693904,0.26109034,0.38475347,-0.8853229,,,,,,,,,,,,,,,0.47985783,-1.5104755,-4.051823,-0.76738167,0.6360104,0.08133901,0.63200444,0.771673,-0.07135138,-0.10814736,-0.0033471168,-0.99412924,,1.3352605139534177,-0.2617929217033367,0.15050186158,0.5466616826641549,0.013253740477247724,-0.00043433666070147314,-0.0008167203306713965,,,,,,,,
1.7903180269931909,,0.5111649,-1.4765747,-3.9376695,-0.9583278,-0.0068227276,-0.28558937,-0.11592339,0.9229915,0.36694452,0.26109302,0.38475963,-0.8853194,,,,,,,,,,,,,,,0.47985783,-1.5104755,-4.051823,-0.76738167,0.6360104,0.08133901,0.63200444,0.771673,-0.07135138,-0.10814736,-0.0033471168,-0.99412924,,1.335268236686292,-0.2617929217033367,0.15050186158,0.5466616826641549,0.013253740477247724,-0.00043433666070147314,-0.0008167203306713965,,,,,,,,
1.8265508339973167,,0.5111649,-1.4765747,-3.9376695,-0.9583278,-0.0068227276,-0.28558937,-0.11592339,0.9229915,0.36694452,0.26109302,0.38475963,-0.8853194,,,,,,,,,,,,,,,0.47985783,-1.5104755,-4.051823,-0.76738167,0.6360104,0.08133901,0.63200444,0.771673,-0.07135138,-0.10814736,-0.0033471168,-0.99412924,,1.335268236686292,-0.2617929217033367,0.15050186158,0.5466616826641549,0.013253740477247724,-0.00043433666070147314,-0.0008167203306713965,,,,,,,,
1.8883178409887478,,0.51116544,-1.4765755,-3.93767,-0.95832884,-0.0068226904,-0.2855856,-0.115920186,0.92299414,0.36693904,0.26109034,0.38475347,-0.8853229,,,,,,,,,,,,,,,0.47985783,-1.5104755,-4.051823,-0.76738167,0.6360104,0.08133901,0.63200444,0.771673,-0.07135138,-0.10814736,-0.0033471168,-0.99412924,,1.3352605139534177,-0.2617929217033367,0.15050186158,0.5466616826641549,0.013253740477247724,-0.00043433666070147314,-0.0008167203306713965,,,,,,,,
1.9200150149990804,,0.5111649,-1.4765747,-3.9376695,-0.9583278,-0.0068227276,-0.28558937,-0.11592339,0.9229915,0.36694452,0.26109302,0.38475963,-0.8853194,,,,,,,,,,,,,,,0.47985783,-1.5104755,-4.051823,-0.76738167,0.6360104,0.08133901,0.63200444,0.771673,-0.07135138,-0.10814736,-0.0033471168,-0.99412924,,1.335268236686292,-0.2617929217033367,0.15050186158,0.5466616826641549,0.013253740477247724,-0.00043433666070147314,-0.0008167203306713965,,,,,,,,
1.971440180001082,,0.5111649,-1.4765747,-3.9376695,-0.9583278,-0.0068227276,-0.28558937,-0.11592339,0.9229915,0.36694452,0.26109302,0.38475963,-0.8853194,,,,,,,,,,,,,,,0.47985783,-1.5104755,-4.051823,-0.76738167,0.6360104,0.08133901,0.63200444,0.771673,-0.07135138,-0.10814736,-0.0033471168,-0.99412924,,1.335268236686292,-0.2617929217033367,0.15050186158,0.5466616826641549,0.013253740477247724,-0.00043433666070147314,-0.0008167203306713965,,,,,,,,
2.0215632430044934,,0.51116544,-1.4765755,-3.93767,-0.95832884,-0.0068226904,-0.2855856,-0.115920186,0.92299414,0.36693904,0.26109034,0.38475347,-0.8853229,,,,,,,,,,,,,,,0.47985783,-1.5104755,-4.051823,-0.76738167,0.6360104,0.08133901,0.63200444,0.771673,-0.07135138,-0.10814736,-0.0033471168,-0.99412924,,1.3352605139534177,-0.2617929217033367,0.15050186158,0.5466616826641549,0.013253740477247724,-0.00043433666070147314,-0.0008167203306713965,,,,,,,,
2.057222951989388,,0.51116544,-1.4765755,-3.93767,-0.95832884,-0.0068226904,-0.2855856,-0.115920186,0.92299414,0.36693904,0.26109034,0.38475347,-0.8853229,,,,,,,,,,,,,,,0.47985783,-1.5104755,-4.051823,-0.76738167,0.6360104,0.08133901,0.63200444,0.771673,-0.07135138,-0.10814736,-0.0033471168,-0.99412924,,1.3352605139534177,-0.2617929217033367,0.15050186158,0.5466616826641549,0.013253740477247724,-0.00043433666070147314,-0.0008167203306713965,,,,,,,,
2.1097784010053147,,0.5111649,-1.4765747,-3.9376695,-0.9583278,-0.0068227276,-0.28558937,-0.11592339,0.9229915,0.36694452,0.26109302,0.38475963,-0.8853194,,,,,,,,,,,,,,,0.47985783,-1.5104755,-4.051823,-0.76738167,0.6360104,0.08133901,0.63200444,0.771673,-0.07135138,-0.10814736,-0.0033471168,-0.99412924,,1.335268236686292,-0.2617929217033367,0.15050186158,0.5466616826641549,0.013253740477247724,-0.00043433666070147314,-0.0008167203306713965,,,,,,,,
2.1605993720004335,,0.5111649,-1.4765747,-3.9376695,-0.9583278,-0.0068227276,-0.28558937,-0.11592339,0.9229915,0.36694452,0.26109302,0.38475963,-0.8853194,,,,,,,,,,,,,,,0.47985783,-1.5104755,-4.051823,-0.76738167,0.6360104,0.08133901,0.63200444,0.771673,-0.07135138,-0.10814736,-0.0033471168,-0.99412924,,1.335268236686292,-0.2617929217033367,0.15050186158,0.5466616826641549,0.013253740477247724,-0.00043433666070147314,-0.0008167203306713965,,,,,,,,
2.1904597859829664,,0.51116544,-1.4765755,-3.93767,-0.95832884,-0.0068226904,-0.2855856,-0.115920186,0.92299414,0.36693904,0.26109034,0.38475347,-0.8853229,,,,,,,,,,,,,,,0.47985783,-1.5104755,-4.051823,-0.76738167,0.6360104,0.08133901,0.63200444,0.771673,-0.07135138,-0.10814736,-0.0033471168,-0.99412924,,1.3352605139534177,-0.2617929217033367,0.15050186158,0.5466616826641549,0.013253740477247724,-0.00043433666070147314,-0.0008167203306713965,,,,,,,,
2.2248843099805526,,0.5111649,-1.4765747,-3.9376695,-0.9583278,-0.0068227276,-0.28558937,-0.11592339,0.9229915,0.36694452,0.26109302,0.38475963,-0.8853194,,,,,,,,,,,,,,,0.47985783,-1.5104755,-4.051823,-0.76738167,0.6360104,0.08133901,0.63200444,0.771673,-0.07135138,-0.10814736,-0.0033471168,-0.99412924,,1.335268236686292,-0.2617929217033367,0.15050186158,0.5466616826641549,0.013253740477247724,-0.00043433666070147314,-0.0008167203306713965,,,,,,,,
2.2903529689938296,,0.5111649,-1.4765747,-3.9376695,-0.9583278,-0.0068227276,-0.28558937,-0.11592339,0.9229915,0.36694452,0.26109302,0.38475963,-0.8853194,,,,,,,,,,,,,,,0.47985783,-1.5104755,-4.051823,-0.76738167,0.6360104,0.08133901,0.63200444,0.771673,-0.07135138,-0.10814736,-0.0033471168,-0.99412924,,1.335268236686292,-0.2617929217033367,0.15050186158,0.5466616826641549,0.013253740477247724,-0.00043433666070147314,-0.0008167203306713965,,,,,,,,
2.32181819100515,,0.51116544,-1.4765755,-3.93767,-0.95832884,-0.0068226904,-0.2855856,-0.115920186,0.92299414,0.36693904,0.26109034,0.38475347,-0.8853229,,,,,,,,,,,,,,,0.47985783,-1.5104755,-4.051823,-0.76738167,0.6360104,0.08133901,0.63200444,0.771673,-0.07135138,-0.10814736,-0.0033471168,-0.99412924,,1.3352605139534177,-0.2617929217033367,0.15050186158,0.5466616826641549,0.013253740477247724,-0.00043433666070147314,-0.0008167203306713965,,,,,,,,
2.375452582986327,,0.5111649,-1.4765747,-3.9376695,-0.9583278,-0.0068227276,-0.28558937,-0.11592339,0.9229915,0.36694452,0.26109302,0.38475963,-0.8853194,,,,,,,,,,,,,,,0.47985783,-1.5104755,-4.051823,-0.76738167,0.6360104,0.08133901,0.63200444,0.771673,-0.07135138,-0.10814736,-0.0033471168,-0.99412924,,1.335268236686292,-0.2617929217033367,0.15050186158,0.5466616826641549,0.013253740477247724,-0.00043433666070147314,-0.0008167203306713965,,,,,,,,
2.42562088399427,,0.5111649,-1.4765747,-3.9376695,-0.9583278,-0.0068227276,-0.28558937,-0.11592339,0.9229915,0.36694452,0.26109302,0.38475963,-0.8853194,,,,,,,,,,,,,,,0.47985783,-1.5104755,-4.051823,-0.76738167,0.6360104,0.08133901,0.63200444,0.771673,-0.07135138,-0.10814736,-0.0033471168,-0.99412924,,1.335268236686292,-0.2617929217033367,0.15050186158,0.5466616826641549,0.013253740477247724,-0.00043433666070147314,-0.0008167203306713965,,,,,,,,
2.4612424669903703,,0.5111649,-1.4765747,-3.9376695,-0.9583278,-0.0068227276,-0.28558937,-0.11592339,0.9229915,0.36694452,0.26109302,0.38475963,-0.8853194,,,,,,,,,,,,,,,0.47985783,-1.5104755,-4.051823,-0.76738167,0.6360104,0.08133901,0.63200444,0.771673,-0.07135138,-0.10814736,-0.0033471168,-0.99412924,,1.335268236686292,-0.2617929217033367,0.15050186158,0.5466616826641549,0.013253740477247724,-0.00043433666070147314,-0.0008167203306713965,,,,,,,,
2.5128792579926085,,0.5111649,-1.4765747,-3.9376695,-0.9583278,-0.0068227276,-0.28558937,-0.11592339,0.9229915,0.36694452,0.26109302,0.38475963,-0.8853194,,,,,,,,,,,,,,,0.47985783,-1.5104755,-4.051823,-0.76738167,0.6360104,0.08133901,0.63200444,0.771673,-0.07135138,-0.10814736,-0.0033471168,-0.99412924,,1.335268236686292,-0.2617929217033367,0.15050186158,0.5466616826641549,0.013253740477247724,-0.00043433666070147314,-0.0008167203306713965,,,,,,,,
2.5607144509849604,,0.5111649,-1.4765747,-3.9376695,-0.9583278,-0.0068227276,-0.28558937,-0.11592339,0.9229915,0.36694452,0.26109302,0.38475963,-0.8853194,,,,,,,,,,,,,,,0.47985783,-1.5104755,-4.051823,-0.76738167,0.6360104,0.08133901,0.63200444,0.771673,-0.07135138,-0.10814736,-0.0033471168,-0.99412924,,1.335268236686292,-0.2617929217033367,0.15050186158,0.5466616826641549,0.013253740477247724,-0.00043433666070147314,-0.0008167203306713965,,,,,,,,
2.5909959209966473,,0.51116544,-1.4765755,-3.93767,-0.95832884,-0.0068226904,-0.2855856,-0.115920186,0.92299414,0.36693904,0.26109034,0.38475347,-0.8853229,,,,,,,,,,,,,,,0.47985783,-1.5104755,-4.051823,-0.76738167,0.6360104,0.08133901,0.63200444,0.771673,-0.07135138,-0.10814736,-0.0033471168,-0.99412924,,1.3352605139534177,-0.2617929217033367,0.15050186158,0.5466616826641549,0.013253740477247724,-0.00043433666070147314,-0.0008167203306713965,,,,,,,,
2.6480685919814277,,0.51116306,-1.4765757,-3.9376693,-0.9582508,-0.006759189,-0.28584903,-0.116020575,0.92291236,0.36711308,0.2613322,0.38495073,-0.8851657,,,,,,,,,,,,,,,0.47985783,-1.5104755,-4.051823,-0.76738167,0.6360104,0.08133901,0.63200444,0.771673,-0.07135138,-0.10814736,-0.0033471168,-0.99412924,,1.3352605139534177,-0.2617929217033367,0.15050186158,0.5466616826641549,0.012980467477716843,-0.00021150085330863024,-0.0008167203306713965,,,,,,,,
2.6961242980032694,,0.5111604,-1.4765685,-3.937676,-0.9582586,-0.006757889,-0.28582275,-0.116006285,0.92291695,0.3671058,0.2613098,0.38493955,-0.8851772,,,,,,,,,,,,,,,0.47980788,-1.5104288,-4.051832,-0.7673204,0.63608354,0.08134518,0.63207746,0.7716128,-0.071355686,-0.10815518,-0.0033362012,-0.9941284,,1.335268236686292,-0.2617929217033367,0.15050186158,0.5466616826641549,0.012980467477716843,-0.00021150085330863024,-0.0008167203306713965,,,,,,,,
2.7401146139891353,,0.5111609,-1.4765692,-3.9376764,-0.95825976,-0.0067578517,-0.28581896,-0.11600308,0.9229196,0.36710033,0.2613071,0.38493338,-0.8851807,,,,,,,,,,,,,,,0.47980788,-1.5104288,-4.051832,-0.7673204,0.63608354,0.08134518,0.63207746,0.7716128,-0.071355686,-0.10815518,-0.0033362012,-0.9941284,,1.3352605139534177,-0.2617929217033367,0.15050186158,0.5466616826641549,0.012980467477716843,-0.00021150085330863024,-0.0008167203306713965,,,,,,,,
2.7786826209921855,,0.5111604,-1.4765685,-3.937676,-0.9582586,-0.006757889,-0.28582275,-0.116006285,0.92291695,0.3671058,0.2613098,0.38493955,-0.8851772,,,,,,,,,,,,,,,0.47980788,-1.5104288,-4.051832,-0.7673204,0.63608354,0.08134518,0.63207746,0.7716128,-0.071355686,-0.10815518,-0.0033362012,-0.9941284,,1.335268236686292,-0.2617929217033367,0.15050186158,0.5466616826641549,0.012980467477716843,-0.00021150085330863024,-0.0008167203306713965,,,,,,,,
2.8227988239959814,,0.5111604,-1.4765685,-3.937676,-0.9582586,-0.006757889,-0.28582275,-0.116006285,0.92291695,0.3671058,0.2613098,0.38493955,-0.8851772,,,,,,,,,,,,,,,0.47980788,-1.5104288,-4.051832,-0.7673204,0.63608354,0.08134518,0.63207746,0.7716128,-0.071355686,-0.10815518,-0.0033362012,-0.9941284,,1.335268236686292,-0.2617929217033367,0.15050186158,0.5466616826641549,0.012980467477716843,-0.00021150085330863024,-0.0008167203306713965,,,,,,,,
2.854722038988257,,0.5111604,-1.4765685,-3.937676,-0.9582586,-0.006757889,-0.28582275,-0.116006285,0.92291695,0.3671058,0.2613098,0.38493955,-0.8851772,,,,,,,,,,,,,,,0.47980788,-1.5104288,-4.051832,-0.7673204,0.63608354,0.08134518,0.63207746,0.7716128,-0.071355686,-0.10815518,-0.0033362012,-0.9941284,,1.335268236686292,-0.2617929217033367,0.15050186158,0.5466616826641549,0.012980467477716843,-0.00021150085330863024,-0.0008167203306713965,,,,,,,,
2.9115337069961242,,0.5111609,-1.4765692,-3.9376764,-0.95825976,-0.0067578517,-0.28581896,-0.11600308,0.9229196,0.36710033,0.2613071,0.38493338,-0.8851807,,,,,,,,,,,,,,,0.47980788,-1.5104288,-4.051832,-0.7673204,0.63608354,0.08134518,0.63207746,0.7716128,-0.071355686,-0.10815518,-0.0033362012,-0.9941284,,1.3352605139534177,-0.2617929217033367,0.15050186158,0.5466616826641549,0.012980467477716843,-0.00021150085330863024,-0.0008167203306713965,,,,,,,,
2.9572025249945,,0.5111604,-1.4765685,-3.937676,-0.9582586,-0.006757889,-0.28582275,-0.116006285,0.92291695,0.3671058,0.2613098,0.38493955,-0.8851772,,,,,,,,,,,,,,,0.47980788,-1.5104288,-4.051832,-0.7673204,0.63608354,0.08134518,0.63207746,0.7716128,-0.071355686,-0.10815518,-0.0033362012,-0.9941284,,1.335268236686292,-0.2617929217033367,0.15050186158,0.5466616826641549,0.012980467477716843,-0.00021150085330863024,-0.0008167203306713965,,,,,,,,
2.981606935005402,,0.5111604,-1.4765685,-3.937676,-0.9582586,-0.006757889,-0.28582275,-0.116006285,0.92291695,0.3671058,0.2613098,0.38493955,-0.8851772,,,,,,,,,,,,,,,0.47980788,-1.5104288,-4.051832,-0.7673204,0.63608354,0.08134518,0.63207746,0.7716128,-0.071355686,-0.10815518,-0.0033362012,-0.9941284,,1.335268236686292,-0.2617929217033367,0.15050186158,0.5466616826641549,0.012980467477716843,-0.00021150085330863024,-0.0008167203306713965,,,,,,,,
3.0284479270048905,,0.5111604,-1.4765685,-3.937676,-0.9582586,-0.006757889,-0.28582275,-0.116006285,0.92291695,0.3671058,0.2613098,0.38493955,-0.8851772,,,,,,,,,,,,,,,0.47980788,-1.5104288,-4.051832,-0.7673204,0.63608354,0.08134518,0.63207746,0.7716128,-0.071355686,-0.10815518,-0.0033362012,-0.9941284,,1.335268236686292,-0.2617929217033367,0.15050186158,0.5466616826641549,0.012980467477716843,-0.00021150085330863024,-0.0008167203306713965,,,,,,,,
3.0943662079807837,,0.5111604,-1.4765685,-3.937676,-0.9582586,-0.006757889,-0.28582275,-0.116006285,0.92291695,0.3671058,0.2613098,0.38493955,-0.8851772,,,,,,,,,,,,,,,0.47980788,-1.5104288,-4.051832,-0.7673204,0.63608354,0.08134518,0.63207746,0.7716128,-0.071355686,-0.10815518,-0.0033362012,-0.9941284,,1.335268236686292,-0.2617929217033367,0.15050186158,0.5466616826641549,0.012980467477716843,-0.00021150085330863024,-0.0008167203306713965,,,,,,,,
3.146476433990756,,0.5111609,-1.4765692,-3.9376764,-0.95825976,-0.0067578517,-0.28581896,-0.11600308,0.9229196,0.36710033,0.2613071,0.38493338,-0.8851807,,,,,,,,,,,,,,,0.47980788,-1.5104288,-4.051832,-0.7673204,0.63608354,0.08134518,0.63207746,0.7716128,-0.071355686,-0.10815518,-0.0033362012,-0.9941284,,1.3352605139534177,-0.2617929217033367,0.15050186158,0.5466616826641549,0.012980467477716843,-0.00021150085330863024,-0.0008167203306713965,,,,,,,,
3.206334516988136,,0.5111604,-1.4765685,-3.937676,-0.9582586,-0.006757889,-0.28582275,-0.116006285,0.92291695,0.3671058,0.2613098,0.38493955,-0.8851772,,,,,,,,,,,,,,,0.47980788,-1.5104288,-4.051832,-0.7673204,0.63608354,0.08134518,0.63207746,0.7716128,-0.071355686,-0.10815518,-0.0033362012,-0.9941284,,1.335268236686292,-0.2617929217033367,0.15050186158,0.5466616826641549,0.012980467477716843,-0.00021150085330863024,-0.0008167203306713965,,,,,,,,
3.252313631004654,,0.5111609,-1.4765692,-3.9376764,-0.95825976,-0.0067578517,-0.28581896,-0.11600308,0.9229196,0.36710033,0.2613071,0.38493338,-0.8851807,,,,,,,,,,,,,,,0.47980788,-1.5104288,-4.051832,-0.7673204,0.63608354,0.08134518,0.63207746,0.7716128,-0.071355686,-0.10815518,-0.0033362012,-0.9941284,,1.3352605139534177,-0.2617929217033367,0.15050186158,0.5466616826641549,0.012980467477716843,-0.00021150085330863024,-0.0008167203306713965,,,,,,,,
3.2976532509783283,,0.5111604,-1.4765685,-3.937676,-0.9582586,-0.006757889,-0.28582275,-0.116006285,0.92291695,0.3671058,0.2613098,0.38493955,-0.8851772,,,,,,,,,,,,,,,0.47980788,-1.5104288,-4.051832,-0.7673204,0.63608354,0.08134518,0.63207746,0.7716128,-0.071355686,-0.10815518,-0.0033362012,-0.9941284,,1.335268236686292,-0.2617929217033367,0.15050186158,0.5466616826641549,0.012980467477716843,-0.00021150085330863024,-0.0008167203306713965,,,,,,,,
3.345736600982491,,0.5111604,-1.4765685,-3.937676,-0.9582586,-0.006757889,-0.28582275,-0.116006285,0.92291695,0.3671058,0.2613098,0.38493955,-0.8851772,,,,,,,,,,,,,,,0.47980788,-1.5104288,-4.051832,-0.7673204,0.63608354,0.08134518,0.63207746,0.7716128,-0.071355686,-0.10815518,-0.0033362012,-0.9941284,,1.335268236686292,-0.2617929217033367,0.15050186158,0.5466616826641549,0.012980467477716843,-0.00021150085330863024,-0.0008167203306713965,,,,,,,,
3.388372382003581,,0.5111604,-1.4765685,-3.937676,-0.9582586,-0.006757889,-0.28582275,-0.116006285,0.92291695,0.3671058,0.2613098,0.38493955,-0.8851772,,,,,,,,,,,,,,,0.47980788,-1.5104288,-4.051832,-0.7673204,0.63608354,0.08134518,0.63207746,0.7716128,-0.071355686,-0.10815518,-0.0033362012,-0.9941284,,1.335268236686292,-0.2617929217033367,0.15050186158,0.5466616826641549,0.012980467477716843,-0.00021150085330863024,-0.0008167203306713965,,,,,,,,
3.427623768977355,,0.5111604,-1.4765685,-3.937676,-0.9582586,-0.006757889,-0.28582275,-0.116006285,0.92291695,0.3671058,0.2613098,0.38493955,-0.8851772,,,,,,,,,,,,,,,0.47980788,-1.5104288,-4.051832,-0.7673204,0.63608354,0.08134518,0.63207746,0.7716128,-0.071355686,-0.10815518,-0.0033362012,-0.9941284,,1.335268236686292,-0.2617929217033367,0.15050186158,0.5466616826641549,0.012980467477716843,-0.00021150085330863024,-0.0008167203306713965,,,,,,,,
3.4706862829916645,,0.5111604,-1.4765685,-3.937676,-0.9582586,-0.006757889,-0.28582275,-0.116006285,0.92291695,0.3671058,0.2613098,0.38493955,-0.8851772,,,,,,,,,,,,,,,0.47980788,-1.5104288,-4.051832,-0.7673204,0.63608354,0.08134518,0.63207746,0.7716128,-0.071355686,-0.10815518,-0.0033362012,-0.9941284,,1.335268236686292,-0.2617929217033367,0.15050186158,0.5466616826641549,0.012980467477716843,-0.00021150085330863024,-0.0008167203306713965,,,,,,,,
3.5041586110019125,,0.5111604,-1.4765685,-3.937676,-0.9582586,-0.006757889,-0.28582275,-0.116006285,0.92291695,0.3671058,0.2613098,0.38493955,-0.8851772,,,,,,,,,,,,,,,0.47980788,-1.5104288,-4.051832,-0.7673204,0.63608354,0.08134518,0.63207746,0.7716128,-0.071355686,-0.10815518,-0.0033362012,-0.9941284,,1.335268236686292,-0.2617929217033367,0.15050186158,0.5466616826641549,0.012980467477716843,-0.00021150085330863024,-0.0008167203306713965,,,,,,,,
3.540494917979231,,0.5111604,-1.4765685,-3.937676,-0.9582586,-0.006757889,-0.28582275,-0.116006285,0.92291695,0.3671058,0.2613098,0.38493955,-0.8851772,,,,,,,,,,,,,,,0.47980788,-1.5104288,-4.051832,-0.7673204,0.63608354,0.08134518,0.63207746,0.7716128,-0.071355686,-0.10815518,-0.0033362012,-0.9941284,,1.335268236686292,-0.2617929217033367,0.15050186158,0.5466616826641549,0.012980467477716843,-0.00021150085330863024,-0.0008167203306713965,,,,,,,,
3.5897340009978507,,0.5111604,-1.4765685,-3.937676,-0.9582586,-0.006757889,-0.28582275,-0.116006285,0.92291695,0.3671058,0.2613098,0.38493955,-0.8851772,,,,,,,,,,,,,,,0.47980788,-1.5104288,-4.051832,-0.7673204,0.63608354,0.08134518,0.63207746,0.7716128,-0.071355686,-0.10815518,-0.0033362012,-0.9941284,,1.335268236686292,-0.2617929217033367,0.15050186158,0.5466616826641549,0.012980467477716843,-0.00021150085330863024,-0.0008167203306713965,,,,,,,,
3.641008676000638,,0.5111604,-1.4765685,-3.937676,-0.9582586,-0.006757889,-0.28582275,-0.116006285,0.92291695,0.3671058,0.2613098,0.38493955,-0.8851772,,,,,,,,,,,,,,,0.47980788,-1.5104288,-4.051832,-0.7673204,0.63608354,0.08134518,0.63207746,0.7716128,-0.071355686,-0.10815518,-0.0033362012,-0.9941284,,1.335268236686292,-0.2617929217033367,0.15050186158,0.5466616826641549,0.012980467477716843,-0.00021150085330863024,-0.0008167203306713965,,,,,,,,
3.6798544979828876,,0.5111604,-1.4765685,-3.937676,-0.9582586,-0.006757889,-0.28582275,-0.116006285,0.92291695,0.3671058,0.2613098,0.38493955,-0.8851772,,,,,,,,,,,,,,,0.47980788,-1.5104288,-4.051832,-0.7673204,0.63608354,0.08134518,0.63207746,0.7716128,-0.071355686,-0.10815518,-0.0033362012,-0.9941284,,1.335268236686292,-0.2617929217033367,0.15050186158,0.5466616826641549,0.012980467477716843,-0.00021150085330863024,-0.0008167203306713965,,,,,,,,
3.740178179985378,,0.5111609,-1.4765692,-3.9376764,-0.95825976,-0.0067578517,-0.28581896,-0.11600308,0.9229196,0.36710033,0.2613071,0.38493338,-0.8851807,,,,,,,,,,,,,,,0.47980788,-1.5104288,-4.051832,-0.7673204,0.63608354,0.08134518,0.63207746,0.7716128,-0.071355686,-0.10815518,-0.0033362012,-0.9941284,,1.3352605139534177,-0.2617929217033367,0.15050186158,0.5466616826641549,0.012980467477716843,-0.00021150085330863024,-0.0008167203306713965,,,,,,,,
3.771494950982742,,0.5111604,-1.4765685,-3.937676,-0.9582586,-0.006757889,-0.28582275,-0.116006285,0.92291695,0.3671058,0.2613098,0.38493955,-0.8851772,,,,,,,,,,,,,,,0.47980788,-1.5104288,-4.051832,-0.7673204,0.63608354,0.08134518,0.63207746,0.7716128,-0.071355686,-0.10815518,-0.0033362012,-0.9941284,,1.335268236686292,-0.2617929217033367,0.15050186158,0.5466616826641549,0.012980467477716843,-0.00021150085330863024,-0.0008167203306713965,,,,,,,,
3.819649495999329,,0.51120317,-1.4766246,-3.9376676,-0.95829195,-0.0063593686,-0.28572035,-0.11599387,0.9223594,0.36850858,0.2611933,0.38628063,-0.8846272,,,,,,,,,,,,,,,0.47985187,-1.5104617,-4.051829,-0.7673375,0.6360632,0.08134345,0.6320571,0.7716297,-0.071354486,-0.10815299,-0.0033392673,-0.99412864,,1.3352605139534177,-0.2617929217033367,0.15050186158,0.5466616826641549,0.013117103977482282,0.0013106560458061942,0.009473955835788195,,,,,,,,
3.864290689001791,,0.5112229,-1.4766214,-3.9376726,-0.9589519,-0.0059499107,-0.28350633,-0.11514352,0.92181903,0.3701239,0.2591393,0.3875749,-0.8846652,,,,,,,,,,,,,,,0.47985187,-1.5104617,-4.051829,-0.7673375,0.6360632,0.08134345,0.6320571,0.7716297,-0.071354486,-0.10815299,-0.0033392673,-0.99412864,,1.335268236686292,-0.2617929217033367,0.15050186158,0.5466616826641549,0.01543992447349477,0.002765380028730082,0.04181608093037549,,,,,,,,
3.91131540297647,,0.5112187,-1.4766208,-3.9376712,-0.95876175,-0.006901428,-0.28412718,-0.11538968,0.9230557,0.36695144,0.2597327,0.38460433,-0.8857869,,,,,,,,,,,,,,,0.47985187,-1.5104617,-4.051829,-0.7673375,0.6360632,0.08134345,0.6320571,0.7716297,-0.071354486,-0.10815299,-0.0033392673,-0.99412864,,1.335268236686292,-0.2617774762375882,0.15050186158,0.5466616826641549,0.014756741974667567,-0.0005981099795347999,0.10976721244223567,,,,,,,,
3.9459868400008418,,0.51120085,-1.4766229,-3.9376662,-0.95817745,-0.0069619305,-0.28609017,-0.11614272,0.9231316,0.3665228,0.26154718,0.3844211,-0.8853324,,,,,,,,,,,,,,,0.47985187,-1.5104617,-4.051829,-0.7673375,0.6360632,0.08134345,0.6320571,0.7716297,-0.071354486,-0.10815299,-0.0033392673,-0.99412864,,1.335268236686292,-0.2617774762375882,0.15050186158,0.5466616826641549,0.012707194478185961,-0.0008054524473214072,0.18637557945921263,,,,,,,,
4.0113054779940285,,0.5112095,-1.4766225,-3.9376688,-0.9584877,-0.006634321,-0.2850567,-0.11574365,0.92271066,0.36770695,0.26058543,0.3854361,-0.8851747,,,,,,,,,,,,,,,0.47985187,-1.5104617,-4.051829,-0.7673375,0.6360632,0.08134345,0.6320571,0.7716297,-0.071354486,-0.10815299,-0.0033392673,-0.99412864,,1.335268236686292,-0.26178519897046243,0.15050186158,0.5466616826641549,0.013800286476309485,0.00034517282662126225,0.3315884542525869,,,,,,,,
4.039879884978291,,0.51121396,-1.4766214,-3.9376698,-0.95860636,-0.0064958334,-0.2846607,-0.115590505,0.9225316,0.36820406,0.26021668,0.38586682,-0.88509554,,,,,,,,,,,,,,,0.47985187,-1.5104617,-4.051829,-0.7673375,0.6360632,0.08134345,0.6320571,0.7716297,-0.071354486,-0.10815299,-0.0033392673,-0.99412864,,1.335268236686292,-0.2617774762375882,0.15050186158,0.5466616826641549,0.014210195975605806,0.0008277065169376291,0.3979061451031043,,,,,,,,
4.0869368230050895,,0.51121396,-1.4766214,-3.9376698,-0.95860636,-0.006658636,-0.2846569,-0.115590505,0.922742,0.36767653,0.26021668,0.3853607,-0.88531595,,,,,,,,,,,,,,,0.47985187,-1.5104617,-4.051829,-0.7673375,0.6360632,0.08134345,0.6320571,0.7716297,-0.071354486,-0.10815299,-0.0033392673,-0.99412864,,1.335268236686292,-0.2617774762375882,0.15050186158,0.5466616826641549,0.014210195975605806,0.00025595533595369757,0.4699408782683214,,,,,,,,
4.139230451983167,,0.51121396,-1.4766214,-3.9376698,-0.95860636,-0.0066121295,-0.28465804,-0.115590505,0.9226819,0.3678273,0.26021668,0.38550532,-0.885253,,,,,,,,,,,,,,,0.47985187,-1.5104617,-4.051829,-0.7673375,0.6360632,0.08134345,0.6320571,0.7716297,-0.071354486,-0.10815299,-0.0033392673,-0.99412864,,1.335268236686292,-0.2617774762375882,0.15050186158,0.5466616826641549,0.014210195975605806,0.00041931281623483474,0.5117569591986969,,,,,,,,
4.16857444998459,,0.51121396,-1.4766214,-3.9376698,-0.95860636,-0.0066121295,-0.28465804,-0.115590505,0.9226819,0.3678273,0.26021668,0.38550532,-0.885253,,,,,,,,,,,,,,,0.47985187,-1.5104617,-4.051829,-0.7673375,0.6360632,0.08134345,0.6320571,0.7716297,-0.071354486,-0.10815299,-0.0033392673,-0.99412864,,1.335268236686292,-0.2617774762375882,0.15050186158,0.5466616826641549,0.014210195975605806,0.0005009915563753686,0.5230276997619622,,,,,,,,
4.217961933987681,,0.51121306,-1.476622,-3.9376698,-0.95860445,-0.0065900795,-0.28466484,-0.11559301,0.9226534,0.36789817,0.2602225,0.38557407,-0.88522136,,,,,,,,,,,,,,,0.47985187,-1.5104617,-4.051829,-0.7673375,0.6360632,0.08134345,0.6320571,0.7716297,-0.071354486,-0.10815299,-0.0033392673,-0.99412864,,1.335268236686292,-0.2617774762375882,0.15050186158,0.5466616826641549,0.014210195975605806,0.0005009915563753686,0.5230276997619622,,,,,,,,
4.267035930999555,,0.51121396,-1.4766214,-3.9376698,-0.95860636,-0.0065655895,-0.28465906,-0.115590505,0.92262185,0.36797798,0.26021668,0.38564992,-0.88519007,,,,,,,,,,,,,,,0.47985187,-1.5104617,-4.051829,-0.7673375,0.6360632,0.08134345,0.6320571,0.7716297,-0.071354486,-0.10815299,-0.0033392673,-0.99412864,,1.335268236686292,-0.2617774762375882,0.15050186158,0.5466616826641549,0.014210195975605806,0.0005826702965159303,0.5231910438280964,,,,,,,,
4.302522361977026,,0.51121306,-1.476622,-3.9376698,-0.95860445,-0.0065668374,-0.2846654,-0.11559301,0.92262334,0.36797354,0.2602225,0.38564637,-0.8851899,,,,,,,,,,,,,,,0.47985187,-1.5104617,-4.051829,-0.7673375,0.6360632,0.08134345,0.6320571,0.7716297,-0.071354486,-0.10815299,-0.0033392673,-0.99412864,,1.335268236686292,-0.26178519897046243,0.15050186158,0.5466616826641549,0.014210195975605806,0.0005826702965159303,0.5231910438280964,,,,,,,,
4.334866310993675,,0.5112136,-1.4766228,-3.9376702,-0.9586056,-0.0065668,-0.28466162,-0.11558981,0.92262584,0.36796805,0.2602198,0.38564023,-0.8851933,,,,,,,,,,,,,,,0.47985187,-1.5104617,-4.051829,-0.7673375,0.6360632,0.08134345,0.6320571,0.7716297,-0.071354486,-0.10815299,-0.0033392673,-0.99412864,,1.3352605139534177,-0.26178519897046243,0.15050186158,0.5466616826641549,0.014210195975605806,0.0005826702965159303,0.5231910438280964,,,,,,,,
4.387307354976656,,0.5112136,-1.4766228,-3.9376702,-0.9586056,-0.0065900125,-0.2846611,-0.11558981,0.92265594,0.36789268,0.2602198,0.3855679,-0.8852249,,,,,,,,,,,,,,,0.47985187,-1.5104617,-4.051829,-0.7673375,0.6360632,0.08134345,0.6320571,0.7716297,-0.071354486,-0.10815299,-0.0033392673,-0.99412864,,1.3352605139534177,-0.26178519897046243,0.15050186158,0.5466616826641549,0.014210195975605806,0.0005009915563753686,0.5233543878942307,,,,,,,,
4.413077962992247,,0.51121396,-1.4766214,-3.9376698,-0.95860636,-0.0065888576,-0.28465852,-0.115590505,0.9226519,0.3679026,0.26021668,0.38557762,-0.88522154,,,,,,,,,,,,,,,0.47985187,-1.5104617,-4.051829,-0.7673375,0.6360632,0.08134345,0.6320571,0.7716297,-0.071354486,-0.10815299,-0.0033392673,-0.99412864,,1.335268236686292,-0.2617774762375882,0.15050186158,0.5466616826641549,0.014210195975605806,0.0005009915563753686,0.5233543878942307,,,,,,,,
4.462739313981729,,0.5112136,-1.4766228,-3.9376702,-0.9586056,-0.0065900125,-0.2846611,-0.11558981,0.92265594,0.36789268,0.2602198,0.3855679,-0.8852249,,,,,,,,,,,,,,,0.47985187,-1.5104617,-4.051829,-0.7673375,0.6360632,0.08134345,0.6320571,0.7716297,-0.071354486,-0.10815299,-0.0033392673,-0.99412864,,1.3352605139534177,-0.26178519897046243,0.15050186158,0.5466616826641549,0.014210195975605806,0.0005009915563753686,0.5233543878942307,,,,,,,,
4.519435522001004,,0.5112136,-1.4766228,-3.9376702,-0.9586056,-0.0065900125,-0.2846611,-0.11558981,0.92265594,0.36789268,0.2602198,0.3855679,-0.8852249,,,,,,,,,,,,,,,0.47985187,-1.5104617,-4.051829,-0.7673375,0.6360632,0.08134345,0.6320571,0.7716297,-0.071354486,-0.10815299,-0.0033392673,-0.99412864,,1.3352605139534177,-0.26178519897046243,0.15050186158,0.5466616826641549,0.014210195975605806,0.0005009915563753686,0.5233543878942307,,,,,,,,
4.563721320999321,,0.51121306,-1.476622,-3.9376698,-0.95860445,-0.0065668374,-0.2846654,-0.11559301,0.92262334,0.36797354,0.2602225,0.38564637,-0.8851899,,,,,,,,,,,,,,,0.47985187,-1.5104617,-4.051829,-0.7673375,0.6360632,0.08134345,0.6320571,0.7716297,-0.071354486,-0.10815299,-0.0033392673,-0.99412864,,1.335268236686292,-0.26178519897046243,0.15050186158,0.5466616826641549,0.014210195975605806,0.000582670296515958,0.523517731960365,,,,,,,,
4.599273685977096,,0.5112136,-1.4766228,-3.9376702,-0.9586056,-0.0065668,-0.28466162,-0.11558981,0.92262584,0.36796805,0.2602198,0.38564023,-0.8851933,,,,,,,,,,,,,,,0.47985187,-1.5104617,-4.051829,-0.7673375,0.6360632,0.08134345,0.6320571,0.7716297,-0.071354486,-0.10815299,-0.0033392673,-0.99412864,,1.3352605139534177,-0.26178519897046243,0.15050186158,0.5466616826641549,0.014210195975605806,0.000582670296515958,0.523517731960365,,,,,,,,
4.640176535991486,,0.51121306,-1.476622,-3.9376698,-0.95860445,-0.0065668374,-0.2846654,-0.11559301,0.92262334,0.36797354,0.2602225,0.38564637,-0.8851899,,,,,,,,,,,,,,,0.47985187,-1.5104617,-4.051829,-0.7673375,0.6360632,0.08134345,0.6320571,0.7716297,-0.071354486,-0.10815299,-0.0033392673,-0.99412864,,1.335268236686292,-0.26178519897046243,0.15050186158,0.5466616826641549,0.014210195975605806,0.000582670296515958,0.523517731960365,,,,,,,,
4.696527730993694,,0.51121396,-1.4766214,-3.9376698,-0.95860636,-0.0065655895,-0.28465906,-0.115590505,0.92262185,0.36797798,0.26021668,0.38564992,-0.88519007,,,,,,,,,,,,,,,0.47985187,-1.5104617,-4.051829,-0.7673375,0.6360632,0.08134345,0.6320571,0.7716297,-0.071354486,-0.10815299,-0.0033392673,-0.99412864,,1.335268236686292,-0.2617774762375882,0.15050186158,0.5466616826641549,0.014210195975605806,0.000582670296515958,0.523517731960365,,,,,,,,
4.7461560939846095,,0.51121306,-1.476622,-3.9376698,-0.95860445,-0.0065668374,-0.2846654,-0.11559301,0.92262334,0.36797354,0.2602225,0.38564637,-0.8851899,,,,,,,,,,,,,,,0.47985187,-1.5104617,-4.051829,-0.7673375,0.6360632,0.08134345,0.6320571,0.7716297,-0.071354486,-0.10815299,-0.0033392673,-0.99412864,,1.335268236686292,-0.26178519897046243,0.15050186158,0.5466616826641549,0.014210195975605806,0.000582670296515958,0.523517731960365,,,,,,,,
4.795793258002959,,0.5112136,-1.4766228,-3.9376702,-0.9586056,-0.0065668,-0.28466162,-0.11558981,0.92262584,0.36796805,0.2602198,0.38564023,-0.8851933,,,,,,,,,,,,,,,0.47985187,-1.5104617,-4.051829,-0.7673375,0.6360632,0.08134345,0.6320571,0.7716297,-0.071354486,-0.10815299,-0.0033392673,-0.99412864,,1.3352605139534177,-0.26178519897046243,0.15050186158,0.5466616826641549,0.014210195975605806,0.000582670296515958,0.523517731960365,,,,,,,,
4.844498566002585,,0.51121306,-1.476622,-3.9376698,-0.95860445,-0.0065668374,-0.2846654,-0.11559301,0.92262334,0.36797354,0.2602225,0.38564637,-0.8851899,,,,,,,,,,,,,,,0.47985187,-1.5104617,-4.051829,-0.7673375,0.6360632,0.08134345,0.6320571,0.7716297,-0.071354486,-0.10815299,-0.0033392673,-0.99412864,,1.335268236686292,-0.26178519897046243,0.15050186158,0.5466616826641549,0.014210195975605806,0.000582670296515958,0.523517731960365,,,,,,,,
4.873039603000507,,0.51121306,-1.476622,-3.9376698,-0.95860445,-0.0065668374,-0.2846654,-0.11559301,0.92262334,0.36797354,0.2602225,0.38564637,-0.8851899,,,,,,,,,,,,,,,0.47985187,-1.5104617,-4.051829,-0.7673375,0.6360632,0.08134345,0.6320571,0.7716297,-0.071354486,-0.10815299,-0.0033392673,-0.99412864,,1.335268236686292,-0.26178519897046243,0.15050186158,0.5466616826641549,0.014210195975605806,0.000582670296515958,0.523517731960365,,,,,,,,
4.927232059999369,,0.51121306,-1.476622,-3.9376698,-0.95860445,-0.0065668374,-0.2846654,-0.11559301,0.92262334,0.36797354,0.2602225,0.38564637,-0.8851899,,,,,,,,,,,,,,,0.47985187,-1.5104617,-4.051829,-0.7673375,0.6360632,0.08134345,0.6320571,0.7716297,-0.071354486,-0.10815299,-0.0033392673,-0.99412864,,1.335268236686292,-0.26178519897046243,0.15050186158,0.5466616826641549,0.014210195975605806,0.000582670296515958,0.523517731960365,,,,,,,,
4.977400083997054,,0.51120543,-1.4766185,-3.9376452,-0.9585891,-0.0065588206,-0.28471735,-0.1156089,0.92261875,0.36797982,0.26027206,0.38565734,-0.88517046,,,,,,,,,,,,,,,0.47985682,-1.5104637,-4.051825,-0.76733994,0.6360603,0.081343204,0.63205415,0.7716321,-0.071354315,-0.10815268,-0.0033396943,-0.99412864,,1.3352605139534177,-0.26178519897046243,0.15050186158,0.5466616826641549,0.014210195975605806,0.000582670296515958,0.523517731960365,,,,,,,,
5.00902982999105,,0.5112037,-1.4766178,-3.9376445,-0.958549,-0.0065269507,-0.2848528,-0.11566229,0.9225752,0.36807227,0.2603957,0.3857621,-0.8850885,,,,,,,,,,,,,,,0.47985682,-1.5104637,-4.051825,-0.76733994,0.6360603,0.081343204,0.63205415,0.7716321,-0.071354315,-0.10815268,-0.0033396943,-0.99412864,,1.335268236686292,-0.26178519897046243,0.15050186158,0.5466616826641549,0.014073559475840366,0.0006940882002123838,0.523517731960365,,,,,,,,
5.064211310993414,,0.5112025,-1.476618,-3.937644,-0.9585101,-0.006495163,-0.28498453,-0.11571248,0.9225342,0.3681593,0.2605167,0.38586062,-0.8850099,,,,,,,,,,,,,,,0.47985682,-1.5104637,-4.051825,-0.76733994,0.6360603,0.081343204,0.63205415,0.7716321,-0.071354315,-0.10815268,-0.0033396943,-0.99412864,,1.335268236686292,-0.26178519897046243,0.15050186158,0.5466616826641549,0.013936922976074925,0.0008055061039088096,0.523517731960365,,,,,,,,
5.110243987990543,,0.5112025,-1.476618,-3.937644,-0.9585101,-0.0065184087,-0.284984,-0.11571248,0.92256427,0.3680839,0.2605167,0.38578838,-0.8850415,,,,,,,,,,,,,,,0.47985682,-1.5104637,-4.051825,-0.76733994,0.6360603,0.081343204,0.63205415,0.7716321,-0.071354315,-0.10815268,-0.0033396943,-0.99412864,,1.335268236686292,-0.26178519897046243,0.15050186158,0.5466616826641549,0.013936922976074925,0.000723827363768248,0.5236810760264993,,,,,,,,
5.159050118003506,,0.5112025,-1.476618,-3.937644,-0.9585101,-0.0065184087,-0.284984,-0.11571248,0.92256427,0.3680839,0.2605167,0.38578838,-0.8850415,,,,,,,,,,,,,,,0.47985682,-1.5104637,-4.051825,-0.76733994,0.6360603,0.081343204,0.63205415,0.7716321,-0.071354315,-0.10815268,-0.0033396943,-0.99412864,,1.335268236686292,-0.26178519897046243,0.15050186158,0.5466616826641549,0.013936922976074925,0.000723827363768248,0.5236810760264993,,,,,,,,
5.18412309300038,,0.5112025,-1.476618,-3.937644,-0.9585101,-0.0065184087,-0.284984,-0.11571248,0.92256427,0.3680839,0.2605167,0.38578838,-0.8850415,,,,,,,,,,,,,,,0.47985682,-1.5104637,-4.051825,-0.76733994,0.6360603,0.081343204,0.63205415,0.7716321,-0.071354315,-0.10815268,-0.0033396943,-0.99412864,,1.335268236686292,-0.26178519897046243,0.15050186158,0.5466616826641549,0.013936922976074925,0.000723827363768248,0.5236810760264993,,,,,,,,
5.232209506997606,,0.5112025,-1.476618,-3.937644,-0.9585101,-0.0065649524,-0.28498292,-0.11571248,0.92262435,0.3679332,0.2605167,0.38564378,-0.8851044,,,,,,,,,,,,,,,0.47985682,-1.5104637,-4.051825,-0.76733994,0.6360603,0.081343204,0.63205415,0.7716321,-0.071354315,-0.10815268,-0.0033396943,-0.99412864,,1.335268236686292,-0.26178519897046243,0.15050186158,0.5466616826641549,0.013936922976074925,0.0005604698834870969,0.5233543878942307,,,,,,,,
5.2763477329863235,,0.5112025,-1.476618,-3.937644,-0.9585101,-0.0065649524,-0.28498292,-0.11571248,0.92262435,0.3679332,0.2605167,0.38564378,-0.8851044,,,,,,,,,,,,,,,0.47985682,-1.5104637,-4.051825,-0.76733994,0.6360603,0.081343204,0.63205415,0.7716321,-0.071354315,-0.10815268,-0.0033396943,-0.99412864,,1.335268236686292,-0.26178519897046243,0.15050186158,0.5466616826641549,0.013936922976074925,0.0005604698834870969,0.5233543878942307,,,,,,,,
5.320463059004396,,0.5112025,-1.476618,-3.937644,-0.9585101,-0.0065882243,-0.28498235,-0.11571248,0.92265445,0.3678578,0.2605167,0.3855715,-0.88513595,,,,,,,,,,,,,,,0.47985682,-1.5104637,-4.051825,-0.76733994,0.6360603,0.081343204,0.63205415,0.7716321,-0.071354315,-0.10815268,-0.0033396943,-0.99412864,,1.335268236686292,-0.26178519897046243,0.15050186158,0.5466616826641549,0.013936922976074925,0.0004787911433465353,0.523517731960365,,,,,,,,
5.3525024539849255,,0.5112025,-1.476618,-3.937644,-0.9585101,-0.0065882243,-0.28498235,-0.11571248,0.92265445,0.3678578,0.2605167,0.3855715,-0.88513595,,,,,,,,,,,,,,,0.47985682,-1.5104637,-4.051825,-0.76733994,0.6360603,0.081343204,0.63205415,0.7716321,-0.071354315,-0.10815268,-0.0033396943,-0.99412864,,1.335268236686292,-0.26178519897046243,0.15050186158,0.5466616826641549,0.013936922976074925,0.0004787911433465353,0.523517731960365,,,,,,,,
5.408120087988209,,0.5112025,-1.476618,-3.937644,-0.9585101,-0.0065882243,-0.28498235,-0.11571248,0.92265445,0.3678578,0.2605167,0.3855715,-0.88513595,,,,,,,,,,,,,,,0.47985682,-1.5104637,-4.051825,-0.76733994,0.6360603,0.081343204,0.63205415,0.7716321,-0.071354315,-0.10815268,-0.0033396943,-0.99412864,,1.335268236686292,-0.26178519897046243,0.15050186158,0.5466616826641549,0.013936922976074925,0.0004787911433465353,0.523517731960365,,,,,,,,
5.452183330984553,,0.5112025,-1.476618,-3.937644,-0.9585101,-0.0065882243,-0.28498235,-0.11571248,0.92265445,0.3678578,0.2605167,0.3855715,-0.88513595,,,,,,,,,,,,,,,0.47985682,-1.5104637,-4.051825,-0.76733994,0.6360603,0.081343204,0.63205415,0.7716321,-0.071354315,-0.10815268,-0.0033396943,-0.99412864,,1.335268236686292,-0.26178519897046243,0.15050186158,0.5466616826641549,0.013936922976074925,0.0004787911433465353,0.523517731960365,,,,,,,,
5.496137966983952,,0.5112025,-1.476618,-3.937644,-0.9585101,-0.0065882243,-0.28498235,-0.11571248,0.92265445,0.3678578,0.2605167,0.3855715,-0.88513595,,,,,,,,,,,,,,,0.47985682,-1.5104637,-4.051825,-0.76733994,0.6360603,0.081343204,0.63205415,0.7716321,-0.071354315,-0.10815268,-0.0033396943,-0.99412864,,1.335268236686292,-0.26178519897046243,0.15050186158,0.5466616826641549,0.013936922976074925,0.0004787911433465353,0.523517731960365,,,,,,,,
5.5427253779780585,,0.51120305,-1.4766188,-3.9376447,-0.95851123,-0.006588243,-0.28497863,-0.11570935,0.922657,0.3678524,0.260514,0.38556534,-0.8851394,,,,,,,,,,,,,,,0.47985682,-1.5104637,-4.051825,-0.76733994,0.6360603,0.081343204,0.63205415,0.7716321,-0.071354315,-0.10815268,-0.0033396943,-0.99412864,,1.3352605139534177,-0.26178519897046243,0.15050186158,0.5466616826641549,0.013936922976074925,0.0004787911433465353,0.523517731960365,,,,,,,,
5.593238986999495,,0.51120305,-1.4766188,-3.9376447,-0.95851123,-0.006588243,-0.28497863,-0.11570935,0.922657,0.3678524,0.260514,0.38556534,-0.8851394,,,,,,,,,,,,,,,0.47985682,-1.5104637,-4.051825,-0.76733994,0.6360603,0.081343204,0.63205415,0.7716321,-0.071354315,-0.10815268,-0.0033396943,-0.99412864,,1.3352605139534177,-0.26178519897046243,0.15050186158,0.5466616826641549,0.013936922976074925,0.0004787911433465353,0.523517731960365,,,,,,,,
5.619953186978819,,0.5112025,-1.476618,-3.937644,-0.9585101,-0.0065882243,-0.28498235,-0.11571248,0.92265445,0.3678578,0.2605167,0.3855715,-0.88513595,,,,,,,,,,,,,,,0.47985682,-1.5104637,-4.051825,-0.76733994,0.6360603,0.081343204,0.63205415,0.7716321,-0.071354315,-0.10815268,-0.0033396943,-0.99412864,,1.335268236686292,-0.26178519897046243,0.15050186158,0.5466616826641549,0.013936922976074925,0.0004787911433465353,0.523517731960365,,,,,,,,
5.670107629994163,,0.5112025,-1.476618,-3.937644,-0.9585101,-0.0065882243,-0.28498235,-0.11571248,0.92265445,0.3678578,0.2605167,0.3855715,-0.88513595,,,,,,,,,,,,,,,0.47985682,-1.5104637,-4.051825,-0.76733994,0.6360603,0.081343204,0.63205415,0.7716321,-0.071354315,-0.10815268,-0.0033396943,-0.99412864,,1.335268236686292,-0.26178519897046243,0.15050186158,0.5466616826641549,0.013936922976074925,0.0004787911433465353,0.523517731960365,,,,,,,,
5.706203832989559,,0.5112025,-1.476618,-3.937644,-0.9585101,-0.0065882243,-0.28498235,-0.11571248,0.92265445,0.3678578,0.2605167,0.3855715,-0.88513595,,,,,,,,,,,,,,,0.47985682,-1.5104637,-4.051825,-0.76733994,0.6360603,0.081343204,0.63205415,0.7716321,-0.071354315,-0.10815268,-0.0033396943,-0.99412864,,1.335268236686292,-0.26178519897046243,0.15050186158,0.5466616826641549,0.013936922976074925,0.0004787911433465353,0.523517731960365,,,,,,,,
5.7573194750002585,,0.51120305,-1.4766188,-3.9376447,-0.95851123,-0.006588243,-0.28497863,-0.11570935,0.922657,0.3678524,0.260514,0.38556534,-0.8851394,,,,,,,,,,,,,,,0.47985682,-1.5104637,-4.051825,-0.76733994,0.6360603,0.081343204,0.63205415,0.7716321,-0.071354315,-0.10815268,-0.0033396943,-0.99412864,,1.3352605139534177,-0.26178519897046243,0.15050186158,0.5466616826641549,0.013936922976074925,0.0004787911433465353,0.523517731960365,,,,,,,,
5.781322876980994,,0.5112025,-1.476618,-3.937644,-0.9585101,-0.0065882243,-0.28498235,-0.11571248,0.92265445,0.3678578,0.2605167,0.3855715,-0.88513595,,,,,,,,,,,,,,,0.47985682,-1.5104637,-4.051825,-0.76733994,0.6360603,0.081343204,0.63205415,0.7716321,-0.071354315,-0.10815268,-0.0033396943,-0.99412864,,1.335268236686292,-0.26178519897046243,0.15050186158,0.5466616826641549,0.013936922976074925,0.0004787911433465353,0.523517731960365,,,,,,,,
5.842361577990232,,0.5112025,-1.476618,-3.937644,-0.9585101,-0.0065882243,-0.28498235,-0.11571248,0.92265445,0.3678578,0.2605167,0.3855715,-0.88513595,,,,,,,,,,,,,,,0.47985682,-1.5104637,-4.051825,-0.76733994,0.6360603,0.081343204,0.63205415,0.7716321,-0.071354315,-0.10815268,-0.0033396943,-0.99412864,,1.335268236686292,-0.26178519897046243,0.15050186158,0.5466616826641549,0.013936922976074925,0.0004787911433465353,0.523517731960365,,,,,,,,
5.874067414988531,,0.5112025,-1.476618,-3.937644,-0.9585101,-0.0065882243,-0.28498235,-0.11571248,0.92265445,0.3678578,0.2605167,0.3855715,-0.88513595,,,,,,,,,,,,,,,0.47985682,-1.5104637,-4.051825,-0.76733994,0.6360603,0.081343204,0.63205415,0.7716321,-0.071354315,-0.10815268,-0.0033396943,-0.99412864,,1.335268236686292,-0.26178519897046243,0.15050186158,0.5466616826641549,0.013936922976074925,0.0004787911433465353,0.523517731960365,,,,,,,,
5.925402602995746,,0.51120305,-1.4766188,-3.9376447,-0.95851123,-0.006588243,-0.28497863,-0.11570935,0.922657,0.3678524,0.260514,0.38556534,-0.8851394,,,,,,,,,,,,,,,0.47985682,-1.5104637,-4.051825,-0.76733994,0.6360603,0.081343204,0.63205415,0.7716321,-0.071354315,-0.10815268,-0.0033396943,-0.99412864,,1.3352605139534177,-0.26178519897046243,0.15050186158,0.5466616826641549,0.013936922976074925,0.0004787911433465353,0.523517731960365,,,,,,,,
5.975626494997414,,0.5112025,-1.476618,-3.937644,-0.9585101,-0.0066115223,-0.28498185,-0.11571248,0.92268443,0.36778247,0.2605167,0.38549918,-0.8851674,,,,,,,,,,,,,,,0.47985682,-1.5104637,-4.051825,-0.76733994,0.6360603,0.081343204,0.63205415,0.7716321,-0.071354315,-0.10815268,-0.0033396943,-0.99412864,,1.335268236686292,-0.26178519897046243,0.15050186158,0.5466616826641549,0.013936922976074925,0.00039711240320597363,0.5236810760264993,,,,,,,,
6.0062987149867695,,0.5112025,-1.476618,-3.937644,-0.9585101,-0.0066115223,-0.28498185,-0.11571248,0.92268443,0.36778247,0.2605167,0.38549918,-0.8851674,,,,,,,,,,,,,,,0.47985682,-1.5104637,-4.051825,-0.76733994,0.6360603,0.081343204,0.63205415,0.7716321,-0.071354315,-0.10815268,-0.0033396943,-0.99412864,,1.335268236686292,-0.26178519897046243,0.15050186158,0.5466616826641549,0.013936922976074925,0.00039711240320597363,0.5236810760264993,,,,,,,,
6.050303659983911,,0.5112025,-1.476618,-3.937644,-0.9585101,-0.0066115223,-0.28498185,-0.11571248,0.92268443,0.36778247,0.2605167,0.38549918,-0.8851674,,,,,,,,,,,,,,,0.47985682,-1.5104637,-4.051825,-0.76733994,0.6360603,0.081343204,0.63205415,0.7716321,-0.071354315,-0.10815268,-0.0033396943,-0.99412864,,1.335268236686292,-0.26178519897046243,0.15050186158,0.5466616826641549,0.013936922976074925,0.00039711240320597363,0.5236810760264993,,,,,,,,
6.103371112985769,,0.51118404,-1.4766039,-3.9376578,-0.95851827,-0.0066011176,-0.2849548,-0.1156959,0.92268014,0.36779857,0.26049423,0.38550973,-0.88516945,,,,,,,,,,,,,,,0.47984156,-1.5104585,-4.0518265,-0.7673528,0.636045,0.081341915,0.63203883,0.7716447,-0.07135341,-0.10815104,-0.0033419707,-0.9941288,,1.335268236686292,-0.26178519897046243,0.15050186158,0.5466616826641549,0.013936922976074925,0.00039711240320597363,0.5236810760264993,,,,,,,,
6.1409176669840235,,0.51118404,-1.4766039,-3.9376578,-0.95851827,-0.0066011176,-0.2849548,-0.1156959,0.92268014,0.36779857,0.26049423,0.38550973,-0.88516945,,,,,,,,,,,,,,,0.47984156,-1.5104585,-4.0518265,-0.7673528,0.636045,0.081341915,0.63203883,0.7716447,-0.07135341,-0.10815104,-0.0033419707,-0.9941288,,1.335268236686292,-0.26178519897046243,0.15050186158,0.5466616826641549,0.013936922976074925,0.00039711240320597363,0.5236810760264993,,,,,,,,
6.222891800978687,,0.51118404,-1.4766039,-3.9376578,-0.95851827,-0.0066011176,-0.2849548,-0.1156959,0.92268014,0.36779857,0.26049423,0.38550973,-0.88516945,,,,,,,,,,,,,,,0.47984156,-1.5104585,-4.0518265,-0.7673528,0.636045,0.081341915,0.63203883,0.7716447,-0.07135341,-0.10815104,-0.0033419707,-0.9941288,,1.335268236686292,-0.26178519897046243,0.15050186158,0.5466616826641549,0.013936922976074925,0.00039711240320597363,0.5236810760264993,,,,,,,,
6.263723191979807,,0.5111846,-1.4766047,-3.9376583,-0.9585194,-0.00660111,-0.28495103,-0.115692705,0.92268276,0.36779314,0.26049152,0.38550356,-0.8851729,,,,,,,,,,,,,,,0.47984156,-1.5104585,-4.0518265,-0.7673528,0.636045,0.081341915,0.63203883,0.7716447,-0.07135341,-0.10815104,-0.0033419707,-0.9941288,,1.3352605139534177,-0.26178519897046243,0.15050186158,0.5466616826641549,0.013936922976074925,0.00039711240320597363,0.5236810760264993,,,,,,,,
6.323371060978388,,0.51118404,-1.4766039,-3.9376578,-0.95851827,-0.0066011176,-0.2849548,-0.1156959,0.92268014,0.36779857,0.26049423,0.38550973,-0.88516945,,,,,,,,,,,,,,,0.47984156,-1.5104585,-4.0518265,-0.7673528,0.636045,0.081341915,0.63203883,0.7716447,-0.07135341,-0.10815104,-0.0033419707,-0.9941288,,1.335268236686292,-0.26178519897046243,0.15050186158,0.5466616826641549,0.013936922976074925,0.00039711240320597363,0.5236810760264993,,,,,,,,
6.364845603995491,,0.5111852,-1.4766037,-3.9376583,-0.95855725,-0.006632898,-0.28482306,-0.11564571,0.92272115,0.36771154,0.26037326,0.3854111,-0.885248,,,,,,,,,,,,,,,0.47984156,-1.5104585,-4.0518265,-0.7673528,0.636045,0.081341915,0.63203883,0.7716447,-0.07135341,-0.10815104,-0.0033419707,-0.9941288,,1.335268236686292,-0.26178519897046243,0.15050186158,0.5466616826641549,0.014073559475840366,0.00028569449950954784,0.5236810760264993,,,,,,,,
6.4100486479874235,,0.51118404,-1.4766039,-3.9376578,-0.95851827,-0.0066243596,-0.28495425,-0.1156959,0.9227102,0.3677232,0.26049423,0.38543743,-0.885201,,,,,,,,,,,,,,,0.47984156,-1.5104585,-4.0518265,-0.7673528,0.636045,0.081341915,0.63203883,0.7716447,-0.07135341,-0.10815104,-0.0033419707,-0.9941288,,1.335268236686292,-0.26178519897046243,0.15050186158,0.5466616826641549,0.013936922976074925,0.000315433663065412,0.523517731960365,,,,,,,,
6.461082455993164,,0.51118404,-1.4766039,-3.9376578,-0.95851827,-0.0066243596,-0.28495425,-0.1156959,0.9227102,0.3677232,0.26049423,0.38543743,-0.885201,,,,,,,,,,,,,,,0.47984156,-1.5104585,-4.0518265,-0.7673528,0.636045,0.081341915,0.63203883,0.7716447,-0.07135341,-0.10815104,-0.0033419707,-0.9941288,,1.335268236686292,-0.26178519897046243,0.15050186158,0.5466616826641549,0.013936922976074925,0.000315433663065412,0.523517731960365,,,,,,,,
6.48598717598361,,0.51118404,-1.4766039,-3.9376578,-0.95851827,-0.0066243596,-0.28495425,-0.1156959,0.9227102,0.3677232,0.26049423,0.38543743,-0.885201,,,,,,,,,,,,,,,0.47984156,-1.5104585,-4.0518265,-0.7673528,0.636045,0.081341915,0.63203883,0.7716447,-0.07135341,-0.10815104,-0.0033419707,-0.9941288,,1.335268236686292,-0.26178519897046243,0.15050186158,0.5466616826641549,0.013936922976074925,0.000315433663065412,0.523517731960365,,,,,,,,
6.5464733359985985,,0.5111846,-1.4766047,-3.9376583,-0.9585194,-0.006624382,-0.28495046,-0.115692705,0.92271274,0.36771774,0.26049152,0.3854313,-0.88520443,,,,,,,,,,,,,,,0.47984156,-1.5104585,-4.0518265,-0.7673528,0.636045,0.081341915,0.63203883,0.7716447,-0.07135341,-0.10815104,-0.0033419707,-0.9941288,,1.335268236686292,-0.26178519897046243,0.15050186158,0.5466616826641549,0.013936922976074925,0.000315433663065412,0.523517731960365,,,,,,,,
6.578305218979949,,0.51118404,-1.4766039,-3.9376578,-0.95851827,-0.0066243596,-0.28495425,-0.1156959,0.9227102,0.3677232,0.26049423,0.38543743,-0.885201,,,,,,,,,,,,,,,0.47984156,-1.5104585,-4.0518265,-0.7673528,0.636045,0.081341915,0.63203883,0.7716447,-0.07135341,-0.10815104,-0.0033419707,-0.9941288,,1.335268236686292,-0.26178519897046243,0.15050186158,0.5466616826641549,0.013936922976074925,0.000315433663065412,0.523517731960365,,,,,,,,
6.628691055986565,,0.51118404,-1.4766039,-3.9376578,-0.95851827,-0.0066243596,-0.28495425,-0.1156959,0.9227102,0.3677232,0.26049423,0.38543743,-0.885201,,,,,,,,,,,,,,,0.47984156,-1.5104585,-4.0518265,-0.7673528,0.636045,0.081341915,0.63203883,0.7716447,-0.07135341,-0.10815104,-0.0033419707,-0.9941288,,1.335268236686292,-0.26178519897046243,0.15050186158,0.5466616826641549,0.013936922976074925,0.000315433663065412,0.523517731960365,,,,,,,,
6.676431719999528,,0.5111846,-1.4766047,-3.9376583,-0.9585194,-0.006624382,-0.28495046,-0.115692705,0.92271274,0.36771774,0.26049152,0.3854313,-0.88520443,,,,,,,,,,,,,,,0.47984156,-1.5104585,-4.0518265,-0.7673528,0.636045,0.081341915,0.63203883,0.7716447,-0.07135341,-0.10815104,-0.0033419707,-0.9941288,,1.3352605139534177,-0.26178519897046243,0.15050186158,0.5466616826641549,0.013936922976074925,0.000315433663065412,0.523517731960365,,,,,,,,
6.7290053549804725,,0.51118404,-1.4766039,-3.9376578,-0.95851827,-0.0066476874,-0.28495368,-0.1156959,0.9227402,0.36764786,0.26049423,0.38536513,-0.8852324,,,,,,,,,,,,,,,0.47984156,-1.5104585,-4.0518265,-0.7673528,0.636045,0.081341915,0.63203883,0.7716447,-0.07135341,-0.10815104,-0.0033419707,-0.9941288,,1.335268236686292,-0.26178519897046243,0.15050186158,0.5466616826641549,0.013936922976074925,0.00023375492292482258,0.5236810760264993,,,,,,,,
6.759312734997366,,0.51118404,-1.4766039,-3.9376578,-0.95851827,-0.0066476874,-0.28495368,-0.1156959,0.9227402,0.36764786,0.26049423,0.38536513,-0.8852324,,,,,,,,,,,,,,,0.47984156,-1.5104585,-4.0518265,-0.7673528,0.636045,0.081341915,0.63203883,0.7716447,-0.07135341,-0.10815104,-0.0033419707,-0.9941288,,1.335268236686292,-0.26178519897046243,0.15050186158,0.5466616826641549,0.013936922976074925,0.00023375492292482258,0.5236810760264993,,,,,,,,
6.82586569400155,,0.5111846,-1.4766047,-3.9376583,-0.9585194,-0.006647654,-0.28494996,-0.115692705,0.9227428,0.36764237,0.26049152,0.385359,-0.88523597,,,,,,,,,,,,,,,0.47984156,-1.5104585,-4.0518265,-0.7673528,0.636045,0.081341915,0.63203883,0.7716447,-0.07135341,-0.10815104,-0.0033419707,-0.9941288,,1.3352605139534177,-0.26178519897046243,0.15050186158,0.5466616826641549,0.013936922976074925,0.00023375492292482258,0.5236810760264993,,,,,,,,
6.849331309989793,,0.51118404,-1.4766039,-3.9376578,-0.95851827,-0.0066476874,-0.28495368,-0.1156959,0.9227402,0.36764786,0.26049423,0.38536513,-0.8852324,,,,,,,,,,,,,,,0.47984156,-1.5104585,-4.0518265,-0.7673528,0.636045,0.081341915,0.63203883,0.7716447,-0.07135341,-0.10815104,-0.0033419707,-0.9941288,,1.335268236686292,-0.26178519897046243,0.15050186158,0.5466616826641549,0.013936922976074925,0.00023375492292482258,0.5236810760264993,,,,,,,,
6.906354437989648,,0.51118404,-1.4766039,-3.9376578,-0.95851827,-0.0066476874,-0.28495368,-0.1156959,0.9227402,0.36764786,0.26049423,0.38536513,-0.8852324,,,,,,,,,,,,,,,0.47984156,-1.5104585,-4.0518265,-0.7673528,0.636045,0.081341915,0.63203883,0.7716447,-0.07135341,-0.10815104,-0.0033419707,-0.9941288,,1.335268236686292,-0.26178519897046243,0.15050186158,0.5466616826641549,0.013936922976074925,0.00023375492292482258,0.5236810760264993,,,,,,,,
6.933058950002305,,0.51118404,-1.4766039,-3.9376578,-0.95851827,-0.0066476874,-0.28495368,-0.1156959,0.9227402,0.36764786,0.26049423,0.38536513,-0.8852324,,,,,,,,,,,,,,,0.47984156,-1.5104585,-4.0518265,-0.7673528,0.636045,0.081341915,0.63203883,0.7716447,-0.07135341,-0.10815104,-0.0033419707,-0.9941288,,1.335268236686292,-0.26178519897046243,0.15050186158,0.5466616826641549,0.013936922976074925,0.00023375492292482258,0.5236810760264993,,,,,,,,
6.981002830987563,,0.5111846,-1.4766047,-3.9376583,-0.9585194,-0.006647654,-0.28494996,-0.115692705,0.9227428,0.36764237,0.26049152,0.385359,-0.88523597,,,,,,,,,,,,,,,0.47984156,-1.5104585,-4.0518265,-0.7673528,0.636045,0.081341915,0.63203883,0.7716447,-0.07135341,-0.10815104,-0.0033419707,-0.9941288,,1.3352605139534177,-0.26178519897046243,0.15050186158,0.5466616826641549,0.013936922976074925,0.00023375492292482258,0.5236810760264993,,,,,,,,
7.030731009988813,,0.51118165,-1.4766041,-3.9376574,-0.95844036,-0.006584063,-0.28521714,-0.11579632,0.92265826,0.36782184,0.26073614,0.38556233,-0.88507533,,,,,,,,,,,,,,,0.47984156,-1.5104585,-4.0518265,-0.7673528,0.636045,0.081341915,0.63203883,0.7716447,-0.07135341,-0.10815104,-0.0033419707,-0.9941288,,1.335268236686292,-0.26178519897046243,0.15050186158,0.5466616826641549,0.013663649976544045,0.00045659073031767416,0.5236810760264993,,,,,,,,
7.0607791649817955,,0.51118165,-1.4766041,-3.9376574,-0.95844036,-0.0065607317,-0.28521764,-0.11579632,0.9226282,0.3678972,0.26073614,0.38563466,-0.88504374,,,,,,,,,,,,,,,0.47984156,-1.5104585,-4.0518265,-0.7673528,0.636045,0.081341915,0.63203883,0.7716447,-0.07135341,-0.10815104,-0.0033419707,-0.9941288,,1.335268236686292,-0.26178519897046243,0.15050186158,0.5466616826641549,0.013663649976544045,0.0005382694704582358,0.5238444200926335,,,,,,,,
7.1106941039906815,,0.5111822,-1.4766049,-3.9376578,-0.95844144,-0.0065840557,-0.28521335,-0.115793124,0.9226609,0.3678164,0.26073343,0.38555622,-0.8850787,,,,,,,,,,,,,,,0.47984156,-1.5104585,-4.0518265,-0.7673528,0.636045,0.081341915,0.63203883,0.7716447,-0.07135341,-0.10815104,-0.0033419707,-0.9941288,,1.3352605139534177,-0.26178519897046243,0.15050186158,0.5466616826641549,0.013663649976544045,0.00045659073031767416,0.5236810760264993,,,,,,,,
7.161582423985237,,0.51118165,-1.4766041,-3.9376574,-0.95844036,-0.006584063,-0.28521714,-0.11579632,0.92265826,0.36782184,0.26073614,0.38556233,-0.88507533,,,,,,,,,,,,,,,0.47984156,-1.5104585,-4.0518265,-0.7673528,0.636045,0.081341915,0.63203883,0.7716447,-0.07135341,-0.10815104,-0.0033419707,-0.9941288,,1.335268236686292,-0.26178519897046243,0.15050186158,0.5466616826641549,0.013663649976544045,0.00045659073031767416,0.5236810760264993,,,,,,,,
7.191997065994656,,0.51118165,-1.4766041,-3.9376574,-0.95844036,-0.006584063,-0.28521714,-0.11579632,0.92265826,0.36782184,0.26073614,0.38556233,-0.88507533,,,,,,,,,,,,,,,0.47984156,-1.5104585,-4.0518265,-0.7673528,0.636045,0.081341915,0.63203883,0.7716447,-0.07135341,-0.10815104,-0.0033419707,-0.9941288,,1.335268236686292,-0.26178519897046243,0.15050186158,0.5466616826641549,0.013663649976544045,0.00045659073031767416,0.5236810760264993,,,,,,,,
7.226877056993544,,0.5111822,-1.4766049,-3.9376578,-0.95844144,-0.0065840557,-0.28521335,-0.115793124,0.9226609,0.3678164,0.26073343,0.38555622,-0.8850787,,,,,,,,,,,,,,,0.47984156,-1.5104585,-4.0518265,-0.7673528,0.636045,0.081341915,0.63203883,0.7716447,-0.07135341,-0.10815104,-0.0033419707,-0.9941288,,1.3352605139534177,-0.26178519897046243,0.15050186158,0.5466616826641549,0.013663649976544045,0.00045659073031767416,0.5236810760264993,,,,,,,,
7.265841913991608,,0.5111691,-1.4765683,-3.9376884,-0.95845926,-0.006557543,-0.28515399,-0.115742855,0.9226668,0.36781722,0.2606901,0.3855424,-0.8850975,,,,,,,,,,,,,,,0.47986707,-1.5104764,-4.05183,-0.7673488,0.6360497,0.08134231,0.6320436,0.7716408,-0.07135369,-0.108151555,-0.003341274,-0.99412876,,1.335268236686292,-0.26178519897046243,0.15050186158,0.5466616826641549,0.013663649976544045,0.00045659073031767416,0.5236810760264993,,,,,,,,
7.317692769982386,,0.5111691,-1.4765683,-3.9376884,-0.95845926,-0.006557543,-0.28515399,-0.115742855,0.9226668,0.36781722,0.2606901,0.3855424,-0.8850975,,,,,,,,,,,,,,,0.47986707,-1.5104764,-4.05183,-0.7673488,0.6360497,0.08134231,0.6320436,0.7716408,-0.07135369,-0.108151555,-0.003341274,-0.99412876,,1.335268236686292,-0.26178519897046243,0.15050186158,0.5466616826641549,0.013663649976544045,0.00045659073031767416,0.5236810760264993,,,,,,,,
7.366630609991262,,0.51116955,-1.4765692,-3.9376888,-0.9584604,-0.006580837,-0.2851497,-0.11573972,0.92269933,0.3677364,0.26068738,0.3854639,-0.8851325,,,,,,,,,,,,,,,0.47986707,-1.5104764,-4.05183,-0.7673488,0.6360497,0.08134231,0.6320436,0.7716408,-0.07135369,-0.108151555,-0.003341274,-0.99412876,,1.3352605139534177,-0.26178519897046243,0.15050186158,0.5466616826641549,0.013663649976544045,0.0003749119901771125,0.5238444200926335,,,,,,,,
7.4095434909977484,,0.5111548,-1.4765701,-3.9376845,-0.9579904,-0.0061266795,-0.2867346,-0.11634517,0.92211425,0.3690109,0.2621413,0.38686907,-0.88408947,,,,,,,,,,,,,,,0.47986707,-1.5104764,-4.05183,-0.7673488,0.6360497,0.08134231,0.6320436,0.7716408,-0.07135369,-0.108151555,-0.003341274,-0.99412876,,1.335268236686292,-0.26178519897046243,0.15050186158,0.5466616826641549,0.01202401197935876,0.001956963054955879,0.5238444200926335,,,,,,,,
7.4412715079961345,,0.5111139,-1.4765745,-3.9376745,-0.9566481,-0.0026600175,-0.29123414,-0.11804984,0.91767514,0.37938976,0.2662491,0.3973226,-0.8782062,,,,,,,,,,,,,,,0.47986707,-1.5104764,-4.05183,-0.7673488,0.6360497,0.08134231,0.6320436,0.7716408,-0.07135369,-0.108151555,-0.003341274,-0.99412876,,1.335268236686292,-0.26178519897046243,0.15050315787000001,0.5466616826641549,0.007378370987333784,0.013831367054549876,0.5256412048201107,,,,,,,,
7.498252293997211,,0.51110494,-1.4765766,-3.9376724,-0.9563304,0.014082272,-0.29194832,-0.1184473,0.89447576,0.43114194,0.26721215,0.44689462,-0.85374635,,,,,,,,,,,,,,,0.47986707,-1.5104764,-4.05183,-0.7673488,0.6360497,0.08134231,0.6320436,0.7716408,-0.07135369,-0.108151555,-0.003341274,-0.99412876,,1.3352605139534177,-0.26178519897046243,0.15050315787000001,0.5466616826641549,0.00628527898921026,0.07108104098110918,0.5274379895475877,,,,,,,,
7.547216095001204,,0.5111091,-1.4765751,-3.937673,-0.9564859,0.039448395,-0.28909937,-0.11863715,0.8526372,0.50885653,0.26657042,0.52101195,-0.81085545,,,,,,,,,,,,,,,0.47986707,-1.5104764,-4.05183,-0.7673488,0.6360497,0.08134231,0.6320436,0.7716408,-0.07135369,-0.108151555,-0.003341274,-0.99412876,,1.335268236686292,-0.26178519897046243,0.15050315787000001,0.5462423027771859,0.006831824988272023,0.159910232339958,0.5266212692169162,,,,,,,,
7.581902229983825,,0.5111067,-1.4765755,-3.9376724,-0.95640624,0.0672387,-0.2841938,-0.11873735,0.7995409,0.5887578,0.26681188,0.596836,-0.7567021,,,,,,,,,,,,,,,0.47986707,-1.5104764,-4.05183,-0.7673488,0.6360497,0.08134231,0.6320436,0.7716408,-0.07135369,-0.108151555,-0.003341274,-0.99412876,,1.335268236686292,-0.26178519897046243,0.15050315787000001,0.5462423027771859,0.006558551988741141,0.25659566025335484,0.5261312370185134,,,,,,,,
7.630869400978554,,0.5111448,-1.4765707,-3.937683,-0.95767355,0.09379271,-0.27214748,-0.11713344,0.73664105,0.66606283,0.26294678,0.6697483,-0.6944754,,,,,,,,,,,,,,,0.47986707,-1.5104764,-4.05183,-0.7673488,0.6360497,0.08134231,0.6320436,0.7716408,-0.07135369,-0.108151555,-0.003341274,-0.99412876,,1.335268236686292,-0.26178519897046243,0.15050315787000001,0.5462423027771859,0.010930919981235236,0.35651725109316174,0.5256412048201107,,,,,,,,
7.680213398998603,,0.51115555,-1.4765694,-3.937686,-0.95802677,0.11614237,-0.26209867,-0.11668192,0.677132,0.7265518,0.26185882,0.72663826,-0.63515884,,,,,,,,,,,,,,,0.47986707,-1.5104764,-4.05183,-0.7673488,0.6360497,0.08134231,0.6320436,0.7716408,-0.07135369,-0.108151555,-0.003341274,-0.99412876,,1.335268236686292,-0.26178519897046243,0.15050315787000001,0.5462423027771859,0.0121606484791242,0.4418489182884682,0.5258045488862448,,,,,,,,
7.711342972004786,,0.51113766,-1.4765717,-3.937681,-0.95743734,0.12656671,-0.25941202,-0.1174344,0.65018076,0.7506491,0.26367188,0.7491634,-0.607644,,,,,,,,,,,,,,,0.47986707,-1.5104764,-4.05183,-0.7673488,0.6360497,0.08134231,0.6320436,0.7716408,-0.07135369,-0.108151555,-0.003341274,-0.99412876,,1.335268236686292,-0.26178519897046243,0.15050315787000001,0.5462423027771859,0.010111100982642594,0.47847868762407514,0.5254778607539763,,,,,,,,
7.764031893981155,,0.51114243,-1.4765711,-3.9376824,-0.95759785,0.1369859,-0.25345874,-0.11684677,0.6194782,0.77626896,0.26335004,0.7729693,-0.5772047,,,,,,,,,,,,,,,0.47986707,-1.5104764,-4.05183,-0.7673488,0.6360497,0.08134231,0.6320436,0.7716408,-0.07135369,-0.108151555,-0.003341274,-0.99412876,,1.335268236686292,-0.26178519897046243,0.15050315787000001,0.5466616826641549,0.010657646981704355,0.5187090285992895,0.5261312370185134,,,,,,,,
7.810851021989947,,0.51114243,-1.4765711,-3.9376824,-0.95759785,0.13752386,-0.25316724,-0.11684677,0.61782837,0.7775827,0.26335004,0.77419335,-0.5755618,,,,,,,,,,,,,,,0.47986707,-1.5104764,-4.05183,-0.7673488,0.6360497,0.08134231,0.6320436,0.7716408,-0.07135369,-0.108151555,-0.003341274,-0.99412876,,1.335268236686292,-0.26178519897046243,0.15050315787000001,0.5466616826641549,0.010657646981704355,0.5208326758429441,0.5251511726217077,,,,,,,,
7.843816582986619,,0.51114243,-1.4765711,-3.9376824,-0.95759785,0.13752386,-0.25316724,-0.11684677,0.61782837,0.7775827,0.26335004,0.77419335,-0.5755618,,,,,,,,,,,,,,,0.47986707,-1.5104764,-4.05183,-0.7673488,0.6360497,0.08134231,0.6320436,0.7716408,-0.07135369,-0.108151555,-0.003341274,-0.99412876,,1.335268236686292,-0.26178519897046243,0.15050315787000001,0.5466616826641549,0.010657646981704355,0.5208326758429441,0.5254778607539765,,,,,,,,
7.894081106991507,,0.51114243,-1.4765711,-3.9376824,-0.95759785,0.13752386,-0.25316724,-0.11684677,0.61782837,0.7775827,0.26335004,0.77419335,-0.5755618,,,,,,,,,,,,,,,0.47986707,-1.5104764,-4.05183,-0.7673488,0.6360497,0.08134231,0.6320436,0.7716408,-0.07135369,-0.108151555,-0.003341274,-0.99412876,,1.335268236686292,-0.26178519897046243,0.15050315787000001,0.5466616826641549,0.010657646981704355,0.5208326758429441,0.5254778607539765,,,,,,,,
7.943926876003388,,0.51114243,-1.4765711,-3.9376824,-0.95759785,0.13752386,-0.25316724,-0.11684677,0.61782837,0.7775827,0.26335004,0.77419335,-0.5755618,,,,,,,,,,,,,,,0.47986707,-1.5104764,-4.05183,-0.7673488,0.6360497,0.08134231,0.6320436,0.7716408,-0.07135369,-0.108151555,-0.003341274,-0.99412876,,1.335268236686292,-0.26178519897046243,0.15050315787000001,0.5466616826641549,0.010657646981704355,0.5208326758429441,0.5254778607539765,,,,,,,,
7.976708912989125,,0.51114243,-1.4765711,-3.9376824,-0.95759785,0.13752386,-0.25316724,-0.11684677,0.61782837,0.7775827,0.26335004,0.77419335,-0.5755618,,,,,,,,,,,,,,,0.47986707,-1.5104764,-4.05183,-0.7673488,0.6360497,0.08134231,0.6320436,0.7716408,-0.07135369,-0.108151555,-0.003341274,-0.99412876,,1.335268236686292,-0.26178519897046243,0.15050315787000001,0.5466616826641549,0.010657646981704355,0.5208326758429441,0.5254778607539765,,,,,,,,
8.017247552983463,,0.51114243,-1.4765711,-3.9376824,-0.95759785,0.13748252,-0.25318965,-0.11684677,0.6179553,0.7774818,0.26335004,0.7740993,-0.5756883,,,,,,,,,,,,,,,0.47986707,-1.5104764,-4.05183,-0.7673488,0.6360497,0.08134231,0.6320436,0.7716408,-0.07135369,-0.108151555,-0.003341274,-0.99412876,,1.335268236686292,-0.26178519897046243,0.15050315787000001,0.5466616826641549,0.010657646981704355,0.520669318362663,0.5251511726217077,,,,,,,,
8.065220780001255,,0.51114124,-1.4765712,-3.937682,-0.9575584,0.1375758,-0.25328782,-0.11689691,0.6178767,0.7775368,0.2634709,0.7741455,-0.5755708,,,,,,,,,,,,,,,0.47986707,-1.5104764,-4.05183,-0.7673488,0.6360497,0.08134231,0.6320436,0.7716408,-0.07135369,-0.108151555,-0.003341274,-0.99412876,,1.335268236686292,-0.26178519897046243,0.15050315787000001,0.5466616826641549,0.010521010481938913,0.5207807362663593,0.5251511726217077,,,,,,,,
8.113464992988156,,0.51114005,-1.4765713,-3.9376817,-0.95751905,0.13766915,-0.25338602,-0.11694706,0.617798,0.77759176,0.2635917,0.7741917,-0.57545334,,,,,,,,,,,,,,,0.47986707,-1.5104764,-4.05183,-0.7673488,0.6360497,0.08134231,0.6320436,0.7716408,-0.07135369,-0.108151555,-0.003341274,-0.99412876,,1.335268236686292,-0.26178519897046243,0.15050315787000001,0.5466616826641549,0.010384373982173473,0.5208921541700557,0.5251511726217077,,,,,,,,
8.142883492982946,,0.51114005,-1.4765713,-3.9376817,-0.95751905,0.13766915,-0.25338602,-0.11694706,0.617798,0.77759176,0.2635917,0.7741917,-0.57545334,,,,,,,,,,,,,,,0.47986707,-1.5104764,-4.05183,-0.7673488,0.6360497,0.08134231,0.6320436,0.7716408,-0.07135369,-0.108151555,-0.003341274,-0.99412876,,1.335268236686292,-0.26178519897046243,0.15050315787000001,0.5466616826641549,0.010384373982173473,0.5208921541700557,0.5251511726217077,,,,,,,,
8.19464546997915,,0.51114005,-1.4765713,-3.9376817,-0.95751905,0.13766915,-0.25338602,-0.11694706,0.617798,0.77759176,0.2635917,0.7741917,-0.57545334,,,,,,,,,,,,,,,0.47986707,-1.5104764,-4.05183,-0.7673488,0.6360497,0.08134231,0.6320436,0.7716408,-0.07135369,-0.108151555,-0.003341274,-0.99412876,,1.335268236686292,-0.26178519897046243,0.15050315787000001,0.5466616826641549,0.010384373982173473,0.5208921541700557,0.5251511726217077,,,,,,,,
8.245315448992187,,0.5111406,-1.4765722,-3.9376822,-0.9575201,0.13766727,-0.25338274,-0.11694386,0.6178029,0.77758837,0.26358902,0.7741881,-0.5754594,,,,,,,,,,,,,,,0.47986707,-1.5104764,-4.05183,-0.7673488,0.6360497,0.08134231,0.6320436,0.7716408,-0.07135369,-0.108151555,-0.003341274,-0.99412876,,1.3352605139534177,-0.26178519897046243,0.15050315787000001,0.5466616826641549,0.010384373982173473,0.5208921541700557,0.5251511726217077,,,,,,,,
8.27517642697785,,0.51114005,-1.4765713,-3.9376817,-0.95751905,0.13766915,-0.25338602,-0.11694706,0.617798,0.77759176,0.2635917,0.7741917,-0.57545334,,,,,,,,,,,,,,,0.47986707,-1.5104764,-4.05183,-0.7673488,0.6360497,0.08134231,0.6320436,0.7716408,-0.07135369,-0.108151555,-0.003341274,-0.99412876,,1.335268236686292,-0.26178519897046243,0.15050315787000001,0.5466616826641549,0.010384373982173473,0.5208921541700557,0.5251511726217077,,,,,,,,
8.315674727986334,,0.51114005,-1.4765713,-3.9376817,-0.95751905,0.13766915,-0.25338602,-0.11694706,0.617798,0.77759176,0.2635917,0.7741917,-0.57545334,,,,,,,,,,,,,,,0.47986707,-1.5104764,-4.05183,-0.7673488,0.6360497,0.08134231,0.6320436,0.7716408,-0.07135369,-0.108151555,-0.003341274,-0.99412876,,1.335268236686292,-0.26178519897046243,0.15050315787000001,0.5466616826641549,0.010384373982173473,0.5208921541700557,0.5251511726217077,,,,,,,,
8.365766648988938,,0.51114005,-1.4765713,-3.9376817,-0.95751905,0.13766915,-0.25338602,-0.11694706,0.617798,0.77759176,0.2635917,0.7741917,-0.57545334,,,,,,,,,,,,,,,0.47986707,-1.5104764,-4.05183,-0.7673488,0.6360497,0.08134231,0.6320436,0.7716408,-0.07135369,-0.108151555,-0.003341274,-0.99412876,,1.335268236686292,-0.26178519897046243,0.15050315787000001,0.5466616826641549,0.010384373982173473,0.5208921541700557,0.5251511726217077,,,,,,,,
8.3983057239966,,0.5111407,-1.4765702,-3.937656,-0.957509,0.13768926,-0.2534129,-0.1169597,0.61778957,0.7775965,0.26362255,0.77419484,-0.57543504,,,,,,,,,,,,,,,0.47983807,-1.5104492,-4.0518265,-0.7673328,0.63606876,0.08134392,0.63206255,0.7716251,-0.071354814,-0.10815358,-0.003338423,-0.9941286,,1.335268236686292,-0.26178519897046243,0.15050315787000001,0.5466616826641549,0.010384373982173473,0.5208921541700557,0.5251511726217077,,,,,,,,
8.44678274699254,,0.5111412,-1.476571,-3.9376566,-0.9575101,0.13768739,-0.25340962,-0.11695656,0.6177946,0.77759314,0.26361984,0.7741912,-0.5754411,,,,,,,,,,,,,,,0.47983807,-1.5104492,-4.0518265,-0.7673328,0.63606876,0.08134392,0.63206255,0.7716251,-0.071354814,-0.10815358,-0.003338423,-0.9941286,,1.3352605139534177,-0.26178519897046243,0.15050315787000001,0.5466616826641549,0.010384373982173473,0.5208921541700557,0.5251511726217077,,,,,,,,
8.497646155999973,,0.5111407,-1.4765702,-3.937656,-0.957509,0.13768926,-0.2534129,-0.1169597,0.61778957,0.7775965,0.26362255,0.77419484,-0.57543504,,,,,,,,,,,,,,,0.47983807,-1.5104492,-4.0518265,-0.7673328,0.63606876,0.08134392,0.63206255,0.7716251,-0.071354814,-0.10815358,-0.003338423,-0.9941286,,1.335268236686292,-0.26178519897046243,0.15050315787000001,0.5466616826641549,0.010384373982173473,0.5208921541700557,0.5251511726217077,,,,,,,,
8.530710571998497,,0.5111407,-1.4765702,-3.937656,-0.957509,0.13768926,-0.2534129,-0.1169597,0.61778957,0.7775965,0.26362255,0.77419484,-0.57543504,,,,,,,,,,,,,,,0.47983807,-1.5104492,-4.0518265,-0.7673328,0.63606876,0.08134392,0.63206255,0.7716251,-0.071354814,-0.10815358,-0.003338423,-0.9941286,,1.335268236686292,-0.26178519897046243,0.15050315787000001,0.5466616826641549,0.010384373982173473,0.5208921541700557,0.5251511726217077,,,,,,,,
8.582899807981448,,0.5111407,-1.4765702,-3.937656,-0.957509,0.13766855,-0.25342414,-0.1169597,0.6178531,0.777546,0.26362255,0.7741478,-0.5754982,,,,,,,,,,,,,,,0.47983807,-1.5104492,-4.0518265,-0.7673328,0.63606876,0.08134392,0.63206255,0.7716251,-0.071354814,-0.10815358,-0.003338423,-0.9941286,,1.335268236686292,-0.26178519897046243,0.15050315787000001,0.5466616826641549,0.010384373982173473,0.5208104754299152,0.5253145166878421,,,,,,,,
8.625630032998743,,0.5111407,-1.4765702,-3.937656,-0.957509,0.13766855,-0.25342414,-0.1169597,0.6178531,0.777546,0.26362255,0.7741478,-0.5754982,,,,,,,,,,,,,,,0.47983807,-1.5104492,-4.0518265,-0.7673328,0.63606876,0.08134392,0.63206255,0.7716251,-0.071354814,-0.10815358,-0.003338423,-0.9941286,,1.335268236686292,-0.26178519897046243,0.15050315787000001,0.5466616826641549,0.010384373982173473,0.5208104754299152,0.5253145166878421,,,,,,,,
8.682270582998171,,0.5111419,-1.47657,-3.9376564,-0.95754844,0.13759594,-0.2533148,-0.11690961,0.61786824,0.7775415,0.2635017,0.77414864,-0.5755525,,,,,,,,,,,,,,,0.47983807,-1.5104492,-4.0518265,-0.7673328,0.63606876,0.08134392,0.63206255,0.7716251,-0.071354814,-0.10815358,-0.003338423,-0.9941286,,1.335268236686292,-0.26178519897046243,0.15050315787000001,0.5466616826641549,0.010521010481938913,0.5207807362663593,0.5251511726217077,,,,,,,,
8.716916451987345,,0.5111419,-1.47657,-3.9376564,-0.95754844,0.13759594,-0.2533148,-0.11690961,0.61786824,0.7775415,0.2635017,0.77414864,-0.5755525,,,,,,,,,,,,,,,0.47983807,-1.5104492,-4.0518265,-0.7673328,0.63606876,0.08134392,0.63206255,0.7716251,-0.071354814,-0.10815358,-0.003338423,-0.9941286,,1.335268236686292,-0.26178519897046243,0.15050315787000001,0.5466616826641549,0.010521010481938913,0.5207807362663593,0.5251511726217077,,,,,,,,
8.76681946500321,,0.5111419,-1.47657,-3.9376564,-0.95754844,0.13759594,-0.2533148,-0.11690961,0.61786824,0.7775415,0.2635017,0.77414864,-0.5755525,,,,,,,,,,,,,,,0.47983807,-1.5104492,-4.0518265,-0.7673328,0.63606876,0.08134392,0.63206255,0.7716251,-0.071354814,-0.10815358,-0.003338423,-0.9941286,,1.335268236686292,-0.26178519897046243,0.15050315787000001,0.5466616826641549,0.010521010481938913,0.5207807362663593,0.5251511726217077,,,,,,,,
8.815870613994775,,0.5111419,-1.47657,-3.9376564,-0.95754844,0.13759594,-0.2533148,-0.11690961,0.61786824,0.7775415,0.2635017,0.77414864,-0.5755525,,,,,,,,,,,,,,,0.47983807,-1.5104492,-4.0518265,-0.7673328,0.63606876,0.08134392,0.63206255,0.7716251,-0.071354814,-0.10815358,-0.003338423,-0.9941286,,1.335268236686292,-0.26178519897046243,0.15050315787000001,0.5466616826641549,0.010521010481938913,0.5207807362663593,0.5251511726217077,,,,,,,,
8.865140936977696,,0.5111419,-1.47657,-3.9376564,-0.95754844,0.13759594,-0.2533148,-0.11690961,0.61786824,0.7775415,0.2635017,0.77414864,-0.5755525,,,,,,,,,,,,,,,0.47983807,-1.5104492,-4.0518265,-0.7673328,0.63606876,0.08134392,0.63206255,0.7716251,-0.071354814,-0.10815358,-0.003338423,-0.9941286,,1.335268236686292,-0.26178519897046243,0.15050315787000001,0.5466616826641549,0.010521010481938913,0.5207807362663593,0.5251511726217077,,,,,,,,
8.908756064978661,,0.5111419,-1.47657,-3.9376564,-0.95754844,0.13759594,-0.2533148,-0.11690961,0.61786824,0.7775415,0.2635017,0.77414864,-0.5755525,,,,,,,,,,,,,,,0.47983807,-1.5104492,-4.0518265,-0.7673328,0.63606876,0.08134392,0.63206255,0.7716251,-0.071354814,-0.10815358,-0.003338423,-0.9941286,,1.335268236686292,-0.26178519897046243,0.15050315787000001,0.5466616826641549,0.010521010481938913,0.5207807362663593,0.5251511726217077,,,,,,,,
8.958788196992828,,0.5111419,-1.47657,-3.9376564,-0.95754844,0.1376166,-0.25330353,-0.11690961,0.61780477,0.77759194,0.2635017,0.7741957,-0.5754893,,,,,,,,,,,,,,,0.47983807,-1.5104492,-4.0518265,-0.7673328,0.63606876,0.08134392,0.63206255,0.7716251,-0.071354814,-0.10815358,-0.003338423,-0.9941286,,1.335268236686292,-0.26178519897046243,0.15050315787000001,0.5466616826641549,0.010521010481938913,0.5208624150064999,0.5249878285555736,,,,,,,,
8.985272517980775,,0.5111419,-1.47657,-3.9376564,-0.95754844,0.1376166,-0.25330353,-0.11690961,0.61780477,0.77759194,0.2635017,0.7741957,-0.5754893,,,,,,,,,,,,,,,0.47983807,-1.5104492,-4.0518265,-0.7673328,0.63606876,0.08134392,0.63206255,0.7716251,-0.071354814,-0.10815358,-0.003338423,-0.9941286,,1.335268236686292,-0.26178519897046243,0.15050315787000001,0.5466616826641549,0.010521010481938913,0.5208624150064999,0.5249878285555736,,,,,,,,
9.040861024986953,,0.5111419,-1.47657,-3.9376564,-0.95754844,0.1376166,-0.25330353,-0.11690961,0.61780477,0.77759194,0.2635017,0.7741957,-0.5754893,,,,,,,,,,,,,,,0.47983807,-1.5104492,-4.0518265,-0.7673328,0.63606876,0.08134392,0.63206255,0.7716251,-0.071354814,-0.10815358,-0.003338423,-0.9941286,,1.335268236686292,-0.26178519897046243,0.15050315787000001,0.5466616826641549,0.010521010481938913,0.5208624150064999,0.5249878285555736,,,,,,,,
9.067903988994658,,0.5111419,-1.47657,-3.9376564,-0.95754844,0.1376166,-0.25330353,-0.11690961,0.61780477,0.77759194,0.2635017,0.7741957,-0.5754893,,,,,,,,,,,,,,,0.47983807,-1.5104492,-4.0518265,-0.7673328,0.63606876,0.08134392,0.63206255,0.7716251,-0.071354814,-0.10815358,-0.003338423,-0.9941286,,1.335268236686292,-0.26178519897046243,0.15050315787000001,0.5466616826641549,0.010521010481938913,0.5208624150064999,0.5249878285555736,,,,,,,,
9.115547157998662,,0.5111419,-1.47657,-3.9376564,-0.95754844,0.1376166,-0.25330353,-0.11690961,0.61780477,0.77759194,0.2635017,0.7741957,-0.5754893,,,,,,,,,,,,,,,0.47983807,-1.5104492,-4.0518265,-0.7673328,0.63606876,0.08134392,0.63206255,0.7716251,-0.071354814,-0.10815358,-0.003338423,-0.9941286,,1.335268236686292,-0.26178519897046243,0.15050315787000001,0.5466616826641549,0.010521010481938913,0.5208624150064999,0.5249878285555736,,,,,,,,
9.161089195986278,,0.5111419,-1.47657,-3.9376564,-0.95754844,0.13763729,-0.25329226,-0.11690961,0.6177412,0.7776424,0.2635017,0.7742427,-0.57542604,,,,,,,,,,,,,,,0.47983807,-1.5104492,-4.0518265,-0.7673328,0.63606876,0.08134392,0.63206255,0.7716251,-0.071354814,-0.10815358,-0.003338423,-0.9941286,,1.335268236686292,-0.26178519897046243,0.15050315787000001,0.5466616826641549,0.010521010481938913,0.5209440937466405,0.5251511726217077,,,,,,,,
9.185214545985218,,0.511143,-1.4765699,-3.9376566,-0.9575878,0.13756463,-0.25318283,-0.116859436,0.6177564,0.7776379,0.26338083,0.7742434,-0.5754803,,,,,,,,,,,,,,,0.47983807,-1.5104492,-4.0518265,-0.7673328,0.63606876,0.08134392,0.63206255,0.7716251,-0.071354814,-0.10815358,-0.003338423,-0.9941286,,1.335268236686292,-0.26178519897046243,0.15050315787000001,0.5466616826641549,0.010657646981704355,0.5209143545830847,0.5249878285555735,,,,,,,,
9.271679534984287,,0.511143,-1.4765699,-3.9376566,-0.9575878,0.13756463,-0.25318283,-0.116859436,0.6177564,0.7776379,0.26338083,0.7742434,-0.5754803,,,,,,,,,,,,,,,0.47983807,-1.5104492,-4.0518265,-0.7673328,0.63606876,0.08134392,0.63206255,0.7716251,-0.071354814,-0.10815358,-0.003338423,-0.9941286,,1.335268236686292,-0.26178519897046243,0.15050315787000001,0.5466616826641549,0.010657646981704355,0.5209143545830847,0.5249878285555735,,,,,,,,
9.331586127984338,,0.51114416,-1.4765714,-3.9376576,-0.95759,0.13756092,-0.25317633,-0.116853066,0.6177663,0.777631,0.26337546,0.77423626,-0.5754925,,,,,,,,,,,,,,,0.47983807,-1.5104492,-4.0518265,-0.7673328,0.63606876,0.08134392,0.63206255,0.7716251,-0.071354814,-0.10815358,-0.003338423,-0.9941286,,1.3352527912205434,-0.26178519897046243,0.15050315787000001,0.5466616826641549,0.010657646981704355,0.5209143545830847,0.5249878285555735,,,,,,,,
9.372168686997611,,0.51114416,-1.4765714,-3.9376576,-0.95759,0.1375816,-0.25316513,-0.116853066,0.6177028,0.77768147,0.26337546,0.77428323,-0.57542926,,,,,,,,,,,,,,,0.47983807,-1.5104492,-4.0518265,-0.7673328,0.63606876,0.08134392,0.63206255,0.7716251,-0.071354814,-0.10815358,-0.003338423,-0.9941286,,1.3352527912205434,-0.26178519897046243,0.15050315787000001,0.5466616826641549,0.010657646981704355,0.5209960333232252,0.5248244844894392,,,,,,,,
9.410805370978778,,0.511143,-1.4765699,-3.9376566,-0.9575878,0.13758533,-0.25317162,-0.116859436,0.6176929,0.7776884,0.26338083,0.77429044,-0.57541704,,,,,,,,,,,,,,,0.47983807,-1.5104492,-4.0518265,-0.7673328,0.63606876,0.08134392,0.63206255,0.7716251,-0.071354814,-0.10815358,-0.003338423,-0.9941286,,1.335268236686292,-0.26178519897046243,0.15050315787000001,0.5466616826641549,0.010657646981704355,0.5209960333232252,0.5248244844894392,,,,,,,,
9.45466384899919,,0.511143,-1.4765699,-3.9376566,-0.9575878,0.13758533,-0.25317162,-0.116859436,0.6176929,0.7776884,0.26338083,0.77429044,-0.57541704,,,,,,,,,,,,,,,0.47983807,-1.5104492,-4.0518265,-0.7673328,0.63606876,0.08134392,0.63206255,0.7716251,-0.071354814,-0.10815358,-0.003338423,-0.9941286,,1.335268236686292,-0.26178519897046243,0.15050315787000001,0.5466616826641549,0.010657646981704355,0.5209960333232252,0.5248244844894392,,,,,,,,
9.483315563993528,,0.511143,-1.4765699,-3.9376566,-0.9575878,0.13758533,-0.25317162,-0.116859436,0.6176929,0.7776884,0.26338083,0.77429044,-0.57541704,,,,,,,,,,,,,,,0.47983807,-1.5104492,-4.0518265,-0.7673328,0.63606876,0.08134392,0.63206255,0.7716251,-0.071354814,-0.10815358,-0.003338423,-0.9941286,,1.335268236686292,-0.26178519897046243,0.15050315787000001,0.5466616826641549,0.010657646981704355,0.5209960333232252,0.5248244844894392,,,,,,,,
9.531674197991379,,0.5111442,-1.4765698,-3.937657,-0.9576271,0.137492,-0.25307345,-0.11680932,0.61777157,0.77763337,0.26326,0.7742443,-0.5755345,,,,,,,,,,,,,,,0.47983807,-1.5104492,-4.0518265,-0.7673328,0.63606876,0.08134392,0.63206255,0.7716251,-0.071354814,-0.10815358,-0.003338423,-0.9941286,,1.335268236686292,-0.26178519897046243,0.15050315787000001,0.5466616826641549,0.010794283481469795,0.5208846154195288,0.5248244844894392,,,,,,,,
9.577375653985655,,0.5110887,-1.4764909,-3.9376838,-0.9576842,0.13742822,-0.25289208,-0.11667592,0.6178437,0.7775962,0.26311144,0.77419806,-0.57566464,,,,,,,,,,,,,,,0.47982097,-1.5104369,-4.051828,-0.767328,0.63607454,0.0813444,0.6320684,0.77162033,-0.07135516,-0.108154215,-0.0033375646,-0.9941285,,1.335268236686292,-0.26178519897046243,0.15050315787000001,0.5466616826641549,0.010930919981235236,0.5207731975158324,0.5248244844894392,,,,,,,,
9.612413133989321,,0.5110887,-1.4764909,-3.9376838,-0.9576842,0.1374489,-0.25288087,-0.11667592,0.6177802,0.77764666,0.26311144,0.774245,-0.5756014,,,,,,,,,,,,,,,0.47982097,-1.5104369,-4.051828,-0.767328,0.63607454,0.0813444,0.6320684,0.77162033,-0.07135516,-0.108154215,-0.0033375646,-0.9941285,,1.335268236686292,-0.26178519897046243,0.15050315787000001,0.5466616826641549,0.010930919981235236,0.5208548762559729,0.5246611404233049,,,,,,,,
9.666184176981915,,0.51108927,-1.4764916,-3.9376845,-0.9576854,0.13744703,-0.25287753,-0.116672635,0.61778516,0.7776432,0.26310876,0.77424145,-0.5756075,,,,,,,,,,,,,,,0.47982097,-1.5104369,-4.051828,-0.767328,0.63607454,0.0813444,0.6320684,0.77162033,-0.07135516,-0.108154215,-0.0033375646,-0.9941285,,1.3352605139534177,-0.26178519897046243,0.15050315787000001,0.5466616826641549,0.010930919981235236,0.5208548762559729,0.5246611404233049,,,,,,,,
9.712946849002037,,0.5110887,-1.4764909,-3.9376838,-0.9576842,0.1374489,-0.25288087,-0.11667592,0.6177802,0.77764666,0.26311144,0.774245,-0.5756014,,,,,,,,,,,,,,,0.47982097,-1.5104369,-4.051828,-0.767328,0.63607454,0.0813444,0.6320684,0.77162033,-0.07135516,-0.108154215,-0.0033375646,-0.9941285,,1.335268236686292,-0.26178519897046243,0.15050315787000001,0.5466616826641549,0.010930919981235236,0.5208548762559729,0.5246611404233049,,,,,,,,
9.744580575003056,,0.5110887,-1.4764909,-3.9376838,-0.9576842,0.1374489,-0.25288087,-0.11667592,0.6177802,0.77764666,0.26311144,0.774245,-0.5756014,,,,,,,,,,,,,,,0.47982097,-1.5104369,-4.051828,-0.767328,0.63607454,0.0813444,0.6320684,0.77162033,-0.07135516,-0.108154215,-0.0033375646,-0.9941285,,1.335268236686292,-0.26178519897046243,0.15050315787000001,0.5466616826641549,0.010930919981235236,0.5208548762559729,0.5246611404233049,,,,,,,,
9.79738579900004,,0.5110887,-1.4764909,-3.9376838,-0.9576842,0.1374489,-0.25288087,-0.11667592,0.6177802,0.77764666,0.26311144,0.774245,-0.5756014,,,,,,,,,,,,,,,0.47982097,-1.5104369,-4.051828,-0.767328,0.63607454,0.0813444,0.6320684,0.77162033,-0.07135516,-0.108154215,-0.0033375646,-0.9941285,,1.335268236686292,-0.26178519897046243,0.15050315787000001,0.5466616826641549,0.010930919981235236,0.5208548762559729,0.5246611404233049,,,,,,,,
