AlexandreBanks6/ExpertPlaybackApp/resources/Motions/Motion_Best.csv
Time,si_T_psm1,Tx,Ty,Tz,R00,R01,R02,R10,R11,R12,R20,R21,R22,si_T_psm3,Tx,Ty,Tz,R00,R01,R02,R10,R11,R12,R20,R21,R22,si_T_ecm,Tx,Ty,Tz,R00,R01,R02,R10,R11,R12,R20,R21,R22,joint_vars_psm1,q1,q2,q3,q4,q5,q6,jaw,joint_vars_psm3,q1,q2,q3,q4,q5,q6,jaw
lci_T_si
,,-0.052372884,0.059518218,0.43024123,0.9998894,0.01425149,0.0042581805,0.014661795,-0.9925588,-0.120880626,0.0025037655,0.12092969,-0.9926579
rci_T_si
,,-0.0698302,0.06962483,0.5116409,0.99432415,0.0010232546,0.106388256,0.007977063,-0.99785614,-0.0649576,0.10609371,0.06543757,-0.9922006
ecm_T_lc
,,-0.039348,0.051043153,-0.2725159,-0.9888841,-0.12934415,0.07333705,0.13224038,-0.9905602,0.036096916,0.06797584,0.045393787,0.9966537
ecm_T_rc
,,0.010096899,0.19171284,-0.6841031,-0.99695045,-0.013193613,-0.07691395,0.014341901,-0.9997935,-0.014396289,-0.07670814,-0.015455482,0.99693376
0.02444994996767491,,0.03505996,0.037610643,0.30580637,-0.9783512,-0.20388444,0.035497755,-0.051375963,0.4054346,0.91267914,-0.20047307,0.8910969,-0.4071321,,-0.002107093,0.07200821,0.535368,0.2598965,-0.78006554,0.56916726,-0.9326269,-0.049978394,0.3573642,-0.25032145,-0.6236984,-0.74049926,,0.024852492,-0.017057257,0.15675856,-0.9904919,0.11775761,0.071125254,0.123121835,0.98944336,0.076438285,-0.061373223,0.08446859,-0.9945341,,-0.47315639773798723,-0.08100374511774089,0.12147922477000002,0.5326124564506919,0.5078778696281421,0.5195293305071684,0.5117569591986969,,-1.4900240807528768,-0.2269865646392068,0.07758166021000001,0.0,0.0057387329901484995,0.030360627565051503,0.07072798063614291
0.051022881001699716,,0.03505996,0.037610643,0.30580637,-0.9783512,-0.20388444,0.035497755,-0.051375963,0.4054346,0.91267914,-0.20047307,0.8910969,-0.4071321,,-0.002106391,0.07200824,0.5353686,0.2598952,-0.7800618,0.56917316,-0.93262696,-0.049974117,0.35736465,-0.25032255,-0.6237035,-0.7404945,,0.024852492,-0.017057257,0.15675856,-0.9904919,0.11775761,0.071125254,0.123121835,0.98944336,0.076438285,-0.061373223,0.08446859,-0.9945341,,-0.47315639773798723,-0.08100374511774089,0.12147922477000002,0.5326124564506919,0.5078778696281421,0.5195293305071684,0.5117569591986969,,-1.4900318034857511,-0.2269865646392068,0.07758166021000001,0.0,0.0057387329901484995,0.030360627565051503,0.07072798063614291
0.07645299000432715,,0.03506049,0.037610173,0.30580586,-0.9783502,-0.20388839,0.035501003,-0.051375814,0.4054399,0.9126768,-0.20047773,0.89109355,-0.4071371,,-0.002107093,0.07200821,0.535368,0.2598965,-0.78006554,0.56916726,-0.9326269,-0.049978394,0.3573642,-0.25032145,-0.6236984,-0.74049926,,0.024852492,-0.017057257,0.15675856,-0.9904919,0.11775761,0.071125254,0.123121835,0.98944336,0.076438285,-0.061373223,0.08446859,-0.9945341,,-0.4731641204708615,-0.08100374511774089,0.12147922477000002,0.5326124564506919,0.5078778696281421,0.5195293305071684,0.5117569591986969,,-1.4900240807528768,-0.2269865646392068,0.07758166021000001,0.0,0.0057387329901484995,0.030360627565051503,0.07072798063614291
0.10164542496204376,,0.03505996,0.037610643,0.30580637,-0.9783512,-0.20388444,0.035497755,-0.051375963,0.4054346,0.91267914,-0.20047307,0.8910969,-0.4071321,,-0.002107093,0.07200821,0.535368,0.2598965,-0.78006554,0.56916726,-0.9326269,-0.049978394,0.3573642,-0.25032145,-0.6236984,-0.74049926,,0.024852492,-0.017057257,0.15675856,-0.9904919,0.11775761,0.071125254,0.123121835,0.98944336,0.076438285,-0.061373223,0.08446859,-0.9945341,,-0.47315639773798723,-0.08100374511774089,0.12147922477000002,0.5326124564506919,0.5078778696281421,0.5195293305071684,0.5117569591986969,,-1.4900240807528768,-0.2269865646392068,0.07758166021000001,0.0,0.0057387329901484995,0.030360627565051503,0.07072798063614291
0.12859767099143937,,0.035061028,0.037609696,0.30580536,-0.9783492,-0.20389235,0.03550427,-0.05137565,0.40544525,0.9126744,-0.20048237,0.8910902,-0.40714213,,-0.002107093,0.07200821,0.535368,0.2598965,-0.78006554,0.56916726,-0.9326269,-0.049978394,0.3573642,-0.25032145,-0.6236984,-0.74049926,,0.024852492,-0.017057257,0.15675856,-0.9904919,0.11775761,0.071125254,0.123121835,0.98944336,0.076438285,-0.061373223,0.08446859,-0.9945341,,-0.47317184320373573,-0.08100374511774089,0.12147922477000002,0.5326124564506919,0.5078778696281421,0.5195293305071684,0.5117569591986969,,-1.4900240807528768,-0.2269865646392068,0.07758166021000001,0.0,0.0057387329901484995,0.030360627565051503,0.07072798063614291
0.15194341295864433,,0.03505996,0.037610643,0.30580637,-0.9783512,-0.20388444,0.035497755,-0.051375963,0.4054346,0.91267914,-0.20047307,0.8910969,-0.4071321,,-0.0021061506,0.07200736,0.5353684,0.25989062,-0.7800618,0.5691752,-0.9326297,-0.04997391,0.3573575,-0.25031698,-0.6237034,-0.74049646,,0.024852492,-0.017057257,0.15675856,-0.9904919,0.11775761,0.071125254,0.123121835,0.98944336,0.076438285,-0.061373223,0.08446859,-0.9945341,,-0.47315639773798723,-0.08100374511774089,0.12147922477000002,0.5326124564506919,0.5078778696281421,0.5195293305071684,0.5117569591986969,,-1.4900318034857511,-0.22699428737208102,0.07758166021000001,0.0,0.0057387329901484995,0.030360627565051503,0.07072798063614291
0.18629559298278764,,0.035046868,0.03761239,0.30581555,-0.9783578,-0.20385414,0.035492152,-0.051368397,0.40543526,0.91267926,-0.20044321,0.8911035,-0.40713227,,-0.0021646712,0.0720063,0.53535676,0.2598186,-0.7800935,0.5691647,-0.9326502,-0.049932178,0.3573097,-0.2503153,-0.62366724,-0.74052763,,0.024799,-0.017028723,0.15674871,-0.9904857,0.11780689,0.071130864,0.12317151,0.9894372,0.07643756,-0.06137466,0.08447161,-0.9945337,,-0.47315639773798723,-0.08100374511774089,0.12147922477000002,0.5326124564506919,0.5078778696281421,0.5195293305071684,0.5117569591986969,,-1.4900395262186255,-0.2269865646392068,0.07758166021000001,0.0,0.0057387329901484995,0.030360627565051503,0.07072798063614291
0.21964784897863865,,0.03504741,0.037611905,0.30581504,-0.9783568,-0.2038581,0.035495415,-0.051368248,0.40544057,0.91267693,-0.20044784,0.89110017,-0.40713727,,-0.0021646712,0.0720063,0.53535676,0.2598186,-0.7800935,0.5691647,-0.9326502,-0.049932178,0.3573097,-0.2503153,-0.62366724,-0.74052763,,0.024799,-0.017028723,0.15674871,-0.9904857,0.11780689,0.071130864,0.12317151,0.9894372,0.07643756,-0.06137466,0.08447161,-0.9945337,,-0.4731641204708615,-0.08100374511774089,0.12147922477000002,0.5326124564506919,0.5078778696281421,0.5195293305071684,0.5117569591986969,,-1.4900395262186255,-0.2269865646392068,0.07758166021000001,0.0,0.0057387329901484995,0.030360627565051503,0.07072798063614291
0.24538159399526194,,0.03504741,0.037611905,0.30581504,-0.9783568,-0.2038581,0.035495415,-0.051368248,0.40544057,0.91267693,-0.20044784,0.89110017,-0.40713727,,-0.0021653716,0.072006255,0.53535616,0.25981992,-0.7800973,0.56915885,-0.93265015,-0.04993646,0.35730928,-0.2503142,-0.6236621,-0.7405323,,0.024799,-0.017028723,0.15674871,-0.9904857,0.11780689,0.071130864,0.12317151,0.9894372,0.07643756,-0.06137466,0.08447161,-0.9945337,,-0.4731641204708615,-0.08100374511774089,0.12147922477000002,0.5326124564506919,0.5078778696281421,0.5195293305071684,0.5117569591986969,,-1.4900318034857511,-0.2269865646392068,0.07758166021000001,0.0,0.0057387329901484995,0.030360627565051503,0.07072798063614291
0.27124511398142204,,0.035047945,0.03761144,0.30581453,-0.9783558,-0.20386207,0.03549867,-0.051368095,0.4054459,0.91267455,-0.2004525,0.89109683,-0.40714228,,-0.00216607,0.072006226,0.53535557,0.25982118,-0.7801012,0.5691531,-0.9326501,-0.049940735,0.35730886,-0.2503131,-0.623657,-0.740537,,0.024799,-0.017028723,0.15674871,-0.9904857,0.11780689,0.071130864,0.12317151,0.9894372,0.07643756,-0.06137466,0.08447161,-0.9945337,,-0.47317184320373573,-0.08100374511774089,0.12147922477000002,0.5326124564506919,0.5078778696281421,0.5195293305071684,0.5117569591986969,,-1.4900240807528768,-0.2269865646392068,0.07758166021000001,0.0,0.0057387329901484995,0.030360627565051503,0.07072798063614291
0.3009168329881504,,0.035046868,0.03761239,0.30581555,-0.9783578,-0.20385414,0.035492152,-0.051368397,0.40543526,0.91267926,-0.20044321,0.8911035,-0.40713227,,-0.0021653716,0.072006255,0.53535616,0.25981992,-0.7800973,0.56915885,-0.93265015,-0.04993646,0.35730928,-0.2503142,-0.6236621,-0.7405323,,0.024799,-0.017028723,0.15674871,-0.9904857,0.11780689,0.071130864,0.12317151,0.9894372,0.07643756,-0.06137466,0.08447161,-0.9945337,,-0.47315639773798723,-0.08100374511774089,0.12147922477000002,0.5326124564506919,0.5078778696281421,0.5195293305071684,0.5117569591986969,,-1.4900318034857511,-0.2269865646392068,0.07758166021000001,0.0,0.0057387329901484995,0.030360627565051503,0.07072798063614291
0.325054470973555,,0.035046868,0.03761239,0.30581555,-0.9783578,-0.20385414,0.035492152,-0.051368397,0.40543526,0.91267926,-0.20044321,0.8911035,-0.40713227,,-0.0021653716,0.072006255,0.53535616,0.25981992,-0.7800973,0.56915885,-0.93265015,-0.04993646,0.35730928,-0.2503142,-0.6236621,-0.7405323,,0.024799,-0.017028723,0.15674871,-0.9904857,0.11780689,0.071130864,0.12317151,0.9894372,0.07643756,-0.06137466,0.08447161,-0.9945337,,-0.47315639773798723,-0.08100374511774089,0.12147922477000002,0.5326124564506919,0.5078778696281421,0.5195293305071684,0.5117569591986969,,-1.4900318034857511,-0.2269865646392068,0.07758166021000001,0.0,0.0057387329901484995,0.030360627565051503,0.07072798063614291
0.3484410739620216,,0.03504741,0.037611905,0.30581504,-0.9783568,-0.2038581,0.035495415,-0.051368248,0.40544057,0.91267693,-0.20044784,0.89110017,-0.40713727,,-0.0021646712,0.0720063,0.53535676,0.2598186,-0.7800935,0.5691647,-0.9326502,-0.049932178,0.3573097,-0.2503153,-0.62366724,-0.74052763,,0.024799,-0.017028723,0.15674871,-0.9904857,0.11780689,0.071130864,0.12317151,0.9894372,0.07643756,-0.06137466,0.08447161,-0.9945337,,-0.4731641204708615,-0.08100374511774089,0.12147922477000002,0.5326124564506919,0.5078778696281421,0.5195293305071684,0.5117569591986969,,-1.4900395262186255,-0.2269865646392068,0.07758166021000001,0.0,0.0057387329901484995,0.030360627565051503,0.07072798063614291
0.36998632800532505,,0.035046868,0.03761239,0.30581555,-0.9783578,-0.20385414,0.035492152,-0.051368397,0.40543526,0.91267926,-0.20044321,0.8911035,-0.40713227,,-0.0021646712,0.0720063,0.53535676,0.2598186,-0.7800935,0.5691647,-0.9326502,-0.049932178,0.3573097,-0.2503153,-0.62366724,-0.74052763,,0.024799,-0.017028723,0.15674871,-0.9904857,0.11780689,0.071130864,0.12317151,0.9894372,0.07643756,-0.06137466,0.08447161,-0.9945337,,-0.47315639773798723,-0.08100374511774089,0.12147922477000002,0.5326124564506919,0.5078778696281421,0.5195293305071684,0.5117569591986969,,-1.4900395262186255,-0.2269865646392068,0.07758166021000001,0.0,0.0057387329901484995,0.030360627565051503,0.07072798063614291
0.3989138619508594,,0.035047945,0.03761144,0.30581453,-0.9783558,-0.20386207,0.03549867,-0.051368095,0.4054459,0.91267455,-0.2004525,0.89109683,-0.40714228,,-0.00216607,0.072006226,0.53535557,0.25982118,-0.7801012,0.5691531,-0.9326501,-0.049940735,0.35730886,-0.2503131,-0.623657,-0.740537,,0.024799,-0.017028723,0.15674871,-0.9904857,0.11780689,0.071130864,0.12317151,0.9894372,0.07643756,-0.06137466,0.08447161,-0.9945337,,-0.47317184320373573,-0.08100374511774089,0.12147922477000002,0.5326124564506919,0.5078778696281421,0.5195293305071684,0.5117569591986969,,-1.4900240807528768,-0.2269865646392068,0.07758166021000001,0.0,0.0057387329901484995,0.030360627565051503,0.07072798063614291
0.4254267279757187,,0.035047945,0.03761144,0.30581453,-0.9783558,-0.20386207,0.03549867,-0.051368095,0.4054459,0.91267455,-0.2004525,0.89109683,-0.40714228,,-0.00216607,0.072006226,0.53535557,0.25982118,-0.7801012,0.5691531,-0.9326501,-0.049940735,0.35730886,-0.2503131,-0.623657,-0.740537,,0.024799,-0.017028723,0.15674871,-0.9904857,0.11780689,0.071130864,0.12317151,0.9894372,0.07643756,-0.06137466,0.08447161,-0.9945337,,-0.47317184320373573,-0.08100374511774089,0.12147922477000002,0.5326124564506919,0.5078778696281421,0.5195293305071684,0.5117569591986969,,-1.4900240807528768,-0.2269865646392068,0.07758166021000001,0.0,0.0057387329901484995,0.030360627565051503,0.07072798063614291
0.45111849397653714,,0.035046868,0.03761239,0.30581555,-0.9783578,-0.20385414,0.035492152,-0.051368397,0.40543526,0.91267926,-0.20044321,0.8911035,-0.40713227,,-0.00216607,0.072006226,0.53535557,0.25982118,-0.7801012,0.5691531,-0.9326501,-0.049940735,0.35730886,-0.2503131,-0.623657,-0.740537,,0.024799,-0.017028723,0.15674871,-0.9904857,0.11780689,0.071130864,0.12317151,0.9894372,0.07643756,-0.06137466,0.08447161,-0.9945337,,-0.47315639773798723,-0.08100374511774089,0.12147922477000002,0.5326124564506919,0.5078778696281421,0.5195293305071684,0.5117569591986969,,-1.4900240807528768,-0.2269865646392068,0.07758166021000001,0.0,0.0057387329901484995,0.030360627565051503,0.07072798063614291
0.47638004599139094,,0.035046868,0.03761239,0.30581555,-0.9783578,-0.20385414,0.035492152,-0.051368397,0.40543526,0.91267926,-0.20044321,0.8911035,-0.40713227,,-0.0021653716,0.072006255,0.53535616,0.25981992,-0.7800973,0.56915885,-0.93265015,-0.04993646,0.35730928,-0.2503142,-0.6236621,-0.7405323,,0.024799,-0.017028723,0.15674871,-0.9904857,0.11780689,0.071130864,0.12317151,0.9894372,0.07643756,-0.06137466,0.08447161,-0.9945337,,-0.47315639773798723,-0.08100374511774089,0.12147922477000002,0.5326124564506919,0.5078778696281421,0.5195293305071684,0.5117569591986969,,-1.4900318034857511,-0.2269865646392068,0.07758166021000001,0.0,0.0057387329901484995,0.030360627565051503,0.07072798063614291
0.5012675059842877,,0.03504741,0.037611905,0.30581504,-0.9783568,-0.2038581,0.035495415,-0.051368248,0.40544057,0.91267693,-0.20044784,0.89110017,-0.40713727,,-0.0021646712,0.0720063,0.53535676,0.2598186,-0.7800935,0.5691647,-0.9326502,-0.049932178,0.3573097,-0.2503153,-0.62366724,-0.74052763,,0.024799,-0.017028723,0.15674871,-0.9904857,0.11780689,0.071130864,0.12317151,0.9894372,0.07643756,-0.06137466,0.08447161,-0.9945337,,-0.4731641204708615,-0.08100374511774089,0.12147922477000002,0.5326124564506919,0.5078778696281421,0.5195293305071684,0.5117569591986969,,-1.4900395262186255,-0.2269865646392068,0.07758166021000001,0.0,0.0057387329901484995,0.030360627565051503,0.07072798063614291
0.5313668909948319,,0.035046868,0.03761239,0.30581555,-0.9783578,-0.20385414,0.035492152,-0.051368397,0.40543526,0.91267926,-0.20044321,0.8911035,-0.40713227,,-0.0021644272,0.07200542,0.5353565,0.25981402,-0.78009355,0.5691667,-0.932653,-0.049931966,0.35730252,-0.2503097,-0.6236672,-0.7405295,,0.024799,-0.017028723,0.15674871,-0.9904857,0.11780689,0.071130864,0.12317151,0.9894372,0.07643756,-0.06137466,0.08447161,-0.9945337,,-0.47315639773798723,-0.08100374511774089,0.12147922477000002,0.5326124564506919,0.5078778696281421,0.5195293305071684,0.5117569591986969,,-1.4900395262186255,-0.22699428737208102,0.07758166021000001,0.0,0.0057387329901484995,0.030360627565051503,0.07072798063614291
0.5625576279708184,,0.035046868,0.03761239,0.30581555,-0.9783578,-0.20385414,0.035492152,-0.051368397,0.40543526,0.91267926,-0.20044321,0.8911035,-0.40713227,,-0.0021653716,0.072006255,0.53535616,0.25981992,-0.7800973,0.56915885,-0.93265015,-0.04993646,0.35730928,-0.2503142,-0.6236621,-0.7405323,,0.024799,-0.017028723,0.15674871,-0.9904857,0.11780689,0.071130864,0.12317151,0.9894372,0.07643756,-0.06137466,0.08447161,-0.9945337,,-0.47315639773798723,-0.08100374511774089,0.12147922477000002,0.5326124564506919,0.5078778696281421,0.5195293305071684,0.5117569591986969,,-1.4900318034857511,-0.2269865646392068,0.07758166021000001,0.0,0.0057387329901484995,0.030360627565051503,0.07072798063614291
0.586544181976933,,0.035046868,0.03761239,0.30581555,-0.9783578,-0.20385414,0.035492152,-0.051368397,0.40543526,0.91267926,-0.20044321,0.8911035,-0.40713227,,-0.00216607,0.072006226,0.53535557,0.25982118,-0.7801012,0.5691531,-0.9326501,-0.049940735,0.35730886,-0.2503131,-0.623657,-0.740537,,0.024799,-0.017028723,0.15674871,-0.9904857,0.11780689,0.071130864,0.12317151,0.9894372,0.07643756,-0.06137466,0.08447161,-0.9945337,,-0.47315639773798723,-0.08100374511774089,0.12147922477000002,0.5326124564506919,0.5078778696281421,0.5195293305071684,0.5117569591986969,,-1.4900240807528768,-0.2269865646392068,0.07758166021000001,0.0,0.0057387329901484995,0.030360627565051503,0.07072798063614291
0.618080394982826,,0.035046868,0.03761239,0.30581555,-0.9783578,-0.20385414,0.035492152,-0.051368397,0.40543526,0.91267926,-0.20044321,0.8911035,-0.40713227,,-0.00216607,0.072006226,0.53535557,0.25982118,-0.7801012,0.5691531,-0.9326501,-0.049940735,0.35730886,-0.2503131,-0.623657,-0.740537,,0.024799,-0.017028723,0.15674871,-0.9904857,0.11780689,0.071130864,0.12317151,0.9894372,0.07643756,-0.06137466,0.08447161,-0.9945337,,-0.47315639773798723,-0.08100374511774089,0.12147922477000002,0.5326124564506919,0.5078778696281421,0.5195293305071684,0.5117569591986969,,-1.4900240807528768,-0.2269865646392068,0.07758166021000001,0.0,0.0057387329901484995,0.030360627565051503,0.07072798063614291
0.6455065119662322,,0.035046868,0.03761239,0.30581555,-0.9783578,-0.20385414,0.035492152,-0.051368397,0.40543526,0.91267926,-0.20044321,0.8911035,-0.40713227,,-0.0021653716,0.072006255,0.53535616,0.25981992,-0.7800973,0.56915885,-0.93265015,-0.04993646,0.35730928,-0.2503142,-0.6236621,-0.7405323,,0.024799,-0.017028723,0.15674871,-0.9904857,0.11780689,0.071130864,0.12317151,0.9894372,0.07643756,-0.06137466,0.08447161,-0.9945337,,-0.47315639773798723,-0.08100374511774089,0.12147922477000002,0.5326124564506919,0.5078778696281421,0.5195293305071684,0.5117569591986969,,-1.4900318034857511,-0.2269865646392068,0.07758166021000001,0.0,0.0057387329901484995,0.030360627565051503,0.07072798063614291
0.6702271740068682,,0.035046868,0.03761239,0.30581555,-0.9783578,-0.20385414,0.035492152,-0.051368397,0.40543526,0.91267926,-0.20044321,0.8911035,-0.40713227,,-0.0021651275,0.072005376,0.5353559,0.25981534,-0.78009737,0.5691609,-0.93265295,-0.04993624,0.3573021,-0.25030863,-0.623662,-0.7405342,,0.024799,-0.017028723,0.15674871,-0.9904857,0.11780689,0.071130864,0.12317151,0.9894372,0.07643756,-0.06137466,0.08447161,-0.9945337,,-0.47315639773798723,-0.08100374511774089,0.12147922477000002,0.5326124564506919,0.5078778696281421,0.5195293305071684,0.5117569591986969,,-1.4900318034857511,-0.22699428737208102,0.07758166021000001,0.0,0.0057387329901484995,0.030360627565051503,0.07072798063614291
0.6992754939710721,,0.035046868,0.03761239,0.30581555,-0.9783578,-0.20385414,0.035492152,-0.051368397,0.40543526,0.91267926,-0.20044321,0.8911035,-0.40713227,,-0.0021646712,0.0720063,0.53535676,0.2598186,-0.7800935,0.5691647,-0.9326502,-0.049932178,0.3573097,-0.2503153,-0.62366724,-0.74052763,,0.024799,-0.017028723,0.15674871,-0.9904857,0.11780689,0.071130864,0.12317151,0.9894372,0.07643756,-0.06137466,0.08447161,-0.9945337,,-0.47315639773798723,-0.08100374511774089,0.12147922477000002,0.5326124564506919,0.5078778696281421,0.5195293305071684,0.5117569591986969,,-1.4900395262186255,-0.2269865646392068,0.07758166021000001,0.0,0.0057387329901484995,0.030360627565051503,0.07072798063614291
0.7266110059572384,,0.03504444,0.037612256,0.30581504,-0.9783938,-0.20372927,0.035214666,-0.051529903,0.40523884,0.91275734,-0.20022573,0.89122134,-0.40698123,,-0.0021646712,0.0720063,0.53535676,0.2598186,-0.7800935,0.5691647,-0.9326502,-0.049932178,0.3573097,-0.2503153,-0.62366724,-0.74052763,,0.024799,-0.017028723,0.15674871,-0.9904857,0.11780689,0.071130864,0.12317151,0.9894372,0.07643756,-0.06137466,0.08447161,-0.9945337,,-0.47315639773798723,-0.08100374511774089,0.12147922477000002,0.5326124564506919,0.5076045966286112,0.5197521663145613,0.5117569591986969,,-1.4900395262186255,-0.2269865646392068,0.07758166021000001,0.0,0.0057387329901484995,0.030360627565051503,0.07072798063614291
0.7515097699942999,,0.03504444,0.037612256,0.30581504,-0.9783938,-0.20372927,0.035214666,-0.051529903,0.40523884,0.91275734,-0.20022573,0.89122134,-0.40698123,,-0.0021653716,0.072006255,0.53535616,0.25981992,-0.7800973,0.56915885,-0.93265015,-0.04993646,0.35730928,-0.2503142,-0.6236621,-0.7405323,,0.024799,-0.017028723,0.15674871,-0.9904857,0.11780689,0.071130864,0.12317151,0.9894372,0.07643756,-0.06137466,0.08447161,-0.9945337,,-0.47315639773798723,-0.08100374511774089,0.12147922477000002,0.5326124564506919,0.5076045966286112,0.5197521663145613,0.5117569591986969,,-1.4900318034857511,-0.2269865646392068,0.07758166021000001,0.0,0.0057387329901484995,0.030360627565051503,0.07072798063614291
0.777109615970403,,0.03504444,0.037612256,0.30581504,-0.9783938,-0.20372927,0.035214666,-0.051529903,0.40523884,0.91275734,-0.20022573,0.89122134,-0.40698123,,-0.00216607,0.072006226,0.53535557,0.25982118,-0.7801012,0.5691531,-0.9326501,-0.049940735,0.35730886,-0.2503131,-0.623657,-0.740537,,0.024799,-0.017028723,0.15674871,-0.9904857,0.11780689,0.071130864,0.12317151,0.9894372,0.07643756,-0.06137466,0.08447161,-0.9945337,,-0.47315639773798723,-0.08100374511774089,0.12147922477000002,0.5326124564506919,0.5076045966286112,0.5197521663145613,0.5117569591986969,,-1.4900240807528768,-0.2269865646392068,0.07758166021000001,0.0,0.0057387329901484995,0.030360627565051503,0.07072798063614291
0.8019254059763625,,0.03504444,0.037612256,0.30581504,-0.9783938,-0.20372927,0.035214666,-0.051529903,0.40523884,0.91275734,-0.20022573,0.89122134,-0.40698123,,-0.0021651275,0.072005376,0.5353559,0.25981534,-0.78009737,0.5691609,-0.93265295,-0.04993624,0.3573021,-0.25030863,-0.623662,-0.7405342,,0.024799,-0.017028723,0.15674871,-0.9904857,0.11780689,0.071130864,0.12317151,0.9894372,0.07643756,-0.06137466,0.08447161,-0.9945337,,-0.47315639773798723,-0.08100374511774089,0.12147922477000002,0.5326124564506919,0.5076045966286112,0.5197521663145613,0.5117569591986969,,-1.4900318034857511,-0.22699428737208102,0.07758166021000001,0.0,0.0057387329901484995,0.030360627565051503,0.07072798063614291
0.829986264987383,,0.03504551,0.037611313,0.30581403,-0.9783918,-0.20373718,0.0352212,-0.05152958,0.40524954,0.9127527,-0.20023501,0.8912147,-0.40699124,,-0.0021644272,0.07200542,0.5353565,0.25981402,-0.78009355,0.5691667,-0.932653,-0.049931966,0.35730252,-0.2503097,-0.6236672,-0.7405295,,0.024799,-0.017028723,0.15674871,-0.9904857,0.11780689,0.071130864,0.12317151,0.9894372,0.07643756,-0.06137466,0.08447161,-0.9945337,,-0.47317184320373573,-0.08100374511774089,0.12147922477000002,0.5326124564506919,0.5076045966286112,0.5197521663145613,0.5117569591986969,,-1.4900395262186255,-0.22699428737208102,0.07758166021000001,0.0,0.0057387329901484995,0.030360627565051503,0.07072798063614291
0.8525928179733455,,0.035044976,0.03761179,0.30581456,-0.9783928,-0.20373322,0.03521793,-0.05152973,0.40524417,0.9127551,-0.20023036,0.8912181,-0.4069862,,-0.0021646712,0.0720063,0.53535676,0.2598186,-0.7800935,0.5691647,-0.9326502,-0.049932178,0.3573097,-0.2503153,-0.62366724,-0.74052763,,0.024799,-0.017028723,0.15674871,-0.9904857,0.11780689,0.071130864,0.12317151,0.9894372,0.07643756,-0.06137466,0.08447161,-0.9945337,,-0.4731641204708615,-0.08100374511774089,0.12147922477000002,0.5326124564506919,0.5076045966286112,0.5197521663145613,0.5117569591986969,,-1.4900395262186255,-0.2269865646392068,0.07758166021000001,0.0,0.0057387329901484995,0.030360627565051503,0.07072798063614291
0.8826395199866965,,0.03504444,0.037612256,0.30581504,-0.9783938,-0.20372927,0.035214666,-0.051529903,0.40523884,0.91275734,-0.20022573,0.89122134,-0.40698123,,-0.0021646712,0.0720063,0.53535676,0.2598186,-0.7800935,0.5691647,-0.9326502,-0.049932178,0.3573097,-0.2503153,-0.62366724,-0.74052763,,0.024799,-0.017028723,0.15674871,-0.9904857,0.11780689,0.071130864,0.12317151,0.9894372,0.07643756,-0.06137466,0.08447161,-0.9945337,,-0.47315639773798723,-0.08100374511774089,0.12147922477000002,0.5326124564506919,0.5076045966286112,0.5197521663145613,0.5117569591986969,,-1.4900395262186255,-0.2269865646392068,0.07758166021000001,0.0,0.0057387329901484995,0.030360627565051503,0.07072798063614291
0.9088944149552844,,0.03504444,0.037612256,0.30581504,-0.9783938,-0.20372927,0.035214666,-0.051529903,0.40523884,0.91275734,-0.20022573,0.89122134,-0.40698123,,-0.0021653716,0.072006255,0.53535616,0.25981992,-0.7800973,0.56915885,-0.93265015,-0.04993646,0.35730928,-0.2503142,-0.6236621,-0.7405323,,0.024799,-0.017028723,0.15674871,-0.9904857,0.11780689,0.071130864,0.12317151,0.9894372,0.07643756,-0.06137466,0.08447161,-0.9945337,,-0.47315639773798723,-0.08100374511774089,0.12147922477000002,0.5326124564506919,0.5076045966286112,0.5197521663145613,0.5117569591986969,,-1.4900318034857511,-0.2269865646392068,0.07758166021000001,0.0,0.0057387329901484995,0.030360627565051503,0.07072798063614291
0.9334300979971886,,0.035044976,0.03761179,0.30581456,-0.9783928,-0.20373322,0.03521793,-0.05152973,0.40524417,0.9127551,-0.20023036,0.8912181,-0.4069862,,-0.0021653716,0.072006255,0.53535616,0.25981992,-0.7800973,0.56915885,-0.93265015,-0.04993646,0.35730928,-0.2503142,-0.6236621,-0.7405323,,0.024799,-0.017028723,0.15674871,-0.9904857,0.11780689,0.071130864,0.12317151,0.9894372,0.07643756,-0.06137466,0.08447161,-0.9945337,,-0.4731641204708615,-0.08100374511774089,0.12147922477000002,0.5326124564506919,0.5076045966286112,0.5197521663145613,0.5117569591986969,,-1.4900318034857511,-0.2269865646392068,0.07758166021000001,0.0,0.0057387329901484995,0.030360627565051503,0.07072798063614291
0.9601781579549424,,0.035044976,0.03761179,0.30581456,-0.9783928,-0.20373322,0.03521793,-0.05152973,0.40524417,0.9127551,-0.20023036,0.8912181,-0.4069862,,-0.0021653716,0.072006255,0.53535616,0.25981992,-0.7800973,0.56915885,-0.93265015,-0.04993646,0.35730928,-0.2503142,-0.6236621,-0.7405323,,0.024799,-0.017028723,0.15674871,-0.9904857,0.11780689,0.071130864,0.12317151,0.9894372,0.07643756,-0.06137466,0.08447161,-0.9945337,,-0.4731641204708615,-0.08100374511774089,0.12147922477000002,0.5326124564506919,0.5076045966286112,0.5197521663145613,0.5117569591986969,,-1.4900318034857511,-0.2269865646392068,0.07758166021000001,0.0,0.0057387329901484995,0.030360627565051503,0.07072798063614291
0.9854587509762496,,0.03504551,0.037611313,0.30581403,-0.9783918,-0.20373718,0.0352212,-0.05152958,0.40524954,0.9127527,-0.20023501,0.8912147,-0.40699124,,-0.0021651275,0.072005376,0.5353559,0.25981534,-0.78009737,0.5691609,-0.93265295,-0.04993624,0.3573021,-0.25030863,-0.623662,-0.7405342,,0.024799,-0.017028723,0.15674871,-0.9904857,0.11780689,0.071130864,0.12317151,0.9894372,0.07643756,-0.06137466,0.08447161,-0.9945337,,-0.47317184320373573,-0.08100374511774089,0.12147922477000002,0.5326124564506919,0.5076045966286112,0.5197521663145613,0.5117569591986969,,-1.4900318034857511,-0.22699428737208102,0.07758166021000001,0.0,0.0057387329901484995,0.030360627565051503,0.07072798063614291
1.0133036729530431,,0.03504551,0.037611313,0.30581403,-0.9783918,-0.20373718,0.0352212,-0.05152958,0.40524954,0.9127527,-0.20023501,0.8912147,-0.40699124,,-0.0021644272,0.07200542,0.5353565,0.25981402,-0.78009355,0.5691667,-0.932653,-0.049931966,0.35730252,-0.2503097,-0.6236672,-0.7405295,,0.024799,-0.017028723,0.15674871,-0.9904857,0.11780689,0.071130864,0.12317151,0.9894372,0.07643756,-0.06137466,0.08447161,-0.9945337,,-0.47317184320373573,-0.08100374511774089,0.12147922477000002,0.5326124564506919,0.5076045966286112,0.5197521663145613,0.5117569591986969,,-1.4900395262186255,-0.22699428737208102,0.07758166021000001,0.0,0.0057387329901484995,0.030360627565051503,0.07072798063614291
1.0361183359636925,,0.03504551,0.037611313,0.30581403,-0.9783918,-0.20373718,0.0352212,-0.05152958,0.40524954,0.9127527,-0.20023501,0.8912147,-0.40699124,,-0.0021646712,0.0720063,0.53535676,0.2598186,-0.7800935,0.5691647,-0.9326502,-0.049932178,0.3573097,-0.2503153,-0.62366724,-0.74052763,,0.024799,-0.017028723,0.15674871,-0.9904857,0.11780689,0.071130864,0.12317151,0.9894372,0.07643756,-0.06137466,0.08447161,-0.9945337,,-0.47317184320373573,-0.08100374511774089,0.12147922477000002,0.5326124564506919,0.5076045966286112,0.5197521663145613,0.5117569591986969,,-1.4900395262186255,-0.2269865646392068,0.07758166021000001,0.0,0.0057387329901484995,0.030360627565051503,0.07072798063614291
1.0650483929784968,,0.035044976,0.03761179,0.30581456,-0.9783928,-0.20373322,0.03521793,-0.05152973,0.40524417,0.9127551,-0.20023036,0.8912181,-0.4069862,,-0.0021653716,0.072006255,0.53535616,0.25981992,-0.7800973,0.56915885,-0.93265015,-0.04993646,0.35730928,-0.2503142,-0.6236621,-0.7405323,,0.024799,-0.017028723,0.15674871,-0.9904857,0.11780689,0.071130864,0.12317151,0.9894372,0.07643756,-0.06137466,0.08447161,-0.9945337,,-0.4731641204708615,-0.08100374511774089,0.12147922477000002,0.5326124564506919,0.5076045966286112,0.5197521663145613,0.5117569591986969,,-1.4900318034857511,-0.2269865646392068,0.07758166021000001,0.0,0.0057387329901484995,0.030360627565051503,0.07072798063614291
1.0910372519865632,,0.03504444,0.037612256,0.30581504,-0.9783938,-0.20372927,0.035214666,-0.051529903,0.40523884,0.91275734,-0.20022573,0.89122134,-0.40698123,,-0.0021653716,0.072006255,0.53535616,0.25981992,-0.7800973,0.56915885,-0.93265015,-0.04993646,0.35730928,-0.2503142,-0.6236621,-0.7405323,,0.024799,-0.017028723,0.15674871,-0.9904857,0.11780689,0.071130864,0.12317151,0.9894372,0.07643756,-0.06137466,0.08447161,-0.9945337,,-0.47315639773798723,-0.08100374511774089,0.12147922477000002,0.5326124564506919,0.5076045966286112,0.5197521663145613,0.5117569591986969,,-1.4900318034857511,-0.2269865646392068,0.07758166021000001,0.0,0.0057387329901484995,0.030360627565051503,0.07072798063614291
1.11784938396886,,0.03504551,0.037611313,0.30581403,-0.9783918,-0.20373718,0.0352212,-0.05152958,0.40524954,0.9127527,-0.20023501,0.8912147,-0.40699124,,-0.00216607,0.072006226,0.53535557,0.25982118,-0.7801012,0.5691531,-0.9326501,-0.049940735,0.35730886,-0.2503131,-0.623657,-0.740537,,0.024799,-0.017028723,0.15674871,-0.9904857,0.11780689,0.071130864,0.12317151,0.9894372,0.07643756,-0.06137466,0.08447161,-0.9945337,,-0.47317184320373573,-0.08100374511774089,0.12147922477000002,0.5326124564506919,0.5076045966286112,0.5197521663145613,0.5117569591986969,,-1.4900240807528768,-0.2269865646392068,0.07758166021000001,0.0,0.0057387329901484995,0.030360627565051503,0.07072798063614291
1.144679520977661,,0.03504551,0.037611313,0.30581403,-0.9783918,-0.20373718,0.0352212,-0.05152958,0.40524954,0.9127527,-0.20023501,0.8912147,-0.40699124,,-0.0021646712,0.0720063,0.53535676,0.2598186,-0.7800935,0.5691647,-0.9326502,-0.049932178,0.3573097,-0.2503153,-0.62366724,-0.74052763,,0.024799,-0.017028723,0.15674871,-0.9904857,0.11780689,0.071130864,0.12317151,0.9894372,0.07643756,-0.06137466,0.08447161,-0.9945337,,-0.47317184320373573,-0.08100374511774089,0.12147922477000002,0.5326124564506919,0.5076045966286112,0.5197521663145613,0.5117569591986969,,-1.4900395262186255,-0.2269865646392068,0.07758166021000001,0.0,0.0057387329901484995,0.030360627565051503,0.07072798063614291
1.1711054209736176,,0.03504551,0.037611313,0.30581403,-0.9783918,-0.20373718,0.0352212,-0.05152958,0.40524954,0.9127527,-0.20023501,0.8912147,-0.40699124,,-0.0021651275,0.072005376,0.5353559,0.25981534,-0.78000444,0.5692883,-0.93265295,-0.049877867,0.35731024,-0.25030863,-0.623783,-0.74043226,,0.024799,-0.017028723,0.15674871,-0.9904857,0.11780689,0.071130864,0.12317151,0.9894372,0.07643756,-0.06137466,0.08447161,-0.9945337,,-0.47317184320373573,-0.08100374511774089,0.12147922477000002,0.5326124564506919,0.5076045966286112,0.5197521663145613,0.5117569591986969,,-1.4900318034857511,-0.22699428737208102,0.07758166021000001,0.0,0.0057387329901484995,0.030197270084770376,0.07105466876841146
1.195818740001414,,0.03504551,0.037611313,0.30581403,-0.9783918,-0.20373718,0.0352212,-0.05152958,0.40524954,0.9127527,-0.20023501,0.8912147,-0.40699124,,-0.0021644272,0.07200542,0.5353565,0.25981402,-0.78000057,0.56929415,-0.932653,-0.049873605,0.35731065,-0.2503097,-0.6237881,-0.74042755,,0.024799,-0.017028723,0.15674871,-0.9904857,0.11780689,0.071130864,0.12317151,0.9894372,0.07643756,-0.06137466,0.08447161,-0.9945337,,-0.47317184320373573,-0.08100374511774089,0.12147922477000002,0.5326124564506919,0.5076045966286112,0.5197521663145613,0.5117569591986969,,-1.4900395262186255,-0.22699428737208102,0.07758166021000001,0.0,0.0057387329901484995,0.030197270084770376,0.07105466876841146
1.2198163289576769,,0.03504444,0.037612256,0.30581504,-0.9783938,-0.20372927,0.035214666,-0.051529903,0.40523884,0.91275734,-0.20022573,0.89122134,-0.40698123,,-0.0021653716,0.072006255,0.53535616,0.25981992,-0.7800043,0.5692863,-0.93265015,-0.049878087,0.35731745,-0.2503142,-0.62378305,-0.74043036,,0.024799,-0.017028723,0.15674871,-0.9904857,0.11780689,0.071130864,0.12317151,0.9894372,0.07643756,-0.06137466,0.08447161,-0.9945337,,-0.47315639773798723,-0.08100374511774089,0.12147922477000002,0.5326124564506919,0.5076045966286112,0.5197521663145613,0.5117569591986969,,-1.4900318034857511,-0.2269865646392068,0.07758166021000001,0.0,0.0057387329901484995,0.030197270084770376,0.07105466876841146
1.2471644539618865,,0.03504444,0.037612256,0.30581504,-0.9783938,-0.20372927,0.035214666,-0.051529903,0.40523884,0.91275734,-0.20022573,0.89122134,-0.40698123,,-0.0021653716,0.072006255,0.53535616,0.25981992,-0.7800043,0.5692863,-0.93265015,-0.049878087,0.35731745,-0.2503142,-0.62378305,-0.74043036,,0.024799,-0.017028723,0.15674871,-0.9904857,0.11780689,0.071130864,0.12317151,0.9894372,0.07643756,-0.06137466,0.08447161,-0.9945337,,-0.47315639773798723,-0.08100374511774089,0.12147922477000002,0.5326124564506919,0.5076045966286112,0.5197521663145613,0.5117569591986969,,-1.4900318034857511,-0.2269865646392068,0.07758166021000001,0.0,0.0057387329901484995,0.030197270084770376,0.07105466876841146
1.2699648749548942,,0.03504444,0.037612256,0.30581504,-0.9783938,-0.20372927,0.035214666,-0.051529903,0.40523884,0.91275734,-0.20022573,0.89122134,-0.40698123,,-0.00216607,0.072006226,0.53535557,0.25982118,-0.7800082,0.56928045,-0.9326501,-0.04988236,0.35731703,-0.2503131,-0.6237779,-0.74043506,,0.024799,-0.017028723,0.15674871,-0.9904857,0.11780689,0.071130864,0.12317151,0.9894372,0.07643756,-0.06137466,0.08447161,-0.9945337,,-0.47315639773798723,-0.08100374511774089,0.12147922477000002,0.5326124564506919,0.5076045966286112,0.5197521663145613,0.5117569591986969,,-1.4900240807528768,-0.2269865646392068,0.07758166021000001,0.0,0.0057387329901484995,0.030197270084770376,0.07105466876841146
1.2970654959790409,,0.03504444,0.037612256,0.30581504,-0.9783938,-0.20372927,0.035214666,-0.051529903,0.40523884,0.91275734,-0.20022573,0.89122134,-0.40698123,,-0.0021653716,0.072006255,0.53535616,0.25981992,-0.7800043,0.5692863,-0.93265015,-0.049878087,0.35731745,-0.2503142,-0.62378305,-0.74043036,,0.024799,-0.017028723,0.15674871,-0.9904857,0.11780689,0.071130864,0.12317151,0.9894372,0.07643756,-0.06137466,0.08447161,-0.9945337,,-0.47315639773798723,-0.08100374511774089,0.12147922477000002,0.5326124564506919,0.5076045966286112,0.5197521663145613,0.5117569591986969,,-1.4900318034857511,-0.2269865646392068,0.07758166021000001,0.0,0.0057387329901484995,0.030197270084770376,0.07105466876841146
1.3203499669907615,,0.035005838,0.037643023,0.30579108,-0.97839046,-0.20373902,0.03525136,-0.051494867,0.40521663,0.9127693,-0.20025113,0.8912293,-0.4069515,,-0.0020446088,0.0720231,0.5353719,0.25993466,-0.7799717,0.5692786,-0.93261987,-0.049961574,0.35738495,-0.2503081,-0.6238172,-0.74040365,,0.024792254,-0.017026769,0.15674934,-0.9904825,0.11783222,0.07113375,0.12319701,0.9894341,0.07643719,-0.061375394,0.08447317,-0.99453354,,-0.47315639773798723,-0.08100374511774089,0.12147922477000002,0.5326124564506919,0.5076045966286112,0.5197521663145613,0.5117569591986969,,-1.4900318034857511,-0.22699428737208102,0.07758166021000001,0.0,0.0057387329901484995,0.030197270084770376,0.07105466876841146
1.3493280870025046,,0.035005838,0.037643023,0.30579108,-0.97839046,-0.20373902,0.03525136,-0.051494867,0.40521663,0.9127693,-0.20025113,0.8912293,-0.4069515,,-0.0020439066,0.07202314,0.5353725,0.25993335,-0.77996784,0.5692845,-0.9326199,-0.049957294,0.3573854,-0.25030917,-0.62382233,-0.74039894,,0.024792254,-0.017026769,0.15674934,-0.9904825,0.11783222,0.07113375,0.12319701,0.9894341,0.07643719,-0.061375394,0.08447317,-0.99453354,,-0.47315639773798723,-0.08100374511774089,0.12147922477000002,0.5326124564506919,0.5076045966286112,0.5197521663145613,0.5117569591986969,,-1.4900395262186255,-0.22699428737208102,0.07758166021000001,0.0,0.0057387329901484995,0.030197270084770376,0.07105466876841146
1.3693982429686002,,0.035005838,0.037643023,0.30579108,-0.97839046,-0.20373902,0.03525136,-0.051494867,0.40521663,0.9127693,-0.20025113,0.8912293,-0.4069515,,-0.0020441487,0.07202403,0.53537273,0.25993794,-0.7799678,0.56928253,-0.9326172,-0.049957503,0.3573926,-0.25031474,-0.62382233,-0.7403971,,0.024792254,-0.017026769,0.15674934,-0.9904825,0.11783222,0.07113375,0.12319701,0.9894341,0.07643719,-0.061375394,0.08447317,-0.99453354,,-0.47315639773798723,-0.08100374511774089,0.12147922477000002,0.5326124564506919,0.5076045966286112,0.5197521663145613,0.5117569591986969,,-1.4900395262186255,-0.2269865646392068,0.07758166021000001,0.0,0.0057387329901484995,0.030197270084770376,0.07105466876841146
1.3973996269633062,,0.035005838,0.037643023,0.30579108,-0.97839046,-0.20373902,0.03525136,-0.051494867,0.40521663,0.9127693,-0.20025113,0.8912293,-0.4069515,,-0.002044849,0.07202399,0.53537214,0.25993922,-0.7799716,0.5692767,-0.9326172,-0.049961776,0.3573922,-0.25031367,-0.62381727,-0.74040174,,0.024792254,-0.017026769,0.15674934,-0.9904825,0.11783222,0.07113375,0.12319701,0.9894341,0.07643719,-0.061375394,0.08447317,-0.99453354,,-0.47315639773798723,-0.08100374511774089,0.12147922477000002,0.5326124564506919,0.5076045966286112,0.5197521663145613,0.5117569591986969,,-1.4900318034857511,-0.2269865646392068,0.07758166021000001,0.0,0.0057387329901484995,0.030197270084770376,0.07105466876841146
1.4239274569554254,,0.035005838,0.037643023,0.30579108,-0.97839046,-0.20373902,0.03525136,-0.051494867,0.40521663,0.9127693,-0.20025113,0.8912293,-0.4069515,,-0.0020455495,0.07202395,0.5353716,0.25994053,-0.77997553,0.5692708,-0.932617,-0.049966052,0.35739177,-0.25031254,-0.6238121,-0.74040645,,0.024792254,-0.017026769,0.15674934,-0.9904825,0.11783222,0.07113375,0.12319701,0.9894341,0.07643719,-0.061375394,0.08447317,-0.99453354,,-0.47315639773798723,-0.08100374511774089,0.12147922477000002,0.5326124564506919,0.5076045966286112,0.5197521663145613,0.5117569591986969,,-1.4900240807528768,-0.2269865646392068,0.07758166021000001,0.0,0.0057387329901484995,0.030197270084770376,0.07105466876841146
1.446619568974711,,0.035005838,0.037643023,0.30579108,-0.97839046,-0.20373902,0.03525136,-0.051494867,0.40521663,0.9127693,-0.20025113,0.8912293,-0.4069515,,-0.0020455495,0.07202395,0.5353716,0.25994053,-0.77997553,0.5692708,-0.932617,-0.049966052,0.35739177,-0.25031254,-0.6238121,-0.74040645,,0.024792254,-0.017026769,0.15674934,-0.9904825,0.11783222,0.07113375,0.12319701,0.9894341,0.07643719,-0.061375394,0.08447317,-0.99453354,,-0.47315639773798723,-0.08100374511774089,0.12147922477000002,0.5326124564506919,0.5076045966286112,0.5197521663145613,0.5117569591986969,,-1.4900240807528768,-0.2269865646392068,0.07758166021000001,0.0,0.0057387329901484995,0.030197270084770376,0.07105466876841146
1.4704518509679474,,0.035005838,0.037643023,0.30579108,-0.97839046,-0.20373902,0.03525136,-0.051494867,0.40521663,0.9127693,-0.20025113,0.8912293,-0.4069515,,-0.0020446088,0.0720231,0.5353719,0.25993466,-0.7799717,0.5692786,-0.93261987,-0.049961574,0.35738495,-0.2503081,-0.6238172,-0.74040365,,0.024792254,-0.017026769,0.15674934,-0.9904825,0.11783222,0.07113375,0.12319701,0.9894341,0.07643719,-0.061375394,0.08447317,-0.99453354,,-0.47315639773798723,-0.08100374511774089,0.12147922477000002,0.5326124564506919,0.5076045966286112,0.5197521663145613,0.5117569591986969,,-1.4900318034857511,-0.22699428737208102,0.07758166021000001,0.0,0.0057387329901484995,0.030197270084770376,0.07105466876841146
1.500773912994191,,0.035005838,0.037643023,0.30579108,-0.97839046,-0.20373902,0.03525136,-0.051494867,0.40521663,0.9127693,-0.20025113,0.8912293,-0.4069515,,-0.0020446088,0.0720231,0.5353719,0.25993466,-0.7799717,0.5692786,-0.93261987,-0.049961574,0.35738495,-0.2503081,-0.6238172,-0.74040365,,0.024792254,-0.017026769,0.15674934,-0.9904825,0.11783222,0.07113375,0.12319701,0.9894341,0.07643719,-0.061375394,0.08447317,-0.99453354,,-0.47315639773798723,-0.08100374511774089,0.12147922477000002,0.5326124564506919,0.5076045966286112,0.5197521663145613,0.5117569591986969,,-1.4900318034857511,-0.22699428737208102,0.07758166021000001,0.0,0.0057387329901484995,0.030197270084770376,0.07105466876841146
1.52805314399302,,0.035005838,0.037643023,0.30579108,-0.97839046,-0.20373902,0.03525136,-0.051494867,0.40521663,0.9127693,-0.20025113,0.8912293,-0.4069515,,-0.0020441487,0.07202403,0.53537273,0.25993794,-0.7799678,0.56928253,-0.9326172,-0.049957503,0.3573926,-0.25031474,-0.62382233,-0.7403971,,0.024792254,-0.017026769,0.15674934,-0.9904825,0.11783222,0.07113375,0.12319701,0.9894341,0.07643719,-0.061375394,0.08447317,-0.99453354,,-0.47315639773798723,-0.08100374511774089,0.12147922477000002,0.5326124564506919,0.5076045966286112,0.5197521663145613,0.5117569591986969,,-1.4900395262186255,-0.2269865646392068,0.07758166021000001,0.0,0.0057387329901484995,0.030197270084770376,0.07105466876841146
1.5511886039748788,,0.035005838,0.037643023,0.30579108,-0.97839046,-0.20373902,0.03525136,-0.051494867,0.40521663,0.9127693,-0.20025113,0.8912293,-0.4069515,,-0.0020441487,0.07202403,0.53537273,0.25993794,-0.7799678,0.56928253,-0.9326172,-0.049957503,0.3573926,-0.25031474,-0.62382233,-0.7403971,,0.024792254,-0.017026769,0.15674934,-0.9904825,0.11783222,0.07113375,0.12319701,0.9894341,0.07643719,-0.061375394,0.08447317,-0.99453354,,-0.47315639773798723,-0.08100374511774089,0.12147922477000002,0.5326124564506919,0.5076045966286112,0.5197521663145613,0.5117569591986969,,-1.4900395262186255,-0.2269865646392068,0.07758166021000001,0.0,0.0057387329901484995,0.030197270084770376,0.07105466876841146
1.576317458995618,,0.035005838,0.037643023,0.30579108,-0.97839046,-0.20373902,0.03525136,-0.051494867,0.40521663,0.9127693,-0.20025113,0.8912293,-0.4069515,,-0.002044849,0.07202399,0.53537214,0.25993922,-0.7799716,0.5692767,-0.9326172,-0.049961776,0.3573922,-0.25031367,-0.62381727,-0.74040174,,0.024792254,-0.017026769,0.15674934,-0.9904825,0.11783222,0.07113375,0.12319701,0.9894341,0.07643719,-0.061375394,0.08447317,-0.99453354,,-0.47315639773798723,-0.08100374511774089,0.12147922477000002,0.5326124564506919,0.5076045966286112,0.5197521663145613,0.5117569591986969,,-1.4900318034857511,-0.2269865646392068,0.07758166021000001,0.0,0.0057387329901484995,0.030197270084770376,0.07105466876841146
1.6010000489768572,,0.035005838,0.037643023,0.30579108,-0.97839046,-0.20373902,0.03525136,-0.051494867,0.40521663,0.9127693,-0.20025113,0.8912293,-0.4069515,,-0.0020455495,0.07202395,0.5353716,0.25994053,-0.77997553,0.5692708,-0.932617,-0.049966052,0.35739177,-0.25031254,-0.6238121,-0.74040645,,0.024792254,-0.017026769,0.15674934,-0.9904825,0.11783222,0.07113375,0.12319701,0.9894341,0.07643719,-0.061375394,0.08447317,-0.99453354,,-0.47315639773798723,-0.08100374511774089,0.12147922477000002,0.5326124564506919,0.5076045966286112,0.5197521663145613,0.5117569591986969,,-1.4900240807528768,-0.2269865646392068,0.07758166021000001,0.0,0.0057387329901484995,0.030197270084770376,0.07105466876841146
1.6334125489811413,,0.035005838,0.037643023,0.30579108,-0.97839046,-0.20373902,0.03525136,-0.051494867,0.40521663,0.9127693,-0.20025113,0.8912293,-0.4069515,,-0.002044849,0.07202399,0.53537214,0.25993922,-0.7799716,0.5692767,-0.9326172,-0.049961776,0.3573922,-0.25031367,-0.62381727,-0.74040174,,0.024792254,-0.017026769,0.15674934,-0.9904825,0.11783222,0.07113375,0.12319701,0.9894341,0.07643719,-0.061375394,0.08447317,-0.99453354,,-0.47315639773798723,-0.08100374511774089,0.12147922477000002,0.5326124564506919,0.5076045966286112,0.5197521663145613,0.5117569591986969,,-1.4900318034857511,-0.2269865646392068,0.07758166021000001,0.0,0.0057387329901484995,0.030197270084770376,0.07105466876841146
1.660779889964033,,0.035005838,0.037643023,0.30579108,-0.97839046,-0.20373902,0.03525136,-0.051494867,0.40521663,0.9127693,-0.20025113,0.8912293,-0.4069515,,-0.0020441487,0.07202403,0.53537273,0.25993794,-0.7799678,0.56928253,-0.9326172,-0.049957503,0.3573926,-0.25031474,-0.62382233,-0.7403971,,0.024792254,-0.017026769,0.15674934,-0.9904825,0.11783222,0.07113375,0.12319701,0.9894341,0.07643719,-0.061375394,0.08447317,-0.99453354,,-0.47315639773798723,-0.08100374511774089,0.12147922477000002,0.5326124564506919,0.5076045966286112,0.5197521663145613,0.5117569591986969,,-1.4900395262186255,-0.2269865646392068,0.07758166021000001,0.0,0.0057387329901484995,0.030197270084770376,0.07105466876841146
1.680793029954657,,0.035005838,0.037643023,0.30579108,-0.97839046,-0.20373902,0.03525136,-0.051494867,0.40521663,0.9127693,-0.20025113,0.8912293,-0.4069515,,-0.0020446088,0.0720231,0.5353719,0.25993466,-0.7799717,0.5692786,-0.93261987,-0.049961574,0.35738495,-0.2503081,-0.6238172,-0.74040365,,0.024792254,-0.017026769,0.15674934,-0.9904825,0.11783222,0.07113375,0.12319701,0.9894341,0.07643719,-0.061375394,0.08447317,-0.99453354,,-0.47315639773798723,-0.08100374511774089,0.12147922477000002,0.5326124564506919,0.5076045966286112,0.5197521663145613,0.5117569591986969,,-1.4900318034857511,-0.22699428737208102,0.07758166021000001,0.0,0.0057387329901484995,0.030197270084770376,0.07105466876841146
1.7099553369916975,,0.035005838,0.037643023,0.30579108,-0.97839046,-0.20373902,0.03525136,-0.051494867,0.40521663,0.9127693,-0.20025113,0.8912293,-0.4069515,,-0.0020441487,0.07202403,0.53537273,0.25993794,-0.7799678,0.56928253,-0.9326172,-0.049957503,0.3573926,-0.25031474,-0.62382233,-0.7403971,,0.024792254,-0.017026769,0.15674934,-0.9904825,0.11783222,0.07113375,0.12319701,0.9894341,0.07643719,-0.061375394,0.08447317,-0.99453354,,-0.47315639773798723,-0.08100374511774089,0.12147922477000002,0.5326124564506919,0.5076045966286112,0.5197521663145613,0.5117569591986969,,-1.4900395262186255,-0.2269865646392068,0.07758166021000001,0.0,0.0057387329901484995,0.030197270084770376,0.07105466876841146
1.7350453399703838,,0.035005838,0.037643023,0.30579108,-0.97839046,-0.20373902,0.03525136,-0.051494867,0.40521663,0.9127693,-0.20025113,0.8912293,-0.4069515,,-0.002044849,0.07202399,0.53537214,0.25993922,-0.7799716,0.5692767,-0.9326172,-0.049961776,0.3573922,-0.25031367,-0.62381727,-0.74040174,,0.024792254,-0.017026769,0.15674934,-0.9904825,0.11783222,0.07113375,0.12319701,0.9894341,0.07643719,-0.061375394,0.08447317,-0.99453354,,-0.47315639773798723,-0.08100374511774089,0.12147922477000002,0.5326124564506919,0.5076045966286112,0.5197521663145613,0.5117569591986969,,-1.4900318034857511,-0.2269865646392068,0.07758166021000001,0.0,0.0057387329901484995,0.030197270084770376,0.07105466876841146
1.7646892259945162,,0.035005838,0.037643023,0.30579108,-0.97839046,-0.20373902,0.03525136,-0.051494867,0.40521663,0.9127693,-0.20025113,0.8912293,-0.4069515,,-0.002044849,0.07202399,0.53537214,0.25993922,-0.7799716,0.5692767,-0.9326172,-0.049961776,0.3573922,-0.25031367,-0.62381727,-0.74040174,,0.024792254,-0.017026769,0.15674934,-0.9904825,0.11783222,0.07113375,0.12319701,0.9894341,0.07643719,-0.061375394,0.08447317,-0.99453354,,-0.47315639773798723,-0.08100374511774089,0.12147922477000002,0.5326124564506919,0.5076045966286112,0.5197521663145613,0.5117569591986969,,-1.4900318034857511,-0.2269865646392068,0.07758166021000001,0.0,0.0057387329901484995,0.030197270084770376,0.07105466876841146
1.791219413978979,,0.035005838,0.037643023,0.30579108,-0.97839046,-0.20373902,0.03525136,-0.051494867,0.40521663,0.9127693,-0.20025113,0.8912293,-0.4069515,,-0.002044849,0.07202399,0.53537214,0.25993922,-0.7799716,0.5692767,-0.9326172,-0.049961776,0.3573922,-0.25031367,-0.62381727,-0.74040174,,0.024792254,-0.017026769,0.15674934,-0.9904825,0.11783222,0.07113375,0.12319701,0.9894341,0.07643719,-0.061375394,0.08447317,-0.99453354,,-0.47315639773798723,-0.08100374511774089,0.12147922477000002,0.5326124564506919,0.5076045966286112,0.5197521663145613,0.5117569591986969,,-1.4900318034857511,-0.2269865646392068,0.07758166021000001,0.0,0.0057387329901484995,0.030197270084770376,0.07105466876841146
1.8195594609715044,,0.035005838,0.037643023,0.30579108,-0.97839046,-0.20373902,0.03525136,-0.051494867,0.40521663,0.9127693,-0.20025113,0.8912293,-0.4069515,,-0.0020446088,0.0720231,0.5353719,0.25993466,-0.7799717,0.5692786,-0.93261987,-0.049961574,0.35738495,-0.2503081,-0.6238172,-0.74040365,,0.024792254,-0.017026769,0.15674934,-0.9904825,0.11783222,0.07113375,0.12319701,0.9894341,0.07643719,-0.061375394,0.08447317,-0.99453354,,-0.47315639773798723,-0.08100374511774089,0.12147922477000002,0.5326124564506919,0.5076045966286112,0.5197521663145613,0.5117569591986969,,-1.4900318034857511,-0.22699428737208102,0.07758166021000001,0.0,0.0057387329901484995,0.030197270084770376,0.07105466876841146
1.8434778649825603,,0.035005838,0.037643023,0.30579108,-0.97839046,-0.20373902,0.03525136,-0.051494867,0.40521663,0.9127693,-0.20025113,0.8912293,-0.4069515,,-0.0020439066,0.07202314,0.5353725,0.25993335,-0.77996784,0.5692845,-0.9326199,-0.049957294,0.3573854,-0.25030917,-0.62382233,-0.74039894,,0.024792254,-0.017026769,0.15674934,-0.9904825,0.11783222,0.07113375,0.12319701,0.9894341,0.07643719,-0.061375394,0.08447317,-0.99453354,,-0.47315639773798723,-0.08100374511774089,0.12147922477000002,0.5326124564506919,0.5076045966286112,0.5197521663145613,0.5117569591986969,,-1.4900395262186255,-0.22699428737208102,0.07758166021000001,0.0,0.0057387329901484995,0.030197270084770376,0.07105466876841146
1.8697951319627464,,0.035005838,0.037643023,0.30579108,-0.97839046,-0.20373902,0.03525136,-0.051494867,0.40521663,0.9127693,-0.20025113,0.8912293,-0.4069515,,-0.0020441487,0.07202403,0.53537273,0.25993794,-0.7799678,0.56928253,-0.9326172,-0.049957503,0.3573926,-0.25031474,-0.62382233,-0.7403971,,0.024792254,-0.017026769,0.15674934,-0.9904825,0.11783222,0.07113375,0.12319701,0.9894341,0.07643719,-0.061375394,0.08447317,-0.99453354,,-0.47315639773798723,-0.08100374511774089,0.12147922477000002,0.5326124564506919,0.5076045966286112,0.5197521663145613,0.5117569591986969,,-1.4900395262186255,-0.2269865646392068,0.07758166021000001,0.0,0.0057387329901484995,0.030197270084770376,0.07105466876841146
1.8978165009757504,,0.035005838,0.037643023,0.30579108,-0.97839046,-0.20373902,0.03525136,-0.051494867,0.40521663,0.9127693,-0.20025113,0.8912293,-0.4069515,,-0.002044849,0.07202399,0.53537214,0.25993922,-0.7799716,0.5692767,-0.9326172,-0.049961776,0.3573922,-0.25031367,-0.62381727,-0.74040174,,0.024792254,-0.017026769,0.15674934,-0.9904825,0.11783222,0.07113375,0.12319701,0.9894341,0.07643719,-0.061375394,0.08447317,-0.99453354,,-0.47315639773798723,-0.08100374511774089,0.12147922477000002,0.5326124564506919,0.5076045966286112,0.5197521663145613,0.5117569591986969,,-1.4900318034857511,-0.2269865646392068,0.07758166021000001,0.0,0.0057387329901484995,0.030197270084770376,0.07105466876841146
1.9257085009594448,,0.035005838,0.037643023,0.30579108,-0.97839046,-0.20373902,0.03525136,-0.051494867,0.40521663,0.9127693,-0.20025113,0.8912293,-0.4069515,,-0.002044849,0.07202399,0.53537214,0.25993922,-0.7799716,0.5692767,-0.9326172,-0.049961776,0.3573922,-0.25031367,-0.62381727,-0.74040174,,0.024792254,-0.017026769,0.15674934,-0.9904825,0.11783222,0.07113375,0.12319701,0.9894341,0.07643719,-0.061375394,0.08447317,-0.99453354,,-0.47315639773798723,-0.08100374511774089,0.12147922477000002,0.5326124564506919,0.5076045966286112,0.5197521663145613,0.5117569591986969,,-1.4900318034857511,-0.2269865646392068,0.07758166021000001,0.0,0.0057387329901484995,0.030197270084770376,0.07105466876841146
1.953681628976483,,0.035005838,0.037643023,0.30579108,-0.97839046,-0.20373902,0.03525136,-0.051494867,0.40521663,0.9127693,-0.20025113,0.8912293,-0.4069515,,-0.0020455495,0.07202395,0.5353716,0.25994053,-0.77997553,0.5692708,-0.932617,-0.049966052,0.35739177,-0.25031254,-0.6238121,-0.74040645,,0.024792254,-0.017026769,0.15674934,-0.9904825,0.11783222,0.07113375,0.12319701,0.9894341,0.07643719,-0.061375394,0.08447317,-0.99453354,,-0.47315639773798723,-0.08100374511774089,0.12147922477000002,0.5326124564506919,0.5076045966286112,0.5197521663145613,0.5117569591986969,,-1.4900240807528768,-0.2269865646392068,0.07758166021000001,0.0,0.0057387329901484995,0.030197270084770376,0.07105466876841146
1.9787694729748182,,0.035005838,0.037643023,0.30579108,-0.97839046,-0.20373902,0.03525136,-0.051494867,0.40521663,0.9127693,-0.20025113,0.8912293,-0.4069515,,-0.0020446088,0.0720231,0.5353719,0.25993466,-0.7799717,0.5692786,-0.93261987,-0.049961574,0.35738495,-0.2503081,-0.6238172,-0.74040365,,0.024792254,-0.017026769,0.15674934,-0.9904825,0.11783222,0.07113375,0.12319701,0.9894341,0.07643719,-0.061375394,0.08447317,-0.99453354,,-0.47315639773798723,-0.08100374511774089,0.12147922477000002,0.5326124564506919,0.5076045966286112,0.5197521663145613,0.5117569591986969,,-1.4900318034857511,-0.22699428737208102,0.07758166021000001,0.0,0.0057387329901484995,0.030197270084770376,0.07105466876841146
2.0042318829800934,,0.035005838,0.037643023,0.30579108,-0.97839046,-0.20373902,0.03525136,-0.051494867,0.40521663,0.9127693,-0.20025113,0.8912293,-0.4069515,,-0.0020439066,0.07202314,0.5353725,0.25993335,-0.77996784,0.5692845,-0.9326199,-0.049957294,0.3573854,-0.25030917,-0.62382233,-0.74039894,,0.024792254,-0.017026769,0.15674934,-0.9904825,0.11783222,0.07113375,0.12319701,0.9894341,0.07643719,-0.061375394,0.08447317,-0.99453354,,-0.47315639773798723,-0.08100374511774089,0.12147922477000002,0.5326124564506919,0.5076045966286112,0.5197521663145613,0.5117569591986969,,-1.4900395262186255,-0.22699428737208102,0.07758166021000001,0.0,0.0057387329901484995,0.030197270084770376,0.07105466876841146
2.034120765980333,,0.035005838,0.037643023,0.30579108,-0.97839046,-0.20373902,0.03525136,-0.051494867,0.40521663,0.9127693,-0.20025113,0.8912293,-0.4069515,,-0.0020441487,0.07202403,0.53537273,0.25993794,-0.7799678,0.56928253,-0.9326172,-0.049957503,0.3573926,-0.25031474,-0.62382233,-0.7403971,,0.024792254,-0.017026769,0.15674934,-0.9904825,0.11783222,0.07113375,0.12319701,0.9894341,0.07643719,-0.061375394,0.08447317,-0.99453354,,-0.47315639773798723,-0.08100374511774089,0.12147922477000002,0.5326124564506919,0.5076045966286112,0.5197521663145613,0.5117569591986969,,-1.4900395262186255,-0.2269865646392068,0.07758166021000001,0.0,0.0057387329901484995,0.030197270084770376,0.07105466876841146
2.0592575569753535,,0.035005838,0.037643023,0.30579108,-0.97839046,-0.20373902,0.03525136,-0.051494867,0.40521663,0.9127693,-0.20025113,0.8912293,-0.4069515,,-0.002044849,0.07202399,0.53537214,0.25993922,-0.7799716,0.5692767,-0.9326172,-0.049961776,0.3573922,-0.25031367,-0.62381727,-0.74040174,,0.024792254,-0.017026769,0.15674934,-0.9904825,0.11783222,0.07113375,0.12319701,0.9894341,0.07643719,-0.061375394,0.08447317,-0.99453354,,-0.47315639773798723,-0.08100374511774089,0.12147922477000002,0.5326124564506919,0.5076045966286112,0.5197521663145613,0.5117569591986969,,-1.4900318034857511,-0.2269865646392068,0.07758166021000001,0.0,0.0057387329901484995,0.030197270084770376,0.07105466876841146
2.0851074469974265,,0.035005838,0.037643023,0.30579108,-0.97839046,-0.20373902,0.03525136,-0.051494867,0.40521663,0.9127693,-0.20025113,0.8912293,-0.4069515,,-0.002044849,0.07202399,0.53537214,0.25993922,-0.7799716,0.5692767,-0.9326172,-0.049961776,0.3573922,-0.25031367,-0.62381727,-0.74040174,,0.024792254,-0.017026769,0.15674934,-0.9904825,0.11783222,0.07113375,0.12319701,0.9894341,0.07643719,-0.061375394,0.08447317,-0.99453354,,-0.47315639773798723,-0.08100374511774089,0.12147922477000002,0.5326124564506919,0.5076045966286112,0.5197521663145613,0.5117569591986969,,-1.4900318034857511,-0.2269865646392068,0.07758166021000001,0.0,0.0057387329901484995,0.030197270084770376,0.07105466876841146
2.1102602219907567,,0.035005838,0.037643023,0.30579108,-0.97839046,-0.20373902,0.03525136,-0.051494867,0.40521663,0.9127693,-0.20025113,0.8912293,-0.4069515,,-0.0020455495,0.07202395,0.5353716,0.25994053,-0.77997553,0.5692708,-0.932617,-0.049966052,0.35739177,-0.25031254,-0.6238121,-0.74040645,,0.024792254,-0.017026769,0.15674934,-0.9904825,0.11783222,0.07113375,0.12319701,0.9894341,0.07643719,-0.061375394,0.08447317,-0.99453354,,-0.47315639773798723,-0.08100374511774089,0.12147922477000002,0.5326124564506919,0.5076045966286112,0.5197521663145613,0.5117569591986969,,-1.4900240807528768,-0.2269865646392068,0.07758166021000001,0.0,0.0057387329901484995,0.030197270084770376,0.07105466876841146
2.1376105119707063,,0.035005838,0.037643023,0.30579108,-0.97839046,-0.20373902,0.03525136,-0.051494867,0.40521663,0.9127693,-0.20025113,0.8912293,-0.4069515,,-0.0020441487,0.07202403,0.53537273,0.25993794,-0.7799678,0.56928253,-0.9326172,-0.049957503,0.3573926,-0.25031474,-0.62382233,-0.7403971,,0.024792254,-0.017026769,0.15674934,-0.9904825,0.11783222,0.07113375,0.12319701,0.9894341,0.07643719,-0.061375394,0.08447317,-0.99453354,,-0.47315639773798723,-0.08100374511774089,0.12147922477000002,0.5326124564506919,0.5076045966286112,0.5197521663145613,0.5117569591986969,,-1.4900395262186255,-0.2269865646392068,0.07758166021000001,0.0,0.0057387329901484995,0.030197270084770376,0.07105466876841146
2.1645493939868174,,0.035005838,0.037643023,0.30579108,-0.97839046,-0.20373902,0.03525136,-0.051494867,0.40521663,0.9127693,-0.20025113,0.8912293,-0.4069515,,-0.0020446088,0.0720231,0.5353719,0.25993466,-0.7799717,0.5692786,-0.93261987,-0.049961574,0.35738495,-0.2503081,-0.6238172,-0.74040365,,0.024792254,-0.017026769,0.15674934,-0.9904825,0.11783222,0.07113375,0.12319701,0.9894341,0.07643719,-0.061375394,0.08447317,-0.99453354,,-0.47315639773798723,-0.08100374511774089,0.12147922477000002,0.5326124564506919,0.5076045966286112,0.5197521663145613,0.5117569591986969,,-1.4900318034857511,-0.22699428737208102,0.07758166021000001,0.0,0.0057387329901484995,0.030197270084770376,0.07105466876841146
2.1907144069555216,,0.035005838,0.037643023,0.30579108,-0.97839046,-0.20373902,0.03525136,-0.051494867,0.40521663,0.9127693,-0.20025113,0.8912293,-0.4069515,,-0.0020439066,0.07202314,0.5353725,0.25993335,-0.77996784,0.5692845,-0.9326199,-0.049957294,0.3573854,-0.25030917,-0.62382233,-0.74039894,,0.024792254,-0.017026769,0.15674934,-0.9904825,0.11783222,0.07113375,0.12319701,0.9894341,0.07643719,-0.061375394,0.08447317,-0.99453354,,-0.47315639773798723,-0.08100374511774089,0.12147922477000002,0.5326124564506919,0.5076045966286112,0.5197521663145613,0.5117569591986969,,-1.4900395262186255,-0.22699428737208102,0.07758166021000001,0.0,0.0057387329901484995,0.030197270084770376,0.07105466876841146
2.216794529987965,,0.035005838,0.037643023,0.30579108,-0.97839046,-0.20373902,0.03525136,-0.051494867,0.40521663,0.9127693,-0.20025113,0.8912293,-0.4069515,,-0.002044849,0.07202399,0.53537214,0.25993922,-0.7799716,0.5692767,-0.9326172,-0.049961776,0.3573922,-0.25031367,-0.62381727,-0.74040174,,0.024792254,-0.017026769,0.15674934,-0.9904825,0.11783222,0.07113375,0.12319701,0.9894341,0.07643719,-0.061375394,0.08447317,-0.99453354,,-0.47315639773798723,-0.08100374511774089,0.12147922477000002,0.5326124564506919,0.5076045966286112,0.5197521663145613,0.5117569591986969,,-1.4900318034857511,-0.2269865646392068,0.07758166021000001,0.0,0.0057387329901484995,0.030197270084770376,0.07105466876841146
2.241433587973006,,0.035006374,0.037642553,0.30579057,-0.9783895,-0.20374298,0.035254624,-0.051494706,0.405222,0.91276693,-0.20025577,0.89122593,-0.4069565,,-0.0020455495,0.07202395,0.5353716,0.25994053,-0.77997553,0.5692708,-0.932617,-0.049966052,0.35739177,-0.25031254,-0.6238121,-0.74040645,,0.024792254,-0.017026769,0.15674934,-0.9904825,0.11783222,0.07113375,0.12319701,0.9894341,0.07643719,-0.061375394,0.08447317,-0.99453354,,-0.4731641204708615,-0.08100374511774089,0.12147922477000002,0.5326124564506919,0.5076045966286112,0.5197521663145613,0.5117569591986969,,-1.4900240807528768,-0.2269865646392068,0.07758166021000001,0.0,0.0057387329901484995,0.030197270084770376,0.07105466876841146
2.2699321739492007,,0.035005838,0.037643023,0.30579108,-0.97839046,-0.20373902,0.03525136,-0.051494867,0.40521663,0.9127693,-0.20025113,0.8912293,-0.4069515,,-0.0020455495,0.07202395,0.5353716,0.25994053,-0.77997553,0.5692708,-0.932617,-0.049966052,0.35739177,-0.25031254,-0.6238121,-0.74040645,,0.024792254,-0.017026769,0.15674934,-0.9904825,0.11783222,0.07113375,0.12319701,0.9894341,0.07643719,-0.061375394,0.08447317,-0.99453354,,-0.47315639773798723,-0.08100374511774089,0.12147922477000002,0.5326124564506919,0.5076045966286112,0.5197521663145613,0.5117569591986969,,-1.4900240807528768,-0.2269865646392068,0.07758166021000001,0.0,0.0057387329901484995,0.030197270084770376,0.07105466876841146
2.2985231339698657,,0.035005838,0.037643023,0.30579108,-0.97839046,-0.20373902,0.03525136,-0.051494867,0.40521663,0.9127693,-0.20025113,0.8912293,-0.4069515,,-0.0020446088,0.0720231,0.5353719,0.25993466,-0.7799717,0.5692786,-0.93261987,-0.049961574,0.35738495,-0.2503081,-0.6238172,-0.74040365,,0.024792254,-0.017026769,0.15674934,-0.9904825,0.11783222,0.07113375,0.12319701,0.9894341,0.07643719,-0.061375394,0.08447317,-0.99453354,,-0.47315639773798723,-0.08100374511774089,0.12147922477000002,0.5326124564506919,0.5076045966286112,0.5197521663145613,0.5117569591986969,,-1.4900318034857511,-0.22699428737208102,0.07758166021000001,0.0,0.0057387329901484995,0.030197270084770376,0.07105466876841146
2.327443160000257,,0.035005838,0.037643023,0.30579108,-0.97839046,-0.20373902,0.03525136,-0.051494867,0.40521663,0.9127693,-0.20025113,0.8912293,-0.4069515,,-0.0020446088,0.0720231,0.5353719,0.25993466,-0.7799717,0.5692786,-0.93261987,-0.049961574,0.35738495,-0.2503081,-0.6238172,-0.74040365,,0.024792254,-0.017026769,0.15674934,-0.9904825,0.11783222,0.07113375,0.12319701,0.9894341,0.07643719,-0.061375394,0.08447317,-0.99453354,,-0.47315639773798723,-0.08100374511774089,0.12147922477000002,0.5326124564506919,0.5076045966286112,0.5197521663145613,0.5117569591986969,,-1.4900318034857511,-0.22699428737208102,0.07758166021000001,0.0,0.0057387329901484995,0.030197270084770376,0.07105466876841146
2.351687190006487,,0.03500691,0.037642077,0.30579007,-0.9783885,-0.20374691,0.03525788,-0.051494565,0.40522736,0.9127646,-0.2002604,0.8912226,-0.40696153,,-0.0020441487,0.07202403,0.53537273,0.25993794,-0.7799678,0.56928253,-0.9326172,-0.049957503,0.3573926,-0.25031474,-0.62382233,-0.7403971,,0.024792254,-0.017026769,0.15674934,-0.9904825,0.11783222,0.07113375,0.12319701,0.9894341,0.07643719,-0.061375394,0.08447317,-0.99453354,,-0.47317184320373573,-0.08100374511774089,0.12147922477000002,0.5326124564506919,0.5076045966286112,0.5197521663145613,0.5117569591986969,,-1.4900395262186255,-0.2269865646392068,0.07758166021000001,0.0,0.0057387329901484995,0.030197270084770376,0.07105466876841146
2.3807102569844574,,0.035006374,0.037642553,0.30579057,-0.9783895,-0.20374298,0.035254624,-0.051494706,0.405222,0.91276693,-0.20025577,0.89122593,-0.4069565,,-0.0020441487,0.07202403,0.53537273,0.25993794,-0.7799678,0.56928253,-0.9326172,-0.049957503,0.3573926,-0.25031474,-0.62382233,-0.7403971,,0.024792254,-0.017026769,0.15674934,-0.9904825,0.11783222,0.07113375,0.12319701,0.9894341,0.07643719,-0.061375394,0.08447317,-0.99453354,,-0.4731641204708615,-0.08100374511774089,0.12147922477000002,0.5326124564506919,0.5076045966286112,0.5197521663145613,0.5117569591986969,,-1.4900395262186255,-0.2269865646392068,0.07758166021000001,0.0,0.0057387329901484995,0.030197270084770376,0.07105466876841146
2.404866447963286,,0.035005838,0.037643023,0.30579108,-0.97839046,-0.20373902,0.03525136,-0.051494867,0.40521663,0.9127693,-0.20025113,0.8912293,-0.4069515,,-0.002044849,0.07202399,0.53537214,0.25993922,-0.7799716,0.5692767,-0.9326172,-0.049961776,0.3573922,-0.25031367,-0.62381727,-0.74040174,,0.024792254,-0.017026769,0.15674934,-0.9904825,0.11783222,0.07113375,0.12319701,0.9894341,0.07643719,-0.061375394,0.08447317,-0.99453354,,-0.47315639773798723,-0.08100374511774089,0.12147922477000002,0.5326124564506919,0.5076045966286112,0.5197521663145613,0.5117569591986969,,-1.4900318034857511,-0.2269865646392068,0.07758166021000001,0.0,0.0057387329901484995,0.030197270084770376,0.07105466876841146
2.4331078579998575,,0.035008807,0.037642673,0.30579108,-0.97835344,-0.20386784,0.035532106,-0.05133321,0.4054184,0.91268885,-0.20047325,0.89110804,-0.40710756,,-0.0020455495,0.07202395,0.5353716,0.25994053,-0.77997553,0.5692708,-0.932617,-0.049966052,0.35739177,-0.25031254,-0.6238121,-0.74040645,,0.024792254,-0.017026769,0.15674934,-0.9904825,0.11783222,0.07113375,0.12319701,0.9894341,0.07643719,-0.061375394,0.08447317,-0.99453354,,-0.4731641204708615,-0.08100374511774089,0.12147922477000002,0.5326124564506919,0.5078778696281421,0.5195293305071684,0.5117569591986969,,-1.4900240807528768,-0.2269865646392068,0.07758166021000001,0.0,0.0057387329901484995,0.030197270084770376,0.07105466876841146
2.458138827991206,,0.034997888,0.037652295,0.3057968,-0.9783538,-0.20386244,0.035553154,-0.051317517,0.40544617,0.9126773,-0.2004755,0.89109665,-0.40713143,,-0.0020630192,0.07200553,0.53537744,0.2599246,-0.7799452,0.56931955,-0.9326227,-0.0499363,0.35738105,-0.2503079,-0.6238524,-0.7403741,,0.024800537,-0.017028503,0.15675105,-0.99048316,0.117827035,0.07113316,0.123191774,0.9894347,0.076437265,-0.061375245,0.08447286,-0.9945336,,-0.47315639773798723,-0.08100374511774089,0.12147922477000002,0.5326124564506919,0.5078778696281421,0.5195293305071684,0.5117569591986969,,-1.4900240807528768,-0.2269865646392068,0.07758166021000001,0.0,0.0057387329901484995,0.030197270084770376,0.07105466876841146
2.483665099949576,,0.034998424,0.037651822,0.30579627,-0.9783529,-0.20386639,0.035556417,-0.051317368,0.4054515,0.91267496,-0.20048013,0.8910934,-0.40713644,,-0.0020623188,0.07200556,0.53537804,0.25992328,-0.7799413,0.5693254,-0.9326228,-0.04993202,0.35738146,-0.250309,-0.6238575,-0.74036944,,0.024800537,-0.017028503,0.15675105,-0.99048316,0.117827035,0.07113316,0.123191774,0.9894347,0.076437265,-0.061375245,0.08447286,-0.9945336,,-0.4731641204708615,-0.08100374511774089,0.12147922477000002,0.5326124564506919,0.5078778696281421,0.5195293305071684,0.5117569591986969,,-1.4900318034857511,-0.2269865646392068,0.07758166021000001,0.0,0.0057387329901484995,0.030197270084770376,0.07105466876841146
2.5133280379814096,,0.034998424,0.037651822,0.30579627,-0.9783529,-0.20386639,0.035556417,-0.051317368,0.4054515,0.91267496,-0.20048013,0.8910934,-0.40713644,,-0.00206138,0.072004706,0.5353784,0.25991744,-0.77993757,0.56933326,-0.9326256,-0.049927525,0.3573747,-0.25030452,-0.6238626,-0.74036664,,0.024800537,-0.017028503,0.15675105,-0.99048316,0.117827035,0.07113316,0.123191774,0.9894347,0.076437265,-0.061375245,0.08447286,-0.9945336,,-0.4731641204708615,-0.08100374511774089,0.12147922477000002,0.5326124564506919,0.5078778696281421,0.5195293305071684,0.5117569591986969,,-1.4900395262186255,-0.22699428737208102,0.07758166021000001,0.0,0.0057387329901484995,0.030197270084770376,0.07105466876841146
2.5382627369835973,,0.034997888,0.037652295,0.3057968,-0.9783538,-0.20386244,0.035553154,-0.051317517,0.40544617,0.9126773,-0.2004755,0.89109665,-0.40713143,,-0.00206138,0.072004706,0.5353784,0.25991744,-0.77993757,0.56933326,-0.9326256,-0.049927525,0.3573747,-0.25030452,-0.6238626,-0.74036664,,0.024800537,-0.017028503,0.15675105,-0.99048316,0.117827035,0.07113316,0.123191774,0.9894347,0.076437265,-0.061375245,0.08447286,-0.9945336,,-0.47315639773798723,-0.08100374511774089,0.12147922477000002,0.5326124564506919,0.5078778696281421,0.5195293305071684,0.5117569591986969,,-1.4900395262186255,-0.22699428737208102,0.07758166021000001,0.0,0.0057387329901484995,0.030197270084770376,0.07105466876841146
2.5679158470011316,,0.03499896,0.03765136,0.30579576,-0.9783519,-0.20387036,0.035559684,-0.0513172,0.40545687,0.9126725,-0.20048477,0.89109,-0.40714148,,-0.0020616222,0.07200559,0.53537863,0.259922,-0.77993745,0.5693313,-0.9326228,-0.04992775,0.35738188,-0.25031006,-0.6238627,-0.74036473,,0.024800537,-0.017028503,0.15675105,-0.99048316,0.117827035,0.07113316,0.123191774,0.9894347,0.076437265,-0.061375245,0.08447286,-0.9945336,,-0.47317184320373573,-0.08100374511774089,0.12147922477000002,0.5326124564506919,0.5078778696281421,0.5195293305071684,0.5117569591986969,,-1.4900395262186255,-0.2269865646392068,0.07758166021000001,0.0,0.0057387329901484995,0.030197270084770376,0.07105466876841146
2.5933765129884705,,0.034997888,0.037652295,0.3057968,-0.9783538,-0.20386244,0.035553154,-0.051317517,0.40544617,0.9126773,-0.2004755,0.89109665,-0.40713143,,-0.0020630192,0.07200553,0.53537744,0.2599246,-0.7799452,0.56931955,-0.9326227,-0.0499363,0.35738105,-0.2503079,-0.6238524,-0.7403741,,0.024800537,-0.017028503,0.15675105,-0.99048316,0.117827035,0.07113316,0.123191774,0.9894347,0.076437265,-0.061375245,0.08447286,-0.9945336,,-0.47315639773798723,-0.08100374511774089,0.12147922477000002,0.5326124564506919,0.5078778696281421,0.5195293305071684,0.5117569591986969,,-1.4900240807528768,-0.2269865646392068,0.07758166021000001,0.0,0.0057387329901484995,0.030197270084770376,0.07105466876841146
2.6215002340031788,,0.034998424,0.037651822,0.30579627,-0.9783529,-0.20386639,0.035556417,-0.051317368,0.4054515,0.91267496,-0.20048013,0.8910934,-0.40713644,,-0.0020630192,0.07200553,0.53537744,0.2599246,-0.7799452,0.56931955,-0.9326227,-0.0499363,0.35738105,-0.2503079,-0.6238524,-0.7403741,,0.024800537,-0.017028503,0.15675105,-0.99048316,0.117827035,0.07113316,0.123191774,0.9894347,0.076437265,-0.061375245,0.08447286,-0.9945336,,-0.4731641204708615,-0.08100374511774089,0.12147922477000002,0.5326124564506919,0.5078778696281421,0.5195293305071684,0.5117569591986969,,-1.4900240807528768,-0.2269865646392068,0.07758166021000001,0.0,0.0057387329901484995,0.030197270084770376,0.07105466876841146
2.6480397330014966,,0.03499896,0.03765136,0.30579576,-0.9783519,-0.20387036,0.035559684,-0.0513172,0.40545687,0.9126725,-0.20048477,0.89109,-0.40714148,,-0.0020630192,0.07200553,0.53537744,0.2599246,-0.7799452,0.56931955,-0.9326227,-0.0499363,0.35738105,-0.2503079,-0.6238524,-0.7403741,,0.024800537,-0.017028503,0.15675105,-0.99048316,0.117827035,0.07113316,0.123191774,0.9894347,0.076437265,-0.061375245,0.08447286,-0.9945336,,-0.47317184320373573,-0.08100374511774089,0.12147922477000002,0.5326124564506919,0.5078778696281421,0.5195293305071684,0.5117569591986969,,-1.4900240807528768,-0.2269865646392068,0.07758166021000001,0.0,0.0057387329901484995,0.030197270084770376,0.07105466876841146
2.671941728971433,,0.034997888,0.037652295,0.3057968,-0.9783538,-0.20386244,0.035553154,-0.051317517,0.40544617,0.9126773,-0.2004755,0.89109665,-0.40713143,,-0.0020620804,0.072004676,0.5353778,0.25991875,-0.77994144,0.5693274,-0.93262553,-0.049931798,0.35737425,-0.2503034,-0.6238575,-0.74037135,,0.024800537,-0.017028503,0.15675105,-0.99048316,0.117827035,0.07113316,0.123191774,0.9894347,0.076437265,-0.061375245,0.08447286,-0.9945336,,-0.47315639773798723,-0.08100374511774089,0.12147922477000002,0.5326124564506919,0.5078778696281421,0.5195293305071684,0.5117569591986969,,-1.4900318034857511,-0.22699428737208102,0.07758166021000001,0.0,0.0057387329901484995,0.030197270084770376,0.07105466876841146
2.699443399964366,,0.034998424,0.037651822,0.30579627,-0.9783529,-0.20386639,0.035556417,-0.051317368,0.4054515,0.91267496,-0.20048013,0.8910934,-0.40713644,,-0.0020620804,0.072004676,0.5353778,0.25991875,-0.77994144,0.5693274,-0.93262553,-0.049931798,0.35737425,-0.2503034,-0.6238575,-0.74037135,,0.024800537,-0.017028503,0.15675105,-0.99048316,0.117827035,0.07113316,0.123191774,0.9894347,0.076437265,-0.061375245,0.08447286,-0.9945336,,-0.4731641204708615,-0.08100374511774089,0.12147922477000002,0.5326124564506919,0.5078778696281421,0.5195293305071684,0.5117569591986969,,-1.4900318034857511,-0.22699428737208102,0.07758166021000001,0.0,0.0057387329901484995,0.030197270084770376,0.07105466876841146
2.725401275965851,,0.034998424,0.037651822,0.30579627,-0.9783529,-0.20386639,0.035556417,-0.051317368,0.4054515,0.91267496,-0.20048013,0.8910934,-0.40713644,,-0.0020623188,0.07200556,0.53537804,0.25992328,-0.7799413,0.5693254,-0.9326228,-0.04993202,0.35738146,-0.250309,-0.6238575,-0.74036944,,0.024800537,-0.017028503,0.15675105,-0.99048316,0.117827035,0.07113316,0.123191774,0.9894347,0.076437265,-0.061375245,0.08447286,-0.9945336,,-0.4731641204708615,-0.08100374511774089,0.12147922477000002,0.5326124564506919,0.5078778696281421,0.5195293305071684,0.5117569591986969,,-1.4900318034857511,-0.2269865646392068,0.07758166021000001,0.0,0.0057387329901484995,0.030197270084770376,0.07105466876841146
2.753581779950764,,0.034997888,0.037652295,0.3057968,-0.9783538,-0.20386244,0.035553154,-0.051317517,0.40544617,0.9126773,-0.2004755,0.89109665,-0.40713143,,-0.0020630192,0.07200553,0.53537744,0.2599246,-0.7799452,0.56931955,-0.9326227,-0.0499363,0.35738105,-0.2503079,-0.6238524,-0.7403741,,0.024800537,-0.017028503,0.15675105,-0.99048316,0.117827035,0.07113316,0.123191774,0.9894347,0.076437265,-0.061375245,0.08447286,-0.9945336,,-0.47315639773798723,-0.08100374511774089,0.12147922477000002,0.5326124564506919,0.5078778696281421,0.5195293305071684,0.5117569591986969,,-1.4900240807528768,-0.2269865646392068,0.07758166021000001,0.0,0.0057387329901484995,0.030197270084770376,0.07105466876841146
2.780626908002887,,0.034997888,0.037652295,0.3057968,-0.9783538,-0.20386244,0.035553154,-0.051317517,0.40544617,0.9126773,-0.2004755,0.89109665,-0.40713143,,-0.0020630192,0.07200553,0.53537744,0.2599246,-0.7799452,0.56931955,-0.9326227,-0.0499363,0.35738105,-0.2503079,-0.6238524,-0.7403741,,0.024800537,-0.017028503,0.15675105,-0.99048316,0.117827035,0.07113316,0.123191774,0.9894347,0.076437265,-0.061375245,0.08447286,-0.9945336,,-0.47315639773798723,-0.08100374511774089,0.12147922477000002,0.5326124564506919,0.5078778696281421,0.5195293305071684,0.5117569591986969,,-1.4900240807528768,-0.2269865646392068,0.07758166021000001,0.0,0.0057387329901484995,0.030197270084770376,0.07105466876841146
2.8046590570011176,,0.034997888,0.037652295,0.3057968,-0.9783538,-0.20386244,0.035553154,-0.051317517,0.40544617,0.9126773,-0.2004755,0.89109665,-0.40713143,,-0.0020630192,0.07200553,0.53537744,0.2599246,-0.7799452,0.56931955,-0.9326227,-0.0499363,0.35738105,-0.2503079,-0.6238524,-0.7403741,,0.024800537,-0.017028503,0.15675105,-0.99048316,0.117827035,0.07113316,0.123191774,0.9894347,0.076437265,-0.061375245,0.08447286,-0.9945336,,-0.47315639773798723,-0.08100374511774089,0.12147922477000002,0.5326124564506919,0.5078778696281421,0.5195293305071684,0.5117569591986969,,-1.4900240807528768,-0.2269865646392068,0.07758166021000001,0.0,0.0057387329901484995,0.030197270084770376,0.07105466876841146
2.8349890199606307,,0.034998424,0.037651822,0.30579627,-0.9783529,-0.20386639,0.035556417,-0.051317368,0.4054515,0.91267496,-0.20048013,0.8910934,-0.40713644,,-0.0020623188,0.07200556,0.53537804,0.25992328,-0.7799413,0.5693254,-0.9326228,-0.04993202,0.35738146,-0.250309,-0.6238575,-0.74036944,,0.024800537,-0.017028503,0.15675105,-0.99048316,0.117827035,0.07113316,0.123191774,0.9894347,0.076437265,-0.061375245,0.08447286,-0.9945336,,-0.4731641204708615,-0.08100374511774089,0.12147922477000002,0.5326124564506919,0.5078778696281421,0.5195293305071684,0.5117569591986969,,-1.4900318034857511,-0.2269865646392068,0.07758166021000001,0.0,0.0057387329901484995,0.030197270084770376,0.07105466876841146
2.8623972149798647,,0.03499896,0.03765136,0.30579576,-0.9783519,-0.20387036,0.035559684,-0.0513172,0.40545687,0.9126725,-0.20048477,0.89109,-0.40714148,,-0.0020616222,0.07200559,0.53537863,0.259922,-0.77993745,0.5693313,-0.9326228,-0.04992775,0.35738188,-0.25031006,-0.6238627,-0.74036473,,0.024800537,-0.017028503,0.15675105,-0.99048316,0.117827035,0.07113316,0.123191774,0.9894347,0.076437265,-0.061375245,0.08447286,-0.9945336,,-0.47317184320373573,-0.08100374511774089,0.12147922477000002,0.5326124564506919,0.5078778696281421,0.5195293305071684,0.5117569591986969,,-1.4900395262186255,-0.2269865646392068,0.07758166021000001,0.0,0.0057387329901484995,0.030197270084770376,0.07105466876841146
2.8863531289971434,,0.034998424,0.037651822,0.30579627,-0.9783529,-0.20386639,0.035556417,-0.051317368,0.4054515,0.91267496,-0.20048013,0.8910934,-0.40713644,,-0.0020616222,0.07200559,0.53537863,0.259922,-0.77993745,0.5693313,-0.9326228,-0.04992775,0.35738188,-0.25031006,-0.6238627,-0.74036473,,0.024800537,-0.017028503,0.15675105,-0.99048316,0.117827035,0.07113316,0.123191774,0.9894347,0.076437265,-0.061375245,0.08447286,-0.9945336,,-0.4731641204708615,-0.08100374511774089,0.12147922477000002,0.5326124564506919,0.5078778696281421,0.5195293305071684,0.5117569591986969,,-1.4900395262186255,-0.2269865646392068,0.07758166021000001,0.0,0.0057387329901484995,0.030197270084770376,0.07105466876841146
2.9127334829536267,,0.034997888,0.037652295,0.3057968,-0.9783538,-0.20386244,0.035553154,-0.051317517,0.40544617,0.9126773,-0.2004755,0.89109665,-0.40713143,,-0.0020616222,0.07200559,0.53537863,0.259922,-0.77993745,0.5693313,-0.9326228,-0.04992775,0.35738188,-0.25031006,-0.6238627,-0.74036473,,0.024800537,-0.017028503,0.15675105,-0.99048316,0.117827035,0.07113316,0.123191774,0.9894347,0.076437265,-0.061375245,0.08447286,-0.9945336,,-0.47315639773798723,-0.08100374511774089,0.12147922477000002,0.5326124564506919,0.5078778696281421,0.5195293305071684,0.5117569591986969,,-1.4900395262186255,-0.2269865646392068,0.07758166021000001,0.0,0.0057387329901484995,0.030197270084770376,0.07105466876841146
2.937263055006042,,0.034997888,0.037652295,0.3057968,-0.9783538,-0.20386244,0.035553154,-0.051317517,0.40544617,0.9126773,-0.2004755,0.89109665,-0.40713143,,-0.0020630192,0.07200553,0.53537744,0.2599246,-0.7799452,0.56931955,-0.9326227,-0.0499363,0.35738105,-0.2503079,-0.6238524,-0.7403741,,0.024800537,-0.017028503,0.15675105,-0.99048316,0.117827035,0.07113316,0.123191774,0.9894347,0.076437265,-0.061375245,0.08447286,-0.9945336,,-0.47315639773798723,-0.08100374511774089,0.12147922477000002,0.5326124564506919,0.5078778696281421,0.5195293305071684,0.5117569591986969,,-1.4900240807528768,-0.2269865646392068,0.07758166021000001,0.0,0.0057387329901484995,0.030197270084770376,0.07105466876841146
2.964341846993193,,0.034997888,0.037652295,0.3057968,-0.9783538,-0.20386244,0.035553154,-0.051317517,0.40544617,0.9126773,-0.2004755,0.89109665,-0.40713143,,-0.0020630192,0.07200553,0.53537744,0.2599246,-0.7799452,0.56931955,-0.9326227,-0.0499363,0.35738105,-0.2503079,-0.6238524,-0.7403741,,0.024800537,-0.017028503,0.15675105,-0.99048316,0.117827035,0.07113316,0.123191774,0.9894347,0.076437265,-0.061375245,0.08447286,-0.9945336,,-0.47315639773798723,-0.08100374511774089,0.12147922477000002,0.5326124564506919,0.5078778696281421,0.5195293305071684,0.5117569591986969,,-1.4900240807528768,-0.2269865646392068,0.07758166021000001,0.0,0.0057387329901484995,0.030197270084770376,0.07105466876841146
2.98811359499814,,0.034998424,0.037651822,0.30579627,-0.9783529,-0.20386639,0.035556417,-0.051317368,0.4054515,0.91267496,-0.20048013,0.8910934,-0.40713644,,-0.0020630192,0.07200553,0.53537744,0.2599246,-0.7799452,0.56931955,-0.9326227,-0.0499363,0.35738105,-0.2503079,-0.6238524,-0.7403741,,0.024800537,-0.017028503,0.15675105,-0.99048316,0.117827035,0.07113316,0.123191774,0.9894347,0.076437265,-0.061375245,0.08447286,-0.9945336,,-0.4731641204708615,-0.08100374511774089,0.12147922477000002,0.5326124564506919,0.5078778696281421,0.5195293305071684,0.5117569591986969,,-1.4900240807528768,-0.2269865646392068,0.07758166021000001,0.0,0.0057387329901484995,0.030197270084770376,0.07105466876841146
3.01550389197655,,0.03499896,0.03765136,0.30579576,-0.9783519,-0.20387036,0.035559684,-0.0513172,0.40545687,0.9126725,-0.20048477,0.89109,-0.40714148,,-0.0020623188,0.07200556,0.53537804,0.25992328,-0.7799413,0.5693254,-0.9326228,-0.04993202,0.35738146,-0.250309,-0.6238575,-0.74036944,,0.024800537,-0.017028503,0.15675105,-0.99048316,0.117827035,0.07113316,0.123191774,0.9894347,0.076437265,-0.061375245,0.08447286,-0.9945336,,-0.47317184320373573,-0.08100374511774089,0.12147922477000002,0.5326124564506919,0.5078778696281421,0.5195293305071684,0.5117569591986969,,-1.4900318034857511,-0.2269865646392068,0.07758166021000001,0.0,0.0057387329901484995,0.030197270084770376,0.07105466876841146
3.0385362569941208,,0.03499896,0.03765136,0.30579576,-0.9783519,-0.20387036,0.035559684,-0.0513172,0.40545687,0.9126725,-0.20048477,0.89109,-0.40714148,,-0.0020616222,0.07200559,0.53537863,0.259922,-0.77998406,0.5692676,-0.9326228,-0.04995693,0.3573778,-0.25031006,-0.6238022,-0.7404157,,0.024800537,-0.017028503,0.15675105,-0.99048316,0.117827035,0.07113316,0.123191774,0.9894347,0.076437265,-0.061375245,0.08447286,-0.9945336,,-0.47317184320373573,-0.08100374511774089,0.12147922477000002,0.5326124564506919,0.5078778696281421,0.5195293305071684,0.5117569591986969,,-1.4900395262186255,-0.2269865646392068,0.07758166021000001,0.0,0.0057387329901484995,0.030278948824910938,0.07089132470227719
3.0692333469633013,,0.03499896,0.03765136,0.30579576,-0.9783519,-0.20387036,0.035559684,-0.0513172,0.40545687,0.9126725,-0.20048477,0.89109,-0.40714148,,-0.0020616222,0.07200559,0.53537863,0.259922,-0.78003055,0.56920385,-0.9326228,-0.049986128,0.35737368,-0.25031006,-0.62374175,-0.74046665,,0.024800537,-0.017028503,0.15675105,-0.99048316,0.117827035,0.07113316,0.123191774,0.9894347,0.076437265,-0.061375245,0.08447286,-0.9945336,,-0.47317184320373573,-0.08100374511774089,0.12147922477000002,0.5326124564506919,0.5078778696281421,0.5195293305071684,0.5117569591986969,,-1.4900395262186255,-0.2269865646392068,0.07758166021000001,0.0,0.0057387329901484995,0.030360627565051503,0.07072798063614291
3.0971004349994473,,0.034997888,0.037652295,0.3057968,-0.9783538,-0.20386244,0.035553154,-0.051317517,0.40544617,0.9126773,-0.2004755,0.89109665,-0.40713143,,-0.0020616222,0.07200559,0.53537863,0.259922,-0.78003055,0.56920385,-0.9326228,-0.049986128,0.35737368,-0.25031006,-0.62374175,-0.74046665,,0.024800537,-0.017028503,0.15675105,-0.99048316,0.117827035,0.07113316,0.123191774,0.9894347,0.076437265,-0.061375245,0.08447286,-0.9945336,,-0.47315639773798723,-0.08100374511774089,0.12147922477000002,0.5326124564506919,0.5078778696281421,0.5195293305071684,0.5117569591986969,,-1.4900395262186255,-0.2269865646392068,0.07758166021000001,0.0,0.0057387329901484995,0.030360627565051503,0.07072798063614291
3.122241094999481,,0.034997888,0.037652295,0.3057968,-0.9783538,-0.20386244,0.035553154,-0.051317517,0.40544617,0.9126773,-0.2004755,0.89109665,-0.40713143,,-0.0020616222,0.07200559,0.53537863,0.259922,-0.78003055,0.56920385,-0.9326228,-0.049986128,0.35737368,-0.25031006,-0.62374175,-0.74046665,,0.024800537,-0.017028503,0.15675105,-0.99048316,0.117827035,0.07113316,0.123191774,0.9894347,0.076437265,-0.061375245,0.08447286,-0.9945336,,-0.47315639773798723,-0.08100374511774089,0.12147922477000002,0.5326124564506919,0.5078778696281421,0.5195293305071684,0.5117569591986969,,-1.4900395262186255,-0.2269865646392068,0.07758166021000001,0.0,0.0057387329901484995,0.030360627565051503,0.07072798063614291
3.151414207997732,,0.034997888,0.037652295,0.3057968,-0.9783538,-0.20386244,0.035553154,-0.051317517,0.40544617,0.9126773,-0.2004755,0.89109665,-0.40713143,,-0.0020616222,0.07200559,0.53537863,0.259922,-0.78003055,0.56920385,-0.9326228,-0.049986128,0.35737368,-0.25031006,-0.62374175,-0.74046665,,0.024800537,-0.017028503,0.15675105,-0.99048316,0.117827035,0.07113316,0.123191774,0.9894347,0.076437265,-0.061375245,0.08447286,-0.9945336,,-0.47315639773798723,-0.08100374511774089,0.12147922477000002,0.5326124564506919,0.5078778696281421,0.5195293305071684,0.5117569591986969,,-1.4900395262186255,-0.2269865646392068,0.07758166021000001,0.0,0.0057387329901484995,0.030360627565051503,0.07072798063614291
3.1780710069579072,,0.034998424,0.037651822,0.30579627,-0.9783529,-0.20386639,0.035556417,-0.051317368,0.4054515,0.91267496,-0.20048013,0.8910934,-0.40713644,,-0.0020616222,0.07200559,0.53537863,0.259922,-0.78003055,0.56920385,-0.9326228,-0.049986128,0.35737368,-0.25031006,-0.62374175,-0.74046665,,0.024800537,-0.017028503,0.15675105,-0.99048316,0.117827035,0.07113316,0.123191774,0.9894347,0.076437265,-0.061375245,0.08447286,-0.9945336,,-0.4731641204708615,-0.08100374511774089,0.12147922477000002,0.5326124564506919,0.5078778696281421,0.5195293305071684,0.5117569591986969,,-1.4900395262186255,-0.2269865646392068,0.07758166021000001,0.0,0.0057387329901484995,0.030360627565051503,0.07072798063614291
3.203762213990558,,0.03499896,0.03765136,0.30579576,-0.9783519,-0.20387036,0.035559684,-0.0513172,0.40545687,0.9126725,-0.20048477,0.89109,-0.40714148,,-0.00206138,0.072004706,0.5353784,0.25991744,-0.78003055,0.5692058,-0.9326256,-0.04998591,0.35736653,-0.25030452,-0.6237417,-0.74046856,,0.024800537,-0.017028503,0.15675105,-0.99048316,0.117827035,0.07113316,0.123191774,0.9894347,0.076437265,-0.061375245,0.08447286,-0.9945336,,-0.47317184320373573,-0.08100374511774089,0.12147922477000002,0.5326124564506919,0.5078778696281421,0.5195293305071684,0.5117569591986969,,-1.4900395262186255,-0.22699428737208102,0.07758166021000001,0.0,0.0057387329901484995,0.030360627565051503,0.07072798063614291
3.2328680789796636,,0.034997888,0.037652295,0.3057968,-0.9783538,-0.20386244,0.035553154,-0.051317517,0.40544617,0.9126773,-0.2004755,0.89109665,-0.40713143,,-0.0020616222,0.07200559,0.53537863,0.259922,-0.78003055,0.56920385,-0.9326228,-0.049986128,0.35737368,-0.25031006,-0.62374175,-0.74046665,,0.024800537,-0.017028503,0.15675105,-0.99048316,0.117827035,0.07113316,0.123191774,0.9894347,0.076437265,-0.061375245,0.08447286,-0.9945336,,-0.47315639773798723,-0.08100374511774089,0.12147922477000002,0.5326124564506919,0.5078778696281421,0.5195293305071684,0.5117569591986969,,-1.4900395262186255,-0.2269865646392068,0.07758166021000001,0.0,0.0057387329901484995,0.030360627565051503,0.07072798063614291
3.2611959200003184,,0.034997888,0.037652295,0.3057968,-0.9783538,-0.20386244,0.035553154,-0.051317517,0.40544617,0.9126773,-0.2004755,0.89109665,-0.40713143,,-0.0020630192,0.07200553,0.53537744,0.2599246,-0.7800382,0.5691922,-0.9326227,-0.049994685,0.35737288,-0.2503079,-0.6237314,-0.7404761,,0.024800537,-0.017028503,0.15675105,-0.99048316,0.117827035,0.07113316,0.123191774,0.9894347,0.076437265,-0.061375245,0.08447286,-0.9945336,,-0.47315639773798723,-0.08100374511774089,0.12147922477000002,0.5326124564506919,0.5078778696281421,0.5195293305071684,0.5117569591986969,,-1.4900240807528768,-0.2269865646392068,0.07758166021000001,0.0,0.0057387329901484995,0.030360627565051503,0.07072798063614291
3.2852052319794893,,0.034997888,0.037652295,0.3057968,-0.9783538,-0.20386244,0.035553154,-0.051317517,0.40544617,0.9126773,-0.2004755,0.89109665,-0.40713143,,-0.0020630192,0.07200553,0.53537744,0.2599246,-0.7800382,0.5691922,-0.9326227,-0.049994685,0.35737288,-0.2503079,-0.6237314,-0.7404761,,0.024800537,-0.017028503,0.15675105,-0.99048316,0.117827035,0.07113316,0.123191774,0.9894347,0.076437265,-0.061375245,0.08447286,-0.9945336,,-0.47315639773798723,-0.08100374511774089,0.12147922477000002,0.5326124564506919,0.5078778696281421,0.5195293305071684,0.5117569591986969,,-1.4900240807528768,-0.2269865646392068,0.07758166021000001,0.0,0.0057387329901484995,0.030360627565051503,0.07072798063614291
3.3116091629490256,,0.034997888,0.037652295,0.3057968,-0.9783538,-0.20386244,0.035553154,-0.051317517,0.40544617,0.9126773,-0.2004755,0.89109665,-0.40713143,,-0.0020630192,0.07200553,0.53537744,0.2599246,-0.7800382,0.5691922,-0.9326227,-0.049994685,0.35737288,-0.2503079,-0.6237314,-0.7404761,,0.024800537,-0.017028503,0.15675105,-0.99048316,0.117827035,0.07113316,0.123191774,0.9894347,0.076437265,-0.061375245,0.08447286,-0.9945336,,-0.47315639773798723,-0.08100374511774089,0.12147922477000002,0.5326124564506919,0.5078778696281421,0.5195293305071684,0.5117569591986969,,-1.4900240807528768,-0.2269865646392068,0.07758166021000001,0.0,0.0057387329901484995,0.030360627565051503,0.07072798063614291
3.337669783970341,,0.034997888,0.037652295,0.3057968,-0.9783538,-0.20386244,0.035553154,-0.051317517,0.40544617,0.9126773,-0.2004755,0.89109665,-0.40713143,,-0.0020623188,0.07200556,0.53537804,0.25992328,-0.7800343,0.569198,-0.9326228,-0.04999041,0.3573733,-0.250309,-0.6237365,-0.7404713,,0.024800537,-0.017028503,0.15675105,-0.99048316,0.117827035,0.07113316,0.123191774,0.9894347,0.076437265,-0.061375245,0.08447286,-0.9945336,,-0.47315639773798723,-0.08100374511774089,0.12147922477000002,0.5326124564506919,0.5078778696281421,0.5195293305071684,0.5117569591986969,,-1.4900318034857511,-0.2269865646392068,0.07758166021000001,0.0,0.0057387329901484995,0.030360627565051503,0.07072798063614291
3.365056167996954,,0.034997888,0.037652295,0.3057968,-0.9783538,-0.20386244,0.035553154,-0.051317517,0.40544617,0.9126773,-0.2004755,0.89109665,-0.40713143,,-0.0020616222,0.07200559,0.53537863,0.259922,-0.78003055,0.56920385,-0.9326228,-0.049986128,0.35737368,-0.25031006,-0.62374175,-0.74046665,,0.024800537,-0.017028503,0.15675105,-0.99048316,0.117827035,0.07113316,0.123191774,0.9894347,0.076437265,-0.061375245,0.08447286,-0.9945336,,-0.47315639773798723,-0.08100374511774089,0.12147922477000002,0.5326124564506919,0.5078778696281421,0.5195293305071684,0.5117569591986969,,-1.4900395262186255,-0.2269865646392068,0.07758166021000001,0.0,0.0057387329901484995,0.030360627565051503,0.07072798063614291
3.390999329974875,,0.034997888,0.037652295,0.3057968,-0.9783538,-0.20386244,0.035553154,-0.051317517,0.40544617,0.9126773,-0.2004755,0.89109665,-0.40713143,,-0.0020630192,0.07200553,0.53537744,0.2599246,-0.7800382,0.5691922,-0.9326227,-0.049994685,0.35737288,-0.2503079,-0.6237314,-0.7404761,,0.024800537,-0.017028503,0.15675105,-0.99048316,0.117827035,0.07113316,0.123191774,0.9894347,0.076437265,-0.061375245,0.08447286,-0.9945336,,-0.47315639773798723,-0.08100374511774089,0.12147922477000002,0.5326124564506919,0.5078778696281421,0.5195293305071684,0.5117569591986969,,-1.4900240807528768,-0.2269865646392068,0.07758166021000001,0.0,0.0057387329901484995,0.030360627565051503,0.07072798063614291
3.4181365249678493,,0.034998424,0.037651822,0.30579627,-0.9783529,-0.20386639,0.035556417,-0.051317368,0.4054515,0.91267496,-0.20048013,0.8910934,-0.40713644,,-0.0020630192,0.07200553,0.53537744,0.2599246,-0.7800382,0.5691922,-0.9326227,-0.049994685,0.35737288,-0.2503079,-0.6237314,-0.7404761,,0.024800537,-0.017028503,0.15675105,-0.99048316,0.117827035,0.07113316,0.123191774,0.9894347,0.076437265,-0.061375245,0.08447286,-0.9945336,,-0.4731641204708615,-0.08100374511774089,0.12147922477000002,0.5326124564506919,0.5078778696281421,0.5195293305071684,0.5117569591986969,,-1.4900240807528768,-0.2269865646392068,0.07758166021000001,0.0,0.0057387329901484995,0.030360627565051503,0.07072798063614291
3.439057202951517,,0.034997888,0.037652295,0.3057968,-0.9783538,-0.20386244,0.035553154,-0.051317517,0.40544617,0.9126773,-0.2004755,0.89109665,-0.40713143,,-0.0020630192,0.07200553,0.53537744,0.2599246,-0.7800382,0.5691922,-0.9326227,-0.049994685,0.35737288,-0.2503079,-0.6237314,-0.7404761,,0.024800537,-0.017028503,0.15675105,-0.99048316,0.117827035,0.07113316,0.123191774,0.9894347,0.076437265,-0.061375245,0.08447286,-0.9945336,,-0.47315639773798723,-0.08100374511774089,0.12147922477000002,0.5326124564506919,0.5078778696281421,0.5195293305071684,0.5117569591986969,,-1.4900240807528768,-0.2269865646392068,0.07758166021000001,0.0,0.0057387329901484995,0.030360627565051503,0.07072798063614291
3.469394429004751,,0.034997888,0.037652295,0.3057968,-0.9783538,-0.20386244,0.035553154,-0.051317517,0.40544617,0.9126773,-0.2004755,0.89109665,-0.40713143,,-0.0020630192,0.07200553,0.53537744,0.2599246,-0.7800382,0.5691922,-0.9326227,-0.049994685,0.35737288,-0.2503079,-0.6237314,-0.7404761,,0.024800537,-0.017028503,0.15675105,-0.99048316,0.117827035,0.07113316,0.123191774,0.9894347,0.076437265,-0.061375245,0.08447286,-0.9945336,,-0.47315639773798723,-0.08100374511774089,0.12147922477000002,0.5326124564506919,0.5078778696281421,0.5195293305071684,0.5117569591986969,,-1.4900240807528768,-0.2269865646392068,0.07758166021000001,0.0,0.0057387329901484995,0.030360627565051503,0.07072798063614291
3.4963194809970446,,0.034997888,0.037652295,0.3057968,-0.9783538,-0.20386244,0.035553154,-0.051317517,0.40544617,0.9126773,-0.2004755,0.89109665,-0.40713143,,-0.0020616222,0.07200559,0.53537863,0.259922,-0.78003055,0.56920385,-0.9326228,-0.049986128,0.35737368,-0.25031006,-0.62374175,-0.74046665,,0.024800537,-0.017028503,0.15675105,-0.99048316,0.117827035,0.07113316,0.123191774,0.9894347,0.076437265,-0.061375245,0.08447286,-0.9945336,,-0.47315639773798723,-0.08100374511774089,0.12147922477000002,0.5326124564506919,0.5078778696281421,0.5195293305071684,0.5117569591986969,,-1.4900395262186255,-0.2269865646392068,0.07758166021000001,0.0,0.0057387329901484995,0.030360627565051503,0.07072798063614291
3.5229615749558434,,0.03499896,0.03765136,0.30579576,-0.9783519,-0.20387036,0.035559684,-0.0513172,0.40545687,0.9126725,-0.20048477,0.89109,-0.40714148,,-0.0020616222,0.07200559,0.53537863,0.259922,-0.78003055,0.56920385,-0.9326228,-0.049986128,0.35737368,-0.25031006,-0.62374175,-0.74046665,,0.024800537,-0.017028503,0.15675105,-0.99048316,0.117827035,0.07113316,0.123191774,0.9894347,0.076437265,-0.061375245,0.08447286,-0.9945336,,-0.47317184320373573,-0.08100374511774089,0.12147922477000002,0.5326124564506919,0.5078778696281421,0.5195293305071684,0.5117569591986969,,-1.4900395262186255,-0.2269865646392068,0.07758166021000001,0.0,0.0057387329901484995,0.030360627565051503,0.07072798063614291
3.5474480239790864,,0.034998424,0.037651822,0.30579627,-0.9783529,-0.20386639,0.035556417,-0.051317368,0.4054515,0.91267496,-0.20048013,0.8910934,-0.40713644,,-0.0020616222,0.07200559,0.53537863,0.259922,-0.78003055,0.56920385,-0.9326228,-0.049986128,0.35737368,-0.25031006,-0.62374175,-0.74046665,,0.024800537,-0.017028503,0.15675105,-0.99048316,0.117827035,0.07113316,0.123191774,0.9894347,0.076437265,-0.061375245,0.08447286,-0.9945336,,-0.4731641204708615,-0.08100374511774089,0.12147922477000002,0.5326124564506919,0.5078778696281421,0.5195293305071684,0.5117569591986969,,-1.4900395262186255,-0.2269865646392068,0.07758166021000001,0.0,0.0057387329901484995,0.030360627565051503,0.07072798063614291
3.5724456099560484,,0.034997888,0.037652295,0.3057968,-0.9783538,-0.20386244,0.035553154,-0.051317517,0.40544617,0.9126773,-0.2004755,0.89109665,-0.40713143,,-0.0020616222,0.07200559,0.53537863,0.259922,-0.78003055,0.56920385,-0.9326228,-0.049986128,0.35737368,-0.25031006,-0.62374175,-0.74046665,,0.024800537,-0.017028503,0.15675105,-0.99048316,0.117827035,0.07113316,0.123191774,0.9894347,0.076437265,-0.061375245,0.08447286,-0.9945336,,-0.47315639773798723,-0.08100374511774089,0.12147922477000002,0.5326124564506919,0.5078778696281421,0.5195293305071684,0.5117569591986969,,-1.4900395262186255,-0.2269865646392068,0.07758166021000001,0.0,0.0057387329901484995,0.030360627565051503,0.07072798063614291
3.6022129569901153,,0.035042427,0.037617993,0.30580527,-0.97835296,-0.20387454,0.03550583,-0.05136183,0.405424,0.9126847,-0.20046806,0.8911039,-0.40711904,,-0.002070563,0.072025284,0.5353602,0.25993878,-0.78006476,0.56914926,-0.9326068,-0.04999382,0.3574146,-0.25035256,-0.62369823,-0.7404889,,0.024766507,-0.017016713,0.15674366,-0.99047893,0.117860444,0.07113697,0.12322546,0.9894306,0.07643677,-0.061376214,0.08447491,-0.99453336,,-0.4731641204708615,-0.08100374511774089,0.12147922477000002,0.5326124564506919,0.5078778696281421,0.5195293305071684,0.5117569591986969,,-1.4900395262186255,-0.2269865646392068,0.07758166021000001,0.0,0.0057387329901484995,0.030360627565051503,0.07072798063614291
3.6248552709585056,,0.035041887,0.037618473,0.30580577,-0.9783539,-0.20387058,0.035502583,-0.051361974,0.40541863,0.91268706,-0.20046344,0.8911073,-0.40711403,,-0.002070563,0.072025284,0.5353602,0.25993878,-0.78006476,0.56914926,-0.9326068,-0.04999382,0.3574146,-0.25035256,-0.62369823,-0.7404889,,0.024766507,-0.017016713,0.15674366,-0.99047893,0.117860444,0.07113697,0.12322546,0.9894306,0.07643677,-0.061376214,0.08447491,-0.99453336,,-0.47315639773798723,-0.08100374511774089,0.12147922477000002,0.5326124564506919,0.5078778696281421,0.5195293305071684,0.5117569591986969,,-1.4900395262186255,-0.2269865646392068,0.07758166021000001,0.0,0.0057387329901484995,0.030360627565051503,0.07072798063614291
3.645910228951834,,0.035041887,0.037618473,0.30580577,-0.9783539,-0.20387058,0.035502583,-0.051361974,0.40541863,0.91268706,-0.20046344,0.8911073,-0.40711403,,-0.002070563,0.072025284,0.5353602,0.25993878,-0.78006476,0.56914926,-0.9326068,-0.04999382,0.3574146,-0.25035256,-0.62369823,-0.7404889,,0.024766507,-0.017016713,0.15674366,-0.99047893,0.117860444,0.07113697,0.12322546,0.9894306,0.07643677,-0.061376214,0.08447491,-0.99453336,,-0.47315639773798723,-0.08100374511774089,0.12147922477000002,0.5326124564506919,0.5078778696281421,0.5195293305071684,0.5117569591986969,,-1.4900395262186255,-0.2269865646392068,0.07758166021000001,0.0,0.0057387329901484995,0.030360627565051503,0.07072798063614291
3.6731839809799567,,0.035041887,0.037618473,0.30580577,-0.9783539,-0.20387058,0.035502583,-0.051361974,0.40541863,0.91268706,-0.20046344,0.8911073,-0.40711403,,-0.0020703226,0.07202439,0.53536,0.25993422,-0.78006476,0.5691512,-0.93260956,-0.049993593,0.35740742,-0.25034702,-0.6236981,-0.7404908,,0.024766507,-0.017016713,0.15674366,-0.99047893,0.117860444,0.07113697,0.12322546,0.9894306,0.07643677,-0.061376214,0.08447491,-0.99453336,,-0.47315639773798723,-0.08100374511774089,0.12147922477000002,0.5326124564506919,0.5078778696281421,0.5195293305071684,0.5117569591986969,,-1.4900395262186255,-0.22699428737208102,0.07758166021000001,0.0,0.0057387329901484995,0.030360627565051503,0.07072798063614291
3.701693056966178,,0.035041887,0.037618473,0.30580577,-0.9783539,-0.20387058,0.035502583,-0.051361974,0.40541863,0.91268706,-0.20046344,0.8911073,-0.40711403,,-0.0020712633,0.07202524,0.5353596,0.25994006,-0.78006864,0.5691434,-0.93260676,-0.049998093,0.3574142,-0.2503515,-0.6236931,-0.7404936,,0.024766507,-0.017016713,0.15674366,-0.99047893,0.117860444,0.07113697,0.12322546,0.9894306,0.07643677,-0.061376214,0.08447491,-0.99453336,,-0.47315639773798723,-0.08100374511774089,0.12147922477000002,0.5326124564506919,0.5078778696281421,0.5195293305071684,0.5117569591986969,,-1.4900318034857511,-0.2269865646392068,0.07758166021000001,0.0,0.0057387329901484995,0.030360627565051503,0.07072798063614291
3.730345321993809,,0.035041887,0.037618473,0.30580577,-0.9783539,-0.20387058,0.035502583,-0.051361974,0.40541863,0.91268706,-0.20046344,0.8911073,-0.40711403,,-0.0020719636,0.07202521,0.535359,0.2599414,-0.7800725,0.5691375,-0.93260664,-0.050002363,0.35741377,-0.2503504,-0.6236879,-0.7404983,,0.024766507,-0.017016713,0.15674366,-0.99047893,0.117860444,0.07113697,0.12322546,0.9894306,0.07643677,-0.061376214,0.08447491,-0.99453336,,-0.47315639773798723,-0.08100374511774089,0.12147922477000002,0.5326124564506919,0.5078778696281421,0.5195293305071684,0.5117569591986969,,-1.4900240807528768,-0.2269865646392068,0.07758166021000001,0.0,0.0057387329901484995,0.030360627565051503,0.07072798063614291
