AlexandreBanks6/ExpertPlaybackApp/resources/Motions/Motion_Stationary.csv
Time,si_T_psm1,Tx,Ty,Tz,R00,R01,R02,R10,R11,R12,R20,R21,R22,si_T_psm3,Tx,Ty,Tz,R00,R01,R02,R10,R11,R12,R20,R21,R22,si_T_ecm,Tx,Ty,Tz,R00,R01,R02,R10,R11,R12,R20,R21,R22,joint_vars_psm1,q1,q2,q3,q4,q5,q6,jaw,joint_vars_psm3,q1,q2,q3,q4,q5,q6,jaw
lci_T_si
,,-0.06042968,0.058985543,0.58662134,0.9931804,0.01947886,-0.11494912,0.0049985046,-0.9921519,-0.124938495,-0.11648065,0.12351189,-0.98548317
rci_T_si
,,-0.060781997,0.0462893,0.5482109,0.99843633,0.0005711025,-0.05589753,-0.009180174,-0.9846965,-0.174036,-0.055141494,0.17427701,-0.98315156
ecm_T_lc
,,0.022782804,0.054864287,-0.33796614,-0.99125,-0.12739496,-0.0345537,0.12872347,-0.990897,-0.03941251,-0.029218202,-0.043515522,0.99862534
ecm_T_rc
,,0.022707665,0.067641795,-0.42994186,-0.99723834,0.02928547,-0.06824988,-0.024871755,-0.9975983,-0.06464576,-0.069979146,-0.06276973,0.9955716
0.023106444999939413,,0.096781135,0.037788212,0.35534507,-0.70274955,0.09962495,-0.70442724,-0.70869935,-0.18481311,0.68087393,-0.062355388,0.977711,0.20048149,,-0.23887756,0.16164148,0.2278696,0.18398476,-0.77163243,-0.60887843,-0.9272911,-0.34171206,0.15285268,-0.32600725,0.536485,-0.77839774,,0.095857255,-0.01716987,0.26113504,-0.976028,0.13844678,-0.16793358,0.11108432,0.9804117,0.16264427,0.18716162,0.1400906,-0.97228855,,-0.5182108213262131,0.020287619260587787,0.14358745072,0.167961644731104,-0.0069684614880374625,0.9874607695780757,-0.057823799411534926,,-1.383017894047622,0.03005687634648179,0.14062283549000001,0.12916900518646698,-0.020905384464112386,1.1809689862685642,0.11564759882306941
0.04964760299981208,,0.096781135,0.037788212,0.35534507,-0.70274955,0.09962495,-0.70442724,-0.70869935,-0.18481311,0.68087393,-0.062355388,0.977711,0.20048149,,-0.23887667,0.1616382,0.22786817,0.18398233,-0.77163386,-0.6088775,-0.92729396,-0.34170607,0.15284887,-0.32600045,0.5364869,-0.7783993,,0.095857255,-0.01716987,0.26113504,-0.976028,0.13844678,-0.16793358,0.11108432,0.9804117,0.16264427,0.18716162,0.1400906,-0.97228855,,-0.5182108213262131,0.020287619260587787,0.14358745072,0.167961644731104,-0.0069684614880374625,0.9874607695780757,-0.057823799411534926,,-1.383017894047622,0.030049153613607566,0.14062283549000001,0.12916900518646698,-0.020905384464112386,1.1809689862685642,0.11564759882306941
0.07124271599991516,,0.096781135,0.037788212,0.35534507,-0.70274955,0.09962495,-0.70442724,-0.70869935,-0.18481311,0.68087393,-0.062355388,0.977711,0.20048149,,-0.23887667,0.1616382,0.22786817,0.18398233,-0.77163386,-0.6088775,-0.92729396,-0.34170607,0.15284887,-0.32600045,0.5364869,-0.7783993,,0.095857255,-0.01716987,0.26113504,-0.976028,0.13844678,-0.16793358,0.11108432,0.9804117,0.16264427,0.18716162,0.1400906,-0.97228855,,-0.5182108213262131,0.020287619260587787,0.14358745072,0.167961644731104,-0.0069684614880374625,0.9874607695780757,-0.057823799411534926,,-1.383017894047622,0.030049153613607566,0.14062283549000001,0.12916900518646698,-0.020905384464112386,1.1809689862685642,0.11564759882306941
0.09510194799986493,,0.096781135,0.037788212,0.35534507,-0.70274955,0.09962495,-0.70442724,-0.70869935,-0.18481311,0.68087393,-0.062355388,0.977711,0.20048149,,-0.23887667,0.1616382,0.22786817,0.18398233,-0.77163386,-0.6088775,-0.92729396,-0.34170607,0.15284887,-0.32600045,0.5364869,-0.7783993,,0.095857255,-0.01716987,0.26113504,-0.976028,0.13844678,-0.16793358,0.11108432,0.9804117,0.16264427,0.18716162,0.1400906,-0.97228855,,-0.5182108213262131,0.020287619260587787,0.14358745072,0.167961644731104,-0.0069684614880374625,0.9874607695780757,-0.057823799411534926,,-1.383017894047622,0.030049153613607566,0.14062283549000001,0.12916900518646698,-0.020905384464112386,1.1809689862685642,0.11564759882306941
0.1213654979999319,,0.096781135,0.037788212,0.35534507,-0.70274955,0.09962495,-0.70442724,-0.70869935,-0.18481311,0.68087393,-0.062355388,0.977711,0.20048149,,-0.23887756,0.16164148,0.2278696,0.18398476,-0.77163243,-0.60887843,-0.9272911,-0.34171206,0.15285268,-0.32600725,0.536485,-0.77839774,,0.095857255,-0.01716987,0.26113504,-0.976028,0.13844678,-0.16793358,0.11108432,0.9804117,0.16264427,0.18716162,0.1400906,-0.97228855,,-0.5182108213262131,0.020287619260587787,0.14358745072,0.167961644731104,-0.0069684614880374625,0.9874607695780757,-0.057823799411534926,,-1.383017894047622,0.03005687634648179,0.14062283549000001,0.12916900518646698,-0.020905384464112386,1.1809689862685642,0.11564759882306941
0.14813701299999593,,0.096781135,0.037788212,0.35534507,-0.70274955,0.09962495,-0.70442724,-0.70869935,-0.18481311,0.68087393,-0.062355388,0.977711,0.20048149,,-0.23887756,0.16164148,0.2278696,0.18398476,-0.77163243,-0.60887843,-0.9272911,-0.34171206,0.15285268,-0.32600725,0.536485,-0.77839774,,0.095857255,-0.01716987,0.26113504,-0.976028,0.13844678,-0.16793358,0.11108432,0.9804117,0.16264427,0.18716162,0.1400906,-0.97228855,,-0.5182108213262131,0.020287619260587787,0.14358745072,0.167961644731104,-0.0069684614880374625,0.9874607695780757,-0.057823799411534926,,-1.383017894047622,0.03005687634648179,0.14062283549000001,0.12916900518646698,-0.020905384464112386,1.1809689862685642,0.11564759882306941
0.1687234669998361,,0.096781135,0.037788212,0.35534507,-0.70274955,0.09962495,-0.70442724,-0.70869935,-0.18481311,0.68087393,-0.062355388,0.977711,0.20048149,,-0.238873,0.16164279,0.22786753,0.18398562,-0.771637,-0.6088725,-0.92729104,-0.3417116,0.15285477,-0.32600713,0.5364788,-0.77840203,,0.095857255,-0.01716987,0.26113504,-0.976028,0.13844678,-0.16793358,0.11108432,0.9804117,0.16264427,0.18716162,0.1400906,-0.97228855,,-0.5182108213262131,0.020287619260587787,0.14358745072,0.167961644731104,-0.0069684614880374625,0.9874607695780757,-0.057823799411534926,,-1.3830256167804964,0.03005687634648179,0.14062283549000001,0.12916900518646698,-0.020905384464112386,1.1809689862685642,0.11564759882306941
0.19199690200002806,,0.096781135,0.037788212,0.35534507,-0.70274955,0.09962495,-0.70442724,-0.70869935,-0.18481311,0.68087393,-0.062355388,0.977711,0.20048149,,-0.238873,0.16164279,0.22786753,0.18398562,-0.771637,-0.6088725,-0.92729104,-0.3417116,0.15285477,-0.32600713,0.5364788,-0.77840203,,0.095857255,-0.01716987,0.26113504,-0.976028,0.13844678,-0.16793358,0.11108432,0.9804117,0.16264427,0.18716162,0.1400906,-0.97228855,,-0.5182108213262131,0.020287619260587787,0.14358745072,0.167961644731104,-0.0069684614880374625,0.9874607695780757,-0.057823799411534926,,-1.3830256167804964,0.03005687634648179,0.14062283549000001,0.12916900518646698,-0.020905384464112386,1.1809689862685642,0.11564759882306941
0.21837484299999232,,0.096781135,0.037788212,0.35534507,-0.70274955,0.09962495,-0.70442724,-0.70869935,-0.18481311,0.68087393,-0.062355388,0.977711,0.20048149,,-0.23887667,0.1616382,0.22786817,0.18398233,-0.77163386,-0.6088775,-0.92729396,-0.34170607,0.15284887,-0.32600045,0.5364869,-0.7783993,,0.095857255,-0.01716987,0.26113504,-0.976028,0.13844678,-0.16793358,0.11108432,0.9804117,0.16264427,0.18716162,0.1400906,-0.97228855,,-0.5182108213262131,0.020287619260587787,0.14358745072,0.167961644731104,-0.0069684614880374625,0.9874607695780757,-0.057823799411534926,,-1.383017894047622,0.030049153613607566,0.14062283549000001,0.12916900518646698,-0.020905384464112386,1.1809689862685642,0.11564759882306941
0.23866081599999234,,0.096781135,0.037788212,0.35534507,-0.70274955,0.09962495,-0.70442724,-0.70869935,-0.18481311,0.68087393,-0.062355388,0.977711,0.20048149,,-0.23887756,0.16164148,0.2278696,0.18398476,-0.77163243,-0.60887843,-0.9272911,-0.34171206,0.15285268,-0.32600725,0.536485,-0.77839774,,0.095857255,-0.01716987,0.26113504,-0.976028,0.13844678,-0.16793358,0.11108432,0.9804117,0.16264427,0.18716162,0.1400906,-0.97228855,,-0.5182108213262131,0.020287619260587787,0.14358745072,0.167961644731104,-0.0069684614880374625,0.9874607695780757,-0.057823799411534926,,-1.383017894047622,0.03005687634648179,0.14062283549000001,0.12916900518646698,-0.020905384464112386,1.1809689862685642,0.11564759882306941
0.26335928100002093,,0.096781135,0.037788212,0.35534507,-0.70274955,0.09962495,-0.70442724,-0.70869935,-0.18481311,0.68087393,-0.062355388,0.977711,0.20048149,,-0.23887756,0.16164148,0.2278696,0.18398476,-0.77163243,-0.60887843,-0.9272911,-0.34171206,0.15285268,-0.32600725,0.536485,-0.77839774,,0.095857255,-0.01716987,0.26113504,-0.976028,0.13844678,-0.16793358,0.11108432,0.9804117,0.16264427,0.18716162,0.1400906,-0.97228855,,-0.5182108213262131,0.020287619260587787,0.14358745072,0.167961644731104,-0.0069684614880374625,0.9874607695780757,-0.057823799411534926,,-1.383017894047622,0.03005687634648179,0.14062283549000001,0.12916900518646698,-0.020905384464112386,1.1809689862685642,0.11564759882306941
0.28467406499999015,,0.096781135,0.037788212,0.35534507,-0.70274955,0.09962495,-0.70442724,-0.70869935,-0.18481311,0.68087393,-0.062355388,0.977711,0.20048149,,-0.23887756,0.16164148,0.2278696,0.18398476,-0.77163243,-0.60887843,-0.9272911,-0.34171206,0.15285268,-0.32600725,0.536485,-0.77839774,,0.095857255,-0.01716987,0.26113504,-0.976028,0.13844678,-0.16793358,0.11108432,0.9804117,0.16264427,0.18716162,0.1400906,-0.97228855,,-0.5182108213262131,0.020287619260587787,0.14358745072,0.167961644731104,-0.0069684614880374625,0.9874607695780757,-0.057823799411534926,,-1.383017894047622,0.03005687634648179,0.14062283549000001,0.12916900518646698,-0.020905384464112386,1.1809689862685642,0.11564759882306941
0.30551214199999777,,0.096757874,0.037811078,0.3553428,-0.7027719,0.09962674,-0.7044048,-0.7086769,-0.18483052,0.68089277,-0.062360387,0.9777076,0.20049685,,-0.23881999,0.16162077,0.22787613,0.18405116,-0.7715937,-0.60890746,-0.9272766,-0.3417734,0.15280452,-0.32601136,0.5365017,-0.7783845,,0.09583747,-0.017167443,0.26114488,-0.9760217,0.13849664,-0.16792907,0.111134715,0.9804058,0.16264592,0.18716455,0.14008322,-0.9722891,,-0.5182185440590873,0.020287619260587787,0.14358745072,0.167961644731104,-0.0069684614880374625,0.9874607695780757,-0.057823799411534926,,-1.3830256167804964,0.03005687634648179,0.14062283549000001,0.12916900518646698,-0.020905384464112386,1.1809689862685642,0.11564759882306941
0.331287563999922,,0.096757874,0.037811078,0.3553428,-0.7027719,0.09962674,-0.7044048,-0.7086769,-0.18483052,0.68089277,-0.062360387,0.9777076,0.20049685,,-0.23882455,0.16161947,0.22787815,0.18405029,-0.77158916,-0.6089135,-0.9272767,-0.34177393,0.15280244,-0.32601142,0.5365079,-0.77838016,,0.09583747,-0.017167443,0.26114488,-0.9760217,0.13849664,-0.16792907,0.111134715,0.9804058,0.16264592,0.18716455,0.14008322,-0.9722891,,-0.5182185440590873,0.020287619260587787,0.14358745072,0.167961644731104,-0.0069684614880374625,0.9874607695780757,-0.057823799411534926,,-1.383017894047622,0.03005687634648179,0.14062283549000001,0.12916900518646698,-0.020905384464112386,1.1809689862685642,0.11564759882306941
0.35374228799992125,,0.096757196,0.037811436,0.35534352,-0.70277137,0.099632904,-0.7044044,-0.7086775,-0.1848349,0.6808909,-0.062359404,0.97770613,0.20050429,,-0.23882455,0.16161947,0.22787815,0.18405029,-0.77158916,-0.6089135,-0.9272767,-0.34177393,0.15280244,-0.32601142,0.5365079,-0.77838016,,0.09583747,-0.017167443,0.26114488,-0.9760217,0.13849664,-0.16792907,0.111134715,0.9804058,0.16264592,0.18716455,0.14008322,-0.9722891,,-0.5182108213262131,0.020287619260587787,0.14358745072,0.167961644731104,-0.0069684614880374625,0.9874607695780757,-0.057823799411534926,,-1.383017894047622,0.03005687634648179,0.14062283549000001,0.12916900518646698,-0.020905384464112386,1.1809689862685642,0.11564759882306941
0.37430488199993306,,0.096757196,0.037811436,0.35534352,-0.70277137,0.099632904,-0.7044044,-0.7086775,-0.1848349,0.6808909,-0.062359404,0.97770613,0.20050429,,-0.23882455,0.16161947,0.22787815,0.18405029,-0.77158916,-0.6089135,-0.9272767,-0.34177393,0.15280244,-0.32601142,0.5365079,-0.77838016,,0.09583747,-0.017167443,0.26114488,-0.9760217,0.13849664,-0.16792907,0.111134715,0.9804058,0.16264592,0.18716455,0.14008322,-0.9722891,,-0.5182108213262131,0.020287619260587787,0.14358745072,0.167961644731104,-0.0069684614880374625,0.9874607695780757,-0.057823799411534926,,-1.383017894047622,0.03005687634648179,0.14062283549000001,0.12916900518646698,-0.020905384464112386,1.1809689862685642,0.11564759882306941
0.3978519739998774,,0.096757196,0.037811436,0.35534352,-0.70277137,0.099632904,-0.7044044,-0.7086775,-0.1848349,0.6808909,-0.062359404,0.97770613,0.20050429,,-0.23882455,0.16161947,0.22787815,0.18405029,-0.77158916,-0.6089135,-0.9272767,-0.34177393,0.15280244,-0.32601142,0.5365079,-0.77838016,,0.09583747,-0.017167443,0.26114488,-0.9760217,0.13849664,-0.16792907,0.111134715,0.9804058,0.16264592,0.18716455,0.14008322,-0.9722891,,-0.5182108213262131,0.020287619260587787,0.14358745072,0.167961644731104,-0.0069684614880374625,0.9874607695780757,-0.057823799411534926,,-1.383017894047622,0.03005687634648179,0.14062283549000001,0.12916900518646698,-0.020905384464112386,1.1809689862685642,0.11564759882306941
0.4210945869999705,,0.096757196,0.037811436,0.35534352,-0.70277137,0.099632904,-0.7044044,-0.7086775,-0.1848349,0.6808909,-0.062359404,0.97770613,0.20050429,,-0.23881999,0.16162077,0.22787613,0.18405116,-0.7715937,-0.60890746,-0.9272766,-0.3417734,0.15280452,-0.32601136,0.5365017,-0.7783845,,0.09583747,-0.017167443,0.26114488,-0.9760217,0.13849664,-0.16792907,0.111134715,0.9804058,0.16264592,0.18716455,0.14008322,-0.9722891,,-0.5182108213262131,0.020287619260587787,0.14358745072,0.167961644731104,-0.0069684614880374625,0.9874607695780757,-0.057823799411534926,,-1.3830256167804964,0.03005687634648179,0.14062283549000001,0.12916900518646698,-0.020905384464112386,1.1809689862685642,0.11564759882306941
0.4406371449999824,,0.096757196,0.037811436,0.35534352,-0.70277137,0.099632904,-0.7044044,-0.7086775,-0.1848349,0.6808909,-0.062359404,0.97770613,0.20050429,,-0.23882455,0.16161947,0.22787815,0.18405029,-0.77158916,-0.6089135,-0.9272767,-0.34177393,0.15280244,-0.32601142,0.5365079,-0.77838016,,0.09583747,-0.017167443,0.26114488,-0.9760217,0.13849664,-0.16792907,0.111134715,0.9804058,0.16264592,0.18716455,0.14008322,-0.9722891,,-0.5182108213262131,0.020287619260587787,0.14358745072,0.167961644731104,-0.0069684614880374625,0.9874607695780757,-0.057823799411534926,,-1.383017894047622,0.03005687634648179,0.14062283549000001,0.12916900518646698,-0.020905384464112386,1.1809689862685642,0.11564759882306941
0.46635046400001556,,0.096757196,0.037811436,0.35534352,-0.70277137,0.099632904,-0.7044044,-0.7086775,-0.1848349,0.6808909,-0.062359404,0.97770613,0.20050429,,-0.23882455,0.16161947,0.22787815,0.18405029,-0.77158916,-0.6089135,-0.9272767,-0.34177393,0.15280244,-0.32601142,0.5365079,-0.77838016,,0.09583747,-0.017167443,0.26114488,-0.9760217,0.13849664,-0.16792907,0.111134715,0.9804058,0.16264592,0.18716455,0.14008322,-0.9722891,,-0.5182108213262131,0.020287619260587787,0.14358745072,0.167961644731104,-0.0069684614880374625,0.9874607695780757,-0.057823799411534926,,-1.383017894047622,0.03005687634648179,0.14062283549000001,0.12916900518646698,-0.020905384464112386,1.1809689862685642,0.11564759882306941
0.48803998899984435,,0.096757196,0.037811436,0.35534352,-0.70277137,0.099632904,-0.7044044,-0.7086775,-0.1848349,0.6808909,-0.062359404,0.97770613,0.20050429,,-0.23882455,0.16161947,0.22787815,0.18405029,-0.77158916,-0.6089135,-0.9272767,-0.34177393,0.15280244,-0.32601142,0.5365079,-0.77838016,,0.09583747,-0.017167443,0.26114488,-0.9760217,0.13849664,-0.16792907,0.111134715,0.9804058,0.16264592,0.18716455,0.14008322,-0.9722891,,-0.5182108213262131,0.020287619260587787,0.14358745072,0.167961644731104,-0.0069684614880374625,0.9874607695780757,-0.057823799411534926,,-1.383017894047622,0.03005687634648179,0.14062283549000001,0.12916900518646698,-0.020905384464112386,1.1809689862685642,0.11564759882306941
0.5147706829998242,,0.096757196,0.037811436,0.35534352,-0.70277137,0.099632904,-0.7044044,-0.7086775,-0.1848349,0.6808909,-0.062359404,0.97770613,0.20050429,,-0.23882368,0.16161618,0.22787672,0.18404783,-0.7715905,-0.60891247,-0.9272796,-0.3417679,0.15279861,-0.32600468,0.5365098,-0.7783817,,0.09583747,-0.017167443,0.26114488,-0.9760217,0.13849664,-0.16792907,0.111134715,0.9804058,0.16264592,0.18716455,0.14008322,-0.9722891,,-0.5182108213262131,0.020287619260587787,0.14358745072,0.167961644731104,-0.0069684614880374625,0.9874607695780757,-0.057823799411534926,,-1.383017894047622,0.030049153613607566,0.14062283549000001,0.12916900518646698,-0.020905384464112386,1.1809689862685642,0.11564759882306941
0.5348566039999696,,0.096757196,0.037811436,0.35534352,-0.70277137,0.099632904,-0.7044044,-0.7086775,-0.1848349,0.6808909,-0.062359404,0.97770613,0.20050429,,-0.23882368,0.16161618,0.22787672,0.18404783,-0.7715905,-0.60891247,-0.9272796,-0.3417679,0.15279861,-0.32600468,0.5365098,-0.7783817,,0.09583747,-0.017167443,0.26114488,-0.9760217,0.13849664,-0.16792907,0.111134715,0.9804058,0.16264592,0.18716455,0.14008322,-0.9722891,,-0.5182108213262131,0.020287619260587787,0.14358745072,0.167961644731104,-0.0069684614880374625,0.9874607695780757,-0.057823799411534926,,-1.383017894047622,0.030049153613607566,0.14062283549000001,0.12916900518646698,-0.020905384464112386,1.1809689862685642,0.11564759882306941
0.5571828569998161,,0.096757196,0.037811436,0.35534352,-0.70277137,0.099632904,-0.7044044,-0.7086775,-0.1848349,0.6808909,-0.062359404,0.97770613,0.20050429,,-0.23882455,0.16161947,0.22787815,0.18405029,-0.77158916,-0.6089135,-0.9272767,-0.34177393,0.15280244,-0.32601142,0.5365079,-0.77838016,,0.09583747,-0.017167443,0.26114488,-0.9760217,0.13849664,-0.16792907,0.111134715,0.9804058,0.16264592,0.18716455,0.14008322,-0.9722891,,-0.5182108213262131,0.020287619260587787,0.14358745072,0.167961644731104,-0.0069684614880374625,0.9874607695780757,-0.057823799411534926,,-1.383017894047622,0.03005687634648179,0.14062283549000001,0.12916900518646698,-0.020905384464112386,1.1809689862685642,0.11564759882306941
0.5794667019999906,,0.096757196,0.037811436,0.35534352,-0.70277137,0.099632904,-0.7044044,-0.7086775,-0.1848349,0.6808909,-0.062359404,0.97770613,0.20050429,,-0.23881999,0.16162077,0.22787613,0.18405116,-0.7715937,-0.60890746,-0.9272766,-0.3417734,0.15280452,-0.32601136,0.5365017,-0.7783845,,0.09583747,-0.017167443,0.26114488,-0.9760217,0.13849664,-0.16792907,0.111134715,0.9804058,0.16264592,0.18716455,0.14008322,-0.9722891,,-0.5182108213262131,0.020287619260587787,0.14358745072,0.167961644731104,-0.0069684614880374625,0.9874607695780757,-0.057823799411534926,,-1.3830256167804964,0.03005687634648179,0.14062283549000001,0.12916900518646698,-0.020905384464112386,1.1809689862685642,0.11564759882306941
0.6044799879998664,,0.096757196,0.037811436,0.35534352,-0.70277137,0.099632904,-0.7044044,-0.7086775,-0.1848349,0.6808909,-0.062359404,0.97770613,0.20050429,,-0.23885897,0.16161084,0.22790298,0.18404566,-0.77154416,-0.60897195,-0.9272742,-0.34178743,0.15278736,-0.32602113,0.5365641,-0.7783374,,0.09583747,-0.017167443,0.26114488,-0.9760217,0.13849664,-0.16792907,0.111134715,0.9804058,0.16264592,0.18716455,0.14008322,-0.9722891,,-0.5182108213262131,0.020287619260587787,0.14358745072,0.167961644731104,-0.0069684614880374625,0.9874607695780757,-0.057823799411534926,,-1.3830256167804964,0.03005687634648179,0.14062283549000001,0.12916900518646698,-0.020905384464112386,1.181050665008705,0.11548425475693525
0.6289951059998202,,0.096757196,0.037811436,0.35534352,-0.70277137,0.099632904,-0.7044044,-0.7086775,-0.1848349,0.6808909,-0.062359404,0.97770613,0.20050429,,-0.23890167,0.16159633,0.2279304,0.18403687,-0.77149135,-0.6090414,-0.92727494,-0.34179592,0.15276428,-0.3260242,0.53663456,-0.7782876,,0.09583747,-0.017167443,0.26114488,-0.9760217,0.13849664,-0.16792907,0.111134715,0.9804058,0.16264592,0.18716455,0.14008322,-0.9722891,,-0.5182108213262131,0.020287619260587787,0.14358745072,0.167961644731104,-0.0069684614880374625,0.9874607695780757,-0.057823799411534926,,-1.383017894047622,0.030049153613607566,0.14062283549000001,0.12916900518646698,-0.020905384464112386,1.1811323437488452,0.11532091069080108
0.6534237119999489,,0.096757196,0.037811436,0.35534352,-0.70277137,0.09969043,-0.7043963,-0.7086775,-0.18489051,0.6808758,-0.062359404,0.97768974,0.20058411,,-0.23889703,0.16159764,0.2279284,0.18403777,-0.7714959,-0.6090354,-0.9272748,-0.34179544,0.15276636,-0.32602412,0.53662837,-0.7782919,,0.09583747,-0.017167443,0.26114488,-0.9760217,0.13849664,-0.16792907,0.111134715,0.9804058,0.16264592,0.18716455,0.14008322,-0.9722891,,-0.5182108213262131,0.020287619260587787,0.14358745072,0.167961644731104,-0.0069684614880374625,0.9875424483182162,-0.05798714347766909,,-1.3830256167804964,0.030049153613607566,0.14062283549000001,0.12916900518646698,-0.020905384464112386,1.1811323437488452,0.11532091069080108
0.6735871079999924,,0.096757874,0.037811078,0.3553428,-0.7027719,0.09968427,-0.7043966,-0.7086769,-0.18488613,0.6808777,-0.062360387,0.9776912,0.20057672,,-0.23889798,0.16160093,0.22792976,0.18404019,-0.77149457,-0.60903645,-0.92727196,-0.34180143,0.15277019,-0.32603088,0.53662646,-0.7782904,,0.09583747,-0.017167443,0.26114488,-0.9760217,0.13849664,-0.16792907,0.111134715,0.9804058,0.16264592,0.18716455,0.14008322,-0.9722891,,-0.5182185440590873,0.020287619260587787,0.14358745072,0.167961644731104,-0.0069684614880374625,0.9875424483182162,-0.05798714347766909,,-1.3830256167804964,0.03005687634648179,0.14062283549000001,0.12916900518646698,-0.020905384464112386,1.1811323437488452,0.11532091069080108
0.699338662999935,,0.096757874,0.037811078,0.3553428,-0.7027719,0.09974182,-0.7043885,-0.7086769,-0.18494174,0.68086255,-0.062360387,0.97767484,0.20065658,,-0.23890254,0.16159962,0.22793177,0.18403928,-0.77149,-0.60904247,-0.92727196,-0.34180194,0.15276812,-0.32603094,0.5366327,-0.778286,,0.09583747,-0.017167443,0.26114488,-0.9760217,0.13849664,-0.16792907,0.111134715,0.9804058,0.16264592,0.18716455,0.14008322,-0.9722891,,-0.5182185440590873,0.020287619260587787,0.14358745072,0.167961644731104,-0.0069684614880374625,0.9876241270583567,-0.057823799411534926,,-1.383017894047622,0.03005687634648179,0.14062283549000001,0.12916900518646698,-0.020905384464112386,1.1811323437488452,0.11532091069080108
0.7224424169999111,,0.09675807,0.037812315,0.3553436,-0.70283574,0.09964686,-0.7043382,-0.70860523,-0.18500671,0.68091947,-0.06245581,0.9776722,0.2006396,,-0.23890254,0.16159962,0.22793177,0.18403928,-0.77149,-0.60904247,-0.92727196,-0.34180194,0.15276812,-0.32603094,0.5366327,-0.778286,,0.09583747,-0.017167443,0.26114488,-0.9760217,0.13849664,-0.16792907,0.111134715,0.9804058,0.16264592,0.18716455,0.14008322,-0.9722891,,-0.5182108213262131,0.020287619260587787,0.14358745072,0.167961644731104,-0.006831824988272023,0.9875943878948008,-0.05766045534540054,,-1.383017894047622,0.03005687634648179,0.14062283549000001,0.12916900518646698,-0.020905384464112386,1.1811323437488452,0.11532091069080108
0.7478953190000084,,0.09675895,0.0378132,0.3553437,-0.70290005,0.09948823,-0.70429647,-0.7085328,-0.18501163,0.6809935,-0.06255223,0.9776875,0.20053537,,-0.23889798,0.16160093,0.22792976,0.18404019,-0.77149457,-0.60903645,-0.92727196,-0.34180143,0.15277019,-0.32603088,0.53662646,-0.7782904,,0.09583747,-0.017167443,0.26114488,-0.9760217,0.13849664,-0.16792907,0.111134715,0.9804058,0.16264592,0.18716455,0.14008322,-0.9722891,,-0.5182108213262131,0.020287619260587787,0.14358745072,0.167961644731104,-0.006695188488506582,0.9874829699911043,-0.05766045534540054,,-1.3830256167804964,0.03005687634648179,0.14062283549000001,0.12916900518646698,-0.020905384464112386,1.1811323437488452,0.11532091069080108
0.7675727659998302,,0.096759625,0.037812836,0.35534295,-0.70290065,0.09948207,-0.7042967,-0.7085322,-0.18500724,0.6809952,-0.0625532,0.97768885,0.20052797,,-0.23890254,0.16159962,0.22793177,0.18403928,-0.77149,-0.60904247,-0.92727196,-0.34180194,0.15276812,-0.32603094,0.5366327,-0.778286,,0.09583747,-0.017167443,0.26114488,-0.9760217,0.13849664,-0.16792907,0.111134715,0.9804058,0.16264592,0.18716455,0.14008322,-0.9722891,,-0.5182185440590873,0.020287619260587787,0.14358745072,0.167961644731104,-0.006695188488506582,0.9874829699911043,-0.05766045534540054,,-1.383017894047622,0.03005687634648179,0.14062283549000001,0.12916900518646698,-0.020905384464112386,1.1811323437488452,0.11532091069080108
0.7902205169998524,,0.0967603,0.037812464,0.35534224,-0.7029012,0.09941838,-0.7043052,-0.70853156,-0.18494725,0.6810123,-0.062554196,0.97770673,0.20044072,,-0.23890254,0.16159962,0.22793177,0.18403928,-0.77149,-0.60904247,-0.92727196,-0.34180194,0.15276812,-0.32603094,0.5366327,-0.778286,,0.09583747,-0.017167443,0.26114488,-0.9760217,0.13849664,-0.16792907,0.111134715,0.9804058,0.16264592,0.18716455,0.14008322,-0.9722891,,-0.5182262667919615,0.020287619260587787,0.14358745072,0.167961644731104,-0.006695188488506582,0.9874012912509638,-0.05749711127926638,,-1.383017894047622,0.03005687634648179,0.14062283549000001,0.12916900518646698,-0.020905384464112386,1.1811323437488452,0.11532091069080108
0.8179408529999819,,0.096759625,0.037812836,0.35534295,-0.70290065,0.09942454,-0.7043049,-0.7085322,-0.18495163,0.68101037,-0.0625532,0.9777053,0.20044813,,-0.23890254,0.16159962,0.22793177,0.18403928,-0.77149,-0.60904247,-0.92727196,-0.34180194,0.15276812,-0.32603094,0.5366327,-0.778286,,0.09583747,-0.017167443,0.26114488,-0.9760217,0.13849664,-0.16792907,0.111134715,0.9804058,0.16264592,0.18716455,0.14008322,-0.9722891,,-0.5182185440590873,0.020287619260587787,0.14358745072,0.167961644731104,-0.006695188488506582,0.9874012912509638,-0.05749711127926638,,-1.383017894047622,0.03005687634648179,0.14062283549000001,0.12916900518646698,-0.020905384464112386,1.1811323437488452,0.11532091069080108
0.8376976499998818,,0.096759625,0.037812836,0.35534295,-0.70290065,0.09942454,-0.7043049,-0.7085322,-0.18495163,0.68101037,-0.0625532,0.9777053,0.20044813,,-0.23890254,0.16159962,0.22793177,0.18403928,-0.77149,-0.60904247,-0.92727196,-0.34180194,0.15276812,-0.32603094,0.5366327,-0.778286,,0.09583747,-0.017167443,0.26114488,-0.9760217,0.13849664,-0.16792907,0.111134715,0.9804058,0.16264592,0.18716455,0.14008322,-0.9722891,,-0.5182185440590873,0.020287619260587787,0.14358745072,0.167961644731104,-0.006695188488506582,0.9874012912509638,-0.05749711127926638,,-1.383017894047622,0.03005687634648179,0.14062283549000001,0.12916900518646698,-0.020905384464112386,1.1811323437488452,0.11532091069080108
0.8621660189999147,,0.09675895,0.0378132,0.3553437,-0.70290005,0.0994307,-0.7043046,-0.7085328,-0.18495601,0.6810086,-0.06255223,0.9777038,0.20045552,,-0.23889798,0.16160093,0.22792976,0.18404019,-0.77149457,-0.60903645,-0.92727196,-0.34180143,0.15277019,-0.32603088,0.53662646,-0.7782904,,0.09583747,-0.017167443,0.26114488,-0.9760217,0.13849664,-0.16792907,0.111134715,0.9804058,0.16264592,0.18716455,0.14008322,-0.9722891,,-0.5182108213262131,0.020287619260587787,0.14358745072,0.167961644731104,-0.006695188488506582,0.9874012912509638,-0.05749711127926638,,-1.3830256167804964,0.03005687634648179,0.14062283549000001,0.12916900518646698,-0.020905384464112386,1.1811323437488452,0.11532091069080108
0.8842086590000235,,0.09675895,0.0378132,0.3553437,-0.70290005,0.0994307,-0.7043046,-0.7085328,-0.18495601,0.6810086,-0.06255223,0.9777038,0.20045552,,-0.23890254,0.16159962,0.22793177,0.18403928,-0.77149,-0.60904247,-0.92727196,-0.34180194,0.15276812,-0.32603094,0.5366327,-0.778286,,0.09583747,-0.017167443,0.26114488,-0.9760217,0.13849664,-0.16792907,0.111134715,0.9804058,0.16264592,0.18716455,0.14008322,-0.9722891,,-0.5182108213262131,0.020287619260587787,0.14358745072,0.167961644731104,-0.006695188488506582,0.9874012912509638,-0.05749711127926638,,-1.383017894047622,0.03005687634648179,0.14062283549000001,0.12916900518646698,-0.020905384464112386,1.1811323437488452,0.11532091069080108
0.9065419849998761,,0.09675895,0.0378132,0.3553437,-0.70290005,0.0994307,-0.7043046,-0.7085328,-0.18495601,0.6810086,-0.06255223,0.9777038,0.20045552,,-0.23890254,0.16159962,0.22793177,0.18403928,-0.77149,-0.60904247,-0.92727196,-0.34180194,0.15276812,-0.32603094,0.5366327,-0.778286,,0.09583747,-0.017167443,0.26114488,-0.9760217,0.13849664,-0.16792907,0.111134715,0.9804058,0.16264592,0.18716455,0.14008322,-0.9722891,,-0.5182108213262131,0.020287619260587787,0.14358745072,0.167961644731104,-0.006695188488506582,0.9874012912509638,-0.05749711127926638,,-1.383017894047622,0.03005687634648179,0.14062283549000001,0.12916900518646698,-0.020905384464112386,1.1811323437488452,0.11532091069080108
0.9316362979998303,,0.09675895,0.0378132,0.3553437,-0.70290005,0.0994307,-0.7043046,-0.7085328,-0.18495601,0.6810086,-0.06255223,0.9777038,0.20045552,,-0.23890254,0.16159962,0.22793177,0.18403928,-0.77149,-0.60904247,-0.92727196,-0.34180194,0.15276812,-0.32603094,0.5366327,-0.778286,,0.09583747,-0.017167443,0.26114488,-0.9760217,0.13849664,-0.16792907,0.111134715,0.9804058,0.16264592,0.18716455,0.14008322,-0.9722891,,-0.5182108213262131,0.020287619260587787,0.14358745072,0.167961644731104,-0.006695188488506582,0.9874012912509638,-0.05749711127926638,,-1.383017894047622,0.03005687634648179,0.14062283549000001,0.12916900518646698,-0.020905384464112386,1.1811323437488452,0.11532091069080108
0.9522892999998476,,0.09675895,0.0378132,0.3553437,-0.70290005,0.0994307,-0.7043046,-0.7085328,-0.18495601,0.6810086,-0.06255223,0.9777038,0.20045552,,-0.23890254,0.16159962,0.22793177,0.18403928,-0.77149,-0.60904247,-0.92727196,-0.34180194,0.15276812,-0.32603094,0.5366327,-0.778286,,0.09583747,-0.017167443,0.26114488,-0.9760217,0.13849664,-0.16792907,0.111134715,0.9804058,0.16264592,0.18716455,0.14008322,-0.9722891,,-0.5182108213262131,0.020287619260587787,0.14358745072,0.167961644731104,-0.006695188488506582,0.9874012912509638,-0.05749711127926638,,-1.383017894047622,0.03005687634648179,0.14062283549000001,0.12916900518646698,-0.020905384464112386,1.1811323437488452,0.11532091069080108
0.9726722049999807,,0.096759625,0.037812836,0.35534295,-0.70290065,0.09942454,-0.7043049,-0.7085322,-0.18495163,0.68101037,-0.0625532,0.9777053,0.20044813,,-0.23890254,0.16159962,0.22793177,0.18403928,-0.77149,-0.60904247,-0.92727196,-0.34180194,0.15276812,-0.32603094,0.5366327,-0.778286,,0.09583747,-0.017167443,0.26114488,-0.9760217,0.13849664,-0.16792907,0.111134715,0.9804058,0.16264592,0.18716455,0.14008322,-0.9722891,,-0.5182185440590873,0.020287619260587787,0.14358745072,0.167961644731104,-0.006695188488506582,0.9874012912509638,-0.05749711127926638,,-1.383017894047622,0.03005687634648179,0.14062283549000001,0.12916900518646698,-0.020905384464112386,1.1811323437488452,0.11532091069080108
0.9987580790000266,,0.09675895,0.0378132,0.3553437,-0.70290005,0.0994307,-0.7043046,-0.7085328,-0.18495601,0.6810086,-0.06255223,0.9777038,0.20045552,,-0.23890167,0.16159633,0.2279304,0.18403687,-0.77149135,-0.6090414,-0.92727494,-0.34179592,0.15276428,-0.3260242,0.53663456,-0.7782876,,0.09583747,-0.017167443,0.26114488,-0.9760217,0.13849664,-0.16792907,0.111134715,0.9804058,0.16264592,0.18716455,0.14008322,-0.9722891,,-0.5182108213262131,0.020287619260587787,0.14358745072,0.167961644731104,-0.006695188488506582,0.9874012912509638,-0.05749711127926638,,-1.383017894047622,0.030049153613607566,0.14062283549000001,0.12916900518646698,-0.020905384464112386,1.1811323437488452,0.11532091069080108
1.020143287999872,,0.09675895,0.0378132,0.3553437,-0.70290005,0.0994307,-0.7043046,-0.7085328,-0.18495601,0.6810086,-0.06255223,0.9777038,0.20045552,,-0.23890167,0.16159633,0.2279304,0.18403687,-0.77149135,-0.6090414,-0.92727494,-0.34179592,0.15276428,-0.3260242,0.53663456,-0.7782876,,0.09583747,-0.017167443,0.26114488,-0.9760217,0.13849664,-0.16792907,0.111134715,0.9804058,0.16264592,0.18716455,0.14008322,-0.9722891,,-0.5182108213262131,0.020287619260587787,0.14358745072,0.167961644731104,-0.006695188488506582,0.9874012912509638,-0.05749711127926638,,-1.383017894047622,0.030049153613607566,0.14062283549000001,0.12916900518646698,-0.020905384464112386,1.1811323437488452,0.11532091069080108
1.040315519999922,,0.09675895,0.0378132,0.3553437,-0.70290005,0.0994307,-0.7043046,-0.7085328,-0.18495601,0.6810086,-0.06255223,0.9777038,0.20045552,,-0.23890254,0.16159962,0.22793177,0.18403928,-0.77149,-0.60904247,-0.92727196,-0.34180194,0.15276812,-0.32603094,0.5366327,-0.778286,,0.09583747,-0.017167443,0.26114488,-0.9760217,0.13849664,-0.16792907,0.111134715,0.9804058,0.16264592,0.18716455,0.14008322,-0.9722891,,-0.5182108213262131,0.020287619260587787,0.14358745072,0.167961644731104,-0.006695188488506582,0.9874012912509638,-0.05749711127926638,,-1.383017894047622,0.03005687634648179,0.14062283549000001,0.12916900518646698,-0.020905384464112386,1.1811323437488452,0.11532091069080108
1.065278360999855,,0.09675895,0.0378132,0.3553437,-0.70290005,0.0994307,-0.7043046,-0.7085328,-0.18495601,0.6810086,-0.06255223,0.9777038,0.20045552,,-0.23889798,0.16160093,0.22792976,0.18404019,-0.77149457,-0.60903645,-0.92727196,-0.34180143,0.15277019,-0.32603088,0.53662646,-0.7782904,,0.09583747,-0.017167443,0.26114488,-0.9760217,0.13849664,-0.16792907,0.111134715,0.9804058,0.16264592,0.18716455,0.14008322,-0.9722891,,-0.5182108213262131,0.020287619260587787,0.14358745072,0.167961644731104,-0.006695188488506582,0.9874012912509638,-0.05749711127926638,,-1.3830256167804964,0.03005687634648179,0.14062283549000001,0.12916900518646698,-0.020905384464112386,1.1811323437488452,0.11532091069080108
1.0900816239998221,,0.09675895,0.0378132,0.3553437,-0.70290005,0.0994307,-0.7043046,-0.7085328,-0.18495601,0.6810086,-0.06255223,0.9777038,0.20045552,,-0.23890254,0.16159962,0.22793177,0.18403928,-0.77149,-0.60904247,-0.92727196,-0.34180194,0.15276812,-0.32603094,0.5366327,-0.778286,,0.09583747,-0.017167443,0.26114488,-0.9760217,0.13849664,-0.16792907,0.111134715,0.9804058,0.16264592,0.18716455,0.14008322,-0.9722891,,-0.5182108213262131,0.020287619260587787,0.14358745072,0.167961644731104,-0.006695188488506582,0.9874012912509638,-0.05749711127926638,,-1.383017894047622,0.03005687634648179,0.14062283549000001,0.12916900518646698,-0.020905384464112386,1.1811323437488452,0.11532091069080108
1.1143205189998753,,0.09675895,0.0378132,0.3553437,-0.70290005,0.0994307,-0.7043046,-0.7085328,-0.18495601,0.6810086,-0.06255223,0.9777038,0.20045552,,-0.23890254,0.16159962,0.22793177,0.18403928,-0.77149,-0.60904247,-0.92727196,-0.34180194,0.15276812,-0.32603094,0.5366327,-0.778286,,0.09583747,-0.017167443,0.26114488,-0.9760217,0.13849664,-0.16792907,0.111134715,0.9804058,0.16264592,0.18716455,0.14008322,-0.9722891,,-0.5182108213262131,0.020287619260587787,0.14358745072,0.167961644731104,-0.006695188488506582,0.9874012912509638,-0.05749711127926638,,-1.383017894047622,0.03005687634648179,0.14062283549000001,0.12916900518646698,-0.020905384464112386,1.1811323437488452,0.11532091069080108
1.1361197339999762,,0.09675895,0.0378132,0.3553437,-0.70290005,0.0994307,-0.7043046,-0.7085328,-0.18495601,0.6810086,-0.06255223,0.9777038,0.20045552,,-0.23890254,0.16159962,0.22793177,0.18403928,-0.77149,-0.60904247,-0.92727196,-0.34180194,0.15276812,-0.32603094,0.5366327,-0.778286,,0.09583747,-0.017167443,0.26114488,-0.9760217,0.13849664,-0.16792907,0.111134715,0.9804058,0.16264592,0.18716455,0.14008322,-0.9722891,,-0.5182108213262131,0.020287619260587787,0.14358745072,0.167961644731104,-0.006695188488506582,0.9874012912509638,-0.05749711127926638,,-1.383017894047622,0.03005687634648179,0.14062283549000001,0.12916900518646698,-0.020905384464112386,1.1811323437488452,0.11532091069080108
1.161657507999962,,0.09675895,0.0378132,0.3553437,-0.70290005,0.0994307,-0.7043046,-0.7085328,-0.18495601,0.6810086,-0.06255223,0.9777038,0.20045552,,-0.23890254,0.16159962,0.22793177,0.18403928,-0.77149,-0.60904247,-0.92727196,-0.34180194,0.15276812,-0.32603094,0.5366327,-0.778286,,0.09583747,-0.017167443,0.26114488,-0.9760217,0.13849664,-0.16792907,0.111134715,0.9804058,0.16264592,0.18716455,0.14008322,-0.9722891,,-0.5182108213262131,0.020287619260587787,0.14358745072,0.167961644731104,-0.006695188488506582,0.9874012912509638,-0.05749711127926638,,-1.383017894047622,0.03005687634648179,0.14062283549000001,0.12916900518646698,-0.020905384464112386,1.1811323437488452,0.11532091069080108
1.1805356049999318,,0.096759625,0.037812836,0.35534295,-0.70290065,0.09942454,-0.7043049,-0.7085322,-0.18495163,0.68101037,-0.0625532,0.9777053,0.20044813,,-0.23890254,0.16159962,0.22793177,0.18403928,-0.77149,-0.60904247,-0.92727196,-0.34180194,0.15276812,-0.32603094,0.5366327,-0.778286,,0.09583747,-0.017167443,0.26114488,-0.9760217,0.13849664,-0.16792907,0.111134715,0.9804058,0.16264592,0.18716455,0.14008322,-0.9722891,,-0.5182185440590873,0.020287619260587787,0.14358745072,0.167961644731104,-0.006695188488506582,0.9874012912509638,-0.05749711127926638,,-1.383017894047622,0.03005687634648179,0.14062283549000001,0.12916900518646698,-0.020905384464112386,1.1811323437488452,0.11532091069080108
1.2048908869999195,,0.096759625,0.037812836,0.35534295,-0.70290065,0.09942454,-0.7043049,-0.7085322,-0.18495163,0.68101037,-0.0625532,0.9777053,0.20044813,,-0.23890167,0.16159633,0.2279304,0.18403687,-0.77149135,-0.6090414,-0.92727494,-0.34179592,0.15276428,-0.3260242,0.53663456,-0.7782876,,0.09583747,-0.017167443,0.26114488,-0.9760217,0.13849664,-0.16792907,0.111134715,0.9804058,0.16264592,0.18716455,0.14008322,-0.9722891,,-0.5182185440590873,0.020287619260587787,0.14358745072,0.167961644731104,-0.006695188488506582,0.9874012912509638,-0.05749711127926638,,-1.383017894047622,0.030049153613607566,0.14062283549000001,0.12916900518646698,-0.020905384464112386,1.1811323437488452,0.11532091069080108
1.2317281749999438,,0.09675895,0.0378132,0.3553437,-0.70290005,0.0994307,-0.7043046,-0.7085328,-0.18495601,0.6810086,-0.06255223,0.9777038,0.20045552,,-0.23889798,0.16160093,0.22792976,0.18404019,-0.77149457,-0.60903645,-0.92727196,-0.34180143,0.15277019,-0.32603088,0.53662646,-0.7782904,,0.09583747,-0.017167443,0.26114488,-0.9760217,0.13849664,-0.16792907,0.111134715,0.9804058,0.16264592,0.18716455,0.14008322,-0.9722891,,-0.5182108213262131,0.020287619260587787,0.14358745072,0.167961644731104,-0.006695188488506582,0.9874012912509638,-0.05749711127926638,,-1.3830256167804964,0.03005687634648179,0.14062283549000001,0.12916900518646698,-0.020905384464112386,1.1811323437488452,0.11532091069080108
1.25289090199999,,0.09675895,0.0378132,0.3553437,-0.70290005,0.0994307,-0.7043046,-0.7085328,-0.18495601,0.6810086,-0.06255223,0.9777038,0.20045552,,-0.23889798,0.16160093,0.22792976,0.18404019,-0.77149457,-0.60903645,-0.92727196,-0.34180143,0.15277019,-0.32603088,0.53662646,-0.7782904,,0.09583747,-0.017167443,0.26114488,-0.9760217,0.13849664,-0.16792907,0.111134715,0.9804058,0.16264592,0.18716455,0.14008322,-0.9722891,,-0.5182108213262131,0.020287619260587787,0.14358745072,0.167961644731104,-0.006695188488506582,0.9874012912509638,-0.05749711127926638,,-1.3830256167804964,0.03005687634648179,0.14062283549000001,0.12916900518646698,-0.020905384464112386,1.1811323437488452,0.11532091069080108
1.273976380000022,,0.09675895,0.0378132,0.3553437,-0.70290005,0.0994307,-0.7043046,-0.7085328,-0.18495601,0.6810086,-0.06255223,0.9777038,0.20045552,,-0.23890254,0.16159962,0.22793177,0.18403928,-0.77149,-0.60904247,-0.92727196,-0.34180194,0.15276812,-0.32603094,0.5366327,-0.778286,,0.09583747,-0.017167443,0.26114488,-0.9760217,0.13849664,-0.16792907,0.111134715,0.9804058,0.16264592,0.18716455,0.14008322,-0.9722891,,-0.5182108213262131,0.020287619260587787,0.14358745072,0.167961644731104,-0.006695188488506582,0.9874012912509638,-0.05749711127926638,,-1.383017894047622,0.03005687634648179,0.14062283549000001,0.12916900518646698,-0.020905384464112386,1.1811323437488452,0.11532091069080108
1.299081100999956,,0.09675895,0.0378132,0.3553437,-0.70290005,0.0994307,-0.7043046,-0.7085328,-0.18495601,0.6810086,-0.06255223,0.9777038,0.20045552,,-0.23890254,0.16159962,0.22793177,0.18403928,-0.77149,-0.60904247,-0.92727196,-0.34180194,0.15276812,-0.32603094,0.5366327,-0.778286,,0.09583747,-0.017167443,0.26114488,-0.9760217,0.13849664,-0.16792907,0.111134715,0.9804058,0.16264592,0.18716455,0.14008322,-0.9722891,,-0.5182108213262131,0.020287619260587787,0.14358745072,0.167961644731104,-0.006695188488506582,0.9874012912509638,-0.05749711127926638,,-1.383017894047622,0.03005687634648179,0.14062283549000001,0.12916900518646698,-0.020905384464112386,1.1811323437488452,0.11532091069080108
1.3214373819998855,,0.09675895,0.0378132,0.3553437,-0.70290005,0.0994307,-0.7043046,-0.7085328,-0.18495601,0.6810086,-0.06255223,0.9777038,0.20045552,,-0.23890254,0.16159962,0.22793177,0.18403928,-0.77149,-0.60904247,-0.92727196,-0.34180194,0.15276812,-0.32603094,0.5366327,-0.778286,,0.09583747,-0.017167443,0.26114488,-0.9760217,0.13849664,-0.16792907,0.111134715,0.9804058,0.16264592,0.18716455,0.14008322,-0.9722891,,-0.5182108213262131,0.020287619260587787,0.14358745072,0.167961644731104,-0.006695188488506582,0.9874012912509638,-0.05749711127926638,,-1.383017894047622,0.03005687634648179,0.14062283549000001,0.12916900518646698,-0.020905384464112386,1.1811323437488452,0.11532091069080108
1.347031904000005,,0.09675895,0.0378132,0.3553437,-0.70290005,0.0994307,-0.7043046,-0.7085328,-0.18495601,0.6810086,-0.06255223,0.9777038,0.20045552,,-0.23890167,0.16159633,0.2279304,0.18403687,-0.77149135,-0.6090414,-0.92727494,-0.34179592,0.15276428,-0.3260242,0.53663456,-0.7782876,,0.09583747,-0.017167443,0.26114488,-0.9760217,0.13849664,-0.16792907,0.111134715,0.9804058,0.16264592,0.18716455,0.14008322,-0.9722891,,-0.5182108213262131,0.020287619260587787,0.14358745072,0.167961644731104,-0.006695188488506582,0.9874012912509638,-0.05749711127926638,,-1.383017894047622,0.030049153613607566,0.14062283549000001,0.12916900518646698,-0.020905384464112386,1.1811323437488452,0.11532091069080108
1.3703714239998135,,0.096759625,0.037812836,0.35534295,-0.70290065,0.09942454,-0.7043049,-0.7085322,-0.18495163,0.68101037,-0.0625532,0.9777053,0.20044813,,-0.23886359,0.16160955,0.22790499,0.1840448,-0.77153957,-0.60897803,-0.9272744,-0.3417879,0.15278529,-0.3260212,0.5365703,-0.7783332,,0.09583747,-0.017167443,0.26114488,-0.9760217,0.13849664,-0.16792907,0.111134715,0.9804058,0.16264592,0.18716455,0.14008322,-0.9722891,,-0.5182185440590873,0.020287619260587787,0.14358745072,0.167961644731104,-0.006695188488506582,0.9874012912509638,-0.05749711127926638,,-1.383017894047622,0.03005687634648179,0.14062283549000001,0.12916900518646698,-0.020905384464112386,1.181050665008705,0.11548425475693525
1.390308677999883,,0.09675895,0.0378132,0.3553437,-0.70290005,0.0994307,-0.7043046,-0.7085328,-0.18495601,0.6810086,-0.06255223,0.9777038,0.20045552,,-0.23882455,0.16161947,0.22787815,0.18405029,-0.77158916,-0.6089135,-0.9272767,-0.34177393,0.15280244,-0.32601142,0.5365079,-0.77838016,,0.09583747,-0.017167443,0.26114488,-0.9760217,0.13849664,-0.16792907,0.111134715,0.9804058,0.16264592,0.18716455,0.14008322,-0.9722891,,-0.5182108213262131,0.020287619260587787,0.14358745072,0.167961644731104,-0.006695188488506582,0.9874012912509638,-0.05749711127926638,,-1.383017894047622,0.03005687634648179,0.14062283549000001,0.12916900518646698,-0.020905384464112386,1.1809689862685642,0.11564759882306941
1.4152723289998903,,0.09675895,0.0378132,0.3553437,-0.70290005,0.0994307,-0.7043046,-0.7085328,-0.18495601,0.6810086,-0.06255223,0.9777038,0.20045552,,-0.23882455,0.16161947,0.22787815,0.18405029,-0.77158916,-0.6089135,-0.9272767,-0.34177393,0.15280244,-0.32601142,0.5365079,-0.77838016,,0.09583747,-0.017167443,0.26114488,-0.9760217,0.13849664,-0.16792907,0.111134715,0.9804058,0.16264592,0.18716455,0.14008322,-0.9722891,,-0.5182108213262131,0.020287619260587787,0.14358745072,0.167961644731104,-0.006695188488506582,0.9874012912509638,-0.05749711127926638,,-1.383017894047622,0.03005687634648179,0.14062283549000001,0.12916900518646698,-0.020905384464112386,1.1809689862685642,0.11564759882306941
1.4362242319998586,,0.09681827,0.037766837,0.3553339,-0.7028525,0.099415325,-0.7043542,-0.70857763,-0.18495832,0.68096125,-0.0625782,0.97770494,0.20044193,,-0.23882455,0.16161947,0.22787815,0.18405029,-0.77158916,-0.6089135,-0.9272767,-0.34177393,0.15280244,-0.32601142,0.5365079,-0.77838016,,0.09583747,-0.017167443,0.26114488,-0.9760217,0.13849664,-0.16792907,0.111134715,0.9804058,0.16264592,0.18716455,0.14008322,-0.9722891,,-0.5182108213262131,0.020287619260587787,0.14358745072,0.167961644731104,-0.006695188488506582,0.9874012912509638,-0.05749711127926638,,-1.383017894047622,0.03005687634648179,0.14062283549000001,0.12916900518646698,-0.020905384464112386,1.1809689862685642,0.11564759882306941
1.4580484589998832,,0.09680499,0.037771627,0.3553378,-0.70285743,0.099414565,-0.7043494,-0.70857286,-0.18495807,0.6809662,-0.06257717,0.977705,0.20044164,,-0.23887303,0.16167006,0.22786614,0.1839904,-0.77165663,-0.60884595,-0.9272858,-0.34171712,0.15287384,-0.32601923,0.5364469,-0.77841896,,0.095823765,-0.017162733,0.26114884,-0.9760209,0.1385034,-0.16792846,0.11114157,0.9804049,0.16264614,0.18716493,0.14008223,-0.9722891,,-0.5182108213262131,0.020287619260587787,0.14358745072,0.167961644731104,-0.006695188488506582,0.9874012912509638,-0.05749711127926638,,-1.383017894047622,0.030049153613607566,0.14062283549000001,0.12916900518646698,-0.020905384464112386,1.1809689862685642,0.11564759882306941
1.4850520190000225,,0.09680499,0.037771627,0.3553378,-0.70285743,0.099414565,-0.7043494,-0.70857286,-0.18495807,0.6809662,-0.06257717,0.977705,0.20044164,,-0.23887303,0.16167006,0.22786614,0.1839904,-0.77165663,-0.60884595,-0.9272858,-0.34171712,0.15287384,-0.32601923,0.5364469,-0.77841896,,0.095823765,-0.017162733,0.26114884,-0.9760209,0.1385034,-0.16792846,0.11114157,0.9804049,0.16264614,0.18716493,0.14008223,-0.9722891,,-0.5182108213262131,0.020287619260587787,0.14358745072,0.167961644731104,-0.006695188488506582,0.9874012912509638,-0.05749711127926638,,-1.383017894047622,0.030049153613607566,0.14062283549000001,0.12916900518646698,-0.020905384464112386,1.1809689862685642,0.11564759882306941
1.5055529049998313,,0.09680499,0.037771627,0.3553378,-0.70285743,0.099414565,-0.7043494,-0.70857286,-0.18495807,0.6809662,-0.06257717,0.977705,0.20044164,,-0.23887393,0.16167334,0.22786756,0.18399277,-0.7716553,-0.60884696,-0.9272829,-0.34172314,0.15287767,-0.32602596,0.536445,-0.77841747,,0.095823765,-0.017162733,0.26114884,-0.9760209,0.1385034,-0.16792846,0.11114157,0.9804049,0.16264614,0.18716493,0.14008223,-0.9722891,,-0.5182108213262131,0.020287619260587787,0.14358745072,0.167961644731104,-0.006695188488506582,0.9874012912509638,-0.05749711127926638,,-1.383017894047622,0.03005687634648179,0.14062283549000001,0.12916900518646698,-0.020905384464112386,1.1809689862685642,0.11564759882306941
1.5292662119998113,,0.09680499,0.037771627,0.3553378,-0.70285743,0.099414565,-0.7043494,-0.70857286,-0.18495807,0.6809662,-0.06257717,0.977705,0.20044164,,-0.23887393,0.16167334,0.22786756,0.18399277,-0.7716553,-0.60884696,-0.9272829,-0.34172314,0.15287767,-0.32602596,0.536445,-0.77841747,,0.095823765,-0.017162733,0.26114884,-0.9760209,0.1385034,-0.16792846,0.11114157,0.9804049,0.16264614,0.18716493,0.14008223,-0.9722891,,-0.5182108213262131,0.020287619260587787,0.14358745072,0.167961644731104,-0.006695188488506582,0.9874012912509638,-0.05749711127926638,,-1.383017894047622,0.03005687634648179,0.14062283549000001,0.12916900518646698,-0.020905384464112386,1.1809689862685642,0.11564759882306941
1.5534690289998707,,0.09680499,0.037771627,0.3553378,-0.70285743,0.099414565,-0.7043494,-0.70857286,-0.18495807,0.6809662,-0.06257717,0.977705,0.20044164,,-0.23886931,0.16167465,0.2278655,0.18399367,-0.77165985,-0.6088409,-0.92728287,-0.34172267,0.15287974,-0.3260259,0.5364389,-0.7784217,,0.095823765,-0.017162733,0.26114884,-0.9760209,0.1385034,-0.16792846,0.11114157,0.9804049,0.16264614,0.18716493,0.14008223,-0.9722891,,-0.5182108213262131,0.020287619260587787,0.14358745072,0.167961644731104,-0.006695188488506582,0.9874012912509638,-0.05749711127926638,,-1.3830256167804964,0.03005687634648179,0.14062283549000001,0.12916900518646698,-0.020905384464112386,1.1809689862685642,0.11564759882306941
1.5731032669998513,,0.09680499,0.037771627,0.3553378,-0.70285743,0.099414565,-0.7043494,-0.70857286,-0.18495807,0.6809662,-0.06257717,0.977705,0.20044164,,-0.23887303,0.16167006,0.22786614,0.1839904,-0.77165663,-0.60884595,-0.9272858,-0.34171712,0.15287384,-0.32601923,0.5364469,-0.77841896,,0.095823765,-0.017162733,0.26114884,-0.9760209,0.1385034,-0.16792846,0.11114157,0.9804049,0.16264614,0.18716493,0.14008223,-0.9722891,,-0.5182108213262131,0.020287619260587787,0.14358745072,0.167961644731104,-0.006695188488506582,0.9874012912509638,-0.05749711127926638,,-1.383017894047622,0.030049153613607566,0.14062283549000001,0.12916900518646698,-0.020905384464112386,1.1809689862685642,0.11564759882306941
1.5980107999998836,,0.09680499,0.037771627,0.3553378,-0.70285743,0.099414565,-0.7043494,-0.70857286,-0.18495807,0.6809662,-0.06257717,0.977705,0.20044164,,-0.23887303,0.16167006,0.22786614,0.1839904,-0.77165663,-0.60884595,-0.9272858,-0.34171712,0.15287384,-0.32601923,0.5364469,-0.77841896,,0.095823765,-0.017162733,0.26114884,-0.9760209,0.1385034,-0.16792846,0.11114157,0.9804049,0.16264614,0.18716493,0.14008223,-0.9722891,,-0.5182108213262131,0.020287619260587787,0.14358745072,0.167961644731104,-0.006695188488506582,0.9874012912509638,-0.05749711127926638,,-1.383017894047622,0.030049153613607566,0.14062283549000001,0.12916900518646698,-0.020905384464112386,1.1809689862685642,0.11564759882306941
1.6197546480000256,,0.09680499,0.037771627,0.3553378,-0.70285743,0.099414565,-0.7043494,-0.70857286,-0.18495807,0.6809662,-0.06257717,0.977705,0.20044164,,-0.23886931,0.16167465,0.2278655,0.18399367,-0.77165985,-0.6088409,-0.92728287,-0.34172267,0.15287974,-0.3260259,0.5364389,-0.7784217,,0.095823765,-0.017162733,0.26114884,-0.9760209,0.1385034,-0.16792846,0.11114157,0.9804049,0.16264614,0.18716493,0.14008223,-0.9722891,,-0.5182108213262131,0.020287619260587787,0.14358745072,0.167961644731104,-0.006695188488506582,0.9874012912509638,-0.05749711127926638,,-1.3830256167804964,0.03005687634648179,0.14062283549000001,0.12916900518646698,-0.020905384464112386,1.1809689862685642,0.11564759882306941
1.6399072709998563,,0.09680499,0.037771627,0.3553378,-0.70285743,0.099414565,-0.7043494,-0.70857286,-0.18495807,0.6809662,-0.06257717,0.977705,0.20044164,,-0.23887393,0.16167334,0.22786756,0.18399277,-0.7716553,-0.60884696,-0.9272829,-0.34172314,0.15287767,-0.32602596,0.536445,-0.77841747,,0.095823765,-0.017162733,0.26114884,-0.9760209,0.1385034,-0.16792846,0.11114157,0.9804049,0.16264614,0.18716493,0.14008223,-0.9722891,,-0.5182108213262131,0.020287619260587787,0.14358745072,0.167961644731104,-0.006695188488506582,0.9874012912509638,-0.05749711127926638,,-1.383017894047622,0.03005687634648179,0.14062283549000001,0.12916900518646698,-0.020905384464112386,1.1809689862685642,0.11564759882306941
1.6662309619998723,,0.09680499,0.037771627,0.3553378,-0.70285743,0.099414565,-0.7043494,-0.70857286,-0.18495807,0.6809662,-0.06257717,0.977705,0.20044164,,-0.23887303,0.16167006,0.22786614,0.1839904,-0.77165663,-0.60884595,-0.9272858,-0.34171712,0.15287384,-0.32601923,0.5364469,-0.77841896,,0.095823765,-0.017162733,0.26114884,-0.9760209,0.1385034,-0.16792846,0.11114157,0.9804049,0.16264614,0.18716493,0.14008223,-0.9722891,,-0.5182108213262131,0.020287619260587787,0.14358745072,0.167961644731104,-0.006695188488506582,0.9874012912509638,-0.05749711127926638,,-1.383017894047622,0.030049153613607566,0.14062283549000001,0.12916900518646698,-0.020905384464112386,1.1809689862685642,0.11564759882306941
1.6882048079999095,,0.09680499,0.037771627,0.3553378,-0.70285743,0.099414565,-0.7043494,-0.70857286,-0.18495807,0.6809662,-0.06257717,0.977705,0.20044164,,-0.23887303,0.16167006,0.22786614,0.1839904,-0.77165663,-0.60884595,-0.9272858,-0.34171712,0.15287384,-0.32601923,0.5364469,-0.77841896,,0.095823765,-0.017162733,0.26114884,-0.9760209,0.1385034,-0.16792846,0.11114157,0.9804049,0.16264614,0.18716493,0.14008223,-0.9722891,,-0.5182108213262131,0.020287619260587787,0.14358745072,0.167961644731104,-0.006695188488506582,0.9874012912509638,-0.05749711127926638,,-1.383017894047622,0.030049153613607566,0.14062283549000001,0.12916900518646698,-0.020905384464112386,1.1809689862685642,0.11564759882306941
1.70845119899991,,0.09680499,0.037771627,0.3553378,-0.70285743,0.099414565,-0.7043494,-0.70857286,-0.18495807,0.6809662,-0.06257717,0.977705,0.20044164,,-0.23887303,0.16167006,0.22786614,0.1839904,-0.77165663,-0.60884595,-0.9272858,-0.34171712,0.15287384,-0.32601923,0.5364469,-0.77841896,,0.095823765,-0.017162733,0.26114884,-0.9760209,0.1385034,-0.16792846,0.11114157,0.9804049,0.16264614,0.18716493,0.14008223,-0.9722891,,-0.5182108213262131,0.020287619260587787,0.14358745072,0.167961644731104,-0.006695188488506582,0.9874012912509638,-0.05749711127926638,,-1.383017894047622,0.030049153613607566,0.14062283549000001,0.12916900518646698,-0.020905384464112386,1.1809689862685642,0.11564759882306941
1.7322661079999762,,0.09680567,0.037771262,0.35533708,-0.702858,0.09940841,-0.70434976,-0.7085723,-0.1849537,0.68096805,-0.06257817,0.97770643,0.20043425,,-0.23886931,0.16167465,0.2278655,0.18399367,-0.77165985,-0.6088409,-0.92728287,-0.34172267,0.15287974,-0.3260259,0.5364389,-0.7784217,,0.095823765,-0.017162733,0.26114884,-0.9760209,0.1385034,-0.16792846,0.11114157,0.9804049,0.16264614,0.18716493,0.14008223,-0.9722891,,-0.5182185440590873,0.020287619260587787,0.14358745072,0.167961644731104,-0.006695188488506582,0.9874012912509638,-0.05749711127926638,,-1.3830256167804964,0.03005687634648179,0.14062283549000001,0.12916900518646698,-0.020905384464112386,1.1809689862685642,0.11564759882306941
1.756356445999927,,0.09680567,0.037771262,0.35533708,-0.702858,0.09940841,-0.70434976,-0.7085723,-0.1849537,0.68096805,-0.06257817,0.97770643,0.20043425,,-0.23887393,0.16167334,0.22786756,0.18399277,-0.7716553,-0.60884696,-0.9272829,-0.34172314,0.15287767,-0.32602596,0.536445,-0.77841747,,0.095823765,-0.017162733,0.26114884,-0.9760209,0.1385034,-0.16792846,0.11114157,0.9804049,0.16264614,0.18716493,0.14008223,-0.9722891,,-0.5182185440590873,0.020287619260587787,0.14358745072,0.167961644731104,-0.006695188488506582,0.9874012912509638,-0.05749711127926638,,-1.383017894047622,0.03005687634648179,0.14062283549000001,0.12916900518646698,-0.020905384464112386,1.1809689862685642,0.11564759882306941
1.7819249739998213,,0.09680499,0.037771627,0.3553378,-0.70285743,0.099414565,-0.7043494,-0.70857286,-0.18495807,0.6809662,-0.06257717,0.977705,0.20044164,,-0.23887393,0.16167334,0.22786756,0.18399277,-0.7716553,-0.60884696,-0.9272829,-0.34172314,0.15287767,-0.32602596,0.536445,-0.77841747,,0.095823765,-0.017162733,0.26114884,-0.9760209,0.1385034,-0.16792846,0.11114157,0.9804049,0.16264614,0.18716493,0.14008223,-0.9722891,,-0.5182108213262131,0.020287619260587787,0.14358745072,0.167961644731104,-0.006695188488506582,0.9874012912509638,-0.05749711127926638,,-1.383017894047622,0.03005687634648179,0.14062283549000001,0.12916900518646698,-0.020905384464112386,1.1809689862685642,0.11564759882306941
1.8023225379999985,,0.09680499,0.037771627,0.3553378,-0.70285743,0.099414565,-0.7043494,-0.70857286,-0.18495807,0.6809662,-0.06257717,0.977705,0.20044164,,-0.23887303,0.16167006,0.22786614,0.1839904,-0.77165663,-0.60884595,-0.9272858,-0.34171712,0.15287384,-0.32601923,0.5364469,-0.77841896,,0.095823765,-0.017162733,0.26114884,-0.9760209,0.1385034,-0.16792846,0.11114157,0.9804049,0.16264614,0.18716493,0.14008223,-0.9722891,,-0.5182108213262131,0.020287619260587787,0.14358745072,0.167961644731104,-0.006695188488506582,0.9874012912509638,-0.05749711127926638,,-1.383017894047622,0.030049153613607566,0.14062283549000001,0.12916900518646698,-0.020905384464112386,1.1809689862685642,0.11564759882306941
1.8247926110000208,,0.09680499,0.037771627,0.3553378,-0.70285743,0.099414565,-0.7043494,-0.70857286,-0.18495807,0.6809662,-0.06257717,0.977705,0.20044164,,-0.23887303,0.16167006,0.22786614,0.1839904,-0.77165663,-0.60884595,-0.9272858,-0.34171712,0.15287384,-0.32601923,0.5364469,-0.77841896,,0.095823765,-0.017162733,0.26114884,-0.9760209,0.1385034,-0.16792846,0.11114157,0.9804049,0.16264614,0.18716493,0.14008223,-0.9722891,,-0.5182108213262131,0.020287619260587787,0.14358745072,0.167961644731104,-0.006695188488506582,0.9874012912509638,-0.05749711127926638,,-1.383017894047622,0.030049153613607566,0.14062283549000001,0.12916900518646698,-0.020905384464112386,1.1809689862685642,0.11564759882306941
1.8519169129999682,,0.09680499,0.037771627,0.3553378,-0.70285743,0.099414565,-0.7043494,-0.70857286,-0.18495807,0.6809662,-0.06257717,0.977705,0.20044164,,-0.23887393,0.16167334,0.22786756,0.18399277,-0.7716553,-0.60884696,-0.9272829,-0.34172314,0.15287767,-0.32602596,0.536445,-0.77841747,,0.095823765,-0.017162733,0.26114884,-0.9760209,0.1385034,-0.16792846,0.11114157,0.9804049,0.16264614,0.18716493,0.14008223,-0.9722891,,-0.5182108213262131,0.020287619260587787,0.14358745072,0.167961644731104,-0.006695188488506582,0.9874012912509638,-0.05749711127926638,,-1.383017894047622,0.03005687634648179,0.14062283549000001,0.12916900518646698,-0.020905384464112386,1.1809689862685642,0.11564759882306941
1.8731391929998154,,0.09680567,0.037771262,0.35533708,-0.702858,0.09940841,-0.70434976,-0.7085723,-0.1849537,0.68096805,-0.06257817,0.97770643,0.20043425,,-0.23886931,0.16167465,0.2278655,0.18399367,-0.77165985,-0.6088409,-0.92728287,-0.34172267,0.15287974,-0.3260259,0.5364389,-0.7784217,,0.095823765,-0.017162733,0.26114884,-0.9760209,0.1385034,-0.16792846,0.11114157,0.9804049,0.16264614,0.18716493,0.14008223,-0.9722891,,-0.5182185440590873,0.020287619260587787,0.14358745072,0.167961644731104,-0.006695188488506582,0.9874012912509638,-0.05749711127926638,,-1.3830256167804964,0.03005687634648179,0.14062283549000001,0.12916900518646698,-0.020905384464112386,1.1809689862685642,0.11564759882306941
1.8984521600000335,,0.09680567,0.037771262,0.35533708,-0.702858,0.09929333,-0.70436597,-0.7085723,-0.18484247,0.6809982,-0.06257817,0.97773916,0.20027451,,-0.23887393,0.16167334,0.22786756,0.18399277,-0.7716553,-0.60884696,-0.9272829,-0.34172314,0.15287767,-0.32602596,0.536445,-0.77841747,,0.095823765,-0.017162733,0.26114884,-0.9760209,0.1385034,-0.16792846,0.11114157,0.9804049,0.16264614,0.18716493,0.14008223,-0.9722891,,-0.5182185440590873,0.020287619260587787,0.14358745072,0.167961644731104,-0.006695188488506582,0.9872379337706827,-0.057823799411534926,,-1.383017894047622,0.03005687634648179,0.14062283549000001,0.12916900518646698,-0.020905384464112386,1.1809689862685642,0.11564759882306941
1.9220610719999058,,0.09680411,0.037770744,0.3553377,-0.70279306,0.09945813,-0.7044075,-0.70864516,-0.1848419,0.68092245,-0.06248077,0.9777225,0.20038617,,-0.23887303,0.16167006,0.22786614,0.1839904,-0.77165663,-0.60884595,-0.9272858,-0.34171712,0.15287384,-0.32601923,0.5364469,-0.77841896,,0.095823765,-0.017162733,0.26114884,-0.9760209,0.1385034,-0.16792846,0.11114157,0.9804049,0.16264614,0.18716493,0.14008223,-0.9722891,,-0.5182108213262131,0.020287619260587787,0.14358745072,0.167961644731104,-0.006831824988272023,0.9873493516743792,-0.057823799411534926,,-1.383017894047622,0.030049153613607566,0.14062283549000001,0.12916900518646698,-0.020905384464112386,1.1809689862685642,0.11564759882306941
1.941235321000022,,0.09680324,0.03776986,0.35533765,-0.7027286,0.09961676,-0.7044493,-0.70871764,-0.18483695,0.6808485,-0.062384356,0.9777073,0.20049039,,-0.23887303,0.16167006,0.22786614,0.1839904,-0.77165663,-0.60884595,-0.9272858,-0.34171712,0.15287384,-0.32601923,0.5364469,-0.77841896,,0.095823765,-0.017162733,0.26114884,-0.9760209,0.1385034,-0.16792846,0.11114157,0.9804049,0.16264614,0.18716493,0.14008223,-0.9722891,,-0.5182108213262131,0.020287619260587787,0.14358745072,0.167961644731104,-0.0069684614880374625,0.9874607695780757,-0.057823799411534926,,-1.383017894047622,0.030049153613607566,0.14062283549000001,0.12916900518646698,-0.020905384464112386,1.1809689862685642,0.11564759882306941
1.9673346729998684,,0.09680324,0.03776986,0.35533765,-0.7027286,0.09961676,-0.7044493,-0.70871764,-0.18483695,0.6808485,-0.062384356,0.9777073,0.20049039,,-0.23887303,0.16167006,0.22786614,0.1839904,-0.77165663,-0.60884595,-0.9272858,-0.34171712,0.15287384,-0.32601923,0.5364469,-0.77841896,,0.095823765,-0.017162733,0.26114884,-0.9760209,0.1385034,-0.16792846,0.11114157,0.9804049,0.16264614,0.18716493,0.14008223,-0.9722891,,-0.5182108213262131,0.020287619260587787,0.14358745072,0.167961644731104,-0.0069684614880374625,0.9874607695780757,-0.057823799411534926,,-1.383017894047622,0.030049153613607566,0.14062283549000001,0.12916900518646698,-0.020905384464112386,1.1809689862685642,0.11564759882306941
1.9895728839999265,,0.09680324,0.03776986,0.35533765,-0.7027286,0.09961676,-0.7044493,-0.70871764,-0.18483695,0.6808485,-0.062384356,0.9777073,0.20049039,,-0.23887393,0.16167334,0.22786756,0.18399277,-0.7716553,-0.60884696,-0.9272829,-0.34172314,0.15287767,-0.32602596,0.536445,-0.77841747,,0.095823765,-0.017162733,0.26114884,-0.9760209,0.1385034,-0.16792846,0.11114157,0.9804049,0.16264614,0.18716493,0.14008223,-0.9722891,,-0.5182108213262131,0.020287619260587787,0.14358745072,0.167961644731104,-0.0069684614880374625,0.9874607695780757,-0.057823799411534926,,-1.383017894047622,0.03005687634648179,0.14062283549000001,0.12916900518646698,-0.020905384464112386,1.1809689862685642,0.11564759882306941
2.0146789909999825,,0.09680324,0.03776986,0.35533765,-0.7027286,0.09961676,-0.7044493,-0.70871764,-0.18483695,0.6808485,-0.062384356,0.9777073,0.20049039,,-0.23887393,0.16167334,0.22786756,0.18399277,-0.7716553,-0.60884696,-0.9272829,-0.34172314,0.15287767,-0.32602596,0.536445,-0.77841747,,0.095823765,-0.017162733,0.26114884,-0.9760209,0.1385034,-0.16792846,0.11114157,0.9804049,0.16264614,0.18716493,0.14008223,-0.9722891,,-0.5182108213262131,0.020287619260587787,0.14358745072,0.167961644731104,-0.0069684614880374625,0.9874607695780757,-0.057823799411534926,,-1.383017894047622,0.03005687634648179,0.14062283549000001,0.12916900518646698,-0.020905384464112386,1.1809689862685642,0.11564759882306941
2.034658787999888,,0.096803926,0.037769504,0.3553369,-0.7027292,0.0996106,-0.70444965,-0.708717,-0.18483257,0.68085045,-0.06238535,0.97770876,0.200483,,-0.23886931,0.16167465,0.2278655,0.18399367,-0.77165985,-0.6088409,-0.92728287,-0.34172267,0.15287974,-0.3260259,0.5364389,-0.7784217,,0.095823765,-0.017162733,0.26114884,-0.9760209,0.1385034,-0.16792846,0.11114157,0.9804049,0.16264614,0.18716493,0.14008223,-0.9722891,,-0.5182185440590873,0.020287619260587787,0.14358745072,0.167961644731104,-0.0069684614880374625,0.9874607695780757,-0.057823799411534926,,-1.3830256167804964,0.03005687634648179,0.14062283549000001,0.12916900518646698,-0.020905384464112386,1.1809689862685642,0.11564759882306941
2.0577013409999836,,0.09680324,0.03776986,0.35533765,-0.7027286,0.09961676,-0.7044493,-0.70871764,-0.18483695,0.6808485,-0.062384356,0.9777073,0.20049039,,-0.23887303,0.16167006,0.22786614,0.1839904,-0.77165663,-0.60884595,-0.9272858,-0.34171712,0.15287384,-0.32601923,0.5364469,-0.77841896,,0.095823765,-0.017162733,0.26114884,-0.9760209,0.1385034,-0.16792846,0.11114157,0.9804049,0.16264614,0.18716493,0.14008223,-0.9722891,,-0.5182108213262131,0.020287619260587787,0.14358745072,0.167961644731104,-0.0069684614880374625,0.9874607695780757,-0.057823799411534926,,-1.383017894047622,0.030049153613607566,0.14062283549000001,0.12916900518646698,-0.020905384464112386,1.1809689862685642,0.11564759882306941
2.08166217400003,,0.09680324,0.03776986,0.35533765,-0.7027286,0.09961676,-0.7044493,-0.70871764,-0.18483695,0.6808485,-0.062384356,0.9777073,0.20049039,,-0.23887303,0.16167006,0.22786614,0.1839904,-0.77165663,-0.60884595,-0.9272858,-0.34171712,0.15287384,-0.32601923,0.5364469,-0.77841896,,0.095823765,-0.017162733,0.26114884,-0.9760209,0.1385034,-0.16792846,0.11114157,0.9804049,0.16264614,0.18716493,0.14008223,-0.9722891,,-0.5182108213262131,0.020287619260587787,0.14358745072,0.167961644731104,-0.0069684614880374625,0.9874607695780757,-0.057823799411534926,,-1.383017894047622,0.030049153613607566,0.14062283549000001,0.12916900518646698,-0.020905384464112386,1.1809689862685642,0.11564759882306941
2.102864655999838,,0.09680324,0.03776986,0.35533765,-0.7027286,0.09961676,-0.7044493,-0.70871764,-0.18483695,0.6808485,-0.062384356,0.9777073,0.20049039,,-0.23886931,0.16167465,0.2278655,0.18399367,-0.77165985,-0.6088409,-0.92728287,-0.34172267,0.15287974,-0.3260259,0.5364389,-0.7784217,,0.095823765,-0.017162733,0.26114884,-0.9760209,0.1385034,-0.16792846,0.11114157,0.9804049,0.16264614,0.18716493,0.14008223,-0.9722891,,-0.5182108213262131,0.020287619260587787,0.14358745072,0.167961644731104,-0.0069684614880374625,0.9874607695780757,-0.057823799411534926,,-1.3830256167804964,0.03005687634648179,0.14062283549000001,0.12916900518646698,-0.020905384464112386,1.1809689862685642,0.11564759882306941
2.125046784999995,,0.09680324,0.03776986,0.35533765,-0.7027286,0.09961676,-0.7044493,-0.70871764,-0.18483695,0.6808485,-0.062384356,0.9777073,0.20049039,,-0.23887393,0.16167334,0.22786756,0.18399277,-0.7716553,-0.60884696,-0.9272829,-0.34172314,0.15287767,-0.32602596,0.536445,-0.77841747,,0.095823765,-0.017162733,0.26114884,-0.9760209,0.1385034,-0.16792846,0.11114157,0.9804049,0.16264614,0.18716493,0.14008223,-0.9722891,,-0.5182108213262131,0.020287619260587787,0.14358745072,0.167961644731104,-0.0069684614880374625,0.9874607695780757,-0.057823799411534926,,-1.383017894047622,0.03005687634648179,0.14062283549000001,0.12916900518646698,-0.020905384464112386,1.1809689862685642,0.11564759882306941
2.1476526439998906,,0.09680324,0.03776986,0.35533765,-0.7027286,0.09961676,-0.7044493,-0.70871764,-0.18483695,0.6808485,-0.062384356,0.9777073,0.20049039,,-0.23887393,0.16167334,0.22786756,0.18399277,-0.7716553,-0.60884696,-0.9272829,-0.34172314,0.15287767,-0.32602596,0.536445,-0.77841747,,0.095823765,-0.017162733,0.26114884,-0.9760209,0.1385034,-0.16792846,0.11114157,0.9804049,0.16264614,0.18716493,0.14008223,-0.9722891,,-0.5182108213262131,0.020287619260587787,0.14358745072,0.167961644731104,-0.0069684614880374625,0.9874607695780757,-0.057823799411534926,,-1.383017894047622,0.03005687634648179,0.14062283549000001,0.12916900518646698,-0.020905384464112386,1.1809689862685642,0.11564759882306941
2.1724780929998815,,0.09680324,0.03776986,0.35533765,-0.7027286,0.09961676,-0.7044493,-0.70871764,-0.18483695,0.6808485,-0.062384356,0.9777073,0.20049039,,-0.23887393,0.16167334,0.22786756,0.18399277,-0.7716553,-0.60884696,-0.9272829,-0.34172314,0.15287767,-0.32602596,0.536445,-0.77841747,,0.095823765,-0.017162733,0.26114884,-0.9760209,0.1385034,-0.16792846,0.11114157,0.9804049,0.16264614,0.18716493,0.14008223,-0.9722891,,-0.5182108213262131,0.020287619260587787,0.14358745072,0.167961644731104,-0.0069684614880374625,0.9874607695780757,-0.057823799411534926,,-1.383017894047622,0.03005687634648179,0.14062283549000001,0.12916900518646698,-0.020905384464112386,1.1809689862685642,0.11564759882306941
2.1966303110000354,,0.09680324,0.03776986,0.35533765,-0.7027286,0.09961676,-0.7044493,-0.70871764,-0.18483695,0.6808485,-0.062384356,0.9777073,0.20049039,,-0.23887303,0.16167006,0.22786614,0.1839904,-0.77165663,-0.60884595,-0.9272858,-0.34171712,0.15287384,-0.32601923,0.5364469,-0.77841896,,0.095823765,-0.017162733,0.26114884,-0.9760209,0.1385034,-0.16792846,0.11114157,0.9804049,0.16264614,0.18716493,0.14008223,-0.9722891,,-0.5182108213262131,0.020287619260587787,0.14358745072,0.167961644731104,-0.0069684614880374625,0.9874607695780757,-0.057823799411534926,,-1.383017894047622,0.030049153613607566,0.14062283549000001,0.12916900518646698,-0.020905384464112386,1.1809689862685642,0.11564759882306941
2.2197330089998104,,0.09680324,0.03776986,0.35533765,-0.7027286,0.09961676,-0.7044493,-0.70871764,-0.18483695,0.6808485,-0.062384356,0.9777073,0.20049039,,-0.2389465,0.16165152,0.22791776,0.18398029,-0.7715621,-0.6089689,-0.9272809,-0.34174466,0.1528416,-0.32603866,0.5365654,-0.778329,,0.095823765,-0.017162733,0.26114884,-0.9760209,0.1385034,-0.16792846,0.11114157,0.9804049,0.16264614,0.18716493,0.14008223,-0.9722891,,-0.5182108213262131,0.020287619260587787,0.14358745072,0.167961644731104,-0.0069684614880374625,0.9874607695780757,-0.057823799411534926,,-1.3830256167804964,0.030049153613607566,0.14062283549000001,0.12916900518646698,-0.020905384464112386,1.1811323437488452,0.11532091069080108
2.2407387079999808,,0.096803926,0.037769504,0.3553369,-0.7027292,0.0996106,-0.70444965,-0.708717,-0.18483257,0.68085045,-0.06238535,0.97770876,0.200483,,-0.23894736,0.1616548,0.22791919,0.18398267,-0.7715608,-0.60896987,-0.92727816,-0.34175068,0.15284544,-0.3260454,0.5365635,-0.7783276,,0.095823765,-0.017162733,0.26114884,-0.9760209,0.1385034,-0.16792846,0.11114157,0.9804049,0.16264614,0.18716493,0.14008223,-0.9722891,,-0.5182185440590873,0.020287619260587787,0.14358745072,0.167961644731104,-0.0069684614880374625,0.9874607695780757,-0.057823799411534926,,-1.3830256167804964,0.03005687634648179,0.14062283549000001,0.12916900518646698,-0.020905384464112386,1.1811323437488452,0.11532091069080108
2.2664301719999003,,0.096803926,0.037769504,0.3553369,-0.7027292,0.0996106,-0.70444965,-0.708717,-0.18483257,0.68085045,-0.06238535,0.97770876,0.200483,,-0.23895195,0.16165349,0.22792117,0.18398178,-0.7715562,-0.6089759,-0.9272783,-0.3417512,0.15284336,-0.32604545,0.5365697,-0.7783233,,0.095823765,-0.017162733,0.26114884,-0.9760209,0.1385034,-0.16792846,0.11114157,0.9804049,0.16264614,0.18716493,0.14008223,-0.9722891,,-0.5182185440590873,0.020287619260587787,0.14358745072,0.167961644731104,-0.0069684614880374625,0.9874607695780757,-0.057823799411534926,,-1.383017894047622,0.03005687634648179,0.14062283549000001,0.12916900518646698,-0.020905384464112386,1.1811323437488452,0.11532091069080108
2.2892010079999636,,0.096803926,0.037769504,0.3553369,-0.7027292,0.0996106,-0.70444965,-0.708717,-0.18483257,0.68085045,-0.06238535,0.97770876,0.200483,,-0.23895195,0.16165349,0.22792117,0.18398178,-0.7715562,-0.6089759,-0.9272783,-0.3417512,0.15284336,-0.32604545,0.5365697,-0.7783233,,0.095823765,-0.017162733,0.26114884,-0.9760209,0.1385034,-0.16792846,0.11114157,0.9804049,0.16264614,0.18716493,0.14008223,-0.9722891,,-0.5182185440590873,0.020287619260587787,0.14358745072,0.167961644731104,-0.0069684614880374625,0.9874607695780757,-0.057823799411534926,,-1.383017894047622,0.03005687634648179,0.14062283549000001,0.12916900518646698,-0.020905384464112386,1.1811323437488452,0.11532091069080108
2.3160236249998434,,0.09680324,0.03776986,0.35533765,-0.7027286,0.09961676,-0.7044493,-0.70871764,-0.18483695,0.6808485,-0.062384356,0.9777073,0.20049039,,-0.23895109,0.16165021,0.22791977,0.18397936,-0.7715576,-0.60897493,-0.92728114,-0.3417452,0.15283954,-0.32603872,0.5365716,-0.77832484,,0.095823765,-0.017162733,0.26114884,-0.9760209,0.1385034,-0.16792846,0.11114157,0.9804049,0.16264614,0.18716493,0.14008223,-0.9722891,,-0.5182108213262131,0.020287619260587787,0.14358745072,0.167961644731104,-0.0069684614880374625,0.9874607695780757,-0.057823799411534926,,-1.383017894047622,0.030049153613607566,0.14062283549000001,0.12916900518646698,-0.020905384464112386,1.1811323437488452,0.11532091069080108
2.3351561309998488,,0.096803926,0.037769504,0.3553369,-0.7027292,0.0996106,-0.70444965,-0.708717,-0.18483257,0.68085045,-0.06238535,0.97770876,0.200483,,-0.23895109,0.16165021,0.22791977,0.18397936,-0.7715576,-0.60897493,-0.92728114,-0.3417452,0.15283954,-0.32603872,0.5365716,-0.77832484,,0.095823765,-0.017162733,0.26114884,-0.9760209,0.1385034,-0.16792846,0.11114157,0.9804049,0.16264614,0.18716493,0.14008223,-0.9722891,,-0.5182185440590873,0.020287619260587787,0.14358745072,0.167961644731104,-0.0069684614880374625,0.9874607695780757,-0.057823799411534926,,-1.383017894047622,0.030049153613607566,0.14062283549000001,0.12916900518646698,-0.020905384464112386,1.1811323437488452,0.11532091069080108
2.357112145999963,,0.096804604,0.037769135,0.3553362,-0.70272976,0.099604435,-0.70445,-0.7087163,-0.18482819,0.68085223,-0.062386334,0.9777102,0.20047559,,-0.23895109,0.16165021,0.22791977,0.18397936,-0.7715576,-0.60897493,-0.92728114,-0.3417452,0.15283954,-0.32603872,0.5365716,-0.77832484,,0.095823765,-0.017162733,0.26114884,-0.9760209,0.1385034,-0.16792846,0.11114157,0.9804049,0.16264614,0.18716493,0.14008223,-0.9722891,,-0.5182262667919615,0.020287619260587787,0.14358745072,0.167961644731104,-0.0069684614880374625,0.9874607695780757,-0.057823799411534926,,-1.383017894047622,0.030049153613607566,0.14062283549000001,0.12916900518646698,-0.020905384464112386,1.1811323437488452,0.11532091069080108
2.383865503999914,,0.096803926,0.037769504,0.3553369,-0.7027292,0.0996106,-0.70444965,-0.708717,-0.18483257,0.68085045,-0.06238535,0.97770876,0.200483,,-0.23895195,0.16165349,0.22792117,0.18398178,-0.7715562,-0.6089759,-0.9272783,-0.3417512,0.15284336,-0.32604545,0.5365697,-0.7783233,,0.095823765,-0.017162733,0.26114884,-0.9760209,0.1385034,-0.16792846,0.11114157,0.9804049,0.16264614,0.18716493,0.14008223,-0.9722891,,-0.5182185440590873,0.020287619260587787,0.14358745072,0.167961644731104,-0.0069684614880374625,0.9874607695780757,-0.057823799411534926,,-1.383017894047622,0.03005687634648179,0.14062283549000001,0.12916900518646698,-0.020905384464112386,1.1811323437488452,0.11532091069080108
2.404389110000011,,0.096803926,0.037769504,0.3553369,-0.7027292,0.0996106,-0.70444965,-0.708717,-0.18483257,0.68085045,-0.06238535,0.97770876,0.200483,,-0.23895195,0.16165349,0.22792117,0.18398178,-0.7715562,-0.6089759,-0.9272783,-0.3417512,0.15284336,-0.32604545,0.5365697,-0.7783233,,0.095823765,-0.017162733,0.26114884,-0.9760209,0.1385034,-0.16792846,0.11114157,0.9804049,0.16264614,0.18716493,0.14008223,-0.9722891,,-0.5182185440590873,0.020287619260587787,0.14358745072,0.167961644731104,-0.0069684614880374625,0.9874607695780757,-0.057823799411534926,,-1.383017894047622,0.03005687634648179,0.14062283549000001,0.12916900518646698,-0.020905384464112386,1.1811323437488452,0.11532091069080108
2.4270931060000294,,0.09680324,0.03776986,0.35533765,-0.7027286,0.09961676,-0.7044493,-0.70871764,-0.18483695,0.6808485,-0.062384356,0.9777073,0.20049039,,-0.23895195,0.16165349,0.22792117,0.18398178,-0.7715562,-0.6089759,-0.9272783,-0.3417512,0.15284336,-0.32604545,0.5365697,-0.7783233,,0.095823765,-0.017162733,0.26114884,-0.9760209,0.1385034,-0.16792846,0.11114157,0.9804049,0.16264614,0.18716493,0.14008223,-0.9722891,,-0.5182108213262131,0.020287619260587787,0.14358745072,0.167961644731104,-0.0069684614880374625,0.9874607695780757,-0.057823799411534926,,-1.383017894047622,0.03005687634648179,0.14062283549000001,0.12916900518646698,-0.020905384464112386,1.1811323437488452,0.11532091069080108
2.448858785999846,,0.09680324,0.03776986,0.35533765,-0.7027286,0.09961676,-0.7044493,-0.70871764,-0.18483695,0.6808485,-0.062384356,0.9777073,0.20049039,,-0.23895109,0.16165021,0.22791977,0.18397936,-0.7715576,-0.60897493,-0.92728114,-0.3417452,0.15283954,-0.32603872,0.5365716,-0.77832484,,0.095823765,-0.017162733,0.26114884,-0.9760209,0.1385034,-0.16792846,0.11114157,0.9804049,0.16264614,0.18716493,0.14008223,-0.9722891,,-0.5182108213262131,0.020287619260587787,0.14358745072,0.167961644731104,-0.0069684614880374625,0.9874607695780757,-0.057823799411534926,,-1.383017894047622,0.030049153613607566,0.14062283549000001,0.12916900518646698,-0.020905384464112386,1.1811323437488452,0.11532091069080108
2.472537283999827,,0.09680324,0.03776986,0.35533765,-0.7027286,0.09961676,-0.7044493,-0.70871764,-0.18483695,0.6808485,-0.062384356,0.9777073,0.20049039,,-0.23895109,0.16165021,0.22791977,0.18397936,-0.7715576,-0.60897493,-0.92728114,-0.3417452,0.15283954,-0.32603872,0.5365716,-0.77832484,,0.095823765,-0.017162733,0.26114884,-0.9760209,0.1385034,-0.16792846,0.11114157,0.9804049,0.16264614,0.18716493,0.14008223,-0.9722891,,-0.5182108213262131,0.020287619260587787,0.14358745072,0.167961644731104,-0.0069684614880374625,0.9874607695780757,-0.057823799411534926,,-1.383017894047622,0.030049153613607566,0.14062283549000001,0.12916900518646698,-0.020905384464112386,1.1811323437488452,0.11532091069080108
2.4959217749999425,,0.09680324,0.03776986,0.35533765,-0.7027286,0.09961676,-0.7044493,-0.70871764,-0.18483695,0.6808485,-0.062384356,0.9777073,0.20049039,,-0.23895195,0.16165349,0.22792117,0.18398178,-0.7715562,-0.6089759,-0.9272783,-0.3417512,0.15284336,-0.32604545,0.5365697,-0.7783233,,0.095823765,-0.017162733,0.26114884,-0.9760209,0.1385034,-0.16792846,0.11114157,0.9804049,0.16264614,0.18716493,0.14008223,-0.9722891,,-0.5182108213262131,0.020287619260587787,0.14358745072,0.167961644731104,-0.0069684614880374625,0.9874607695780757,-0.057823799411534926,,-1.383017894047622,0.03005687634648179,0.14062283549000001,0.12916900518646698,-0.020905384464112386,1.1811323437488452,0.11532091069080108
2.519585809999853,,0.096803926,0.037769504,0.3553369,-0.7027292,0.0996106,-0.70444965,-0.708717,-0.18483257,0.68085045,-0.06238535,0.97770876,0.200483,,-0.23895195,0.16165349,0.22792117,0.18398178,-0.7715562,-0.6089759,-0.9272783,-0.3417512,0.15284336,-0.32604545,0.5365697,-0.7783233,,0.095823765,-0.017162733,0.26114884,-0.9760209,0.1385034,-0.16792846,0.11114157,0.9804049,0.16264614,0.18716493,0.14008223,-0.9722891,,-0.5182185440590873,0.020287619260587787,0.14358745072,0.167961644731104,-0.0069684614880374625,0.9874607695780757,-0.057823799411534926,,-1.383017894047622,0.03005687634648179,0.14062283549000001,0.12916900518646698,-0.020905384464112386,1.1811323437488452,0.11532091069080108
2.5395990509998683,,0.096803926,0.037769504,0.3553369,-0.7027292,0.0996106,-0.70444965,-0.708717,-0.18483257,0.68085045,-0.06238535,0.97770876,0.200483,,-0.23895195,0.16165349,0.22792117,0.18398178,-0.7715562,-0.6089759,-0.9272783,-0.3417512,0.15284336,-0.32604545,0.5365697,-0.7783233,,0.095823765,-0.017162733,0.26114884,-0.9760209,0.1385034,-0.16792846,0.11114157,0.9804049,0.16264614,0.18716493,0.14008223,-0.9722891,,-0.5182185440590873,0.020287619260587787,0.14358745072,0.167961644731104,-0.0069684614880374625,0.9874607695780757,-0.057823799411534926,,-1.383017894047622,0.03005687634648179,0.14062283549000001,0.12916900518646698,-0.020905384464112386,1.1811323437488452,0.11532091069080108
2.5649968010000066,,0.09680324,0.03776986,0.35533765,-0.7027286,0.09961676,-0.7044493,-0.70871764,-0.18483695,0.6808485,-0.062384356,0.9777073,0.20049039,,-0.23895109,0.16165021,0.22791977,0.18397936,-0.7715576,-0.60897493,-0.92728114,-0.3417452,0.15283954,-0.32603872,0.5365716,-0.77832484,,0.095823765,-0.017162733,0.26114884,-0.9760209,0.1385034,-0.16792846,0.11114157,0.9804049,0.16264614,0.18716493,0.14008223,-0.9722891,,-0.5182108213262131,0.020287619260587787,0.14358745072,0.167961644731104,-0.0069684614880374625,0.9874607695780757,-0.057823799411534926,,-1.383017894047622,0.030049153613607566,0.14062283549000001,0.12916900518646698,-0.020905384464112386,1.1811323437488452,0.11532091069080108
2.5857109339999624,,0.09684538,0.037744697,0.35533625,-0.7027081,0.09959292,-0.70447296,-0.70873785,-0.18480434,0.6808362,-0.06238323,0.97771597,0.20044883,,-0.23887847,0.16161108,0.22791348,0.18403916,-0.77155083,-0.60896516,-0.92727405,-0.34178302,0.15279724,-0.3260249,0.5365571,-0.7783407,,0.09587853,-0.017180718,0.26113626,-0.97602713,0.13845287,-0.16793303,0.11109045,0.98041093,0.16264446,0.18716198,0.1400897,-0.9722886,,-0.5182108213262131,0.020287619260587787,0.14358745072,0.167961644731104,-0.0069684614880374625,0.9874607695780757,-0.057823799411534926,,-1.3830256167804964,0.030049153613607566,0.14062283549000001,0.12916900518646698,-0.020905384464112386,1.1811323437488452,0.11532091069080108
2.606891057999974,,0.09684538,0.037744697,0.35533625,-0.7027081,0.09959292,-0.70447296,-0.70873785,-0.18480434,0.6808362,-0.06238323,0.97771597,0.20044883,,-0.2388794,0.16161436,0.22791484,0.18404159,-0.7715495,-0.6089662,-0.9272712,-0.34178907,0.15280108,-0.3260316,0.5365551,-0.7783392,,0.09587853,-0.017180718,0.26113626,-0.97602713,0.13845287,-0.16793303,0.11109045,0.98041093,0.16264446,0.18716198,0.1400897,-0.9722886,,-0.5182108213262131,0.020287619260587787,0.14358745072,0.167961644731104,-0.0069684614880374625,0.9874607695780757,-0.057823799411534926,,-1.3830256167804964,0.03005687634648179,0.14062283549000001,0.12916900518646698,-0.020905384464112386,1.1811323437488452,0.11532091069080108
2.6314682899999298,,0.09684538,0.037744697,0.35533625,-0.7027081,0.09959292,-0.70447296,-0.70873785,-0.18480434,0.6808362,-0.06238323,0.97771597,0.20044883,,-0.23888396,0.16161305,0.2279169,0.18404067,-0.77154493,-0.6089722,-0.9272714,-0.3417896,0.15279898,-0.32603168,0.53656137,-0.77833486,,0.09587853,-0.017180718,0.26113626,-0.97602713,0.13845287,-0.16793303,0.11109045,0.98041093,0.16264446,0.18716198,0.1400897,-0.9722886,,-0.5182108213262131,0.020287619260587787,0.14358745072,0.167961644731104,-0.0069684614880374625,0.9874607695780757,-0.057823799411534926,,-1.383017894047622,0.03005687634648179,0.14062283549000001,0.12916900518646698,-0.020905384464112386,1.1811323437488452,0.11532091069080108
2.6558010930000364,,0.09684538,0.037744697,0.35533625,-0.7027081,0.09959292,-0.70447296,-0.70873785,-0.18480434,0.6808362,-0.06238323,0.97771597,0.20044883,,-0.23888396,0.16161305,0.2279169,0.18404067,-0.77154493,-0.6089722,-0.9272714,-0.3417896,0.15279898,-0.32603168,0.53656137,-0.77833486,,0.09587853,-0.017180718,0.26113626,-0.97602713,0.13845287,-0.16793303,0.11109045,0.98041093,0.16264446,0.18716198,0.1400897,-0.9722886,,-0.5182108213262131,0.020287619260587787,0.14358745072,0.167961644731104,-0.0069684614880374625,0.9874607695780757,-0.057823799411534926,,-1.383017894047622,0.03005687634648179,0.14062283549000001,0.12916900518646698,-0.020905384464112386,1.1811323437488452,0.11532091069080108
2.6751368000000184,,0.09684538,0.037744697,0.35533625,-0.7027081,0.09959292,-0.70447296,-0.70873785,-0.18480434,0.6808362,-0.06238323,0.97771597,0.20044883,,-0.23887847,0.16161108,0.22791348,0.18403916,-0.77155083,-0.60896516,-0.92727405,-0.34178302,0.15279724,-0.3260249,0.5365571,-0.7783407,,0.09587853,-0.017180718,0.26113626,-0.97602713,0.13845287,-0.16793303,0.11109045,0.98041093,0.16264446,0.18716198,0.1400897,-0.9722886,,-0.5182108213262131,0.020287619260587787,0.14358745072,0.167961644731104,-0.0069684614880374625,0.9874607695780757,-0.057823799411534926,,-1.3830256167804964,0.030049153613607566,0.14062283549000001,0.12916900518646698,-0.020905384464112386,1.1811323437488452,0.11532091069080108
2.699322279999933,,0.09684538,0.037744697,0.35533625,-0.7027081,0.09959292,-0.70447296,-0.70873785,-0.18480434,0.6808362,-0.06238323,0.97771597,0.20044883,,-0.2388831,0.16160977,0.22791547,0.18403827,-0.7715463,-0.6089712,-0.9272742,-0.3417836,0.15279517,-0.32602495,0.53656316,-0.77833647,,0.09587853,-0.017180718,0.26113626,-0.97602713,0.13845287,-0.16793303,0.11109045,0.98041093,0.16264446,0.18716198,0.1400897,-0.9722886,,-0.5182108213262131,0.020287619260587787,0.14358745072,0.167961644731104,-0.0069684614880374625,0.9874607695780757,-0.057823799411534926,,-1.383017894047622,0.030049153613607566,0.14062283549000001,0.12916900518646698,-0.020905384464112386,1.1811323437488452,0.11532091069080108
2.7210206319998633,,0.09684538,0.037744697,0.35533625,-0.7027081,0.09959292,-0.70447296,-0.70873785,-0.18480434,0.6808362,-0.06238323,0.97771597,0.20044883,,-0.2388831,0.16160977,0.22791547,0.18403827,-0.7715463,-0.6089712,-0.9272742,-0.3417836,0.15279517,-0.32602495,0.53656316,-0.77833647,,0.09587853,-0.017180718,0.26113626,-0.97602713,0.13845287,-0.16793303,0.11109045,0.98041093,0.16264446,0.18716198,0.1400897,-0.9722886,,-0.5182108213262131,0.020287619260587787,0.14358745072,0.167961644731104,-0.0069684614880374625,0.9874607695780757,-0.057823799411534926,,-1.383017894047622,0.030049153613607566,0.14062283549000001,0.12916900518646698,-0.020905384464112386,1.1811323437488452,0.11532091069080108
2.7423966879998716,,0.09684538,0.037744697,0.35533625,-0.7027081,0.09959292,-0.70447296,-0.70873785,-0.18480434,0.6808362,-0.06238323,0.97771597,0.20044883,,-0.23888396,0.16161305,0.2279169,0.18404067,-0.77154493,-0.6089722,-0.9272714,-0.3417896,0.15279898,-0.32603168,0.53656137,-0.77833486,,0.09587853,-0.017180718,0.26113626,-0.97602713,0.13845287,-0.16793303,0.11109045,0.98041093,0.16264446,0.18716198,0.1400897,-0.9722886,,-0.5182108213262131,0.020287619260587787,0.14358745072,0.167961644731104,-0.0069684614880374625,0.9874607695780757,-0.057823799411534926,,-1.383017894047622,0.03005687634648179,0.14062283549000001,0.12916900518646698,-0.020905384464112386,1.1811323437488452,0.11532091069080108
2.7702631429999656,,0.09684538,0.037744697,0.35533625,-0.7027081,0.09959292,-0.70447296,-0.70873785,-0.18480434,0.6808362,-0.06238323,0.97771597,0.20044883,,-0.2388794,0.16161436,0.22791484,0.18404159,-0.7715495,-0.6089662,-0.9272712,-0.34178907,0.15280108,-0.3260316,0.5365551,-0.7783392,,0.09587853,-0.017180718,0.26113626,-0.97602713,0.13845287,-0.16793303,0.11109045,0.98041093,0.16264446,0.18716198,0.1400897,-0.9722886,,-0.5182108213262131,0.020287619260587787,0.14358745072,0.167961644731104,-0.0069684614880374625,0.9874607695780757,-0.057823799411534926,,-1.3830256167804964,0.03005687634648179,0.14062283549000001,0.12916900518646698,-0.020905384464112386,1.1811323437488452,0.11532091069080108
2.7931058459998894,,0.09684607,0.037744336,0.35533553,-0.7027087,0.09958675,-0.70447326,-0.70873725,-0.18479994,0.68083805,-0.062384233,0.9777174,0.20044142,,-0.23887847,0.16161108,0.22791348,0.18403916,-0.77155083,-0.60896516,-0.92727405,-0.34178302,0.15279724,-0.3260249,0.5365571,-0.7783407,,0.09587853,-0.017180718,0.26113626,-0.97602713,0.13845287,-0.16793303,0.11109045,0.98041093,0.16264446,0.18716198,0.1400897,-0.9722886,,-0.5182185440590873,0.020287619260587787,0.14358745072,0.167961644731104,-0.0069684614880374625,0.9874607695780757,-0.057823799411534926,,-1.3830256167804964,0.030049153613607566,0.14062283549000001,0.12916900518646698,-0.020905384464112386,1.1811323437488452,0.11532091069080108
2.818831772999829,,0.09684607,0.037744336,0.35533553,-0.7027087,0.09958675,-0.70447326,-0.70873725,-0.18479994,0.68083805,-0.062384233,0.9777174,0.20044142,,-0.2388831,0.16160977,0.22791547,0.18403827,-0.7715463,-0.6089712,-0.9272742,-0.3417836,0.15279517,-0.32602495,0.53656316,-0.77833647,,0.09587853,-0.017180718,0.26113626,-0.97602713,0.13845287,-0.16793303,0.11109045,0.98041093,0.16264446,0.18716198,0.1400897,-0.9722886,,-0.5182185440590873,0.020287619260587787,0.14358745072,0.167961644731104,-0.0069684614880374625,0.9874607695780757,-0.057823799411534926,,-1.383017894047622,0.030049153613607566,0.14062283549000001,0.12916900518646698,-0.020905384464112386,1.1811323437488452,0.11532091069080108
2.839773887999854,,0.09684538,0.037744697,0.35533625,-0.7027081,0.09959292,-0.70447296,-0.70873785,-0.18480434,0.6808362,-0.06238323,0.97771597,0.20044883,,-0.23888396,0.16161305,0.2279169,0.18404067,-0.77154493,-0.6089722,-0.9272714,-0.3417896,0.15279898,-0.32603168,0.53656137,-0.77833486,,0.09587853,-0.017180718,0.26113626,-0.97602713,0.13845287,-0.16793303,0.11109045,0.98041093,0.16264446,0.18716198,0.1400897,-0.9722886,,-0.5182108213262131,0.020287619260587787,0.14358745072,0.167961644731104,-0.0069684614880374625,0.9874607695780757,-0.057823799411534926,,-1.383017894047622,0.03005687634648179,0.14062283549000001,0.12916900518646698,-0.020905384464112386,1.1811323437488452,0.11532091069080108
2.86464547699984,,0.09684607,0.037744336,0.35533553,-0.7027087,0.09958675,-0.70447326,-0.70873725,-0.18479994,0.68083805,-0.062384233,0.9777174,0.20044142,,-0.23888396,0.16161305,0.2279169,0.18404067,-0.77154493,-0.6089722,-0.9272714,-0.3417896,0.15279898,-0.32603168,0.53656137,-0.77833486,,0.09587853,-0.017180718,0.26113626,-0.97602713,0.13845287,-0.16793303,0.11109045,0.98041093,0.16264446,0.18716198,0.1400897,-0.9722886,,-0.5182185440590873,0.020287619260587787,0.14358745072,0.167961644731104,-0.0069684614880374625,0.9874607695780757,-0.057823799411534926,,-1.383017894047622,0.03005687634648179,0.14062283549000001,0.12916900518646698,-0.020905384464112386,1.1811323437488452,0.11532091069080108
2.886833607999961,,0.096846744,0.037743974,0.35533482,-0.70270926,0.0995806,-0.70447356,-0.70873666,-0.18479557,0.68083984,-0.06238522,0.9777189,0.20043401,,-0.2388831,0.16160977,0.22791547,0.18403827,-0.7715463,-0.6089712,-0.9272742,-0.3417836,0.15279517,-0.32602495,0.53656316,-0.77833647,,0.09587853,-0.017180718,0.26113626,-0.97602713,0.13845287,-0.16793303,0.11109045,0.98041093,0.16264446,0.18716198,0.1400897,-0.9722886,,-0.5182262667919615,0.020287619260587787,0.14358745072,0.167961644731104,-0.0069684614880374625,0.9874607695780757,-0.057823799411534926,,-1.383017894047622,0.030049153613607566,0.14062283549000001,0.12916900518646698,-0.020905384464112386,1.1811323437488452,0.11532091069080108
2.9074092910000218,,0.09684607,0.037744336,0.35533553,-0.7027087,0.09964431,-0.70446515,-0.70873725,-0.18485557,0.6808229,-0.062384233,0.97770107,0.20052128,,-0.23887847,0.16161108,0.22791348,0.18403916,-0.77155083,-0.60896516,-0.92727405,-0.34178302,0.15279724,-0.3260249,0.5365571,-0.7783407,,0.09587853,-0.017180718,0.26113626,-0.97602713,0.13845287,-0.16793303,0.11109045,0.98041093,0.16264446,0.18716198,0.1400897,-0.9722886,,-0.5182185440590873,0.020287619260587787,0.14358745072,0.167961644731104,-0.0069684614880374625,0.9875424483182162,-0.05798714347766909,,-1.3830256167804964,0.030049153613607566,0.14062283549000001,0.12916900518646698,-0.020905384464112386,1.1811323437488452,0.11532091069080108
2.933171297999934,,0.09684607,0.037744336,0.35533553,-0.7027087,0.09970184,-0.704457,-0.70873725,-0.18491116,0.68080777,-0.062384233,0.9776846,0.20060112,,-0.2388794,0.16161436,0.22791484,0.18404159,-0.7715495,-0.6089662,-0.9272712,-0.34178907,0.15280108,-0.3260316,0.5365551,-0.7783392,,0.09587853,-0.017180718,0.26113626,-0.97602713,0.13845287,-0.16793303,0.11109045,0.98041093,0.16264446,0.18716198,0.1400897,-0.9722886,,-0.5182185440590873,0.020287619260587787,0.14358745072,0.167961644731104,-0.0069684614880374625,0.9876241270583567,-0.057823799411534926,,-1.3830256167804964,0.03005687634648179,0.14062283549000001,0.12916900518646698,-0.020905384464112386,1.1811323437488452,0.11532091069080108
2.954138293999904,,0.09684607,0.037744336,0.35533553,-0.7027087,0.09975937,-0.7044489,-0.70873725,-0.18496677,0.6807926,-0.062384233,0.9776683,0.20068099,,-0.23888396,0.16161305,0.2279169,0.18404067,-0.77154493,-0.6089722,-0.9272714,-0.3417896,0.15279898,-0.32603168,0.53656137,-0.77833486,,0.09587853,-0.017180718,0.26113626,-0.97602713,0.13845287,-0.16793303,0.11109045,0.98041093,0.16264446,0.18716198,0.1400897,-0.9722886,,-0.5182185440590873,0.020287619260587787,0.14358745072,0.167961644731104,-0.0069684614880374625,0.9877058057984973,-0.05766045534540054,,-1.383017894047622,0.03005687634648179,0.14062283549000001,0.12916900518646698,-0.020905384464112386,1.1811323437488452,0.11532091069080108
2.9746276399998806,,0.09684538,0.037744697,0.35533625,-0.7027081,0.09976554,-0.7044485,-0.70873785,-0.18497115,0.68079084,-0.06238323,0.97766685,0.20068838,,-0.23888396,0.16161305,0.2279169,0.18404067,-0.77154493,-0.6089722,-0.9272714,-0.3417896,0.15279898,-0.32603168,0.53656137,-0.77833486,,0.09587853,-0.017180718,0.26113626,-0.97602713,0.13845287,-0.16793303,0.11109045,0.98041093,0.16264446,0.18716198,0.1400897,-0.9722886,,-0.5182108213262131,0.020287619260587787,0.14358745072,0.167961644731104,-0.0069684614880374625,0.9877058057984973,-0.05766045534540054,,-1.383017894047622,0.03005687634648179,0.14062283549000001,0.12916900518646698,-0.020905384464112386,1.1811323437488452,0.11532091069080108
3.000329081000018,,0.09684782,0.037746098,0.35533568,-0.7028374,0.09944211,-0.70436525,-0.70859253,-0.18497671,0.68094057,-0.062577054,0.9776987,0.2004725,,-0.2388831,0.16160977,0.22791547,0.18403827,-0.7715463,-0.6089712,-0.9272742,-0.3417836,0.15279517,-0.32602495,0.53656316,-0.77833647,,0.09587853,-0.017180718,0.26113626,-0.97602713,0.13845287,-0.16793303,0.11109045,0.98041093,0.16264446,0.18716198,0.1400897,-0.9722886,,-0.5182185440590873,0.020287619260587787,0.14358745072,0.167961644731104,-0.006695188488506582,0.9874829699911043,-0.05766045534540054,,-1.383017894047622,0.030049153613607566,0.14062283549000001,0.12916900518646698,-0.020905384464112386,1.1811323437488452,0.11532091069080108
3.024793918999876,,0.096848495,0.037745737,0.35533494,-0.70283794,0.09943595,-0.7043656,-0.708592,-0.18497232,0.6809424,-0.06257804,0.9777001,0.20046513,,-0.23884411,0.1616197,0.22788864,0.18404377,-0.77159584,-0.6089067,-0.9272765,-0.34176952,0.15281233,-0.32601517,0.5365009,-0.7783835,,0.09587853,-0.017180718,0.26113626,-0.97602713,0.13845287,-0.16793303,0.11109045,0.98041093,0.16264446,0.18716198,0.1400897,-0.9722886,,-0.5182262667919615,0.020287619260587787,0.14358745072,0.167961644731104,-0.006695188488506582,0.9874829699911043,-0.05766045534540054,,-1.383017894047622,0.030049153613607566,0.14062283549000001,0.12916900518646698,-0.020905384464112386,1.181050665008705,0.11548425475693525
3.049605374999828,,0.09684782,0.037746098,0.35533568,-0.7028374,0.09938457,-0.7043735,-0.70859253,-0.18492109,0.68095565,-0.062577054,0.9777151,0.20039268,,-0.23880596,0.1616329,0.22786322,0.1840517,-0.7716441,-0.60884327,-0.9272761,-0.34176156,0.15283331,-0.3260122,0.5364366,-0.7784291,,0.09587853,-0.017180718,0.26113626,-0.97602713,0.13845287,-0.16793303,0.11109045,0.98041093,0.16264446,0.18716198,0.1400897,-0.9722886,,-0.5182185440590873,0.020287619260587787,0.14358745072,0.167961644731104,-0.006695188488506582,0.9874012912509638,-0.05749711127926638,,-1.383017894047622,0.03005687634648179,0.14062283549000001,0.12916900518646698,-0.020905384464112386,1.1809689862685642,0.11564759882306941
3.0706442499999866,,0.09684782,0.037746098,0.35533568,-0.7028374,0.09938457,-0.7043735,-0.70859253,-0.18492109,0.68095565,-0.062577054,0.9777151,0.20039268,,-0.23880596,0.1616329,0.22786322,0.1840517,-0.7716441,-0.60884327,-0.9272761,-0.34176156,0.15283331,-0.3260122,0.5364366,-0.7784291,,0.09587853,-0.017180718,0.26113626,-0.97602713,0.13845287,-0.16793303,0.11109045,0.98041093,0.16264446,0.18716198,0.1400897,-0.9722886,,-0.5182185440590873,0.020287619260587787,0.14358745072,0.167961644731104,-0.006695188488506582,0.9874012912509638,-0.05749711127926638,,-1.383017894047622,0.03005687634648179,0.14062283549000001,0.12916900518646698,-0.020905384464112386,1.1809689862685642,0.11564759882306941
3.0924610089998623,,0.09684713,0.03774646,0.3553364,-0.70283693,0.09939074,-0.704373,-0.7085932,-0.18492547,0.68095386,-0.06257606,0.97771364,0.20040008,,-0.23880596,0.1616329,0.22786322,0.1840517,-0.7716441,-0.60884327,-0.9272761,-0.34176156,0.15283331,-0.3260122,0.5364366,-0.7784291,,0.09587853,-0.017180718,0.26113626,-0.97602713,0.13845287,-0.16793303,0.11109045,0.98041093,0.16264446,0.18716198,0.1400897,-0.9722886,,-0.5182108213262131,0.020287619260587787,0.14358745072,0.167961644731104,-0.006695188488506582,0.9874012912509638,-0.05749711127926638,,-1.383017894047622,0.03005687634648179,0.14062283549000001,0.12916900518646698,-0.020905384464112386,1.1809689862685642,0.11564759882306941
3.1205619229999684,,0.09684782,0.037746098,0.35533568,-0.7028374,0.09938457,-0.7043735,-0.70859253,-0.18492109,0.68095565,-0.062577054,0.9777151,0.20039268,,-0.23880507,0.16162965,0.22786185,0.1840493,-0.7716455,-0.60884213,-0.92727894,-0.3417555,0.15282948,-0.32600546,0.53643847,-0.7784305,,0.09587853,-0.017180718,0.26113626,-0.97602713,0.13845287,-0.16793303,0.11109045,0.98041093,0.16264446,0.18716198,0.1400897,-0.9722886,,-0.5182185440590873,0.020287619260587787,0.14358745072,0.167961644731104,-0.006695188488506582,0.9874012912509638,-0.05749711127926638,,-1.383017894047622,0.030049153613607566,0.14062283549000001,0.12916900518646698,-0.020905384464112386,1.1809689862685642,0.11564759882306941
3.1418043710000347,,0.09684782,0.037746098,0.35533568,-0.7028374,0.09938457,-0.7043735,-0.70859253,-0.18492109,0.68095565,-0.062577054,0.9777151,0.20039268,,-0.23880048,0.16163093,0.22785981,0.1840502,-0.7716501,-0.60883623,-0.92727876,-0.34175503,0.15283158,-0.32600534,0.5364322,-0.7784349,,0.09587853,-0.017180718,0.26113626,-0.97602713,0.13845287,-0.16793303,0.11109045,0.98041093,0.16264446,0.18716198,0.1400897,-0.9722886,,-0.5182185440590873,0.020287619260587787,0.14358745072,0.167961644731104,-0.006695188488506582,0.9874012912509638,-0.05749711127926638,,-1.3830256167804964,0.030049153613607566,0.14062283549000001,0.12916900518646698,-0.020905384464112386,1.1809689862685642,0.11564759882306941
3.1689306329999454,,0.09684782,0.037746098,0.35533568,-0.7028374,0.09938457,-0.7043735,-0.70859253,-0.18492109,0.68095565,-0.062577054,0.9777151,0.20039268,,-0.23880138,0.16163424,0.22786121,0.18405262,-0.7716487,-0.6088372,-0.9272759,-0.34176102,0.1528354,-0.32601213,0.5364304,-0.7784334,,0.09587853,-0.017180718,0.26113626,-0.97602713,0.13845287,-0.16793303,0.11109045,0.98041093,0.16264446,0.18716198,0.1400897,-0.9722886,,-0.5182185440590873,0.020287619260587787,0.14358745072,0.167961644731104,-0.006695188488506582,0.9874012912509638,-0.05749711127926638,,-1.3830256167804964,0.03005687634648179,0.14062283549000001,0.12916900518646698,-0.020905384464112386,1.1809689862685642,0.11564759882306941
3.190645603999883,,0.09684782,0.037746098,0.35533568,-0.7028374,0.09938457,-0.7043735,-0.70859253,-0.18492109,0.68095565,-0.062577054,0.9777151,0.20039268,,-0.23880596,0.1616329,0.22786322,0.1840517,-0.7716441,-0.60884327,-0.9272761,-0.34176156,0.15283331,-0.3260122,0.5364366,-0.7784291,,0.09587853,-0.017180718,0.26113626,-0.97602713,0.13845287,-0.16793303,0.11109045,0.98041093,0.16264446,0.18716198,0.1400897,-0.9722886,,-0.5182185440590873,0.020287619260587787,0.14358745072,0.167961644731104,-0.006695188488506582,0.9874012912509638,-0.05749711127926638,,-1.383017894047622,0.03005687634648179,0.14062283549000001,0.12916900518646698,-0.020905384464112386,1.1809689862685642,0.11564759882306941
3.216726183999981,,0.09684841,0.0377481,0.3553368,-0.70284396,0.0993836,-0.7043669,-0.7085852,-0.18493624,0.68095934,-0.06258684,0.9777123,0.20040314,,-0.23880596,0.1616329,0.22786322,0.1840517,-0.7716441,-0.60884327,-0.9272761,-0.34176156,0.15283331,-0.3260122,0.5364366,-0.7784291,,0.09587853,-0.017180718,0.26113626,-0.97602713,0.13845287,-0.16793303,0.11109045,0.98041093,0.16264446,0.18716198,0.1400897,-0.9722886,,-0.5182108213262131,0.020303064726336237,0.14358745072,0.167961644731104,-0.006695188488506582,0.9874012912509638,-0.05749711127926638,,-1.383017894047622,0.03005687634648179,0.14062283549000001,0.12916900518646698,-0.020905384464112386,1.1809689862685642,0.11564759882306941
3.23822264599994,,0.09684841,0.0377481,0.3553368,-0.70284396,0.0993836,-0.7043669,-0.7085852,-0.18493624,0.68095934,-0.06258684,0.9777123,0.20040314,,-0.23880048,0.16163093,0.22785981,0.1840502,-0.7716501,-0.60883623,-0.92727876,-0.34175503,0.15283158,-0.32600534,0.5364322,-0.7784349,,0.09587853,-0.017180718,0.26113626,-0.97602713,0.13845287,-0.16793303,0.11109045,0.98041093,0.16264446,0.18716198,0.1400897,-0.9722886,,-0.5182108213262131,0.020303064726336237,0.14358745072,0.167961644731104,-0.006695188488506582,0.9874012912509638,-0.05749711127926638,,-1.3830256167804964,0.030049153613607566,0.14062283549000001,0.12916900518646698,-0.020905384464112386,1.1809689862685642,0.11564759882306941
