AlexandreBanks6/ExpertPlaybackApp/resources/Motions/Motion_BestNotNow.csv
Time,si_T_psm1,Tx,Ty,Tz,R00,R01,R02,R10,R11,R12,R20,R21,R22,si_T_psm3,Tx,Ty,Tz,R00,R01,R02,R10,R11,R12,R20,R21,R22,si_T_ecm,Tx,Ty,Tz,R00,R01,R02,R10,R11,R12,R20,R21,R22,joint_vars_psm1,q1,q2,q3,q4,q5,q6,jaw,joint_vars_psm3,q1,q2,q3,q4,q5,q6,jaw
lci_T_si
0,-0.044827536,0.028117156,0.352824,0.9976118,0.044321112,0.05297503,0.04533574,-0.99880767,-0.018106714,0.052109357,0.020465134,-0.9984317
rci_T_si
0,-0.05411838,0.029959295,0.46849903,0.9992024,0.036292534,0.016656041,0.036292534,-0.9993412,0.00030236557,0.016656041,0.00030236557,-0.99986124
ecm_T_lc
0,0.15482447,0.9507957,-4.577456,-0.99988085,0.015432724,0.00034810763,-0.015051688,-0.97970253,0.19989099,0.0034259045,0.19986194,0.97981805
ecm_T_rc
0,-0.008239545,0.013894887,-0.24892122,-0.99980205,-0.018179558,0.00808652,0.017913941,-0.9993341,-0.031788383,0.008659034,-0.031637233,0.9994619
0.02298618599979818,,0.5161458,-1.6597339,-3.904226,-0.52620417,-0.7136028,-0.4624719,-0.8443291,0.5030962,0.18439752,0.101081215,0.48750922,-0.867247,,0.44695556,-1.5935344,-3.6389096,0.5955518,-0.73269445,0.32935846,-0.8013081,-0.51285887,0.30802774,-0.056775838,-0.44736406,-0.89254797,,0.5168321,-1.7228335,-3.9566755,-0.9967746,-0.04902795,0.06353547,-0.05973555,0.98195726,-0.17941993,-0.05359253,-0.18263653,-0.9817187,,-0.21060664821297662,-0.1118251720187709,0.15483535905,-0.007548837965442877,-0.0020495474964816063,-0.0009424511290516704,0.0,,-1.5145128666970429,0.0638978918013336,0.09030215398000001,-0.0033550390957523897,-0.02719066345332265,-0.003311604088267554,0.0013067525290742371
0.043107891000090603,,0.51614505,-1.6597333,-3.9042253,-0.5262036,-0.7135998,-0.46247727,-0.8443296,0.503094,0.18440142,0.10108073,0.48751593,-0.86724323,,0.44695556,-1.5935344,-3.6389096,0.5955518,-0.73269445,0.32935846,-0.8013081,-0.51285887,0.30802774,-0.056775838,-0.44736406,-0.89254797,,0.5168321,-1.7228335,-3.9566755,-0.9967746,-0.04902795,0.06353547,-0.05973555,0.98195726,-0.17941993,-0.05359253,-0.18263653,-0.9817187,,-0.21059892548010237,-0.1118251720187709,0.15483535905,-0.007548837965442877,-0.0020495474964816063,-0.0009424511290516704,0.0,,-1.5145128666970429,0.0638978918013336,0.09030215398000001,-0.0033550390957523897,-0.02719066345332265,-0.003311604088267554,0.0013067525290742371
0.07239436500003649,,0.5161458,-1.6597339,-3.904226,-0.52620417,-0.7136028,-0.4624719,-0.8443291,0.5030962,0.18439752,0.101081215,0.48750922,-0.867247,,0.44695556,-1.5935344,-3.6389096,0.5955518,-0.73269445,0.32935846,-0.8013081,-0.51285887,0.30802774,-0.056775838,-0.44736406,-0.89254797,,0.5168321,-1.7228335,-3.9566755,-0.9967746,-0.04902795,0.06353547,-0.05973555,0.98195726,-0.17941993,-0.05359253,-0.18263653,-0.9817187,,-0.21060664821297662,-0.1118251720187709,0.15483535905,-0.007548837965442877,-0.0020495474964816063,-0.0009424511290516704,0.0,,-1.5145128666970429,0.0638978918013336,0.09030215398000001,-0.0033550390957523897,-0.02719066345332265,-0.003311604088267554,0.0013067525290742371
0.10296807999975499,,0.5161458,-1.6597339,-3.904226,-0.52620417,-0.7136028,-0.4624719,-0.8443291,0.5030962,0.18439752,0.101081215,0.48750922,-0.867247,,0.44695556,-1.5935344,-3.6389096,0.5955518,-0.73269445,0.32935846,-0.8013081,-0.51285887,0.30802774,-0.056775838,-0.44736406,-0.89254797,,0.5168321,-1.7228335,-3.9566755,-0.9967746,-0.04902795,0.06353547,-0.05973555,0.98195726,-0.17941993,-0.05359253,-0.18263653,-0.9817187,,-0.21060664821297662,-0.1118251720187709,0.15483535905,-0.007548837965442877,-0.0020495474964816063,-0.0009424511290516704,0.0,,-1.5145128666970429,0.0638978918013336,0.09030215398000001,-0.0033550390957523897,-0.02719066345332265,-0.003311604088267554,0.0013067525290742371
0.12519974399992861,,0.5161458,-1.6597339,-3.904226,-0.52620417,-0.7136028,-0.4624719,-0.8443291,0.5030962,0.18439752,0.101081215,0.48750922,-0.867247,,0.44695556,-1.5935344,-3.6389096,0.5955518,-0.73269445,0.32935846,-0.8013081,-0.51285887,0.30802774,-0.056775838,-0.44736406,-0.89254797,,0.5168321,-1.7228335,-3.9566755,-0.9967746,-0.04902795,0.06353547,-0.05973555,0.98195726,-0.17941993,-0.05359253,-0.18263653,-0.9817187,,-0.21060664821297662,-0.1118251720187709,0.15483535905,-0.007548837965442877,-0.0020495474964816063,-0.0009424511290516704,0.0,,-1.5145128666970429,0.0638978918013336,0.09030215398000001,-0.0033550390957523897,-0.02719066345332265,-0.003311604088267554,0.0013067525290742371
0.15020011099977637,,0.5161458,-1.6597339,-3.904226,-0.52620417,-0.7136028,-0.4624719,-0.8443291,0.5030962,0.18439752,0.101081215,0.48750922,-0.867247,,0.4469555,-1.5935344,-3.6389096,0.59539795,-0.7328212,0.3293547,-0.8014158,-0.51269263,0.30802423,-0.056868985,-0.44734704,-0.8925506,,0.5168321,-1.7228335,-3.9566755,-0.9967746,-0.04902795,0.06353547,-0.05973555,0.98195726,-0.17941993,-0.05359253,-0.18263653,-0.9817187,,-0.21060664821297662,-0.1118251720187709,0.15483535905,-0.007548837965442877,-0.0020495474964816063,-0.0009424511290516704,0.0,,-1.5145128666970429,0.0638978918013336,0.09030215398000001,-0.003145349152267865,-0.02719066345332265,-0.003311604088267554,0.0013067525290742371
0.17147661199987851,,0.51614505,-1.6597333,-3.9042253,-0.5262036,-0.7135998,-0.46247727,-0.8443296,0.503094,0.18440142,0.10108073,0.48751593,-0.86724323,,0.44695547,-1.5935344,-3.6389096,0.59524405,-0.7329479,0.32935092,-0.80152345,-0.5125264,0.30802077,-0.056962132,-0.44733,-0.89255315,,0.5168321,-1.7228335,-3.9566755,-0.9967746,-0.04902795,0.06353547,-0.05973555,0.98195726,-0.17941993,-0.05359253,-0.18263653,-0.9817187,,-0.21059892548010237,-0.1118251720187709,0.15483535905,-0.007548837965442877,-0.0020495474964816063,-0.0009424511290516704,0.0,,-1.5145128666970429,0.0638978918013336,0.09030215398000001,-0.002935659208783341,-0.02719066345332265,-0.003311604088267554,0.0013067525290742371
0.1926700429999073,,0.5161458,-1.6597339,-3.904226,-0.52620417,-0.7136028,-0.4624719,-0.8443291,0.5030962,0.18439752,0.101081215,0.48750922,-0.867247,,0.44695547,-1.5935344,-3.6389096,0.59524405,-0.7329479,0.32935092,-0.80152345,-0.5125264,0.30802077,-0.056962132,-0.44733,-0.89255315,,0.5168321,-1.7228335,-3.9566755,-0.9967746,-0.04902795,0.06353547,-0.05973555,0.98195726,-0.17941993,-0.05359253,-0.18263653,-0.9817187,,-0.21060664821297662,-0.1118251720187709,0.15483535905,-0.007548837965442877,-0.0020495474964816063,-0.0009424511290516704,0.0,,-1.5145128666970429,0.0638978918013336,0.09030215398000001,-0.002935659208783341,-0.02719066345332265,-0.003311604088267554,0.0013067525290742371
0.2210665309999058,,0.5161261,-1.6597329,-3.9042292,-0.526215,-0.71359617,-0.4624699,-0.84432185,0.50310796,0.18439898,0.10108585,0.48750693,-0.8672477,,0.44697723,-1.5935061,-3.638927,0.59525895,-0.73295677,0.32930416,-0.8015118,-0.5125526,0.30800754,-0.056970447,-0.44728538,-0.8925749,,0.516764,-1.7228216,-3.956683,-0.9967779,-0.048955526,0.06354016,-0.059665002,0.98196185,-0.17941862,-0.053610485,-0.18263161,-0.98171866,,-0.21060664821297662,-0.1118251720187709,0.15483535905,-0.007548837965442877,-0.0020495474964816063,-0.0009424511290516704,0.0,,-1.5145128666970429,0.0638978918013336,0.09030215398000001,-0.002935659208783341,-0.02719066345332265,-0.003311604088267554,0.0013067525290742371
0.24107162499967671,,0.5161261,-1.6597329,-3.9042292,-0.5263646,-0.7134856,-0.4624703,-0.8442164,0.50328493,0.18439905,0.10118824,0.48748603,-0.86724746,,0.44697723,-1.5935061,-3.638927,0.59525895,-0.73295677,0.32930416,-0.8015118,-0.5125526,0.30800754,-0.056970447,-0.44728538,-0.8925749,,0.516764,-1.7228216,-3.956683,-0.9967779,-0.048955526,0.06354016,-0.059665002,0.98196185,-0.17941862,-0.053610485,-0.18263161,-0.98171866,,-0.21060664821297662,-0.1118251720187709,0.15483535905,-0.007339148021958352,-0.0020495474964816063,-0.0009424511290516704,0.0,,-1.5145128666970429,0.0638978918013336,0.09030215398000001,-0.002935659208783341,-0.02719066345332265,-0.003311604088267554,0.0013067525290742371
0.2664259809998839,,0.5161261,-1.6597329,-3.904229,-0.5265141,-0.713375,-0.4624707,-0.8441109,0.5034619,0.1843991,0.10129063,0.48746523,-0.8672472,,0.44697723,-1.5935061,-3.638927,0.59525895,-0.73295677,0.32930416,-0.8015118,-0.5125526,0.30800754,-0.056970447,-0.44728538,-0.8925749,,0.516764,-1.7228216,-3.956683,-0.9967779,-0.048955526,0.06354016,-0.059665002,0.98196185,-0.17941862,-0.053610485,-0.18263161,-0.98171866,,-0.21060664821297662,-0.1118251720187709,0.15483535905,-0.007129458078473829,-0.0020495474964816063,-0.0009424511290516704,0.0,,-1.5145128666970429,0.0638978918013336,0.09030215398000001,-0.002935659208783341,-0.02719066345332265,-0.003311604088267554,0.0013067525290742371
0.2908263290000832,,0.5161261,-1.6597329,-3.904229,-0.5265141,-0.713375,-0.4624707,-0.8441109,0.5034619,0.1843991,0.10129063,0.48746523,-0.8672472,,0.44697723,-1.5935061,-3.638927,0.59525895,-0.73295677,0.32930416,-0.8015118,-0.5125526,0.30800754,-0.056970447,-0.44728538,-0.8925749,,0.516764,-1.7228216,-3.956683,-0.9967779,-0.048955526,0.06354016,-0.059665002,0.98196185,-0.17941862,-0.053610485,-0.18263161,-0.98171866,,-0.21060664821297662,-0.1118251720187709,0.15483535905,-0.007129458078473829,-0.0020495474964816063,-0.0009424511290516704,0.0,,-1.5145128666970429,0.0638978918013336,0.09030215398000001,-0.002935659208783341,-0.02719066345332265,-0.003311604088267554,0.0013067525290742371
0.3159112569996978,,0.5161261,-1.6597329,-3.904229,-0.5265141,-0.713375,-0.4624707,-0.8441109,0.5034619,0.1843991,0.10129063,0.48746523,-0.8672472,,0.44697723,-1.5935061,-3.638927,0.59525895,-0.73295677,0.32930416,-0.8015118,-0.5125526,0.30800754,-0.056970447,-0.44728538,-0.8925749,,0.516764,-1.7228216,-3.956683,-0.9967779,-0.048955526,0.06354016,-0.059665002,0.98196185,-0.17941862,-0.053610485,-0.18263161,-0.98171866,,-0.21060664821297662,-0.1118251720187709,0.15483535905,-0.007129458078473829,-0.0020495474964816063,-0.0009424511290516704,0.0,,-1.5145128666970429,0.0638978918013336,0.09030215398000001,-0.002935659208783341,-0.02719066345332265,-0.003311604088267554,0.0013067525290742371
0.3413033050001104,,0.51612526,-1.6597323,-3.9042284,-0.5265135,-0.7133719,-0.46247613,-0.8441113,0.5034597,0.18440302,0.10129017,0.48747194,-0.8672435,,0.44697723,-1.5935061,-3.638927,0.59525895,-0.73295677,0.32930416,-0.8015118,-0.5125526,0.30800754,-0.056970447,-0.44728538,-0.8925749,,0.516764,-1.7228216,-3.956683,-0.9967779,-0.048955526,0.06354016,-0.059665002,0.98196185,-0.17941862,-0.053610485,-0.18263161,-0.98171866,,-0.21059892548010237,-0.1118251720187709,0.15483535905,-0.007129458078473829,-0.0020495474964816063,-0.0009424511290516704,0.0,,-1.5145128666970429,0.0638978918013336,0.09030215398000001,-0.002935659208783341,-0.02719066345332265,-0.003311604088267554,0.0013067525290742371
0.36537896299978456,,0.5161261,-1.6597329,-3.904229,-0.5265141,-0.713375,-0.4624707,-0.8441109,0.5034619,0.1843991,0.10129063,0.48746523,-0.8672472,,0.44697723,-1.5935061,-3.638927,0.59525895,-0.73295677,0.32930416,-0.8015118,-0.5125526,0.30800754,-0.056970447,-0.44728538,-0.8925749,,0.516764,-1.7228216,-3.956683,-0.9967779,-0.048955526,0.06354016,-0.059665002,0.98196185,-0.17941862,-0.053610485,-0.18263161,-0.98171866,,-0.21060664821297662,-0.1118251720187709,0.15483535905,-0.007129458078473829,-0.0020495474964816063,-0.0009424511290516704,0.0,,-1.5145128666970429,0.0638978918013336,0.09030215398000001,-0.002935659208783341,-0.02719066345332265,-0.003311604088267554,0.0013067525290742371
0.39180517799968584,,0.5161261,-1.6597329,-3.904229,-0.5265141,-0.713375,-0.4624707,-0.8441109,0.5034619,0.1843991,0.10129063,0.48746523,-0.8672472,,0.44697723,-1.5935061,-3.638927,0.59525895,-0.73295677,0.32930416,-0.8015118,-0.5125526,0.30800754,-0.056970447,-0.44728538,-0.8925749,,0.516764,-1.7228216,-3.956683,-0.9967779,-0.048955526,0.06354016,-0.059665002,0.98196185,-0.17941862,-0.053610485,-0.18263161,-0.98171866,,-0.21060664821297662,-0.1118251720187709,0.15483535905,-0.007129458078473829,-0.0020495474964816063,-0.0009424511290516704,0.0,,-1.5145128666970429,0.0638978918013336,0.09030215398000001,-0.002935659208783341,-0.02719066345332265,-0.003311604088267554,0.0013067525290742371
0.4166369209997356,,0.5161261,-1.6597329,-3.904229,-0.5265141,-0.713375,-0.4624707,-0.8441109,0.5034619,0.1843991,0.10129063,0.48746523,-0.8672472,,0.44697723,-1.5935061,-3.638927,0.59525895,-0.73295677,0.32930416,-0.8015118,-0.5125526,0.30800754,-0.056970447,-0.44728538,-0.8925749,,0.516764,-1.7228216,-3.956683,-0.9967779,-0.048955526,0.06354016,-0.059665002,0.98196185,-0.17941862,-0.053610485,-0.18263161,-0.98171866,,-0.21060664821297662,-0.1118251720187709,0.15483535905,-0.007129458078473829,-0.0020495474964816063,-0.0009424511290516704,0.0,,-1.5145128666970429,0.0638978918013336,0.09030215398000001,-0.002935659208783341,-0.02719066345332265,-0.003311604088267554,0.0013067525290742371
0.4404798390000906,,0.5161261,-1.6597329,-3.904229,-0.5265141,-0.713375,-0.4624707,-0.8441109,0.5034619,0.1843991,0.10129063,0.48746523,-0.8672472,,0.44697723,-1.5935061,-3.638927,0.59525895,-0.73295677,0.32930416,-0.8015118,-0.5125526,0.30800754,-0.056970447,-0.44728538,-0.8925749,,0.516764,-1.7228216,-3.956683,-0.9967779,-0.048955526,0.06354016,-0.059665002,0.98196185,-0.17941862,-0.053610485,-0.18263161,-0.98171866,,-0.21060664821297662,-0.1118251720187709,0.15483535905,-0.007129458078473829,-0.0020495474964816063,-0.0009424511290516704,0.0,,-1.5145128666970429,0.0638978918013336,0.09030215398000001,-0.002935659208783341,-0.02719066345332265,-0.003311604088267554,0.0013067525290742371
0.46622849499999575,,0.5161261,-1.6597329,-3.904229,-0.5265141,-0.713375,-0.4624707,-0.8441109,0.5034619,0.1843991,0.10129063,0.48746523,-0.8672472,,0.44697723,-1.5935061,-3.638927,0.59525895,-0.73295677,0.32930416,-0.8015118,-0.5125526,0.30800754,-0.056970447,-0.44728538,-0.8925749,,0.516764,-1.7228216,-3.956683,-0.9967779,-0.048955526,0.06354016,-0.059665002,0.98196185,-0.17941862,-0.053610485,-0.18263161,-0.98171866,,-0.21060664821297662,-0.1118251720187709,0.15483535905,-0.007129458078473829,-0.0020495474964816063,-0.0009424511290516704,0.0,,-1.5145128666970429,0.0638978918013336,0.09030215398000001,-0.002935659208783341,-0.02719066345332265,-0.003311604088267554,0.0013067525290742371
0.48840403699978197,,0.5161261,-1.6597329,-3.904229,-0.5265141,-0.713375,-0.4624707,-0.8441109,0.5034619,0.1843991,0.10129063,0.48746523,-0.8672472,,0.44697723,-1.5935061,-3.638927,0.59525895,-0.73295677,0.32930416,-0.8015118,-0.5125526,0.30800754,-0.056970447,-0.44728538,-0.8925749,,0.516764,-1.7228216,-3.956683,-0.9967779,-0.048955526,0.06354016,-0.059665002,0.98196185,-0.17941862,-0.053610485,-0.18263161,-0.98171866,,-0.21060664821297662,-0.1118251720187709,0.15483535905,-0.007129458078473829,-0.0020495474964816063,-0.0009424511290516704,0.0,,-1.5145128666970429,0.0638978918013336,0.09030215398000001,-0.002935659208783341,-0.02719066345332265,-0.003311604088267554,0.0013067525290742371
0.5133030359997974,,0.51612526,-1.6597323,-3.9042284,-0.5265135,-0.7133719,-0.46247613,-0.8441113,0.5034597,0.18440302,0.10129017,0.48747194,-0.8672435,,0.44697723,-1.5935061,-3.638927,0.59525895,-0.73295677,0.32930416,-0.8015118,-0.5125526,0.30800754,-0.056970447,-0.44728538,-0.8925749,,0.516764,-1.7228216,-3.956683,-0.9967779,-0.048955526,0.06354016,-0.059665002,0.98196185,-0.17941862,-0.053610485,-0.18263161,-0.98171866,,-0.21059892548010237,-0.1118251720187709,0.15483535905,-0.007129458078473829,-0.0020495474964816063,-0.0009424511290516704,0.0,,-1.5145128666970429,0.0638978918013336,0.09030215398000001,-0.002935659208783341,-0.02719066345332265,-0.003311604088267554,0.0013067525290742371
0.5363721599997007,,0.5161261,-1.6597329,-3.904229,-0.5265141,-0.713375,-0.4624707,-0.8441109,0.5034619,0.1843991,0.10129063,0.48746523,-0.8672472,,0.44697723,-1.5935061,-3.638927,0.59525895,-0.73295677,0.32930416,-0.8015118,-0.5125526,0.30800754,-0.056970447,-0.44728538,-0.8925749,,0.516764,-1.7228216,-3.956683,-0.9967779,-0.048955526,0.06354016,-0.059665002,0.98196185,-0.17941862,-0.053610485,-0.18263161,-0.98171866,,-0.21060664821297662,-0.1118251720187709,0.15483535905,-0.007129458078473829,-0.0020495474964816063,-0.0009424511290516704,0.0,,-1.5145128666970429,0.0638978918013336,0.09030215398000001,-0.002935659208783341,-0.02719066345332265,-0.003311604088267554,0.0013067525290742371
0.5585864209997453,,0.5161261,-1.6597329,-3.904229,-0.5265141,-0.713375,-0.4624707,-0.8441109,0.5034619,0.1843991,0.10129063,0.48746523,-0.8672472,,0.44697723,-1.5935061,-3.638927,0.59525895,-0.7329298,0.32936403,-0.8015118,-0.51252747,0.30804938,-0.056970447,-0.44735828,-0.89253837,,0.516764,-1.7228216,-3.956683,-0.9967779,-0.048955526,0.06354016,-0.059665002,0.98196185,-0.17941862,-0.053610485,-0.18263161,-0.98171866,,-0.21060664821297662,-0.1118251720187709,0.15483535905,-0.007129458078473829,-0.0020495474964816063,-0.0009424511290516704,0.0,,-1.5145128666970429,0.0638978918013336,0.09030215398000001,-0.002935659208783341,-0.02719066345332265,-0.0033932828284081173,0.001470096595208515
0.5848377009997421,,0.5161261,-1.6597329,-3.904229,-0.5265141,-0.713375,-0.4624707,-0.8441109,0.5034619,0.1843991,0.10129063,0.48746523,-0.8672472,,0.44697726,-1.5935061,-3.638927,0.5954129,-0.7328032,0.32936785,-0.8014041,-0.51269376,0.3080529,-0.056877315,-0.44737533,-0.8925358,,0.516764,-1.7228216,-3.956683,-0.9967779,-0.048955526,0.06354016,-0.059665002,0.98196185,-0.17941862,-0.053610485,-0.18263161,-0.98171866,,-0.21060664821297662,-0.1118251720187709,0.15483535905,-0.007129458078473829,-0.0020495474964816063,-0.0009424511290516704,0.0,,-1.5145128666970429,0.0638978918013336,0.09030215398000001,-0.003145349152267865,-0.02719066345332265,-0.0033932828284081173,0.001470096595208515
0.60769124799981,,0.5161261,-1.6597329,-3.904229,-0.5265141,-0.713375,-0.4624707,-0.8441109,0.5034619,0.1843991,0.10129063,0.48746523,-0.8672472,,0.44697732,-1.5935061,-3.638927,0.59556675,-0.73264956,0.3294314,-0.8012964,-0.5128348,0.30809826,-0.056784168,-0.4474652,-0.8924967,,0.516764,-1.7228216,-3.956683,-0.9967779,-0.048955526,0.06354016,-0.059665002,0.98196185,-0.17941862,-0.053610485,-0.18263161,-0.98171866,,-0.21060664821297662,-0.1118251720187709,0.15483535905,-0.007129458078473829,-0.0020495474964816063,-0.0009424511290516704,0.0,,-1.5145128666970429,0.0638978918013336,0.09030215398000001,-0.0033550390957523897,-0.02719066345332265,-0.003474961568548679,0.0016334406613427964
0.6343008549997649,,0.5161261,-1.6597329,-3.904229,-0.5265141,-0.713375,-0.4624707,-0.8441109,0.5034619,0.1843991,0.10129063,0.48746523,-0.8672472,,0.44697732,-1.5935061,-3.638927,0.59556675,-0.73264956,0.3294314,-0.8012964,-0.5128348,0.30809826,-0.056784168,-0.4474652,-0.8924967,,0.516764,-1.7228216,-3.956683,-0.9967779,-0.048955526,0.06354016,-0.059665002,0.98196185,-0.17941862,-0.053610485,-0.18263161,-0.98171866,,-0.21060664821297662,-0.1118251720187709,0.15483535905,-0.007129458078473829,-0.0020495474964816063,-0.0009424511290516704,0.0,,-1.5145128666970429,0.0638978918013336,0.09030215398000001,-0.0033550390957523897,-0.02719066345332265,-0.003474961568548679,0.0016334406613427964
0.6555887199997414,,0.51612526,-1.6597323,-3.9042284,-0.5265135,-0.7133719,-0.46247613,-0.8441113,0.5034597,0.18440302,0.10129017,0.48747194,-0.8672435,,0.44697732,-1.5935061,-3.638927,0.59556675,-0.73264956,0.3294314,-0.8012964,-0.5128348,0.30809826,-0.056784168,-0.4474652,-0.8924967,,0.516764,-1.7228216,-3.956683,-0.9967779,-0.048955526,0.06354016,-0.059665002,0.98196185,-0.17941862,-0.053610485,-0.18263161,-0.98171866,,-0.21059892548010237,-0.1118251720187709,0.15483535905,-0.007129458078473829,-0.0020495474964816063,-0.0009424511290516704,0.0,,-1.5145128666970429,0.0638978918013336,0.09030215398000001,-0.0033550390957523897,-0.02719066345332265,-0.003474961568548679,0.0016334406613427964
0.6761741309996978,,0.5161261,-1.6597329,-3.904229,-0.5265141,-0.713375,-0.4624707,-0.8441109,0.5034619,0.1843991,0.10129063,0.48746523,-0.8672472,,0.44697732,-1.5935061,-3.638927,0.59556675,-0.73264956,0.3294314,-0.8012964,-0.5128348,0.30809826,-0.056784168,-0.4474652,-0.8924967,,0.516764,-1.7228216,-3.956683,-0.9967779,-0.048955526,0.06354016,-0.059665002,0.98196185,-0.17941862,-0.053610485,-0.18263161,-0.98171866,,-0.21060664821297662,-0.1118251720187709,0.15483535905,-0.007129458078473829,-0.0020495474964816063,-0.0009424511290516704,0.0,,-1.5145128666970429,0.0638978918013336,0.09030215398000001,-0.0033550390957523897,-0.02719066345332265,-0.003474961568548679,0.0016334406613427964
0.7044096740000896,,0.5161261,-1.6597329,-3.904229,-0.5265141,-0.713375,-0.4624707,-0.8441109,0.5034619,0.1843991,0.10129063,0.48746523,-0.8672472,,0.44697732,-1.5935061,-3.638927,0.59556675,-0.73264956,0.3294314,-0.8012964,-0.5128348,0.30809826,-0.056784168,-0.4474652,-0.8924967,,0.516764,-1.7228216,-3.956683,-0.9967779,-0.048955526,0.06354016,-0.059665002,0.98196185,-0.17941862,-0.053610485,-0.18263161,-0.98171866,,-0.21060664821297662,-0.1118251720187709,0.15483535905,-0.007129458078473829,-0.0020495474964816063,-0.0009424511290516704,0.0,,-1.5145128666970429,0.0638978918013336,0.09030215398000001,-0.0033550390957523897,-0.02719066345332265,-0.003474961568548679,0.0016334406613427964
0.7287067540000862,,0.5161261,-1.6597329,-3.904229,-0.5265141,-0.713375,-0.4624707,-0.8441109,0.5034619,0.1843991,0.10129063,0.48746523,-0.8672472,,0.44697732,-1.5935061,-3.638927,0.59556675,-0.73264956,0.3294314,-0.8012964,-0.5128348,0.30809826,-0.056784168,-0.4474652,-0.8924967,,0.516764,-1.7228216,-3.956683,-0.9967779,-0.048955526,0.06354016,-0.059665002,0.98196185,-0.17941862,-0.053610485,-0.18263161,-0.98171866,,-0.21060664821297662,-0.1118251720187709,0.15483535905,-0.007129458078473829,-0.0020495474964816063,-0.0009424511290516704,0.0,,-1.5145128666970429,0.0638978918013336,0.09030215398000001,-0.0033550390957523897,-0.02719066345332265,-0.003474961568548679,0.0016334406613427964
0.7545142819999455,,0.5161261,-1.6597329,-3.904229,-0.5265141,-0.713375,-0.4624707,-0.8441109,0.5034619,0.1843991,0.10129063,0.48746523,-0.8672472,,0.44697732,-1.5935061,-3.638927,0.59556675,-0.73264956,0.3294314,-0.8012964,-0.5128348,0.30809826,-0.056784168,-0.4474652,-0.8924967,,0.516764,-1.7228216,-3.956683,-0.9967779,-0.048955526,0.06354016,-0.059665002,0.98196185,-0.17941862,-0.053610485,-0.18263161,-0.98171866,,-0.21060664821297662,-0.1118251720187709,0.15483535905,-0.007129458078473829,-0.0020495474964816063,-0.0009424511290516704,0.0,,-1.5145128666970429,0.0638978918013336,0.09030215398000001,-0.0033550390957523897,-0.02719066345332265,-0.003474961568548679,0.0016334406613427964
0.776210520999939,,0.5161261,-1.6597329,-3.904229,-0.5265141,-0.713375,-0.4624707,-0.8441109,0.5034619,0.1843991,0.10129063,0.48746523,-0.8672472,,0.44697732,-1.5935061,-3.638927,0.59556675,-0.73264956,0.3294314,-0.8012964,-0.5128348,0.30809826,-0.056784168,-0.4474652,-0.8924967,,0.516764,-1.7228216,-3.956683,-0.9967779,-0.048955526,0.06354016,-0.059665002,0.98196185,-0.17941862,-0.053610485,-0.18263161,-0.98171866,,-0.21060664821297662,-0.1118251720187709,0.15483535905,-0.007129458078473829,-0.0020495474964816063,-0.0009424511290516704,0.0,,-1.5145128666970429,0.0638978918013336,0.09030215398000001,-0.0033550390957523897,-0.02719066345332265,-0.003474961568548679,0.0016334406613427964
0.8039463320001232,,0.5161261,-1.6597329,-3.904229,-0.5265141,-0.713375,-0.4624707,-0.8441109,0.5034619,0.1843991,0.10129063,0.48746523,-0.8672472,,0.44697732,-1.5935061,-3.638927,0.59556675,-0.73264956,0.3294314,-0.8012964,-0.5128348,0.30809826,-0.056784168,-0.4474652,-0.8924967,,0.516764,-1.7228216,-3.956683,-0.9967779,-0.048955526,0.06354016,-0.059665002,0.98196185,-0.17941862,-0.053610485,-0.18263161,-0.98171866,,-0.21060664821297662,-0.1118251720187709,0.15483535905,-0.007129458078473829,-0.0020495474964816063,-0.0009424511290516704,0.0,,-1.5145128666970429,0.0638978918013336,0.09030215398000001,-0.0033550390957523897,-0.02719066345332265,-0.003474961568548679,0.0016334406613427964
0.825657887000034,,0.5161261,-1.6597329,-3.904229,-0.5265141,-0.713375,-0.4624707,-0.8441109,0.5034619,0.1843991,0.10129063,0.48746523,-0.8672472,,0.44697732,-1.5935061,-3.638927,0.59556675,-0.73264956,0.3294314,-0.8012964,-0.5128348,0.30809826,-0.056784168,-0.4474652,-0.8924967,,0.516764,-1.7228216,-3.956683,-0.9967779,-0.048955526,0.06354016,-0.059665002,0.98196185,-0.17941862,-0.053610485,-0.18263161,-0.98171866,,-0.21060664821297662,-0.1118251720187709,0.15483535905,-0.007129458078473829,-0.0020495474964816063,-0.0009424511290516704,0.0,,-1.5145128666970429,0.0638978918013336,0.09030215398000001,-0.0033550390957523897,-0.02719066345332265,-0.003474961568548679,0.0016334406613427964
0.8529547839998486,,0.5161261,-1.6597329,-3.904229,-0.5265141,-0.713375,-0.4624707,-0.8441109,0.5034619,0.1843991,0.10129063,0.48746523,-0.8672472,,0.44697732,-1.5935061,-3.638927,0.59556675,-0.73264956,0.3294314,-0.8012964,-0.5128348,0.30809826,-0.056784168,-0.4474652,-0.8924967,,0.516764,-1.7228216,-3.956683,-0.9967779,-0.048955526,0.06354016,-0.059665002,0.98196185,-0.17941862,-0.053610485,-0.18263161,-0.98171866,,-0.21060664821297662,-0.1118251720187709,0.15483535905,-0.007129458078473829,-0.0020495474964816063,-0.0009424511290516704,0.0,,-1.5145128666970429,0.0638978918013336,0.09030215398000001,-0.0033550390957523897,-0.02719066345332265,-0.003474961568548679,0.0016334406613427964
0.8731306099998619,,0.5161261,-1.6597329,-3.904229,-0.5265141,-0.713375,-0.4624707,-0.8441109,0.5034619,0.1843991,0.10129063,0.48746523,-0.8672472,,0.44697732,-1.5935061,-3.638927,0.59556675,-0.73264956,0.3294314,-0.8012964,-0.5128348,0.30809826,-0.056784168,-0.4474652,-0.8924967,,0.516764,-1.7228216,-3.956683,-0.9967779,-0.048955526,0.06354016,-0.059665002,0.98196185,-0.17941862,-0.053610485,-0.18263161,-0.98171866,,-0.21060664821297662,-0.1118251720187709,0.15483535905,-0.007129458078473829,-0.0020495474964816063,-0.0009424511290516704,0.0,,-1.5145128666970429,0.0638978918013336,0.09030215398000001,-0.0033550390957523897,-0.02719066345332265,-0.003474961568548679,0.0016334406613427964
0.8984541780000654,,0.5161261,-1.6597329,-3.9042292,-0.5263646,-0.7134856,-0.4624703,-0.8442164,0.50328493,0.18439905,0.10118824,0.48748603,-0.86724746,,0.44697732,-1.5935061,-3.638927,0.59556675,-0.73264956,0.3294314,-0.8012964,-0.5128348,0.30809826,-0.056784168,-0.4474652,-0.8924967,,0.516764,-1.7228216,-3.956683,-0.9967779,-0.048955526,0.06354016,-0.059665002,0.98196185,-0.17941862,-0.053610485,-0.18263161,-0.98171866,,-0.21060664821297662,-0.1118251720187709,0.15483535905,-0.007339148021958352,-0.0020495474964816063,-0.0009424511290516704,0.0,,-1.5145128666970429,0.0638978918013336,0.09030215398000001,-0.0033550390957523897,-0.02719066345332265,-0.003474961568548679,0.0016334406613427964
0.9228365280000617,,0.5161261,-1.6597329,-3.9042292,-0.526215,-0.71359617,-0.4624699,-0.84432185,0.50310796,0.18439898,0.10108585,0.48750693,-0.8672477,,0.44697732,-1.5935061,-3.638927,0.59556675,-0.73264956,0.3294314,-0.8012964,-0.5128348,0.30809826,-0.056784168,-0.4474652,-0.8924967,,0.516764,-1.7228216,-3.956683,-0.9967779,-0.048955526,0.06354016,-0.059665002,0.98196185,-0.17941862,-0.053610485,-0.18263161,-0.98171866,,-0.21060664821297662,-0.1118251720187709,0.15483535905,-0.007548837965442877,-0.0020495474964816063,-0.0009424511290516704,0.0,,-1.5145128666970429,0.0638978918013336,0.09030215398000001,-0.0033550390957523897,-0.02719066345332265,-0.003474961568548679,0.0016334406613427964
0.9434540299998844,,0.5161261,-1.6597329,-3.9042292,-0.526215,-0.71359617,-0.4624699,-0.84432185,0.50310796,0.18439898,0.10108585,0.48750693,-0.8672477,,0.44697732,-1.5935061,-3.638927,0.59556675,-0.73264956,0.3294314,-0.8012964,-0.5128348,0.30809826,-0.056784168,-0.4474652,-0.8924967,,0.516764,-1.7228216,-3.956683,-0.9967779,-0.048955526,0.06354016,-0.059665002,0.98196185,-0.17941862,-0.053610485,-0.18263161,-0.98171866,,-0.21060664821297662,-0.1118251720187709,0.15483535905,-0.007548837965442877,-0.0020495474964816063,-0.0009424511290516704,0.0,,-1.5145128666970429,0.0638978918013336,0.09030215398000001,-0.0033550390957523897,-0.02719066345332265,-0.003474961568548679,0.0016334406613427964
0.9700493069999538,,0.5161261,-1.6597329,-3.9042292,-0.526215,-0.71359617,-0.4624699,-0.84432185,0.50310796,0.18439898,0.10108585,0.48750693,-0.8672477,,0.44697726,-1.5935061,-3.638927,0.5954129,-0.73277634,0.32942766,-0.8014041,-0.5126686,0.30809477,-0.056877315,-0.44744822,-0.89249927,,0.516764,-1.7228216,-3.956683,-0.9967779,-0.048955526,0.06354016,-0.059665002,0.98196185,-0.17941862,-0.053610485,-0.18263161,-0.98171866,,-0.21060664821297662,-0.1118251720187709,0.15483535905,-0.007548837965442877,-0.0020495474964816063,-0.0009424511290516704,0.0,,-1.5145128666970429,0.0638978918013336,0.09030215398000001,-0.003145349152267865,-0.02719066345332265,-0.003474961568548679,0.0016334406613427964
0.9928260910000972,,0.5161261,-1.6597329,-3.9042292,-0.526215,-0.71359617,-0.4624699,-0.84432185,0.50310796,0.18439898,0.10108585,0.48750693,-0.8672477,,0.44697723,-1.5935061,-3.638927,0.59525895,-0.732903,0.3294239,-0.8015118,-0.5125024,0.30809125,-0.056970447,-0.4474312,-0.89250183,,0.516764,-1.7228216,-3.956683,-0.9967779,-0.048955526,0.06354016,-0.059665002,0.98196185,-0.17941862,-0.053610485,-0.18263161,-0.98171866,,-0.21060664821297662,-0.1118251720187709,0.15483535905,-0.007548837965442877,-0.0020495474964816063,-0.0009424511290516704,0.0,,-1.5145128666970429,0.0638978918013336,0.09030215398000001,-0.002935659208783341,-0.02719066345332265,-0.003474961568548679,0.0016334406613427964
1.018575391000013,,0.5161261,-1.6597329,-3.9042292,-0.526215,-0.71359617,-0.4624699,-0.84432185,0.50310796,0.18439898,0.10108585,0.48750693,-0.8672477,,0.44697723,-1.5935061,-3.638927,0.59525895,-0.732903,0.3294239,-0.8015118,-0.5125024,0.30809125,-0.056970447,-0.4474312,-0.89250183,,0.516764,-1.7228216,-3.956683,-0.9967779,-0.048955526,0.06354016,-0.059665002,0.98196185,-0.17941862,-0.053610485,-0.18263161,-0.98171866,,-0.21060664821297662,-0.1118251720187709,0.15483535905,-0.007548837965442877,-0.0020495474964816063,-0.0009424511290516704,0.0,,-1.5145128666970429,0.0638978918013336,0.09030215398000001,-0.002935659208783341,-0.02719066345332265,-0.003474961568548679,0.0016334406613427964
1.0407516999998734,,0.5161261,-1.6597329,-3.9042292,-0.526215,-0.71359617,-0.4624699,-0.84432185,0.50310796,0.18439898,0.10108585,0.48750693,-0.8672477,,0.44697723,-1.5935061,-3.638927,0.59525895,-0.732903,0.3294239,-0.8015118,-0.5125024,0.30809125,-0.056970447,-0.4474312,-0.89250183,,0.516764,-1.7228216,-3.956683,-0.9967779,-0.048955526,0.06354016,-0.059665002,0.98196185,-0.17941862,-0.053610485,-0.18263161,-0.98171866,,-0.21060664821297662,-0.1118251720187709,0.15483535905,-0.007548837965442877,-0.0020495474964816063,-0.0009424511290516704,0.0,,-1.5145128666970429,0.0638978918013336,0.09030215398000001,-0.002935659208783341,-0.02719066345332265,-0.003474961568548679,0.0016334406613427964
1.06585254599986,,0.5161261,-1.6597329,-3.9042292,-0.526215,-0.71359617,-0.4624699,-0.84432185,0.50310796,0.18439898,0.10108585,0.48750693,-0.8672477,,0.44697723,-1.5935061,-3.638927,0.59525895,-0.732903,0.3294239,-0.8015118,-0.5125024,0.30809125,-0.056970447,-0.4474312,-0.89250183,,0.516764,-1.7228216,-3.956683,-0.9967779,-0.048955526,0.06354016,-0.059665002,0.98196185,-0.17941862,-0.053610485,-0.18263161,-0.98171866,,-0.21060664821297662,-0.1118251720187709,0.15483535905,-0.007548837965442877,-0.0020495474964816063,-0.0009424511290516704,0.0,,-1.5145128666970429,0.0638978918013336,0.09030215398000001,-0.002935659208783341,-0.02719066345332265,-0.003474961568548679,0.0016334406613427964
1.0877522850000787,,0.5161261,-1.6597329,-3.9042292,-0.526215,-0.71359617,-0.4624699,-0.84432185,0.50310796,0.18439898,0.10108585,0.48750693,-0.8672477,,0.44697723,-1.5935061,-3.638927,0.59525895,-0.732903,0.3294239,-0.8015118,-0.5125024,0.30809125,-0.056970447,-0.4474312,-0.89250183,,0.516764,-1.7228216,-3.956683,-0.9967779,-0.048955526,0.06354016,-0.059665002,0.98196185,-0.17941862,-0.053610485,-0.18263161,-0.98171866,,-0.21060664821297662,-0.1118251720187709,0.15483535905,-0.007548837965442877,-0.0020495474964816063,-0.0009424511290516704,0.0,,-1.5145128666970429,0.0638978918013336,0.09030215398000001,-0.002935659208783341,-0.02719066345332265,-0.003474961568548679,0.0016334406613427964
1.1087602719999268,,0.5161261,-1.6597329,-3.9042292,-0.526215,-0.71359617,-0.4624699,-0.84432185,0.50310796,0.18439898,0.10108585,0.48750693,-0.8672477,,0.44697723,-1.5935061,-3.638927,0.59525895,-0.732903,0.3294239,-0.8015118,-0.5125024,0.30809125,-0.056970447,-0.4474312,-0.89250183,,0.516764,-1.7228216,-3.956683,-0.9967779,-0.048955526,0.06354016,-0.059665002,0.98196185,-0.17941862,-0.053610485,-0.18263161,-0.98171866,,-0.21060664821297662,-0.1118251720187709,0.15483535905,-0.007548837965442877,-0.0020495474964816063,-0.0009424511290516704,0.0,,-1.5145128666970429,0.0638978918013336,0.09030215398000001,-0.002935659208783341,-0.02719066345332265,-0.003474961568548679,0.0016334406613427964
1.1340275269999438,,0.5161261,-1.6597329,-3.9042292,-0.526215,-0.71359617,-0.4624699,-0.84432185,0.50310796,0.18439898,0.10108585,0.48750693,-0.8672477,,0.44697723,-1.5935061,-3.638927,0.59525895,-0.732903,0.3294239,-0.8015118,-0.5125024,0.30809125,-0.056970447,-0.4474312,-0.89250183,,0.516764,-1.7228216,-3.956683,-0.9967779,-0.048955526,0.06354016,-0.059665002,0.98196185,-0.17941862,-0.053610485,-0.18263161,-0.98171866,,-0.21060664821297662,-0.1118251720187709,0.15483535905,-0.007548837965442877,-0.0020495474964816063,-0.0009424511290516704,0.0,,-1.5145128666970429,0.0638978918013336,0.09030215398000001,-0.002935659208783341,-0.02719066345332265,-0.003474961568548679,0.0016334406613427964
1.1597711720000916,,0.5161261,-1.6597329,-3.9042292,-0.526215,-0.71359617,-0.4624699,-0.84432185,0.50310796,0.18439898,0.10108585,0.48750693,-0.8672477,,0.44697723,-1.5935061,-3.638927,0.59525895,-0.732903,0.3294239,-0.8015118,-0.5125024,0.30809125,-0.056970447,-0.4474312,-0.89250183,,0.516764,-1.7228216,-3.956683,-0.9967779,-0.048955526,0.06354016,-0.059665002,0.98196185,-0.17941862,-0.053610485,-0.18263161,-0.98171866,,-0.21060664821297662,-0.1118251720187709,0.15483535905,-0.007548837965442877,-0.0020495474964816063,-0.0009424511290516704,0.0,,-1.5145128666970429,0.0638978918013336,0.09030215398000001,-0.002935659208783341,-0.02719066345332265,-0.003474961568548679,0.0016334406613427964
1.1847638629997164,,0.5161261,-1.6597329,-3.9042292,-0.526215,-0.71359617,-0.4624699,-0.84432185,0.50310796,0.18439898,0.10108585,0.48750693,-0.8672477,,0.44697723,-1.5935061,-3.638927,0.59525895,-0.732903,0.3294239,-0.8015118,-0.5125024,0.30809125,-0.056970447,-0.4474312,-0.89250183,,0.516764,-1.7228216,-3.956683,-0.9967779,-0.048955526,0.06354016,-0.059665002,0.98196185,-0.17941862,-0.053610485,-0.18263161,-0.98171866,,-0.21060664821297662,-0.1118251720187709,0.15483535905,-0.007548837965442877,-0.0020495474964816063,-0.0009424511290516704,0.0,,-1.5145128666970429,0.0638978918013336,0.09030215398000001,-0.002935659208783341,-0.02719066345332265,-0.003474961568548679,0.0016334406613427964
1.206697942000119,,0.5161261,-1.6597329,-3.9042292,-0.526215,-0.71359617,-0.4624699,-0.84432185,0.50310796,0.18439898,0.10108585,0.48750693,-0.8672477,,0.44697723,-1.5935061,-3.638927,0.59525895,-0.732903,0.3294239,-0.8015118,-0.5125024,0.30809125,-0.056970447,-0.4474312,-0.89250183,,0.516764,-1.7228216,-3.956683,-0.9967779,-0.048955526,0.06354016,-0.059665002,0.98196185,-0.17941862,-0.053610485,-0.18263161,-0.98171866,,-0.21060664821297662,-0.1118251720187709,0.15483535905,-0.007548837965442877,-0.0020495474964816063,-0.0009424511290516704,0.0,,-1.5145128666970429,0.0638978918013336,0.09030215398000001,-0.002935659208783341,-0.02719066345332265,-0.003474961568548679,0.0016334406613427964
1.2313204990000486,,0.5161261,-1.6597329,-3.9042292,-0.526215,-0.71359617,-0.4624699,-0.84432185,0.50310796,0.18439898,0.10108585,0.48750693,-0.8672477,,0.44697723,-1.5935061,-3.638927,0.59525895,-0.732903,0.3294239,-0.8015118,-0.5125024,0.30809125,-0.056970447,-0.4474312,-0.89250183,,0.516764,-1.7228216,-3.956683,-0.9967779,-0.048955526,0.06354016,-0.059665002,0.98196185,-0.17941862,-0.053610485,-0.18263161,-0.98171866,,-0.21060664821297662,-0.1118251720187709,0.15483535905,-0.007548837965442877,-0.0020495474964816063,-0.0009424511290516704,0.0,,-1.5145128666970429,0.0638978918013336,0.09030215398000001,-0.002935659208783341,-0.02719066345332265,-0.003474961568548679,0.0016334406613427964
1.2529700350000894,,0.5161261,-1.6597329,-3.9042292,-0.526215,-0.71359617,-0.4624699,-0.84432185,0.50310796,0.18439898,0.10108585,0.48750693,-0.8672477,,0.44697723,-1.5935061,-3.638927,0.59525895,-0.732903,0.3294239,-0.8015118,-0.5125024,0.30809125,-0.056970447,-0.4474312,-0.89250183,,0.516764,-1.7228216,-3.956683,-0.9967779,-0.048955526,0.06354016,-0.059665002,0.98196185,-0.17941862,-0.053610485,-0.18263161,-0.98171866,,-0.21060664821297662,-0.1118251720187709,0.15483535905,-0.007548837965442877,-0.0020495474964816063,-0.0009424511290516704,0.0,,-1.5145128666970429,0.0638978918013336,0.09030215398000001,-0.002935659208783341,-0.02719066345332265,-0.003474961568548679,0.0016334406613427964
1.2749122909999642,,0.5161261,-1.6597329,-3.9042292,-0.526215,-0.71359617,-0.4624699,-0.84432185,0.50310796,0.18439898,0.10108585,0.48750693,-0.8672477,,0.44697723,-1.5935061,-3.638927,0.59525895,-0.732903,0.3294239,-0.8015118,-0.5125024,0.30809125,-0.056970447,-0.4474312,-0.89250183,,0.516764,-1.7228216,-3.956683,-0.9967779,-0.048955526,0.06354016,-0.059665002,0.98196185,-0.17941862,-0.053610485,-0.18263161,-0.98171866,,-0.21060664821297662,-0.1118251720187709,0.15483535905,-0.007548837965442877,-0.0020495474964816063,-0.0009424511290516704,0.0,,-1.5145128666970429,0.0638978918013336,0.09030215398000001,-0.002935659208783341,-0.02719066345332265,-0.003474961568548679,0.0016334406613427964
1.302673940999739,,0.5161261,-1.6597329,-3.9042292,-0.526215,-0.71359617,-0.4624699,-0.84432185,0.50310796,0.18439898,0.10108585,0.48750693,-0.8672477,,0.44697723,-1.5935061,-3.638927,0.59525895,-0.732903,0.3294239,-0.8015118,-0.5125024,0.30809125,-0.056970447,-0.4474312,-0.89250183,,0.516764,-1.7228216,-3.956683,-0.9967779,-0.048955526,0.06354016,-0.059665002,0.98196185,-0.17941862,-0.053610485,-0.18263161,-0.98171866,,-0.21060664821297662,-0.1118251720187709,0.15483535905,-0.007548837965442877,-0.0020495474964816063,-0.0009424511290516704,0.0,,-1.5145128666970429,0.0638978918013336,0.09030215398000001,-0.002935659208783341,-0.02719066345332265,-0.003474961568548679,0.0016334406613427964
1.3252451519997521,,0.5161261,-1.6597329,-3.9042292,-0.526215,-0.71359617,-0.4624699,-0.84432185,0.50310796,0.18439898,0.10108585,0.48750693,-0.8672477,,0.44697723,-1.5935061,-3.638927,0.59525895,-0.732903,0.3294239,-0.8015118,-0.5125024,0.30809125,-0.056970447,-0.4474312,-0.89250183,,0.516764,-1.7228216,-3.956683,-0.9967779,-0.048955526,0.06354016,-0.059665002,0.98196185,-0.17941862,-0.053610485,-0.18263161,-0.98171866,,-0.21060664821297662,-0.1118251720187709,0.15483535905,-0.007548837965442877,-0.0020495474964816063,-0.0009424511290516704,0.0,,-1.5145128666970429,0.0638978918013336,0.09030215398000001,-0.002935659208783341,-0.02719066345332265,-0.003474961568548679,0.0016334406613427964
1.347471478999978,,0.51614034,-1.659731,-3.9042308,-0.52620167,-0.71360004,-0.46247914,-0.8443313,0.5030894,0.1844059,0.101076335,0.48752022,-0.8672413,,0.44699895,-1.593534,-3.6389284,0.5952799,-0.7328982,0.3293968,-0.80149364,-0.5125091,0.30812705,-0.05700688,-0.44743124,-0.89249957,,0.5168176,-1.722826,-3.9566762,-0.99677515,-0.04901635,0.06353622,-0.05972425,0.98195803,-0.17941971,-0.053595405,-0.18263575,-0.9817187,,-0.21060664821297662,-0.1118251720187709,0.15483535905,-0.007548837965442877,-0.0020495474964816063,-0.0009424511290516704,0.0,,-1.5145128666970429,0.0638978918013336,0.09030215398000001,-0.002935659208783341,-0.02719066345332265,-0.003474961568548679,0.0016334406613427964
1.37160239800005,,0.51614034,-1.659731,-3.9042308,-0.52620167,-0.71360004,-0.46247914,-0.8443313,0.5030894,0.1844059,0.101076335,0.48752022,-0.8672413,,0.44699898,-1.593534,-3.6389284,0.5954337,-0.7327715,0.32940054,-0.801386,-0.5126754,0.30813056,-0.056913733,-0.44744825,-0.89249694,,0.5168176,-1.722826,-3.9566762,-0.99677515,-0.04901635,0.06353622,-0.05972425,0.98195803,-0.17941971,-0.053595405,-0.18263575,-0.9817187,,-0.21060664821297662,-0.1118251720187709,0.15483535905,-0.007548837965442877,-0.0020495474964816063,-0.0009424511290516704,0.0,,-1.5145128666970429,0.0638978918013336,0.09030215398000001,-0.003145349152267865,-0.02719066345332265,-0.003474961568548679,0.0016334406613427964
1.3918083640000987,,0.51614034,-1.659731,-3.9042308,-0.52620167,-0.71360004,-0.46247914,-0.8443313,0.5030894,0.1844059,0.101076335,0.48752022,-0.8672413,,0.446999,-1.5935339,-3.6389284,0.59558755,-0.7326448,0.32940426,-0.8012783,-0.5128416,0.30813405,-0.056820586,-0.44746527,-0.8924944,,0.5168176,-1.722826,-3.9566762,-0.99677515,-0.04901635,0.06353622,-0.05972425,0.98195803,-0.17941971,-0.053595405,-0.18263575,-0.9817187,,-0.21060664821297662,-0.1118251720187709,0.15483535905,-0.007548837965442877,-0.0020495474964816063,-0.0009424511290516704,0.0,,-1.5145128666970429,0.0638978918013336,0.09030215398000001,-0.0033550390957523897,-0.02719066345332265,-0.003474961568548679,0.0016334406613427964
1.4154077459998007,,0.51614034,-1.659731,-3.9042308,-0.52620167,-0.71360004,-0.46247914,-0.8443313,0.5030894,0.1844059,0.101076335,0.48752022,-0.8672413,,0.446999,-1.5935339,-3.6389284,0.59558755,-0.7326448,0.32940426,-0.8012783,-0.5128416,0.30813405,-0.056820586,-0.44746527,-0.8924944,,0.5168176,-1.722826,-3.9566762,-0.99677515,-0.04901635,0.06353622,-0.05972425,0.98195803,-0.17941971,-0.053595405,-0.18263575,-0.9817187,,-0.21060664821297662,-0.1118251720187709,0.15483535905,-0.007548837965442877,-0.0020495474964816063,-0.0009424511290516704,0.0,,-1.5145128666970429,0.0638978918013336,0.09030215398000001,-0.0033550390957523897,-0.02719066345332265,-0.003474961568548679,0.0016334406613427964
1.4403990729997531,,0.51614034,-1.659731,-3.9042308,-0.52620167,-0.71360004,-0.46247914,-0.8443313,0.5030894,0.1844059,0.101076335,0.48752022,-0.8672413,,0.446999,-1.5935339,-3.6389284,0.59558755,-0.7326448,0.32940426,-0.8012783,-0.5128416,0.30813405,-0.056820586,-0.44746527,-0.8924944,,0.5168176,-1.722826,-3.9566762,-0.99677515,-0.04901635,0.06353622,-0.05972425,0.98195803,-0.17941971,-0.053595405,-0.18263575,-0.9817187,,-0.21060664821297662,-0.1118251720187709,0.15483535905,-0.007548837965442877,-0.0020495474964816063,-0.0009424511290516704,0.0,,-1.5145128666970429,0.0638978918013336,0.09030215398000001,-0.0033550390957523897,-0.02719066345332265,-0.003474961568548679,0.0016334406613427964
1.462883559999682,,0.51614034,-1.659731,-3.9042308,-0.52620167,-0.71360004,-0.46247914,-0.8443313,0.5030894,0.1844059,0.101076335,0.48752022,-0.8672413,,0.446999,-1.5935339,-3.6389284,0.59558755,-0.7326448,0.32940426,-0.8012783,-0.5128416,0.30813405,-0.056820586,-0.44746527,-0.8924944,,0.5168176,-1.722826,-3.9566762,-0.99677515,-0.04901635,0.06353622,-0.05972425,0.98195803,-0.17941971,-0.053595405,-0.18263575,-0.9817187,,-0.21060664821297662,-0.1118251720187709,0.15483535905,-0.007548837965442877,-0.0020495474964816063,-0.0009424511290516704,0.0,,-1.5145128666970429,0.0638978918013336,0.09030215398000001,-0.0033550390957523897,-0.02719066345332265,-0.003474961568548679,0.0016334406613427964
1.4879275999996935,,0.51614034,-1.659731,-3.9042308,-0.52620167,-0.71360004,-0.46247914,-0.8443313,0.5030894,0.1844059,0.101076335,0.48752022,-0.8672413,,0.446999,-1.5935339,-3.6389284,0.59558755,-0.7326448,0.32940426,-0.8012783,-0.5128416,0.30813405,-0.056820586,-0.44746527,-0.8924944,,0.5168176,-1.722826,-3.9566762,-0.99677515,-0.04901635,0.06353622,-0.05972425,0.98195803,-0.17941971,-0.053595405,-0.18263575,-0.9817187,,-0.21060664821297662,-0.1118251720187709,0.15483535905,-0.007548837965442877,-0.0020495474964816063,-0.0009424511290516704,0.0,,-1.5145128666970429,0.0638978918013336,0.09030215398000001,-0.0033550390957523897,-0.02719066345332265,-0.003474961568548679,0.0016334406613427964
1.5094900660001258,,0.51614034,-1.659731,-3.9042308,-0.52620167,-0.71360004,-0.46247914,-0.8443313,0.5030894,0.1844059,0.101076335,0.48752022,-0.8672413,,0.446999,-1.5935339,-3.6389284,0.59558755,-0.7326448,0.32940426,-0.8012783,-0.5128416,0.30813405,-0.056820586,-0.44746527,-0.8924944,,0.5168176,-1.722826,-3.9566762,-0.99677515,-0.04901635,0.06353622,-0.05972425,0.98195803,-0.17941971,-0.053595405,-0.18263575,-0.9817187,,-0.21060664821297662,-0.1118251720187709,0.15483535905,-0.007548837965442877,-0.0020495474964816063,-0.0009424511290516704,0.0,,-1.5145128666970429,0.0638978918013336,0.09030215398000001,-0.0033550390957523897,-0.02719066345332265,-0.003474961568548679,0.0016334406613427964
1.5353702779998457,,0.51614034,-1.659731,-3.9042308,-0.52635115,-0.7134896,-0.46247953,-0.8442259,0.50326645,0.18440592,0.101178735,0.48749942,-0.86724114,,0.446999,-1.5935339,-3.6389284,0.59558755,-0.7326448,0.32940426,-0.8012783,-0.5128416,0.30813405,-0.056820586,-0.44746527,-0.8924944,,0.5168176,-1.722826,-3.9566762,-0.99677515,-0.04901635,0.06353622,-0.05972425,0.98195803,-0.17941971,-0.053595405,-0.18263575,-0.9817187,,-0.21060664821297662,-0.1118251720187709,0.15483535905,-0.007339148021958352,-0.0020495474964816063,-0.0009424511290516704,0.0,,-1.5145128666970429,0.0638978918013336,0.09030215398000001,-0.0033550390957523897,-0.02719066345332265,-0.003474961568548679,0.0016334406613427964
1.5580088669998986,,0.51614034,-1.659731,-3.9042308,-0.52650064,-0.7133789,-0.46247995,-0.8441203,0.50344336,0.18440598,0.10128112,0.48747852,-0.86724085,,0.446999,-1.5935339,-3.6389284,0.59558755,-0.7326448,0.32940426,-0.8012783,-0.5128416,0.30813405,-0.056820586,-0.44746527,-0.8924944,,0.5168176,-1.722826,-3.9566762,-0.99677515,-0.04901635,0.06353622,-0.05972425,0.98195803,-0.17941971,-0.053595405,-0.18263575,-0.9817187,,-0.21060664821297662,-0.1118251720187709,0.15483535905,-0.007129458078473829,-0.0020495474964816063,-0.0009424511290516704,0.0,,-1.5145128666970429,0.0638978918013336,0.09030215398000001,-0.0033550390957523897,-0.02719066345332265,-0.003474961568548679,0.0016334406613427964
1.5853779369999756,,0.51614034,-1.659731,-3.9042308,-0.52650064,-0.7133789,-0.46247995,-0.8441203,0.50344336,0.18440598,0.10128112,0.48747852,-0.86724085,,0.446999,-1.5935339,-3.6389284,0.59558755,-0.7326448,0.32940426,-0.8012783,-0.5128416,0.30813405,-0.056820586,-0.44746527,-0.8924944,,0.5168176,-1.722826,-3.9566762,-0.99677515,-0.04901635,0.06353622,-0.05972425,0.98195803,-0.17941971,-0.053595405,-0.18263575,-0.9817187,,-0.21060664821297662,-0.1118251720187709,0.15483535905,-0.007129458078473829,-0.0020495474964816063,-0.0009424511290516704,0.0,,-1.5145128666970429,0.0638978918013336,0.09030215398000001,-0.0033550390957523897,-0.02719066345332265,-0.003474961568548679,0.0016334406613427964
1.6076873469996826,,0.51614034,-1.659731,-3.9042308,-0.52650064,-0.7133789,-0.46247995,-0.8441203,0.50344336,0.18440598,0.10128112,0.48747852,-0.86724085,,0.446999,-1.5935339,-3.6389284,0.59558755,-0.7326448,0.32940426,-0.8012783,-0.5128416,0.30813405,-0.056820586,-0.44746527,-0.8924944,,0.5168176,-1.722826,-3.9566762,-0.99677515,-0.04901635,0.06353622,-0.05972425,0.98195803,-0.17941971,-0.053595405,-0.18263575,-0.9817187,,-0.21060664821297662,-0.1118251720187709,0.15483535905,-0.007129458078473829,-0.0020495474964816063,-0.0009424511290516704,0.0,,-1.5145128666970429,0.0638978918013336,0.09030215398000001,-0.0033550390957523897,-0.02719066345332265,-0.003474961568548679,0.0016334406613427964
1.6329748449998078,,0.51614034,-1.659731,-3.9042308,-0.52650064,-0.7133789,-0.46247995,-0.8441203,0.50344336,0.18440598,0.10128112,0.48747852,-0.86724085,,0.44699854,-1.5935342,-3.6389287,0.5955874,-0.73264754,0.3293986,-0.8012784,-0.5128437,0.30813012,-0.056820735,-0.44745836,-0.8924978,,0.5168176,-1.722826,-3.9566762,-0.99677515,-0.04901635,0.06353622,-0.05972425,0.98195803,-0.17941971,-0.053595405,-0.18263575,-0.9817187,,-0.21060664821297662,-0.1118251720187709,0.15483535905,-0.007129458078473829,-0.0020495474964816063,-0.0009424511290516704,0.0,,-1.5145051439641686,0.0638978918013336,0.09030215398000001,-0.0033550390957523897,-0.02719066345332265,-0.003474961568548679,0.0016334406613427964
1.6558450869997614,,0.51614034,-1.659731,-3.9042308,-0.52650064,-0.7133789,-0.46247995,-0.8441203,0.50344336,0.18440598,0.10128112,0.48747852,-0.86724085,,0.44699806,-1.5935346,-3.638929,0.5955872,-0.7326502,0.32939294,-0.8012786,-0.5128459,0.30812618,-0.056820884,-0.44745147,-0.89250124,,0.5168176,-1.722826,-3.9566762,-0.99677515,-0.04901635,0.06353622,-0.05972425,0.98195803,-0.17941971,-0.053595405,-0.18263575,-0.9817187,,-0.21060664821297662,-0.1118251720187709,0.15483535905,-0.007129458078473829,-0.0020495474964816063,-0.0009424511290516704,0.0,,-1.5144974212312943,0.0638978918013336,0.09030215398000001,-0.0033550390957523897,-0.02719066345332265,-0.003474961568548679,0.0016334406613427964
1.6767678669998531,,0.51614034,-1.659731,-3.9042308,-0.52650064,-0.7133789,-0.46247995,-0.8441203,0.50344336,0.18440598,0.10128112,0.48747852,-0.86724085,,0.44699854,-1.5935342,-3.6389287,0.5955874,-0.73264754,0.3293986,-0.8012784,-0.5128437,0.30813012,-0.056820735,-0.44745836,-0.8924978,,0.5168176,-1.722826,-3.9566762,-0.99677515,-0.04901635,0.06353622,-0.05972425,0.98195803,-0.17941971,-0.053595405,-0.18263575,-0.9817187,,-0.21060664821297662,-0.1118251720187709,0.15483535905,-0.007129458078473829,-0.0020495474964816063,-0.0009424511290516704,0.0,,-1.5145051439641686,0.0638978918013336,0.09030215398000001,-0.0033550390957523897,-0.02719066345332265,-0.003474961568548679,0.0016334406613427964
1.7062803310000163,,0.51614034,-1.659731,-3.9042308,-0.52650064,-0.7133789,-0.46247995,-0.8441203,0.50344336,0.18440598,0.10128112,0.48747852,-0.86724085,,0.446999,-1.5935339,-3.6389284,0.59558755,-0.7326448,0.32940426,-0.8012783,-0.5128416,0.30813405,-0.056820586,-0.44746527,-0.8924944,,0.5168176,-1.722826,-3.9566762,-0.99677515,-0.04901635,0.06353622,-0.05972425,0.98195803,-0.17941971,-0.053595405,-0.18263575,-0.9817187,,-0.21060664821297662,-0.1118251720187709,0.15483535905,-0.007129458078473829,-0.0020495474964816063,-0.0009424511290516704,0.0,,-1.5145128666970429,0.0638978918013336,0.09030215398000001,-0.0033550390957523897,-0.02719066345332265,-0.003474961568548679,0.0016334406613427964
1.7342207040001085,,0.51613957,-1.6597304,-3.9042304,-0.52650005,-0.7133758,-0.46248537,-0.84412086,0.5034412,0.18440987,0.10128065,0.48748523,-0.86723715,,0.446999,-1.5935339,-3.6389284,0.59558755,-0.7326448,0.32940426,-0.8012783,-0.5128416,0.30813405,-0.056820586,-0.44746527,-0.8924944,,0.5168176,-1.722826,-3.9566762,-0.99677515,-0.04901635,0.06353622,-0.05972425,0.98195803,-0.17941971,-0.053595405,-0.18263575,-0.9817187,,-0.21059892548010237,-0.1118251720187709,0.15483535905,-0.007129458078473829,-0.0020495474964816063,-0.0009424511290516704,0.0,,-1.5145128666970429,0.0638978918013336,0.09030215398000001,-0.0033550390957523897,-0.02719066345332265,-0.003474961568548679,0.0016334406613427964
1.7556150089999392,,0.51614034,-1.659731,-3.9042308,-0.52650064,-0.7133789,-0.46247995,-0.8441203,0.50344336,0.18440598,0.10128112,0.48747852,-0.86724085,,0.446999,-1.5935339,-3.6389284,0.59558755,-0.7326448,0.32940426,-0.8012783,-0.5128416,0.30813405,-0.056820586,-0.44746527,-0.8924944,,0.5168176,-1.722826,-3.9566762,-0.99677515,-0.04901635,0.06353622,-0.05972425,0.98195803,-0.17941971,-0.053595405,-0.18263575,-0.9817187,,-0.21060664821297662,-0.1118251720187709,0.15483535905,-0.007129458078473829,-0.0020495474964816063,-0.0009424511290516704,0.0,,-1.5145128666970429,0.0638978918013336,0.09030215398000001,-0.0033550390957523897,-0.02719066345332265,-0.003474961568548679,0.0016334406613427964
1.7760808779999024,,0.51613957,-1.6597304,-3.9042304,-0.52650005,-0.7133758,-0.46248537,-0.84412086,0.5034412,0.18440987,0.10128065,0.48748523,-0.86723715,,0.446999,-1.5935339,-3.6389284,0.59558755,-0.7326448,0.32940426,-0.8012783,-0.5128416,0.30813405,-0.056820586,-0.44746527,-0.8924944,,0.5168176,-1.722826,-3.9566762,-0.99677515,-0.04901635,0.06353622,-0.05972425,0.98195803,-0.17941971,-0.053595405,-0.18263575,-0.9817187,,-0.21059892548010237,-0.1118251720187709,0.15483535905,-0.007129458078473829,-0.0020495474964816063,-0.0009424511290516704,0.0,,-1.5145128666970429,0.0638978918013336,0.09030215398000001,-0.0033550390957523897,-0.02719066345332265,-0.003474961568548679,0.0016334406613427964
1.8027184919997126,,0.51613873,-1.6597298,-3.9042299,-0.52649945,-0.71337277,-0.4624908,-0.8441212,0.50343907,0.18441375,0.10128017,0.48749208,-0.8672334,,0.446999,-1.5935339,-3.6389284,0.59558755,-0.7326448,0.32940426,-0.8012783,-0.5128416,0.30813405,-0.056820586,-0.44746527,-0.8924944,,0.5168176,-1.722826,-3.9566762,-0.99677515,-0.04901635,0.06353622,-0.05972425,0.98195803,-0.17941971,-0.053595405,-0.18263575,-0.9817187,,-0.21059120274722815,-0.1118251720187709,0.15483535905,-0.007129458078473829,-0.0020495474964816063,-0.0009424511290516704,0.0,,-1.5145128666970429,0.0638978918013336,0.09030215398000001,-0.0033550390957523897,-0.02719066345332265,-0.003474961568548679,0.0016334406613427964
1.8257812349997948,,0.51613957,-1.6597304,-3.9042304,-0.52650005,-0.7133758,-0.46248537,-0.84412086,0.5034412,0.18440987,0.10128065,0.48748523,-0.86723715,,0.446998,-1.5935346,-3.6389291,0.59527946,-0.7329036,0.32938546,-0.801494,-0.5125134,0.30811918,-0.05700715,-0.44741744,-0.8925064,,0.5168176,-1.722826,-3.9566762,-0.99677515,-0.04901635,0.06353622,-0.05972425,0.98195803,-0.17941971,-0.053595405,-0.18263575,-0.9817187,,-0.21059892548010237,-0.1118251720187709,0.15483535905,-0.007129458078473829,-0.0020495474964816063,-0.0009424511290516704,0.0,,-1.5144974212312943,0.0638978918013336,0.09030215398000001,-0.002935659208783341,-0.02719066345332265,-0.003474961568548679,0.0016334406613427964
1.8505116159999488,,0.51614034,-1.659731,-3.9042308,-0.52650064,-0.7133789,-0.46247995,-0.8441203,0.50344336,0.18440598,0.10128112,0.48747852,-0.86724085,,0.44699848,-1.5935342,-3.6389287,0.5952797,-0.73290086,0.32939115,-0.80149376,-0.51251125,0.3081231,-0.057007015,-0.44742432,-0.892503,,0.5168176,-1.722826,-3.9566762,-0.99677515,-0.04901635,0.06353622,-0.05972425,0.98195803,-0.17941971,-0.053595405,-0.18263575,-0.9817187,,-0.21060664821297662,-0.1118251720187709,0.15483535905,-0.007129458078473829,-0.0020495474964816063,-0.0009424511290516704,0.0,,-1.5145051439641686,0.0638978918013336,0.09030215398000001,-0.002935659208783341,-0.02719066345332265,-0.003474961568548679,0.0016334406613427964
1.8718303349996859,,0.51614034,-1.659731,-3.9042308,-0.52650064,-0.7133789,-0.46247995,-0.8441203,0.50344336,0.18440598,0.10128112,0.48747852,-0.86724085,,0.44699895,-1.593534,-3.6389284,0.5952799,-0.7328982,0.3293968,-0.80149364,-0.5125091,0.30812705,-0.05700688,-0.44743124,-0.89249957,,0.5168176,-1.722826,-3.9566762,-0.99677515,-0.04901635,0.06353622,-0.05972425,0.98195803,-0.17941971,-0.053595405,-0.18263575,-0.9817187,,-0.21060664821297662,-0.1118251720187709,0.15483535905,-0.007129458078473829,-0.0020495474964816063,-0.0009424511290516704,0.0,,-1.5145128666970429,0.0638978918013336,0.09030215398000001,-0.002935659208783341,-0.02719066345332265,-0.003474961568548679,0.0016334406613427964
1.8953688679998777,,0.51614034,-1.659731,-3.9042308,-0.52650064,-0.7133789,-0.46247995,-0.8441203,0.50344336,0.18440598,0.10128112,0.48747852,-0.86724085,,0.44699895,-1.593534,-3.6389284,0.5952799,-0.7328982,0.3293968,-0.80149364,-0.5125091,0.30812705,-0.05700688,-0.44743124,-0.89249957,,0.5168176,-1.722826,-3.9566762,-0.99677515,-0.04901635,0.06353622,-0.05972425,0.98195803,-0.17941971,-0.053595405,-0.18263575,-0.9817187,,-0.21060664821297662,-0.1118251720187709,0.15483535905,-0.007129458078473829,-0.0020495474964816063,-0.0009424511290516704,0.0,,-1.5145128666970429,0.0638978918013336,0.09030215398000001,-0.002935659208783341,-0.02719066345332265,-0.003474961568548679,0.0016334406613427964
1.9211065760000565,,0.51614034,-1.659731,-3.9042308,-0.52650064,-0.7133789,-0.46247995,-0.8441203,0.50344336,0.18440598,0.10128112,0.48747852,-0.86724085,,0.44699895,-1.593534,-3.6389284,0.5952799,-0.7328982,0.3293968,-0.80149364,-0.5125091,0.30812705,-0.05700688,-0.44743124,-0.89249957,,0.5168176,-1.722826,-3.9566762,-0.99677515,-0.04901635,0.06353622,-0.05972425,0.98195803,-0.17941971,-0.053595405,-0.18263575,-0.9817187,,-0.21060664821297662,-0.1118251720187709,0.15483535905,-0.007129458078473829,-0.0020495474964816063,-0.0009424511290516704,0.0,,-1.5145128666970429,0.0638978918013336,0.09030215398000001,-0.002935659208783341,-0.02719066345332265,-0.003474961568548679,0.0016334406613427964
1.9429653879997204,,0.51614034,-1.659731,-3.9042308,-0.52650064,-0.7133789,-0.46247995,-0.8441203,0.50344336,0.18440598,0.10128112,0.48747852,-0.86724085,,0.44699895,-1.593534,-3.6389284,0.5952799,-0.7328982,0.3293968,-0.80149364,-0.5125091,0.30812705,-0.05700688,-0.44743124,-0.89249957,,0.5168176,-1.722826,-3.9566762,-0.99677515,-0.04901635,0.06353622,-0.05972425,0.98195803,-0.17941971,-0.053595405,-0.18263575,-0.9817187,,-0.21060664821297662,-0.1118251720187709,0.15483535905,-0.007129458078473829,-0.0020495474964816063,-0.0009424511290516704,0.0,,-1.5145128666970429,0.0638978918013336,0.09030215398000001,-0.002935659208783341,-0.02719066345332265,-0.003474961568548679,0.0016334406613427964
1.9694775449997906,,0.51614034,-1.659731,-3.9042308,-0.52650064,-0.7133789,-0.46247995,-0.8441203,0.50344336,0.18440598,0.10128112,0.48747852,-0.86724085,,0.44699895,-1.593534,-3.6389284,0.5952799,-0.7328982,0.3293968,-0.80149364,-0.5125091,0.30812705,-0.05700688,-0.44743124,-0.89249957,,0.5168176,-1.722826,-3.9566762,-0.99677515,-0.04901635,0.06353622,-0.05972425,0.98195803,-0.17941971,-0.053595405,-0.18263575,-0.9817187,,-0.21060664821297662,-0.1118251720187709,0.15483535905,-0.007129458078473829,-0.0020495474964816063,-0.0009424511290516704,0.0,,-1.5145128666970429,0.0638978918013336,0.09030215398000001,-0.002935659208783341,-0.02719066345332265,-0.003474961568548679,0.0016334406613427964
1.990931977999935,,0.51613957,-1.6597304,-3.9042304,-0.52650005,-0.7133758,-0.46248537,-0.84412086,0.5034412,0.18440987,0.10128065,0.48748523,-0.86723715,,0.44699895,-1.593534,-3.6389284,0.5952799,-0.7328982,0.3293968,-0.80149364,-0.5125091,0.30812705,-0.05700688,-0.44743124,-0.89249957,,0.5168176,-1.722826,-3.9566762,-0.99677515,-0.04901635,0.06353622,-0.05972425,0.98195803,-0.17941971,-0.053595405,-0.18263575,-0.9817187,,-0.21059892548010237,-0.1118251720187709,0.15483535905,-0.007129458078473829,-0.0020495474964816063,-0.0009424511290516704,0.0,,-1.5145128666970429,0.0638978918013336,0.09030215398000001,-0.002935659208783341,-0.02719066345332265,-0.003474961568548679,0.0016334406613427964
2.016625578000003,,0.51614034,-1.659731,-3.9042308,-0.52650064,-0.7133789,-0.46247995,-0.8441203,0.50344336,0.18440598,0.10128112,0.48747852,-0.86724085,,0.44699895,-1.593534,-3.6389284,0.5952799,-0.7328982,0.3293968,-0.80149364,-0.5125091,0.30812705,-0.05700688,-0.44743124,-0.89249957,,0.5168176,-1.722826,-3.9566762,-0.99677515,-0.04901635,0.06353622,-0.05972425,0.98195803,-0.17941971,-0.053595405,-0.18263575,-0.9817187,,-0.21060664821297662,-0.1118251720187709,0.15483535905,-0.007129458078473829,-0.0020495474964816063,-0.0009424511290516704,0.0,,-1.5145128666970429,0.0638978918013336,0.09030215398000001,-0.002935659208783341,-0.02719066345332265,-0.003474961568548679,0.0016334406613427964
2.038736023999718,,0.51613873,-1.6597298,-3.9042299,-0.52649945,-0.71337277,-0.4624908,-0.8441212,0.50343907,0.18441375,0.10128017,0.48749208,-0.8672334,,0.44699895,-1.593534,-3.6389284,0.5952799,-0.7328982,0.3293968,-0.80149364,-0.5125091,0.30812705,-0.05700688,-0.44743124,-0.89249957,,0.5168176,-1.722826,-3.9566762,-0.99677515,-0.04901635,0.06353622,-0.05972425,0.98195803,-0.17941971,-0.053595405,-0.18263575,-0.9817187,,-0.21059120274722815,-0.1118251720187709,0.15483535905,-0.007129458078473829,-0.0020495474964816063,-0.0009424511290516704,0.0,,-1.5145128666970429,0.0638978918013336,0.09030215398000001,-0.002935659208783341,-0.02719066345332265,-0.003474961568548679,0.0016334406613427964
2.0629233310000927,,0.51613873,-1.6597298,-3.9042299,-0.52649945,-0.71337277,-0.4624908,-0.8441212,0.50343907,0.18441375,0.10128017,0.48749208,-0.8672334,,0.44699895,-1.593534,-3.6389284,0.5952799,-0.7328982,0.3293968,-0.80149364,-0.5125091,0.30812705,-0.05700688,-0.44743124,-0.89249957,,0.5168176,-1.722826,-3.9566762,-0.99677515,-0.04901635,0.06353622,-0.05972425,0.98195803,-0.17941971,-0.053595405,-0.18263575,-0.9817187,,-0.21059120274722815,-0.1118251720187709,0.15483535905,-0.007129458078473829,-0.0020495474964816063,-0.0009424511290516704,0.0,,-1.5145128666970429,0.0638978918013336,0.09030215398000001,-0.002935659208783341,-0.02719066345332265,-0.003474961568548679,0.0016334406613427964
2.087003000000095,,0.51613873,-1.6597298,-3.9042299,-0.52649945,-0.71337277,-0.4624908,-0.8441212,0.50343907,0.18441375,0.10128017,0.48749208,-0.8672334,,0.44699895,-1.593534,-3.6389284,0.5952799,-0.7328982,0.3293968,-0.80149364,-0.5125091,0.30812705,-0.05700688,-0.44743124,-0.89249957,,0.5168176,-1.722826,-3.9566762,-0.99677515,-0.04901635,0.06353622,-0.05972425,0.98195803,-0.17941971,-0.053595405,-0.18263575,-0.9817187,,-0.21059120274722815,-0.1118251720187709,0.15483535905,-0.007129458078473829,-0.0020495474964816063,-0.0009424511290516704,0.0,,-1.5145128666970429,0.0638978918013336,0.09030215398000001,-0.002935659208783341,-0.02719066345332265,-0.003474961568548679,0.0016334406613427964
2.1081652590000886,,0.51613873,-1.6597298,-3.9042299,-0.52649945,-0.71337277,-0.4624908,-0.8441212,0.50343907,0.18441375,0.10128017,0.48749208,-0.8672334,,0.44699895,-1.593534,-3.6389284,0.5952799,-0.7328982,0.3293968,-0.80149364,-0.5125091,0.30812705,-0.05700688,-0.44743124,-0.89249957,,0.5168176,-1.722826,-3.9566762,-0.99677515,-0.04901635,0.06353622,-0.05972425,0.98195803,-0.17941971,-0.053595405,-0.18263575,-0.9817187,,-0.21059120274722815,-0.1118251720187709,0.15483535905,-0.007129458078473829,-0.0020495474964816063,-0.0009424511290516704,0.0,,-1.5145128666970429,0.0638978918013336,0.09030215398000001,-0.002935659208783341,-0.02719066345332265,-0.003474961568548679,0.0016334406613427964
2.134345114000098,,0.51613957,-1.6597304,-3.9042304,-0.52650005,-0.7133758,-0.46248537,-0.84412086,0.5034412,0.18440987,0.10128065,0.48748523,-0.86723715,,0.44699895,-1.593534,-3.6389284,0.5952799,-0.7328982,0.3293968,-0.80149364,-0.5125091,0.30812705,-0.05700688,-0.44743124,-0.89249957,,0.5168176,-1.722826,-3.9566762,-0.99677515,-0.04901635,0.06353622,-0.05972425,0.98195803,-0.17941971,-0.053595405,-0.18263575,-0.9817187,,-0.21059892548010237,-0.1118251720187709,0.15483535905,-0.007129458078473829,-0.0020495474964816063,-0.0009424511290516704,0.0,,-1.5145128666970429,0.0638978918013336,0.09030215398000001,-0.002935659208783341,-0.02719066345332265,-0.003474961568548679,0.0016334406613427964
2.1564936009999656,,0.51614034,-1.659731,-3.9042308,-0.52650064,-0.7133789,-0.46247995,-0.8441203,0.50344336,0.18440598,0.10128112,0.48747852,-0.86724085,,0.44699895,-1.593534,-3.6389284,0.5952799,-0.7328982,0.3293968,-0.80149364,-0.5125091,0.30812705,-0.05700688,-0.44743124,-0.89249957,,0.5168176,-1.722826,-3.9566762,-0.99677515,-0.04901635,0.06353622,-0.05972425,0.98195803,-0.17941971,-0.053595405,-0.18263575,-0.9817187,,-0.21060664821297662,-0.1118251720187709,0.15483535905,-0.007129458078473829,-0.0020495474964816063,-0.0009424511290516704,0.0,,-1.5145128666970429,0.0638978918013336,0.09030215398000001,-0.002935659208783341,-0.02719066345332265,-0.003474961568548679,0.0016334406613427964
2.1817887689999225,,0.51614034,-1.659731,-3.9042308,-0.52620167,-0.71360004,-0.46247914,-0.8443313,0.5030894,0.1844059,0.101076335,0.48752022,-0.8672413,,0.44699895,-1.593534,-3.6389284,0.5952799,-0.7328982,0.3293968,-0.80149364,-0.5125091,0.30812705,-0.05700688,-0.44743124,-0.89249957,,0.5168176,-1.722826,-3.9566762,-0.99677515,-0.04901635,0.06353622,-0.05972425,0.98195803,-0.17941971,-0.053595405,-0.18263575,-0.9817187,,-0.21060664821297662,-0.1118251720187709,0.15483535905,-0.007548837965442877,-0.0020495474964816063,-0.0009424511290516704,0.0,,-1.5145128666970429,0.0638978918013336,0.09030215398000001,-0.002935659208783341,-0.02719066345332265,-0.003474961568548679,0.0016334406613427964
2.20662214999993,,0.51614034,-1.659731,-3.9042308,-0.52620167,-0.71360004,-0.46247914,-0.8443313,0.5030894,0.1844059,0.101076335,0.48752022,-0.8672413,,0.44699898,-1.593534,-3.6389284,0.5954337,-0.7327715,0.32940054,-0.801386,-0.5126754,0.30813056,-0.056913733,-0.44744825,-0.89249694,,0.5168176,-1.722826,-3.9566762,-0.99677515,-0.04901635,0.06353622,-0.05972425,0.98195803,-0.17941971,-0.053595405,-0.18263575,-0.9817187,,-0.21060664821297662,-0.1118251720187709,0.15483535905,-0.007548837965442877,-0.0020495474964816063,-0.0009424511290516704,0.0,,-1.5145128666970429,0.0638978918013336,0.09030215398000001,-0.003145349152267865,-0.02719066345332265,-0.003474961568548679,0.0016334406613427964
2.2329678020000756,,0.51614034,-1.659731,-3.9042308,-0.52620167,-0.71360004,-0.46247914,-0.8443313,0.5030894,0.1844059,0.101076335,0.48752022,-0.8672413,,0.446999,-1.5935339,-3.6389284,0.59558755,-0.7326448,0.32940426,-0.8012783,-0.5128416,0.30813405,-0.056820586,-0.44746527,-0.8924944,,0.5168176,-1.722826,-3.9566762,-0.99677515,-0.04901635,0.06353622,-0.05972425,0.98195803,-0.17941971,-0.053595405,-0.18263575,-0.9817187,,-0.21060664821297662,-0.1118251720187709,0.15483535905,-0.007548837965442877,-0.0020495474964816063,-0.0009424511290516704,0.0,,-1.5145128666970429,0.0638978918013336,0.09030215398000001,-0.0033550390957523897,-0.02719066345332265,-0.003474961568548679,0.0016334406613427964
2.2554894879999665,,0.51614034,-1.659731,-3.9042308,-0.52620167,-0.71360004,-0.46247914,-0.8443313,0.5030894,0.1844059,0.101076335,0.48752022,-0.8672413,,0.446999,-1.5935339,-3.6389284,0.59558755,-0.7326448,0.32940426,-0.8012783,-0.5128416,0.30813405,-0.056820586,-0.44746527,-0.8924944,,0.5168176,-1.722826,-3.9566762,-0.99677515,-0.04901635,0.06353622,-0.05972425,0.98195803,-0.17941971,-0.053595405,-0.18263575,-0.9817187,,-0.21060664821297662,-0.1118251720187709,0.15483535905,-0.007548837965442877,-0.0020495474964816063,-0.0009424511290516704,0.0,,-1.5145128666970429,0.0638978918013336,0.09030215398000001,-0.0033550390957523897,-0.02719066345332265,-0.003474961568548679,0.0016334406613427964
2.275847978999991,,0.51614034,-1.659731,-3.9042308,-0.52620167,-0.71360004,-0.46247914,-0.8443313,0.5030894,0.1844059,0.101076335,0.48752022,-0.8672413,,0.446999,-1.5935339,-3.6389284,0.59558755,-0.7326448,0.32940426,-0.8012783,-0.5128416,0.30813405,-0.056820586,-0.44746527,-0.8924944,,0.5168176,-1.722826,-3.9566762,-0.99677515,-0.04901635,0.06353622,-0.05972425,0.98195803,-0.17941971,-0.053595405,-0.18263575,-0.9817187,,-0.21060664821297662,-0.1118251720187709,0.15483535905,-0.007548837965442877,-0.0020495474964816063,-0.0009424511290516704,0.0,,-1.5145128666970429,0.0638978918013336,0.09030215398000001,-0.0033550390957523897,-0.02719066345332265,-0.003474961568548679,0.0016334406613427964
2.302763462999792,,0.51614034,-1.659731,-3.9042308,-0.52620167,-0.71360004,-0.46247914,-0.8443313,0.5030894,0.1844059,0.101076335,0.48752022,-0.8672413,,0.446999,-1.5935339,-3.6389284,0.59558755,-0.7326448,0.32940426,-0.8012783,-0.5128416,0.30813405,-0.056820586,-0.44746527,-0.8924944,,0.5168176,-1.722826,-3.9566762,-0.99677515,-0.04901635,0.06353622,-0.05972425,0.98195803,-0.17941971,-0.053595405,-0.18263575,-0.9817187,,-0.21060664821297662,-0.1118251720187709,0.15483535905,-0.007548837965442877,-0.0020495474964816063,-0.0009424511290516704,0.0,,-1.5145128666970429,0.0638978918013336,0.09030215398000001,-0.0033550390957523897,-0.02719066345332265,-0.003474961568548679,0.0016334406613427964
2.3256255709998186,,0.51614034,-1.659731,-3.9042308,-0.52620167,-0.71360004,-0.46247914,-0.8443313,0.5030894,0.1844059,0.101076335,0.48752022,-0.8672413,,0.446999,-1.5935339,-3.6389284,0.59558755,-0.7326448,0.32940426,-0.8012783,-0.5128416,0.30813405,-0.056820586,-0.44746527,-0.8924944,,0.5168176,-1.722826,-3.9566762,-0.99677515,-0.04901635,0.06353622,-0.05972425,0.98195803,-0.17941971,-0.053595405,-0.18263575,-0.9817187,,-0.21060664821297662,-0.1118251720187709,0.15483535905,-0.007548837965442877,-0.0020495474964816063,-0.0009424511290516704,0.0,,-1.5145128666970429,0.0638978918013336,0.09030215398000001,-0.0033550390957523897,-0.02719066345332265,-0.003474961568548679,0.0016334406613427964
2.3494152409998605,,0.51614034,-1.659731,-3.9042308,-0.52620167,-0.71360004,-0.46247914,-0.8443313,0.5030894,0.1844059,0.101076335,0.48752022,-0.8672413,,0.446999,-1.5935339,-3.6389284,0.59558755,-0.7326448,0.32940426,-0.8012783,-0.5128416,0.30813405,-0.056820586,-0.44746527,-0.8924944,,0.5168176,-1.722826,-3.9566762,-0.99677515,-0.04901635,0.06353622,-0.05972425,0.98195803,-0.17941971,-0.053595405,-0.18263575,-0.9817187,,-0.21060664821297662,-0.1118251720187709,0.15483535905,-0.007548837965442877,-0.0020495474964816063,-0.0009424511290516704,0.0,,-1.5145128666970429,0.0638978918013336,0.09030215398000001,-0.0033550390957523897,-0.02719066345332265,-0.003474961568548679,0.0016334406613427964
2.373288434999722,,0.51614034,-1.659731,-3.9042308,-0.52620167,-0.71360004,-0.46247914,-0.8443313,0.5030894,0.1844059,0.101076335,0.48752022,-0.8672413,,0.446999,-1.5935339,-3.6389284,0.59558755,-0.7326448,0.32940426,-0.8012783,-0.5128416,0.30813405,-0.056820586,-0.44746527,-0.8924944,,0.5168176,-1.722826,-3.9566762,-0.99677515,-0.04901635,0.06353622,-0.05972425,0.98195803,-0.17941971,-0.053595405,-0.18263575,-0.9817187,,-0.21060664821297662,-0.1118251720187709,0.15483535905,-0.007548837965442877,-0.0020495474964816063,-0.0009424511290516704,0.0,,-1.5145128666970429,0.0638978918013336,0.09030215398000001,-0.0033550390957523897,-0.02719066345332265,-0.003474961568548679,0.0016334406613427964
2.3992375249999895,,0.51614034,-1.659731,-3.9042308,-0.52620167,-0.71360004,-0.46247914,-0.8443313,0.5030894,0.1844059,0.101076335,0.48752022,-0.8672413,,0.446999,-1.5935339,-3.6389284,0.59558755,-0.7326448,0.32940426,-0.8012783,-0.5128416,0.30813405,-0.056820586,-0.44746527,-0.8924944,,0.5168176,-1.722826,-3.9566762,-0.99677515,-0.04901635,0.06353622,-0.05972425,0.98195803,-0.17941971,-0.053595405,-0.18263575,-0.9817187,,-0.21060664821297662,-0.1118251720187709,0.15483535905,-0.007548837965442877,-0.0020495474964816063,-0.0009424511290516704,0.0,,-1.5145128666970429,0.0638978918013336,0.09030215398000001,-0.0033550390957523897,-0.02719066345332265,-0.003474961568548679,0.0016334406613427964
2.4225886270000956,,0.51614034,-1.659731,-3.9042308,-0.52620167,-0.71360004,-0.46247914,-0.8443313,0.5030894,0.1844059,0.101076335,0.48752022,-0.8672413,,0.446999,-1.5935339,-3.6389284,0.59558755,-0.7326448,0.32940426,-0.8012783,-0.5128416,0.30813405,-0.056820586,-0.44746527,-0.8924944,,0.5168176,-1.722826,-3.9566762,-0.99677515,-0.04901635,0.06353622,-0.05972425,0.98195803,-0.17941971,-0.053595405,-0.18263575,-0.9817187,,-0.21060664821297662,-0.1118251720187709,0.15483535905,-0.007548837965442877,-0.0020495474964816063,-0.0009424511290516704,0.0,,-1.5145128666970429,0.0638978918013336,0.09030215398000001,-0.0033550390957523897,-0.02719066345332265,-0.003474961568548679,0.0016334406613427964
2.445830427999681,,0.51614034,-1.659731,-3.9042308,-0.52620167,-0.71360004,-0.46247914,-0.8443313,0.5030894,0.1844059,0.101076335,0.48752022,-0.8672413,,0.44699854,-1.5935342,-3.6389287,0.5955874,-0.73264754,0.3293986,-0.8012784,-0.5128437,0.30813012,-0.056820735,-0.44745836,-0.8924978,,0.5168176,-1.722826,-3.9566762,-0.99677515,-0.04901635,0.06353622,-0.05972425,0.98195803,-0.17941971,-0.053595405,-0.18263575,-0.9817187,,-0.21060664821297662,-0.1118251720187709,0.15483535905,-0.007548837965442877,-0.0020495474964816063,-0.0009424511290516704,0.0,,-1.5145051439641686,0.0638978918013336,0.09030215398000001,-0.0033550390957523897,-0.02719066345332265,-0.003474961568548679,0.0016334406613427964
2.4702949980000994,,0.5161301,-1.6597189,-3.9042134,-0.52622956,-0.7135932,-0.46245798,-0.84431106,0.50313073,0.18438594,0.10110022,0.4874876,-0.8672569,,0.44695282,-1.5935518,-3.638909,0.59553266,-0.73266834,0.32945147,-0.8013219,-0.5128023,0.30808592,-0.056781292,-0.44747186,-0.89249355,,0.51675993,-1.7228138,-3.9566772,-0.9967781,-0.04895204,0.06354039,-0.0596616,0.981962,-0.17941855,-0.05361135,-0.18263137,-0.98171866,,-0.21060664821297662,-0.1118251720187709,0.15483535905,-0.007548837965442877,-0.0020495474964816063,-0.0009424511290516704,0.0,,-1.5144974212312943,0.0638978918013336,0.09030215398000001,-0.0033550390957523897,-0.02719066345332265,-0.003474961568548679,0.0016334406613427964
2.4929686669997864,,0.5161301,-1.6597189,-3.9042134,-0.52622956,-0.7135932,-0.46245798,-0.84431106,0.50313073,0.18438594,0.10110022,0.4874876,-0.8672569,,0.44695282,-1.5935518,-3.638909,0.59553266,-0.73266834,0.32945147,-0.8013219,-0.5128023,0.30808592,-0.056781292,-0.44747186,-0.89249355,,0.51675993,-1.7228138,-3.9566772,-0.9967781,-0.04895204,0.06354039,-0.0596616,0.981962,-0.17941855,-0.05361135,-0.18263137,-0.98171866,,-0.21060664821297662,-0.1118251720187709,0.15483535905,-0.007548837965442877,-0.0020495474964816063,-0.0009424511290516704,0.0,,-1.5144974212312943,0.0638978918013336,0.09030215398000001,-0.0033550390957523897,-0.02719066345332265,-0.003474961568548679,0.0016334406613427964
2.518056993999835,,0.5161301,-1.6597189,-3.9042134,-0.52622956,-0.7135932,-0.46245798,-0.84431106,0.50313073,0.18438594,0.10110022,0.4874876,-0.8672569,,0.44695282,-1.5935518,-3.638909,0.59553266,-0.73266834,0.32945147,-0.8013219,-0.5128023,0.30808592,-0.056781292,-0.44747186,-0.89249355,,0.51675993,-1.7228138,-3.9566772,-0.9967781,-0.04895204,0.06354039,-0.0596616,0.981962,-0.17941855,-0.05361135,-0.18263137,-0.98171866,,-0.21060664821297662,-0.1118251720187709,0.15483535905,-0.007548837965442877,-0.0020495474964816063,-0.0009424511290516704,0.0,,-1.5144974212312943,0.0638978918013336,0.09030215398000001,-0.0033550390957523897,-0.02719066345332265,-0.003474961568548679,0.0016334406613427964
2.539464971999678,,0.5161301,-1.6597189,-3.9042134,-0.52622956,-0.7135932,-0.46245798,-0.84431106,0.50313073,0.18438594,0.10110022,0.4874876,-0.8672569,,0.44695327,-1.5935514,-3.6389089,0.5955328,-0.73266554,0.32945713,-0.8013218,-0.51280016,0.30808988,-0.056781158,-0.4474787,-0.89249015,,0.51675993,-1.7228138,-3.9566772,-0.9967781,-0.04895204,0.06354039,-0.0596616,0.981962,-0.17941855,-0.05361135,-0.18263137,-0.98171866,,-0.21060664821297662,-0.1118251720187709,0.15483535905,-0.007548837965442877,-0.0020495474964816063,-0.0009424511290516704,0.0,,-1.5145051439641686,0.0638978918013336,0.09030215398000001,-0.0033550390957523897,-0.02719066345332265,-0.003474961568548679,0.0016334406613427964
2.5654968929998176,,0.5161301,-1.6597189,-3.9042134,-0.52622956,-0.7135932,-0.46245798,-0.84431106,0.50313073,0.18438594,0.10110022,0.4874876,-0.8672569,,0.44695374,-1.5935512,-3.6389086,0.595533,-0.73266286,0.3294628,-0.8013216,-0.512798,0.3080938,-0.056780994,-0.44748566,-0.8924867,,0.51675993,-1.7228138,-3.9566772,-0.9967781,-0.04895204,0.06354039,-0.0596616,0.981962,-0.17941855,-0.05361135,-0.18263137,-0.98171866,,-0.21060664821297662,-0.1118251720187709,0.15483535905,-0.007548837965442877,-0.0020495474964816063,-0.0009424511290516704,0.0,,-1.5145128666970429,0.0638978918013336,0.09030215398000001,-0.0033550390957523897,-0.02719066345332265,-0.003474961568548679,0.0016334406613427964
2.587775355999838,,0.5161301,-1.6597189,-3.9042134,-0.52622956,-0.7135932,-0.46245798,-0.84431106,0.50313073,0.18438594,0.10110022,0.4874876,-0.8672569,,0.44695374,-1.5935512,-3.6389086,0.595533,-0.73266286,0.3294628,-0.8013216,-0.512798,0.3080938,-0.056780994,-0.44748566,-0.8924867,,0.51675993,-1.7228138,-3.9566772,-0.9967781,-0.04895204,0.06354039,-0.0596616,0.981962,-0.17941855,-0.05361135,-0.18263137,-0.98171866,,-0.21060664821297662,-0.1118251720187709,0.15483535905,-0.007548837965442877,-0.0020495474964816063,-0.0009424511290516704,0.0,,-1.5145128666970429,0.0638978918013336,0.09030215398000001,-0.0033550390957523897,-0.02719066345332265,-0.003474961568548679,0.0016334406613427964
2.608415385999706,,0.5161301,-1.6597189,-3.9042134,-0.52622956,-0.7135932,-0.46245798,-0.84431106,0.50313073,0.18438594,0.10110022,0.4874876,-0.8672569,,0.44695374,-1.5935512,-3.6389086,0.595533,-0.73266286,0.3294628,-0.8013216,-0.512798,0.3080938,-0.056780994,-0.44748566,-0.8924867,,0.51675993,-1.7228138,-3.9566772,-0.9967781,-0.04895204,0.06354039,-0.0596616,0.981962,-0.17941855,-0.05361135,-0.18263137,-0.98171866,,-0.21060664821297662,-0.1118251720187709,0.15483535905,-0.007548837965442877,-0.0020495474964816063,-0.0009424511290516704,0.0,,-1.5145128666970429,0.0638978918013336,0.09030215398000001,-0.0033550390957523897,-0.02719066345332265,-0.003474961568548679,0.0016334406613427964
2.6358135649998076,,0.5161301,-1.6597189,-3.9042134,-0.52622956,-0.7135932,-0.46245798,-0.84431106,0.50313073,0.18438594,0.10110022,0.4874876,-0.8672569,,0.44695324,-1.5935515,-3.6389089,0.595379,-0.73279226,0.32945338,-0.8014295,-0.512634,0.30808634,-0.056874275,-0.44746172,-0.8924927,,0.51675993,-1.7228138,-3.9566772,-0.9967781,-0.04895204,0.06354039,-0.0596616,0.981962,-0.17941855,-0.05361135,-0.18263137,-0.98171866,,-0.21060664821297662,-0.1118251720187709,0.15483535905,-0.007548837965442877,-0.0020495474964816063,-0.0009424511290516704,0.0,,-1.5145051439641686,0.0638978918013336,0.09030215398000001,-0.003145349152267865,-0.02719066345332265,-0.003474961568548679,0.0016334406613427964
2.657350804000089,,0.5161301,-1.6597189,-3.9042134,-0.52622956,-0.7135932,-0.46245798,-0.84431106,0.50313073,0.18438594,0.10110022,0.4874876,-0.8672569,,0.44695273,-1.5935519,-3.638909,0.595225,-0.73292166,0.32944396,-0.8015373,-0.5124699,0.30807889,-0.056967586,-0.44743782,-0.89249873,,0.51675993,-1.7228138,-3.9566772,-0.9967781,-0.04895204,0.06354039,-0.0596616,0.981962,-0.17941855,-0.05361135,-0.18263137,-0.98171866,,-0.21060664821297662,-0.1118251720187709,0.15483535905,-0.007548837965442877,-0.0020495474964816063,-0.0009424511290516704,0.0,,-1.5144974212312943,0.0638978918013336,0.09030215398000001,-0.002935659208783341,-0.02719066345332265,-0.003474961568548679,0.0016334406613427964
2.6792649409999285,,0.5161301,-1.6597189,-3.9042134,-0.52622956,-0.7135932,-0.46245798,-0.84431106,0.50313073,0.18438594,0.10110022,0.4874876,-0.8672569,,0.44695273,-1.5935519,-3.638909,0.595225,-0.73292166,0.32944396,-0.8015373,-0.5124699,0.30807889,-0.056967586,-0.44743782,-0.89249873,,0.51675993,-1.7228138,-3.9566772,-0.9967781,-0.04895204,0.06354039,-0.0596616,0.981962,-0.17941855,-0.05361135,-0.18263137,-0.98171866,,-0.21060664821297662,-0.1118251720187709,0.15483535905,-0.007548837965442877,-0.0020495474964816063,-0.0009424511290516704,0.0,,-1.5144974212312943,0.0638978918013336,0.09030215398000001,-0.002935659208783341,-0.02719066345332265,-0.003474961568548679,0.0016334406613427964
2.7057242359996962,,0.5161301,-1.6597189,-3.9042134,-0.52622956,-0.7135932,-0.46245798,-0.84431106,0.50313073,0.18438594,0.10110022,0.4874876,-0.8672569,,0.44695273,-1.5935519,-3.638909,0.595225,-0.73292166,0.32944396,-0.8015373,-0.5124699,0.30807889,-0.056967586,-0.44743782,-0.89249873,,0.51675993,-1.7228138,-3.9566772,-0.9967781,-0.04895204,0.06354039,-0.0596616,0.981962,-0.17941855,-0.05361135,-0.18263137,-0.98171866,,-0.21060664821297662,-0.1118251720187709,0.15483535905,-0.007548837965442877,-0.0020495474964816063,-0.0009424511290516704,0.0,,-1.5144974212312943,0.0638978918013336,0.09030215398000001,-0.002935659208783341,-0.02719066345332265,-0.003474961568548679,0.0016334406613427964
2.7280002339998646,,0.5161301,-1.6597189,-3.9042134,-0.52622956,-0.7135932,-0.46245798,-0.84431106,0.50313073,0.18438594,0.10110022,0.4874876,-0.8672569,,0.44695273,-1.5935519,-3.638909,0.595225,-0.73292166,0.32944396,-0.8015373,-0.5124699,0.30807889,-0.056967586,-0.44743782,-0.89249873,,0.51675993,-1.7228138,-3.9566772,-0.9967781,-0.04895204,0.06354039,-0.0596616,0.981962,-0.17941855,-0.05361135,-0.18263137,-0.98171866,,-0.21060664821297662,-0.1118251720187709,0.15483535905,-0.007548837965442877,-0.0020495474964816063,-0.0009424511290516704,0.0,,-1.5144974212312943,0.0638978918013336,0.09030215398000001,-0.002935659208783341,-0.02719066345332265,-0.003474961568548679,0.0016334406613427964
2.7505802189998576,,0.5161301,-1.6597189,-3.9042134,-0.52622956,-0.7135932,-0.46245798,-0.84431106,0.50313073,0.18438594,0.10110022,0.4874876,-0.8672569,,0.44695273,-1.5935519,-3.638909,0.595225,-0.73292166,0.32944396,-0.8015373,-0.5124699,0.30807889,-0.056967586,-0.44743782,-0.89249873,,0.51675993,-1.7228138,-3.9566772,-0.9967781,-0.04895204,0.06354039,-0.0596616,0.981962,-0.17941855,-0.05361135,-0.18263137,-0.98171866,,-0.21060664821297662,-0.1118251720187709,0.15483535905,-0.007548837965442877,-0.0020495474964816063,-0.0009424511290516704,0.0,,-1.5144974212312943,0.0638978918013336,0.09030215398000001,-0.002935659208783341,-0.02719066345332265,-0.003474961568548679,0.0016334406613427964
2.7754060899997057,,0.5161301,-1.6597189,-3.9042134,-0.52622956,-0.7135932,-0.46245798,-0.84431106,0.50313073,0.18438594,0.10110022,0.4874876,-0.8672569,,0.44695273,-1.5935519,-3.638909,0.595225,-0.73292166,0.32944396,-0.8015373,-0.5124699,0.30807889,-0.056967586,-0.44743782,-0.89249873,,0.51675993,-1.7228138,-3.9566772,-0.9967781,-0.04895204,0.06354039,-0.0596616,0.981962,-0.17941855,-0.05361135,-0.18263137,-0.98171866,,-0.21060664821297662,-0.1118251720187709,0.15483535905,-0.007548837965442877,-0.0020495474964816063,-0.0009424511290516704,0.0,,-1.5144974212312943,0.0638978918013336,0.09030215398000001,-0.002935659208783341,-0.02719066345332265,-0.003474961568548679,0.0016334406613427964
2.8003845250000268,,0.5161301,-1.6597189,-3.9042134,-0.52622956,-0.7135932,-0.46245798,-0.84431106,0.50313073,0.18438594,0.10110022,0.4874876,-0.8672569,,0.44695273,-1.5935519,-3.638909,0.595225,-0.73292166,0.32944396,-0.8015373,-0.5124699,0.30807889,-0.056967586,-0.44743782,-0.89249873,,0.51675993,-1.7228138,-3.9566772,-0.9967781,-0.04895204,0.06354039,-0.0596616,0.981962,-0.17941855,-0.05361135,-0.18263137,-0.98171866,,-0.21060664821297662,-0.1118251720187709,0.15483535905,-0.007548837965442877,-0.0020495474964816063,-0.0009424511290516704,0.0,,-1.5144974212312943,0.0638978918013336,0.09030215398000001,-0.002935659208783341,-0.02719066345332265,-0.003474961568548679,0.0016334406613427964
2.821602444999826,,0.5161293,-1.6597183,-3.904213,-0.52622896,-0.7135902,-0.46246335,-0.8443114,0.50312865,0.18438986,0.10109975,0.4874944,-0.8672531,,0.44695273,-1.5935519,-3.638909,0.595225,-0.73292166,0.32944396,-0.8015373,-0.5124699,0.30807889,-0.056967586,-0.44743782,-0.89249873,,0.51675993,-1.7228138,-3.9566772,-0.9967781,-0.04895204,0.06354039,-0.0596616,0.981962,-0.17941855,-0.05361135,-0.18263137,-0.98171866,,-0.21059892548010237,-0.1118251720187709,0.15483535905,-0.007548837965442877,-0.0020495474964816063,-0.0009424511290516704,0.0,,-1.5144974212312943,0.0638978918013336,0.09030215398000001,-0.002935659208783341,-0.02719066345332265,-0.003474961568548679,0.0016334406613427964
2.84318481299988,,0.5161301,-1.6597189,-3.9042134,-0.52622956,-0.7135932,-0.46245798,-0.84431106,0.50313073,0.18438594,0.10110022,0.4874876,-0.8672569,,0.44695273,-1.5935519,-3.638909,0.595225,-0.73292166,0.32944396,-0.8015373,-0.5124699,0.30807889,-0.056967586,-0.44743782,-0.89249873,,0.51675993,-1.7228138,-3.9566772,-0.9967781,-0.04895204,0.06354039,-0.0596616,0.981962,-0.17941855,-0.05361135,-0.18263137,-0.98171866,,-0.21060664821297662,-0.1118251720187709,0.15483535905,-0.007548837965442877,-0.0020495474964816063,-0.0009424511290516704,0.0,,-1.5144974212312943,0.0638978918013336,0.09030215398000001,-0.002935659208783341,-0.02719066345332265,-0.003474961568548679,0.0016334406613427964
2.8700276899999153,,0.5161301,-1.6597189,-3.9042134,-0.52622956,-0.7135932,-0.46245798,-0.84431106,0.50313073,0.18438594,0.10110022,0.4874876,-0.8672569,,0.4469532,-1.5935515,-3.6389089,0.5952252,-0.7329189,0.32944965,-0.80153704,-0.51246774,0.30808282,-0.056967437,-0.4474447,-0.8924953,,0.51675993,-1.7228138,-3.9566772,-0.9967781,-0.04895204,0.06354039,-0.0596616,0.981962,-0.17941855,-0.05361135,-0.18263137,-0.98171866,,-0.21060664821297662,-0.1118251720187709,0.15483535905,-0.007548837965442877,-0.0020495474964816063,-0.0009424511290516704,0.0,,-1.5145051439641686,0.0638978918013336,0.09030215398000001,-0.002935659208783341,-0.02719066345332265,-0.003474961568548679,0.0016334406613427964
2.8917850279999584,,0.5161301,-1.6597189,-3.9042134,-0.52622956,-0.7135932,-0.46245798,-0.84431106,0.50313073,0.18438594,0.10110022,0.4874876,-0.8672569,,0.44695368,-1.5935512,-3.6389086,0.59522533,-0.73291624,0.3294553,-0.801537,-0.5124656,0.30808675,-0.05696729,-0.44745162,-0.8924918,,0.51675993,-1.7228138,-3.9566772,-0.9967781,-0.04895204,0.06354039,-0.0596616,0.981962,-0.17941855,-0.05361135,-0.18263137,-0.98171866,,-0.21060664821297662,-0.1118251720187709,0.15483535905,-0.007548837965442877,-0.0020495474964816063,-0.0009424511290516704,0.0,,-1.5145128666970429,0.0638978918013336,0.09030215398000001,-0.002935659208783341,-0.02719066345332265,-0.003474961568548679,0.0016334406613427964
2.918722072000037,,0.5161301,-1.6597189,-3.9042134,-0.52622956,-0.7135932,-0.46245798,-0.84431106,0.50313073,0.18438594,0.10110022,0.4874876,-0.8672569,,0.44695368,-1.5935512,-3.6389086,0.59522533,-0.73291624,0.3294553,-0.801537,-0.5124656,0.30808675,-0.05696729,-0.44745162,-0.8924918,,0.51675993,-1.7228138,-3.9566772,-0.9967781,-0.04895204,0.06354039,-0.0596616,0.981962,-0.17941855,-0.05361135,-0.18263137,-0.98171866,,-0.21060664821297662,-0.1118251720187709,0.15483535905,-0.007548837965442877,-0.0020495474964816063,-0.0009424511290516704,0.0,,-1.5145128666970429,0.0638978918013336,0.09030215398000001,-0.002935659208783341,-0.02719066345332265,-0.003474961568548679,0.0016334406613427964
2.9399834179998834,,0.5161301,-1.6597188,-3.9042134,-0.5263791,-0.7134827,-0.46245837,-0.84420556,0.5033077,0.18438603,0.10120264,0.48746684,-0.86725664,,0.44695368,-1.5935512,-3.6389086,0.59522533,-0.73291624,0.3294553,-0.801537,-0.5124656,0.30808675,-0.05696729,-0.44745162,-0.8924918,,0.51675993,-1.7228138,-3.9566772,-0.9967781,-0.04895204,0.06354039,-0.0596616,0.981962,-0.17941855,-0.05361135,-0.18263137,-0.98171866,,-0.21060664821297662,-0.1118251720187709,0.15483535905,-0.007339148021958352,-0.0020495474964816063,-0.0009424511290516704,0.0,,-1.5145128666970429,0.0638978918013336,0.09030215398000001,-0.002935659208783341,-0.02719066345332265,-0.003474961568548679,0.0016334406613427964
2.9629364630000055,,0.5161301,-1.6597188,-3.9042134,-0.52652866,-0.71337205,-0.46245873,-0.84410006,0.5034846,0.18438607,0.10130501,0.48744598,-0.8672564,,0.44695273,-1.5935519,-3.638909,0.595225,-0.73292166,0.32944396,-0.8015373,-0.5124699,0.30807889,-0.056967586,-0.44743782,-0.89249873,,0.51675993,-1.7228138,-3.9566772,-0.9967781,-0.04895204,0.06354039,-0.0596616,0.981962,-0.17941855,-0.05361135,-0.18263137,-0.98171866,,-0.21060664821297662,-0.1118251720187709,0.15483535905,-0.007129458078473829,-0.0020495474964816063,-0.0009424511290516704,0.0,,-1.5144974212312943,0.0638978918013336,0.09030215398000001,-0.002935659208783341,-0.02719066345332265,-0.003474961568548679,0.0016334406613427964
2.9877732390000347,,0.5161301,-1.6597188,-3.9042134,-0.52652866,-0.71337205,-0.46245873,-0.84410006,0.5034846,0.18438607,0.10130501,0.48744598,-0.8672564,,0.44695273,-1.5935519,-3.638909,0.595225,-0.73292166,0.32944396,-0.8015373,-0.5124699,0.30807889,-0.056967586,-0.44743782,-0.89249873,,0.51675993,-1.7228138,-3.9566772,-0.9967781,-0.04895204,0.06354039,-0.0596616,0.981962,-0.17941855,-0.05361135,-0.18263137,-0.98171866,,-0.21060664821297662,-0.1118251720187709,0.15483535905,-0.007129458078473829,-0.0020495474964816063,-0.0009424511290516704,0.0,,-1.5144974212312943,0.0638978918013336,0.09030215398000001,-0.002935659208783341,-0.02719066345332265,-0.003474961568548679,0.0016334406613427964
3.0082066760001,,0.5161301,-1.6597188,-3.9042134,-0.52652866,-0.71337205,-0.46245873,-0.84410006,0.5034846,0.18438607,0.10130501,0.48744598,-0.8672564,,0.44695273,-1.5935519,-3.638909,0.595225,-0.73292166,0.32944396,-0.8015373,-0.5124699,0.30807889,-0.056967586,-0.44743782,-0.89249873,,0.51675993,-1.7228138,-3.9566772,-0.9967781,-0.04895204,0.06354039,-0.0596616,0.981962,-0.17941855,-0.05361135,-0.18263137,-0.98171866,,-0.21060664821297662,-0.1118251720187709,0.15483535905,-0.007129458078473829,-0.0020495474964816063,-0.0009424511290516704,0.0,,-1.5144974212312943,0.0638978918013336,0.09030215398000001,-0.002935659208783341,-0.02719066345332265,-0.003474961568548679,0.0016334406613427964
3.0332926699998097,,0.5161301,-1.6597188,-3.9042134,-0.52652866,-0.71337205,-0.46245873,-0.84410006,0.5034846,0.18438607,0.10130501,0.48744598,-0.8672564,,0.4469532,-1.5935515,-3.6389089,0.5952252,-0.7329189,0.32944965,-0.80153704,-0.51246774,0.30808282,-0.056967437,-0.4474447,-0.8924953,,0.51675993,-1.7228138,-3.9566772,-0.9967781,-0.04895204,0.06354039,-0.0596616,0.981962,-0.17941855,-0.05361135,-0.18263137,-0.98171866,,-0.21060664821297662,-0.1118251720187709,0.15483535905,-0.007129458078473829,-0.0020495474964816063,-0.0009424511290516704,0.0,,-1.5145051439641686,0.0638978918013336,0.09030215398000001,-0.002935659208783341,-0.02719066345332265,-0.003474961568548679,0.0016334406613427964
3.0550752049998664,,0.5161301,-1.6597188,-3.9042134,-0.52652866,-0.71337205,-0.46245873,-0.84410006,0.5034846,0.18438607,0.10130501,0.48744598,-0.8672564,,0.44695368,-1.5935512,-3.6389086,0.59522533,-0.73291624,0.3294553,-0.801537,-0.5124656,0.30808675,-0.05696729,-0.44745162,-0.8924918,,0.51675993,-1.7228138,-3.9566772,-0.9967781,-0.04895204,0.06354039,-0.0596616,0.981962,-0.17941855,-0.05361135,-0.18263137,-0.98171866,,-0.21060664821297662,-0.1118251720187709,0.15483535905,-0.007129458078473829,-0.0020495474964816063,-0.0009424511290516704,0.0,,-1.5145128666970429,0.0638978918013336,0.09030215398000001,-0.002935659208783341,-0.02719066345332265,-0.003474961568548679,0.0016334406613427964
3.079482217000077,,0.5161293,-1.6597183,-3.904213,-0.52652806,-0.71336895,-0.4624642,-0.8441005,0.5034825,0.18438998,0.10130454,0.4874527,-0.86725265,,0.44695374,-1.5935512,-3.6389086,0.595533,-0.73266286,0.3294628,-0.8013216,-0.512798,0.3080938,-0.056780994,-0.44748566,-0.8924867,,0.51675993,-1.7228138,-3.9566772,-0.9967781,-0.04895204,0.06354039,-0.0596616,0.981962,-0.17941855,-0.05361135,-0.18263137,-0.98171866,,-0.21059892548010237,-0.1118251720187709,0.15483535905,-0.007129458078473829,-0.0020495474964816063,-0.0009424511290516704,0.0,,-1.5145128666970429,0.0638978918013336,0.09030215398000001,-0.0033550390957523897,-0.02719066345332265,-0.003474961568548679,0.0016334406613427964
3.104008883000006,,0.5161293,-1.6597183,-3.904213,-0.52652806,-0.71336895,-0.4624642,-0.8441005,0.5034825,0.18438998,0.10130454,0.4874527,-0.86725265,,0.44695327,-1.5935514,-3.6389089,0.5955328,-0.73266554,0.32945713,-0.8013218,-0.51280016,0.30808988,-0.056781158,-0.4474787,-0.89249015,,0.51675993,-1.7228138,-3.9566772,-0.9967781,-0.04895204,0.06354039,-0.0596616,0.981962,-0.17941855,-0.05361135,-0.18263137,-0.98171866,,-0.21059892548010237,-0.1118251720187709,0.15483535905,-0.007129458078473829,-0.0020495474964816063,-0.0009424511290516704,0.0,,-1.5145051439641686,0.0638978918013336,0.09030215398000001,-0.0033550390957523897,-0.02719066345332265,-0.003474961568548679,0.0016334406613427964
3.1273526380000476,,0.5161301,-1.6597188,-3.9042134,-0.52652866,-0.71337205,-0.46245873,-0.84410006,0.5034846,0.18438607,0.10130501,0.48744598,-0.8672564,,0.44695282,-1.5935518,-3.638909,0.59553266,-0.73266834,0.32945147,-0.8013219,-0.5128023,0.30808592,-0.056781292,-0.44747186,-0.89249355,,0.51675993,-1.7228138,-3.9566772,-0.9967781,-0.04895204,0.06354039,-0.0596616,0.981962,-0.17941855,-0.05361135,-0.18263137,-0.98171866,,-0.21060664821297662,-0.1118251720187709,0.15483535905,-0.007129458078473829,-0.0020495474964816063,-0.0009424511290516704,0.0,,-1.5144974212312943,0.0638978918013336,0.09030215398000001,-0.0033550390957523897,-0.02719066345332265,-0.003474961568548679,0.0016334406613427964
3.152231604000008,,0.5161301,-1.6597188,-3.9042134,-0.52652866,-0.71337205,-0.46245873,-0.84410006,0.5034846,0.18438607,0.10130501,0.48744598,-0.8672564,,0.44695282,-1.5935518,-3.638909,0.59553266,-0.73269516,0.3293916,-0.8013219,-0.51282746,0.30804402,-0.056781292,-0.44739896,-0.8925301,,0.51675993,-1.7228138,-3.9566772,-0.9967781,-0.04895204,0.06354039,-0.0596616,0.981962,-0.17941855,-0.05361135,-0.18263137,-0.98171866,,-0.21060664821297662,-0.1118251720187709,0.15483535905,-0.007129458078473829,-0.0020495474964816063,-0.0009424511290516704,0.0,,-1.5144974212312943,0.0638978918013336,0.09030215398000001,-0.0033550390957523897,-0.02719066345332265,-0.0033932828284081173,0.001470096595208515
3.1751960199999303,,0.5161301,-1.6597188,-3.9042134,-0.52652866,-0.71337205,-0.46245873,-0.84410006,0.5034846,0.18438607,0.10130501,0.48744598,-0.8672564,,0.44695282,-1.5935518,-3.638909,0.59553266,-0.7327221,0.32933176,-0.8013219,-0.5128526,0.3080021,-0.056781292,-0.44732603,-0.8925667,,0.51675993,-1.7228138,-3.9566772,-0.9967781,-0.04895204,0.06354039,-0.0596616,0.981962,-0.17941855,-0.05361135,-0.18263137,-0.98171866,,-0.21060664821297662,-0.1118251720187709,0.15483535905,-0.007129458078473829,-0.0020495474964816063,-0.0009424511290516704,0.0,,-1.5144974212312943,0.0638978918013336,0.09030215398000001,-0.0033550390957523897,-0.02719066345332265,-0.003311604088267554,0.0013067525290742371
3.2019765780000853,,0.5161301,-1.6597188,-3.9042134,-0.52652866,-0.71337205,-0.46245873,-0.84410006,0.5034846,0.18438607,0.10130501,0.48744598,-0.8672564,,0.44695327,-1.5935514,-3.6389089,0.5955328,-0.7327194,0.32933745,-0.8013218,-0.5128505,0.3080061,-0.056781158,-0.44733295,-0.8925632,,0.51675993,-1.7228138,-3.9566772,-0.9967781,-0.04895204,0.06354039,-0.0596616,0.981962,-0.17941855,-0.05361135,-0.18263137,-0.98171866,,-0.21060664821297662,-0.1118251720187709,0.15483535905,-0.007129458078473829,-0.0020495474964816063,-0.0009424511290516704,0.0,,-1.5145051439641686,0.0638978918013336,0.09030215398000001,-0.0033550390957523897,-0.02719066345332265,-0.003311604088267554,0.0013067525290742371
3.22465431899991,,0.5161301,-1.6597188,-3.9042134,-0.52652866,-0.71337205,-0.46245873,-0.84410006,0.5034846,0.18438607,0.10130501,0.48744598,-0.8672564,,0.44695374,-1.5935512,-3.6389086,0.595533,-0.7327167,0.3293431,-0.8013216,-0.5128483,0.30801,-0.056780994,-0.44733986,-0.89255977,,0.51675993,-1.7228138,-3.9566772,-0.9967781,-0.04895204,0.06354039,-0.0596616,0.981962,-0.17941855,-0.05361135,-0.18263137,-0.98171866,,-0.21060664821297662,-0.1118251720187709,0.15483535905,-0.007129458078473829,-0.0020495474964816063,-0.0009424511290516704,0.0,,-1.5145128666970429,0.0638978918013336,0.09030215398000001,-0.0033550390957523897,-0.02719066345332265,-0.003311604088267554,0.0013067525290742371
3.2506887700001244,,0.5161301,-1.6597188,-3.9042134,-0.52652866,-0.71337205,-0.46245873,-0.84410006,0.5034846,0.18438607,0.10130501,0.48744598,-0.8672564,,0.44695374,-1.5935512,-3.6389086,0.595533,-0.7327167,0.3293431,-0.8013216,-0.5128483,0.30801,-0.056780994,-0.44733986,-0.89255977,,0.51675993,-1.7228138,-3.9566772,-0.9967781,-0.04895204,0.06354039,-0.0596616,0.981962,-0.17941855,-0.05361135,-0.18263137,-0.98171866,,-0.21060664821297662,-0.1118251720187709,0.15483535905,-0.007129458078473829,-0.0020495474964816063,-0.0009424511290516704,0.0,,-1.5145128666970429,0.0638978918013336,0.09030215398000001,-0.0033550390957523897,-0.02719066345332265,-0.003311604088267554,0.0013067525290742371
3.2732794739999918,,0.5161301,-1.6597188,-3.9042134,-0.52652866,-0.71337205,-0.46245873,-0.84410006,0.5034846,0.18438607,0.10130501,0.48744598,-0.8672564,,0.44695374,-1.5935512,-3.6389086,0.595533,-0.7327167,0.3293431,-0.8013216,-0.5128483,0.30801,-0.056780994,-0.44733986,-0.89255977,,0.51675993,-1.7228138,-3.9566772,-0.9967781,-0.04895204,0.06354039,-0.0596616,0.981962,-0.17941855,-0.05361135,-0.18263137,-0.98171866,,-0.21060664821297662,-0.1118251720187709,0.15483535905,-0.007129458078473829,-0.0020495474964816063,-0.0009424511290516704,0.0,,-1.5145128666970429,0.0638978918013336,0.09030215398000001,-0.0033550390957523897,-0.02719066345332265,-0.003311604088267554,0.0013067525290742371
3.2961398459997326,,0.5161301,-1.6597188,-3.9042134,-0.52652866,-0.71337205,-0.46245873,-0.84410006,0.5034846,0.18438607,0.10130501,0.48744598,-0.8672564,,0.44695327,-1.5935514,-3.6389089,0.5955328,-0.7327194,0.32933745,-0.8013218,-0.5128505,0.3080061,-0.056781158,-0.44733295,-0.8925632,,0.51675993,-1.7228138,-3.9566772,-0.9967781,-0.04895204,0.06354039,-0.0596616,0.981962,-0.17941855,-0.05361135,-0.18263137,-0.98171866,,-0.21060664821297662,-0.1118251720187709,0.15483535905,-0.007129458078473829,-0.0020495474964816063,-0.0009424511290516704,0.0,,-1.5145051439641686,0.0638978918013336,0.09030215398000001,-0.0033550390957523897,-0.02719066345332265,-0.003311604088267554,0.0013067525290742371
3.3214183209997827,,0.5161301,-1.6597188,-3.9042134,-0.52652866,-0.71337205,-0.46245873,-0.84410006,0.5034846,0.18438607,0.10130501,0.48744598,-0.8672564,,0.44695282,-1.5935518,-3.638909,0.59553266,-0.7327221,0.32933176,-0.8013219,-0.5128526,0.3080021,-0.056781292,-0.44732603,-0.8925667,,0.51675993,-1.7228138,-3.9566772,-0.9967781,-0.04895204,0.06354039,-0.0596616,0.981962,-0.17941855,-0.05361135,-0.18263137,-0.98171866,,-0.21060664821297662,-0.1118251720187709,0.15483535905,-0.007129458078473829,-0.0020495474964816063,-0.0009424511290516704,0.0,,-1.5144974212312943,0.0638978918013336,0.09030215398000001,-0.0033550390957523897,-0.02719066345332265,-0.003311604088267554,0.0013067525290742371
3.34353519699971,,0.5161301,-1.6597188,-3.9042134,-0.52652866,-0.71337205,-0.46245873,-0.84410006,0.5034846,0.18438607,0.10130501,0.48744598,-0.8672564,,0.44695327,-1.5935514,-3.6389089,0.5955328,-0.7327194,0.32933745,-0.8013218,-0.5128505,0.3080061,-0.056781158,-0.44733295,-0.8925632,,0.51675993,-1.7228138,-3.9566772,-0.9967781,-0.04895204,0.06354039,-0.0596616,0.981962,-0.17941855,-0.05361135,-0.18263137,-0.98171866,,-0.21060664821297662,-0.1118251720187709,0.15483535905,-0.007129458078473829,-0.0020495474964816063,-0.0009424511290516704,0.0,,-1.5145051439641686,0.0638978918013336,0.09030215398000001,-0.0033550390957523897,-0.02719066345332265,-0.003311604088267554,0.0013067525290742371
3.371137123999688,,0.5161301,-1.6597188,-3.9042134,-0.52652866,-0.71337205,-0.46245873,-0.84410006,0.5034846,0.18438607,0.10130501,0.48744598,-0.8672564,,0.44695374,-1.5935512,-3.6389086,0.595533,-0.7327167,0.3293431,-0.8013216,-0.5128483,0.30801,-0.056780994,-0.44733986,-0.89255977,,0.51675993,-1.7228138,-3.9566772,-0.9967781,-0.04895204,0.06354039,-0.0596616,0.981962,-0.17941855,-0.05361135,-0.18263137,-0.98171866,,-0.21060664821297662,-0.1118251720187709,0.15483535905,-0.007129458078473829,-0.0020495474964816063,-0.0009424511290516704,0.0,,-1.5145128666970429,0.0638978918013336,0.09030215398000001,-0.0033550390957523897,-0.02719066345332265,-0.003311604088267554,0.0013067525290742371
