AlexandreBanks6/ExpertPlaybackApp/resources/Motions/Motion_Best222.csv
Time,si_T_psm1,Tx,Ty,Tz,R00,R01,R02,R10,R11,R12,R20,R21,R22,si_T_psm3,Tx,Ty,Tz,R00,R01,R02,R10,R11,R12,R20,R21,R22,si_T_ecm,Tx,Ty,Tz,R00,R01,R02,R10,R11,R12,R20,R21,R22,joint_vars_psm1,q1,q2,q3,q4,q5,q6,jaw,joint_vars_psm3,q1,q2,q3,q4,q5,q6,jaw
lci_T_si
,,-0.05455252,0.06743727,0.4762249,0.9997122,0.023544535,0.0045888703,0.02397832,-0.9861789,-0.16393982,0.0006655599,0.16400269,-0.9864597
rci_T_si
,,-0.073016815,0.078803524,0.57159084,0.99834955,0.0104133235,0.056478195,0.021027131,-0.98141545,-0.19073965,0.053442337,0.19161241,-0.98001456
ecm_T_lc
,,-0.039348,0.051043153,-0.2725159,-0.9888841,-0.12934415,0.07333705,0.13224038,-0.9905602,0.036096916,0.06797584,0.045393787,0.9966537
ecm_T_rc
,,0.010096899,0.19171284,-0.6841031,-0.99695045,-0.013193613,-0.07691395,0.014341901,-0.9997935,-0.014396289,-0.07670814,-0.015455482,0.99693376
0.025468258012551814,,0.03719807,0.01882689,0.34833762,-0.6951231,-0.55066705,-0.46213603,-0.7078636,0.4121306,0.5736528,-0.1254313,0.7258885,-0.6762786,,0.006529713,-0.020918474,0.58007824,0.5429109,-0.8116413,0.21560659,-0.6497641,-0.24333155,0.7201364,-0.5320285,-0.53106326,-0.65948266,,0.02710601,-0.023307633,0.20253214,-0.99165905,0.10841662,0.06970084,0.116242826,0.9859099,0.12028893,-0.05567741,0.12738784,-0.990289,,-0.3313052403042315,-0.09515179174332018,0.09365435992000001,0.0016775195478761949,0.0017762744969507258,0.008107979848392302,-0.002123472859745632,,-1.4642764893502125,0.17344485762220826,0.08959308335,-0.006919768134989304,-0.017079562470680057,-0.0016734014047947105,0.0017967847274770708
0.0541951929917559,,0.03719807,0.01882689,0.34833762,-0.6951231,-0.55066705,-0.46213603,-0.7078636,0.4121306,0.5736528,-0.1254313,0.7258885,-0.6762786,,0.0065290295,-0.020919189,0.5800773,0.5429073,-0.81164587,0.21559829,-0.64977026,-0.24334101,0.7201277,-0.53202474,-0.5310519,-0.65949494,,0.02710601,-0.023307633,0.20253214,-0.99165905,0.10841662,0.06970084,0.116242826,0.9859099,0.12028893,-0.05567741,0.12738784,-0.990289,,-0.33131296303710567,-0.09515179174332018,0.09365435992000001,0.0016775195478761949,0.0017762744969507258,0.008107979848392302,-0.002123472859745632,,-1.4642610438844639,0.17343713488933404,0.08959308335,-0.006919768134989304,-0.017079562470680057,-0.0016734014047947105,0.0017967847274770708
0.11625309102237225,,0.03719807,0.01882689,0.34833762,-0.6951231,-0.55066705,-0.46213603,-0.7078636,0.4121306,0.5736528,-0.1254313,0.7258885,-0.6762786,,0.006529713,-0.020918474,0.58007824,0.5429109,-0.8116413,0.21560659,-0.6497641,-0.24333155,0.7201364,-0.5320285,-0.53106326,-0.65948266,,0.02710601,-0.023307633,0.20253214,-0.99165905,0.10841662,0.06970084,0.116242826,0.9859099,0.12028893,-0.05567741,0.12738784,-0.990289,,-0.3313052403042315,-0.09515179174332018,0.09365435992000001,0.0016775195478761949,0.0017762744969507258,0.008107979848392302,-0.002123472859745632,,-1.4642764893502125,0.17344485762220826,0.08959308335,-0.006919768134989304,-0.017079562470680057,-0.0016734014047947105,0.0017967847274770708
0.14477914402959868,,0.037198443,0.018826615,0.34833717,-0.69512355,-0.55067015,-0.46213177,-0.70786333,0.41213554,0.57364964,-0.1254308,0.7258834,-0.6762842,,0.006529713,-0.020918474,0.58007824,0.5429109,-0.8116413,0.21560659,-0.6497641,-0.24333155,0.7201364,-0.5320285,-0.53106326,-0.65948266,,0.02710601,-0.023307633,0.20253214,-0.99165905,0.10841662,0.06970084,0.116242826,0.9859099,0.12028893,-0.05567741,0.12738784,-0.990289,,-0.33131296303710567,-0.09515179174332018,0.09365435992000001,0.0016775195478761949,0.0017762744969507258,0.008107979848392302,-0.002123472859745632,,-1.4642764893502125,0.17344485762220826,0.08959308335,-0.006919768134989304,-0.017079562470680057,-0.0016734014047947105,0.0017967847274770708
0.19216603302629665,,0.03719807,0.01882689,0.34833762,-0.6951231,-0.55066705,-0.46213603,-0.7078636,0.4121306,0.5736528,-0.1254313,0.7258885,-0.6762786,,0.006529197,-0.020918626,0.5800779,0.5429099,-0.8116436,0.21560034,-0.64976436,-0.24333625,0.72013456,-0.53202915,-0.5310576,-0.6594867,,0.02710601,-0.023307633,0.20253214,-0.99165905,0.10841662,0.06970084,0.116242826,0.9859099,0.12028893,-0.05567741,0.12738784,-0.990289,,-0.3313052403042315,-0.09515179174332018,0.09365435992000001,0.0016775195478761949,0.0017762744969507258,0.008107979848392302,-0.002123472859745632,,-1.4642687666173382,0.17344485762220826,0.08959308335,-0.006919768134989304,-0.017079562470680057,-0.0016734014047947105,0.0017967847274770708
0.23194431304000318,,0.03719807,0.01882689,0.34833762,-0.6951231,-0.55066705,-0.46213603,-0.7078636,0.4121306,0.5736528,-0.1254313,0.7258885,-0.6762786,,0.006528683,-0.020918772,0.5800776,0.54290897,-0.81164587,0.21559414,-0.6497647,-0.24334094,0.7201327,-0.53202987,-0.5310519,-0.6594907,,0.02710601,-0.023307633,0.20253214,-0.99165905,0.10841662,0.06970084,0.116242826,0.9859099,0.12028893,-0.05567741,0.12738784,-0.990289,,-0.3313052403042315,-0.09515179174332018,0.09365435992000001,0.0016775195478761949,0.0017762744969507258,0.008107979848392302,-0.002123472859745632,,-1.4642610438844639,0.17344485762220826,0.08959308335,-0.006919768134989304,-0.017079562470680057,-0.0016734014047947105,0.0017967847274770708
0.296579409041442,,0.03719807,0.01882689,0.34833762,-0.6951231,-0.55066705,-0.46213603,-0.7078636,0.4121306,0.5736528,-0.1254313,0.7258885,-0.6762786,,0.0065300595,-0.020918883,0.5800779,0.54290926,-0.8116412,0.21561073,-0.6497697,-0.24333158,0.7201313,-0.53202343,-0.5310632,-0.65948683,,0.02710601,-0.023307633,0.20253214,-0.99165905,0.10841662,0.06970084,0.116242826,0.9859099,0.12028893,-0.05567741,0.12738784,-0.990289,,-0.3313052403042315,-0.09515179174332018,0.09365435992000001,0.0016775195478761949,0.0017762744969507258,0.008107979848392302,-0.002123472859745632,,-1.4642764893502125,0.17343713488933404,0.08959308335,-0.006919768134989304,-0.017079562470680057,-0.0016734014047947105,0.0017967847274770708
0.32870015798835084,,0.037198443,0.018826615,0.34833717,-0.69512355,-0.55067015,-0.46213177,-0.70786333,0.41213554,0.57364964,-0.1254308,0.7258834,-0.6762842,,0.006529197,-0.020918626,0.5800779,0.5429099,-0.8116436,0.21560034,-0.64976436,-0.24333625,0.72013456,-0.53202915,-0.5310576,-0.6594867,,0.02710601,-0.023307633,0.20253214,-0.99165905,0.10841662,0.06970084,0.116242826,0.9859099,0.12028893,-0.05567741,0.12738784,-0.990289,,-0.33131296303710567,-0.09515179174332018,0.09365435992000001,0.0016775195478761949,0.0017762744969507258,0.008107979848392302,-0.002123472859745632,,-1.4642687666173382,0.17344485762220826,0.08959308335,-0.006919768134989304,-0.017079562470680057,-0.0016734014047947105,0.0017967847274770708
0.36802235402865335,,0.037197206,0.018826012,0.34833747,-0.69506055,-0.5506148,-0.46229234,-0.70794165,0.41206747,0.573602,-0.12533808,0.72596407,-0.6762149,,0.006528683,-0.020918772,0.5800776,0.54290897,-0.81164587,0.21559414,-0.6497647,-0.24334094,0.7201327,-0.53202987,-0.5310519,-0.6594907,,0.02710601,-0.023307633,0.20253214,-0.99165905,0.10841662,0.06970084,0.116242826,0.9859099,0.12028893,-0.05567741,0.12738784,-0.990289,,-0.3313052403042315,-0.09515179174332018,0.09365435992000001,0.0016775195478761949,0.0016396379971852853,0.008219397752088724,-0.002123472859745632,,-1.4642610438844639,0.17344485762220826,0.08959308335,-0.006919768134989304,-0.017079562470680057,-0.0016734014047947105,0.0017967847274770708
0.42991045903181657,,0.037163462,0.018858243,0.34832805,-0.6950203,-0.5505512,-0.46242836,-0.7079945,0.41200686,0.57358027,-0.1252617,0.7260466,-0.6761403,,0.0066001657,-0.020922065,0.58006215,0.54295576,-0.8116286,0.21554103,-0.64970714,-0.2433821,0.72017086,-0.5320524,-0.5310594,-0.6594665,,0.02705484,-0.023276512,0.20252576,-0.99165404,0.108458534,0.0697061,0.11628511,0.98590505,0.12028821,-0.05567729,0.1273901,-0.9902887,,-0.3313052403042315,-0.09515179174332018,0.09365435992000001,0.0016775195478761949,0.001503001497419845,0.008330815655785147,-0.002123472859745632,,-1.4642610438844639,0.17344485762220826,0.08959308335,-0.006919768134989304,-0.017079562470680057,-0.0016734014047947105,0.0017967847274770708
0.46653051901375875,,0.037163462,0.018858243,0.34832805,-0.6950203,-0.5505512,-0.46242836,-0.7079945,0.41200686,0.57358027,-0.1252617,0.7260466,-0.6761403,,0.006601028,-0.020922318,0.5800621,0.5429551,-0.8116264,0.2155514,-0.64971244,-0.24337743,0.72016764,-0.5320466,-0.53106505,-0.65946656,,0.02705484,-0.023276512,0.20252576,-0.99165404,0.108458534,0.0697061,0.11628511,0.98590505,0.12028821,-0.05567729,0.1273901,-0.9902887,,-0.3313052403042315,-0.09515179174332018,0.09365435992000001,0.0016775195478761949,0.001503001497419845,0.008330815655785147,-0.002123472859745632,,-1.4642687666173382,0.17343713488933404,0.08959308335,-0.006919768134989304,-0.017079562470680057,-0.0016734014047947105,0.0017967847274770708
0.5154855260043405,,0.03716383,0.018857967,0.34832758,-0.6950208,-0.5505542,-0.46242404,-0.7079943,0.41201177,0.57357717,-0.12526117,0.72604156,-0.6761459,,0.006601196,-0.020921763,0.5800628,0.5429577,-0.811624,0.21555348,-0.6497066,-0.24337271,0.7201745,-0.532051,-0.53107077,-0.65945846,,0.02705484,-0.023276512,0.20252576,-0.99165404,0.108458534,0.0697061,0.11628511,0.98590505,0.12028821,-0.05567729,0.1273901,-0.9902887,,-0.33131296303710567,-0.09515179174332018,0.09365435992000001,0.0016775195478761949,0.001503001497419845,0.008330815655785147,-0.002123472859745632,,-1.4642764893502125,0.17344485762220826,0.08959308335,-0.006919768134989304,-0.017079562470680057,-0.0016734014047947105,0.0017967847274770708
0.5557890020427294,,0.037163462,0.018858243,0.34832805,-0.6950203,-0.5505512,-0.46242836,-0.7079945,0.41200686,0.57358027,-0.1252617,0.7260466,-0.6761403,,0.006601196,-0.020921763,0.5800628,0.5429577,-0.811624,0.21555348,-0.6497066,-0.24337271,0.7201745,-0.532051,-0.53107077,-0.65945846,,0.02705484,-0.023276512,0.20252576,-0.99165404,0.108458534,0.0697061,0.11628511,0.98590505,0.12028821,-0.05567729,0.1273901,-0.9902887,,-0.3313052403042315,-0.09515179174332018,0.09365435992000001,0.0016775195478761949,0.001503001497419845,0.008330815655785147,-0.002123472859745632,,-1.4642764893502125,0.17344485762220826,0.08959308335,-0.006919768134989304,-0.017079562470680057,-0.0016734014047947105,0.0017967847274770708
0.6099483310244977,,0.037163462,0.018858243,0.34832805,-0.6950203,-0.5505512,-0.46242836,-0.7079945,0.41200686,0.57358027,-0.1252617,0.7260466,-0.6761403,,0.006601196,-0.020921763,0.5800628,0.5429577,-0.811624,0.21555348,-0.6497066,-0.24337271,0.7201745,-0.532051,-0.53107077,-0.65945846,,0.02705484,-0.023276512,0.20252576,-0.99165404,0.108458534,0.0697061,0.11628511,0.98590505,0.12028821,-0.05567729,0.1273901,-0.9902887,,-0.3313052403042315,-0.09515179174332018,0.09365435992000001,0.0016775195478761949,0.001503001497419845,0.008330815655785147,-0.002123472859745632,,-1.4642764893502125,0.17344485762220826,0.08959308335,-0.006919768134989304,-0.017079562470680057,-0.0016734014047947105,0.0017967847274770708
0.64520311600063,,0.03716383,0.018857967,0.34832758,-0.6950208,-0.5505542,-0.46242404,-0.7079943,0.41201177,0.57357717,-0.12526117,0.72604156,-0.6761459,,0.006601196,-0.020921763,0.5800628,0.5429577,-0.811624,0.21555348,-0.6497066,-0.24337271,0.7201745,-0.532051,-0.53107077,-0.65945846,,0.02705484,-0.023276512,0.20252576,-0.99165404,0.108458534,0.0697061,0.11628511,0.98590505,0.12028821,-0.05567729,0.1273901,-0.9902887,,-0.33131296303710567,-0.09515179174332018,0.09365435992000001,0.0016775195478761949,0.001503001497419845,0.008330815655785147,-0.002123472859745632,,-1.4642764893502125,0.17344485762220826,0.08959308335,-0.006919768134989304,-0.017079562470680057,-0.0016734014047947105,0.0017967847274770708
0.6824339689919725,,0.037163462,0.018858243,0.34832805,-0.6950203,-0.5505512,-0.46242836,-0.7079945,0.41200686,0.57358027,-0.1252617,0.7260466,-0.6761403,,0.006601028,-0.020922318,0.5800621,0.5429551,-0.8116264,0.2155514,-0.64971244,-0.24337743,0.72016764,-0.5320466,-0.53106505,-0.65946656,,0.02705484,-0.023276512,0.20252576,-0.99165404,0.108458534,0.0697061,0.11628511,0.98590505,0.12028821,-0.05567729,0.1273901,-0.9902887,,-0.3313052403042315,-0.09515179174332018,0.09365435992000001,0.0016775195478761949,0.001503001497419845,0.008330815655785147,-0.002123472859745632,,-1.4642687666173382,0.17343713488933404,0.08959308335,-0.006919768134989304,-0.017079562470680057,-0.0016734014047947105,0.0017967847274770708
0.7337774560437538,,0.03716383,0.018857967,0.34832758,-0.6950208,-0.5505542,-0.46242404,-0.7079943,0.41201177,0.57357717,-0.12526117,0.72604156,-0.6761459,,0.0066001657,-0.020922065,0.58006215,0.54295576,-0.8116286,0.21554103,-0.64970714,-0.2433821,0.72017086,-0.5320524,-0.5310594,-0.6594665,,0.02705484,-0.023276512,0.20252576,-0.99165404,0.108458534,0.0697061,0.11628511,0.98590505,0.12028821,-0.05567729,0.1273901,-0.9902887,,-0.33131296303710567,-0.09515179174332018,0.09365435992000001,0.0016775195478761949,0.001503001497419845,0.008330815655785147,-0.002123472859745632,,-1.4642610438844639,0.17344485762220826,0.08959308335,-0.006919768134989304,-0.017079562470680057,-0.0016734014047947105,0.0017967847274770708
0.7788003510213457,,0.037163462,0.018858243,0.34832805,-0.6950203,-0.5505512,-0.46242836,-0.7079945,0.41200686,0.57358027,-0.1252617,0.7260466,-0.6761403,,0.0066001657,-0.020922065,0.58006215,0.54295576,-0.8116286,0.21554103,-0.64970714,-0.2433821,0.72017086,-0.5320524,-0.5310594,-0.6594665,,0.02705484,-0.023276512,0.20252576,-0.99165404,0.108458534,0.0697061,0.11628511,0.98590505,0.12028821,-0.05567729,0.1273901,-0.9902887,,-0.3313052403042315,-0.09515179174332018,0.09365435992000001,0.0016775195478761949,0.001503001497419845,0.008330815655785147,-0.002123472859745632,,-1.4642610438844639,0.17344485762220826,0.08959308335,-0.006919768134989304,-0.017079562470680057,-0.0016734014047947105,0.0017967847274770708
0.8133634090190753,,0.037163462,0.018858243,0.34832805,-0.6950203,-0.5505512,-0.46242836,-0.7079945,0.41200686,0.57358027,-0.1252617,0.7260466,-0.6761403,,0.006601196,-0.020921763,0.5800628,0.5429577,-0.811624,0.21555348,-0.6497066,-0.24337271,0.7201745,-0.532051,-0.53107077,-0.65945846,,0.02705484,-0.023276512,0.20252576,-0.99165404,0.108458534,0.0697061,0.11628511,0.98590505,0.12028821,-0.05567729,0.1273901,-0.9902887,,-0.3313052403042315,-0.09515179174332018,0.09365435992000001,0.0016775195478761949,0.001503001497419845,0.008330815655785147,-0.002123472859745632,,-1.4642764893502125,0.17344485762220826,0.08959308335,-0.006919768134989304,-0.017079562470680057,-0.0016734014047947105,0.0017967847274770708
0.8668282220023684,,0.03716383,0.018857967,0.34832758,-0.6950208,-0.5505542,-0.46242404,-0.7079943,0.41201177,0.57357717,-0.12526117,0.72604156,-0.6761459,,0.006601028,-0.020922318,0.5800621,0.5429551,-0.8116264,0.2155514,-0.64971244,-0.24337743,0.72016764,-0.5320466,-0.53106505,-0.65946656,,0.02705484,-0.023276512,0.20252576,-0.99165404,0.108458534,0.0697061,0.11628511,0.98590505,0.12028821,-0.05567729,0.1273901,-0.9902887,,-0.33131296303710567,-0.09515179174332018,0.09365435992000001,0.0016775195478761949,0.001503001497419845,0.008330815655785147,-0.002123472859745632,,-1.4642687666173382,0.17343713488933404,0.08959308335,-0.006919768134989304,-0.017079562470680057,-0.0016734014047947105,0.0017967847274770708
0.9151093640248291,,0.037163462,0.018858243,0.34832805,-0.6950203,-0.5505512,-0.46242836,-0.7079945,0.41200686,0.57358027,-0.1252617,0.7260466,-0.6761403,,0.006601196,-0.020921763,0.5800628,0.5429577,-0.811624,0.21555348,-0.6497066,-0.24337271,0.7201745,-0.532051,-0.53107077,-0.65945846,,0.02705484,-0.023276512,0.20252576,-0.99165404,0.108458534,0.0697061,0.11628511,0.98590505,0.12028821,-0.05567729,0.1273901,-0.9902887,,-0.3313052403042315,-0.09515179174332018,0.09365435992000001,0.0016775195478761949,0.001503001497419845,0.008330815655785147,-0.002123472859745632,,-1.4642764893502125,0.17344485762220826,0.08959308335,-0.006919768134989304,-0.017079562470680057,-0.0016734014047947105,0.0017967847274770708
0.945414490008261,,0.03716383,0.018857967,0.34832758,-0.6950208,-0.5505542,-0.46242404,-0.7079943,0.41201177,0.57357717,-0.12526117,0.72604156,-0.6761459,,0.0066006817,-0.020921908,0.58006245,0.54295677,-0.8116264,0.21554728,-0.64970696,-0.2433774,0.72017264,-0.5320517,-0.5310651,-0.6594625,,0.02705484,-0.023276512,0.20252576,-0.99165404,0.108458534,0.0697061,0.11628511,0.98590505,0.12028821,-0.05567729,0.1273901,-0.9902887,,-0.33131296303710567,-0.09515179174332018,0.09365435992000001,0.0016775195478761949,0.001503001497419845,0.008330815655785147,-0.002123472859745632,,-1.4642687666173382,0.17344485762220826,0.08959308335,-0.006919768134989304,-0.017079562470680057,-0.0016734014047947105,0.0017967847274770708
1.0027509230421856,,0.037163462,0.018858243,0.34832805,-0.6950203,-0.5505512,-0.46242836,-0.7079945,0.41200686,0.57358027,-0.1252617,0.7260466,-0.6761403,,0.006601196,-0.020921763,0.5800628,0.5429577,-0.811624,0.21555348,-0.6497066,-0.24337271,0.7201745,-0.532051,-0.53107077,-0.65945846,,0.02705484,-0.023276512,0.20252576,-0.99165404,0.108458534,0.0697061,0.11628511,0.98590505,0.12028821,-0.05567729,0.1273901,-0.9902887,,-0.3313052403042315,-0.09515179174332018,0.09365435992000001,0.0016775195478761949,0.001503001497419845,0.008330815655785147,-0.002123472859745632,,-1.4642764893502125,0.17344485762220826,0.08959308335,-0.006919768134989304,-0.017079562470680057,-0.0016734014047947105,0.0017967847274770708
1.053150698018726,,0.03716383,0.018857967,0.34832758,-0.6950208,-0.5505542,-0.46242404,-0.7079943,0.41201177,0.57357717,-0.12526117,0.72604156,-0.6761459,,0.006601028,-0.020922318,0.5800621,0.5429551,-0.8116264,0.2155514,-0.64971244,-0.24337743,0.72016764,-0.5320466,-0.53106505,-0.65946656,,0.02705484,-0.023276512,0.20252576,-0.99165404,0.108458534,0.0697061,0.11628511,0.98590505,0.12028821,-0.05567729,0.1273901,-0.9902887,,-0.33131296303710567,-0.09515179174332018,0.09365435992000001,0.0016775195478761949,0.001503001497419845,0.008330815655785147,-0.002123472859745632,,-1.4642687666173382,0.17343713488933404,0.08959308335,-0.006919768134989304,-0.017079562470680057,-0.0016734014047947105,0.0017967847274770708
1.0963149709859863,,0.03716383,0.018857967,0.34832758,-0.6950208,-0.5505542,-0.46242404,-0.7079943,0.41201177,0.57357717,-0.12526117,0.72604156,-0.6761459,,0.0066001657,-0.020922065,0.58006215,0.54295576,-0.8116286,0.21554103,-0.64970714,-0.2433821,0.72017086,-0.5320524,-0.5310594,-0.6594665,,0.02705484,-0.023276512,0.20252576,-0.99165404,0.108458534,0.0697061,0.11628511,0.98590505,0.12028821,-0.05567729,0.1273901,-0.9902887,,-0.33131296303710567,-0.09515179174332018,0.09365435992000001,0.0016775195478761949,0.001503001497419845,0.008330815655785147,-0.002123472859745632,,-1.4642610438844639,0.17344485762220826,0.08959308335,-0.006919768134989304,-0.017079562470680057,-0.0016734014047947105,0.0017967847274770708
1.1357302159885876,,0.037163462,0.018858243,0.34832805,-0.6950203,-0.5505512,-0.46242836,-0.7079945,0.41200686,0.57358027,-0.1252617,0.7260466,-0.6761403,,0.0066001657,-0.020922065,0.58006215,0.54295576,-0.8116286,0.21554103,-0.64970714,-0.2433821,0.72017086,-0.5320524,-0.5310594,-0.6594665,,0.02705484,-0.023276512,0.20252576,-0.99165404,0.108458534,0.0697061,0.11628511,0.98590505,0.12028821,-0.05567729,0.1273901,-0.9902887,,-0.3313052403042315,-0.09515179174332018,0.09365435992000001,0.0016775195478761949,0.001503001497419845,0.008330815655785147,-0.002123472859745632,,-1.4642610438844639,0.17344485762220826,0.08959308335,-0.006919768134989304,-0.017079562470680057,-0.0016734014047947105,0.0017967847274770708
1.176836082013324,,0.03716383,0.018857967,0.34832758,-0.6950208,-0.5505542,-0.46242404,-0.7079943,0.41201177,0.57357717,-0.12526117,0.72604156,-0.6761459,,0.0066015422,-0.020922165,0.58006245,0.5429561,-0.811624,0.21555765,-0.64971215,-0.24337274,0.7201694,-0.53204596,-0.5310707,-0.6594626,,0.02705484,-0.023276512,0.20252576,-0.99165404,0.108458534,0.0697061,0.11628511,0.98590505,0.12028821,-0.05567729,0.1273901,-0.9902887,,-0.33131296303710567,-0.09515179174332018,0.09365435992000001,0.0016775195478761949,0.001503001497419845,0.008330815655785147,-0.002123472859745632,,-1.4642764893502125,0.17343713488933404,0.08959308335,-0.006919768134989304,-0.017079562470680057,-0.0016734014047947105,0.0017967847274770708
1.2123828320181929,,0.037163462,0.018858243,0.34832805,-0.6950203,-0.5505512,-0.46242836,-0.7079945,0.41200686,0.57358027,-0.1252617,0.7260466,-0.6761403,,0.006600512,-0.020922467,0.5800618,0.54295415,-0.81162864,0.2155452,-0.6497127,-0.24338216,0.72016585,-0.53204733,-0.5310594,-0.65947056,,0.02705484,-0.023276512,0.20252576,-0.99165404,0.108458534,0.0697061,0.11628511,0.98590505,0.12028821,-0.05567729,0.1273901,-0.9902887,,-0.3313052403042315,-0.09515179174332018,0.09365435992000001,0.0016775195478761949,0.001503001497419845,0.008330815655785147,-0.002123472859745632,,-1.4642610438844639,0.17343713488933404,0.08959308335,-0.006919768134989304,-0.017079562470680057,-0.0016734014047947105,0.0017967847274770708
1.2661722840275615,,0.03716383,0.018857967,0.34832758,-0.6950208,-0.5505542,-0.46242404,-0.7079943,0.41201177,0.57357717,-0.12526117,0.72604156,-0.6761459,,0.0066006817,-0.020921908,0.58006245,0.54295677,-0.8116264,0.21554728,-0.64970696,-0.2433774,0.72017264,-0.5320517,-0.5310651,-0.6594625,,0.02705484,-0.023276512,0.20252576,-0.99165404,0.108458534,0.0697061,0.11628511,0.98590505,0.12028821,-0.05567729,0.1273901,-0.9902887,,-0.33131296303710567,-0.09515179174332018,0.09365435992000001,0.0016775195478761949,0.001503001497419845,0.008330815655785147,-0.002123472859745632,,-1.4642687666173382,0.17344485762220826,0.08959308335,-0.006919768134989304,-0.017079562470680057,-0.0016734014047947105,0.0017967847274770708
1.3140958760050125,,0.03716383,0.018857967,0.34832758,-0.6950208,-0.5505542,-0.46242404,-0.7079943,0.41201177,0.57357717,-0.12526117,0.72604156,-0.6761459,,0.0066006817,-0.020921908,0.58006245,0.54295677,-0.8116264,0.21554728,-0.64970696,-0.2433774,0.72017264,-0.5320517,-0.5310651,-0.6594625,,0.02705484,-0.023276512,0.20252576,-0.99165404,0.108458534,0.0697061,0.11628511,0.98590505,0.12028821,-0.05567729,0.1273901,-0.9902887,,-0.33131296303710567,-0.09515179174332018,0.09365435992000001,0.0016775195478761949,0.001503001497419845,0.008330815655785147,-0.002123472859745632,,-1.4642687666173382,0.17344485762220826,0.08959308335,-0.006919768134989304,-0.017079562470680057,-0.0016734014047947105,0.0017967847274770708
1.3457528260187246,,0.03716383,0.018857967,0.34832758,-0.6950208,-0.5505542,-0.46242404,-0.7079943,0.41201177,0.57357717,-0.12526117,0.72604156,-0.6761459,,0.0066006817,-0.020921908,0.58006245,0.54295677,-0.8116264,0.21554728,-0.64970696,-0.2433774,0.72017264,-0.5320517,-0.5310651,-0.6594625,,0.02705484,-0.023276512,0.20252576,-0.99165404,0.108458534,0.0697061,0.11628511,0.98590505,0.12028821,-0.05567729,0.1273901,-0.9902887,,-0.33131296303710567,-0.09515179174332018,0.09365435992000001,0.0016775195478761949,0.001503001497419845,0.008330815655785147,-0.002123472859745632,,-1.4642687666173382,0.17344485762220826,0.08959308335,-0.006919768134989304,-0.017079562470680057,-0.0016734014047947105,0.0017967847274770708
1.385986777022481,,0.037163462,0.018858243,0.34832805,-0.6950203,-0.5505512,-0.46242836,-0.7079945,0.41200686,0.57358027,-0.1252617,0.7260466,-0.6761403,,0.0066015422,-0.020922165,0.58006245,0.5429561,-0.811624,0.21555765,-0.64971215,-0.24337274,0.7201694,-0.53204596,-0.5310707,-0.6594626,,0.02705484,-0.023276512,0.20252576,-0.99165404,0.108458534,0.0697061,0.11628511,0.98590505,0.12028821,-0.05567729,0.1273901,-0.9902887,,-0.3313052403042315,-0.09515179174332018,0.09365435992000001,0.0016775195478761949,0.001503001497419845,0.008330815655785147,-0.002123472859745632,,-1.4642764893502125,0.17343713488933404,0.08959308335,-0.006919768134989304,-0.017079562470680057,-0.0016734014047947105,0.0017967847274770708
1.4483596740174107,,0.037163462,0.018858243,0.34832805,-0.6950203,-0.5505512,-0.46242836,-0.7079945,0.41200686,0.57358027,-0.1252617,0.7260466,-0.6761403,,0.006601196,-0.020921763,0.5800628,0.5429577,-0.811624,0.21555348,-0.6497066,-0.24337271,0.7201745,-0.532051,-0.53107077,-0.65945846,,0.02705484,-0.023276512,0.20252576,-0.99165404,0.108458534,0.0697061,0.11628511,0.98590505,0.12028821,-0.05567729,0.1273901,-0.9902887,,-0.3313052403042315,-0.09515179174332018,0.09365435992000001,0.0016775195478761949,0.001503001497419845,0.008330815655785147,-0.002123472859745632,,-1.4642764893502125,0.17344485762220826,0.08959308335,-0.006919768134989304,-0.017079562470680057,-0.0016734014047947105,0.0017967847274770708
1.476928279036656,,0.03716383,0.018857967,0.34832758,-0.6950208,-0.5505542,-0.46242404,-0.7079943,0.41201177,0.57357717,-0.12526117,0.72604156,-0.6761459,,0.006601196,-0.020921763,0.5800628,0.5429577,-0.811624,0.21555348,-0.6497066,-0.24337271,0.7201745,-0.532051,-0.53107077,-0.65945846,,0.02705484,-0.023276512,0.20252576,-0.99165404,0.108458534,0.0697061,0.11628511,0.98590505,0.12028821,-0.05567729,0.1273901,-0.9902887,,-0.33131296303710567,-0.09515179174332018,0.09365435992000001,0.0016775195478761949,0.001503001497419845,0.008330815655785147,-0.002123472859745632,,-1.4642764893502125,0.17344485762220826,0.08959308335,-0.006919768134989304,-0.017079562470680057,-0.0016734014047947105,0.0017967847274770708
1.5154313470120542,,0.03716383,0.018857967,0.34832758,-0.6950208,-0.5505542,-0.46242404,-0.7079943,0.41201177,0.57357717,-0.12526117,0.72604156,-0.6761459,,0.006601196,-0.020921763,0.5800628,0.5429577,-0.811624,0.21555348,-0.6497066,-0.24337271,0.7201745,-0.532051,-0.53107077,-0.65945846,,0.02705484,-0.023276512,0.20252576,-0.99165404,0.108458534,0.0697061,0.11628511,0.98590505,0.12028821,-0.05567729,0.1273901,-0.9902887,,-0.33131296303710567,-0.09515179174332018,0.09365435992000001,0.0016775195478761949,0.001503001497419845,0.008330815655785147,-0.002123472859745632,,-1.4642764893502125,0.17344485762220826,0.08959308335,-0.006919768134989304,-0.017079562470680057,-0.0016734014047947105,0.0017967847274770708
1.567134666023776,,0.037222505,0.018800998,0.34833115,-0.6949624,-0.5506016,-0.46245563,-0.7080533,0.41199312,0.57351744,-0.1252511,0.72601616,-0.67617494,,0.0064566117,-0.020967046,0.58009183,0.5428504,-0.811651,0.21572241,-0.6498528,-0.2432507,0.72008365,-0.5319819,-0.5310855,-0.65950227,,0.02708855,-0.023298157,0.20252514,-0.9916609,0.10840105,0.06969888,0.11622711,0.98591167,0.1202892,-0.05567745,0.12738702,-0.99028903,,-0.33131296303710567,-0.0951595144761944,0.09365435992000001,0.0016775195478761949,0.001503001497419845,0.008330815655785147,-0.002123472859745632,,-1.4642687666173382,0.17343713488933404,0.08959308335,-0.006919768134989304,-0.017079562470680057,-0.0016734014047947105,0.0017967847274770708
1.600219196989201,,0.0372226,0.018801754,0.3483317,-0.69496554,-0.5505987,-0.4624545,-0.7080492,0.41198814,0.573526,-0.1252569,0.7260213,-0.6761683,,0.006456781,-0.020966487,0.58009255,0.54285306,-0.8116486,0.2157245,-0.649847,-0.24324597,0.7200905,-0.53198636,-0.53109115,-0.65949416,,0.02708855,-0.023298157,0.20252514,-0.9916609,0.10840105,0.06969888,0.11622711,0.98591167,0.1202892,-0.05567745,0.12738702,-0.99028903,,-0.3313052403042315,-0.09515179174332018,0.09365435992000001,0.0016775195478761949,0.001503001497419845,0.008330815655785147,-0.002123472859745632,,-1.4642764893502125,0.17344485762220826,0.08959308335,-0.006919768134989304,-0.017079562470680057,-0.0016734014047947105,0.0017967847274770708
1.6520364769967273,,0.0372226,0.018801754,0.3483317,-0.69496554,-0.5505987,-0.4624545,-0.7080492,0.41198814,0.573526,-0.1252569,0.7260213,-0.6761683,,0.0064566117,-0.020967046,0.58009183,0.5428504,-0.811651,0.21572241,-0.6498528,-0.2432507,0.72008365,-0.5319819,-0.5310855,-0.65950227,,0.02708855,-0.023298157,0.20252514,-0.9916609,0.10840105,0.06969888,0.11622711,0.98591167,0.1202892,-0.05567745,0.12738702,-0.99028903,,-0.3313052403042315,-0.09515179174332018,0.09365435992000001,0.0016775195478761949,0.001503001497419845,0.008330815655785147,-0.002123472859745632,,-1.4642687666173382,0.17343713488933404,0.08959308335,-0.006919768134989304,-0.017079562470680057,-0.0016734014047947105,0.0017967847274770708
1.6988001859863289,,0.037222974,0.018801475,0.34833124,-0.69496584,-0.55060166,-0.46245027,-0.7080489,0.41199306,0.5735229,-0.12525639,0.72601616,-0.6761739,,0.0064557493,-0.020966792,0.5800919,0.5428511,-0.8116533,0.21571204,-0.6498475,-0.24325536,0.7200868,-0.53198767,-0.5310798,-0.6595022,,0.02708855,-0.023298157,0.20252514,-0.9916609,0.10840105,0.06969888,0.11622711,0.98591167,0.1202892,-0.05567745,0.12738702,-0.99028903,,-0.33131296303710567,-0.09515179174332018,0.09365435992000001,0.0016775195478761949,0.001503001497419845,0.008330815655785147,-0.002123472859745632,,-1.4642610438844639,0.17344485762220826,0.08959308335,-0.006919768134989304,-0.017079562470680057,-0.0016734014047947105,0.0017967847274770708
1.7489220880088396,,0.037222974,0.018801475,0.34833124,-0.69496584,-0.55060166,-0.46245027,-0.7080489,0.41199306,0.5735229,-0.12525639,0.72601616,-0.6761739,,0.0064571276,-0.020966897,0.5800922,0.5428514,-0.8116486,0.21572864,-0.6498525,-0.24324597,0.7200855,-0.5319812,-0.53109115,-0.6594982,,0.02708855,-0.023298157,0.20252514,-0.9916609,0.10840105,0.06969888,0.11622711,0.98591167,0.1202892,-0.05567745,0.12738702,-0.99028903,,-0.33131296303710567,-0.09515179174332018,0.09365435992000001,0.0016775195478761949,0.001503001497419845,0.008330815655785147,-0.002123472859745632,,-1.4642764893502125,0.17343713488933404,0.08959308335,-0.006919768134989304,-0.017079562470680057,-0.0016734014047947105,0.0017967847274770708
1.7849571660044603,,0.03722223,0.018802026,0.3483322,-0.69496506,-0.5505955,-0.4624587,-0.7080495,0.41198322,0.5735292,-0.1252574,0.72602636,-0.6761628,,0.0064571276,-0.020966897,0.5800922,0.5428514,-0.8116486,0.21572864,-0.6498525,-0.24324597,0.7200855,-0.5319812,-0.53109115,-0.6594982,,0.02708855,-0.023298157,0.20252514,-0.9916609,0.10840105,0.06969888,0.11622711,0.98591167,0.1202892,-0.05567745,0.12738702,-0.99028903,,-0.3312975175713572,-0.09515179174332018,0.09365435992000001,0.0016775195478761949,0.001503001497419845,0.008330815655785147,-0.002123472859745632,,-1.4642764893502125,0.17343713488933404,0.08959308335,-0.006919768134989304,-0.017079562470680057,-0.0016734014047947105,0.0017967847274770708
1.8342549310182221,,0.037222974,0.018801475,0.34833124,-0.69496584,-0.55060166,-0.46245027,-0.7080489,0.41199306,0.5735229,-0.12525639,0.72601616,-0.6761739,,0.006456265,-0.020966643,0.5800922,0.54285204,-0.811651,0.21571827,-0.64984727,-0.24325067,0.7200887,-0.531987,-0.5310855,-0.65949816,,0.02708855,-0.023298157,0.20252514,-0.9916609,0.10840105,0.06969888,0.11622711,0.98591167,0.1202892,-0.05567745,0.12738702,-0.99028903,,-0.33131296303710567,-0.09515179174332018,0.09365435992000001,0.0016775195478761949,0.001503001497419845,0.008330815655785147,-0.002123472859745632,,-1.4642687666173382,0.17344485762220826,0.08959308335,-0.006919768134989304,-0.017079562470680057,-0.0016734014047947105,0.0017967847274770708
1.8812579980003648,,0.037222132,0.018801274,0.34833163,-0.69496197,-0.5505986,-0.4624599,-0.70805365,0.4119882,0.57352054,-0.12525162,0.7260213,-0.67616934,,0.0064557493,-0.020966792,0.5800919,0.5428511,-0.8116533,0.21571204,-0.6498475,-0.24325536,0.7200868,-0.53198767,-0.5310798,-0.6595022,,0.02708855,-0.023298157,0.20252514,-0.9916609,0.10840105,0.06969888,0.11622711,0.98591167,0.1202892,-0.05567745,0.12738702,-0.99028903,,-0.3313052403042315,-0.0951595144761944,0.09365435992000001,0.0016775195478761949,0.001503001497419845,0.008330815655785147,-0.002123472859745632,,-1.4642610438844639,0.17344485762220826,0.08959308335,-0.006919768134989304,-0.017079562470680057,-0.0016734014047947105,0.0017967847274770708
1.916878768010065,,0.037222974,0.018801475,0.34833124,-0.69496584,-0.55060166,-0.46245027,-0.7080489,0.41199306,0.5735229,-0.12525639,0.72601616,-0.6761739,,0.0064566117,-0.020967046,0.58009183,0.5428504,-0.811651,0.21572241,-0.6498528,-0.2432507,0.72008365,-0.5319819,-0.5310855,-0.65950227,,0.02708855,-0.023298157,0.20252514,-0.9916609,0.10840105,0.06969888,0.11622711,0.98591167,0.1202892,-0.05567745,0.12738702,-0.99028903,,-0.33131296303710567,-0.09515179174332018,0.09365435992000001,0.0016775195478761949,0.001503001497419845,0.008330815655785147,-0.002123472859745632,,-1.4642687666173382,0.17343713488933404,0.08959308335,-0.006919768134989304,-0.017079562470680057,-0.0016734014047947105,0.0017967847274770708
1.9665919980034232,,0.037222974,0.018801475,0.34833124,-0.69496584,-0.55060166,-0.46245027,-0.7080489,0.41199306,0.5735229,-0.12525639,0.72601616,-0.6761739,,0.006456265,-0.020966643,0.5800922,0.54285204,-0.811651,0.21571827,-0.64984727,-0.24325067,0.7200887,-0.531987,-0.5310855,-0.65949816,,0.02708855,-0.023298157,0.20252514,-0.9916609,0.10840105,0.06969888,0.11622711,0.98591167,0.1202892,-0.05567745,0.12738702,-0.99028903,,-0.33131296303710567,-0.09515179174332018,0.09365435992000001,0.0016775195478761949,0.001503001497419845,0.008330815655785147,-0.002123472859745632,,-1.4642687666173382,0.17344485762220826,0.08959308335,-0.006919768134989304,-0.017079562470680057,-0.0016734014047947105,0.0017967847274770708
2.0143235250143334,,0.037222974,0.018801475,0.34833124,-0.69496584,-0.55060166,-0.46245027,-0.7080489,0.41199306,0.5735229,-0.12525639,0.72601616,-0.6761739,,0.006456265,-0.020966643,0.5800922,0.54285204,-0.811651,0.21571827,-0.64984727,-0.24325067,0.7200887,-0.531987,-0.5310855,-0.65949816,,0.02708855,-0.023298157,0.20252514,-0.9916609,0.10840105,0.06969888,0.11622711,0.98591167,0.1202892,-0.05567745,0.12738702,-0.99028903,,-0.33131296303710567,-0.09515179174332018,0.09365435992000001,0.0016775195478761949,0.001503001497419845,0.008330815655785147,-0.002123472859745632,,-1.4642687666173382,0.17344485762220826,0.08959308335,-0.006919768134989304,-0.017079562470680057,-0.0016734014047947105,0.0017967847274770708
2.045686633035075,,0.037222974,0.018801475,0.34833124,-0.69496584,-0.55060166,-0.46245027,-0.7080489,0.41199306,0.5735229,-0.12525639,0.72601616,-0.6761739,,0.0064557493,-0.020966792,0.5800919,0.5428511,-0.8116533,0.21571204,-0.6498475,-0.24325536,0.7200868,-0.53198767,-0.5310798,-0.6595022,,0.02708855,-0.023298157,0.20252514,-0.9916609,0.10840105,0.06969888,0.11622711,0.98591167,0.1202892,-0.05567745,0.12738702,-0.99028903,,-0.33131296303710567,-0.09515179174332018,0.09365435992000001,0.0016775195478761949,0.001503001497419845,0.008330815655785147,-0.002123472859745632,,-1.4642610438844639,0.17344485762220826,0.08959308335,-0.006919768134989304,-0.017079562470680057,-0.0016734014047947105,0.0017967847274770708
2.099043197988067,,0.037222974,0.018801475,0.34833124,-0.69496584,-0.55060166,-0.46245027,-0.7080489,0.41199306,0.5735229,-0.12525639,0.72601616,-0.6761739,,0.0064566117,-0.020967046,0.58009183,0.5428504,-0.811651,0.21572241,-0.6498528,-0.2432507,0.72008365,-0.5319819,-0.5310855,-0.65950227,,0.02708855,-0.023298157,0.20252514,-0.9916609,0.10840105,0.06969888,0.11622711,0.98591167,0.1202892,-0.05567745,0.12738702,-0.99028903,,-0.33131296303710567,-0.09515179174332018,0.09365435992000001,0.0016775195478761949,0.001503001497419845,0.008330815655785147,-0.002123472859745632,,-1.4642687666173382,0.17343713488933404,0.08959308335,-0.006919768134989304,-0.017079562470680057,-0.0016734014047947105,0.0017967847274770708
2.147187640017364,,0.037222974,0.018801475,0.34833124,-0.69496584,-0.55060166,-0.46245027,-0.7080489,0.41199306,0.5735229,-0.12525639,0.72601616,-0.6761739,,0.0064571276,-0.020966897,0.5800922,0.5428514,-0.8116486,0.21572864,-0.6498525,-0.24324597,0.7200855,-0.5319812,-0.53109115,-0.6594982,,0.02708855,-0.023298157,0.20252514,-0.9916609,0.10840105,0.06969888,0.11622711,0.98591167,0.1202892,-0.05567745,0.12738702,-0.99028903,,-0.33131296303710567,-0.09515179174332018,0.09365435992000001,0.0016775195478761949,0.001503001497419845,0.008330815655785147,-0.002123472859745632,,-1.4642764893502125,0.17343713488933404,0.08959308335,-0.006919768134989304,-0.017079562470680057,-0.0016734014047947105,0.0017967847274770708
2.1804658210021444,,0.037222974,0.018801475,0.34833124,-0.69496584,-0.55060166,-0.46245027,-0.7080489,0.41199306,0.5735229,-0.12525639,0.72601616,-0.6761739,,0.006456781,-0.020966487,0.58009255,0.54285306,-0.8116486,0.2157245,-0.649847,-0.24324597,0.7200905,-0.53198636,-0.53109115,-0.65949416,,0.02708855,-0.023298157,0.20252514,-0.9916609,0.10840105,0.06969888,0.11622711,0.98591167,0.1202892,-0.05567745,0.12738702,-0.99028903,,-0.33131296303710567,-0.09515179174332018,0.09365435992000001,0.0016775195478761949,0.001503001497419845,0.008330815655785147,-0.002123472859745632,,-1.4642764893502125,0.17344485762220826,0.08959308335,-0.006919768134989304,-0.017079562470680057,-0.0016734014047947105,0.0017967847274770708
2.2219791450188495,,0.037222974,0.018801475,0.34833124,-0.69496584,-0.55060166,-0.46245027,-0.7080489,0.41199306,0.5735229,-0.12525639,0.72601616,-0.6761739,,0.006456265,-0.020966643,0.5800922,0.54285204,-0.811651,0.21571827,-0.64984727,-0.24325067,0.7200887,-0.531987,-0.5310855,-0.65949816,,0.02708855,-0.023298157,0.20252514,-0.9916609,0.10840105,0.06969888,0.11622711,0.98591167,0.1202892,-0.05567745,0.12738702,-0.99028903,,-0.33131296303710567,-0.09515179174332018,0.09365435992000001,0.0016775195478761949,0.001503001497419845,0.008330815655785147,-0.002123472859745632,,-1.4642687666173382,0.17344485762220826,0.08959308335,-0.006919768134989304,-0.017079562470680057,-0.0016734014047947105,0.0017967847274770708
2.2790791480219923,,0.037221387,0.018801833,0.34833258,-0.69496113,-0.5505925,-0.46246833,-0.70805424,0.41197833,0.57352686,-0.12525263,0.7260315,-0.6761582,,0.0064576436,-0.020966744,0.58009255,0.5428524,-0.8116464,0.21573485,-0.6498523,-0.24324128,0.7200873,-0.5319806,-0.5310968,-0.6594942,,0.02708855,-0.023298157,0.20252514,-0.9916609,0.10840105,0.06969888,0.11622711,0.98591167,0.1202892,-0.05567745,0.12738702,-0.99028903,,-0.33128979483848303,-0.0951595144761944,0.09365435992000001,0.0016775195478761949,0.001503001497419845,0.008330815655785147,-0.002123472859745632,,-1.4642842120830866,0.17343713488933404,0.08959308335,-0.006919768134989304,-0.017079562470680057,-0.0016734014047947105,0.0017967847274770708
2.3110042969929054,,0.037220888,0.018803326,0.3483323,-0.6949643,-0.5505895,-0.46246722,-0.70805013,0.4119734,0.5735355,-0.12525842,0.72603655,-0.67615163,,0.006458327,-0.020966036,0.5800935,0.5428559,-0.8116418,0.21574315,-0.6498462,-0.24323183,0.720096,-0.5319843,-0.5311082,-0.659482,,0.02708855,-0.023298157,0.20252514,-0.9916609,0.10840105,0.06969888,0.11622711,0.98591167,0.1202892,-0.05567745,0.12738702,-0.99028903,,-0.3312820721056088,-0.09515179174332018,0.09365565621000001,0.0016775195478761949,0.001503001497419845,0.008330815655785147,-0.002123472859745632,,-1.464299657548835,0.17344485762220826,0.08959308335,-0.006919768134989304,-0.017079562470680057,-0.0016734014047947105,0.0017967847274770708
2.351805398997385,,0.037219584,0.018802652,0.34833258,-0.6949568,-0.55058634,-0.4624822,-0.7080592,0.4119686,0.5735277,-0.1252484,0.7260417,-0.67614794,,0.0064571276,-0.020966897,0.5800922,0.5428514,-0.8116486,0.21572864,-0.6498525,-0.24324597,0.7200855,-0.5319812,-0.53109115,-0.6594982,,0.02708855,-0.023298157,0.20252514,-0.9916609,0.10840105,0.06969888,0.11622711,0.98591167,0.1202892,-0.05567745,0.12738702,-0.99028903,,-0.33126662663986034,-0.0951595144761944,0.09365565621000001,0.0016775195478761949,0.001503001497419845,0.008330815655785147,-0.002123472859745632,,-1.4642842120830866,0.17343713488933404,0.08959308335,-0.006919768134989304,-0.017079562470680057,-0.0016734014047947105,0.0017967847274770708
2.411017572041601,,0.03722111,0.018802864,0.34833366,-0.6949639,-0.5505864,-0.4624715,-0.7080505,0.41196844,0.57353866,-0.12525894,0.7260417,-0.67614603,,0.00645558,-0.020967359,0.58009124,0.54284847,-0.8116555,0.21570997,-0.64985335,-0.24326013,0.72008,-0.53198326,-0.53107417,-0.6595103,,0.02708855,-0.023298157,0.20252514,-0.9916609,0.10840105,0.06969888,0.11622711,0.98591167,0.1202892,-0.05567745,0.12738702,-0.99028903,,-0.3312743493727346,-0.09515179174332018,0.09365435992000001,0.0016775195478761949,0.001503001497419845,0.008330815655785147,-0.002123472859745632,,-1.4642533211515898,0.17343713488933404,0.08959308335,-0.006919768134989304,-0.017079562470680057,-0.0016734014047947105,0.0017967847274770708
2.462725088989828,,0.037220642,0.018802391,0.34833357,-0.69496036,-0.55058634,-0.46247685,-0.70805484,0.41196853,0.5735332,-0.12525368,0.7260417,-0.676147,,0.006456265,-0.020966643,0.5800922,0.54285204,-0.811651,0.21571827,-0.64984727,-0.24325067,0.7200887,-0.531987,-0.5310855,-0.65949816,,0.02708855,-0.023298157,0.20252514,-0.9916609,0.10840105,0.06969888,0.11622711,0.98591167,0.1202892,-0.05567745,0.12738702,-0.99028903,,-0.3312743493727346,-0.0951595144761944,0.09365435992000001,0.0016775195478761949,0.001503001497419845,0.008330815655785147,-0.002123472859745632,,-1.4642687666173382,0.17344485762220826,0.08959308335,-0.006919768134989304,-0.017079562470680057,-0.0016734014047947105,0.0017967847274770708
2.5030570320086554,,0.037219528,0.018803226,0.34833503,-0.6949591,-0.5505772,-0.4624896,-0.70805573,0.41195375,0.57354265,-0.12525521,0.72605705,-0.67613024,,0.006456433,-0.020966081,0.5800929,0.5428547,-0.81164867,0.21572034,-0.64984137,-0.24324588,0.7200955,-0.5319914,-0.5310912,-0.65949,,0.02708855,-0.023298157,0.20252514,-0.9916609,0.10840105,0.06969888,0.11622711,0.98591167,0.1202892,-0.05567745,0.12738702,-0.99028903,,-0.3312511811741119,-0.0951595144761944,0.09365435992000001,0.0016775195478761949,0.001503001497419845,0.008330815655785147,-0.002123472859745632,,-1.4642764893502125,0.1734525803550825,0.08959308335,-0.006919768134989304,-0.017079562470680057,-0.0016734014047947105,0.0017967847274770708
2.5454907010425813,,0.037219528,0.018803226,0.34833503,-0.6949591,-0.5505772,-0.4624896,-0.70805573,0.41195375,0.57354265,-0.12525521,0.72605705,-0.67613024,,0.006456781,-0.020966487,0.58009255,0.54285306,-0.8116486,0.2157245,-0.649847,-0.24324597,0.7200905,-0.53198636,-0.53109115,-0.65949416,,0.02708855,-0.023298157,0.20252514,-0.9916609,0.10840105,0.06969888,0.11622711,0.98591167,0.1202892,-0.05567745,0.12738702,-0.99028903,,-0.3312511811741119,-0.0951595144761944,0.09365435992000001,0.0016775195478761949,0.001503001497419845,0.008330815655785147,-0.002123472859745632,,-1.4642764893502125,0.17344485762220826,0.08959308335,-0.006919768134989304,-0.017079562470680057,-0.0016734014047947105,0.0017967847274770708
2.60161422600504,,0.037220273,0.018802667,0.34833407,-0.69495994,-0.55058336,-0.46248108,-0.70805514,0.41196358,0.57353634,-0.12525418,0.7260468,-0.67614144,,0.006455926,-0.020967765,0.5800909,0.5428468,-0.8116556,0.21571413,-0.6498589,-0.24326019,0.7200749,-0.53197813,-0.53107405,-0.6595145,,0.02708855,-0.023298157,0.20252514,-0.9916609,0.10840105,0.06969888,0.11622711,0.98591167,0.1202892,-0.05567745,0.12738702,-0.99028903,,-0.33126662663986034,-0.0951595144761944,0.09365435992000001,0.0016775195478761949,0.001503001497419845,0.008330815655785147,-0.002123472859745632,,-1.4642533211515898,0.17342941215645982,0.08959308335,-0.006919768134989304,-0.017079562470680057,-0.0016734014047947105,0.0017967847274770708
2.6337942670215853,,0.037219997,0.018803703,0.3483351,-0.6949627,-0.5505772,-0.46248424,-0.7080514,0.4119537,0.57354814,-0.12526047,0.726057,-0.6761293,,0.006456265,-0.020966643,0.5800922,0.54285204,-0.811651,0.21571827,-0.64984727,-0.24325067,0.7200887,-0.531987,-0.5310855,-0.65949816,,0.02708855,-0.023298157,0.20252514,-0.9916609,0.10840105,0.06969888,0.11622711,0.98591167,0.1202892,-0.05567745,0.12738702,-0.99028903,,-0.3312511811741119,-0.09515179174332018,0.09365435992000001,0.0016775195478761949,0.001503001497419845,0.008330815655785147,-0.002123472859745632,,-1.4642687666173382,0.17344485762220826,0.08959308335,-0.006919768134989304,-0.017079562470680057,-0.0016734014047947105,0.0017967847274770708
2.680603193002753,,0.037220273,0.018802667,0.34833407,-0.69495994,-0.55058336,-0.46248108,-0.70805514,0.41196358,0.57353634,-0.12525418,0.7260468,-0.67614144,,0.006459361,-0.02096573,0.5800942,0.54285794,-0.81163716,0.2157556,-0.6498457,-0.2432224,0.72009957,-0.53198296,-0.5311195,-0.65947396,,0.02708855,-0.023298157,0.20252514,-0.9916609,0.10840105,0.06969888,0.11622711,0.98591167,0.1202892,-0.05567745,0.12738702,-0.99028903,,-0.33126662663986034,-0.0951595144761944,0.09365435992000001,0.0016775195478761949,0.001503001497419845,0.008330815655785147,-0.002123472859745632,,-1.4643151030145836,0.17344485762220826,0.08959308335,-0.006919768134989304,-0.017079562470680057,-0.0016734014047947105,0.0017967847274770708
2.7306821530219167,,0.03717057,0.018877113,0.34831598,-0.695023,-0.5505572,-0.46241724,-0.70798457,0.4119759,0.5736146,-0.12530288,0.7260596,-0.6761186,,0.006662531,-0.020908108,0.5800825,0.54299587,-0.81161076,0.2155071,-0.64970446,-0.24345368,0.7201489,-0.5320146,-0.5310538,-0.65950143,,0.027033288,-0.02327046,0.20252347,-0.9916491,0.10850031,0.06971134,0.11632729,0.98590004,0.1202875,-0.05567717,0.12739235,-0.9902884,,-0.3312511811741119,-0.09514406901044596,0.09365435992000001,0.0016775195478761949,0.001503001497419845,0.008330815655785147,-0.002123472859745632,,-1.4642687666173382,0.17342941215645982,0.08959437964000001,-0.006919768134989304,-0.017079562470680057,-0.0016734014047947105,0.0017967847274770708
2.7577979580382816,,0.037171036,0.018877594,0.34831607,-0.6950266,-0.55055726,-0.46241194,-0.7079802,0.41197583,0.5736201,-0.12530814,0.7260596,-0.67611766,,0.006662946,-0.020908343,0.5800843,0.5429995,-0.8116061,0.21551538,-0.6496984,-0.24344422,0.7201576,-0.5320184,-0.53106517,-0.6594893,,0.027033288,-0.02327046,0.20252347,-0.9916491,0.10850031,0.06971134,0.11632729,0.98590004,0.1202875,-0.05567717,0.12739235,-0.9902884,,-0.3312511811741119,-0.09513634627757174,0.09365435992000001,0.0016775195478761949,0.001503001497419845,0.008330815655785147,-0.002123472859745632,,-1.4642842120830866,0.17343713488933404,0.08959308335,-0.006919768134989304,-0.017079562470680057,-0.0016734014047947105,0.0017967847274770708
2.79706278804224,,0.03717141,0.01887731,0.3483156,-0.695027,-0.55056024,-0.46240762,-0.7079799,0.41198075,0.5736169,-0.12530763,0.72605455,-0.6761232,,0.006660886,-0.02090895,0.580083,0.5429956,-0.81161535,0.21549049,-0.6496994,-0.24346307,0.72015023,-0.53202105,-0.53104246,-0.65950537,,0.027033288,-0.02327046,0.20252347,-0.9916491,0.10850031,0.06971134,0.11632729,0.98590004,0.1202875,-0.05567717,0.12739235,-0.9902884,,-0.33125890390698615,-0.09513634627757174,0.09365435992000001,0.0016775195478761949,0.001503001497419845,0.008330815655785147,-0.002123472859745632,,-1.4642533211515898,0.17343713488933404,0.08959308335,-0.006919768134989304,-0.017079562470680057,-0.0016734014047947105,0.0017967847274770708
2.8473779420019127,,0.037172344,0.018878264,0.34831578,-0.695034,-0.55056036,-0.46239695,-0.70797104,0.41198066,0.5736278,-0.12531817,0.7260545,-0.6761213,,0.0066632964,-0.020908749,0.58008397,0.54299784,-0.81160617,0.21551952,-0.6497039,-0.24344425,0.72015256,-0.53201324,-0.5310651,-0.6594933,,0.027033288,-0.02327046,0.20252347,-0.9916491,0.10850031,0.06971134,0.11632729,0.98590004,0.1202875,-0.05567717,0.12739235,-0.9902884,,-0.33125890390698615,-0.09512090081182328,0.09365435992000001,0.0016775195478761949,0.001503001497419845,0.008330815655785147,-0.002123472859745632,,-1.4642842120830866,0.17342941215645982,0.08959308335,-0.006919768134989304,-0.017079562470680057,-0.0016734014047947105,0.0017967847274770708
2.8781816950067878,,0.037170663,0.01887787,0.34831655,-0.69502616,-0.55055416,-0.46241614,-0.7079805,0.4119709,0.57362324,-0.12530865,0.7260647,-0.6761121,,0.0066627804,-0.020908901,0.58008367,0.5429968,-0.8116085,0.2155133,-0.6497043,-0.24344897,0.72015077,-0.53201395,-0.53105944,-0.65949744,,0.027033288,-0.02327046,0.20252347,-0.9916491,0.10850031,0.06971134,0.11632729,0.98590004,0.1202875,-0.05567717,0.12739235,-0.9902884,,-0.33123573570836345,-0.09513634627757174,0.09365435992000001,0.0016775195478761949,0.001503001497419845,0.008330815655785147,-0.002123472859745632,,-1.4642764893502125,0.17342941215645982,0.08959308335,-0.006919768134989304,-0.017079562470680057,-0.0016734014047947105,0.0017967847274770708
2.9211927549913526,,0.03717141,0.01887731,0.3483156,-0.695027,-0.55056024,-0.46240762,-0.7079799,0.41198075,0.5736169,-0.12530763,0.72605455,-0.6761232,,0.0066612232,-0.020907825,0.5800844,0.5430008,-0.81161076,0.21549465,-0.64968777,-0.24345355,0.72016406,-0.5320299,-0.53105384,-0.65948904,,0.027033288,-0.02327046,0.20252347,-0.9916491,0.10850031,0.06971134,0.11632729,0.98590004,0.1202875,-0.05567717,0.12739235,-0.9902884,,-0.33125890390698615,-0.09513634627757174,0.09365435992000001,0.0016775195478761949,0.001503001497419845,0.008330815655785147,-0.002123472859745632,,-1.4642687666173382,0.1734525803550825,0.08959308335,-0.006919768134989304,-0.017079562470680057,-0.0016734014047947105,0.0017967847274770708
2.9595389760215767,,0.037170663,0.01887787,0.34831655,-0.69502616,-0.55055416,-0.46241614,-0.7079805,0.4119709,0.57362324,-0.12530865,0.7260647,-0.6761121,,0.0066621825,-0.020907694,0.58008283,0.54299754,-0.81161076,0.21550295,-0.6496989,-0.24345365,0.7201539,-0.53201973,-0.5310538,-0.6594973,,0.027033288,-0.02327046,0.20252347,-0.9916491,0.10850031,0.06971134,0.11632729,0.98590004,0.1202875,-0.05567717,0.12739235,-0.9902884,,-0.33124345844123765,-0.09513634627757174,0.09365435992000001,0.0016775195478761949,0.001503001497419845,0.008330815655785147,-0.002123472859745632,,-1.4642687666173382,0.17342941215645982,0.08959437964000001,-0.006919768134989304,-0.017079562470680057,-0.0016734014047947105,0.0017967847274770708
2.9996253960416652,,0.037171036,0.018877594,0.34831607,-0.6950266,-0.55055726,-0.46241194,-0.7079802,0.41197583,0.5736201,-0.12530814,0.7260596,-0.67611766,,0.0066628754,-0.020908521,0.5800822,0.5429942,-0.81161076,0.21551125,-0.64970994,-0.24345374,0.7201439,-0.5320095,-0.5310538,-0.6595056,,0.027033288,-0.02327046,0.20252347,-0.9916491,0.10850031,0.06971134,0.11632729,0.98590004,0.1202875,-0.05567717,0.12739235,-0.9902884,,-0.3312511811741119,-0.09513634627757174,0.09365435992000001,0.0016775195478761949,0.001503001497419845,0.008330815655785147,-0.002123472859745632,,-1.4642687666173382,0.1734216894235856,0.08959437964000001,-0.006919768134989304,-0.017079562470680057,-0.0016734014047947105,0.0017967847274770708
3.037813136004843,,0.037171505,0.01887807,0.34831616,-0.69503003,-0.55055726,-0.46240652,-0.7079758,0.41197577,0.5736255,-0.12531342,0.7260596,-0.6761167,,0.006662084,-0.020908082,0.5800844,0.54300016,-0.81160843,0.215505,-0.6496931,-0.24344888,0.7201608,-0.53202415,-0.5310595,-0.6594891,,0.027033288,-0.02327046,0.20252347,-0.9916491,0.10850031,0.06971134,0.11632729,0.98590004,0.1202875,-0.05567717,0.12739235,-0.9902884,,-0.3312511811741119,-0.0951286235446975,0.09365435992000001,0.0016775195478761949,0.001503001497419845,0.008330815655785147,-0.002123472859745632,,-1.4642687666173382,0.17344485762220826,0.08959437964000001,-0.006919768134989304,-0.017079562470680057,-0.0016734014047947105,0.0017967847274770708
3.0869547899928875,,0.037170015,0.01887918,0.3483181,-0.6950285,-0.55054504,-0.46242353,-0.707977,0.41195613,0.57363814,-0.12531546,0.72608,-0.6760944,,0.0066611487,-0.020908004,0.5800822,0.5429956,-0.81161535,0.21549049,-0.6496994,-0.24346307,0.72015023,-0.53202105,-0.53104246,-0.65950537,,0.027033288,-0.02327046,0.20252347,-0.9916491,0.10850031,0.06971134,0.11632729,0.98590004,0.1202875,-0.05567717,0.12739235,-0.9902884,,-0.331220290242615,-0.0951286235446975,0.09365435992000001,0.0016775195478761949,0.001503001497419845,0.008330815655785147,-0.002123472859745632,,-1.4642533211515898,0.17343713488933404,0.08959437964000001,-0.006919768134989304,-0.017079562470680057,-0.0016734014047947105,0.0017967847274770708
3.1313937589875422,,0.037171133,0.018878346,0.34831664,-0.69502974,-0.55055416,-0.4624108,-0.70797616,0.41197085,0.5736287,-0.12531392,0.72606474,-0.6761111,,0.006662432,-0.020908492,0.580084,0.5429985,-0.8116085,0.21550918,-0.6496987,-0.24344894,0.7201557,-0.5320191,-0.5310595,-0.6594933,,0.027033288,-0.02327046,0.20252347,-0.9916491,0.10850031,0.06971134,0.11632729,0.98590004,0.1202875,-0.05567717,0.12739235,-0.9902884,,-0.33124345844123765,-0.0951286235446975,0.09365435992000001,0.0016775195478761949,0.001503001497419845,0.008330815655785147,-0.002123472859745632,,-1.4642764893502125,0.17343713488933404,0.08959308335,-0.006919768134989304,-0.017079562470680057,-0.0016734014047947105,0.0017967847274770708
3.164001758035738,,0.037169643,0.018879456,0.34831858,-0.695028,-0.55054194,-0.4624277,-0.7079773,0.41195118,0.57364136,-0.12531596,0.7260852,-0.67608887,,0.006662084,-0.020908082,0.5800844,0.54300016,-0.81160843,0.215505,-0.6496931,-0.24344888,0.7201608,-0.53202415,-0.5310595,-0.6594891,,0.027033288,-0.02327046,0.20252347,-0.9916491,0.10850031,0.06971134,0.11632729,0.98590004,0.1202875,-0.05567717,0.12739235,-0.9902884,,-0.33121256750974076,-0.0951286235446975,0.09365435992000001,0.0016775195478761949,0.001503001497419845,0.008330815655785147,-0.002123472859745632,,-1.4642764893502125,0.17344485762220826,0.08959308335,-0.006919768134989304,-0.017079562470680057,-0.0016734014047947105,0.0017967847274770708
3.2104597369907424,,0.037172195,0.018878086,0.34831762,-0.69503325,-0.5505542,-0.46240538,-0.7079717,0.4119708,0.57363415,-0.12531918,0.72606474,-0.67611015,,0.006661402,-0.020908797,0.5800834,0.54299664,-0.81161314,0.21549672,-0.64969915,-0.24345838,0.7201521,-0.5320204,-0.5310481,-0.6595013,,0.027033288,-0.02327046,0.20252347,-0.9916491,0.10850031,0.06971134,0.11632729,0.98590004,0.1202875,-0.05567717,0.12739235,-0.9902884,,-0.33124345844123765,-0.09512090081182328,0.09365306363,0.0016775195478761949,0.001503001497419845,0.008330815655785147,-0.002123472859745632,,-1.4642610438844639,0.17343713488933404,0.08959308335,-0.006919768134989304,-0.017079562470680057,-0.0016734014047947105,0.0017967847274770708
3.264644531009253,,0.037172787,0.018877348,0.34831852,-0.69503325,-0.5505542,-0.46240538,-0.7079717,0.4119708,0.57363415,-0.12531918,0.72606474,-0.67611015,,0.006661402,-0.020908797,0.5800834,0.54299664,-0.81161314,0.21549672,-0.64969915,-0.24345838,0.7201521,-0.5320204,-0.5310481,-0.6595013,,0.027033288,-0.02327046,0.20252347,-0.9916491,0.10850031,0.06971134,0.11632729,0.98590004,0.1202875,-0.05567717,0.12739235,-0.9902884,,-0.33124345844123765,-0.09512090081182328,0.09365176734000001,0.0016775195478761949,0.001503001497419845,0.008330815655785147,-0.002123472859745632,,-1.4642610438844639,0.17343713488933404,0.08959308335,-0.006919768134989304,-0.017079562470680057,-0.0016734014047947105,0.0017967847274770708
3.2984807250322774,,0.0371713,0.018878458,0.34832042,-0.6950316,-0.550542,-0.4624224,-0.7079729,0.4119511,0.5736468,-0.12532124,0.7260852,-0.67608786,,0.0066626985,-0.020907545,0.58008313,0.5429985,-0.8116085,0.21550918,-0.6496987,-0.24344894,0.7201557,-0.5320191,-0.5310595,-0.6594933,,0.027033288,-0.02327046,0.20252347,-0.9916491,0.10850031,0.06971134,0.11632729,0.98590004,0.1202875,-0.05567717,0.12739235,-0.9902884,,-0.33121256750974076,-0.09512090081182328,0.09365176734000001,0.0016775195478761949,0.001503001497419845,0.008330815655785147,-0.002123472859745632,,-1.4642764893502125,0.17343713488933404,0.08959437964000001,-0.006919768134989304,-0.017079562470680057,-0.0016734014047947105,0.0017967847274770708
3.339991777029354,,0.03717204,0.018877907,0.34831947,-0.6950324,-0.5505481,-0.46241397,-0.7079722,0.41196096,0.57364047,-0.1253202,0.72607493,-0.676099,,0.0066627804,-0.020908901,0.58008367,0.5429968,-0.8116085,0.2155133,-0.6497043,-0.24344897,0.72015077,-0.53201395,-0.53105944,-0.65949744,,0.027033288,-0.02327046,0.20252347,-0.9916491,0.10850031,0.06971134,0.11632729,0.98590004,0.1202875,-0.05567717,0.12739235,-0.9902884,,-0.3312280129754892,-0.09512090081182328,0.09365176734000001,0.0016775195478761949,0.001503001497419845,0.008330815655785147,-0.002123472859745632,,-1.4642764893502125,0.17342941215645982,0.08959308335,-0.006919768134989304,-0.017079562470680057,-0.0016734014047947105,0.0017967847274770708
3.398126696003601,,0.037172787,0.018877348,0.34831852,-0.69503325,-0.5505542,-0.46240538,-0.7079717,0.4119708,0.57363415,-0.12531918,0.72606474,-0.67611015,,0.0066619143,-0.020908648,0.5800837,0.54299754,-0.81161076,0.21550295,-0.6496989,-0.24345365,0.7201539,-0.53201973,-0.5310538,-0.6594973,,0.027033288,-0.02327046,0.20252347,-0.9916491,0.10850031,0.06971134,0.11632729,0.98590004,0.1202875,-0.05567717,0.12739235,-0.9902884,,-0.33124345844123765,-0.09512090081182328,0.09365176734000001,0.0016775195478761949,0.001503001497419845,0.008330815655785147,-0.002123472859745632,,-1.4642687666173382,0.17343713488933404,0.08959308335,-0.006919768134989304,-0.017079562470680057,-0.0016734014047947105,0.0017967847274770708
3.4303045390406623,,0.037171576,0.01887743,0.34831935,-0.69502884,-0.5505481,-0.46241933,-0.70797676,0.41196102,0.57363504,-0.12531495,0.72607493,-0.67609996,,0.0066615697,-0.02090823,0.580084,0.54299927,-0.81161076,0.2154988,-0.64969337,-0.24345358,0.72015893,-0.5320248,-0.53105384,-0.6594932,,0.027033288,-0.02327046,0.20252347,-0.9916491,0.10850031,0.06971134,0.11632729,0.98590004,0.1202875,-0.05567717,0.12739235,-0.9902884,,-0.3312280129754892,-0.0951286235446975,0.09365176734000001,0.0016775195478761949,0.001503001497419845,0.008330815655785147,-0.002123472859745632,,-1.4642687666173382,0.17344485762220826,0.08959308335,-0.006919768134989304,-0.017079562470680057,-0.0016734014047947105,0.0017967847274770708
3.4683576020179316,,0.0371713,0.018878458,0.34832042,-0.6950316,-0.550542,-0.4624224,-0.7079729,0.4119511,0.5736468,-0.12532124,0.7260852,-0.67608786,,0.0066622645,-0.020909054,0.5800834,0.54299587,-0.81161076,0.2155071,-0.64970446,-0.24345368,0.7201489,-0.5320146,-0.5310538,-0.65950143,,0.027033288,-0.02327046,0.20252347,-0.9916491,0.10850031,0.06971134,0.11632729,0.98590004,0.1202875,-0.05567717,0.12739235,-0.9902884,,-0.33121256750974076,-0.09512090081182328,0.09365176734000001,0.0016775195478761949,0.001503001497419845,0.008330815655785147,-0.002123472859745632,,-1.4642687666173382,0.17342941215645982,0.08959308335,-0.006919768134989304,-0.017079562470680057,-0.0016734014047947105,0.0017967847274770708
3.5077622680109926,,0.037170365,0.018877504,0.34832025,-0.69502455,-0.55054194,-0.46243322,-0.70798177,0.41195124,0.5736358,-0.12531072,0.7260852,-0.6760898,,0.006662084,-0.020908082,0.5800844,0.54300016,-0.81160843,0.215505,-0.6496931,-0.24344888,0.7201608,-0.53202415,-0.5310595,-0.6594891,,0.027033288,-0.02327046,0.20252347,-0.9916491,0.10850031,0.06971134,0.11632729,0.98590004,0.1202875,-0.05567717,0.12739235,-0.9902884,,-0.33121256750974076,-0.09513634627757174,0.09365176734000001,0.0016775195478761949,0.001503001497419845,0.008330815655785147,-0.002123472859745632,,-1.4642764893502125,0.17344485762220826,0.08959308335,-0.006919768134989304,-0.017079562470680057,-0.0016734014047947105,0.0017967847274770708
3.561235286993906,,0.037172414,0.018877627,0.34831896,-0.69503284,-0.5505512,-0.4624097,-0.70797193,0.41196588,0.5736373,-0.1253197,0.72606987,-0.6761046,,0.006662432,-0.020908492,0.580084,0.5429985,-0.8116085,0.21550918,-0.6496987,-0.24344894,0.7201557,-0.5320191,-0.5310595,-0.6594933,,0.027033288,-0.02327046,0.20252347,-0.9916491,0.10850031,0.06971134,0.11632729,0.98590004,0.1202875,-0.05567717,0.12739235,-0.9902884,,-0.33123573570836345,-0.09512090081182328,0.09365176734000001,0.0016775195478761949,0.001503001497419845,0.008330815655785147,-0.002123472859745632,,-1.4642764893502125,0.17343713488933404,0.08959308335,-0.006919768134989304,-0.017079562470680057,-0.0016734014047947105,0.0017967847274770708
3.6007704110234044,,0.037171673,0.018878182,0.34831995,-0.695032,-0.55054504,-0.46241814,-0.7079726,0.41195607,0.5736436,-0.12532073,0.72608,-0.6760934,,0.0066627804,-0.020908901,0.58008367,0.5429968,-0.8116085,0.2155133,-0.6497043,-0.24344897,0.72015077,-0.53201395,-0.53105944,-0.65949744,,0.027033288,-0.02327046,0.20252347,-0.9916491,0.10850031,0.06971134,0.11632729,0.98590004,0.1202875,-0.05567717,0.12739235,-0.9902884,,-0.331220290242615,-0.09512090081182328,0.09365176734000001,0.0016775195478761949,0.001503001497419845,0.008330815655785147,-0.002123472859745632,,-1.4642764893502125,0.17342941215645982,0.08959308335,-0.006919768134989304,-0.017079562470680057,-0.0016734014047947105,0.0017967847274770708
3.634121229988523,,0.037171207,0.01887771,0.34831986,-0.6950285,-0.55054504,-0.46242353,-0.707977,0.41195613,0.57363814,-0.12531546,0.72608,-0.6760944,,0.006662084,-0.020908082,0.5800844,0.54300016,-0.81160843,0.215505,-0.6496931,-0.24344888,0.7201608,-0.53202415,-0.5310595,-0.6594891,,0.027033288,-0.02327046,0.20252347,-0.9916491,0.10850031,0.06971134,0.11632729,0.98590004,0.1202875,-0.05567717,0.12739235,-0.9902884,,-0.331220290242615,-0.0951286235446975,0.09365176734000001,0.0016775195478761949,0.001503001497419845,0.008330815655785147,-0.002123472859745632,,-1.4642764893502125,0.17344485762220826,0.08959308335,-0.006919768134989304,-0.017079562470680057,-0.0016734014047947105,0.0017967847274770708
3.6951622529886663,,0.037182003,0.01887293,0.34830862,-0.6950523,-0.5506185,-0.46230018,-0.707952,0.412074,0.5735843,-0.12532426,0.72595745,-0.6762244,,0.0066625997,-0.02090793,0.5800847,0.5430011,-0.81160617,0.21551122,-0.6496928,-0.24344416,0.7201626,-0.5320235,-0.53106517,-0.6594851,,0.027033288,-0.02327046,0.20252347,-0.9916491,0.10850031,0.06971134,0.11632729,0.98590004,0.1202875,-0.05567717,0.12739235,-0.9902884,,-0.3314056358315964,-0.0950977326132006,0.09365176734000001,0.0016775195478761949,0.001503001497419845,0.008330815655785147,-0.002123472859745632,,-1.4642842120830866,0.17344485762220826,0.08959308335,-0.006919768134989304,-0.017079562470680057,-0.0016734014047947105,0.0017967847274770708
3.7338195799966343,,0.037177697,0.018861273,0.34830177,-0.6949932,-0.5506514,-0.46234992,-0.70802784,0.4121291,0.57345116,-0.12522379,0.72590125,-0.6763033,,0.0066615697,-0.02090823,0.580084,0.54299927,-0.81161076,0.2154988,-0.64969337,-0.24345358,0.72015893,-0.5320248,-0.53105384,-0.6594932,,0.027033288,-0.02327046,0.20252347,-0.9916491,0.10850031,0.06971134,0.11632729,0.98590004,0.1202875,-0.05567717,0.12739235,-0.9902884,,-0.33149058589321284,-0.09523674180493666,0.09365176734000001,0.0016775195478761949,0.001503001497419845,0.008330815655785147,-0.002123472859745632,,-1.4642687666173382,0.17344485762220826,0.08959308335,-0.006919768134989304,-0.017079562470680057,-0.0016734014047947105,0.0017967847274770708
3.8021463790209964,,0.037213802,0.018846126,0.34826303,-0.6950756,-0.550899,-0.46193075,-0.7079412,0.41252685,0.57327205,-0.12525615,0.72548723,-0.6767415,,0.0066619143,-0.020908648,0.5800837,0.54299754,-0.81161076,0.21550295,-0.6496989,-0.24345365,0.7201539,-0.53201973,-0.5310538,-0.6594973,,0.027033288,-0.02327046,0.20252347,-0.9916491,0.10850031,0.06971134,0.11632729,0.98590004,0.1202875,-0.05567717,0.12739235,-0.9902884,,-0.332116127256025,-0.0951286235446975,0.09365306363,0.0016775195478761949,0.001503001497419845,0.008330815655785147,-0.002123472859745632,,-1.4642687666173382,0.17343713488933404,0.08959308335,-0.006919768134989304,-0.017079562470680057,-0.0016734014047947105,0.0017967847274770708
3.8329329970292747,,0.03722627,0.018868746,0.3482754,-0.6952064,-0.5508487,-0.46179393,-0.7077748,0.41244113,0.57353914,-0.12547046,0.7255742,-0.6766085,,0.006662084,-0.020908082,0.5800844,0.54300016,-0.81160843,0.215505,-0.6496931,-0.24344888,0.7201608,-0.53202415,-0.5310595,-0.6594891,,0.027033288,-0.02327046,0.20252347,-0.9916491,0.10850031,0.06971134,0.11632729,0.98590004,0.1202875,-0.05567717,0.12739235,-0.9902884,,-0.3319848407971632,-0.09482743696260275,0.09365176734000001,0.0016775195478761949,0.001503001497419845,0.008330815655785147,-0.002123472859745632,,-1.4642764893502125,0.17344485762220826,0.08959308335,-0.006919768134989304,-0.017079562470680057,-0.0016734014047947105,0.0017967847274770708
3.8820010109920986,,0.03727108,0.018835835,0.3483316,-0.6952725,-0.5506532,-0.46192756,-0.70766884,0.41206023,0.5739436,-0.12570193,0.7259389,-0.67617416,,0.0065772478,-0.020924628,0.58006877,0.542944,-0.8116252,0.21558338,-0.6497314,-0.24335586,0.7201578,-0.53203464,-0.5310766,-0.659467,,0.027058916,-0.023281388,0.20252167,-0.9916557,0.10844461,0.069704354,0.116271086,0.9859066,0.120288454,-0.05567733,0.12738934,-0.99028873,,-0.3313979130987222,-0.09448763671613687,0.09365047105,0.0016775195478761949,0.001503001497419845,0.008330815655785147,-0.002123472859745632,,-1.4642687666173382,0.17344485762220826,0.08959308335,-0.006919768134989304,-0.017079562470680057,-0.0016734014047947105,0.0017967847274770708
3.9268501870101318,,0.0372103,0.018836994,0.34836963,-0.6951555,-0.5504746,-0.46231657,-0.7077967,0.4117368,0.5740181,-0.12562962,0.72625786,-0.675845,,0.006577594,-0.020925034,0.5800684,0.5429424,-0.8116252,0.21558754,-0.64973694,-0.24335591,0.7201527,-0.53202957,-0.53107655,-0.65947104,,0.027058916,-0.023281388,0.20252167,-0.9916557,0.10844461,0.069704354,0.116271086,0.9859066,0.120288454,-0.05567733,0.12738934,-0.99028873,,-0.3307105898729162,-0.09494327795571612,0.09365306363,0.0016775195478761949,0.0017762744969507258,0.008107979848392302,-0.002123472859745632,,-1.4642687666173382,0.17343713488933404,0.08959308335,-0.006919768134989304,-0.017079562470680057,-0.0016734014047947105,0.0017967847274770708
3.965592710999772,,0.037160575,0.018846061,0.3484107,-0.6949984,-0.55019516,-0.46288502,-0.70797443,0.41129056,0.5741188,-0.1254971,0.72672236,-0.6753702,,0.006577594,-0.020925034,0.5800684,0.5429424,-0.8116252,0.21558754,-0.64973694,-0.24335591,0.7201527,-0.53202957,-0.53107655,-0.65947104,,0.027058916,-0.023281388,0.20252167,-0.9916557,0.10844461,0.069704354,0.116271086,0.9859066,0.120288454,-0.05567733,0.12738934,-0.99028873,,-0.33000782118136174,-0.09520585087343976,0.09365306363,0.0016775195478761949,0.0017762744969507258,0.008107979848392302,-0.002123472859745632,,-1.4642687666173382,0.17343713488933404,0.08959308335,-0.006919768134989304,-0.017079562470680057,-0.0016734014047947105,0.0017967847274770708
4.004809414036572,,0.037120365,0.01886813,0.34845442,-0.69492483,-0.5499071,-0.46333748,-0.7080474,0.41082805,0.5743599,-0.12549256,0.72720176,-0.6748548,,0.006579142,-0.020924583,0.5800694,0.54294527,-0.8116183,0.2156062,-0.64973617,-0.2433418,0.72015816,-0.53202754,-0.5310936,-0.659459,,0.027058916,-0.023281388,0.20252167,-0.9916557,0.10844461,0.069704354,0.116271086,0.9859066,0.120288454,-0.05567733,0.12738934,-0.99028873,,-0.32928188429118466,-0.095283078202182,0.09365435992000001,0.0016775195478761949,0.0017762744969507258,0.008107979848392302,-0.002123472859745632,,-1.4642919348159609,0.17343713488933404,0.08959308335,-0.006919768134989304,-0.017079562470680057,-0.0016734014047947105,0.0017967847274770708
4.057915632030927,,0.037097804,0.018907558,0.3485008,-0.69498295,-0.54962325,-0.4635871,-0.70795673,0.41036835,0.5748001,-0.12568198,0.7276758,-0.6743084,,0.0065772478,-0.020924628,0.58006877,0.542944,-0.8116252,0.21558338,-0.6497314,-0.24335586,0.7201578,-0.53203464,-0.5310766,-0.659467,,0.027058916,-0.023281388,0.20252167,-0.9916557,0.10844461,0.069704354,0.116271086,0.9859066,0.120288454,-0.05567733,0.12738934,-0.99028873,,-0.32856367013388177,-0.09507456441457794,0.09365565621000001,0.0016775195478761949,0.0017762744969507258,0.008107979848392302,-0.002123472859745632,,-1.4642687666173382,0.17344485762220826,0.08959308335,-0.006919768134989304,-0.017079562470680057,-0.0016734014047947105,0.0017967847274770708
4.096403103030752,,0.03707653,0.018902265,0.34850883,-0.6948814,-0.5495518,-0.4638239,-0.70807856,0.41025636,0.57473004,-0.12555718,0.72779286,-0.6742052,,0.006576732,-0.020924777,0.5800684,0.5429431,-0.8116275,0.21557716,-0.6497317,-0.24336055,0.72015595,-0.53203535,-0.53107095,-0.6594709,,0.027058916,-0.023281388,0.20252167,-0.9916557,0.10844461,0.069704354,0.116271086,0.9859066,0.120288454,-0.05567733,0.12738934,-0.99028873,,-0.3283860472777746,-0.09527535546930778,0.09365695250000002,0.0016775195478761949,0.0017762744969507258,0.008107979848392302,-0.002123472859745632,,-1.4642610438844639,0.17344485762220826,0.08959308335,-0.006919768134989304,-0.017079562470680057,-0.0016734014047947105,0.0017967847274770708
4.137287029996514,,0.03705453,0.018888943,0.34851256,-0.69474804,-0.54950756,-0.46407622,-0.7082417,0.41018918,0.5745769,-0.1253753,0.7278642,-0.6741621,,0.006579319,-0.020925555,0.58006835,0.5429411,-0.8116207,0.21560827,-0.6497475,-0.24334659,0.72014624,-0.532018,-0.5310879,-0.6594713,,0.027058916,-0.023281388,0.20252167,-0.9916557,0.10844461,0.069704354,0.116271086,0.9859066,0.120288454,-0.05567733,0.12738934,-0.99028873,,-0.32827792901753544,-0.09555337385277986,0.09365695250000002,0.0016775195478761949,0.0017762744969507258,0.008107979848392302,-0.002123472859745632,,-1.4642842120830866,0.1734216894235856,0.08959308335,-0.006919768134989304,-0.017079562470680057,-0.0016734014047947105,0.0017967847274770708
4.178577380022034,,0.037041515,0.018856533,0.34849423,-0.69457877,-0.54959446,-0.46422645,-0.70845765,0.41033477,0.5742066,-0.12509249,0.7277164,-0.67437416,,0.0065782797,-0.020924322,0.5800694,0.542946,-0.8116207,0.21559583,-0.6497308,-0.24334642,0.7201614,-0.5320333,-0.53108793,-0.6594589,,0.027058916,-0.023281388,0.20252167,-0.9916557,0.10844461,0.069704354,0.116271086,0.9859066,0.120288454,-0.05567733,0.12738934,-0.99028873,,-0.3285096110037622,-0.09595495596223953,0.09365695250000002,0.0016775195478761949,0.0017762744969507258,0.008107979848392302,-0.002123472859745632,,-1.4642842120830866,0.17344485762220826,0.08959308335,-0.006919768134989304,-0.017079562470680057,-0.0016734014047947105,0.0017967847274770708
4.231799315020908,,0.03705,0.018823765,0.34846106,-0.69449085,-0.54978627,-0.46413085,-0.7085792,0.41064692,0.57383335,-0.12489181,0.7273954,-0.6747576,,0.00657811,-0.020924885,0.5800687,0.54294336,-0.8116229,0.21559376,-0.6497367,-0.24335119,0.72015446,-0.53202885,-0.5310822,-0.659467,,0.027058916,-0.023281388,0.20252167,-0.9916557,0.10844461,0.069704354,0.116271086,0.9859066,0.120288454,-0.05567733,0.12738934,-0.99028873,,-0.32898842044196414,-0.09619436068134049,0.09365695250000002,0.0016775195478761949,0.0017762744969507258,0.008107979848392302,-0.002123472859745632,,-1.4642764893502125,0.17343713488933404,0.08959308335,-0.006919768134989304,-0.017079562470680057,-0.0016734014047947105,0.0017967847274770708
4.2622599879978225,,0.037051488,0.018822655,0.34845912,-0.6944926,-0.54979855,-0.4641139,-0.708578,0.41066664,0.57382077,-0.12488975,0.72737503,-0.67477995,,0.00657811,-0.020924885,0.5800687,0.54294336,-0.8116229,0.21559376,-0.6497367,-0.24335119,0.72015446,-0.53202885,-0.5310822,-0.659467,,0.027058916,-0.023281388,0.20252167,-0.9916557,0.10844461,0.069704354,0.116271086,0.9859066,0.120288454,-0.05567733,0.12738934,-0.99028873,,-0.329019311373461,-0.09619436068134049,0.09365695250000002,0.0016775195478761949,0.0017762744969507258,0.008107979848392302,-0.002123472859745632,,-1.4642764893502125,0.17343713488933404,0.08959308335,-0.006919768134989304,-0.017079562470680057,-0.0016734014047947105,0.0017967847274770708
4.304045724042226,,0.037036844,0.018806323,0.34845537,-0.69437623,-0.5498035,-0.46428213,-0.7087227,0.4106782,0.5736337,-0.124715246,0.7273647,-0.6748233,,0.00657811,-0.020924885,0.5800687,0.54294336,-0.8116229,0.21559376,-0.6497367,-0.24335119,0.72015446,-0.53202885,-0.5310822,-0.659467,,0.027058916,-0.023281388,0.20252167,-0.9916557,0.10844461,0.069704354,0.116271086,0.9859066,0.120288454,-0.05567733,0.12738934,-0.99028873,,-0.32903475683920946,-0.0964492108661899,0.09365695250000002,0.0016775195478761949,0.0017762744969507258,0.008107979848392302,-0.002123472859745632,,-1.4642764893502125,0.17343713488933404,0.08959308335,-0.006919768134989304,-0.017079562470680057,-0.0016734014047947105,0.0017967847274770708
4.352757168002427,,0.037015975,0.01879216,0.3484577,-0.6942438,-0.5497684,-0.46452153,-0.70888466,0.41062585,0.57347107,-0.12453171,0.7274208,-0.6747967,,0.0065777637,-0.020924471,0.58006907,0.542945,-0.8116229,0.21558961,-0.64973116,-0.24335113,0.7201596,-0.532034,-0.5310823,-0.65946287,,0.027058916,-0.023281388,0.20252167,-0.9916557,0.10844461,0.069704354,0.116271086,0.9859066,0.120288454,-0.05567733,0.12738934,-0.99028873,,-0.328949806777593,-0.09672722924966198,0.09365695250000002,0.0016775195478761949,0.0017762744969507258,0.008107979848392302,-0.002123472859745632,,-1.4642764893502125,0.17344485762220826,0.08959308335,-0.006919768134989304,-0.017079562470680057,-0.0016734014047947105,0.0017967847274770708
4.391840874042828,,0.036990307,0.018774427,0.34845835,-0.6940793,-0.54973304,-0.46480903,-0.7090862,0.41057396,0.573259,-0.1243009,0.72747684,-0.6747789,,0.0065774247,-0.0209256,0.5800677,0.5429398,-0.81162757,0.21558547,-0.6497428,-0.24336064,0.7201458,-0.5320251,-0.5310709,-0.6594792,,0.027058916,-0.023281388,0.20252167,-0.9916557,0.10844461,0.069704354,0.116271086,0.9859066,0.120288454,-0.05567733,0.12738934,-0.99028873,,-0.3288571339831023,-0.09708247496187632,0.09365824879000001,0.0016775195478761949,0.0017762744969507258,0.008107979848392302,-0.002123472859745632,,-1.4642610438844639,0.17342941215645982,0.08959308335,-0.006919768134989304,-0.017079562470680057,-0.0016734014047947105,0.0017967847274770708
4.431566892017145,,0.036973976,0.018771462,0.34846884,-0.6940058,-0.5496619,-0.4650029,-0.7091726,0.41046154,0.5732326,-0.1242183,0.727594,-0.6746677,,0.0065765623,-0.020925343,0.58006775,0.5429405,-0.81162983,0.2155751,-0.6497375,-0.24336535,0.72014904,-0.5320309,-0.5310652,-0.6594791,,0.027058916,-0.023281388,0.20252167,-0.9916557,0.10844461,0.069704354,0.116271086,0.9859066,0.120288454,-0.05567733,0.12738934,-0.99028873,,-0.32868723385986937,-0.09721376142073813,0.09365695250000002,0.0016775195478761949,0.0017762744969507258,0.008107979848392302,-0.002123472859745632,,-1.4642533211515898,0.17343713488933404,0.08959308335,-0.006919768134989304,-0.017079562470680057,-0.0016734014047947105,0.0017967847274770708
4.50264610000886,,0.03696498,0.018783957,0.3484854,-0.6940171,-0.5495611,-0.4651053,-0.70915216,0.41029853,0.5733746,-0.12427233,0.72776216,-0.67447644,,0.006578626,-0.020924732,0.58006907,0.5429444,-0.8116207,0.21559995,-0.6497364,-0.2433465,0.7201564,-0.5320282,-0.5310879,-0.659463,,0.027058916,-0.023281388,0.20252167,-0.9916557,0.10844461,0.069704354,0.116271086,0.9859066,0.120288454,-0.05567733,0.12738934,-0.99028873,,-0.3284323836750199,-0.09715970229061856,0.09365695250000002,0.0016775195478761949,0.0017762744969507258,0.008107979848392302,-0.002123472859745632,,-1.4642842120830866,0.17343713488933404,0.08959308335,-0.006919768134989304,-0.017079562470680057,-0.0016734014047947105,0.0017967847274770708
4.535511716036126,,0.03698183,0.01879204,0.3484807,-0.6941118,-0.5496049,-0.4649122,-0.7090376,0.41036627,0.57346773,-0.12439638,0.7276909,-0.6745305,,0.00657811,-0.020924885,0.5800687,0.54294336,-0.8116229,0.21559376,-0.6497367,-0.24335119,0.72015446,-0.53202885,-0.5310822,-0.659467,,0.027058916,-0.023281388,0.20252167,-0.9916557,0.10844461,0.069704354,0.116271086,0.9859066,0.120288454,-0.05567733,0.12738934,-0.99028873,,-0.3285405019352591,-0.09696663396876294,0.09365695250000002,0.0016775195478761949,0.0017762744969507258,0.008107979848392302,-0.002123472859745632,,-1.4642764893502125,0.17343713488933404,0.08959308335,-0.006919768134989304,-0.017079562470680057,-0.0016734014047947105,0.0017967847274770708
4.597317453997675,,0.03707911,0.018873367,0.34848094,-0.6947847,-0.5497038,-0.46378875,-0.70820874,0.41050446,0.57439226,-0.1253582,0.72753817,-0.67451715,,0.006576216,-0.020924926,0.58006805,0.5429422,-0.81162983,0.21557094,-0.64973193,-0.24336527,0.7201541,-0.532036,-0.5310652,-0.6594749,,0.027058916,-0.023281388,0.20252167,-0.9916557,0.10844461,0.069704354,0.116271086,0.9859066,0.120288454,-0.05567733,0.12738934,-0.99028873,,-0.3287721839214858,-0.09553020565415718,0.09365824879000001,0.0016775195478761949,0.0017762744969507258,0.008107979848392302,-0.002123472859745632,,-1.4642533211515898,0.17344485762220826,0.08959308335,-0.006919768134989304,-0.017079562470680057,-0.0016734014047947105,0.0017967847274770708
4.631438429001719,,0.037185755,0.018990323,0.348507,-0.6956229,-0.54967594,-0.46256366,-0.7071616,0.41043305,0.575732,-0.12661457,0.7275995,-0.6742162,,0.006577594,-0.020925034,0.5800684,0.5429424,-0.8116252,0.21558754,-0.64973694,-0.24335591,0.7201527,-0.53202957,-0.53107655,-0.65947104,,0.027058916,-0.023281388,0.20252167,-0.9916557,0.10844461,0.069704354,0.116271086,0.9859066,0.120288454,-0.05567733,0.12738934,-0.99028873,,-0.3286795111269951,-0.09369219523009176,0.09365824879000001,0.0016775195478761949,0.0017762744969507258,0.008107979848392302,-0.002123472859745632,,-1.4642687666173382,0.17343713488933404,0.08959308335,-0.006919768134989304,-0.017079562470680057,-0.0016734014047947105,0.0017967847274770708
4.683993034996092,,0.037433222,0.019309074,0.34860906,-0.69773465,-0.5494237,-0.45967376,-0.7044866,0.409946,0.57934713,-0.12986562,0.7280644,-0.673095,,0.006578626,-0.020924732,0.58006907,0.5429444,-0.8116207,0.21559995,-0.6497364,-0.2433465,0.7201564,-0.5320282,-0.5310879,-0.659463,,0.027058916,-0.023281388,0.20252167,-0.9916557,0.10844461,0.069704354,0.116271086,0.9859066,0.120288454,-0.05567733,0.12738934,-0.99028873,,-0.3278917923738242,-0.0889813281768148,0.09365824879000001,0.0016775195478761949,0.0017762744969507258,0.00802630110825174,-0.001960128793611352,,-1.4642842120830866,0.17343713488933404,0.08959308335,-0.006919768134989304,-0.017079562470680057,-0.0016734014047947105,0.0017967847274770708
4.7351204000297,,0.037767634,0.01971719,0.34873423,-0.7004337,-0.5490644,-0.45598343,-0.7010229,0.4092983,0.58398795,-0.13401371,0.72869956,-0.6715929,,0.0065784547,-0.020925298,0.5800684,0.5429417,-0.8116229,0.2155979,-0.6497423,-0.24335122,0.7201495,-0.5320238,-0.5310822,-0.65947115,,0.027058916,-0.023281388,0.20252167,-0.9916557,0.10844461,0.069704354,0.116271086,0.9859066,0.120288454,-0.05567733,0.12738934,-0.99028873,,-0.32704229175765953,-0.08280314187743519,0.09365695250000002,0.0016775195478761949,0.0016396379971852853,0.008137719011948163,-0.001960128793611352,,-1.4642764893502125,0.17342941215645982,0.08959308335,-0.006919768134989304,-0.017079562470680057,-0.0016734014047947105,0.0017967847274770708
4.768692922021728,,0.03799447,0.019973189,0.34880084,-0.70221317,-0.5489551,-0.45337054,-0.69871426,0.40906447,0.5869113,-0.13673013,0.72891325,-0.670813,,0.006576048,-0.020925488,0.5800674,0.54293954,-0.8116322,0.21556887,-0.64973766,-0.24337004,0.7201472,-0.53203154,-0.53105956,-0.6594831,,0.027058916,-0.023281388,0.20252167,-0.9916557,0.10844461,0.069704354,0.116271086,0.9859066,0.120288454,-0.05567733,0.12738934,-0.99028873,,-0.3267179369769421,-0.07881821171433534,0.09365824879000001,0.0016775195478761949,0.0016396379971852853,0.008137719011948163,-0.001960128793611352,,-1.4642455984187155,0.17343713488933404,0.08959308335,-0.006919768134989304,-0.017079562470680057,-0.0016734014047947105,0.0017967847274770708
4.82570913102245,,0.038451716,0.020459346,0.34891534,-0.7056624,-0.54885536,-0.44810522,-0.6941743,0.40879074,0.592463,-0.1419952,0.72914183,-0.6694694,,0.0065772478,-0.020924628,0.58006877,0.542944,-0.8116252,0.21558338,-0.6497314,-0.24335586,0.7201578,-0.53203464,-0.5310766,-0.659467,,0.027058916,-0.023281388,0.20252167,-0.9916557,0.10844461,0.069704354,0.116271086,0.9859066,0.120288454,-0.05567733,0.12738934,-0.99028873,,-0.326370413997602,-0.07105686517573971,0.09366084137000001,0.0016775195478761949,0.0016396379971852853,0.008137719011948163,-0.001960128793611352,,-1.4642687666173382,0.17344485762220826,0.08959308335,-0.006919768134989304,-0.017079562470680057,-0.0016734014047947105,0.0017967847274770708
4.877466630015988,,0.038824428,0.020824753,0.34898856,-0.70833325,-0.54889786,-0.44381878,-0.69059837,0.4087704,0.5966412,-0.1460751,0.72912127,-0.6686135,,0.006577594,-0.020925034,0.5800684,0.5429424,-0.8116252,0.21558754,-0.64973694,-0.24335591,0.7201527,-0.53202957,-0.53107655,-0.65947104,,0.027058916,-0.023281388,0.20252167,-0.9916557,0.10844461,0.069704354,0.116271086,0.9859066,0.120288454,-0.05567733,0.12738934,-0.99028873,,-0.3264013049290989,-0.06500996533522192,0.09366213766,0.0016775195478761949,0.0016396379971852853,0.008137719011948163,-0.001960128793611352,,-1.4642687666173382,0.17343713488933404,0.08959308335,-0.006919768134989304,-0.017079562470680057,-0.0016734014047947105,0.0017967847274770708
4.932456843031105,,0.039273605,0.021239325,0.34906253,-0.7114256,-0.549044,-0.43866196,-0.6863866,0.40890145,0.6013926,-0.15082154,0.7289377,-0.6677593,,0.006576216,-0.020924926,0.58006805,0.5429422,-0.81162983,0.21557094,-0.64973193,-0.24336527,0.7201541,-0.532036,-0.5310652,-0.6594749,,0.027058916,-0.023281388,0.20252167,-0.9916557,0.10844461,0.069704354,0.116271086,0.9859066,0.120288454,-0.05567733,0.12738934,-0.99028873,,-0.326679323312571,-0.05795138748818072,0.09366213766,0.0016775195478761949,0.0016396379971852853,0.008137719011948163,-0.001960128793611352,,-1.4642533211515898,0.17344485762220826,0.08959308335,-0.006919768134989304,-0.017079562470680057,-0.0016734014047947105,0.0017967847274770708
4.967109405028168,,0.039532032,0.021464795,0.34909832,-0.71314174,-0.5491746,-0.43570188,-0.68401486,0.40905315,0.6039862,-0.15346862,0.72875416,-0.6673563,,0.0065765623,-0.020925343,0.58006775,0.5429405,-0.81162983,0.2155751,-0.6497375,-0.24336535,0.72014904,-0.5320309,-0.5310652,-0.6594791,,0.027058916,-0.023281388,0.20252167,-0.9916557,0.10844461,0.069704354,0.116271086,0.9859066,0.120288454,-0.05567733,0.12738934,-0.99028873,,-0.32695734169604307,-0.054005070989451995,0.09366084137000001,0.0016775195478761949,0.0016396379971852853,0.008137719011948163,-0.001960128793611352,,-1.4642533211515898,0.17343713488933404,0.08959308335,-0.006919768134989304,-0.017079562470680057,-0.0016734014047947105,0.0017967847274770708
5.018676400999539,,0.039973214,0.02192414,0.34917164,-0.716354,-0.549465,-0.4300291,-0.6795339,0.40954775,0.6086906,-0.15833677,0.72825736,-0.6667613,,0.0064905975,-0.02090945,0.58007324,0.54288304,-0.8116525,0.2156342,-0.6497896,-0.24330175,0.72012347,-0.5320259,-0.5310596,-0.65948766,,0.027042957,-0.023281978,0.2025183,-0.99165225,0.10847329,0.06970795,0.11630002,0.9859032,0.120287955,-0.055677246,0.12739089,-0.99028856,,-0.32772961498346553,-0.04668392022468716,0.09365954508,0.0016775195478761949,0.0016396379971852853,0.008137719011948163,-0.001960128793611352,,-1.4642842120830866,0.17343713488933404,0.08959308335,-0.006919768134989304,-0.017079562470680057,-0.0016734014047947105,0.0017967847274770708
5.062692175037228,,0.040523894,0.022374405,0.34922934,-0.7198129,-0.5498593,-0.42370266,-0.6745696,0.41006166,0.6138447,-0.16378403,0.72767025,-0.666086,,0.0064888727,-0.020908928,0.5800733,0.5428844,-0.8116571,0.21561347,-0.64977896,-0.24331106,0.7201299,-0.53203744,-0.53104836,-0.6594874,,0.027042957,-0.023281978,0.2025183,-0.99165225,0.10847329,0.06970795,0.11630002,0.9859032,0.120287955,-0.055677246,0.12739089,-0.99028856,,-0.32861772926400135,-0.03854415977525453,0.09366084137000001,0.0016775195478761949,0.0016396379971852853,0.008137719011948163,-0.001960128793611352,,-1.4642687666173382,0.1734525803550825,0.08959308335,-0.006919768134989304,-0.017079562470680057,-0.0016734014047947105,0.0017967847274770708
5.098021057026926,,0.040879775,0.022647807,0.34925646,-0.7219571,-0.5501797,-0.41961893,-0.67143387,0.41050157,0.61698055,-0.16719595,0.7271799,-0.6657738,,0.0064890515,-0.020909904,0.5800722,0.5428801,-0.81165946,0.21561554,-0.6497903,-0.24331586,0.72011805,-0.5320279,-0.53104264,-0.65949976,,0.027042957,-0.023281978,0.2025183,-0.99165225,0.10847329,0.06970795,0.11630002,0.9859032,0.120287955,-0.055677246,0.12739089,-0.99028856,,-0.32935911161992687,-0.03343943334539213,0.09366084137000001,0.0016775195478761949,0.0016396379971852853,0.008137719011948163,-0.001960128793611352,,-1.4642610438844639,0.17343713488933404,0.08959308335,-0.006919768134989304,-0.017079562470680057,-0.0016734014047947105,0.0017967847274770708
5.138279261009302,,0.041380234,0.023018429,0.34928387,-0.72488344,-0.5506905,-0.4138646,-0.66707706,0.4112193,0.62121403,-0.1719075,0.7263873,-0.665439,,0.006488884,-0.020910466,0.58007157,0.5428775,-0.81166166,0.21561347,-0.6497961,-0.24332064,0.7201112,-0.53202343,-0.5310369,-0.6595079,,0.027042957,-0.023281978,0.2025183,-0.99165225,0.10847329,0.06970795,0.11630002,0.9859032,0.120287955,-0.055677246,0.12739089,-0.99028856,,-0.3305561352154317,-0.02638857823122515,0.09366343395000001,0.0016775195478761949,0.0016396379971852853,0.008137719011948163,-0.001960128793611352,,-1.4642533211515898,0.17342941215645982,0.08959308335,-0.006919768134989304,-0.017079562470680057,-0.0016734014047947105,0.0017967847274770708
5.172663983015809,,0.041941524,0.023408448,0.34930116,-0.72802365,-0.55135345,-0.40741974,-0.6622969,0.41217363,0.6256802,-0.17704326,0.7253428,-0.6652318,,0.006488703,-0.020909494,0.5800726,0.5428818,-0.81165946,0.2156114,-0.64978474,-0.24331586,0.720123,-0.53203297,-0.53104264,-0.6594956,,0.027042957,-0.023281978,0.2025183,-0.99165225,0.10847329,0.06970795,0.11630002,0.9859032,0.120287955,-0.055677246,0.12739089,-0.99028856,,-0.3321315727217735,-0.01870445902137176,0.09366473024000001,0.0016775195478761949,0.0016396379971852853,0.008137719011948163,-0.001960128793611352,,-1.4642610438844639,0.17344485762220826,0.08959308335,-0.006919768134989304,-0.017079562470680057,-0.0016734014047947105,0.0017967847274770708
5.2195398029871285,,0.04253618,0.023799771,0.34930596,-0.7312133,-0.5521384,-0.40058717,-0.6573216,0.41332203,0.6301533,-0.1823604,0.7240911,-0.66515905,,0.0064899065,-0.020908622,0.58007395,0.54288626,-0.8116525,0.21562591,-0.64977837,-0.24330164,0.72013354,-0.53203607,-0.5310597,-0.6594794,,0.027042957,-0.023281978,0.2025183,-0.99165225,0.10847329,0.06970795,0.11630002,0.9859032,0.120287955,-0.055677246,0.12739089,-0.99028856,,-0.3340159195430843,-0.010757766893794742,0.09366732282000001,0.0016775195478761949,0.0016396379971852853,0.008137719011948163,-0.001960128793611352,,-1.4642842120830866,0.1734525803550825,0.08959308335,-0.006919768134989304,-0.017079562470680057,-0.0016734014047947105,0.0017967847274770708
5.2715735750389285,,0.04333838,0.024302447,0.34930378,-0.73533565,-0.55326897,-0.39137545,-0.6506963,0.41499248,0.6359053,-0.18940881,0.7222704,-0.66516876,,0.006489398,-0.020910313,0.58007187,0.54287845,-0.81165946,0.21561968,-0.6497959,-0.24331594,0.720113,-0.5320228,-0.5310426,-0.6595039,,0.027042957,-0.023281978,0.2025183,-0.99165225,0.10847329,0.06970795,0.11630002,0.9859032,0.120287955,-0.055677246,0.12739089,-0.99028856,,-0.33674976698055975,-0.0002471274519751843,0.09366991540000001,0.0016775195478761949,0.0016396379971852853,0.008137719011948163,-0.001960128793611352,,-1.4642610438844639,0.17342941215645982,0.08959308335,-0.006919768134989304,-0.017079562470680057,-0.0016734014047947105,0.0017967847274770708
5.316103515040595,,0.044202074,0.024835428,0.349311,-0.7396323,-0.55446637,-0.38145912,-0.6435357,0.4167632,0.64200485,-0.19699198,0.72033006,-0.6650704,,0.0064890515,-0.020909904,0.5800722,0.5428801,-0.81165946,0.21561554,-0.6497903,-0.24331586,0.72011805,-0.5320279,-0.53104264,-0.65949976,,0.027042957,-0.023281978,0.2025183,-0.99165225,0.10847329,0.06970795,0.11630002,0.9859032,0.120287955,-0.055677246,0.12739089,-0.99028856,,-0.3396535145412682,0.0110280625443926,0.09367250798000001,0.0016775195478761949,0.0016396379971852853,0.008137719011948163,-0.001960128793611352,,-1.4642610438844639,0.17343713488933404,0.08959308335,-0.006919768134989304,-0.017079562470680057,-0.0016734014047947105,0.0017967847274770708
5.351485655992292,,0.0447132,0.02512299,0.34929734,-0.7420188,-0.5552816,-0.3755932,-0.6394332,0.41798964,0.6452982,-0.20132814,0.7189902,-0.6652216,,0.006489737,-0.020909188,0.58007324,0.5428837,-0.8116548,0.21562384,-0.6497842,-0.2433064,0.7201266,-0.5320316,-0.53105396,-0.65948755,,0.027042957,-0.023281978,0.2025183,-0.99165225,0.10847329,0.06970795,0.11630002,0.9859032,0.120287955,-0.055677246,0.12739089,-0.99028856,,-0.3416537023556923,0.01745337629574739,0.09367380427000001,0.0016775195478761949,0.0016396379971852853,0.008137719011948163,-0.001960128793611352,,-1.4642764893502125,0.17344485762220826,0.08959308335,-0.006919768134989304,-0.017079562470680057,-0.0016734014047947105,0.0017967847274770708
5.404753581038676,,0.045721162,0.025679586,0.3492813,-0.7465753,-0.5568686,-0.36403632,-0.631331,0.42038095,0.65169084,-0.20987228,0.7163638,-0.6654145,,0.0064895693,-0.020909755,0.5800726,0.542881,-0.8116571,0.21562177,-0.6497901,-0.24331117,0.7201199,-0.53202724,-0.5310483,-0.6594957,,0.027042957,-0.023281978,0.2025183,-0.99165225,0.10847329,0.06970795,0.11630002,0.9859032,0.120287955,-0.055677246,0.12739089,-0.99028856,,-0.3455614051900499,0.03007232181223024,0.09367380427000001,0.0016775195478761949,0.0016396379971852853,0.008137719011948163,-0.001960128793611352,,-1.4642687666173382,0.17343713488933404,0.08959308335,-0.006919768134989304,-0.017079562470680057,-0.0016734014047947105,0.0017967847274770708
5.454434129991569,,0.04634413,0.026032636,0.34928954,-0.7493468,-0.5577725,-0.35688788,-0.6262201,0.42173502,0.6557347,-0.21523872,0.71486306,-0.66531414,,0.0064881872,-0.020909647,0.5800723,0.5428808,-0.81166166,0.21560517,-0.64978504,-0.24332055,0.72012115,-0.5320336,-0.531037,-0.6594996,,0.027042957,-0.023281978,0.2025183,-0.99165225,0.10847329,0.06970795,0.11630002,0.9859032,0.120287955,-0.055677246,0.12739089,-0.99028856,,-0.3477855522578266,0.03798040027543614,0.09367510056000002,0.0016775195478761949,0.0016396379971852853,0.008137719011948163,-0.001960128793611352,,-1.4642533211515898,0.17344485762220826,0.08959308335,-0.006919768134989304,-0.017079562470680057,-0.0016734014047947105,0.0017967847274770708
5.48920522100525,,0.04698442,0.026364474,0.34928083,-0.7520265,-0.5588105,-0.34955245,-0.6211221,0.42331117,0.6595566,-0.22059765,0.71311885,-0.6654307,,0.0064890515,-0.020909904,0.5800722,0.5428801,-0.81165946,0.21561554,-0.6497903,-0.24331586,0.72011805,-0.5320279,-0.53104264,-0.65949976,,0.027042957,-0.023281978,0.2025183,-0.99165225,0.10847329,0.06970795,0.11630002,0.9859032,0.120287955,-0.055677246,0.12739089,-0.99028856,,-0.35036494503781757,0.04584214234139669,0.09367380427000001,0.0016775195478761949,0.0016396379971852853,0.008137719011948163,-0.001960128793611352,,-1.4642610438844639,0.17343713488933404,0.08959308335,-0.006919768134989304,-0.017079562470680057,-0.0016734014047947105,0.0017967847274770708
5.536446581012569,,0.04758571,0.026672779,0.34926403,-0.7544615,-0.5598153,-0.34262884,-0.6163483,0.42484432,0.66304004,-0.22561602,0.7114169,-0.66556984,,0.006488703,-0.020909494,0.5800726,0.5428818,-0.81165946,0.2156114,-0.64978474,-0.24331586,0.720123,-0.53203297,-0.53104264,-0.6594956,,0.027042957,-0.023281978,0.2025183,-0.99165225,0.10847329,0.06970795,0.11630002,0.9859032,0.120287955,-0.055677246,0.12739089,-0.99028856,,-0.3528748332219405,0.053178738571909974,0.09368158201000001,0.0016775195478761949,0.0016396379971852853,0.008137719011948163,-0.001960128793611352,,-1.4642610438844639,0.17344485762220826,0.08959308335,-0.006919768134989304,-0.017079562470680057,-0.0016734014047947105,0.0017967847274770708
5.586313117004465,,0.04820332,0.026988877,0.34926432,-0.75691676,-0.5607916,-0.33554384,-0.6113966,0.42633003,0.666661,-0.23080549,0.7097572,-0.6655624,,0.0064895693,-0.020909755,0.5800726,0.542881,-0.8116571,0.21562177,-0.6497901,-0.24331117,0.7201199,-0.53202724,-0.5310483,-0.6594957,,0.027042957,-0.023281978,0.2025183,-0.99165225,0.10847329,0.06970795,0.11630002,0.9859032,0.120287955,-0.055677246,0.12739089,-0.99028856,,-0.35531521681019546,0.060754739521524215,0.09368287830000001,0.0016775195478761949,0.0016396379971852853,0.008137719011948163,-0.001960128793611352,,-1.4642687666173382,0.17343713488933404,0.08959308335,-0.006919768134989304,-0.017079562470680057,-0.0016734014047947105,0.0017967847274770708
5.627330585033633,,0.0488083,0.027319616,0.34929925,-0.75935197,-0.5616006,-0.3286171,-0.60635674,0.4275421,0.670477,-0.23604268,0.7083871,-0.6651852,,0.006488884,-0.020910466,0.58007157,0.5428775,-0.81166166,0.21561347,-0.6497961,-0.24332064,0.7201112,-0.53202343,-0.5310369,-0.6595079,,0.027042957,-0.023281978,0.2025183,-0.99165225,0.10847329,0.06970795,0.11630002,0.9859032,0.120287955,-0.055677246,0.12739089,-0.99028856,,-0.35732312735749383,0.06841569053275492,0.09368028572,0.0016775195478761949,0.0016396379971852853,0.008137719011948163,-0.001960128793611352,,-1.4642533211515898,0.17342941215645982,0.08959308335,-0.006919768134989304,-0.017079562470680057,-0.0016734014047947105,0.0017967847274770708
5.685636342037469,,0.049332477,0.027644752,0.34937125,-0.76155597,-0.5621017,-0.32260513,-0.60169876,0.4282589,0.6742054,-0.24081358,0.70755625,-0.6643589,,0.006489219,-0.020909341,0.58007294,0.5428827,-0.8116571,0.2156176,-0.6497845,-0.24331114,0.72012484,-0.5320323,-0.5310483,-0.6594916,,0.027042957,-0.023281978,0.2025183,-0.99165225,0.10847329,0.06970795,0.11630002,0.9859032,0.120287955,-0.055677246,0.12739089,-0.99028856,,-0.3585355964187471,0.07543565471542502,0.09368028572,0.0016775195478761949,0.0016396379971852853,0.008137719011948163,-0.001960128793611352,,-1.4642687666173382,0.17344485762220826,0.08959308335,-0.006919768134989304,-0.017079562470680057,-0.0016734014047947105,0.0017967847274770708
5.721260906022508,,0.049710616,0.027874595,0.34942454,-0.76310694,-0.5624677,-0.31827304,-0.5983446,0.42878428,0.67685145,-0.24423665,0.70694685,-0.6637577,,0.006489914,-0.020910164,0.5800722,0.5428794,-0.8116571,0.21562591,-0.64979565,-0.24331123,0.72011477,-0.5320221,-0.53104824,-0.6594998,,0.027042957,-0.023281978,0.2025183,-0.99165225,0.10847329,0.06970795,0.11630002,0.9859032,0.120287955,-0.055677246,0.12739089,-0.99028856,,-0.3594237106992829,0.0804708765494194,0.09367898943000001,0.0016775195478761949,0.0016396379971852853,0.008137719011948163,-0.001960128793611352,,-1.4642687666173382,0.17342941215645982,0.08959308335,-0.006919768134989304,-0.017079562470680057,-0.0016734014047947105,0.0017967847274770708
5.769244461029302,,0.050192043,0.028167231,0.3494948,-0.7650493,-0.5629262,-0.31275135,-0.59405255,0.42944118,0.6802073,-0.2485982,0.70618284,-0.6629514,,0.006489219,-0.020909341,0.58007294,0.5428827,-0.8116571,0.2156176,-0.6497845,-0.24331114,0.72012484,-0.5320323,-0.5310483,-0.6594916,,0.027042957,-0.023281978,0.2025183,-0.99165225,0.10847329,0.06970795,0.11630002,0.9859032,0.120287955,-0.055677246,0.12739089,-0.99028856,,-0.36053578423317123,0.08688846756789996,0.09367898943000001,0.0016775195478761949,0.0016396379971852853,0.008137719011948163,-0.001960128793611352,,-1.4642687666173382,0.17344485762220826,0.08959308335,-0.006919768134989304,-0.017079562470680057,-0.0016734014047947105,0.0017967847274770708
5.8095929700066335,,0.05056379,0.02841038,0.34956843,-0.76658714,-0.5631896,-0.3084824,-0.5905992,0.4297967,0.6829843,-0.25206494,0.7057564,-0.6620959,,0.0064883567,-0.020909084,0.58007294,0.5428834,-0.81165946,0.21560726,-0.6497792,-0.24331579,0.72012806,-0.5320381,-0.5310427,-0.6594915,,0.027042957,-0.023281978,0.2025183,-0.99165225,0.10847329,0.06970795,0.11630002,0.9859032,0.120287955,-0.055677246,0.12739089,-0.99028856,,-0.3611536028631092,0.09201636219638504,0.09368028572,0.0016775195478761949,0.0016396379971852853,0.008137719011948163,-0.001960128793611352,,-1.4642610438844639,0.1734525803550825,0.08959308335,-0.006919768134989304,-0.017079562470680057,-0.0016734014047947105,0.0017967847274770708
5.858149993990082,,0.051072143,0.028762603,0.34969747,-0.7687346,-0.56342703,-0.30264995,-0.5856944,0.43007708,0.6870196,-0.2569226,0.70539606,-0.66061103,,0.0064902604,-0.020910574,0.5800719,0.5428778,-0.8116571,0.21563005,-0.6498012,-0.24331126,0.72010976,-0.532017,-0.53104824,-0.659504,,0.027042957,-0.023281978,0.2025183,-0.99165225,0.10847329,0.06970795,0.11630002,0.9859032,0.120287955,-0.055677246,0.12739089,-0.99028856,,-0.36167102596568224,0.09924484016665917,0.09368028572,0.0016775195478761949,0.0016396379971852853,0.008137719011948163,-0.001960128793611352,,-1.4642687666173382,0.1734216894235856,0.08959308335,-0.006919768134989304,-0.017079562470680057,-0.0016734014047947105,0.0017967847274770708
5.905706696037669,,0.051471688,0.029039828,0.34980416,-0.77039915,-0.5635972,-0.29806575,-0.58180577,0.43027005,0.69019544,-0.26074344,0.70514244,-0.6593837,,0.006489219,-0.020909341,0.58007294,0.5428827,-0.8116571,0.2156176,-0.6497845,-0.24331114,0.72012484,-0.5320323,-0.5310483,-0.6594916,,0.027042957,-0.023281978,0.2025183,-0.99165225,0.10847329,0.06970795,0.11630002,0.9859032,0.120287955,-0.055677246,0.12739089,-0.99028856,,-0.3620339944107708,0.10494421702783686,0.09368028572,0.0016775195478761949,0.0016396379971852853,0.008137719011948163,-0.001960128793611352,,-1.4642687666173382,0.17344485762220826,0.08959308335,-0.006919768134989304,-0.017079562470680057,-0.0016734014047947105,0.0017967847274770708
5.951419085031375,,0.051889196,0.029321665,0.34991208,-0.7720868,-0.56380063,-0.29327574,-0.5777708,0.43051508,0.6934246,-0.26469356,0.70483017,-0.6581425,,0.006488703,-0.020909494,0.5800726,0.5428818,-0.81165946,0.2156114,-0.64978474,-0.24331586,0.720123,-0.53203297,-0.53104264,-0.6594956,,0.027042957,-0.023281978,0.2025183,-0.99165225,0.10847329,0.06970795,0.11630002,0.9859032,0.120287955,-0.055677246,0.12739089,-0.99028856,,-0.36248191291747583,0.11083666221087016,0.09368028572,0.0016775195478761949,0.0016396379971852853,0.008137719011948163,-0.001960128793611352,,-1.4642610438844639,0.17344485762220826,0.08959308335,-0.006919768134989304,-0.017079562470680057,-0.0016734014047947105,0.0017967847274770708
5.983732360007707,,0.05233738,0.029619114,0.3500238,-0.77384806,-0.56404126,-0.28812554,-0.5734552,0.4308157,0.69681203,-0.26890174,0.7044538,-0.6568383,,0.006489914,-0.020910164,0.5800722,0.5428794,-0.8116571,0.21562591,-0.64979565,-0.24331123,0.72011477,-0.5320221,-0.53104824,-0.6594998,,0.027042957,-0.023281978,0.2025183,-0.99165225,0.10847329,0.06970795,0.11630002,0.9859032,0.120287955,-0.055677246,0.12739089,-0.99028856,,-0.36302250421867155,0.1171152440376147,0.09368287830000001,0.0016775195478761949,0.0016396379971852853,0.008137719011948163,-0.001960128793611352,,-1.4642687666173382,0.17342941215645982,0.08959308335,-0.006919768134989304,-0.017079562470680057,-0.0016734014047947105,0.0017967847274770708
6.022599115036428,,0.05266933,0.029836236,0.35010555,-0.775122,-0.56422865,-0.28430924,-0.5702643,0.43105376,0.69927907,-0.27200073,0.70415807,-0.6558787,,0.0064895693,-0.020909755,0.5800726,0.542881,-0.8116571,0.21562177,-0.6497901,-0.24331117,0.7201199,-0.53202724,-0.5310483,-0.6594957,,0.027042957,-0.023281978,0.2025183,-0.99165225,0.10847329,0.06970795,0.11630002,0.9859032,0.120287955,-0.055677246,0.12739089,-0.99028856,,-0.36359398645136415,0.12317758934388093,0.09368547088000001,0.0016775195478761949,0.0016396379971852853,0.008137719011948163,-0.001960128793611352,,-1.4642687666173382,0.17343713488933404,0.08959308335,-0.006919768134989304,-0.017079562470680057,-0.0016734014047947105,0.0017967847274770708
