AlexandreBanks6/ExpertPlaybackApp/resources/Motions/Motion_13.csv
Time,si_T_psm1,Tx,Ty,Tz,R00,R01,R02,R10,R11,R12,R20,R21,R22,si_T_psm3,Tx,Ty,Tz,R00,R01,R02,R10,R11,R12,R20,R21,R22,si_T_ecm,Tx,Ty,Tz,R00,R01,R02,R10,R11,R12,R20,R21,R22,joint_vars_psm1,q1,q2,q3,q4,q5,q6,jaw,joint_vars_psm3,q1,q2,q3,q4,q5,q6,jaw
lci_T_si
0,0.0,0.0,0.0,0.9989603,-0.030018702,0.03431057,-0.032173514,-0.997426,0.06408024,0.03229865,-0.0651175,-0.99735475
rci_T_si
0,0.0,0.0,0.0,0.99222517,-0.04194328,-0.11717508,-0.063815005,-0.9797729,-0.18966465,-0.10684981,0.19566755,-0.97483194
ecm_T_lc
0,0.0,0.0,0.0,-0.8282249,0.55436236,0.08201124,-0.54140776,-0.82931954,0.13822663,0.14464118,0.07008122,0.9869993
ecm_T_rc
0,0.0,0.0,0.0,-0.34537515,-0.9384632,-0.0016580217,0.93471545,-0.34383708,-0.0899056,0.08380301,-0.032600943,0.9959489
0.028306828000495443,,-0.039193884,0.054279685,0.17624113,0.0597586,-0.5135264,-0.8559904,-0.9876993,-0.15454912,0.023763664,-0.14449584,0.844041,-0.5164453,,-0.14085962,0.0879384,0.40856394,-0.025443662,0.5736598,-0.81869847,-0.9843664,0.12840247,0.12056343,0.1742853,0.80896676,0.56142443,,-4.2492006e-06,-4.825683e-06,-3.1912514e-06,-0.8425346,-0.50972617,0.17411134,-0.5334406,0.8344188,-0.13851498,-0.074677035,-0.2095817,-0.9749353,,-0.00575343599129726,0.028967971011216134,0.12527994705,0.003145349152267865,0.4025311283089876,0.4406865153935954,0.510613550735757,,-1.505708951220427,0.15755147336705422,0.10738855247000001,1.3977931632678393,-0.3881842958336163,2.1242521411924566,-0.10748039551635546
0.06355491999966034,,-0.03919487,0.054280434,0.17624147,0.059751596,-0.51352036,-0.8559945,-0.9876989,-0.15454963,0.023770828,-0.14450045,0.84404457,-0.5164381,,-0.14085945,0.087939136,0.40856406,-0.025443438,0.5736583,-0.81869954,-0.9843677,0.12839666,0.12055882,0.17427787,0.80896884,0.56142384,,-4.2492006e-06,-4.825683e-06,-3.1912514e-06,-0.8425346,-0.50972617,0.17411134,-0.5334406,0.8344188,-0.13851498,-0.074677035,-0.2095817,-0.9749353,,-0.005745713258423035,0.02897569374409036,0.12527994705,0.003145349152267865,0.4025311283089876,0.4406865153935954,0.510613550735757,,-1.505716673953301,0.15755147336705422,0.10738855247000001,1.3977931632678393,-0.3881842958336163,2.1242521411924566,-0.10748039551635546
0.09640613600095094,,-0.039193884,0.054279685,0.17624113,0.0597586,-0.5135264,-0.8559904,-0.9876993,-0.15454912,0.023763664,-0.14449584,0.844041,-0.5164453,,-0.14085962,0.0879384,0.40856394,-0.025443662,0.5736598,-0.81869847,-0.9843664,0.12840247,0.12056343,0.1742853,0.80896676,0.56142443,,-4.2492006e-06,-4.825683e-06,-3.1912514e-06,-0.8425346,-0.50972617,0.17411134,-0.5334406,0.8344188,-0.13851498,-0.074677035,-0.2095817,-0.9749353,,-0.00575343599129726,0.028967971011216134,0.12527994705,0.003145349152267865,0.4025311283089876,0.4406865153935954,0.510613550735757,,-1.505708951220427,0.15755147336705422,0.10738855247000001,1.3977931632678393,-0.3881842958336163,2.1242521411924566,-0.10748039551635546
0.11845039699983317,,-0.039193884,0.054279685,0.17624113,0.0597586,-0.5135264,-0.8559904,-0.9876993,-0.15454912,0.023763664,-0.14449584,0.844041,-0.5164453,,-0.14085945,0.087939136,0.40856406,-0.025443438,0.5736583,-0.81869954,-0.9843677,0.12839666,0.12055882,0.17427787,0.80896884,0.56142384,,-4.2492006e-06,-4.825683e-06,-3.1912514e-06,-0.8425346,-0.50972617,0.17411134,-0.5334406,0.8344188,-0.13851498,-0.074677035,-0.2095817,-0.9749353,,-0.00575343599129726,0.028967971011216134,0.12527994705,0.003145349152267865,0.4025311283089876,0.4406865153935954,0.510613550735757,,-1.505716673953301,0.15755147336705422,0.10738855247000001,1.3977931632678393,-0.3881842958336163,2.1242521411924566,-0.10748039551635546
0.14862638799968408,,-0.039193884,0.054279685,0.17624113,0.0597586,-0.5135264,-0.8559904,-0.9876993,-0.15454912,0.023763664,-0.14449584,0.844041,-0.5164453,,-0.14085962,0.0879384,0.40856394,-0.025443662,0.5736598,-0.81869847,-0.9843664,0.12840247,0.12056343,0.1742853,0.80896676,0.56142443,,-4.2492006e-06,-4.825683e-06,-3.1912514e-06,-0.8425346,-0.50972617,0.17411134,-0.5334406,0.8344188,-0.13851498,-0.074677035,-0.2095817,-0.9749353,,-0.00575343599129726,0.028967971011216134,0.12527994705,0.003145349152267865,0.4025311283089876,0.4406865153935954,0.510613550735757,,-1.505708951220427,0.15755147336705422,0.10738855247000001,1.3977931632678393,-0.3881842958336163,2.1242521411924566,-0.10748039551635546
0.17327373300031468,,-0.039193884,0.054279685,0.17624113,0.0597586,-0.5135264,-0.8559904,-0.9876993,-0.15454912,0.023763664,-0.14449584,0.844041,-0.5164453,,-0.14085962,0.0879384,0.40856394,-0.025443662,0.5736598,-0.81869847,-0.9843664,0.12840247,0.12056343,0.1742853,0.80896676,0.56142443,,-4.2492006e-06,-4.825683e-06,-3.1912514e-06,-0.8425346,-0.50972617,0.17411134,-0.5334406,0.8344188,-0.13851498,-0.074677035,-0.2095817,-0.9749353,,-0.00575343599129726,0.028967971011216134,0.12527994705,0.003145349152267865,0.4025311283089876,0.4406865153935954,0.510613550735757,,-1.505708951220427,0.15755147336705422,0.10738855247000001,1.3977931632678393,-0.3881842958336163,2.1242521411924566,-0.10748039551635546
0.2065476560001116,,-0.039194636,0.054279562,0.17624162,0.0597559,-0.5135206,-0.85599416,-0.9876996,-0.15454635,0.023763988,-0.14449406,0.8440451,-0.51643914,,-0.14085962,0.0879384,0.40856394,-0.025443662,0.5736598,-0.81869847,-0.9843664,0.12840247,0.12056343,0.1742853,0.80896676,0.56142443,,-4.2492006e-06,-4.825683e-06,-3.1912514e-06,-0.8425346,-0.50972617,0.17411134,-0.5334406,0.8344188,-0.13851498,-0.074677035,-0.2095817,-0.9749353,,-0.005745713258423035,0.028967971011216134,0.12527994705,0.003145349152267865,0.4025311283089876,0.4406865153935954,0.510613550735757,,-1.505708951220427,0.15755147336705422,0.10738855247000001,1.3977931632678393,-0.3881842958336163,2.1242521411924566,-0.10748039551635546
0.23415024499990977,,-0.039193884,0.054279685,0.17624113,0.0597586,-0.5135264,-0.8559904,-0.9876993,-0.15454912,0.023763664,-0.14449584,0.844041,-0.5164453,,-0.14085962,0.0879384,0.40856394,-0.025443662,0.5736598,-0.81869847,-0.9843664,0.12840247,0.12056343,0.1742853,0.80896676,0.56142443,,-4.2492006e-06,-4.825683e-06,-3.1912514e-06,-0.8425346,-0.50972617,0.17411134,-0.5334406,0.8344188,-0.13851498,-0.074677035,-0.2095817,-0.9749353,,-0.00575343599129726,0.028967971011216134,0.12527994705,0.003145349152267865,0.4025311283089876,0.4406865153935954,0.510613550735757,,-1.505708951220427,0.15755147336705422,0.10738855247000001,1.3977931632678393,-0.3881842958336163,2.1242521411924566,-0.10748039551635546
0.26059343599990825,,-0.039193884,0.054279685,0.17624113,0.0597586,-0.5135264,-0.8559904,-0.9876993,-0.15454912,0.023763664,-0.14449584,0.844041,-0.5164453,,-0.14085945,0.087939136,0.40856406,-0.025443438,0.5736583,-0.81869954,-0.9843677,0.12839666,0.12055882,0.17427787,0.80896884,0.56142384,,-4.2492006e-06,-4.825683e-06,-3.1912514e-06,-0.8425346,-0.50972617,0.17411134,-0.5334406,0.8344188,-0.13851498,-0.074677035,-0.2095817,-0.9749353,,-0.00575343599129726,0.028967971011216134,0.12527994705,0.003145349152267865,0.4025311283089876,0.4406865153935954,0.510613550735757,,-1.505716673953301,0.15755147336705422,0.10738855247000001,1.3977931632678393,-0.3881842958336163,2.1242521411924566,-0.10748039551635546
0.2942479989997082,,-0.039193884,0.054279685,0.17624113,0.0597586,-0.5135264,-0.8559904,-0.9876993,-0.15454912,0.023763664,-0.14449584,0.844041,-0.5164453,,-0.14085945,0.087939136,0.40856406,-0.025443438,0.5736583,-0.81869954,-0.9843677,0.12839666,0.12055882,0.17427787,0.80896884,0.56142384,,-4.2492006e-06,-4.825683e-06,-3.1912514e-06,-0.8425346,-0.50972617,0.17411134,-0.5334406,0.8344188,-0.13851498,-0.074677035,-0.2095817,-0.9749353,,-0.00575343599129726,0.028967971011216134,0.12527994705,0.003145349152267865,0.4025311283089876,0.4406865153935954,0.510613550735757,,-1.505716673953301,0.15755147336705422,0.10738855247000001,1.3977931632678393,-0.3881842958336163,2.1242521411924566,-0.10748039551635546
0.31727956800023094,,-0.039193884,0.054279685,0.17624113,0.0597586,-0.5135264,-0.8559904,-0.9876993,-0.15454912,0.023763664,-0.14449584,0.844041,-0.5164453,,-0.14085962,0.0879384,0.40856394,-0.025443662,0.5736598,-0.81869847,-0.9843664,0.12840247,0.12056343,0.1742853,0.80896676,0.56142443,,-4.2492006e-06,-4.825683e-06,-3.1912514e-06,-0.8425346,-0.50972617,0.17411134,-0.5334406,0.8344188,-0.13851498,-0.074677035,-0.2095817,-0.9749353,,-0.00575343599129726,0.028967971011216134,0.12527994705,0.003145349152267865,0.4025311283089876,0.4406865153935954,0.510613550735757,,-1.505708951220427,0.15755147336705422,0.10738855247000001,1.3977931632678393,-0.3881842958336163,2.1242521411924566,-0.10748039551635546
0.34319400300046254,,-0.039194636,0.054279562,0.17624162,0.0597559,-0.5135206,-0.85599416,-0.9876996,-0.15454635,0.023763988,-0.14449406,0.8440451,-0.51643914,,-0.14085945,0.087939136,0.40856406,-0.025443438,0.5736583,-0.81869954,-0.9843677,0.12839666,0.12055882,0.17427787,0.80896884,0.56142384,,-4.2492006e-06,-4.825683e-06,-3.1912514e-06,-0.8425346,-0.50972617,0.17411134,-0.5334406,0.8344188,-0.13851498,-0.074677035,-0.2095817,-0.9749353,,-0.005745713258423035,0.028967971011216134,0.12527994705,0.003145349152267865,0.4025311283089876,0.4406865153935954,0.510613550735757,,-1.505716673953301,0.15755147336705422,0.10738855247000001,1.3977931632678393,-0.3881842958336163,2.1242521411924566,-0.10748039551635546
0.36728682600005413,,-0.039193884,0.054279685,0.17624113,0.0597586,-0.5135264,-0.8559904,-0.9876993,-0.15454912,0.023763664,-0.14449584,0.844041,-0.5164453,,-0.14085929,0.08793987,0.40856418,-0.025443215,0.57365674,-0.8187006,-0.9843691,0.12839094,0.12055421,0.17427044,0.80897075,0.5614233,,-4.2492006e-06,-4.825683e-06,-3.1912514e-06,-0.8425346,-0.50972617,0.17411134,-0.5334406,0.8344188,-0.13851498,-0.074677035,-0.2095817,-0.9749353,,-0.00575343599129726,0.028967971011216134,0.12527994705,0.003145349152267865,0.4025311283089876,0.4406865153935954,0.510613550735757,,-1.5057243966861753,0.15755147336705422,0.10738855247000001,1.3977931632678393,-0.3881842958336163,2.1242521411924566,-0.10748039551635546
0.3892125069996837,,-0.039193884,0.054279685,0.17624113,0.0597586,-0.5135264,-0.8559904,-0.9876993,-0.15454912,0.023763664,-0.14449584,0.844041,-0.5164453,,-0.14085929,0.08793987,0.40856418,-0.025443215,0.57365674,-0.8187006,-0.9843691,0.12839094,0.12055421,0.17427044,0.80897075,0.5614233,,-4.2492006e-06,-4.825683e-06,-3.1912514e-06,-0.8425346,-0.50972617,0.17411134,-0.5334406,0.8344188,-0.13851498,-0.074677035,-0.2095817,-0.9749353,,-0.00575343599129726,0.028967971011216134,0.12527994705,0.003145349152267865,0.4025311283089876,0.4406865153935954,0.510613550735757,,-1.5057243966861753,0.15755147336705422,0.10738855247000001,1.3977931632678393,-0.3881842958336163,2.1242521411924566,-0.10748039551635546
0.415472688000591,,-0.039193884,0.054279685,0.17624113,0.0597586,-0.5135264,-0.8559904,-0.9876993,-0.15454912,0.023763664,-0.14449584,0.844041,-0.5164453,,-0.14085945,0.087939136,0.40856406,-0.025443438,0.5736583,-0.81869954,-0.9843677,0.12839666,0.12055882,0.17427787,0.80896884,0.56142384,,-4.2492006e-06,-4.825683e-06,-3.1912514e-06,-0.8425346,-0.50972617,0.17411134,-0.5334406,0.8344188,-0.13851498,-0.074677035,-0.2095817,-0.9749353,,-0.00575343599129726,0.028967971011216134,0.12527994705,0.003145349152267865,0.4025311283089876,0.4406865153935954,0.510613550735757,,-1.505716673953301,0.15755147336705422,0.10738855247000001,1.3977931632678393,-0.3881842958336163,2.1242521411924566,-0.10748039551635546
0.4433073300006072,,-0.039193884,0.054279685,0.17624113,0.0597586,-0.5135264,-0.8559904,-0.9876993,-0.15454912,0.023763664,-0.14449584,0.844041,-0.5164453,,-0.14085962,0.0879384,0.40856394,-0.025443662,0.5736598,-0.81869847,-0.9843664,0.12840247,0.12056343,0.1742853,0.80896676,0.56142443,,-4.2492006e-06,-4.825683e-06,-3.1912514e-06,-0.8425346,-0.50972617,0.17411134,-0.5334406,0.8344188,-0.13851498,-0.074677035,-0.2095817,-0.9749353,,-0.00575343599129726,0.028967971011216134,0.12527994705,0.003145349152267865,0.4025311283089876,0.4406865153935954,0.510613550735757,,-1.505708951220427,0.15755147336705422,0.10738855247000001,1.3977931632678393,-0.3881842958336163,2.1242521411924566,-0.10748039551635546
0.4687170849992981,,-0.039194636,0.054279562,0.17624162,0.0597559,-0.5135206,-0.85599416,-0.9876996,-0.15454635,0.023763988,-0.14449406,0.8440451,-0.51643914,,-0.14085962,0.0879384,0.40856394,-0.025443662,0.5736598,-0.81869847,-0.9843664,0.12840247,0.12056343,0.1742853,0.80896676,0.56142443,,-4.2492006e-06,-4.825683e-06,-3.1912514e-06,-0.8425346,-0.50972617,0.17411134,-0.5334406,0.8344188,-0.13851498,-0.074677035,-0.2095817,-0.9749353,,-0.005745713258423035,0.028967971011216134,0.12527994705,0.003145349152267865,0.4025311283089876,0.4406865153935954,0.510613550735757,,-1.505708951220427,0.15755147336705422,0.10738855247000001,1.3977931632678393,-0.3881842958336163,2.1242521411924566,-0.10748039551635546
0.4985138009997172,,-0.039193884,0.054279685,0.17624113,0.0597586,-0.5135264,-0.8559904,-0.9876993,-0.15454912,0.023763664,-0.14449584,0.844041,-0.5164453,,-0.14085962,0.0879384,0.40856394,-0.025443662,0.5736598,-0.81869847,-0.9843664,0.12840247,0.12056343,0.1742853,0.80896676,0.56142443,,-4.2492006e-06,-4.825683e-06,-3.1912514e-06,-0.8425346,-0.50972617,0.17411134,-0.5334406,0.8344188,-0.13851498,-0.074677035,-0.2095817,-0.9749353,,-0.00575343599129726,0.028967971011216134,0.12527994705,0.003145349152267865,0.4025311283089876,0.4406865153935954,0.510613550735757,,-1.505708951220427,0.15755147336705422,0.10738855247000001,1.3977931632678393,-0.3881842958336163,2.1242521411924566,-0.10748039551635546
0.5195776710006612,,-0.039193884,0.054279685,0.17624113,0.0597586,-0.5135264,-0.8559904,-0.9876993,-0.15454912,0.023763664,-0.14449584,0.844041,-0.5164453,,-0.14085962,0.0879384,0.40856394,-0.025443662,0.5736598,-0.81869847,-0.9843664,0.12840247,0.12056343,0.1742853,0.80896676,0.56142443,,-4.2492006e-06,-4.825683e-06,-3.1912514e-06,-0.8425346,-0.50972617,0.17411134,-0.5334406,0.8344188,-0.13851498,-0.074677035,-0.2095817,-0.9749353,,-0.00575343599129726,0.028967971011216134,0.12527994705,0.003145349152267865,0.4025311283089876,0.4406865153935954,0.510613550735757,,-1.505708951220427,0.15755147336705422,0.10738855247000001,1.3977931632678393,-0.3881842958336163,2.1242521411924566,-0.10748039551635546
0.5515958689993568,,-0.039193884,0.054279685,0.17624113,0.0597586,-0.5135264,-0.8559904,-0.9876993,-0.15454912,0.023763664,-0.14449584,0.844041,-0.5164453,,-0.14085962,0.0879384,0.40856394,-0.025443662,0.5736598,-0.81869847,-0.9843664,0.12840247,0.12056343,0.1742853,0.80896676,0.56142443,,-4.2492006e-06,-4.825683e-06,-3.1912514e-06,-0.8425346,-0.50972617,0.17411134,-0.5334406,0.8344188,-0.13851498,-0.074677035,-0.2095817,-0.9749353,,-0.00575343599129726,0.028967971011216134,0.12527994705,0.003145349152267865,0.4025311283089876,0.4406865153935954,0.510613550735757,,-1.505708951220427,0.15755147336705422,0.10738855247000001,1.3977931632678393,-0.3881842958336163,2.1242521411924566,-0.10748039551635546
0.5776070920001075,,-0.039193884,0.054279685,0.17624113,0.0597586,-0.5135264,-0.8559904,-0.9876993,-0.15454912,0.023763664,-0.14449584,0.844041,-0.5164453,,-0.14086038,0.08793856,0.408564,-0.02544085,0.57366556,-0.8186945,-0.9843667,0.12840196,0.12056125,0.17428383,0.8089627,0.5614307,,-4.2492006e-06,-4.825683e-06,-3.1912514e-06,-0.8425346,-0.50972617,0.17411134,-0.5334406,0.8344188,-0.13851498,-0.074677035,-0.2095817,-0.9749353,,-0.00575343599129726,0.028967971011216134,0.12527994705,0.003145349152267865,0.4025311283089876,0.4406865153935954,0.510613550735757,,-1.505708951220427,0.15755919609992844,0.10738855247000001,1.3977931632678393,-0.3881842958336163,2.1242521411924566,-0.10748039551635546
0.6045247750007547,,-0.039194636,0.054279562,0.17624162,0.0597559,-0.5135206,-0.85599416,-0.9876996,-0.15454635,0.023763988,-0.14449406,0.8440451,-0.51643914,,-0.14086021,0.0879393,0.40856412,-0.025440624,0.57366407,-0.8186956,-0.984368,0.12839618,0.12055661,0.17427641,0.8089648,0.5614301,,-4.2492006e-06,-4.825683e-06,-3.1912514e-06,-0.8425346,-0.50972617,0.17411134,-0.5334406,0.8344188,-0.13851498,-0.074677035,-0.2095817,-0.9749353,,-0.005745713258423035,0.028967971011216134,0.12527994705,0.003145349152267865,0.4025311283089876,0.4406865153935954,0.510613550735757,,-1.505716673953301,0.15755919609992844,0.10738855247000001,1.3977931632678393,-0.3881842958336163,2.1242521411924566,-0.10748039551635546
0.6332960670006287,,-0.039194636,0.054279562,0.17624162,0.0597559,-0.5135206,-0.85599416,-0.9876996,-0.15454635,0.023763988,-0.14449406,0.8440451,-0.51643914,,-0.14085962,0.0879384,0.40856394,-0.025443662,0.5736598,-0.81869847,-0.9843664,0.12840247,0.12056343,0.1742853,0.80896676,0.56142443,,-4.2492006e-06,-4.825683e-06,-3.1912514e-06,-0.8425346,-0.50972617,0.17411134,-0.5334406,0.8344188,-0.13851498,-0.074677035,-0.2095817,-0.9749353,,-0.005745713258423035,0.028967971011216134,0.12527994705,0.003145349152267865,0.4025311283089876,0.4406865153935954,0.510613550735757,,-1.505708951220427,0.15755147336705422,0.10738855247000001,1.3977931632678393,-0.3881842958336163,2.1242521411924566,-0.10748039551635546
0.6579991170001449,,-0.03918248,0.054270875,0.17624594,0.0597605,-0.51351905,-0.8559947,-0.9876999,-0.1545454,0.023757748,-0.14449008,0.8440462,-0.5164384,,-0.1408997,0.087856725,0.40858197,-0.025537591,0.5736415,-0.81870824,-0.98436815,0.12833256,0.1206232,0.17426138,0.80899084,0.5613972,,6.1776177e-06,1.3674709e-06,-1.0474008e-06,-0.84253025,-0.5097335,0.17411043,-0.53344774,0.8344141,-0.13851534,-0.07467426,-0.20958216,-0.9749354,,-0.00575343599129726,0.028967971011216134,0.12527994705,0.003145349152267865,0.4025311283089876,0.4406865153935954,0.510613550735757,,-1.505708951220427,0.15755147336705422,0.10738855247000001,1.3977931632678393,-0.3881842958336163,2.1242521411924566,-0.10748039551635546
0.6844201240000984,,-0.03918248,0.054270875,0.17624594,0.0597605,-0.51351905,-0.8559947,-0.9876999,-0.1545454,0.023757748,-0.14449008,0.8440462,-0.5164384,,-0.1408997,0.087856725,0.40858197,-0.025537591,0.5736415,-0.81870824,-0.98436815,0.12833256,0.1206232,0.17426138,0.80899084,0.5613972,,6.1776177e-06,1.3674709e-06,-1.0474008e-06,-0.84253025,-0.5097335,0.17411043,-0.53344774,0.8344141,-0.13851534,-0.07467426,-0.20958216,-0.9749354,,-0.00575343599129726,0.028967971011216134,0.12527994705,0.003145349152267865,0.4025311283089876,0.4406865153935954,0.510613550735757,,-1.505708951220427,0.15755147336705422,0.10738855247000001,1.3977931632678393,-0.3881842958336163,2.1242521411924566,-0.10748039551635546
0.715165732000969,,-0.03918248,0.054270875,0.17624594,0.0597605,-0.51351905,-0.8559947,-0.9876999,-0.1545454,0.023757748,-0.14449008,0.8440462,-0.5164384,,-0.1408997,0.087856725,0.40858197,-0.025537591,0.5736415,-0.81870824,-0.98436815,0.12833256,0.1206232,0.17426138,0.80899084,0.5613972,,6.1776177e-06,1.3674709e-06,-1.0474008e-06,-0.84253025,-0.5097335,0.17411043,-0.53344774,0.8344141,-0.13851534,-0.07467426,-0.20958216,-0.9749354,,-0.00575343599129726,0.028967971011216134,0.12527994705,0.003145349152267865,0.4025311283089876,0.4406865153935954,0.510613550735757,,-1.505708951220427,0.15755147336705422,0.10738855247000001,1.3977931632678393,-0.3881842958336163,2.1242521411924566,-0.10748039551635546
0.7396265669995046,,-0.03918124,0.05427107,0.17624514,0.059440374,-0.51368046,-0.8559201,-0.9877499,-0.15419677,0.023945652,-0.14428055,0.8440117,-0.51655334,,-0.1408997,0.087856725,0.40858197,-0.025537591,0.5736415,-0.81870824,-0.98436815,0.12833256,0.1206232,0.17426138,0.80899084,0.5613972,,6.1776177e-06,1.3674709e-06,-1.0474008e-06,-0.84253025,-0.5097335,0.17411043,-0.53344774,0.8344141,-0.13851534,-0.07467426,-0.20958216,-0.9749354,,-0.00575343599129726,0.028967971011216134,0.12527994705,0.0035647290392369145,0.4025311283089876,0.4406865153935954,0.510613550735757,,-1.505708951220427,0.15755147336705422,0.10738855247000001,1.3977931632678393,-0.3881842958336163,2.1242521411924566,-0.10748039551635546
0.7662306540005375,,-0.039181996,0.05427094,0.17624563,0.059437674,-0.5136746,-0.8559238,-0.9877503,-0.15419406,0.023945946,-0.14427876,0.8440158,-0.5165472,,-0.14089952,0.08785747,0.40858212,-0.025537426,0.57364,-0.8187093,-0.9843696,0.12832674,0.12061857,0.17425394,0.8089928,0.56139666,,6.1776177e-06,1.3674709e-06,-1.0474008e-06,-0.84253025,-0.5097335,0.17411043,-0.53344774,0.8344141,-0.13851534,-0.07467426,-0.20958216,-0.9749354,,-0.005745713258423035,0.028967971011216134,0.12527994705,0.0035647290392369145,0.4025311283089876,0.4406865153935954,0.510613550735757,,-1.505716673953301,0.15755147336705422,0.10738855247000001,1.3977931632678393,-0.3881842958336163,2.1242521411924566,-0.10748039551635546
0.7893251040004543,,-0.039181996,0.05427094,0.17624563,0.059437674,-0.5136746,-0.8559238,-0.9877503,-0.15419406,0.023945946,-0.14427876,0.8440158,-0.5165472,,-0.1408997,0.087856725,0.40858197,-0.025537591,0.5736415,-0.81870824,-0.98436815,0.12833256,0.1206232,0.17426138,0.80899084,0.5613972,,6.1776177e-06,1.3674709e-06,-1.0474008e-06,-0.84253025,-0.5097335,0.17411043,-0.53344774,0.8344141,-0.13851534,-0.07467426,-0.20958216,-0.9749354,,-0.005745713258423035,0.028967971011216134,0.12527994705,0.0035647290392369145,0.4025311283089876,0.4406865153935954,0.510613550735757,,-1.505708951220427,0.15755147336705422,0.10738855247000001,1.3977931632678393,-0.3881842958336163,2.1242521411924566,-0.10748039551635546
0.8168866260002687,,-0.039181996,0.05427094,0.17624563,0.059437674,-0.5136746,-0.8559238,-0.9877503,-0.15419406,0.023945946,-0.14427876,0.8440158,-0.5165472,,-0.1408997,0.087856725,0.40858197,-0.025537591,0.5736415,-0.81870824,-0.98436815,0.12833256,0.1206232,0.17426138,0.80899084,0.5613972,,6.1776177e-06,1.3674709e-06,-1.0474008e-06,-0.84253025,-0.5097335,0.17411043,-0.53344774,0.8344141,-0.13851534,-0.07467426,-0.20958216,-0.9749354,,-0.005745713258423035,0.028967971011216134,0.12527994705,0.0035647290392369145,0.4025311283089876,0.4406865153935954,0.510613550735757,,-1.505708951220427,0.15755147336705422,0.10738855247000001,1.3977931632678393,-0.3881842958336163,2.1242521411924566,-0.10748039551635546
0.8426972930010379,,-0.03918124,0.05427107,0.17624514,0.059440374,-0.51368046,-0.8559201,-0.9877499,-0.15419677,0.023945652,-0.14428055,0.8440117,-0.51655334,,-0.1408997,0.087856725,0.40858197,-0.025537591,0.5736415,-0.81870824,-0.98436815,0.12833256,0.1206232,0.17426138,0.80899084,0.5613972,,6.1776177e-06,1.3674709e-06,-1.0474008e-06,-0.84253025,-0.5097335,0.17411043,-0.53344774,0.8344141,-0.13851534,-0.07467426,-0.20958216,-0.9749354,,-0.00575343599129726,0.028967971011216134,0.12527994705,0.0035647290392369145,0.4025311283089876,0.4406865153935954,0.510613550735757,,-1.505708951220427,0.15755147336705422,0.10738855247000001,1.3977931632678393,-0.3881842958336163,2.1242521411924566,-0.10748039551635546
0.8673859650007216,,-0.03918124,0.05427107,0.17624514,0.059440374,-0.51368046,-0.8559201,-0.9877499,-0.15419677,0.023945652,-0.14428055,0.8440117,-0.51655334,,-0.1408997,0.087856725,0.40858197,-0.025537591,0.5736415,-0.81870824,-0.98436815,0.12833256,0.1206232,0.17426138,0.80899084,0.5613972,,6.1776177e-06,1.3674709e-06,-1.0474008e-06,-0.84253025,-0.5097335,0.17411043,-0.53344774,0.8344141,-0.13851534,-0.07467426,-0.20958216,-0.9749354,,-0.00575343599129726,0.028967971011216134,0.12527994705,0.0035647290392369145,0.4025311283089876,0.4406865153935954,0.510613550735757,,-1.505708951220427,0.15755147336705422,0.10738855247000001,1.3977931632678393,-0.3881842958336163,2.1242521411924566,-0.10748039551635546
0.8950838660002773,,-0.039181996,0.05427094,0.17624563,0.059437674,-0.5136746,-0.8559238,-0.9877503,-0.15419406,0.023945946,-0.14427876,0.8440158,-0.5165472,,-0.1408997,0.087856725,0.40858197,-0.025537591,0.5736415,-0.81870824,-0.98436815,0.12833256,0.1206232,0.17426138,0.80899084,0.5613972,,6.1776177e-06,1.3674709e-06,-1.0474008e-06,-0.84253025,-0.5097335,0.17411043,-0.53344774,0.8344141,-0.13851534,-0.07467426,-0.20958216,-0.9749354,,-0.005745713258423035,0.028967971011216134,0.12527994705,0.0035647290392369145,0.4025311283089876,0.4406865153935954,0.510613550735757,,-1.505708951220427,0.15755147336705422,0.10738855247000001,1.3977931632678393,-0.3881842958336163,2.1242521411924566,-0.10748039551635546
0.9189048179996462,,-0.039181996,0.05427094,0.17624563,0.059437674,-0.5136746,-0.8559238,-0.9877503,-0.15419406,0.023945946,-0.14427876,0.8440158,-0.5165472,,-0.14089952,0.08785747,0.40858212,-0.025537426,0.57364,-0.8187093,-0.9843696,0.12832674,0.12061857,0.17425394,0.8089928,0.56139666,,6.1776177e-06,1.3674709e-06,-1.0474008e-06,-0.84253025,-0.5097335,0.17411043,-0.53344774,0.8344141,-0.13851534,-0.07467426,-0.20958216,-0.9749354,,-0.005745713258423035,0.028967971011216134,0.12527994705,0.0035647290392369145,0.4025311283089876,0.4406865153935954,0.510613550735757,,-1.505716673953301,0.15755147336705422,0.10738855247000001,1.3977931632678393,-0.3881842958336163,2.1242521411924566,-0.10748039551635546
0.9460576840010617,,-0.039181996,0.05427094,0.17624563,0.059437674,-0.5136746,-0.8559238,-0.9877503,-0.15419406,0.023945946,-0.14427876,0.8440158,-0.5165472,,-0.1408997,0.087856725,0.40858197,-0.025537591,0.5736415,-0.81870824,-0.98436815,0.12833256,0.1206232,0.17426138,0.80899084,0.5613972,,6.1776177e-06,1.3674709e-06,-1.0474008e-06,-0.84253025,-0.5097335,0.17411043,-0.53344774,0.8344141,-0.13851534,-0.07467426,-0.20958216,-0.9749354,,-0.005745713258423035,0.028967971011216134,0.12527994705,0.0035647290392369145,0.4025311283089876,0.4406865153935954,0.510613550735757,,-1.505708951220427,0.15755147336705422,0.10738855247000001,1.3977931632678393,-0.3881842958336163,2.1242521411924566,-0.10748039551635546
0.9726911800007656,,-0.03918124,0.05427107,0.17624514,0.059440374,-0.51368046,-0.8559201,-0.9877499,-0.15419677,0.023945652,-0.14428055,0.8440117,-0.51655334,,-0.1408997,0.087856725,0.40858197,-0.025537591,0.5736415,-0.81870824,-0.98436815,0.12833256,0.1206232,0.17426138,0.80899084,0.5613972,,6.1776177e-06,1.3674709e-06,-1.0474008e-06,-0.84253025,-0.5097335,0.17411043,-0.53344774,0.8344141,-0.13851534,-0.07467426,-0.20958216,-0.9749354,,-0.00575343599129726,0.028967971011216134,0.12527994705,0.0035647290392369145,0.4025311283089876,0.4406865153935954,0.510613550735757,,-1.505708951220427,0.15755147336705422,0.10738855247000001,1.3977931632678393,-0.3881842958336163,2.1242521411924566,-0.10748039551635546
0.998639102001107,,-0.03918124,0.05427107,0.17624514,0.059440374,-0.51368046,-0.8559201,-0.9877499,-0.15419677,0.023945652,-0.14428055,0.8440117,-0.51655334,,-0.1408997,0.087856725,0.40858197,-0.025537591,0.5736415,-0.81870824,-0.98436815,0.12833256,0.1206232,0.17426138,0.80899084,0.5613972,,6.1776177e-06,1.3674709e-06,-1.0474008e-06,-0.84253025,-0.5097335,0.17411043,-0.53344774,0.8344141,-0.13851534,-0.07467426,-0.20958216,-0.9749354,,-0.00575343599129726,0.028967971011216134,0.12527994705,0.0035647290392369145,0.4025311283089876,0.4406865153935954,0.510613550735757,,-1.505708951220427,0.15755147336705422,0.10738855247000001,1.3977931632678393,-0.3881842958336163,2.1242521411924566,-0.10748039551635546
1.0226849110003968,,-0.03918124,0.05427107,0.17624514,0.059440374,-0.51368046,-0.8559201,-0.9877499,-0.15419677,0.023945652,-0.14428055,0.8440117,-0.51655334,,-0.1408997,0.087856725,0.40858197,-0.025537591,0.5736415,-0.81870824,-0.98436815,0.12833256,0.1206232,0.17426138,0.80899084,0.5613972,,6.1776177e-06,1.3674709e-06,-1.0474008e-06,-0.84253025,-0.5097335,0.17411043,-0.53344774,0.8344141,-0.13851534,-0.07467426,-0.20958216,-0.9749354,,-0.00575343599129726,0.028967971011216134,0.12527994705,0.0035647290392369145,0.4025311283089876,0.4406865153935954,0.510613550735757,,-1.505708951220427,0.15755147336705422,0.10738855247000001,1.3977931632678393,-0.3881842958336163,2.1242521411924566,-0.10748039551635546
1.0532488270000613,,-0.03918124,0.05427107,0.17624514,0.059440374,-0.51368046,-0.8559201,-0.9877499,-0.15419677,0.023945652,-0.14428055,0.8440117,-0.51655334,,-0.1408997,0.087856725,0.40858197,-0.025537591,0.5736415,-0.81870824,-0.98436815,0.12833256,0.1206232,0.17426138,0.80899084,0.5613972,,6.1776177e-06,1.3674709e-06,-1.0474008e-06,-0.84253025,-0.5097335,0.17411043,-0.53344774,0.8344141,-0.13851534,-0.07467426,-0.20958216,-0.9749354,,-0.00575343599129726,0.028967971011216134,0.12527994705,0.0035647290392369145,0.4025311283089876,0.4406865153935954,0.510613550735757,,-1.505708951220427,0.15755147336705422,0.10738855247000001,1.3977931632678393,-0.3881842958336163,2.1242521411924566,-0.10748039551635546
1.0833048690001306,,-0.03918124,0.05427107,0.17624514,0.059440374,-0.51368046,-0.8559201,-0.9877499,-0.15419677,0.023945652,-0.14428055,0.8440117,-0.51655334,,-0.1408997,0.087856725,0.40858197,-0.025537591,0.5736415,-0.81870824,-0.98436815,0.12833256,0.1206232,0.17426138,0.80899084,0.5613972,,6.1776177e-06,1.3674709e-06,-1.0474008e-06,-0.84253025,-0.5097335,0.17411043,-0.53344774,0.8344141,-0.13851534,-0.07467426,-0.20958216,-0.9749354,,-0.00575343599129726,0.028967971011216134,0.12527994705,0.0035647290392369145,0.4025311283089876,0.4406865153935954,0.510613550735757,,-1.505708951220427,0.15755147336705422,0.10738855247000001,1.3977931632678393,-0.3881842958336163,2.1242521411924566,-0.10748039551635546
1.1097978350007907,,-0.03918124,0.05427107,0.17624514,0.059440374,-0.51368046,-0.8559201,-0.9877499,-0.15419677,0.023945652,-0.14428055,0.8440117,-0.51655334,,-0.14089952,0.08785747,0.40858212,-0.025537426,0.57364,-0.8187093,-0.9843696,0.12832674,0.12061857,0.17425394,0.8089928,0.56139666,,6.1776177e-06,1.3674709e-06,-1.0474008e-06,-0.84253025,-0.5097335,0.17411043,-0.53344774,0.8344141,-0.13851534,-0.07467426,-0.20958216,-0.9749354,,-0.00575343599129726,0.028967971011216134,0.12527994705,0.0035647290392369145,0.4025311283089876,0.4406865153935954,0.510613550735757,,-1.505716673953301,0.15755147336705422,0.10738855247000001,1.3977931632678393,-0.3881842958336163,2.1242521411924566,-0.10748039551635546
1.1381522890005726,,-0.039181996,0.05427094,0.17624563,0.059437674,-0.5136746,-0.8559238,-0.9877503,-0.15419406,0.023945946,-0.14427876,0.8440158,-0.5165472,,-0.1408997,0.087856725,0.40858197,-0.025537591,0.5736415,-0.81870824,-0.98436815,0.12833256,0.1206232,0.17426138,0.80899084,0.5613972,,6.1776177e-06,1.3674709e-06,-1.0474008e-06,-0.84253025,-0.5097335,0.17411043,-0.53344774,0.8344141,-0.13851534,-0.07467426,-0.20958216,-0.9749354,,-0.005745713258423035,0.028967971011216134,0.12527994705,0.0035647290392369145,0.4025311283089876,0.4406865153935954,0.510613550735757,,-1.505708951220427,0.15755147336705422,0.10738855247000001,1.3977931632678393,-0.3881842958336163,2.1242521411924566,-0.10748039551635546
1.1638766460000625,,-0.03918124,0.05427107,0.17624514,0.059440374,-0.51368046,-0.8559201,-0.9877499,-0.15419677,0.023945652,-0.14428055,0.8440117,-0.51655334,,-0.1408997,0.087856725,0.40858197,-0.025537591,0.5736415,-0.81870824,-0.98436815,0.12833256,0.1206232,0.17426138,0.80899084,0.5613972,,6.1776177e-06,1.3674709e-06,-1.0474008e-06,-0.84253025,-0.5097335,0.17411043,-0.53344774,0.8344141,-0.13851534,-0.07467426,-0.20958216,-0.9749354,,-0.00575343599129726,0.028967971011216134,0.12527994705,0.0035647290392369145,0.4025311283089876,0.4406865153935954,0.510613550735757,,-1.505708951220427,0.15755147336705422,0.10738855247000001,1.3977931632678393,-0.3881842958336163,2.1242521411924566,-0.10748039551635546
1.1897849880006106,,-0.03918124,0.05427107,0.17624514,0.059440374,-0.51368046,-0.8559201,-0.9877499,-0.15419677,0.023945652,-0.14428055,0.8440117,-0.51655334,,-0.1408997,0.087856725,0.40858197,-0.025537591,0.5736415,-0.81870824,-0.98436815,0.12833256,0.1206232,0.17426138,0.80899084,0.5613972,,6.1776177e-06,1.3674709e-06,-1.0474008e-06,-0.84253025,-0.5097335,0.17411043,-0.53344774,0.8344141,-0.13851534,-0.07467426,-0.20958216,-0.9749354,,-0.00575343599129726,0.028967971011216134,0.12527994705,0.0035647290392369145,0.4025311283089876,0.4406865153935954,0.510613550735757,,-1.505708951220427,0.15755147336705422,0.10738855247000001,1.3977931632678393,-0.3881842958336163,2.1242521411924566,-0.10748039551635546
1.2163188489994354,,-0.03918124,0.05427107,0.17624514,0.059440374,-0.51368046,-0.8559201,-0.9877499,-0.15419677,0.023945652,-0.14428055,0.8440117,-0.51655334,,-0.1408997,0.087856725,0.40858197,-0.025537591,0.5736415,-0.81870824,-0.98436815,0.12833256,0.1206232,0.17426138,0.80899084,0.5613972,,6.1776177e-06,1.3674709e-06,-1.0474008e-06,-0.84253025,-0.5097335,0.17411043,-0.53344774,0.8344141,-0.13851534,-0.07467426,-0.20958216,-0.9749354,,-0.00575343599129726,0.028967971011216134,0.12527994705,0.0035647290392369145,0.4025311283089876,0.4406865153935954,0.510613550735757,,-1.505708951220427,0.15755147336705422,0.10738855247000001,1.3977931632678393,-0.3881842958336163,2.1242521411924566,-0.10748039551635546
1.2414189350001834,,-0.03918124,0.05427107,0.17624514,0.059440374,-0.51368046,-0.8559201,-0.9877499,-0.15419677,0.023945652,-0.14428055,0.8440117,-0.51655334,,-0.1408997,0.087856725,0.40858197,-0.025537591,0.5736415,-0.81870824,-0.98436815,0.12833256,0.1206232,0.17426138,0.80899084,0.5613972,,6.1776177e-06,1.3674709e-06,-1.0474008e-06,-0.84253025,-0.5097335,0.17411043,-0.53344774,0.8344141,-0.13851534,-0.07467426,-0.20958216,-0.9749354,,-0.00575343599129726,0.028967971011216134,0.12527994705,0.0035647290392369145,0.4025311283089876,0.4406865153935954,0.510613550735757,,-1.505708951220427,0.15755147336705422,0.10738855247000001,1.3977931632678393,-0.3881842958336163,2.1242521411924566,-0.10748039551635546
1.2691673480003374,,-0.03918124,0.05427107,0.17624514,0.059440374,-0.51368046,-0.8559201,-0.9877499,-0.15419677,0.023945652,-0.14428055,0.8440117,-0.51655334,,-0.14089952,0.08785747,0.40858212,-0.025537426,0.57364,-0.8187093,-0.9843696,0.12832674,0.12061857,0.17425394,0.8089928,0.56139666,,6.1776177e-06,1.3674709e-06,-1.0474008e-06,-0.84253025,-0.5097335,0.17411043,-0.53344774,0.8344141,-0.13851534,-0.07467426,-0.20958216,-0.9749354,,-0.00575343599129726,0.028967971011216134,0.12527994705,0.0035647290392369145,0.4025311283089876,0.4406865153935954,0.510613550735757,,-1.505716673953301,0.15755147336705422,0.10738855247000001,1.3977931632678393,-0.3881842958336163,2.1242521411924566,-0.10748039551635546
1.2957725590003975,,-0.03918124,0.05427107,0.17624514,0.059440374,-0.51368046,-0.8559201,-0.9877499,-0.15419677,0.023945652,-0.14428055,0.8440117,-0.51655334,,-0.1408997,0.087856725,0.40858197,-0.025537591,0.5736415,-0.81870824,-0.98436815,0.12833256,0.1206232,0.17426138,0.80899084,0.5613972,,6.1776177e-06,1.3674709e-06,-1.0474008e-06,-0.84253025,-0.5097335,0.17411043,-0.53344774,0.8344141,-0.13851534,-0.07467426,-0.20958216,-0.9749354,,-0.00575343599129726,0.028967971011216134,0.12527994705,0.0035647290392369145,0.4025311283089876,0.4406865153935954,0.510613550735757,,-1.505708951220427,0.15755147336705422,0.10738855247000001,1.3977931632678393,-0.3881842958336163,2.1242521411924566,-0.10748039551635546
1.3203373390006163,,-0.039181996,0.05427094,0.17624563,0.059437674,-0.5136746,-0.8559238,-0.9877503,-0.15419406,0.023945946,-0.14427876,0.8440158,-0.5165472,,-0.1408997,0.087856725,0.40858197,-0.025537591,0.5736415,-0.81870824,-0.98436815,0.12833256,0.1206232,0.17426138,0.80899084,0.5613972,,6.1776177e-06,1.3674709e-06,-1.0474008e-06,-0.84253025,-0.5097335,0.17411043,-0.53344774,0.8344141,-0.13851534,-0.07467426,-0.20958216,-0.9749354,,-0.005745713258423035,0.028967971011216134,0.12527994705,0.0035647290392369145,0.4025311283089876,0.4406865153935954,0.510613550735757,,-1.505708951220427,0.15755147336705422,0.10738855247000001,1.3977931632678393,-0.3881842958336163,2.1242521411924566,-0.10748039551635546
1.3479438989998016,,-0.03918124,0.05427107,0.17624514,0.059440374,-0.51368046,-0.8559201,-0.9877499,-0.15419677,0.023945652,-0.14428055,0.8440117,-0.51655334,,-0.1408997,0.087856725,0.40858197,-0.025537591,0.5736415,-0.81870824,-0.98436815,0.12833256,0.1206232,0.17426138,0.80899084,0.5613972,,6.1776177e-06,1.3674709e-06,-1.0474008e-06,-0.84253025,-0.5097335,0.17411043,-0.53344774,0.8344141,-0.13851534,-0.07467426,-0.20958216,-0.9749354,,-0.00575343599129726,0.028967971011216134,0.12527994705,0.0035647290392369145,0.4025311283089876,0.4406865153935954,0.510613550735757,,-1.505708951220427,0.15755147336705422,0.10738855247000001,1.3977931632678393,-0.3881842958336163,2.1242521411924566,-0.10748039551635546
1.372421279000264,,-0.03918124,0.05427107,0.17624514,0.059440374,-0.51368046,-0.8559201,-0.9877499,-0.15419677,0.023945652,-0.14428055,0.8440117,-0.51655334,,-0.1408997,0.087856725,0.40858197,-0.025537591,0.5736415,-0.81870824,-0.98436815,0.12833256,0.1206232,0.17426138,0.80899084,0.5613972,,6.1776177e-06,1.3674709e-06,-1.0474008e-06,-0.84253025,-0.5097335,0.17411043,-0.53344774,0.8344141,-0.13851534,-0.07467426,-0.20958216,-0.9749354,,-0.00575343599129726,0.028967971011216134,0.12527994705,0.0035647290392369145,0.4025311283089876,0.4406865153935954,0.510613550735757,,-1.505708951220427,0.15755147336705422,0.10738855247000001,1.3977931632678393,-0.3881842958336163,2.1242521411924566,-0.10748039551635546
1.4015349950004747,,-0.03918148,0.054271933,0.17624499,0.059436068,-0.51368016,-0.8559205,-0.9877493,-0.15420002,0.023952585,-0.14428696,0.8440113,-0.51655227,,-0.14089952,0.08785747,0.40858212,-0.025537426,0.57364,-0.8187093,-0.9843696,0.12832674,0.12061857,0.17425394,0.8089928,0.56139666,,6.1776177e-06,1.3674709e-06,-1.0474008e-06,-0.84253025,-0.5097335,0.17411043,-0.53344774,0.8344141,-0.13851534,-0.07467426,-0.20958216,-0.9749354,,-0.00575343599129726,0.02897569374409036,0.12527994705,0.0035647290392369145,0.4025311283089876,0.4406865153935954,0.510613550735757,,-1.505716673953301,0.15755147336705422,0.10738855247000001,1.3977931632678393,-0.3881842958336163,2.1242521411924566,-0.10748039551635546
1.427704112000356,,-0.03918124,0.05427107,0.17624514,0.059440374,-0.51368046,-0.8559201,-0.9877499,-0.15419677,0.023945652,-0.14428055,0.8440117,-0.51655334,,-0.14089952,0.08785747,0.40858212,-0.025537426,0.57364,-0.8187093,-0.9843696,0.12832674,0.12061857,0.17425394,0.8089928,0.56139666,,6.1776177e-06,1.3674709e-06,-1.0474008e-06,-0.84253025,-0.5097335,0.17411043,-0.53344774,0.8344141,-0.13851534,-0.07467426,-0.20958216,-0.9749354,,-0.00575343599129726,0.028967971011216134,0.12527994705,0.0035647290392369145,0.4025311283089876,0.4406865153935954,0.510613550735757,,-1.505716673953301,0.15755147336705422,0.10738855247000001,1.3977931632678393,-0.3881842958336163,2.1242521411924566,-0.10748039551635546
1.4517753929994797,,-0.039181996,0.05427094,0.17624563,0.059437674,-0.5136746,-0.8559238,-0.9877503,-0.15419406,0.023945946,-0.14427876,0.8440158,-0.5165472,,-0.1408997,0.087856725,0.40858197,-0.025537591,0.5736415,-0.81870824,-0.98436815,0.12833256,0.1206232,0.17426138,0.80899084,0.5613972,,6.1776177e-06,1.3674709e-06,-1.0474008e-06,-0.84253025,-0.5097335,0.17411043,-0.53344774,0.8344141,-0.13851534,-0.07467426,-0.20958216,-0.9749354,,-0.005745713258423035,0.028967971011216134,0.12527994705,0.0035647290392369145,0.4025311283089876,0.4406865153935954,0.510613550735757,,-1.505708951220427,0.15755147336705422,0.10738855247000001,1.3977931632678393,-0.3881842958336163,2.1242521411924566,-0.10748039551635546
1.4771181830001296,,-0.039183237,0.05427075,0.17624643,0.059757806,-0.51351315,-0.8559983,-0.98770034,-0.15454265,0.023757953,-0.14448835,0.8440502,-0.5164323,,-0.1408997,0.087856725,0.40858197,-0.025537591,0.5736415,-0.81870824,-0.98436815,0.12833256,0.1206232,0.17426138,0.80899084,0.5613972,,6.1776177e-06,1.3674709e-06,-1.0474008e-06,-0.84253025,-0.5097335,0.17411043,-0.53344774,0.8344141,-0.13851534,-0.07467426,-0.20958216,-0.9749354,,-0.005745713258423035,0.028967971011216134,0.12527994705,0.003145349152267865,0.4025311283089876,0.4406865153935954,0.510613550735757,,-1.505708951220427,0.15755147336705422,0.10738855247000001,1.3977931632678393,-0.3881842958336163,2.1242521411924566,-0.10748039551635546
1.502182021000408,,-0.03918248,0.054270875,0.17624594,0.0597605,-0.51351905,-0.8559947,-0.9876999,-0.1545454,0.023757748,-0.14449008,0.8440462,-0.5164384,,-0.1408997,0.087856725,0.40858197,-0.025537591,0.5736415,-0.81870824,-0.98436815,0.12833256,0.1206232,0.17426138,0.80899084,0.5613972,,6.1776177e-06,1.3674709e-06,-1.0474008e-06,-0.84253025,-0.5097335,0.17411043,-0.53344774,0.8344141,-0.13851534,-0.07467426,-0.20958216,-0.9749354,,-0.00575343599129726,0.028967971011216134,0.12527994705,0.003145349152267865,0.4025311283089876,0.4406865153935954,0.510613550735757,,-1.505708951220427,0.15755147336705422,0.10738855247000001,1.3977931632678393,-0.3881842958336163,2.1242521411924566,-0.10748039551635546
1.5322802549999324,,-0.03918248,0.054270875,0.17624594,0.0597605,-0.51351905,-0.8559947,-0.9876999,-0.1545454,0.023757748,-0.14449008,0.8440462,-0.5164384,,-0.1408997,0.087856725,0.40858197,-0.025537591,0.5736415,-0.81870824,-0.98436815,0.12833256,0.1206232,0.17426138,0.80899084,0.5613972,,6.1776177e-06,1.3674709e-06,-1.0474008e-06,-0.84253025,-0.5097335,0.17411043,-0.53344774,0.8344141,-0.13851534,-0.07467426,-0.20958216,-0.9749354,,-0.00575343599129726,0.028967971011216134,0.12527994705,0.003145349152267865,0.4025311283089876,0.4406865153935954,0.510613550735757,,-1.505708951220427,0.15755147336705422,0.10738855247000001,1.3977931632678393,-0.3881842958336163,2.1242521411924566,-0.10748039551635546
1.5540953889994853,,-0.03918248,0.054270875,0.17624594,0.0597605,-0.51351905,-0.8559947,-0.9876999,-0.1545454,0.023757748,-0.14449008,0.8440462,-0.5164384,,-0.1408997,0.087856725,0.40858197,-0.025537591,0.5736415,-0.81870824,-0.98436815,0.12833256,0.1206232,0.17426138,0.80899084,0.5613972,,6.1776177e-06,1.3674709e-06,-1.0474008e-06,-0.84253025,-0.5097335,0.17411043,-0.53344774,0.8344141,-0.13851534,-0.07467426,-0.20958216,-0.9749354,,-0.00575343599129726,0.028967971011216134,0.12527994705,0.003145349152267865,0.4025311283089876,0.4406865153935954,0.510613550735757,,-1.505708951220427,0.15755147336705422,0.10738855247000001,1.3977931632678393,-0.3881842958336163,2.1242521411924566,-0.10748039551635546
1.581684041999324,,-0.03918248,0.054270875,0.17624594,0.0597605,-0.51351905,-0.8559947,-0.9876999,-0.1545454,0.023757748,-0.14449008,0.8440462,-0.5164384,,-0.14090045,0.08785689,0.40858203,-0.025534866,0.57364726,-0.8187043,-0.9843685,0.12833206,0.120620996,0.1742599,0.8089868,0.56140345,,6.1776177e-06,1.3674709e-06,-1.0474008e-06,-0.84253025,-0.5097335,0.17411043,-0.53344774,0.8344141,-0.13851534,-0.07467426,-0.20958216,-0.9749354,,-0.00575343599129726,0.028967971011216134,0.12527994705,0.003145349152267865,0.4025311283089876,0.4406865153935954,0.510613550735757,,-1.505708951220427,0.15755919609992844,0.10738855247000001,1.3977931632678393,-0.3881842958336163,2.1242521411924566,-0.10748039551635546
1.6047577419994923,,-0.03918248,0.054270875,0.17624594,0.0597605,-0.51351905,-0.8559947,-0.9876999,-0.1545454,0.023757748,-0.14449008,0.8440462,-0.5164384,,-0.14090028,0.08785763,0.40858218,-0.025534643,0.5736457,-0.8187053,-0.9843698,0.12832627,0.120616384,0.1742525,0.8089888,0.5614029,,6.1776177e-06,1.3674709e-06,-1.0474008e-06,-0.84253025,-0.5097335,0.17411043,-0.53344774,0.8344141,-0.13851534,-0.07467426,-0.20958216,-0.9749354,,-0.00575343599129726,0.028967971011216134,0.12527994705,0.003145349152267865,0.4025311283089876,0.4406865153935954,0.510613550735757,,-1.505716673953301,0.15755919609992844,0.10738855247000001,1.3977931632678393,-0.3881842958336163,2.1242521411924566,-0.10748039551635546
1.632707331000347,,-0.039183237,0.05427075,0.17624643,0.059757806,-0.51351315,-0.8559983,-0.98770034,-0.15454265,0.023757953,-0.14448835,0.8440502,-0.5164323,,-0.1408997,0.087856725,0.40858197,-0.025537591,0.5736415,-0.81870824,-0.98436815,0.12833256,0.1206232,0.17426138,0.80899084,0.5613972,,6.1776177e-06,1.3674709e-06,-1.0474008e-06,-0.84253025,-0.5097335,0.17411043,-0.53344774,0.8344141,-0.13851534,-0.07467426,-0.20958216,-0.9749354,,-0.005745713258423035,0.028967971011216134,0.12527994705,0.003145349152267865,0.4025311283089876,0.4406865153935954,0.510613550735757,,-1.505708951220427,0.15755147336705422,0.10738855247000001,1.3977931632678393,-0.3881842958336163,2.1242521411924566,-0.10748039551635546
1.6562048729992966,,-0.039183237,0.05427075,0.17624643,0.059757806,-0.51351315,-0.8559983,-0.98770034,-0.15454265,0.023757953,-0.14448835,0.8440502,-0.5164323,,-0.1408997,0.087856725,0.40858197,-0.025537591,0.5736415,-0.81870824,-0.98436815,0.12833256,0.1206232,0.17426138,0.80899084,0.5613972,,6.1776177e-06,1.3674709e-06,-1.0474008e-06,-0.84253025,-0.5097335,0.17411043,-0.53344774,0.8344141,-0.13851534,-0.07467426,-0.20958216,-0.9749354,,-0.005745713258423035,0.028967971011216134,0.12527994705,0.003145349152267865,0.4025311283089876,0.4406865153935954,0.510613550735757,,-1.505708951220427,0.15755147336705422,0.10738855247000001,1.3977931632678393,-0.3881842958336163,2.1242521411924566,-0.10748039551635546
1.6845845910011121,,-0.039183237,0.05427075,0.17624643,0.059757806,-0.51351315,-0.8559983,-0.98770034,-0.15454265,0.023757953,-0.14448835,0.8440502,-0.5164323,,-0.14089952,0.08785747,0.40858212,-0.025537426,0.57364,-0.8187093,-0.9843696,0.12832674,0.12061857,0.17425394,0.8089928,0.56139666,,6.1776177e-06,1.3674709e-06,-1.0474008e-06,-0.84253025,-0.5097335,0.17411043,-0.53344774,0.8344141,-0.13851534,-0.07467426,-0.20958216,-0.9749354,,-0.005745713258423035,0.028967971011216134,0.12527994705,0.003145349152267865,0.4025311283089876,0.4406865153935954,0.510613550735757,,-1.505716673953301,0.15755147336705422,0.10738855247000001,1.3977931632678393,-0.3881842958336163,2.1242521411924566,-0.10748039551635546
1.7090479680009594,,-0.03918248,0.054270875,0.17624594,0.0597605,-0.51351905,-0.8559947,-0.9876999,-0.1545454,0.023757748,-0.14449008,0.8440462,-0.5164384,,-0.14089935,0.0878582,0.40858224,-0.025537202,0.57363844,-0.8187103,-0.9843708,0.12832099,0.120613955,0.17424653,0.80899477,0.56139606,,6.1776177e-06,1.3674709e-06,-1.0474008e-06,-0.84253025,-0.5097335,0.17411043,-0.53344774,0.8344141,-0.13851534,-0.07467426,-0.20958216,-0.9749354,,-0.00575343599129726,0.028967971011216134,0.12527994705,0.003145349152267865,0.4025311283089876,0.4406865153935954,0.510613550735757,,-1.5057243966861753,0.15755147336705422,0.10738855247000001,1.3977931632678393,-0.3881842958336163,2.1242521411924566,-0.10748039551635546
1.7361360020004213,,-0.03918248,0.054270875,0.17624594,0.0597605,-0.51351905,-0.8559947,-0.9876999,-0.1545454,0.023757748,-0.14449008,0.8440462,-0.5164384,,-0.14089935,0.0878582,0.40858224,-0.025537202,0.57363844,-0.8187103,-0.9843708,0.12832099,0.120613955,0.17424653,0.80899477,0.56139606,,6.1776177e-06,1.3674709e-06,-1.0474008e-06,-0.84253025,-0.5097335,0.17411043,-0.53344774,0.8344141,-0.13851534,-0.07467426,-0.20958216,-0.9749354,,-0.00575343599129726,0.028967971011216134,0.12527994705,0.003145349152267865,0.4025311283089876,0.4406865153935954,0.510613550735757,,-1.5057243966861753,0.15755147336705422,0.10738855247000001,1.3977931632678393,-0.3881842958336163,2.1242521411924566,-0.10748039551635546
1.762080913000318,,-0.03918248,0.054270875,0.17624594,0.0597605,-0.51351905,-0.8559947,-0.9876999,-0.1545454,0.023757748,-0.14449008,0.8440462,-0.5164384,,-0.14089952,0.08785747,0.40858212,-0.025537426,0.57364,-0.8187093,-0.9843696,0.12832674,0.12061857,0.17425394,0.8089928,0.56139666,,6.1776177e-06,1.3674709e-06,-1.0474008e-06,-0.84253025,-0.5097335,0.17411043,-0.53344774,0.8344141,-0.13851534,-0.07467426,-0.20958216,-0.9749354,,-0.00575343599129726,0.028967971011216134,0.12527994705,0.003145349152267865,0.4025311283089876,0.4406865153935954,0.510613550735757,,-1.505716673953301,0.15755147336705422,0.10738855247000001,1.3977931632678393,-0.3881842958336163,2.1242521411924566,-0.10748039551635546
1.7865788260005502,,-0.03925028,0.054262076,0.17624184,0.05971956,-0.51359904,-0.8559496,-0.9877009,-0.15453126,0.023812119,-0.1445009,0.84400004,-0.5165107,,-0.14089254,0.08787243,0.40861148,-0.025526524,0.57358027,-0.8187516,-0.9843825,0.12828228,0.1205592,0.17418166,0.8090423,0.56134784,,1.1926584e-06,3.410076e-06,-6.994471e-07,-0.84253925,-0.5097181,0.17411232,-0.5334328,0.8344238,-0.13851462,-0.074680045,-0.20958121,-0.9749352,,-0.00575343599129726,0.028967971011216134,0.12527994705,0.003145349152267865,0.4025311283089876,0.4406865153935954,0.510613550735757,,-1.505716673953301,0.15755147336705422,0.10738855247000001,1.3977931632678393,-0.3881842958336163,2.1242521411924566,-0.10748039551635546
1.8158282000003965,,-0.039251037,0.054261956,0.17624235,0.05971692,-0.5135932,-0.8559532,-0.9877013,-0.15452853,0.023812413,-0.1444991,0.84400415,-0.5165046,,-0.1408927,0.0878717,0.40861136,-0.025526747,0.5735818,-0.8187505,-0.98438126,0.128288,0.12056378,0.17418906,0.8090402,0.56134844,,1.1926584e-06,3.410076e-06,-6.994471e-07,-0.84253925,-0.5097181,0.17411232,-0.5334328,0.8344238,-0.13851462,-0.074680045,-0.20958121,-0.9749352,,-0.005745713258423035,0.028967971011216134,0.12527994705,0.003145349152267865,0.4025311283089876,0.4406865153935954,0.510613550735757,,-1.505708951220427,0.15755147336705422,0.10738855247000001,1.3977931632678393,-0.3881842958336163,2.1242521411924566,-0.10748039551635546
1.8436747979994834,,-0.039251037,0.054261956,0.17624235,0.05971692,-0.5135932,-0.8559532,-0.9877013,-0.15452853,0.023812413,-0.1444991,0.84400415,-0.5165046,,-0.1408927,0.0878717,0.40861136,-0.025526747,0.5735818,-0.8187505,-0.98438126,0.128288,0.12056378,0.17418906,0.8090402,0.56134844,,1.1926584e-06,3.410076e-06,-6.994471e-07,-0.84253925,-0.5097181,0.17411232,-0.5334328,0.8344238,-0.13851462,-0.074680045,-0.20958121,-0.9749352,,-0.005745713258423035,0.028967971011216134,0.12527994705,0.003145349152267865,0.4025311283089876,0.4406865153935954,0.510613550735757,,-1.505708951220427,0.15755147336705422,0.10738855247000001,1.3977931632678393,-0.3881842958336163,2.1242521411924566,-0.10748039551635546
1.869432109000627,,-0.03925028,0.054262076,0.17624184,0.05971956,-0.51359904,-0.8559496,-0.9877009,-0.15453126,0.023812119,-0.1445009,0.84400004,-0.5165107,,-0.1408927,0.0878717,0.40861136,-0.025526747,0.5735818,-0.8187505,-0.98438126,0.128288,0.12056378,0.17418906,0.8090402,0.56134844,,1.1926584e-06,3.410076e-06,-6.994471e-07,-0.84253925,-0.5097181,0.17411232,-0.5334328,0.8344238,-0.13851462,-0.074680045,-0.20958121,-0.9749352,,-0.00575343599129726,0.028967971011216134,0.12527994705,0.003145349152267865,0.4025311283089876,0.4406865153935954,0.510613550735757,,-1.505708951220427,0.15755147336705422,0.10738855247000001,1.3977931632678393,-0.3881842958336163,2.1242521411924566,-0.10748039551635546
1.9003573800000595,,-0.03925028,0.054262076,0.17624184,0.05971956,-0.51359904,-0.8559496,-0.9877009,-0.15453126,0.023812119,-0.1445009,0.84400004,-0.5165107,,-0.1408927,0.0878717,0.40861136,-0.025526747,0.5735818,-0.8187505,-0.98438126,0.128288,0.12056378,0.17418906,0.8090402,0.56134844,,1.1926584e-06,3.410076e-06,-6.994471e-07,-0.84253925,-0.5097181,0.17411232,-0.5334328,0.8344238,-0.13851462,-0.074680045,-0.20958121,-0.9749352,,-0.00575343599129726,0.028967971011216134,0.12527994705,0.003145349152267865,0.4025311283089876,0.4406865153935954,0.510613550735757,,-1.505708951220427,0.15755147336705422,0.10738855247000001,1.3977931632678393,-0.3881842958336163,2.1242521411924566,-0.10748039551635546
1.924378453000827,,-0.03925028,0.054262076,0.17624184,0.05971956,-0.51359904,-0.8559496,-0.9877009,-0.15453126,0.023812119,-0.1445009,0.84400004,-0.5165107,,-0.1408927,0.0878717,0.40861136,-0.025526747,0.5735818,-0.8187505,-0.98438126,0.128288,0.12056378,0.17418906,0.8090402,0.56134844,,1.1926584e-06,3.410076e-06,-6.994471e-07,-0.84253925,-0.5097181,0.17411232,-0.5334328,0.8344238,-0.13851462,-0.074680045,-0.20958121,-0.9749352,,-0.00575343599129726,0.028967971011216134,0.12527994705,0.003145349152267865,0.4025311283089876,0.4406865153935954,0.510613550735757,,-1.505708951220427,0.15755147336705422,0.10738855247000001,1.3977931632678393,-0.3881842958336163,2.1242521411924566,-0.10748039551635546
1.952064078001058,,-0.039251037,0.054261956,0.17624235,0.05971692,-0.5135932,-0.8559532,-0.9877013,-0.15452853,0.023812413,-0.1444991,0.84400415,-0.5165046,,-0.1408927,0.0878717,0.40861136,-0.025526747,0.5735818,-0.8187505,-0.98438126,0.128288,0.12056378,0.17418906,0.8090402,0.56134844,,1.1926584e-06,3.410076e-06,-6.994471e-07,-0.84253925,-0.5097181,0.17411232,-0.5334328,0.8344238,-0.13851462,-0.074680045,-0.20958121,-0.9749352,,-0.005745713258423035,0.028967971011216134,0.12527994705,0.003145349152267865,0.4025311283089876,0.4406865153935954,0.510613550735757,,-1.505708951220427,0.15755147336705422,0.10738855247000001,1.3977931632678393,-0.3881842958336163,2.1242521411924566,-0.10748039551635546
1.9774958250000054,,-0.039251037,0.054261956,0.17624235,0.05971692,-0.5135932,-0.8559532,-0.9877013,-0.15452853,0.023812413,-0.1444991,0.84400415,-0.5165046,,-0.1408927,0.0878717,0.40861136,-0.025526747,0.5735818,-0.8187505,-0.98438126,0.128288,0.12056378,0.17418906,0.8090402,0.56134844,,1.1926584e-06,3.410076e-06,-6.994471e-07,-0.84253925,-0.5097181,0.17411232,-0.5334328,0.8344238,-0.13851462,-0.074680045,-0.20958121,-0.9749352,,-0.005745713258423035,0.028967971011216134,0.12527994705,0.003145349152267865,0.4025311283089876,0.4406865153935954,0.510613550735757,,-1.505708951220427,0.15755147336705422,0.10738855247000001,1.3977931632678393,-0.3881842958336163,2.1242521411924566,-0.10748039551635546
2.0037401440004032,,-0.039251037,0.054261956,0.17624235,0.05971692,-0.5135932,-0.8559532,-0.9877013,-0.15452853,0.023812413,-0.1444991,0.84400415,-0.5165046,,-0.1408927,0.0878717,0.40861136,-0.025526747,0.5735818,-0.8187505,-0.98438126,0.128288,0.12056378,0.17418906,0.8090402,0.56134844,,1.1926584e-06,3.410076e-06,-6.994471e-07,-0.84253925,-0.5097181,0.17411232,-0.5334328,0.8344238,-0.13851462,-0.074680045,-0.20958121,-0.9749352,,-0.005745713258423035,0.028967971011216134,0.12527994705,0.003145349152267865,0.4025311283089876,0.4406865153935954,0.510613550735757,,-1.505708951220427,0.15755147336705422,0.10738855247000001,1.3977931632678393,-0.3881842958336163,2.1242521411924566,-0.10748039551635546
2.031339183000455,,-0.03925028,0.054262076,0.17624184,0.05971956,-0.51359904,-0.8559496,-0.9877009,-0.15453126,0.023812119,-0.1445009,0.84400004,-0.5165107,,-0.1408927,0.0878717,0.40861136,-0.025526747,0.5735818,-0.8187505,-0.98438126,0.128288,0.12056378,0.17418906,0.8090402,0.56134844,,1.1926584e-06,3.410076e-06,-6.994471e-07,-0.84253925,-0.5097181,0.17411232,-0.5334328,0.8344238,-0.13851462,-0.074680045,-0.20958121,-0.9749352,,-0.00575343599129726,0.028967971011216134,0.12527994705,0.003145349152267865,0.4025311283089876,0.4406865153935954,0.510613550735757,,-1.505708951220427,0.15755147336705422,0.10738855247000001,1.3977931632678393,-0.3881842958336163,2.1242521411924566,-0.10748039551635546
2.055122408000898,,-0.03925028,0.054262076,0.17624184,0.05971956,-0.51359904,-0.8559496,-0.9877009,-0.15453126,0.023812119,-0.1445009,0.84400004,-0.5165107,,-0.1408927,0.0878717,0.40861136,-0.025526747,0.5735818,-0.8187505,-0.98438126,0.128288,0.12056378,0.17418906,0.8090402,0.56134844,,1.1926584e-06,3.410076e-06,-6.994471e-07,-0.84253925,-0.5097181,0.17411232,-0.5334328,0.8344238,-0.13851462,-0.074680045,-0.20958121,-0.9749352,,-0.00575343599129726,0.028967971011216134,0.12527994705,0.003145349152267865,0.4025311283089876,0.4406865153935954,0.510613550735757,,-1.505708951220427,0.15755147336705422,0.10738855247000001,1.3977931632678393,-0.3881842958336163,2.1242521411924566,-0.10748039551635546
2.084448871000859,,-0.03925028,0.054262076,0.17624184,0.05971956,-0.51359904,-0.8559496,-0.9877009,-0.15453126,0.023812119,-0.1445009,0.84400004,-0.5165107,,-0.1408927,0.0878717,0.40861136,-0.025526747,0.5735818,-0.8187505,-0.98438126,0.128288,0.12056378,0.17418906,0.8090402,0.56134844,,1.1926584e-06,3.410076e-06,-6.994471e-07,-0.84253925,-0.5097181,0.17411232,-0.5334328,0.8344238,-0.13851462,-0.074680045,-0.20958121,-0.9749352,,-0.00575343599129726,0.028967971011216134,0.12527994705,0.003145349152267865,0.4025311283089876,0.4406865153935954,0.510613550735757,,-1.505708951220427,0.15755147336705422,0.10738855247000001,1.3977931632678393,-0.3881842958336163,2.1242521411924566,-0.10748039551635546
2.1120774739993067,,-0.039251037,0.054261956,0.17624235,0.05971692,-0.5135932,-0.8559532,-0.9877013,-0.15452853,0.023812413,-0.1444991,0.84400415,-0.5165046,,-0.14089254,0.08787243,0.40861148,-0.025526524,0.57358027,-0.8187516,-0.9843825,0.12828228,0.1205592,0.17418166,0.8090423,0.56134784,,1.1926584e-06,3.410076e-06,-6.994471e-07,-0.84253925,-0.5097181,0.17411232,-0.5334328,0.8344238,-0.13851462,-0.074680045,-0.20958121,-0.9749352,,-0.005745713258423035,0.028967971011216134,0.12527994705,0.003145349152267865,0.4025311283089876,0.4406865153935954,0.510613550735757,,-1.505716673953301,0.15755147336705422,0.10738855247000001,1.3977931632678393,-0.3881842958336163,2.1242521411924566,-0.10748039551635546
2.1374387590003607,,-0.03925028,0.054262076,0.17624184,0.05971956,-0.51359904,-0.8559496,-0.9877009,-0.15453126,0.023812119,-0.1445009,0.84400004,-0.5165107,,-0.1408927,0.0878717,0.40861136,-0.025526747,0.5735818,-0.8187505,-0.98438126,0.128288,0.12056378,0.17418906,0.8090402,0.56134844,,1.1926584e-06,3.410076e-06,-6.994471e-07,-0.84253925,-0.5097181,0.17411232,-0.5334328,0.8344238,-0.13851462,-0.074680045,-0.20958121,-0.9749352,,-0.00575343599129726,0.028967971011216134,0.12527994705,0.003145349152267865,0.4025311283089876,0.4406865153935954,0.510613550735757,,-1.505708951220427,0.15755147336705422,0.10738855247000001,1.3977931632678393,-0.3881842958336163,2.1242521411924566,-0.10748039551635546
2.1683280689994717,,-0.03925028,0.054262076,0.17624184,0.05971956,-0.51359904,-0.8559496,-0.9877009,-0.15453126,0.023812119,-0.1445009,0.84400004,-0.5165107,,-0.1408927,0.0878717,0.40861136,-0.025526747,0.5735818,-0.8187505,-0.98438126,0.128288,0.12056378,0.17418906,0.8090402,0.56134844,,1.1926584e-06,3.410076e-06,-6.994471e-07,-0.84253925,-0.5097181,0.17411232,-0.5334328,0.8344238,-0.13851462,-0.074680045,-0.20958121,-0.9749352,,-0.00575343599129726,0.028967971011216134,0.12527994705,0.003145349152267865,0.4025311283089876,0.4406865153935954,0.510613550735757,,-1.505708951220427,0.15755147336705422,0.10738855247000001,1.3977931632678393,-0.3881842958336163,2.1242521411924566,-0.10748039551635546
2.1971453030000703,,-0.03924966,0.054262172,0.17624144,0.059559476,-0.51367974,-0.8559123,-0.9877258,-0.15435696,0.02390612,-0.1443961,0.8439829,-0.5165682,,-0.1408927,0.0878717,0.40861136,-0.025526747,0.5735818,-0.8187505,-0.98438126,0.128288,0.12056378,0.17418906,0.8090402,0.56134844,,1.1926584e-06,3.410076e-06,-6.994471e-07,-0.84253925,-0.5097181,0.17411232,-0.5334328,0.8344238,-0.13851462,-0.074680045,-0.20958121,-0.9749352,,-0.00575343599129726,0.028967971011216134,0.12527994705,0.0033550390957523897,0.4025311283089876,0.4406865153935954,0.510613550735757,,-1.505708951220427,0.15755147336705422,0.10738855247000001,1.3977931632678393,-0.3881842958336163,2.1242521411924566,-0.10748039551635546
2.219776265999826,,-0.039249044,0.054262273,0.17624106,0.05939946,-0.5137604,-0.855875,-0.98775077,-0.15418261,0.024000026,-0.14429137,0.8439656,-0.5166256,,-0.1408927,0.0878717,0.40861136,-0.025526747,0.5735818,-0.8187505,-0.98438126,0.128288,0.12056378,0.17418906,0.8090402,0.56134844,,1.1926584e-06,3.410076e-06,-6.994471e-07,-0.84253925,-0.5097181,0.17411232,-0.5334328,0.8344238,-0.13851462,-0.074680045,-0.20958121,-0.9749352,,-0.00575343599129726,0.028967971011216134,0.12527994705,0.0035647290392369145,0.4025311283089876,0.4406865153935954,0.510613550735757,,-1.505708951220427,0.15755147336705422,0.10738855247000001,1.3977931632678393,-0.3881842958336163,2.1242521411924566,-0.10748039551635546
2.249384312000984,,-0.039249044,0.054262273,0.17624106,0.05939946,-0.5137604,-0.855875,-0.98775077,-0.15418261,0.024000026,-0.14429137,0.8439656,-0.5166256,,-0.14089328,0.087872595,0.40861157,-0.02552371,0.57358605,-0.8187476,-0.98438287,0.12828179,0.12055701,0.1741802,0.8090382,0.5613541,,1.1926584e-06,3.410076e-06,-6.994471e-07,-0.84253925,-0.5097181,0.17411232,-0.5334328,0.8344238,-0.13851462,-0.074680045,-0.20958121,-0.9749352,,-0.00575343599129726,0.028967971011216134,0.12527994705,0.0035647290392369145,0.4025311283089876,0.4406865153935954,0.510613550735757,,-1.505716673953301,0.15755919609992844,0.10738855247000001,1.3977931632678393,-0.3881842958336163,2.1242521411924566,-0.10748039551635546
2.2784498679993703,,-0.039249044,0.054262273,0.17624106,0.05939946,-0.5137604,-0.855875,-0.98775077,-0.15418261,0.024000026,-0.14429137,0.8439656,-0.5166256,,-0.14089254,0.08787243,0.40861148,-0.025526524,0.57358027,-0.8187516,-0.9843825,0.12828228,0.1205592,0.17418166,0.8090423,0.56134784,,1.1926584e-06,3.410076e-06,-6.994471e-07,-0.84253925,-0.5097181,0.17411232,-0.5334328,0.8344238,-0.13851462,-0.074680045,-0.20958121,-0.9749352,,-0.00575343599129726,0.028967971011216134,0.12527994705,0.0035647290392369145,0.4025311283089876,0.4406865153935954,0.510613550735757,,-1.505716673953301,0.15755147336705422,0.10738855247000001,1.3977931632678393,-0.3881842958336163,2.1242521411924566,-0.10748039551635546
2.301419170000372,,-0.039249044,0.054262273,0.17624106,0.05939946,-0.5137604,-0.855875,-0.98775077,-0.15418261,0.024000026,-0.14429137,0.8439656,-0.5166256,,-0.1408927,0.0878717,0.40861136,-0.025526747,0.5735818,-0.8187505,-0.98438126,0.128288,0.12056378,0.17418906,0.8090402,0.56134844,,1.1926584e-06,3.410076e-06,-6.994471e-07,-0.84253925,-0.5097181,0.17411232,-0.5334328,0.8344238,-0.13851462,-0.074680045,-0.20958121,-0.9749352,,-0.00575343599129726,0.028967971011216134,0.12527994705,0.0035647290392369145,0.4025311283089876,0.4406865153935954,0.510613550735757,,-1.505708951220427,0.15755147336705422,0.10738855247000001,1.3977931632678393,-0.3881842958336163,2.1242521411924566,-0.10748039551635546
2.325147769000978,,-0.039249796,0.05426215,0.17624155,0.059396762,-0.5137546,-0.85587865,-0.9877512,-0.15417987,0.024000317,-0.14428957,0.8439697,-0.5166195,,-0.1408927,0.0878717,0.40861136,-0.025526747,0.5735818,-0.8187505,-0.98438126,0.128288,0.12056378,0.17418906,0.8090402,0.56134844,,1.1926584e-06,3.410076e-06,-6.994471e-07,-0.84253925,-0.5097181,0.17411232,-0.5334328,0.8344238,-0.13851462,-0.074680045,-0.20958121,-0.9749352,,-0.005745713258423035,0.028967971011216134,0.12527994705,0.0035647290392369145,0.4025311283089876,0.4406865153935954,0.510613550735757,,-1.505708951220427,0.15755147336705422,0.10738855247000001,1.3977931632678393,-0.3881842958336163,2.1242521411924566,-0.10748039551635546
2.351273909000156,,-0.039249796,0.05426215,0.17624155,0.059396762,-0.5137546,-0.85587865,-0.9877512,-0.15417987,0.024000317,-0.14428957,0.8439697,-0.5166195,,-0.1408927,0.0878717,0.40861136,-0.025526747,0.5735818,-0.8187505,-0.98438126,0.128288,0.12056378,0.17418906,0.8090402,0.56134844,,1.1926584e-06,3.410076e-06,-6.994471e-07,-0.84253925,-0.5097181,0.17411232,-0.5334328,0.8344238,-0.13851462,-0.074680045,-0.20958121,-0.9749352,,-0.005745713258423035,0.028967971011216134,0.12527994705,0.0035647290392369145,0.4025311283089876,0.4406865153935954,0.510613550735757,,-1.505708951220427,0.15755147336705422,0.10738855247000001,1.3977931632678393,-0.3881842958336163,2.1242521411924566,-0.10748039551635546
2.3785479220005072,,-0.039249796,0.05426215,0.17624155,0.059396762,-0.5137546,-0.85587865,-0.9877512,-0.15417987,0.024000317,-0.14428957,0.8439697,-0.5166195,,-0.1408927,0.0878717,0.40861136,-0.025526747,0.5735818,-0.8187505,-0.98438126,0.128288,0.12056378,0.17418906,0.8090402,0.56134844,,1.1926584e-06,3.410076e-06,-6.994471e-07,-0.84253925,-0.5097181,0.17411232,-0.5334328,0.8344238,-0.13851462,-0.074680045,-0.20958121,-0.9749352,,-0.005745713258423035,0.028967971011216134,0.12527994705,0.0035647290392369145,0.4025311283089876,0.4406865153935954,0.510613550735757,,-1.505708951220427,0.15755147336705422,0.10738855247000001,1.3977931632678393,-0.3881842958336163,2.1242521411924566,-0.10748039551635546
2.4043108229998325,,-0.039249044,0.054262273,0.17624106,0.05939946,-0.5137604,-0.855875,-0.98775077,-0.15418261,0.024000026,-0.14429137,0.8439656,-0.5166256,,-0.1408927,0.0878717,0.40861136,-0.025526747,0.5735818,-0.8187505,-0.98438126,0.128288,0.12056378,0.17418906,0.8090402,0.56134844,,1.1926584e-06,3.410076e-06,-6.994471e-07,-0.84253925,-0.5097181,0.17411232,-0.5334328,0.8344238,-0.13851462,-0.074680045,-0.20958121,-0.9749352,,-0.00575343599129726,0.028967971011216134,0.12527994705,0.0035647290392369145,0.4025311283089876,0.4406865153935954,0.510613550735757,,-1.505708951220427,0.15755147336705422,0.10738855247000001,1.3977931632678393,-0.3881842958336163,2.1242521411924566,-0.10748039551635546
2.4314873610001086,,-0.039249282,0.05426314,0.1762409,0.059395093,-0.5137602,-0.8558755,-0.9877501,-0.15418586,0.024006952,-0.14429776,0.8439652,-0.51662457,,-0.14089254,0.08787243,0.40861148,-0.025526524,0.57358027,-0.8187516,-0.9843825,0.12828228,0.1205592,0.17418166,0.8090423,0.56134784,,1.1926584e-06,3.410076e-06,-6.994471e-07,-0.84253925,-0.5097181,0.17411232,-0.5334328,0.8344238,-0.13851462,-0.074680045,-0.20958121,-0.9749352,,-0.00575343599129726,0.02897569374409036,0.12527994705,0.0035647290392369145,0.4025311283089876,0.4406865153935954,0.510613550735757,,-1.505716673953301,0.15755147336705422,0.10738855247000001,1.3977931632678393,-0.3881842958336163,2.1242521411924566,-0.10748039551635546
2.4538357769997674,,-0.039249044,0.054262273,0.17624106,0.05939946,-0.5137604,-0.855875,-0.98775077,-0.15418261,0.024000026,-0.14429137,0.8439656,-0.5166256,,-0.14089254,0.08787243,0.40861148,-0.025526524,0.57358027,-0.8187516,-0.9843825,0.12828228,0.1205592,0.17418166,0.8090423,0.56134784,,1.1926584e-06,3.410076e-06,-6.994471e-07,-0.84253925,-0.5097181,0.17411232,-0.5334328,0.8344238,-0.13851462,-0.074680045,-0.20958121,-0.9749352,,-0.00575343599129726,0.028967971011216134,0.12527994705,0.0035647290392369145,0.4025311283089876,0.4406865153935954,0.510613550735757,,-1.505716673953301,0.15755147336705422,0.10738855247000001,1.3977931632678393,-0.3881842958336163,2.1242521411924566,-0.10748039551635546
