AlexandreBanks6/ExpertPlaybackApp/resources/Motions/Motion_12.csv
Time,si_T_psm1,Tx,Ty,Tz,R00,R01,R02,R10,R11,R12,R20,R21,R22,si_T_psm3,Tx,Ty,Tz,R00,R01,R02,R10,R11,R12,R20,R21,R22,si_T_ecm,Tx,Ty,Tz,R00,R01,R02,R10,R11,R12,R20,R21,R22,joint_vars_psm1,q1,q2,q3,q4,q5,q6,jaw,joint_vars_psm3,q1,q2,q3,q4,q5,q6,jaw
lci_T_si
0,0.0,0.0,0.0,0.9992399,-0.02691902,0.028195174,-0.02983044,-0.99364644,0.10852133,0.025094748,-0.109279916,-0.9936942
rci_T_si
0.027630650998617057,,-0.036915958,0.057966586,0.17154987,0.27761078,-0.824728,-0.49270272,-0.9331167,-0.109480835,-0.34250134,0.22852895,0.55483115,-0.7999605,,-0.13758855,0.10554185,0.40262467,-0.022195991,0.5790153,-0.8150145,-0.97566044,0.16534626,0.14403893,0.21816033,0.7983744,0.56125236,,-3.1683583e-06,2.4271014e-07,3.0982355e-06,-0.8420814,-0.5127762,0.16721071,-0.5374956,0.82352704,-0.18138815,-0.044691015,-0.24261862,-0.9690918,,-0.006008286176146668,0.028944802812593463,0.12527994705,-0.00020968994348452436,0.0008198189985926426,6.660123908653167e-05,0.0001633440661342792,,-1.5057398421519237,0.15755919609992844,0.10738984876000002,1.3973737833808704,-0.3881842958336163,2.1242521411924566,-0.10748039551635546
0.06290233599975181,,-0.03691697,0.057967342,0.17155017,0.2776068,-0.8247243,-0.4927112,-0.93311936,-0.10947799,-0.342495,0.22852291,0.5548373,-0.79995805,,-0.13758871,0.10554111,0.40262458,-0.022196164,0.5790168,-0.8150134,-0.97565883,0.16535194,0.14404356,0.2181677,0.79837227,0.5612527,,-3.1683583e-06,2.4271014e-07,3.0982355e-06,-0.8420814,-0.5127762,0.16721071,-0.5374956,0.82352704,-0.18138815,-0.044691015,-0.24261862,-0.9690918,,-0.006000563443272444,0.028952525545467688,0.12527994705,-0.00020968994348452436,0.0008198189985926426,6.660123908653167e-05,0.0001633440661342792,,-1.5057321194190496,0.15755919609992844,0.10738984876000002,1.3973737833808704,-0.3881842958336163,2.1242521411924566,-0.10748039551635546
0.09500826799921924,,-0.03693987,0.0579506,0.17155695,0.27723813,-0.8248629,-0.49268672,-0.9331658,-0.109065026,-0.34250024,0.22878085,0.55471253,-0.7999708,,-0.1376688,0.10536409,0.40266547,-0.022394516,0.5789735,-0.8150387,-0.97566086,0.16522354,0.1441768,0.21813813,0.7984302,0.5611818,,-2.2751261e-05,-1.669816e-05,4.6739137e-06,-0.84208995,-0.51276153,0.16721253,-0.5374816,0.8235363,-0.18138745,-0.044697076,-0.24261822,-0.9690916,,-0.006008286176146668,0.028944802812593463,0.12527994705,0.00020968994348452436,0.0008198189985926426,6.660123908653167e-05,0.0001633440661342792,,-1.5057321194190496,0.15755147336705422,0.10738984876000002,1.3973737833808704,-0.3881842958336163,2.1242521411924566,-0.10748039551635546
0.12093629799892369,,-0.03693987,0.0579506,0.17155695,0.27723813,-0.8248629,-0.49268672,-0.9331658,-0.109065026,-0.34250024,0.22878085,0.55471253,-0.7999708,,-0.1376688,0.10536409,0.40266547,-0.022394516,0.5789735,-0.8150387,-0.97566086,0.16522354,0.1441768,0.21813813,0.7984302,0.5611818,,-2.2751261e-05,-1.669816e-05,4.6739137e-06,-0.84208995,-0.51276153,0.16721253,-0.5374816,0.8235363,-0.18138745,-0.044697076,-0.24261822,-0.9690916,,-0.006008286176146668,0.028944802812593463,0.12527994705,0.00020968994348452436,0.0008198189985926426,6.660123908653167e-05,0.0001633440661342792,,-1.5057321194190496,0.15755147336705422,0.10738984876000002,1.3973737833808704,-0.3881842958336163,2.1242521411924566,-0.10748039551635546
0.1453419669996947,,-0.036940627,0.057950504,0.17155747,0.27723798,-0.82485914,-0.49269307,-0.9331658,-0.10906219,-0.34250107,0.22878098,0.5547186,-0.7999665,,-0.13766864,0.10536483,0.40266556,-0.02239437,0.57897204,-0.81503975,-0.9756625,0.16521789,0.14417213,0.21813078,0.7984324,0.5611814,,-2.2751261e-05,-1.669816e-05,4.6739137e-06,-0.84208995,-0.51276153,0.16721253,-0.5374816,0.8235363,-0.18138745,-0.044697076,-0.24261822,-0.9690916,,-0.006000563443272444,0.028944802812593463,0.12527994705,0.00020968994348452436,0.0008198189985926426,6.660123908653167e-05,0.0001633440661342792,,-1.5057398421519237,0.15755147336705422,0.10738984876000002,1.3973737833808704,-0.3881842958336163,2.1242521411924566,-0.10748039551635546
0.17883097099911538,,-0.036940128,0.057951458,0.17155674,0.27723435,-0.8248629,-0.49268883,-0.9331684,-0.109065026,-0.34249306,0.22877468,0.55471253,-0.79997253,,-0.1376694,0.105364986,0.4026656,-0.02239163,0.57897776,-0.8150357,-0.9756629,0.16521724,0.14417022,0.2181293,0.7984284,0.5611877,,-2.2751261e-05,-1.669816e-05,4.6739137e-06,-0.84208995,-0.51276153,0.16721253,-0.5374816,0.8235363,-0.18138745,-0.044697076,-0.24261822,-0.9690916,,-0.006008286176146668,0.028952525545467688,0.12527994705,0.00020968994348452436,0.0008198189985926426,6.660123908653167e-05,0.0001633440661342792,,-1.5057398421519237,0.15755919609992844,0.10738984876000002,1.3973737833808704,-0.3881842958336163,2.1242521411924566,-0.10748039551635546
0.21153688300000795,,-0.036940128,0.057951458,0.17155674,0.27723435,-0.8248629,-0.49268883,-0.9331684,-0.109065026,-0.34249306,0.22877468,0.55471253,-0.79997253,,-0.13766864,0.10536483,0.40266556,-0.02239437,0.57897204,-0.81503975,-0.9756625,0.16521789,0.14417213,0.21813078,0.7984324,0.5611814,,-2.2751261e-05,-1.669816e-05,4.6739137e-06,-0.84208995,-0.51276153,0.16721253,-0.5374816,0.8235363,-0.18138745,-0.044697076,-0.24261822,-0.9690916,,-0.006008286176146668,0.028952525545467688,0.12527994705,0.00020968994348452436,0.0008198189985926426,6.660123908653167e-05,0.0001633440661342792,,-1.5057398421519237,0.15755147336705422,0.10738984876000002,1.3973737833808704,-0.3881842958336163,2.1242521411924566,-0.10748039551635546
0.24263616499956697,,-0.03693987,0.0579506,0.17155695,0.27723813,-0.8248629,-0.49268672,-0.9331658,-0.109065026,-0.34250024,0.22878085,0.55471253,-0.7999708,,-0.1376688,0.10536409,0.40266547,-0.022394516,0.5789735,-0.8150387,-0.97566086,0.16522354,0.1441768,0.21813813,0.7984302,0.5611818,,-2.2751261e-05,-1.669816e-05,4.6739137e-06,-0.84208995,-0.51276153,0.16721253,-0.5374816,0.8235363,-0.18138745,-0.044697076,-0.24261822,-0.9690916,,-0.006008286176146668,0.028944802812593463,0.12527994705,0.00020968994348452436,0.0008198189985926426,6.660123908653167e-05,0.0001633440661342792,,-1.5057321194190496,0.15755147336705422,0.10738984876000002,1.3973737833808704,-0.3881842958336163,2.1242521411924566,-0.10748039551635546
0.26562812900010613,,-0.036940128,0.057951458,0.17155674,0.27723435,-0.8248629,-0.49268883,-0.9331684,-0.109065026,-0.34249306,0.22877468,0.55471253,-0.79997253,,-0.13766824,0.10536319,0.40266532,-0.022397459,0.5789693,-0.8150416,-0.9756588,0.16522987,0.14418334,0.21814695,0.79843193,0.56117576,,-2.2751261e-05,-1.669816e-05,4.6739137e-06,-0.84208995,-0.51276153,0.16721253,-0.5374816,0.8235363,-0.18138745,-0.044697076,-0.24261822,-0.9690916,,-0.006008286176146668,0.028952525545467688,0.12527994705,0.00020968994348452436,0.0008198189985926426,6.660123908653167e-05,0.0001633440661342792,,-1.5057243966861753,0.15754375063418,0.10738984876000002,1.3973737833808704,-0.3881842958336163,2.1242521411924566,-0.10748039551635546
0.29600484000002325,,-0.036939114,0.057950705,0.17155644,0.2772383,-0.8248666,-0.49268037,-0.9331657,-0.10906787,-0.3424994,0.22878072,0.5547064,-0.7999751,,-0.1376679,0.10536467,0.4026655,-0.022397172,0.5789663,-0.8150438,-0.97566205,0.1652185,0.14417404,0.21813223,0.7984365,0.56117505,,-2.2751261e-05,-1.669816e-05,4.6739137e-06,-0.84208995,-0.51276153,0.16721253,-0.5374816,0.8235363,-0.18138745,-0.044697076,-0.24261822,-0.9690916,,-0.006016008909020893,0.028944802812593463,0.12527994705,0.00020968994348452436,0.0008198189985926426,6.660123908653167e-05,0.0001633440661342792,,-1.5057398421519237,0.15754375063418,0.10738984876000002,1.3973737833808704,-0.3881842958336163,2.1242521411924566,-0.10748039551635546
0.3209165549997124,,-0.036940128,0.057951458,0.17155674,0.27723435,-0.8248629,-0.49268883,-0.9331684,-0.109065026,-0.34249306,0.22877468,0.55471253,-0.79997253,,-0.13766806,0.10536393,0.40266538,-0.022397345,0.57896775,-0.8150427,-0.9756605,0.16522418,0.14417866,0.21813959,0.7984342,0.56117547,,-2.2751261e-05,-1.669816e-05,4.6739137e-06,-0.84208995,-0.51276153,0.16721253,-0.5374816,0.8235363,-0.18138745,-0.044697076,-0.24261822,-0.9690916,,-0.006008286176146668,0.028952525545467688,0.12527994705,0.00020968994348452436,0.0008198189985926426,6.660123908653167e-05,0.0001633440661342792,,-1.5057321194190496,0.15754375063418,0.10738984876000002,1.3973737833808704,-0.3881842958336163,2.1242521411924566,-0.10748039551635546
0.3453932699994766,,-0.03693987,0.0579506,0.17155695,0.27723813,-0.8248629,-0.49268672,-0.9331658,-0.109065026,-0.34250024,0.22878085,0.55471253,-0.7999708,,-0.1376679,0.10536467,0.4026655,-0.022397172,0.5789663,-0.8150438,-0.97566205,0.1652185,0.14417404,0.21813223,0.7984365,0.56117505,,-2.2751261e-05,-1.669816e-05,4.6739137e-06,-0.84208995,-0.51276153,0.16721253,-0.5374816,0.8235363,-0.18138745,-0.044697076,-0.24261822,-0.9690916,,-0.006008286176146668,0.028944802812593463,0.12527994705,0.00020968994348452436,0.0008198189985926426,6.660123908653167e-05,0.0001633440661342792,,-1.5057398421519237,0.15754375063418,0.10738984876000002,1.3973737833808704,-0.3881842958336163,2.1242521411924566,-0.10748039551635546
0.3717852409990883,,-0.03693987,0.0579506,0.17155695,0.27723813,-0.8248629,-0.49268672,-0.9331658,-0.109065026,-0.34250024,0.22878085,0.55471253,-0.7999708,,-0.1376679,0.10536467,0.4026655,-0.022397172,0.5789663,-0.8150438,-0.97566205,0.1652185,0.14417404,0.21813223,0.7984365,0.56117505,,-2.2751261e-05,-1.669816e-05,4.6739137e-06,-0.84208995,-0.51276153,0.16721253,-0.5374816,0.8235363,-0.18138745,-0.044697076,-0.24261822,-0.9690916,,-0.006008286176146668,0.028944802812593463,0.12527994705,0.00020968994348452436,0.0008198189985926426,6.660123908653167e-05,0.0001633440661342792,,-1.5057398421519237,0.15754375063418,0.10738984876000002,1.3973737833808704,-0.3881842958336163,2.1242521411924566,-0.10748039551635546
0.39621949899992615,,-0.036940128,0.057951458,0.17155674,0.27723435,-0.8248629,-0.49268883,-0.9331684,-0.109065026,-0.34249306,0.22877468,0.55471253,-0.79997253,,-0.13766806,0.10536393,0.40266538,-0.022397345,0.57896775,-0.8150427,-0.9756605,0.16522418,0.14417866,0.21813959,0.7984342,0.56117547,,-2.2751261e-05,-1.669816e-05,4.6739137e-06,-0.84208995,-0.51276153,0.16721253,-0.5374816,0.8235363,-0.18138745,-0.044697076,-0.24261822,-0.9690916,,-0.006008286176146668,0.028952525545467688,0.12527994705,0.00020968994348452436,0.0008198189985926426,6.660123908653167e-05,0.0001633440661342792,,-1.5057321194190496,0.15754375063418,0.10738984876000002,1.3973737833808704,-0.3881842958336163,2.1242521411924566,-0.10748039551635546
0.42300033699939377,,-0.036940884,0.057951357,0.17155725,0.2772341,-0.82485914,-0.49269518,-0.9331684,-0.10906219,-0.3424939,0.2287748,0.5547186,-0.7999683,,-0.1376679,0.10536467,0.4026655,-0.022397172,0.5789663,-0.8150438,-0.97566205,0.1652185,0.14417404,0.21813223,0.7984365,0.56117505,,-2.2751261e-05,-1.669816e-05,4.6739137e-06,-0.84208995,-0.51276153,0.16721253,-0.5374816,0.8235363,-0.18138745,-0.044697076,-0.24261822,-0.9690916,,-0.006000563443272444,0.028952525545467688,0.12527994705,0.00020968994348452436,0.0008198189985926426,6.660123908653167e-05,0.0001633440661342792,,-1.5057398421519237,0.15754375063418,0.10738984876000002,1.3973737833808704,-0.3881842958336163,2.1242521411924566,-0.10748039551635546
0.4467701189987565,,-0.036940884,0.057951357,0.17155725,0.2772341,-0.82485914,-0.49269518,-0.9331684,-0.10906219,-0.3424939,0.2287748,0.5547186,-0.7999683,,-0.13766824,0.10536319,0.40266532,-0.022397459,0.5789693,-0.8150416,-0.9756588,0.16522987,0.14418334,0.21814695,0.79843193,0.56117576,,-2.2751261e-05,-1.669816e-05,4.6739137e-06,-0.84208995,-0.51276153,0.16721253,-0.5374816,0.8235363,-0.18138745,-0.044697076,-0.24261822,-0.9690916,,-0.006000563443272444,0.028952525545467688,0.12527994705,0.00020968994348452436,0.0008198189985926426,6.660123908653167e-05,0.0001633440661342792,,-1.5057243966861753,0.15754375063418,0.10738984876000002,1.3973737833808704,-0.3881842958336163,2.1242521411924566,-0.10748039551635546
0.47364117899996927,,-0.03693987,0.0579506,0.17155695,0.27723813,-0.8248629,-0.49268672,-0.9331658,-0.109065026,-0.34250024,0.22878085,0.55471253,-0.7999708,,-0.13766806,0.10536393,0.40266538,-0.022397345,0.57896775,-0.8150427,-0.9756605,0.16522418,0.14417866,0.21813959,0.7984342,0.56117547,,-2.2751261e-05,-1.669816e-05,4.6739137e-06,-0.84208995,-0.51276153,0.16721253,-0.5374816,0.8235363,-0.18138745,-0.044697076,-0.24261822,-0.9690916,,-0.006008286176146668,0.028944802812593463,0.12527994705,0.00020968994348452436,0.0008198189985926426,6.660123908653167e-05,0.0001633440661342792,,-1.5057321194190496,0.15754375063418,0.10738984876000002,1.3973737833808704,-0.3881842958336163,2.1242521411924566,-0.10748039551635546
0.4980118549992767,,-0.03693987,0.0579506,0.17155695,0.27723813,-0.8248629,-0.49268672,-0.9331658,-0.109065026,-0.34250024,0.22878085,0.55471253,-0.7999708,,-0.1376679,0.10536467,0.4026655,-0.022397172,0.5789663,-0.8150438,-0.97566205,0.1652185,0.14417404,0.21813223,0.7984365,0.56117505,,-2.2751261e-05,-1.669816e-05,4.6739137e-06,-0.84208995,-0.51276153,0.16721253,-0.5374816,0.8235363,-0.18138745,-0.044697076,-0.24261822,-0.9690916,,-0.006008286176146668,0.028944802812593463,0.12527994705,0.00020968994348452436,0.0008198189985926426,6.660123908653167e-05,0.0001633440661342792,,-1.5057398421519237,0.15754375063418,0.10738984876000002,1.3973737833808704,-0.3881842958336163,2.1242521411924566,-0.10748039551635546
0.5271755750000011,,-0.036940128,0.057951458,0.17155674,0.27723435,-0.8248629,-0.49268883,-0.9331684,-0.109065026,-0.34249306,0.22877468,0.55471253,-0.79997253,,-0.13766806,0.10536393,0.40266538,-0.022397345,0.57896775,-0.8150427,-0.9756605,0.16522418,0.14417866,0.21813959,0.7984342,0.56117547,,-2.2751261e-05,-1.669816e-05,4.6739137e-06,-0.84208995,-0.51276153,0.16721253,-0.5374816,0.8235363,-0.18138745,-0.044697076,-0.24261822,-0.9690916,,-0.006008286176146668,0.028952525545467688,0.12527994705,0.00020968994348452436,0.0008198189985926426,6.660123908653167e-05,0.0001633440661342792,,-1.5057321194190496,0.15754375063418,0.10738984876000002,1.3973737833808704,-0.3881842958336163,2.1242521411924566,-0.10748039551635546
0.548409309998533,,-0.036940884,0.057951357,0.17155725,0.2772341,-0.82485914,-0.49269518,-0.9331684,-0.10906219,-0.3424939,0.2287748,0.5547186,-0.7999683,,-0.1376679,0.10536467,0.4026655,-0.022397172,0.5789663,-0.8150438,-0.97566205,0.1652185,0.14417404,0.21813223,0.7984365,0.56117505,,-2.2751261e-05,-1.669816e-05,4.6739137e-06,-0.84208995,-0.51276153,0.16721253,-0.5374816,0.8235363,-0.18138745,-0.044697076,-0.24261822,-0.9690916,,-0.006000563443272444,0.028952525545467688,0.12527994705,0.00020968994348452436,0.0008198189985926426,6.660123908653167e-05,0.0001633440661342792,,-1.5057398421519237,0.15754375063418,0.10738984876000002,1.3973737833808704,-0.3881842958336163,2.1242521411924566,-0.10748039551635546
0.5750961549983913,,-0.036940627,0.057950504,0.17155747,0.27723798,-0.82485914,-0.49269307,-0.9331658,-0.10906219,-0.34250107,0.22878098,0.5547186,-0.7999665,,-0.1376679,0.10536467,0.4026655,-0.022397172,0.5789663,-0.8150438,-0.97566205,0.1652185,0.14417404,0.21813223,0.7984365,0.56117505,,-2.2751261e-05,-1.669816e-05,4.6739137e-06,-0.84208995,-0.51276153,0.16721253,-0.5374816,0.8235363,-0.18138745,-0.044697076,-0.24261822,-0.9690916,,-0.006000563443272444,0.028944802812593463,0.12527994705,0.00020968994348452436,0.0008198189985926426,6.660123908653167e-05,0.0001633440661342792,,-1.5057398421519237,0.15754375063418,0.10738984876000002,1.3973737833808704,-0.3881842958336163,2.1242521411924566,-0.10748039551635546
0.6003646119988844,,-0.036940884,0.057951357,0.17155725,0.2772341,-0.82485914,-0.49269518,-0.9331684,-0.10906219,-0.3424939,0.2287748,0.5547186,-0.7999683,,-0.1376679,0.10536467,0.4026655,-0.022397172,0.5789663,-0.8150438,-0.97566205,0.1652185,0.14417404,0.21813223,0.7984365,0.56117505,,-2.2751261e-05,-1.669816e-05,4.6739137e-06,-0.84208995,-0.51276153,0.16721253,-0.5374816,0.8235363,-0.18138745,-0.044697076,-0.24261822,-0.9690916,,-0.006000563443272444,0.028952525545467688,0.12527994705,0.00020968994348452436,0.0008198189985926426,6.660123908653167e-05,0.0001633440661342792,,-1.5057398421519237,0.15754375063418,0.10738984876000002,1.3973737833808704,-0.3881842958336163,2.1242521411924566,-0.10748039551635546
0.6252499809997971,,-0.03693987,0.0579506,0.17155695,0.27723813,-0.8248629,-0.49268672,-0.9331658,-0.109065026,-0.34250024,0.22878085,0.55471253,-0.7999708,,-0.1376679,0.10536467,0.4026655,-0.022397172,0.5789663,-0.8150438,-0.97566205,0.1652185,0.14417404,0.21813223,0.7984365,0.56117505,,-2.2751261e-05,-1.669816e-05,4.6739137e-06,-0.84208995,-0.51276153,0.16721253,-0.5374816,0.8235363,-0.18138745,-0.044697076,-0.24261822,-0.9690916,,-0.006008286176146668,0.028944802812593463,0.12527994705,0.00020968994348452436,0.0008198189985926426,6.660123908653167e-05,0.0001633440661342792,,-1.5057398421519237,0.15754375063418,0.10738984876000002,1.3973737833808704,-0.3881842958336163,2.1242521411924566,-0.10748039551635546
0.6476473749989964,,-0.036940128,0.057951458,0.17155674,0.27723435,-0.8248629,-0.49268883,-0.9331684,-0.109065026,-0.34249306,0.22877468,0.55471253,-0.79997253,,-0.1376679,0.10536467,0.4026655,-0.022397172,0.5789663,-0.8150438,-0.97566205,0.1652185,0.14417404,0.21813223,0.7984365,0.56117505,,-2.2751261e-05,-1.669816e-05,4.6739137e-06,-0.84208995,-0.51276153,0.16721253,-0.5374816,0.8235363,-0.18138745,-0.044697076,-0.24261822,-0.9690916,,-0.006008286176146668,0.028952525545467688,0.12527994705,0.00020968994348452436,0.0008198189985926426,6.660123908653167e-05,0.0001633440661342792,,-1.5057398421519237,0.15754375063418,0.10738984876000002,1.3973737833808704,-0.3881842958336163,2.1242521411924566,-0.10748039551635546
0.67520508799862,,-0.03693987,0.0579506,0.17155695,0.27723813,-0.8248629,-0.49268672,-0.9331658,-0.109065026,-0.34250024,0.22878085,0.55471253,-0.7999708,,-0.13766806,0.10536393,0.40266538,-0.022397345,0.57896775,-0.8150427,-0.9756605,0.16522418,0.14417866,0.21813959,0.7984342,0.56117547,,-2.2751261e-05,-1.669816e-05,4.6739137e-06,-0.84208995,-0.51276153,0.16721253,-0.5374816,0.8235363,-0.18138745,-0.044697076,-0.24261822,-0.9690916,,-0.006008286176146668,0.028944802812593463,0.12527994705,0.00020968994348452436,0.0008198189985926426,6.660123908653167e-05,0.0001633440661342792,,-1.5057321194190496,0.15754375063418,0.10738984876000002,1.3973737833808704,-0.3881842958336163,2.1242521411924566,-0.10748039551635546
0.6976962230000936,,-0.036940627,0.057950504,0.17155747,0.27723798,-0.82485914,-0.49269307,-0.9331658,-0.10906219,-0.34250107,0.22878098,0.5547186,-0.7999665,,-0.13766806,0.10536393,0.40266538,-0.022397345,0.57896775,-0.8150427,-0.9756605,0.16522418,0.14417866,0.21813959,0.7984342,0.56117547,,-2.2751261e-05,-1.669816e-05,4.6739137e-06,-0.84208995,-0.51276153,0.16721253,-0.5374816,0.8235363,-0.18138745,-0.044697076,-0.24261822,-0.9690916,,-0.006000563443272444,0.028944802812593463,0.12527994705,0.00020968994348452436,0.0008198189985926426,6.660123908653167e-05,0.0001633440661342792,,-1.5057321194190496,0.15754375063418,0.10738984876000002,1.3973737833808704,-0.3881842958336163,2.1242521411924566,-0.10748039551635546
0.728412775999459,,-0.036940884,0.057951357,0.17155725,0.2772341,-0.82485914,-0.49269518,-0.9331684,-0.10906219,-0.3424939,0.2287748,0.5547186,-0.7999683,,-0.1376679,0.10536467,0.4026655,-0.022397172,0.5789663,-0.8150438,-0.97566205,0.1652185,0.14417404,0.21813223,0.7984365,0.56117505,,-2.2751261e-05,-1.669816e-05,4.6739137e-06,-0.84208995,-0.51276153,0.16721253,-0.5374816,0.8235363,-0.18138745,-0.044697076,-0.24261822,-0.9690916,,-0.006000563443272444,0.028952525545467688,0.12527994705,0.00020968994348452436,0.0008198189985926426,6.660123908653167e-05,0.0001633440661342792,,-1.5057398421519237,0.15754375063418,0.10738984876000002,1.3973737833808704,-0.3881842958336163,2.1242521411924566,-0.10748039551635546
0.7580636530001357,,-0.036940128,0.057951458,0.17155674,0.27723435,-0.8248629,-0.49268883,-0.9331684,-0.109065026,-0.34249306,0.22877468,0.55471253,-0.79997253,,-0.1376679,0.10536467,0.4026655,-0.022397172,0.5789663,-0.8150438,-0.97566205,0.1652185,0.14417404,0.21813223,0.7984365,0.56117505,,-2.2751261e-05,-1.669816e-05,4.6739137e-06,-0.84208995,-0.51276153,0.16721253,-0.5374816,0.8235363,-0.18138745,-0.044697076,-0.24261822,-0.9690916,,-0.006008286176146668,0.028952525545467688,0.12527994705,0.00020968994348452436,0.0008198189985926426,6.660123908653167e-05,0.0001633440661342792,,-1.5057398421519237,0.15754375063418,0.10738984876000002,1.3973737833808704,-0.3881842958336163,2.1242521411924566,-0.10748039551635546
0.787605616998917,,-0.036940884,0.057951357,0.17155725,0.2772341,-0.82485914,-0.49269518,-0.9331684,-0.10906219,-0.3424939,0.2287748,0.5547186,-0.7999683,,-0.1376679,0.10536467,0.4026655,-0.022397172,0.5789663,-0.8150438,-0.97566205,0.1652185,0.14417404,0.21813223,0.7984365,0.56117505,,-2.2751261e-05,-1.669816e-05,4.6739137e-06,-0.84208995,-0.51276153,0.16721253,-0.5374816,0.8235363,-0.18138745,-0.044697076,-0.24261822,-0.9690916,,-0.006000563443272444,0.028952525545467688,0.12527994705,0.00020968994348452436,0.0008198189985926426,6.660123908653167e-05,0.0001633440661342792,,-1.5057398421519237,0.15754375063418,0.10738984876000002,1.3973737833808704,-0.3881842958336163,2.1242521411924566,-0.10748039551635546
0.8109230029986065,,-0.03693987,0.0579506,0.17155695,0.27723813,-0.8248629,-0.49268672,-0.9331658,-0.109065026,-0.34250024,0.22878085,0.55471253,-0.7999708,,-0.1376679,0.10536467,0.4026655,-0.022397172,0.5789663,-0.8150438,-0.97566205,0.1652185,0.14417404,0.21813223,0.7984365,0.56117505,,-2.2751261e-05,-1.669816e-05,4.6739137e-06,-0.84208995,-0.51276153,0.16721253,-0.5374816,0.8235363,-0.18138745,-0.044697076,-0.24261822,-0.9690916,,-0.006008286176146668,0.028944802812593463,0.12527994705,0.00020968994348452436,0.0008198189985926426,6.660123908653167e-05,0.0001633440661342792,,-1.5057398421519237,0.15754375063418,0.10738984876000002,1.3973737833808704,-0.3881842958336163,2.1242521411924566,-0.10748039551635546
0.8377227279997896,,-0.036940627,0.057950504,0.17155747,0.27723798,-0.82485914,-0.49269307,-0.9331658,-0.10906219,-0.34250107,0.22878098,0.5547186,-0.7999665,,-0.13766806,0.10536393,0.40266538,-0.022397345,0.57896775,-0.8150427,-0.9756605,0.16522418,0.14417866,0.21813959,0.7984342,0.56117547,,-2.2751261e-05,-1.669816e-05,4.6739137e-06,-0.84208995,-0.51276153,0.16721253,-0.5374816,0.8235363,-0.18138745,-0.044697076,-0.24261822,-0.9690916,,-0.006000563443272444,0.028944802812593463,0.12527994705,0.00020968994348452436,0.0008198189985926426,6.660123908653167e-05,0.0001633440661342792,,-1.5057321194190496,0.15754375063418,0.10738984876000002,1.3973737833808704,-0.3881842958336163,2.1242521411924566,-0.10748039551635546
0.8628783749991271,,-0.036940884,0.057951357,0.17155725,0.2772341,-0.82485914,-0.49269518,-0.9331684,-0.10906219,-0.3424939,0.2287748,0.5547186,-0.7999683,,-0.1376679,0.10536467,0.4026655,-0.022397172,0.5789663,-0.8150438,-0.97566205,0.1652185,0.14417404,0.21813223,0.7984365,0.56117505,,-2.2751261e-05,-1.669816e-05,4.6739137e-06,-0.84208995,-0.51276153,0.16721253,-0.5374816,0.8235363,-0.18138745,-0.044697076,-0.24261822,-0.9690916,,-0.006000563443272444,0.028952525545467688,0.12527994705,0.00020968994348452436,0.0008198189985926426,6.660123908653167e-05,0.0001633440661342792,,-1.5057398421519237,0.15754375063418,0.10738984876000002,1.3973737833808704,-0.3881842958336163,2.1242521411924566,-0.10748039551635546
0.887534923000203,,-0.036940128,0.057951458,0.17155674,0.27723435,-0.8248629,-0.49268883,-0.9331684,-0.109065026,-0.34249306,0.22877468,0.55471253,-0.79997253,,-0.13766806,0.10536393,0.40266538,-0.022397345,0.57896775,-0.8150427,-0.9756605,0.16522418,0.14417866,0.21813959,0.7984342,0.56117547,,-2.2751261e-05,-1.669816e-05,4.6739137e-06,-0.84208995,-0.51276153,0.16721253,-0.5374816,0.8235363,-0.18138745,-0.044697076,-0.24261822,-0.9690916,,-0.006008286176146668,0.028952525545467688,0.12527994705,0.00020968994348452436,0.0008198189985926426,6.660123908653167e-05,0.0001633440661342792,,-1.5057321194190496,0.15754375063418,0.10738984876000002,1.3973737833808704,-0.3881842958336163,2.1242521411924566,-0.10748039551635546
0.9120553459997609,,-0.03693987,0.0579506,0.17155695,0.27723813,-0.8248629,-0.49268672,-0.9331658,-0.109065026,-0.34250024,0.22878085,0.55471253,-0.7999708,,-0.1376679,0.10536467,0.4026655,-0.022397172,0.5789663,-0.8150438,-0.97566205,0.1652185,0.14417404,0.21813223,0.7984365,0.56117505,,-2.2751261e-05,-1.669816e-05,4.6739137e-06,-0.84208995,-0.51276153,0.16721253,-0.5374816,0.8235363,-0.18138745,-0.044697076,-0.24261822,-0.9690916,,-0.006008286176146668,0.028944802812593463,0.12527994705,0.00020968994348452436,0.0008198189985926426,6.660123908653167e-05,0.0001633440661342792,,-1.5057398421519237,0.15754375063418,0.10738984876000002,1.3973737833808704,-0.3881842958336163,2.1242521411924566,-0.10748039551635546
0.9386560659986571,,-0.036939874,0.057950605,0.17155696,0.27758405,-0.8247463,-0.49268693,-0.9331199,-0.10945628,-0.34250027,0.22854821,0.55480874,-0.79997057,,-0.1376679,0.10536467,0.4026655,-0.022397172,0.5789663,-0.8150438,-0.97566205,0.1652185,0.14417404,0.21813223,0.7984365,0.56117505,,-2.2751261e-05,-1.669816e-05,4.6739137e-06,-0.84208995,-0.51276153,0.16721253,-0.5374816,0.8235363,-0.18138745,-0.044697076,-0.24261822,-0.9690916,,-0.006008286176146668,0.028944802812593463,0.12527994705,-0.00020968994348452436,0.0008198189985926426,6.660123908653167e-05,0.0001633440661342792,,-1.5057398421519237,0.15754375063418,0.10738984876000002,1.3973737833808704,-0.3881842958336163,2.1242521411924566,-0.10748039551635546
0.964039798000158,,-0.036940128,0.057951458,0.17155674,0.27758026,-0.8247463,-0.49268913,-0.9331226,-0.10945628,-0.34249312,0.22854204,0.55480874,-0.79997236,,-0.1376679,0.10536467,0.4026655,-0.022397172,0.5789663,-0.8150438,-0.97566205,0.1652185,0.14417404,0.21813223,0.7984365,0.56117505,,-2.2751261e-05,-1.669816e-05,4.6739137e-06,-0.84208995,-0.51276153,0.16721253,-0.5374816,0.8235363,-0.18138745,-0.044697076,-0.24261822,-0.9690916,,-0.006008286176146668,0.028952525545467688,0.12527994705,-0.00020968994348452436,0.0008198189985926426,6.660123908653167e-05,0.0001633440661342792,,-1.5057398421519237,0.15754375063418,0.10738984876000002,1.3973737833808704,-0.3881842958336163,2.1242521411924566,-0.10748039551635546
0.9916827229990304,,-0.036940888,0.05795136,0.17155726,0.27758005,-0.8247426,-0.49269545,-0.9331226,-0.10945342,-0.34249395,0.22854216,0.5548149,-0.79996806,,-0.1376679,0.10536467,0.4026655,-0.022397172,0.5789663,-0.8150438,-0.97566205,0.1652185,0.14417404,0.21813223,0.7984365,0.56117505,,-2.2751261e-05,-1.669816e-05,4.6739137e-06,-0.84208995,-0.51276153,0.16721253,-0.5374816,0.8235363,-0.18138745,-0.044697076,-0.24261822,-0.9690916,,-0.006000563443272444,0.028952525545467688,0.12527994705,-0.00020968994348452436,0.0008198189985926426,6.660123908653167e-05,0.0001633440661342792,,-1.5057398421519237,0.15754375063418,0.10738984876000002,1.3973737833808704,-0.3881842958336163,2.1242521411924566,-0.10748039551635546
1.0130114059993502,,-0.03694063,0.057950504,0.17155747,0.27758387,-0.8247426,-0.4926933,-0.9331199,-0.10945342,-0.34250116,0.22854833,0.5548149,-0.79996634,,-0.13766806,0.10536393,0.40266538,-0.022397345,0.57896775,-0.8150427,-0.9756605,0.16522418,0.14417866,0.21813959,0.7984342,0.56117547,,-2.2751261e-05,-1.669816e-05,4.6739137e-06,-0.84208995,-0.51276153,0.16721253,-0.5374816,0.8235363,-0.18138745,-0.044697076,-0.24261822,-0.9690916,,-0.006000563443272444,0.028944802812593463,0.12527994705,-0.00020968994348452436,0.0008198189985926426,6.660123908653167e-05,0.0001633440661342792,,-1.5057321194190496,0.15754375063418,0.10738984876000002,1.3973737833808704,-0.3881842958336163,2.1242521411924566,-0.10748039551635546
1.0418989390000206,,-0.036940128,0.057951458,0.17155674,0.27758026,-0.8247463,-0.49268913,-0.9331226,-0.10945628,-0.34249312,0.22854204,0.55480874,-0.79997236,,-0.1376679,0.10536467,0.4026655,-0.022397172,0.5789663,-0.8150438,-0.97566205,0.1652185,0.14417404,0.21813223,0.7984365,0.56117505,,-2.2751261e-05,-1.669816e-05,4.6739137e-06,-0.84208995,-0.51276153,0.16721253,-0.5374816,0.8235363,-0.18138745,-0.044697076,-0.24261822,-0.9690916,,-0.006008286176146668,0.028952525545467688,0.12527994705,-0.00020968994348452436,0.0008198189985926426,6.660123908653167e-05,0.0001633440661342792,,-1.5057398421519237,0.15754375063418,0.10738984876000002,1.3973737833808704,-0.3881842958336163,2.1242521411924566,-0.10748039551635546
1.0672732809998706,,-0.03694164,0.05795126,0.17155777,0.27757984,-0.82473886,-0.49270183,-0.93312263,-0.109450534,-0.3424948,0.22854228,0.55482095,-0.79996383,,-0.1376679,0.10536467,0.4026655,-0.022397172,0.5789663,-0.8150438,-0.97566205,0.1652185,0.14417404,0.21813223,0.7984365,0.56117505,,-2.2751261e-05,-1.669816e-05,4.6739137e-06,-0.84208995,-0.51276153,0.16721253,-0.5374816,0.8235363,-0.18138745,-0.044697076,-0.24261822,-0.9690916,,-0.0059928407103982196,0.028952525545467688,0.12527994705,-0.00020968994348452436,0.0008198189985926426,6.660123908653167e-05,0.0001633440661342792,,-1.5057398421519237,0.15754375063418,0.10738984876000002,1.3973737833808704,-0.3881842958336163,2.1242521411924566,-0.10748039551635546
1.0935463909991086,,-0.036941383,0.057950404,0.17155798,0.2775837,-0.82473886,-0.4926997,-0.93312,-0.109450534,-0.342502,0.22854848,0.55482095,-0.79996204,,-0.1376679,0.10536467,0.4026655,-0.022397172,0.5789663,-0.8150438,-0.97566205,0.1652185,0.14417404,0.21813223,0.7984365,0.56117505,,-2.2751261e-05,-1.669816e-05,4.6739137e-06,-0.84208995,-0.51276153,0.16721253,-0.5374816,0.8235363,-0.18138745,-0.044697076,-0.24261822,-0.9690916,,-0.0059928407103982196,0.028944802812593463,0.12527994705,-0.00020968994348452436,0.0008198189985926426,6.660123908653167e-05,0.0001633440661342792,,-1.5057398421519237,0.15754375063418,0.10738984876000002,1.3973737833808704,-0.3881842958336163,2.1242521411924566,-0.10748039551635546
1.11399393299871,,-0.03694164,0.05795126,0.17155777,0.27757984,-0.82473886,-0.49270183,-0.93312263,-0.109450534,-0.3424948,0.22854228,0.55482095,-0.79996383,,-0.1376679,0.10536467,0.4026655,-0.022397172,0.5789663,-0.8150438,-0.97566205,0.1652185,0.14417404,0.21813223,0.7984365,0.56117505,,-2.2751261e-05,-1.669816e-05,4.6739137e-06,-0.84208995,-0.51276153,0.16721253,-0.5374816,0.8235363,-0.18138745,-0.044697076,-0.24261822,-0.9690916,,-0.0059928407103982196,0.028952525545467688,0.12527994705,-0.00020968994348452436,0.0008198189985926426,6.660123908653167e-05,0.0001633440661342792,,-1.5057398421519237,0.15754375063418,0.10738984876000002,1.3973737833808704,-0.3881842958336163,2.1242521411924566,-0.10748039551635546
1.1430178499995236,,-0.03694063,0.057950504,0.17155747,0.27758387,-0.8247426,-0.4926933,-0.9331199,-0.10945342,-0.34250116,0.22854833,0.5548149,-0.79996634,,-0.13766806,0.10536393,0.40266538,-0.022397345,0.57896775,-0.8150427,-0.9756605,0.16522418,0.14417866,0.21813959,0.7984342,0.56117547,,-2.2751261e-05,-1.669816e-05,4.6739137e-06,-0.84208995,-0.51276153,0.16721253,-0.5374816,0.8235363,-0.18138745,-0.044697076,-0.24261822,-0.9690916,,-0.006000563443272444,0.028944802812593463,0.12527994705,-0.00020968994348452436,0.0008198189985926426,6.660123908653167e-05,0.0001633440661342792,,-1.5057321194190496,0.15754375063418,0.10738984876000002,1.3973737833808704,-0.3881842958336163,2.1242521411924566,-0.10748039551635546
1.169658568000159,,-0.036940888,0.05795136,0.17155726,0.27758005,-0.8247426,-0.49269545,-0.9331226,-0.10945342,-0.34249395,0.22854216,0.5548149,-0.79996806,,-0.13766806,0.10536393,0.40266538,-0.022397345,0.57896775,-0.8150427,-0.9756605,0.16522418,0.14417866,0.21813959,0.7984342,0.56117547,,-2.2751261e-05,-1.669816e-05,4.6739137e-06,-0.84208995,-0.51276153,0.16721253,-0.5374816,0.8235363,-0.18138745,-0.044697076,-0.24261822,-0.9690916,,-0.006000563443272444,0.028952525545467688,0.12527994705,-0.00020968994348452436,0.0008198189985926426,6.660123908653167e-05,0.0001633440661342792,,-1.5057321194190496,0.15754375063418,0.10738984876000002,1.3973737833808704,-0.3881842958336163,2.1242521411924566,-0.10748039551635546
1.195627525999953,,-0.036940128,0.057951458,0.17155674,0.27758026,-0.8247463,-0.49268913,-0.9331226,-0.10945628,-0.34249312,0.22854204,0.55480874,-0.79997236,,-0.1376688,0.10536409,0.40266547,-0.022394516,0.5789735,-0.8150387,-0.97566086,0.16522354,0.1441768,0.21813813,0.7984302,0.5611818,,-2.2751261e-05,-1.669816e-05,4.6739137e-06,-0.84208995,-0.51276153,0.16721253,-0.5374816,0.8235363,-0.18138745,-0.044697076,-0.24261822,-0.9690916,,-0.006008286176146668,0.028952525545467688,0.12527994705,-0.00020968994348452436,0.0008198189985926426,6.660123908653167e-05,0.0001633440661342792,,-1.5057321194190496,0.15755147336705422,0.10738984876000002,1.3973737833808704,-0.3881842958336163,2.1242521411924566,-0.10748039551635546
1.2249509849989408,,-0.036940128,0.057951458,0.17155674,0.27758026,-0.8247463,-0.49268913,-0.9331226,-0.10945628,-0.34249312,0.22854204,0.55480874,-0.79997236,,-0.1376694,0.105364986,0.4026656,-0.02239163,0.57897776,-0.8150357,-0.9756629,0.16521724,0.14417022,0.2181293,0.7984284,0.5611877,,-2.2751261e-05,-1.669816e-05,4.6739137e-06,-0.84208995,-0.51276153,0.16721253,-0.5374816,0.8235363,-0.18138745,-0.044697076,-0.24261822,-0.9690916,,-0.006008286176146668,0.028952525545467688,0.12527994705,-0.00020968994348452436,0.0008198189985926426,6.660123908653167e-05,0.0001633440661342792,,-1.5057398421519237,0.15755919609992844,0.10738984876000002,1.3973737833808704,-0.3881842958336163,2.1242521411924566,-0.10748039551635546
1.2455113349988096,,-0.036965914,0.05793717,0.17155163,0.27756092,-0.8247384,-0.49271345,-0.93312943,-0.10943486,-0.3424812,0.2285373,0.5548248,-0.7999626,,-0.13766171,0.105406,0.40263203,-0.022343293,0.5790217,-0.8150059,-0.97565866,0.16525635,0.14415416,0.21815328,0.7983885,0.56123513,,-2.0488771e-05,-1.8240968e-05,-2.3966522e-06,-0.8420843,-0.51277125,0.16721132,-0.5374909,0.82353014,-0.18138793,-0.04469304,-0.24261849,-0.9690917,,-0.006008286176146668,0.028952525545467688,0.12527994705,-0.00020968994348452436,0.0008198189985926426,6.660123908653167e-05,0.0001633440661342792,,-1.5057398421519237,0.15755919609992844,0.10738984876000002,1.3973737833808704,-0.3881842958336163,2.1242521411924566,-0.10748039551635546
1.270582134999131,,-0.036966413,0.05793621,0.17155232,0.27756456,-0.8247346,-0.4927177,-0.9331269,-0.109432034,-0.34248924,0.22854361,0.5548309,-0.79995644,,-0.13766171,0.105406,0.40263203,-0.022343293,0.5790217,-0.8150059,-0.97565866,0.16525635,0.14415416,0.21815328,0.7983885,0.56123513,,-2.0488771e-05,-1.8240968e-05,-2.3966522e-06,-0.8420843,-0.51277125,0.16721132,-0.5374909,0.82353014,-0.18138793,-0.04469304,-0.24261849,-0.9690917,,-0.006000563443272444,0.028944802812593463,0.12527994705,-0.00020968994348452436,0.0008198189985926426,6.660123908653167e-05,0.0001633440661342792,,-1.5057398421519237,0.15755919609992844,0.10738984876000002,1.3973737833808704,-0.3881842958336163,2.1242521411924566,-0.10748039551635546
1.2962965850001638,,-0.03696667,0.05793707,0.17155212,0.27756068,-0.8247346,-0.49271977,-0.9331295,-0.109432034,-0.342482,0.22853743,0.5548309,-0.7999582,,-0.13766171,0.105406,0.40263203,-0.022343293,0.5790217,-0.8150059,-0.97565866,0.16525635,0.14415416,0.21815328,0.7983885,0.56123513,,-2.0488771e-05,-1.8240968e-05,-2.3966522e-06,-0.8420843,-0.51277125,0.16721132,-0.5374909,0.82353014,-0.18138793,-0.04469304,-0.24261849,-0.9690917,,-0.006000563443272444,0.028952525545467688,0.12527994705,-0.00020968994348452436,0.0008198189985926426,6.660123908653167e-05,0.0001633440661342792,,-1.5057398421519237,0.15755919609992844,0.10738984876000002,1.3973737833808704,-0.3881842958336163,2.1242521411924566,-0.10748039551635546
1.321746591000192,,-0.036965914,0.05793717,0.17155163,0.27756092,-0.8247384,-0.49271345,-0.93312943,-0.10943486,-0.3424812,0.2285373,0.5548248,-0.7999626,,-0.13766186,0.10540526,0.4026319,-0.022343406,0.5790232,-0.8150048,-0.97565705,0.16526206,0.14415878,0.21816063,0.7983863,0.56123555,,-2.0488771e-05,-1.8240968e-05,-2.3966522e-06,-0.8420843,-0.51277125,0.16721132,-0.5374909,0.82353014,-0.18138793,-0.04469304,-0.24261849,-0.9690917,,-0.006008286176146668,0.028952525545467688,0.12527994705,-0.00020968994348452436,0.0008198189985926426,6.660123908653167e-05,0.0001633440661342792,,-1.5057321194190496,0.15755919609992844,0.10738984876000002,1.3973737833808704,-0.3881842958336163,2.1242521411924566,-0.10748039551635546
1.3448205449985835,,-0.036965657,0.057936314,0.17155182,0.2775647,-0.8247384,-0.49271125,-0.9331268,-0.10943486,-0.34248835,0.22854346,0.5548248,-0.7999608,,-0.13766186,0.10540526,0.4026319,-0.022343406,0.5790232,-0.8150048,-0.97565705,0.16526206,0.14415878,0.21816063,0.7983863,0.56123555,,-2.0488771e-05,-1.8240968e-05,-2.3966522e-06,-0.8420843,-0.51277125,0.16721132,-0.5374909,0.82353014,-0.18138793,-0.04469304,-0.24261849,-0.9690917,,-0.006008286176146668,0.028944802812593463,0.12527994705,-0.00020968994348452436,0.0008198189985926426,6.660123908653167e-05,0.0001633440661342792,,-1.5057321194190496,0.15755919609992844,0.10738984876000002,1.3973737833808704,-0.3881842958336163,2.1242521411924566,-0.10748039551635546
1.3704569949986762,,-0.036965657,0.057936314,0.17155182,0.2775647,-0.8247384,-0.49271125,-0.9331268,-0.10943486,-0.34248835,0.22854346,0.5548248,-0.7999608,,-0.13766186,0.10540526,0.4026319,-0.022343406,0.5790232,-0.8150048,-0.97565705,0.16526206,0.14415878,0.21816063,0.7983863,0.56123555,,-2.0488771e-05,-1.8240968e-05,-2.3966522e-06,-0.8420843,-0.51277125,0.16721132,-0.5374909,0.82353014,-0.18138793,-0.04469304,-0.24261849,-0.9690917,,-0.006008286176146668,0.028944802812593463,0.12527994705,-0.00020968994348452436,0.0008198189985926426,6.660123908653167e-05,0.0001633440661342792,,-1.5057321194190496,0.15755919609992844,0.10738984876000002,1.3973737833808704,-0.3881842958336163,2.1242521411924566,-0.10748039551635546
1.3953515109988075,,-0.036965914,0.05793717,0.17155163,0.27756092,-0.8247384,-0.49271345,-0.93312943,-0.10943486,-0.3424812,0.2285373,0.5548248,-0.7999626,,-0.13766186,0.10540526,0.4026319,-0.022343406,0.5790232,-0.8150048,-0.97565705,0.16526206,0.14415878,0.21816063,0.7983863,0.56123555,,-2.0488771e-05,-1.8240968e-05,-2.3966522e-06,-0.8420843,-0.51277125,0.16721132,-0.5374909,0.82353014,-0.18138793,-0.04469304,-0.24261849,-0.9690917,,-0.006008286176146668,0.028952525545467688,0.12527994705,-0.00020968994348452436,0.0008198189985926426,6.660123908653167e-05,0.0001633440661342792,,-1.5057321194190496,0.15755919609992844,0.10738984876000002,1.3973737833808704,-0.3881842958336163,2.1242521411924566,-0.10748039551635546
1.4215001649990882,,-0.036965914,0.05793717,0.17155163,0.27756092,-0.8247384,-0.49271345,-0.93312943,-0.10943486,-0.3424812,0.2285373,0.5548248,-0.7999626,,-0.13766171,0.105406,0.40263203,-0.022343293,0.5790217,-0.8150059,-0.97565866,0.16525635,0.14415416,0.21815328,0.7983885,0.56123513,,-2.0488771e-05,-1.8240968e-05,-2.3966522e-06,-0.8420843,-0.51277125,0.16721132,-0.5374909,0.82353014,-0.18138793,-0.04469304,-0.24261849,-0.9690917,,-0.006008286176146668,0.028952525545467688,0.12527994705,-0.00020968994348452436,0.0008198189985926426,6.660123908653167e-05,0.0001633440661342792,,-1.5057398421519237,0.15755919609992844,0.10738984876000002,1.3973737833808704,-0.3881842958336163,2.1242521411924566,-0.10748039551635546
1.44612778499868,,-0.036965914,0.05793717,0.17155163,0.27756092,-0.8247384,-0.49271345,-0.93312943,-0.10943486,-0.3424812,0.2285373,0.5548248,-0.7999626,,-0.13766171,0.105406,0.40263203,-0.022343293,0.5790217,-0.8150059,-0.97565866,0.16525635,0.14415416,0.21815328,0.7983885,0.56123513,,-2.0488771e-05,-1.8240968e-05,-2.3966522e-06,-0.8420843,-0.51277125,0.16721132,-0.5374909,0.82353014,-0.18138793,-0.04469304,-0.24261849,-0.9690917,,-0.006008286176146668,0.028952525545467688,0.12527994705,-0.00020968994348452436,0.0008198189985926426,6.660123908653167e-05,0.0001633440661342792,,-1.5057398421519237,0.15755919609992844,0.10738984876000002,1.3973737833808704,-0.3881842958336163,2.1242521411924566,-0.10748039551635546
1.473013106999133,,-0.036965657,0.057936314,0.17155182,0.2775647,-0.8247384,-0.49271125,-0.9331268,-0.10943486,-0.34248835,0.22854346,0.5548248,-0.7999608,,-0.13766171,0.105406,0.40263203,-0.022343293,0.5790217,-0.8150059,-0.97565866,0.16525635,0.14415416,0.21815328,0.7983885,0.56123513,,-2.0488771e-05,-1.8240968e-05,-2.3966522e-06,-0.8420843,-0.51277125,0.16721132,-0.5374909,0.82353014,-0.18138793,-0.04469304,-0.24261849,-0.9690917,,-0.006008286176146668,0.028944802812593463,0.12527994705,-0.00020968994348452436,0.0008198189985926426,6.660123908653167e-05,0.0001633440661342792,,-1.5057398421519237,0.15755919609992844,0.10738984876000002,1.3973737833808704,-0.3881842958336163,2.1242521411924566,-0.10748039551635546
1.4972155549985473,,-0.036965914,0.05793717,0.17155163,0.27756092,-0.8247384,-0.49271345,-0.93312943,-0.10943486,-0.3424812,0.2285373,0.5548248,-0.7999626,,-0.13766171,0.105406,0.40263203,-0.022343293,0.5790217,-0.8150059,-0.97565866,0.16525635,0.14415416,0.21815328,0.7983885,0.56123513,,-2.0488771e-05,-1.8240968e-05,-2.3966522e-06,-0.8420843,-0.51277125,0.16721132,-0.5374909,0.82353014,-0.18138793,-0.04469304,-0.24261849,-0.9690917,,-0.006008286176146668,0.028952525545467688,0.12527994705,-0.00020968994348452436,0.0008198189985926426,6.660123908653167e-05,0.0001633440661342792,,-1.5057398421519237,0.15755919609992844,0.10738984876000002,1.3973737833808704,-0.3881842958336163,2.1242521411924566,-0.10748039551635546
1.5220099219986878,,-0.036965657,0.057936314,0.17155182,0.2775647,-0.8247384,-0.49271125,-0.9331268,-0.10943486,-0.34248835,0.22854346,0.5548248,-0.7999608,,-0.13766186,0.10540526,0.4026319,-0.022343406,0.5790232,-0.8150048,-0.97565705,0.16526206,0.14415878,0.21816063,0.7983863,0.56123555,,-2.0488771e-05,-1.8240968e-05,-2.3966522e-06,-0.8420843,-0.51277125,0.16721132,-0.5374909,0.82353014,-0.18138793,-0.04469304,-0.24261849,-0.9690917,,-0.006008286176146668,0.028944802812593463,0.12527994705,-0.00020968994348452436,0.0008198189985926426,6.660123908653167e-05,0.0001633440661342792,,-1.5057321194190496,0.15755919609992844,0.10738984876000002,1.3973737833808704,-0.3881842958336163,2.1242521411924566,-0.10748039551635546
1.545850224998503,,-0.036965914,0.05793717,0.17155163,0.27756092,-0.8247384,-0.49271345,-0.93312943,-0.10943486,-0.3424812,0.2285373,0.5548248,-0.7999626,,-0.13766186,0.10540526,0.4026319,-0.022343406,0.5790232,-0.8150048,-0.97565705,0.16526206,0.14415878,0.21816063,0.7983863,0.56123555,,-2.0488771e-05,-1.8240968e-05,-2.3966522e-06,-0.8420843,-0.51277125,0.16721132,-0.5374909,0.82353014,-0.18138793,-0.04469304,-0.24261849,-0.9690917,,-0.006008286176146668,0.028952525545467688,0.12527994705,-0.00020968994348452436,0.0008198189985926426,6.660123908653167e-05,0.0001633440661342792,,-1.5057321194190496,0.15755919609992844,0.10738984876000002,1.3973737833808704,-0.3881842958336163,2.1242521411924566,-0.10748039551635546
1.5735092670001904,,-0.036965914,0.05793717,0.17155163,0.27756092,-0.8247384,-0.49271345,-0.93312943,-0.10943486,-0.3424812,0.2285373,0.5548248,-0.7999626,,-0.13766171,0.105406,0.40263203,-0.022343293,0.5790217,-0.8150059,-0.97565866,0.16525635,0.14415416,0.21815328,0.7983885,0.56123513,,-2.0488771e-05,-1.8240968e-05,-2.3966522e-06,-0.8420843,-0.51277125,0.16721132,-0.5374909,0.82353014,-0.18138793,-0.04469304,-0.24261849,-0.9690917,,-0.006008286176146668,0.028952525545467688,0.12527994705,-0.00020968994348452436,0.0008198189985926426,6.660123908653167e-05,0.0001633440661342792,,-1.5057398421519237,0.15755919609992844,0.10738984876000002,1.3973737833808704,-0.3881842958336163,2.1242521411924566,-0.10748039551635546
1.5979141609986982,,-0.036965657,0.057936314,0.17155182,0.2775647,-0.8247384,-0.49271125,-0.9331268,-0.10943486,-0.34248835,0.22854346,0.5548248,-0.7999608,,-0.13766171,0.105406,0.40263203,-0.022343293,0.5790217,-0.8150059,-0.97565866,0.16525635,0.14415416,0.21815328,0.7983885,0.56123513,,-2.0488771e-05,-1.8240968e-05,-2.3966522e-06,-0.8420843,-0.51277125,0.16721132,-0.5374909,0.82353014,-0.18138793,-0.04469304,-0.24261849,-0.9690917,,-0.006008286176146668,0.028944802812593463,0.12527994705,-0.00020968994348452436,0.0008198189985926426,6.660123908653167e-05,0.0001633440661342792,,-1.5057398421519237,0.15755919609992844,0.10738984876000002,1.3973737833808704,-0.3881842958336163,2.1242521411924566,-0.10748039551635546
1.6245926749998034,,-0.036965657,0.057936314,0.17155182,0.2775647,-0.8247384,-0.49271125,-0.9331268,-0.10943486,-0.34248835,0.22854346,0.5548248,-0.7999608,,-0.13766171,0.105406,0.40263203,-0.022343293,0.5790217,-0.8150059,-0.97565866,0.16525635,0.14415416,0.21815328,0.7983885,0.56123513,,-2.0488771e-05,-1.8240968e-05,-2.3966522e-06,-0.8420843,-0.51277125,0.16721132,-0.5374909,0.82353014,-0.18138793,-0.04469304,-0.24261849,-0.9690917,,-0.006008286176146668,0.028944802812593463,0.12527994705,-0.00020968994348452436,0.0008198189985926426,6.660123908653167e-05,0.0001633440661342792,,-1.5057398421519237,0.15755919609992844,0.10738984876000002,1.3973737833808704,-0.3881842958336163,2.1242521411924566,-0.10748039551635546
1.647141075000036,,-0.036965914,0.05793717,0.17155163,0.27756092,-0.8247384,-0.49271345,-0.93312943,-0.10943486,-0.3424812,0.2285373,0.5548248,-0.7999626,,-0.13766171,0.105406,0.40263203,-0.022343293,0.5790217,-0.8150059,-0.97565866,0.16525635,0.14415416,0.21815328,0.7983885,0.56123513,,-2.0488771e-05,-1.8240968e-05,-2.3966522e-06,-0.8420843,-0.51277125,0.16721132,-0.5374909,0.82353014,-0.18138793,-0.04469304,-0.24261849,-0.9690917,,-0.006008286176146668,0.028952525545467688,0.12527994705,-0.00020968994348452436,0.0008198189985926426,6.660123908653167e-05,0.0001633440661342792,,-1.5057398421519237,0.15755919609992844,0.10738984876000002,1.3973737833808704,-0.3881842958336163,2.1242521411924566,-0.10748039551635546
1.6737554390001605,,-0.036966413,0.05793621,0.17155232,0.27756456,-0.8247346,-0.4927177,-0.9331269,-0.109432034,-0.34248924,0.22854361,0.5548309,-0.79995644,,-0.13766186,0.10540526,0.4026319,-0.022343406,0.5790232,-0.8150048,-0.97565705,0.16526206,0.14415878,0.21816063,0.7983863,0.56123555,,-2.0488771e-05,-1.8240968e-05,-2.3966522e-06,-0.8420843,-0.51277125,0.16721132,-0.5374909,0.82353014,-0.18138793,-0.04469304,-0.24261849,-0.9690917,,-0.006000563443272444,0.028944802812593463,0.12527994705,-0.00020968994348452436,0.0008198189985926426,6.660123908653167e-05,0.0001633440661342792,,-1.5057321194190496,0.15755919609992844,0.10738984876000002,1.3973737833808704,-0.3881842958336163,2.1242521411924566,-0.10748039551635546
1.6987361960000271,,-0.03696667,0.05793707,0.17155212,0.27756068,-0.8247346,-0.49271977,-0.9331295,-0.109432034,-0.342482,0.22853743,0.5548309,-0.7999582,,-0.13766186,0.10540526,0.4026319,-0.022343406,0.5790232,-0.8150048,-0.97565705,0.16526206,0.14415878,0.21816063,0.7983863,0.56123555,,-2.0488771e-05,-1.8240968e-05,-2.3966522e-06,-0.8420843,-0.51277125,0.16721132,-0.5374909,0.82353014,-0.18138793,-0.04469304,-0.24261849,-0.9690917,,-0.006000563443272444,0.028952525545467688,0.12527994705,-0.00020968994348452436,0.0008198189985926426,6.660123908653167e-05,0.0001633440661342792,,-1.5057321194190496,0.15755919609992844,0.10738984876000002,1.3973737833808704,-0.3881842958336163,2.1242521411924566,-0.10748039551635546
1.7252272619989526,,-0.036965657,0.057936314,0.17155182,0.2775647,-0.8247384,-0.49271125,-0.9331268,-0.10943486,-0.34248835,0.22854346,0.5548248,-0.7999608,,-0.13766186,0.10540526,0.4026319,-0.022343406,0.5790232,-0.8150048,-0.97565705,0.16526206,0.14415878,0.21816063,0.7983863,0.56123555,,-2.0488771e-05,-1.8240968e-05,-2.3966522e-06,-0.8420843,-0.51277125,0.16721132,-0.5374909,0.82353014,-0.18138793,-0.04469304,-0.24261849,-0.9690917,,-0.006008286176146668,0.028944802812593463,0.12527994705,-0.00020968994348452436,0.0008198189985926426,6.660123908653167e-05,0.0001633440661342792,,-1.5057321194190496,0.15755919609992844,0.10738984876000002,1.3973737833808704,-0.3881842958336163,2.1242521411924566,-0.10748039551635546
1.7473231759995542,,-0.036965914,0.05793717,0.17155163,0.27756092,-0.8247384,-0.49271345,-0.93312943,-0.10943486,-0.3424812,0.2285373,0.5548248,-0.7999626,,-0.13766171,0.105406,0.40263203,-0.022343293,0.5790217,-0.8150059,-0.97565866,0.16525635,0.14415416,0.21815328,0.7983885,0.56123513,,-2.0488771e-05,-1.8240968e-05,-2.3966522e-06,-0.8420843,-0.51277125,0.16721132,-0.5374909,0.82353014,-0.18138793,-0.04469304,-0.24261849,-0.9690917,,-0.006008286176146668,0.028952525545467688,0.12527994705,-0.00020968994348452436,0.0008198189985926426,6.660123908653167e-05,0.0001633440661342792,,-1.5057398421519237,0.15755919609992844,0.10738984876000002,1.3973737833808704,-0.3881842958336163,2.1242521411924566,-0.10748039551635546
1.774620435999168,,-0.036965914,0.05793717,0.17155163,0.27756092,-0.8247384,-0.49271345,-0.93312943,-0.10943486,-0.3424812,0.2285373,0.5548248,-0.7999626,,-0.13766171,0.105406,0.40263203,-0.022343293,0.5790217,-0.8150059,-0.97565866,0.16525635,0.14415416,0.21815328,0.7983885,0.56123513,,-2.0488771e-05,-1.8240968e-05,-2.3966522e-06,-0.8420843,-0.51277125,0.16721132,-0.5374909,0.82353014,-0.18138793,-0.04469304,-0.24261849,-0.9690917,,-0.006008286176146668,0.028952525545467688,0.12527994705,-0.00020968994348452436,0.0008198189985926426,6.660123908653167e-05,0.0001633440661342792,,-1.5057398421519237,0.15755919609992844,0.10738984876000002,1.3973737833808704,-0.3881842958336163,2.1242521411924566,-0.10748039551635546
1.798545779000051,,-0.036965657,0.057936314,0.17155182,0.2775647,-0.8247384,-0.49271125,-0.9331268,-0.10943486,-0.34248835,0.22854346,0.5548248,-0.7999608,,-0.13766171,0.105406,0.40263203,-0.022343293,0.5790217,-0.8150059,-0.97565866,0.16525635,0.14415416,0.21815328,0.7983885,0.56123513,,-2.0488771e-05,-1.8240968e-05,-2.3966522e-06,-0.8420843,-0.51277125,0.16721132,-0.5374909,0.82353014,-0.18138793,-0.04469304,-0.24261849,-0.9690917,,-0.006008286176146668,0.028944802812593463,0.12527994705,-0.00020968994348452436,0.0008198189985926426,6.660123908653167e-05,0.0001633440661342792,,-1.5057398421519237,0.15755919609992844,0.10738984876000002,1.3973737833808704,-0.3881842958336163,2.1242521411924566,-0.10748039551635546
1.8253631459992903,,-0.036966413,0.057936214,0.17155232,0.27739155,-0.82479286,-0.49271756,-0.93314976,-0.109236404,-0.34248918,0.22865994,0.55478287,-0.79995656,,-0.13766186,0.10540526,0.4026319,-0.022343406,0.5790232,-0.8150048,-0.97565705,0.16526206,0.14415878,0.21816063,0.7983863,0.56123555,,-2.0488771e-05,-1.8240968e-05,-2.3966522e-06,-0.8420843,-0.51277125,0.16721132,-0.5374909,0.82353014,-0.18138793,-0.04469304,-0.24261849,-0.9690917,,-0.006000563443272444,0.028944802812593463,0.12527994705,0.0,0.0008198189985926426,6.660123908653167e-05,0.0001633440661342792,,-1.5057321194190496,0.15755919609992844,0.10738984876000002,1.3973737833808704,-0.3881842958336163,2.1242521411924566,-0.10748039551635546
1.8487477969993051,,-0.03696591,0.057937168,0.17155161,0.27721497,-0.82485485,-0.49271312,-0.93317527,-0.10904367,-0.34248108,0.22876993,0.5547287,-0.79996276,,-0.13766186,0.10540526,0.4026319,-0.022343406,0.5790232,-0.8150048,-0.97565705,0.16526206,0.14415878,0.21816063,0.7983863,0.56123555,,-2.0488771e-05,-1.8240968e-05,-2.3966522e-06,-0.8420843,-0.51277125,0.16721132,-0.5374909,0.82353014,-0.18138793,-0.04469304,-0.24261849,-0.9690917,,-0.006008286176146668,0.028952525545467688,0.12527994705,0.00020968994348452436,0.0008198189985926426,6.660123908653167e-05,0.0001633440661342792,,-1.5057321194190496,0.15755919609992844,0.10738984876000002,1.3973737833808704,-0.3881842958336163,2.1242521411924566,-0.10748039551635546
1.8750759039994591,,-0.03696591,0.057937168,0.17155161,0.27721497,-0.82485485,-0.49271312,-0.93317527,-0.10904367,-0.34248108,0.22876993,0.5547287,-0.79996276,,-0.13766186,0.10540526,0.4026319,-0.022343406,0.5790232,-0.8150048,-0.97565705,0.16526206,0.14415878,0.21816063,0.7983863,0.56123555,,-2.0488771e-05,-1.8240968e-05,-2.3966522e-06,-0.8420843,-0.51277125,0.16721132,-0.5374909,0.82353014,-0.18138793,-0.04469304,-0.24261849,-0.9690917,,-0.006008286176146668,0.028952525545467688,0.12527994705,0.00020968994348452436,0.0008198189985926426,6.660123908653167e-05,0.0001633440661342792,,-1.5057321194190496,0.15755919609992844,0.10738984876000002,1.3973737833808704,-0.3881842958336163,2.1242521411924566,-0.10748039551635546
1.9016174529988348,,-0.03696591,0.057937168,0.17155161,0.27721497,-0.82485485,-0.49271312,-0.93317527,-0.10904367,-0.34248108,0.22876993,0.5547287,-0.79996276,,-0.13766186,0.10540526,0.4026319,-0.022343406,0.5790232,-0.8150048,-0.97565705,0.16526206,0.14415878,0.21816063,0.7983863,0.56123555,,-2.0488771e-05,-1.8240968e-05,-2.3966522e-06,-0.8420843,-0.51277125,0.16721132,-0.5374909,0.82353014,-0.18138793,-0.04469304,-0.24261849,-0.9690917,,-0.006008286176146668,0.028952525545467688,0.12527994705,0.00020968994348452436,0.0008198189985926426,6.660123908653167e-05,0.0001633440661342792,,-1.5057321194190496,0.15755919609992844,0.10738984876000002,1.3973737833808704,-0.3881842958336163,2.1242521411924566,-0.10748039551635546
1.9294329849999485,,-0.03696591,0.057937168,0.17155161,0.27721497,-0.82485485,-0.49271312,-0.93317527,-0.10904367,-0.34248108,0.22876993,0.5547287,-0.79996276,,-0.13766171,0.105406,0.40263203,-0.022343293,0.5790217,-0.8150059,-0.97565866,0.16525635,0.14415416,0.21815328,0.7983885,0.56123513,,-2.0488771e-05,-1.8240968e-05,-2.3966522e-06,-0.8420843,-0.51277125,0.16721132,-0.5374909,0.82353014,-0.18138793,-0.04469304,-0.24261849,-0.9690917,,-0.006008286176146668,0.028952525545467688,0.12527994705,0.00020968994348452436,0.0008198189985926426,6.660123908653167e-05,0.0001633440661342792,,-1.5057398421519237,0.15755919609992844,0.10738984876000002,1.3973737833808704,-0.3881842958336163,2.1242521411924566,-0.10748039551635546
1.9526605769988237,,-0.03696591,0.057937168,0.17155161,0.27721497,-0.82485485,-0.49271312,-0.93317527,-0.10904367,-0.34248108,0.22876993,0.5547287,-0.79996276,,-0.13766171,0.105406,0.40263203,-0.022343293,0.5790217,-0.8150059,-0.97565866,0.16525635,0.14415416,0.21815328,0.7983885,0.56123513,,-2.0488771e-05,-1.8240968e-05,-2.3966522e-06,-0.8420843,-0.51277125,0.16721132,-0.5374909,0.82353014,-0.18138793,-0.04469304,-0.24261849,-0.9690917,,-0.006008286176146668,0.028952525545467688,0.12527994705,0.00020968994348452436,0.0008198189985926426,6.660123908653167e-05,0.0001633440661342792,,-1.5057398421519237,0.15755919609992844,0.10738984876000002,1.3973737833808704,-0.3881842958336163,2.1242521411924566,-0.10748039551635546
1.9792940229999658,,-0.036966667,0.05793707,0.17155212,0.2772148,-0.8248511,-0.49271956,-0.93317527,-0.10904078,-0.34248194,0.22877006,0.5547348,-0.79995847,,-0.13766171,0.105406,0.40263203,-0.022343293,0.5790217,-0.8150059,-0.97565866,0.16525635,0.14415416,0.21815328,0.7983885,0.56123513,,-2.0488771e-05,-1.8240968e-05,-2.3966522e-06,-0.8420843,-0.51277125,0.16721132,-0.5374909,0.82353014,-0.18138793,-0.04469304,-0.24261849,-0.9690917,,-0.006000563443272444,0.028952525545467688,0.12527994705,0.00020968994348452436,0.0008198189985926426,6.660123908653167e-05,0.0001633440661342792,,-1.5057398421519237,0.15755919609992844,0.10738984876000002,1.3973737833808704,-0.3881842958336163,2.1242521411924566,-0.10748039551635546
2.0050431999989087,,-0.03696591,0.057937168,0.17155161,0.27721497,-0.82485485,-0.49271312,-0.93317527,-0.10904367,-0.34248108,0.22876993,0.5547287,-0.79996276,,-0.13766186,0.10540526,0.4026319,-0.022343406,0.5790232,-0.8150048,-0.97565705,0.16526206,0.14415878,0.21816063,0.7983863,0.56123555,,-2.0488771e-05,-1.8240968e-05,-2.3966522e-06,-0.8420843,-0.51277125,0.16721132,-0.5374909,0.82353014,-0.18138793,-0.04469304,-0.24261849,-0.9690917,,-0.006008286176146668,0.028952525545467688,0.12527994705,0.00020968994348452436,0.0008198189985926426,6.660123908653167e-05,0.0001633440661342792,,-1.5057321194190496,0.15755919609992844,0.10738984876000002,1.3973737833808704,-0.3881842958336163,2.1242521411924566,-0.10748039551635546
2.0298713960000896,,-0.03696591,0.057937168,0.17155161,0.27721497,-0.82485485,-0.49271312,-0.93317527,-0.10904367,-0.34248108,0.22876993,0.5547287,-0.79996276,,-0.13766186,0.10540526,0.4026319,-0.022343406,0.5790232,-0.8150048,-0.97565705,0.16526206,0.14415878,0.21816063,0.7983863,0.56123555,,-2.0488771e-05,-1.8240968e-05,-2.3966522e-06,-0.8420843,-0.51277125,0.16721132,-0.5374909,0.82353014,-0.18138793,-0.04469304,-0.24261849,-0.9690917,,-0.006008286176146668,0.028952525545467688,0.12527994705,0.00020968994348452436,0.0008198189985926426,6.660123908653167e-05,0.0001633440661342792,,-1.5057321194190496,0.15755919609992844,0.10738984876000002,1.3973737833808704,-0.3881842958336163,2.1242521411924566,-0.10748039551635546
2.056339091999689,,-0.036965653,0.057936314,0.17155182,0.27721885,-0.82485485,-0.49271098,-0.93317264,-0.10904367,-0.3424883,0.22877613,0.5547287,-0.79996103,,-0.13766186,0.10540526,0.4026319,-0.022343406,0.5790232,-0.8150048,-0.97565705,0.16526206,0.14415878,0.21816063,0.7983863,0.56123555,,-2.0488771e-05,-1.8240968e-05,-2.3966522e-06,-0.8420843,-0.51277125,0.16721132,-0.5374909,0.82353014,-0.18138793,-0.04469304,-0.24261849,-0.9690917,,-0.006008286176146668,0.028944802812593463,0.12527994705,0.00020968994348452436,0.0008198189985926426,6.660123908653167e-05,0.0001633440661342792,,-1.5057321194190496,0.15755919609992844,0.10738984876000002,1.3973737833808704,-0.3881842958336163,2.1242521411924566,-0.10748039551635546
2.0797706379999,,-0.03696591,0.057937168,0.17155161,0.27721497,-0.82485485,-0.49271312,-0.93317527,-0.10904367,-0.34248108,0.22876993,0.5547287,-0.79996276,,-0.13766171,0.105406,0.40263203,-0.022343293,0.5790217,-0.8150059,-0.97565866,0.16525635,0.14415416,0.21815328,0.7983885,0.56123513,,-2.0488771e-05,-1.8240968e-05,-2.3966522e-06,-0.8420843,-0.51277125,0.16721132,-0.5374909,0.82353014,-0.18138793,-0.04469304,-0.24261849,-0.9690917,,-0.006008286176146668,0.028952525545467688,0.12527994705,0.00020968994348452436,0.0008198189985926426,6.660123908653167e-05,0.0001633440661342792,,-1.5057398421519237,0.15755919609992844,0.10738984876000002,1.3973737833808704,-0.3881842958336163,2.1242521411924566,-0.10748039551635546
2.107592032998582,,-0.03696591,0.057937168,0.17155161,0.27721497,-0.82485485,-0.49271312,-0.93317527,-0.10904367,-0.34248108,0.22876993,0.5547287,-0.79996276,,-0.13766171,0.105406,0.40263203,-0.022343293,0.5790217,-0.8150059,-0.97565866,0.16525635,0.14415416,0.21815328,0.7983885,0.56123513,,-2.0488771e-05,-1.8240968e-05,-2.3966522e-06,-0.8420843,-0.51277125,0.16721132,-0.5374909,0.82353014,-0.18138793,-0.04469304,-0.24261849,-0.9690917,,-0.006008286176146668,0.028952525545467688,0.12527994705,0.00020968994348452436,0.0008198189985926426,6.660123908653167e-05,0.0001633440661342792,,-1.5057398421519237,0.15755919609992844,0.10738984876000002,1.3973737833808704,-0.3881842958336163,2.1242521411924566,-0.10748039551635546
2.13123365499996,,-0.036965653,0.057936314,0.17155182,0.27721885,-0.82485485,-0.49271098,-0.93317264,-0.10904367,-0.3424883,0.22877613,0.5547287,-0.79996103,,-0.13766171,0.105406,0.40263203,-0.022343293,0.5790217,-0.8150059,-0.97565866,0.16525635,0.14415416,0.21815328,0.7983885,0.56123513,,-2.0488771e-05,-1.8240968e-05,-2.3966522e-06,-0.8420843,-0.51277125,0.16721132,-0.5374909,0.82353014,-0.18138793,-0.04469304,-0.24261849,-0.9690917,,-0.006008286176146668,0.028944802812593463,0.12527994705,0.00020968994348452436,0.0008198189985926426,6.660123908653167e-05,0.0001633440661342792,,-1.5057398421519237,0.15755919609992844,0.10738984876000002,1.3973737833808704,-0.3881842958336163,2.1242521411924566,-0.10748039551635546
2.161214168998413,,-0.036966413,0.057936214,0.17155232,0.27721864,-0.8248511,-0.49271733,-0.9331727,-0.10904078,-0.34248912,0.22877626,0.5547348,-0.7999567,,-0.13766171,0.105406,0.40263203,-0.022343293,0.5790217,-0.8150059,-0.97565866,0.16525635,0.14415416,0.21815328,0.7983885,0.56123513,,-2.0488771e-05,-1.8240968e-05,-2.3966522e-06,-0.8420843,-0.51277125,0.16721132,-0.5374909,0.82353014,-0.18138793,-0.04469304,-0.24261849,-0.9690917,,-0.006000563443272444,0.028944802812593463,0.12527994705,0.00020968994348452436,0.0008198189985926426,6.660123908653167e-05,0.0001633440661342792,,-1.5057398421519237,0.15755919609992844,0.10738984876000002,1.3973737833808704,-0.3881842958336163,2.1242521411924566,-0.10748039551635546
2.182196992000172,,-0.036966667,0.05793707,0.17155212,0.2772148,-0.8248511,-0.49271956,-0.93317527,-0.10904078,-0.34248194,0.22877006,0.5547348,-0.79995847,,-0.13766186,0.10540526,0.4026319,-0.022343406,0.5790232,-0.8150048,-0.97565705,0.16526206,0.14415878,0.21816063,0.7983863,0.56123555,,-2.0488771e-05,-1.8240968e-05,-2.3966522e-06,-0.8420843,-0.51277125,0.16721132,-0.5374909,0.82353014,-0.18138793,-0.04469304,-0.24261849,-0.9690917,,-0.006000563443272444,0.028952525545467688,0.12527994705,0.00020968994348452436,0.0008198189985926426,6.660123908653167e-05,0.0001633440661342792,,-1.5057321194190496,0.15755919609992844,0.10738984876000002,1.3973737833808704,-0.3881842958336163,2.1242521411924566,-0.10748039551635546
2.210129409999354,,-0.036966667,0.05793707,0.17155212,0.2772148,-0.8248511,-0.49271956,-0.93317527,-0.10904078,-0.34248194,0.22877006,0.5547348,-0.79995847,,-0.13766186,0.10540526,0.4026319,-0.022343406,0.5790232,-0.8150048,-0.97565705,0.16526206,0.14415878,0.21816063,0.7983863,0.56123555,,-2.0488771e-05,-1.8240968e-05,-2.3966522e-06,-0.8420843,-0.51277125,0.16721132,-0.5374909,0.82353014,-0.18138793,-0.04469304,-0.24261849,-0.9690917,,-0.006000563443272444,0.028952525545467688,0.12527994705,0.00020968994348452436,0.0008198189985926426,6.660123908653167e-05,0.0001633440661342792,,-1.5057321194190496,0.15755919609992844,0.10738984876000002,1.3973737833808704,-0.3881842958336163,2.1242521411924566,-0.10748039551635546
2.232879672999843,,-0.03696591,0.057937168,0.17155161,0.27721497,-0.82485485,-0.49271312,-0.93317527,-0.10904367,-0.34248108,0.22876993,0.5547287,-0.79996276,,-0.13766186,0.10540526,0.4026319,-0.022343406,0.5790232,-0.8150048,-0.97565705,0.16526206,0.14415878,0.21816063,0.7983863,0.56123555,,-2.0488771e-05,-1.8240968e-05,-2.3966522e-06,-0.8420843,-0.51277125,0.16721132,-0.5374909,0.82353014,-0.18138793,-0.04469304,-0.24261849,-0.9690917,,-0.006008286176146668,0.028952525545467688,0.12527994705,0.00020968994348452436,0.0008198189985926426,6.660123908653167e-05,0.0001633440661342792,,-1.5057321194190496,0.15755919609992844,0.10738984876000002,1.3973737833808704,-0.3881842958336163,2.1242521411924566,-0.10748039551635546
2.26220366599955,,-0.03696591,0.057937168,0.17155161,0.27721497,-0.82485485,-0.49271312,-0.93317527,-0.10904367,-0.34248108,0.22876993,0.5547287,-0.79996276,,-0.13766171,0.105406,0.40263203,-0.022343293,0.5790217,-0.8150059,-0.97565866,0.16525635,0.14415416,0.21815328,0.7983885,0.56123513,,-2.0488771e-05,-1.8240968e-05,-2.3966522e-06,-0.8420843,-0.51277125,0.16721132,-0.5374909,0.82353014,-0.18138793,-0.04469304,-0.24261849,-0.9690917,,-0.006008286176146668,0.028952525545467688,0.12527994705,0.00020968994348452436,0.0008198189985926426,6.660123908653167e-05,0.0001633440661342792,,-1.5057398421519237,0.15755919609992844,0.10738984876000002,1.3973737833808704,-0.3881842958336163,2.1242521411924566,-0.10748039551635546
2.2898268029985047,,-0.036966667,0.05793707,0.17155212,0.2772148,-0.8248511,-0.49271956,-0.93317527,-0.10904078,-0.34248194,0.22877006,0.5547348,-0.79995847,,-0.13766171,0.105406,0.40263203,-0.022343293,0.5790217,-0.8150059,-0.97565866,0.16525635,0.14415416,0.21815328,0.7983885,0.56123513,,-2.0488771e-05,-1.8240968e-05,-2.3966522e-06,-0.8420843,-0.51277125,0.16721132,-0.5374909,0.82353014,-0.18138793,-0.04469304,-0.24261849,-0.9690917,,-0.006000563443272444,0.028952525545467688,0.12527994705,0.00020968994348452436,0.0008198189985926426,6.660123908653167e-05,0.0001633440661342792,,-1.5057398421519237,0.15755919609992844,0.10738984876000002,1.3973737833808704,-0.3881842958336163,2.1242521411924566,-0.10748039551635546
2.314954013998431,,-0.036966667,0.05793707,0.17155212,0.2772148,-0.8248511,-0.49271956,-0.93317527,-0.10904078,-0.34248194,0.22877006,0.5547348,-0.79995847,,-0.13766171,0.105406,0.40263203,-0.022343293,0.5790217,-0.8150059,-0.97565866,0.16525635,0.14415416,0.21815328,0.7983885,0.56123513,,-2.0488771e-05,-1.8240968e-05,-2.3966522e-06,-0.8420843,-0.51277125,0.16721132,-0.5374909,0.82353014,-0.18138793,-0.04469304,-0.24261849,-0.9690917,,-0.006000563443272444,0.028952525545467688,0.12527994705,0.00020968994348452436,0.0008198189985926426,6.660123908653167e-05,0.0001633440661342792,,-1.5057398421519237,0.15755919609992844,0.10738984876000002,1.3973737833808704,-0.3881842958336163,2.1242521411924566,-0.10748039551635546
2.3429597679987637,,-0.036966667,0.05793707,0.17155212,0.2772148,-0.8248511,-0.49271956,-0.93317527,-0.10904078,-0.34248194,0.22877006,0.5547348,-0.79995847,,-0.13766186,0.10540526,0.4026319,-0.022343406,0.5790232,-0.8150048,-0.97565705,0.16526206,0.14415878,0.21816063,0.7983863,0.56123555,,-2.0488771e-05,-1.8240968e-05,-2.3966522e-06,-0.8420843,-0.51277125,0.16721132,-0.5374909,0.82353014,-0.18138793,-0.04469304,-0.24261849,-0.9690917,,-0.006000563443272444,0.028952525545467688,0.12527994705,0.00020968994348452436,0.0008198189985926426,6.660123908653167e-05,0.0001633440661342792,,-1.5057321194190496,0.15755919609992844,0.10738984876000002,1.3973737833808704,-0.3881842958336163,2.1242521411924566,-0.10748039551635546
2.3652566419987124,,-0.036966667,0.05793707,0.17155212,0.2772148,-0.8248511,-0.49271956,-0.93317527,-0.10904078,-0.34248194,0.22877006,0.5547348,-0.79995847,,-0.13766186,0.10540526,0.4026319,-0.022343406,0.5790232,-0.8150048,-0.97565705,0.16526206,0.14415878,0.21816063,0.7983863,0.56123555,,-2.0488771e-05,-1.8240968e-05,-2.3966522e-06,-0.8420843,-0.51277125,0.16721132,-0.5374909,0.82353014,-0.18138793,-0.04469304,-0.24261849,-0.9690917,,-0.006000563443272444,0.028952525545467688,0.12527994705,0.00020968994348452436,0.0008198189985926426,6.660123908653167e-05,0.0001633440661342792,,-1.5057321194190496,0.15755919609992844,0.10738984876000002,1.3973737833808704,-0.3881842958336163,2.1242521411924566,-0.10748039551635546
2.39452903900019,,-0.03695409,0.057947934,0.17157094,0.2772108,-0.82484156,-0.49273774,-0.9331694,-0.10901325,-0.34250677,0.22879882,0.55475444,-0.7999366,,-0.13770601,0.10533302,0.40268275,-0.022445858,0.57896626,-0.81504244,-0.97565764,0.16520362,0.14422172,0.21814749,0.7984396,0.56116474,,1.210409e-05,8.069867e-06,2.3001553e-06,-0.84206027,-0.5128123,0.16720623,-0.53752995,0.8235042,-0.1813899,-0.044676054,-0.24261957,-0.96909225,,-0.006008286176146668,0.028944802812593463,0.12527994705,0.00020968994348452436,0.0008198189985926426,6.660123908653167e-05,0.0001633440661342792,,-1.5057321194190496,0.15755919609992844,0.10738984876000002,1.3973737833808704,-0.3881842958336163,2.1242521411924566,-0.10748039551635546
2.416084710999712,,-0.03695409,0.057947934,0.17157094,0.2772108,-0.82484156,-0.49273774,-0.9331694,-0.10901325,-0.34250677,0.22879882,0.55475444,-0.7999366,,-0.13770601,0.10533302,0.40268275,-0.022445858,0.57896626,-0.81504244,-0.97565764,0.16520362,0.14422172,0.21814749,0.7984396,0.56116474,,1.210409e-05,8.069867e-06,2.3001553e-06,-0.84206027,-0.5128123,0.16720623,-0.53752995,0.8235042,-0.1813899,-0.044676054,-0.24261957,-0.96909225,,-0.006008286176146668,0.028944802812593463,0.12527994705,0.00020968994348452436,0.0008198189985926426,6.660123908653167e-05,0.0001633440661342792,,-1.5057321194190496,0.15755919609992844,0.10738984876000002,1.3973737833808704,-0.3881842958336163,2.1242521411924566,-0.10748039551635546
2.442720551000093,,-0.036954347,0.05794879,0.17157073,0.27720702,-0.82484156,-0.49273992,-0.9331721,-0.10901325,-0.34249952,0.22879267,0.55475444,-0.7999384,,-0.13770586,0.10533377,0.40268287,-0.022445686,0.57896477,-0.8150435,-0.9756592,0.16519801,0.14421707,0.21814014,0.7984419,0.5611644,,1.210409e-05,8.069867e-06,2.3001553e-06,-0.84206027,-0.5128123,0.16720623,-0.53752995,0.8235042,-0.1813899,-0.044676054,-0.24261957,-0.96909225,,-0.006008286176146668,0.028952525545467688,0.12527994705,0.00020968994348452436,0.0008198189985926426,6.660123908653167e-05,0.0001633440661342792,,-1.5057398421519237,0.15755919609992844,0.10738984876000002,1.3973737833808704,-0.3881842958336163,2.1242521411924566,-0.10748039551635546
2.4648686359996645,,-0.0369551,0.057948686,0.17157124,0.2772068,-0.8248378,-0.49274632,-0.93317205,-0.109010376,-0.3425004,0.22879279,0.5547606,-0.79993415,,-0.13770586,0.10533377,0.40268287,-0.022445686,0.57896477,-0.8150435,-0.9756592,0.16519801,0.14421707,0.21814014,0.7984419,0.5611644,,1.210409e-05,8.069867e-06,2.3001553e-06,-0.84206027,-0.5128123,0.16720623,-0.53752995,0.8235042,-0.1813899,-0.044676054,-0.24261957,-0.96909225,,-0.006000563443272444,0.028952525545467688,0.12527994705,0.00020968994348452436,0.0008198189985926426,6.660123908653167e-05,0.0001633440661342792,,-1.5057398421519237,0.15755919609992844,0.10738984876000002,1.3973737833808704,-0.3881842958336163,2.1242521411924566,-0.10748039551635546
2.4924094829984824,,-0.036954846,0.05794783,0.17157145,0.2772106,-0.82483786,-0.49274415,-0.9331694,-0.109010406,-0.3425076,0.22879896,0.5547606,-0.79993236,,-0.13770586,0.10533377,0.40268287,-0.022445686,0.57896477,-0.8150435,-0.9756592,0.16519801,0.14421707,0.21814014,0.7984419,0.5611644,,1.210409e-05,8.069867e-06,2.3001553e-06,-0.84206027,-0.5128123,0.16720623,-0.53752995,0.8235042,-0.1813899,-0.044676054,-0.24261957,-0.96909225,,-0.006000563443272444,0.028944802812593463,0.12527994705,0.00020968994348452436,0.0008198189985926426,6.660123908653167e-05,0.0001633440661342792,,-1.5057398421519237,0.15755919609992844,0.10738984876000002,1.3973737833808704,-0.3881842958336163,2.1242521411924566,-0.10748039551635546
2.514641063999079,,-0.036954846,0.05794783,0.17157145,0.2772106,-0.82483786,-0.49274415,-0.9331694,-0.109010406,-0.3425076,0.22879896,0.5547606,-0.79993236,,-0.13770601,0.10533302,0.40268275,-0.022445858,0.57896626,-0.81504244,-0.97565764,0.16520362,0.14422172,0.21814749,0.7984396,0.56116474,,1.210409e-05,8.069867e-06,2.3001553e-06,-0.84206027,-0.5128123,0.16720623,-0.53752995,0.8235042,-0.1813899,-0.044676054,-0.24261957,-0.96909225,,-0.006000563443272444,0.028944802812593463,0.12527994705,0.00020968994348452436,0.0008198189985926426,6.660123908653167e-05,0.0001633440661342792,,-1.5057321194190496,0.15755919609992844,0.10738984876000002,1.3973737833808704,-0.3881842958336163,2.1242521411924566,-0.10748039551635546
2.5434466679998877,,-0.03695409,0.057947934,0.17157094,0.2772108,-0.82484156,-0.49273774,-0.9331694,-0.10901325,-0.34250677,0.22879882,0.55475444,-0.7999366,,-0.13770601,0.10533302,0.40268275,-0.022445858,0.57896626,-0.81504244,-0.97565764,0.16520362,0.14422172,0.21814749,0.7984396,0.56116474,,1.210409e-05,8.069867e-06,2.3001553e-06,-0.84206027,-0.5128123,0.16720623,-0.53752995,0.8235042,-0.1813899,-0.044676054,-0.24261957,-0.96909225,,-0.006008286176146668,0.028944802812593463,0.12527994705,0.00020968994348452436,0.0008198189985926426,6.660123908653167e-05,0.0001633440661342792,,-1.5057321194190496,0.15755919609992844,0.10738984876000002,1.3973737833808704,-0.3881842958336163,2.1242521411924566,-0.10748039551635546
2.565900914998565,,-0.03695409,0.057947934,0.17157094,0.2772108,-0.82484156,-0.49273774,-0.9331694,-0.10901325,-0.34250677,0.22879882,0.55475444,-0.7999366,,-0.13770601,0.10533302,0.40268275,-0.022445858,0.57896626,-0.81504244,-0.97565764,0.16520362,0.14422172,0.21814749,0.7984396,0.56116474,,1.210409e-05,8.069867e-06,2.3001553e-06,-0.84206027,-0.5128123,0.16720623,-0.53752995,0.8235042,-0.1813899,-0.044676054,-0.24261957,-0.96909225,,-0.006008286176146668,0.028944802812593463,0.12527994705,0.00020968994348452436,0.0008198189985926426,6.660123908653167e-05,0.0001633440661342792,,-1.5057321194190496,0.15755919609992844,0.10738984876000002,1.3973737833808704,-0.3881842958336163,2.1242521411924566,-0.10748039551635546
2.5942317659992113,,-0.036954347,0.05794879,0.17157073,0.27720702,-0.82484156,-0.49273992,-0.9331721,-0.10901325,-0.34249952,0.22879267,0.55475444,-0.7999384,,-0.13770586,0.10533377,0.40268287,-0.022445686,0.57896477,-0.8150435,-0.9756592,0.16519801,0.14421707,0.21814014,0.7984419,0.5611644,,1.210409e-05,8.069867e-06,2.3001553e-06,-0.84206027,-0.5128123,0.16720623,-0.53752995,0.8235042,-0.1813899,-0.044676054,-0.24261957,-0.96909225,,-0.006008286176146668,0.028952525545467688,0.12527994705,0.00020968994348452436,0.0008198189985926426,6.660123908653167e-05,0.0001633440661342792,,-1.5057398421519237,0.15755919609992844,0.10738984876000002,1.3973737833808704,-0.3881842958336163,2.1242521411924566,-0.10748039551635546
2.6149580479996075,,-0.036954347,0.05794879,0.17157073,0.27720702,-0.82484156,-0.49273992,-0.9331721,-0.10901325,-0.34249952,0.22879267,0.55475444,-0.7999384,,-0.13770586,0.10533377,0.40268287,-0.022445686,0.57896477,-0.8150435,-0.9756592,0.16519801,0.14421707,0.21814014,0.7984419,0.5611644,,1.210409e-05,8.069867e-06,2.3001553e-06,-0.84206027,-0.5128123,0.16720623,-0.53752995,0.8235042,-0.1813899,-0.044676054,-0.24261957,-0.96909225,,-0.006008286176146668,0.028952525545467688,0.12527994705,0.00020968994348452436,0.0008198189985926426,6.660123908653167e-05,0.0001633440661342792,,-1.5057398421519237,0.15755919609992844,0.10738984876000002,1.3973737833808704,-0.3881842958336163,2.1242521411924566,-0.10748039551635546
2.6446524530001625,,-0.036954846,0.05794783,0.17157145,0.2772106,-0.82483786,-0.49274415,-0.9331694,-0.109010406,-0.3425076,0.22879896,0.5547606,-0.79993236,,-0.13770586,0.10533377,0.40268287,-0.022445686,0.57896477,-0.8150435,-0.9756592,0.16519801,0.14421707,0.21814014,0.7984419,0.5611644,,1.210409e-05,8.069867e-06,2.3001553e-06,-0.84206027,-0.5128123,0.16720623,-0.53752995,0.8235042,-0.1813899,-0.044676054,-0.24261957,-0.96909225,,-0.006000563443272444,0.028944802812593463,0.12527994705,0.00020968994348452436,0.0008198189985926426,6.660123908653167e-05,0.0001633440661342792,,-1.5057398421519237,0.15755919609992844,0.10738984876000002,1.3973737833808704,-0.3881842958336163,2.1242521411924566,-0.10748039551635546
2.66741811799875,,-0.03695409,0.057947934,0.17157094,0.2772108,-0.82484156,-0.49273774,-0.9331694,-0.10901325,-0.34250677,0.22879882,0.55475444,-0.7999366,,-0.13770586,0.10533377,0.40268287,-0.022445686,0.57896477,-0.8150435,-0.9756592,0.16519801,0.14421707,0.21814014,0.7984419,0.5611644,,1.210409e-05,8.069867e-06,2.3001553e-06,-0.84206027,-0.5128123,0.16720623,-0.53752995,0.8235042,-0.1813899,-0.044676054,-0.24261957,-0.96909225,,-0.006008286176146668,0.028944802812593463,0.12527994705,0.00020968994348452436,0.0008198189985926426,6.660123908653167e-05,0.0001633440661342792,,-1.5057398421519237,0.15755919609992844,0.10738984876000002,1.3973737833808704,-0.3881842958336163,2.1242521411924566,-0.10748039551635546
2.6969942699997773,,-0.03695409,0.057947934,0.17157094,0.27738377,-0.8247833,-0.49273795,-0.93314654,-0.10920885,-0.34250677,0.22868249,0.55480254,-0.79993653,,-0.13770601,0.10533302,0.40268275,-0.022445858,0.57896626,-0.81504244,-0.97565764,0.16520362,0.14422172,0.21814749,0.7984396,0.56116474,,1.210409e-05,8.069867e-06,2.3001553e-06,-0.84206027,-0.5128123,0.16720623,-0.53752995,0.8235042,-0.1813899,-0.044676054,-0.24261957,-0.96909225,,-0.006008286176146668,0.028944802812593463,0.12527994705,0.0,0.0008198189985926426,6.660123908653167e-05,0.0001633440661342792,,-1.5057321194190496,0.15755919609992844,0.10738984876000002,1.3973737833808704,-0.3881842958336163,2.1242521411924566,-0.10748039551635546
2.7224692909985606,,-0.036955103,0.05794869,0.17157124,0.27755272,-0.8247213,-0.49274653,-0.9331263,-0.10940163,-0.34250042,0.22856012,0.5548567,-0.7999339,,-0.13770601,0.10533302,0.40268275,-0.022445858,0.57896626,-0.81504244,-0.97565764,0.16520362,0.14422172,0.21814749,0.7984396,0.56116474,,1.210409e-05,8.069867e-06,2.3001553e-06,-0.84206027,-0.5128123,0.16720623,-0.53752995,0.8235042,-0.1813899,-0.044676054,-0.24261957,-0.96909225,,-0.006000563443272444,0.028952525545467688,0.12527994705,-0.00020968994348452436,0.0008198189985926426,6.660123908653167e-05,0.0001633440661342792,,-1.5057321194190496,0.15755919609992844,0.10738984876000002,1.3973737833808704,-0.3881842958336163,2.1242521411924566,-0.10748039551635546
2.746138569998948,,-0.036954347,0.05794879,0.17157073,0.27755293,-0.82472503,-0.4927402,-0.93312633,-0.10940447,-0.3424996,0.22856,0.55485064,-0.7999382,,-0.13770586,0.10533377,0.40268287,-0.022445686,0.57896477,-0.8150435,-0.9756592,0.16519801,0.14421707,0.21814014,0.7984419,0.5611644,,1.210409e-05,8.069867e-06,2.3001553e-06,-0.84206027,-0.5128123,0.16720623,-0.53752995,0.8235042,-0.1813899,-0.044676054,-0.24261957,-0.96909225,,-0.006008286176146668,0.028952525545467688,0.12527994705,-0.00020968994348452436,0.0008198189985926426,6.660123908653167e-05,0.0001633440661342792,,-1.5057398421519237,0.15755919609992844,0.10738984876000002,1.3973737833808704,-0.3881842958336163,2.1242521411924566,-0.10748039551635546
2.7753068759993766,,-0.036954347,0.05794879,0.17157073,0.27755293,-0.82472503,-0.4927402,-0.93312633,-0.10940447,-0.3424996,0.22856,0.55485064,-0.7999382,,-0.13770586,0.10533377,0.40268287,-0.022445686,0.57896477,-0.8150435,-0.9756592,0.16519801,0.14421707,0.21814014,0.7984419,0.5611644,,1.210409e-05,8.069867e-06,2.3001553e-06,-0.84206027,-0.5128123,0.16720623,-0.53752995,0.8235042,-0.1813899,-0.044676054,-0.24261957,-0.96909225,,-0.006008286176146668,0.028952525545467688,0.12527994705,-0.00020968994348452436,0.0008198189985926426,6.660123908653167e-05,0.0001633440661342792,,-1.5057398421519237,0.15755919609992844,0.10738984876000002,1.3973737833808704,-0.3881842958336163,2.1242521411924566,-0.10748039551635546
2.7996559200000775,,-0.036954094,0.057947934,0.17157094,0.27755672,-0.82472503,-0.49273807,-0.9331236,-0.10940447,-0.3425068,0.22856617,0.55485064,-0.7999364,,-0.13770586,0.10533377,0.40268287,-0.022445686,0.57896477,-0.8150435,-0.9756592,0.16519801,0.14421707,0.21814014,0.7984419,0.5611644,,1.210409e-05,8.069867e-06,2.3001553e-06,-0.84206027,-0.5128123,0.16720623,-0.53752995,0.8235042,-0.1813899,-0.044676054,-0.24261957,-0.96909225,,-0.006008286176146668,0.028944802812593463,0.12527994705,-0.00020968994348452436,0.0008198189985926426,6.660123908653167e-05,0.0001633440661342792,,-1.5057398421519237,0.15755919609992844,0.10738984876000002,1.3973737833808704,-0.3881842958336163,2.1242521411924566,-0.10748039551635546
2.827398519999406,,-0.036954094,0.057947934,0.17157094,0.27755672,-0.82472503,-0.49273807,-0.9331236,-0.10940447,-0.3425068,0.22856617,0.55485064,-0.7999364,,-0.13770601,0.10533302,0.40268275,-0.022445858,0.57896626,-0.81504244,-0.97565764,0.16520362,0.14422172,0.21814749,0.7984396,0.56116474,,1.210409e-05,8.069867e-06,2.3001553e-06,-0.84206027,-0.5128123,0.16720623,-0.53752995,0.8235042,-0.1813899,-0.044676054,-0.24261957,-0.96909225,,-0.006008286176146668,0.028944802812593463,0.12527994705,-0.00020968994348452436,0.0008198189985926426,6.660123908653167e-05,0.0001633440661342792,,-1.5057321194190496,0.15755919609992844,0.10738984876000002,1.3973737833808704,-0.3881842958336163,2.1242521411924566,-0.10748039551635546
2.847828156000105,,-0.03695485,0.057947837,0.17157146,0.2775565,-0.8247213,-0.4927444,-0.93312365,-0.10940163,-0.34250763,0.2285663,0.5548567,-0.7999321,,-0.13770601,0.10533302,0.40268275,-0.022445858,0.57896626,-0.81504244,-0.97565764,0.16520362,0.14422172,0.21814749,0.7984396,0.56116474,,1.210409e-05,8.069867e-06,2.3001553e-06,-0.84206027,-0.5128123,0.16720623,-0.53752995,0.8235042,-0.1813899,-0.044676054,-0.24261957,-0.96909225,,-0.006000563443272444,0.028944802812593463,0.12527994705,-0.00020968994348452436,0.0008198189985926426,6.660123908653167e-05,0.0001633440661342792,,-1.5057321194190496,0.15755919609992844,0.10738984876000002,1.3973737833808704,-0.3881842958336163,2.1242521411924566,-0.10748039551635546
2.8770361059996503,,-0.036955103,0.05794869,0.17157124,0.27755272,-0.8247213,-0.49274653,-0.9331263,-0.10940163,-0.34250042,0.22856012,0.5548567,-0.7999339,,-0.13770586,0.10533377,0.40268287,-0.022445686,0.57896477,-0.8150435,-0.9756592,0.16519801,0.14421707,0.21814014,0.7984419,0.5611644,,1.210409e-05,8.069867e-06,2.3001553e-06,-0.84206027,-0.5128123,0.16720623,-0.53752995,0.8235042,-0.1813899,-0.044676054,-0.24261957,-0.96909225,,-0.006000563443272444,0.028952525545467688,0.12527994705,-0.00020968994348452436,0.0008198189985926426,6.660123908653167e-05,0.0001633440661342792,,-1.5057398421519237,0.15755919609992844,0.10738984876000002,1.3973737833808704,-0.3881842958336163,2.1242521411924566,-0.10748039551635546
2.9042259919988282,,-0.036954347,0.05794879,0.17157073,0.27755293,-0.82472503,-0.4927402,-0.93312633,-0.10940447,-0.3424996,0.22856,0.55485064,-0.7999382,,-0.13770601,0.10533302,0.40268275,-0.022445858,0.57896626,-0.81504244,-0.97565764,0.16520362,0.14422172,0.21814749,0.7984396,0.56116474,,1.210409e-05,8.069867e-06,2.3001553e-06,-0.84206027,-0.5128123,0.16720623,-0.53752995,0.8235042,-0.1813899,-0.044676054,-0.24261957,-0.96909225,,-0.006008286176146668,0.028952525545467688,0.12527994705,-0.00020968994348452436,0.0008198189985926426,6.660123908653167e-05,0.0001633440661342792,,-1.5057321194190496,0.15755919609992844,0.10738984876000002,1.3973737833808704,-0.3881842958336163,2.1242521411924566,-0.10748039551635546
2.9322448080001777,,-0.036954094,0.057947934,0.17157094,0.27755672,-0.82472503,-0.49273807,-0.9331236,-0.10940447,-0.3425068,0.22856617,0.55485064,-0.7999364,,-0.13770586,0.10533377,0.40268287,-0.022445686,0.57896477,-0.8150435,-0.9756592,0.16519801,0.14421707,0.21814014,0.7984419,0.5611644,,1.210409e-05,8.069867e-06,2.3001553e-06,-0.84206027,-0.5128123,0.16720623,-0.53752995,0.8235042,-0.1813899,-0.044676054,-0.24261957,-0.96909225,,-0.006008286176146668,0.028944802812593463,0.12527994705,-0.00020968994348452436,0.0008198189985926426,6.660123908653167e-05,0.0001633440661342792,,-1.5057398421519237,0.15755919609992844,0.10738984876000002,1.3973737833808704,-0.3881842958336163,2.1242521411924566,-0.10748039551635546
2.9552625299984356,,-0.036955103,0.05794869,0.17157124,0.27755272,-0.8247213,-0.49274653,-0.9331263,-0.10940163,-0.34250042,0.22856012,0.5548567,-0.7999339,,-0.13770586,0.10533377,0.40268287,-0.022445686,0.57896477,-0.8150435,-0.9756592,0.16519801,0.14421707,0.21814014,0.7984419,0.5611644,,1.210409e-05,8.069867e-06,2.3001553e-06,-0.84206027,-0.5128123,0.16720623,-0.53752995,0.8235042,-0.1813899,-0.044676054,-0.24261957,-0.96909225,,-0.006000563443272444,0.028952525545467688,0.12527994705,-0.00020968994348452436,0.0008198189985926426,6.660123908653167e-05,0.0001633440661342792,,-1.5057398421519237,0.15755919609992844,0.10738984876000002,1.3973737833808704,-0.3881842958336163,2.1242521411924566,-0.10748039551635546
2.978773510998508,,-0.036955606,0.057947733,0.17157197,0.27755636,-0.8247176,-0.4927508,-0.93312365,-0.10939875,-0.3425085,0.22856644,0.55486286,-0.79992783,,-0.13770586,0.10533377,0.40268287,-0.022445686,0.57896477,-0.8150435,-0.9756592,0.16519801,0.14421707,0.21814014,0.7984419,0.5611644,,1.210409e-05,8.069867e-06,2.3001553e-06,-0.84206027,-0.5128123,0.16720623,-0.53752995,0.8235042,-0.1813899,-0.044676054,-0.24261957,-0.96909225,,-0.0059928407103982196,0.028944802812593463,0.12527994705,-0.00020968994348452436,0.0008198189985926426,6.660123908653167e-05,0.0001633440661342792,,-1.5057398421519237,0.15755919609992844,0.10738984876000002,1.3973737833808704,-0.3881842958336163,2.1242521411924566,-0.10748039551635546
3.0067806070001097,,-0.036955103,0.05794869,0.17157124,0.27755272,-0.8247213,-0.49274653,-0.9331263,-0.10940163,-0.34250042,0.22856012,0.5548567,-0.7999339,,-0.13770586,0.10533377,0.40268287,-0.022445686,0.57896477,-0.8150435,-0.9756592,0.16519801,0.14421707,0.21814014,0.7984419,0.5611644,,1.210409e-05,8.069867e-06,2.3001553e-06,-0.84206027,-0.5128123,0.16720623,-0.53752995,0.8235042,-0.1813899,-0.044676054,-0.24261957,-0.96909225,,-0.006000563443272444,0.028952525545467688,0.12527994705,-0.00020968994348452436,0.0008198189985926426,6.660123908653167e-05,0.0001633440661342792,,-1.5057398421519237,0.15755919609992844,0.10738984876000002,1.3973737833808704,-0.3881842958336163,2.1242521411924566,-0.10748039551635546
3.0306368450001173,,-0.036954347,0.05794879,0.17157073,0.27755293,-0.82472503,-0.4927402,-0.93312633,-0.10940447,-0.3424996,0.22856,0.55485064,-0.7999382,,-0.13770586,0.10533377,0.40268287,-0.022445686,0.57896477,-0.8150435,-0.9756592,0.16519801,0.14421707,0.21814014,0.7984419,0.5611644,,1.210409e-05,8.069867e-06,2.3001553e-06,-0.84206027,-0.5128123,0.16720623,-0.53752995,0.8235042,-0.1813899,-0.044676054,-0.24261957,-0.96909225,,-0.006008286176146668,0.028952525545467688,0.12527994705,-0.00020968994348452436,0.0008198189985926426,6.660123908653167e-05,0.0001633440661342792,,-1.5057398421519237,0.15755919609992844,0.10738984876000002,1.3973737833808704,-0.3881842958336163,2.1242521411924566,-0.10748039551635546
3.0557110649988317,,-0.036954094,0.057947934,0.17157094,0.27755672,-0.82472503,-0.49273807,-0.9331236,-0.10940447,-0.3425068,0.22856617,0.55485064,-0.7999364,,-0.13770601,0.10533302,0.40268275,-0.022445858,0.57896626,-0.81504244,-0.97565764,0.16520362,0.14422172,0.21814749,0.7984396,0.56116474,,1.210409e-05,8.069867e-06,2.3001553e-06,-0.84206027,-0.5128123,0.16720623,-0.53752995,0.8235042,-0.1813899,-0.044676054,-0.24261957,-0.96909225,,-0.006008286176146668,0.028944802812593463,0.12527994705,-0.00020968994348452436,0.0008198189985926426,6.660123908653167e-05,0.0001633440661342792,,-1.5057321194190496,0.15755919609992844,0.10738984876000002,1.3973737833808704,-0.3881842958336163,2.1242521411924566,-0.10748039551635546
3.0798167220000323,,-0.036954094,0.057947934,0.17157094,0.27755672,-0.82472503,-0.49273807,-0.9331236,-0.10940447,-0.3425068,0.22856617,0.55485064,-0.7999364,,-0.13770586,0.10533377,0.40268287,-0.022445686,0.57896477,-0.8150435,-0.9756592,0.16519801,0.14421707,0.21814014,0.7984419,0.5611644,,1.210409e-05,8.069867e-06,2.3001553e-06,-0.84206027,-0.5128123,0.16720623,-0.53752995,0.8235042,-0.1813899,-0.044676054,-0.24261957,-0.96909225,,-0.006008286176146668,0.028944802812593463,0.12527994705,-0.00020968994348452436,0.0008198189985926426,6.660123908653167e-05,0.0001633440661342792,,-1.5057398421519237,0.15755919609992844,0.10738984876000002,1.3973737833808704,-0.3881842958336163,2.1242521411924566,-0.10748039551635546
3.108052935998785,,-0.036954347,0.05794879,0.17157073,0.27755293,-0.82472503,-0.4927402,-0.93312633,-0.10940447,-0.3424996,0.22856,0.55485064,-0.7999382,,-0.13770586,0.10533377,0.40268287,-0.022445686,0.57896477,-0.8150435,-0.9756592,0.16519801,0.14421707,0.21814014,0.7984419,0.5611644,,1.210409e-05,8.069867e-06,2.3001553e-06,-0.84206027,-0.5128123,0.16720623,-0.53752995,0.8235042,-0.1813899,-0.044676054,-0.24261957,-0.96909225,,-0.006008286176146668,0.028952525545467688,0.12527994705,-0.00020968994348452436,0.0008198189985926426,6.660123908653167e-05,0.0001633440661342792,,-1.5057398421519237,0.15755919609992844,0.10738984876000002,1.3973737833808704,-0.3881842958336163,2.1242521411924566,-0.10748039551635546
3.133096759998807,,-0.036955103,0.05794869,0.17157124,0.27755272,-0.8247213,-0.49274653,-0.9331263,-0.10940163,-0.34250042,0.22856012,0.5548567,-0.7999339,,-0.13770586,0.10533377,0.40268287,-0.022445686,0.57896477,-0.8150435,-0.9756592,0.16519801,0.14421707,0.21814014,0.7984419,0.5611644,,1.210409e-05,8.069867e-06,2.3001553e-06,-0.84206027,-0.5128123,0.16720623,-0.53752995,0.8235042,-0.1813899,-0.044676054,-0.24261957,-0.96909225,,-0.006000563443272444,0.028952525545467688,0.12527994705,-0.00020968994348452436,0.0008198189985926426,6.660123908653167e-05,0.0001633440661342792,,-1.5057398421519237,0.15755919609992844,0.10738984876000002,1.3973737833808704,-0.3881842958336163,2.1242521411924566,-0.10748039551635546
3.16426959599994,,-0.036955103,0.05794869,0.17157124,0.27755272,-0.8247213,-0.49274653,-0.9331263,-0.10940163,-0.34250042,0.22856012,0.5548567,-0.7999339,,-0.13770586,0.10533377,0.40268287,-0.022445686,0.57896477,-0.8150435,-0.9756592,0.16519801,0.14421707,0.21814014,0.7984419,0.5611644,,1.210409e-05,8.069867e-06,2.3001553e-06,-0.84206027,-0.5128123,0.16720623,-0.53752995,0.8235042,-0.1813899,-0.044676054,-0.24261957,-0.96909225,,-0.006000563443272444,0.028952525545467688,0.12527994705,-0.00020968994348452436,0.0008198189985926426,6.660123908653167e-05,0.0001633440661342792,,-1.5057398421519237,0.15755919609992844,0.10738984876000002,1.3973737833808704,-0.3881842958336163,2.1242521411924566,-0.10748039551635546
3.1861725819999265,,-0.036955103,0.05794869,0.17157124,0.27755272,-0.8247213,-0.49274653,-0.9331263,-0.10940163,-0.34250042,0.22856012,0.5548567,-0.7999339,,-0.13770601,0.10533302,0.40268275,-0.022445858,0.57896626,-0.81504244,-0.97565764,0.16520362,0.14422172,0.21814749,0.7984396,0.56116474,,1.210409e-05,8.069867e-06,2.3001553e-06,-0.84206027,-0.5128123,0.16720623,-0.53752995,0.8235042,-0.1813899,-0.044676054,-0.24261957,-0.96909225,,-0.006000563443272444,0.028952525545467688,0.12527994705,-0.00020968994348452436,0.0008198189985926426,6.660123908653167e-05,0.0001633440661342792,,-1.5057321194190496,0.15755919609992844,0.10738984876000002,1.3973737833808704,-0.3881842958336163,2.1242521411924566,-0.10748039551635546
3.213706843998807,,-0.036954094,0.057947934,0.17157094,0.27755672,-0.82472503,-0.49273807,-0.9331236,-0.10940447,-0.3425068,0.22856617,0.55485064,-0.7999364,,-0.13770586,0.10533377,0.40268287,-0.022445686,0.57896477,-0.8150435,-0.9756592,0.16519801,0.14421707,0.21814014,0.7984419,0.5611644,,1.210409e-05,8.069867e-06,2.3001553e-06,-0.84206027,-0.5128123,0.16720623,-0.53752995,0.8235042,-0.1813899,-0.044676054,-0.24261957,-0.96909225,,-0.006008286176146668,0.028944802812593463,0.12527994705,-0.00020968994348452436,0.0008198189985926426,6.660123908653167e-05,0.0001633440661342792,,-1.5057398421519237,0.15755919609992844,0.10738984876000002,1.3973737833808704,-0.3881842958336163,2.1242521411924566,-0.10748039551635546
3.243162532999122,,-0.03695485,0.057947837,0.17157146,0.2775565,-0.8247213,-0.4927444,-0.93312365,-0.10940163,-0.34250763,0.2285663,0.5548567,-0.7999321,,-0.13770601,0.10533302,0.40268275,-0.022445858,0.57896626,-0.81504244,-0.97565764,0.16520362,0.14422172,0.21814749,0.7984396,0.56116474,,1.210409e-05,8.069867e-06,2.3001553e-06,-0.84206027,-0.5128123,0.16720623,-0.53752995,0.8235042,-0.1813899,-0.044676054,-0.24261957,-0.96909225,,-0.006000563443272444,0.028944802812593463,0.12527994705,-0.00020968994348452436,0.0008198189985926426,6.660123908653167e-05,0.0001633440661342792,,-1.5057321194190496,0.15755919609992844,0.10738984876000002,1.3973737833808704,-0.3881842958336163,2.1242521411924566,-0.10748039551635546
3.270181545000014,,-0.036955103,0.05794869,0.17157124,0.27755272,-0.8247213,-0.49274653,-0.9331263,-0.10940163,-0.34250042,0.22856012,0.5548567,-0.7999339,,-0.13770586,0.10533377,0.40268287,-0.022445686,0.57896477,-0.8150435,-0.9756592,0.16519801,0.14421707,0.21814014,0.7984419,0.5611644,,1.210409e-05,8.069867e-06,2.3001553e-06,-0.84206027,-0.5128123,0.16720623,-0.53752995,0.8235042,-0.1813899,-0.044676054,-0.24261957,-0.96909225,,-0.006000563443272444,0.028952525545467688,0.12527994705,-0.00020968994348452436,0.0008198189985926426,6.660123908653167e-05,0.0001633440661342792,,-1.5057398421519237,0.15755919609992844,0.10738984876000002,1.3973737833808704,-0.3881842958336163,2.1242521411924566,-0.10748039551635546
3.2968940529990505,,-0.036955103,0.05794869,0.17157124,0.27755272,-0.8247213,-0.49274653,-0.9331263,-0.10940163,-0.34250042,0.22856012,0.5548567,-0.7999339,,-0.13770586,0.10533377,0.40268287,-0.022445686,0.57896477,-0.8150435,-0.9756592,0.16519801,0.14421707,0.21814014,0.7984419,0.5611644,,1.210409e-05,8.069867e-06,2.3001553e-06,-0.84206027,-0.5128123,0.16720623,-0.53752995,0.8235042,-0.1813899,-0.044676054,-0.24261957,-0.96909225,,-0.006000563443272444,0.028952525545467688,0.12527994705,-0.00020968994348452436,0.0008198189985926426,6.660123908653167e-05,0.0001633440661342792,,-1.5057398421519237,0.15755919609992844,0.10738984876000002,1.3973737833808704,-0.3881842958336163,2.1242521411924566,-0.10748039551635546
3.3229281619987887,,-0.036954347,0.05794879,0.17157073,0.27755293,-0.82472503,-0.4927402,-0.93312633,-0.10940447,-0.3424996,0.22856,0.55485064,-0.7999382,,-0.13770586,0.10533377,0.40268287,-0.022445686,0.57896477,-0.8150435,-0.9756592,0.16519801,0.14421707,0.21814014,0.7984419,0.5611644,,1.210409e-05,8.069867e-06,2.3001553e-06,-0.84206027,-0.5128123,0.16720623,-0.53752995,0.8235042,-0.1813899,-0.044676054,-0.24261957,-0.96909225,,-0.006008286176146668,0.028952525545467688,0.12527994705,-0.00020968994348452436,0.0008198189985926426,6.660123908653167e-05,0.0001633440661342792,,-1.5057398421519237,0.15755919609992844,0.10738984876000002,1.3973737833808704,-0.3881842958336163,2.1242521411924566,-0.10748039551635546
3.347084115999678,,-0.036954094,0.057947934,0.17157094,0.27755672,-0.82472503,-0.49273807,-0.9331236,-0.10940447,-0.3425068,0.22856617,0.55485064,-0.7999364,,-0.13770586,0.10533377,0.40268287,-0.022445686,0.57896477,-0.8150435,-0.9756592,0.16519801,0.14421707,0.21814014,0.7984419,0.5611644,,1.210409e-05,8.069867e-06,2.3001553e-06,-0.84206027,-0.5128123,0.16720623,-0.53752995,0.8235042,-0.1813899,-0.044676054,-0.24261957,-0.96909225,,-0.006008286176146668,0.028944802812593463,0.12527994705,-0.00020968994348452436,0.0008198189985926426,6.660123908653167e-05,0.0001633440661342792,,-1.5057398421519237,0.15755919609992844,0.10738984876000002,1.3973737833808704,-0.3881842958336163,2.1242521411924566,-0.10748039551635546
3.3755320589989424,,-0.036954347,0.05794879,0.17157073,0.27755293,-0.82472503,-0.4927402,-0.93312633,-0.10940447,-0.3424996,0.22856,0.55485064,-0.7999382,,-0.13770586,0.10533377,0.40268287,-0.022445686,0.57896477,-0.8150435,-0.9756592,0.16519801,0.14421707,0.21814014,0.7984419,0.5611644,,1.210409e-05,8.069867e-06,2.3001553e-06,-0.84206027,-0.5128123,0.16720623,-0.53752995,0.8235042,-0.1813899,-0.044676054,-0.24261957,-0.96909225,,-0.006008286176146668,0.028952525545467688,0.12527994705,-0.00020968994348452436,0.0008198189985926426,6.660123908653167e-05,0.0001633440661342792,,-1.5057398421519237,0.15755919609992844,0.10738984876000002,1.3973737833808704,-0.3881842958336163,2.1242521411924566,-0.10748039551635546
3.4017058039989934,,-0.036954094,0.057947934,0.17157094,0.27755672,-0.82472503,-0.49273807,-0.9331236,-0.10940447,-0.3425068,0.22856617,0.55485064,-0.7999364,,-0.13770601,0.10533302,0.40268275,-0.022445858,0.57896626,-0.81504244,-0.97565764,0.16520362,0.14422172,0.21814749,0.7984396,0.56116474,,1.210409e-05,8.069867e-06,2.3001553e-06,-0.84206027,-0.5128123,0.16720623,-0.53752995,0.8235042,-0.1813899,-0.044676054,-0.24261957,-0.96909225,,-0.006008286176146668,0.028944802812593463,0.12527994705,-0.00020968994348452436,0.0008198189985926426,6.660123908653167e-05,0.0001633440661342792,,-1.5057321194190496,0.15755919609992844,0.10738984876000002,1.3973737833808704,-0.3881842958336163,2.1242521411924566,-0.10748039551635546
3.42563933099882,,-0.03695485,0.057947837,0.17157146,0.2775565,-0.8247213,-0.4927444,-0.93312365,-0.10940163,-0.34250763,0.2285663,0.5548567,-0.7999321,,-0.13770601,0.10533302,0.40268275,-0.022445858,0.57896626,-0.81504244,-0.97565764,0.16520362,0.14422172,0.21814749,0.7984396,0.56116474,,1.210409e-05,8.069867e-06,2.3001553e-06,-0.84206027,-0.5128123,0.16720623,-0.53752995,0.8235042,-0.1813899,-0.044676054,-0.24261957,-0.96909225,,-0.006000563443272444,0.028944802812593463,0.12527994705,-0.00020968994348452436,0.0008198189985926426,6.660123908653167e-05,0.0001633440661342792,,-1.5057321194190496,0.15755919609992844,0.10738984876000002,1.3973737833808704,-0.3881842958336163,2.1242521411924566,-0.10748039551635546
3.4490368329988996,,-0.036955103,0.05794869,0.17157124,0.27755272,-0.8247213,-0.49274653,-0.9331263,-0.10940163,-0.34250042,0.22856012,0.5548567,-0.7999339,,-0.13770586,0.10533377,0.40268287,-0.022445686,0.57896477,-0.8150435,-0.9756592,0.16519801,0.14421707,0.21814014,0.7984419,0.5611644,,1.210409e-05,8.069867e-06,2.3001553e-06,-0.84206027,-0.5128123,0.16720623,-0.53752995,0.8235042,-0.1813899,-0.044676054,-0.24261957,-0.96909225,,-0.006000563443272444,0.028952525545467688,0.12527994705,-0.00020968994348452436,0.0008198189985926426,6.660123908653167e-05,0.0001633440661342792,,-1.5057398421519237,0.15755919609992844,0.10738984876000002,1.3973737833808704,-0.3881842958336163,2.1242521411924566,-0.10748039551635546
3.4765653790000215,,-0.036954347,0.05794879,0.17157073,0.27755293,-0.82472503,-0.4927402,-0.93312633,-0.10940447,-0.3424996,0.22856,0.55485064,-0.7999382,,-0.13770586,0.10533377,0.40268287,-0.022445686,0.57896477,-0.8150435,-0.9756592,0.16519801,0.14421707,0.21814014,0.7984419,0.5611644,,1.210409e-05,8.069867e-06,2.3001553e-06,-0.84206027,-0.5128123,0.16720623,-0.53752995,0.8235042,-0.1813899,-0.044676054,-0.24261957,-0.96909225,,-0.006008286176146668,0.028952525545467688,0.12527994705,-0.00020968994348452436,0.0008198189985926426,6.660123908653167e-05,0.0001633440661342792,,-1.5057398421519237,0.15755919609992844,0.10738984876000002,1.3973737833808704,-0.3881842958336163,2.1242521411924566,-0.10748039551635546
3.50335739899856,,-0.036954094,0.057947934,0.17157094,0.27755672,-0.82472503,-0.49273807,-0.9331236,-0.10940447,-0.3425068,0.22856617,0.55485064,-0.7999364,,-0.13770586,0.10533377,0.40268287,-0.022445686,0.57896477,-0.8150435,-0.9756592,0.16519801,0.14421707,0.21814014,0.7984419,0.5611644,,1.210409e-05,8.069867e-06,2.3001553e-06,-0.84206027,-0.5128123,0.16720623,-0.53752995,0.8235042,-0.1813899,-0.044676054,-0.24261957,-0.96909225,,-0.006008286176146668,0.028944802812593463,0.12527994705,-0.00020968994348452436,0.0008198189985926426,6.660123908653167e-05,0.0001633440661342792,,-1.5057398421519237,0.15755919609992844,0.10738984876000002,1.3973737833808704,-0.3881842958336163,2.1242521411924566,-0.10748039551635546
3.5296296199994686,,-0.036909048,0.057961673,0.17156135,0.27760282,-0.8247256,-0.49271086,-0.93311363,-0.109458596,-0.3425165,0.22855073,0.5548389,-0.79994893,,-0.13770153,0.10528389,0.4026652,-0.02246978,0.57901055,-0.81501025,-0.9756525,0.16519885,0.1442615,0.2181677,0.79840845,0.56120116,,1.0770272e-05,4.0796717e-06,1.4022455e-06,-0.8420646,-0.5128048,0.16720717,-0.5375228,0.8235089,-0.18138953,-0.04467916,-0.24261938,-0.96909213,,-0.006008286176146668,0.028944802812593463,0.12527994705,-0.00020968994348452436,0.0008198189985926426,6.660123908653167e-05,0.0001633440661342792,,-1.5057321194190496,0.15755919609992844,0.10738984876000002,1.3973737833808704,-0.3881842958336163,2.1242521411924566,-0.10748039551635546
3.5519907210000383,,-0.03691006,0.05796243,0.17156164,0.27759886,-0.82472193,-0.49271944,-0.9331164,-0.10945575,-0.34251013,0.22854468,0.55484504,-0.79994637,,-0.13770153,0.10528389,0.4026652,-0.02246978,0.57901055,-0.81501025,-0.9756525,0.16519885,0.1442615,0.2181677,0.79840845,0.56120116,,1.0770272e-05,4.0796717e-06,1.4022455e-06,-0.8420646,-0.5128048,0.16720717,-0.5375228,0.8235089,-0.18138953,-0.04467916,-0.24261938,-0.96909213,,-0.006000563443272444,0.028952525545467688,0.12527994705,-0.00020968994348452436,0.0008198189985926426,6.660123908653167e-05,0.0001633440661342792,,-1.5057321194190496,0.15755919609992844,0.10738984876000002,1.3973737833808704,-0.3881842958336163,2.1242521411924566,-0.10748039551635546
