AlexandreBanks6/ExpertPlaybackApp/resources/Motions/Motion_Old.csv
Time,si_T_psm1,Tx,Ty,Tz,R00,R01,R02,R10,R11,R12,R20,R21,R22,si_T_psm3,Tx,Ty,Tz,R00,R01,R02,R10,R11,R12,R20,R21,R22,si_T_ecm,Tx,Ty,Tz,R00,R01,R02,R10,R11,R12,R20,R21,R22,joint_vars_psm1,q1,q2,q3,q4,q5,q6,jaw,joint_vars_psm3,q1,q2,q3,q4,q5,q6,jaw
si_T_lci
0,-0.05837826803326607,-0.05837826803326607,-0.05837826803326607,0.9954755306243896,-0.09471600502729416,-0.007575321942567825,-0.09387200325727463,-0.9926812648773193,0.07597366720438004,-0.014715801924467087,-0.07491881400346756,-0.9970810413360596
si_T_rci
0,-0.05747625604271889,-0.05747625604271889,-0.05747625604271889,0.9950389862060547,-0.09748667478561401,0.019842568784952164,-0.09849464893341064,-0.9934151768684387,0.058524344116449356,0.014006565324962139,-0.06018839031457901,-0.9980887770652771
lc_T_ecm
0,4.336808689942018e-18,1.1102230246251565e-16,-3.469446951953614e-18,0.9340208768844604,-0.32346540689468384,0.15157562494277954,-0.3336535692214966,-0.9415361881256104,0.046742480248212814,0.12759436666965485,-0.09423220157623291,-0.9873398542404175
rc_T_ecm
0,-8.326672684688674e-17,-1.119764003743029e-15,4.3725873616340394e-16,0.9962640404701233,-0.08602791279554367,-0.00755940331146121,0.08463667333126068,0.9552455544471741,0.28344762325286865,-0.017163321375846863,-0.2830284833908081,0.9589579105377197
0.04852436899091117,,0.9522382020950317,1.6245092153549194,-0.12362918257713318,0.7506529092788696,1.7303529977798462,0.573080837726593,-0.6729537844657898,2.7820329666137695,0.6929080486297607,-0.1037377342581749,-0.48329830169677734,0.8986586928367615,,0.5433853268623352,1.7535529136657715,-0.18692457675933838,0.649018406867981,1.2189892530441284,-0.3419148027896881,-0.5251947641372681,3.0102603435516357,0.8348875641822815,0.6153450012207031,-0.22512149810791016,0.7297508716583252,,0.14429442584514618,1.6064636707305908,0.7177675366401672,0.9437450170516968,0.4640054404735565,-0.1177869588136673,-0.3597247898578644,2.935811996459961,0.41282209753990173,0.10067532956600189,1.006593108177185,1.2042906284332275,,-0.8790323466757306,-0.28093757649853923,0.17609062618000001,0.7433508496526389,0.10521010481938914,-0.08432156852371436,-0.11434084629399548,,-0.5579365592312239,0.5301810572812611,0.21260322661000003,1.5865141124039113,0.04577322742142255,-0.15134851897452606,0.01862122353930784
0.09315502201206982,,0.9522162675857544,1.6244875192642212,-0.12365302443504333,0.750665545463562,1.7303012609481812,0.5730893015861511,-0.6729305386543274,2.7820217609405518,0.6928951144218445,-0.1037592738866806,-0.48333078622817993,0.8986471891403198,,0.543407678604126,1.7535622119903564,-0.1868923008441925,0.6490668058395386,1.2190173864364624,-0.3418425917625427,-0.5252155065536499,3.0102732181549072,0.8348608613014221,0.6152716875076294,-0.22509527206420898,0.7298138737678528,,0.1442786455154419,1.6064670085906982,0.7177677154541016,0.9437550902366638,0.4639521837234497,-0.11778706312179565,-0.3596888780593872,2.9358270168304443,0.41281694173812866,0.10067534446716309,1.0065934658050537,1.2042908668518066,,-0.8790323466757306,-0.28093757649853923,0.17609062618000001,0.7433508496526389,0.10521010481938914,-0.08432156852371436,-0.11434084629399548,,-0.5579365592312239,0.5301810572812611,0.21260322661000003,1.5865141124039113,0.04577322742142255,-0.15134851897452606,0.01862122353930784
0.1426702440076042,,0.9522162675857544,1.6244875192642212,-0.12365302443504333,0.750665545463562,1.7303012609481812,0.5730893015861511,-0.6729305386543274,2.7820217609405518,0.6928951144218445,-0.1037592738866806,-0.48333078622817993,0.8986471891403198,,0.543407678604126,1.7535622119903564,-0.1868923008441925,0.6490668058395386,1.2190173864364624,-0.3418425917625427,-0.5252155065536499,3.0102732181549072,0.8348608613014221,0.6152716875076294,-0.22509527206420898,0.7298138737678528,,0.1442786455154419,1.6064670085906982,0.7177677154541016,0.9437550902366638,0.4639521837234497,-0.11778706312179565,-0.3596888780593872,2.9358270168304443,0.41281694173812866,0.10067534446716309,1.0065934658050537,1.2042908668518066,,-0.8790323466757306,-0.28093757649853923,0.17609062618000001,0.7433508496526389,0.10521010481938914,-0.08432156852371436,-0.11434084629399548,,-0.5579365592312239,0.5301810572812611,0.21260322661000003,1.5865141124039113,0.04577322742142255,-0.15134851897452606,0.01862122353930784
0.17705088600632735,,0.9522162675857544,1.6244875192642212,-0.12365302443504333,0.750665545463562,1.7303012609481812,0.5730893015861511,-0.6729305386543274,2.7820217609405518,0.6928951144218445,-0.1037592738866806,-0.48333078622817993,0.8986471891403198,,0.543407678604126,1.7535622119903564,-0.1868923008441925,0.6490668058395386,1.2190173864364624,-0.3418425917625427,-0.5252155065536499,3.0102732181549072,0.8348608613014221,0.6152716875076294,-0.22509527206420898,0.7298138737678528,,0.1442786455154419,1.6064670085906982,0.7177677154541016,0.9437550902366638,0.4639521837234497,-0.11778706312179565,-0.3596888780593872,2.9358270168304443,0.41281694173812866,0.10067534446716309,1.0065934658050537,1.2042908668518066,,-0.8790323466757306,-0.28093757649853923,0.17609062618000001,0.7433508496526389,0.10521010481938914,-0.08432156852371436,-0.11434084629399548,,-0.5579365592312239,0.5301810572812611,0.21260322661000003,1.5865141124039113,0.04577322742142255,-0.15134851897452606,0.01862122353930784
0.21397819599951617,,0.9522162675857544,1.6244875192642212,-0.12365302443504333,0.750665545463562,1.7303012609481812,0.5730893015861511,-0.6729305386543274,2.7820217609405518,0.6928951144218445,-0.1037592738866806,-0.48333078622817993,0.8986471891403198,,0.543407678604126,1.7535622119903564,-0.1868923008441925,0.6490668058395386,1.2190173864364624,-0.3418425917625427,-0.5252155065536499,3.0102732181549072,0.8348608613014221,0.6152716875076294,-0.22509527206420898,0.7298138737678528,,0.1442786455154419,1.6064670085906982,0.7177677154541016,0.9437550902366638,0.4639521837234497,-0.11778706312179565,-0.3596888780593872,2.9358270168304443,0.41281694173812866,0.10067534446716309,1.0065934658050537,1.2042908668518066,,-0.8790323466757306,-0.28093757649853923,0.17609062618000001,0.7433508496526389,0.10521010481938914,-0.08432156852371436,-0.11434084629399548,,-0.5579365592312239,0.5301810572812611,0.21260322661000003,1.5865141124039113,0.04577322742142255,-0.15134851897452606,0.01862122353930784
0.2780131649924442,,0.9522162675857544,1.6244875192642212,-0.12365302443504333,0.750665545463562,1.7303012609481812,0.5730893015861511,-0.6729305386543274,2.7820217609405518,0.6928951144218445,-0.1037592738866806,-0.48333078622817993,0.8986471891403198,,0.543407678604126,1.7535622119903564,-0.1868923008441925,0.6490668058395386,1.2190173864364624,-0.3418425917625427,-0.5252155065536499,3.0102732181549072,0.8348608613014221,0.6152716875076294,-0.22509527206420898,0.7298138737678528,,0.1442786455154419,1.6064670085906982,0.7177677154541016,0.9437550902366638,0.4639521837234497,-0.11778706312179565,-0.3596888780593872,2.9358270168304443,0.41281694173812866,0.10067534446716309,1.0065934658050537,1.2042908668518066,,-0.8790323466757306,-0.28093757649853923,0.17609062618000001,0.7433508496526389,0.10521010481938914,-0.08432156852371436,-0.11434084629399548,,-0.5579365592312239,0.5301810572812611,0.21260322661000003,1.5865141124039113,0.04577322742142255,-0.15134851897452606,0.01862122353930784
0.33128991498961113,,0.9522162675857544,1.6244875192642212,-0.12365302443504333,0.750665545463562,1.7303012609481812,0.5730893015861511,-0.6729305386543274,2.7820217609405518,0.6928951144218445,-0.1037592738866806,-0.48333078622817993,0.8986471891403198,,0.543407678604126,1.7535622119903564,-0.1868923008441925,0.6490668058395386,1.2190173864364624,-0.3418425917625427,-0.5252155065536499,3.0102732181549072,0.8348608613014221,0.6152716875076294,-0.22509527206420898,0.7298138737678528,,0.1442786455154419,1.6064670085906982,0.7177677154541016,0.9437550902366638,0.4639521837234497,-0.11778706312179565,-0.3596888780593872,2.9358270168304443,0.41281694173812866,0.10067534446716309,1.0065934658050537,1.2042908668518066,,-0.8790323466757306,-0.28093757649853923,0.17609062618000001,0.7433508496526389,0.10521010481938914,-0.08432156852371436,-0.11434084629399548,,-0.5579365592312239,0.5301810572812611,0.21260322661000003,1.5865141124039113,0.04577322742142255,-0.15134851897452606,0.01862122353930784
0.3880940919916611,,0.9522162675857544,1.6244875192642212,-0.12365302443504333,0.750665545463562,1.7303012609481812,0.5730893015861511,-0.6729305386543274,2.7820217609405518,0.6928951144218445,-0.1037592738866806,-0.48333078622817993,0.8986471891403198,,0.543407678604126,1.7535622119903564,-0.1868923008441925,0.6490668058395386,1.2190173864364624,-0.3418425917625427,-0.5252155065536499,3.0102732181549072,0.8348608613014221,0.6152716875076294,-0.22509527206420898,0.7298138737678528,,0.1442786455154419,1.6064670085906982,0.7177677154541016,0.9437550902366638,0.4639521837234497,-0.11778706312179565,-0.3596888780593872,2.9358270168304443,0.41281694173812866,0.10067534446716309,1.0065934658050537,1.2042908668518066,,-0.8790323466757306,-0.28093757649853923,0.17609062618000001,0.7433508496526389,0.10521010481938914,-0.08432156852371436,-0.11434084629399548,,-0.5579365592312239,0.5301810572812611,0.21260322661000003,1.5865141124039113,0.04577322742142255,-0.15134851897452606,0.01862122353930784
0.43207708300906233,,0.9522162675857544,1.6244875192642212,-0.12365302443504333,0.750665545463562,1.7303012609481812,0.5730893015861511,-0.6729305386543274,2.7820217609405518,0.6928951144218445,-0.1037592738866806,-0.48333078622817993,0.8986471891403198,,0.543407678604126,1.7535622119903564,-0.1868923008441925,0.6490668058395386,1.2190173864364624,-0.3418425917625427,-0.5252155065536499,3.0102732181549072,0.8348608613014221,0.6152716875076294,-0.22509527206420898,0.7298138737678528,,0.1442786455154419,1.6064670085906982,0.7177677154541016,0.9437550902366638,0.4639521837234497,-0.11778706312179565,-0.3596888780593872,2.9358270168304443,0.41281694173812866,0.10067534446716309,1.0065934658050537,1.2042908668518066,,-0.8790323466757306,-0.28093757649853923,0.17609062618000001,0.7433508496526389,0.10521010481938914,-0.08432156852371436,-0.11434084629399548,,-0.5579365592312239,0.5301810572812611,0.21260322661000003,1.5865141124039113,0.04577322742142255,-0.15134851897452606,0.01862122353930784
0.4811345500056632,,0.9522162675857544,1.6244875192642212,-0.12365302443504333,0.750665545463562,1.7303012609481812,0.5730893015861511,-0.6729305386543274,2.7820217609405518,0.6928951144218445,-0.1037592738866806,-0.48333078622817993,0.8986471891403198,,0.543407678604126,1.7535622119903564,-0.1868923008441925,0.6490668058395386,1.2190173864364624,-0.3418425917625427,-0.5252155065536499,3.0102732181549072,0.8348608613014221,0.6152716875076294,-0.22509527206420898,0.7298138737678528,,0.1442786455154419,1.6064670085906982,0.7177677154541016,0.9437550902366638,0.4639521837234497,-0.11778706312179565,-0.3596888780593872,2.9358270168304443,0.41281694173812866,0.10067534446716309,1.0065934658050537,1.2042908668518066,,-0.8790323466757306,-0.28093757649853923,0.17609062618000001,0.7433508496526389,0.10521010481938914,-0.08432156852371436,-0.11434084629399548,,-0.5579365592312239,0.5301810572812611,0.21260322661000003,1.5865141124039113,0.04577322742142255,-0.15134851897452606,0.01862122353930784
0.5153157919994555,,0.9522162675857544,1.6244875192642212,-0.12365302443504333,0.750665545463562,1.7303012609481812,0.5730893015861511,-0.6729305386543274,2.7820217609405518,0.6928951144218445,-0.1037592738866806,-0.48333078622817993,0.8986471891403198,,0.543407678604126,1.7535622119903564,-0.1868923008441925,0.6490668058395386,1.2190173864364624,-0.3418425917625427,-0.5252155065536499,3.0102732181549072,0.8348608613014221,0.6152716875076294,-0.22509527206420898,0.7298138737678528,,0.1442786455154419,1.6064670085906982,0.7177677154541016,0.9437550902366638,0.4639521837234497,-0.11778706312179565,-0.3596888780593872,2.9358270168304443,0.41281694173812866,0.10067534446716309,1.0065934658050537,1.2042908668518066,,-0.8790323466757306,-0.28093757649853923,0.17609062618000001,0.7433508496526389,0.10521010481938914,-0.08432156852371436,-0.11434084629399548,,-0.5579365592312239,0.5301810572812611,0.21260322661000003,1.5865141124039113,0.04577322742142255,-0.15134851897452606,0.01862122353930784
0.5657625370076858,,0.9522162675857544,1.6244875192642212,-0.12365302443504333,0.750665545463562,1.7303012609481812,0.5730893015861511,-0.6729305386543274,2.7820217609405518,0.6928951144218445,-0.1037592738866806,-0.48333078622817993,0.8986471891403198,,0.543407678604126,1.7535622119903564,-0.1868923008441925,0.6490668058395386,1.2190173864364624,-0.3418425917625427,-0.5252155065536499,3.0102732181549072,0.8348608613014221,0.6152716875076294,-0.22509527206420898,0.7298138737678528,,0.1442786455154419,1.6064670085906982,0.7177677154541016,0.9437550902366638,0.4639521837234497,-0.11778706312179565,-0.3596888780593872,2.9358270168304443,0.41281694173812866,0.10067534446716309,1.0065934658050537,1.2042908668518066,,-0.8790323466757306,-0.28093757649853923,0.17609062618000001,0.7433508496526389,0.10521010481938914,-0.08432156852371436,-0.11434084629399548,,-0.5579365592312239,0.5301810572812611,0.21260322661000003,1.5865141124039113,0.04577322742142255,-0.15134851897452606,0.01862122353930784
0.623546360002365,,0.9522162675857544,1.6244875192642212,-0.12365302443504333,0.750665545463562,1.7303012609481812,0.5730893015861511,-0.6729305386543274,2.7820217609405518,0.6928951144218445,-0.1037592738866806,-0.48333078622817993,0.8986471891403198,,0.543407678604126,1.7535622119903564,-0.1868923008441925,0.6490668058395386,1.2190173864364624,-0.3418425917625427,-0.5252155065536499,3.0102732181549072,0.8348608613014221,0.6152716875076294,-0.22509527206420898,0.7298138737678528,,0.1442786455154419,1.6064670085906982,0.7177677154541016,0.9437550902366638,0.4639521837234497,-0.11778706312179565,-0.3596888780593872,2.9358270168304443,0.41281694173812866,0.10067534446716309,1.0065934658050537,1.2042908668518066,,-0.8790323466757306,-0.28093757649853923,0.17609062618000001,0.7433508496526389,0.10521010481938914,-0.08432156852371436,-0.11434084629399548,,-0.5579365592312239,0.5301810572812611,0.21260322661000003,1.5865141124039113,0.04577322742142255,-0.15134851897452606,0.01862122353930784
0.6494339109922294,,0.9522162675857544,1.6244875192642212,-0.12365302443504333,0.750665545463562,1.7303012609481812,0.5730893015861511,-0.6729305386543274,2.7820217609405518,0.6928951144218445,-0.1037592738866806,-0.48333078622817993,0.8986471891403198,,0.543407678604126,1.7535622119903564,-0.1868923008441925,0.6490668058395386,1.2190173864364624,-0.3418425917625427,-0.5252155065536499,3.0102732181549072,0.8348608613014221,0.6152716875076294,-0.22509527206420898,0.7298138737678528,,0.1442786455154419,1.6064670085906982,0.7177677154541016,0.9437550902366638,0.4639521837234497,-0.11778706312179565,-0.3596888780593872,2.9358270168304443,0.41281694173812866,0.10067534446716309,1.0065934658050537,1.2042908668518066,,-0.8790323466757306,-0.28093757649853923,0.17609062618000001,0.7433508496526389,0.10521010481938914,-0.08432156852371436,-0.11434084629399548,,-0.5579365592312239,0.5301810572812611,0.21260322661000003,1.5865141124039113,0.04577322742142255,-0.15134851897452606,0.01862122353930784
0.7018925730080809,,0.9522162675857544,1.6244875192642212,-0.12365302443504333,0.750665545463562,1.7303012609481812,0.5730893015861511,-0.6729305386543274,2.7820217609405518,0.6928951144218445,-0.1037592738866806,-0.48333078622817993,0.8986471891403198,,0.543407678604126,1.7535622119903564,-0.1868923008441925,0.6490668058395386,1.2190173864364624,-0.3418425917625427,-0.5252155065536499,3.0102732181549072,0.8348608613014221,0.6152716875076294,-0.22509527206420898,0.7298138737678528,,0.1442786455154419,1.6064670085906982,0.7177677154541016,0.9437550902366638,0.4639521837234497,-0.11778706312179565,-0.3596888780593872,2.9358270168304443,0.41281694173812866,0.10067534446716309,1.0065934658050537,1.2042908668518066,,-0.8790323466757306,-0.28093757649853923,0.17609062618000001,0.7433508496526389,0.10521010481938914,-0.08432156852371436,-0.11434084629399548,,-0.5579365592312239,0.5301810572812611,0.21260322661000003,1.5865141124039113,0.04577322742142255,-0.15134851897452606,0.01862122353930784
0.7511112659994978,,0.9522162675857544,1.6244875192642212,-0.12365302443504333,0.750665545463562,1.7303012609481812,0.5730893015861511,-0.6729305386543274,2.7820217609405518,0.6928951144218445,-0.1037592738866806,-0.48333078622817993,0.8986471891403198,,0.543407678604126,1.7535622119903564,-0.1868923008441925,0.6490668058395386,1.2190173864364624,-0.3418425917625427,-0.5252155065536499,3.0102732181549072,0.8348608613014221,0.6152716875076294,-0.22509527206420898,0.7298138737678528,,0.1442786455154419,1.6064670085906982,0.7177677154541016,0.9437550902366638,0.4639521837234497,-0.11778706312179565,-0.3596888780593872,2.9358270168304443,0.41281694173812866,0.10067534446716309,1.0065934658050537,1.2042908668518066,,-0.8790323466757306,-0.28093757649853923,0.17609062618000001,0.7433508496526389,0.10521010481938914,-0.08432156852371436,-0.11434084629399548,,-0.5579365592312239,0.5301810572812611,0.21260322661000003,1.5865141124039113,0.04577322742142255,-0.15134851897452606,0.01862122353930784
0.7904802309931256,,0.9522162675857544,1.6244875192642212,-0.12365302443504333,0.750665545463562,1.7303012609481812,0.5730893015861511,-0.6729305386543274,2.7820217609405518,0.6928951144218445,-0.1037592738866806,-0.48333078622817993,0.8986471891403198,,0.543407678604126,1.7535622119903564,-0.1868923008441925,0.6490668058395386,1.2190173864364624,-0.3418425917625427,-0.5252155065536499,3.0102732181549072,0.8348608613014221,0.6152716875076294,-0.22509527206420898,0.7298138737678528,,0.1442786455154419,1.6064670085906982,0.7177677154541016,0.9437550902366638,0.4639521837234497,-0.11778706312179565,-0.3596888780593872,2.9358270168304443,0.41281694173812866,0.10067534446716309,1.0065934658050537,1.2042908668518066,,-0.8790323466757306,-0.28093757649853923,0.17609062618000001,0.7433508496526389,0.10521010481938914,-0.08432156852371436,-0.11434084629399548,,-0.5579365592312239,0.5301810572812611,0.21260322661000003,1.5865141124039113,0.04577322742142255,-0.15134851897452606,0.01862122353930784
0.8453214880137239,,0.9522162675857544,1.6244875192642212,-0.12365302443504333,0.750665545463562,1.7303012609481812,0.5730893015861511,-0.6729305386543274,2.7820217609405518,0.6928951144218445,-0.1037592738866806,-0.48333078622817993,0.8986471891403198,,0.543407678604126,1.7535622119903564,-0.1868923008441925,0.6490668058395386,1.2190173864364624,-0.3418425917625427,-0.5252155065536499,3.0102732181549072,0.8348608613014221,0.6152716875076294,-0.22509527206420898,0.7298138737678528,,0.1442786455154419,1.6064670085906982,0.7177677154541016,0.9437550902366638,0.4639521837234497,-0.11778706312179565,-0.3596888780593872,2.9358270168304443,0.41281694173812866,0.10067534446716309,1.0065934658050537,1.2042908668518066,,-0.8790323466757306,-0.28093757649853923,0.17609062618000001,0.7433508496526389,0.10521010481938914,-0.08432156852371436,-0.11434084629399548,,-0.5579365592312239,0.5301810572812611,0.21260322661000003,1.5865141124039113,0.04577322742142255,-0.15134851897452606,0.01862122353930784
0.8772750619973522,,0.9522162675857544,1.6244875192642212,-0.12365302443504333,0.750665545463562,1.7303012609481812,0.5730893015861511,-0.6729305386543274,2.7820217609405518,0.6928951144218445,-0.1037592738866806,-0.48333078622817993,0.8986471891403198,,0.543407678604126,1.7535622119903564,-0.1868923008441925,0.6490668058395386,1.2190173864364624,-0.3418425917625427,-0.5252155065536499,3.0102732181549072,0.8348608613014221,0.6152716875076294,-0.22509527206420898,0.7298138737678528,,0.1442786455154419,1.6064670085906982,0.7177677154541016,0.9437550902366638,0.4639521837234497,-0.11778706312179565,-0.3596888780593872,2.9358270168304443,0.41281694173812866,0.10067534446716309,1.0065934658050537,1.2042908668518066,,-0.8790323466757306,-0.28093757649853923,0.17609062618000001,0.7433508496526389,0.10521010481938914,-0.08432156852371436,-0.11434084629399548,,-0.5579365592312239,0.5301810572812611,0.21260322661000003,1.5865141124039113,0.04577322742142255,-0.15134851897452606,0.01862122353930784
0.9212042040016968,,0.9522162675857544,1.6244875192642212,-0.12365302443504333,0.750665545463562,1.7303012609481812,0.5730893015861511,-0.6729305386543274,2.7820217609405518,0.6928951144218445,-0.1037592738866806,-0.48333078622817993,0.8986471891403198,,0.543407678604126,1.7535622119903564,-0.1868923008441925,0.6490668058395386,1.2190173864364624,-0.3418425917625427,-0.5252155065536499,3.0102732181549072,0.8348608613014221,0.6152716875076294,-0.22509527206420898,0.7298138737678528,,0.1442786455154419,1.6064670085906982,0.7177677154541016,0.9437550902366638,0.4639521837234497,-0.11778706312179565,-0.3596888780593872,2.9358270168304443,0.41281694173812866,0.10067534446716309,1.0065934658050537,1.2042908668518066,,-0.8790323466757306,-0.28093757649853923,0.17609062618000001,0.7433508496526389,0.10521010481938914,-0.08432156852371436,-0.11434084629399548,,-0.5579365592312239,0.5301810572812611,0.21260322661000003,1.5865141124039113,0.04577322742142255,-0.15134851897452606,0.01862122353930784
0.9790466130070854,,0.9522162675857544,1.6244875192642212,-0.12365302443504333,0.750665545463562,1.7303012609481812,0.5730893015861511,-0.6729305386543274,2.7820217609405518,0.6928951144218445,-0.1037592738866806,-0.48333078622817993,0.8986471891403198,,0.543407678604126,1.7535622119903564,-0.1868923008441925,0.6490668058395386,1.2190173864364624,-0.3418425917625427,-0.5252155065536499,3.0102732181549072,0.8348608613014221,0.6152716875076294,-0.22509527206420898,0.7298138737678528,,0.1442786455154419,1.6064670085906982,0.7177677154541016,0.9437550902366638,0.4639521837234497,-0.11778706312179565,-0.3596888780593872,2.9358270168304443,0.41281694173812866,0.10067534446716309,1.0065934658050537,1.2042908668518066,,-0.8790323466757306,-0.28093757649853923,0.17609062618000001,0.7433508496526389,0.10521010481938914,-0.08432156852371436,-0.11434084629399548,,-0.5579365592312239,0.5301810572812611,0.21260322661000003,1.5865141124039113,0.04577322742142255,-0.15134851897452606,0.01862122353930784
1.0106942570128012,,0.9522162675857544,1.6244875192642212,-0.12365302443504333,0.750665545463562,1.7303012609481812,0.5730893015861511,-0.6729305386543274,2.7820217609405518,0.6928951144218445,-0.1037592738866806,-0.48333078622817993,0.8986471891403198,,0.543407678604126,1.7535622119903564,-0.1868923008441925,0.6490668058395386,1.2190173864364624,-0.3418425917625427,-0.5252155065536499,3.0102732181549072,0.8348608613014221,0.6152716875076294,-0.22509527206420898,0.7298138737678528,,0.1442786455154419,1.6064670085906982,0.7177677154541016,0.9437550902366638,0.4639521837234497,-0.11778706312179565,-0.3596888780593872,2.9358270168304443,0.41281694173812866,0.10067534446716309,1.0065934658050537,1.2042908668518066,,-0.8790323466757306,-0.28093757649853923,0.17609062618000001,0.7433508496526389,0.10521010481938914,-0.08432156852371436,-0.11434084629399548,,-0.5579365592312239,0.5301810572812611,0.21260322661000003,1.5865141124039113,0.04577322742142255,-0.15134851897452606,0.01862122353930784
1.059678977006115,,0.9522162675857544,1.6244875192642212,-0.12365302443504333,0.750665545463562,1.7303012609481812,0.5730893015861511,-0.6729305386543274,2.7820217609405518,0.6928951144218445,-0.1037592738866806,-0.48333078622817993,0.8986471891403198,,0.543407678604126,1.7535622119903564,-0.1868923008441925,0.6490668058395386,1.2190173864364624,-0.3418425917625427,-0.5252155065536499,3.0102732181549072,0.8348608613014221,0.6152716875076294,-0.22509527206420898,0.7298138737678528,,0.1442786455154419,1.6064670085906982,0.7177677154541016,0.9437550902366638,0.4639521837234497,-0.11778706312179565,-0.3596888780593872,2.9358270168304443,0.41281694173812866,0.10067534446716309,1.0065934658050537,1.2042908668518066,,-0.8790323466757306,-0.28093757649853923,0.17609062618000001,0.7433508496526389,0.10521010481938914,-0.08432156852371436,-0.11434084629399548,,-0.5579365592312239,0.5301810572812611,0.21260322661000003,1.5865141124039113,0.04577322742142255,-0.15134851897452606,0.01862122353930784
1.0958301310020033,,0.9522162675857544,1.6244875192642212,-0.12365302443504333,0.750665545463562,1.7303012609481812,0.5730893015861511,-0.6729305386543274,2.7820217609405518,0.6928951144218445,-0.1037592738866806,-0.48333078622817993,0.8986471891403198,,0.543407678604126,1.7535622119903564,-0.1868923008441925,0.6490668058395386,1.2190173864364624,-0.3418425917625427,-0.5252155065536499,3.0102732181549072,0.8348608613014221,0.6152716875076294,-0.22509527206420898,0.7298138737678528,,0.1442786455154419,1.6064670085906982,0.7177677154541016,0.9437550902366638,0.4639521837234497,-0.11778706312179565,-0.3596888780593872,2.9358270168304443,0.41281694173812866,0.10067534446716309,1.0065934658050537,1.2042908668518066,,-0.8790323466757306,-0.28093757649853923,0.17609062618000001,0.7433508496526389,0.10521010481938914,-0.08432156852371436,-0.11434084629399548,,-0.5579365592312239,0.5301810572812611,0.21260322661000003,1.5865141124039113,0.04577322742142255,-0.15134851897452606,0.01862122353930784
1.1465655450010672,,0.9522162675857544,1.6244875192642212,-0.12365302443504333,0.750665545463562,1.7303012609481812,0.5730893015861511,-0.6729305386543274,2.7820217609405518,0.6928951144218445,-0.1037592738866806,-0.48333078622817993,0.8986471891403198,,0.543407678604126,1.7535622119903564,-0.1868923008441925,0.6490668058395386,1.2190173864364624,-0.3418425917625427,-0.5252155065536499,3.0102732181549072,0.8348608613014221,0.6152716875076294,-0.22509527206420898,0.7298138737678528,,0.1442786455154419,1.6064670085906982,0.7177677154541016,0.9437550902366638,0.4639521837234497,-0.11778706312179565,-0.3596888780593872,2.9358270168304443,0.41281694173812866,0.10067534446716309,1.0065934658050537,1.2042908668518066,,-0.8790323466757306,-0.28093757649853923,0.17609062618000001,0.7433508496526389,0.10521010481938914,-0.08432156852371436,-0.11434084629399548,,-0.5579365592312239,0.5301810572812611,0.21260322661000003,1.5865141124039113,0.04577322742142255,-0.15134851897452606,0.01862122353930784
1.1965940819936804,,0.9522162675857544,1.6244875192642212,-0.12365302443504333,0.750665545463562,1.7303012609481812,0.5730893015861511,-0.6729305386543274,2.7820217609405518,0.6928951144218445,-0.1037592738866806,-0.48333078622817993,0.8986471891403198,,0.543407678604126,1.7535622119903564,-0.1868923008441925,0.6490668058395386,1.2190173864364624,-0.3418425917625427,-0.5252155065536499,3.0102732181549072,0.8348608613014221,0.6152716875076294,-0.22509527206420898,0.7298138737678528,,0.1442786455154419,1.6064670085906982,0.7177677154541016,0.9437550902366638,0.4639521837234497,-0.11778706312179565,-0.3596888780593872,2.9358270168304443,0.41281694173812866,0.10067534446716309,1.0065934658050537,1.2042908668518066,,-0.8790323466757306,-0.28093757649853923,0.17609062618000001,0.7433508496526389,0.10521010481938914,-0.08432156852371436,-0.11434084629399548,,-0.5579365592312239,0.5301810572812611,0.21260322661000003,1.5865141124039113,0.04577322742142255,-0.15134851897452606,0.01862122353930784
1.2325232659932226,,0.9522162675857544,1.6244875192642212,-0.12365302443504333,0.750665545463562,1.7303012609481812,0.5730893015861511,-0.6729305386543274,2.7820217609405518,0.6928951144218445,-0.1037592738866806,-0.48333078622817993,0.8986471891403198,,0.543430507183075,1.7535459995269775,-0.1869644820690155,0.648994505405426,1.2190805673599243,-0.3418932855129242,-0.5252010226249695,3.0102295875549316,0.8349392414093018,0.6153668165206909,-0.2251994013786316,0.7297255992889404,,0.1442786455154419,1.6064670085906982,0.7177677154541016,0.9437550902366638,0.4639521837234497,-0.11778706312179565,-0.3596888780593872,2.9358270168304443,0.41281694173812866,0.10067534446716309,1.0065934658050537,1.2042908668518066,,-0.8790323466757306,-0.28093757649853923,0.17609062618000001,0.7433508496526389,0.10521010481938914,-0.08432156852371436,-0.11434084629399548,,-0.5579365592312239,0.5301810572812611,0.21260322661000003,1.5865141124039113,0.04577322742142255,-0.15134851897452606,0.01862122353930784
1.298490363988094,,0.9523545503616333,1.6243373155593872,-0.12364546954631805,0.7505711913108826,1.7305853366851807,0.5731565356254578,-0.673043429851532,2.7817559242248535,0.6927924156188965,-0.10376709699630737,-0.4833108186721802,0.8986517786979675,,0.5434844493865967,1.7535161972045898,-0.18694329261779785,0.6489436626434326,1.2192010879516602,-0.34188517928123474,-0.5252612233161926,3.010155200958252,0.8349452614784241,0.615378201007843,-0.22513610124588013,0.7297211289405823,,0.1443442702293396,1.6064547300338745,0.7177568674087524,0.9437319040298462,0.4641035795211792,-0.11777526140213013,-0.35976147651672363,2.9357898235321045,0.4128255248069763,0.10067616403102875,1.0065793991088867,1.204287052154541,,-0.8790323466757306,-0.28093757649853923,0.17609062618000001,0.7433508496526389,0.10521010481938914,-0.08432156852371436,-0.11434084629399548,,-0.5579442819640982,0.5301810572812611,0.21260322661000003,1.5865141124039113,0.04577322742142255,-0.15134851897452606,0.01862122353930784
1.3433331749984063,,0.9523545503616333,1.6243373155593872,-0.12364546954631805,0.7505711913108826,1.7305853366851807,0.5731565356254578,-0.673043429851532,2.7817559242248535,0.6927924156188965,-0.10376709699630737,-0.4833108186721802,0.8986517786979675,,0.5434868931770325,1.753515601158142,-0.18694278597831726,0.6489484310150146,1.2192035913467407,-0.3418787121772766,-0.5252614617347717,3.0101547241210938,0.8349429965019226,0.615372359752655,-0.22513800859451294,0.7297256588935852,,0.1443442702293396,1.6064547300338745,0.7177568674087524,0.9437319040298462,0.4641035795211792,-0.11777526140213013,-0.35976147651672363,2.9357898235321045,0.4128255248069763,0.10067616403102875,1.0065793991088867,1.204287052154541,,-0.8790323466757306,-0.28093757649853923,0.17609062618000001,0.7433508496526389,0.10521010481938914,-0.08432156852371436,-0.11434084629399548,,-0.5579365592312239,0.5301810572812611,0.21260322661000003,1.5865141124039113,0.04577322742142255,-0.15134851897452606,0.01862122353930784
1.3935583239945117,,0.9523545503616333,1.6243373155593872,-0.12364546954631805,0.7505711913108826,1.7305853366851807,0.5731565356254578,-0.673043429851532,2.7817559242248535,0.6927924156188965,-0.10376709699630737,-0.4833108186721802,0.8986517786979675,,0.5434868931770325,1.753515601158142,-0.18694278597831726,0.6489484310150146,1.2192035913467407,-0.3418787121772766,-0.5252614617347717,3.0101547241210938,0.8349429965019226,0.615372359752655,-0.22513800859451294,0.7297256588935852,,0.1443442702293396,1.6064547300338745,0.7177568674087524,0.9437319040298462,0.4641035795211792,-0.11777526140213013,-0.35976147651672363,2.9357898235321045,0.4128255248069763,0.10067616403102875,1.0065793991088867,1.204287052154541,,-0.8790323466757306,-0.28093757649853923,0.17609062618000001,0.7433508496526389,0.10521010481938914,-0.08432156852371436,-0.11434084629399548,,-0.5579365592312239,0.5301810572812611,0.21260322661000003,1.5865141124039113,0.04577322742142255,-0.15134851897452606,0.01862122353930784
1.4296261930139735,,0.9523545503616333,1.6243373155593872,-0.12364546954631805,0.7505711913108826,1.7305853366851807,0.5731565356254578,-0.673043429851532,2.7817559242248535,0.6927924156188965,-0.10376709699630737,-0.4833108186721802,0.8986517786979675,,0.5434868931770325,1.753515601158142,-0.18694278597831726,0.6489484310150146,1.2192035913467407,-0.3418787121772766,-0.5252614617347717,3.0101547241210938,0.8349429965019226,0.615372359752655,-0.22513800859451294,0.7297256588935852,,0.1443442702293396,1.6064547300338745,0.7177568674087524,0.9437319040298462,0.4641035795211792,-0.11777526140213013,-0.35976147651672363,2.9357898235321045,0.4128255248069763,0.10067616403102875,1.0065793991088867,1.204287052154541,,-0.8790323466757306,-0.28093757649853923,0.17609062618000001,0.7433508496526389,0.10521010481938914,-0.08432156852371436,-0.11434084629399548,,-0.5579365592312239,0.5301810572812611,0.21260322661000003,1.5865141124039113,0.04577322742142255,-0.15134851897452606,0.01862122353930784
1.4809402649989352,,0.9523545503616333,1.6243373155593872,-0.12364546954631805,0.7505711913108826,1.7305853366851807,0.5731565356254578,-0.673043429851532,2.7817559242248535,0.6927924156188965,-0.10376709699630737,-0.4833108186721802,0.8986517786979675,,0.5434844493865967,1.7535161972045898,-0.18694329261779785,0.6489436626434326,1.2192010879516602,-0.34188517928123474,-0.5252612233161926,3.010155200958252,0.8349452614784241,0.615378201007843,-0.22513610124588013,0.7297211289405823,,0.1443442702293396,1.6064547300338745,0.7177568674087524,0.9437319040298462,0.4641035795211792,-0.11777526140213013,-0.35976147651672363,2.9357898235321045,0.4128255248069763,0.10067616403102875,1.0065793991088867,1.204287052154541,,-0.8790323466757306,-0.28093757649853923,0.17609062618000001,0.7433508496526389,0.10521010481938914,-0.08432156852371436,-0.11434084629399548,,-0.5579442819640982,0.5301810572812611,0.21260322661000003,1.5865141124039113,0.04577322742142255,-0.15134851897452606,0.01862122353930784
1.5361045899917372,,0.9523545503616333,1.6243373155593872,-0.12364546954631805,0.7505711913108826,1.7305853366851807,0.5731565356254578,-0.673043429851532,2.7817559242248535,0.6927924156188965,-0.10376709699630737,-0.4833108186721802,0.8986517786979675,,0.5434868931770325,1.753515601158142,-0.18694278597831726,0.6489484310150146,1.2192035913467407,-0.3418787121772766,-0.5252614617347717,3.0101547241210938,0.8349429965019226,0.615372359752655,-0.22513800859451294,0.7297256588935852,,0.1443442702293396,1.6064547300338745,0.7177568674087524,0.9437319040298462,0.4641035795211792,-0.11777526140213013,-0.35976147651672363,2.9357898235321045,0.4128255248069763,0.10067616403102875,1.0065793991088867,1.204287052154541,,-0.8790323466757306,-0.28093757649853923,0.17609062618000001,0.7433508496526389,0.10521010481938914,-0.08432156852371436,-0.11434084629399548,,-0.5579365592312239,0.5301810572812611,0.21260322661000003,1.5865141124039113,0.04577322742142255,-0.15134851897452606,0.01862122353930784
1.5771589250070974,,0.9523545503616333,1.6243373155593872,-0.12364546954631805,0.7505711913108826,1.7305853366851807,0.5731565356254578,-0.673043429851532,2.7817559242248535,0.6927924156188965,-0.10376709699630737,-0.4833108186721802,0.8986517786979675,,0.5434868931770325,1.753515601158142,-0.18694278597831726,0.6489484310150146,1.2192035913467407,-0.3418787121772766,-0.5252614617347717,3.0101547241210938,0.8349429965019226,0.615372359752655,-0.22513800859451294,0.7297256588935852,,0.1443442702293396,1.6064547300338745,0.7177568674087524,0.9437319040298462,0.4641035795211792,-0.11777526140213013,-0.35976147651672363,2.9357898235321045,0.4128255248069763,0.10067616403102875,1.0065793991088867,1.204287052154541,,-0.8790323466757306,-0.28093757649853923,0.17609062618000001,0.7433508496526389,0.10521010481938914,-0.08432156852371436,-0.11434084629399548,,-0.5579365592312239,0.5301810572812611,0.21260322661000003,1.5865141124039113,0.04577322742142255,-0.15134851897452606,0.01862122353930784
1.630876287992578,,0.9523545503616333,1.6243373155593872,-0.12364546954631805,0.7505711913108826,1.7305853366851807,0.5731565356254578,-0.673043429851532,2.7817559242248535,0.6927924156188965,-0.10376709699630737,-0.4833108186721802,0.8986517786979675,,0.5434868931770325,1.753515601158142,-0.18694278597831726,0.6489484310150146,1.2192035913467407,-0.3418787121772766,-0.5252614617347717,3.0101547241210938,0.8349429965019226,0.615372359752655,-0.22513800859451294,0.7297256588935852,,0.1443442702293396,1.6064547300338745,0.7177568674087524,0.9437319040298462,0.4641035795211792,-0.11777526140213013,-0.35976147651672363,2.9357898235321045,0.4128255248069763,0.10067616403102875,1.0065793991088867,1.204287052154541,,-0.8790323466757306,-0.28093757649853923,0.17609062618000001,0.7433508496526389,0.10521010481938914,-0.08432156852371436,-0.11434084629399548,,-0.5579365592312239,0.5301810572812611,0.21260322661000003,1.5865141124039113,0.04577322742142255,-0.15134851897452606,0.01862122353930784
1.6605152300035115,,0.9523545503616333,1.6243373155593872,-0.12364546954631805,0.7505711913108826,1.7305853366851807,0.5731565356254578,-0.673043429851532,2.7817559242248535,0.6927924156188965,-0.10376709699630737,-0.4833108186721802,0.8986517786979675,,0.5434868931770325,1.753515601158142,-0.18694278597831726,0.6489484310150146,1.2192035913467407,-0.3418787121772766,-0.5252614617347717,3.0101547241210938,0.8349429965019226,0.615372359752655,-0.22513800859451294,0.7297256588935852,,0.1443442702293396,1.6064547300338745,0.7177568674087524,0.9437319040298462,0.4641035795211792,-0.11777526140213013,-0.35976147651672363,2.9357898235321045,0.4128255248069763,0.10067616403102875,1.0065793991088867,1.204287052154541,,-0.8790323466757306,-0.28093757649853923,0.17609062618000001,0.7433508496526389,0.10521010481938914,-0.08432156852371436,-0.11434084629399548,,-0.5579365592312239,0.5301810572812611,0.21260322661000003,1.5865141124039113,0.04577322742142255,-0.15134851897452606,0.01862122353930784
1.7163597299950197,,0.9523545503616333,1.6243373155593872,-0.12364546954631805,0.7505711913108826,1.7305853366851807,0.5731565356254578,-0.673043429851532,2.7817559242248535,0.6927924156188965,-0.10376709699630737,-0.4833108186721802,0.8986517786979675,,0.5434868931770325,1.753515601158142,-0.18694278597831726,0.6489484310150146,1.2192035913467407,-0.3418787121772766,-0.5252614617347717,3.0101547241210938,0.8349429965019226,0.615372359752655,-0.22513800859451294,0.7297256588935852,,0.1443442702293396,1.6064547300338745,0.7177568674087524,0.9437319040298462,0.4641035795211792,-0.11777526140213013,-0.35976147651672363,2.9357898235321045,0.4128255248069763,0.10067616403102875,1.0065793991088867,1.204287052154541,,-0.8790323466757306,-0.28093757649853923,0.17609062618000001,0.7433508496526389,0.10521010481938914,-0.08432156852371436,-0.11434084629399548,,-0.5579365592312239,0.5301810572812611,0.21260322661000003,1.5865141124039113,0.04577322742142255,-0.15134851897452606,0.01862122353930784
1.7624415759928524,,0.9523545503616333,1.6243373155593872,-0.12364546954631805,0.7505711913108826,1.7305853366851807,0.5731565356254578,-0.673043429851532,2.7817559242248535,0.6927924156188965,-0.10376709699630737,-0.4833108186721802,0.8986517786979675,,0.5434868931770325,1.753515601158142,-0.18694278597831726,0.6489484310150146,1.2192035913467407,-0.3418787121772766,-0.5252614617347717,3.0101547241210938,0.8349429965019226,0.615372359752655,-0.22513800859451294,0.7297256588935852,,0.1443442702293396,1.6064547300338745,0.7177568674087524,0.9437319040298462,0.4641035795211792,-0.11777526140213013,-0.35976147651672363,2.9357898235321045,0.4128255248069763,0.10067616403102875,1.0065793991088867,1.204287052154541,,-0.8790323466757306,-0.28093757649853923,0.17609062618000001,0.7433508496526389,0.10521010481938914,-0.08432156852371436,-0.11434084629399548,,-0.5579365592312239,0.5301810572812611,0.21260322661000003,1.5865141124039113,0.04577322742142255,-0.15134851897452606,0.01862122353930784
1.7974178580043372,,0.9523545503616333,1.6243373155593872,-0.12364546954631805,0.7505711913108826,1.7305853366851807,0.5731565356254578,-0.673043429851532,2.7817559242248535,0.6927924156188965,-0.10376709699630737,-0.4833108186721802,0.8986517786979675,,0.5434844493865967,1.7535161972045898,-0.18694329261779785,0.6489436626434326,1.2192010879516602,-0.34188517928123474,-0.5252612233161926,3.010155200958252,0.8349452614784241,0.615378201007843,-0.22513610124588013,0.7297211289405823,,0.1443442702293396,1.6064547300338745,0.7177568674087524,0.9437319040298462,0.4641035795211792,-0.11777526140213013,-0.35976147651672363,2.9357898235321045,0.4128255248069763,0.10067616403102875,1.0065793991088867,1.204287052154541,,-0.8790323466757306,-0.28093757649853923,0.17609062618000001,0.7433508496526389,0.10521010481938914,-0.08432156852371436,-0.11434084629399548,,-0.5579442819640982,0.5301810572812611,0.21260322661000003,1.5865141124039113,0.04577322742142255,-0.15134851897452606,0.01862122353930784
1.8494632889924105,,0.9523545503616333,1.6243373155593872,-0.12364546954631805,0.7505711913108826,1.7305853366851807,0.5731565356254578,-0.673043429851532,2.7817559242248535,0.6927924156188965,-0.10376709699630737,-0.4833108186721802,0.8986517786979675,,0.5434868931770325,1.753515601158142,-0.18694278597831726,0.6489484310150146,1.2192035913467407,-0.3418787121772766,-0.5252614617347717,3.0101547241210938,0.8349429965019226,0.615372359752655,-0.22513800859451294,0.7297256588935852,,0.1443442702293396,1.6064547300338745,0.7177568674087524,0.9437319040298462,0.4641035795211792,-0.11777526140213013,-0.35976147651672363,2.9357898235321045,0.4128255248069763,0.10067616403102875,1.0065793991088867,1.204287052154541,,-0.8790323466757306,-0.28093757649853923,0.17609062618000001,0.7433508496526389,0.10521010481938914,-0.08432156852371436,-0.11434084629399548,,-0.5579365592312239,0.5301810572812611,0.21260322661000003,1.5865141124039113,0.04577322742142255,-0.15134851897452606,0.01862122353930784
1.8986970089899842,,0.9523545503616333,1.6243373155593872,-0.12364546954631805,0.7505711913108826,1.7305853366851807,0.5731565356254578,-0.673043429851532,2.7817559242248535,0.6927924156188965,-0.10376709699630737,-0.4833108186721802,0.8986517786979675,,0.5434868931770325,1.753515601158142,-0.18694278597831726,0.6489484310150146,1.2192035913467407,-0.3418787121772766,-0.5252614617347717,3.0101547241210938,0.8349429965019226,0.615372359752655,-0.22513800859451294,0.7297256588935852,,0.1443442702293396,1.6064547300338745,0.7177568674087524,0.9437319040298462,0.4641035795211792,-0.11777526140213013,-0.35976147651672363,2.9357898235321045,0.4128255248069763,0.10067616403102875,1.0065793991088867,1.204287052154541,,-0.8790323466757306,-0.28093757649853923,0.17609062618000001,0.7433508496526389,0.10521010481938914,-0.08432156852371436,-0.11434084629399548,,-0.5579365592312239,0.5301810572812611,0.21260322661000003,1.5865141124039113,0.04577322742142255,-0.15134851897452606,0.01862122353930784
1.939290123002138,,0.9523545503616333,1.6243373155593872,-0.12364546954631805,0.7505711913108826,1.7305853366851807,0.5731565356254578,-0.673043429851532,2.7817559242248535,0.6927924156188965,-0.10376709699630737,-0.4833108186721802,0.8986517786979675,,0.5434868931770325,1.753515601158142,-0.18694278597831726,0.6489484310150146,1.2192035913467407,-0.3418787121772766,-0.5252614617347717,3.0101547241210938,0.8349429965019226,0.615372359752655,-0.22513800859451294,0.7297256588935852,,0.1443442702293396,1.6064547300338745,0.7177568674087524,0.9437319040298462,0.4641035795211792,-0.11777526140213013,-0.35976147651672363,2.9357898235321045,0.4128255248069763,0.10067616403102875,1.0065793991088867,1.204287052154541,,-0.8790323466757306,-0.28093757649853923,0.17609062618000001,0.7433508496526389,0.10521010481938914,-0.08432156852371436,-0.11434084629399548,,-0.5579365592312239,0.5301810572812611,0.21260322661000003,1.5865141124039113,0.04577322742142255,-0.15134851897452606,0.01862122353930784
1.9936794030072633,,0.9523545503616333,1.6243373155593872,-0.12364546954631805,0.7505711913108826,1.7305853366851807,0.5731565356254578,-0.673043429851532,2.7817559242248535,0.6927924156188965,-0.10376709699630737,-0.4833108186721802,0.8986517786979675,,0.5434844493865967,1.7535161972045898,-0.18694329261779785,0.6489436626434326,1.2192010879516602,-0.34188517928123474,-0.5252612233161926,3.010155200958252,0.8349452614784241,0.615378201007843,-0.22513610124588013,0.7297211289405823,,0.1443442702293396,1.6064547300338745,0.7177568674087524,0.9437319040298462,0.4641035795211792,-0.11777526140213013,-0.35976147651672363,2.9357898235321045,0.4128255248069763,0.10067616403102875,1.0065793991088867,1.204287052154541,,-0.8790323466757306,-0.28093757649853923,0.17609062618000001,0.7433508496526389,0.10521010481938914,-0.08432156852371436,-0.11434084629399548,,-0.5579442819640982,0.5301810572812611,0.21260322661000003,1.5865141124039113,0.04577322742142255,-0.15134851897452606,0.01862122353930784
2.0358519429864828,,0.9523545503616333,1.6243373155593872,-0.12364546954631805,0.7505711913108826,1.7305853366851807,0.5731565356254578,-0.673043429851532,2.7817559242248535,0.6927924156188965,-0.10376709699630737,-0.4833108186721802,0.8986517786979675,,0.5434868931770325,1.753515601158142,-0.18694278597831726,0.6489484310150146,1.2192035913467407,-0.3418787121772766,-0.5252614617347717,3.0101547241210938,0.8349429965019226,0.615372359752655,-0.22513800859451294,0.7297256588935852,,0.1443442702293396,1.6064547300338745,0.7177568674087524,0.9437319040298462,0.4641035795211792,-0.11777526140213013,-0.35976147651672363,2.9357898235321045,0.4128255248069763,0.10067616403102875,1.0065793991088867,1.204287052154541,,-0.8790323466757306,-0.28093757649853923,0.17609062618000001,0.7433508496526389,0.10521010481938914,-0.08432156852371436,-0.11434084629399548,,-0.5579365592312239,0.5301810572812611,0.21260322661000003,1.5865141124039113,0.04577322742142255,-0.15134851897452606,0.01862122353930784
2.0873458299902268,,0.9523545503616333,1.6243373155593872,-0.12364546954631805,0.7505711913108826,1.7305853366851807,0.5731565356254578,-0.673043429851532,2.7817559242248535,0.6927924156188965,-0.10376709699630737,-0.4833108186721802,0.8986517786979675,,0.5434868931770325,1.753515601158142,-0.18694278597831726,0.6489484310150146,1.2192035913467407,-0.3418787121772766,-0.5252614617347717,3.0101547241210938,0.8349429965019226,0.615372359752655,-0.22513800859451294,0.7297256588935852,,0.1443442702293396,1.6064547300338745,0.7177568674087524,0.9437319040298462,0.4641035795211792,-0.11777526140213013,-0.35976147651672363,2.9357898235321045,0.4128255248069763,0.10067616403102875,1.0065793991088867,1.204287052154541,,-0.8790323466757306,-0.28093757649853923,0.17609062618000001,0.7433508496526389,0.10521010481938914,-0.08432156852371436,-0.11434084629399548,,-0.5579365592312239,0.5301810572812611,0.21260322661000003,1.5865141124039113,0.04577322742142255,-0.15134851897452606,0.01862122353930784
2.1182843889982905,,0.9523545503616333,1.6243373155593872,-0.12364546954631805,0.7505711913108826,1.7305853366851807,0.5731565356254578,-0.673043429851532,2.7817559242248535,0.6927924156188965,-0.10376709699630737,-0.4833108186721802,0.8986517786979675,,0.5434868931770325,1.753515601158142,-0.18694278597831726,0.6489484310150146,1.2192035913467407,-0.3418787121772766,-0.5252614617347717,3.0101547241210938,0.8349429965019226,0.615372359752655,-0.22513800859451294,0.7297256588935852,,0.1443442702293396,1.6064547300338745,0.7177568674087524,0.9437319040298462,0.4641035795211792,-0.11777526140213013,-0.35976147651672363,2.9357898235321045,0.4128255248069763,0.10067616403102875,1.0065793991088867,1.204287052154541,,-0.8790323466757306,-0.28093757649853923,0.17609062618000001,0.7433508496526389,0.10521010481938914,-0.08432156852371436,-0.11434084629399548,,-0.5579365592312239,0.5301810572812611,0.21260322661000003,1.5865141124039113,0.04577322742142255,-0.15134851897452606,0.01862122353930784
2.1820847849885467,,0.9523545503616333,1.6243373155593872,-0.12364546954631805,0.7505711913108826,1.7305853366851807,0.5731565356254578,-0.673043429851532,2.7817559242248535,0.6927924156188965,-0.10376709699630737,-0.4833108186721802,0.8986517786979675,,0.5434868931770325,1.753515601158142,-0.18694278597831726,0.6489484310150146,1.2192035913467407,-0.3418787121772766,-0.5252614617347717,3.0101547241210938,0.8349429965019226,0.615372359752655,-0.22513800859451294,0.7297256588935852,,0.1443442702293396,1.6064547300338745,0.7177568674087524,0.9437319040298462,0.4641035795211792,-0.11777526140213013,-0.35976147651672363,2.9357898235321045,0.4128255248069763,0.10067616403102875,1.0065793991088867,1.204287052154541,,-0.8790323466757306,-0.28093757649853923,0.17609062618000001,0.7433508496526389,0.10521010481938914,-0.08432156852371436,-0.11434084629399548,,-0.5579365592312239,0.5301810572812611,0.21260322661000003,1.5865141124039113,0.04577322742142255,-0.15134851897452606,0.01862122353930784
2.218079178011976,,0.9523545503616333,1.6243373155593872,-0.12364546954631805,0.7505711913108826,1.7305853366851807,0.5731565356254578,-0.673043429851532,2.7817559242248535,0.6927924156188965,-0.10376709699630737,-0.4833108186721802,0.8986517786979675,,0.5434868931770325,1.753515601158142,-0.18694278597831726,0.6489484310150146,1.2192035913467407,-0.3418787121772766,-0.5252614617347717,3.0101547241210938,0.8349429965019226,0.615372359752655,-0.22513800859451294,0.7297256588935852,,0.1443442702293396,1.6064547300338745,0.7177568674087524,0.9437319040298462,0.4641035795211792,-0.11777526140213013,-0.35976147651672363,2.9357898235321045,0.4128255248069763,0.10067616403102875,1.0065793991088867,1.204287052154541,,-0.8790323466757306,-0.28093757649853923,0.17609062618000001,0.7433508496526389,0.10521010481938914,-0.08432156852371436,-0.11434084629399548,,-0.5579365592312239,0.5301810572812611,0.21260322661000003,1.5865141124039113,0.04577322742142255,-0.15134851897452606,0.01862122353930784
2.2846309969900176,,0.9523545503616333,1.6243373155593872,-0.12364546954631805,0.7505711913108826,1.7305853366851807,0.5731565356254578,-0.673043429851532,2.7817559242248535,0.6927924156188965,-0.10376709699630737,-0.4833108186721802,0.8986517786979675,,0.5434868931770325,1.753515601158142,-0.18694278597831726,0.6489484310150146,1.2192035913467407,-0.3418787121772766,-0.5252614617347717,3.0101547241210938,0.8349429965019226,0.615372359752655,-0.22513800859451294,0.7297256588935852,,0.1443442702293396,1.6064547300338745,0.7177568674087524,0.9437319040298462,0.4641035795211792,-0.11777526140213013,-0.35976147651672363,2.9357898235321045,0.4128255248069763,0.10067616403102875,1.0065793991088867,1.204287052154541,,-0.8790323466757306,-0.28093757649853923,0.17609062618000001,0.7433508496526389,0.10521010481938914,-0.08432156852371436,-0.11434084629399548,,-0.5579365592312239,0.5301810572812611,0.21260322661000003,1.5865141124039113,0.04577322742142255,-0.15134851897452606,0.01862122353930784
2.330839203001233,,0.9523545503616333,1.6243373155593872,-0.12364546954631805,0.7505711913108826,1.7305853366851807,0.5731565356254578,-0.673043429851532,2.7817559242248535,0.6927924156188965,-0.10376709699630737,-0.4833108186721802,0.8986517786979675,,0.5434844493865967,1.7535161972045898,-0.18694329261779785,0.6489436626434326,1.2192010879516602,-0.34188517928123474,-0.5252612233161926,3.010155200958252,0.8349452614784241,0.615378201007843,-0.22513610124588013,0.7297211289405823,,0.1443442702293396,1.6064547300338745,0.7177568674087524,0.9437319040298462,0.4641035795211792,-0.11777526140213013,-0.35976147651672363,2.9357898235321045,0.4128255248069763,0.10067616403102875,1.0065793991088867,1.204287052154541,,-0.8790323466757306,-0.28093757649853923,0.17609062618000001,0.7433508496526389,0.10521010481938914,-0.08432156852371436,-0.11434084629399548,,-0.5579442819640982,0.5301810572812611,0.21260322661000003,1.5865141124039113,0.04577322742142255,-0.15134851897452606,0.01862122353930784
2.3862281439942308,,0.9522830247879028,1.6244144439697266,-0.12370164692401886,0.7506186962127686,1.7304174900054932,0.5731662511825562,-0.6729786396026611,2.781897783279419,0.6928434371948242,-0.10380107909440994,-0.483410120010376,0.8986201286315918,,0.5434064865112305,1.7535399198532104,-0.18685677647590637,0.6490540504455566,1.2190279960632324,-0.3418480455875397,-0.5252394080162048,3.0102357864379883,0.8348426818847656,0.615267276763916,-0.22502592206001282,0.7298257946968079,,0.14431044459342957,1.6064627170562744,0.7177689075469971,0.9437456727027893,0.464019238948822,-0.11778035759925842,-0.3597172796726227,2.9358131885528564,0.41282039880752563,0.10067526996135712,1.0065948963165283,1.2042912244796753,,-0.8790323466757306,-0.28093757649853923,0.17609062618000001,0.7433508496526389,0.10521010481938914,-0.08432156852371436,-0.11434084629399548,,-0.5579365592312239,0.5301810572812611,0.21260322661000003,1.5865141124039113,0.04577322742142255,-0.15134851897452606,0.01862122353930784
2.4309913119941484,,0.9522830247879028,1.6244144439697266,-0.12370164692401886,0.7506186962127686,1.7304174900054932,0.5731662511825562,-0.6729786396026611,2.781897783279419,0.6928434371948242,-0.10380107909440994,-0.483410120010376,0.8986201286315918,,0.5434064865112305,1.7535399198532104,-0.18685677647590637,0.6490540504455566,1.2190279960632324,-0.3418480455875397,-0.5252394080162048,3.0102357864379883,0.8348426818847656,0.615267276763916,-0.22502592206001282,0.7298257946968079,,0.14431044459342957,1.6064627170562744,0.7177689075469971,0.9437456727027893,0.464019238948822,-0.11778035759925842,-0.3597172796726227,2.9358131885528564,0.41282039880752563,0.10067526996135712,1.0065948963165283,1.2042912244796753,,-0.8790323466757306,-0.28093757649853923,0.17609062618000001,0.7433508496526389,0.10521010481938914,-0.08432156852371436,-0.11434084629399548,,-0.5579365592312239,0.5301810572812611,0.21260322661000003,1.5865141124039113,0.04577322742142255,-0.15134851897452606,0.01862122353930784
2.477851767995162,,0.9522830247879028,1.6244144439697266,-0.12370164692401886,0.7506186962127686,1.7304174900054932,0.5731662511825562,-0.6729786396026611,2.781897783279419,0.6928434371948242,-0.10380107909440994,-0.483410120010376,0.8986201286315918,,0.5434064865112305,1.7535399198532104,-0.18685677647590637,0.6490540504455566,1.2190279960632324,-0.3418480455875397,-0.5252394080162048,3.0102357864379883,0.8348426818847656,0.615267276763916,-0.22502592206001282,0.7298257946968079,,0.14431044459342957,1.6064627170562744,0.7177689075469971,0.9437456727027893,0.464019238948822,-0.11778035759925842,-0.3597172796726227,2.9358131885528564,0.41282039880752563,0.10067526996135712,1.0065948963165283,1.2042912244796753,,-0.8790323466757306,-0.28093757649853923,0.17609062618000001,0.7433508496526389,0.10521010481938914,-0.08432156852371436,-0.11434084629399548,,-0.5579365592312239,0.5301810572812611,0.21260322661000003,1.5865141124039113,0.04577322742142255,-0.15134851897452606,0.01862122353930784
2.5154553029860836,,0.9522830247879028,1.6244144439697266,-0.12370164692401886,0.7506186962127686,1.7304174900054932,0.5731662511825562,-0.6729786396026611,2.781897783279419,0.6928434371948242,-0.10380107909440994,-0.483410120010376,0.8986201286315918,,0.5434040427207947,1.7535405158996582,-0.1868572235107422,0.6490493416786194,1.2190256118774414,-0.3418545126914978,-0.525239109992981,3.0102362632751465,0.8348448872566223,0.6152731776237488,-0.22502398490905762,0.7298213839530945,,0.14431044459342957,1.6064627170562744,0.7177689075469971,0.9437456727027893,0.464019238948822,-0.11778035759925842,-0.3597172796726227,2.9358131885528564,0.41282039880752563,0.10067526996135712,1.0065948963165283,1.2042912244796753,,-0.8790323466757306,-0.28093757649853923,0.17609062618000001,0.7433508496526389,0.10521010481938914,-0.08432156852371436,-0.11434084629399548,,-0.5579442819640982,0.5301810572812611,0.21260322661000003,1.5865141124039113,0.04577322742142255,-0.15134851897452606,0.01862122353930784
2.569396273000166,,0.9522830247879028,1.6244144439697266,-0.12370164692401886,0.7506186962127686,1.7304174900054932,0.5731662511825562,-0.6729786396026611,2.781897783279419,0.6928434371948242,-0.10380107909440994,-0.483410120010376,0.8986201286315918,,0.5434064865112305,1.7535399198532104,-0.18685677647590637,0.6490540504455566,1.2190279960632324,-0.3418480455875397,-0.5252394080162048,3.0102357864379883,0.8348426818847656,0.615267276763916,-0.22502592206001282,0.7298257946968079,,0.14431044459342957,1.6064627170562744,0.7177689075469971,0.9437456727027893,0.464019238948822,-0.11778035759925842,-0.3597172796726227,2.9358131885528564,0.41282039880752563,0.10067526996135712,1.0065948963165283,1.2042912244796753,,-0.8790323466757306,-0.28093757649853923,0.17609062618000001,0.7433508496526389,0.10521010481938914,-0.08432156852371436,-0.11434084629399548,,-0.5579365592312239,0.5301810572812611,0.21260322661000003,1.5865141124039113,0.04577322742142255,-0.15134851897452606,0.01862122353930784
2.617525815992849,,0.9522830247879028,1.6244144439697266,-0.12370164692401886,0.7506186962127686,1.7304174900054932,0.5731662511825562,-0.6729786396026611,2.781897783279419,0.6928434371948242,-0.10380107909440994,-0.483410120010376,0.8986201286315918,,0.5434064865112305,1.7535399198532104,-0.18685677647590637,0.6490540504455566,1.2190279960632324,-0.3418480455875397,-0.5252394080162048,3.0102357864379883,0.8348426818847656,0.615267276763916,-0.22502592206001282,0.7298257946968079,,0.14431044459342957,1.6064627170562744,0.7177689075469971,0.9437456727027893,0.464019238948822,-0.11778035759925842,-0.3597172796726227,2.9358131885528564,0.41282039880752563,0.10067526996135712,1.0065948963165283,1.2042912244796753,,-0.8790323466757306,-0.28093757649853923,0.17609062618000001,0.7433508496526389,0.10521010481938914,-0.08432156852371436,-0.11434084629399548,,-0.5579365592312239,0.5301810572812611,0.21260322661000003,1.5865141124039113,0.04577322742142255,-0.15134851897452606,0.01862122353930784
2.6504570269898977,,0.9522830247879028,1.6244144439697266,-0.12370164692401886,0.7506186962127686,1.7304174900054932,0.5731662511825562,-0.6729786396026611,2.781897783279419,0.6928434371948242,-0.10380107909440994,-0.483410120010376,0.8986201286315918,,0.5434064865112305,1.7535399198532104,-0.18685677647590637,0.6490540504455566,1.2190279960632324,-0.3418480455875397,-0.5252394080162048,3.0102357864379883,0.8348426818847656,0.615267276763916,-0.22502592206001282,0.7298257946968079,,0.14431044459342957,1.6064627170562744,0.7177689075469971,0.9437456727027893,0.464019238948822,-0.11778035759925842,-0.3597172796726227,2.9358131885528564,0.41282039880752563,0.10067526996135712,1.0065948963165283,1.2042912244796753,,-0.8790323466757306,-0.28093757649853923,0.17609062618000001,0.7433508496526389,0.10521010481938914,-0.08432156852371436,-0.11434084629399548,,-0.5579365592312239,0.5301810572812611,0.21260322661000003,1.5865141124039113,0.04577322742142255,-0.15134851897452606,0.01862122353930784
2.7155746720090974,,0.9522830247879028,1.6244144439697266,-0.12370164692401886,0.7506186962127686,1.7304174900054932,0.5731662511825562,-0.6729786396026611,2.781897783279419,0.6928434371948242,-0.10380107909440994,-0.483410120010376,0.8986201286315918,,0.5434064865112305,1.7535399198532104,-0.18685677647590637,0.6490540504455566,1.2190279960632324,-0.3418480455875397,-0.5252394080162048,3.0102357864379883,0.8348426818847656,0.615267276763916,-0.22502592206001282,0.7298257946968079,,0.14431044459342957,1.6064627170562744,0.7177689075469971,0.9437456727027893,0.464019238948822,-0.11778035759925842,-0.3597172796726227,2.9358131885528564,0.41282039880752563,0.10067526996135712,1.0065948963165283,1.2042912244796753,,-0.8790323466757306,-0.28093757649853923,0.17609062618000001,0.7433508496526389,0.10521010481938914,-0.08432156852371436,-0.11434084629399548,,-0.5579365592312239,0.5301810572812611,0.21260322661000003,1.5865141124039113,0.04577322742142255,-0.15134851897452606,0.01862122353930784
2.74708778198692,,0.9522830247879028,1.6244144439697266,-0.12370164692401886,0.7506186962127686,1.7304174900054932,0.5731662511825562,-0.6729786396026611,2.781897783279419,0.6928434371948242,-0.10380107909440994,-0.483410120010376,0.8986201286315918,,0.5434064865112305,1.7535399198532104,-0.18685677647590637,0.6490540504455566,1.2190279960632324,-0.3418480455875397,-0.5252394080162048,3.0102357864379883,0.8348426818847656,0.615267276763916,-0.22502592206001282,0.7298257946968079,,0.14431044459342957,1.6064627170562744,0.7177689075469971,0.9437456727027893,0.464019238948822,-0.11778035759925842,-0.3597172796726227,2.9358131885528564,0.41282039880752563,0.10067526996135712,1.0065948963165283,1.2042912244796753,,-0.8790323466757306,-0.28093757649853923,0.17609062618000001,0.7433508496526389,0.10521010481938914,-0.08432156852371436,-0.11434084629399548,,-0.5579365592312239,0.5301810572812611,0.21260322661000003,1.5865141124039113,0.04577322742142255,-0.15134851897452606,0.01862122353930784
2.7966694390052,,0.9522830247879028,1.6244144439697266,-0.12370164692401886,0.7506186962127686,1.7304174900054932,0.5731662511825562,-0.6729786396026611,2.781897783279419,0.6928434371948242,-0.10380107909440994,-0.483410120010376,0.8986201286315918,,0.5434064865112305,1.7535399198532104,-0.18685677647590637,0.6490540504455566,1.2190279960632324,-0.3418480455875397,-0.5252394080162048,3.0102357864379883,0.8348426818847656,0.615267276763916,-0.22502592206001282,0.7298257946968079,,0.14431044459342957,1.6064627170562744,0.7177689075469971,0.9437456727027893,0.464019238948822,-0.11778035759925842,-0.3597172796726227,2.9358131885528564,0.41282039880752563,0.10067526996135712,1.0065948963165283,1.2042912244796753,,-0.8790323466757306,-0.28093757649853923,0.17609062618000001,0.7433508496526389,0.10521010481938914,-0.08432156852371436,-0.11434084629399548,,-0.5579365592312239,0.5301810572812611,0.21260322661000003,1.5865141124039113,0.04577322742142255,-0.15134851897452606,0.01862122353930784
2.848790605989052,,0.9522830247879028,1.6244144439697266,-0.12370164692401886,0.7506186962127686,1.7304174900054932,0.5731662511825562,-0.6729786396026611,2.781897783279419,0.6928434371948242,-0.10380107909440994,-0.483410120010376,0.8986201286315918,,0.5434064865112305,1.7535399198532104,-0.18685677647590637,0.6490540504455566,1.2190279960632324,-0.3418480455875397,-0.5252394080162048,3.0102357864379883,0.8348426818847656,0.615267276763916,-0.22502592206001282,0.7298257946968079,,0.14431044459342957,1.6064627170562744,0.7177689075469971,0.9437456727027893,0.464019238948822,-0.11778035759925842,-0.3597172796726227,2.9358131885528564,0.41282039880752563,0.10067526996135712,1.0065948963165283,1.2042912244796753,,-0.8790323466757306,-0.28093757649853923,0.17609062618000001,0.7433508496526389,0.10521010481938914,-0.08432156852371436,-0.11434084629399548,,-0.5579365592312239,0.5301810572812611,0.21260322661000003,1.5865141124039113,0.04577322742142255,-0.15134851897452606,0.01862122353930784
2.885386120993644,,0.9522830247879028,1.6244144439697266,-0.12370164692401886,0.7506186962127686,1.7304174900054932,0.5731662511825562,-0.6729786396026611,2.781897783279419,0.6928434371948242,-0.10380107909440994,-0.483410120010376,0.8986201286315918,,0.5434064865112305,1.7535399198532104,-0.18685677647590637,0.6490540504455566,1.2190279960632324,-0.3418480455875397,-0.5252394080162048,3.0102357864379883,0.8348426818847656,0.615267276763916,-0.22502592206001282,0.7298257946968079,,0.14431044459342957,1.6064627170562744,0.7177689075469971,0.9437456727027893,0.464019238948822,-0.11778035759925842,-0.3597172796726227,2.9358131885528564,0.41282039880752563,0.10067526996135712,1.0065948963165283,1.2042912244796753,,-0.8790323466757306,-0.28093757649853923,0.17609062618000001,0.7433508496526389,0.10521010481938914,-0.08432156852371436,-0.11434084629399548,,-0.5579365592312239,0.5301810572812611,0.21260322661000003,1.5865141124039113,0.04577322742142255,-0.15134851897452606,0.01862122353930784
2.9409157340123784,,0.9522830247879028,1.6244144439697266,-0.12370164692401886,0.7506186962127686,1.7304174900054932,0.5731662511825562,-0.6729786396026611,2.781897783279419,0.6928434371948242,-0.10380107909440994,-0.483410120010376,0.8986201286315918,,0.5434064865112305,1.7535399198532104,-0.18685677647590637,0.6490540504455566,1.2190279960632324,-0.3418480455875397,-0.5252394080162048,3.0102357864379883,0.8348426818847656,0.615267276763916,-0.22502592206001282,0.7298257946968079,,0.14431044459342957,1.6064627170562744,0.7177689075469971,0.9437456727027893,0.464019238948822,-0.11778035759925842,-0.3597172796726227,2.9358131885528564,0.41282039880752563,0.10067526996135712,1.0065948963165283,1.2042912244796753,,-0.8790323466757306,-0.28093757649853923,0.17609062618000001,0.7433508496526389,0.10521010481938914,-0.08432156852371436,-0.11434084629399548,,-0.5579365592312239,0.5301810572812611,0.21260322661000003,1.5865141124039113,0.04577322742142255,-0.15134851897452606,0.01862122353930784
2.990622891986277,,0.9522830247879028,1.6244144439697266,-0.12370164692401886,0.7506186962127686,1.7304174900054932,0.5731662511825562,-0.6729786396026611,2.781897783279419,0.6928434371948242,-0.10380107909440994,-0.483410120010376,0.8986201286315918,,0.5434064865112305,1.7535399198532104,-0.18685677647590637,0.6490540504455566,1.2190279960632324,-0.3418480455875397,-0.5252394080162048,3.0102357864379883,0.8348426818847656,0.615267276763916,-0.22502592206001282,0.7298257946968079,,0.14431044459342957,1.6064627170562744,0.7177689075469971,0.9437456727027893,0.464019238948822,-0.11778035759925842,-0.3597172796726227,2.9358131885528564,0.41282039880752563,0.10067526996135712,1.0065948963165283,1.2042912244796753,,-0.8790323466757306,-0.28093757649853923,0.17609062618000001,0.7433508496526389,0.10521010481938914,-0.08432156852371436,-0.11434084629399548,,-0.5579365592312239,0.5301810572812611,0.21260322661000003,1.5865141124039113,0.04577322742142255,-0.15134851897452606,0.01862122353930784
3.0318902999861166,,0.9522830247879028,1.6244144439697266,-0.12370164692401886,0.7506186962127686,1.7304174900054932,0.5731662511825562,-0.6729786396026611,2.781897783279419,0.6928434371948242,-0.10380107909440994,-0.483410120010376,0.8986201286315918,,0.5434040427207947,1.7535405158996582,-0.1868572235107422,0.6490493416786194,1.2190256118774414,-0.3418545126914978,-0.525239109992981,3.0102362632751465,0.8348448872566223,0.6152731776237488,-0.22502398490905762,0.7298213839530945,,0.14431044459342957,1.6064627170562744,0.7177689075469971,0.9437456727027893,0.464019238948822,-0.11778035759925842,-0.3597172796726227,2.9358131885528564,0.41282039880752563,0.10067526996135712,1.0065948963165283,1.2042912244796753,,-0.8790323466757306,-0.28093757649853923,0.17609062618000001,0.7433508496526389,0.10521010481938914,-0.08432156852371436,-0.11434084629399548,,-0.5579442819640982,0.5301810572812611,0.21260322661000003,1.5865141124039113,0.04577322742142255,-0.15134851897452606,0.01862122353930784
3.063575114996638,,0.9522830247879028,1.6244144439697266,-0.12370164692401886,0.7506186962127686,1.7304174900054932,0.5731662511825562,-0.6729786396026611,2.781897783279419,0.6928434371948242,-0.10380107909440994,-0.483410120010376,0.8986201286315918,,0.5434064865112305,1.7535399198532104,-0.18685677647590637,0.6490540504455566,1.2190279960632324,-0.3418480455875397,-0.5252394080162048,3.0102357864379883,0.8348426818847656,0.615267276763916,-0.22502592206001282,0.7298257946968079,,0.14431044459342957,1.6064627170562744,0.7177689075469971,0.9437456727027893,0.464019238948822,-0.11778035759925842,-0.3597172796726227,2.9358131885528564,0.41282039880752563,0.10067526996135712,1.0065948963165283,1.2042912244796753,,-0.8790323466757306,-0.28093757649853923,0.17609062618000001,0.7433508496526389,0.10521010481938914,-0.08432156852371436,-0.11434084629399548,,-0.5579365592312239,0.5301810572812611,0.21260322661000003,1.5865141124039113,0.04577322742142255,-0.15134851897452606,0.01862122353930784
3.1272923559881747,,0.9522830247879028,1.6244144439697266,-0.12370164692401886,0.7506186962127686,1.7304174900054932,0.5731662511825562,-0.6729786396026611,2.781897783279419,0.6928434371948242,-0.10380107909440994,-0.483410120010376,0.8986201286315918,,0.5434064865112305,1.7535399198532104,-0.18685677647590637,0.6490540504455566,1.2190279960632324,-0.3418480455875397,-0.5252394080162048,3.0102357864379883,0.8348426818847656,0.615267276763916,-0.22502592206001282,0.7298257946968079,,0.14431044459342957,1.6064627170562744,0.7177689075469971,0.9437456727027893,0.464019238948822,-0.11778035759925842,-0.3597172796726227,2.9358131885528564,0.41282039880752563,0.10067526996135712,1.0065948963165283,1.2042912244796753,,-0.8790323466757306,-0.28093757649853923,0.17609062618000001,0.7433508496526389,0.10521010481938914,-0.08432156852371436,-0.11434084629399548,,-0.5579365592312239,0.5301810572812611,0.21260322661000003,1.5865141124039113,0.04577322742142255,-0.15134851897452606,0.01862122353930784
3.16862023100839,,0.9522830247879028,1.6244144439697266,-0.12370164692401886,0.7506186962127686,1.7304174900054932,0.5731662511825562,-0.6729786396026611,2.781897783279419,0.6928434371948242,-0.10380107909440994,-0.483410120010376,0.8986201286315918,,0.5434730052947998,1.753549575805664,-0.18698379397392273,0.6490467190742493,1.2191407680511475,-0.3418014347553253,-0.5252220630645752,3.010230779647827,0.83492112159729,0.6152912974357605,-0.2252528965473175,0.7297760248184204,,0.14431044459342957,1.6064627170562744,0.7177689075469971,0.9437456727027893,0.464019238948822,-0.11778035759925842,-0.3597172796726227,2.9358131885528564,0.41282039880752563,0.10067526996135712,1.0065948963165283,1.2042912244796753,,-0.8790323466757306,-0.28093757649853923,0.17609062618000001,0.7433508496526389,0.10521010481938914,-0.08432156852371436,-0.11434084629399548,,-0.5579365592312239,0.5301810572812611,0.21260322661000003,1.5865141124039113,0.04577322742142255,-0.15126684023438547,0.018457879473173566
3.2118485319952015,,0.9522830247879028,1.6244144439697266,-0.12370164692401886,0.7506186962127686,1.7304174900054932,0.5731662511825562,-0.6729786396026611,2.781897783279419,0.6928434371948242,-0.10380107909440994,-0.483410120010376,0.8986201286315918,,0.5435395240783691,1.7535592317581177,-0.1871108114719391,0.6490393280982971,1.2192535400390625,-0.34175485372543335,-0.5252047777175903,3.010226011276245,0.8349996209144592,0.6153153777122498,-0.2254798710346222,0.7297261953353882,,0.14431044459342957,1.6064627170562744,0.7177689075469971,0.9437456727027893,0.464019238948822,-0.11778035759925842,-0.3597172796726227,2.9358131885528564,0.41282039880752563,0.10067526996135712,1.0065948963165283,1.2042912244796753,,-0.8790323466757306,-0.28093757649853923,0.17609062618000001,0.7433508496526389,0.10521010481938914,-0.08432156852371436,-0.11434084629399548,,-0.5579365592312239,0.5301810572812611,0.21260322661000003,1.5865141124039113,0.04577322742142255,-0.15118516149424494,0.018294535407039278
3.2532966129947454,,0.9522830247879028,1.6244144439697266,-0.12370164692401886,0.7506186962127686,1.7304174900054932,0.5731662511825562,-0.6729786396026611,2.781897783279419,0.6928434371948242,-0.10380107909440994,-0.483410120010376,0.8986201286315918,,0.5435395240783691,1.7535592317581177,-0.1871108114719391,0.6490393280982971,1.2192535400390625,-0.34175485372543335,-0.5252047777175903,3.010226011276245,0.8349996209144592,0.6153153777122498,-0.2254798710346222,0.7297261953353882,,0.14431044459342957,1.6064627170562744,0.7177689075469971,0.9437456727027893,0.464019238948822,-0.11778035759925842,-0.3597172796726227,2.9358131885528564,0.41282039880752563,0.10067526996135712,1.0065948963165283,1.2042912244796753,,-0.8790323466757306,-0.28093757649853923,0.17609062618000001,0.7433508496526389,0.10521010481938914,-0.08432156852371436,-0.11434084629399548,,-0.5579365592312239,0.5301810572812611,0.21260322661000003,1.5865141124039113,0.04577322742142255,-0.15118516149424494,0.018294535407039278
3.295673626998905,,0.9522830247879028,1.6244144439697266,-0.12370164692401886,0.7506186962127686,1.7304174900054932,0.5731662511825562,-0.6729786396026611,2.781897783279419,0.6928434371948242,-0.10380107909440994,-0.483410120010376,0.8986201286315918,,0.5435395240783691,1.7535592317581177,-0.1871108114719391,0.6490393280982971,1.2192535400390625,-0.34175485372543335,-0.5252047777175903,3.010226011276245,0.8349996209144592,0.6153153777122498,-0.2254798710346222,0.7297261953353882,,0.14431044459342957,1.6064627170562744,0.7177689075469971,0.9437456727027893,0.464019238948822,-0.11778035759925842,-0.3597172796726227,2.9358131885528564,0.41282039880752563,0.10067526996135712,1.0065948963165283,1.2042912244796753,,-0.8790323466757306,-0.28093757649853923,0.17609062618000001,0.7433508496526389,0.10521010481938914,-0.08432156852371436,-0.11434084629399548,,-0.5579365592312239,0.5301810572812611,0.21260322661000003,1.5865141124039113,0.04577322742142255,-0.15118516149424494,0.018294535407039278
3.336685401009163,,0.9522830247879028,1.6244144439697266,-0.12370164692401886,0.7506186962127686,1.7304174900054932,0.5731662511825562,-0.6729786396026611,2.781897783279419,0.6928434371948242,-0.10380107909440994,-0.483410120010376,0.8986201286315918,,0.5435395240783691,1.7535592317581177,-0.1871108114719391,0.6490393280982971,1.2192535400390625,-0.34175485372543335,-0.5252047777175903,3.010226011276245,0.8349996209144592,0.6153153777122498,-0.2254798710346222,0.7297261953353882,,0.14431044459342957,1.6064627170562744,0.7177689075469971,0.9437456727027893,0.464019238948822,-0.11778035759925842,-0.3597172796726227,2.9358131885528564,0.41282039880752563,0.10067526996135712,1.0065948963165283,1.2042912244796753,,-0.8790323466757306,-0.28093757649853923,0.17609062618000001,0.7433508496526389,0.10521010481938914,-0.08432156852371436,-0.11434084629399548,,-0.5579365592312239,0.5301810572812611,0.21260322661000003,1.5865141124039113,0.04577322742142255,-0.15118516149424494,0.018294535407039278
3.3960247930081096,,0.9522830247879028,1.6244144439697266,-0.12370164692401886,0.7506186962127686,1.7304174900054932,0.5731662511825562,-0.6729786396026611,2.781897783279419,0.6928434371948242,-0.10380107909440994,-0.483410120010376,0.8986201286315918,,0.5435395240783691,1.7535592317581177,-0.1871108114719391,0.6490393280982971,1.2192535400390625,-0.34175485372543335,-0.5252047777175903,3.010226011276245,0.8349996209144592,0.6153153777122498,-0.2254798710346222,0.7297261953353882,,0.14431044459342957,1.6064627170562744,0.7177689075469971,0.9437456727027893,0.464019238948822,-0.11778035759925842,-0.3597172796726227,2.9358131885528564,0.41282039880752563,0.10067526996135712,1.0065948963165283,1.2042912244796753,,-0.8790323466757306,-0.28093757649853923,0.17609062618000001,0.7433508496526389,0.10521010481938914,-0.08432156852371436,-0.11434084629399548,,-0.5579365592312239,0.5301810572812611,0.21260322661000003,1.5865141124039113,0.04577322742142255,-0.15118516149424494,0.018294535407039278
3.4304220199992415,,0.9522830247879028,1.6244144439697266,-0.12370164692401886,0.7506186962127686,1.7304174900054932,0.5731662511825562,-0.6729786396026611,2.781897783279419,0.6928434371948242,-0.10380107909440994,-0.483410120010376,0.8986201286315918,,0.5435395240783691,1.7535592317581177,-0.1871108114719391,0.6490393280982971,1.2192535400390625,-0.34175485372543335,-0.5252047777175903,3.010226011276245,0.8349996209144592,0.6153153777122498,-0.2254798710346222,0.7297261953353882,,0.14431044459342957,1.6064627170562744,0.7177689075469971,0.9437456727027893,0.464019238948822,-0.11778035759925842,-0.3597172796726227,2.9358131885528564,0.41282039880752563,0.10067526996135712,1.0065948963165283,1.2042912244796753,,-0.8790323466757306,-0.28093757649853923,0.17609062618000001,0.7433508496526389,0.10521010481938914,-0.08432156852371436,-0.11434084629399548,,-0.5579365592312239,0.5301810572812611,0.21260322661000003,1.5865141124039113,0.04577322742142255,-0.15118516149424494,0.018294535407039278
3.488118197012227,,0.9522830247879028,1.6244144439697266,-0.12370164692401886,0.7506186962127686,1.7304174900054932,0.5731662511825562,-0.6729786396026611,2.781897783279419,0.6928434371948242,-0.10380107909440994,-0.483410120010376,0.8986201286315918,,0.5435370802879333,1.7535598278045654,-0.1871112585067749,0.6490346193313599,1.2192511558532715,-0.34176135063171387,-0.5252045392990112,3.010226249694824,0.8350018858909607,0.6153212189674377,-0.22547799348831177,0.72972172498703,,0.14431044459342957,1.6064627170562744,0.7177689075469971,0.9437456727027893,0.464019238948822,-0.11778035759925842,-0.3597172796726227,2.9358131885528564,0.41282039880752563,0.10067526996135712,1.0065948963165283,1.2042912244796753,,-0.8790323466757306,-0.28093757649853923,0.17609062618000001,0.7433508496526389,0.10521010481938914,-0.08432156852371436,-0.11434084629399548,,-0.5579442819640982,0.5301810572812611,0.21260322661000003,1.5865141124039113,0.04577322742142255,-0.15118516149424494,0.018294535407039278
3.5351570060011,,0.9523407816886902,1.6243523359298706,-0.12366557121276855,0.7505767941474915,1.7305657863616943,0.5731431841850281,-0.6730422973632812,2.7817695140838623,0.6928243637084961,-0.10374418646097183,-0.48335105180740356,0.898643434047699,,0.5435926914215088,1.7535332441329956,-0.18713194131851196,0.6490045785903931,1.2193357944488525,-0.34176307916641235,-0.5252078771591187,3.0101821422576904,0.8350114226341248,0.6153491735458374,-0.22549700736999512,0.729695200920105,,0.1443561464548111,1.6064562797546387,0.717769205570221,0.9437321424484253,0.46411511301994324,-0.11777060478925705,-0.3597574532032013,2.935792922973633,0.412825345993042,0.10067523270845413,1.006595253944397,1.2042913436889648,,-0.8790323466757306,-0.28093757649853923,0.17609062618000001,0.7433508496526389,0.10521010481938914,-0.08432156852371436,-0.11434084629399548,,-0.5579365592312239,0.5301810572812611,0.21260322661000003,1.5865141124039113,0.04577322742142255,-0.15118516149424494,0.018294535407039278
3.581133008992765,,0.9523407816886902,1.6243523359298706,-0.12366557121276855,0.7505767941474915,1.7305657863616943,0.5731431841850281,-0.6730422973632812,2.7817695140838623,0.6928243637084961,-0.10374418646097183,-0.48335105180740356,0.898643434047699,,0.5435926914215088,1.7535332441329956,-0.18713194131851196,0.6490045785903931,1.2193357944488525,-0.34176307916641235,-0.5252078771591187,3.0101821422576904,0.8350114226341248,0.6153491735458374,-0.22549700736999512,0.729695200920105,,0.1443561464548111,1.6064562797546387,0.717769205570221,0.9437321424484253,0.46411511301994324,-0.11777060478925705,-0.3597574532032013,2.935792922973633,0.412825345993042,0.10067523270845413,1.006595253944397,1.2042913436889648,,-0.8790323466757306,-0.28093757649853923,0.17609062618000001,0.7433508496526389,0.10521010481938914,-0.08432156852371436,-0.11434084629399548,,-0.5579365592312239,0.5301810572812611,0.21260322661000003,1.5865141124039113,0.04577322742142255,-0.15118516149424494,0.018294535407039278
3.628703229012899,,0.9523407816886902,1.6243523359298706,-0.12366557121276855,0.7505767941474915,1.7305657863616943,0.5731431841850281,-0.6730422973632812,2.7817695140838623,0.6928243637084961,-0.10374418646097183,-0.48335105180740356,0.898643434047699,,0.5435926914215088,1.7535332441329956,-0.18713194131851196,0.6490045785903931,1.2193357944488525,-0.34176307916641235,-0.5252078771591187,3.0101821422576904,0.8350114226341248,0.6153491735458374,-0.22549700736999512,0.729695200920105,,0.1443561464548111,1.6064562797546387,0.717769205570221,0.9437321424484253,0.46411511301994324,-0.11777060478925705,-0.3597574532032013,2.935792922973633,0.412825345993042,0.10067523270845413,1.006595253944397,1.2042913436889648,,-0.8790323466757306,-0.28093757649853923,0.17609062618000001,0.7433508496526389,0.10521010481938914,-0.08432156852371436,-0.11434084629399548,,-0.5579365592312239,0.5301810572812611,0.21260322661000003,1.5865141124039113,0.04577322742142255,-0.15118516149424494,0.018294535407039278
3.6720591989869718,,0.9523407816886902,1.6243523359298706,-0.12366557121276855,0.7505767941474915,1.7305657863616943,0.5731431841850281,-0.6730422973632812,2.7817695140838623,0.6928243637084961,-0.10374418646097183,-0.48335105180740356,0.898643434047699,,0.5435926914215088,1.7535332441329956,-0.18713194131851196,0.6490045785903931,1.2193357944488525,-0.34176307916641235,-0.5252078771591187,3.0101821422576904,0.8350114226341248,0.6153491735458374,-0.22549700736999512,0.729695200920105,,0.1443561464548111,1.6064562797546387,0.717769205570221,0.9437321424484253,0.46411511301994324,-0.11777060478925705,-0.3597574532032013,2.935792922973633,0.412825345993042,0.10067523270845413,1.006595253944397,1.2042913436889648,,-0.8790323466757306,-0.28093757649853923,0.17609062618000001,0.7433508496526389,0.10521010481938914,-0.08432156852371436,-0.11434084629399548,,-0.5579365592312239,0.5301810572812611,0.21260322661000003,1.5865141124039113,0.04577322742142255,-0.15118516149424494,0.018294535407039278
3.7188872850092594,,0.9523407816886902,1.6243523359298706,-0.12366557121276855,0.7505767941474915,1.7305657863616943,0.5731431841850281,-0.6730422973632812,2.7817695140838623,0.6928243637084961,-0.10374418646097183,-0.48335105180740356,0.898643434047699,,0.5435926914215088,1.7535332441329956,-0.18713194131851196,0.6490045785903931,1.2193357944488525,-0.34176307916641235,-0.5252078771591187,3.0101821422576904,0.8350114226341248,0.6153491735458374,-0.22549700736999512,0.729695200920105,,0.1443561464548111,1.6064562797546387,0.717769205570221,0.9437321424484253,0.46411511301994324,-0.11777060478925705,-0.3597574532032013,2.935792922973633,0.412825345993042,0.10067523270845413,1.006595253944397,1.2042913436889648,,-0.8790323466757306,-0.28093757649853923,0.17609062618000001,0.7433508496526389,0.10521010481938914,-0.08432156852371436,-0.11434084629399548,,-0.5579365592312239,0.5301810572812611,0.21260322661000003,1.5865141124039113,0.04577322742142255,-0.15118516149424494,0.018294535407039278
3.7587417330069,,0.9523407816886902,1.6243523359298706,-0.12366557121276855,0.7505767941474915,1.7305657863616943,0.5731431841850281,-0.6730422973632812,2.7817695140838623,0.6928243637084961,-0.10374418646097183,-0.48335105180740356,0.898643434047699,,0.5435926914215088,1.7535332441329956,-0.18713194131851196,0.6490045785903931,1.2193357944488525,-0.34176307916641235,-0.5252078771591187,3.0101821422576904,0.8350114226341248,0.6153491735458374,-0.22549700736999512,0.729695200920105,,0.1443561464548111,1.6064562797546387,0.717769205570221,0.9437321424484253,0.46411511301994324,-0.11777060478925705,-0.3597574532032013,2.935792922973633,0.412825345993042,0.10067523270845413,1.006595253944397,1.2042913436889648,,-0.8790323466757306,-0.28093757649853923,0.17609062618000001,0.7433508496526389,0.10521010481938914,-0.08432156852371436,-0.11434084629399548,,-0.5579365592312239,0.5301810572812611,0.21260322661000003,1.5865141124039113,0.04577322742142255,-0.15118516149424494,0.018294535407039278
3.8171522459888365,,0.9523407816886902,1.6243523359298706,-0.12366557121276855,0.7505767941474915,1.7305657863616943,0.5731431841850281,-0.6730422973632812,2.7817695140838623,0.6928243637084961,-0.10374418646097183,-0.48335105180740356,0.898643434047699,,0.5435903072357178,1.7535338401794434,-0.18713244795799255,0.6489998698234558,1.2193334102630615,-0.3417695462703705,-0.5252076983451843,3.0101826190948486,0.8350136876106262,0.6153549551963806,-0.22549504041671753,0.7296907305717468,,0.1443561464548111,1.6064562797546387,0.717769205570221,0.9437321424484253,0.46411511301994324,-0.11777060478925705,-0.3597574532032013,2.935792922973633,0.412825345993042,0.10067523270845413,1.006595253944397,1.2042913436889648,,-0.8790323466757306,-0.28093757649853923,0.17609062618000001,0.7433508496526389,0.10521010481938914,-0.08432156852371436,-0.11434084629399548,,-0.5579442819640982,0.5301810572812611,0.21260322661000003,1.5865141124039113,0.04577322742142255,-0.15118516149424494,0.018294535407039278
3.850887865992263,,0.9523407816886902,1.6243523359298706,-0.12366557121276855,0.7505767941474915,1.7305657863616943,0.5731431841850281,-0.6730422973632812,2.7817695140838623,0.6928243637084961,-0.10374418646097183,-0.48335105180740356,0.898643434047699,,0.5435926914215088,1.7535332441329956,-0.18713194131851196,0.6490045785903931,1.2193357944488525,-0.34176307916641235,-0.5252078771591187,3.0101821422576904,0.8350114226341248,0.6153491735458374,-0.22549700736999512,0.729695200920105,,0.1443561464548111,1.6064562797546387,0.717769205570221,0.9437321424484253,0.46411511301994324,-0.11777060478925705,-0.3597574532032013,2.935792922973633,0.412825345993042,0.10067523270845413,1.006595253944397,1.2042913436889648,,-0.8790323466757306,-0.28093757649853923,0.17609062618000001,0.7433508496526389,0.10521010481938914,-0.08432156852371436,-0.11434084629399548,,-0.5579365592312239,0.5301810572812611,0.21260322661000003,1.5865141124039113,0.04577322742142255,-0.15118516149424494,0.018294535407039278
3.90314034599578,,0.9523407816886902,1.6243523359298706,-0.12366557121276855,0.7505767941474915,1.7305657863616943,0.5731431841850281,-0.6730422973632812,2.7817695140838623,0.6928243637084961,-0.10374418646097183,-0.48335105180740356,0.898643434047699,,0.5435926914215088,1.7535332441329956,-0.18713194131851196,0.6490045785903931,1.2193357944488525,-0.34176307916641235,-0.5252078771591187,3.0101821422576904,0.8350114226341248,0.6153491735458374,-0.22549700736999512,0.729695200920105,,0.1443561464548111,1.6064562797546387,0.717769205570221,0.9437321424484253,0.46411511301994324,-0.11777060478925705,-0.3597574532032013,2.935792922973633,0.412825345993042,0.10067523270845413,1.006595253944397,1.2042913436889648,,-0.8790323466757306,-0.28093757649853923,0.17609062618000001,0.7433508496526389,0.10521010481938914,-0.08432156852371436,-0.11434084629399548,,-0.5579365592312239,0.5301810572812611,0.21260322661000003,1.5865141124039113,0.04577322742142255,-0.15118516149424494,0.018294535407039278
3.956071255990537,,0.9523407816886902,1.6243523359298706,-0.12366557121276855,0.7505767941474915,1.7305657863616943,0.5731431841850281,-0.6730422973632812,2.7817695140838623,0.6928243637084961,-0.10374418646097183,-0.48335105180740356,0.898643434047699,,0.5435926914215088,1.7535332441329956,-0.18713194131851196,0.6490045785903931,1.2193357944488525,-0.34176307916641235,-0.5252078771591187,3.0101821422576904,0.8350114226341248,0.6153491735458374,-0.22549700736999512,0.729695200920105,,0.1443561464548111,1.6064562797546387,0.717769205570221,0.9437321424484253,0.46411511301994324,-0.11777060478925705,-0.3597574532032013,2.935792922973633,0.412825345993042,0.10067523270845413,1.006595253944397,1.2042913436889648,,-0.8790323466757306,-0.28093757649853923,0.17609062618000001,0.7433508496526389,0.10521010481938914,-0.08432156852371436,-0.11434084629399548,,-0.5579365592312239,0.5301810572812611,0.21260322661000003,1.5865141124039113,0.04577322742142255,-0.15118516149424494,0.018294535407039278
3.9837835220096167,,0.9523407816886902,1.6243523359298706,-0.12366557121276855,0.7505767941474915,1.7305657863616943,0.5731431841850281,-0.6730422973632812,2.7817695140838623,0.6928243637084961,-0.10374418646097183,-0.48335105180740356,0.898643434047699,,0.5435926914215088,1.7535332441329956,-0.18713194131851196,0.6490045785903931,1.2193357944488525,-0.34176307916641235,-0.5252078771591187,3.0101821422576904,0.8350114226341248,0.6153491735458374,-0.22549700736999512,0.729695200920105,,0.1443561464548111,1.6064562797546387,0.717769205570221,0.9437321424484253,0.46411511301994324,-0.11777060478925705,-0.3597574532032013,2.935792922973633,0.412825345993042,0.10067523270845413,1.006595253944397,1.2042913436889648,,-0.8790323466757306,-0.28093757649853923,0.17609062618000001,0.7433508496526389,0.10521010481938914,-0.08432156852371436,-0.11434084629399548,,-0.5579365592312239,0.5301810572812611,0.21260322661000003,1.5865141124039113,0.04577322742142255,-0.15118516149424494,0.018294535407039278
4.033806274004746,,0.9523407816886902,1.6243523359298706,-0.12366557121276855,0.7505767941474915,1.7305657863616943,0.5731431841850281,-0.6730422973632812,2.7817695140838623,0.6928243637084961,-0.10374418646097183,-0.48335105180740356,0.898643434047699,,0.5435926914215088,1.7535332441329956,-0.18713194131851196,0.6490045785903931,1.2193357944488525,-0.34176307916641235,-0.5252078771591187,3.0101821422576904,0.8350114226341248,0.6153491735458374,-0.22549700736999512,0.729695200920105,,0.1443561464548111,1.6064562797546387,0.717769205570221,0.9437321424484253,0.46411511301994324,-0.11777060478925705,-0.3597574532032013,2.935792922973633,0.412825345993042,0.10067523270845413,1.006595253944397,1.2042913436889648,,-0.8790323466757306,-0.28093757649853923,0.17609062618000001,0.7433508496526389,0.10521010481938914,-0.08432156852371436,-0.11434084629399548,,-0.5579365592312239,0.5301810572812611,0.21260322661000003,1.5865141124039113,0.04577322742142255,-0.15118516149424494,0.018294535407039278
4.081832111987751,,0.9523407816886902,1.6243523359298706,-0.12366557121276855,0.7505767941474915,1.7305657863616943,0.5731431841850281,-0.6730422973632812,2.7817695140838623,0.6928243637084961,-0.10374418646097183,-0.48335105180740356,0.898643434047699,,0.5435926914215088,1.7535332441329956,-0.18713194131851196,0.6490045785903931,1.2193357944488525,-0.34176307916641235,-0.5252078771591187,3.0101821422576904,0.8350114226341248,0.6153491735458374,-0.22549700736999512,0.729695200920105,,0.1443561464548111,1.6064562797546387,0.717769205570221,0.9437321424484253,0.46411511301994324,-0.11777060478925705,-0.3597574532032013,2.935792922973633,0.412825345993042,0.10067523270845413,1.006595253944397,1.2042913436889648,,-0.8790323466757306,-0.28093757649853923,0.17609062618000001,0.7433508496526389,0.10521010481938914,-0.08432156852371436,-0.11434084629399548,,-0.5579365592312239,0.5301810572812611,0.21260322661000003,1.5865141124039113,0.04577322742142255,-0.15118516149424494,0.018294535407039278
4.1190763489867095,,0.9523407816886902,1.6243523359298706,-0.12366557121276855,0.7505767941474915,1.7305657863616943,0.5731431841850281,-0.6730422973632812,2.7817695140838623,0.6928243637084961,-0.10374418646097183,-0.48335105180740356,0.898643434047699,,0.5435926914215088,1.7535332441329956,-0.18713194131851196,0.6490045785903931,1.2193357944488525,-0.34176307916641235,-0.5252078771591187,3.0101821422576904,0.8350114226341248,0.6153491735458374,-0.22549700736999512,0.729695200920105,,0.1443561464548111,1.6064562797546387,0.717769205570221,0.9437321424484253,0.46411511301994324,-0.11777060478925705,-0.3597574532032013,2.935792922973633,0.412825345993042,0.10067523270845413,1.006595253944397,1.2042913436889648,,-0.8790323466757306,-0.28093757649853923,0.17609062618000001,0.7433508496526389,0.10521010481938914,-0.08432156852371436,-0.11434084629399548,,-0.5579365592312239,0.5301810572812611,0.21260322661000003,1.5865141124039113,0.04577322742142255,-0.15118516149424494,0.018294535407039278
4.1762327830074355,,0.9523407816886902,1.6243523359298706,-0.12366557121276855,0.7505767941474915,1.7305657863616943,0.5731431841850281,-0.6730422973632812,2.7817695140838623,0.6928243637084961,-0.10374418646097183,-0.48335105180740356,0.898643434047699,,0.5435926914215088,1.7535332441329956,-0.18713194131851196,0.6490045785903931,1.2193357944488525,-0.34176307916641235,-0.5252078771591187,3.0101821422576904,0.8350114226341248,0.6153491735458374,-0.22549700736999512,0.729695200920105,,0.1443561464548111,1.6064562797546387,0.717769205570221,0.9437321424484253,0.46411511301994324,-0.11777060478925705,-0.3597574532032013,2.935792922973633,0.412825345993042,0.10067523270845413,1.006595253944397,1.2042913436889648,,-0.8790323466757306,-0.28093757649853923,0.17609062618000001,0.7433508496526389,0.10521010481938914,-0.08432156852371436,-0.11434084629399548,,-0.5579365592312239,0.5301810572812611,0.21260322661000003,1.5865141124039113,0.04577322742142255,-0.15118516149424494,0.018294535407039278
4.222012559999712,,0.9523407816886902,1.6243523359298706,-0.12366557121276855,0.7505767941474915,1.7305657863616943,0.5731431841850281,-0.6730422973632812,2.7817695140838623,0.6928243637084961,-0.10374418646097183,-0.48335105180740356,0.898643434047699,,0.5435903072357178,1.7535338401794434,-0.18713244795799255,0.6489998698234558,1.2193334102630615,-0.3417695462703705,-0.5252076983451843,3.0101826190948486,0.8350136876106262,0.6153549551963806,-0.22549504041671753,0.7296907305717468,,0.1443561464548111,1.6064562797546387,0.717769205570221,0.9437321424484253,0.46411511301994324,-0.11777060478925705,-0.3597574532032013,2.935792922973633,0.412825345993042,0.10067523270845413,1.006595253944397,1.2042913436889648,,-0.8790323466757306,-0.28093757649853923,0.17609062618000001,0.7433508496526389,0.10521010481938914,-0.08432156852371436,-0.11434084629399548,,-0.5579442819640982,0.5301810572812611,0.21260322661000003,1.5865141124039113,0.04577322742142255,-0.15118516149424494,0.018294535407039278
4.264839431998553,,0.9523407816886902,1.6243523359298706,-0.12366557121276855,0.7505767941474915,1.7305657863616943,0.5731431841850281,-0.6730422973632812,2.7817695140838623,0.6928243637084961,-0.10374418646097183,-0.48335105180740356,0.898643434047699,,0.5435926914215088,1.7535332441329956,-0.18713194131851196,0.6490045785903931,1.2193357944488525,-0.34176307916641235,-0.5252078771591187,3.0101821422576904,0.8350114226341248,0.6153491735458374,-0.22549700736999512,0.729695200920105,,0.1443561464548111,1.6064562797546387,0.717769205570221,0.9437321424484253,0.46411511301994324,-0.11777060478925705,-0.3597574532032013,2.935792922973633,0.412825345993042,0.10067523270845413,1.006595253944397,1.2042913436889648,,-0.8790323466757306,-0.28093757649853923,0.17609062618000001,0.7433508496526389,0.10521010481938914,-0.08432156852371436,-0.11434084629399548,,-0.5579365592312239,0.5301810572812611,0.21260322661000003,1.5865141124039113,0.04577322742142255,-0.15118516149424494,0.018294535407039278
4.306462250999175,,0.9523407816886902,1.6243523359298706,-0.12366557121276855,0.7505767941474915,1.7305657863616943,0.5731431841850281,-0.6730422973632812,2.7817695140838623,0.6928243637084961,-0.10374418646097183,-0.48335105180740356,0.898643434047699,,0.5435926914215088,1.7535332441329956,-0.18713194131851196,0.6490045785903931,1.2193357944488525,-0.34176307916641235,-0.5252078771591187,3.0101821422576904,0.8350114226341248,0.6153491735458374,-0.22549700736999512,0.729695200920105,,0.1443561464548111,1.6064562797546387,0.717769205570221,0.9437321424484253,0.46411511301994324,-0.11777060478925705,-0.3597574532032013,2.935792922973633,0.412825345993042,0.10067523270845413,1.006595253944397,1.2042913436889648,,-0.8790323466757306,-0.28093757649853923,0.17609062618000001,0.7433508496526389,0.10521010481938914,-0.08432156852371436,-0.11434084629399548,,-0.5579365592312239,0.5301810572812611,0.21260322661000003,1.5865141124039113,0.04577322742142255,-0.15118516149424494,0.018294535407039278
4.366433310002321,,0.9523407816886902,1.6243523359298706,-0.12366557121276855,0.7505767941474915,1.7305657863616943,0.5731431841850281,-0.6730422973632812,2.7817695140838623,0.6928243637084961,-0.10374418646097183,-0.48335105180740356,0.898643434047699,,0.5435926914215088,1.7535332441329956,-0.18713194131851196,0.6490045785903931,1.2193357944488525,-0.34176307916641235,-0.5252078771591187,3.0101821422576904,0.8350114226341248,0.6153491735458374,-0.22549700736999512,0.729695200920105,,0.1443561464548111,1.6064562797546387,0.717769205570221,0.9437321424484253,0.46411511301994324,-0.11777060478925705,-0.3597574532032013,2.935792922973633,0.412825345993042,0.10067523270845413,1.006595253944397,1.2042913436889648,,-0.8790323466757306,-0.28093757649853923,0.17609062618000001,0.7433508496526389,0.10521010481938914,-0.08432156852371436,-0.11434084629399548,,-0.5579365592312239,0.5301810572812611,0.21260322661000003,1.5865141124039113,0.04577322742142255,-0.15118516149424494,0.018294535407039278
4.398580278997542,,0.9523407816886902,1.6243523359298706,-0.12366557121276855,0.7505767941474915,1.7305657863616943,0.5731431841850281,-0.6730422973632812,2.7817695140838623,0.6928243637084961,-0.10374418646097183,-0.48335105180740356,0.898643434047699,,0.5435926914215088,1.7535332441329956,-0.18713194131851196,0.6490045785903931,1.2193357944488525,-0.34176307916641235,-0.5252078771591187,3.0101821422576904,0.8350114226341248,0.6153491735458374,-0.22549700736999512,0.729695200920105,,0.1443561464548111,1.6064562797546387,0.717769205570221,0.9437321424484253,0.46411511301994324,-0.11777060478925705,-0.3597574532032013,2.935792922973633,0.412825345993042,0.10067523270845413,1.006595253944397,1.2042913436889648,,-0.8790323466757306,-0.28093757649853923,0.17609062618000001,0.7433508496526389,0.10521010481938914,-0.08432156852371436,-0.11434084629399548,,-0.5579365592312239,0.5301810572812611,0.21260322661000003,1.5865141124039113,0.04577322742142255,-0.15118516149424494,0.018294535407039278
4.4604696560127195,,0.9523407816886902,1.6243523359298706,-0.12366557121276855,0.7505767941474915,1.7305657863616943,0.5731431841850281,-0.6730422973632812,2.7817695140838623,0.6928243637084961,-0.10374418646097183,-0.48335105180740356,0.898643434047699,,0.5435926914215088,1.7535332441329956,-0.18713194131851196,0.6490045785903931,1.2193357944488525,-0.34176307916641235,-0.5252078771591187,3.0101821422576904,0.8350114226341248,0.6153491735458374,-0.22549700736999512,0.729695200920105,,0.1443561464548111,1.6064562797546387,0.717769205570221,0.9437321424484253,0.46411511301994324,-0.11777060478925705,-0.3597574532032013,2.935792922973633,0.412825345993042,0.10067523270845413,1.006595253944397,1.2042913436889648,,-0.8790323466757306,-0.28093757649853923,0.17609062618000001,0.7433508496526389,0.10521010481938914,-0.08432156852371436,-0.11434084629399548,,-0.5579365592312239,0.5301810572812611,0.21260322661000003,1.5865141124039113,0.04577322742142255,-0.15118516149424494,0.018294535407039278
4.511358285002643,,0.9523407816886902,1.6243523359298706,-0.12366557121276855,0.7505767941474915,1.7305657863616943,0.5731431841850281,-0.6730422973632812,2.7817695140838623,0.6928243637084961,-0.10374418646097183,-0.48335105180740356,0.898643434047699,,0.5435903072357178,1.7535338401794434,-0.18713244795799255,0.6489998698234558,1.2193334102630615,-0.3417695462703705,-0.5252076983451843,3.0101826190948486,0.8350136876106262,0.6153549551963806,-0.22549504041671753,0.7296907305717468,,0.1443561464548111,1.6064562797546387,0.717769205570221,0.9437321424484253,0.46411511301994324,-0.11777060478925705,-0.3597574532032013,2.935792922973633,0.412825345993042,0.10067523270845413,1.006595253944397,1.2042913436889648,,-0.8790323466757306,-0.28093757649853923,0.17609062618000001,0.7433508496526389,0.10521010481938914,-0.08432156852371436,-0.11434084629399548,,-0.5579442819640982,0.5301810572812611,0.21260322661000003,1.5865141124039113,0.04577322742142255,-0.15118516149424494,0.018294535407039278
4.5540750589862,,0.9523407816886902,1.6243523359298706,-0.12366557121276855,0.7505767941474915,1.7305657863616943,0.5731431841850281,-0.6730422973632812,2.7817695140838623,0.6928243637084961,-0.10374418646097183,-0.48335105180740356,0.898643434047699,,0.5435903072357178,1.7535338401794434,-0.18713244795799255,0.6489998698234558,1.2193334102630615,-0.3417695462703705,-0.5252076983451843,3.0101826190948486,0.8350136876106262,0.6153549551963806,-0.22549504041671753,0.7296907305717468,,0.1443561464548111,1.6064562797546387,0.717769205570221,0.9437321424484253,0.46411511301994324,-0.11777060478925705,-0.3597574532032013,2.935792922973633,0.412825345993042,0.10067523270845413,1.006595253944397,1.2042913436889648,,-0.8790323466757306,-0.28093757649853923,0.17609062618000001,0.7433508496526389,0.10521010481938914,-0.08432156852371436,-0.11434084629399548,,-0.5579365592312239,0.5301810572812611,0.21260322661000003,1.5865141124039113,0.04577322742142255,-0.15118516149424494,0.018294535407039278
