AlexandreBanks6/ExpertPlaybackApp/resources/Motions/Motion_Best.csv
Time,si_T_psm1,Tx,Ty,Tz,R00,R01,R02,R10,R11,R12,R20,R21,R22,si_T_psm3,Tx,Ty,Tz,R00,R01,R02,R10,R11,R12,R20,R21,R22,si_T_ecm,Tx,Ty,Tz,R00,R01,R02,R10,R11,R12,R20,R21,R22,joint_vars_psm1,q1,q2,q3,q4,q5,q6,jaw,joint_vars_psm3,q1,q2,q3,q4,q5,q6,jaw
lci_T_si
0,-0.08695552,-0.08695552,-0.08695552,0.9995452,-0.0268435,0.013741854,-0.024705164,-0.9902188,-0.13731843,0.01729355,0.13691649,-0.9904316
rci_T_si
0,-0.09637192,-0.09637192,-0.09637192,0.99517655,-0.05985569,-0.07772344,-0.045753524,-0.9840363,0.17198592,-0.086777024,-0.16760024,-0.9820285
ecm_T_lc
0,0.0,0.0,0.0,-0.8282249,0.55436236,0.08201124,-0.54140776,-0.82931954,0.13822663,0.14464118,0.07008122,0.9869993
ecm_T_rc
0,0.0,0.0,0.0,-0.34537515,-0.9384632,-0.0016580217,0.93471545,-0.34383708,-0.0899056,0.08380301,-0.032600943,0.9959489
0.030071911998675205,,0.049699605,-0.06286093,0.08924936,0.28231004,-0.81775534,-0.50157475,-0.9592457,-0.2472741,-0.13675952,-0.012190636,0.51974213,-0.85423636,,-0.049101047,-0.07419136,0.32567608,-0.016226655,0.58566797,-0.81038857,-0.99949014,-0.0317893,-0.002961129,-0.027495936,0.80992746,0.5858854,,0.0862922,-0.076520115,-0.09686042,-0.8401071,-0.5183137,0.15990895,-0.5155107,0.8546475,0.061856706,-0.16872695,-0.030468488,-0.98519194,,-0.005938781580278648,0.028960248278341913,0.12527994705,-0.00020968994348452436,0.004099094992963213,0.002701689659508964,0.0,,-1.5057012284875526,0.15756691883280266,0.10738855247000001,1.3977931632678393,-0.3881842958336163,2.1242521411924566,-0.10748039551635546
0.05408877999980177,,0.049700357,-0.0628607,0.08924888,0.2823103,-0.81775904,-0.50156844,-0.95924556,-0.2472754,-0.13675763,-0.012190761,0.5197356,-0.8542404,,-0.049101047,-0.07419136,0.32567608,-0.016226655,0.58566797,-0.81038857,-0.99949014,-0.0317893,-0.002961129,-0.027495936,0.80992746,0.5858854,,0.0862922,-0.076520115,-0.09686042,-0.8401071,-0.5183137,0.15990895,-0.5155107,0.8546475,0.061856706,-0.16872695,-0.030468488,-0.98519194,,-0.005946504313152873,0.028960248278341913,0.12527994705,-0.00020968994348452436,0.004099094992963213,0.002701689659508964,0.0,,-1.5057012284875526,0.15756691883280266,0.10738855247000001,1.3977931632678393,-0.3881842958336163,2.1242521411924566,-0.10748039551635546
0.08081205899907218,,0.049700357,-0.0628607,0.08924888,0.2823103,-0.81775904,-0.50156844,-0.95924556,-0.2472754,-0.13675763,-0.012190761,0.5197356,-0.8542404,,-0.049100883,-0.07419067,0.32567638,-0.016226627,0.58566654,-0.8103896,-0.9994899,-0.03179538,-0.0029655397,-0.027503483,0.8099283,0.5858839,,0.0862922,-0.076520115,-0.09686042,-0.8401071,-0.5183137,0.15990895,-0.5155107,0.8546475,0.061856706,-0.16872695,-0.030468488,-0.98519194,,-0.005946504313152873,0.028960248278341913,0.12527994705,-0.00020968994348452436,0.004099094992963213,0.002701689659508964,0.0,,-1.505708951220427,0.15756691883280266,0.10738855247000001,1.3977931632678393,-0.3881842958336163,2.1242521411924566,-0.10748039551635546
0.10211226399951556,,0.049700357,-0.0628607,0.08924888,0.2823103,-0.81775904,-0.50156844,-0.95924556,-0.2472754,-0.13675763,-0.012190761,0.5197356,-0.8542404,,-0.049100883,-0.07419067,0.32567638,-0.016226627,0.58566654,-0.8103896,-0.9994899,-0.03179538,-0.0029655397,-0.027503483,0.8099283,0.5858839,,0.0862922,-0.076520115,-0.09686042,-0.8401071,-0.5183137,0.15990895,-0.5155107,0.8546475,0.061856706,-0.16872695,-0.030468488,-0.98519194,,-0.005946504313152873,0.028960248278341913,0.12527994705,-0.00020968994348452436,0.004099094992963213,0.002701689659508964,0.0,,-1.505708951220427,0.15756691883280266,0.10738855247000001,1.3977931632678393,-0.3881842958336163,2.1242521411924566,-0.10748039551635546
0.13496676300019317,,0.049700357,-0.0628607,0.08924888,0.2823103,-0.81775904,-0.50156844,-0.95924556,-0.2472754,-0.13675763,-0.012190761,0.5197356,-0.8542404,,-0.049100883,-0.07419067,0.32567638,-0.016226627,0.58566654,-0.8103896,-0.9994899,-0.03179538,-0.0029655397,-0.027503483,0.8099283,0.5858839,,0.0862922,-0.076520115,-0.09686042,-0.8401071,-0.5183137,0.15990895,-0.5155107,0.8546475,0.061856706,-0.16872695,-0.030468488,-0.98519194,,-0.005946504313152873,0.028960248278341913,0.12527994705,-0.00020968994348452436,0.004099094992963213,0.002701689659508964,0.0,,-1.505708951220427,0.15756691883280266,0.10738855247000001,1.3977931632678393,-0.3881842958336163,2.1242521411924566,-0.10748039551635546
0.15771542599941313,,0.049700357,-0.0628607,0.08924888,0.2823103,-0.81775904,-0.50156844,-0.95924556,-0.2472754,-0.13675763,-0.012190761,0.5197356,-0.8542404,,-0.049100883,-0.07419067,0.32567638,-0.016226627,0.58566654,-0.8103896,-0.9994899,-0.03179538,-0.0029655397,-0.027503483,0.8099283,0.5858839,,0.0862922,-0.076520115,-0.09686042,-0.8401071,-0.5183137,0.15990895,-0.5155107,0.8546475,0.061856706,-0.16872695,-0.030468488,-0.98519194,,-0.005946504313152873,0.028960248278341913,0.12527994705,-0.00020968994348452436,0.004099094992963213,0.002701689659508964,0.0,,-1.505708951220427,0.15756691883280266,0.10738855247000001,1.3977931632678393,-0.3881842958336163,2.1242521411924566,-0.10748039551635546
0.18290067899943097,,0.049699605,-0.06286093,0.08924936,0.28231004,-0.81775534,-0.50157475,-0.9592457,-0.2472741,-0.13675952,-0.012190636,0.51974213,-0.85423636,,-0.049101047,-0.07419136,0.32567608,-0.016226655,0.58566797,-0.81038857,-0.99949014,-0.0317893,-0.002961129,-0.027495936,0.80992746,0.5858854,,0.0862922,-0.076520115,-0.09686042,-0.8401071,-0.5183137,0.15990895,-0.5155107,0.8546475,0.061856706,-0.16872695,-0.030468488,-0.98519194,,-0.005938781580278648,0.028960248278341913,0.12527994705,-0.00020968994348452436,0.004099094992963213,0.002701689659508964,0.0,,-1.5057012284875526,0.15756691883280266,0.10738855247000001,1.3977931632678393,-0.3881842958336163,2.1242521411924566,-0.10748039551635546
0.20984604399927775,,0.049700357,-0.0628607,0.08924888,0.2823103,-0.81775904,-0.50156844,-0.95924556,-0.2472754,-0.13675763,-0.012190761,0.5197356,-0.8542404,,-0.049101047,-0.07419136,0.32567608,-0.016226655,0.58566797,-0.81038857,-0.99949014,-0.0317893,-0.002961129,-0.027495936,0.80992746,0.5858854,,0.0862922,-0.076520115,-0.09686042,-0.8401071,-0.5183137,0.15990895,-0.5155107,0.8546475,0.061856706,-0.16872695,-0.030468488,-0.98519194,,-0.005946504313152873,0.028960248278341913,0.12527994705,-0.00020968994348452436,0.004099094992963213,0.002701689659508964,0.0,,-1.5057012284875526,0.15756691883280266,0.10738855247000001,1.3977931632678393,-0.3881842958336163,2.1242521411924566,-0.10748039551635546
0.23617774099875533,,0.049700357,-0.0628607,0.08924888,0.2823103,-0.81775904,-0.50156844,-0.95924556,-0.2472754,-0.13675763,-0.012190761,0.5197356,-0.8542404,,-0.049100883,-0.07419067,0.32567638,-0.016226627,0.58566654,-0.8103896,-0.9994899,-0.03179538,-0.0029655397,-0.027503483,0.8099283,0.5858839,,0.0862922,-0.076520115,-0.09686042,-0.8401071,-0.5183137,0.15990895,-0.5155107,0.8546475,0.061856706,-0.16872695,-0.030468488,-0.98519194,,-0.005946504313152873,0.028960248278341913,0.12527994705,-0.00020968994348452436,0.004099094992963213,0.002701689659508964,0.0,,-1.505708951220427,0.15756691883280266,0.10738855247000001,1.3977931632678393,-0.3881842958336163,2.1242521411924566,-0.10748039551635546
0.2649399779984378,,0.049699605,-0.06286093,0.08924936,0.28231004,-0.81775534,-0.50157475,-0.9592457,-0.2472741,-0.13675952,-0.012190636,0.51974213,-0.85423636,,-0.049100883,-0.07419067,0.32567638,-0.016226627,0.58566654,-0.8103896,-0.9994899,-0.03179538,-0.0029655397,-0.027503483,0.8099283,0.5858839,,0.0862922,-0.076520115,-0.09686042,-0.8401071,-0.5183137,0.15990895,-0.5155107,0.8546475,0.061856706,-0.16872695,-0.030468488,-0.98519194,,-0.005938781580278648,0.028960248278341913,0.12527994705,-0.00020968994348452436,0.004099094992963213,0.002701689659508964,0.0,,-1.505708951220427,0.15756691883280266,0.10738855247000001,1.3977931632678393,-0.3881842958336163,2.1242521411924566,-0.10748039551635546
0.2884054219994141,,0.049700357,-0.0628607,0.08924888,0.2823103,-0.81775904,-0.50156844,-0.95924556,-0.2472754,-0.13675763,-0.012190761,0.5197356,-0.8542404,,-0.049100883,-0.07419067,0.32567638,-0.016226627,0.58566654,-0.8103896,-0.9994899,-0.03179538,-0.0029655397,-0.027503483,0.8099283,0.5858839,,0.0862922,-0.076520115,-0.09686042,-0.8401071,-0.5183137,0.15990895,-0.5155107,0.8546475,0.061856706,-0.16872695,-0.030468488,-0.98519194,,-0.005946504313152873,0.028960248278341913,0.12527994705,-0.00020968994348452436,0.004099094992963213,0.002701689659508964,0.0,,-1.505708951220427,0.15756691883280266,0.10738855247000001,1.3977931632678393,-0.3881842958336163,2.1242521411924566,-0.10748039551635546
0.31584694599951035,,0.049700357,-0.0628607,0.08924888,0.2823103,-0.81775904,-0.50156844,-0.95924556,-0.2472754,-0.13675763,-0.012190761,0.5197356,-0.8542404,,-0.049100883,-0.07419067,0.32567638,-0.016226627,0.58566654,-0.8103896,-0.9994899,-0.03179538,-0.0029655397,-0.027503483,0.8099283,0.5858839,,0.0862922,-0.076520115,-0.09686042,-0.8401071,-0.5183137,0.15990895,-0.5155107,0.8546475,0.061856706,-0.16872695,-0.030468488,-0.98519194,,-0.005946504313152873,0.028960248278341913,0.12527994705,-0.00020968994348452436,0.004099094992963213,0.002701689659508964,0.0,,-1.505708951220427,0.15756691883280266,0.10738855247000001,1.3977931632678393,-0.3881842958336163,2.1242521411924566,-0.10748039551635546
0.3409071549995133,,0.049700357,-0.0628607,0.08924888,0.2823103,-0.81775904,-0.50156844,-0.95924556,-0.2472754,-0.13675763,-0.012190761,0.5197356,-0.8542404,,-0.049101047,-0.07419136,0.32567608,-0.016226655,0.58566797,-0.81038857,-0.99949014,-0.0317893,-0.002961129,-0.027495936,0.80992746,0.5858854,,0.0862922,-0.076520115,-0.09686042,-0.8401071,-0.5183137,0.15990895,-0.5155107,0.8546475,0.061856706,-0.16872695,-0.030468488,-0.98519194,,-0.005946504313152873,0.028960248278341913,0.12527994705,-0.00020968994348452436,0.004099094992963213,0.002701689659508964,0.0,,-1.5057012284875526,0.15756691883280266,0.10738855247000001,1.3977931632678393,-0.3881842958336163,2.1242521411924566,-0.10748039551635546
0.3677580429994123,,0.049699605,-0.06286093,0.08924936,0.28231004,-0.81775534,-0.50157475,-0.9592457,-0.2472741,-0.13675952,-0.012190636,0.51974213,-0.85423636,,-0.049101047,-0.07419136,0.32567608,-0.016226655,0.58566797,-0.81038857,-0.99949014,-0.0317893,-0.002961129,-0.027495936,0.80992746,0.5858854,,0.0862922,-0.076520115,-0.09686042,-0.8401071,-0.5183137,0.15990895,-0.5155107,0.8546475,0.061856706,-0.16872695,-0.030468488,-0.98519194,,-0.005938781580278648,0.028960248278341913,0.12527994705,-0.00020968994348452436,0.004099094992963213,0.002701689659508964,0.0,,-1.5057012284875526,0.15756691883280266,0.10738855247000001,1.3977931632678393,-0.3881842958336163,2.1242521411924566,-0.10748039551635546
0.3912729539988504,,0.049699605,-0.06286093,0.08924936,0.28231004,-0.81775534,-0.50157475,-0.9592457,-0.2472741,-0.13675952,-0.012190636,0.51974213,-0.85423636,,-0.049101047,-0.07419136,0.32567608,-0.016226655,0.58566797,-0.81038857,-0.99949014,-0.0317893,-0.002961129,-0.027495936,0.80992746,0.5858854,,0.0862922,-0.076520115,-0.09686042,-0.8401071,-0.5183137,0.15990895,-0.5155107,0.8546475,0.061856706,-0.16872695,-0.030468488,-0.98519194,,-0.005938781580278648,0.028960248278341913,0.12527994705,-0.00020968994348452436,0.004099094992963213,0.002701689659508964,0.0,,-1.5057012284875526,0.15756691883280266,0.10738855247000001,1.3977931632678393,-0.3881842958336163,2.1242521411924566,-0.10748039551635546
0.4175141569994594,,0.049700357,-0.0628607,0.08924888,0.2823103,-0.81775904,-0.50156844,-0.95924556,-0.2472754,-0.13675763,-0.012190761,0.5197356,-0.8542404,,-0.049100883,-0.07419067,0.32567638,-0.016226627,0.58566654,-0.8103896,-0.9994899,-0.03179538,-0.0029655397,-0.027503483,0.8099283,0.5858839,,0.0862922,-0.076520115,-0.09686042,-0.8401071,-0.5183137,0.15990895,-0.5155107,0.8546475,0.061856706,-0.16872695,-0.030468488,-0.98519194,,-0.005946504313152873,0.028960248278341913,0.12527994705,-0.00020968994348452436,0.004099094992963213,0.002701689659508964,0.0,,-1.505708951220427,0.15756691883280266,0.10738855247000001,1.3977931632678393,-0.3881842958336163,2.1242521411924566,-0.10748039551635546
0.4442796809998981,,0.049700357,-0.0628607,0.08924888,0.2823103,-0.81775904,-0.50156844,-0.95924556,-0.2472754,-0.13675763,-0.012190761,0.5197356,-0.8542404,,-0.049100883,-0.07419067,0.32567638,-0.016226627,0.58566654,-0.8103896,-0.9994899,-0.03179538,-0.0029655397,-0.027503483,0.8099283,0.5858839,,0.0862922,-0.076520115,-0.09686042,-0.8401071,-0.5183137,0.15990895,-0.5155107,0.8546475,0.061856706,-0.16872695,-0.030468488,-0.98519194,,-0.005946504313152873,0.028960248278341913,0.12527994705,-0.00020968994348452436,0.004099094992963213,0.002701689659508964,0.0,,-1.505708951220427,0.15756691883280266,0.10738855247000001,1.3977931632678393,-0.3881842958336163,2.1242521411924566,-0.10748039551635546
0.4698083189996396,,0.049700357,-0.0628607,0.08924888,0.2823103,-0.81775904,-0.50156844,-0.95924556,-0.2472754,-0.13675763,-0.012190761,0.5197356,-0.8542404,,-0.049100883,-0.07419067,0.32567638,-0.016226627,0.58566654,-0.8103896,-0.9994899,-0.03179538,-0.0029655397,-0.027503483,0.8099283,0.5858839,,0.0862922,-0.076520115,-0.09686042,-0.8401071,-0.5183137,0.15990895,-0.5155107,0.8546475,0.061856706,-0.16872695,-0.030468488,-0.98519194,,-0.005946504313152873,0.028960248278341913,0.12527994705,-0.00020968994348452436,0.004099094992963213,0.002701689659508964,0.0,,-1.505708951220427,0.15756691883280266,0.10738855247000001,1.3977931632678393,-0.3881842958336163,2.1242521411924566,-0.10748039551635546
0.49523437499919964,,0.049700357,-0.0628607,0.08924888,0.2823103,-0.81775904,-0.50156844,-0.95924556,-0.2472754,-0.13675763,-0.012190761,0.5197356,-0.8542404,,-0.049100883,-0.07419067,0.32567638,-0.016226627,0.58566654,-0.8103896,-0.9994899,-0.03179538,-0.0029655397,-0.027503483,0.8099283,0.5858839,,0.0862922,-0.076520115,-0.09686042,-0.8401071,-0.5183137,0.15990895,-0.5155107,0.8546475,0.061856706,-0.16872695,-0.030468488,-0.98519194,,-0.005946504313152873,0.028960248278341913,0.12527994705,-0.00020968994348452436,0.004099094992963213,0.002701689659508964,0.0,,-1.505708951220427,0.15756691883280266,0.10738855247000001,1.3977931632678393,-0.3881842958336163,2.1242521411924566,-0.10748039551635546
0.5200898379989667,,0.049700357,-0.0628607,0.08924888,0.2823103,-0.81775904,-0.50156844,-0.95924556,-0.2472754,-0.13675763,-0.012190761,0.5197356,-0.8542404,,-0.049101047,-0.07419136,0.32567608,-0.016226655,0.58566797,-0.81038857,-0.99949014,-0.0317893,-0.002961129,-0.027495936,0.80992746,0.5858854,,0.0862922,-0.076520115,-0.09686042,-0.8401071,-0.5183137,0.15990895,-0.5155107,0.8546475,0.061856706,-0.16872695,-0.030468488,-0.98519194,,-0.005946504313152873,0.028960248278341913,0.12527994705,-0.00020968994348452436,0.004099094992963213,0.002701689659508964,0.0,,-1.5057012284875526,0.15756691883280266,0.10738855247000001,1.3977931632678393,-0.3881842958336163,2.1242521411924566,-0.10748039551635546
0.5494733409996115,,0.049699605,-0.06286093,0.08924936,0.28231004,-0.81775534,-0.50157475,-0.9592457,-0.2472741,-0.13675952,-0.012190636,0.51974213,-0.85423636,,-0.049101047,-0.07419136,0.32567608,-0.016226655,0.58566797,-0.81038857,-0.99949014,-0.0317893,-0.002961129,-0.027495936,0.80992746,0.5858854,,0.0862922,-0.076520115,-0.09686042,-0.8401071,-0.5183137,0.15990895,-0.5155107,0.8546475,0.061856706,-0.16872695,-0.030468488,-0.98519194,,-0.005938781580278648,0.028960248278341913,0.12527994705,-0.00020968994348452436,0.004099094992963213,0.002701689659508964,0.0,,-1.5057012284875526,0.15756691883280266,0.10738855247000001,1.3977931632678393,-0.3881842958336163,2.1242521411924566,-0.10748039551635546
0.5714659329987626,,0.049700357,-0.0628607,0.08924888,0.2823103,-0.81775904,-0.50156844,-0.95924556,-0.2472754,-0.13675763,-0.012190761,0.5197356,-0.8542404,,-0.049100883,-0.07419067,0.32567638,-0.016226627,0.58566654,-0.8103896,-0.9994899,-0.03179538,-0.0029655397,-0.027503483,0.8099283,0.5858839,,0.0862922,-0.076520115,-0.09686042,-0.8401071,-0.5183137,0.15990895,-0.5155107,0.8546475,0.061856706,-0.16872695,-0.030468488,-0.98519194,,-0.005946504313152873,0.028960248278341913,0.12527994705,-0.00020968994348452436,0.004099094992963213,0.002701689659508964,0.0,,-1.505708951220427,0.15756691883280266,0.10738855247000001,1.3977931632678393,-0.3881842958336163,2.1242521411924566,-0.10748039551635546
0.6006162590001622,,0.049700357,-0.0628607,0.08924888,0.2823103,-0.81775904,-0.50156844,-0.95924556,-0.2472754,-0.13675763,-0.012190761,0.5197356,-0.8542404,,-0.049100883,-0.07419067,0.32567638,-0.016226627,0.58566654,-0.8103896,-0.9994899,-0.03179538,-0.0029655397,-0.027503483,0.8099283,0.5858839,,0.0862922,-0.076520115,-0.09686042,-0.8401071,-0.5183137,0.15990895,-0.5155107,0.8546475,0.061856706,-0.16872695,-0.030468488,-0.98519194,,-0.005946504313152873,0.028960248278341913,0.12527994705,-0.00020968994348452436,0.004099094992963213,0.002701689659508964,0.0,,-1.505708951220427,0.15756691883280266,0.10738855247000001,1.3977931632678393,-0.3881842958336163,2.1242521411924566,-0.10748039551635546
0.6263490279998223,,0.049700357,-0.0628607,0.08924888,0.2823103,-0.81775904,-0.50156844,-0.95924556,-0.2472754,-0.13675763,-0.012190761,0.5197356,-0.8542404,,-0.049100883,-0.07419067,0.32567638,-0.016226627,0.58566654,-0.8103896,-0.9994899,-0.03179538,-0.0029655397,-0.027503483,0.8099283,0.5858839,,0.0862922,-0.076520115,-0.09686042,-0.8401071,-0.5183137,0.15990895,-0.5155107,0.8546475,0.061856706,-0.16872695,-0.030468488,-0.98519194,,-0.005946504313152873,0.028960248278341913,0.12527994705,-0.00020968994348452436,0.004099094992963213,0.002701689659508964,0.0,,-1.505708951220427,0.15756691883280266,0.10738855247000001,1.3977931632678393,-0.3881842958336163,2.1242521411924566,-0.10748039551635546
0.6521613189997879,,0.049699612,-0.06286093,0.08924936,0.2821383,-0.81781495,-0.5015742,-0.95929754,-0.24707305,-0.13675876,-0.012082135,0.519744,-0.85423684,,-0.049100883,-0.07419067,0.32567638,-0.016226627,0.58566654,-0.8103896,-0.9994899,-0.03179538,-0.0029655397,-0.027503483,0.8099283,0.5858839,,0.0862922,-0.076520115,-0.09686042,-0.8401071,-0.5183137,0.15990895,-0.5155107,0.8546475,0.061856706,-0.16872695,-0.030468488,-0.98519194,,-0.005938781580278648,0.028960248278341913,0.12527994705,0.0,0.004099094992963213,0.002701689659508964,0.0,,-1.505708951220427,0.15756691883280266,0.10738855247000001,1.3977931632678393,-0.3881842958336163,2.1242521411924566,-0.10748039551635546
0.6801927559990872,,0.04970037,-0.0628607,0.089248866,0.28196675,-0.81787825,-0.50156736,-0.9593494,-0.24687332,-0.13675612,-0.011973766,0.51973915,-0.85424125,,-0.049100883,-0.07419067,0.32567638,-0.016226627,0.58566654,-0.8103896,-0.9994899,-0.03179538,-0.0029655397,-0.027503483,0.8099283,0.5858839,,0.0862922,-0.076520115,-0.09686042,-0.8401071,-0.5183137,0.15990895,-0.5155107,0.8546475,0.061856706,-0.16872695,-0.030468488,-0.98519194,,-0.005946504313152873,0.028960248278341913,0.12527994705,0.00020968994348452436,0.004099094992963213,0.002701689659508964,0.0,,-1.505708951220427,0.15756691883280266,0.10738855247000001,1.3977931632678393,-0.3881842958336163,2.1242521411924566,-0.10748039551635546
0.703956252998978,,0.04970037,-0.0628607,0.089248866,0.28196675,-0.81787825,-0.50156736,-0.9593494,-0.24687332,-0.13675612,-0.011973766,0.51973915,-0.85424125,,-0.049100287,-0.074191496,0.32567596,-0.016229471,0.5856623,-0.8103926,-0.99949014,-0.031789728,-0.0029577464,-0.027494412,0.8099315,0.5858798,,0.0862922,-0.076520115,-0.09686042,-0.8401071,-0.5183137,0.15990895,-0.5155107,0.8546475,0.061856706,-0.16872695,-0.030468488,-0.98519194,,-0.005946504313152873,0.028960248278341913,0.12527994705,0.00020968994348452436,0.004099094992963213,0.002701689659508964,0.0,,-1.5057012284875526,0.15755919609992844,0.10738855247000001,1.3977931632678393,-0.3881842958336163,2.1242521411924566,-0.10748039551635546
0.7327109349989769,,0.04970037,-0.0628607,0.089248866,0.28196675,-0.81787825,-0.50156736,-0.9593494,-0.24687332,-0.13675612,-0.011973766,0.51973915,-0.85424125,,-0.049100287,-0.074191496,0.32567596,-0.016229471,0.5856623,-0.8103926,-0.99949014,-0.031789728,-0.0029577464,-0.027494412,0.8099315,0.5858798,,0.0862922,-0.076520115,-0.09686042,-0.8401071,-0.5183137,0.15990895,-0.5155107,0.8546475,0.061856706,-0.16872695,-0.030468488,-0.98519194,,-0.005946504313152873,0.028960248278341913,0.12527994705,0.00020968994348452436,0.004099094992963213,0.002701689659508964,0.0,,-1.5057012284875526,0.15755919609992844,0.10738855247000001,1.3977931632678393,-0.3881842958336163,2.1242521411924566,-0.10748039551635546
0.7541005349994521,,0.04970037,-0.0628607,0.089248866,0.28196675,-0.81787825,-0.50156736,-0.9593494,-0.24687332,-0.13675612,-0.011973766,0.51973915,-0.85424125,,-0.049100883,-0.07419067,0.32567638,-0.016226627,0.58566654,-0.8103896,-0.9994899,-0.03179538,-0.0029655397,-0.027503483,0.8099283,0.5858839,,0.0862922,-0.076520115,-0.09686042,-0.8401071,-0.5183137,0.15990895,-0.5155107,0.8546475,0.061856706,-0.16872695,-0.030468488,-0.98519194,,-0.005946504313152873,0.028960248278341913,0.12527994705,0.00020968994348452436,0.004099094992963213,0.002701689659508964,0.0,,-1.505708951220427,0.15756691883280266,0.10738855247000001,1.3977931632678393,-0.3881842958336163,2.1242521411924566,-0.10748039551635546
0.7839800299989292,,0.04969962,-0.06286092,0.08924934,0.28196657,-0.81787455,-0.5015737,-0.95934945,-0.24687201,-0.13675803,-0.011973631,0.51974577,-0.8542373,,-0.049100883,-0.07419067,0.32567638,-0.016226627,0.58566654,-0.8103896,-0.9994899,-0.03179538,-0.0029655397,-0.027503483,0.8099283,0.5858839,,0.0862922,-0.076520115,-0.09686042,-0.8401071,-0.5183137,0.15990895,-0.5155107,0.8546475,0.061856706,-0.16872695,-0.030468488,-0.98519194,,-0.005938781580278648,0.028960248278341913,0.12527994705,0.00020968994348452436,0.004099094992963213,0.002701689659508964,0.0,,-1.505708951220427,0.15756691883280266,0.10738855247000001,1.3977931632678393,-0.3881842958336163,2.1242521411924566,-0.10748039551635546
0.8124417219987663,,0.04970037,-0.0628607,0.089248866,0.28196675,-0.81787825,-0.50156736,-0.9593494,-0.24687332,-0.13675612,-0.011973766,0.51973915,-0.85424125,,-0.049101047,-0.07419136,0.32567608,-0.016226655,0.58566797,-0.81038857,-0.99949014,-0.0317893,-0.002961129,-0.027495936,0.80992746,0.5858854,,0.0862922,-0.076520115,-0.09686042,-0.8401071,-0.5183137,0.15990895,-0.5155107,0.8546475,0.061856706,-0.16872695,-0.030468488,-0.98519194,,-0.005946504313152873,0.028960248278341913,0.12527994705,0.00020968994348452436,0.004099094992963213,0.002701689659508964,0.0,,-1.5057012284875526,0.15756691883280266,0.10738855247000001,1.3977931632678393,-0.3881842958336163,2.1242521411924566,-0.10748039551635546
0.834317746999659,,0.04970037,-0.0628607,0.089248866,0.28196675,-0.81787825,-0.50156736,-0.9593494,-0.24687332,-0.13675612,-0.011973766,0.51973915,-0.85424125,,-0.04910045,-0.074192196,0.32567573,-0.016229559,0.58566374,-0.81039155,-0.9994903,-0.031783655,-0.0029533394,-0.027486876,0.8099308,0.5858813,,0.0862922,-0.076520115,-0.09686042,-0.8401071,-0.5183137,0.15990895,-0.5155107,0.8546475,0.061856706,-0.16872695,-0.030468488,-0.98519194,,-0.005946504313152873,0.028960248278341913,0.12527994705,0.00020968994348452436,0.004099094992963213,0.002701689659508964,0.0,,-1.5056935057546785,0.15755919609992844,0.10738855247000001,1.3977931632678393,-0.3881842958336163,2.1242521411924566,-0.10748039551635546
0.8554551899997023,,0.04970037,-0.0628607,0.089248866,0.28196675,-0.81787825,-0.50156736,-0.9593494,-0.24687332,-0.13675612,-0.011973766,0.51973915,-0.85424125,,-0.049100883,-0.07419067,0.32567638,-0.016226627,0.58566654,-0.8103896,-0.9994899,-0.03179538,-0.0029655397,-0.027503483,0.8099283,0.5858839,,0.0862922,-0.076520115,-0.09686042,-0.8401071,-0.5183137,0.15990895,-0.5155107,0.8546475,0.061856706,-0.16872695,-0.030468488,-0.98519194,,-0.005946504313152873,0.028960248278341913,0.12527994705,0.00020968994348452436,0.004099094992963213,0.002701689659508964,0.0,,-1.505708951220427,0.15756691883280266,0.10738855247000001,1.3977931632678393,-0.3881842958336163,2.1242521411924566,-0.10748039551635546
0.8835917859996698,,0.04970037,-0.0628607,0.089248866,0.28196675,-0.81787825,-0.50156736,-0.9593494,-0.24687332,-0.13675612,-0.011973766,0.51973915,-0.85424125,,-0.049100883,-0.07419067,0.32567638,-0.016226627,0.58566654,-0.8103896,-0.9994899,-0.03179538,-0.0029655397,-0.027503483,0.8099283,0.5858839,,0.0862922,-0.076520115,-0.09686042,-0.8401071,-0.5183137,0.15990895,-0.5155107,0.8546475,0.061856706,-0.16872695,-0.030468488,-0.98519194,,-0.005946504313152873,0.028960248278341913,0.12527994705,0.00020968994348452436,0.004099094992963213,0.002701689659508964,0.0,,-1.505708951220427,0.15756691883280266,0.10738855247000001,1.3977931632678393,-0.3881842958336163,2.1242521411924566,-0.10748039551635546
0.9064612909987773,,0.04969962,-0.06286092,0.08924934,0.28196657,-0.81787455,-0.5015737,-0.95934945,-0.24687201,-0.13675803,-0.011973631,0.51974577,-0.8542373,,-0.049101047,-0.07419136,0.32567608,-0.016226655,0.58566797,-0.81038857,-0.99949014,-0.0317893,-0.002961129,-0.027495936,0.80992746,0.5858854,,0.0862922,-0.076520115,-0.09686042,-0.8401071,-0.5183137,0.15990895,-0.5155107,0.8546475,0.061856706,-0.16872695,-0.030468488,-0.98519194,,-0.005938781580278648,0.028960248278341913,0.12527994705,0.00020968994348452436,0.004099094992963213,0.002701689659508964,0.0,,-1.5057012284875526,0.15756691883280266,0.10738855247000001,1.3977931632678393,-0.3881842958336163,2.1242521411924566,-0.10748039551635546
0.9347182739984419,,0.04969962,-0.06286092,0.08924934,0.28196657,-0.81787455,-0.5015737,-0.95934945,-0.24687201,-0.13675803,-0.011973631,0.51974577,-0.8542373,,-0.049100883,-0.07419067,0.32567638,-0.016226627,0.58566654,-0.8103896,-0.9994899,-0.03179538,-0.0029655397,-0.027503483,0.8099283,0.5858839,,0.0862922,-0.076520115,-0.09686042,-0.8401071,-0.5183137,0.15990895,-0.5155107,0.8546475,0.061856706,-0.16872695,-0.030468488,-0.98519194,,-0.005938781580278648,0.028960248278341913,0.12527994705,0.00020968994348452436,0.004099094992963213,0.002701689659508964,0.0,,-1.505708951220427,0.15756691883280266,0.10738855247000001,1.3977931632678393,-0.3881842958336163,2.1242521411924566,-0.10748039551635546
0.9593003539994243,,0.04970037,-0.0628607,0.089248866,0.28196675,-0.81787825,-0.50156736,-0.9593494,-0.24687332,-0.13675612,-0.011973766,0.51973915,-0.85424125,,-0.04910121,-0.07419206,0.3256758,-0.016226774,0.58566946,-0.81038743,-0.9994903,-0.031783253,-0.0029566921,-0.0274884,0.8099267,0.5858869,,0.0862922,-0.076520115,-0.09686042,-0.8401071,-0.5183137,0.15990895,-0.5155107,0.8546475,0.061856706,-0.16872695,-0.030468488,-0.98519194,,-0.005946504313152873,0.028960248278341913,0.12527994705,0.00020968994348452436,0.004099094992963213,0.002701689659508964,0.0,,-1.5056935057546785,0.15756691883280266,0.10738855247000001,1.3977931632678393,-0.3881842958336163,2.1242521411924566,-0.10748039551635546
0.9856678759988426,,0.04969962,-0.06286092,0.08924934,0.28196657,-0.81787455,-0.5015737,-0.95934945,-0.24687201,-0.13675803,-0.011973631,0.51974577,-0.8542373,,-0.04910121,-0.07419206,0.3256758,-0.016226774,0.58566946,-0.81038743,-0.9994903,-0.031783253,-0.0029566921,-0.0274884,0.8099267,0.5858869,,0.0862922,-0.076520115,-0.09686042,-0.8401071,-0.5183137,0.15990895,-0.5155107,0.8546475,0.061856706,-0.16872695,-0.030468488,-0.98519194,,-0.005938781580278648,0.028960248278341913,0.12527994705,0.00020968994348452436,0.004099094992963213,0.002701689659508964,0.0,,-1.5056935057546785,0.15756691883280266,0.10738855247000001,1.3977931632678393,-0.3881842958336163,2.1242521411924566,-0.10748039551635546
1.0120116709986178,,0.04970037,-0.0628607,0.089248866,0.28196675,-0.81787825,-0.50156736,-0.9593494,-0.24687332,-0.13675612,-0.011973766,0.51973915,-0.85424125,,-0.04910121,-0.07419206,0.3256758,-0.016226774,0.58566946,-0.81038743,-0.9994903,-0.031783253,-0.0029566921,-0.0274884,0.8099267,0.5858869,,0.0862922,-0.076520115,-0.09686042,-0.8401071,-0.5183137,0.15990895,-0.5155107,0.8546475,0.061856706,-0.16872695,-0.030468488,-0.98519194,,-0.005946504313152873,0.028960248278341913,0.12527994705,0.00020968994348452436,0.004099094992963213,0.002701689659508964,0.0,,-1.5056935057546785,0.15756691883280266,0.10738855247000001,1.3977931632678393,-0.3881842958336163,2.1242521411924566,-0.10748039551635546
1.0376833519985666,,0.04970037,-0.0628607,0.089248866,0.28196675,-0.81787825,-0.50156736,-0.9593494,-0.24687332,-0.13675612,-0.011973766,0.51973915,-0.85424125,,-0.049101047,-0.07419136,0.32567608,-0.016226655,0.58566797,-0.81038857,-0.99949014,-0.0317893,-0.002961129,-0.027495936,0.80992746,0.5858854,,0.0862922,-0.076520115,-0.09686042,-0.8401071,-0.5183137,0.15990895,-0.5155107,0.8546475,0.061856706,-0.16872695,-0.030468488,-0.98519194,,-0.005946504313152873,0.028960248278341913,0.12527994705,0.00020968994348452436,0.004099094992963213,0.002701689659508964,0.0,,-1.5057012284875526,0.15756691883280266,0.10738855247000001,1.3977931632678393,-0.3881842958336163,2.1242521411924566,-0.10748039551635546
1.0634590119989298,,0.04976902,-0.06284114,0.0892533,0.28202844,-0.8178612,-0.50156045,-0.95933133,-0.24692094,-0.13679668,-0.011965104,0.51974344,-0.8542388,,-0.04908163,-0.07419992,0.32570034,-0.016233081,0.58562636,-0.8104185,-0.9994896,-0.03180572,-0.0029633865,-0.027511362,0.80995697,0.585844,,0.086317636,-0.07650438,-0.096855484,-0.84009343,-0.5183367,0.15990612,-0.51553416,0.8546334,0.06185571,-0.16872318,-0.030472469,-0.9851925,,-0.005938781580278648,0.028960248278341913,0.12527994705,0.00020968994348452436,0.004099094992963213,0.002701689659508964,0.0,,-1.505708951220427,0.15756691883280266,0.10738855247000001,1.3977931632678393,-0.3881842958336163,2.1242521411924566,-0.10748039551635546
1.0866630549990077,,0.049769517,-0.06284003,0.08925284,0.2820248,-0.81786495,-0.50155634,-0.9593323,-0.24692225,-0.13678738,-0.011971849,0.5197368,-0.8542427,,-0.04908163,-0.07419992,0.32570034,-0.016233081,0.58562636,-0.8104185,-0.9994896,-0.03180572,-0.0029633865,-0.027511362,0.80995697,0.585844,,0.086317636,-0.07650438,-0.096855484,-0.84009343,-0.5183367,0.15990612,-0.51553416,0.8546334,0.06185571,-0.16872318,-0.030472469,-0.9851925,,-0.005946504313152873,0.028967971011216134,0.12527994705,0.00020968994348452436,0.004099094992963213,0.002701689659508964,0.0,,-1.505708951220427,0.15756691883280266,0.10738855247000001,1.3977931632678393,-0.3881842958336163,2.1242521411924566,-0.10748039551635546
1.1134318749991508,,0.049769774,-0.06284091,0.08925284,0.2820287,-0.81786495,-0.50155413,-0.9593312,-0.24692224,-0.13679478,-0.011965239,0.5197368,-0.8542428,,-0.04908163,-0.07419992,0.32570034,-0.016233081,0.58562636,-0.8104185,-0.9994896,-0.03180572,-0.0029633865,-0.027511362,0.80995697,0.585844,,0.086317636,-0.07650438,-0.096855484,-0.84009343,-0.5183367,0.15990612,-0.51553416,0.8546334,0.06185571,-0.16872318,-0.030472469,-0.9851925,,-0.005946504313152873,0.028960248278341913,0.12527994705,0.00020968994348452436,0.004099094992963213,0.002701689659508964,0.0,,-1.505708951220427,0.15756691883280266,0.10738855247000001,1.3977931632678393,-0.3881842958336163,2.1242521411924566,-0.10748039551635546
1.1366907999999967,,0.04976902,-0.06284114,0.0892533,0.28202844,-0.8178612,-0.50156045,-0.95933133,-0.24692094,-0.13679668,-0.011965104,0.51974344,-0.8542388,,-0.049081795,-0.074200615,0.32570007,-0.016233198,0.58562785,-0.8104175,-0.99948984,-0.031799644,-0.0029589497,-0.027503818,0.8099562,0.5858455,,0.086317636,-0.07650438,-0.096855484,-0.84009343,-0.5183367,0.15990612,-0.51553416,0.8546334,0.06185571,-0.16872318,-0.030472469,-0.9851925,,-0.005938781580278648,0.028960248278341913,0.12527994705,0.00020968994348452436,0.004099094992963213,0.002701689659508964,0.0,,-1.5057012284875526,0.15756691883280266,0.10738855247000001,1.3977931632678393,-0.3881842958336163,2.1242521411924566,-0.10748039551635546
1.1627556619987445,,0.049769774,-0.06284091,0.08925284,0.2820287,-0.81786495,-0.50155413,-0.9593312,-0.24692224,-0.13679478,-0.011965239,0.5197368,-0.8542428,,-0.049081795,-0.074200615,0.32570007,-0.016233198,0.58562785,-0.8104175,-0.99948984,-0.031799644,-0.0029589497,-0.027503818,0.8099562,0.5858455,,0.086317636,-0.07650438,-0.096855484,-0.84009343,-0.5183367,0.15990612,-0.51553416,0.8546334,0.06185571,-0.16872318,-0.030472469,-0.9851925,,-0.005946504313152873,0.028960248278341913,0.12527994705,0.00020968994348452436,0.004099094992963213,0.002701689659508964,0.0,,-1.5057012284875526,0.15756691883280266,0.10738855247000001,1.3977931632678393,-0.3881842958336163,2.1242521411924566,-0.10748039551635546
1.1877230969985249,,0.049769774,-0.06284091,0.08925284,0.2820287,-0.81786495,-0.50155413,-0.9593312,-0.24692224,-0.13679478,-0.011965239,0.5197368,-0.8542428,,-0.04908087,-0.07420006,0.32570022,-0.016235895,0.58562064,-0.81042254,-0.99948955,-0.03180612,-0.0029599704,-0.02750982,0.8099611,0.5858383,,0.086317636,-0.07650438,-0.096855484,-0.84009343,-0.5183367,0.15990612,-0.51553416,0.8546334,0.06185571,-0.16872318,-0.030472469,-0.9851925,,-0.005946504313152873,0.028960248278341913,0.12527994705,0.00020968994348452436,0.004099094992963213,0.002701689659508964,0.0,,-1.505708951220427,0.15755919609992844,0.10738855247000001,1.3977931632678393,-0.3881842958336163,2.1242521411924566,-0.10748039551635546
1.2140564149995043,,0.04976876,-0.06284026,0.089253314,0.28202462,-0.8178612,-0.50156265,-0.9593324,-0.24692097,-0.13678929,-0.011971713,0.51974344,-0.85423875,,-0.049081795,-0.074200615,0.32570007,-0.016233198,0.58562785,-0.8104175,-0.99948984,-0.031799644,-0.0029589497,-0.027503818,0.8099562,0.5858455,,0.086317636,-0.07650438,-0.096855484,-0.84009343,-0.5183367,0.15990612,-0.51553416,0.8546334,0.06185571,-0.16872318,-0.030472469,-0.9851925,,-0.005938781580278648,0.028967971011216134,0.12527994705,0.00020968994348452436,0.004099094992963213,0.002701689659508964,0.0,,-1.5057012284875526,0.15756691883280266,0.10738855247000001,1.3977931632678393,-0.3881842958336163,2.1242521411924566,-0.10748039551635546
1.2373009449984238,,0.049769774,-0.06284091,0.08925284,0.2820287,-0.81786495,-0.50155413,-0.9593312,-0.24692224,-0.13679478,-0.011965239,0.5197368,-0.8542428,,-0.049081795,-0.074200615,0.32570007,-0.016233198,0.58562785,-0.8104175,-0.99948984,-0.031799644,-0.0029589497,-0.027503818,0.8099562,0.5858455,,0.086317636,-0.07650438,-0.096855484,-0.84009343,-0.5183367,0.15990612,-0.51553416,0.8546334,0.06185571,-0.16872318,-0.030472469,-0.9851925,,-0.005946504313152873,0.028960248278341913,0.12527994705,0.00020968994348452436,0.004099094992963213,0.002701689659508964,0.0,,-1.5057012284875526,0.15756691883280266,0.10738855247000001,1.3977931632678393,-0.3881842958336163,2.1242521411924566,-0.10748039551635546
1.2654213619989605,,0.049769774,-0.06284091,0.08925284,0.2820287,-0.81786495,-0.50155413,-0.9593312,-0.24692224,-0.13679478,-0.011965239,0.5197368,-0.8542428,,-0.04908163,-0.07419992,0.32570034,-0.016233081,0.58562636,-0.8104185,-0.9994896,-0.03180572,-0.0029633865,-0.027511362,0.80995697,0.585844,,0.086317636,-0.07650438,-0.096855484,-0.84009343,-0.5183367,0.15990612,-0.51553416,0.8546334,0.06185571,-0.16872318,-0.030472469,-0.9851925,,-0.005946504313152873,0.028960248278341913,0.12527994705,0.00020968994348452436,0.004099094992963213,0.002701689659508964,0.0,,-1.505708951220427,0.15756691883280266,0.10738855247000001,1.3977931632678393,-0.3881842958336163,2.1242521411924566,-0.10748039551635546
1.2885809829986101,,0.049769774,-0.06284091,0.08925284,0.2820287,-0.81786495,-0.50155413,-0.9593312,-0.24692224,-0.13679478,-0.011965239,0.5197368,-0.8542428,,-0.04908163,-0.07419992,0.32570034,-0.016233081,0.58562636,-0.8104185,-0.9994896,-0.03180572,-0.0029633865,-0.027511362,0.80995697,0.585844,,0.086317636,-0.07650438,-0.096855484,-0.84009343,-0.5183367,0.15990612,-0.51553416,0.8546334,0.06185571,-0.16872318,-0.030472469,-0.9851925,,-0.005946504313152873,0.028960248278341913,0.12527994705,0.00020968994348452436,0.004099094992963213,0.002701689659508964,0.0,,-1.505708951220427,0.15756691883280266,0.10738855247000001,1.3977931632678393,-0.3881842958336163,2.1242521411924566,-0.10748039551635546
1.3163289519998216,,0.049769774,-0.06284091,0.08925284,0.2820287,-0.81786495,-0.50155413,-0.9593312,-0.24692224,-0.13679478,-0.011965239,0.5197368,-0.8542428,,-0.04908163,-0.07419992,0.32570034,-0.016233081,0.58562636,-0.8104185,-0.9994896,-0.03180572,-0.0029633865,-0.027511362,0.80995697,0.585844,,0.086317636,-0.07650438,-0.096855484,-0.84009343,-0.5183367,0.15990612,-0.51553416,0.8546334,0.06185571,-0.16872318,-0.030472469,-0.9851925,,-0.005946504313152873,0.028960248278341913,0.12527994705,0.00020968994348452436,0.004099094992963213,0.002701689659508964,0.0,,-1.505708951220427,0.15756691883280266,0.10738855247000001,1.3977931632678393,-0.3881842958336163,2.1242521411924566,-0.10748039551635546
1.337471815999379,,0.04976902,-0.06284114,0.0892533,0.28202844,-0.8178612,-0.50156045,-0.95933133,-0.24692094,-0.13679668,-0.011965104,0.51974344,-0.8542388,,-0.049081795,-0.074200615,0.32570007,-0.016233198,0.58562785,-0.8104175,-0.99948984,-0.031799644,-0.0029589497,-0.027503818,0.8099562,0.5858455,,0.086317636,-0.07650438,-0.096855484,-0.84009343,-0.5183367,0.15990612,-0.51553416,0.8546334,0.06185571,-0.16872318,-0.030472469,-0.9851925,,-0.005938781580278648,0.028960248278341913,0.12527994705,0.00020968994348452436,0.004099094992963213,0.002701689659508964,0.0,,-1.5057012284875526,0.15756691883280266,0.10738855247000001,1.3977931632678393,-0.3881842958336163,2.1242521411924566,-0.10748039551635546
1.3664418509997631,,0.04976902,-0.06284114,0.0892533,0.28202844,-0.8178612,-0.50156045,-0.95933133,-0.24692094,-0.13679668,-0.011965104,0.51974344,-0.8542388,,-0.049081795,-0.074200615,0.32570007,-0.016233198,0.58562785,-0.8104175,-0.99948984,-0.031799644,-0.0029589497,-0.027503818,0.8099562,0.5858455,,0.086317636,-0.07650438,-0.096855484,-0.84009343,-0.5183367,0.15990612,-0.51553416,0.8546334,0.06185571,-0.16872318,-0.030472469,-0.9851925,,-0.005938781580278648,0.028960248278341913,0.12527994705,0.00020968994348452436,0.004099094992963213,0.002701689659508964,0.0,,-1.5057012284875526,0.15756691883280266,0.10738855247000001,1.3977931632678393,-0.3881842958336163,2.1242521411924566,-0.10748039551635546
1.3875471819992526,,0.049769517,-0.06284003,0.08925284,0.2820248,-0.81786495,-0.50155634,-0.9593323,-0.24692225,-0.13678738,-0.011971849,0.5197368,-0.8542427,,-0.04908163,-0.07419992,0.32570034,-0.016233081,0.58562636,-0.8104185,-0.9994896,-0.03180572,-0.0029633865,-0.027511362,0.80995697,0.585844,,0.086317636,-0.07650438,-0.096855484,-0.84009343,-0.5183367,0.15990612,-0.51553416,0.8546334,0.06185571,-0.16872318,-0.030472469,-0.9851925,,-0.005946504313152873,0.028967971011216134,0.12527994705,0.00020968994348452436,0.004099094992963213,0.002701689659508964,0.0,,-1.505708951220427,0.15756691883280266,0.10738855247000001,1.3977931632678393,-0.3881842958336163,2.1242521411924566,-0.10748039551635546
1.4167617429993697,,0.049769774,-0.06284091,0.08925284,0.2820287,-0.81786495,-0.50155413,-0.9593312,-0.24692224,-0.13679478,-0.011965239,0.5197368,-0.8542428,,-0.04908163,-0.07419992,0.32570034,-0.016233081,0.58562636,-0.8104185,-0.9994896,-0.03180572,-0.0029633865,-0.027511362,0.80995697,0.585844,,0.086317636,-0.07650438,-0.096855484,-0.84009343,-0.5183367,0.15990612,-0.51553416,0.8546334,0.06185571,-0.16872318,-0.030472469,-0.9851925,,-0.005946504313152873,0.028960248278341913,0.12527994705,0.00020968994348452436,0.004099094992963213,0.002701689659508964,0.0,,-1.505708951220427,0.15756691883280266,0.10738855247000001,1.3977931632678393,-0.3881842958336163,2.1242521411924566,-0.10748039551635546
1.438152666998576,,0.049769774,-0.06284091,0.08925284,0.2820287,-0.81786495,-0.50155413,-0.9593312,-0.24692224,-0.13679478,-0.011965239,0.5197368,-0.8542428,,-0.04908163,-0.07419992,0.32570034,-0.016233081,0.58562636,-0.8104185,-0.9994896,-0.03180572,-0.0029633865,-0.027511362,0.80995697,0.585844,,0.086317636,-0.07650438,-0.096855484,-0.84009343,-0.5183367,0.15990612,-0.51553416,0.8546334,0.06185571,-0.16872318,-0.030472469,-0.9851925,,-0.005946504313152873,0.028960248278341913,0.12527994705,0.00020968994348452436,0.004099094992963213,0.002701689659508964,0.0,,-1.505708951220427,0.15756691883280266,0.10738855247000001,1.3977931632678393,-0.3881842958336163,2.1242521411924566,-0.10748039551635546
1.4671505770002113,,0.049769774,-0.06284091,0.08925284,0.2820287,-0.81786495,-0.50155413,-0.9593312,-0.24692224,-0.13679478,-0.011965239,0.5197368,-0.8542428,,-0.04908163,-0.07419992,0.32570034,-0.016233081,0.58562636,-0.8104185,-0.9994896,-0.03180572,-0.0029633865,-0.027511362,0.80995697,0.585844,,0.086317636,-0.07650438,-0.096855484,-0.84009343,-0.5183367,0.15990612,-0.51553416,0.8546334,0.06185571,-0.16872318,-0.030472469,-0.9851925,,-0.005946504313152873,0.028960248278341913,0.12527994705,0.00020968994348452436,0.004099094992963213,0.002701689659508964,0.0,,-1.505708951220427,0.15756691883280266,0.10738855247000001,1.3977931632678393,-0.3881842958336163,2.1242521411924566,-0.10748039551635546
1.4879625529993064,,0.04976902,-0.06284114,0.0892533,0.28202844,-0.8178612,-0.50156045,-0.95933133,-0.24692094,-0.13679668,-0.011965104,0.51974344,-0.8542388,,-0.04908163,-0.07419992,0.32570034,-0.016233081,0.58562636,-0.8104185,-0.9994896,-0.03180572,-0.0029633865,-0.027511362,0.80995697,0.585844,,0.086317636,-0.07650438,-0.096855484,-0.84009343,-0.5183367,0.15990612,-0.51553416,0.8546334,0.06185571,-0.16872318,-0.030472469,-0.9851925,,-0.005938781580278648,0.028960248278341913,0.12527994705,0.00020968994348452436,0.004099094992963213,0.002701689659508964,0.0,,-1.505708951220427,0.15756691883280266,0.10738855247000001,1.3977931632678393,-0.3881842958336163,2.1242521411924566,-0.10748039551635546
1.5178476519995456,,0.049769763,-0.062840916,0.08925284,0.28237227,-0.81774575,-0.50155526,-0.9592275,-0.24732432,-0.13679628,-0.012182238,0.5197332,-0.85424197,,-0.04908105,-0.07420076,0.32569996,-0.016236015,0.585622,-0.8104215,-0.9994897,-0.03180007,-0.0029555336,-0.027502287,0.80996025,0.5858398,,0.086317636,-0.07650438,-0.096855484,-0.84009343,-0.5183367,0.15990612,-0.51553416,0.8546334,0.06185571,-0.16872318,-0.030472469,-0.9851925,,-0.005946504313152873,0.028960248278341913,0.12527994705,-0.00020968994348452436,0.004099094992963213,0.002701689659508964,0.0,,-1.5057012284875526,0.15755919609992844,0.10738855247000001,1.3977931632678393,-0.3881842958336163,2.1242521411924566,-0.10748039551635546
1.5409991519991308,,0.049769502,-0.06284004,0.08925285,0.2823684,-0.81774575,-0.5015574,-0.9592285,-0.24732433,-0.13678887,-0.012188842,0.5197332,-0.85424185,,-0.049081795,-0.074200615,0.32570007,-0.016233198,0.58562785,-0.8104175,-0.99948984,-0.031799644,-0.0029589497,-0.027503818,0.8099562,0.5858455,,0.086317636,-0.07650438,-0.096855484,-0.84009343,-0.5183367,0.15990612,-0.51553416,0.8546334,0.06185571,-0.16872318,-0.030472469,-0.9851925,,-0.005946504313152873,0.028967971011216134,0.12527994705,-0.00020968994348452436,0.004099094992963213,0.002701689659508964,0.0,,-1.5057012284875526,0.15756691883280266,0.10738855247000001,1.3977931632678393,-0.3881842958336163,2.1242521411924566,-0.10748039551635546
1.568129956998746,,0.049769763,-0.062840916,0.08925284,0.28237227,-0.81774575,-0.50155526,-0.9592275,-0.24732432,-0.13679628,-0.012182238,0.5197332,-0.85424197,,-0.049081795,-0.074200615,0.32570007,-0.016233198,0.58562785,-0.8104175,-0.99948984,-0.031799644,-0.0029589497,-0.027503818,0.8099562,0.5858455,,0.086317636,-0.07650438,-0.096855484,-0.84009343,-0.5183367,0.15990612,-0.51553416,0.8546334,0.06185571,-0.16872318,-0.030472469,-0.9851925,,-0.005946504313152873,0.028960248278341913,0.12527994705,-0.00020968994348452436,0.004099094992963213,0.002701689659508964,0.0,,-1.5057012284875526,0.15756691883280266,0.10738855247000001,1.3977931632678393,-0.3881842958336163,2.1242521411924566,-0.10748039551635546
1.5910555539994675,,0.049769763,-0.062840916,0.08925284,0.28237227,-0.81774575,-0.50155526,-0.9592275,-0.24732432,-0.13679628,-0.012182238,0.5197332,-0.85424197,,-0.04908163,-0.07419992,0.32570034,-0.016233081,0.58562636,-0.8104185,-0.9994896,-0.03180572,-0.0029633865,-0.027511362,0.80995697,0.585844,,0.086317636,-0.07650438,-0.096855484,-0.84009343,-0.5183367,0.15990612,-0.51553416,0.8546334,0.06185571,-0.16872318,-0.030472469,-0.9851925,,-0.005946504313152873,0.028960248278341913,0.12527994705,-0.00020968994348452436,0.004099094992963213,0.002701689659508964,0.0,,-1.505708951220427,0.15756691883280266,0.10738855247000001,1.3977931632678393,-0.3881842958336163,2.1242521411924566,-0.10748039551635546
1.6175214719987707,,0.049769763,-0.062840916,0.08925284,0.28237227,-0.81774575,-0.50155526,-0.9592275,-0.24732432,-0.13679628,-0.012182238,0.5197332,-0.85424197,,-0.04908163,-0.07419992,0.32570034,-0.016233081,0.58562636,-0.8104185,-0.9994896,-0.03180572,-0.0029633865,-0.027511362,0.80995697,0.585844,,0.086317636,-0.07650438,-0.096855484,-0.84009343,-0.5183367,0.15990612,-0.51553416,0.8546334,0.06185571,-0.16872318,-0.030472469,-0.9851925,,-0.005946504313152873,0.028960248278341913,0.12527994705,-0.00020968994348452436,0.004099094992963213,0.002701689659508964,0.0,,-1.505708951220427,0.15756691883280266,0.10738855247000001,1.3977931632678393,-0.3881842958336163,2.1242521411924566,-0.10748039551635546
1.6410814470000332,,0.04976901,-0.06284115,0.089253314,0.28237203,-0.817742,-0.5015616,-0.9592275,-0.24732302,-0.13679819,-0.012182105,0.51973987,-0.8542379,,-0.04908163,-0.07419992,0.32570034,-0.016233081,0.58562636,-0.8104185,-0.9994896,-0.03180572,-0.0029633865,-0.027511362,0.80995697,0.585844,,0.086317636,-0.07650438,-0.096855484,-0.84009343,-0.5183367,0.15990612,-0.51553416,0.8546334,0.06185571,-0.16872318,-0.030472469,-0.9851925,,-0.005938781580278648,0.028960248278341913,0.12527994705,-0.00020968994348452436,0.004099094992963213,0.002701689659508964,0.0,,-1.505708951220427,0.15756691883280266,0.10738855247000001,1.3977931632678393,-0.3881842958336163,2.1242521411924566,-0.10748039551635546
1.6688522189997457,,0.04976901,-0.06284115,0.089253314,0.28237203,-0.817742,-0.5015616,-0.9592275,-0.24732302,-0.13679819,-0.012182105,0.51973987,-0.8542379,,-0.049081795,-0.074200615,0.32570007,-0.016233198,0.58562785,-0.8104175,-0.99948984,-0.031799644,-0.0029589497,-0.027503818,0.8099562,0.5858455,,0.086317636,-0.07650438,-0.096855484,-0.84009343,-0.5183367,0.15990612,-0.51553416,0.8546334,0.06185571,-0.16872318,-0.030472469,-0.9851925,,-0.005938781580278648,0.028960248278341913,0.12527994705,-0.00020968994348452436,0.004099094992963213,0.002701689659508964,0.0,,-1.5057012284875526,0.15756691883280266,0.10738855247000001,1.3977931632678393,-0.3881842958336163,2.1242521411924566,-0.10748039551635546
1.693158873998982,,0.049769763,-0.062840916,0.08925284,0.28237227,-0.81774575,-0.50155526,-0.9592275,-0.24732432,-0.13679628,-0.012182238,0.5197332,-0.85424197,,-0.049081795,-0.074200615,0.32570007,-0.016233198,0.58562785,-0.8104175,-0.99948984,-0.031799644,-0.0029589497,-0.027503818,0.8099562,0.5858455,,0.086317636,-0.07650438,-0.096855484,-0.84009343,-0.5183367,0.15990612,-0.51553416,0.8546334,0.06185571,-0.16872318,-0.030472469,-0.9851925,,-0.005946504313152873,0.028960248278341913,0.12527994705,-0.00020968994348452436,0.004099094992963213,0.002701689659508964,0.0,,-1.5057012284875526,0.15756691883280266,0.10738855247000001,1.3977931632678393,-0.3881842958336163,2.1242521411924566,-0.10748039551635546
1.718879358999402,,0.049769763,-0.062840916,0.08925284,0.28237227,-0.81774575,-0.50155526,-0.9592275,-0.24732432,-0.13679628,-0.012182238,0.5197332,-0.85424197,,-0.04908163,-0.07419992,0.32570034,-0.016233081,0.58562636,-0.8104185,-0.9994896,-0.03180572,-0.0029633865,-0.027511362,0.80995697,0.585844,,0.086317636,-0.07650438,-0.096855484,-0.84009343,-0.5183367,0.15990612,-0.51553416,0.8546334,0.06185571,-0.16872318,-0.030472469,-0.9851925,,-0.005946504313152873,0.028960248278341913,0.12527994705,-0.00020968994348452436,0.004099094992963213,0.002701689659508964,0.0,,-1.505708951220427,0.15756691883280266,0.10738855247000001,1.3977931632678393,-0.3881842958336163,2.1242521411924566,-0.10748039551635546
1.7446866539994517,,0.049769763,-0.062840916,0.08925284,0.28237227,-0.81774575,-0.50155526,-0.9592275,-0.24732432,-0.13679628,-0.012182238,0.5197332,-0.85424197,,-0.04908087,-0.07420006,0.32570022,-0.016235895,0.58562064,-0.81042254,-0.99948955,-0.03180612,-0.0029599704,-0.02750982,0.8099611,0.5858383,,0.086317636,-0.07650438,-0.096855484,-0.84009343,-0.5183367,0.15990612,-0.51553416,0.8546334,0.06185571,-0.16872318,-0.030472469,-0.9851925,,-0.005946504313152873,0.028960248278341913,0.12527994705,-0.00020968994348452436,0.004099094992963213,0.002701689659508964,0.0,,-1.505708951220427,0.15755919609992844,0.10738855247000001,1.3977931632678393,-0.3881842958336163,2.1242521411924566,-0.10748039551635546
1.7697109689997887,,0.049769763,-0.062840916,0.08925284,0.28237227,-0.81774575,-0.50155526,-0.9592275,-0.24732432,-0.13679628,-0.012182238,0.5197332,-0.85424197,,-0.04908163,-0.07419992,0.32570034,-0.016233081,0.58562636,-0.8104185,-0.9994896,-0.03180572,-0.0029633865,-0.027511362,0.80995697,0.585844,,0.086317636,-0.07650438,-0.096855484,-0.84009343,-0.5183367,0.15990612,-0.51553416,0.8546334,0.06185571,-0.16872318,-0.030472469,-0.9851925,,-0.005946504313152873,0.028960248278341913,0.12527994705,-0.00020968994348452436,0.004099094992963213,0.002701689659508964,0.0,,-1.505708951220427,0.15756691883280266,0.10738855247000001,1.3977931632678393,-0.3881842958336163,2.1242521411924566,-0.10748039551635546
1.7958950499996718,,0.04976901,-0.06284115,0.089253314,0.28237203,-0.817742,-0.5015616,-0.9592275,-0.24732302,-0.13679819,-0.012182105,0.51973987,-0.8542379,,-0.04908163,-0.07419992,0.32570034,-0.016233081,0.58562636,-0.8104185,-0.9994896,-0.03180572,-0.0029633865,-0.027511362,0.80995697,0.585844,,0.086317636,-0.07650438,-0.096855484,-0.84009343,-0.5183367,0.15990612,-0.51553416,0.8546334,0.06185571,-0.16872318,-0.030472469,-0.9851925,,-0.005938781580278648,0.028960248278341913,0.12527994705,-0.00020968994348452436,0.004099094992963213,0.002701689659508964,0.0,,-1.505708951220427,0.15756691883280266,0.10738855247000001,1.3977931632678393,-0.3881842958336163,2.1242521411924566,-0.10748039551635546
1.8191332850001345,,0.04976901,-0.06284115,0.089253314,0.28237203,-0.817742,-0.5015616,-0.9592275,-0.24732302,-0.13679819,-0.012182105,0.51973987,-0.8542379,,-0.04908163,-0.07419992,0.32570034,-0.016233081,0.58562636,-0.8104185,-0.9994896,-0.03180572,-0.0029633865,-0.027511362,0.80995697,0.585844,,0.086317636,-0.07650438,-0.096855484,-0.84009343,-0.5183367,0.15990612,-0.51553416,0.8546334,0.06185571,-0.16872318,-0.030472469,-0.9851925,,-0.005938781580278648,0.028960248278341913,0.12527994705,-0.00020968994348452436,0.004099094992963213,0.002701689659508964,0.0,,-1.505708951220427,0.15756691883280266,0.10738855247000001,1.3977931632678393,-0.3881842958336163,2.1242521411924566,-0.10748039551635546
1.8441997209993133,,0.049769763,-0.062840916,0.08925284,0.28237227,-0.81774575,-0.50155526,-0.9592275,-0.24732432,-0.13679628,-0.012182238,0.5197332,-0.85424197,,-0.04908105,-0.07420076,0.32569996,-0.016236015,0.585622,-0.8104215,-0.9994897,-0.03180007,-0.0029555336,-0.027502287,0.80996025,0.5858398,,0.086317636,-0.07650438,-0.096855484,-0.84009343,-0.5183367,0.15990612,-0.51553416,0.8546334,0.06185571,-0.16872318,-0.030472469,-0.9851925,,-0.005946504313152873,0.028960248278341913,0.12527994705,-0.00020968994348452436,0.004099094992963213,0.002701689659508964,0.0,,-1.5057012284875526,0.15755919609992844,0.10738855247000001,1.3977931632678393,-0.3881842958336163,2.1242521411924566,-0.10748039551635546
1.8721202249998896,,0.049769763,-0.062840916,0.08925284,0.28237227,-0.81774575,-0.50155526,-0.9592275,-0.24732432,-0.13679628,-0.012182238,0.5197332,-0.85424197,,-0.04908105,-0.07420076,0.32569996,-0.016236015,0.585622,-0.8104215,-0.9994897,-0.03180007,-0.0029555336,-0.027502287,0.80996025,0.5858398,,0.086317636,-0.07650438,-0.096855484,-0.84009343,-0.5183367,0.15990612,-0.51553416,0.8546334,0.06185571,-0.16872318,-0.030472469,-0.9851925,,-0.005946504313152873,0.028960248278341913,0.12527994705,-0.00020968994348452436,0.004099094992963213,0.002701689659508964,0.0,,-1.5057012284875526,0.15755919609992844,0.10738855247000001,1.3977931632678393,-0.3881842958336163,2.1242521411924566,-0.10748039551635546
1.9002429639986076,,0.049769763,-0.062840916,0.08925284,0.28237227,-0.81774575,-0.50155526,-0.9592275,-0.24732432,-0.13679628,-0.012182238,0.5197332,-0.85424197,,-0.04908163,-0.07419992,0.32570034,-0.016233081,0.58562636,-0.8104185,-0.9994896,-0.03180572,-0.0029633865,-0.027511362,0.80995697,0.585844,,0.086317636,-0.07650438,-0.096855484,-0.84009343,-0.5183367,0.15990612,-0.51553416,0.8546334,0.06185571,-0.16872318,-0.030472469,-0.9851925,,-0.005946504313152873,0.028960248278341913,0.12527994705,-0.00020968994348452436,0.004099094992963213,0.002701689659508964,0.0,,-1.505708951220427,0.15756691883280266,0.10738855247000001,1.3977931632678393,-0.3881842958336163,2.1242521411924566,-0.10748039551635546
1.9214709289990424,,0.04976901,-0.06284115,0.089253314,0.28237203,-0.817742,-0.5015616,-0.9592275,-0.24732302,-0.13679819,-0.012182105,0.51973987,-0.8542379,,-0.04908163,-0.07419992,0.32570034,-0.016233081,0.58562636,-0.8104185,-0.9994896,-0.03180572,-0.0029633865,-0.027511362,0.80995697,0.585844,,0.086317636,-0.07650438,-0.096855484,-0.84009343,-0.5183367,0.15990612,-0.51553416,0.8546334,0.06185571,-0.16872318,-0.030472469,-0.9851925,,-0.005938781580278648,0.028960248278341913,0.12527994705,-0.00020968994348452436,0.004099094992963213,0.002701689659508964,0.0,,-1.505708951220427,0.15756691883280266,0.10738855247000001,1.3977931632678393,-0.3881842958336163,2.1242521411924566,-0.10748039551635546
1.9508228179984144,,0.04976901,-0.06284115,0.089253314,0.28237203,-0.817742,-0.5015616,-0.9592275,-0.24732302,-0.13679819,-0.012182105,0.51973987,-0.8542379,,-0.04908163,-0.07419992,0.32570034,-0.016233081,0.58562636,-0.8104185,-0.9994896,-0.03180572,-0.0029633865,-0.027511362,0.80995697,0.585844,,0.086317636,-0.07650438,-0.096855484,-0.84009343,-0.5183367,0.15990612,-0.51553416,0.8546334,0.06185571,-0.16872318,-0.030472469,-0.9851925,,-0.005938781580278648,0.028960248278341913,0.12527994705,-0.00020968994348452436,0.004099094992963213,0.002701689659508964,0.0,,-1.505708951220427,0.15756691883280266,0.10738855247000001,1.3977931632678393,-0.3881842958336163,2.1242521411924566,-0.10748039551635546
1.9722241349991236,,0.049769763,-0.062840916,0.08925284,0.28237227,-0.81774575,-0.50155526,-0.9592275,-0.24732432,-0.13679628,-0.012182238,0.5197332,-0.85424197,,-0.04908163,-0.07419992,0.32570034,-0.016233081,0.58562636,-0.8104185,-0.9994896,-0.03180572,-0.0029633865,-0.027511362,0.80995697,0.585844,,0.086317636,-0.07650438,-0.096855484,-0.84009343,-0.5183367,0.15990612,-0.51553416,0.8546334,0.06185571,-0.16872318,-0.030472469,-0.9851925,,-0.005946504313152873,0.028960248278341913,0.12527994705,-0.00020968994348452436,0.004099094992963213,0.002701689659508964,0.0,,-1.505708951220427,0.15756691883280266,0.10738855247000001,1.3977931632678393,-0.3881842958336163,2.1242521411924566,-0.10748039551635546
2.001640108999709,,0.049769763,-0.062840916,0.08925284,0.28237227,-0.81774575,-0.50155526,-0.9592275,-0.24732432,-0.13679628,-0.012182238,0.5197332,-0.85424197,,-0.04908087,-0.07420006,0.32570022,-0.016235895,0.58562064,-0.81042254,-0.99948955,-0.03180612,-0.0029599704,-0.02750982,0.8099611,0.5858383,,0.086317636,-0.07650438,-0.096855484,-0.84009343,-0.5183367,0.15990612,-0.51553416,0.8546334,0.06185571,-0.16872318,-0.030472469,-0.9851925,,-0.005946504313152873,0.028960248278341913,0.12527994705,-0.00020968994348452436,0.004099094992963213,0.002701689659508964,0.0,,-1.505708951220427,0.15755919609992844,0.10738855247000001,1.3977931632678393,-0.3881842958336163,2.1242521411924566,-0.10748039551635546
2.02431301300021,,0.049769763,-0.062840916,0.08925284,0.28237227,-0.81774575,-0.50155526,-0.9592275,-0.24732432,-0.13679628,-0.012182238,0.5197332,-0.85424197,,-0.049081795,-0.074200615,0.32570007,-0.016233198,0.58562785,-0.8104175,-0.99948984,-0.031799644,-0.0029589497,-0.027503818,0.8099562,0.5858455,,0.086317636,-0.07650438,-0.096855484,-0.84009343,-0.5183367,0.15990612,-0.51553416,0.8546334,0.06185571,-0.16872318,-0.030472469,-0.9851925,,-0.005946504313152873,0.028960248278341913,0.12527994705,-0.00020968994348452436,0.004099094992963213,0.002701689659508964,0.0,,-1.5057012284875526,0.15756691883280266,0.10738855247000001,1.3977931632678393,-0.3881842958336163,2.1242521411924566,-0.10748039551635546
2.051831583999956,,0.049769763,-0.062840916,0.08925284,0.28237227,-0.81774575,-0.50155526,-0.9592275,-0.24732432,-0.13679628,-0.012182238,0.5197332,-0.85424197,,-0.04908163,-0.07419992,0.32570034,-0.016233081,0.58562636,-0.8104185,-0.9994896,-0.03180572,-0.0029633865,-0.027511362,0.80995697,0.585844,,0.086317636,-0.07650438,-0.096855484,-0.84009343,-0.5183367,0.15990612,-0.51553416,0.8546334,0.06185571,-0.16872318,-0.030472469,-0.9851925,,-0.005946504313152873,0.028960248278341913,0.12527994705,-0.00020968994348452436,0.004099094992963213,0.002701689659508964,0.0,,-1.505708951220427,0.15756691883280266,0.10738855247000001,1.3977931632678393,-0.3881842958336163,2.1242521411924566,-0.10748039551635546
2.0761732009996194,,0.04976901,-0.06284115,0.089253314,0.28237203,-0.817742,-0.5015616,-0.9592275,-0.24732302,-0.13679819,-0.012182105,0.51973987,-0.8542379,,-0.04908163,-0.07419992,0.32570034,-0.016233081,0.58562636,-0.8104185,-0.9994896,-0.03180572,-0.0029633865,-0.027511362,0.80995697,0.585844,,0.086317636,-0.07650438,-0.096855484,-0.84009343,-0.5183367,0.15990612,-0.51553416,0.8546334,0.06185571,-0.16872318,-0.030472469,-0.9851925,,-0.005938781580278648,0.028960248278341913,0.12527994705,-0.00020968994348452436,0.004099094992963213,0.002701689659508964,0.0,,-1.505708951220427,0.15756691883280266,0.10738855247000001,1.3977931632678393,-0.3881842958336163,2.1242521411924566,-0.10748039551635546
2.102823842998987,,0.049769763,-0.062840916,0.08925284,0.28237227,-0.81774575,-0.50155526,-0.9592275,-0.24732432,-0.13679628,-0.012182238,0.5197332,-0.85424197,,-0.04908163,-0.07419992,0.32570034,-0.016233081,0.58562636,-0.8104185,-0.9994896,-0.03180572,-0.0029633865,-0.027511362,0.80995697,0.585844,,0.086317636,-0.07650438,-0.096855484,-0.84009343,-0.5183367,0.15990612,-0.51553416,0.8546334,0.06185571,-0.16872318,-0.030472469,-0.9851925,,-0.005946504313152873,0.028960248278341913,0.12527994705,-0.00020968994348452436,0.004099094992963213,0.002701689659508964,0.0,,-1.505708951220427,0.15756691883280266,0.10738855247000001,1.3977931632678393,-0.3881842958336163,2.1242521411924566,-0.10748039551635546
2.128213700998458,,0.049769763,-0.062840916,0.08925284,0.28237227,-0.81774575,-0.50155526,-0.9592275,-0.24732432,-0.13679628,-0.012182238,0.5197332,-0.85424197,,-0.04908163,-0.07419992,0.32570034,-0.016233081,0.58562636,-0.8104185,-0.9994896,-0.03180572,-0.0029633865,-0.027511362,0.80995697,0.585844,,0.086317636,-0.07650438,-0.096855484,-0.84009343,-0.5183367,0.15990612,-0.51553416,0.8546334,0.06185571,-0.16872318,-0.030472469,-0.9851925,,-0.005946504313152873,0.028960248278341913,0.12527994705,-0.00020968994348452436,0.004099094992963213,0.002701689659508964,0.0,,-1.505708951220427,0.15756691883280266,0.10738855247000001,1.3977931632678393,-0.3881842958336163,2.1242521411924566,-0.10748039551635546
2.153546292000101,,0.049769763,-0.062840916,0.08925284,0.28237227,-0.81774575,-0.50155526,-0.9592275,-0.24732432,-0.13679628,-0.012182238,0.5197332,-0.85424197,,-0.04908163,-0.07419992,0.32570034,-0.016233081,0.58562636,-0.8104185,-0.9994896,-0.03180572,-0.0029633865,-0.027511362,0.80995697,0.585844,,0.086317636,-0.07650438,-0.096855484,-0.84009343,-0.5183367,0.15990612,-0.51553416,0.8546334,0.06185571,-0.16872318,-0.030472469,-0.9851925,,-0.005946504313152873,0.028960248278341913,0.12527994705,-0.00020968994348452436,0.004099094992963213,0.002701689659508964,0.0,,-1.505708951220427,0.15756691883280266,0.10738855247000001,1.3977931632678393,-0.3881842958336163,2.1242521411924566,-0.10748039551635546
2.1818148929996823,,0.04976901,-0.06284115,0.089253314,0.28237203,-0.817742,-0.5015616,-0.9592275,-0.24732302,-0.13679819,-0.012182105,0.51973987,-0.8542379,,-0.049081795,-0.074200615,0.32570007,-0.016233198,0.58562785,-0.8104175,-0.99948984,-0.031799644,-0.0029589497,-0.027503818,0.8099562,0.5858455,,0.086317636,-0.07650438,-0.096855484,-0.84009343,-0.5183367,0.15990612,-0.51553416,0.8546334,0.06185571,-0.16872318,-0.030472469,-0.9851925,,-0.005938781580278648,0.028960248278341913,0.12527994705,-0.00020968994348452436,0.004099094992963213,0.002701689659508964,0.0,,-1.5057012284875526,0.15756691883280266,0.10738855247000001,1.3977931632678393,-0.3881842958336163,2.1242521411924566,-0.10748039551635546
2.2050884109994513,,0.049725596,-0.062852666,0.089255884,0.28232655,-0.8177753,-0.5015326,-0.959241,-0.24728188,-0.13677743,-0.01216677,0.51970685,-0.8542582,,-0.04909675,-0.07427099,0.32572186,-0.016326742,0.58557725,-0.810452,-0.99948746,-0.03187594,-0.0028966442,-0.027530119,0.8099896,0.5857979,,0.08626637,-0.07653386,-0.09686917,-0.8401146,-0.51830095,0.15991051,-0.5154977,0.8546552,0.061857257,-0.16872902,-0.030466286,-0.98519164,,-0.005938781580278648,0.028960248278341913,0.12527994705,-0.00020968994348452436,0.004099094992963213,0.002701689659508964,0.0,,-1.5057012284875526,0.15756691883280266,0.10738855247000001,1.3977931632678393,-0.3881842958336163,2.1242521411924566,-0.10748039551635546
2.2331741899997724,,0.049726345,-0.062852435,0.08925542,0.2823268,-0.8177791,-0.50152636,-0.9592409,-0.24728322,-0.13677552,-0.012166902,0.5197003,-0.8542621,,-0.049096584,-0.0742703,0.32572213,-0.016326712,0.5855758,-0.81045306,-0.9994873,-0.03188196,-0.0029010512,-0.02753767,0.80999047,0.5857964,,0.08626637,-0.07653386,-0.09686917,-0.8401146,-0.51830095,0.15991051,-0.5154977,0.8546552,0.061857257,-0.16872902,-0.030466286,-0.98519164,,-0.005946504313152873,0.028960248278341913,0.12527994705,-0.00020968994348452436,0.004099094992963213,0.002701689659508964,0.0,,-1.505708951220427,0.15756691883280266,0.10738855247000001,1.3977931632678393,-0.3881842958336163,2.1242521411924566,-0.10748039551635546
2.255729374999646,,0.049726345,-0.062852435,0.08925542,0.2823268,-0.8177791,-0.50152636,-0.9592409,-0.24728322,-0.13677552,-0.012166902,0.5197003,-0.8542621,,-0.04909599,-0.07427113,0.32572174,-0.016329499,0.5855715,-0.81045604,-0.99948746,-0.031876307,-0.002893258,-0.027528588,0.80999374,0.5857922,,0.08626637,-0.07653386,-0.09686917,-0.8401146,-0.51830095,0.15991051,-0.5154977,0.8546552,0.061857257,-0.16872902,-0.030466286,-0.98519164,,-0.005946504313152873,0.028960248278341913,0.12527994705,-0.00020968994348452436,0.004099094992963213,0.002701689659508964,0.0,,-1.5057012284875526,0.15755919609992844,0.10738855247000001,1.3977931632678393,-0.3881842958336163,2.1242521411924566,-0.10748039551635546
2.285219308998421,,0.049724843,-0.06285289,0.089256376,0.28232637,-0.81777155,-0.501539,-0.95924103,-0.24728061,-0.13677934,-0.012166636,0.5197135,-0.8542541,,-0.049096584,-0.0742703,0.32572213,-0.016326712,0.5855758,-0.81045306,-0.9994873,-0.03188196,-0.0029010512,-0.02753767,0.80999047,0.5857964,,0.08626637,-0.07653386,-0.09686917,-0.8401146,-0.51830095,0.15991051,-0.5154977,0.8546552,0.061857257,-0.16872902,-0.030466286,-0.98519164,,-0.005931058847404424,0.028960248278341913,0.12527994705,-0.00020968994348452436,0.004099094992963213,0.002701689659508964,0.0,,-1.505708951220427,0.15756691883280266,0.10738855247000001,1.3977931632678393,-0.3881842958336163,2.1242521411924566,-0.10748039551635546
2.306164842999351,,0.049724843,-0.06285289,0.089256376,0.28232637,-0.81777155,-0.501539,-0.95924103,-0.24728061,-0.13677934,-0.012166636,0.5197135,-0.8542541,,-0.049096584,-0.0742703,0.32572213,-0.016326712,0.5855758,-0.81045306,-0.9994873,-0.03188196,-0.0029010512,-0.02753767,0.80999047,0.5857964,,0.08626637,-0.07653386,-0.09686917,-0.8401146,-0.51830095,0.15991051,-0.5154977,0.8546552,0.061857257,-0.16872902,-0.030466286,-0.98519164,,-0.005931058847404424,0.028960248278341913,0.12527994705,-0.00020968994348452436,0.004099094992963213,0.002701689659508964,0.0,,-1.505708951220427,0.15756691883280266,0.10738855247000001,1.3977931632678393,-0.3881842958336163,2.1242521411924566,-0.10748039551635546
2.3353418959995906,,0.049725596,-0.062852666,0.089255884,0.28232655,-0.8177753,-0.5015326,-0.959241,-0.24728188,-0.13677743,-0.01216677,0.51970685,-0.8542582,,-0.04909675,-0.07427099,0.32572186,-0.016326742,0.58557725,-0.810452,-0.99948746,-0.03187594,-0.0028966442,-0.027530119,0.8099896,0.5857979,,0.08626637,-0.07653386,-0.09686917,-0.8401146,-0.51830095,0.15991051,-0.5154977,0.8546552,0.061857257,-0.16872902,-0.030466286,-0.98519164,,-0.005938781580278648,0.028960248278341913,0.12527994705,-0.00020968994348452436,0.004099094992963213,0.002701689659508964,0.0,,-1.5057012284875526,0.15756691883280266,0.10738855247000001,1.3977931632678393,-0.3881842958336163,2.1242521411924566,-0.10748039551635546
2.356657009999253,,0.049725596,-0.062852666,0.089255884,0.28232655,-0.8177753,-0.5015326,-0.959241,-0.24728188,-0.13677743,-0.01216677,0.51970685,-0.8542582,,-0.049096584,-0.0742703,0.32572213,-0.016326712,0.5855758,-0.81045306,-0.9994873,-0.03188196,-0.0029010512,-0.02753767,0.80999047,0.5857964,,0.08626637,-0.07653386,-0.09686917,-0.8401146,-0.51830095,0.15991051,-0.5154977,0.8546552,0.061857257,-0.16872902,-0.030466286,-0.98519164,,-0.005938781580278648,0.028960248278341913,0.12527994705,-0.00020968994348452436,0.004099094992963213,0.002701689659508964,0.0,,-1.505708951220427,0.15756691883280266,0.10738855247000001,1.3977931632678393,-0.3881842958336163,2.1242521411924566,-0.10748039551635546
2.3860913309999887,,0.0497256,-0.06285266,0.089255884,0.28215474,-0.817835,-0.50153214,-0.9592928,-0.24708088,-0.13677666,-0.012058277,0.51970863,-0.8542586,,-0.049096584,-0.0742703,0.32572213,-0.016326712,0.5855758,-0.81045306,-0.9994873,-0.03188196,-0.0029010512,-0.02753767,0.80999047,0.5857964,,0.08626637,-0.07653386,-0.09686917,-0.8401146,-0.51830095,0.15991051,-0.5154977,0.8546552,0.061857257,-0.16872902,-0.030466286,-0.98519164,,-0.005938781580278648,0.028960248278341913,0.12527994705,0.0,0.004099094992963213,0.002701689659508964,0.0,,-1.505708951220427,0.15756691883280266,0.10738855247000001,1.3977931632678393,-0.3881842958336163,2.1242521411924566,-0.10748039551635546
2.411226414998964,,0.049725607,-0.06285266,0.089255884,0.28198305,-0.8178945,-0.50153154,-0.95934474,-0.24687982,-0.1367759,-0.011949782,0.5197105,-0.854259,,-0.049096584,-0.0742703,0.32572213,-0.016326712,0.5855758,-0.81045306,-0.9994873,-0.03188196,-0.0029010512,-0.02753767,0.80999047,0.5857964,,0.08626637,-0.07653386,-0.09686917,-0.8401146,-0.51830095,0.15991051,-0.5154977,0.8546552,0.061857257,-0.16872902,-0.030466286,-0.98519164,,-0.005938781580278648,0.028960248278341913,0.12527994705,0.00020968994348452436,0.004099094992963213,0.002701689659508964,0.0,,-1.505708951220427,0.15756691883280266,0.10738855247000001,1.3977931632678393,-0.3881842958336163,2.1242521411924566,-0.10748039551635546
2.4375461709987576,,0.04972486,-0.06285289,0.08925636,0.2819828,-0.81789076,-0.5015379,-0.9593448,-0.24687853,-0.13677783,-0.011949648,0.5197171,-0.8542551,,-0.049096584,-0.0742703,0.32572213,-0.016326712,0.5855758,-0.81045306,-0.9994873,-0.03188196,-0.0029010512,-0.02753767,0.80999047,0.5857964,,0.08626637,-0.07653386,-0.09686917,-0.8401146,-0.51830095,0.15991051,-0.5154977,0.8546552,0.061857257,-0.16872902,-0.030466286,-0.98519164,,-0.005931058847404424,0.028960248278341913,0.12527994705,0.00020968994348452436,0.004099094992963213,0.002701689659508964,0.0,,-1.505708951220427,0.15756691883280266,0.10738855247000001,1.3977931632678393,-0.3881842958336163,2.1242521411924566,-0.10748039551635546
2.464921233999121,,0.049725607,-0.06285266,0.089255884,0.28198305,-0.8178945,-0.50153154,-0.95934474,-0.24687982,-0.1367759,-0.011949782,0.5197105,-0.854259,,-0.04909675,-0.07427099,0.32572186,-0.016326742,0.58557725,-0.810452,-0.99948746,-0.03187594,-0.0028966442,-0.027530119,0.8099896,0.5857979,,0.08626637,-0.07653386,-0.09686917,-0.8401146,-0.51830095,0.15991051,-0.5154977,0.8546552,0.061857257,-0.16872902,-0.030466286,-0.98519164,,-0.005938781580278648,0.028960248278341913,0.12527994705,0.00020968994348452436,0.004099094992963213,0.002701689659508964,0.0,,-1.5057012284875526,0.15756691883280266,0.10738855247000001,1.3977931632678393,-0.3881842958336163,2.1242521411924566,-0.10748039551635546
2.488825435999388,,0.049725607,-0.06285266,0.089255884,0.28198305,-0.8178945,-0.50153154,-0.95934474,-0.24687982,-0.1367759,-0.011949782,0.5197105,-0.854259,,-0.049096584,-0.0742703,0.32572213,-0.016326712,0.5855758,-0.81045306,-0.9994873,-0.03188196,-0.0029010512,-0.02753767,0.80999047,0.5857964,,0.08626637,-0.07653386,-0.09686917,-0.8401146,-0.51830095,0.15991051,-0.5154977,0.8546552,0.061857257,-0.16872902,-0.030466286,-0.98519164,,-0.005938781580278648,0.028960248278341913,0.12527994705,0.00020968994348452436,0.004099094992963213,0.002701689659508964,0.0,,-1.505708951220427,0.15756691883280266,0.10738855247000001,1.3977931632678393,-0.3881842958336163,2.1242521411924566,-0.10748039551635546
2.515609610998581,,0.049725607,-0.06285266,0.089255884,0.28198305,-0.8178945,-0.50153154,-0.95934474,-0.24687982,-0.1367759,-0.011949782,0.5197105,-0.854259,,-0.049096584,-0.0742703,0.32572213,-0.016326712,0.5855758,-0.81045306,-0.9994873,-0.03188196,-0.0029010512,-0.02753767,0.80999047,0.5857964,,0.08626637,-0.07653386,-0.09686917,-0.8401146,-0.51830095,0.15991051,-0.5154977,0.8546552,0.061857257,-0.16872902,-0.030466286,-0.98519164,,-0.005938781580278648,0.028960248278341913,0.12527994705,0.00020968994348452436,0.004099094992963213,0.002701689659508964,0.0,,-1.505708951220427,0.15756691883280266,0.10738855247000001,1.3977931632678393,-0.3881842958336163,2.1242521411924566,-0.10748039551635546
2.538893155999176,,0.04972636,-0.06285243,0.08925541,0.28198323,-0.8178983,-0.5015253,-0.95934474,-0.24688113,-0.136774,-0.011949916,0.51970387,-0.85426307,,-0.049095824,-0.07427043,0.325722,-0.01632944,0.5855701,-0.81045717,-0.9994873,-0.031882416,-0.002897665,-0.027536128,0.8099946,0.58579075,,0.08626637,-0.07653386,-0.09686917,-0.8401146,-0.51830095,0.15991051,-0.5154977,0.8546552,0.061857257,-0.16872902,-0.030466286,-0.98519164,,-0.005946504313152873,0.028960248278341913,0.12527994705,0.00020968994348452436,0.004099094992963213,0.002701689659508964,0.0,,-1.505708951220427,0.15755919609992844,0.10738855247000001,1.3977931632678393,-0.3881842958336163,2.1242521411924566,-0.10748039551635546
2.5673426619996462,,0.04972636,-0.06285243,0.08925541,0.28198323,-0.8178983,-0.5015253,-0.95934474,-0.24688113,-0.136774,-0.011949916,0.51970387,-0.85426307,,-0.049096584,-0.0742703,0.32572213,-0.016326712,0.5855758,-0.81045306,-0.9994873,-0.03188196,-0.0029010512,-0.02753767,0.80999047,0.5857964,,0.08626637,-0.07653386,-0.09686917,-0.8401146,-0.51830095,0.15991051,-0.5154977,0.8546552,0.061857257,-0.16872902,-0.030466286,-0.98519164,,-0.005946504313152873,0.028960248278341913,0.12527994705,0.00020968994348452436,0.004099094992963213,0.002701689659508964,0.0,,-1.505708951220427,0.15756691883280266,0.10738855247000001,1.3977931632678393,-0.3881842958336163,2.1242521411924566,-0.10748039551635546
2.589407362000202,,0.04972636,-0.06285243,0.08925541,0.28198323,-0.8178983,-0.5015253,-0.95934474,-0.24688113,-0.136774,-0.011949916,0.51970387,-0.85426307,,-0.04909675,-0.07427099,0.32572186,-0.016326742,0.58557725,-0.810452,-0.99948746,-0.03187594,-0.0028966442,-0.027530119,0.8099896,0.5857979,,0.08626637,-0.07653386,-0.09686917,-0.8401146,-0.51830095,0.15991051,-0.5154977,0.8546552,0.061857257,-0.16872902,-0.030466286,-0.98519164,,-0.005946504313152873,0.028960248278341913,0.12527994705,0.00020968994348452436,0.004099094992963213,0.002701689659508964,0.0,,-1.5057012284875526,0.15756691883280266,0.10738855247000001,1.3977931632678393,-0.3881842958336163,2.1242521411924566,-0.10748039551635546
2.620116156000222,,0.049725607,-0.06285266,0.089255884,0.28198305,-0.8178945,-0.50153154,-0.95934474,-0.24687982,-0.1367759,-0.011949782,0.5197105,-0.854259,,-0.049096584,-0.0742703,0.32572213,-0.016326712,0.5855758,-0.81045306,-0.9994873,-0.03188196,-0.0029010512,-0.02753767,0.80999047,0.5857964,,0.08626637,-0.07653386,-0.09686917,-0.8401146,-0.51830095,0.15991051,-0.5154977,0.8546552,0.061857257,-0.16872902,-0.030466286,-0.98519164,,-0.005938781580278648,0.028960248278341913,0.12527994705,0.00020968994348452436,0.004099094992963213,0.002701689659508964,0.0,,-1.505708951220427,0.15756691883280266,0.10738855247000001,1.3977931632678393,-0.3881842958336163,2.1242521411924566,-0.10748039551635546
2.647392383998522,,0.049725346,-0.06285178,0.089255884,0.28197914,-0.8178945,-0.50153375,-0.95934576,-0.24687985,-0.13676852,-0.011956392,0.5197105,-0.8542589,,-0.049096584,-0.0742703,0.32572213,-0.016326712,0.5855758,-0.81045306,-0.9994873,-0.03188196,-0.0029010512,-0.02753767,0.80999047,0.5857964,,0.08626637,-0.07653386,-0.09686917,-0.8401146,-0.51830095,0.15991051,-0.5154977,0.8546552,0.061857257,-0.16872902,-0.030466286,-0.98519164,,-0.005938781580278648,0.028967971011216134,0.12527994705,0.00020968994348452436,0.004099094992963213,0.002701689659508964,0.0,,-1.505708951220427,0.15756691883280266,0.10738855247000001,1.3977931632678393,-0.3881842958336163,2.1242521411924566,-0.10748039551635546
2.6713553519985,,0.04972636,-0.06285243,0.08925541,0.28198323,-0.8178983,-0.5015253,-0.95934474,-0.24688113,-0.136774,-0.011949916,0.51970387,-0.85426307,,-0.049096584,-0.0742703,0.32572213,-0.016326712,0.5855758,-0.81045306,-0.9994873,-0.03188196,-0.0029010512,-0.02753767,0.80999047,0.5857964,,0.08626637,-0.07653386,-0.09686917,-0.8401146,-0.51830095,0.15991051,-0.5154977,0.8546552,0.061857257,-0.16872902,-0.030466286,-0.98519164,,-0.005946504313152873,0.028960248278341913,0.12527994705,0.00020968994348452436,0.004099094992963213,0.002701689659508964,0.0,,-1.505708951220427,0.15756691883280266,0.10738855247000001,1.3977931632678393,-0.3881842958336163,2.1242521411924566,-0.10748039551635546
2.7009383069998876,,0.04972636,-0.06285243,0.08925541,0.28198323,-0.8178983,-0.5015253,-0.95934474,-0.24688113,-0.136774,-0.011949916,0.51970387,-0.85426307,,-0.049096584,-0.0742703,0.32572213,-0.016326712,0.5855758,-0.81045306,-0.9994873,-0.03188196,-0.0029010512,-0.02753767,0.80999047,0.5857964,,0.08626637,-0.07653386,-0.09686917,-0.8401146,-0.51830095,0.15991051,-0.5154977,0.8546552,0.061857257,-0.16872902,-0.030466286,-0.98519164,,-0.005946504313152873,0.028960248278341913,0.12527994705,0.00020968994348452436,0.004099094992963213,0.002701689659508964,0.0,,-1.505708951220427,0.15756691883280266,0.10738855247000001,1.3977931632678393,-0.3881842958336163,2.1242521411924566,-0.10748039551635546
2.7223784569996496,,0.04972636,-0.06285243,0.08925541,0.28198323,-0.8178983,-0.5015253,-0.95934474,-0.24688113,-0.136774,-0.011949916,0.51970387,-0.85426307,,-0.04909675,-0.07427099,0.32572186,-0.016326742,0.58557725,-0.810452,-0.99948746,-0.03187594,-0.0028966442,-0.027530119,0.8099896,0.5857979,,0.08626637,-0.07653386,-0.09686917,-0.8401146,-0.51830095,0.15991051,-0.5154977,0.8546552,0.061857257,-0.16872902,-0.030466286,-0.98519164,,-0.005946504313152873,0.028960248278341913,0.12527994705,0.00020968994348452436,0.004099094992963213,0.002701689659508964,0.0,,-1.5057012284875526,0.15756691883280266,0.10738855247000001,1.3977931632678393,-0.3881842958336163,2.1242521411924566,-0.10748039551635546
2.7533389529999113,,0.049725346,-0.06285178,0.089255884,0.28197914,-0.8178945,-0.50153375,-0.95934576,-0.24687985,-0.13676852,-0.011956392,0.5197105,-0.8542589,,-0.049096584,-0.0742703,0.32572213,-0.016326712,0.5855758,-0.81045306,-0.9994873,-0.03188196,-0.0029010512,-0.02753767,0.80999047,0.5857964,,0.08626637,-0.07653386,-0.09686917,-0.8401146,-0.51830095,0.15991051,-0.5154977,0.8546552,0.061857257,-0.16872902,-0.030466286,-0.98519164,,-0.005938781580278648,0.028967971011216134,0.12527994705,0.00020968994348452436,0.004099094992963213,0.002701689659508964,0.0,,-1.505708951220427,0.15756691883280266,0.10738855247000001,1.3977931632678393,-0.3881842958336163,2.1242521411924566,-0.10748039551635546
2.775497146998532,,0.049725607,-0.06285266,0.089255884,0.28198305,-0.8178945,-0.50153154,-0.95934474,-0.24687982,-0.1367759,-0.011949782,0.5197105,-0.854259,,-0.049096584,-0.0742703,0.32572213,-0.016326712,0.5855758,-0.81045306,-0.9994873,-0.03188196,-0.0029010512,-0.02753767,0.80999047,0.5857964,,0.08626637,-0.07653386,-0.09686917,-0.8401146,-0.51830095,0.15991051,-0.5154977,0.8546552,0.061857257,-0.16872902,-0.030466286,-0.98519164,,-0.005938781580278648,0.028960248278341913,0.12527994705,0.00020968994348452436,0.004099094992963213,0.002701689659508964,0.0,,-1.505708951220427,0.15756691883280266,0.10738855247000001,1.3977931632678393,-0.3881842958336163,2.1242521411924566,-0.10748039551635546
2.803788799999893,,0.04972636,-0.06285243,0.08925541,0.28198323,-0.8178983,-0.5015253,-0.95934474,-0.24688113,-0.136774,-0.011949916,0.51970387,-0.85426307,,-0.049096584,-0.0742703,0.32572213,-0.016326712,0.5855758,-0.81045306,-0.9994873,-0.03188196,-0.0029010512,-0.02753767,0.80999047,0.5857964,,0.08626637,-0.07653386,-0.09686917,-0.8401146,-0.51830095,0.15991051,-0.5154977,0.8546552,0.061857257,-0.16872902,-0.030466286,-0.98519164,,-0.005946504313152873,0.028960248278341913,0.12527994705,0.00020968994348452436,0.004099094992963213,0.002701689659508964,0.0,,-1.505708951220427,0.15756691883280266,0.10738855247000001,1.3977931632678393,-0.3881842958336163,2.1242521411924566,-0.10748039551635546
2.8317391780001344,,0.04972636,-0.06285243,0.08925541,0.28198323,-0.8178983,-0.5015253,-0.95934474,-0.24688113,-0.136774,-0.011949916,0.51970387,-0.85426307,,-0.049096584,-0.0742703,0.32572213,-0.016326712,0.5855758,-0.81045306,-0.9994873,-0.03188196,-0.0029010512,-0.02753767,0.80999047,0.5857964,,0.08626637,-0.07653386,-0.09686917,-0.8401146,-0.51830095,0.15991051,-0.5154977,0.8546552,0.061857257,-0.16872902,-0.030466286,-0.98519164,,-0.005946504313152873,0.028960248278341913,0.12527994705,0.00020968994348452436,0.004099094992963213,0.002701689659508964,0.0,,-1.505708951220427,0.15756691883280266,0.10738855247000001,1.3977931632678393,-0.3881842958336163,2.1242521411924566,-0.10748039551635546
2.854367459000059,,0.04972636,-0.06285243,0.08925541,0.28198323,-0.8178983,-0.5015253,-0.95934474,-0.24688113,-0.136774,-0.011949916,0.51970387,-0.85426307,,-0.049096584,-0.0742703,0.32572213,-0.016326712,0.5855758,-0.81045306,-0.9994873,-0.03188196,-0.0029010512,-0.02753767,0.80999047,0.5857964,,0.08626637,-0.07653386,-0.09686917,-0.8401146,-0.51830095,0.15991051,-0.5154977,0.8546552,0.061857257,-0.16872902,-0.030466286,-0.98519164,,-0.005946504313152873,0.028960248278341913,0.12527994705,0.00020968994348452436,0.004099094992963213,0.002701689659508964,0.0,,-1.505708951220427,0.15756691883280266,0.10738855247000001,1.3977931632678393,-0.3881842958336163,2.1242521411924566,-0.10748039551635546
2.883946855999966,,0.049725607,-0.06285266,0.089255884,0.28198305,-0.8178945,-0.50153154,-0.95934474,-0.24687982,-0.1367759,-0.011949782,0.5197105,-0.854259,,-0.04909675,-0.07427099,0.32572186,-0.016326742,0.58557725,-0.810452,-0.99948746,-0.03187594,-0.0028966442,-0.027530119,0.8099896,0.5857979,,0.08626637,-0.07653386,-0.09686917,-0.8401146,-0.51830095,0.15991051,-0.5154977,0.8546552,0.061857257,-0.16872902,-0.030466286,-0.98519164,,-0.005938781580278648,0.028960248278341913,0.12527994705,0.00020968994348452436,0.004099094992963213,0.002701689659508964,0.0,,-1.5057012284875526,0.15756691883280266,0.10738855247000001,1.3977931632678393,-0.3881842958336163,2.1242521411924566,-0.10748039551635546
2.9060430729987274,,0.049725607,-0.06285266,0.089255884,0.28198305,-0.8178945,-0.50153154,-0.95934474,-0.24687982,-0.1367759,-0.011949782,0.5197105,-0.854259,,-0.04909675,-0.07427099,0.32572186,-0.016326742,0.58557725,-0.810452,-0.99948746,-0.03187594,-0.0028966442,-0.027530119,0.8099896,0.5857979,,0.08626637,-0.07653386,-0.09686917,-0.8401146,-0.51830095,0.15991051,-0.5154977,0.8546552,0.061857257,-0.16872902,-0.030466286,-0.98519164,,-0.005938781580278648,0.028960248278341913,0.12527994705,0.00020968994348452436,0.004099094992963213,0.002701689659508964,0.0,,-1.5057012284875526,0.15756691883280266,0.10738855247000001,1.3977931632678393,-0.3881842958336163,2.1242521411924566,-0.10748039551635546
2.9360778459995345,,0.049725607,-0.06285266,0.089255884,0.28198305,-0.8178945,-0.50153154,-0.95934474,-0.24687982,-0.1367759,-0.011949782,0.5197105,-0.854259,,-0.049096584,-0.0742703,0.32572213,-0.016326712,0.5855758,-0.81045306,-0.9994873,-0.03188196,-0.0029010512,-0.02753767,0.80999047,0.5857964,,0.08626637,-0.07653386,-0.09686917,-0.8401146,-0.51830095,0.15991051,-0.5154977,0.8546552,0.061857257,-0.16872902,-0.030466286,-0.98519164,,-0.005938781580278648,0.028960248278341913,0.12527994705,0.00020968994348452436,0.004099094992963213,0.002701689659508964,0.0,,-1.505708951220427,0.15756691883280266,0.10738855247000001,1.3977931632678393,-0.3881842958336163,2.1242521411924566,-0.10748039551635546
2.956258538999464,,0.04972636,-0.06285243,0.08925541,0.28198323,-0.8178983,-0.5015253,-0.95934474,-0.24688113,-0.136774,-0.011949916,0.51970387,-0.85426307,,-0.049096584,-0.0742703,0.32572213,-0.016326712,0.5855758,-0.81045306,-0.9994873,-0.03188196,-0.0029010512,-0.02753767,0.80999047,0.5857964,,0.08626637,-0.07653386,-0.09686917,-0.8401146,-0.51830095,0.15991051,-0.5154977,0.8546552,0.061857257,-0.16872902,-0.030466286,-0.98519164,,-0.005946504313152873,0.028960248278341913,0.12527994705,0.00020968994348452436,0.004099094992963213,0.002701689659508964,0.0,,-1.505708951220427,0.15756691883280266,0.10738855247000001,1.3977931632678393,-0.3881842958336163,2.1242521411924566,-0.10748039551635546
2.986933173999205,,0.04972636,-0.06285243,0.08925541,0.28198323,-0.8178983,-0.5015253,-0.95934474,-0.24688113,-0.136774,-0.011949916,0.51970387,-0.85426307,,-0.049096584,-0.0742703,0.32572213,-0.016326712,0.5855758,-0.81045306,-0.9994873,-0.03188196,-0.0029010512,-0.02753767,0.80999047,0.5857964,,0.08626637,-0.07653386,-0.09686917,-0.8401146,-0.51830095,0.15991051,-0.5154977,0.8546552,0.061857257,-0.16872902,-0.030466286,-0.98519164,,-0.005946504313152873,0.028960248278341913,0.12527994705,0.00020968994348452436,0.004099094992963213,0.002701689659508964,0.0,,-1.505708951220427,0.15756691883280266,0.10738855247000001,1.3977931632678393,-0.3881842958336163,2.1242521411924566,-0.10748039551635546
3.0135336799994548,,0.049725607,-0.06285266,0.089255884,0.28198305,-0.8178945,-0.50153154,-0.95934474,-0.24687982,-0.1367759,-0.011949782,0.5197105,-0.854259,,-0.04909675,-0.07427099,0.32572186,-0.016326742,0.58557725,-0.810452,-0.99948746,-0.03187594,-0.0028966442,-0.027530119,0.8099896,0.5857979,,0.08626637,-0.07653386,-0.09686917,-0.8401146,-0.51830095,0.15991051,-0.5154977,0.8546552,0.061857257,-0.16872902,-0.030466286,-0.98519164,,-0.005938781580278648,0.028960248278341913,0.12527994705,0.00020968994348452436,0.004099094992963213,0.002701689659508964,0.0,,-1.5057012284875526,0.15756691883280266,0.10738855247000001,1.3977931632678393,-0.3881842958336163,2.1242521411924566,-0.10748039551635546
3.037685760999011,,0.049725607,-0.06285266,0.089255884,0.28198305,-0.8178945,-0.50153154,-0.95934474,-0.24687982,-0.1367759,-0.011949782,0.5197105,-0.854259,,-0.04909599,-0.07427113,0.32572174,-0.016329499,0.5855715,-0.81045604,-0.99948746,-0.031876307,-0.002893258,-0.027528588,0.80999374,0.5857922,,0.08626637,-0.07653386,-0.09686917,-0.8401146,-0.51830095,0.15991051,-0.5154977,0.8546552,0.061857257,-0.16872902,-0.030466286,-0.98519164,,-0.005938781580278648,0.028960248278341913,0.12527994705,0.00020968994348452436,0.004099094992963213,0.002701689659508964,0.0,,-1.5057012284875526,0.15755919609992844,0.10738855247000001,1.3977931632678393,-0.3881842958336163,2.1242521411924566,-0.10748039551635546
3.0660647559998324,,0.049725607,-0.06285266,0.089255884,0.28198305,-0.8178945,-0.50153154,-0.95934474,-0.24687982,-0.1367759,-0.011949782,0.5197105,-0.854259,,-0.04909599,-0.07427113,0.32572174,-0.016329499,0.5855715,-0.81045604,-0.99948746,-0.031876307,-0.002893258,-0.027528588,0.80999374,0.5857922,,0.08626637,-0.07653386,-0.09686917,-0.8401146,-0.51830095,0.15991051,-0.5154977,0.8546552,0.061857257,-0.16872902,-0.030466286,-0.98519164,,-0.005938781580278648,0.028960248278341913,0.12527994705,0.00020968994348452436,0.004099094992963213,0.002701689659508964,0.0,,-1.5057012284875526,0.15755919609992844,0.10738855247000001,1.3977931632678393,-0.3881842958336163,2.1242521411924566,-0.10748039551635546
3.093255499999941,,0.04972636,-0.06285243,0.08925541,0.28198323,-0.8178983,-0.5015253,-0.95934474,-0.24688113,-0.136774,-0.011949916,0.51970387,-0.85426307,,-0.049096584,-0.0742703,0.32572213,-0.016326712,0.5855758,-0.81045306,-0.9994873,-0.03188196,-0.0029010512,-0.02753767,0.80999047,0.5857964,,0.08626637,-0.07653386,-0.09686917,-0.8401146,-0.51830095,0.15991051,-0.5154977,0.8546552,0.061857257,-0.16872902,-0.030466286,-0.98519164,,-0.005946504313152873,0.028960248278341913,0.12527994705,0.00020968994348452436,0.004099094992963213,0.002701689659508964,0.0,,-1.505708951220427,0.15756691883280266,0.10738855247000001,1.3977931632678393,-0.3881842958336163,2.1242521411924566,-0.10748039551635546
3.119768517999546,,0.04972636,-0.06285243,0.08925541,0.28198323,-0.8178983,-0.5015253,-0.95934474,-0.24688113,-0.136774,-0.011949916,0.51970387,-0.85426307,,-0.049096584,-0.0742703,0.32572213,-0.016326712,0.5855758,-0.81045306,-0.9994873,-0.03188196,-0.0029010512,-0.02753767,0.80999047,0.5857964,,0.08626637,-0.07653386,-0.09686917,-0.8401146,-0.51830095,0.15991051,-0.5154977,0.8546552,0.061857257,-0.16872902,-0.030466286,-0.98519164,,-0.005946504313152873,0.028960248278341913,0.12527994705,0.00020968994348452436,0.004099094992963213,0.002701689659508964,0.0,,-1.505708951220427,0.15756691883280266,0.10738855247000001,1.3977931632678393,-0.3881842958336163,2.1242521411924566,-0.10748039551635546
3.1457406249992346,,0.04972636,-0.06285243,0.08925541,0.28198323,-0.8178983,-0.5015253,-0.95934474,-0.24688113,-0.136774,-0.011949916,0.51970387,-0.85426307,,-0.04909675,-0.07427099,0.32572186,-0.016326742,0.58557725,-0.810452,-0.99948746,-0.03187594,-0.0028966442,-0.027530119,0.8099896,0.5857979,,0.08626637,-0.07653386,-0.09686917,-0.8401146,-0.51830095,0.15991051,-0.5154977,0.8546552,0.061857257,-0.16872902,-0.030466286,-0.98519164,,-0.005946504313152873,0.028960248278341913,0.12527994705,0.00020968994348452436,0.004099094992963213,0.002701689659508964,0.0,,-1.5057012284875526,0.15756691883280266,0.10738855247000001,1.3977931632678393,-0.3881842958336163,2.1242521411924566,-0.10748039551635546
3.1711901529997704,,0.049725607,-0.06285266,0.089255884,0.28198305,-0.8178945,-0.50153154,-0.95934474,-0.24687982,-0.1367759,-0.011949782,0.5197105,-0.854259,,-0.04909599,-0.07427113,0.32572174,-0.016329499,0.5855715,-0.81045604,-0.99948746,-0.031876307,-0.002893258,-0.027528588,0.80999374,0.5857922,,0.08626637,-0.07653386,-0.09686917,-0.8401146,-0.51830095,0.15991051,-0.5154977,0.8546552,0.061857257,-0.16872902,-0.030466286,-0.98519164,,-0.005938781580278648,0.028960248278341913,0.12527994705,0.00020968994348452436,0.004099094992963213,0.002701689659508964,0.0,,-1.5057012284875526,0.15755919609992844,0.10738855247000001,1.3977931632678393,-0.3881842958336163,2.1242521411924566,-0.10748039551635546
3.200632232999851,,0.049725607,-0.06285266,0.089255884,0.28198305,-0.8178945,-0.50153154,-0.95934474,-0.24687982,-0.1367759,-0.011949782,0.5197105,-0.854259,,-0.04909599,-0.07427113,0.32572174,-0.016329499,0.5855715,-0.81045604,-0.99948746,-0.031876307,-0.002893258,-0.027528588,0.80999374,0.5857922,,0.08626637,-0.07653386,-0.09686917,-0.8401146,-0.51830095,0.15991051,-0.5154977,0.8546552,0.061857257,-0.16872902,-0.030466286,-0.98519164,,-0.005938781580278648,0.028960248278341913,0.12527994705,0.00020968994348452436,0.004099094992963213,0.002701689659508964,0.0,,-1.5057012284875526,0.15755919609992844,0.10738855247000001,1.3977931632678393,-0.3881842958336163,2.1242521411924566,-0.10748039551635546
3.224299041999984,,0.04972636,-0.06285243,0.08925541,0.28198323,-0.8178983,-0.5015253,-0.95934474,-0.24688113,-0.136774,-0.011949916,0.51970387,-0.85426307,,-0.04909675,-0.07427099,0.32572186,-0.016326742,0.58557725,-0.810452,-0.99948746,-0.03187594,-0.0028966442,-0.027530119,0.8099896,0.5857979,,0.08626637,-0.07653386,-0.09686917,-0.8401146,-0.51830095,0.15991051,-0.5154977,0.8546552,0.061857257,-0.16872902,-0.030466286,-0.98519164,,-0.005946504313152873,0.028960248278341913,0.12527994705,0.00020968994348452436,0.004099094992963213,0.002701689659508964,0.0,,-1.5057012284875526,0.15756691883280266,0.10738855247000001,1.3977931632678393,-0.3881842958336163,2.1242521411924566,-0.10748039551635546
3.2517312449999736,,0.04972485,-0.06285289,0.08925636,0.2821546,-0.81783116,-0.5015384,-0.959293,-0.24707957,-0.13677856,-0.012058142,0.5197153,-0.8542546,,-0.04909675,-0.07427099,0.32572186,-0.016326742,0.58557725,-0.810452,-0.99948746,-0.03187594,-0.0028966442,-0.027530119,0.8099896,0.5857979,,0.08626637,-0.07653386,-0.09686917,-0.8401146,-0.51830095,0.15991051,-0.5154977,0.8546552,0.061857257,-0.16872902,-0.030466286,-0.98519164,,-0.005931058847404424,0.028960248278341913,0.12527994705,0.0,0.004099094992963213,0.002701689659508964,0.0,,-1.5057012284875526,0.15756691883280266,0.10738855247000001,1.3977931632678393,-0.3881842958336163,2.1242521411924566,-0.10748039551635546
3.2789319709991105,,0.049725335,-0.06285179,0.0892559,0.28232276,-0.81777525,-0.5015348,-0.9592421,-0.24728191,-0.13677004,-0.012173372,0.51970685,-0.85425806,,-0.049096584,-0.0742703,0.32572213,-0.016326712,0.5855758,-0.81045306,-0.9994873,-0.03188196,-0.0029010512,-0.02753767,0.80999047,0.5857964,,0.08626637,-0.07653386,-0.09686917,-0.8401146,-0.51830095,0.15991051,-0.5154977,0.8546552,0.061857257,-0.16872902,-0.030466286,-0.98519164,,-0.005938781580278648,0.028967971011216134,0.12527994705,-0.00020968994348452436,0.004099094992963213,0.002701689659508964,0.0,,-1.505708951220427,0.15756691883280266,0.10738855247000001,1.3977931632678393,-0.3881842958336163,2.1242521411924566,-0.10748039551635546
3.3049035989988624,,0.049725335,-0.06285179,0.0892559,0.28232276,-0.81777525,-0.5015348,-0.9592421,-0.24728191,-0.13677004,-0.012173372,0.51970685,-0.85425806,,-0.049096584,-0.0742703,0.32572213,-0.016326712,0.5855758,-0.81045306,-0.9994873,-0.03188196,-0.0029010512,-0.02753767,0.80999047,0.5857964,,0.08626637,-0.07653386,-0.09686917,-0.8401146,-0.51830095,0.15991051,-0.5154977,0.8546552,0.061857257,-0.16872902,-0.030466286,-0.98519164,,-0.005938781580278648,0.028967971011216134,0.12527994705,-0.00020968994348452436,0.004099094992963213,0.002701689659508964,0.0,,-1.505708951220427,0.15756691883280266,0.10738855247000001,1.3977931632678393,-0.3881842958336163,2.1242521411924566,-0.10748039551635546
3.3354354629991576,,0.049725596,-0.062852666,0.089255884,0.28232655,-0.8177753,-0.5015326,-0.959241,-0.24728188,-0.13677743,-0.01216677,0.51970685,-0.8542582,,-0.049096584,-0.0742703,0.32572213,-0.016326712,0.5855758,-0.81045306,-0.9994873,-0.03188196,-0.0029010512,-0.02753767,0.80999047,0.5857964,,0.08626637,-0.07653386,-0.09686917,-0.8401146,-0.51830095,0.15991051,-0.5154977,0.8546552,0.061857257,-0.16872902,-0.030466286,-0.98519164,,-0.005938781580278648,0.028960248278341913,0.12527994705,-0.00020968994348452436,0.004099094992963213,0.002701689659508964,0.0,,-1.505708951220427,0.15756691883280266,0.10738855247000001,1.3977931632678393,-0.3881842958336163,2.1242521411924566,-0.10748039551635546
3.3574624299999414,,0.0496561,-0.062889494,0.089229286,0.2822784,-0.81778944,-0.5015367,-0.95925486,-0.24725954,-0.13672137,-0.012200453,0.5196953,-0.85426474,,-0.049163,-0.07427536,0.3256793,-0.01633594,0.58562297,-0.81041884,-0.9994883,-0.031856228,-0.0028729625,-0.027499393,0.8099574,0.5858439,,0.08624832,-0.07655398,-0.09687215,-0.840131,-0.5182734,0.1599139,-0.5154696,0.8546722,0.061858453,-0.16873352,-0.030461514,-0.98519105,,-0.005946504313152873,0.028960248278341913,0.12527994705,-0.00020968994348452436,0.004099094992963213,0.002701689659508964,0.0,,-1.5057012284875526,0.15756691883280266,0.10738855247000001,1.3977931632678393,-0.3881842958336163,2.1242521411924566,-0.10748039551635546
3.38721093499953,,0.0496561,-0.062889494,0.089229286,0.2822784,-0.81778944,-0.5015367,-0.95925486,-0.24725954,-0.13672137,-0.012200453,0.5196953,-0.85426474,,-0.049162254,-0.07427549,0.32567918,-0.016338667,0.5856173,-0.8104229,-0.9994883,-0.031856626,-0.002869632,-0.02749785,0.8099615,0.58583826,,0.08624832,-0.07655398,-0.09687215,-0.840131,-0.5182734,0.1599139,-0.5154696,0.8546722,0.061858453,-0.16873352,-0.030461514,-0.98519105,,-0.005946504313152873,0.028960248278341913,0.12527994705,-0.00020968994348452436,0.004099094992963213,0.002701689659508964,0.0,,-1.5057012284875526,0.15755919609992844,0.10738855247000001,1.3977931632678393,-0.3881842958336163,2.1242521411924566,-0.10748039551635546
3.4112535919994116,,0.0496561,-0.062889494,0.089229286,0.2822784,-0.81778944,-0.5015367,-0.95925486,-0.24725954,-0.13672137,-0.012200453,0.5196953,-0.85426474,,-0.049162835,-0.07427466,0.32567954,-0.01633585,0.5856215,-0.8104199,-0.99948806,-0.031862307,-0.0028774291,-0.027506925,0.8099582,0.58584243,,0.08624832,-0.07655398,-0.09687215,-0.840131,-0.5182734,0.1599139,-0.5154696,0.8546722,0.061858453,-0.16873352,-0.030461514,-0.98519105,,-0.005946504313152873,0.028960248278341913,0.12527994705,-0.00020968994348452436,0.004099094992963213,0.002701689659508964,0.0,,-1.505708951220427,0.15756691883280266,0.10738855247000001,1.3977931632678393,-0.3881842958336163,2.1242521411924566,-0.10748039551635546
3.438212310999006,,0.04965535,-0.062889725,0.08922975,0.2822782,-0.8177857,-0.5015431,-0.959255,-0.24725825,-0.1367233,-0.012200324,0.5197019,-0.85426074,,-0.049162835,-0.07427466,0.32567954,-0.01633585,0.5856215,-0.8104199,-0.99948806,-0.031862307,-0.0028774291,-0.027506925,0.8099582,0.58584243,,0.08624832,-0.07655398,-0.09687215,-0.840131,-0.5182734,0.1599139,-0.5154696,0.8546722,0.061858453,-0.16873352,-0.030461514,-0.98519105,,-0.005938781580278648,0.028960248278341913,0.12527994705,-0.00020968994348452436,0.004099094992963213,0.002701689659508964,0.0,,-1.505708951220427,0.15756691883280266,0.10738855247000001,1.3977931632678393,-0.3881842958336163,2.1242521411924566,-0.10748039551635546
3.4606371899990336,,0.04965535,-0.062889725,0.08922975,0.2822782,-0.8177857,-0.5015431,-0.959255,-0.24725825,-0.1367233,-0.012200324,0.5197019,-0.85426074,,-0.049162835,-0.07427466,0.32567954,-0.01633585,0.5856215,-0.8104199,-0.99948806,-0.031862307,-0.0028774291,-0.027506925,0.8099582,0.58584243,,0.08624832,-0.07655398,-0.09687215,-0.840131,-0.5182734,0.1599139,-0.5154696,0.8546722,0.061858453,-0.16873352,-0.030461514,-0.98519105,,-0.005938781580278648,0.028960248278341913,0.12527994705,-0.00020968994348452436,0.004099094992963213,0.002701689659508964,0.0,,-1.505708951220427,0.15756691883280266,0.10738855247000001,1.3977931632678393,-0.3881842958336163,2.1242521411924566,-0.10748039551635546
3.488323865998609,,0.04965535,-0.062889725,0.08922975,0.2822782,-0.8177857,-0.5015431,-0.959255,-0.24725825,-0.1367233,-0.012200324,0.5197019,-0.85426074,,-0.049163178,-0.074276045,0.325679,-0.016335998,0.58562446,-0.81041783,-0.99948853,-0.03185018,-0.0028685518,-0.027491849,0.8099566,0.5858454,,0.08624832,-0.07655398,-0.09687215,-0.840131,-0.5182734,0.1599139,-0.5154696,0.8546722,0.061858453,-0.16873352,-0.030461514,-0.98519105,,-0.005938781580278648,0.028960248278341913,0.12527994705,-0.00020968994348452436,0.004099094992963213,0.002701689659508964,0.0,,-1.5056935057546785,0.15756691883280266,0.10738855247000001,1.3977931632678393,-0.3881842958336163,2.1242521411924566,-0.10748039551635546
3.5130636149988277,,0.0496561,-0.062889494,0.089229286,0.2822784,-0.81778944,-0.5015367,-0.95925486,-0.24725954,-0.13672137,-0.012200453,0.5196953,-0.85426474,,-0.049162254,-0.07427549,0.32567918,-0.016338667,0.5856173,-0.8104229,-0.9994883,-0.031856626,-0.002869632,-0.02749785,0.8099615,0.58583826,,0.08624832,-0.07655398,-0.09687215,-0.840131,-0.5182734,0.1599139,-0.5154696,0.8546722,0.061858453,-0.16873352,-0.030461514,-0.98519105,,-0.005946504313152873,0.028960248278341913,0.12527994705,-0.00020968994348452436,0.004099094992963213,0.002701689659508964,0.0,,-1.5057012284875526,0.15755919609992844,0.10738855247000001,1.3977931632678393,-0.3881842958336163,2.1242521411924566,-0.10748039551635546
3.5393395379996946,,0.0496561,-0.062889494,0.089229286,0.2822784,-0.81778944,-0.5015367,-0.95925486,-0.24725954,-0.13672137,-0.012200453,0.5196953,-0.85426474,,-0.049163,-0.07427536,0.3256793,-0.01633594,0.58562297,-0.81041884,-0.9994883,-0.031856228,-0.0028729625,-0.027499393,0.8099574,0.5858439,,0.08624832,-0.07655398,-0.09687215,-0.840131,-0.5182734,0.1599139,-0.5154696,0.8546722,0.061858453,-0.16873352,-0.030461514,-0.98519105,,-0.005946504313152873,0.028960248278341913,0.12527994705,-0.00020968994348452436,0.004099094992963213,0.002701689659508964,0.0,,-1.5057012284875526,0.15756691883280266,0.10738855247000001,1.3977931632678393,-0.3881842958336163,2.1242521411924566,-0.10748039551635546
3.568028673998924,,0.04965535,-0.062889725,0.08922975,0.2822782,-0.8177857,-0.5015431,-0.959255,-0.24725825,-0.1367233,-0.012200324,0.5197019,-0.85426074,,-0.04916267,-0.07427396,0.32567984,-0.016335763,0.58562005,-0.810421,-0.99948794,-0.031868357,-0.0028818361,-0.02751445,0.80995905,0.58584094,,0.08624832,-0.07655398,-0.09687215,-0.840131,-0.5182734,0.1599139,-0.5154696,0.8546722,0.061858453,-0.16873352,-0.030461514,-0.98519105,,-0.005938781580278648,0.028960248278341913,0.12527994705,-0.00020968994348452436,0.004099094992963213,0.002701689659508964,0.0,,-1.505716673953301,0.15756691883280266,0.10738855247000001,1.3977931632678393,-0.3881842958336163,2.1242521411924566,-0.10748039551635546
3.589650335999977,,0.04965535,-0.062889725,0.08922975,0.2822782,-0.8177857,-0.5015431,-0.959255,-0.24725825,-0.1367233,-0.012200324,0.5197019,-0.85426074,,-0.04916267,-0.07427396,0.32567984,-0.016335763,0.58562005,-0.810421,-0.99948794,-0.031868357,-0.0028818361,-0.02751445,0.80995905,0.58584094,,0.08624832,-0.07655398,-0.09687215,-0.840131,-0.5182734,0.1599139,-0.5154696,0.8546722,0.061858453,-0.16873352,-0.030461514,-0.98519105,,-0.005938781580278648,0.028960248278341913,0.12527994705,-0.00020968994348452436,0.004099094992963213,0.002701689659508964,0.0,,-1.505716673953301,0.15756691883280266,0.10738855247000001,1.3977931632678393,-0.3881842958336163,2.1242521411924566,-0.10748039551635546
3.618583616998876,,0.0496561,-0.062889494,0.089229286,0.2822784,-0.81778944,-0.5015367,-0.95925486,-0.24725954,-0.13672137,-0.012200453,0.5196953,-0.85426474,,-0.049163,-0.07427536,0.3256793,-0.01633594,0.58562297,-0.81041884,-0.9994883,-0.031856228,-0.0028729625,-0.027499393,0.8099574,0.5858439,,0.08624832,-0.07655398,-0.09687215,-0.840131,-0.5182734,0.1599139,-0.5154696,0.8546722,0.061858453,-0.16873352,-0.030461514,-0.98519105,,-0.005946504313152873,0.028960248278341913,0.12527994705,-0.00020968994348452436,0.004099094992963213,0.002701689659508964,0.0,,-1.5057012284875526,0.15756691883280266,0.10738855247000001,1.3977931632678393,-0.3881842958336163,2.1242521411924566,-0.10748039551635546
