AlexandreBanks6/ExpertPlaybackApp/resources/Motions/Motion_Best3.csv
Time,si_T_psm1,Tx,Ty,Tz,R00,R01,R02,R10,R11,R12,R20,R21,R22,si_T_psm3,Tx,Ty,Tz,R00,R01,R02,R10,R11,R12,R20,R21,R22,si_T_ecm,Tx,Ty,Tz,R00,R01,R02,R10,R11,R12,R20,R21,R22,joint_vars_psm1,q1,q2,q3,q4,q5,q6,jaw,joint_vars_psm3,q1,q2,q3,q4,q5,q6,jaw
lci_T_si
0,-0.08832443505525589,-0.08832443505525589,-0.08832443505525589,0.9995988011360168,-0.015390408225357533,0.023777158930897713,-0.012642222456634045,-0.993662416934967,-0.11169206351041794,0.02534545585513115,0.11134666204452515,-0.9934583902359009
rci_T_si
0,-0.09848477691411972,-0.09848477691411972,-0.09848477691411972,0.9948555827140808,-0.042976416647434235,-0.09173551946878433,-0.028175074607133865,-0.9872069954872131,0.15693476796150208,-0.09730643779039383,-0.15354277193546295,-0.983339250087738
ecm_T_lc
0,0.8263736367225647,0.8995904326438904,-4.471183776855469,-0.8282248973846436,-0.5414077639579773,0.14464117586612701,0.5543623566627502,-0.8293195366859436,0.07008121907711029,0.08201123774051666,0.13822662830352783,0.9869992733001709
ecm_T_rc
0,-0.10746905207633972,0.019146086648106575,-2.6037304401397705,-0.3453751504421234,0.9347154498100281,0.08380301296710968,-0.9384632110595703,-0.34383708238601685,-0.03260094299912453,-0.00165802170522511,-0.08990559726953506,0.9959489107131958
0.023587408999901527,,3.98340106010437,-1.659959316253662,-1.5712625980377197,0.071562260389328,0.5367103219032288,-0.840726375579834,-0.2634998559951782,0.8231156468391418,0.5030390024185181,0.9620012640953064,0.18553268909454346,0.2003270983695984,,2.015472888946533,1.255326747894287,-4.3195343017578125,-0.11333362013101578,-0.8458232879638672,-0.5212852954864502,0.9163572788238525,0.11378516256809235,-0.3838517963886261,0.3839852213859558,-0.5211867690086365,0.7621806859970093,,0.42663198709487915,1.8156121969223022,4.143588542938232,-0.8345064520835876,-0.5494887232780457,-0.04075491055846214,-0.52508944272995,0.8155028820037842,-0.24338409304618835,0.16697260737419128,-0.18170565366744995,-0.9690734148025513,,-0.019075150199334538,0.023060080362434385,0.13600156164000002,1.04928847719656,-1.2144252099152346,-0.5362933251733146,0.6327949122041978,,-1.4817221429130856,-0.017576940021734985,0.11022872386000002,1.3956962638329942,-0.3517023503962437,2.119578934128665,-0.10437685825980436
0.048171888000069885,,3.98340106010437,-1.659959316253662,-1.5712625980377197,0.071562260389328,0.5367103219032288,-0.840726375579834,-0.2634998559951782,0.8231156468391418,0.5030390024185181,0.9620012640953064,0.18553268909454346,0.2003270983695984,,2.015489339828491,1.2553514242172241,-4.319517135620117,-0.1133374273777008,-0.8458208441734314,-0.5212883353233337,0.9163549542427063,0.11378631740808487,-0.38385701179504395,0.38398969173431396,-0.5211904048919678,0.7621760368347168,,0.42663198709487915,1.8156121969223022,4.143588542938232,-0.8345064520835876,-0.5494887232780457,-0.04075491055846214,-0.52508944272995,0.8155028820037842,-0.24338409304618835,0.16697260737419128,-0.18170565366744995,-0.9690734148025513,,-0.019075150199334538,0.023060080362434385,0.13600156164000002,1.04928847719656,-1.2144252099152346,-0.5362933251733146,0.6327949122041978,,-1.4817221429130856,-0.01758466275460921,0.11022872386000002,1.3956962638329942,-0.3517023503962437,2.119578934128665,-0.10437685825980436
0.07417303300007916,,3.98340106010437,-1.659959316253662,-1.5712625980377197,0.071562260389328,0.5367103219032288,-0.840726375579834,-0.2634998559951782,0.8231156468391418,0.5030390024185181,0.9620012640953064,0.18553268909454346,0.2003270983695984,,2.015489339828491,1.2553514242172241,-4.319517135620117,-0.1133374273777008,-0.8458208441734314,-0.5212883353233337,0.9163549542427063,0.11378631740808487,-0.38385701179504395,0.38398969173431396,-0.5211904048919678,0.7621760368347168,,0.42663198709487915,1.8156121969223022,4.143588542938232,-0.8345064520835876,-0.5494887232780457,-0.04075491055846214,-0.52508944272995,0.8155028820037842,-0.24338409304618835,0.16697260737419128,-0.18170565366744995,-0.9690734148025513,,-0.019075150199334538,0.023060080362434385,0.13600156164000002,1.04928847719656,-1.2144252099152346,-0.5362933251733146,0.6327949122041978,,-1.4817221429130856,-0.01758466275460921,0.11022872386000002,1.3956962638329942,-0.3517023503962437,2.119578934128665,-0.10437685825980436
0.09633209399999032,,3.98340106010437,-1.659959316253662,-1.5712625980377197,0.071562260389328,0.5367103219032288,-0.840726375579834,-0.2634998559951782,0.8231156468391418,0.5030390024185181,0.9620012640953064,0.18553268909454346,0.2003270983695984,,2.015489339828491,1.2553514242172241,-4.319517135620117,-0.1133374273777008,-0.8458208441734314,-0.5212883353233337,0.9163549542427063,0.11378631740808487,-0.38385701179504395,0.38398969173431396,-0.5211904048919678,0.7621760368347168,,0.42663198709487915,1.8156121969223022,4.143588542938232,-0.8345064520835876,-0.5494887232780457,-0.04075491055846214,-0.52508944272995,0.8155028820037842,-0.24338409304618835,0.16697260737419128,-0.18170565366744995,-0.9690734148025513,,-0.019075150199334538,0.023060080362434385,0.13600156164000002,1.04928847719656,-1.2144252099152346,-0.5362933251733146,0.6327949122041978,,-1.4817221429130856,-0.01758466275460921,0.11022872386000002,1.3956962638329942,-0.3517023503962437,2.119578934128665,-0.10437685825980436
0.12099463200001992,,3.98340106010437,-1.659959316253662,-1.5712625980377197,0.071562260389328,0.5367103219032288,-0.840726375579834,-0.2634998559951782,0.8231156468391418,0.5030390024185181,0.9620012640953064,0.18553268909454346,0.2003270983695984,,2.015489339828491,1.2553514242172241,-4.319517135620117,-0.1133374273777008,-0.8458208441734314,-0.5212883353233337,0.9163549542427063,0.11378631740808487,-0.38385701179504395,0.38398969173431396,-0.5211904048919678,0.7621760368347168,,0.42663198709487915,1.8156121969223022,4.143588542938232,-0.8345064520835876,-0.5494887232780457,-0.04075491055846214,-0.52508944272995,0.8155028820037842,-0.24338409304618835,0.16697260737419128,-0.18170565366744995,-0.9690734148025513,,-0.019075150199334538,0.023060080362434385,0.13600156164000002,1.04928847719656,-1.2144252099152346,-0.5362933251733146,0.6327949122041978,,-1.4817221429130856,-0.01758466275460921,0.11022872386000002,1.3956962638329942,-0.3517023503962437,2.119578934128665,-0.10437685825980436
0.149421355999948,,3.983391761779785,-1.6599611043930054,-1.5712900161743164,0.07156956195831299,0.5367115139961243,-0.8407249450683594,-0.2634980082511902,0.8231160640716553,0.5030392408370972,0.9620012044906616,0.18552713096141815,0.20033247768878937,,2.0154926776885986,1.2553082704544067,-4.319530010223389,-0.1133367046713829,-0.8458204865455627,-0.5212891101837158,0.9163591861724854,0.11378148198127747,-0.38384824991226196,0.3839797079563141,-0.5211920738220215,0.762179970741272,,0.42663198709487915,1.8156121969223022,4.143588542938232,-0.8345064520835876,-0.5494887232780457,-0.04075491055846214,-0.52508944272995,0.8155028820037842,-0.24338409304618835,0.16697260737419128,-0.18170565366744995,-0.9690734148025513,,-0.019067427466460313,0.023060080362434385,0.13600156164000002,1.04928847719656,-1.2144252099152346,-0.5362933251733146,0.6327949122041978,,-1.4817298656459599,-0.017576940021734985,0.11022872386000002,1.3956962638329942,-0.3517023503962437,2.119578934128665,-0.10437685825980436
0.18567134399995666,,3.983391761779785,-1.6599611043930054,-1.5712900161743164,0.07156956195831299,0.5367115139961243,-0.8407249450683594,-0.2634980082511902,0.8231160640716553,0.5030392408370972,0.9620012044906616,0.18552713096141815,0.20033247768878937,,2.0155091285705566,1.2553331851959229,-4.319513320922852,-0.11334047466516495,-0.8458181619644165,-0.5212920904159546,0.9163568019866943,0.11378259211778641,-0.3838534951210022,0.38398411870002747,-0.521195650100708,0.7621752619743347,,0.42663198709487915,1.8156121969223022,4.143588542938232,-0.8345064520835876,-0.5494887232780457,-0.04075491055846214,-0.52508944272995,0.8155028820037842,-0.24338409304618835,0.16697260737419128,-0.18170565366744995,-0.9690734148025513,,-0.019067427466460313,0.023060080362434385,0.13600156164000002,1.04928847719656,-1.2144252099152346,-0.5362933251733146,0.6327949122041978,,-1.4817298656459599,-0.01758466275460921,0.11022872386000002,1.3956962638329942,-0.3517023503962437,2.119578934128665,-0.10437685825980436
0.2151629550000962,,3.98340106010437,-1.659959316253662,-1.5712625980377197,0.071562260389328,0.5367103219032288,-0.840726375579834,-0.2634998559951782,0.8231156468391418,0.5030390024185181,0.9620012640953064,0.18553268909454346,0.2003270983695984,,2.0155091285705566,1.2553331851959229,-4.319513320922852,-0.11334047466516495,-0.8458181619644165,-0.5212920904159546,0.9163568019866943,0.11378259211778641,-0.3838534951210022,0.38398411870002747,-0.521195650100708,0.7621752619743347,,0.42663198709487915,1.8156121969223022,4.143588542938232,-0.8345064520835876,-0.5494887232780457,-0.04075491055846214,-0.52508944272995,0.8155028820037842,-0.24338409304618835,0.16697260737419128,-0.18170565366744995,-0.9690734148025513,,-0.019075150199334538,0.023060080362434385,0.13600156164000002,1.04928847719656,-1.2144252099152346,-0.5362933251733146,0.6327949122041978,,-1.4817298656459599,-0.01758466275460921,0.11022872386000002,1.3956962638329942,-0.3517023503962437,2.119578934128665,-0.10437685825980436
0.23798232700005428,,3.98340106010437,-1.659959316253662,-1.5712625980377197,0.071562260389328,0.5367103219032288,-0.840726375579834,-0.2634998559951782,0.8231156468391418,0.5030390024185181,0.9620012640953064,0.18553268909454346,0.2003270983695984,,2.015489339828491,1.2553514242172241,-4.319517135620117,-0.1133374273777008,-0.8458208441734314,-0.5212883353233337,0.9163549542427063,0.11378631740808487,-0.38385701179504395,0.38398969173431396,-0.5211904048919678,0.7621760368347168,,0.42663198709487915,1.8156121969223022,4.143588542938232,-0.8345064520835876,-0.5494887232780457,-0.04075491055846214,-0.52508944272995,0.8155028820037842,-0.24338409304618835,0.16697260737419128,-0.18170565366744995,-0.9690734148025513,,-0.019075150199334538,0.023060080362434385,0.13600156164000002,1.04928847719656,-1.2144252099152346,-0.5362933251733146,0.6327949122041978,,-1.4817221429130856,-0.01758466275460921,0.11022872386000002,1.3956962638329942,-0.3517023503962437,2.119578934128665,-0.10437685825980436
0.26695239300011053,,3.98340106010437,-1.659959316253662,-1.5712625980377197,0.071562260389328,0.5367103219032288,-0.840726375579834,-0.2634998559951782,0.8231156468391418,0.5030390024185181,0.9620012640953064,0.18553268909454346,0.2003270983695984,,2.0155282020568848,1.255314588546753,-4.319509029388428,-0.11334358155727386,-0.8458154797554016,-0.5212957859039307,0.9163588285446167,0.11377890408039093,-0.3838499188423157,0.38397854566574097,-0.5212008357048035,0.7621744871139526,,0.42663198709487915,1.8156121969223022,4.143588542938232,-0.8345064520835876,-0.5494887232780457,-0.04075491055846214,-0.52508944272995,0.8155028820037842,-0.24338409304618835,0.16697260737419128,-0.18170565366744995,-0.9690734148025513,,-0.019075150199334538,0.023060080362434385,0.13600156164000002,1.04928847719656,-1.2144252099152346,-0.5362933251733146,0.6327949122041978,,-1.481737588378834,-0.01758466275460921,0.11022872386000002,1.3956962638329942,-0.3517023503962437,2.119578934128665,-0.10437685825980436
0.28862258699996346,,3.98340106010437,-1.659959316253662,-1.5712625980377197,0.071562260389328,0.5367103219032288,-0.840726375579834,-0.2634998559951782,0.8231156468391418,0.5030390024185181,0.9620012640953064,0.18553268909454346,0.2003270983695984,,2.0155091285705566,1.2553331851959229,-4.319513320922852,-0.11334047466516495,-0.8458181619644165,-0.5212920904159546,0.9163568019866943,0.11378259211778641,-0.3838534951210022,0.38398411870002747,-0.521195650100708,0.7621752619743347,,0.42663198709487915,1.8156121969223022,4.143588542938232,-0.8345064520835876,-0.5494887232780457,-0.04075491055846214,-0.52508944272995,0.8155028820037842,-0.24338409304618835,0.16697260737419128,-0.18170565366744995,-0.9690734148025513,,-0.019075150199334538,0.023060080362434385,0.13600156164000002,1.04928847719656,-1.2144252099152346,-0.5362933251733146,0.6327949122041978,,-1.4817298656459599,-0.01758466275460921,0.11022872386000002,1.3956962638329942,-0.3517023503962437,2.119578934128665,-0.10437685825980436
0.31606520700006513,,3.98340106010437,-1.659959316253662,-1.5712625980377197,0.071562260389328,0.5367103219032288,-0.840726375579834,-0.2634998559951782,0.8231156468391418,0.5030390024185181,0.9620012640953064,0.18553268909454346,0.2003270983695984,,2.0155091285705566,1.2553331851959229,-4.319513320922852,-0.11334047466516495,-0.8458181619644165,-0.5212920904159546,0.9163568019866943,0.11378259211778641,-0.3838534951210022,0.38398411870002747,-0.521195650100708,0.7621752619743347,,0.42663198709487915,1.8156121969223022,4.143588542938232,-0.8345064520835876,-0.5494887232780457,-0.04075491055846214,-0.52508944272995,0.8155028820037842,-0.24338409304618835,0.16697260737419128,-0.18170565366744995,-0.9690734148025513,,-0.019075150199334538,0.023060080362434385,0.13600156164000002,1.04928847719656,-1.2144252099152346,-0.5362933251733146,0.6327949122041978,,-1.4817298656459599,-0.01758466275460921,0.11022872386000002,1.3956962638329942,-0.3517023503962437,2.119578934128665,-0.10437685825980436
0.3370737969999027,,3.983391761779785,-1.6599611043930054,-1.5712900161743164,0.07156956195831299,0.5367115139961243,-0.8407249450683594,-0.2634980082511902,0.8231160640716553,0.5030392408370972,0.9620012044906616,0.18552713096141815,0.20033247768878937,,2.0150468349456787,1.2556414604187012,-4.319653034210205,-0.11350271850824356,-0.8458704352378845,-0.521172046661377,0.9163429737091064,0.11360084265470505,-0.3839404284954071,0.38396936655044556,-0.5211505889892578,0.7622135281562805,,0.42663198709487915,1.8156121969223022,4.143588542938232,-0.8345064520835876,-0.5494887232780457,-0.04075491055846214,-0.52508944272995,0.8155028820037842,-0.24338409304618835,0.16697260737419128,-0.18170565366744995,-0.9690734148025513,,-0.019067427466460313,0.023060080362434385,0.13600156164000002,1.04928847719656,-1.2144252099152346,-0.5362933251733146,0.6327949122041978,,-1.4817298656459599,-0.01758466275460921,0.11022872386000002,1.3959059537764786,-0.3517023503962437,2.119578934128665,-0.10437685825980436
0.36743842500004575,,3.983391761779785,-1.6599611043930054,-1.5712900161743164,0.07156956195831299,0.5367115139961243,-0.8407249450683594,-0.2634980082511902,0.8231160640716553,0.5030392408370972,0.9620012044906616,0.18552713096141815,0.20033247768878937,,2.014568328857422,1.255925178527832,-4.319809436798096,-0.11366111040115356,-0.8459249138832092,-0.5210490822792053,0.91633141040802,0.11341796815395355,-0.38402217626571655,0.3839501142501831,-0.5211018323898315,0.7622565031051636,,0.42663198709487915,1.8156121969223022,4.143588542938232,-0.8345064520835876,-0.5494887232780457,-0.04075491055846214,-0.52508944272995,0.8155028820037842,-0.24338409304618835,0.16697260737419128,-0.18170565366744995,-0.9690734148025513,,-0.019067427466460313,0.023060080362434385,0.13600156164000002,1.04928847719656,-1.2144252099152346,-0.5362933251733146,0.6327949122041978,,-1.4817298656459599,-0.017576940021734985,0.11022872386000002,1.3961156437199633,-0.3517023503962437,2.119578934128665,-0.10437685825980436
0.39054892100011784,,3.98340106010437,-1.659959316253662,-1.5712625980377197,0.071562260389328,0.5367103219032288,-0.840726375579834,-0.2634998559951782,0.8231156468391418,0.5030390024185181,0.9620012640953064,0.18553268909454346,0.2003270983695984,,2.0145654678344727,1.255968451499939,-4.319797039031982,-0.11366187036037445,-0.8459252119064331,-0.5210483074188232,0.9163270592689514,0.11342277377843857,-0.38403093814849854,0.38396012783050537,-0.5211002826690674,0.7622525095939636,,0.42663198709487915,1.8156121969223022,4.143588542938232,-0.8345064520835876,-0.5494887232780457,-0.04075491055846214,-0.52508944272995,0.8155028820037842,-0.24338409304618835,0.16697260737419128,-0.18170565366744995,-0.9690734148025513,,-0.019075150199334538,0.023060080362434385,0.13600156164000002,1.04928847719656,-1.2144252099152346,-0.5362933251733146,0.6327949122041978,,-1.4817221429130856,-0.01758466275460921,0.11022872386000002,1.3961156437199633,-0.3517023503962437,2.119578934128665,-0.10437685825980436
0.4163287080000373,,3.98340106010437,-1.659959316253662,-1.5712625980377197,0.071562260389328,0.5367103219032288,-0.840726375579834,-0.2634998559951782,0.8231156468391418,0.5030390024185181,0.9620012640953064,0.18553268909454346,0.2003270983695984,,2.0145654678344727,1.255968451499939,-4.319797039031982,-0.11366187036037445,-0.8459252119064331,-0.5210483074188232,0.9163270592689514,0.11342277377843857,-0.38403093814849854,0.38396012783050537,-0.5211002826690674,0.7622525095939636,,0.42663198709487915,1.8156121969223022,4.143588542938232,-0.8345064520835876,-0.5494887232780457,-0.04075491055846214,-0.52508944272995,0.8155028820037842,-0.24338409304618835,0.16697260737419128,-0.18170565366744995,-0.9690734148025513,,-0.019075150199334538,0.023060080362434385,0.13600156164000002,1.04928847719656,-1.2144252099152346,-0.5362933251733146,0.6327949122041978,,-1.4817221429130856,-0.01758466275460921,0.11022872386000002,1.3961156437199633,-0.3517023503962437,2.119578934128665,-0.10437685825980436
0.43991132199994354,,3.98340106010437,-1.659959316253662,-1.5712625980377197,0.071562260389328,0.5367103219032288,-0.840726375579834,-0.2634998559951782,0.8231156468391418,0.5030390024185181,0.9620012640953064,0.18553268909454346,0.2003270983695984,,2.0145654678344727,1.255968451499939,-4.319797039031982,-0.11366187036037445,-0.8459252119064331,-0.5210483074188232,0.9163270592689514,0.11342277377843857,-0.38403093814849854,0.38396012783050537,-0.5211002826690674,0.7622525095939636,,0.42663198709487915,1.8156121969223022,4.143588542938232,-0.8345064520835876,-0.5494887232780457,-0.04075491055846214,-0.52508944272995,0.8155028820037842,-0.24338409304618835,0.16697260737419128,-0.18170565366744995,-0.9690734148025513,,-0.019075150199334538,0.023060080362434385,0.13600156164000002,1.04928847719656,-1.2144252099152346,-0.5362933251733146,0.6327949122041978,,-1.4817221429130856,-0.01758466275460921,0.11022872386000002,1.3961156437199633,-0.3517023503962437,2.119578934128665,-0.10437685825980436
0.466840897000111,,3.983391761779785,-1.6599611043930054,-1.5712900161743164,0.07156956195831299,0.5367115139961243,-0.8407249450683594,-0.2634980082511902,0.8231160640716553,0.5030392408370972,0.9620012044906616,0.18552713096141815,0.20033247768878937,,2.014568328857422,1.255925178527832,-4.319809436798096,-0.11366111040115356,-0.8459249138832092,-0.5210490822792053,0.91633141040802,0.11341796815395355,-0.38402217626571655,0.3839501142501831,-0.5211018323898315,0.7622565031051636,,0.42663198709487915,1.8156121969223022,4.143588542938232,-0.8345064520835876,-0.5494887232780457,-0.04075491055846214,-0.52508944272995,0.8155028820037842,-0.24338409304618835,0.16697260737419128,-0.18170565366744995,-0.9690734148025513,,-0.019067427466460313,0.023060080362434385,0.13600156164000002,1.04928847719656,-1.2144252099152346,-0.5362933251733146,0.6327949122041978,,-1.4817298656459599,-0.017576940021734985,0.11022872386000002,1.3961156437199633,-0.3517023503962437,2.119578934128665,-0.10437685825980436
0.48838633900004425,,3.983391761779785,-1.6599611043930054,-1.5712900161743164,0.07156956195831299,0.5367115139961243,-0.8407249450683594,-0.2634980082511902,0.8231160640716553,0.5030392408370972,0.9620012044906616,0.18552713096141815,0.20033247768878937,,2.0145490169525146,1.2559435367584229,-4.3198137283325195,-0.11365809291601181,-0.8459276556968689,-0.5210453271865845,0.9163294434547424,0.11342163383960724,-0.3840257227420807,0.3839556574821472,-0.5210966467857361,0.7622572779655457,,0.42663198709487915,1.8156121969223022,4.143588542938232,-0.8345064520835876,-0.5494887232780457,-0.04075491055846214,-0.52508944272995,0.8155028820037842,-0.24338409304618835,0.16697260737419128,-0.18170565366744995,-0.9690734148025513,,-0.019067427466460313,0.023060080362434385,0.13600156164000002,1.04928847719656,-1.2144252099152346,-0.5362933251733146,0.6327949122041978,,-1.4817221429130856,-0.017576940021734985,0.11022872386000002,1.3961156437199633,-0.3517023503962437,2.119578934128665,-0.10437685825980436
0.5169504170000891,,3.98340106010437,-1.659959316253662,-1.5712625980377197,0.071562260389328,0.5367103219032288,-0.840726375579834,-0.2634998559951782,0.8231156468391418,0.5030390024185181,0.9620012640953064,0.18553268909454346,0.2003270983695984,,2.0145459175109863,1.2559866905212402,-4.319801330566406,-0.1136588454246521,-0.8459279537200928,-0.5210445523262024,0.9163252115249634,0.11342646926641464,-0.38403451442718506,0.38396570086479187,-0.5210950970649719,0.7622532844543457,,0.42663198709487915,1.8156121969223022,4.143588542938232,-0.8345064520835876,-0.5494887232780457,-0.04075491055846214,-0.52508944272995,0.8155028820037842,-0.24338409304618835,0.16697260737419128,-0.18170565366744995,-0.9690734148025513,,-0.019075150199334538,0.023060080362434385,0.13600156164000002,1.04928847719656,-1.2144252099152346,-0.5362933251733146,0.6327949122041978,,-1.4817144201802113,-0.01758466275460921,0.11022872386000002,1.3961156437199633,-0.3517023503962437,2.119578934128665,-0.10437685825980436
0.5402371899999707,,3.983391761779785,-1.6599611043930054,-1.5712900161743164,0.07156956195831299,0.5367115139961243,-0.8407249450683594,-0.2634980082511902,0.8231160640716553,0.5030392408370972,0.9620012044906616,0.18552713096141815,0.20033247768878937,,2.01458477973938,1.2559499740600586,-4.319793224334717,-0.11366491764783859,-0.8459224700927734,-0.5210520625114441,0.9163290858268738,0.1134190633893013,-0.3840273916721344,0.38395455479621887,-0.5211055278778076,0.7622517943382263,,0.42663198709487915,1.8156121969223022,4.143588542938232,-0.8345064520835876,-0.5494887232780457,-0.04075491055846214,-0.52508944272995,0.8155028820037842,-0.24338409304618835,0.16697260737419128,-0.18170565366744995,-0.9690734148025513,,-0.019075150199334538,0.023060080362434385,0.13600156164000002,1.04928847719656,-1.2144252099152346,-0.5362933251733146,0.6327949122041978,,-1.4817298656459599,-0.01758466275460921,0.11022872386000002,1.3961156437199633,-0.3517023503962437,2.119578934128665,-0.10437685825980436
0.5633057029999691,,3.98340106010437,-1.659959316253662,-1.5712625980377197,0.071562260389328,0.5367103219032288,-0.840726375579834,-0.2634998559951782,0.8231156468391418,0.5030390024185181,0.9620012640953064,0.18553268909454346,0.2003270983695984,,2.0145654678344727,1.255968451499939,-4.319797039031982,-0.11366187036037445,-0.8459252119064331,-0.5210483074188232,0.9163270592689514,0.11342277377843857,-0.38403093814849854,0.38396012783050537,-0.5211002826690674,0.7622525095939636,,0.42663198709487915,1.8156121969223022,4.143588542938232,-0.8345064520835876,-0.5494887232780457,-0.04075491055846214,-0.52508944272995,0.8155028820037842,-0.24338409304618835,0.16697260737419128,-0.18170565366744995,-0.9690734148025513,,-0.019075150199334538,0.023060080362434385,0.13600156164000002,1.04928847719656,-1.2144252099152346,-0.5362933251733146,0.6327949122041978,,-1.4817221429130856,-0.01758466275460921,0.11022872386000002,1.3961156437199633,-0.3517023503962437,2.119578934128665,-0.10437685825980436
0.5876863749999757,,3.98340106010437,-1.659959316253662,-1.5712625980377197,0.071562260389328,0.5367103219032288,-0.840726375579834,-0.2634998559951782,0.8231156468391418,0.5030390024185181,0.9620012640953064,0.18553268909454346,0.2003270983695984,,2.0145654678344727,1.255968451499939,-4.319797039031982,-0.11366187036037445,-0.8459252119064331,-0.5210483074188232,0.9163270592689514,0.11342277377843857,-0.38403093814849854,0.38396012783050537,-0.5211002826690674,0.7622525095939636,,0.42663198709487915,1.8156121969223022,4.143588542938232,-0.8345064520835876,-0.5494887232780457,-0.04075491055846214,-0.52508944272995,0.8155028820037842,-0.24338409304618835,0.16697260737419128,-0.18170565366744995,-0.9690734148025513,,-0.019075150199334538,0.023060080362434385,0.13600156164000002,1.04928847719656,-1.2144252099152346,-0.5362933251733146,0.6327949122041978,,-1.4817221429130856,-0.01758466275460921,0.11022872386000002,1.3961156437199633,-0.3517023503962437,2.119578934128665,-0.10437685825980436
0.6174313199999233,,3.983391761779785,-1.6599611043930054,-1.5712900161743164,0.07156956195831299,0.5367115139961243,-0.8407249450683594,-0.2634980082511902,0.8231160640716553,0.5030392408370972,0.9620012044906616,0.18552713096141815,0.20033247768878937,,2.01458477973938,1.2559499740600586,-4.319793224334717,-0.11366491764783859,-0.8459224700927734,-0.5210520625114441,0.9163290858268738,0.1134190633893013,-0.3840273916721344,0.38395455479621887,-0.5211055278778076,0.7622517943382263,,0.42663198709487915,1.8156121969223022,4.143588542938232,-0.8345064520835876,-0.5494887232780457,-0.04075491055846214,-0.52508944272995,0.8155028820037842,-0.24338409304618835,0.16697260737419128,-0.18170565366744995,-0.9690734148025513,,-0.019067427466460313,0.023060080362434385,0.13600156164000002,1.04928847719656,-1.2144252099152346,-0.5362933251733146,0.6327949122041978,,-1.4817298656459599,-0.01758466275460921,0.11022872386000002,1.3961156437199633,-0.3517023503962437,2.119578934128665,-0.10437685825980436
0.6421993020001082,,3.983391761779785,-1.6599611043930054,-1.5712900161743164,0.07156956195831299,0.5367115139961243,-0.8407249450683594,-0.2634980082511902,0.8231160640716553,0.5030392408370972,0.9620012044906616,0.18552713096141815,0.20033247768878937,,2.01458477973938,1.2559499740600586,-4.319793224334717,-0.11366491764783859,-0.8459224700927734,-0.5210520625114441,0.9163290858268738,0.1134190633893013,-0.3840273916721344,0.38395455479621887,-0.5211055278778076,0.7622517943382263,,0.42663198709487915,1.8156121969223022,4.143588542938232,-0.8345064520835876,-0.5494887232780457,-0.04075491055846214,-0.52508944272995,0.8155028820037842,-0.24338409304618835,0.16697260737419128,-0.18170565366744995,-0.9690734148025513,,-0.019067427466460313,0.023060080362434385,0.13600156164000002,1.04928847719656,-1.2144252099152346,-0.5362933251733146,0.6327949122041978,,-1.4817298656459599,-0.01758466275460921,0.11022872386000002,1.3961156437199633,-0.3517023503962437,2.119578934128665,-0.10437685825980436
0.6654316260000996,,3.983391761779785,-1.6599611043930054,-1.5712900161743164,0.07156956195831299,0.5367115139961243,-0.8407249450683594,-0.2634980082511902,0.8231160640716553,0.5030392408370972,0.9620012044906616,0.18552713096141815,0.20033247768878937,,2.014568328857422,1.255925178527832,-4.319809436798096,-0.11366111040115356,-0.8459249138832092,-0.5210490822792053,0.91633141040802,0.11341796815395355,-0.38402217626571655,0.3839501142501831,-0.5211018323898315,0.7622565031051636,,0.42663198709487915,1.8156121969223022,4.143588542938232,-0.8345064520835876,-0.5494887232780457,-0.04075491055846214,-0.52508944272995,0.8155028820037842,-0.24338409304618835,0.16697260737419128,-0.18170565366744995,-0.9690734148025513,,-0.019067427466460313,0.023060080362434385,0.13600156164000002,1.04928847719656,-1.2144252099152346,-0.5362933251733146,0.6327949122041978,,-1.4817298656459599,-0.017576940021734985,0.11022872386000002,1.3961156437199633,-0.3517023503962437,2.119578934128665,-0.10437685825980436
0.6863238670000555,,3.98340106010437,-1.659959316253662,-1.5712625980377197,0.071562260389328,0.5367103219032288,-0.840726375579834,-0.2634998559951782,0.8231156468391418,0.5030390024185181,0.9620012640953064,0.18553268909454346,0.2003270983695984,,2.014568328857422,1.255925178527832,-4.319809436798096,-0.11366111040115356,-0.8459249138832092,-0.5210490822792053,0.91633141040802,0.11341796815395355,-0.38402217626571655,0.3839501142501831,-0.5211018323898315,0.7622565031051636,,0.42663198709487915,1.8156121969223022,4.143588542938232,-0.8345064520835876,-0.5494887232780457,-0.04075491055846214,-0.52508944272995,0.8155028820037842,-0.24338409304618835,0.16697260737419128,-0.18170565366744995,-0.9690734148025513,,-0.019075150199334538,0.023060080362434385,0.13600156164000002,1.04928847719656,-1.2144252099152346,-0.5362933251733146,0.6327949122041978,,-1.4817298656459599,-0.017576940021734985,0.11022872386000002,1.3961156437199633,-0.3517023503962437,2.119578934128665,-0.10437685825980436
0.7131250469999486,,3.98340106010437,-1.659959316253662,-1.5712625980377197,0.071562260389328,0.5367103219032288,-0.840726375579834,-0.2634998559951782,0.8231156468391418,0.5030390024185181,0.9620012640953064,0.18553268909454346,0.2003270983695984,,2.0145654678344727,1.255968451499939,-4.319797039031982,-0.11366187036037445,-0.8459252119064331,-0.5210483074188232,0.9163270592689514,0.11342277377843857,-0.38403093814849854,0.38396012783050537,-0.5211002826690674,0.7622525095939636,,0.42663198709487915,1.8156121969223022,4.143588542938232,-0.8345064520835876,-0.5494887232780457,-0.04075491055846214,-0.52508944272995,0.8155028820037842,-0.24338409304618835,0.16697260737419128,-0.18170565366744995,-0.9690734148025513,,-0.019075150199334538,0.023060080362434385,0.13600156164000002,1.04928847719656,-1.2144252099152346,-0.5362933251733146,0.6327949122041978,,-1.4817221429130856,-0.01758466275460921,0.11022872386000002,1.3961156437199633,-0.3517023503962437,2.119578934128665,-0.10437685825980436
0.7378232730000036,,3.98340106010437,-1.659959316253662,-1.5712625980377197,0.071562260389328,0.5367103219032288,-0.840726375579834,-0.2634998559951782,0.8231156468391418,0.5030390024185181,0.9620012640953064,0.18553268909454346,0.2003270983695984,,2.0150275230407715,1.255660057067871,-4.319657325744629,-0.11349964141845703,-0.8458730578422546,-0.5211683511734009,0.9163410067558289,0.11360455304384232,-0.38394397497177124,0.3839748799800873,-0.5211453437805176,0.7622143030166626,,0.42663198709487915,1.8156121969223022,4.143588542938232,-0.8345064520835876,-0.5494887232780457,-0.04075491055846214,-0.52508944272995,0.8155028820037842,-0.24338409304618835,0.16697260737419128,-0.18170565366744995,-0.9690734148025513,,-0.019075150199334538,0.023060080362434385,0.13600156164000002,1.04928847719656,-1.2144252099152346,-0.5362933251733146,0.6327949122041978,,-1.4817221429130856,-0.01758466275460921,0.11022872386000002,1.3959059537764786,-0.3517023503962437,2.119578934128665,-0.10437685825980436
0.7619040449999375,,3.98340106010437,-1.659959316253662,-1.5712625980377197,0.071562260389328,0.5367103219032288,-0.840726375579834,-0.2634998559951782,0.8231156468391418,0.5030390024185181,0.9620012640953064,0.18553268909454346,0.2003270983695984,,2.015489339828491,1.2553514242172241,-4.319517135620117,-0.1133374273777008,-0.8458208441734314,-0.5212883353233337,0.9163549542427063,0.11378631740808487,-0.38385701179504395,0.38398969173431396,-0.5211904048919678,0.7621760368347168,,0.42663198709487915,1.8156121969223022,4.143588542938232,-0.8345064520835876,-0.5494887232780457,-0.04075491055846214,-0.52508944272995,0.8155028820037842,-0.24338409304618835,0.16697260737419128,-0.18170565366744995,-0.9690734148025513,,-0.019075150199334538,0.023060080362434385,0.13600156164000002,1.04928847719656,-1.2144252099152346,-0.5362933251733146,0.6327949122041978,,-1.4817221429130856,-0.01758466275460921,0.11022872386000002,1.3956962638329942,-0.3517023503962437,2.119578934128665,-0.10437685825980436
0.7841987780000181,,3.98340106010437,-1.659959316253662,-1.5712625980377197,0.071562260389328,0.5367103219032288,-0.840726375579834,-0.2634998559951782,0.8231156468391418,0.5030390024185181,0.9620012640953064,0.18553268909454346,0.2003270983695984,,2.0155091285705566,1.2553331851959229,-4.319513320922852,-0.11334047466516495,-0.8458181619644165,-0.5212920904159546,0.9163568019866943,0.11378259211778641,-0.3838534951210022,0.38398411870002747,-0.521195650100708,0.7621752619743347,,0.42663198709487915,1.8156121969223022,4.143588542938232,-0.8345064520835876,-0.5494887232780457,-0.04075491055846214,-0.52508944272995,0.8155028820037842,-0.24338409304618835,0.16697260737419128,-0.18170565366744995,-0.9690734148025513,,-0.019075150199334538,0.023060080362434385,0.13600156164000002,1.04928847719656,-1.2144252099152346,-0.5362933251733146,0.6327949122041978,,-1.4817298656459599,-0.01758466275460921,0.11022872386000002,1.3956962638329942,-0.3517023503962437,2.119578934128665,-0.10437685825980436
0.8089106390000325,,3.983391761779785,-1.6599611043930054,-1.5712900161743164,0.07156956195831299,0.5367115139961243,-0.8407249450683594,-0.2634980082511902,0.8231160640716553,0.5030392408370972,0.9620012044906616,0.18552713096141815,0.20033247768878937,,2.0154926776885986,1.2553082704544067,-4.319530010223389,-0.1133367046713829,-0.8458204865455627,-0.5212891101837158,0.9163591861724854,0.11378148198127747,-0.38384824991226196,0.3839797079563141,-0.5211920738220215,0.762179970741272,,0.42663198709487915,1.8156121969223022,4.143588542938232,-0.8345064520835876,-0.5494887232780457,-0.04075491055846214,-0.52508944272995,0.8155028820037842,-0.24338409304618835,0.16697260737419128,-0.18170565366744995,-0.9690734148025513,,-0.019067427466460313,0.023060080362434385,0.13600156164000002,1.04928847719656,-1.2144252099152346,-0.5362933251733146,0.6327949122041978,,-1.4817298656459599,-0.017576940021734985,0.11022872386000002,1.3956962638329942,-0.3517023503962437,2.119578934128665,-0.10437685825980436
0.8342108619999635,,3.983391761779785,-1.6599611043930054,-1.5712900161743164,0.07156956195831299,0.5367115139961243,-0.8407249450683594,-0.2634980082511902,0.8231160640716553,0.5030392408370972,0.9620012044906616,0.18552713096141815,0.20033247768878937,,2.0154926776885986,1.2553082704544067,-4.319530010223389,-0.1133367046713829,-0.8458204865455627,-0.5212891101837158,0.9163591861724854,0.11378148198127747,-0.38384824991226196,0.3839797079563141,-0.5211920738220215,0.762179970741272,,0.42663198709487915,1.8156121969223022,4.143588542938232,-0.8345064520835876,-0.5494887232780457,-0.04075491055846214,-0.52508944272995,0.8155028820037842,-0.24338409304618835,0.16697260737419128,-0.18170565366744995,-0.9690734148025513,,-0.019067427466460313,0.023060080362434385,0.13600156164000002,1.04928847719656,-1.2144252099152346,-0.5362933251733146,0.6327949122041978,,-1.4817298656459599,-0.017576940021734985,0.11022872386000002,1.3956962638329942,-0.3517023503962437,2.119578934128665,-0.10437685825980436
0.855223684000066,,3.98340106010437,-1.659959316253662,-1.5712625980377197,0.071562260389328,0.5367103219032288,-0.840726375579834,-0.2634998559951782,0.8231156468391418,0.5030390024185181,0.9620012640953064,0.18553268909454346,0.2003270983695984,,2.0155091285705566,1.2553331851959229,-4.319513320922852,-0.11334047466516495,-0.8458181619644165,-0.5212920904159546,0.9163568019866943,0.11378259211778641,-0.3838534951210022,0.38398411870002747,-0.521195650100708,0.7621752619743347,,0.42663198709487915,1.8156121969223022,4.143588542938232,-0.8345064520835876,-0.5494887232780457,-0.04075491055846214,-0.52508944272995,0.8155028820037842,-0.24338409304618835,0.16697260737419128,-0.18170565366744995,-0.9690734148025513,,-0.019075150199334538,0.023060080362434385,0.13600156164000002,1.04928847719656,-1.2144252099152346,-0.5362933251733146,0.6327949122041978,,-1.4817298656459599,-0.01758466275460921,0.11022872386000002,1.3956962638329942,-0.3517023503962437,2.119578934128665,-0.10437685825980436
0.8829016510001111,,3.98340106010437,-1.659959316253662,-1.5712625980377197,0.071562260389328,0.5367103219032288,-0.840726375579834,-0.2634998559951782,0.8231156468391418,0.5030390024185181,0.9620012640953064,0.18553268909454346,0.2003270983695984,,2.015489339828491,1.2553514242172241,-4.319517135620117,-0.1133374273777008,-0.8458208441734314,-0.5212883353233337,0.9163549542427063,0.11378631740808487,-0.38385701179504395,0.38398969173431396,-0.5211904048919678,0.7621760368347168,,0.42663198709487915,1.8156121969223022,4.143588542938232,-0.8345064520835876,-0.5494887232780457,-0.04075491055846214,-0.52508944272995,0.8155028820037842,-0.24338409304618835,0.16697260737419128,-0.18170565366744995,-0.9690734148025513,,-0.019075150199334538,0.023060080362434385,0.13600156164000002,1.04928847719656,-1.2144252099152346,-0.5362933251733146,0.6327949122041978,,-1.4817221429130856,-0.01758466275460921,0.11022872386000002,1.3956962638329942,-0.3517023503962437,2.119578934128665,-0.10437685825980436
0.9067608979999022,,3.98340106010437,-1.659959316253662,-1.5712625980377197,0.071562260389328,0.5367103219032288,-0.840726375579834,-0.2634998559951782,0.8231156468391418,0.5030390024185181,0.9620012640953064,0.18553268909454346,0.2003270983695984,,2.015489339828491,1.2553514242172241,-4.319517135620117,-0.1133374273777008,-0.8458208441734314,-0.5212883353233337,0.9163549542427063,0.11378631740808487,-0.38385701179504395,0.38398969173431396,-0.5211904048919678,0.7621760368347168,,0.42663198709487915,1.8156121969223022,4.143588542938232,-0.8345064520835876,-0.5494887232780457,-0.04075491055846214,-0.52508944272995,0.8155028820037842,-0.24338409304618835,0.16697260737419128,-0.18170565366744995,-0.9690734148025513,,-0.019075150199334538,0.023060080362434385,0.13600156164000002,1.04928847719656,-1.2144252099152346,-0.5362933251733146,0.6327949122041978,,-1.4817221429130856,-0.01758466275460921,0.11022872386000002,1.3956962638329942,-0.3517023503962437,2.119578934128665,-0.10437685825980436
0.9274299470000642,,3.98340106010437,-1.659959316253662,-1.5712625980377197,0.071562260389328,0.5367103219032288,-0.840726375579834,-0.2634998559951782,0.8231156468391418,0.5030390024185181,0.9620012640953064,0.18553268909454346,0.2003270983695984,,2.015489339828491,1.2553514242172241,-4.319517135620117,-0.1133374273777008,-0.8458208441734314,-0.5212883353233337,0.9163549542427063,0.11378631740808487,-0.38385701179504395,0.38398969173431396,-0.5211904048919678,0.7621760368347168,,0.42663198709487915,1.8156121969223022,4.143588542938232,-0.8345064520835876,-0.5494887232780457,-0.04075491055846214,-0.52508944272995,0.8155028820037842,-0.24338409304618835,0.16697260737419128,-0.18170565366744995,-0.9690734148025513,,-0.019075150199334538,0.023060080362434385,0.13600156164000002,1.04928847719656,-1.2144252099152346,-0.5362933251733146,0.6327949122041978,,-1.4817221429130856,-0.01758466275460921,0.11022872386000002,1.3956962638329942,-0.3517023503962437,2.119578934128665,-0.10437685825980436
0.9536039070001152,,3.9837758541107178,-1.6593983173370361,-1.5712395906448364,0.07155252993106842,0.5366027355194092,-0.8407958745956421,-0.26355215907096863,0.8231687545776367,0.5029246807098389,0.9619877338409424,0.18560796976089478,0.20032265782356262,,2.015587568283081,1.2559189796447754,-4.31939172744751,-0.11345000565052032,-0.8458228707313538,-0.521260678768158,0.9163010716438293,0.11374542117118835,-0.3839976191520691,0.3840849995613098,-0.5211961269378662,0.7621241211891174,,0.4265381097793579,1.8156459331512451,4.143592357635498,-0.8344681859016418,-0.5495481491088867,-0.04073716700077057,-0.5251503586769104,0.8154628276824951,-0.24338708817958832,0.16697260737419128,-0.18170565366744995,-0.9690734148025513,,-0.019075150199334538,0.023060080362434385,0.13600156164000002,1.04928847719656,-1.2144252099152346,-0.5362933251733146,0.6327949122041978,,-1.4817221429130856,-0.01758466275460921,0.11022872386000002,1.3956962638329942,-0.3517023503962437,2.119578934128665,-0.10437685825980436
0.9793585689999418,,3.9837758541107178,-1.6593983173370361,-1.5712395906448364,0.07155252993106842,0.5366027355194092,-0.8407958745956421,-0.26355215907096863,0.8231687545776367,0.5029246807098389,0.9619877338409424,0.18560796976089478,0.20032265782356262,,2.0156071186065674,1.2559003829956055,-4.319386959075928,-0.11345302313566208,-0.8458201289176941,-0.521264374256134,0.9163030385971069,0.11374171078205109,-0.38399410247802734,0.3840794265270233,-0.5212014317512512,0.7621234059333801,,0.4265381097793579,1.8156459331512451,4.143592357635498,-0.8344681859016418,-0.5495481491088867,-0.04073716700077057,-0.5251503586769104,0.8154628276824951,-0.24338708817958832,0.16697260737419128,-0.18170565366744995,-0.9690734148025513,,-0.019075150199334538,0.023060080362434385,0.13600156164000002,1.04928847719656,-1.2144252099152346,-0.5362933251733146,0.6327949122041978,,-1.4817298656459599,-0.01758466275460921,0.11022872386000002,1.3956962638329942,-0.3517023503962437,2.119578934128665,-0.10437685825980436
1.0045703050000157,,3.9837758541107178,-1.6593983173370361,-1.5712395906448364,0.07155252993106842,0.5366027355194092,-0.8407958745956421,-0.26355215907096863,0.8231687545776367,0.5029246807098389,0.9619877338409424,0.18560796976089478,0.20032265782356262,,2.015587568283081,1.2559189796447754,-4.31939172744751,-0.11345000565052032,-0.8458228707313538,-0.521260678768158,0.9163010716438293,0.11374542117118835,-0.3839976191520691,0.3840849995613098,-0.5211961269378662,0.7621241211891174,,0.4265381097793579,1.8156459331512451,4.143592357635498,-0.8344681859016418,-0.5495481491088867,-0.04073716700077057,-0.5251503586769104,0.8154628276824951,-0.24338708817958832,0.16697260737419128,-0.18170565366744995,-0.9690734148025513,,-0.019075150199334538,0.023060080362434385,0.13600156164000002,1.04928847719656,-1.2144252099152346,-0.5362933251733146,0.6327949122041978,,-1.4817221429130856,-0.01758466275460921,0.11022872386000002,1.3956962638329942,-0.3517023503962437,2.119578934128665,-0.10437685825980436
1.0283888040000875,,3.983766555786133,-1.6593997478485107,-1.571267008781433,0.07155980169773102,0.5366039872169495,-0.8407944440841675,-0.263550341129303,0.8231692314147949,0.5029248595237732,0.9619877338409424,0.18560244143009186,0.2003280222415924,,2.015587568283081,1.2559189796447754,-4.31939172744751,-0.11345000565052032,-0.8458228707313538,-0.521260678768158,0.9163010716438293,0.11374542117118835,-0.3839976191520691,0.3840849995613098,-0.5211961269378662,0.7621241211891174,,0.4265381097793579,1.8156459331512451,4.143592357635498,-0.8344681859016418,-0.5495481491088867,-0.04073716700077057,-0.5251503586769104,0.8154628276824951,-0.24338708817958832,0.16697260737419128,-0.18170565366744995,-0.9690734148025513,,-0.019067427466460313,0.023060080362434385,0.13600156164000002,1.04928847719656,-1.2144252099152346,-0.5362933251733146,0.6327949122041978,,-1.4817221429130856,-0.01758466275460921,0.11022872386000002,1.3956962638329942,-0.3517023503962437,2.119578934128665,-0.10437685825980436
1.050962952999953,,3.9837758541107178,-1.6593983173370361,-1.5712395906448364,0.07155252993106842,0.5366027355194092,-0.8407958745956421,-0.26355215907096863,0.8231687545776367,0.5029246807098389,0.9619877338409424,0.18560796976089478,0.20032265782356262,,2.015587568283081,1.2559189796447754,-4.31939172744751,-0.11345000565052032,-0.8458228707313538,-0.521260678768158,0.9163010716438293,0.11374542117118835,-0.3839976191520691,0.3840849995613098,-0.5211961269378662,0.7621241211891174,,0.4265381097793579,1.8156459331512451,4.143592357635498,-0.8344681859016418,-0.5495481491088867,-0.04073716700077057,-0.5251503586769104,0.8154628276824951,-0.24338708817958832,0.16697260737419128,-0.18170565366744995,-0.9690734148025513,,-0.019075150199334538,0.023060080362434385,0.13600156164000002,1.04928847719656,-1.2144252099152346,-0.5362933251733146,0.6327949122041978,,-1.4817221429130856,-0.01758466275460921,0.11022872386000002,1.3956962638329942,-0.3517023503962437,2.119578934128665,-0.10437685825980436
1.0766136639999786,,3.983766555786133,-1.6593997478485107,-1.571267008781433,0.07155980169773102,0.5366039872169495,-0.8407944440841675,-0.263550341129303,0.8231692314147949,0.5029248595237732,0.9619877338409424,0.18560244143009186,0.2003280222415924,,2.015587568283081,1.2559189796447754,-4.31939172744751,-0.11345000565052032,-0.8458228707313538,-0.521260678768158,0.9163010716438293,0.11374542117118835,-0.3839976191520691,0.3840849995613098,-0.5211961269378662,0.7621241211891174,,0.4265381097793579,1.8156459331512451,4.143592357635498,-0.8344681859016418,-0.5495481491088867,-0.04073716700077057,-0.5251503586769104,0.8154628276824951,-0.24338708817958832,0.16697260737419128,-0.18170565366744995,-0.9690734148025513,,-0.019067427466460313,0.023060080362434385,0.13600156164000002,1.04928847719656,-1.2144252099152346,-0.5362933251733146,0.6327949122041978,,-1.4817221429130856,-0.01758466275460921,0.11022872386000002,1.3956962638329942,-0.3517023503962437,2.119578934128665,-0.10437685825980436
1.0989907929999845,,3.9837758541107178,-1.6593983173370361,-1.5712395906448364,0.07155252993106842,0.5366027355194092,-0.8407958745956421,-0.26355215907096863,0.8231687545776367,0.5029246807098389,0.9619877338409424,0.18560796976089478,0.20032265782356262,,2.015587568283081,1.2559189796447754,-4.31939172744751,-0.11345000565052032,-0.8458228707313538,-0.521260678768158,0.9163010716438293,0.11374542117118835,-0.3839976191520691,0.3840849995613098,-0.5211961269378662,0.7621241211891174,,0.4265381097793579,1.8156459331512451,4.143592357635498,-0.8344681859016418,-0.5495481491088867,-0.04073716700077057,-0.5251503586769104,0.8154628276824951,-0.24338708817958832,0.16697260737419128,-0.18170565366744995,-0.9690734148025513,,-0.019075150199334538,0.023060080362434385,0.13600156164000002,1.04928847719656,-1.2144252099152346,-0.5362933251733146,0.6327949122041978,,-1.4817221429130856,-0.01758466275460921,0.11022872386000002,1.3956962638329942,-0.3517023503962437,2.119578934128665,-0.10437685825980436
1.1265813630000139,,3.983968734741211,-1.6587309837341309,-1.571492075920105,0.07163160294294357,0.5364876389503479,-0.8408625721931458,-0.26359182596206665,0.8232390880584717,0.502788782119751,0.9619709849357605,0.18562887609004974,0.20038370788097382,,2.0156071186065674,1.2559003829956055,-4.319386959075928,-0.11345302313566208,-0.8458201289176941,-0.521264374256134,0.9163030385971069,0.11374171078205109,-0.38399410247802734,0.3840794265270233,-0.5212014317512512,0.7621234059333801,,0.4265381097793579,1.8156459331512451,4.143592357635498,-0.8344681859016418,-0.5495481491088867,-0.04073716700077057,-0.5251503586769104,0.8154628276824951,-0.24338708817958832,0.16697260737419128,-0.18170565366744995,-0.9690734148025513,,-0.019075150199334538,0.023060080362434385,0.13600156164000002,1.04928847719656,-1.2144252099152346,-0.5361299676930336,0.632468224071929,,-1.4817298656459599,-0.01758466275460921,0.11022872386000002,1.3956962638329942,-0.3517023503962437,2.119578934128665,-0.10437685825980436
1.151394104000019,,3.983959197998047,-1.6587324142456055,-1.5715194940567017,0.07163887470960617,0.5364888906478882,-0.8408611416816711,-0.2635900378227234,0.8232395648956299,0.5027890205383301,0.9619709253311157,0.18562336266040802,0.2003890872001648,,2.0151450634002686,1.2562086582183838,-4.3195271492004395,-0.11361520737409592,-0.8458723425865173,-0.521144449710846,0.9162891507148743,0.11355992406606674,-0.38408103585243225,0.38406461477279663,-0.521156370639801,0.7621616721153259,,0.4265381097793579,1.8156459331512451,4.143592357635498,-0.8344681859016418,-0.5495481491088867,-0.04073716700077057,-0.5251503586769104,0.8154628276824951,-0.24338708817958832,0.16697260737419128,-0.18170565366744995,-0.9690734148025513,,-0.019067427466460313,0.023060080362434385,0.13600156164000002,1.04928847719656,-1.2144252099152346,-0.5361299676930336,0.632468224071929,,-1.4817298656459599,-0.01758466275460921,0.11022872386000002,1.3959059537764786,-0.3517023503962437,2.119578934128665,-0.10437685825980436
1.177995231000068,,3.983959197998047,-1.6587324142456055,-1.5715194940567017,0.07163887470960617,0.5364888906478882,-0.8408611416816711,-0.2635900378227234,0.8232395648956299,0.5027890205383301,0.9619709253311157,0.18562336266040802,0.2003890872001648,,2.0146660804748535,1.2564921379089355,-4.319684028625488,-0.11377360671758652,-0.845926821231842,-0.52102130651474,0.9162776470184326,0.11337703466415405,-0.3841627240180969,0.38404542207717896,-0.5211076140403748,0.762204647064209,,0.4265381097793579,1.8156459331512451,4.143592357635498,-0.8344681859016418,-0.5495481491088867,-0.04073716700077057,-0.5251503586769104,0.8154628276824951,-0.24338708817958832,0.16697260737419128,-0.18170565366744995,-0.9690734148025513,,-0.019067427466460313,0.023060080362434385,0.13600156164000002,1.04928847719656,-1.2144252099152346,-0.5361299676930336,0.632468224071929,,-1.4817298656459599,-0.017576940021734985,0.11022872386000002,1.3961156437199633,-0.3517023503962437,2.119578934128665,-0.10437685825980436
1.1997061229999417,,3.983968734741211,-1.6587309837341309,-1.571492075920105,0.07163160294294357,0.5364876389503479,-0.8408625721931458,-0.26359182596206665,0.8232390880584717,0.502788782119751,0.9619709849357605,0.18562887609004974,0.20038370788097382,,2.0146636962890625,1.2565354108810425,-4.319671154022217,-0.1137743890285492,-0.8459271192550659,-0.5210206508636475,0.9162732362747192,0.11338185518980026,-0.3841714859008789,0.38405537605285645,-0.5211060643196106,0.762200653553009,,0.4265381097793579,1.8156459331512451,4.143592357635498,-0.8344681859016418,-0.5495481491088867,-0.04073716700077057,-0.5251503586769104,0.8154628276824951,-0.24338708817958832,0.16697260737419128,-0.18170565366744995,-0.9690734148025513,,-0.019075150199334538,0.023060080362434385,0.13600156164000002,1.04928847719656,-1.2144252099152346,-0.5361299676930336,0.632468224071929,,-1.4817221429130856,-0.01758466275460921,0.11022872386000002,1.3961156437199633,-0.3517023503962437,2.119578934128665,-0.10437685825980436
1.2219432459999098,,3.983968734741211,-1.6587309837341309,-1.571492075920105,0.07163160294294357,0.5364876389503479,-0.8408625721931458,-0.26359182596206665,0.8232390880584717,0.502788782119751,0.9619709849357605,0.18562887609004974,0.20038370788097382,,2.0146830081939697,1.2565171718597412,-4.319666862487793,-0.11377740651369095,-0.8459243774414062,-0.5210243463516235,0.9162752032279968,0.11337818950414658,-0.38416793942451477,0.38404980301856995,-0.5211113095283508,0.762199878692627,,0.4265381097793579,1.8156459331512451,4.143592357635498,-0.8344681859016418,-0.5495481491088867,-0.04073716700077057,-0.5251503586769104,0.8154628276824951,-0.24338708817958832,0.16697260737419128,-0.18170565366744995,-0.9690734148025513,,-0.019075150199334538,0.023060080362434385,0.13600156164000002,1.04928847719656,-1.2144252099152346,-0.5361299676930336,0.632468224071929,,-1.4817298656459599,-0.01758466275460921,0.11022872386000002,1.3961156437199633,-0.3517023503962437,2.119578934128665,-0.10437685825980436
1.251237473999936,,3.983968734741211,-1.6587309837341309,-1.571492075920105,0.07163160294294357,0.5364876389503479,-0.8408625721931458,-0.26359182596206665,0.8232390880584717,0.502788782119751,0.9619709849357605,0.18562887609004974,0.20038370788097382,,2.0146830081939697,1.2565171718597412,-4.319666862487793,-0.11377740651369095,-0.8459243774414062,-0.5210243463516235,0.9162752032279968,0.11337818950414658,-0.38416793942451477,0.38404980301856995,-0.5211113095283508,0.762199878692627,,0.4265381097793579,1.8156459331512451,4.143592357635498,-0.8344681859016418,-0.5495481491088867,-0.04073716700077057,-0.5251503586769104,0.8154628276824951,-0.24338708817958832,0.16697260737419128,-0.18170565366744995,-0.9690734148025513,,-0.019075150199334538,0.023060080362434385,0.13600156164000002,1.04928847719656,-1.2144252099152346,-0.5361299676930336,0.632468224071929,,-1.4817298656459599,-0.01758466275460921,0.11022872386000002,1.3961156437199633,-0.3517023503962437,2.119578934128665,-0.10437685825980436
1.2773954350000167,,3.983968734741211,-1.6587309837341309,-1.571492075920105,0.07163160294294357,0.5364876389503479,-0.8408625721931458,-0.26359182596206665,0.8232390880584717,0.502788782119751,0.9619709849357605,0.18562887609004974,0.20038370788097382,,2.0146636962890625,1.2565354108810425,-4.319671154022217,-0.1137743890285492,-0.8459271192550659,-0.5210206508636475,0.9162732362747192,0.11338185518980026,-0.3841714859008789,0.38405537605285645,-0.5211060643196106,0.762200653553009,,0.4265381097793579,1.8156459331512451,4.143592357635498,-0.8344681859016418,-0.5495481491088867,-0.04073716700077057,-0.5251503586769104,0.8154628276824951,-0.24338708817958832,0.16697260737419128,-0.18170565366744995,-0.9690734148025513,,-0.019075150199334538,0.023060080362434385,0.13600156164000002,1.04928847719656,-1.2144252099152346,-0.5361299676930336,0.632468224071929,,-1.4817221429130856,-0.01758466275460921,0.11022872386000002,1.3961156437199633,-0.3517023503962437,2.119578934128665,-0.10437685825980436
1.2989121319999413,,3.983968734741211,-1.6587309837341309,-1.571492075920105,0.07163160294294357,0.5364876389503479,-0.8408625721931458,-0.26359182596206665,0.8232390880584717,0.502788782119751,0.9619709849357605,0.18562887609004974,0.20038370788097382,,2.0146830081939697,1.2565171718597412,-4.319666862487793,-0.11377740651369095,-0.8459243774414062,-0.5210243463516235,0.9162752032279968,0.11337818950414658,-0.38416793942451477,0.38404980301856995,-0.5211113095283508,0.762199878692627,,0.4265381097793579,1.8156459331512451,4.143592357635498,-0.8344681859016418,-0.5495481491088867,-0.04073716700077057,-0.5251503586769104,0.8154628276824951,-0.24338708817958832,0.16697260737419128,-0.18170565366744995,-0.9690734148025513,,-0.019075150199334538,0.023060080362434385,0.13600156164000002,1.04928847719656,-1.2144252099152346,-0.5361299676930336,0.632468224071929,,-1.4817298656459599,-0.01758466275460921,0.11022872386000002,1.3961156437199633,-0.3517023503962437,2.119578934128665,-0.10437685825980436
1.3205916839999645,,3.983968734741211,-1.6587309837341309,-1.571492075920105,0.07163160294294357,0.5364876389503479,-0.8408625721931458,-0.26359182596206665,0.8232390880584717,0.502788782119751,0.9619709849357605,0.18562887609004974,0.20038370788097382,,2.0146830081939697,1.2565171718597412,-4.319666862487793,-0.11377740651369095,-0.8459243774414062,-0.5210243463516235,0.9162752032279968,0.11337818950414658,-0.38416793942451477,0.38404980301856995,-0.5211113095283508,0.762199878692627,,0.4265381097793579,1.8156459331512451,4.143592357635498,-0.8344681859016418,-0.5495481491088867,-0.04073716700077057,-0.5251503586769104,0.8154628276824951,-0.24338708817958832,0.16697260737419128,-0.18170565366744995,-0.9690734148025513,,-0.019075150199334538,0.023060080362434385,0.13600156164000002,1.04928847719656,-1.2144252099152346,-0.5361299676930336,0.632468224071929,,-1.4817298656459599,-0.01758466275460921,0.11022872386000002,1.3961156437199633,-0.3517023503962437,2.119578934128665,-0.10437685825980436
1.3479212730001109,,3.983959197998047,-1.6587324142456055,-1.5715194940567017,0.07163887470960617,0.5364888906478882,-0.8408611416816711,-0.2635900378227234,0.8232395648956299,0.5027890205383301,0.9619709253311157,0.18562336266040802,0.2003890872001648,,2.0146636962890625,1.2565354108810425,-4.319671154022217,-0.1137743890285492,-0.8459271192550659,-0.5210206508636475,0.9162732362747192,0.11338185518980026,-0.3841714859008789,0.38405537605285645,-0.5211060643196106,0.762200653553009,,0.4265381097793579,1.8156459331512451,4.143592357635498,-0.8344681859016418,-0.5495481491088867,-0.04073716700077057,-0.5251503586769104,0.8154628276824951,-0.24338708817958832,0.16697260737419128,-0.18170565366744995,-0.9690734148025513,,-0.019067427466460313,0.023060080362434385,0.13600156164000002,1.04928847719656,-1.2144252099152346,-0.5361299676930336,0.632468224071929,,-1.4817221429130856,-0.01758466275460921,0.11022872386000002,1.3961156437199633,-0.3517023503962437,2.119578934128665,-0.10437685825980436
1.3710262800000237,,3.983959197998047,-1.6587324142456055,-1.5715194940567017,0.07163887470960617,0.5364888906478882,-0.8408611416816711,-0.2635900378227234,0.8232395648956299,0.5027890205383301,0.9619709253311157,0.18562336266040802,0.2003890872001648,,2.0146830081939697,1.2565171718597412,-4.319666862487793,-0.11377740651369095,-0.8459243774414062,-0.5210243463516235,0.9162752032279968,0.11337818950414658,-0.38416793942451477,0.38404980301856995,-0.5211113095283508,0.762199878692627,,0.4265381097793579,1.8156459331512451,4.143592357635498,-0.8344681859016418,-0.5495481491088867,-0.04073716700077057,-0.5251503586769104,0.8154628276824951,-0.24338708817958832,0.16697260737419128,-0.18170565366744995,-0.9690734148025513,,-0.019067427466460313,0.023060080362434385,0.13600156164000002,1.04928847719656,-1.2144252099152346,-0.5361299676930336,0.632468224071929,,-1.4817298656459599,-0.01758466275460921,0.11022872386000002,1.3961156437199633,-0.3517023503962437,2.119578934128665,-0.10437685825980436
1.393746813000007,,3.983959197998047,-1.6587324142456055,-1.5715194940567017,0.07163887470960617,0.5364888906478882,-0.8408611416816711,-0.2635900378227234,0.8232395648956299,0.5027890205383301,0.9619709253311157,0.18562336266040802,0.2003890872001648,,2.0146830081939697,1.2565171718597412,-4.319666862487793,-0.11377740651369095,-0.8459243774414062,-0.5210243463516235,0.9162752032279968,0.11337818950414658,-0.38416793942451477,0.38404980301856995,-0.5211113095283508,0.762199878692627,,0.4265381097793579,1.8156459331512451,4.143592357635498,-0.8344681859016418,-0.5495481491088867,-0.04073716700077057,-0.5251503586769104,0.8154628276824951,-0.24338708817958832,0.16697260737419128,-0.18170565366744995,-0.9690734148025513,,-0.019067427466460313,0.023060080362434385,0.13600156164000002,1.04928847719656,-1.2144252099152346,-0.5361299676930336,0.632468224071929,,-1.4817298656459599,-0.01758466275460921,0.11022872386000002,1.3961156437199633,-0.3517023503962437,2.119578934128665,-0.10437685825980436
1.4183850039999015,,3.983968734741211,-1.6587309837341309,-1.571492075920105,0.07163160294294357,0.5364876389503479,-0.8408625721931458,-0.26359182596206665,0.8232390880584717,0.502788782119751,0.9619709849357605,0.18562887609004974,0.20038370788097382,,2.0146830081939697,1.2565171718597412,-4.319666862487793,-0.11377740651369095,-0.8459243774414062,-0.5210243463516235,0.9162752032279968,0.11337818950414658,-0.38416793942451477,0.38404980301856995,-0.5211113095283508,0.762199878692627,,0.4265381097793579,1.8156459331512451,4.143592357635498,-0.8344681859016418,-0.5495481491088867,-0.04073716700077057,-0.5251503586769104,0.8154628276824951,-0.24338708817958832,0.16697260737419128,-0.18170565366744995,-0.9690734148025513,,-0.019075150199334538,0.023060080362434385,0.13600156164000002,1.04928847719656,-1.2144252099152346,-0.5361299676930336,0.632468224071929,,-1.4817298656459599,-0.01758466275460921,0.11022872386000002,1.3961156437199633,-0.3517023503962437,2.119578934128665,-0.10437685825980436
1.4418269790000977,,3.983968734741211,-1.6587309837341309,-1.571492075920105,0.07163160294294357,0.5364876389503479,-0.8408625721931458,-0.26359182596206665,0.8232390880584717,0.502788782119751,0.9619709849357605,0.18562887609004974,0.20038370788097382,,2.0146830081939697,1.2565171718597412,-4.319666862487793,-0.11377740651369095,-0.8459243774414062,-0.5210243463516235,0.9162752032279968,0.11337818950414658,-0.38416793942451477,0.38404980301856995,-0.5211113095283508,0.762199878692627,,0.4265381097793579,1.8156459331512451,4.143592357635498,-0.8344681859016418,-0.5495481491088867,-0.04073716700077057,-0.5251503586769104,0.8154628276824951,-0.24338708817958832,0.16697260737419128,-0.18170565366744995,-0.9690734148025513,,-0.019075150199334538,0.023060080362434385,0.13600156164000002,1.04928847719656,-1.2144252099152346,-0.5361299676930336,0.632468224071929,,-1.4817298656459599,-0.01758466275460921,0.11022872386000002,1.3961156437199633,-0.3517023503962437,2.119578934128665,-0.10437685825980436
1.4684800299999097,,3.983968734741211,-1.6587309837341309,-1.571492075920105,0.07163160294294357,0.5364876389503479,-0.8408625721931458,-0.26359182596206665,0.8232390880584717,0.502788782119751,0.9619709849357605,0.18562887609004974,0.20038370788097382,,2.0146636962890625,1.2565354108810425,-4.319671154022217,-0.1137743890285492,-0.8459271192550659,-0.5210206508636475,0.9162732362747192,0.11338185518980026,-0.3841714859008789,0.38405537605285645,-0.5211060643196106,0.762200653553009,,0.4265381097793579,1.8156459331512451,4.143592357635498,-0.8344681859016418,-0.5495481491088867,-0.04073716700077057,-0.5251503586769104,0.8154628276824951,-0.24338708817958832,0.16697260737419128,-0.18170565366744995,-0.9690734148025513,,-0.019075150199334538,0.023060080362434385,0.13600156164000002,1.04928847719656,-1.2144252099152346,-0.5361299676930336,0.632468224071929,,-1.4817221429130856,-0.01758466275460921,0.11022872386000002,1.3961156437199633,-0.3517023503962437,2.119578934128665,-0.10437685825980436
1.4890059720000863,,3.983968734741211,-1.6587309837341309,-1.571492075920105,0.07163160294294357,0.5364876389503479,-0.8408625721931458,-0.26359182596206665,0.8232390880584717,0.502788782119751,0.9619709849357605,0.18562887609004974,0.20038370788097382,,2.0146636962890625,1.2565354108810425,-4.319671154022217,-0.1137743890285492,-0.8459271192550659,-0.5210206508636475,0.9162732362747192,0.11338185518980026,-0.3841714859008789,0.38405537605285645,-0.5211060643196106,0.762200653553009,,0.4265381097793579,1.8156459331512451,4.143592357635498,-0.8344681859016418,-0.5495481491088867,-0.04073716700077057,-0.5251503586769104,0.8154628276824951,-0.24338708817958832,0.16697260737419128,-0.18170565366744995,-0.9690734148025513,,-0.019075150199334538,0.023060080362434385,0.13600156164000002,1.04928847719656,-1.2144252099152346,-0.5361299676930336,0.632468224071929,,-1.4817221429130856,-0.01758466275460921,0.11022872386000002,1.3961156437199633,-0.3517023503962437,2.119578934128665,-0.10437685825980436
1.518215684000097,,3.983968734741211,-1.6587309837341309,-1.571492075920105,0.07163160294294357,0.5364876389503479,-0.8408625721931458,-0.26359182596206665,0.8232390880584717,0.502788782119751,0.9619709849357605,0.18562887609004974,0.20038370788097382,,2.0146636962890625,1.2565354108810425,-4.319671154022217,-0.1137743890285492,-0.8459271192550659,-0.5210206508636475,0.9162732362747192,0.11338185518980026,-0.3841714859008789,0.38405537605285645,-0.5211060643196106,0.762200653553009,,0.4265381097793579,1.8156459331512451,4.143592357635498,-0.8344681859016418,-0.5495481491088867,-0.04073716700077057,-0.5251503586769104,0.8154628276824951,-0.24338708817958832,0.16697260737419128,-0.18170565366744995,-0.9690734148025513,,-0.019075150199334538,0.023060080362434385,0.13600156164000002,1.04928847719656,-1.2144252099152346,-0.5361299676930336,0.632468224071929,,-1.4817221429130856,-0.01758466275460921,0.11022872386000002,1.3961156437199633,-0.3517023503962437,2.119578934128665,-0.10437685825980436
1.541709691000051,,3.983968734741211,-1.6587309837341309,-1.571492075920105,0.07163160294294357,0.5364876389503479,-0.8408625721931458,-0.26359182596206665,0.8232390880584717,0.502788782119751,0.9619709849357605,0.18562887609004974,0.20038370788097382,,2.0146636962890625,1.2565354108810425,-4.319671154022217,-0.1137743890285492,-0.8459271192550659,-0.5210206508636475,0.9162732362747192,0.11338185518980026,-0.3841714859008789,0.38405537605285645,-0.5211060643196106,0.762200653553009,,0.4265381097793579,1.8156459331512451,4.143592357635498,-0.8344681859016418,-0.5495481491088867,-0.04073716700077057,-0.5251503586769104,0.8154628276824951,-0.24338708817958832,0.16697260737419128,-0.18170565366744995,-0.9690734148025513,,-0.019075150199334538,0.023060080362434385,0.13600156164000002,1.04928847719656,-1.2144252099152346,-0.5361299676930336,0.632468224071929,,-1.4817221429130856,-0.01758466275460921,0.11022872386000002,1.3961156437199633,-0.3517023503962437,2.119578934128665,-0.10437685825980436
1.5683493020001151,,3.983968734741211,-1.6587309837341309,-1.571492075920105,0.07163160294294357,0.5364876389503479,-0.8408625721931458,-0.26359182596206665,0.8232390880584717,0.502788782119751,0.9619709849357605,0.18562887609004974,0.20038370788097382,,2.0146830081939697,1.2565171718597412,-4.319666862487793,-0.11377740651369095,-0.8459243774414062,-0.5210243463516235,0.9162752032279968,0.11337818950414658,-0.38416793942451477,0.38404980301856995,-0.5211113095283508,0.762199878692627,,0.4265381097793579,1.8156459331512451,4.143592357635498,-0.8344681859016418,-0.5495481491088867,-0.04073716700077057,-0.5251503586769104,0.8154628276824951,-0.24338708817958832,0.16697260737419128,-0.18170565366744995,-0.9690734148025513,,-0.019075150199334538,0.023060080362434385,0.13600156164000002,1.04928847719656,-1.2144252099152346,-0.5361299676930336,0.632468224071929,,-1.4817298656459599,-0.01758466275460921,0.11022872386000002,1.3961156437199633,-0.3517023503962437,2.119578934128665,-0.10437685825980436
1.5890516770000431,,3.983959197998047,-1.6587324142456055,-1.5715194940567017,0.07163887470960617,0.5364888906478882,-0.8408611416816711,-0.2635900378227234,0.8232395648956299,0.5027890205383301,0.9619709253311157,0.18562336266040802,0.2003890872001648,,2.0146830081939697,1.2565171718597412,-4.319666862487793,-0.11377740651369095,-0.8459243774414062,-0.5210243463516235,0.9162752032279968,0.11337818950414658,-0.38416793942451477,0.38404980301856995,-0.5211113095283508,0.762199878692627,,0.4265381097793579,1.8156459331512451,4.143592357635498,-0.8344681859016418,-0.5495481491088867,-0.04073716700077057,-0.5251503586769104,0.8154628276824951,-0.24338708817958832,0.16697260737419128,-0.18170565366744995,-0.9690734148025513,,-0.019067427466460313,0.023060080362434385,0.13600156164000002,1.04928847719656,-1.2144252099152346,-0.5361299676930336,0.632468224071929,,-1.4817298656459599,-0.01758466275460921,0.11022872386000002,1.3961156437199633,-0.3517023503962437,2.119578934128665,-0.10437685825980436
1.615628961000084,,3.983959197998047,-1.6587324142456055,-1.5715194940567017,0.07163887470960617,0.5364888906478882,-0.8408611416816711,-0.2635900378227234,0.8232395648956299,0.5027890205383301,0.9619709253311157,0.18562336266040802,0.2003890872001648,,2.0156071186065674,1.2559003829956055,-4.319386959075928,-0.11345302313566208,-0.8458201289176941,-0.521264374256134,0.9163030385971069,0.11374171078205109,-0.38399410247802734,0.3840794265270233,-0.5212014317512512,0.7621234059333801,,0.4265381097793579,1.8156459331512451,4.143592357635498,-0.8344681859016418,-0.5495481491088867,-0.04073716700077057,-0.5251503586769104,0.8154628276824951,-0.24338708817958832,0.16697260737419128,-0.18170565366744995,-0.9690734148025513,,-0.019067427466460313,0.023060080362434385,0.13600156164000002,1.04928847719656,-1.2144252099152346,-0.5361299676930336,0.632468224071929,,-1.4817298656459599,-0.01758466275460921,0.11022872386000002,1.3956962638329942,-0.3517023503962437,2.119578934128665,-0.10437685825980436
1.6407221360000221,,3.983968734741211,-1.6587309837341309,-1.571492075920105,0.07163160294294357,0.5364876389503479,-0.8408625721931458,-0.26359182596206665,0.8232390880584717,0.502788782119751,0.9619709849357605,0.18562887609004974,0.20038370788097382,,2.015587568283081,1.2559189796447754,-4.31939172744751,-0.11345000565052032,-0.8458228707313538,-0.521260678768158,0.9163010716438293,0.11374542117118835,-0.3839976191520691,0.3840849995613098,-0.5211961269378662,0.7621241211891174,,0.4265381097793579,1.8156459331512451,4.143592357635498,-0.8344681859016418,-0.5495481491088867,-0.04073716700077057,-0.5251503586769104,0.8154628276824951,-0.24338708817958832,0.16697260737419128,-0.18170565366744995,-0.9690734148025513,,-0.019075150199334538,0.023060080362434385,0.13600156164000002,1.04928847719656,-1.2144252099152346,-0.5361299676930336,0.632468224071929,,-1.4817221429130856,-0.01758466275460921,0.11022872386000002,1.3956962638329942,-0.3517023503962437,2.119578934128665,-0.10437685825980436
1.664891303000104,,3.983968734741211,-1.6587309837341309,-1.571492075920105,0.07163160294294357,0.5364876389503479,-0.8408625721931458,-0.26359182596206665,0.8232390880584717,0.502788782119751,0.9619709849357605,0.18562887609004974,0.20038370788097382,,2.015587568283081,1.2559189796447754,-4.31939172744751,-0.11345000565052032,-0.8458228707313538,-0.521260678768158,0.9163010716438293,0.11374542117118835,-0.3839976191520691,0.3840849995613098,-0.5211961269378662,0.7621241211891174,,0.4265381097793579,1.8156459331512451,4.143592357635498,-0.8344681859016418,-0.5495481491088867,-0.04073716700077057,-0.5251503586769104,0.8154628276824951,-0.24338708817958832,0.16697260737419128,-0.18170565366744995,-0.9690734148025513,,-0.019075150199334538,0.023060080362434385,0.13600156164000002,1.04928847719656,-1.2144252099152346,-0.5361299676930336,0.632468224071929,,-1.4817221429130856,-0.01758466275460921,0.11022872386000002,1.3956962638329942,-0.3517023503962437,2.119578934128665,-0.10437685825980436
1.69061607499998,,3.983968734741211,-1.6587309837341309,-1.571492075920105,0.07163160294294357,0.5364876389503479,-0.8408625721931458,-0.26359182596206665,0.8232390880584717,0.502788782119751,0.9619709849357605,0.18562887609004974,0.20038370788097382,,2.0156071186065674,1.2559003829956055,-4.319386959075928,-0.11345302313566208,-0.8458201289176941,-0.521264374256134,0.9163030385971069,0.11374171078205109,-0.38399410247802734,0.3840794265270233,-0.5212014317512512,0.7621234059333801,,0.4265381097793579,1.8156459331512451,4.143592357635498,-0.8344681859016418,-0.5495481491088867,-0.04073716700077057,-0.5251503586769104,0.8154628276824951,-0.24338708817958832,0.16697260737419128,-0.18170565366744995,-0.9690734148025513,,-0.019075150199334538,0.023060080362434385,0.13600156164000002,1.04928847719656,-1.2144252099152346,-0.5361299676930336,0.632468224071929,,-1.4817298656459599,-0.01758466275460921,0.11022872386000002,1.3956962638329942,-0.3517023503962437,2.119578934128665,-0.10437685825980436
1.7165001470000334,,3.983968734741211,-1.6587309837341309,-1.571492075920105,0.07163160294294357,0.5364876389503479,-0.8408625721931458,-0.26359182596206665,0.8232390880584717,0.502788782119751,0.9619709849357605,0.18562887609004974,0.20038370788097382,,2.0156071186065674,1.2559003829956055,-4.319386959075928,-0.11345302313566208,-0.8458201289176941,-0.521264374256134,0.9163030385971069,0.11374171078205109,-0.38399410247802734,0.3840794265270233,-0.5212014317512512,0.7621234059333801,,0.4265381097793579,1.8156459331512451,4.143592357635498,-0.8344681859016418,-0.5495481491088867,-0.04073716700077057,-0.5251503586769104,0.8154628276824951,-0.24338708817958832,0.16697260737419128,-0.18170565366744995,-0.9690734148025513,,-0.019075150199334538,0.023060080362434385,0.13600156164000002,1.04928847719656,-1.2144252099152346,-0.5361299676930336,0.632468224071929,,-1.4817298656459599,-0.01758466275460921,0.11022872386000002,1.3956962638329942,-0.3517023503962437,2.119578934128665,-0.10437685825980436
1.7433491429999322,,3.983959197998047,-1.6587324142456055,-1.5715194940567017,0.07163887470960617,0.5364888906478882,-0.8408611416816711,-0.2635900378227234,0.8232395648956299,0.5027890205383301,0.9619709253311157,0.18562336266040802,0.2003890872001648,,2.0156071186065674,1.2559003829956055,-4.319386959075928,-0.11345302313566208,-0.8458201289176941,-0.521264374256134,0.9163030385971069,0.11374171078205109,-0.38399410247802734,0.3840794265270233,-0.5212014317512512,0.7621234059333801,,0.4265381097793579,1.8156459331512451,4.143592357635498,-0.8344681859016418,-0.5495481491088867,-0.04073716700077057,-0.5251503586769104,0.8154628276824951,-0.24338708817958832,0.16697260737419128,-0.18170565366744995,-0.9690734148025513,,-0.019067427466460313,0.023060080362434385,0.13600156164000002,1.04928847719656,-1.2144252099152346,-0.5361299676930336,0.632468224071929,,-1.4817298656459599,-0.01758466275460921,0.11022872386000002,1.3956962638329942,-0.3517023503962437,2.119578934128665,-0.10437685825980436
1.767108935000124,,3.983959197998047,-1.6587324142456055,-1.5715194940567017,0.07163887470960617,0.5364888906478882,-0.8408611416816711,-0.2635900378227234,0.8232395648956299,0.5027890205383301,0.9619709253311157,0.18562336266040802,0.2003890872001648,,2.0156071186065674,1.2559003829956055,-4.319386959075928,-0.11345302313566208,-0.8458201289176941,-0.521264374256134,0.9163030385971069,0.11374171078205109,-0.38399410247802734,0.3840794265270233,-0.5212014317512512,0.7621234059333801,,0.4265381097793579,1.8156459331512451,4.143592357635498,-0.8344681859016418,-0.5495481491088867,-0.04073716700077057,-0.5251503586769104,0.8154628276824951,-0.24338708817958832,0.16697260737419128,-0.18170565366744995,-0.9690734148025513,,-0.019067427466460313,0.023060080362434385,0.13600156164000002,1.04928847719656,-1.2144252099152346,-0.5361299676930336,0.632468224071929,,-1.4817298656459599,-0.01758466275460921,0.11022872386000002,1.3956962638329942,-0.3517023503962437,2.119578934128665,-0.10437685825980436
1.7878455970001141,,3.983959197998047,-1.6587324142456055,-1.5715194940567017,0.07163887470960617,0.5364888906478882,-0.8408611416816711,-0.2635900378227234,0.8232395648956299,0.5027890205383301,0.9619709253311157,0.18562336266040802,0.2003890872001648,,2.015587568283081,1.2559189796447754,-4.31939172744751,-0.11345000565052032,-0.8458228707313538,-0.521260678768158,0.9163010716438293,0.11374542117118835,-0.3839976191520691,0.3840849995613098,-0.5211961269378662,0.7621241211891174,,0.4265381097793579,1.8156459331512451,4.143592357635498,-0.8344681859016418,-0.5495481491088867,-0.04073716700077057,-0.5251503586769104,0.8154628276824951,-0.24338708817958832,0.16697260737419128,-0.18170565366744995,-0.9690734148025513,,-0.019067427466460313,0.023060080362434385,0.13600156164000002,1.04928847719656,-1.2144252099152346,-0.5361299676930336,0.632468224071929,,-1.4817221429130856,-0.01758466275460921,0.11022872386000002,1.3956962638329942,-0.3517023503962437,2.119578934128665,-0.10437685825980436
1.8161231090000456,,3.983959197998047,-1.6587324142456055,-1.5715194940567017,0.07163887470960617,0.5364888906478882,-0.8408611416816711,-0.2635900378227234,0.8232395648956299,0.5027890205383301,0.9619709253311157,0.18562336266040802,0.2003890872001648,,2.015587568283081,1.2559189796447754,-4.31939172744751,-0.11345000565052032,-0.8458228707313538,-0.521260678768158,0.9163010716438293,0.11374542117118835,-0.3839976191520691,0.3840849995613098,-0.5211961269378662,0.7621241211891174,,0.4265381097793579,1.8156459331512451,4.143592357635498,-0.8344681859016418,-0.5495481491088867,-0.04073716700077057,-0.5251503586769104,0.8154628276824951,-0.24338708817958832,0.16697260737419128,-0.18170565366744995,-0.9690734148025513,,-0.019067427466460313,0.023060080362434385,0.13600156164000002,1.04928847719656,-1.2144252099152346,-0.5361299676930336,0.632468224071929,,-1.4817221429130856,-0.01758466275460921,0.11022872386000002,1.3956962638329942,-0.3517023503962437,2.119578934128665,-0.10437685825980436
1.8446079079999436,,3.983968734741211,-1.6587309837341309,-1.571492075920105,0.07163160294294357,0.5364876389503479,-0.8408625721931458,-0.26359182596206665,0.8232390880584717,0.502788782119751,0.9619709849357605,0.18562887609004974,0.20038370788097382,,2.015587568283081,1.2559189796447754,-4.31939172744751,-0.11345000565052032,-0.8458228707313538,-0.521260678768158,0.9163010716438293,0.11374542117118835,-0.3839976191520691,0.3840849995613098,-0.5211961269378662,0.7621241211891174,,0.4265381097793579,1.8156459331512451,4.143592357635498,-0.8344681859016418,-0.5495481491088867,-0.04073716700077057,-0.5251503586769104,0.8154628276824951,-0.24338708817958832,0.16697260737419128,-0.18170565366744995,-0.9690734148025513,,-0.019075150199334538,0.023060080362434385,0.13600156164000002,1.04928847719656,-1.2144252099152346,-0.5361299676930336,0.632468224071929,,-1.4817221429130856,-0.01758466275460921,0.11022872386000002,1.3956962638329942,-0.3517023503962437,2.119578934128665,-0.10437685825980436
1.8679379540001264,,3.983968734741211,-1.6587309837341309,-1.571492075920105,0.07163160294294357,0.5364876389503479,-0.8408625721931458,-0.26359182596206665,0.8232390880584717,0.502788782119751,0.9619709849357605,0.18562887609004974,0.20038370788097382,,2.015587568283081,1.2559189796447754,-4.31939172744751,-0.11345000565052032,-0.8458228707313538,-0.521260678768158,0.9163010716438293,0.11374542117118835,-0.3839976191520691,0.3840849995613098,-0.5211961269378662,0.7621241211891174,,0.4265381097793579,1.8156459331512451,4.143592357635498,-0.8344681859016418,-0.5495481491088867,-0.04073716700077057,-0.5251503586769104,0.8154628276824951,-0.24338708817958832,0.16697260737419128,-0.18170565366744995,-0.9690734148025513,,-0.019075150199334538,0.023060080362434385,0.13600156164000002,1.04928847719656,-1.2144252099152346,-0.5361299676930336,0.632468224071929,,-1.4817221429130856,-0.01758466275460921,0.11022872386000002,1.3956962638329942,-0.3517023503962437,2.119578934128665,-0.10437685825980436
1.893626988000051,,3.983968734741211,-1.6587309837341309,-1.571492075920105,0.07163160294294357,0.5364876389503479,-0.8408625721931458,-0.26359182596206665,0.8232390880584717,0.502788782119751,0.9619709849357605,0.18562887609004974,0.20038370788097382,,2.015587568283081,1.2559189796447754,-4.31939172744751,-0.11345000565052032,-0.8458228707313538,-0.521260678768158,0.9163010716438293,0.11374542117118835,-0.3839976191520691,0.3840849995613098,-0.5211961269378662,0.7621241211891174,,0.4265381097793579,1.8156459331512451,4.143592357635498,-0.8344681859016418,-0.5495481491088867,-0.04073716700077057,-0.5251503586769104,0.8154628276824951,-0.24338708817958832,0.16697260737419128,-0.18170565366744995,-0.9690734148025513,,-0.019075150199334538,0.023060080362434385,0.13600156164000002,1.04928847719656,-1.2144252099152346,-0.5361299676930336,0.632468224071929,,-1.4817221429130856,-0.01758466275460921,0.11022872386000002,1.3956962638329942,-0.3517023503962437,2.119578934128665,-0.10437685825980436
1.9153960369999368,,3.983959197998047,-1.6587324142456055,-1.5715194940567017,0.07163887470960617,0.5364888906478882,-0.8408611416816711,-0.2635900378227234,0.8232395648956299,0.5027890205383301,0.9619709253311157,0.18562336266040802,0.2003890872001648,,2.015568256378174,1.2559372186660767,-4.319395065307617,-0.1134469285607338,-0.8458254933357239,-0.5212569236755371,0.9162991642951965,0.11374907195568085,-0.3840011954307556,0.3840905427932739,-0.5211910009384155,0.7621248960494995,,0.4265381097793579,1.8156459331512451,4.143592357635498,-0.8344681859016418,-0.5495481491088867,-0.04073716700077057,-0.5251503586769104,0.8154628276824951,-0.24338708817958832,0.16697260737419128,-0.18170565366744995,-0.9690734148025513,,-0.019067427466460313,0.023060080362434385,0.13600156164000002,1.04928847719656,-1.2144252099152346,-0.5361299676930336,0.632468224071929,,-1.4817144201802113,-0.01758466275460921,0.11022872386000002,1.3956962638329942,-0.3517023503962437,2.119578934128665,-0.10437685825980436
1.9383987979999802,,3.983959197998047,-1.6587324142456055,-1.5715194940567017,0.07163887470960617,0.5364888906478882,-0.8408611416816711,-0.2635900378227234,0.8232395648956299,0.5027890205383301,0.9619709253311157,0.18562336266040802,0.2003890872001648,,2.0156071186065674,1.2559003829956055,-4.319386959075928,-0.11345302313566208,-0.8458201289176941,-0.521264374256134,0.9163030385971069,0.11374171078205109,-0.38399410247802734,0.3840794265270233,-0.5212014317512512,0.7621234059333801,,0.4265381097793579,1.8156459331512451,4.143592357635498,-0.8344681859016418,-0.5495481491088867,-0.04073716700077057,-0.5251503586769104,0.8154628276824951,-0.24338708817958832,0.16697260737419128,-0.18170565366744995,-0.9690734148025513,,-0.019067427466460313,0.023060080362434385,0.13600156164000002,1.04928847719656,-1.2144252099152346,-0.5361299676930336,0.632468224071929,,-1.4817298656459599,-0.01758466275460921,0.11022872386000002,1.3956962638329942,-0.3517023503962437,2.119578934128665,-0.10437685825980436
1.9655300889999126,,3.983959197998047,-1.6587324142456055,-1.5715194940567017,0.07163887470960617,0.5364888906478882,-0.8408611416816711,-0.2635900378227234,0.8232395648956299,0.5027890205383301,0.9619709253311157,0.18562336266040802,0.2003890872001648,,2.0155906677246094,1.2558754682540894,-4.319403648376465,-0.11344915628433228,-0.8458225131034851,-0.5212613344192505,0.9163054823875427,0.11374058574438095,-0.3839888572692871,0.38407498598098755,-0.5211977958679199,0.7621281147003174,,0.4265381097793579,1.8156459331512451,4.143592357635498,-0.8344681859016418,-0.5495481491088867,-0.04073716700077057,-0.5251503586769104,0.8154628276824951,-0.24338708817958832,0.16697260737419128,-0.18170565366744995,-0.9690734148025513,,-0.019067427466460313,0.023060080362434385,0.13600156164000002,1.04928847719656,-1.2144252099152346,-0.5361299676930336,0.632468224071929,,-1.4817298656459599,-0.017576940021734985,0.11022872386000002,1.3956962638329942,-0.3517023503962437,2.119578934128665,-0.10437685825980436
1.9878335620001053,,3.983968734741211,-1.6587309837341309,-1.571492075920105,0.07163160294294357,0.5364876389503479,-0.8408625721931458,-0.26359182596206665,0.8232390880584717,0.502788782119751,0.9619709849357605,0.18562887609004974,0.20038370788097382,,2.0151255130767822,1.2562272548675537,-4.319531440734863,-0.11361213028430939,-0.8458750247955322,-0.5211406946182251,0.9162871837615967,0.11356361210346222,-0.3840845823287964,0.38407018780708313,-0.5211511254310608,0.7621623277664185,,0.4265381097793579,1.8156459331512451,4.143592357635498,-0.8344681859016418,-0.5495481491088867,-0.04073716700077057,-0.5251503586769104,0.8154628276824951,-0.24338708817958832,0.16697260737419128,-0.18170565366744995,-0.9690734148025513,,-0.019075150199334538,0.023060080362434385,0.13600156164000002,1.04928847719656,-1.2144252099152346,-0.5361299676930336,0.632468224071929,,-1.4817221429130856,-0.01758466275460921,0.11022872386000002,1.3959059537764786,-0.3517023503962437,2.119578934128665,-0.10437685825980436
2.0142652389999967,,3.983968734741211,-1.6587309837341309,-1.571492075920105,0.07163160294294357,0.5364876389503479,-0.8408625721931458,-0.26359182596206665,0.8232390880584717,0.502788782119751,0.9619709849357605,0.18562887609004974,0.20038370788097382,,2.0146636962890625,1.2565354108810425,-4.319671154022217,-0.1137743890285492,-0.8459271192550659,-0.5210206508636475,0.9162732362747192,0.11338185518980026,-0.3841714859008789,0.38405537605285645,-0.5211060643196106,0.762200653553009,,0.4265381097793579,1.8156459331512451,4.143592357635498,-0.8344681859016418,-0.5495481491088867,-0.04073716700077057,-0.5251503586769104,0.8154628276824951,-0.24338708817958832,0.16697260737419128,-0.18170565366744995,-0.9690734148025513,,-0.019075150199334538,0.023060080362434385,0.13600156164000002,1.04928847719656,-1.2144252099152346,-0.5361299676930336,0.632468224071929,,-1.4817221429130856,-0.01758466275460921,0.11022872386000002,1.3961156437199633,-0.3517023503962437,2.119578934128665,-0.10437685825980436
2.037340853999922,,3.983968734741211,-1.6587309837341309,-1.571492075920105,0.07163160294294357,0.5364876389503479,-0.8408625721931458,-0.26359182596206665,0.8232390880584717,0.502788782119751,0.9619709849357605,0.18562887609004974,0.20038370788097382,,2.0146830081939697,1.2565171718597412,-4.319666862487793,-0.11377740651369095,-0.8459243774414062,-0.5210243463516235,0.9162752032279968,0.11337818950414658,-0.38416793942451477,0.38404980301856995,-0.5211113095283508,0.762199878692627,,0.4265381097793579,1.8156459331512451,4.143592357635498,-0.8344681859016418,-0.5495481491088867,-0.04073716700077057,-0.5251503586769104,0.8154628276824951,-0.24338708817958832,0.16697260737419128,-0.18170565366744995,-0.9690734148025513,,-0.019075150199334538,0.023060080362434385,0.13600156164000002,1.04928847719656,-1.2144252099152346,-0.5361299676930336,0.632468224071929,,-1.4817298656459599,-0.01758466275460921,0.11022872386000002,1.3961156437199633,-0.3517023503962437,2.119578934128665,-0.10437685825980436
2.0652600820001226,,3.983968734741211,-1.6587309837341309,-1.571492075920105,0.07163160294294357,0.5364876389503479,-0.8408625721931458,-0.26359182596206665,0.8232390880584717,0.502788782119751,0.9619709849357605,0.18562887609004974,0.20038370788097382,,2.0146660804748535,1.2564921379089355,-4.319684028625488,-0.11377360671758652,-0.845926821231842,-0.52102130651474,0.9162776470184326,0.11337703466415405,-0.3841627240180969,0.38404542207717896,-0.5211076140403748,0.762204647064209,,0.4265381097793579,1.8156459331512451,4.143592357635498,-0.8344681859016418,-0.5495481491088867,-0.04073716700077057,-0.5251503586769104,0.8154628276824951,-0.24338708817958832,0.16697260737419128,-0.18170565366744995,-0.9690734148025513,,-0.019075150199334538,0.023060080362434385,0.13600156164000002,1.04928847719656,-1.2144252099152346,-0.5361299676930336,0.632468224071929,,-1.4817298656459599,-0.017576940021734985,0.11022872386000002,1.3961156437199633,-0.3517023503962437,2.119578934128665,-0.10437685825980436
2.0872660990000895,,3.983839988708496,-1.6588045358657837,-1.571628451347351,0.07164587080478668,0.5365088582038879,-0.8408478498458862,-0.2636101543903351,0.8232244849205017,0.5028030276298523,0.9619649052619934,0.1856323778629303,0.20040985941886902,,2.014510154724121,1.2566920518875122,-4.319703578948975,-0.11380845308303833,-0.8459516167640686,-0.5209734439849854,0.9162577390670776,0.11335083097219467,-0.38421767950057983,0.3840823173522949,-0.5210731029510498,0.7622095942497253,,0.4265296459197998,1.8156508207321167,4.143595218658447,-0.8344589471817017,-0.5495625734329224,-0.040732868015766144,-0.5251650214195251,0.8154531121253967,-0.24338778853416443,0.16697260737419128,-0.18170565366744995,-0.9690734148025513,,-0.019067427466460313,0.023060080362434385,0.13600156164000002,1.04928847719656,-1.2144252099152346,-0.5361299676930336,0.632468224071929,,-1.4817298656459599,-0.017576940021734985,0.11022872386000002,1.3961156437199633,-0.3517023503962437,2.119578934128665,-0.10437685825980436
2.1135258829999657,,3.983839988708496,-1.6588045358657837,-1.571628451347351,0.07164587080478668,0.5365088582038879,-0.8408478498458862,-0.2636101543903351,0.8232244849205017,0.5028030276298523,0.9619649052619934,0.1856323778629303,0.20040985941886902,,2.014491081237793,1.2567102909088135,-4.31970739364624,-0.11380540579557419,-0.8459543585777283,-0.5209696888923645,0.9162558317184448,0.11335454881191254,-0.38422125577926636,0.38408786058425903,-0.5210678577423096,0.7622103691101074,,0.4265296459197998,1.8156508207321167,4.143595218658447,-0.8344589471817017,-0.5495625734329224,-0.040732868015766144,-0.5251650214195251,0.8154531121253967,-0.24338778853416443,0.16697260737419128,-0.18170565366744995,-0.9690734148025513,,-0.019067427466460313,0.023060080362434385,0.13600156164000002,1.04928847719656,-1.2144252099152346,-0.5361299676930336,0.632468224071929,,-1.4817221429130856,-0.017576940021734985,0.11022872386000002,1.3961156437199633,-0.3517023503962437,2.119578934128665,-0.10437685825980436
2.136746613000014,,3.98384952545166,-1.6588029861450195,-1.5716010332107544,0.07163859903812408,0.5365076661109924,-0.8408492207527161,-0.26361197233200073,0.8232240676879883,0.502802848815918,0.9619649052619934,0.18563787639141083,0.20040446519851685,,2.01450777053833,1.2567354440689087,-4.319690704345703,-0.11380922794342041,-0.8459519743919373,-0.5209727883338928,0.9162534475326538,0.11335567384958267,-0.384226530790329,0.3840922713279724,-0.5210715532302856,0.7622056007385254,,0.4265296459197998,1.8156508207321167,4.143595218658447,-0.8344589471817017,-0.5495625734329224,-0.040732868015766144,-0.5251650214195251,0.8154531121253967,-0.24338778853416443,0.16697260737419128,-0.18170565366744995,-0.9690734148025513,,-0.019075150199334538,0.023060080362434385,0.13600156164000002,1.04928847719656,-1.2144252099152346,-0.5361299676930336,0.632468224071929,,-1.4817221429130856,-0.01758466275460921,0.11022872386000002,1.3961156437199633,-0.3517023503962437,2.119578934128665,-0.10437685825980436
2.160118662000059,,3.98384952545166,-1.6588029861450195,-1.5716010332107544,0.07163859903812408,0.5365076661109924,-0.8408492207527161,-0.26361197233200073,0.8232240676879883,0.502802848815918,0.9619649052619934,0.18563787639141083,0.20040446519851685,,2.01450777053833,1.2567354440689087,-4.319690704345703,-0.11380922794342041,-0.8459519743919373,-0.5209727883338928,0.9162534475326538,0.11335567384958267,-0.384226530790329,0.3840922713279724,-0.5210715532302856,0.7622056007385254,,0.4265296459197998,1.8156508207321167,4.143595218658447,-0.8344589471817017,-0.5495625734329224,-0.040732868015766144,-0.5251650214195251,0.8154531121253967,-0.24338778853416443,0.16697260737419128,-0.18170565366744995,-0.9690734148025513,,-0.019075150199334538,0.023060080362434385,0.13600156164000002,1.04928847719656,-1.2144252099152346,-0.5361299676930336,0.632468224071929,,-1.4817221429130856,-0.01758466275460921,0.11022872386000002,1.3961156437199633,-0.3517023503962437,2.119578934128665,-0.10437685825980436
2.18549278699993,,3.98384952545166,-1.6588029861450195,-1.5716010332107544,0.07163859903812408,0.5365076661109924,-0.8408492207527161,-0.26361197233200073,0.8232240676879883,0.502802848815918,0.9619649052619934,0.18563787639141083,0.20040446519851685,,2.01450777053833,1.2567354440689087,-4.319690704345703,-0.11380922794342041,-0.8459519743919373,-0.5209727883338928,0.9162534475326538,0.11335567384958267,-0.384226530790329,0.3840922713279724,-0.5210715532302856,0.7622056007385254,,0.4265296459197998,1.8156508207321167,4.143595218658447,-0.8344589471817017,-0.5495625734329224,-0.040732868015766144,-0.5251650214195251,0.8154531121253967,-0.24338778853416443,0.16697260737419128,-0.18170565366744995,-0.9690734148025513,,-0.019075150199334538,0.023060080362434385,0.13600156164000002,1.04928847719656,-1.2144252099152346,-0.5361299676930336,0.632468224071929,,-1.4817221429130856,-0.01758466275460921,0.11022872386000002,1.3961156437199633,-0.3517023503962437,2.119578934128665,-0.10437685825980436
2.2103563860000577,,3.98384952545166,-1.6588029861450195,-1.5716010332107544,0.07163859903812408,0.5365076661109924,-0.8408492207527161,-0.26361197233200073,0.8232240676879883,0.502802848815918,0.9619649052619934,0.18563787639141083,0.20040446519851685,,2.014510154724121,1.2566920518875122,-4.319703578948975,-0.11380845308303833,-0.8459516167640686,-0.5209734439849854,0.9162577390670776,0.11335083097219467,-0.38421767950057983,0.3840823173522949,-0.5210731029510498,0.7622095942497253,,0.4265296459197998,1.8156508207321167,4.143595218658447,-0.8344589471817017,-0.5495625734329224,-0.040732868015766144,-0.5251650214195251,0.8154531121253967,-0.24338778853416443,0.16697260737419128,-0.18170565366744995,-0.9690734148025513,,-0.019075150199334538,0.023060080362434385,0.13600156164000002,1.04928847719656,-1.2144252099152346,-0.5361299676930336,0.632468224071929,,-1.4817298656459599,-0.017576940021734985,0.11022872386000002,1.3961156437199633,-0.3517023503962437,2.119578934128665,-0.10437685825980436
2.2329853000001094,,3.98384952545166,-1.6588029861450195,-1.5716010332107544,0.07163859903812408,0.5365076661109924,-0.8408492207527161,-0.26361197233200073,0.8232240676879883,0.502802848815918,0.9619649052619934,0.18563787639141083,0.20040446519851685,,2.014510154724121,1.2566920518875122,-4.319703578948975,-0.11380845308303833,-0.8459516167640686,-0.5209734439849854,0.9162577390670776,0.11335083097219467,-0.38421767950057983,0.3840823173522949,-0.5210731029510498,0.7622095942497253,,0.4265296459197998,1.8156508207321167,4.143595218658447,-0.8344589471817017,-0.5495625734329224,-0.040732868015766144,-0.5251650214195251,0.8154531121253967,-0.24338778853416443,0.16697260737419128,-0.18170565366744995,-0.9690734148025513,,-0.019075150199334538,0.023060080362434385,0.13600156164000002,1.04928847719656,-1.2144252099152346,-0.5361299676930336,0.632468224071929,,-1.4817298656459599,-0.017576940021734985,0.11022872386000002,1.3961156437199633,-0.3517023503962437,2.119578934128665,-0.10437685825980436
2.255410711999957,,3.98384952545166,-1.6588029861450195,-1.5716010332107544,0.07163859903812408,0.5365076661109924,-0.8408492207527161,-0.26361197233200073,0.8232240676879883,0.502802848815918,0.9619649052619934,0.18563787639141083,0.20040446519851685,,2.014510154724121,1.2566920518875122,-4.319703578948975,-0.11380845308303833,-0.8459516167640686,-0.5209734439849854,0.9162577390670776,0.11335083097219467,-0.38421767950057983,0.3840823173522949,-0.5210731029510498,0.7622095942497253,,0.4265296459197998,1.8156508207321167,4.143595218658447,-0.8344589471817017,-0.5495625734329224,-0.040732868015766144,-0.5251650214195251,0.8154531121253967,-0.24338778853416443,0.16697260737419128,-0.18170565366744995,-0.9690734148025513,,-0.019075150199334538,0.023060080362434385,0.13600156164000002,1.04928847719656,-1.2144252099152346,-0.5361299676930336,0.632468224071929,,-1.4817298656459599,-0.017576940021734985,0.11022872386000002,1.3961156437199633,-0.3517023503962437,2.119578934128665,-0.10437685825980436
2.280625005000047,,3.98384952545166,-1.6588029861450195,-1.5716010332107544,0.07163859903812408,0.5365076661109924,-0.8408492207527161,-0.26361197233200073,0.8232240676879883,0.502802848815918,0.9619649052619934,0.18563787639141083,0.20040446519851685,,2.014526844024658,1.2567172050476074,-4.319686412811279,-0.11381224542856216,-0.8459492325782776,-0.5209765434265137,0.9162554144859314,0.11335193365812302,-0.38422295451164246,0.3840867280960083,-0.5210767388343811,0.7622048854827881,,0.4265296459197998,1.8156508207321167,4.143595218658447,-0.8344589471817017,-0.5495625734329224,-0.040732868015766144,-0.5251650214195251,0.8154531121253967,-0.24338778853416443,0.16697260737419128,-0.18170565366744995,-0.9690734148025513,,-0.019075150199334538,0.023060080362434385,0.13600156164000002,1.04928847719656,-1.2144252099152346,-0.5361299676930336,0.632468224071929,,-1.4817298656459599,-0.01758466275460921,0.11022872386000002,1.3961156437199633,-0.3517023503962437,2.119578934128665,-0.10437685825980436
2.3055491249999704,,3.983839988708496,-1.6588045358657837,-1.571628451347351,0.07164587080478668,0.5365088582038879,-0.8408478498458862,-0.2636101543903351,0.8232244849205017,0.5028030276298523,0.9619649052619934,0.1856323778629303,0.20040985941886902,,2.01450777053833,1.2567354440689087,-4.319690704345703,-0.11380922794342041,-0.8459519743919373,-0.5209727883338928,0.9162534475326538,0.11335567384958267,-0.384226530790329,0.3840922713279724,-0.5210715532302856,0.7622056007385254,,0.4265296459197998,1.8156508207321167,4.143595218658447,-0.8344589471817017,-0.5495625734329224,-0.040732868015766144,-0.5251650214195251,0.8154531121253967,-0.24338778853416443,0.16697260737419128,-0.18170565366744995,-0.9690734148025513,,-0.019067427466460313,0.023060080362434385,0.13600156164000002,1.04928847719656,-1.2144252099152346,-0.5361299676930336,0.632468224071929,,-1.4817221429130856,-0.01758466275460921,0.11022872386000002,1.3961156437199633,-0.3517023503962437,2.119578934128665,-0.10437685825980436
2.3314491870000893,,3.983752965927124,-1.6591366529464722,-1.5714746713638306,0.0715990886092186,0.5365651845932007,-0.8408157825469971,-0.2635921537876129,0.8231889605522156,0.5028707981109619,0.9619733691215515,0.18562743067741394,0.20037393271923065,,2.01450777053833,1.2567354440689087,-4.319690704345703,-0.11380922794342041,-0.8459519743919373,-0.5209727883338928,0.9162534475326538,0.11335567384958267,-0.384226530790329,0.3840922713279724,-0.5210715532302856,0.7622056007385254,,0.4265296459197998,1.8156508207321167,4.143595218658447,-0.8344589471817017,-0.5495625734329224,-0.040732868015766144,-0.5251650214195251,0.8154531121253967,-0.24338778853416443,0.16697260737419128,-0.18170565366744995,-0.9690734148025513,,-0.019075150199334538,0.023060080362434385,0.13600156164000002,1.04928847719656,-1.2144252099152346,-0.5362116464331742,0.6326315681380636,,-1.4817221429130856,-0.01758466275460921,0.11022872386000002,1.3961156437199633,-0.3517023503962437,2.119578934128665,-0.10437685825980436
2.352155903000039,,3.983656883239746,-1.6594702005386353,-1.5713484287261963,0.07155955582857132,0.5366228222846985,-0.8407825231552124,-0.2635722756385803,0.8231537342071533,0.5029387474060059,0.9619817137718201,0.18561695516109467,0.20034343004226685,,2.014491081237793,1.2567102909088135,-4.31970739364624,-0.11380540579557419,-0.8459543585777283,-0.5209696888923645,0.9162558317184448,0.11335454881191254,-0.38422125577926636,0.38408786058425903,-0.5210678577423096,0.7622103691101074,,0.4265296459197998,1.8156508207321167,4.143595218658447,-0.8344589471817017,-0.5495625734329224,-0.040732868015766144,-0.5251650214195251,0.8154531121253967,-0.24338778853416443,0.16697260737419128,-0.18170565366744995,-0.9690734148025513,,-0.019075150199334538,0.023060080362434385,0.13600156164000002,1.04928847719656,-1.2144252099152346,-0.5362933251733146,0.6327949122041978,,-1.4817221429130856,-0.017576940021734985,0.11022872386000002,1.3961156437199633,-0.3517023503962437,2.119578934128665,-0.10437685825980436
2.376640440000074,,3.983656883239746,-1.6594702005386353,-1.5713484287261963,0.07155955582857132,0.5366228222846985,-0.8407825231552124,-0.2635722756385803,0.8231537342071533,0.5029387474060059,0.9619817137718201,0.18561695516109467,0.20034343004226685,,2.015451431274414,1.2561005353927612,-4.319406986236572,-0.1134878545999527,-0.8458449840545654,-0.521216630935669,0.9162833094596863,0.1137155294418335,-0.38404911756515503,0.3841163218021393,-0.5211668014526367,0.7621283531188965,,0.4265296459197998,1.8156508207321167,4.143595218658447,-0.8344589471817017,-0.5495625734329224,-0.040732868015766144,-0.5251650214195251,0.8154531121253967,-0.24338778853416443,0.16697260737419128,-0.18170565366744995,-0.9690734148025513,,-0.019075150199334538,0.023060080362434385,0.13600156164000002,1.04928847719656,-1.2144252099152346,-0.5362933251733146,0.6327949122041978,,-1.4817298656459599,-0.01758466275460921,0.11022872386000002,1.3956962638329942,-0.3517023503962437,2.119578934128665,-0.10437685825980436
2.400671373000023,,3.983656883239746,-1.6594702005386353,-1.5713484287261963,0.07155955582857132,0.5366228222846985,-0.8407825231552124,-0.2635722756385803,0.8231537342071533,0.5029387474060059,0.9619817137718201,0.18561695516109467,0.20034343004226685,,2.015451431274414,1.2561005353927612,-4.319406986236572,-0.1134878545999527,-0.8458449840545654,-0.521216630935669,0.9162833094596863,0.1137155294418335,-0.38404911756515503,0.3841163218021393,-0.5211668014526367,0.7621283531188965,,0.4265296459197998,1.8156508207321167,4.143595218658447,-0.8344589471817017,-0.5495625734329224,-0.040732868015766144,-0.5251650214195251,0.8154531121253967,-0.24338778853416443,0.16697260737419128,-0.18170565366744995,-0.9690734148025513,,-0.019075150199334538,0.023060080362434385,0.13600156164000002,1.04928847719656,-1.2144252099152346,-0.5362933251733146,0.6327949122041978,,-1.4817298656459599,-0.01758466275460921,0.11022872386000002,1.3956962638329942,-0.3517023503962437,2.119578934128665,-0.10437685825980436
2.4224750240000503,,3.983656883239746,-1.6594702005386353,-1.5713484287261963,0.07155955582857132,0.5366228222846985,-0.8407825231552124,-0.2635722756385803,0.8231537342071533,0.5029387474060059,0.9619817137718201,0.18561695516109467,0.20034343004226685,,2.015451431274414,1.2561005353927612,-4.319406986236572,-0.1134878545999527,-0.8458449840545654,-0.521216630935669,0.9162833094596863,0.1137155294418335,-0.38404911756515503,0.3841163218021393,-0.5211668014526367,0.7621283531188965,,0.4265296459197998,1.8156508207321167,4.143595218658447,-0.8344589471817017,-0.5495625734329224,-0.040732868015766144,-0.5251650214195251,0.8154531121253967,-0.24338778853416443,0.16697260737419128,-0.18170565366744995,-0.9690734148025513,,-0.019075150199334538,0.023060080362434385,0.13600156164000002,1.04928847719656,-1.2144252099152346,-0.5362933251733146,0.6327949122041978,,-1.4817298656459599,-0.01758466275460921,0.11022872386000002,1.3956962638329942,-0.3517023503962437,2.119578934128665,-0.10437685825980436
