AlexandreBanks6/ExpertPlaybackApp/resources/Motions/Motion_UsedToBeBest.csv
Time,si_T_psm1,Tx,Ty,Tz,R00,R01,R02,R10,R11,R12,R20,R21,R22,si_T_psm3,Tx,Ty,Tz,R00,R01,R02,R10,R11,R12,R20,R21,R22,si_T_ecm,Tx,Ty,Tz,R00,R01,R02,R10,R11,R12,R20,R21,R22,joint_vars_psm1,q1,q2,q3,q4,q5,q6,jaw,joint_vars_psm3,q1,q2,q3,q4,q5,q6,jaw
lci_T_si
,,-0.069834806,0.06389098,0.5985847,0.99985605,0.0017580282,0.01687404,0.006117252,-0.9650685,-0.26192626,0.01582413,0.2619918,-0.96494037
rci_T_si
,,-0.071806684,0.053213004,0.579244,0.9992578,0.0016943311,-0.038483974,-0.004445165,-0.98728657,-0.15888837,-0.038263917,0.1589415,-0.9865462
ecm_T_lc
,,0.022782804,0.054864287,-0.33796614,-0.99125,-0.12739496,-0.0345537,0.12872347,-0.990897,-0.03941251,-0.029218202,-0.043515522,0.99862534
ecm_T_rc
,,0.022707665,0.067641795,-0.42994186,-0.99723834,0.02928547,-0.06824988,-0.024871755,-0.9975983,-0.06464576,-0.069979146,-0.06276973,0.9955716
0.023802435025572777,,0.08069923,-0.043499872,0.37854114,-0.68242544,-0.21691494,-0.69802815,-0.6567007,-0.23742591,0.7158026,-0.3209983,0.9468774,0.019577354,,-0.1298131,0.085371494,0.10262355,0.20566407,-0.94365233,-0.2592732,-0.94651556,-0.25911522,0.19226983,-0.24861754,0.20586309,-0.9464722,,0.0785778,-0.04724909,0.2561274,-0.9884936,0.11887383,0.09353763,0.14174883,0.9438202,0.29851443,-0.052797154,0.30833852,-0.9498104,,-0.611671334570078,0.008440947031527389,0.07934850348000001,0.16481629557883615,-0.005875369489913939,0.977666443673183,-0.06419421799077163,,-1.4782391903868104,-0.13760365435293231,0.1462733636,0.0698267511803466,0.007378370987333784,1.1486757825675216,0.0690945399748002
0.04879426397383213,,0.080699675,-0.04350007,0.37854087,-0.68242574,-0.216921,-0.69802606,-0.65669984,-0.23742117,0.7158048,-0.32099932,0.9468772,0.019570358,,-0.1298131,0.085371494,0.10262355,0.20566407,-0.94365233,-0.2592732,-0.94651556,-0.25911522,0.19226983,-0.24861754,0.20586309,-0.9464722,,0.0785778,-0.04724909,0.2561274,-0.9884936,0.11887383,0.09353763,0.14174883,0.9438202,0.29851443,-0.052797154,0.30833852,-0.9498104,,-0.6116790573029522,0.008440947031527389,0.07934850348000001,0.16481629557883615,-0.005875369489913939,0.977666443673183,-0.06419421799077163,,-1.4782391903868104,-0.13760365435293231,0.1462733636,0.0698267511803466,0.007378370987333784,1.1486757825675216,0.0690945399748002
0.07058008899912238,,0.080699675,-0.04350007,0.37854087,-0.68242574,-0.216921,-0.69802606,-0.65669984,-0.23742117,0.7158048,-0.32099932,0.9468772,0.019570358,,-0.1298131,0.085371494,0.10262355,0.20566407,-0.94365233,-0.2592732,-0.94651556,-0.25911522,0.19226983,-0.24861754,0.20586309,-0.9464722,,0.0785778,-0.04724909,0.2561274,-0.9884936,0.11887383,0.09353763,0.14174883,0.9438202,0.29851443,-0.052797154,0.30833852,-0.9498104,,-0.6116790573029522,0.008440947031527389,0.07934850348000001,0.16481629557883615,-0.005875369489913939,0.977666443673183,-0.06419421799077163,,-1.4782391903868104,-0.13760365435293231,0.1462733636,0.0698267511803466,0.007378370987333784,1.1486757825675216,0.0690945399748002
0.0935490729752928,,0.080699675,-0.04350007,0.37854087,-0.68242574,-0.216921,-0.69802606,-0.65669984,-0.23742117,0.7158048,-0.32099932,0.9468772,0.019570358,,-0.1298131,0.085371494,0.10262355,0.20566407,-0.94365233,-0.2592732,-0.94651556,-0.25911522,0.19226983,-0.24861754,0.20586309,-0.9464722,,0.0785778,-0.04724909,0.2561274,-0.9884936,0.11887383,0.09353763,0.14174883,0.9438202,0.29851443,-0.052797154,0.30833852,-0.9498104,,-0.6116790573029522,0.008440947031527389,0.07934850348000001,0.16481629557883615,-0.005875369489913939,0.977666443673183,-0.06419421799077163,,-1.4782391903868104,-0.13760365435293231,0.1462733636,0.0698267511803466,0.007378370987333784,1.1486757825675216,0.0690945399748002
0.11890551401302218,,0.08069923,-0.043499872,0.37854114,-0.68242544,-0.21691494,-0.69802815,-0.6567007,-0.23742591,0.7158026,-0.3209983,0.9468774,0.019577354,,-0.1298131,0.085371494,0.10262355,0.20566407,-0.94365233,-0.2592732,-0.94651556,-0.25911522,0.19226983,-0.24861754,0.20586309,-0.9464722,,0.0785778,-0.04724909,0.2561274,-0.9884936,0.11887383,0.09353763,0.14174883,0.9438202,0.29851443,-0.052797154,0.30833852,-0.9498104,,-0.611671334570078,0.008440947031527389,0.07934850348000001,0.16481629557883615,-0.005875369489913939,0.977666443673183,-0.06419421799077163,,-1.4782391903868104,-0.13760365435293231,0.1462733636,0.0698267511803466,0.007378370987333784,1.1486757825675216,0.0690945399748002
0.14132785494439304,,0.080698915,-0.043500274,0.3785409,-0.68242383,-0.2169115,-0.6980308,-0.6567052,-0.23742086,0.7158001,-0.3209924,0.9468794,0.019574791,,-0.1298131,0.085371494,0.10262355,0.20566407,-0.94365233,-0.2592732,-0.94651556,-0.25911522,0.19226983,-0.24861754,0.20586309,-0.9464722,,0.0785778,-0.04724909,0.2561274,-0.9884936,0.11887383,0.09353763,0.14174883,0.9438202,0.29851443,-0.052797154,0.30833852,-0.9498104,,-0.611671334570078,0.008433224298653164,0.07934850348000001,0.16481629557883615,-0.005875369489913939,0.977666443673183,-0.06419421799077163,,-1.4782391903868104,-0.13760365435293231,0.1462733636,0.0698267511803466,0.007378370987333784,1.1486757825675216,0.0690945399748002
0.17262610304169357,,0.080698594,-0.043500684,0.37854066,-0.6824223,-0.21690807,-0.69803345,-0.65670973,-0.23741579,0.7157976,-0.3209865,0.9468815,0.019572213,,-0.1298131,0.085371494,0.10262355,0.20566407,-0.94365233,-0.2592732,-0.94651556,-0.25911522,0.19226983,-0.24861754,0.20586309,-0.9464722,,0.0785778,-0.04724909,0.2561274,-0.9884936,0.11887383,0.09353763,0.14174883,0.9438202,0.29851443,-0.052797154,0.30833852,-0.9498104,,-0.611671334570078,0.00842550156577894,0.07934850348000001,0.16481629557883615,-0.005875369489913939,0.977666443673183,-0.06419421799077163,,-1.4782391903868104,-0.13760365435293231,0.1462733636,0.0698267511803466,0.007378370987333784,1.1486757825675216,0.0690945399748002
0.20513646607287228,,0.08069905,-0.043500878,0.3785404,-0.6824225,-0.21691413,-0.69803125,-0.65670896,-0.23741104,0.71579987,-0.3209875,0.9468813,0.019565225,,-0.1298131,0.085371494,0.10262355,0.20566407,-0.94365233,-0.2592732,-0.94651556,-0.25911522,0.19226983,-0.24861754,0.20586309,-0.9464722,,0.0785778,-0.04724909,0.2561274,-0.9884936,0.11887383,0.09353763,0.14174883,0.9438202,0.29851443,-0.052797154,0.30833852,-0.9498104,,-0.6116790573029522,0.00842550156577894,0.07934850348000001,0.16481629557883615,-0.005875369489913939,0.977666443673183,-0.06419421799077163,,-1.4782391903868104,-0.13760365435293231,0.1462733636,0.0698267511803466,0.007378370987333784,1.1486757825675216,0.0690945399748002
0.23082299903035164,,0.08069905,-0.043500878,0.3785404,-0.6824225,-0.21691413,-0.69803125,-0.65670896,-0.23741104,0.71579987,-0.3209875,0.9468813,0.019565225,,-0.1298131,0.085371494,0.10262355,0.20566407,-0.94365233,-0.2592732,-0.94651556,-0.25911522,0.19226983,-0.24861754,0.20586309,-0.9464722,,0.0785778,-0.04724909,0.2561274,-0.9884936,0.11887383,0.09353763,0.14174883,0.9438202,0.29851443,-0.052797154,0.30833852,-0.9498104,,-0.6116790573029522,0.00842550156577894,0.07934850348000001,0.16481629557883615,-0.005875369489913939,0.977666443673183,-0.06419421799077163,,-1.4782391903868104,-0.13760365435293231,0.1462733636,0.0698267511803466,0.007378370987333784,1.1486757825675216,0.0690945399748002
0.2533667569514364,,0.08069905,-0.043500878,0.3785404,-0.6824225,-0.21691413,-0.69803125,-0.65670896,-0.23741104,0.71579987,-0.3209875,0.9468813,0.019565225,,-0.1298131,0.085371494,0.10262355,0.20566407,-0.94365233,-0.2592732,-0.94651556,-0.25911522,0.19226983,-0.24861754,0.20586309,-0.9464722,,0.0785778,-0.04724909,0.2561274,-0.9884936,0.11887383,0.09353763,0.14174883,0.9438202,0.29851443,-0.052797154,0.30833852,-0.9498104,,-0.6116790573029522,0.00842550156577894,0.07934850348000001,0.16481629557883615,-0.005875369489913939,0.977666443673183,-0.06419421799077163,,-1.4782391903868104,-0.13760365435293231,0.1462733636,0.0698267511803466,0.007378370987333784,1.1486757825675216,0.0690945399748002
0.27368040289729834,,0.08069905,-0.043500878,0.3785404,-0.6824225,-0.21691413,-0.69803125,-0.65670896,-0.23741104,0.71579987,-0.3209875,0.9468813,0.019565225,,-0.1298131,0.085371494,0.10262355,0.20566407,-0.94365233,-0.2592732,-0.94651556,-0.25911522,0.19226983,-0.24861754,0.20586309,-0.9464722,,0.0785778,-0.04724909,0.2561274,-0.9884936,0.11887383,0.09353763,0.14174883,0.9438202,0.29851443,-0.052797154,0.30833852,-0.9498104,,-0.6116790573029522,0.00842550156577894,0.07934850348000001,0.16481629557883615,-0.005875369489913939,0.977666443673183,-0.06419421799077163,,-1.4782391903868104,-0.13760365435293231,0.1462733636,0.0698267511803466,0.007378370987333784,1.1486757825675216,0.0690945399748002
0.30034696008078754,,0.080698594,-0.043500684,0.37854066,-0.6824223,-0.21690807,-0.69803345,-0.65670973,-0.23741579,0.7157976,-0.3209865,0.9468815,0.019572213,,-0.1298131,0.085371494,0.10262355,0.20566407,-0.94365233,-0.2592732,-0.94651556,-0.25911522,0.19226983,-0.24861754,0.20586309,-0.9464722,,0.0785778,-0.04724909,0.2561274,-0.9884936,0.11887383,0.09353763,0.14174883,0.9438202,0.29851443,-0.052797154,0.30833852,-0.9498104,,-0.611671334570078,0.00842550156577894,0.07934850348000001,0.16481629557883615,-0.005875369489913939,0.977666443673183,-0.06419421799077163,,-1.4782391903868104,-0.13760365435293231,0.1462733636,0.0698267511803466,0.007378370987333784,1.1486757825675216,0.0690945399748002
0.3234294659923762,,0.08069905,-0.043500878,0.3785404,-0.6824225,-0.21691413,-0.69803125,-0.65670896,-0.23741104,0.71579987,-0.3209875,0.9468813,0.019565225,,-0.1298131,0.085371494,0.10262355,0.20566407,-0.94365233,-0.2592732,-0.94651556,-0.25911522,0.19226983,-0.24861754,0.20586309,-0.9464722,,0.0785778,-0.04724909,0.2561274,-0.9884936,0.11887383,0.09353763,0.14174883,0.9438202,0.29851443,-0.052797154,0.30833852,-0.9498104,,-0.6116790573029522,0.00842550156577894,0.07934850348000001,0.16481629557883615,-0.005875369489913939,0.977666443673183,-0.06419421799077163,,-1.4782391903868104,-0.13760365435293231,0.1462733636,0.0698267511803466,0.007378370987333784,1.1486757825675216,0.0690945399748002
0.3474647859111428,,0.080698594,-0.043500684,0.37854066,-0.6824223,-0.21690807,-0.69803345,-0.65670973,-0.23741579,0.7157976,-0.3209865,0.9468815,0.019572213,,-0.1298131,0.085371494,0.10262355,0.20566407,-0.94365233,-0.2592732,-0.94651556,-0.25911522,0.19226983,-0.24861754,0.20586309,-0.9464722,,0.0785778,-0.04724909,0.2561274,-0.9884936,0.11887383,0.09353763,0.14174883,0.9438202,0.29851443,-0.052797154,0.30833852,-0.9498104,,-0.611671334570078,0.00842550156577894,0.07934850348000001,0.16481629557883615,-0.005875369489913939,0.977666443673183,-0.06419421799077163,,-1.4782391903868104,-0.13760365435293231,0.1462733636,0.0698267511803466,0.007378370987333784,1.1486757825675216,0.0690945399748002
0.37039229995571077,,0.080698594,-0.043500684,0.37854066,-0.6824223,-0.21690807,-0.69803345,-0.65670973,-0.23741579,0.7157976,-0.3209865,0.9468815,0.019572213,,-0.1298131,0.085371494,0.10262355,0.20566407,-0.94365233,-0.2592732,-0.94651556,-0.25911522,0.19226983,-0.24861754,0.20586309,-0.9464722,,0.0785778,-0.04724909,0.2561274,-0.9884936,0.11887383,0.09353763,0.14174883,0.9438202,0.29851443,-0.052797154,0.30833852,-0.9498104,,-0.611671334570078,0.00842550156577894,0.07934850348000001,0.16481629557883615,-0.005875369489913939,0.977666443673183,-0.06419421799077163,,-1.4782391903868104,-0.13760365435293231,0.1462733636,0.0698267511803466,0.007378370987333784,1.1486757825675216,0.0690945399748002
0.39440375193953514,,0.080698594,-0.043500684,0.37854066,-0.6824223,-0.21690807,-0.69803345,-0.65670973,-0.23741579,0.7157976,-0.3209865,0.9468815,0.019572213,,-0.1298131,0.085371494,0.10262355,0.20566407,-0.94365233,-0.2592732,-0.94651556,-0.25911522,0.19226983,-0.24861754,0.20586309,-0.9464722,,0.0785778,-0.04724909,0.2561274,-0.9884936,0.11887383,0.09353763,0.14174883,0.9438202,0.29851443,-0.052797154,0.30833852,-0.9498104,,-0.611671334570078,0.00842550156577894,0.07934850348000001,0.16481629557883615,-0.005875369489913939,0.977666443673183,-0.06419421799077163,,-1.4782391903868104,-0.13760365435293231,0.1462733636,0.0698267511803466,0.007378370987333784,1.1486757825675216,0.0690945399748002
0.42151002190075815,,0.08069905,-0.043500878,0.3785404,-0.6824225,-0.21691413,-0.69803125,-0.65670896,-0.23741104,0.71579987,-0.3209875,0.9468813,0.019565225,,-0.1298131,0.085371494,0.10262355,0.20566407,-0.94365233,-0.2592732,-0.94651556,-0.25911522,0.19226983,-0.24861754,0.20586309,-0.9464722,,0.0785778,-0.04724909,0.2561274,-0.9884936,0.11887383,0.09353763,0.14174883,0.9438202,0.29851443,-0.052797154,0.30833852,-0.9498104,,-0.6116790573029522,0.00842550156577894,0.07934850348000001,0.16481629557883615,-0.005875369489913939,0.977666443673183,-0.06419421799077163,,-1.4782391903868104,-0.13760365435293231,0.1462733636,0.0698267511803466,0.007378370987333784,1.1486757825675216,0.0690945399748002
0.4408365630079061,,0.080698594,-0.043500684,0.37854066,-0.6824223,-0.21690807,-0.69803345,-0.65670973,-0.23741579,0.7157976,-0.3209865,0.9468815,0.019572213,,-0.1298131,0.085371494,0.10262355,0.20566407,-0.94365233,-0.2592732,-0.94651556,-0.25911522,0.19226983,-0.24861754,0.20586309,-0.9464722,,0.0785778,-0.04724909,0.2561274,-0.9884936,0.11887383,0.09353763,0.14174883,0.9438202,0.29851443,-0.052797154,0.30833852,-0.9498104,,-0.611671334570078,0.00842550156577894,0.07934850348000001,0.16481629557883615,-0.005875369489913939,0.977666443673183,-0.06419421799077163,,-1.4782391903868104,-0.13760365435293231,0.1462733636,0.0698267511803466,0.007378370987333784,1.1486757825675216,0.0690945399748002
0.4657823049928993,,0.08069905,-0.043500878,0.3785404,-0.6824225,-0.21691413,-0.69803125,-0.65670896,-0.23741104,0.71579987,-0.3209875,0.9468813,0.019565225,,-0.1298131,0.085371494,0.10262355,0.20566407,-0.94365233,-0.2592732,-0.94651556,-0.25911522,0.19226983,-0.24861754,0.20586309,-0.9464722,,0.0785778,-0.04724909,0.2561274,-0.9884936,0.11887383,0.09353763,0.14174883,0.9438202,0.29851443,-0.052797154,0.30833852,-0.9498104,,-0.6116790573029522,0.00842550156577894,0.07934850348000001,0.16481629557883615,-0.005875369489913939,0.977666443673183,-0.06419421799077163,,-1.4782391903868104,-0.13760365435293231,0.1462733636,0.0698267511803466,0.007378370987333784,1.1486757825675216,0.0690945399748002
0.4883225909434259,,0.08072149,-0.043516323,0.37854815,-0.68242145,-0.21687895,-0.6980431,-0.65672123,-0.23741388,0.7157876,-0.32096446,0.9468886,0.019587338,,-0.1298365,0.08534941,0.102624014,0.20567769,-0.9436323,-0.25933474,-0.94651467,-0.25913906,0.1922417,-0.24860926,0.20592433,-0.9464611,,0.07859218,-0.047251377,0.2561212,-0.98849446,0.118866526,0.09353687,0.14174162,0.9438212,0.2985144,-0.05279872,0.30833793,-0.9498105,,-0.611671334570078,0.00842550156577894,0.07934850348000001,0.16481629557883615,-0.005875369489913939,0.977666443673183,-0.06419421799077163,,-1.478231467653936,-0.13760365435293231,0.1462733636,0.0698267511803466,0.007378370987333784,1.1486757825675216,0.0690945399748002
0.5147933869156986,,0.08072149,-0.043516323,0.37854815,-0.68242145,-0.21687895,-0.6980431,-0.65672123,-0.23741388,0.7157876,-0.32096446,0.9468886,0.019587338,,-0.12983134,0.08535056,0.10262394,0.20567742,-0.9436344,-0.25932744,-0.94651484,-0.25913724,0.19224381,-0.24860929,0.205917,-0.94646275,,0.07859218,-0.047251377,0.2561212,-0.98849446,0.118866526,0.09353687,0.14174162,0.9438212,0.2985144,-0.05279872,0.30833793,-0.9498105,,-0.611671334570078,0.00842550156577894,0.07934850348000001,0.16481629557883615,-0.005875369489913939,0.977666443673183,-0.06419421799077163,,-1.4782391903868104,-0.13760365435293231,0.1462733636,0.0698267511803466,0.007378370987333784,1.1486757825675216,0.0690945399748002
0.5370052601210773,,0.08072149,-0.043516323,0.37854815,-0.68242145,-0.21687895,-0.6980431,-0.65672123,-0.23741388,0.7157876,-0.32096446,0.9468886,0.019587338,,-0.12983134,0.08535056,0.10262394,0.20567742,-0.9436344,-0.25932744,-0.94651484,-0.25913724,0.19224381,-0.24860929,0.205917,-0.94646275,,0.07859218,-0.047251377,0.2561212,-0.98849446,0.118866526,0.09353687,0.14174162,0.9438212,0.2985144,-0.05279872,0.30833793,-0.9498105,,-0.611671334570078,0.00842550156577894,0.07934850348000001,0.16481629557883615,-0.005875369489913939,0.977666443673183,-0.06419421799077163,,-1.4782391903868104,-0.13760365435293231,0.1462733636,0.0698267511803466,0.007378370987333784,1.1486757825675216,0.0690945399748002
0.5641104779206216,,0.080721945,-0.04351652,0.37854788,-0.6824217,-0.21688499,-0.698041,-0.6567204,-0.23740914,0.71578985,-0.32096544,0.94688845,0.019580334,,-0.12983134,0.08535056,0.10262394,0.20567742,-0.9436344,-0.25932744,-0.94651484,-0.25913724,0.19224381,-0.24860929,0.205917,-0.94646275,,0.07859218,-0.047251377,0.2561212,-0.98849446,0.118866526,0.09353687,0.14174162,0.9438212,0.2985144,-0.05279872,0.30833793,-0.9498105,,-0.6116790573029522,0.00842550156577894,0.07934850348000001,0.16481629557883615,-0.005875369489913939,0.977666443673183,-0.06419421799077163,,-1.4782391903868104,-0.13760365435293231,0.1462733636,0.0698267511803466,0.007378370987333784,1.1486757825675216,0.0690945399748002
0.585234017111361,,0.08072149,-0.043516323,0.37854815,-0.68242145,-0.21687895,-0.6980431,-0.65672123,-0.23741388,0.7157876,-0.32096446,0.9468886,0.019587338,,-0.1298365,0.08534941,0.102624014,0.20567769,-0.9436323,-0.25933474,-0.94651467,-0.25913906,0.1922417,-0.24860926,0.20592433,-0.9464611,,0.07859218,-0.047251377,0.2561212,-0.98849446,0.118866526,0.09353687,0.14174162,0.9438212,0.2985144,-0.05279872,0.30833793,-0.9498105,,-0.611671334570078,0.00842550156577894,0.07934850348000001,0.16481629557883615,-0.005875369489913939,0.977666443673183,-0.06419421799077163,,-1.478231467653936,-0.13760365435293231,0.1462733636,0.0698267511803466,0.007378370987333784,1.1486757825675216,0.0690945399748002
0.6064948870334774,,0.080721945,-0.04351652,0.37854788,-0.6824217,-0.21688499,-0.698041,-0.6567204,-0.23740914,0.71578985,-0.32096544,0.94688845,0.019580334,,-0.12983134,0.08535056,0.10262394,0.20567742,-0.9436344,-0.25932744,-0.94651484,-0.25913724,0.19224381,-0.24860929,0.205917,-0.94646275,,0.07859218,-0.047251377,0.2561212,-0.98849446,0.118866526,0.09353687,0.14174162,0.9438212,0.2985144,-0.05279872,0.30833793,-0.9498105,,-0.6116790573029522,0.00842550156577894,0.07934850348000001,0.16481629557883615,-0.005875369489913939,0.977666443673183,-0.06419421799077163,,-1.4782391903868104,-0.13760365435293231,0.1462733636,0.0698267511803466,0.007378370987333784,1.1486757825675216,0.0690945399748002
0.6332835489884019,,0.080721945,-0.04351652,0.37854788,-0.6824217,-0.21688499,-0.698041,-0.6567204,-0.23740914,0.71578985,-0.32096544,0.94688845,0.019580334,,-0.12983134,0.08535056,0.10262394,0.20567742,-0.9436344,-0.25932744,-0.94651484,-0.25913724,0.19224381,-0.24860929,0.205917,-0.94646275,,0.07859218,-0.047251377,0.2561212,-0.98849446,0.118866526,0.09353687,0.14174162,0.9438212,0.2985144,-0.05279872,0.30833793,-0.9498105,,-0.6116790573029522,0.00842550156577894,0.07934850348000001,0.16481629557883615,-0.005875369489913939,0.977666443673183,-0.06419421799077163,,-1.4782391903868104,-0.13760365435293231,0.1462733636,0.0698267511803466,0.007378370987333784,1.1486757825675216,0.0690945399748002
0.6574036539532244,,0.08072149,-0.043516323,0.37854815,-0.68242145,-0.21687895,-0.6980431,-0.65672123,-0.23741388,0.7157876,-0.32096446,0.9468886,0.019587338,,-0.1298365,0.08534941,0.102624014,0.20567769,-0.9436323,-0.25933474,-0.94651467,-0.25913906,0.1922417,-0.24860926,0.20592433,-0.9464611,,0.07859218,-0.047251377,0.2561212,-0.98849446,0.118866526,0.09353687,0.14174162,0.9438212,0.2985144,-0.05279872,0.30833793,-0.9498105,,-0.611671334570078,0.00842550156577894,0.07934850348000001,0.16481629557883615,-0.005875369489913939,0.977666443673183,-0.06419421799077163,,-1.478231467653936,-0.13760365435293231,0.1462733636,0.0698267511803466,0.007378370987333784,1.1486757825675216,0.0690945399748002
0.6834013890475035,,0.08072149,-0.043516323,0.37854815,-0.68242145,-0.21687895,-0.6980431,-0.65672123,-0.23741388,0.7157876,-0.32096446,0.9468886,0.019587338,,-0.1298365,0.08534941,0.102624014,0.20567769,-0.9436323,-0.25933474,-0.94651467,-0.25913906,0.1922417,-0.24860926,0.20592433,-0.9464611,,0.07859218,-0.047251377,0.2561212,-0.98849446,0.118866526,0.09353687,0.14174162,0.9438212,0.2985144,-0.05279872,0.30833793,-0.9498105,,-0.611671334570078,0.00842550156577894,0.07934850348000001,0.16481629557883615,-0.005875369489913939,0.977666443673183,-0.06419421799077163,,-1.478231467653936,-0.13760365435293231,0.1462733636,0.0698267511803466,0.007378370987333784,1.1486757825675216,0.0690945399748002
0.7048385760281235,,0.080721945,-0.04351652,0.37854788,-0.6824217,-0.21688499,-0.698041,-0.6567204,-0.23740914,0.71578985,-0.32096544,0.94688845,0.019580334,,-0.12983134,0.08535056,0.10262394,0.20567742,-0.9436344,-0.25932744,-0.94651484,-0.25913724,0.19224381,-0.24860929,0.205917,-0.94646275,,0.07859218,-0.047251377,0.2561212,-0.98849446,0.118866526,0.09353687,0.14174162,0.9438212,0.2985144,-0.05279872,0.30833793,-0.9498105,,-0.6116790573029522,0.00842550156577894,0.07934850348000001,0.16481629557883615,-0.005875369489913939,0.977666443673183,-0.06419421799077163,,-1.4782391903868104,-0.13760365435293231,0.1462733636,0.0698267511803466,0.007378370987333784,1.1486757825675216,0.0690945399748002
0.7296943769324571,,0.08072149,-0.043516323,0.37854815,-0.68242145,-0.21687895,-0.6980431,-0.65672123,-0.23741388,0.7157876,-0.32096446,0.9468886,0.019587338,,-0.12983134,0.08535056,0.10262394,0.20567742,-0.9436344,-0.25932744,-0.94651484,-0.25913724,0.19224381,-0.24860929,0.205917,-0.94646275,,0.07859218,-0.047251377,0.2561212,-0.98849446,0.118866526,0.09353687,0.14174162,0.9438212,0.2985144,-0.05279872,0.30833793,-0.9498105,,-0.611671334570078,0.00842550156577894,0.07934850348000001,0.16481629557883615,-0.005875369489913939,0.977666443673183,-0.06419421799077163,,-1.4782391903868104,-0.13760365435293231,0.1462733636,0.0698267511803466,0.007378370987333784,1.1486757825675216,0.0690945399748002
0.7552597268950194,,0.080721945,-0.04351652,0.37854788,-0.6824217,-0.21688499,-0.698041,-0.6567204,-0.23740914,0.71578985,-0.32096544,0.94688845,0.019580334,,-0.1298365,0.08534941,0.102624014,0.20567769,-0.9436323,-0.25933474,-0.94651467,-0.25913906,0.1922417,-0.24860926,0.20592433,-0.9464611,,0.07859218,-0.047251377,0.2561212,-0.98849446,0.118866526,0.09353687,0.14174162,0.9438212,0.2985144,-0.05279872,0.30833793,-0.9498105,,-0.6116790573029522,0.00842550156577894,0.07934850348000001,0.16481629557883615,-0.005875369489913939,0.977666443673183,-0.06419421799077163,,-1.478231467653936,-0.13760365435293231,0.1462733636,0.0698267511803466,0.007378370987333784,1.1486757825675216,0.0690945399748002
0.7773250550962985,,0.08072149,-0.043516323,0.37854815,-0.68242145,-0.21687895,-0.6980431,-0.65672123,-0.23741388,0.7157876,-0.32096446,0.9468886,0.019587338,,-0.12983134,0.08535056,0.10262394,0.20567742,-0.9436344,-0.25932744,-0.94651484,-0.25913724,0.19224381,-0.24860929,0.205917,-0.94646275,,0.07859218,-0.047251377,0.2561212,-0.98849446,0.118866526,0.09353687,0.14174162,0.9438212,0.2985144,-0.05279872,0.30833793,-0.9498105,,-0.611671334570078,0.00842550156577894,0.07934850348000001,0.16481629557883615,-0.005875369489913939,0.977666443673183,-0.06419421799077163,,-1.4782391903868104,-0.13760365435293231,0.1462733636,0.0698267511803466,0.007378370987333784,1.1486757825675216,0.0690945399748002
0.802094167098403,,0.08072149,-0.043516323,0.37854815,-0.68242145,-0.21687895,-0.6980431,-0.65672123,-0.23741388,0.7157876,-0.32096446,0.9468886,0.019587338,,-0.12983134,0.08535056,0.10262394,0.20567742,-0.9436344,-0.25932744,-0.94651484,-0.25913724,0.19224381,-0.24860929,0.205917,-0.94646275,,0.07859218,-0.047251377,0.2561212,-0.98849446,0.118866526,0.09353687,0.14174162,0.9438212,0.2985144,-0.05279872,0.30833793,-0.9498105,,-0.611671334570078,0.00842550156577894,0.07934850348000001,0.16481629557883615,-0.005875369489913939,0.977666443673183,-0.06419421799077163,,-1.4782391903868104,-0.13760365435293231,0.1462733636,0.0698267511803466,0.007378370987333784,1.1486757825675216,0.0690945399748002
0.8256073950324208,,0.080721945,-0.04351652,0.37854788,-0.6824217,-0.21688499,-0.698041,-0.6567204,-0.23740914,0.71578985,-0.32096544,0.94688845,0.019580334,,-0.12983134,0.08535056,0.10262394,0.20567742,-0.9436344,-0.25932744,-0.94651484,-0.25913724,0.19224381,-0.24860929,0.205917,-0.94646275,,0.07859218,-0.047251377,0.2561212,-0.98849446,0.118866526,0.09353687,0.14174162,0.9438212,0.2985144,-0.05279872,0.30833793,-0.9498105,,-0.6116790573029522,0.00842550156577894,0.07934850348000001,0.16481629557883615,-0.005875369489913939,0.977666443673183,-0.06419421799077163,,-1.4782391903868104,-0.13760365435293231,0.1462733636,0.0698267511803466,0.007378370987333784,1.1486757825675216,0.0690945399748002
0.8505094589199871,,0.080721945,-0.04351652,0.37854788,-0.6824217,-0.21688499,-0.698041,-0.6567204,-0.23740914,0.71578985,-0.32096544,0.94688845,0.019580334,,-0.1298365,0.08534941,0.102624014,0.20567769,-0.9436323,-0.25933474,-0.94651467,-0.25913906,0.1922417,-0.24860926,0.20592433,-0.9464611,,0.07859218,-0.047251377,0.2561212,-0.98849446,0.118866526,0.09353687,0.14174162,0.9438212,0.2985144,-0.05279872,0.30833793,-0.9498105,,-0.6116790573029522,0.00842550156577894,0.07934850348000001,0.16481629557883615,-0.005875369489913939,0.977666443673183,-0.06419421799077163,,-1.478231467653936,-0.13760365435293231,0.1462733636,0.0698267511803466,0.007378370987333784,1.1486757825675216,0.0690945399748002
0.8753146841190755,,0.08072149,-0.043516323,0.37854815,-0.68242145,-0.21687895,-0.6980431,-0.65672123,-0.23741388,0.7157876,-0.32096446,0.9468886,0.019587338,,-0.12983134,0.08535056,0.10262394,0.20567742,-0.9436344,-0.25932744,-0.94651484,-0.25913724,0.19224381,-0.24860929,0.205917,-0.94646275,,0.07859218,-0.047251377,0.2561212,-0.98849446,0.118866526,0.09353687,0.14174162,0.9438212,0.2985144,-0.05279872,0.30833793,-0.9498105,,-0.611671334570078,0.00842550156577894,0.07934850348000001,0.16481629557883615,-0.005875369489913939,0.977666443673183,-0.06419421799077163,,-1.4782391903868104,-0.13760365435293231,0.1462733636,0.0698267511803466,0.007378370987333784,1.1486757825675216,0.0690945399748002
0.9008289149496704,,0.08072149,-0.043516323,0.37854815,-0.68242145,-0.21687895,-0.6980431,-0.65672123,-0.23741388,0.7157876,-0.32096446,0.9468886,0.019587338,,-0.12983134,0.08535056,0.10262394,0.20567742,-0.9436344,-0.25932744,-0.94651484,-0.25913724,0.19224381,-0.24860929,0.205917,-0.94646275,,0.07859218,-0.047251377,0.2561212,-0.98849446,0.118866526,0.09353687,0.14174162,0.9438212,0.2985144,-0.05279872,0.30833793,-0.9498105,,-0.611671334570078,0.00842550156577894,0.07934850348000001,0.16481629557883615,-0.005875369489913939,0.977666443673183,-0.06419421799077163,,-1.4782391903868104,-0.13760365435293231,0.1462733636,0.0698267511803466,0.007378370987333784,1.1486757825675216,0.0690945399748002
0.9260262760799378,,0.0807218,-0.04351592,0.37854838,-0.68242306,-0.21688238,-0.69804054,-0.65671664,-0.23741895,0.71579015,-0.32097036,0.9468866,0.019589901,,-0.1298365,0.08534941,0.102624014,0.20567769,-0.9436323,-0.25933474,-0.94651467,-0.25913906,0.1922417,-0.24860926,0.20592433,-0.9464611,,0.07859218,-0.047251377,0.2561212,-0.98849446,0.118866526,0.09353687,0.14174162,0.9438212,0.2985144,-0.05279872,0.30833793,-0.9498105,,-0.611671334570078,0.008433224298653164,0.07934850348000001,0.16481629557883615,-0.005875369489913939,0.977666443673183,-0.06419421799077163,,-1.478231467653936,-0.13760365435293231,0.1462733636,0.0698267511803466,0.007378370987333784,1.1486757825675216,0.0690945399748002
0.941695922985673,,0.08072257,-0.04351571,0.37854835,-0.68242484,-0.21689186,-0.6980358,-0.6567113,-0.23741928,0.7157949,-0.3209772,0.9468844,0.019585468,,-0.12983134,0.08535056,0.10262394,0.20567742,-0.9436344,-0.25932744,-0.94651484,-0.25913724,0.19224381,-0.24860929,0.205917,-0.94646275,,0.07859218,-0.047251377,0.2561212,-0.98849446,0.118866526,0.09353687,0.14174162,0.9438212,0.2985144,-0.05279872,0.30833793,-0.9498105,,-0.6116790573029522,0.008440947031527389,0.07934850348000001,0.16481629557883615,-0.005875369489913939,0.977666443673183,-0.06419421799077163,,-1.4782391903868104,-0.13760365435293231,0.1462733636,0.0698267511803466,0.007378370987333784,1.1486757825675216,0.0690945399748002
0.9685512739233673,,0.08072257,-0.04351571,0.37854835,-0.68242484,-0.21689186,-0.6980358,-0.6567113,-0.23741928,0.7157949,-0.3209772,0.9468844,0.019585468,,-0.12983134,0.08535056,0.10262394,0.20567742,-0.9436344,-0.25932744,-0.94651484,-0.25913724,0.19224381,-0.24860929,0.205917,-0.94646275,,0.07859218,-0.047251377,0.2561212,-0.98849446,0.118866526,0.09353687,0.14174162,0.9438212,0.2985144,-0.05279872,0.30833793,-0.9498105,,-0.6116790573029522,0.008440947031527389,0.07934850348000001,0.16481629557883615,-0.005875369489913939,0.977666443673183,-0.06419421799077163,,-1.4782391903868104,-0.13760365435293231,0.1462733636,0.0698267511803466,0.007378370987333784,1.1486757825675216,0.0690945399748002
0.9916378469206393,,0.08072257,-0.04351571,0.37854835,-0.68242484,-0.21689186,-0.6980358,-0.6567113,-0.23741928,0.7157949,-0.3209772,0.9468844,0.019585468,,-0.12983134,0.08535056,0.10262394,0.20567742,-0.9436344,-0.25932744,-0.94651484,-0.25913724,0.19224381,-0.24860929,0.205917,-0.94646275,,0.07859218,-0.047251377,0.2561212,-0.98849446,0.118866526,0.09353687,0.14174162,0.9438212,0.2985144,-0.05279872,0.30833793,-0.9498105,,-0.6116790573029522,0.008440947031527389,0.07934850348000001,0.16481629557883615,-0.005875369489913939,0.977666443673183,-0.06419421799077163,,-1.4782391903868104,-0.13760365435293231,0.1462733636,0.0698267511803466,0.007378370987333784,1.1486757825675216,0.0690945399748002
1.0134390429593623,,0.08072212,-0.04351551,0.37854862,-0.6824246,-0.2168858,-0.6980379,-0.65671206,-0.23742402,0.7157926,-0.32097626,0.9468846,0.01959245,,-0.12983134,0.08535056,0.10262394,0.20567742,-0.9436344,-0.25932744,-0.94651484,-0.25913724,0.19224381,-0.24860929,0.205917,-0.94646275,,0.07859218,-0.047251377,0.2561212,-0.98849446,0.118866526,0.09353687,0.14174162,0.9438212,0.2985144,-0.05279872,0.30833793,-0.9498105,,-0.611671334570078,0.008440947031527389,0.07934850348000001,0.16481629557883615,-0.005875369489913939,0.977666443673183,-0.06419421799077163,,-1.4782391903868104,-0.13760365435293231,0.1462733636,0.0698267511803466,0.007378370987333784,1.1486757825675216,0.0690945399748002
1.037038132082671,,0.08072212,-0.04351551,0.37854862,-0.6824246,-0.2168858,-0.6980379,-0.65671206,-0.23742402,0.7157926,-0.32097626,0.9468846,0.01959245,,-0.12983134,0.08535056,0.10262394,0.20567742,-0.9436344,-0.25932744,-0.94651484,-0.25913724,0.19224381,-0.24860929,0.205917,-0.94646275,,0.07859218,-0.047251377,0.2561212,-0.98849446,0.118866526,0.09353687,0.14174162,0.9438212,0.2985144,-0.05279872,0.30833793,-0.9498105,,-0.611671334570078,0.008440947031527389,0.07934850348000001,0.16481629557883615,-0.005875369489913939,0.977666443673183,-0.06419421799077163,,-1.4782391903868104,-0.13760365435293231,0.1462733636,0.0698267511803466,0.007378370987333784,1.1486757825675216,0.0690945399748002
1.0592600889503956,,0.08072212,-0.04351551,0.37854862,-0.6824246,-0.2168858,-0.6980379,-0.65671206,-0.23742402,0.7157926,-0.32097626,0.9468846,0.01959245,,-0.12983134,0.08535056,0.10262394,0.20567742,-0.9436344,-0.25932744,-0.94651484,-0.25913724,0.19224381,-0.24860929,0.205917,-0.94646275,,0.07859218,-0.047251377,0.2561212,-0.98849446,0.118866526,0.09353687,0.14174162,0.9438212,0.2985144,-0.05279872,0.30833793,-0.9498105,,-0.611671334570078,0.008440947031527389,0.07934850348000001,0.16481629557883615,-0.005875369489913939,0.977666443673183,-0.06419421799077163,,-1.4782391903868104,-0.13760365435293231,0.1462733636,0.0698267511803466,0.007378370987333784,1.1486757825675216,0.0690945399748002
1.0845697219483554,,0.08072212,-0.04351551,0.37854862,-0.6824246,-0.2168858,-0.6980379,-0.65671206,-0.23742402,0.7157926,-0.32097626,0.9468846,0.01959245,,-0.12983134,0.08535056,0.10262394,0.20567742,-0.9436344,-0.25932744,-0.94651484,-0.25913724,0.19224381,-0.24860929,0.205917,-0.94646275,,0.07859218,-0.047251377,0.2561212,-0.98849446,0.118866526,0.09353687,0.14174162,0.9438212,0.2985144,-0.05279872,0.30833793,-0.9498105,,-0.611671334570078,0.008440947031527389,0.07934850348000001,0.16481629557883615,-0.005875369489913939,0.977666443673183,-0.06419421799077163,,-1.4782391903868104,-0.13760365435293231,0.1462733636,0.0698267511803466,0.007378370987333784,1.1486757825675216,0.0690945399748002
1.1073660720139742,,0.08072257,-0.04351571,0.37854835,-0.68242484,-0.21689186,-0.6980358,-0.6567113,-0.23741928,0.7157949,-0.3209772,0.9468844,0.019585468,,-0.12983134,0.08535056,0.10262394,0.20567742,-0.9436344,-0.25932744,-0.94651484,-0.25913724,0.19224381,-0.24860929,0.205917,-0.94646275,,0.07859218,-0.047251377,0.2561212,-0.98849446,0.118866526,0.09353687,0.14174162,0.9438212,0.2985144,-0.05279872,0.30833793,-0.9498105,,-0.6116790573029522,0.008440947031527389,0.07934850348000001,0.16481629557883615,-0.005875369489913939,0.977666443673183,-0.06419421799077163,,-1.4782391903868104,-0.13760365435293231,0.1462733636,0.0698267511803466,0.007378370987333784,1.1486757825675216,0.0690945399748002
1.1328807449899614,,0.08072257,-0.04351571,0.37854835,-0.68242484,-0.21689186,-0.6980358,-0.6567113,-0.23741928,0.7157949,-0.3209772,0.9468844,0.019585468,,-0.12983134,0.08535056,0.10262394,0.20567742,-0.9436344,-0.25932744,-0.94651484,-0.25913724,0.19224381,-0.24860929,0.205917,-0.94646275,,0.07859218,-0.047251377,0.2561212,-0.98849446,0.118866526,0.09353687,0.14174162,0.9438212,0.2985144,-0.05279872,0.30833793,-0.9498105,,-0.6116790573029522,0.008440947031527389,0.07934850348000001,0.16481629557883615,-0.005875369489913939,0.977666443673183,-0.06419421799077163,,-1.4782391903868104,-0.13760365435293231,0.1462733636,0.0698267511803466,0.007378370987333784,1.1486757825675216,0.0690945399748002
1.1610977828968316,,0.08072212,-0.04351551,0.37854862,-0.6824246,-0.2168858,-0.6980379,-0.65671206,-0.23742402,0.7157926,-0.32097626,0.9468846,0.01959245,,-0.12983134,0.08535056,0.10262394,0.20567742,-0.9436344,-0.25932744,-0.94651484,-0.25913724,0.19224381,-0.24860929,0.205917,-0.94646275,,0.07859218,-0.047251377,0.2561212,-0.98849446,0.118866526,0.09353687,0.14174162,0.9438212,0.2985144,-0.05279872,0.30833793,-0.9498105,,-0.611671334570078,0.008440947031527389,0.07934850348000001,0.16481629557883615,-0.005875369489913939,0.977666443673183,-0.06419421799077163,,-1.4782391903868104,-0.13760365435293231,0.1462733636,0.0698267511803466,0.007378370987333784,1.1486757825675216,0.0690945399748002
1.1831252491101623,,0.08072257,-0.04351571,0.37854835,-0.68242484,-0.21689186,-0.6980358,-0.6567113,-0.23741928,0.7157949,-0.3209772,0.9468844,0.019585468,,-0.12983134,0.08535056,0.10262394,0.20567742,-0.9436344,-0.25932744,-0.94651484,-0.25913724,0.19224381,-0.24860929,0.205917,-0.94646275,,0.07859218,-0.047251377,0.2561212,-0.98849446,0.118866526,0.09353687,0.14174162,0.9438212,0.2985144,-0.05279872,0.30833793,-0.9498105,,-0.6116790573029522,0.008440947031527389,0.07934850348000001,0.16481629557883615,-0.005875369489913939,0.977666443673183,-0.06419421799077163,,-1.4782391903868104,-0.13760365435293231,0.1462733636,0.0698267511803466,0.007378370987333784,1.1486757825675216,0.0690945399748002
1.2099962229840457,,0.08072257,-0.04351571,0.37854835,-0.68242484,-0.21689186,-0.6980358,-0.6567113,-0.23741928,0.7157949,-0.3209772,0.9468844,0.019585468,,-0.12983134,0.08535056,0.10262394,0.20567742,-0.9436344,-0.25932744,-0.94651484,-0.25913724,0.19224381,-0.24860929,0.205917,-0.94646275,,0.07859218,-0.047251377,0.2561212,-0.98849446,0.118866526,0.09353687,0.14174162,0.9438212,0.2985144,-0.05279872,0.30833793,-0.9498105,,-0.6116790573029522,0.008440947031527389,0.07934850348000001,0.16481629557883615,-0.005875369489913939,0.977666443673183,-0.06419421799077163,,-1.4782391903868104,-0.13760365435293231,0.1462733636,0.0698267511803466,0.007378370987333784,1.1486757825675216,0.0690945399748002
1.2358082230202854,,0.08072212,-0.04351551,0.37854862,-0.6824246,-0.2168858,-0.6980379,-0.65671206,-0.23742402,0.7157926,-0.32097626,0.9468846,0.01959245,,-0.1298365,0.08534941,0.102624014,0.20567769,-0.9436323,-0.25933474,-0.94651467,-0.25913906,0.1922417,-0.24860926,0.20592433,-0.9464611,,0.07859218,-0.047251377,0.2561212,-0.98849446,0.118866526,0.09353687,0.14174162,0.9438212,0.2985144,-0.05279872,0.30833793,-0.9498105,,-0.611671334570078,0.008440947031527389,0.07934850348000001,0.16481629557883615,-0.005875369489913939,0.977666443673183,-0.06419421799077163,,-1.478231467653936,-0.13760365435293231,0.1462733636,0.0698267511803466,0.007378370987333784,1.1486757825675216,0.0690945399748002
1.26118199294433,,0.08072212,-0.04351551,0.37854862,-0.6824246,-0.2168858,-0.6980379,-0.65671206,-0.23742402,0.7157926,-0.32097626,0.9468846,0.01959245,,-0.12983134,0.08535056,0.10262394,0.20567742,-0.9436344,-0.25932744,-0.94651484,-0.25913724,0.19224381,-0.24860929,0.205917,-0.94646275,,0.07859218,-0.047251377,0.2561212,-0.98849446,0.118866526,0.09353687,0.14174162,0.9438212,0.2985144,-0.05279872,0.30833793,-0.9498105,,-0.611671334570078,0.008440947031527389,0.07934850348000001,0.16481629557883615,-0.005875369489913939,0.977666443673183,-0.06419421799077163,,-1.4782391903868104,-0.13760365435293231,0.1462733636,0.0698267511803466,0.007378370987333784,1.1486757825675216,0.0690945399748002
1.2875680760480464,,0.08072212,-0.04351551,0.37854862,-0.6824246,-0.2168858,-0.6980379,-0.65671206,-0.23742402,0.7157926,-0.32097626,0.9468846,0.01959245,,-0.12983134,0.08535056,0.10262394,0.20567742,-0.9436344,-0.25932744,-0.94651484,-0.25913724,0.19224381,-0.24860929,0.205917,-0.94646275,,0.07859218,-0.047251377,0.2561212,-0.98849446,0.118866526,0.09353687,0.14174162,0.9438212,0.2985144,-0.05279872,0.30833793,-0.9498105,,-0.611671334570078,0.008440947031527389,0.07934850348000001,0.16481629557883615,-0.005875369489913939,0.977666443673183,-0.06419421799077163,,-1.4782391903868104,-0.13760365435293231,0.1462733636,0.0698267511803466,0.007378370987333784,1.1486757825675216,0.0690945399748002
1.3088774140924215,,0.08072257,-0.04351571,0.37854835,-0.68242484,-0.21689186,-0.6980358,-0.6567113,-0.23741928,0.7157949,-0.3209772,0.9468844,0.019585468,,-0.12983134,0.08535056,0.10262394,0.20567742,-0.9436344,-0.25932744,-0.94651484,-0.25913724,0.19224381,-0.24860929,0.205917,-0.94646275,,0.07859218,-0.047251377,0.2561212,-0.98849446,0.118866526,0.09353687,0.14174162,0.9438212,0.2985144,-0.05279872,0.30833793,-0.9498105,,-0.6116790573029522,0.008440947031527389,0.07934850348000001,0.16481629557883615,-0.005875369489913939,0.977666443673183,-0.06419421799077163,,-1.4782391903868104,-0.13760365435293231,0.1462733636,0.0698267511803466,0.007378370987333784,1.1486757825675216,0.0690945399748002
1.3352060890756547,,0.08072257,-0.04351571,0.37854835,-0.68242484,-0.21689186,-0.6980358,-0.6567113,-0.23741928,0.7157949,-0.3209772,0.9468844,0.019585468,,-0.12983134,0.08535056,0.10262394,0.20567742,-0.9436344,-0.25932744,-0.94651484,-0.25913724,0.19224381,-0.24860929,0.205917,-0.94646275,,0.07859218,-0.047251377,0.2561212,-0.98849446,0.118866526,0.09353687,0.14174162,0.9438212,0.2985144,-0.05279872,0.30833793,-0.9498105,,-0.6116790573029522,0.008440947031527389,0.07934850348000001,0.16481629557883615,-0.005875369489913939,0.977666443673183,-0.06419421799077163,,-1.4782391903868104,-0.13760365435293231,0.1462733636,0.0698267511803466,0.007378370987333784,1.1486757825675216,0.0690945399748002
1.3609107551164925,,0.08072212,-0.04351551,0.37854862,-0.6824246,-0.2168858,-0.6980379,-0.65671206,-0.23742402,0.7157926,-0.32097626,0.9468846,0.01959245,,-0.12983134,0.08535056,0.10262394,0.20567742,-0.9436344,-0.25932744,-0.94651484,-0.25913724,0.19224381,-0.24860929,0.205917,-0.94646275,,0.07859218,-0.047251377,0.2561212,-0.98849446,0.118866526,0.09353687,0.14174162,0.9438212,0.2985144,-0.05279872,0.30833793,-0.9498105,,-0.611671334570078,0.008440947031527389,0.07934850348000001,0.16481629557883615,-0.005875369489913939,0.977666443673183,-0.06419421799077163,,-1.4782391903868104,-0.13760365435293231,0.1462733636,0.0698267511803466,0.007378370987333784,1.1486757825675216,0.0690945399748002
1.3855289909988642,,0.08072212,-0.04351551,0.37854862,-0.6824246,-0.2168858,-0.6980379,-0.65671206,-0.23742402,0.7157926,-0.32097626,0.9468846,0.01959245,,-0.12983134,0.08535056,0.10262394,0.20567742,-0.9436344,-0.25932744,-0.94651484,-0.25913724,0.19224381,-0.24860929,0.205917,-0.94646275,,0.07859218,-0.047251377,0.2561212,-0.98849446,0.118866526,0.09353687,0.14174162,0.9438212,0.2985144,-0.05279872,0.30833793,-0.9498105,,-0.611671334570078,0.008440947031527389,0.07934850348000001,0.16481629557883615,-0.005875369489913939,0.977666443673183,-0.06419421799077163,,-1.4782391903868104,-0.13760365435293231,0.1462733636,0.0698267511803466,0.007378370987333784,1.1486757825675216,0.0690945399748002
1.4084422830492258,,0.08072212,-0.04351551,0.37854862,-0.6824246,-0.2168858,-0.6980379,-0.65671206,-0.23742402,0.7157926,-0.32097626,0.9468846,0.01959245,,-0.12983134,0.08535056,0.10262394,0.20567742,-0.9436344,-0.25932744,-0.94651484,-0.25913724,0.19224381,-0.24860929,0.205917,-0.94646275,,0.07859218,-0.047251377,0.2561212,-0.98849446,0.118866526,0.09353687,0.14174162,0.9438212,0.2985144,-0.05279872,0.30833793,-0.9498105,,-0.611671334570078,0.008440947031527389,0.07934850348000001,0.16481629557883615,-0.005875369489913939,0.977666443673183,-0.06419421799077163,,-1.4782391903868104,-0.13760365435293231,0.1462733636,0.0698267511803466,0.007378370987333784,1.1486757825675216,0.0690945399748002
1.434112667106092,,0.08072212,-0.04351551,0.37854862,-0.6824246,-0.2168858,-0.6980379,-0.65671206,-0.23742402,0.7157926,-0.32097626,0.9468846,0.01959245,,-0.12983134,0.08535056,0.10262394,0.20567742,-0.9436344,-0.25932744,-0.94651484,-0.25913724,0.19224381,-0.24860929,0.205917,-0.94646275,,0.07859218,-0.047251377,0.2561212,-0.98849446,0.118866526,0.09353687,0.14174162,0.9438212,0.2985144,-0.05279872,0.30833793,-0.9498105,,-0.611671334570078,0.008440947031527389,0.07934850348000001,0.16481629557883615,-0.005875369489913939,0.977666443673183,-0.06419421799077163,,-1.4782391903868104,-0.13760365435293231,0.1462733636,0.0698267511803466,0.007378370987333784,1.1486757825675216,0.0690945399748002
1.4574030309449881,,0.08072257,-0.04351571,0.37854835,-0.68242484,-0.21689186,-0.6980358,-0.6567113,-0.23741928,0.7157949,-0.3209772,0.9468844,0.019585468,,-0.12983134,0.08535056,0.10262394,0.20567742,-0.9436344,-0.25932744,-0.94651484,-0.25913724,0.19224381,-0.24860929,0.205917,-0.94646275,,0.07859218,-0.047251377,0.2561212,-0.98849446,0.118866526,0.09353687,0.14174162,0.9438212,0.2985144,-0.05279872,0.30833793,-0.9498105,,-0.6116790573029522,0.008440947031527389,0.07934850348000001,0.16481629557883615,-0.005875369489913939,0.977666443673183,-0.06419421799077163,,-1.4782391903868104,-0.13760365435293231,0.1462733636,0.0698267511803466,0.007378370987333784,1.1486757825675216,0.0690945399748002
1.482505138963461,,0.08072257,-0.04351571,0.37854835,-0.68242484,-0.21689186,-0.6980358,-0.6567113,-0.23741928,0.7157949,-0.3209772,0.9468844,0.019585468,,-0.12983134,0.08535056,0.10262394,0.20567742,-0.9436344,-0.25932744,-0.94651484,-0.25913724,0.19224381,-0.24860929,0.205917,-0.94646275,,0.07859218,-0.047251377,0.2561212,-0.98849446,0.118866526,0.09353687,0.14174162,0.9438212,0.2985144,-0.05279872,0.30833793,-0.9498105,,-0.6116790573029522,0.008440947031527389,0.07934850348000001,0.16481629557883615,-0.005875369489913939,0.977666443673183,-0.06419421799077163,,-1.4782391903868104,-0.13760365435293231,0.1462733636,0.0698267511803466,0.007378370987333784,1.1486757825675216,0.0690945399748002
1.5051308700349182,,0.08072212,-0.04351551,0.37854862,-0.6824246,-0.2168858,-0.6980379,-0.65671206,-0.23742402,0.7157926,-0.32097626,0.9468846,0.01959245,,-0.12983134,0.08535056,0.10262394,0.20567742,-0.9436344,-0.25932744,-0.94651484,-0.25913724,0.19224381,-0.24860929,0.205917,-0.94646275,,0.07859218,-0.047251377,0.2561212,-0.98849446,0.118866526,0.09353687,0.14174162,0.9438212,0.2985144,-0.05279872,0.30833793,-0.9498105,,-0.611671334570078,0.008440947031527389,0.07934850348000001,0.16481629557883615,-0.005875369489913939,0.977666443673183,-0.06419421799077163,,-1.4782391903868104,-0.13760365435293231,0.1462733636,0.0698267511803466,0.007378370987333784,1.1486757825675216,0.0690945399748002
1.5285342279821634,,0.08072212,-0.04351551,0.37854862,-0.6824246,-0.2168858,-0.6980379,-0.65671206,-0.23742402,0.7157926,-0.32097626,0.9468846,0.01959245,,-0.1297844,0.085356355,0.10261369,0.20567864,-0.94365567,-0.25924873,-0.9465174,-0.25912002,0.19225404,-0.24859819,0.20584093,-0.9464822,,0.07859218,-0.047251377,0.2561212,-0.98849446,0.118866526,0.09353687,0.14174162,0.9438212,0.2985144,-0.05279872,0.30833793,-0.9498105,,-0.611671334570078,0.008440947031527389,0.07934850348000001,0.16481629557883615,-0.005875369489913939,0.977666443673183,-0.06419421799077163,,-1.4782391903868104,-0.13760365435293231,0.1462733636,0.0698267511803466,0.007378370987333784,1.148594103827381,0.06893119590866603
1.5541484409477562,,0.08072212,-0.04351551,0.37854862,-0.6824246,-0.2168858,-0.6980379,-0.65671206,-0.23742402,0.7157926,-0.32097626,0.9468846,0.01959245,,-0.1297844,0.085356355,0.10261369,0.20567864,-0.94365567,-0.25924873,-0.9465174,-0.25912002,0.19225404,-0.24859819,0.20584093,-0.9464822,,0.07859218,-0.047251377,0.2561212,-0.98849446,0.118866526,0.09353687,0.14174162,0.9438212,0.2985144,-0.05279872,0.30833793,-0.9498105,,-0.611671334570078,0.008440947031527389,0.07934850348000001,0.16481629557883615,-0.005875369489913939,0.977666443673183,-0.06419421799077163,,-1.4782391903868104,-0.13760365435293231,0.1462733636,0.0698267511803466,0.007378370987333784,1.148594103827381,0.06893119590866603
1.5748279821127653,,0.08072212,-0.04351551,0.37854862,-0.6824246,-0.2168858,-0.6980379,-0.65671206,-0.23742402,0.7157926,-0.32097626,0.9468846,0.01959245,,-0.1297375,0.08536214,0.102603436,0.20567986,-0.943677,-0.25917011,-0.9465201,-0.25910282,0.19226427,-0.24858716,0.20576486,-0.9465016,,0.07859218,-0.047251377,0.2561212,-0.98849446,0.118866526,0.09353687,0.14174162,0.9438212,0.2985144,-0.05279872,0.30833793,-0.9498105,,-0.611671334570078,0.008440947031527389,0.07934850348000001,0.16481629557883615,-0.005875369489913939,0.977666443673183,-0.06419421799077163,,-1.4782391903868104,-0.13760365435293231,0.1462733636,0.0698267511803466,0.007378370987333784,1.1485124250872405,0.06876785184253165
1.600164368050173,,0.08072257,-0.04351571,0.37854835,-0.68242484,-0.21689186,-0.6980358,-0.6567113,-0.23741928,0.7157949,-0.3209772,0.9468844,0.019585468,,-0.1297375,0.08536214,0.102603436,0.20567986,-0.943677,-0.25917011,-0.9465201,-0.25910282,0.19226427,-0.24858716,0.20576486,-0.9465016,,0.07859218,-0.047251377,0.2561212,-0.98849446,0.118866526,0.09353687,0.14174162,0.9438212,0.2985144,-0.05279872,0.30833793,-0.9498105,,-0.6116790573029522,0.008440947031527389,0.07934850348000001,0.16481629557883615,-0.005875369489913939,0.977666443673183,-0.06419421799077163,,-1.4782391903868104,-0.13760365435293231,0.1462733636,0.0698267511803466,0.007378370987333784,1.1485124250872405,0.06876785184253165
1.6245847900863737,,0.08071749,-0.043503497,0.37852827,-0.6824137,-0.21690989,-0.6980412,-0.65670687,-0.2374481,0.71578944,-0.3210104,0.94687295,0.019591652,,-0.12968111,0.08538401,0.10259281,0.20573755,-0.9436747,-0.2591333,-0.9464983,-0.25915802,0.19229704,-0.24862233,0.2057065,-0.946505,,0.07861144,-0.047261085,0.25613248,-0.9884961,0.11885427,0.09353561,0.14172952,0.9438231,0.2985143,-0.052801374,0.30833703,-0.9498106,,-0.6116790573029522,0.008440947031527389,0.07934850348000001,0.16481629557883615,-0.005875369489913939,0.977666443673183,-0.06419421799077163,,-1.4782391903868104,-0.13760365435293231,0.1462733636,0.0698267511803466,0.007378370987333784,1.1485124250872405,0.06876785184253165
1.648311526980251,,0.080717035,-0.043503303,0.37852854,-0.6824134,-0.21690384,-0.69804335,-0.6567076,-0.23745283,0.7157872,-0.3210094,0.9468731,0.019598633,,-0.12968111,0.08538401,0.10259281,0.20573755,-0.9436747,-0.2591333,-0.9464983,-0.25915802,0.19229704,-0.24862233,0.2057065,-0.946505,,0.07861144,-0.047261085,0.25613248,-0.9884961,0.11885427,0.09353561,0.14172952,0.9438231,0.2985143,-0.052801374,0.30833703,-0.9498106,,-0.611671334570078,0.008440947031527389,0.07934850348000001,0.16481629557883615,-0.005875369489913939,0.977666443673183,-0.06419421799077163,,-1.4782391903868104,-0.13760365435293231,0.1462733636,0.0698267511803466,0.007378370987333784,1.1485124250872405,0.06876785184253165
1.6724605550989509,,0.080717035,-0.043503303,0.37852854,-0.6824134,-0.21690384,-0.69804335,-0.6567076,-0.23745283,0.7157872,-0.3210094,0.9468731,0.019598633,,-0.12968111,0.08538401,0.10259281,0.20573755,-0.9436747,-0.2591333,-0.9464983,-0.25915802,0.19229704,-0.24862233,0.2057065,-0.946505,,0.07861144,-0.047261085,0.25613248,-0.9884961,0.11885427,0.09353561,0.14172952,0.9438231,0.2985143,-0.052801374,0.30833703,-0.9498106,,-0.611671334570078,0.008440947031527389,0.07934850348000001,0.16481629557883615,-0.005875369489913939,0.977666443673183,-0.06419421799077163,,-1.4782391903868104,-0.13760365435293231,0.1462733636,0.0698267511803466,0.007378370987333784,1.1485124250872405,0.06876785184253165
1.6974309280049056,,0.08071749,-0.043503497,0.37852827,-0.6824137,-0.21690989,-0.6980412,-0.65670687,-0.2374481,0.71578944,-0.3210104,0.94687295,0.019591652,,-0.12968111,0.08538401,0.10259281,0.20573755,-0.9436747,-0.2591333,-0.9464983,-0.25915802,0.19229704,-0.24862233,0.2057065,-0.946505,,0.07861144,-0.047261085,0.25613248,-0.9884961,0.11885427,0.09353561,0.14172952,0.9438231,0.2985143,-0.052801374,0.30833703,-0.9498106,,-0.6116790573029522,0.008440947031527389,0.07934850348000001,0.16481629557883615,-0.005875369489913939,0.977666443673183,-0.06419421799077163,,-1.4782391903868104,-0.13760365435293231,0.1462733636,0.0698267511803466,0.007378370987333784,1.1485124250872405,0.06876785184253165
1.7214305470697582,,0.080717035,-0.043503303,0.37852854,-0.6824134,-0.21690384,-0.69804335,-0.6567076,-0.23745283,0.7157872,-0.3210094,0.9468731,0.019598633,,-0.12968111,0.08538401,0.10259281,0.20573755,-0.9436747,-0.2591333,-0.9464983,-0.25915802,0.19229704,-0.24862233,0.2057065,-0.946505,,0.07861144,-0.047261085,0.25613248,-0.9884961,0.11885427,0.09353561,0.14172952,0.9438231,0.2985143,-0.052801374,0.30833703,-0.9498106,,-0.611671334570078,0.008440947031527389,0.07934850348000001,0.16481629557883615,-0.005875369489913939,0.977666443673183,-0.06419421799077163,,-1.4782391903868104,-0.13760365435293231,0.1462733636,0.0698267511803466,0.007378370987333784,1.1485124250872405,0.06876785184253165
1.7415748909115791,,0.080717035,-0.043503303,0.37852854,-0.6824134,-0.21690384,-0.69804335,-0.6567076,-0.23745283,0.7157872,-0.3210094,0.9468731,0.019598633,,-0.12968111,0.08538401,0.10259281,0.20573755,-0.9436747,-0.2591333,-0.9464983,-0.25915802,0.19229704,-0.24862233,0.2057065,-0.946505,,0.07861144,-0.047261085,0.25613248,-0.9884961,0.11885427,0.09353561,0.14172952,0.9438231,0.2985143,-0.052801374,0.30833703,-0.9498106,,-0.611671334570078,0.008440947031527389,0.07934850348000001,0.16481629557883615,-0.005875369489913939,0.977666443673183,-0.06419421799077163,,-1.4782391903868104,-0.13760365435293231,0.1462733636,0.0698267511803466,0.007378370987333784,1.1485124250872405,0.06876785184253165
1.7680577950086445,,0.080717035,-0.043503303,0.37852854,-0.6824134,-0.21690384,-0.69804335,-0.6567076,-0.23745283,0.7157872,-0.3210094,0.9468731,0.019598633,,-0.1296863,0.08538288,0.102592826,0.2057378,-0.9436726,-0.25914055,-0.9464982,-0.2591598,0.192295,-0.24862233,0.20571375,-0.94650346,,0.07861144,-0.047261085,0.25613248,-0.9884961,0.11885427,0.09353561,0.14172952,0.9438231,0.2985143,-0.052801374,0.30833703,-0.9498106,,-0.611671334570078,0.008440947031527389,0.07934850348000001,0.16481629557883615,-0.005875369489913939,0.977666443673183,-0.06419421799077163,,-1.478231467653936,-0.13760365435293231,0.1462733636,0.0698267511803466,0.007378370987333784,1.1485124250872405,0.06876785184253165
1.7916323610115796,,0.080717035,-0.043503303,0.37852854,-0.6824134,-0.21690384,-0.69804335,-0.6567076,-0.23745283,0.7157872,-0.3210094,0.9468731,0.019598633,,-0.12968111,0.08538401,0.10259281,0.20573755,-0.9436747,-0.2591333,-0.9464983,-0.25915802,0.19229704,-0.24862233,0.2057065,-0.946505,,0.07861144,-0.047261085,0.25613248,-0.9884961,0.11885427,0.09353561,0.14172952,0.9438231,0.2985143,-0.052801374,0.30833703,-0.9498106,,-0.611671334570078,0.008440947031527389,0.07934850348000001,0.16481629557883615,-0.005875369489913939,0.977666443673183,-0.06419421799077163,,-1.4782391903868104,-0.13760365435293231,0.1462733636,0.0698267511803466,0.007378370987333784,1.1485124250872405,0.06876785184253165
1.8169131339527667,,0.08071749,-0.043503497,0.37852827,-0.6824137,-0.21690989,-0.6980412,-0.65670687,-0.2374481,0.71578944,-0.3210104,0.94687295,0.019591652,,-0.12968111,0.08538401,0.10259281,0.20573755,-0.9436747,-0.2591333,-0.9464983,-0.25915802,0.19229704,-0.24862233,0.2057065,-0.946505,,0.07861144,-0.047261085,0.25613248,-0.9884961,0.11885427,0.09353561,0.14172952,0.9438231,0.2985143,-0.052801374,0.30833703,-0.9498106,,-0.6116790573029522,0.008440947031527389,0.07934850348000001,0.16481629557883615,-0.005875369489913939,0.977666443673183,-0.06419421799077163,,-1.4782391903868104,-0.13760365435293231,0.1462733636,0.0698267511803466,0.007378370987333784,1.1485124250872405,0.06876785184253165
1.8385254049208015,,0.08071749,-0.043503497,0.37852827,-0.6824137,-0.21690989,-0.6980412,-0.65670687,-0.2374481,0.71578944,-0.3210104,0.94687295,0.019591652,,-0.12968111,0.08538401,0.10259281,0.20573755,-0.9436747,-0.2591333,-0.9464983,-0.25915802,0.19229704,-0.24862233,0.2057065,-0.946505,,0.07861144,-0.047261085,0.25613248,-0.9884961,0.11885427,0.09353561,0.14172952,0.9438231,0.2985143,-0.052801374,0.30833703,-0.9498106,,-0.6116790573029522,0.008440947031527389,0.07934850348000001,0.16481629557883615,-0.005875369489913939,0.977666443673183,-0.06419421799077163,,-1.4782391903868104,-0.13760365435293231,0.1462733636,0.0698267511803466,0.007378370987333784,1.1485124250872405,0.06876785184253165
1.8660332330036908,,0.08071749,-0.043503497,0.37852827,-0.6824137,-0.21690989,-0.6980412,-0.65670687,-0.2374481,0.71578944,-0.3210104,0.94687295,0.019591652,,-0.12968111,0.08538401,0.10259281,0.20573755,-0.9436747,-0.2591333,-0.9464983,-0.25915802,0.19229704,-0.24862233,0.2057065,-0.946505,,0.07861144,-0.047261085,0.25613248,-0.9884961,0.11885427,0.09353561,0.14172952,0.9438231,0.2985143,-0.052801374,0.30833703,-0.9498106,,-0.6116790573029522,0.008440947031527389,0.07934850348000001,0.16481629557883615,-0.005875369489913939,0.977666443673183,-0.06419421799077163,,-1.4782391903868104,-0.13760365435293231,0.1462733636,0.0698267511803466,0.007378370987333784,1.1485124250872405,0.06876785184253165
1.8878880459815264,,0.080717035,-0.043503303,0.37852854,-0.6824134,-0.21690384,-0.69804335,-0.6567076,-0.23745283,0.7157872,-0.3210094,0.9468731,0.019598633,,-0.12968111,0.08538401,0.10259281,0.20573755,-0.9436747,-0.2591333,-0.9464983,-0.25915802,0.19229704,-0.24862233,0.2057065,-0.946505,,0.07861144,-0.047261085,0.25613248,-0.9884961,0.11885427,0.09353561,0.14172952,0.9438231,0.2985143,-0.052801374,0.30833703,-0.9498106,,-0.611671334570078,0.008440947031527389,0.07934850348000001,0.16481629557883615,-0.005875369489913939,0.977666443673183,-0.06419421799077163,,-1.4782391903868104,-0.13760365435293231,0.1462733636,0.0698267511803466,0.007378370987333784,1.1485124250872405,0.06876785184253165
1.9084970699623227,,0.080717035,-0.043503303,0.37852854,-0.6824134,-0.21690384,-0.69804335,-0.6567076,-0.23745283,0.7157872,-0.3210094,0.9468731,0.019598633,,-0.12968111,0.08538401,0.10259281,0.20573755,-0.9436747,-0.2591333,-0.9464983,-0.25915802,0.19229704,-0.24862233,0.2057065,-0.946505,,0.07861144,-0.047261085,0.25613248,-0.9884961,0.11885427,0.09353561,0.14172952,0.9438231,0.2985143,-0.052801374,0.30833703,-0.9498106,,-0.611671334570078,0.008440947031527389,0.07934850348000001,0.16481629557883615,-0.005875369489913939,0.977666443673183,-0.06419421799077163,,-1.4782391903868104,-0.13760365435293231,0.1462733636,0.0698267511803466,0.007378370987333784,1.1485124250872405,0.06876785184253165
1.935157225932926,,0.080717035,-0.043503303,0.37852854,-0.6824134,-0.21690384,-0.69804335,-0.6567076,-0.23745283,0.7157872,-0.3210094,0.9468731,0.019598633,,-0.12968111,0.08538401,0.10259281,0.20573755,-0.9436747,-0.2591333,-0.9464983,-0.25915802,0.19229704,-0.24862233,0.2057065,-0.946505,,0.07861144,-0.047261085,0.25613248,-0.9884961,0.11885427,0.09353561,0.14172952,0.9438231,0.2985143,-0.052801374,0.30833703,-0.9498106,,-0.611671334570078,0.008440947031527389,0.07934850348000001,0.16481629557883615,-0.005875369489913939,0.977666443673183,-0.06419421799077163,,-1.4782391903868104,-0.13760365435293231,0.1462733636,0.0698267511803466,0.007378370987333784,1.1485124250872405,0.06876785184253165
1.9596049371175468,,0.08071749,-0.043503497,0.37852827,-0.6824137,-0.21690989,-0.6980412,-0.65670687,-0.2374481,0.71578944,-0.3210104,0.94687295,0.019591652,,-0.12968111,0.08538401,0.10259281,0.20573755,-0.9436747,-0.2591333,-0.9464983,-0.25915802,0.19229704,-0.24862233,0.2057065,-0.946505,,0.07861144,-0.047261085,0.25613248,-0.9884961,0.11885427,0.09353561,0.14172952,0.9438231,0.2985143,-0.052801374,0.30833703,-0.9498106,,-0.6116790573029522,0.008440947031527389,0.07934850348000001,0.16481629557883615,-0.005875369489913939,0.977666443673183,-0.06419421799077163,,-1.4782391903868104,-0.13760365435293231,0.1462733636,0.0698267511803466,0.007378370987333784,1.1485124250872405,0.06876785184253165
1.987002040958032,,0.08071749,-0.043503497,0.37852827,-0.6824137,-0.21690989,-0.6980412,-0.65670687,-0.2374481,0.71578944,-0.3210104,0.94687295,0.019591652,,-0.12968111,0.08538401,0.10259281,0.20573755,-0.9436747,-0.2591333,-0.9464983,-0.25915802,0.19229704,-0.24862233,0.2057065,-0.946505,,0.07861144,-0.047261085,0.25613248,-0.9884961,0.11885427,0.09353561,0.14172952,0.9438231,0.2985143,-0.052801374,0.30833703,-0.9498106,,-0.6116790573029522,0.008440947031527389,0.07934850348000001,0.16481629557883615,-0.005875369489913939,0.977666443673183,-0.06419421799077163,,-1.4782391903868104,-0.13760365435293231,0.1462733636,0.0698267511803466,0.007378370987333784,1.1485124250872405,0.06876785184253165
2.0078867990523577,,0.08071749,-0.043503497,0.37852827,-0.6824137,-0.21690989,-0.6980412,-0.65670687,-0.2374481,0.71578944,-0.3210104,0.94687295,0.019591652,,-0.12968111,0.08538401,0.10259281,0.20573755,-0.9436747,-0.2591333,-0.9464983,-0.25915802,0.19229704,-0.24862233,0.2057065,-0.946505,,0.07861144,-0.047261085,0.25613248,-0.9884961,0.11885427,0.09353561,0.14172952,0.9438231,0.2985143,-0.052801374,0.30833703,-0.9498106,,-0.6116790573029522,0.008440947031527389,0.07934850348000001,0.16481629557883615,-0.005875369489913939,0.977666443673183,-0.06419421799077163,,-1.4782391903868104,-0.13760365435293231,0.1462733636,0.0698267511803466,0.007378370987333784,1.1485124250872405,0.06876785184253165
2.032715129898861,,0.080717035,-0.043503303,0.37852854,-0.6824134,-0.21690384,-0.69804335,-0.6567076,-0.23745283,0.7157872,-0.3210094,0.9468731,0.019598633,,-0.12968111,0.08538401,0.10259281,0.20573755,-0.9436747,-0.2591333,-0.9464983,-0.25915802,0.19229704,-0.24862233,0.2057065,-0.946505,,0.07861144,-0.047261085,0.25613248,-0.9884961,0.11885427,0.09353561,0.14172952,0.9438231,0.2985143,-0.052801374,0.30833703,-0.9498106,,-0.611671334570078,0.008440947031527389,0.07934850348000001,0.16481629557883615,-0.005875369489913939,0.977666443673183,-0.06419421799077163,,-1.4782391903868104,-0.13760365435293231,0.1462733636,0.0698267511803466,0.007378370987333784,1.1485124250872405,0.06876785184253165
2.056419565109536,,0.080717035,-0.043503303,0.37852854,-0.6824134,-0.21690384,-0.69804335,-0.6567076,-0.23745283,0.7157872,-0.3210094,0.9468731,0.019598633,,-0.12968111,0.08538401,0.10259281,0.20573755,-0.9436747,-0.2591333,-0.9464983,-0.25915802,0.19229704,-0.24862233,0.2057065,-0.946505,,0.07861144,-0.047261085,0.25613248,-0.9884961,0.11885427,0.09353561,0.14172952,0.9438231,0.2985143,-0.052801374,0.30833703,-0.9498106,,-0.611671334570078,0.008440947031527389,0.07934850348000001,0.16481629557883615,-0.005875369489913939,0.977666443673183,-0.06419421799077163,,-1.4782391903868104,-0.13760365435293231,0.1462733636,0.0698267511803466,0.007378370987333784,1.1485124250872405,0.06876785184253165
2.0786354939918965,,0.080717035,-0.043503303,0.37852854,-0.6824134,-0.21690384,-0.69804335,-0.6567076,-0.23745283,0.7157872,-0.3210094,0.9468731,0.019598633,,-0.12968111,0.08538401,0.10259281,0.20573755,-0.9436747,-0.2591333,-0.9464983,-0.25915802,0.19229704,-0.24862233,0.2057065,-0.946505,,0.07861144,-0.047261085,0.25613248,-0.9884961,0.11885427,0.09353561,0.14172952,0.9438231,0.2985143,-0.052801374,0.30833703,-0.9498106,,-0.611671334570078,0.008440947031527389,0.07934850348000001,0.16481629557883615,-0.005875369489913939,0.977666443673183,-0.06419421799077163,,-1.4782391903868104,-0.13760365435293231,0.1462733636,0.0698267511803466,0.007378370987333784,1.1485124250872405,0.06876785184253165
2.103581554023549,,0.080717035,-0.043503303,0.37852854,-0.6824134,-0.21690384,-0.69804335,-0.6567076,-0.23745283,0.7157872,-0.3210094,0.9468731,0.019598633,,-0.12968111,0.08538401,0.10259281,0.20573755,-0.9436747,-0.2591333,-0.9464983,-0.25915802,0.19229704,-0.24862233,0.2057065,-0.946505,,0.07861144,-0.047261085,0.25613248,-0.9884961,0.11885427,0.09353561,0.14172952,0.9438231,0.2985143,-0.052801374,0.30833703,-0.9498106,,-0.611671334570078,0.008440947031527389,0.07934850348000001,0.16481629557883615,-0.005875369489913939,0.977666443673183,-0.06419421799077163,,-1.4782391903868104,-0.13760365435293231,0.1462733636,0.0698267511803466,0.007378370987333784,1.1485124250872405,0.06876785184253165
2.1266076921019703,,0.080717035,-0.043503303,0.37852854,-0.6824134,-0.21690384,-0.69804335,-0.6567076,-0.23745283,0.7157872,-0.3210094,0.9468731,0.019598633,,-0.12968111,0.08538401,0.10259281,0.20573755,-0.9436747,-0.2591333,-0.9464983,-0.25915802,0.19229704,-0.24862233,0.2057065,-0.946505,,0.07861144,-0.047261085,0.25613248,-0.9884961,0.11885427,0.09353561,0.14172952,0.9438231,0.2985143,-0.052801374,0.30833703,-0.9498106,,-0.611671334570078,0.008440947031527389,0.07934850348000001,0.16481629557883615,-0.005875369489913939,0.977666443673183,-0.06419421799077163,,-1.4782391903868104,-0.13760365435293231,0.1462733636,0.0698267511803466,0.007378370987333784,1.1485124250872405,0.06876785184253165
2.1522345119155943,,0.08071749,-0.043503497,0.37852827,-0.6824137,-0.21690989,-0.6980412,-0.65670687,-0.2374481,0.71578944,-0.3210104,0.94687295,0.019591652,,-0.12968111,0.08538401,0.10259281,0.20573755,-0.9436747,-0.2591333,-0.9464983,-0.25915802,0.19229704,-0.24862233,0.2057065,-0.946505,,0.07861144,-0.047261085,0.25613248,-0.9884961,0.11885427,0.09353561,0.14172952,0.9438231,0.2985143,-0.052801374,0.30833703,-0.9498106,,-0.6116790573029522,0.008440947031527389,0.07934850348000001,0.16481629557883615,-0.005875369489913939,0.977666443673183,-0.06419421799077163,,-1.4782391903868104,-0.13760365435293231,0.1462733636,0.0698267511803466,0.007378370987333784,1.1485124250872405,0.06876785184253165
2.1760556250810623,,0.08071749,-0.043503497,0.37852827,-0.6824137,-0.21690989,-0.6980412,-0.65670687,-0.2374481,0.71578944,-0.3210104,0.94687295,0.019591652,,-0.12968111,0.08538401,0.10259281,0.20573755,-0.9436747,-0.2591333,-0.9464983,-0.25915802,0.19229704,-0.24862233,0.2057065,-0.946505,,0.07861144,-0.047261085,0.25613248,-0.9884961,0.11885427,0.09353561,0.14172952,0.9438231,0.2985143,-0.052801374,0.30833703,-0.9498106,,-0.6116790573029522,0.008440947031527389,0.07934850348000001,0.16481629557883615,-0.005875369489913939,0.977666443673183,-0.06419421799077163,,-1.4782391903868104,-0.13760365435293231,0.1462733636,0.0698267511803466,0.007378370987333784,1.1485124250872405,0.06876785184253165
2.2034095919225365,,0.08071749,-0.043503497,0.37852827,-0.6824137,-0.21690989,-0.6980412,-0.65670687,-0.2374481,0.71578944,-0.3210104,0.94687295,0.019591652,,-0.12968111,0.08538401,0.10259281,0.20573755,-0.9436747,-0.2591333,-0.9464983,-0.25915802,0.19229704,-0.24862233,0.2057065,-0.946505,,0.07861144,-0.047261085,0.25613248,-0.9884961,0.11885427,0.09353561,0.14172952,0.9438231,0.2985143,-0.052801374,0.30833703,-0.9498106,,-0.6116790573029522,0.008440947031527389,0.07934850348000001,0.16481629557883615,-0.005875369489913939,0.977666443673183,-0.06419421799077163,,-1.4782391903868104,-0.13760365435293231,0.1462733636,0.0698267511803466,0.007378370987333784,1.1485124250872405,0.06876785184253165
2.2309035430662334,,0.08071749,-0.043503497,0.37852827,-0.6824137,-0.21690989,-0.6980412,-0.65670687,-0.2374481,0.71578944,-0.3210104,0.94687295,0.019591652,,-0.12968111,0.08538401,0.10259281,0.20573755,-0.9436747,-0.2591333,-0.9464983,-0.25915802,0.19229704,-0.24862233,0.2057065,-0.946505,,0.07861144,-0.047261085,0.25613248,-0.9884961,0.11885427,0.09353561,0.14172952,0.9438231,0.2985143,-0.052801374,0.30833703,-0.9498106,,-0.6116790573029522,0.008440947031527389,0.07934850348000001,0.16481629557883615,-0.005875369489913939,0.977666443673183,-0.06419421799077163,,-1.4782391903868104,-0.13760365435293231,0.1462733636,0.0698267511803466,0.007378370987333784,1.1485124250872405,0.06876785184253165
2.2523648550268263,,0.080717035,-0.043503303,0.37852854,-0.6824134,-0.21690384,-0.69804335,-0.6567076,-0.23745283,0.7157872,-0.3210094,0.9468731,0.019598633,,-0.12968111,0.08538401,0.10259281,0.20573755,-0.9436747,-0.2591333,-0.9464983,-0.25915802,0.19229704,-0.24862233,0.2057065,-0.946505,,0.07861144,-0.047261085,0.25613248,-0.9884961,0.11885427,0.09353561,0.14172952,0.9438231,0.2985143,-0.052801374,0.30833703,-0.9498106,,-0.611671334570078,0.008440947031527389,0.07934850348000001,0.16481629557883615,-0.005875369489913939,0.977666443673183,-0.06419421799077163,,-1.4782391903868104,-0.13760365435293231,0.1462733636,0.0698267511803466,0.007378370987333784,1.1485124250872405,0.06876785184253165
2.274694904917851,,0.080717035,-0.043503303,0.37852854,-0.6824134,-0.21690384,-0.69804335,-0.6567076,-0.23745283,0.7157872,-0.3210094,0.9468731,0.019598633,,-0.12968111,0.08538401,0.10259281,0.20573755,-0.9436747,-0.2591333,-0.9464983,-0.25915802,0.19229704,-0.24862233,0.2057065,-0.946505,,0.07861144,-0.047261085,0.25613248,-0.9884961,0.11885427,0.09353561,0.14172952,0.9438231,0.2985143,-0.052801374,0.30833703,-0.9498106,,-0.611671334570078,0.008440947031527389,0.07934850348000001,0.16481629557883615,-0.005875369489913939,0.977666443673183,-0.06419421799077163,,-1.4782391903868104,-0.13760365435293231,0.1462733636,0.0698267511803466,0.007378370987333784,1.1485124250872405,0.06876785184253165
2.3006057259626687,,0.080717035,-0.043503303,0.37852854,-0.6824134,-0.21690384,-0.69804335,-0.6567076,-0.23745283,0.7157872,-0.3210094,0.9468731,0.019598633,,-0.12968111,0.08538401,0.10259281,0.20573755,-0.9436747,-0.2591333,-0.9464983,-0.25915802,0.19229704,-0.24862233,0.2057065,-0.946505,,0.07861144,-0.047261085,0.25613248,-0.9884961,0.11885427,0.09353561,0.14172952,0.9438231,0.2985143,-0.052801374,0.30833703,-0.9498106,,-0.611671334570078,0.008440947031527389,0.07934850348000001,0.16481629557883615,-0.005875369489913939,0.977666443673183,-0.06419421799077163,,-1.4782391903868104,-0.13760365435293231,0.1462733636,0.0698267511803466,0.007378370987333784,1.1485124250872405,0.06876785184253165
2.3221545149572194,,0.08071749,-0.043503497,0.37852827,-0.6824137,-0.21690989,-0.6980412,-0.65670687,-0.2374481,0.71578944,-0.3210104,0.94687295,0.019591652,,-0.12968111,0.08538401,0.10259281,0.20573755,-0.9436747,-0.2591333,-0.9464983,-0.25915802,0.19229704,-0.24862233,0.2057065,-0.946505,,0.07861144,-0.047261085,0.25613248,-0.9884961,0.11885427,0.09353561,0.14172952,0.9438231,0.2985143,-0.052801374,0.30833703,-0.9498106,,-0.6116790573029522,0.008440947031527389,0.07934850348000001,0.16481629557883615,-0.005875369489913939,0.977666443673183,-0.06419421799077163,,-1.4782391903868104,-0.13760365435293231,0.1462733636,0.0698267511803466,0.007378370987333784,1.1485124250872405,0.06876785184253165
2.342810984933749,,0.08071749,-0.043503497,0.37852827,-0.6824137,-0.21690989,-0.6980412,-0.65670687,-0.2374481,0.71578944,-0.3210104,0.94687295,0.019591652,,-0.12968111,0.08538401,0.10259281,0.20573755,-0.9436747,-0.2591333,-0.9464983,-0.25915802,0.19229704,-0.24862233,0.2057065,-0.946505,,0.07861144,-0.047261085,0.25613248,-0.9884961,0.11885427,0.09353561,0.14172952,0.9438231,0.2985143,-0.052801374,0.30833703,-0.9498106,,-0.6116790573029522,0.008440947031527389,0.07934850348000001,0.16481629557883615,-0.005875369489913939,0.977666443673183,-0.06419421799077163,,-1.4782391903868104,-0.13760365435293231,0.1462733636,0.0698267511803466,0.007378370987333784,1.1485124250872405,0.06876785184253165
2.3703101261053234,,0.08071749,-0.043503497,0.37852827,-0.6824137,-0.21690989,-0.6980412,-0.65670687,-0.2374481,0.71578944,-0.3210104,0.94687295,0.019591652,,-0.12968111,0.08538401,0.10259281,0.20573755,-0.9436747,-0.2591333,-0.9464983,-0.25915802,0.19229704,-0.24862233,0.2057065,-0.946505,,0.07861144,-0.047261085,0.25613248,-0.9884961,0.11885427,0.09353561,0.14172952,0.9438231,0.2985143,-0.052801374,0.30833703,-0.9498106,,-0.6116790573029522,0.008440947031527389,0.07934850348000001,0.16481629557883615,-0.005875369489913939,0.977666443673183,-0.06419421799077163,,-1.4782391903868104,-0.13760365435293231,0.1462733636,0.0698267511803466,0.007378370987333784,1.1485124250872405,0.06876785184253165
2.393474421929568,,0.080717035,-0.043503303,0.37852854,-0.6824134,-0.21690384,-0.69804335,-0.6567076,-0.23745283,0.7157872,-0.3210094,0.9468731,0.019598633,,-0.12968111,0.08538401,0.10259281,0.20573755,-0.9436747,-0.2591333,-0.9464983,-0.25915802,0.19229704,-0.24862233,0.2057065,-0.946505,,0.07861144,-0.047261085,0.25613248,-0.9884961,0.11885427,0.09353561,0.14172952,0.9438231,0.2985143,-0.052801374,0.30833703,-0.9498106,,-0.611671334570078,0.008440947031527389,0.07934850348000001,0.16481629557883615,-0.005875369489913939,0.977666443673183,-0.06419421799077163,,-1.4782391903868104,-0.13760365435293231,0.1462733636,0.0698267511803466,0.007378370987333784,1.1485124250872405,0.06876785184253165
2.4184291779529303,,0.080717035,-0.043503303,0.37852854,-0.6824134,-0.21690384,-0.69804335,-0.6567076,-0.23745283,0.7157872,-0.3210094,0.9468731,0.019598633,,-0.12968111,0.08538401,0.10259281,0.20573755,-0.9436747,-0.2591333,-0.9464983,-0.25915802,0.19229704,-0.24862233,0.2057065,-0.946505,,0.07861144,-0.047261085,0.25613248,-0.9884961,0.11885427,0.09353561,0.14172952,0.9438231,0.2985143,-0.052801374,0.30833703,-0.9498106,,-0.611671334570078,0.008440947031527389,0.07934850348000001,0.16481629557883615,-0.005875369489913939,0.977666443673183,-0.06419421799077163,,-1.4782391903868104,-0.13760365435293231,0.1462733636,0.0698267511803466,0.007378370987333784,1.1485124250872405,0.06876785184253165
2.441560165025294,,0.080717035,-0.043503303,0.37852854,-0.6824134,-0.21690384,-0.69804335,-0.6567076,-0.23745283,0.7157872,-0.3210094,0.9468731,0.019598633,,-0.12968111,0.08538401,0.10259281,0.20573755,-0.9436747,-0.2591333,-0.9464983,-0.25915802,0.19229704,-0.24862233,0.2057065,-0.946505,,0.07861144,-0.047261085,0.25613248,-0.9884961,0.11885427,0.09353561,0.14172952,0.9438231,0.2985143,-0.052801374,0.30833703,-0.9498106,,-0.611671334570078,0.008440947031527389,0.07934850348000001,0.16481629557883615,-0.005875369489913939,0.977666443673183,-0.06419421799077163,,-1.4782391903868104,-0.13760365435293231,0.1462733636,0.0698267511803466,0.007378370987333784,1.1485124250872405,0.06876785184253165
2.46883245697245,,0.08071749,-0.043503497,0.37852827,-0.6824137,-0.21690989,-0.6980412,-0.65670687,-0.2374481,0.71578944,-0.3210104,0.94687295,0.019591652,,-0.12968111,0.08538401,0.10259281,0.20573755,-0.9436747,-0.2591333,-0.9464983,-0.25915802,0.19229704,-0.24862233,0.2057065,-0.946505,,0.07861144,-0.047261085,0.25613248,-0.9884961,0.11885427,0.09353561,0.14172952,0.9438231,0.2985143,-0.052801374,0.30833703,-0.9498106,,-0.6116790573029522,0.008440947031527389,0.07934850348000001,0.16481629557883615,-0.005875369489913939,0.977666443673183,-0.06419421799077163,,-1.4782391903868104,-0.13760365435293231,0.1462733636,0.0698267511803466,0.007378370987333784,1.1485124250872405,0.06876785184253165
2.491834433050826,,0.08071749,-0.043503497,0.37852827,-0.6824137,-0.21690989,-0.6980412,-0.65670687,-0.2374481,0.71578944,-0.3210104,0.94687295,0.019591652,,-0.12968111,0.08538401,0.10259281,0.20573755,-0.9436747,-0.2591333,-0.9464983,-0.25915802,0.19229704,-0.24862233,0.2057065,-0.946505,,0.07861144,-0.047261085,0.25613248,-0.9884961,0.11885427,0.09353561,0.14172952,0.9438231,0.2985143,-0.052801374,0.30833703,-0.9498106,,-0.6116790573029522,0.008440947031527389,0.07934850348000001,0.16481629557883615,-0.005875369489913939,0.977666443673183,-0.06419421799077163,,-1.4782391903868104,-0.13760365435293231,0.1462733636,0.0698267511803466,0.007378370987333784,1.1485124250872405,0.06876785184253165
2.5166043180506676,,0.08071749,-0.043503497,0.37852827,-0.6824137,-0.21690989,-0.6980412,-0.65670687,-0.2374481,0.71578944,-0.3210104,0.94687295,0.019591652,,-0.12968111,0.08538401,0.10259281,0.20573755,-0.9436747,-0.2591333,-0.9464983,-0.25915802,0.19229704,-0.24862233,0.2057065,-0.946505,,0.07861144,-0.047261085,0.25613248,-0.9884961,0.11885427,0.09353561,0.14172952,0.9438231,0.2985143,-0.052801374,0.30833703,-0.9498106,,-0.611671334570078,0.008440947031527389,0.07934850348000001,0.16481629557883615,-0.005875369489913939,0.977666443673183,-0.06419421799077163,,-1.4782391903868104,-0.13760365435293231,0.1462733636,0.0698267511803466,0.007378370987333784,1.1485124250872405,0.06876785184253165
2.5395379930268973,,0.080717035,-0.043503303,0.37852854,-0.6824134,-0.21690384,-0.69804335,-0.6567076,-0.23745283,0.7157872,-0.3210094,0.9468731,0.019598633,,-0.12968111,0.08538401,0.10259281,0.20573755,-0.9436747,-0.2591333,-0.9464983,-0.25915802,0.19229704,-0.24862233,0.2057065,-0.946505,,0.07861144,-0.047261085,0.25613248,-0.9884961,0.11885427,0.09353561,0.14172952,0.9438231,0.2985143,-0.052801374,0.30833703,-0.9498106,,-0.611671334570078,0.008440947031527389,0.07934850348000001,0.16481629557883615,-0.005875369489913939,0.977666443673183,-0.06419421799077163,,-1.4782391903868104,-0.13760365435293231,0.1462733636,0.0698267511803466,0.007378370987333784,1.1485124250872405,0.06876785184253165
2.5623221760615706,,0.08071749,-0.043503497,0.37852827,-0.6824137,-0.21690989,-0.6980412,-0.65670687,-0.2374481,0.71578944,-0.3210104,0.94687295,0.019591652,,-0.12968111,0.08538401,0.10259281,0.20573755,-0.9436747,-0.2591333,-0.9464983,-0.25915802,0.19229704,-0.24862233,0.2057065,-0.946505,,0.07861144,-0.047261085,0.25613248,-0.9884961,0.11885427,0.09353561,0.14172952,0.9438231,0.2985143,-0.052801374,0.30833703,-0.9498106,,-0.6116790573029522,0.008440947031527389,0.07934850348000001,0.16481629557883615,-0.005875369489913939,0.977666443673183,-0.06419421799077163,,-1.4782391903868104,-0.13760365435293231,0.1462733636,0.0698267511803466,0.007378370987333784,1.1485124250872405,0.06876785184253165
2.5832284330390394,,0.080717035,-0.043503303,0.37852854,-0.6824134,-0.21690384,-0.69804335,-0.6567076,-0.23745283,0.7157872,-0.3210094,0.9468731,0.019598633,,-0.12968111,0.08538401,0.10259281,0.20573755,-0.9436747,-0.2591333,-0.9464983,-0.25915802,0.19229704,-0.24862233,0.2057065,-0.946505,,0.07861144,-0.047261085,0.25613248,-0.9884961,0.11885427,0.09353561,0.14172952,0.9438231,0.2985143,-0.052801374,0.30833703,-0.9498106,,-0.611671334570078,0.008440947031527389,0.07934850348000001,0.16481629557883615,-0.005875369489913939,0.977666443673183,-0.06419421799077163,,-1.4782391903868104,-0.13760365435293231,0.1462733636,0.0698267511803466,0.007378370987333784,1.1485124250872405,0.06876785184253165
2.6095521089155227,,0.080717035,-0.043503303,0.37852854,-0.6824134,-0.21690384,-0.69804335,-0.6567076,-0.23745283,0.7157872,-0.3210094,0.9468731,0.019598633,,-0.12968111,0.08538401,0.10259281,0.20573755,-0.9436747,-0.2591333,-0.9464983,-0.25915802,0.19229704,-0.24862233,0.2057065,-0.946505,,0.07861144,-0.047261085,0.25613248,-0.9884961,0.11885427,0.09353561,0.14172952,0.9438231,0.2985143,-0.052801374,0.30833703,-0.9498106,,-0.611671334570078,0.008440947031527389,0.07934850348000001,0.16481629557883615,-0.005875369489913939,0.977666443673183,-0.06419421799077163,,-1.4782391903868104,-0.13760365435293231,0.1462733636,0.0698267511803466,0.007378370987333784,1.1485124250872405,0.06876785184253165
2.6352435839362442,,0.080717035,-0.043503303,0.37852854,-0.6824134,-0.21690384,-0.69804335,-0.6567076,-0.23745283,0.7157872,-0.3210094,0.9468731,0.019598633,,-0.12968111,0.08538401,0.10259281,0.20573755,-0.9436747,-0.2591333,-0.9464983,-0.25915802,0.19229704,-0.24862233,0.2057065,-0.946505,,0.07861144,-0.047261085,0.25613248,-0.9884961,0.11885427,0.09353561,0.14172952,0.9438231,0.2985143,-0.052801374,0.30833703,-0.9498106,,-0.611671334570078,0.008440947031527389,0.07934850348000001,0.16481629557883615,-0.005875369489913939,0.977666443673183,-0.06419421799077163,,-1.4782391903868104,-0.13760365435293231,0.1462733636,0.0698267511803466,0.007378370987333784,1.1485124250872405,0.06876785184253165
2.6583627311047167,,0.080717035,-0.043503303,0.37852854,-0.6824134,-0.21690384,-0.69804335,-0.6567076,-0.23745283,0.7157872,-0.3210094,0.9468731,0.019598633,,-0.12968111,0.08538401,0.10259281,0.20573755,-0.9436747,-0.2591333,-0.9464983,-0.25915802,0.19229704,-0.24862233,0.2057065,-0.946505,,0.07861144,-0.047261085,0.25613248,-0.9884961,0.11885427,0.09353561,0.14172952,0.9438231,0.2985143,-0.052801374,0.30833703,-0.9498106,,-0.611671334570078,0.008440947031527389,0.07934850348000001,0.16481629557883615,-0.005875369489913939,0.977666443673183,-0.06419421799077163,,-1.4782391903868104,-0.13760365435293231,0.1462733636,0.0698267511803466,0.007378370987333784,1.1485124250872405,0.06876785184253165
2.6850796500220895,,0.08071749,-0.043503497,0.37852827,-0.6824137,-0.21690989,-0.6980412,-0.65670687,-0.2374481,0.71578944,-0.3210104,0.94687295,0.019591652,,-0.12968111,0.08538401,0.10259281,0.20573755,-0.9436747,-0.2591333,-0.9464983,-0.25915802,0.19229704,-0.24862233,0.2057065,-0.946505,,0.07861144,-0.047261085,0.25613248,-0.9884961,0.11885427,0.09353561,0.14172952,0.9438231,0.2985143,-0.052801374,0.30833703,-0.9498106,,-0.6116790573029522,0.008440947031527389,0.07934850348000001,0.16481629557883615,-0.005875369489913939,0.977666443673183,-0.06419421799077163,,-1.4782391903868104,-0.13760365435293231,0.1462733636,0.0698267511803466,0.007378370987333784,1.1485124250872405,0.06876785184253165
2.70721817901358,,0.08071749,-0.043503497,0.37852827,-0.6824137,-0.21690989,-0.6980412,-0.65670687,-0.2374481,0.71578944,-0.3210104,0.94687295,0.019591652,,-0.12968111,0.08538401,0.10259281,0.20573755,-0.9436747,-0.2591333,-0.9464983,-0.25915802,0.19229704,-0.24862233,0.2057065,-0.946505,,0.07861144,-0.047261085,0.25613248,-0.9884961,0.11885427,0.09353561,0.14172952,0.9438231,0.2985143,-0.052801374,0.30833703,-0.9498106,,-0.6116790573029522,0.008440947031527389,0.07934850348000001,0.16481629557883615,-0.005875369489913939,0.977666443673183,-0.06419421799077163,,-1.4782391903868104,-0.13760365435293231,0.1462733636,0.0698267511803466,0.007378370987333784,1.1485124250872405,0.06876785184253165
2.7337877328973264,,0.08071749,-0.043503497,0.37852827,-0.6824137,-0.21690989,-0.6980412,-0.65670687,-0.2374481,0.71578944,-0.3210104,0.94687295,0.019591652,,-0.12968111,0.08538401,0.10259281,0.20573755,-0.9436747,-0.2591333,-0.9464983,-0.25915802,0.19229704,-0.24862233,0.2057065,-0.946505,,0.07861144,-0.047261085,0.25613248,-0.9884961,0.11885427,0.09353561,0.14172952,0.9438231,0.2985143,-0.052801374,0.30833703,-0.9498106,,-0.6116790573029522,0.008440947031527389,0.07934850348000001,0.16481629557883615,-0.005875369489913939,0.977666443673183,-0.06419421799077163,,-1.4782391903868104,-0.13760365435293231,0.1462733636,0.0698267511803466,0.007378370987333784,1.1485124250872405,0.06876785184253165
2.75575245404616,,0.08070382,-0.043495778,0.3785296,-0.68242764,-0.2169187,-0.69802475,-0.6566927,-0.23743847,0.7158057,-0.32100964,0.94687337,0.019585706,,-0.12971306,0.08540508,0.10258582,0.20566978,-0.94370234,-0.25908625,-0.9465159,-0.25908124,0.19231361,-0.24861126,0.20567618,-0.94651455,,0.07854811,-0.04723628,0.25611612,-0.9884868,0.11892567,0.093542986,0.14179999,0.9438124,0.29851475,-0.052785967,0.30834237,-0.94980973,,-0.611671334570078,0.008440947031527389,0.07934850348000001,0.16481629557883615,-0.005875369489913939,0.977666443673183,-0.06419421799077163,,-1.4782391903868104,-0.13760365435293231,0.1462733636,0.0698267511803466,0.007378370987333784,1.1485124250872405,0.06876785184253165
2.776422072900459,,0.08070382,-0.043495778,0.3785296,-0.68242764,-0.2169187,-0.69802475,-0.6566927,-0.23743847,0.7158057,-0.32100964,0.94687337,0.019585706,,-0.12971306,0.08540508,0.10258582,0.20566978,-0.94370234,-0.25908625,-0.9465159,-0.25908124,0.19231361,-0.24861126,0.20567618,-0.94651455,,0.07854811,-0.04723628,0.25611612,-0.9884868,0.11892567,0.093542986,0.14179999,0.9438124,0.29851475,-0.052785967,0.30834237,-0.94980973,,-0.611671334570078,0.008440947031527389,0.07934850348000001,0.16481629557883615,-0.005875369489913939,0.977666443673183,-0.06419421799077163,,-1.4782391903868104,-0.13760365435293231,0.1462733636,0.0698267511803466,0.007378370987333784,1.1485124250872405,0.06876785184253165
2.802874920889735,,0.08070382,-0.043495778,0.3785296,-0.68242764,-0.2169187,-0.69802475,-0.6566927,-0.23743847,0.7158057,-0.32100964,0.94687337,0.019585706,,-0.12971306,0.08540508,0.10258582,0.20566978,-0.94370234,-0.25908625,-0.9465159,-0.25908124,0.19231361,-0.24861126,0.20567618,-0.94651455,,0.07854811,-0.04723628,0.25611612,-0.9884868,0.11892567,0.093542986,0.14179999,0.9438124,0.29851475,-0.052785967,0.30834237,-0.94980973,,-0.611671334570078,0.008440947031527389,0.07934850348000001,0.16481629557883615,-0.005875369489913939,0.977666443673183,-0.06419421799077163,,-1.4782391903868104,-0.13760365435293231,0.1462733636,0.0698267511803466,0.007378370987333784,1.1485124250872405,0.06876785184253165
2.825238780118525,,0.08070382,-0.043495778,0.3785296,-0.68242764,-0.2169187,-0.69802475,-0.6566927,-0.23743847,0.7158057,-0.32100964,0.94687337,0.019585706,,-0.12971306,0.08540508,0.10258582,0.20566978,-0.94370234,-0.25908625,-0.9465159,-0.25908124,0.19231361,-0.24861126,0.20567618,-0.94651455,,0.07854811,-0.04723628,0.25611612,-0.9884868,0.11892567,0.093542986,0.14179999,0.9438124,0.29851475,-0.052785967,0.30834237,-0.94980973,,-0.611671334570078,0.008440947031527389,0.07934850348000001,0.16481629557883615,-0.005875369489913939,0.977666443673183,-0.06419421799077163,,-1.4782391903868104,-0.13760365435293231,0.1462733636,0.0698267511803466,0.007378370987333784,1.1485124250872405,0.06876785184253165
2.8543286889325827,,0.080704264,-0.043495968,0.3785293,-0.68242794,-0.21692474,-0.6980226,-0.65669197,-0.23743372,0.715808,-0.32101062,0.9468731,0.019578718,,-0.12971306,0.08540508,0.10258582,0.20566978,-0.94370234,-0.25908625,-0.9465159,-0.25908124,0.19231361,-0.24861126,0.20567618,-0.94651455,,0.07854811,-0.04723628,0.25611612,-0.9884868,0.11892567,0.093542986,0.14179999,0.9438124,0.29851475,-0.052785967,0.30834237,-0.94980973,,-0.6116790573029522,0.008440947031527389,0.07934850348000001,0.16481629557883615,-0.005875369489913939,0.977666443673183,-0.06419421799077163,,-1.4782391903868104,-0.13760365435293231,0.1462733636,0.0698267511803466,0.007378370987333784,1.1485124250872405,0.06876785184253165
2.874476613011211,,0.080704264,-0.043495968,0.3785293,-0.68242794,-0.21692474,-0.6980226,-0.65669197,-0.23743372,0.715808,-0.32101062,0.9468731,0.019578718,,-0.12971306,0.08540508,0.10258582,0.20566978,-0.94370234,-0.25908625,-0.9465159,-0.25908124,0.19231361,-0.24861126,0.20567618,-0.94651455,,0.07854811,-0.04723628,0.25611612,-0.9884868,0.11892567,0.093542986,0.14179999,0.9438124,0.29851475,-0.052785967,0.30834237,-0.94980973,,-0.6116790573029522,0.008440947031527389,0.07934850348000001,0.16481629557883615,-0.005875369489913939,0.977666443673183,-0.06419421799077163,,-1.4782391903868104,-0.13760365435293231,0.1462733636,0.0698267511803466,0.007378370987333784,1.1485124250872405,0.06876785184253165
2.8986909079831094,,0.080704264,-0.043495968,0.3785293,-0.68242794,-0.21692474,-0.6980226,-0.65669197,-0.23743372,0.715808,-0.32101062,0.9468731,0.019578718,,-0.12971306,0.08540508,0.10258582,0.20566978,-0.94370234,-0.25908625,-0.9465159,-0.25908124,0.19231361,-0.24861126,0.20567618,-0.94651455,,0.07854811,-0.04723628,0.25611612,-0.9884868,0.11892567,0.093542986,0.14179999,0.9438124,0.29851475,-0.052785967,0.30834237,-0.94980973,,-0.6116790573029522,0.008440947031527389,0.07934850348000001,0.16481629557883615,-0.005875369489913939,0.977666443673183,-0.06419421799077163,,-1.4782391903868104,-0.13760365435293231,0.1462733636,0.0698267511803466,0.007378370987333784,1.1485124250872405,0.06876785184253165
2.920756510924548,,0.08070382,-0.043495778,0.3785296,-0.68242764,-0.2169187,-0.69802475,-0.6566927,-0.23743847,0.7158057,-0.32100964,0.94687337,0.019585706,,-0.12971306,0.08540508,0.10258582,0.20566978,-0.94370234,-0.25908625,-0.9465159,-0.25908124,0.19231361,-0.24861126,0.20567618,-0.94651455,,0.07854811,-0.04723628,0.25611612,-0.9884868,0.11892567,0.093542986,0.14179999,0.9438124,0.29851475,-0.052785967,0.30834237,-0.94980973,,-0.611671334570078,0.008440947031527389,0.07934850348000001,0.16481629557883615,-0.005875369489913939,0.977666443673183,-0.06419421799077163,,-1.4782391903868104,-0.13760365435293231,0.1462733636,0.0698267511803466,0.007378370987333784,1.1485124250872405,0.06876785184253165
2.9448648439720273,,0.08070382,-0.043495778,0.3785296,-0.68242764,-0.2169187,-0.69802475,-0.6566927,-0.23743847,0.7158057,-0.32100964,0.94687337,0.019585706,,-0.12971306,0.08540508,0.10258582,0.20566978,-0.94370234,-0.25908625,-0.9465159,-0.25908124,0.19231361,-0.24861126,0.20567618,-0.94651455,,0.07854811,-0.04723628,0.25611612,-0.9884868,0.11892567,0.093542986,0.14179999,0.9438124,0.29851475,-0.052785967,0.30834237,-0.94980973,,-0.611671334570078,0.008440947031527389,0.07934850348000001,0.16481629557883615,-0.005875369489913939,0.977666443673183,-0.06419421799077163,,-1.4782391903868104,-0.13760365435293231,0.1462733636,0.0698267511803466,0.007378370987333784,1.1485124250872405,0.06876785184253165
2.9697620859369636,,0.08070382,-0.043495778,0.3785296,-0.68242764,-0.2169187,-0.69802475,-0.6566927,-0.23743847,0.7158057,-0.32100964,0.94687337,0.019585706,,-0.12971306,0.08540508,0.10258582,0.20566978,-0.94370234,-0.25908625,-0.9465159,-0.25908124,0.19231361,-0.24861126,0.20567618,-0.94651455,,0.07854811,-0.04723628,0.25611612,-0.9884868,0.11892567,0.093542986,0.14179999,0.9438124,0.29851475,-0.052785967,0.30834237,-0.94980973,,-0.611671334570078,0.008440947031527389,0.07934850348000001,0.16481629557883615,-0.005875369489913939,0.977666443673183,-0.06419421799077163,,-1.4782391903868104,-0.13760365435293231,0.1462733636,0.0698267511803466,0.007378370987333784,1.1485124250872405,0.06876785184253165
2.9923935630358756,,0.080704264,-0.043495968,0.3785293,-0.68242794,-0.21692474,-0.6980226,-0.65669197,-0.23743372,0.715808,-0.32101062,0.9468731,0.019578718,,-0.12971306,0.08540508,0.10258582,0.20566978,-0.94370234,-0.25908625,-0.9465159,-0.25908124,0.19231361,-0.24861126,0.20567618,-0.94651455,,0.07854811,-0.04723628,0.25611612,-0.9884868,0.11892567,0.093542986,0.14179999,0.9438124,0.29851475,-0.052785967,0.30834237,-0.94980973,,-0.6116790573029522,0.008440947031527389,0.07934850348000001,0.16481629557883615,-0.005875369489913939,0.977666443673183,-0.06419421799077163,,-1.4782391903868104,-0.13760365435293231,0.1462733636,0.0698267511803466,0.007378370987333784,1.1485124250872405,0.06876785184253165
3.018771610921249,,0.080704264,-0.043495968,0.3785293,-0.68242794,-0.21692474,-0.6980226,-0.65669197,-0.23743372,0.715808,-0.32101062,0.9468731,0.019578718,,-0.12971306,0.08540508,0.10258582,0.20566978,-0.94370234,-0.25908625,-0.9465159,-0.25908124,0.19231361,-0.24861126,0.20567618,-0.94651455,,0.07854811,-0.04723628,0.25611612,-0.9884868,0.11892567,0.093542986,0.14179999,0.9438124,0.29851475,-0.052785967,0.30834237,-0.94980973,,-0.6116790573029522,0.008440947031527389,0.07934850348000001,0.16481629557883615,-0.005875369489913939,0.977666443673183,-0.06419421799077163,,-1.4782391903868104,-0.13760365435293231,0.1462733636,0.0698267511803466,0.007378370987333784,1.1485124250872405,0.06876785184253165
3.041376855922863,,0.08070382,-0.043495778,0.3785296,-0.68242764,-0.2169187,-0.69802475,-0.6566927,-0.23743847,0.7158057,-0.32100964,0.94687337,0.019585706,,-0.12971306,0.08540508,0.10258582,0.20566978,-0.94370234,-0.25908625,-0.9465159,-0.25908124,0.19231361,-0.24861126,0.20567618,-0.94651455,,0.07854811,-0.04723628,0.25611612,-0.9884868,0.11892567,0.093542986,0.14179999,0.9438124,0.29851475,-0.052785967,0.30834237,-0.94980973,,-0.611671334570078,0.008440947031527389,0.07934850348000001,0.16481629557883615,-0.005875369489913939,0.977666443673183,-0.06419421799077163,,-1.4782391903868104,-0.13760365435293231,0.1462733636,0.0698267511803466,0.007378370987333784,1.1485124250872405,0.06876785184253165
3.0682883930858225,,0.08070382,-0.043495778,0.3785296,-0.68242764,-0.2169187,-0.69802475,-0.6566927,-0.23743847,0.7158057,-0.32100964,0.94687337,0.019585706,,-0.12971306,0.08540508,0.10258582,0.20566978,-0.94370234,-0.25908625,-0.9465159,-0.25908124,0.19231361,-0.24861126,0.20567618,-0.94651455,,0.07854811,-0.04723628,0.25611612,-0.9884868,0.11892567,0.093542986,0.14179999,0.9438124,0.29851475,-0.052785967,0.30834237,-0.94980973,,-0.611671334570078,0.008440947031527389,0.07934850348000001,0.16481629557883615,-0.005875369489913939,0.977666443673183,-0.06419421799077163,,-1.4782391903868104,-0.13760365435293231,0.1462733636,0.0698267511803466,0.007378370987333784,1.1485124250872405,0.06876785184253165
3.091379444114864,,0.08070382,-0.043495778,0.3785296,-0.68242764,-0.2169187,-0.69802475,-0.6566927,-0.23743847,0.7158057,-0.32100964,0.94687337,0.019585706,,-0.12971306,0.08540508,0.10258582,0.20566978,-0.94370234,-0.25908625,-0.9465159,-0.25908124,0.19231361,-0.24861126,0.20567618,-0.94651455,,0.07854811,-0.04723628,0.25611612,-0.9884868,0.11892567,0.093542986,0.14179999,0.9438124,0.29851475,-0.052785967,0.30834237,-0.94980973,,-0.611671334570078,0.008440947031527389,0.07934850348000001,0.16481629557883615,-0.005875369489913939,0.977666443673183,-0.06419421799077163,,-1.4782391903868104,-0.13760365435293231,0.1462733636,0.0698267511803466,0.007378370987333784,1.1485124250872405,0.06876785184253165
3.1184090829920024,,0.080704264,-0.043495968,0.3785293,-0.68242794,-0.21692474,-0.6980226,-0.65669197,-0.23743372,0.715808,-0.32101062,0.9468731,0.019578718,,-0.12971306,0.08540508,0.10258582,0.20566978,-0.94370234,-0.25908625,-0.9465159,-0.25908124,0.19231361,-0.24861126,0.20567618,-0.94651455,,0.07854811,-0.04723628,0.25611612,-0.9884868,0.11892567,0.093542986,0.14179999,0.9438124,0.29851475,-0.052785967,0.30834237,-0.94980973,,-0.6116790573029522,0.008440947031527389,0.07934850348000001,0.16481629557883615,-0.005875369489913939,0.977666443673183,-0.06419421799077163,,-1.4782391903868104,-0.13760365435293231,0.1462733636,0.0698267511803466,0.007378370987333784,1.1485124250872405,0.06876785184253165
3.1402137340046465,,0.080704264,-0.043495968,0.3785293,-0.68242794,-0.21692474,-0.6980226,-0.65669197,-0.23743372,0.715808,-0.32101062,0.9468731,0.019578718,,-0.12971306,0.08540508,0.10258582,0.20566978,-0.94370234,-0.25908625,-0.9465159,-0.25908124,0.19231361,-0.24861126,0.20567618,-0.94651455,,0.07854811,-0.04723628,0.25611612,-0.9884868,0.11892567,0.093542986,0.14179999,0.9438124,0.29851475,-0.052785967,0.30834237,-0.94980973,,-0.6116790573029522,0.008440947031527389,0.07934850348000001,0.16481629557883615,-0.005875369489913939,0.977666443673183,-0.06419421799077163,,-1.4782391903868104,-0.13760365435293231,0.1462733636,0.0698267511803466,0.007378370987333784,1.1485124250872405,0.06876785184253165
3.163274907041341,,0.080704264,-0.043495968,0.3785293,-0.68242794,-0.21692474,-0.6980226,-0.65669197,-0.23743372,0.715808,-0.32101062,0.9468731,0.019578718,,-0.12971306,0.08540508,0.10258582,0.20566978,-0.94370234,-0.25908625,-0.9465159,-0.25908124,0.19231361,-0.24861126,0.20567618,-0.94651455,,0.07854811,-0.04723628,0.25611612,-0.9884868,0.11892567,0.093542986,0.14179999,0.9438124,0.29851475,-0.052785967,0.30834237,-0.94980973,,-0.6116790573029522,0.008440947031527389,0.07934850348000001,0.16481629557883615,-0.005875369489913939,0.977666443673183,-0.06419421799077163,,-1.4782391903868104,-0.13760365435293231,0.1462733636,0.0698267511803466,0.007378370987333784,1.1485124250872405,0.06876785184253165
3.1888231600169092,,0.08070382,-0.043495778,0.3785296,-0.68242764,-0.2169187,-0.69802475,-0.6566927,-0.23743847,0.7158057,-0.32100964,0.94687337,0.019585706,,-0.12971306,0.08540508,0.10258582,0.20566978,-0.94370234,-0.25908625,-0.9465159,-0.25908124,0.19231361,-0.24861126,0.20567618,-0.94651455,,0.07854811,-0.04723628,0.25611612,-0.9884868,0.11892567,0.093542986,0.14179999,0.9438124,0.29851475,-0.052785967,0.30834237,-0.94980973,,-0.611671334570078,0.008440947031527389,0.07934850348000001,0.16481629557883615,-0.005875369489913939,0.977666443673183,-0.06419421799077163,,-1.4782391903868104,-0.13760365435293231,0.1462733636,0.0698267511803466,0.007378370987333784,1.1485124250872405,0.06876785184253165
3.219672508072108,,0.08070382,-0.043495778,0.3785296,-0.68242764,-0.2169187,-0.69802475,-0.6566927,-0.23743847,0.7158057,-0.32100964,0.94687337,0.019585706,,-0.12971306,0.08540508,0.10258582,0.20566978,-0.94370234,-0.25908625,-0.9465159,-0.25908124,0.19231361,-0.24861126,0.20567618,-0.94651455,,0.07854811,-0.04723628,0.25611612,-0.9884868,0.11892567,0.093542986,0.14179999,0.9438124,0.29851475,-0.052785967,0.30834237,-0.94980973,,-0.611671334570078,0.008440947031527389,0.07934850348000001,0.16481629557883615,-0.005875369489913939,0.977666443673183,-0.06419421799077163,,-1.4782391903868104,-0.13760365435293231,0.1462733636,0.0698267511803466,0.007378370987333784,1.1485124250872405,0.06876785184253165
3.2394149829633534,,0.08070382,-0.043495778,0.3785296,-0.68242764,-0.2169187,-0.69802475,-0.6566927,-0.23743847,0.7158057,-0.32100964,0.94687337,0.019585706,,-0.12971306,0.08540508,0.10258582,0.20566978,-0.94370234,-0.25908625,-0.9465159,-0.25908124,0.19231361,-0.24861126,0.20567618,-0.94651455,,0.07854811,-0.04723628,0.25611612,-0.9884868,0.11892567,0.093542986,0.14179999,0.9438124,0.29851475,-0.052785967,0.30834237,-0.94980973,,-0.611671334570078,0.008440947031527389,0.07934850348000001,0.16481629557883615,-0.005875369489913939,0.977666443673183,-0.06419421799077163,,-1.4782391903868104,-0.13760365435293231,0.1462733636,0.0698267511803466,0.007378370987333784,1.1485124250872405,0.06876785184253165
3.2620687899179757,,0.08070382,-0.043495778,0.3785296,-0.68242764,-0.2169187,-0.69802475,-0.6566927,-0.23743847,0.7158057,-0.32100964,0.94687337,0.019585706,,-0.12971306,0.08540508,0.10258582,0.20566978,-0.94370234,-0.25908625,-0.9465159,-0.25908124,0.19231361,-0.24861126,0.20567618,-0.94651455,,0.07854811,-0.04723628,0.25611612,-0.9884868,0.11892567,0.093542986,0.14179999,0.9438124,0.29851475,-0.052785967,0.30834237,-0.94980973,,-0.611671334570078,0.008440947031527389,0.07934850348000001,0.16481629557883615,-0.005875369489913939,0.977666443673183,-0.06419421799077163,,-1.4782391903868104,-0.13760365435293231,0.1462733636,0.0698267511803466,0.007378370987333784,1.1485124250872405,0.06876785184253165
3.2885088049806654,,0.080704264,-0.043495968,0.3785293,-0.68242794,-0.21692474,-0.6980226,-0.65669197,-0.23743372,0.715808,-0.32101062,0.9468731,0.019578718,,-0.12971306,0.08540508,0.10258582,0.20566978,-0.94370234,-0.25908625,-0.9465159,-0.25908124,0.19231361,-0.24861126,0.20567618,-0.94651455,,0.07854811,-0.04723628,0.25611612,-0.9884868,0.11892567,0.093542986,0.14179999,0.9438124,0.29851475,-0.052785967,0.30834237,-0.94980973,,-0.6116790573029522,0.008440947031527389,0.07934850348000001,0.16481629557883615,-0.005875369489913939,0.977666443673183,-0.06419421799077163,,-1.4782391903868104,-0.13760365435293231,0.1462733636,0.0698267511803466,0.007378370987333784,1.1485124250872405,0.06876785184253165
3.30967788095586,,0.08070382,-0.043495778,0.3785296,-0.68242764,-0.2169187,-0.69802475,-0.6566927,-0.23743847,0.7158057,-0.32100964,0.94687337,0.019585706,,-0.12971306,0.08540508,0.10258582,0.20566978,-0.94370234,-0.25908625,-0.9465159,-0.25908124,0.19231361,-0.24861126,0.20567618,-0.94651455,,0.07854811,-0.04723628,0.25611612,-0.9884868,0.11892567,0.093542986,0.14179999,0.9438124,0.29851475,-0.052785967,0.30834237,-0.94980973,,-0.611671334570078,0.008440947031527389,0.07934850348000001,0.16481629557883615,-0.005875369489913939,0.977666443673183,-0.06419421799077163,,-1.4782391903868104,-0.13760365435293231,0.1462733636,0.0698267511803466,0.007378370987333784,1.1485124250872405,0.06876785184253165
3.33576652710326,,0.080704264,-0.043495968,0.3785293,-0.68242794,-0.21692474,-0.6980226,-0.65669197,-0.23743372,0.715808,-0.32101062,0.9468731,0.019578718,,-0.12971306,0.08540508,0.10258582,0.20566978,-0.94370234,-0.25908625,-0.9465159,-0.25908124,0.19231361,-0.24861126,0.20567618,-0.94651455,,0.07854811,-0.04723628,0.25611612,-0.9884868,0.11892567,0.093542986,0.14179999,0.9438124,0.29851475,-0.052785967,0.30834237,-0.94980973,,-0.6116790573029522,0.008440947031527389,0.07934850348000001,0.16481629557883615,-0.005875369489913939,0.977666443673183,-0.06419421799077163,,-1.4782391903868104,-0.13760365435293231,0.1462733636,0.0698267511803466,0.007378370987333784,1.1485124250872405,0.06876785184253165
3.3608158230781555,,0.080704264,-0.043495968,0.3785293,-0.68242794,-0.21692474,-0.6980226,-0.65669197,-0.23743372,0.715808,-0.32101062,0.9468731,0.019578718,,-0.12971306,0.08540508,0.10258582,0.20566978,-0.94370234,-0.25908625,-0.9465159,-0.25908124,0.19231361,-0.24861126,0.20567618,-0.94651455,,0.07854811,-0.04723628,0.25611612,-0.9884868,0.11892567,0.093542986,0.14179999,0.9438124,0.29851475,-0.052785967,0.30834237,-0.94980973,,-0.6116790573029522,0.008440947031527389,0.07934850348000001,0.16481629557883615,-0.005875369489913939,0.977666443673183,-0.06419421799077163,,-1.4782391903868104,-0.13760365435293231,0.1462733636,0.0698267511803466,0.007378370987333784,1.1485124250872405,0.06876785184253165
3.384808138012886,,0.08070382,-0.043495778,0.3785296,-0.68242764,-0.2169187,-0.69802475,-0.6566927,-0.23743847,0.7158057,-0.32100964,0.94687337,0.019585706,,-0.12971306,0.08540508,0.10258582,0.20566978,-0.94370234,-0.25908625,-0.9465159,-0.25908124,0.19231361,-0.24861126,0.20567618,-0.94651455,,0.07854811,-0.04723628,0.25611612,-0.9884868,0.11892567,0.093542986,0.14179999,0.9438124,0.29851475,-0.052785967,0.30834237,-0.94980973,,-0.611671334570078,0.008440947031527389,0.07934850348000001,0.16481629557883615,-0.005875369489913939,0.977666443673183,-0.06419421799077163,,-1.4782391903868104,-0.13760365435293231,0.1462733636,0.0698267511803466,0.007378370987333784,1.1485124250872405,0.06876785184253165
