AlexandreBanks6/ExpertPlaybackApp/resources/Motions/Motion_BestNext.csv
Time,si_T_psm1,Tx,Ty,Tz,R00,R01,R02,R10,R11,R12,R20,R21,R22,si_T_psm3,Tx,Ty,Tz,R00,R01,R02,R10,R11,R12,R20,R21,R22,si_T_ecm,Tx,Ty,Tz,R00,R01,R02,R10,R11,R12,R20,R21,R22,joint_vars_psm1,q1,q2,q3,q4,q5,q6,jaw,joint_vars_psm3,q1,q2,q3,q4,q5,q6,jaw
lci_T_si
,,-0.060370814,0.063342035,0.54816455,0.9988847,0.009965554,-0.04615244,0.0006852087,-0.9804292,-0.19687097,-0.047211125,0.19661976,-0.9793425
rci_T_si
,,-0.061924394,0.05314626,0.52475864,0.98981136,0.011857217,-0.14189053,-0.0067230375,-0.9915231,-0.12975667,-0.14222628,0.12938857,-0.98134106
ecm_T_lc
,,0.022782804,0.054864287,-0.33796614,-0.99125,-0.12739496,-0.0345537,0.12872347,-0.990897,-0.03941251,-0.029218202,-0.043515522,0.99862534
ecm_T_rc
,,0.022707665,0.067641795,-0.42994186,-0.99723834,0.02928547,-0.06824988,-0.024871755,-0.9975983,-0.06464576,-0.069979146,-0.06276973,0.9955716
0.022377316839993,,0.09842671,-0.016521104,0.36033225,-0.6121071,-0.43036157,-0.6634107,-0.75074726,0.052732304,0.65848154,-0.24840197,0.90111494,-0.35537052,,0.06454401,-0.024979629,0.64599675,0.12012036,-0.99001175,-0.07380991,-0.97767377,-0.1308795,0.16439155,-0.17240983,0.052415244,-0.9836297,,0.075768925,-0.019816667,0.20446195,-0.9886078,0.12970173,-0.07636778,0.108169794,0.9650451,0.23872006,0.10466077,0.22773987,-0.9680809,,-0.6113547025222349,0.009722920688648658,0.07871591396000001,0.07108489084125376,0.001503001497419845,0.5420197037342187,-0.034465597954332905,,-1.4560208879076664,-0.13676959920251608,0.14581577323,0.04759961717098703,0.003962458493197773,0.6064189972019602,0.019601287936113487
0.044554744847118855,,0.09842628,-0.016520925,0.36033255,-0.6121069,-0.43035623,-0.66341436,-0.7507475,0.05272749,0.6584816,-0.2484015,0.9011178,-0.35536364,,0.06454401,-0.024979629,0.64599675,0.12012036,-0.99001175,-0.07380991,-0.97767377,-0.1308795,0.16439155,-0.17240983,0.052415244,-0.9836297,,0.075768925,-0.019816667,0.20446195,-0.9886078,0.12970173,-0.07636778,0.108169794,0.9650451,0.23872006,0.10466077,0.22773987,-0.9680809,,-0.6113469797893606,0.009722920688648658,0.07871591396000001,0.07108489084125376,0.001503001497419845,0.5420197037342187,-0.034465597954332905,,-1.4560208879076664,-0.13676959920251608,0.14581577323,0.04759961717098703,0.003962458493197773,0.6064189972019602,0.019601287936113487
0.0711671628523618,,0.09842671,-0.016521104,0.36033225,-0.6121071,-0.43036157,-0.6634107,-0.75074726,0.052732304,0.65848154,-0.24840197,0.90111494,-0.35537052,,0.06454401,-0.024979629,0.64599675,0.12012036,-0.99001175,-0.07380991,-0.97767377,-0.1308795,0.16439155,-0.17240983,0.052415244,-0.9836297,,0.075768925,-0.019816667,0.20446195,-0.9886078,0.12970173,-0.07636778,0.108169794,0.9650451,0.23872006,0.10466077,0.22773987,-0.9680809,,-0.6113547025222349,0.009722920688648658,0.07871591396000001,0.07108489084125376,0.001503001497419845,0.5420197037342187,-0.034465597954332905,,-1.4560208879076664,-0.13676959920251608,0.14581577323,0.04759961717098703,0.003962458493197773,0.6064189972019602,0.019601287936113487
0.09307272592559457,,0.09842671,-0.016521104,0.36033225,-0.6121071,-0.43036157,-0.6634107,-0.75074726,0.052732304,0.65848154,-0.24840197,0.90111494,-0.35537052,,0.06454401,-0.024979629,0.64599675,0.12012036,-0.99001175,-0.07380991,-0.97767377,-0.1308795,0.16439155,-0.17240983,0.052415244,-0.9836297,,0.075768925,-0.019816667,0.20446195,-0.9886078,0.12970173,-0.07636778,0.108169794,0.9650451,0.23872006,0.10466077,0.22773987,-0.9680809,,-0.6113547025222349,0.009722920688648658,0.07871591396000001,0.07108489084125376,0.001503001497419845,0.5420197037342187,-0.034465597954332905,,-1.4560208879076664,-0.13676959920251608,0.14581577323,0.04759961717098703,0.003962458493197773,0.6064189972019602,0.019601287936113487
0.11790913692675531,,0.098426595,-0.016520485,0.3603327,-0.6121096,-0.43035826,-0.6634106,-0.7507433,0.052724153,0.65848655,-0.24840742,0.90111697,-0.35536158,,0.06454401,-0.024979629,0.64599675,0.12012036,-0.99001175,-0.07380991,-0.97767377,-0.1308795,0.16439155,-0.17240983,0.052415244,-0.9836297,,0.075768925,-0.019816667,0.20446195,-0.9886078,0.12970173,-0.07636778,0.108169794,0.9650451,0.23872006,0.10466077,0.22773987,-0.9680809,,-0.6113469797893606,0.009730643421522881,0.07871591396000001,0.07108489084125376,0.001503001497419845,0.5420197037342187,-0.034465597954332905,,-1.4560208879076664,-0.13676959920251608,0.14581577323,0.04759961717098703,0.003962458493197773,0.6064189972019602,0.019601287936113487
0.14196166000328958,,0.09842701,-0.016520672,0.3603324,-0.6121098,-0.4303636,-0.66340697,-0.7507431,0.052728966,0.6584865,-0.2484079,0.9011141,-0.35536838,,0.06454401,-0.024979629,0.64599675,0.12012036,-0.99001175,-0.07380991,-0.97767377,-0.1308795,0.16439155,-0.17240983,0.052415244,-0.9836297,,0.075768925,-0.019816667,0.20446195,-0.9886078,0.12970173,-0.07636778,0.108169794,0.9650451,0.23872006,0.10466077,0.22773987,-0.9680809,,-0.6113547025222349,0.009730643421522881,0.07871591396000001,0.07108489084125376,0.001503001497419845,0.5420197037342187,-0.034465597954332905,,-1.4560208879076664,-0.13676959920251608,0.14581577323,0.04759961717098703,0.003962458493197773,0.6064189972019602,0.019601287936113487
0.16631333879195154,,0.09842671,-0.016521104,0.36033225,-0.6121071,-0.43036157,-0.6634107,-0.75074726,0.052732304,0.65848154,-0.24840197,0.90111494,-0.35537052,,0.06454401,-0.024979629,0.64599675,0.12012036,-0.99001175,-0.07380991,-0.97767377,-0.1308795,0.16439155,-0.17240983,0.052415244,-0.9836297,,0.075768925,-0.019816667,0.20446195,-0.9886078,0.12970173,-0.07636778,0.108169794,0.9650451,0.23872006,0.10466077,0.22773987,-0.9680809,,-0.6113547025222349,0.009722920688648658,0.07871591396000001,0.07108489084125376,0.001503001497419845,0.5420197037342187,-0.034465597954332905,,-1.4560208879076664,-0.13676959920251608,0.14581577323,0.04759961717098703,0.003962458493197773,0.6064189972019602,0.019601287936113487
0.19243970280513167,,0.09842628,-0.016520925,0.36033255,-0.6121069,-0.43035623,-0.66341436,-0.7507475,0.05272749,0.6584816,-0.2484015,0.9011178,-0.35536364,,0.06454401,-0.024979629,0.64599675,0.12012036,-0.99001175,-0.07380991,-0.97767377,-0.1308795,0.16439155,-0.17240983,0.052415244,-0.9836297,,0.075768925,-0.019816667,0.20446195,-0.9886078,0.12970173,-0.07636778,0.108169794,0.9650451,0.23872006,0.10466077,0.22773987,-0.9680809,,-0.6113469797893606,0.009722920688648658,0.07871591396000001,0.07108489084125376,0.001503001497419845,0.5420197037342187,-0.034465597954332905,,-1.4560208879076664,-0.13676959920251608,0.14581577323,0.04759961717098703,0.003962458493197773,0.6064189972019602,0.019601287936113487
0.21783387497998774,,0.09842701,-0.016520672,0.3603324,-0.6121098,-0.4303636,-0.66340697,-0.7507431,0.052728966,0.6584865,-0.2484079,0.9011141,-0.35536838,,0.06454401,-0.024979629,0.64599675,0.12012036,-0.99001175,-0.07380991,-0.97767377,-0.1308795,0.16439155,-0.17240983,0.052415244,-0.9836297,,0.075768925,-0.019816667,0.20446195,-0.9886078,0.12970173,-0.07636778,0.108169794,0.9650451,0.23872006,0.10466077,0.22773987,-0.9680809,,-0.6113547025222349,0.009730643421522881,0.07871591396000001,0.07108489084125376,0.001503001497419845,0.5420197037342187,-0.034465597954332905,,-1.4560208879076664,-0.13676959920251608,0.14581577323,0.04759961717098703,0.003962458493197773,0.6064189972019602,0.019601287936113487
0.2416603770107031,,0.09842628,-0.016520925,0.36033255,-0.6121069,-0.43035623,-0.66341436,-0.7507475,0.05272749,0.6584816,-0.2484015,0.9011178,-0.35536364,,0.06454401,-0.024979629,0.64599675,0.12012036,-0.99001175,-0.07380991,-0.97767377,-0.1308795,0.16439155,-0.17240983,0.052415244,-0.9836297,,0.075768925,-0.019816667,0.20446195,-0.9886078,0.12970173,-0.07636778,0.108169794,0.9650451,0.23872006,0.10466077,0.22773987,-0.9680809,,-0.6113469797893606,0.009722920688648658,0.07871591396000001,0.07108489084125376,0.001503001497419845,0.5420197037342187,-0.034465597954332905,,-1.4560208879076664,-0.13676959920251608,0.14581577323,0.04759961717098703,0.003962458493197773,0.6064189972019602,0.019601287936113487
0.26553490990772843,,0.09842628,-0.016520925,0.36033255,-0.6121069,-0.43035623,-0.66341436,-0.7507475,0.05272749,0.6584816,-0.2484015,0.9011178,-0.35536364,,0.064544916,-0.024979554,0.64599735,0.12011967,-0.9900124,-0.073802456,-0.9776737,-0.13087761,0.16439342,-0.17241067,0.052407835,-0.98362994,,0.075768925,-0.019816667,0.20446195,-0.9886078,0.12970173,-0.07636778,0.108169794,0.9650451,0.23872006,0.10466077,0.22773987,-0.9680809,,-0.6113469797893606,0.009722920688648658,0.07871591396000001,0.07108489084125376,0.001503001497419845,0.5420197037342187,-0.034465597954332905,,-1.4560286106405407,-0.13676959920251608,0.14581577323,0.04759961717098703,0.003962458493197773,0.6064189972019602,0.019601287936113487
0.28681336785666645,,0.09842671,-0.016521104,0.36033225,-0.6121071,-0.43036157,-0.6634107,-0.75074726,0.052732304,0.65848154,-0.24840197,0.90111494,-0.35537052,,0.06454582,-0.024979495,0.6459979,0.120118976,-0.990013,-0.07379499,-0.97767365,-0.13087574,0.16439529,-0.1724115,0.052400425,-0.98363024,,0.075768925,-0.019816667,0.20446195,-0.9886078,0.12970173,-0.07636778,0.108169794,0.9650451,0.23872006,0.10466077,0.22773987,-0.9680809,,-0.6113547025222349,0.009722920688648658,0.07871591396000001,0.07108489084125376,0.001503001497419845,0.5420197037342187,-0.034465597954332905,,-1.4560363333734148,-0.13676959920251608,0.14581577323,0.04759961717098703,0.003962458493197773,0.6064189972019602,0.019601287936113487
0.3075353598687798,,0.09842701,-0.016520672,0.3603324,-0.6121098,-0.4303636,-0.66340697,-0.7507431,0.052728966,0.6584865,-0.2484079,0.9011141,-0.35536838,,0.06454582,-0.024979495,0.6459979,0.120118976,-0.990013,-0.07379499,-0.97767365,-0.13087574,0.16439529,-0.1724115,0.052400425,-0.98363024,,0.075768925,-0.019816667,0.20446195,-0.9886078,0.12970173,-0.07636778,0.108169794,0.9650451,0.23872006,0.10466077,0.22773987,-0.9680809,,-0.6113547025222349,0.009730643421522881,0.07871591396000001,0.07108489084125376,0.001503001497419845,0.5420197037342187,-0.034465597954332905,,-1.4560363333734148,-0.13676959920251608,0.14581577323,0.04759961717098703,0.003962458493197773,0.6064189972019602,0.019601287936113487
0.3329088978935033,,0.09842628,-0.016520925,0.36033255,-0.6121069,-0.43035623,-0.66341436,-0.7507475,0.05272749,0.6584816,-0.2484015,0.9011178,-0.35536364,,0.06454582,-0.024979495,0.6459979,0.120118976,-0.990013,-0.07379499,-0.97767365,-0.13087574,0.16439529,-0.1724115,0.052400425,-0.98363024,,0.075768925,-0.019816667,0.20446195,-0.9886078,0.12970173,-0.07636778,0.108169794,0.9650451,0.23872006,0.10466077,0.22773987,-0.9680809,,-0.6113469797893606,0.009722920688648658,0.07871591396000001,0.07108489084125376,0.001503001497419845,0.5420197037342187,-0.034465597954332905,,-1.4560363333734148,-0.13676959920251608,0.14581577323,0.04759961717098703,0.003962458493197773,0.6064189972019602,0.019601287936113487
0.3556948588229716,,0.09842671,-0.016521104,0.36033225,-0.6121071,-0.43036157,-0.6634107,-0.75074726,0.052732304,0.65848154,-0.24840197,0.90111494,-0.35537052,,0.06454582,-0.024979495,0.6459979,0.120118976,-0.990013,-0.07379499,-0.97767365,-0.13087574,0.16439529,-0.1724115,0.052400425,-0.98363024,,0.075768925,-0.019816667,0.20446195,-0.9886078,0.12970173,-0.07636778,0.108169794,0.9650451,0.23872006,0.10466077,0.22773987,-0.9680809,,-0.6113547025222349,0.009722920688648658,0.07871591396000001,0.07108489084125376,0.001503001497419845,0.5420197037342187,-0.034465597954332905,,-1.4560363333734148,-0.13676959920251608,0.14581577323,0.04759961717098703,0.003962458493197773,0.6064189972019602,0.019601287936113487
0.37639922089874744,,0.09842701,-0.016520672,0.3603324,-0.6121098,-0.4303636,-0.66340697,-0.7507431,0.052728966,0.6584865,-0.2484079,0.9011141,-0.35536838,,0.06454401,-0.024979629,0.64599675,0.12012036,-0.99001175,-0.07380991,-0.97767377,-0.1308795,0.16439155,-0.17240983,0.052415244,-0.9836297,,0.075768925,-0.019816667,0.20446195,-0.9886078,0.12970173,-0.07636778,0.108169794,0.9650451,0.23872006,0.10466077,0.22773987,-0.9680809,,-0.6113547025222349,0.009730643421522881,0.07871591396000001,0.07108489084125376,0.001503001497419845,0.5420197037342187,-0.034465597954332905,,-1.4560208879076664,-0.13676959920251608,0.14581577323,0.04759961717098703,0.003962458493197773,0.6064189972019602,0.019601287936113487
0.4034046200104058,,0.09842628,-0.016520925,0.36033255,-0.6121069,-0.43035623,-0.66341436,-0.7507475,0.05272749,0.6584816,-0.2484015,0.9011178,-0.35536364,,0.064544916,-0.024979554,0.64599735,0.12011967,-0.9900124,-0.073802456,-0.9776737,-0.13087761,0.16439342,-0.17241067,0.052407835,-0.98362994,,0.075768925,-0.019816667,0.20446195,-0.9886078,0.12970173,-0.07636778,0.108169794,0.9650451,0.23872006,0.10466077,0.22773987,-0.9680809,,-0.6113469797893606,0.009722920688648658,0.07871591396000001,0.07108489084125376,0.001503001497419845,0.5420197037342187,-0.034465597954332905,,-1.4560286106405407,-0.13676959920251608,0.14581577323,0.04759961717098703,0.003962458493197773,0.6064189972019602,0.019601287936113487
0.42662621079944074,,0.09843104,-0.016527355,0.360339,-0.6121036,-0.4303499,-0.6634215,-0.75075555,0.052738056,0.6584717,-0.24838565,0.9011202,-0.3553686,,0.06456529,-0.024980012,0.6459951,0.120129034,-0.99000925,-0.07382859,-0.97767276,-0.13089116,0.16438869,-0.17240988,0.052432355,-0.98362875,,0.07580379,-0.019825805,0.20446144,-0.98861206,0.12966713,-0.07637131,0.10813534,0.96504927,0.23871885,0.104656085,0.22774194,-0.9680809,,-0.6113469797893606,0.009722920688648658,0.07871591396000001,0.07108489084125376,0.001503001497419845,0.5420197037342187,-0.034465597954332905,,-1.4560286106405407,-0.13676959920251608,0.14581577323,0.04759961717098703,0.003962458493197773,0.6064189972019602,0.019601287936113487
0.4542195778340101,,0.09843178,-0.016527098,0.36033884,-0.6121064,-0.43035725,-0.6634141,-0.7507511,0.05273953,0.6584766,-0.24839205,0.90111655,-0.35537332,,0.06456529,-0.024980012,0.6459951,0.120129034,-0.99000925,-0.07382859,-0.97767276,-0.13089116,0.16438869,-0.17240988,0.052432355,-0.98362875,,0.07580379,-0.019825805,0.20446144,-0.98861206,0.12966713,-0.07637131,0.10813534,0.96504927,0.23871885,0.104656085,0.22774194,-0.9680809,,-0.6113547025222349,0.009730643421522881,0.07871591396000001,0.07108489084125376,0.001503001497419845,0.5420197037342187,-0.034465597954332905,,-1.4560286106405407,-0.13676959920251608,0.14581577323,0.04759961717098703,0.003962458493197773,0.6064189972019602,0.019601287936113487
0.4758148759137839,,0.09843178,-0.016527098,0.36033884,-0.6121064,-0.43035725,-0.6634141,-0.7507511,0.05273953,0.6584766,-0.24839205,0.90111655,-0.35537332,,0.06456439,-0.02498008,0.64599454,0.12012972,-0.9900086,-0.07383606,-0.97767276,-0.13089302,0.16438681,-0.17240903,0.05243977,-0.9836285,,0.07580379,-0.019825805,0.20446144,-0.98861206,0.12966713,-0.07637131,0.10813534,0.96504927,0.23871885,0.104656085,0.22774194,-0.9680809,,-0.6113547025222349,0.009730643421522881,0.07871591396000001,0.07108489084125376,0.001503001497419845,0.5420197037342187,-0.034465597954332905,,-1.4560208879076664,-0.13676959920251608,0.14581577323,0.04759961717098703,0.003962458493197773,0.6064189972019602,0.019601287936113487
0.500253772828728,,0.09843147,-0.016527534,0.3603387,-0.6121037,-0.43035522,-0.663418,-0.75075525,0.05274287,0.6584716,-0.24838614,0.9011173,-0.3553754,,0.06456439,-0.02498008,0.64599454,0.12012972,-0.9900086,-0.07383606,-0.97767276,-0.13089302,0.16438681,-0.17240903,0.05243977,-0.9836285,,0.07580379,-0.019825805,0.20446144,-0.98861206,0.12966713,-0.07637131,0.10813534,0.96504927,0.23871885,0.104656085,0.22774194,-0.9680809,,-0.6113547025222349,0.009722920688648658,0.07871591396000001,0.07108489084125376,0.001503001497419845,0.5420197037342187,-0.034465597954332905,,-1.4560208879076664,-0.13676959920251608,0.14581577323,0.04759961717098703,0.003962458493197773,0.6064189972019602,0.019601287936113487
0.5256381358485669,,0.09843147,-0.016527534,0.3603387,-0.6121037,-0.43035522,-0.663418,-0.75075525,0.05274287,0.6584716,-0.24838614,0.9011173,-0.3553754,,0.06456439,-0.02498008,0.64599454,0.12012972,-0.9900086,-0.07383606,-0.97767276,-0.13089302,0.16438681,-0.17240903,0.05243977,-0.9836285,,0.07580379,-0.019825805,0.20446144,-0.98861206,0.12966713,-0.07637131,0.10813534,0.96504927,0.23871885,0.104656085,0.22774194,-0.9680809,,-0.6113547025222349,0.009722920688648658,0.07871591396000001,0.07108489084125376,0.001503001497419845,0.5420197037342187,-0.034465597954332905,,-1.4560208879076664,-0.13676959920251608,0.14581577323,0.04759961717098703,0.003962458493197773,0.6064189972019602,0.019601287936113487
0.5538578929845244,,0.09843104,-0.016527355,0.360339,-0.6121036,-0.4303499,-0.6634215,-0.75075555,0.052738056,0.6584717,-0.24838565,0.9011202,-0.3553686,,0.06456529,-0.024980012,0.6459951,0.120129034,-0.99000925,-0.07382859,-0.97767276,-0.13089116,0.16438869,-0.17240988,0.052432355,-0.98362875,,0.07580379,-0.019825805,0.20446144,-0.98861206,0.12966713,-0.07637131,0.10813534,0.96504927,0.23871885,0.104656085,0.22774194,-0.9680809,,-0.6113469797893606,0.009722920688648658,0.07871591396000001,0.07108489084125376,0.001503001497419845,0.5420197037342187,-0.034465597954332905,,-1.4560286106405407,-0.13676959920251608,0.14581577323,0.04759961717098703,0.003962458493197773,0.6064189972019602,0.019601287936113487
0.5747274728491902,,0.09843104,-0.016527355,0.360339,-0.6121036,-0.4303499,-0.6634215,-0.75075555,0.052738056,0.6584717,-0.24838565,0.9011202,-0.3553686,,0.06456529,-0.024980012,0.6459951,0.120129034,-0.99000925,-0.07382859,-0.97767276,-0.13089116,0.16438869,-0.17240988,0.052432355,-0.98362875,,0.07580379,-0.019825805,0.20446144,-0.98861206,0.12966713,-0.07637131,0.10813534,0.96504927,0.23871885,0.104656085,0.22774194,-0.9680809,,-0.6113469797893606,0.009722920688648658,0.07871591396000001,0.07108489084125376,0.001503001497419845,0.5420197037342187,-0.034465597954332905,,-1.4560286106405407,-0.13676959920251608,0.14581577323,0.04759961717098703,0.003962458493197773,0.6064189972019602,0.019601287936113487
0.5998727108817548,,0.09843147,-0.016527534,0.3603387,-0.6121037,-0.43035522,-0.663418,-0.75075525,0.05274287,0.6584716,-0.24838614,0.9011173,-0.3553754,,0.0645662,-0.024979953,0.6459957,0.12012834,-0.9900099,-0.07382114,-0.97767264,-0.13088927,0.16439053,-0.17241073,0.05242494,-0.98362905,,0.07580379,-0.019825805,0.20446144,-0.98861206,0.12966713,-0.07637131,0.10813534,0.96504927,0.23871885,0.104656085,0.22774194,-0.9680809,,-0.6113547025222349,0.009722920688648658,0.07871591396000001,0.07108489084125376,0.001503001497419845,0.5420197037342187,-0.034465597954332905,,-1.4560363333734148,-0.13676959920251608,0.14581577323,0.04759961717098703,0.003962458493197773,0.6064189972019602,0.019601287936113487
0.6267093559727073,,0.09843147,-0.016527534,0.3603387,-0.6121037,-0.43035522,-0.663418,-0.75075525,0.05274287,0.6584716,-0.24838614,0.9011173,-0.3553754,,0.0645662,-0.024979953,0.6459957,0.12012834,-0.9900099,-0.07382114,-0.97767264,-0.13088927,0.16439053,-0.17241073,0.05242494,-0.98362905,,0.07580379,-0.019825805,0.20446144,-0.98861206,0.12966713,-0.07637131,0.10813534,0.96504927,0.23871885,0.104656085,0.22774194,-0.9680809,,-0.6113547025222349,0.009722920688648658,0.07871591396000001,0.07108489084125376,0.001503001497419845,0.5420197037342187,-0.034465597954332905,,-1.4560363333734148,-0.13676959920251608,0.14581577323,0.04759961717098703,0.003962458493197773,0.6064189972019602,0.019601287936113487
0.6493252429645509,,0.09843147,-0.016527534,0.3603387,-0.6121037,-0.43035522,-0.663418,-0.75075525,0.05274287,0.6584716,-0.24838614,0.9011173,-0.3553754,,0.06456529,-0.024980012,0.6459951,0.120129034,-0.99000925,-0.07382859,-0.97767276,-0.13089116,0.16438869,-0.17240988,0.052432355,-0.98362875,,0.07580379,-0.019825805,0.20446144,-0.98861206,0.12966713,-0.07637131,0.10813534,0.96504927,0.23871885,0.104656085,0.22774194,-0.9680809,,-0.6113547025222349,0.009722920688648658,0.07871591396000001,0.07108489084125376,0.001503001497419845,0.5420197037342187,-0.034465597954332905,,-1.4560286106405407,-0.13676959920251608,0.14581577323,0.04759961717098703,0.003962458493197773,0.6064189972019602,0.019601287936113487
0.6720471908338368,,0.09843147,-0.016527534,0.3603387,-0.6121037,-0.43035522,-0.663418,-0.75075525,0.05274287,0.6584716,-0.24838614,0.9011173,-0.3553754,,0.06456439,-0.02498008,0.64599454,0.12012972,-0.9900086,-0.07383606,-0.97767276,-0.13089302,0.16438681,-0.17240903,0.05243977,-0.9836285,,0.07580379,-0.019825805,0.20446144,-0.98861206,0.12966713,-0.07637131,0.10813534,0.96504927,0.23871885,0.104656085,0.22774194,-0.9680809,,-0.6113547025222349,0.009722920688648658,0.07871591396000001,0.07108489084125376,0.001503001497419845,0.5420197037342187,-0.034465597954332905,,-1.4560208879076664,-0.13676959920251608,0.14581577323,0.04759961717098703,0.003962458493197773,0.6064189972019602,0.019601287936113487
0.6992167639546096,,0.09843104,-0.016527355,0.360339,-0.6121036,-0.4303499,-0.6634215,-0.75075555,0.052738056,0.6584717,-0.24838565,0.9011202,-0.3553686,,0.06456439,-0.02498008,0.64599454,0.12012972,-0.9900086,-0.07383606,-0.97767276,-0.13089302,0.16438681,-0.17240903,0.05243977,-0.9836285,,0.07580379,-0.019825805,0.20446144,-0.98861206,0.12966713,-0.07637131,0.10813534,0.96504927,0.23871885,0.104656085,0.22774194,-0.9680809,,-0.6113469797893606,0.009722920688648658,0.07871591396000001,0.07108489084125376,0.001503001497419845,0.5420197037342187,-0.034465597954332905,,-1.4560208879076664,-0.13676959920251608,0.14581577323,0.04759961717098703,0.003962458493197773,0.6064189972019602,0.019601287936113487
0.7212026198394597,,0.09843104,-0.016527355,0.360339,-0.6121036,-0.4303499,-0.6634215,-0.75075555,0.052738056,0.6584717,-0.24838565,0.9011202,-0.3553686,,0.06456439,-0.02498008,0.64599454,0.12012972,-0.9900086,-0.07383606,-0.97767276,-0.13089302,0.16438681,-0.17240903,0.05243977,-0.9836285,,0.07580379,-0.019825805,0.20446144,-0.98861206,0.12966713,-0.07637131,0.10813534,0.96504927,0.23871885,0.104656085,0.22774194,-0.9680809,,-0.6113469797893606,0.009722920688648658,0.07871591396000001,0.07108489084125376,0.001503001497419845,0.5420197037342187,-0.034465597954332905,,-1.4560208879076664,-0.13676959920251608,0.14581577323,0.04759961717098703,0.003962458493197773,0.6064189972019602,0.019601287936113487
0.741614782018587,,0.09843104,-0.016527355,0.360339,-0.6121036,-0.4303499,-0.6634215,-0.75075555,0.052738056,0.6584717,-0.24838565,0.9011202,-0.3553686,,0.06456439,-0.02498008,0.64599454,0.12012972,-0.9900086,-0.07383606,-0.97767276,-0.13089302,0.16438681,-0.17240903,0.05243977,-0.9836285,,0.07580379,-0.019825805,0.20446144,-0.98861206,0.12966713,-0.07637131,0.10813534,0.96504927,0.23871885,0.104656085,0.22774194,-0.9680809,,-0.6113469797893606,0.009722920688648658,0.07871591396000001,0.07108489084125376,0.001503001497419845,0.5420197037342187,-0.034465597954332905,,-1.4560208879076664,-0.13676959920251608,0.14581577323,0.04759961717098703,0.003962458493197773,0.6064189972019602,0.019601287936113487
0.7673347729723901,,0.09843147,-0.016527534,0.3603387,-0.6121037,-0.43035522,-0.663418,-0.75075525,0.05274287,0.6584716,-0.24838614,0.9011173,-0.3553754,,0.06456529,-0.024980012,0.6459951,0.120129034,-0.99000925,-0.07382859,-0.97767276,-0.13089116,0.16438869,-0.17240988,0.052432355,-0.98362875,,0.07580379,-0.019825805,0.20446144,-0.98861206,0.12966713,-0.07637131,0.10813534,0.96504927,0.23871885,0.104656085,0.22774194,-0.9680809,,-0.6113547025222349,0.009722920688648658,0.07871591396000001,0.07108489084125376,0.001503001497419845,0.5420197037342187,-0.034465597954332905,,-1.4560286106405407,-0.13676959920251608,0.14581577323,0.04759961717098703,0.003962458493197773,0.6064189972019602,0.019601287936113487
0.7910300919320434,,0.09843147,-0.016527534,0.3603387,-0.6121037,-0.43035522,-0.663418,-0.75075525,0.05274287,0.6584716,-0.24838614,0.9011173,-0.3553754,,0.0645662,-0.024979953,0.6459957,0.12012834,-0.9900099,-0.07382114,-0.97767264,-0.13088927,0.16439053,-0.17241073,0.05242494,-0.98362905,,0.07580379,-0.019825805,0.20446144,-0.98861206,0.12966713,-0.07637131,0.10813534,0.96504927,0.23871885,0.104656085,0.22774194,-0.9680809,,-0.6113547025222349,0.009722920688648658,0.07871591396000001,0.07108489084125376,0.001503001497419845,0.5420197037342187,-0.034465597954332905,,-1.4560363333734148,-0.13676959920251608,0.14581577323,0.04759961717098703,0.003962458493197773,0.6064189972019602,0.019601287936113487
0.8186890259385109,,0.09843094,-0.016526733,0.36033946,-0.61210614,-0.4303466,-0.66342133,-0.7507516,0.052729905,0.65847677,-0.24839112,0.9011223,-0.35535967,,0.06456439,-0.02498008,0.64599454,0.12012972,-0.9900086,-0.07383606,-0.97767276,-0.13089302,0.16438681,-0.17240903,0.05243977,-0.9836285,,0.07580379,-0.019825805,0.20446144,-0.98861206,0.12966713,-0.07637131,0.10813534,0.96504927,0.23871885,0.104656085,0.22774194,-0.9680809,,-0.6113392570564864,0.009730643421522881,0.07871591396000001,0.07108489084125376,0.001503001497419845,0.5420197037342187,-0.034465597954332905,,-1.4560208879076664,-0.13676959920251608,0.14581577323,0.04759961717098703,0.003962458493197773,0.6064189972019602,0.019601287936113487
0.8398304500151426,,0.09843104,-0.016527355,0.360339,-0.6121036,-0.4303499,-0.6634215,-0.75075555,0.052738056,0.6584717,-0.24838565,0.9011202,-0.3553686,,0.06456439,-0.02498008,0.64599454,0.12012972,-0.9900086,-0.07383606,-0.97767276,-0.13089302,0.16438681,-0.17240903,0.05243977,-0.9836285,,0.07580379,-0.019825805,0.20446144,-0.98861206,0.12966713,-0.07637131,0.10813534,0.96504927,0.23871885,0.104656085,0.22774194,-0.9680809,,-0.6113469797893606,0.009722920688648658,0.07871591396000001,0.07108489084125376,0.001503001497419845,0.5420197037342187,-0.034465597954332905,,-1.4560208879076664,-0.13676959920251608,0.14581577323,0.04759961717098703,0.003962458493197773,0.6064189972019602,0.019601287936113487
0.8616955478210002,,0.09843104,-0.016527355,0.360339,-0.6121036,-0.4303499,-0.6634215,-0.75075555,0.052738056,0.6584717,-0.24838565,0.9011202,-0.3553686,,0.06456529,-0.024980012,0.6459951,0.120129034,-0.99000925,-0.07382859,-0.97767276,-0.13089116,0.16438869,-0.17240988,0.052432355,-0.98362875,,0.07580379,-0.019825805,0.20446144,-0.98861206,0.12966713,-0.07637131,0.10813534,0.96504927,0.23871885,0.104656085,0.22774194,-0.9680809,,-0.6113469797893606,0.009722920688648658,0.07871591396000001,0.07108489084125376,0.001503001497419845,0.5420197037342187,-0.034465597954332905,,-1.4560286106405407,-0.13676959920251608,0.14581577323,0.04759961717098703,0.003962458493197773,0.6064189972019602,0.019601287936113487
0.8891700659878552,,0.09843147,-0.016527534,0.3603387,-0.6121037,-0.43035522,-0.663418,-0.75075525,0.05274287,0.6584716,-0.24838614,0.9011173,-0.3553754,,0.06456529,-0.024980012,0.6459951,0.120129034,-0.99000925,-0.07382859,-0.97767276,-0.13089116,0.16438869,-0.17240988,0.052432355,-0.98362875,,0.07580379,-0.019825805,0.20446144,-0.98861206,0.12966713,-0.07637131,0.10813534,0.96504927,0.23871885,0.104656085,0.22774194,-0.9680809,,-0.6113547025222349,0.009722920688648658,0.07871591396000001,0.07108489084125376,0.001503001497419845,0.5420197037342187,-0.034465597954332905,,-1.4560286106405407,-0.13676959920251608,0.14581577323,0.04759961717098703,0.003962458493197773,0.6064189972019602,0.019601287936113487
0.9092867369763553,,0.09843147,-0.016527534,0.3603387,-0.6121037,-0.43035522,-0.663418,-0.75075525,0.05274287,0.6584716,-0.24838614,0.9011173,-0.3553754,,0.06456529,-0.024980012,0.6459951,0.120129034,-0.99000925,-0.07382859,-0.97767276,-0.13089116,0.16438869,-0.17240988,0.052432355,-0.98362875,,0.07580379,-0.019825805,0.20446144,-0.98861206,0.12966713,-0.07637131,0.10813534,0.96504927,0.23871885,0.104656085,0.22774194,-0.9680809,,-0.6113547025222349,0.009722920688648658,0.07871591396000001,0.07108489084125376,0.001503001497419845,0.5420197037342187,-0.034465597954332905,,-1.4560286106405407,-0.13676959920251608,0.14581577323,0.04759961717098703,0.003962458493197773,0.6064189972019602,0.019601287936113487
0.9338129949755967,,0.09843147,-0.016527534,0.3603387,-0.6121037,-0.43035522,-0.663418,-0.75075525,0.05274287,0.6584716,-0.24838614,0.9011173,-0.3553754,,0.0645662,-0.024979953,0.6459957,0.12012834,-0.9900099,-0.07382114,-0.97767264,-0.13088927,0.16439053,-0.17241073,0.05242494,-0.98362905,,0.07580379,-0.019825805,0.20446144,-0.98861206,0.12966713,-0.07637131,0.10813534,0.96504927,0.23871885,0.104656085,0.22774194,-0.9680809,,-0.6113547025222349,0.009722920688648658,0.07871591396000001,0.07108489084125376,0.001503001497419845,0.5420197037342187,-0.034465597954332905,,-1.4560363333734148,-0.13676959920251608,0.14581577323,0.04759961717098703,0.003962458493197773,0.6064189972019602,0.019601287936113487
0.9591626049950719,,0.098431356,-0.016526915,0.36033913,-0.61210626,-0.4303519,-0.66341776,-0.7507513,0.052734718,0.65847665,-0.24839158,0.9011194,-0.35536647,,0.0645662,-0.024979953,0.6459957,0.12012834,-0.9900099,-0.07382114,-0.97767264,-0.13088927,0.16439053,-0.17241073,0.05242494,-0.98362905,,0.07580379,-0.019825805,0.20446144,-0.98861206,0.12966713,-0.07637131,0.10813534,0.96504927,0.23871885,0.104656085,0.22774194,-0.9680809,,-0.6113469797893606,0.009730643421522881,0.07871591396000001,0.07108489084125376,0.001503001497419845,0.5420197037342187,-0.034465597954332905,,-1.4560363333734148,-0.13676959920251608,0.14581577323,0.04759961717098703,0.003962458493197773,0.6064189972019602,0.019601287936113487
0.9822756838984787,,0.098431356,-0.016526915,0.36033913,-0.61210626,-0.4303519,-0.66341776,-0.7507513,0.052734718,0.65847665,-0.24839158,0.9011194,-0.35536647,,0.06456529,-0.024980012,0.6459951,0.120129034,-0.99000925,-0.07382859,-0.97767276,-0.13089116,0.16438869,-0.17240988,0.052432355,-0.98362875,,0.07580379,-0.019825805,0.20446144,-0.98861206,0.12966713,-0.07637131,0.10813534,0.96504927,0.23871885,0.104656085,0.22774194,-0.9680809,,-0.6113469797893606,0.009730643421522881,0.07871591396000001,0.07108489084125376,0.001503001497419845,0.5420197037342187,-0.034465597954332905,,-1.4560286106405407,-0.13676959920251608,0.14581577323,0.04759961717098703,0.003962458493197773,0.6064189972019602,0.019601287936113487
1.003022938966751,,0.09843147,-0.016527534,0.3603387,-0.6121037,-0.43035522,-0.663418,-0.75075525,0.05274287,0.6584716,-0.24838614,0.9011173,-0.3553754,,0.06456439,-0.02498008,0.64599454,0.12012972,-0.9900086,-0.07383606,-0.97767276,-0.13089302,0.16438681,-0.17240903,0.05243977,-0.9836285,,0.07580379,-0.019825805,0.20446144,-0.98861206,0.12966713,-0.07637131,0.10813534,0.96504927,0.23871885,0.104656085,0.22774194,-0.9680809,,-0.6113547025222349,0.009722920688648658,0.07871591396000001,0.07108489084125376,0.001503001497419845,0.5420197037342187,-0.034465597954332905,,-1.4560208879076664,-0.13676959920251608,0.14581577323,0.04759961717098703,0.003962458493197773,0.6064189972019602,0.019601287936113487
1.0244484159629792,,0.09843147,-0.016527534,0.3603387,-0.6121037,-0.43035522,-0.663418,-0.75075525,0.05274287,0.6584716,-0.24838614,0.9011173,-0.3553754,,0.06456529,-0.024980012,0.6459951,0.120129034,-0.99000925,-0.07382859,-0.97767276,-0.13089116,0.16438869,-0.17240988,0.052432355,-0.98362875,,0.07580379,-0.019825805,0.20446144,-0.98861206,0.12966713,-0.07637131,0.10813534,0.96504927,0.23871885,0.104656085,0.22774194,-0.9680809,,-0.6113547025222349,0.009722920688648658,0.07871591396000001,0.07108489084125376,0.001503001497419845,0.5420197037342187,-0.034465597954332905,,-1.4560286106405407,-0.13676959920251608,0.14581577323,0.04759961717098703,0.003962458493197773,0.6064189972019602,0.019601287936113487
1.050877264002338,,0.09843147,-0.016527534,0.3603387,-0.6121037,-0.43035522,-0.663418,-0.75075525,0.05274287,0.6584716,-0.24838614,0.9011173,-0.3553754,,0.0645662,-0.024979953,0.6459957,0.12012834,-0.9900099,-0.07382114,-0.97767264,-0.13088927,0.16439053,-0.17241073,0.05242494,-0.98362905,,0.07580379,-0.019825805,0.20446144,-0.98861206,0.12966713,-0.07637131,0.10813534,0.96504927,0.23871885,0.104656085,0.22774194,-0.9680809,,-0.6113547025222349,0.009722920688648658,0.07871591396000001,0.07108489084125376,0.001503001497419845,0.5420197037342187,-0.034465597954332905,,-1.4560363333734148,-0.13676959920251608,0.14581577323,0.04759961717098703,0.003962458493197773,0.6064189972019602,0.019601287936113487
1.071839771931991,,0.09843147,-0.016527534,0.3603387,-0.6121037,-0.43035522,-0.663418,-0.75075525,0.05274287,0.6584716,-0.24838614,0.9011173,-0.3553754,,0.06456529,-0.024980012,0.6459951,0.120129034,-0.99000925,-0.07382859,-0.97767276,-0.13089116,0.16438869,-0.17240988,0.052432355,-0.98362875,,0.07580379,-0.019825805,0.20446144,-0.98861206,0.12966713,-0.07637131,0.10813534,0.96504927,0.23871885,0.104656085,0.22774194,-0.9680809,,-0.6113547025222349,0.009722920688648658,0.07871591396000001,0.07108489084125376,0.001503001497419845,0.5420197037342187,-0.034465597954332905,,-1.4560286106405407,-0.13676959920251608,0.14581577323,0.04759961717098703,0.003962458493197773,0.6064189972019602,0.019601287936113487
1.0946045690216124,,0.09843104,-0.016527355,0.360339,-0.6121036,-0.4303499,-0.6634215,-0.75075555,0.052738056,0.6584717,-0.24838565,0.9011202,-0.3553686,,0.06456529,-0.024980012,0.6459951,0.120129034,-0.99000925,-0.07382859,-0.97767276,-0.13089116,0.16438869,-0.17240988,0.052432355,-0.98362875,,0.07580379,-0.019825805,0.20446144,-0.98861206,0.12966713,-0.07637131,0.10813534,0.96504927,0.23871885,0.104656085,0.22774194,-0.9680809,,-0.6113469797893606,0.009722920688648658,0.07871591396000001,0.07108489084125376,0.001503001497419845,0.5420197037342187,-0.034465597954332905,,-1.4560286106405407,-0.13676959920251608,0.14581577323,0.04759961717098703,0.003962458493197773,0.6064189972019602,0.019601287936113487
1.1203211329411715,,0.09843104,-0.016527355,0.360339,-0.6121036,-0.4303499,-0.6634215,-0.75075555,0.052738056,0.6584717,-0.24838565,0.9011202,-0.3553686,,0.0645662,-0.024979953,0.6459957,0.12012834,-0.9900099,-0.07382114,-0.97767264,-0.13088927,0.16439053,-0.17241073,0.05242494,-0.98362905,,0.07580379,-0.019825805,0.20446144,-0.98861206,0.12966713,-0.07637131,0.10813534,0.96504927,0.23871885,0.104656085,0.22774194,-0.9680809,,-0.6113469797893606,0.009722920688648658,0.07871591396000001,0.07108489084125376,0.001503001497419845,0.5420197037342187,-0.034465597954332905,,-1.4560363333734148,-0.13676959920251608,0.14581577323,0.04759961717098703,0.003962458493197773,0.6064189972019602,0.019601287936113487
1.1419261919800192,,0.09843178,-0.016527098,0.36033884,-0.6121064,-0.43035725,-0.6634141,-0.7507511,0.05273953,0.6584766,-0.24839205,0.90111655,-0.35537332,,0.0645662,-0.024979953,0.6459957,0.12012834,-0.9900099,-0.07382114,-0.97767264,-0.13088927,0.16439053,-0.17241073,0.05242494,-0.98362905,,0.07580379,-0.019825805,0.20446144,-0.98861206,0.12966713,-0.07637131,0.10813534,0.96504927,0.23871885,0.104656085,0.22774194,-0.9680809,,-0.6113547025222349,0.009730643421522881,0.07871591396000001,0.07108489084125376,0.001503001497419845,0.5420197037342187,-0.034465597954332905,,-1.4560363333734148,-0.13676959920251608,0.14581577323,0.04759961717098703,0.003962458493197773,0.6064189972019602,0.019601287936113487
1.1677083929535002,,0.09843147,-0.016527534,0.3603387,-0.6121037,-0.43035522,-0.663418,-0.75075525,0.05274287,0.6584716,-0.24838614,0.9011173,-0.3553754,,0.0645662,-0.024979953,0.6459957,0.12012834,-0.9900099,-0.07382114,-0.97767264,-0.13088927,0.16439053,-0.17241073,0.05242494,-0.98362905,,0.07580379,-0.019825805,0.20446144,-0.98861206,0.12966713,-0.07637131,0.10813534,0.96504927,0.23871885,0.104656085,0.22774194,-0.9680809,,-0.6113547025222349,0.009722920688648658,0.07871591396000001,0.07108489084125376,0.001503001497419845,0.5420197037342187,-0.034465597954332905,,-1.4560363333734148,-0.13676959920251608,0.14581577323,0.04759961717098703,0.003962458493197773,0.6064189972019602,0.019601287936113487
1.192554916953668,,0.09843147,-0.016527534,0.3603387,-0.6121037,-0.43035522,-0.663418,-0.75075525,0.05274287,0.6584716,-0.24838614,0.9011173,-0.3553754,,0.0645662,-0.024979953,0.6459957,0.12012834,-0.9900099,-0.07382114,-0.97767264,-0.13088927,0.16439053,-0.17241073,0.05242494,-0.98362905,,0.07580379,-0.019825805,0.20446144,-0.98861206,0.12966713,-0.07637131,0.10813534,0.96504927,0.23871885,0.104656085,0.22774194,-0.9680809,,-0.6113547025222349,0.009722920688648658,0.07871591396000001,0.07108489084125376,0.001503001497419845,0.5420197037342187,-0.034465597954332905,,-1.4560363333734148,-0.13676959920251608,0.14581577323,0.04759961717098703,0.003962458493197773,0.6064189972019602,0.019601287936113487
1.2173405059147626,,0.09843147,-0.016527534,0.3603387,-0.6121037,-0.43035522,-0.663418,-0.75075525,0.05274287,0.6584716,-0.24838614,0.9011173,-0.3553754,,0.06456529,-0.024980012,0.6459951,0.120129034,-0.99000925,-0.07382859,-0.97767276,-0.13089116,0.16438869,-0.17240988,0.052432355,-0.98362875,,0.07580379,-0.019825805,0.20446144,-0.98861206,0.12966713,-0.07637131,0.10813534,0.96504927,0.23871885,0.104656085,0.22774194,-0.9680809,,-0.6113547025222349,0.009722920688648658,0.07871591396000001,0.07108489084125376,0.001503001497419845,0.5420197037342187,-0.034465597954332905,,-1.4560286106405407,-0.13676959920251608,0.14581577323,0.04759961717098703,0.003962458493197773,0.6064189972019602,0.019601287936113487
1.238441637950018,,0.09843104,-0.016527355,0.360339,-0.6121036,-0.4303499,-0.6634215,-0.75075555,0.052738056,0.6584717,-0.24838565,0.9011202,-0.3553686,,0.0645662,-0.024979953,0.6459957,0.12012834,-0.9900099,-0.07382114,-0.97767264,-0.13088927,0.16439053,-0.17241073,0.05242494,-0.98362905,,0.07580379,-0.019825805,0.20446144,-0.98861206,0.12966713,-0.07637131,0.10813534,0.96504927,0.23871885,0.104656085,0.22774194,-0.9680809,,-0.6113469797893606,0.009722920688648658,0.07871591396000001,0.07108489084125376,0.001503001497419845,0.5420197037342187,-0.034465597954332905,,-1.4560363333734148,-0.13676959920251608,0.14581577323,0.04759961717098703,0.003962458493197773,0.6064189972019602,0.019601287936113487
1.2649974888190627,,0.09843104,-0.016527355,0.360339,-0.6121036,-0.4303499,-0.6634215,-0.75075555,0.052738056,0.6584717,-0.24838565,0.9011202,-0.3553686,,0.0645662,-0.024979953,0.6459957,0.12012834,-0.9900099,-0.07382114,-0.97767264,-0.13088927,0.16439053,-0.17241073,0.05242494,-0.98362905,,0.07580379,-0.019825805,0.20446144,-0.98861206,0.12966713,-0.07637131,0.10813534,0.96504927,0.23871885,0.104656085,0.22774194,-0.9680809,,-0.6113469797893606,0.009722920688648658,0.07871591396000001,0.07108489084125376,0.001503001497419845,0.5420197037342187,-0.034465597954332905,,-1.4560363333734148,-0.13676959920251608,0.14581577323,0.04759961717098703,0.003962458493197773,0.6064189972019602,0.019601287936113487
1.2861426938325167,,0.09843147,-0.016527534,0.3603387,-0.6121037,-0.43035522,-0.663418,-0.75075525,0.05274287,0.6584716,-0.24838614,0.9011173,-0.3553754,,0.0645662,-0.024979953,0.6459957,0.12012834,-0.9900099,-0.07382114,-0.97767264,-0.13088927,0.16439053,-0.17241073,0.05242494,-0.98362905,,0.07580379,-0.019825805,0.20446144,-0.98861206,0.12966713,-0.07637131,0.10813534,0.96504927,0.23871885,0.104656085,0.22774194,-0.9680809,,-0.6113547025222349,0.009722920688648658,0.07871591396000001,0.07108489084125376,0.001503001497419845,0.5420197037342187,-0.034465597954332905,,-1.4560363333734148,-0.13676959920251608,0.14581577323,0.04759961717098703,0.003962458493197773,0.6064189972019602,0.019601287936113487
1.3082712648902088,,0.09843178,-0.016527098,0.36033884,-0.6121064,-0.43035725,-0.6634141,-0.7507511,0.05273953,0.6584766,-0.24839205,0.90111655,-0.35537332,,0.06456529,-0.024980012,0.6459951,0.120129034,-0.99000925,-0.07382859,-0.97767276,-0.13089116,0.16438869,-0.17240988,0.052432355,-0.98362875,,0.07580379,-0.019825805,0.20446144,-0.98861206,0.12966713,-0.07637131,0.10813534,0.96504927,0.23871885,0.104656085,0.22774194,-0.9680809,,-0.6113547025222349,0.009730643421522881,0.07871591396000001,0.07108489084125376,0.001503001497419845,0.5420197037342187,-0.034465597954332905,,-1.4560286106405407,-0.13676959920251608,0.14581577323,0.04759961717098703,0.003962458493197773,0.6064189972019602,0.019601287936113487
1.3350478808861226,,0.09843178,-0.016527098,0.36033884,-0.6121064,-0.43035725,-0.6634141,-0.7507511,0.05273953,0.6584766,-0.24839205,0.90111655,-0.35537332,,0.06456439,-0.02498008,0.64599454,0.12012972,-0.9900086,-0.07383606,-0.97767276,-0.13089302,0.16438681,-0.17240903,0.05243977,-0.9836285,,0.07580379,-0.019825805,0.20446144,-0.98861206,0.12966713,-0.07637131,0.10813534,0.96504927,0.23871885,0.104656085,0.22774194,-0.9680809,,-0.6113547025222349,0.009730643421522881,0.07871591396000001,0.07108489084125376,0.001503001497419845,0.5420197037342187,-0.034465597954332905,,-1.4560208879076664,-0.13676959920251608,0.14581577323,0.04759961717098703,0.003962458493197773,0.6064189972019602,0.019601287936113487
1.3584212828427553,,0.09843104,-0.016527355,0.360339,-0.6121036,-0.4303499,-0.6634215,-0.75075555,0.052738056,0.6584717,-0.24838565,0.9011202,-0.3553686,,0.06456529,-0.024980012,0.6459951,0.120129034,-0.99000925,-0.07382859,-0.97767276,-0.13089116,0.16438869,-0.17240988,0.052432355,-0.98362875,,0.07580379,-0.019825805,0.20446144,-0.98861206,0.12966713,-0.07637131,0.10813534,0.96504927,0.23871885,0.104656085,0.22774194,-0.9680809,,-0.6113469797893606,0.009722920688648658,0.07871591396000001,0.07108489084125376,0.001503001497419845,0.5420197037342187,-0.034465597954332905,,-1.4560286106405407,-0.13676959920251608,0.14581577323,0.04759961717098703,0.003962458493197773,0.6064189972019602,0.019601287936113487
1.3839277049992234,,0.09843104,-0.016527355,0.360339,-0.6121036,-0.4303499,-0.6634215,-0.75075555,0.052738056,0.6584717,-0.24838565,0.9011202,-0.3553686,,0.06456529,-0.024980012,0.6459951,0.120129034,-0.99000925,-0.07382859,-0.97767276,-0.13089116,0.16438869,-0.17240988,0.052432355,-0.98362875,,0.07580379,-0.019825805,0.20446144,-0.98861206,0.12966713,-0.07637131,0.10813534,0.96504927,0.23871885,0.104656085,0.22774194,-0.9680809,,-0.6113469797893606,0.009722920688648658,0.07871591396000001,0.07108489084125376,0.001503001497419845,0.5420197037342187,-0.034465597954332905,,-1.4560286106405407,-0.13676959920251608,0.14581577323,0.04759961717098703,0.003962458493197773,0.6064189972019602,0.019601287936113487
1.4053727257996798,,0.09843178,-0.016527098,0.36033884,-0.6121064,-0.43035725,-0.6634141,-0.7507511,0.05273953,0.6584766,-0.24839205,0.90111655,-0.35537332,,0.06456439,-0.02498008,0.64599454,0.12012972,-0.9900086,-0.07383606,-0.97767276,-0.13089302,0.16438681,-0.17240903,0.05243977,-0.9836285,,0.07580379,-0.019825805,0.20446144,-0.98861206,0.12966713,-0.07637131,0.10813534,0.96504927,0.23871885,0.104656085,0.22774194,-0.9680809,,-0.6113547025222349,0.009730643421522881,0.07871591396000001,0.07108489084125376,0.001503001497419845,0.5420197037342187,-0.034465597954332905,,-1.4560208879076664,-0.13676959920251608,0.14581577323,0.04759961717098703,0.003962458493197773,0.6064189972019602,0.019601287936113487
1.4263207279145718,,0.09843178,-0.016527098,0.36033884,-0.6121064,-0.43035725,-0.6634141,-0.7507511,0.05273953,0.6584766,-0.24839205,0.90111655,-0.35537332,,0.06456439,-0.02498008,0.64599454,0.12012972,-0.9900086,-0.07383606,-0.97767276,-0.13089302,0.16438681,-0.17240903,0.05243977,-0.9836285,,0.07580379,-0.019825805,0.20446144,-0.98861206,0.12966713,-0.07637131,0.10813534,0.96504927,0.23871885,0.104656085,0.22774194,-0.9680809,,-0.6113547025222349,0.009730643421522881,0.07871591396000001,0.07108489084125376,0.001503001497419845,0.5420197037342187,-0.034465597954332905,,-1.4560208879076664,-0.13676959920251608,0.14581577323,0.04759961717098703,0.003962458493197773,0.6064189972019602,0.019601287936113487
1.4507377119734883,,0.09843147,-0.016527534,0.3603387,-0.6121037,-0.43035522,-0.663418,-0.75075525,0.05274287,0.6584716,-0.24838614,0.9011173,-0.3553754,,0.06456529,-0.024980012,0.6459951,0.120129034,-0.99000925,-0.07382859,-0.97767276,-0.13089116,0.16438869,-0.17240988,0.052432355,-0.98362875,,0.07580379,-0.019825805,0.20446144,-0.98861206,0.12966713,-0.07637131,0.10813534,0.96504927,0.23871885,0.104656085,0.22774194,-0.9680809,,-0.6113547025222349,0.009722920688648658,0.07871591396000001,0.07108489084125376,0.001503001497419845,0.5420197037342187,-0.034465597954332905,,-1.4560286106405407,-0.13676959920251608,0.14581577323,0.04759961717098703,0.003962458493197773,0.6064189972019602,0.019601287936113487
1.474135747877881,,0.09843147,-0.016527534,0.3603387,-0.6121037,-0.43035522,-0.663418,-0.75075525,0.05274287,0.6584716,-0.24838614,0.9011173,-0.3553754,,0.06456439,-0.02498008,0.64599454,0.12012972,-0.9900086,-0.07383606,-0.97767276,-0.13089302,0.16438681,-0.17240903,0.05243977,-0.9836285,,0.07580379,-0.019825805,0.20446144,-0.98861206,0.12966713,-0.07637131,0.10813534,0.96504927,0.23871885,0.104656085,0.22774194,-0.9680809,,-0.6113547025222349,0.009722920688648658,0.07871591396000001,0.07108489084125376,0.001503001497419845,0.5420197037342187,-0.034465597954332905,,-1.4560208879076664,-0.13676959920251608,0.14581577323,0.04759961717098703,0.003962458493197773,0.6064189972019602,0.019601287936113487
1.498671473003924,,0.09843104,-0.016527355,0.360339,-0.6121036,-0.4303499,-0.6634215,-0.75075555,0.052738056,0.6584717,-0.24838565,0.9011202,-0.3553686,,0.06456439,-0.02498008,0.64599454,0.12012972,-0.9900086,-0.07383606,-0.97767276,-0.13089302,0.16438681,-0.17240903,0.05243977,-0.9836285,,0.07580379,-0.019825805,0.20446144,-0.98861206,0.12966713,-0.07637131,0.10813534,0.96504927,0.23871885,0.104656085,0.22774194,-0.9680809,,-0.6113469797893606,0.009722920688648658,0.07871591396000001,0.07108489084125376,0.001503001497419845,0.5420197037342187,-0.034465597954332905,,-1.4560208879076664,-0.13676959920251608,0.14581577323,0.04759961717098703,0.003962458493197773,0.6064189972019602,0.019601287936113487
1.525512645021081,,0.09843178,-0.016527098,0.36033884,-0.6121064,-0.43035725,-0.6634141,-0.7507511,0.05273953,0.6584766,-0.24839205,0.90111655,-0.35537332,,0.06456439,-0.02498008,0.64599454,0.12012972,-0.9900086,-0.07383606,-0.97767276,-0.13089302,0.16438681,-0.17240903,0.05243977,-0.9836285,,0.07580379,-0.019825805,0.20446144,-0.98861206,0.12966713,-0.07637131,0.10813534,0.96504927,0.23871885,0.104656085,0.22774194,-0.9680809,,-0.6113547025222349,0.009730643421522881,0.07871591396000001,0.07108489084125376,0.001503001497419845,0.5420197037342187,-0.034465597954332905,,-1.4560208879076664,-0.13676959920251608,0.14581577323,0.04759961717098703,0.003962458493197773,0.6064189972019602,0.019601287936113487
1.5505947140045464,,0.09840074,-0.016502984,0.36033022,-0.6121258,-0.43036747,-0.6633896,-0.75073373,0.05275646,0.658495,-0.24839677,0.90111077,-0.3553849,,0.0645662,-0.024979953,0.6459957,0.12012834,-0.9900099,-0.07382114,-0.97767264,-0.13088927,0.16439053,-0.17241073,0.05242494,-0.98362905,,0.07580379,-0.019825805,0.20446144,-0.98861206,0.12966713,-0.07637131,0.10813534,0.96504927,0.23871885,0.104656085,0.22774194,-0.9680809,,-0.6113469797893606,0.009722920688648658,0.07871591396000001,0.07108489084125376,0.001503001497419845,0.5420197037342187,-0.034465597954332905,,-1.4560363333734148,-0.13676959920251608,0.14581577323,0.04759961717098703,0.003962458493197773,0.6064189972019602,0.019601287936113487
1.575762813910842,,0.09841077,-0.016511591,0.3603407,-0.61212075,-0.43036324,-0.66339695,-0.75073767,0.052748725,0.6584911,-0.24839702,0.90111315,-0.35537845,,0.06451708,-0.024993876,0.6460223,0.12009166,-0.9900163,-0.07379411,-0.97768205,-0.1308472,0.16436788,-0.17238267,0.052407976,-0.9836348,,0.075814396,-0.019834692,0.20447159,-0.9886128,0.12966092,-0.076371945,0.108129136,0.96505,0.23871863,0.104655236,0.2277423,-0.9680809,,-0.6113392570564864,0.009722920688648658,0.07871591396000001,0.07108489084125376,0.001503001497419845,0.5420197037342187,-0.034465597954332905,,-1.4560363333734148,-0.13676959920251608,0.14581577323,0.04759961717098703,0.003962458493197773,0.6064189972019602,0.019601287936113487
1.6016392258461565,,0.09841119,-0.016511774,0.36034042,-0.61212087,-0.4303686,-0.6633934,-0.75073737,0.052753538,0.65849096,-0.2483975,0.90111035,-0.3553853,,0.06451708,-0.024993876,0.6460223,0.12009166,-0.9900163,-0.07379411,-0.97768205,-0.1308472,0.16436788,-0.17238267,0.052407976,-0.9836348,,0.075814396,-0.019834692,0.20447159,-0.9886128,0.12966092,-0.076371945,0.108129136,0.96505,0.23871863,0.104655236,0.2277423,-0.9680809,,-0.6113469797893606,0.009722920688648658,0.07871591396000001,0.07108489084125376,0.001503001497419845,0.5420197037342187,-0.034465597954332905,,-1.4560363333734148,-0.13676959920251608,0.14581577323,0.04759961717098703,0.003962458493197773,0.6064189972019602,0.019601287936113487
1.6254861918278039,,0.09841192,-0.016511524,0.36034024,-0.61212367,-0.430376,-0.663386,-0.750733,0.052754983,0.65849584,-0.2484039,0.9011067,-0.35539004,,0.06451619,-0.024993943,0.6460217,0.120092355,-0.9900156,-0.07380158,-0.97768205,-0.13084906,0.164366,-0.17238185,0.05241539,-0.9836346,,0.075814396,-0.019834692,0.20447159,-0.9886128,0.12966092,-0.076371945,0.108129136,0.96505,0.23871863,0.104655236,0.2277423,-0.9680809,,-0.6113547025222349,0.009730643421522881,0.07871591396000001,0.07108489084125376,0.001503001497419845,0.5420197037342187,-0.034465597954332905,,-1.4560286106405407,-0.13676959920251608,0.14581577323,0.04759961717098703,0.003962458493197773,0.6064189972019602,0.019601287936113487
1.6509898558724672,,0.09841192,-0.016511524,0.36034024,-0.61212367,-0.430376,-0.663386,-0.750733,0.052754983,0.65849584,-0.2484039,0.9011067,-0.35539004,,0.06451619,-0.024993943,0.6460217,0.120092355,-0.9900156,-0.07380158,-0.97768205,-0.13084906,0.164366,-0.17238185,0.05241539,-0.9836346,,0.075814396,-0.019834692,0.20447159,-0.9886128,0.12966092,-0.076371945,0.108129136,0.96505,0.23871863,0.104655236,0.2277423,-0.9680809,,-0.6113547025222349,0.009730643421522881,0.07871591396000001,0.07108489084125376,0.001503001497419845,0.5420197037342187,-0.034465597954332905,,-1.4560286106405407,-0.13676959920251608,0.14581577323,0.04759961717098703,0.003962458493197773,0.6064189972019602,0.019601287936113487
1.6714520398527384,,0.098411605,-0.016511956,0.3603401,-0.61212105,-0.4303739,-0.66338986,-0.75073713,0.05275835,0.6584909,-0.24839798,0.90110755,-0.3553921,,0.06451619,-0.024993943,0.6460217,0.120092355,-0.9900156,-0.07380158,-0.97768205,-0.13084906,0.164366,-0.17238185,0.05241539,-0.9836346,,0.075814396,-0.019834692,0.20447159,-0.9886128,0.12966092,-0.076371945,0.108129136,0.96505,0.23871863,0.104655236,0.2277423,-0.9680809,,-0.6113547025222349,0.009722920688648658,0.07871591396000001,0.07108489084125376,0.001503001497419845,0.5420197037342187,-0.034465597954332905,,-1.4560286106405407,-0.13676959920251608,0.14581577323,0.04759961717098703,0.003962458493197773,0.6064189972019602,0.019601287936113487
1.6933560739271343,,0.098411605,-0.016511956,0.3603401,-0.61212105,-0.4303739,-0.66338986,-0.75073713,0.05275835,0.6584909,-0.24839798,0.90110755,-0.3553921,,0.06451708,-0.024993876,0.6460223,0.12009166,-0.9900163,-0.07379411,-0.97768205,-0.1308472,0.16436788,-0.17238267,0.052407976,-0.9836348,,0.075814396,-0.019834692,0.20447159,-0.9886128,0.12966092,-0.076371945,0.108129136,0.96505,0.23871863,0.104655236,0.2277423,-0.9680809,,-0.6113547025222349,0.009722920688648658,0.07871591396000001,0.07108489084125376,0.001503001497419845,0.5420197037342187,-0.034465597954332905,,-1.4560363333734148,-0.13676959920251608,0.14581577323,0.04759961717098703,0.003962458493197773,0.6064189972019602,0.019601287936113487
1.7197023679036647,,0.09841119,-0.016511774,0.36034042,-0.61212087,-0.4303686,-0.6633934,-0.75073737,0.052753538,0.65849096,-0.2483975,0.90111035,-0.3553853,,0.06451708,-0.024993876,0.6460223,0.12009166,-0.9900163,-0.07379411,-0.97768205,-0.1308472,0.16436788,-0.17238267,0.052407976,-0.9836348,,0.075814396,-0.019834692,0.20447159,-0.9886128,0.12966092,-0.076371945,0.108129136,0.96505,0.23871863,0.104655236,0.2277423,-0.9680809,,-0.6113469797893606,0.009722920688648658,0.07871591396000001,0.07108489084125376,0.001503001497419845,0.5420197037342187,-0.034465597954332905,,-1.4560363333734148,-0.13676959920251608,0.14581577323,0.04759961717098703,0.003962458493197773,0.6064189972019602,0.019601287936113487
1.7402181269135326,,0.09841119,-0.016511774,0.36034042,-0.61212087,-0.4303686,-0.6633934,-0.75073737,0.052753538,0.65849096,-0.2483975,0.90111035,-0.3553853,,0.06451708,-0.024993876,0.6460223,0.12009166,-0.9900163,-0.07379411,-0.97768205,-0.1308472,0.16436788,-0.17238267,0.052407976,-0.9836348,,0.075814396,-0.019834692,0.20447159,-0.9886128,0.12966092,-0.076371945,0.108129136,0.96505,0.23871863,0.104655236,0.2277423,-0.9680809,,-0.6113469797893606,0.009722920688648658,0.07871591396000001,0.07108489084125376,0.001503001497419845,0.5420197037342187,-0.034465597954332905,,-1.4560363333734148,-0.13676959920251608,0.14581577323,0.04759961717098703,0.003962458493197773,0.6064189972019602,0.019601287936113487
1.7633159100078046,,0.09841192,-0.016511524,0.36034024,-0.61212367,-0.430376,-0.663386,-0.750733,0.052754983,0.65849584,-0.2484039,0.9011067,-0.35539004,,0.06451708,-0.024993876,0.6460223,0.12009166,-0.9900163,-0.07379411,-0.97768205,-0.1308472,0.16436788,-0.17238267,0.052407976,-0.9836348,,0.075814396,-0.019834692,0.20447159,-0.9886128,0.12966092,-0.076371945,0.108129136,0.96505,0.23871863,0.104655236,0.2277423,-0.9680809,,-0.6113547025222349,0.009730643421522881,0.07871591396000001,0.07108489084125376,0.001503001497419845,0.5420197037342187,-0.034465597954332905,,-1.4560363333734148,-0.13676959920251608,0.14581577323,0.04759961717098703,0.003962458493197773,0.6064189972019602,0.019601287936113487
1.7850804508198053,,0.09841192,-0.016511524,0.36034024,-0.61212367,-0.430376,-0.663386,-0.750733,0.052754983,0.65849584,-0.2484039,0.9011067,-0.35539004,,0.06451708,-0.024993876,0.6460223,0.12009166,-0.9900163,-0.07379411,-0.97768205,-0.1308472,0.16436788,-0.17238267,0.052407976,-0.9836348,,0.075814396,-0.019834692,0.20447159,-0.9886128,0.12966092,-0.076371945,0.108129136,0.96505,0.23871863,0.104655236,0.2277423,-0.9680809,,-0.6113547025222349,0.009730643421522881,0.07871591396000001,0.07108489084125376,0.001503001497419845,0.5420197037342187,-0.034465597954332905,,-1.4560363333734148,-0.13676959920251608,0.14581577323,0.04759961717098703,0.003962458493197773,0.6064189972019602,0.019601287936113487
1.8100568118970841,,0.098411605,-0.016511956,0.3603401,-0.61212105,-0.4303739,-0.66338986,-0.75073713,0.05275835,0.6584909,-0.24839798,0.90110755,-0.3553921,,0.06451708,-0.024993876,0.6460223,0.12009166,-0.9900163,-0.07379411,-0.97768205,-0.1308472,0.16436788,-0.17238267,0.052407976,-0.9836348,,0.075814396,-0.019834692,0.20447159,-0.9886128,0.12966092,-0.076371945,0.108129136,0.96505,0.23871863,0.104655236,0.2277423,-0.9680809,,-0.6113547025222349,0.009722920688648658,0.07871591396000001,0.07108489084125376,0.001503001497419845,0.5420197037342187,-0.034465597954332905,,-1.4560363333734148,-0.13676959920251608,0.14581577323,0.04759961717098703,0.003962458493197773,0.6064189972019602,0.019601287936113487
1.8336253059096634,,0.098411605,-0.016511956,0.3603401,-0.61212105,-0.4303739,-0.66338986,-0.75073713,0.05275835,0.6584909,-0.24839798,0.90110755,-0.3553921,,0.06451708,-0.024993876,0.6460223,0.12009166,-0.9900163,-0.07379411,-0.97768205,-0.1308472,0.16436788,-0.17238267,0.052407976,-0.9836348,,0.075814396,-0.019834692,0.20447159,-0.9886128,0.12966092,-0.076371945,0.108129136,0.96505,0.23871863,0.104655236,0.2277423,-0.9680809,,-0.6113547025222349,0.009722920688648658,0.07871591396000001,0.07108489084125376,0.001503001497419845,0.5420197037342187,-0.034465597954332905,,-1.4560363333734148,-0.13676959920251608,0.14581577323,0.04759961717098703,0.003962458493197773,0.6064189972019602,0.019601287936113487
1.8594162419904023,,0.09841119,-0.016511774,0.36034042,-0.61212087,-0.4303686,-0.6633934,-0.75073737,0.052753538,0.65849096,-0.2483975,0.90111035,-0.3553853,,0.06451708,-0.024993876,0.6460223,0.12009166,-0.9900163,-0.07379411,-0.97768205,-0.1308472,0.16436788,-0.17238267,0.052407976,-0.9836348,,0.075814396,-0.019834692,0.20447159,-0.9886128,0.12966092,-0.076371945,0.108129136,0.96505,0.23871863,0.104655236,0.2277423,-0.9680809,,-0.6113469797893606,0.009722920688648658,0.07871591396000001,0.07108489084125376,0.001503001497419845,0.5420197037342187,-0.034465597954332905,,-1.4560363333734148,-0.13676959920251608,0.14581577323,0.04759961717098703,0.003962458493197773,0.6064189972019602,0.019601287936113487
1.8844609188381582,,0.0984115,-0.016511338,0.36034057,-0.61212355,-0.4303706,-0.6633896,-0.7507333,0.05275017,0.65849596,-0.24840342,0.9011096,-0.35538316,,0.06451708,-0.024993876,0.6460223,0.12009166,-0.9900163,-0.07379411,-0.97768205,-0.1308472,0.16436788,-0.17238267,0.052407976,-0.9836348,,0.075814396,-0.019834692,0.20447159,-0.9886128,0.12966092,-0.076371945,0.108129136,0.96505,0.23871863,0.104655236,0.2277423,-0.9680809,,-0.6113469797893606,0.009730643421522881,0.07871591396000001,0.07108489084125376,0.001503001497419845,0.5420197037342187,-0.034465597954332905,,-1.4560363333734148,-0.13676959920251608,0.14581577323,0.04759961717098703,0.003962458493197773,0.6064189972019602,0.019601287936113487
1.9052772419527173,,0.098411605,-0.016511956,0.3603401,-0.61212105,-0.4303739,-0.66338986,-0.75073713,0.05275835,0.6584909,-0.24839798,0.90110755,-0.3553921,,0.06451708,-0.024993876,0.6460223,0.12009166,-0.9900163,-0.07379411,-0.97768205,-0.1308472,0.16436788,-0.17238267,0.052407976,-0.9836348,,0.075814396,-0.019834692,0.20447159,-0.9886128,0.12966092,-0.076371945,0.108129136,0.96505,0.23871863,0.104655236,0.2277423,-0.9680809,,-0.6113547025222349,0.009722920688648658,0.07871591396000001,0.07108489084125376,0.001503001497419845,0.5420197037342187,-0.034465597954332905,,-1.4560363333734148,-0.13676959920251608,0.14581577323,0.04759961717098703,0.003962458493197773,0.6064189972019602,0.019601287936113487
1.931408217875287,,0.098411605,-0.016511956,0.3603401,-0.61212105,-0.4303739,-0.66338986,-0.75073713,0.05275835,0.6584909,-0.24839798,0.90110755,-0.3553921,,0.06451619,-0.024993943,0.6460217,0.120092355,-0.9900156,-0.07380158,-0.97768205,-0.13084906,0.164366,-0.17238185,0.05241539,-0.9836346,,0.075814396,-0.019834692,0.20447159,-0.9886128,0.12966092,-0.076371945,0.108129136,0.96505,0.23871863,0.104655236,0.2277423,-0.9680809,,-0.6113547025222349,0.009722920688648658,0.07871591396000001,0.07108489084125376,0.001503001497419845,0.5420197037342187,-0.034465597954332905,,-1.4560286106405407,-0.13676959920251608,0.14581577323,0.04759961717098703,0.003962458493197773,0.6064189972019602,0.019601287936113487
1.9468702278099954,,0.098411605,-0.016511956,0.3603401,-0.61212105,-0.4303739,-0.66338986,-0.75073713,0.05275835,0.6584909,-0.24839798,0.90110755,-0.3553921,,0.06451708,-0.024993876,0.6460223,0.12009166,-0.9900163,-0.07379411,-0.97768205,-0.1308472,0.16436788,-0.17238267,0.052407976,-0.9836348,,0.075814396,-0.019834692,0.20447159,-0.9886128,0.12966092,-0.076371945,0.108129136,0.96505,0.23871863,0.104655236,0.2277423,-0.9680809,,-0.6113547025222349,0.009722920688648658,0.07871591396000001,0.07108489084125376,0.001503001497419845,0.5420197037342187,-0.034465597954332905,,-1.4560363333734148,-0.13676959920251608,0.14581577323,0.04759961717098703,0.003962458493197773,0.6064189972019602,0.019601287936113487
1.9743799078278244,,0.098411605,-0.016511956,0.3603401,-0.61212105,-0.4303739,-0.66338986,-0.75073713,0.05275835,0.6584909,-0.24839798,0.90110755,-0.3553921,,0.06451708,-0.024993876,0.6460223,0.12009166,-0.9900163,-0.07379411,-0.97768205,-0.1308472,0.16436788,-0.17238267,0.052407976,-0.9836348,,0.075814396,-0.019834692,0.20447159,-0.9886128,0.12966092,-0.076371945,0.108129136,0.96505,0.23871863,0.104655236,0.2277423,-0.9680809,,-0.6113547025222349,0.009722920688648658,0.07871591396000001,0.07108489084125376,0.001503001497419845,0.5420197037342187,-0.034465597954332905,,-1.4560363333734148,-0.13676959920251608,0.14581577323,0.04759961717098703,0.003962458493197773,0.6064189972019602,0.019601287936113487
1.9938353719189763,,0.0984115,-0.016511338,0.36034057,-0.61212355,-0.4303706,-0.6633896,-0.7507333,0.05275017,0.65849596,-0.24840342,0.9011096,-0.35538316,,0.06451708,-0.024993876,0.6460223,0.12009166,-0.9900163,-0.07379411,-0.97768205,-0.1308472,0.16436788,-0.17238267,0.052407976,-0.9836348,,0.075814396,-0.019834692,0.20447159,-0.9886128,0.12966092,-0.076371945,0.108129136,0.96505,0.23871863,0.104655236,0.2277423,-0.9680809,,-0.6113469797893606,0.009730643421522881,0.07871591396000001,0.07108489084125376,0.001503001497419845,0.5420197037342187,-0.034465597954332905,,-1.4560363333734148,-0.13676959920251608,0.14581577323,0.04759961717098703,0.003962458493197773,0.6064189972019602,0.019601287936113487
2.0183794118929654,,0.09841192,-0.016511524,0.36034024,-0.61212367,-0.430376,-0.663386,-0.750733,0.052754983,0.65849584,-0.2484039,0.9011067,-0.35539004,,0.06451708,-0.024993876,0.6460223,0.12009166,-0.9900163,-0.07379411,-0.97768205,-0.1308472,0.16436788,-0.17238267,0.052407976,-0.9836348,,0.075814396,-0.019834692,0.20447159,-0.9886128,0.12966092,-0.076371945,0.108129136,0.96505,0.23871863,0.104655236,0.2277423,-0.9680809,,-0.6113547025222349,0.009730643421522881,0.07871591396000001,0.07108489084125376,0.001503001497419845,0.5420197037342187,-0.034465597954332905,,-1.4560363333734148,-0.13676959920251608,0.14581577323,0.04759961717098703,0.003962458493197773,0.6064189972019602,0.019601287936113487
2.0421986270230263,,0.098411605,-0.016511956,0.3603401,-0.61212105,-0.4303739,-0.66338986,-0.75073713,0.05275835,0.6584909,-0.24839798,0.90110755,-0.3553921,,0.06451619,-0.024993943,0.6460217,0.120092355,-0.9900156,-0.07380158,-0.97768205,-0.13084906,0.164366,-0.17238185,0.05241539,-0.9836346,,0.075814396,-0.019834692,0.20447159,-0.9886128,0.12966092,-0.076371945,0.108129136,0.96505,0.23871863,0.104655236,0.2277423,-0.9680809,,-0.6113547025222349,0.009722920688648658,0.07871591396000001,0.07108489084125376,0.001503001497419845,0.5420197037342187,-0.034465597954332905,,-1.4560286106405407,-0.13676959920251608,0.14581577323,0.04759961717098703,0.003962458493197773,0.6064189972019602,0.019601287936113487
2.0657774629071355,,0.098411605,-0.016511956,0.3603401,-0.61212105,-0.4303739,-0.66338986,-0.75073713,0.05275835,0.6584909,-0.24839798,0.90110755,-0.3553921,,0.06451619,-0.024993943,0.6460217,0.120092355,-0.9900156,-0.07380158,-0.97768205,-0.13084906,0.164366,-0.17238185,0.05241539,-0.9836346,,0.075814396,-0.019834692,0.20447159,-0.9886128,0.12966092,-0.076371945,0.108129136,0.96505,0.23871863,0.104655236,0.2277423,-0.9680809,,-0.6113547025222349,0.009722920688648658,0.07871591396000001,0.07108489084125376,0.001503001497419845,0.5420197037342187,-0.034465597954332905,,-1.4560286106405407,-0.13676959920251608,0.14581577323,0.04759961717098703,0.003962458493197773,0.6064189972019602,0.019601287936113487
2.088839014992118,,0.098411605,-0.016511956,0.3603401,-0.61212105,-0.4303739,-0.66338986,-0.75073713,0.05275835,0.6584909,-0.24839798,0.90110755,-0.3553921,,0.06451726,-0.024994927,0.6460222,0.12008775,-0.9900168,-0.07379299,-0.97768366,-0.13084283,0.16436172,-0.17237622,0.052408375,-0.9836359,,0.075814396,-0.019834692,0.20447159,-0.9886128,0.12966092,-0.076371945,0.108129136,0.96505,0.23871863,0.104655236,0.2277423,-0.9680809,,-0.6113547025222349,0.009722920688648658,0.07871591396000001,0.07108489084125376,0.001503001497419845,0.5420197037342187,-0.034465597954332905,,-1.4560363333734148,-0.1367773219353903,0.14581577323,0.04759961717098703,0.003962458493197773,0.6064189972019602,0.019601287936113487
2.113000643905252,,0.0984115,-0.016511338,0.36034057,-0.61212355,-0.4303706,-0.6633896,-0.7507333,0.05275017,0.65849596,-0.24840342,0.9011096,-0.35538316,,0.06451726,-0.024994927,0.6460222,0.12008775,-0.9900168,-0.07379299,-0.97768366,-0.13084283,0.16436172,-0.17237622,0.052408375,-0.9836359,,0.075814396,-0.019834692,0.20447159,-0.9886128,0.12966092,-0.076371945,0.108129136,0.96505,0.23871863,0.104655236,0.2277423,-0.9680809,,-0.6113469797893606,0.009730643421522881,0.07871591396000001,0.07108489084125376,0.001503001497419845,0.5420197037342187,-0.034465597954332905,,-1.4560363333734148,-0.1367773219353903,0.14581577323,0.04759961717098703,0.003962458493197773,0.6064189972019602,0.019601287936113487
2.1346282598096877,,0.09841192,-0.016511524,0.36034024,-0.61212367,-0.430376,-0.663386,-0.750733,0.052754983,0.65849584,-0.2484039,0.9011067,-0.35539004,,0.06451708,-0.024993876,0.6460223,0.12009166,-0.9900163,-0.07379411,-0.97768205,-0.1308472,0.16436788,-0.17238267,0.052407976,-0.9836348,,0.075814396,-0.019834692,0.20447159,-0.9886128,0.12966092,-0.076371945,0.108129136,0.96505,0.23871863,0.104655236,0.2277423,-0.9680809,,-0.6113547025222349,0.009730643421522881,0.07871591396000001,0.07108489084125376,0.001503001497419845,0.5420197037342187,-0.034465597954332905,,-1.4560363333734148,-0.13676959920251608,0.14581577323,0.04759961717098703,0.003962458493197773,0.6064189972019602,0.019601287936113487
2.1582908178679645,,0.09841192,-0.016511524,0.36034024,-0.61212367,-0.430376,-0.663386,-0.750733,0.052754983,0.65849584,-0.2484039,0.9011067,-0.35539004,,0.06451708,-0.024993876,0.6460223,0.12009166,-0.9900163,-0.07379411,-0.97768205,-0.1308472,0.16436788,-0.17238267,0.052407976,-0.9836348,,0.075814396,-0.019834692,0.20447159,-0.9886128,0.12966092,-0.076371945,0.108129136,0.96505,0.23871863,0.104655236,0.2277423,-0.9680809,,-0.6113547025222349,0.009730643421522881,0.07871591396000001,0.07108489084125376,0.001503001497419845,0.5420197037342187,-0.034465597954332905,,-1.4560363333734148,-0.13676959920251608,0.14581577323,0.04759961717098703,0.003962458493197773,0.6064189972019602,0.019601287936113487
2.1845913699362427,,0.098411605,-0.016511956,0.3603401,-0.61212105,-0.4303739,-0.66338986,-0.75073713,0.05275835,0.6584909,-0.24839798,0.90110755,-0.3553921,,0.06451708,-0.024993876,0.6460223,0.12009166,-0.9900163,-0.07379411,-0.97768205,-0.1308472,0.16436788,-0.17238267,0.052407976,-0.9836348,,0.075814396,-0.019834692,0.20447159,-0.9886128,0.12966092,-0.076371945,0.108129136,0.96505,0.23871863,0.104655236,0.2277423,-0.9680809,,-0.6113547025222349,0.009722920688648658,0.07871591396000001,0.07108489084125376,0.001503001497419845,0.5420197037342187,-0.034465597954332905,,-1.4560363333734148,-0.13676959920251608,0.14581577323,0.04759961717098703,0.003962458493197773,0.6064189972019602,0.019601287936113487
2.207064937800169,,0.09841119,-0.016511774,0.36034042,-0.61212087,-0.4303686,-0.6633934,-0.75073737,0.052753538,0.65849096,-0.2483975,0.90111035,-0.3553853,,0.06451708,-0.024993876,0.6460223,0.12009166,-0.9900163,-0.07379411,-0.97768205,-0.1308472,0.16436788,-0.17238267,0.052407976,-0.9836348,,0.075814396,-0.019834692,0.20447159,-0.9886128,0.12966092,-0.076371945,0.108129136,0.96505,0.23871863,0.104655236,0.2277423,-0.9680809,,-0.6113469797893606,0.009722920688648658,0.07871591396000001,0.07108489084125376,0.001503001497419845,0.5420197037342187,-0.034465597954332905,,-1.4560363333734148,-0.13676959920251608,0.14581577323,0.04759961717098703,0.003962458493197773,0.6064189972019602,0.019601287936113487
2.2290504928678274,,0.0984115,-0.016511338,0.36034057,-0.61212355,-0.4303706,-0.6633896,-0.7507333,0.05275017,0.65849596,-0.24840342,0.9011096,-0.35538316,,0.06451708,-0.024993876,0.6460223,0.12009166,-0.9900163,-0.07379411,-0.97768205,-0.1308472,0.16436788,-0.17238267,0.052407976,-0.9836348,,0.075814396,-0.019834692,0.20447159,-0.9886128,0.12966092,-0.076371945,0.108129136,0.96505,0.23871863,0.104655236,0.2277423,-0.9680809,,-0.6113469797893606,0.009730643421522881,0.07871591396000001,0.07108489084125376,0.001503001497419845,0.5420197037342187,-0.034465597954332905,,-1.4560363333734148,-0.13676959920251608,0.14581577323,0.04759961717098703,0.003962458493197773,0.6064189972019602,0.019601287936113487
2.2549828328192234,,0.0984115,-0.016511338,0.36034057,-0.61212355,-0.4303706,-0.6633896,-0.7507333,0.05275017,0.65849596,-0.24840342,0.9011096,-0.35538316,,0.06451619,-0.024993943,0.6460217,0.120092355,-0.9900156,-0.07380158,-0.97768205,-0.13084906,0.164366,-0.17238185,0.05241539,-0.9836346,,0.075814396,-0.019834692,0.20447159,-0.9886128,0.12966092,-0.076371945,0.108129136,0.96505,0.23871863,0.104655236,0.2277423,-0.9680809,,-0.6113469797893606,0.009730643421522881,0.07871591396000001,0.07108489084125376,0.001503001497419845,0.5420197037342187,-0.034465597954332905,,-1.4560286106405407,-0.13676959920251608,0.14581577323,0.04759961717098703,0.003962458493197773,0.6064189972019602,0.019601287936113487
2.2756343758665025,,0.098411605,-0.016511956,0.3603401,-0.61212105,-0.4303739,-0.66338986,-0.75073713,0.05275835,0.6584909,-0.24839798,0.90110755,-0.3553921,,0.06451708,-0.024993876,0.6460223,0.12009166,-0.9900163,-0.07379411,-0.97768205,-0.1308472,0.16436788,-0.17238267,0.052407976,-0.9836348,,0.075814396,-0.019834692,0.20447159,-0.9886128,0.12966092,-0.076371945,0.108129136,0.96505,0.23871863,0.104655236,0.2277423,-0.9680809,,-0.6113547025222349,0.009722920688648658,0.07871591396000001,0.07108489084125376,0.001503001497419845,0.5420197037342187,-0.034465597954332905,,-1.4560363333734148,-0.13676959920251608,0.14581577323,0.04759961717098703,0.003962458493197773,0.6064189972019602,0.019601287936113487
2.3007705949712545,,0.098411605,-0.016511956,0.3603401,-0.61212105,-0.4303739,-0.66338986,-0.75073713,0.05275835,0.6584909,-0.24839798,0.90110755,-0.3553921,,0.06451708,-0.024993876,0.6460223,0.12009166,-0.9900163,-0.07379411,-0.97768205,-0.1308472,0.16436788,-0.17238267,0.052407976,-0.9836348,,0.075814396,-0.019834692,0.20447159,-0.9886128,0.12966092,-0.076371945,0.108129136,0.96505,0.23871863,0.104655236,0.2277423,-0.9680809,,-0.6113547025222349,0.009722920688648658,0.07871591396000001,0.07108489084125376,0.001503001497419845,0.5420197037342187,-0.034465597954332905,,-1.4560363333734148,-0.13676959920251608,0.14581577323,0.04759961717098703,0.003962458493197773,0.6064189972019602,0.019601287936113487
2.3260491639375687,,0.098411605,-0.016511956,0.3603401,-0.61212105,-0.4303739,-0.66338986,-0.75073713,0.05275835,0.6584909,-0.24839798,0.90110755,-0.3553921,,0.06451708,-0.024993876,0.6460223,0.12009166,-0.9900163,-0.07379411,-0.97768205,-0.1308472,0.16436788,-0.17238267,0.052407976,-0.9836348,,0.075814396,-0.019834692,0.20447159,-0.9886128,0.12966092,-0.076371945,0.108129136,0.96505,0.23871863,0.104655236,0.2277423,-0.9680809,,-0.6113547025222349,0.009722920688648658,0.07871591396000001,0.07108489084125376,0.001503001497419845,0.5420197037342187,-0.034465597954332905,,-1.4560363333734148,-0.13676959920251608,0.14581577323,0.04759961717098703,0.003962458493197773,0.6064189972019602,0.019601287936113487
2.3498719539493322,,0.0984115,-0.016511338,0.36034057,-0.61212355,-0.4303706,-0.6633896,-0.7507333,0.05275017,0.65849596,-0.24840342,0.9011096,-0.35538316,,0.06451708,-0.024993876,0.6460223,0.12009166,-0.9900163,-0.07379411,-0.97768205,-0.1308472,0.16436788,-0.17238267,0.052407976,-0.9836348,,0.075814396,-0.019834692,0.20447159,-0.9886128,0.12966092,-0.076371945,0.108129136,0.96505,0.23871863,0.104655236,0.2277423,-0.9680809,,-0.6113469797893606,0.009730643421522881,0.07871591396000001,0.07108489084125376,0.001503001497419845,0.5420197037342187,-0.034465597954332905,,-1.4560363333734148,-0.13676959920251608,0.14581577323,0.04759961717098703,0.003962458493197773,0.6064189972019602,0.019601287936113487
2.3714538188651204,,0.0984115,-0.016511338,0.36034057,-0.61212355,-0.4303706,-0.6633896,-0.7507333,0.05275017,0.65849596,-0.24840342,0.9011096,-0.35538316,,0.06451708,-0.024993876,0.6460223,0.12009166,-0.9900163,-0.07379411,-0.97768205,-0.1308472,0.16436788,-0.17238267,0.052407976,-0.9836348,,0.075814396,-0.019834692,0.20447159,-0.9886128,0.12966092,-0.076371945,0.108129136,0.96505,0.23871863,0.104655236,0.2277423,-0.9680809,,-0.6113469797893606,0.009730643421522881,0.07871591396000001,0.07108489084125376,0.001503001497419845,0.5420197037342187,-0.034465597954332905,,-1.4560363333734148,-0.13676959920251608,0.14581577323,0.04759961717098703,0.003962458493197773,0.6064189972019602,0.019601287936113487
2.396244027884677,,0.09841119,-0.016511774,0.36034042,-0.61212087,-0.4303686,-0.6633934,-0.75073737,0.052753538,0.65849096,-0.2483975,0.90111035,-0.3553853,,0.06451708,-0.024993876,0.6460223,0.12009166,-0.9900163,-0.07379411,-0.97768205,-0.1308472,0.16436788,-0.17238267,0.052407976,-0.9836348,,0.075814396,-0.019834692,0.20447159,-0.9886128,0.12966092,-0.076371945,0.108129136,0.96505,0.23871863,0.104655236,0.2277423,-0.9680809,,-0.6113469797893606,0.009722920688648658,0.07871591396000001,0.07108489084125376,0.001503001497419845,0.5420197037342187,-0.034465597954332905,,-1.4560363333734148,-0.13676959920251608,0.14581577323,0.04759961717098703,0.003962458493197773,0.6064189972019602,0.019601287936113487
2.421608603792265,,0.09841119,-0.016511774,0.36034042,-0.61212087,-0.4303686,-0.6633934,-0.75073737,0.052753538,0.65849096,-0.2483975,0.90111035,-0.3553853,,0.06451708,-0.024993876,0.6460223,0.12009166,-0.9900163,-0.07379411,-0.97768205,-0.1308472,0.16436788,-0.17238267,0.052407976,-0.9836348,,0.075814396,-0.019834692,0.20447159,-0.9886128,0.12966092,-0.076371945,0.108129136,0.96505,0.23871863,0.104655236,0.2277423,-0.9680809,,-0.6113469797893606,0.009722920688648658,0.07871591396000001,0.07108489084125376,0.001503001497419845,0.5420197037342187,-0.034465597954332905,,-1.4560363333734148,-0.13676959920251608,0.14581577323,0.04759961717098703,0.003962458493197773,0.6064189972019602,0.019601287936113487
2.4418166188988835,,0.098411605,-0.016511956,0.3603401,-0.61212105,-0.4303739,-0.66338986,-0.75073713,0.05275835,0.6584909,-0.24839798,0.90110755,-0.3553921,,0.06451708,-0.024993876,0.6460223,0.12009166,-0.9900163,-0.07379411,-0.97768205,-0.1308472,0.16436788,-0.17238267,0.052407976,-0.9836348,,0.075814396,-0.019834692,0.20447159,-0.9886128,0.12966092,-0.076371945,0.108129136,0.96505,0.23871863,0.104655236,0.2277423,-0.9680809,,-0.6113547025222349,0.009722920688648658,0.07871591396000001,0.07108489084125376,0.001503001497419845,0.5420197037342187,-0.034465597954332905,,-1.4560363333734148,-0.13676959920251608,0.14581577323,0.04759961717098703,0.003962458493197773,0.6064189972019602,0.019601287936113487
2.4691092278808355,,0.09841192,-0.016511524,0.36034024,-0.61212367,-0.430376,-0.663386,-0.750733,0.052754983,0.65849584,-0.2484039,0.9011067,-0.35539004,,0.06451708,-0.024993876,0.6460223,0.12009166,-0.9900163,-0.07379411,-0.97768205,-0.1308472,0.16436788,-0.17238267,0.052407976,-0.9836348,,0.075814396,-0.019834692,0.20447159,-0.9886128,0.12966092,-0.076371945,0.108129136,0.96505,0.23871863,0.104655236,0.2277423,-0.9680809,,-0.6113547025222349,0.009730643421522881,0.07871591396000001,0.07108489084125376,0.001503001497419845,0.5420197037342187,-0.034465597954332905,,-1.4560363333734148,-0.13676959920251608,0.14581577323,0.04759961717098703,0.003962458493197773,0.6064189972019602,0.019601287936113487
2.4912208958994597,,0.098411605,-0.016511956,0.3603401,-0.61212105,-0.4303739,-0.66338986,-0.75073713,0.05275835,0.6584909,-0.24839798,0.90110755,-0.3553921,,0.06451708,-0.024993876,0.6460223,0.12009166,-0.9900163,-0.07379411,-0.97768205,-0.1308472,0.16436788,-0.17238267,0.052407976,-0.9836348,,0.075814396,-0.019834692,0.20447159,-0.9886128,0.12966092,-0.076371945,0.108129136,0.96505,0.23871863,0.104655236,0.2277423,-0.9680809,,-0.6113547025222349,0.009722920688648658,0.07871591396000001,0.07108489084125376,0.001503001497419845,0.5420197037342187,-0.034465597954332905,,-1.4560363333734148,-0.13676959920251608,0.14581577323,0.04759961717098703,0.003962458493197773,0.6064189972019602,0.019601287936113487
2.5179379188921303,,0.09841119,-0.016511774,0.36034042,-0.61212087,-0.4303686,-0.6633934,-0.75073737,0.052753538,0.65849096,-0.2483975,0.90111035,-0.3553853,,0.06451708,-0.024993876,0.6460223,0.12009166,-0.9900163,-0.07379411,-0.97768205,-0.1308472,0.16436788,-0.17238267,0.052407976,-0.9836348,,0.075814396,-0.019834692,0.20447159,-0.9886128,0.12966092,-0.076371945,0.108129136,0.96505,0.23871863,0.104655236,0.2277423,-0.9680809,,-0.6113469797893606,0.009722920688648658,0.07871591396000001,0.07108489084125376,0.001503001497419845,0.5420197037342187,-0.034465597954332905,,-1.4560363333734148,-0.13676959920251608,0.14581577323,0.04759961717098703,0.003962458493197773,0.6064189972019602,0.019601287936113487
2.538795115891844,,0.098411605,-0.016511956,0.3603401,-0.61212105,-0.4303739,-0.66338986,-0.75073713,0.05275835,0.6584909,-0.24839798,0.90110755,-0.3553921,,0.06451619,-0.024993943,0.6460217,0.120092355,-0.9900156,-0.07380158,-0.97768205,-0.13084906,0.164366,-0.17238185,0.05241539,-0.9836346,,0.075814396,-0.019834692,0.20447159,-0.9886128,0.12966092,-0.076371945,0.108129136,0.96505,0.23871863,0.104655236,0.2277423,-0.9680809,,-0.6113547025222349,0.009722920688648658,0.07871591396000001,0.07108489084125376,0.001503001497419845,0.5420197037342187,-0.034465597954332905,,-1.4560286106405407,-0.13676959920251608,0.14581577323,0.04759961717098703,0.003962458493197773,0.6064189972019602,0.019601287936113487
2.560630345949903,,0.09841119,-0.016511774,0.36034042,-0.61212087,-0.4303686,-0.6633934,-0.75073737,0.052753538,0.65849096,-0.2483975,0.90111035,-0.3553853,,0.06451528,-0.024994003,0.6460212,0.12009303,-0.990015,-0.07380904,-0.9776822,-0.13085093,0.16436414,-0.17238101,0.052422807,-0.9836343,,0.075814396,-0.019834692,0.20447159,-0.9886128,0.12966092,-0.076371945,0.108129136,0.96505,0.23871863,0.104655236,0.2277423,-0.9680809,,-0.6113469797893606,0.009722920688648658,0.07871591396000001,0.07108489084125376,0.001503001497419845,0.5420197037342187,-0.034465597954332905,,-1.4560208879076664,-0.13676959920251608,0.14581577323,0.04759961717098703,0.003962458493197773,0.6064189972019602,0.019601287936113487
2.5880225067958236,,0.098411605,-0.016511956,0.3603401,-0.61212105,-0.4303739,-0.66338986,-0.75073713,0.05275835,0.6584909,-0.24839798,0.90110755,-0.3553921,,0.06451708,-0.024993876,0.6460223,0.12009166,-0.9900163,-0.07379411,-0.97768205,-0.1308472,0.16436788,-0.17238267,0.052407976,-0.9836348,,0.075814396,-0.019834692,0.20447159,-0.9886128,0.12966092,-0.076371945,0.108129136,0.96505,0.23871863,0.104655236,0.2277423,-0.9680809,,-0.6113547025222349,0.009722920688648658,0.07871591396000001,0.07108489084125376,0.001503001497419845,0.5420197037342187,-0.034465597954332905,,-1.4560363333734148,-0.13676959920251608,0.14581577323,0.04759961717098703,0.003962458493197773,0.6064189972019602,0.019601287936113487
2.611513302894309,,0.098411605,-0.016511956,0.3603401,-0.61212105,-0.4303739,-0.66338986,-0.75073713,0.05275835,0.6584909,-0.24839798,0.90110755,-0.3553921,,0.06451708,-0.024993876,0.6460223,0.12009166,-0.9900163,-0.07379411,-0.97768205,-0.1308472,0.16436788,-0.17238267,0.052407976,-0.9836348,,0.075814396,-0.019834692,0.20447159,-0.9886128,0.12966092,-0.076371945,0.108129136,0.96505,0.23871863,0.104655236,0.2277423,-0.9680809,,-0.6113547025222349,0.009722920688648658,0.07871591396000001,0.07108489084125376,0.001503001497419845,0.5420197037342187,-0.034465597954332905,,-1.4560363333734148,-0.13676959920251608,0.14581577323,0.04759961717098703,0.003962458493197773,0.6064189972019602,0.019601287936113487
2.6381155559793115,,0.098411605,-0.016511956,0.3603401,-0.61212105,-0.4303739,-0.66338986,-0.75073713,0.05275835,0.6584909,-0.24839798,0.90110755,-0.3553921,,0.06451708,-0.024993876,0.6460223,0.12009166,-0.9900163,-0.07379411,-0.97768205,-0.1308472,0.16436788,-0.17238267,0.052407976,-0.9836348,,0.075814396,-0.019834692,0.20447159,-0.9886128,0.12966092,-0.076371945,0.108129136,0.96505,0.23871863,0.104655236,0.2277423,-0.9680809,,-0.6113547025222349,0.009722920688648658,0.07871591396000001,0.07108489084125376,0.001503001497419845,0.5420197037342187,-0.034465597954332905,,-1.4560363333734148,-0.13676959920251608,0.14581577323,0.04759961717098703,0.003962458493197773,0.6064189972019602,0.019601287936113487
2.6625106018036604,,0.098411605,-0.016511956,0.3603401,-0.61212105,-0.4303739,-0.66338986,-0.75073713,0.05275835,0.6584909,-0.24839798,0.90110755,-0.3553921,,0.06451708,-0.024993876,0.6460223,0.12009166,-0.9900163,-0.07379411,-0.97768205,-0.1308472,0.16436788,-0.17238267,0.052407976,-0.9836348,,0.075814396,-0.019834692,0.20447159,-0.9886128,0.12966092,-0.076371945,0.108129136,0.96505,0.23871863,0.104655236,0.2277423,-0.9680809,,-0.6113547025222349,0.009722920688648658,0.07871591396000001,0.07108489084125376,0.001503001497419845,0.5420197037342187,-0.034465597954332905,,-1.4560363333734148,-0.13676959920251608,0.14581577323,0.04759961717098703,0.003962458493197773,0.6064189972019602,0.019601287936113487
2.689562398009002,,0.098426186,-0.016518226,0.36035183,-0.6121239,-0.43033963,-0.66340953,-0.7507435,0.052757427,0.65848374,-0.2483719,0.90112394,-0.35536864,,0.06451329,-0.024989,0.6460059,0.120063595,-0.9900181,-0.07381694,-0.97768515,-0.1308235,0.16436878,-0.17238508,0.052435014,-0.983633,,0.07574927,-0.019806853,0.2044682,-0.98860365,0.12973562,-0.076364316,0.10820353,0.96504104,0.23872125,0.10466536,0.22773784,-0.9680808,,-0.6113547025222349,0.009730643421522881,0.07871591396000001,0.07108489084125376,0.001503001497419845,0.5420197037342187,-0.034465597954332905,,-1.4560363333734148,-0.13676959920251608,0.14581577323,0.04759961717098703,0.003962458493197773,0.6064189972019602,0.019601287936113487
2.7103535009082407,,0.098426186,-0.016518226,0.36035183,-0.6121239,-0.43033963,-0.66340953,-0.7507435,0.052757427,0.65848374,-0.2483719,0.90112394,-0.35536864,,0.06451329,-0.024989,0.6460059,0.120063595,-0.9900181,-0.07381694,-0.97768515,-0.1308235,0.16436878,-0.17238508,0.052435014,-0.983633,,0.07574927,-0.019806853,0.2044682,-0.98860365,0.12973562,-0.076364316,0.10820353,0.96504104,0.23872125,0.10466536,0.22773784,-0.9680808,,-0.6113547025222349,0.009730643421522881,0.07871591396000001,0.07108489084125376,0.001503001497419845,0.5420197037342187,-0.034465597954332905,,-1.4560363333734148,-0.13676959920251608,0.14581577323,0.04759961717098703,0.003962458493197773,0.6064189972019602,0.019601287936113487
2.734710503835231,,0.098425455,-0.016518472,0.36035198,-0.6121211,-0.43033224,-0.6634169,-0.75074786,0.052755952,0.6584789,-0.24836548,0.9011276,-0.3553639,,0.06451329,-0.024989,0.6460059,0.120063595,-0.9900181,-0.07381694,-0.97768515,-0.1308235,0.16436878,-0.17238508,0.052435014,-0.983633,,0.07574927,-0.019806853,0.2044682,-0.98860365,0.12973562,-0.076364316,0.10820353,0.96504104,0.23872125,0.10466536,0.22773784,-0.9680808,,-0.6113469797893606,0.009722920688648658,0.07871591396000001,0.07108489084125376,0.001503001497419845,0.5420197037342187,-0.034465597954332905,,-1.4560363333734148,-0.13676959920251608,0.14581577323,0.04759961717098703,0.003962458493197773,0.6064189972019602,0.019601287936113487
2.7590065519325435,,0.098425455,-0.016518472,0.36035198,-0.6121211,-0.43033224,-0.6634169,-0.75074786,0.052755952,0.6584789,-0.24836548,0.9011276,-0.3553639,,0.06451329,-0.024989,0.6460059,0.120063595,-0.9900181,-0.07381694,-0.97768515,-0.1308235,0.16436878,-0.17238508,0.052435014,-0.983633,,0.07574927,-0.019806853,0.2044682,-0.98860365,0.12973562,-0.076364316,0.10820353,0.96504104,0.23872125,0.10466536,0.22773784,-0.9680808,,-0.6113469797893606,0.009722920688648658,0.07871591396000001,0.07108489084125376,0.001503001497419845,0.5420197037342187,-0.034465597954332905,,-1.4560363333734148,-0.13676959920251608,0.14581577323,0.04759961717098703,0.003962458493197773,0.6064189972019602,0.019601287936113487
2.7812267870176584,,0.098425455,-0.016518472,0.36035198,-0.6121211,-0.43033224,-0.6634169,-0.75074786,0.052755952,0.6584789,-0.24836548,0.9011276,-0.3553639,,0.06451329,-0.024989,0.6460059,0.120063595,-0.9900181,-0.07381694,-0.97768515,-0.1308235,0.16436878,-0.17238508,0.052435014,-0.983633,,0.07574927,-0.019806853,0.2044682,-0.98860365,0.12973562,-0.076364316,0.10820353,0.96504104,0.23872125,0.10466536,0.22773784,-0.9680808,,-0.6113469797893606,0.009722920688648658,0.07871591396000001,0.07108489084125376,0.001503001497419845,0.5420197037342187,-0.034465597954332905,,-1.4560363333734148,-0.13676959920251608,0.14581577323,0.04759961717098703,0.003962458493197773,0.6064189972019602,0.019601287936113487
2.8038168179336935,,0.098426186,-0.016518226,0.36035183,-0.6121239,-0.43033963,-0.66340953,-0.7507435,0.052757427,0.65848374,-0.2483719,0.90112394,-0.35536864,,0.06451329,-0.024989,0.6460059,0.120063595,-0.9900181,-0.07381694,-0.97768515,-0.1308235,0.16436878,-0.17238508,0.052435014,-0.983633,,0.07574927,-0.019806853,0.2044682,-0.98860365,0.12973562,-0.076364316,0.10820353,0.96504104,0.23872125,0.10466536,0.22773784,-0.9680808,,-0.6113547025222349,0.009730643421522881,0.07871591396000001,0.07108489084125376,0.001503001497419845,0.5420197037342187,-0.034465597954332905,,-1.4560363333734148,-0.13676959920251608,0.14581577323,0.04759961717098703,0.003962458493197773,0.6064189972019602,0.019601287936113487
2.82707260386087,,0.098425455,-0.016518472,0.36035198,-0.6121211,-0.43033224,-0.6634169,-0.75074786,0.052755952,0.6584789,-0.24836548,0.9011276,-0.3553639,,0.06451148,-0.024989126,0.64600486,0.12006498,-0.9900168,-0.07383187,-0.9776853,-0.13082725,0.16436504,-0.17238341,0.05244985,-0.98363245,,0.07574927,-0.019806853,0.2044682,-0.98860365,0.12973562,-0.076364316,0.10820353,0.96504104,0.23872125,0.10466536,0.22773784,-0.9680808,,-0.6113469797893606,0.009722920688648658,0.07871591396000001,0.07108489084125376,0.001503001497419845,0.5420197037342187,-0.034465597954332905,,-1.4560208879076664,-0.13676959920251608,0.14581577323,0.04759961717098703,0.003962458493197773,0.6064189972019602,0.019601287936113487
2.851635940838605,,0.09842503,-0.01651829,0.36035228,-0.612121,-0.4303269,-0.6634205,-0.7507481,0.052751154,0.658479,-0.24836501,0.90113044,-0.3553571,,0.06451239,-0.02498906,0.6460054,0.12006429,-0.9900175,-0.073824406,-0.9776852,-0.13082536,0.1643669,-0.17238426,0.05244244,-0.98363274,,0.07574927,-0.019806853,0.2044682,-0.98860365,0.12973562,-0.076364316,0.10820353,0.96504104,0.23872125,0.10466536,0.22773784,-0.9680808,,-0.6113392570564864,0.009722920688648658,0.07871591396000001,0.07108489084125376,0.001503001497419845,0.5420197037342187,-0.034465597954332905,,-1.4560286106405407,-0.13676959920251608,0.14581577323,0.04759961717098703,0.003962458493197773,0.6064189972019602,0.019601287936113487
2.8726836398709565,,0.09842503,-0.01651829,0.36035228,-0.612121,-0.4303269,-0.6634205,-0.7507481,0.052751154,0.658479,-0.24836501,0.90113044,-0.3553571,,0.06451329,-0.024989,0.6460059,0.120063595,-0.9900181,-0.07381694,-0.97768515,-0.1308235,0.16436878,-0.17238508,0.052435014,-0.983633,,0.07574927,-0.019806853,0.2044682,-0.98860365,0.12973562,-0.076364316,0.10820353,0.96504104,0.23872125,0.10466536,0.22773784,-0.9680808,,-0.6113392570564864,0.009722920688648658,0.07871591396000001,0.07108489084125376,0.001503001497419845,0.5420197037342187,-0.034465597954332905,,-1.4560363333734148,-0.13676959920251608,0.14581577323,0.04759961717098703,0.003962458493197773,0.6064189972019602,0.019601287936113487
2.8957812290173024,,0.098425455,-0.016518472,0.36035198,-0.6121211,-0.43033224,-0.6634169,-0.75074786,0.052755952,0.6584789,-0.24836548,0.9011276,-0.3553639,,0.06451148,-0.024989126,0.64600486,0.12006498,-0.9900168,-0.07383187,-0.9776853,-0.13082725,0.16436504,-0.17238341,0.05244985,-0.98363245,,0.07574927,-0.019806853,0.2044682,-0.98860365,0.12973562,-0.076364316,0.10820353,0.96504104,0.23872125,0.10466536,0.22773784,-0.9680808,,-0.6113469797893606,0.009722920688648658,0.07871591396000001,0.07108489084125376,0.001503001497419845,0.5420197037342187,-0.034465597954332905,,-1.4560208879076664,-0.13676959920251608,0.14581577323,0.04759961717098703,0.003962458493197773,0.6064189972019602,0.019601287936113487
2.917207211954519,,0.098425455,-0.016518472,0.36035198,-0.6121211,-0.43033224,-0.6634169,-0.75074786,0.052755952,0.6584789,-0.24836548,0.9011276,-0.3553639,,0.06451148,-0.024989126,0.64600486,0.12006498,-0.9900168,-0.07383187,-0.9776853,-0.13082725,0.16436504,-0.17238341,0.05244985,-0.98363245,,0.07574927,-0.019806853,0.2044682,-0.98860365,0.12973562,-0.076364316,0.10820353,0.96504104,0.23872125,0.10466536,0.22773784,-0.9680808,,-0.6113469797893606,0.009722920688648658,0.07871591396000001,0.07108489084125376,0.001503001497419845,0.5420197037342187,-0.034465597954332905,,-1.4560208879076664,-0.13676959920251608,0.14581577323,0.04759961717098703,0.003962458493197773,0.6064189972019602,0.019601287936113487
2.942614747909829,,0.098425455,-0.016518472,0.36035198,-0.6121211,-0.43033224,-0.6634169,-0.75074786,0.052755952,0.6584789,-0.24836548,0.9011276,-0.3553639,,0.06451148,-0.024989126,0.64600486,0.12006498,-0.9900168,-0.07383187,-0.9776853,-0.13082725,0.16436504,-0.17238341,0.05244985,-0.98363245,,0.07574927,-0.019806853,0.2044682,-0.98860365,0.12973562,-0.076364316,0.10820353,0.96504104,0.23872125,0.10466536,0.22773784,-0.9680808,,-0.6113469797893606,0.009722920688648658,0.07871591396000001,0.07108489084125376,0.001503001497419845,0.5420197037342187,-0.034465597954332905,,-1.4560208879076664,-0.13676959920251608,0.14581577323,0.04759961717098703,0.003962458493197773,0.6064189972019602,0.019601287936113487
2.9667785197962075,,0.098426186,-0.016518226,0.36035183,-0.6121239,-0.43033963,-0.66340953,-0.7507435,0.052757427,0.65848374,-0.2483719,0.90112394,-0.35536864,,0.06451148,-0.024989126,0.64600486,0.12006498,-0.9900168,-0.07383187,-0.9776853,-0.13082725,0.16436504,-0.17238341,0.05244985,-0.98363245,,0.07574927,-0.019806853,0.2044682,-0.98860365,0.12973562,-0.076364316,0.10820353,0.96504104,0.23872125,0.10466536,0.22773784,-0.9680808,,-0.6113547025222349,0.009730643421522881,0.07871591396000001,0.07108489084125376,0.001503001497419845,0.5420197037342187,-0.034465597954332905,,-1.4560208879076664,-0.13676959920251608,0.14581577323,0.04759961717098703,0.003962458493197773,0.6064189972019602,0.019601287936113487
2.9931267218198627,,0.09842587,-0.016518662,0.36035168,-0.6121212,-0.43033755,-0.6634133,-0.75074756,0.052760765,0.65847886,-0.24836597,0.9011247,-0.35537076,,0.06451148,-0.024989126,0.64600486,0.12006498,-0.9900168,-0.07383187,-0.9776853,-0.13082725,0.16436504,-0.17238341,0.05244985,-0.98363245,,0.07574927,-0.019806853,0.2044682,-0.98860365,0.12973562,-0.076364316,0.10820353,0.96504104,0.23872125,0.10466536,0.22773784,-0.9680808,,-0.6113547025222349,0.009722920688648658,0.07871591396000001,0.07108489084125376,0.001503001497419845,0.5420197037342187,-0.034465597954332905,,-1.4560208879076664,-0.13676959920251608,0.14581577323,0.04759961717098703,0.003962458493197773,0.6064189972019602,0.019601287936113487
3.0163092508446425,,0.09842587,-0.016518662,0.36035168,-0.6121212,-0.43033755,-0.6634133,-0.75074756,0.052760765,0.65847886,-0.24836597,0.9011247,-0.35537076,,0.06451148,-0.024989126,0.64600486,0.12006498,-0.9900168,-0.07383187,-0.9776853,-0.13082725,0.16436504,-0.17238341,0.05244985,-0.98363245,,0.07574927,-0.019806853,0.2044682,-0.98860365,0.12973562,-0.076364316,0.10820353,0.96504104,0.23872125,0.10466536,0.22773784,-0.9680808,,-0.6113547025222349,0.009722920688648658,0.07871591396000001,0.07108489084125376,0.001503001497419845,0.5420197037342187,-0.034465597954332905,,-1.4560208879076664,-0.13676959920251608,0.14581577323,0.04759961717098703,0.003962458493197773,0.6064189972019602,0.019601287936113487
3.0388492529746145,,0.098426186,-0.016518226,0.36035183,-0.6121239,-0.43033963,-0.66340953,-0.7507435,0.052757427,0.65848374,-0.2483719,0.90112394,-0.35536864,,0.06451148,-0.024989126,0.64600486,0.12006498,-0.9900168,-0.07383187,-0.9776853,-0.13082725,0.16436504,-0.17238341,0.05244985,-0.98363245,,0.07574927,-0.019806853,0.2044682,-0.98860365,0.12973562,-0.076364316,0.10820353,0.96504104,0.23872125,0.10466536,0.22773784,-0.9680808,,-0.6113547025222349,0.009730643421522881,0.07871591396000001,0.07108489084125376,0.001503001497419845,0.5420197037342187,-0.034465597954332905,,-1.4560208879076664,-0.13676959920251608,0.14581577323,0.04759961717098703,0.003962458493197773,0.6064189972019602,0.019601287936113487
3.0639469099696726,,0.098425455,-0.016518472,0.36035198,-0.6121211,-0.43033224,-0.6634169,-0.75074786,0.052755952,0.6584789,-0.24836548,0.9011276,-0.3553639,,0.06451148,-0.024989126,0.64600486,0.12006498,-0.9900168,-0.07383187,-0.9776853,-0.13082725,0.16436504,-0.17238341,0.05244985,-0.98363245,,0.07574927,-0.019806853,0.2044682,-0.98860365,0.12973562,-0.076364316,0.10820353,0.96504104,0.23872125,0.10466536,0.22773784,-0.9680808,,-0.6113469797893606,0.009722920688648658,0.07871591396000001,0.07108489084125376,0.001503001497419845,0.5420197037342187,-0.034465597954332905,,-1.4560208879076664,-0.13676959920251608,0.14581577323,0.04759961717098703,0.003962458493197773,0.6064189972019602,0.019601287936113487
3.0778136448934674,,0.098425455,-0.016518472,0.36035198,-0.6121211,-0.43033224,-0.6634169,-0.75074786,0.052755952,0.6584789,-0.24836548,0.9011276,-0.3553639,,0.06451148,-0.024989126,0.64600486,0.12006498,-0.9900168,-0.07383187,-0.9776853,-0.13082725,0.16436504,-0.17238341,0.05244985,-0.98363245,,0.07574927,-0.019806853,0.2044682,-0.98860365,0.12973562,-0.076364316,0.10820353,0.96504104,0.23872125,0.10466536,0.22773784,-0.9680808,,-0.6113469797893606,0.009722920688648658,0.07871591396000001,0.07108489084125376,0.001503001497419845,0.5420197037342187,-0.034465597954332905,,-1.4560208879076664,-0.13676959920251608,0.14581577323,0.04759961717098703,0.003962458493197773,0.6064189972019602,0.019601287936113487
3.105562931858003,,0.09842587,-0.016518662,0.36035168,-0.6121212,-0.43033755,-0.6634133,-0.75074756,0.052760765,0.65847886,-0.24836597,0.9011247,-0.35537076,,0.06451148,-0.024989126,0.64600486,0.12006498,-0.9900168,-0.07383187,-0.9776853,-0.13082725,0.16436504,-0.17238341,0.05244985,-0.98363245,,0.07574927,-0.019806853,0.2044682,-0.98860365,0.12973562,-0.076364316,0.10820353,0.96504104,0.23872125,0.10466536,0.22773784,-0.9680808,,-0.6113547025222349,0.009722920688648658,0.07871591396000001,0.07108489084125376,0.001503001497419845,0.5420197037342187,-0.034465597954332905,,-1.4560208879076664,-0.13676959920251608,0.14581577323,0.04759961717098703,0.003962458493197773,0.6064189972019602,0.019601287936113487
3.1254097488708794,,0.09842587,-0.016518662,0.36035168,-0.6121212,-0.43033755,-0.6634133,-0.75074756,0.052760765,0.65847886,-0.24836597,0.9011247,-0.35537076,,0.06451148,-0.024989126,0.64600486,0.12006498,-0.9900168,-0.07383187,-0.9776853,-0.13082725,0.16436504,-0.17238341,0.05244985,-0.98363245,,0.07574927,-0.019806853,0.2044682,-0.98860365,0.12973562,-0.076364316,0.10820353,0.96504104,0.23872125,0.10466536,0.22773784,-0.9680808,,-0.6113547025222349,0.009722920688648658,0.07871591396000001,0.07108489084125376,0.001503001497419845,0.5420197037342187,-0.034465597954332905,,-1.4560208879076664,-0.13676959920251608,0.14581577323,0.04759961717098703,0.003962458493197773,0.6064189972019602,0.019601287936113487
3.146128933876753,,0.098425455,-0.016518472,0.36035198,-0.6121211,-0.43033224,-0.6634169,-0.75074786,0.052755952,0.6584789,-0.24836548,0.9011276,-0.3553639,,0.06451148,-0.024989126,0.64600486,0.12006498,-0.9900168,-0.07383187,-0.9776853,-0.13082725,0.16436504,-0.17238341,0.05244985,-0.98363245,,0.07574927,-0.019806853,0.2044682,-0.98860365,0.12973562,-0.076364316,0.10820353,0.96504104,0.23872125,0.10466536,0.22773784,-0.9680808,,-0.6113469797893606,0.009722920688648658,0.07871591396000001,0.07108489084125376,0.001503001497419845,0.5420197037342187,-0.034465597954332905,,-1.4560208879076664,-0.13676959920251608,0.14581577323,0.04759961717098703,0.003962458493197773,0.6064189972019602,0.019601287936113487
3.1689445360098034,,0.09842587,-0.016518662,0.36035168,-0.6121212,-0.43033755,-0.6634133,-0.75074756,0.052760765,0.65847886,-0.24836597,0.9011247,-0.35537076,,0.06451148,-0.024989126,0.64600486,0.12006498,-0.9900168,-0.07383187,-0.9776853,-0.13082725,0.16436504,-0.17238341,0.05244985,-0.98363245,,0.07574927,-0.019806853,0.2044682,-0.98860365,0.12973562,-0.076364316,0.10820353,0.96504104,0.23872125,0.10466536,0.22773784,-0.9680808,,-0.6113547025222349,0.009722920688648658,0.07871591396000001,0.07108489084125376,0.001503001497419845,0.5420197037342187,-0.034465597954332905,,-1.4560208879076664,-0.13676959920251608,0.14581577323,0.04759961717098703,0.003962458493197773,0.6064189972019602,0.019601287936113487
3.1961262978147715,,0.09842587,-0.016518662,0.36035168,-0.6121212,-0.43033755,-0.6634133,-0.75074756,0.052760765,0.65847886,-0.24836597,0.9011247,-0.35537076,,0.06451329,-0.024989,0.6460059,0.120063595,-0.9900181,-0.07381694,-0.97768515,-0.1308235,0.16436878,-0.17238508,0.052435014,-0.983633,,0.07574927,-0.019806853,0.2044682,-0.98860365,0.12973562,-0.076364316,0.10820353,0.96504104,0.23872125,0.10466536,0.22773784,-0.9680808,,-0.6113547025222349,0.009722920688648658,0.07871591396000001,0.07108489084125376,0.001503001497419845,0.5420197037342187,-0.034465597954332905,,-1.4560363333734148,-0.13676959920251608,0.14581577323,0.04759961717098703,0.003962458493197773,0.6064189972019602,0.019601287936113487
3.218392991926521,,0.09842587,-0.016518662,0.36035168,-0.6121212,-0.43033755,-0.6634133,-0.75074756,0.052760765,0.65847886,-0.24836597,0.9011247,-0.35537076,,0.06451329,-0.024989,0.6460059,0.120063595,-0.9900181,-0.07381694,-0.97768515,-0.1308235,0.16436878,-0.17238508,0.052435014,-0.983633,,0.07574927,-0.019806853,0.2044682,-0.98860365,0.12973562,-0.076364316,0.10820353,0.96504104,0.23872125,0.10466536,0.22773784,-0.9680808,,-0.6113547025222349,0.009722920688648658,0.07871591396000001,0.07108489084125376,0.001503001497419845,0.5420197037342187,-0.034465597954332905,,-1.4560363333734148,-0.13676959920251608,0.14581577323,0.04759961717098703,0.003962458493197773,0.6064189972019602,0.019601287936113487
3.2430382198654115,,0.09842587,-0.016518662,0.36035168,-0.6121212,-0.43033755,-0.6634133,-0.75074756,0.052760765,0.65847886,-0.24836597,0.9011247,-0.35537076,,0.06451329,-0.024989,0.6460059,0.120063595,-0.9900181,-0.07381694,-0.97768515,-0.1308235,0.16436878,-0.17238508,0.052435014,-0.983633,,0.07574927,-0.019806853,0.2044682,-0.98860365,0.12973562,-0.076364316,0.10820353,0.96504104,0.23872125,0.10466536,0.22773784,-0.9680808,,-0.6113547025222349,0.009722920688648658,0.07871591396000001,0.07108489084125376,0.001503001497419845,0.5420197037342187,-0.034465597954332905,,-1.4560363333734148,-0.13676959920251608,0.14581577323,0.04759961717098703,0.003962458493197773,0.6064189972019602,0.019601287936113487
3.2675655798520893,,0.098425455,-0.016518472,0.36035198,-0.6121211,-0.43033224,-0.6634169,-0.75074786,0.052755952,0.6584789,-0.24836548,0.9011276,-0.3553639,,0.06451329,-0.024989,0.6460059,0.120063595,-0.9900181,-0.07381694,-0.97768515,-0.1308235,0.16436878,-0.17238508,0.052435014,-0.983633,,0.07574927,-0.019806853,0.2044682,-0.98860365,0.12973562,-0.076364316,0.10820353,0.96504104,0.23872125,0.10466536,0.22773784,-0.9680808,,-0.6113469797893606,0.009722920688648658,0.07871591396000001,0.07108489084125376,0.001503001497419845,0.5420197037342187,-0.034465597954332905,,-1.4560363333734148,-0.13676959920251608,0.14581577323,0.04759961717098703,0.003962458493197773,0.6064189972019602,0.019601287936113487
3.2906942579429597,,0.098425455,-0.016518472,0.36035198,-0.6121211,-0.43033224,-0.6634169,-0.75074786,0.052755952,0.6584789,-0.24836548,0.9011276,-0.3553639,,0.06451329,-0.024989,0.6460059,0.120063595,-0.9900181,-0.07381694,-0.97768515,-0.1308235,0.16436878,-0.17238508,0.052435014,-0.983633,,0.07574927,-0.019806853,0.2044682,-0.98860365,0.12973562,-0.076364316,0.10820353,0.96504104,0.23872125,0.10466536,0.22773784,-0.9680808,,-0.6113469797893606,0.009722920688648658,0.07871591396000001,0.07108489084125376,0.001503001497419845,0.5420197037342187,-0.034465597954332905,,-1.4560363333734148,-0.13676959920251608,0.14581577323,0.04759961717098703,0.003962458493197773,0.6064189972019602,0.019601287936113487
