AlexandreBanks6/ExpertPlaybackApp/resources/Motions/Motion_11.csv
Time,si_T_psm1,Tx,Ty,Tz,R00,R01,R02,R10,R11,R12,R20,R21,R22,si_T_psm3,Tx,Ty,Tz,R00,R01,R02,R10,R11,R12,R20,R21,R22,si_T_ecm,Tx,Ty,Tz,R00,R01,R02,R10,R11,R12,R20,R21,R22,joint_vars_psm1,q1,q2,q3,q4,q5,q6,jaw,joint_vars_psm3,q1,q2,q3,q4,q5,q6,jaw
lci_T_si
0,0.0,0.0,0.0,0.9993021,-0.026403897,0.02642242,-0.029111478,-0.9937276,0.10797193,0.023405809,-0.10866577,-0.9938028
rci_T_si
0.02802000900010171,,-0.037361834,0.06139234,0.1714208,0.05820657,-0.5070276,-0.859962,-0.9930305,-0.11783558,0.0022618473,-0.10248099,0.8538371,-0.51035273,,-0.13702102,0.1050799,0.40294638,-0.021859117,0.5804351,-0.8140128,-0.9757976,0.164811,0.14372292,0.21758018,0.7974535,0.56278473,,-7.709561e-06,-1.4678474e-06,4.9817736e-06,-0.84187293,-0.51363915,0.16560316,-0.5379165,0.82340056,-0.18071316,-0.043536358,-0.24121821,-0.96949387,,-0.005838386052913729,0.028952525545467688,0.12527994705,0.004613178756659536,0.4047173123052346,0.43996565255627995,0.5117569591986968,,-1.5057321194190496,0.15754375063418,0.10738984876000002,1.3977931632678393,-0.3881842958336163,2.1242521411924566,-0.10748039551635546
0.056570422999357106,,-0.037362587,0.06139224,0.1714213,0.058203913,-0.5070217,-0.8599656,-0.99303085,-0.11783266,0.0022623315,-0.102479145,0.8538409,-0.51034665,,-0.13702102,0.1050799,0.40294638,-0.021859117,0.5804351,-0.8140128,-0.9757976,0.164811,0.14372292,0.21758018,0.7974535,0.56278473,,-7.709561e-06,-1.4678474e-06,4.9817736e-06,-0.84187293,-0.51363915,0.16560316,-0.5379165,0.82340056,-0.18071316,-0.043536358,-0.24121821,-0.96949387,,-0.005830663320039505,0.028952525545467688,0.12527994705,0.004613178756659536,0.4047173123052346,0.43996565255627995,0.5117569591986968,,-1.5057321194190496,0.15754375063418,0.10738984876000002,1.3977931632678393,-0.3881842958336163,2.1242521411924566,-0.10748039551635546
0.08691892799834022,,-0.037361834,0.06139234,0.1714208,0.05820657,-0.5070276,-0.859962,-0.9930305,-0.11783558,0.0022618473,-0.10248099,0.8538371,-0.51035273,,-0.13702084,0.105080634,0.4029464,-0.021859044,0.58043367,-0.8140139,-0.9757992,0.16480532,0.1437183,0.21757281,0.79745585,0.5627843,,-7.709561e-06,-1.4678474e-06,4.9817736e-06,-0.84187293,-0.51363915,0.16560316,-0.5379165,0.82340056,-0.18071316,-0.043536358,-0.24121821,-0.96949387,,-0.005838386052913729,0.028952525545467688,0.12527994705,0.004613178756659536,0.4047173123052346,0.43996565255627995,0.5117569591986968,,-1.5057398421519237,0.15754375063418,0.10738984876000002,1.3977931632678393,-0.3881842958336163,2.1242521411924566,-0.10748039551635546
0.13397071799954574,,-0.037362587,0.06139224,0.1714213,0.058203913,-0.5070217,-0.8599656,-0.99303085,-0.11783266,0.0022623315,-0.102479145,0.8538409,-0.51034665,,-0.13702084,0.105080634,0.4029464,-0.021859044,0.58043367,-0.8140139,-0.9757992,0.16480532,0.1437183,0.21757281,0.79745585,0.5627843,,-7.709561e-06,-1.4678474e-06,4.9817736e-06,-0.84187293,-0.51363915,0.16560316,-0.5379165,0.82340056,-0.18071316,-0.043536358,-0.24121821,-0.96949387,,-0.005830663320039505,0.028952525545467688,0.12527994705,0.004613178756659536,0.4047173123052346,0.43996565255627995,0.5117569591986968,,-1.5057398421519237,0.15754375063418,0.10738984876000002,1.3977931632678393,-0.3881842958336163,2.1242521411924566,-0.10748039551635546
0.18515061199832417,,-0.037363075,0.061392184,0.17142163,0.05852458,-0.50686526,-0.8600362,-0.99298966,-0.1181823,0.0020793155,-0.10269503,0.85388553,-0.51022863,,-0.13702102,0.1050799,0.40294638,-0.021859117,0.5804351,-0.8140128,-0.9757976,0.164811,0.14372292,0.21758018,0.7974535,0.56278473,,-7.709561e-06,-1.4678474e-06,4.9817736e-06,-0.84187293,-0.51363915,0.16560316,-0.5379165,0.82340056,-0.18071316,-0.043536358,-0.24121821,-0.96949387,,-0.005838386052913729,0.028952525545467688,0.12527994705,0.0041937988696904875,0.4047173123052346,0.43996565255627995,0.5117569591986968,,-1.5057321194190496,0.15754375063418,0.10738984876000002,1.3977931632678393,-0.3881842958336163,2.1242521411924566,-0.10748039551635546
0.2277505679994647,,-0.037363075,0.061392184,0.17142163,0.05852458,-0.50686526,-0.8600362,-0.99298966,-0.1181823,0.0020793155,-0.10269503,0.85388553,-0.51022863,,-0.13702084,0.105080634,0.4029464,-0.021859044,0.58043367,-0.8140139,-0.9757992,0.16480532,0.1437183,0.21757281,0.79745585,0.5627843,,-7.709561e-06,-1.4678474e-06,4.9817736e-06,-0.84187293,-0.51363915,0.16560316,-0.5379165,0.82340056,-0.18071316,-0.043536358,-0.24121821,-0.96949387,,-0.005838386052913729,0.028952525545467688,0.12527994705,0.0041937988696904875,0.4047173123052346,0.43996565255627995,0.5117569591986968,,-1.5057398421519237,0.15754375063418,0.10738984876000002,1.3977931632678393,-0.3881842958336163,2.1242521411924566,-0.10748039551635546
0.2814517859987973,,-0.037363827,0.061392084,0.17142215,0.058521956,-0.5068594,-0.8600397,-0.99299,-0.118179396,0.0020797998,-0.1026932,0.8538894,-0.51022243,,-0.13702084,0.105080634,0.4029464,-0.021859044,0.58043367,-0.8140139,-0.9757992,0.16480532,0.1437183,0.21757281,0.79745585,0.5627843,,-7.709561e-06,-1.4678474e-06,4.9817736e-06,-0.84187293,-0.51363915,0.16560316,-0.5379165,0.82340056,-0.18071316,-0.043536358,-0.24121821,-0.96949387,,-0.005830663320039505,0.028952525545467688,0.12527994705,0.0041937988696904875,0.4047173123052346,0.43996565255627995,0.5117569591986968,,-1.5057398421519237,0.15754375063418,0.10738984876000002,1.3977931632678393,-0.3881842958336163,2.1242521411924566,-0.10748039551635546
0.3164121329991758,,-0.037363075,0.061392184,0.17142163,0.05852458,-0.50686526,-0.8600362,-0.99298966,-0.1181823,0.0020793155,-0.10269503,0.85388553,-0.51022863,,-0.13702084,0.105080634,0.4029464,-0.021859044,0.58043367,-0.8140139,-0.9757992,0.16480532,0.1437183,0.21757281,0.79745585,0.5627843,,-7.709561e-06,-1.4678474e-06,4.9817736e-06,-0.84187293,-0.51363915,0.16560316,-0.5379165,0.82340056,-0.18071316,-0.043536358,-0.24121821,-0.96949387,,-0.005838386052913729,0.028952525545467688,0.12527994705,0.0041937988696904875,0.4047173123052346,0.43996565255627995,0.5117569591986968,,-1.5057398421519237,0.15754375063418,0.10738984876000002,1.3977931632678393,-0.3881842958336163,2.1242521411924566,-0.10748039551635546
0.3601433999992878,,-0.037363075,0.061392184,0.17142163,0.05852458,-0.50686526,-0.8600362,-0.99298966,-0.1181823,0.0020793155,-0.10269503,0.85388553,-0.51022863,,-0.13702084,0.105080634,0.4029464,-0.021859044,0.58043367,-0.8140139,-0.9757992,0.16480532,0.1437183,0.21757281,0.79745585,0.5627843,,-7.709561e-06,-1.4678474e-06,4.9817736e-06,-0.84187293,-0.51363915,0.16560316,-0.5379165,0.82340056,-0.18071316,-0.043536358,-0.24121821,-0.96949387,,-0.005838386052913729,0.028952525545467688,0.12527994705,0.0041937988696904875,0.4047173123052346,0.43996565255627995,0.5117569591986968,,-1.5057398421519237,0.15754375063418,0.10738984876000002,1.3977931632678393,-0.3881842958336163,2.1242521411924566,-0.10748039551635546
0.41127153399975214,,-0.037363827,0.061392084,0.17142215,0.058521956,-0.5068594,-0.8600397,-0.99299,-0.118179396,0.0020797998,-0.1026932,0.8538894,-0.51022243,,-0.13702084,0.105080634,0.4029464,-0.021859044,0.58043367,-0.8140139,-0.9757992,0.16480532,0.1437183,0.21757281,0.79745585,0.5627843,,-7.709561e-06,-1.4678474e-06,4.9817736e-06,-0.84187293,-0.51363915,0.16560316,-0.5379165,0.82340056,-0.18071316,-0.043536358,-0.24121821,-0.96949387,,-0.005830663320039505,0.028952525545467688,0.12527994705,0.0041937988696904875,0.4047173123052346,0.43996565255627995,0.5117569591986968,,-1.5057398421519237,0.15754375063418,0.10738984876000002,1.3977931632678393,-0.3881842958336163,2.1242521411924566,-0.10748039551635546
0.44215617699956056,,-0.037363827,0.061392084,0.17142215,0.058521956,-0.5068594,-0.8600397,-0.99299,-0.118179396,0.0020797998,-0.1026932,0.8538894,-0.51022243,,-0.13702102,0.1050799,0.40294638,-0.021859117,0.5804351,-0.8140128,-0.9757976,0.164811,0.14372292,0.21758018,0.7974535,0.56278473,,-7.709561e-06,-1.4678474e-06,4.9817736e-06,-0.84187293,-0.51363915,0.16560316,-0.5379165,0.82340056,-0.18071316,-0.043536358,-0.24121821,-0.96949387,,-0.005830663320039505,0.028952525545467688,0.12527994705,0.0041937988696904875,0.4047173123052346,0.43996565255627995,0.5117569591986968,,-1.5057321194190496,0.15754375063418,0.10738984876000002,1.3977931632678393,-0.3881842958336163,2.1242521411924566,-0.10748039551635546
0.48038832699967315,,-0.037363827,0.061392084,0.17142215,0.058521956,-0.5068594,-0.8600397,-0.99299,-0.118179396,0.0020797998,-0.1026932,0.8538894,-0.51022243,,-0.13702084,0.105080634,0.4029464,-0.021859044,0.58043367,-0.8140139,-0.9757992,0.16480532,0.1437183,0.21757281,0.79745585,0.5627843,,-7.709561e-06,-1.4678474e-06,4.9817736e-06,-0.84187293,-0.51363915,0.16560316,-0.5379165,0.82340056,-0.18071316,-0.043536358,-0.24121821,-0.96949387,,-0.005830663320039505,0.028952525545467688,0.12527994705,0.0041937988696904875,0.4047173123052346,0.43996565255627995,0.5117569591986968,,-1.5057398421519237,0.15754375063418,0.10738984876000002,1.3977931632678393,-0.3881842958336163,2.1242521411924566,-0.10748039551635546
0.5239603699992585,,-0.0373282,0.061395448,0.17142086,0.058569938,-0.5068416,-0.860047,-0.9929867,-0.11820795,0.0020390153,-0.10269788,0.8538961,-0.5102105,,-0.13706322,0.104996696,0.40294948,-0.021953601,0.58045936,-0.8139931,-0.9757897,0.16477454,0.14381832,0.21760608,0.79744357,0.56278896,,-1.137367e-05,-5.567464e-06,1.1145123e-05,-0.8418717,-0.51364136,0.1656029,-0.53791857,0.8233992,-0.18071327,-0.043535464,-0.24121828,-0.9694939,,-0.005838386052913729,0.028952525545467688,0.12527994705,0.0041937988696904875,0.4047173123052346,0.43996565255627995,0.5117569591986968,,-1.5057321194190496,0.15754375063418,0.10738984876000002,1.3977931632678393,-0.3881842958336163,2.1242521411924566,-0.10748039551635546
0.5660389479999139,,-0.0373282,0.061395448,0.17142086,0.058569938,-0.5068416,-0.860047,-0.9929867,-0.11820795,0.0020390153,-0.10269788,0.8538961,-0.5102105,,-0.13706307,0.10499744,0.40294957,-0.021953441,0.5804578,-0.8139941,-0.97579134,0.1647689,0.14381368,0.21759874,0.7974459,0.5627886,,-1.137367e-05,-5.567464e-06,1.1145123e-05,-0.8418717,-0.51364136,0.1656029,-0.53791857,0.8233992,-0.18071327,-0.043535464,-0.24121828,-0.9694939,,-0.005838386052913729,0.028952525545467688,0.12527994705,0.0041937988696904875,0.4047173123052346,0.43996565255627995,0.5117569591986968,,-1.5057398421519237,0.15754375063418,0.10738984876000002,1.3977931632678393,-0.3881842958336163,2.1242521411924566,-0.10748039551635546
0.6032055380001111,,-0.037328947,0.061395347,0.17142136,0.05856729,-0.50683576,-0.8600506,-0.99298704,-0.118205026,0.0020395592,-0.102696046,0.85389996,-0.5102044,,-0.13706307,0.10499744,0.40294957,-0.021953441,0.5804578,-0.8139941,-0.97579134,0.1647689,0.14381368,0.21759874,0.7974459,0.5627886,,-1.137367e-05,-5.567464e-06,1.1145123e-05,-0.8418717,-0.51364136,0.1656029,-0.53791857,0.8233992,-0.18071327,-0.043535464,-0.24121828,-0.9694939,,-0.005830663320039505,0.028952525545467688,0.12527994705,0.0041937988696904875,0.4047173123052346,0.43996565255627995,0.5117569591986968,,-1.5057398421519237,0.15754375063418,0.10738984876000002,1.3977931632678393,-0.3881842958336163,2.1242521411924566,-0.10748039551635546
0.6334445839984255,,-0.0373282,0.061395448,0.17142086,0.058569938,-0.5068416,-0.860047,-0.9929867,-0.11820795,0.0020390153,-0.10269788,0.8538961,-0.5102105,,-0.13706307,0.10499744,0.40294957,-0.021953441,0.5804578,-0.8139941,-0.97579134,0.1647689,0.14381368,0.21759874,0.7974459,0.5627886,,-1.137367e-05,-5.567464e-06,1.1145123e-05,-0.8418717,-0.51364136,0.1656029,-0.53791857,0.8233992,-0.18071327,-0.043535464,-0.24121828,-0.9694939,,-0.005838386052913729,0.028952525545467688,0.12527994705,0.0041937988696904875,0.4047173123052346,0.43996565255627995,0.5117569591986968,,-1.5057398421519237,0.15754375063418,0.10738984876000002,1.3977931632678393,-0.3881842958336163,2.1242521411924566,-0.10748039551635546
0.6939365469988843,,-0.0373282,0.061395448,0.17142086,0.058569938,-0.5068416,-0.860047,-0.9929867,-0.11820795,0.0020390153,-0.10269788,0.8538961,-0.5102105,,-0.13706307,0.10499744,0.40294957,-0.021953441,0.5804578,-0.8139941,-0.97579134,0.1647689,0.14381368,0.21759874,0.7974459,0.5627886,,-1.137367e-05,-5.567464e-06,1.1145123e-05,-0.8418717,-0.51364136,0.1656029,-0.53791857,0.8233992,-0.18071327,-0.043535464,-0.24121828,-0.9694939,,-0.005838386052913729,0.028952525545467688,0.12527994705,0.0041937988696904875,0.4047173123052346,0.43996565255627995,0.5117569591986968,,-1.5057398421519237,0.15754375063418,0.10738984876000002,1.3977931632678393,-0.3881842958336163,2.1242521411924566,-0.10748039551635546
0.7326743769990571,,-0.0373282,0.061395448,0.17142086,0.058569938,-0.5068416,-0.860047,-0.9929867,-0.11820795,0.0020390153,-0.10269788,0.8538961,-0.5102105,,-0.13706322,0.104996696,0.40294948,-0.021953601,0.58045936,-0.8139931,-0.9757897,0.16477454,0.14381832,0.21760608,0.79744357,0.56278896,,-1.137367e-05,-5.567464e-06,1.1145123e-05,-0.8418717,-0.51364136,0.1656029,-0.53791857,0.8233992,-0.18071327,-0.043535464,-0.24121828,-0.9694939,,-0.005838386052913729,0.028952525545467688,0.12527994705,0.0041937988696904875,0.4047173123052346,0.43996565255627995,0.5117569591986968,,-1.5057321194190496,0.15754375063418,0.10738984876000002,1.3977931632678393,-0.3881842958336163,2.1242521411924566,-0.10748039551635546
0.7747399009986111,,-0.037328947,0.061395347,0.17142136,0.05856729,-0.50683576,-0.8600506,-0.99298704,-0.118205026,0.0020395592,-0.102696046,0.85389996,-0.5102044,,-0.13706307,0.10499744,0.40294957,-0.021953441,0.5804578,-0.8139941,-0.97579134,0.1647689,0.14381368,0.21759874,0.7974459,0.5627886,,-1.137367e-05,-5.567464e-06,1.1145123e-05,-0.8418717,-0.51364136,0.1656029,-0.53791857,0.8233992,-0.18071327,-0.043535464,-0.24121828,-0.9694939,,-0.005830663320039505,0.028952525545467688,0.12527994705,0.0041937988696904875,0.4047173123052346,0.43996565255627995,0.5117569591986968,,-1.5057398421519237,0.15754375063418,0.10738984876000002,1.3977931632678393,-0.3881842958336163,2.1242521411924566,-0.10748039551635546
0.8106168790000083,,-0.037328947,0.061395347,0.17142136,0.05856729,-0.50683576,-0.8600506,-0.99298704,-0.118205026,0.0020395592,-0.102696046,0.85389996,-0.5102044,,-0.13706307,0.10499744,0.40294957,-0.021953441,0.5804578,-0.8139941,-0.97579134,0.1647689,0.14381368,0.21759874,0.7974459,0.5627886,,-1.137367e-05,-5.567464e-06,1.1145123e-05,-0.8418717,-0.51364136,0.1656029,-0.53791857,0.8233992,-0.18071327,-0.043535464,-0.24121828,-0.9694939,,-0.005830663320039505,0.028952525545467688,0.12527994705,0.0041937988696904875,0.4047173123052346,0.43996565255627995,0.5117569591986968,,-1.5057398421519237,0.15754375063418,0.10738984876000002,1.3977931632678393,-0.3881842958336163,2.1242521411924566,-0.10748039551635546
0.8502540109984693,,-0.037326958,0.06139561,0.17142002,0.05825196,-0.507004,-0.8599729,-0.9930275,-0.117861256,0.0022215173,-0.10248385,0.85384756,-0.5103346,,-0.13706322,0.104996696,0.40294948,-0.021953601,0.58045936,-0.8139931,-0.9757897,0.16477454,0.14381832,0.21760608,0.79744357,0.56278896,,-1.137367e-05,-5.567464e-06,1.1145123e-05,-0.8418717,-0.51364136,0.1656029,-0.53791857,0.8233992,-0.18071327,-0.043535464,-0.24121828,-0.9694939,,-0.005838386052913729,0.028952525545467688,0.12527994705,0.004613178756659536,0.4047173123052346,0.43996565255627995,0.5117569591986968,,-1.5057321194190496,0.15754375063418,0.10738984876000002,1.3977931632678393,-0.3881842958336163,2.1242521411924566,-0.10748039551635546
0.8970692119983141,,-0.037327707,0.061395507,0.17142053,0.05824928,-0.5069981,-0.85997653,-0.9930278,-0.11785835,0.0022220537,-0.10248202,0.85385144,-0.51032853,,-0.13706307,0.10499744,0.40294957,-0.021953441,0.5804578,-0.8139941,-0.97579134,0.1647689,0.14381368,0.21759874,0.7974459,0.5627886,,-1.137367e-05,-5.567464e-06,1.1145123e-05,-0.8418717,-0.51364136,0.1656029,-0.53791857,0.8233992,-0.18071327,-0.043535464,-0.24121828,-0.9694939,,-0.005830663320039505,0.028952525545467688,0.12527994705,0.004613178756659536,0.4047173123052346,0.43996565255627995,0.5117569591986968,,-1.5057398421519237,0.15754375063418,0.10738984876000002,1.3977931632678393,-0.3881842958336163,2.1242521411924566,-0.10748039551635546
0.9344227769997815,,-0.037326958,0.06139561,0.17142002,0.05825196,-0.507004,-0.8599729,-0.9930275,-0.117861256,0.0022215173,-0.10248385,0.85384756,-0.5103346,,-0.13706307,0.10499744,0.40294957,-0.021953441,0.5804578,-0.8139941,-0.97579134,0.1647689,0.14381368,0.21759874,0.7974459,0.5627886,,-1.137367e-05,-5.567464e-06,1.1145123e-05,-0.8418717,-0.51364136,0.1656029,-0.53791857,0.8233992,-0.18071327,-0.043535464,-0.24121828,-0.9694939,,-0.005838386052913729,0.028952525545467688,0.12527994705,0.004613178756659536,0.4047173123052346,0.43996565255627995,0.5117569591986968,,-1.5057398421519237,0.15754375063418,0.10738984876000002,1.3977931632678393,-0.3881842958336163,2.1242521411924566,-0.10748039551635546
0.9767048829999112,,-0.037327707,0.061395507,0.17142053,0.05824928,-0.5069981,-0.85997653,-0.9930278,-0.11785835,0.0022220537,-0.10248202,0.85385144,-0.51032853,,-0.13706307,0.10499744,0.40294957,-0.021953441,0.5804578,-0.8139941,-0.97579134,0.1647689,0.14381368,0.21759874,0.7974459,0.5627886,,-1.137367e-05,-5.567464e-06,1.1145123e-05,-0.8418717,-0.51364136,0.1656029,-0.53791857,0.8233992,-0.18071327,-0.043535464,-0.24121828,-0.9694939,,-0.005830663320039505,0.028952525545467688,0.12527994705,0.004613178756659536,0.4047173123052346,0.43996565255627995,0.5117569591986968,,-1.5057398421519237,0.15754375063418,0.10738984876000002,1.3977931632678393,-0.3881842958336163,2.1242521411924566,-0.10748039551635546
1.0261919109998416,,-0.037327707,0.061395507,0.17142053,0.05824928,-0.5069981,-0.85997653,-0.9930278,-0.11785835,0.0022220537,-0.10248202,0.85385144,-0.51032853,,-0.13706322,0.104996696,0.40294948,-0.021953601,0.58045936,-0.8139931,-0.9757897,0.16477454,0.14381832,0.21760608,0.79744357,0.56278896,,-1.137367e-05,-5.567464e-06,1.1145123e-05,-0.8418717,-0.51364136,0.1656029,-0.53791857,0.8233992,-0.18071327,-0.043535464,-0.24121828,-0.9694939,,-0.005830663320039505,0.028952525545467688,0.12527994705,0.004613178756659536,0.4047173123052346,0.43996565255627995,0.5117569591986968,,-1.5057321194190496,0.15754375063418,0.10738984876000002,1.3977931632678393,-0.3881842958336163,2.1242521411924566,-0.10748039551635546
1.082435832999181,,-0.037326958,0.06139561,0.17142002,0.05825196,-0.507004,-0.8599729,-0.9930275,-0.117861256,0.0022215173,-0.10248385,0.85384756,-0.5103346,,-0.13706322,0.104996696,0.40294948,-0.021953601,0.58045936,-0.8139931,-0.9757897,0.16477454,0.14381832,0.21760608,0.79744357,0.56278896,,-1.137367e-05,-5.567464e-06,1.1145123e-05,-0.8418717,-0.51364136,0.1656029,-0.53791857,0.8233992,-0.18071327,-0.043535464,-0.24121828,-0.9694939,,-0.005838386052913729,0.028952525545467688,0.12527994705,0.004613178756659536,0.4047173123052346,0.43996565255627995,0.5117569591986968,,-1.5057321194190496,0.15754375063418,0.10738984876000002,1.3977931632678393,-0.3881842958336163,2.1242521411924566,-0.10748039551635546
1.11411374599993,,-0.037327707,0.061395507,0.17142053,0.05824928,-0.5069981,-0.85997653,-0.9930278,-0.11785835,0.0022220537,-0.10248202,0.85385144,-0.51032853,,-0.13706322,0.104996696,0.40294948,-0.021953601,0.58045936,-0.8139931,-0.9757897,0.16477454,0.14381832,0.21760608,0.79744357,0.56278896,,-1.137367e-05,-5.567464e-06,1.1145123e-05,-0.8418717,-0.51364136,0.1656029,-0.53791857,0.8233992,-0.18071327,-0.043535464,-0.24121828,-0.9694939,,-0.005830663320039505,0.028952525545467688,0.12527994705,0.004613178756659536,0.4047173123052346,0.43996565255627995,0.5117569591986968,,-1.5057321194190496,0.15754375063418,0.10738984876000002,1.3977931632678393,-0.3881842958336163,2.1242521411924566,-0.10748039551635546
1.1534499829995184,,-0.037327707,0.061395507,0.17142053,0.05824928,-0.5069981,-0.85997653,-0.9930278,-0.11785835,0.0022220537,-0.10248202,0.85385144,-0.51032853,,-0.13706322,0.104996696,0.40294948,-0.021953601,0.58045936,-0.8139931,-0.9757897,0.16477454,0.14381832,0.21760608,0.79744357,0.56278896,,-1.137367e-05,-5.567464e-06,1.1145123e-05,-0.8418717,-0.51364136,0.1656029,-0.53791857,0.8233992,-0.18071327,-0.043535464,-0.24121828,-0.9694939,,-0.005830663320039505,0.028952525545467688,0.12527994705,0.004613178756659536,0.4047173123052346,0.43996565255627995,0.5117569591986968,,-1.5057321194190496,0.15754375063418,0.10738984876000002,1.3977931632678393,-0.3881842958336163,2.1242521411924566,-0.10748039551635546
1.199091287999181,,-0.037326958,0.06139561,0.17142002,0.05825196,-0.507004,-0.8599729,-0.9930275,-0.117861256,0.0022215173,-0.10248385,0.85384756,-0.5103346,,-0.13706322,0.104996696,0.40294948,-0.021953601,0.58045936,-0.8139931,-0.9757897,0.16477454,0.14381832,0.21760608,0.79744357,0.56278896,,-1.137367e-05,-5.567464e-06,1.1145123e-05,-0.8418717,-0.51364136,0.1656029,-0.53791857,0.8233992,-0.18071327,-0.043535464,-0.24121828,-0.9694939,,-0.005838386052913729,0.028952525545467688,0.12527994705,0.004613178756659536,0.4047173123052346,0.43996565255627995,0.5117569591986968,,-1.5057321194190496,0.15754375063418,0.10738984876000002,1.3977931632678393,-0.3881842958336163,2.1242521411924566,-0.10748039551635546
1.2357249939996109,,-0.037327707,0.061395507,0.17142053,0.05824928,-0.5069981,-0.85997653,-0.9930278,-0.11785835,0.0022220537,-0.10248202,0.85385144,-0.51032853,,-0.13706307,0.10499744,0.40294957,-0.021953441,0.5804578,-0.8139941,-0.97579134,0.1647689,0.14381368,0.21759874,0.7974459,0.5627886,,-1.137367e-05,-5.567464e-06,1.1145123e-05,-0.8418717,-0.51364136,0.1656029,-0.53791857,0.8233992,-0.18071327,-0.043535464,-0.24121828,-0.9694939,,-0.005830663320039505,0.028952525545467688,0.12527994705,0.004613178756659536,0.4047173123052346,0.43996565255627995,0.5117569591986968,,-1.5057398421519237,0.15754375063418,0.10738984876000002,1.3977931632678393,-0.3881842958336163,2.1242521411924566,-0.10748039551635546
1.2808687119995739,,-0.037327707,0.061395507,0.17142053,0.05824928,-0.5069981,-0.85997653,-0.9930278,-0.11785835,0.0022220537,-0.10248202,0.85385144,-0.51032853,,-0.13706307,0.10499744,0.40294957,-0.021953441,0.5804578,-0.8139941,-0.97579134,0.1647689,0.14381368,0.21759874,0.7974459,0.5627886,,-1.137367e-05,-5.567464e-06,1.1145123e-05,-0.8418717,-0.51364136,0.1656029,-0.53791857,0.8233992,-0.18071327,-0.043535464,-0.24121828,-0.9694939,,-0.005830663320039505,0.028952525545467688,0.12527994705,0.004613178756659536,0.4047173123052346,0.43996565255627995,0.5117569591986968,,-1.5057398421519237,0.15754375063418,0.10738984876000002,1.3977931632678393,-0.3881842958336163,2.1242521411924566,-0.10748039551635546
1.3170220659994811,,-0.037327707,0.061395507,0.17142053,0.05824928,-0.5069981,-0.85997653,-0.9930278,-0.11785835,0.0022220537,-0.10248202,0.85385144,-0.51032853,,-0.13706307,0.10499744,0.40294957,-0.021953441,0.5804578,-0.8139941,-0.97579134,0.1647689,0.14381368,0.21759874,0.7974459,0.5627886,,-1.137367e-05,-5.567464e-06,1.1145123e-05,-0.8418717,-0.51364136,0.1656029,-0.53791857,0.8233992,-0.18071327,-0.043535464,-0.24121828,-0.9694939,,-0.005830663320039505,0.028952525545467688,0.12527994705,0.004613178756659536,0.4047173123052346,0.43996565255627995,0.5117569591986968,,-1.5057398421519237,0.15754375063418,0.10738984876000002,1.3977931632678393,-0.3881842958336163,2.1242521411924566,-0.10748039551635546
1.3504751209984533,,-0.037326958,0.06139561,0.17142002,0.05825196,-0.507004,-0.8599729,-0.9930275,-0.117861256,0.0022215173,-0.10248385,0.85384756,-0.5103346,,-0.13706289,0.10499818,0.40294966,-0.021953309,0.5804563,-0.81399524,-0.97579294,0.16476324,0.143809,0.21759136,0.7974481,0.56278825,,-1.137367e-05,-5.567464e-06,1.1145123e-05,-0.8418717,-0.51364136,0.1656029,-0.53791857,0.8233992,-0.18071327,-0.043535464,-0.24121828,-0.9694939,,-0.005838386052913729,0.028952525545467688,0.12527994705,0.004613178756659536,0.4047173123052346,0.43996565255627995,0.5117569591986968,,-1.505747564884798,0.15754375063418,0.10738984876000002,1.3977931632678393,-0.3881842958336163,2.1242521411924566,-0.10748039551635546
1.3978398479994212,,-0.037327196,0.06139647,0.17141983,0.05824757,-0.5070038,-0.85997325,-0.9930271,-0.117864504,0.002228506,-0.10249019,0.85384727,-0.5103339,,-0.13706307,0.10499744,0.40294957,-0.021953441,0.5804578,-0.8139941,-0.97579134,0.1647689,0.14381368,0.21759874,0.7974459,0.5627886,,-1.137367e-05,-5.567464e-06,1.1145123e-05,-0.8418717,-0.51364136,0.1656029,-0.53791857,0.8233992,-0.18071327,-0.043535464,-0.24121828,-0.9694939,,-0.005838386052913729,0.028960248278341913,0.12527994705,0.004613178756659536,0.4047173123052346,0.43996565255627995,0.5117569591986968,,-1.5057398421519237,0.15754375063418,0.10738984876000002,1.3977931632678393,-0.3881842958336163,2.1242521411924566,-0.10748039551635546
1.4466556869992928,,-0.037327707,0.061395507,0.17142053,0.05824928,-0.5069981,-0.85997653,-0.9930278,-0.11785835,0.0022220537,-0.10248202,0.85385144,-0.51032853,,-0.13706307,0.10499744,0.40294957,-0.021953441,0.5804578,-0.8139941,-0.97579134,0.1647689,0.14381368,0.21759874,0.7974459,0.5627886,,-1.137367e-05,-5.567464e-06,1.1145123e-05,-0.8418717,-0.51364136,0.1656029,-0.53791857,0.8233992,-0.18071327,-0.043535464,-0.24121828,-0.9694939,,-0.005830663320039505,0.028952525545467688,0.12527994705,0.004613178756659536,0.4047173123052346,0.43996565255627995,0.5117569591986968,,-1.5057398421519237,0.15754375063418,0.10738984876000002,1.3977931632678393,-0.3881842958336163,2.1242521411924566,-0.10748039551635546
1.485521044998677,,-0.037326958,0.06139561,0.17142002,0.05825196,-0.507004,-0.8599729,-0.9930275,-0.117861256,0.0022215173,-0.10248385,0.85384756,-0.5103346,,-0.13706322,0.104996696,0.40294948,-0.021953601,0.58045936,-0.8139931,-0.9757897,0.16477454,0.14381832,0.21760608,0.79744357,0.56278896,,-1.137367e-05,-5.567464e-06,1.1145123e-05,-0.8418717,-0.51364136,0.1656029,-0.53791857,0.8233992,-0.18071327,-0.043535464,-0.24121828,-0.9694939,,-0.005838386052913729,0.028952525545467688,0.12527994705,0.004613178756659536,0.4047173123052346,0.43996565255627995,0.5117569591986968,,-1.5057321194190496,0.15754375063418,0.10738984876000002,1.3977931632678393,-0.3881842958336163,2.1242521411924566,-0.10748039551635546
1.521139984999536,,-0.037328947,0.061395347,0.17142136,0.05856729,-0.50683576,-0.8600506,-0.99298704,-0.118205026,0.0020395592,-0.102696046,0.85389996,-0.5102044,,-0.13706322,0.104996696,0.40294948,-0.021953601,0.58045936,-0.8139931,-0.9757897,0.16477454,0.14381832,0.21760608,0.79744357,0.56278896,,-1.137367e-05,-5.567464e-06,1.1145123e-05,-0.8418717,-0.51364136,0.1656029,-0.53791857,0.8233992,-0.18071327,-0.043535464,-0.24121828,-0.9694939,,-0.005830663320039505,0.028952525545467688,0.12527994705,0.0041937988696904875,0.4047173123052346,0.43996565255627995,0.5117569591986968,,-1.5057321194190496,0.15754375063418,0.10738984876000002,1.3977931632678393,-0.3881842958336163,2.1242521411924566,-0.10748039551635546
1.5602210329998343,,-0.0373282,0.061395448,0.17142086,0.058569938,-0.5068416,-0.860047,-0.9929867,-0.11820795,0.0020390153,-0.10269788,0.8538961,-0.5102105,,-0.13706307,0.10499744,0.40294957,-0.021953441,0.5804578,-0.8139941,-0.97579134,0.1647689,0.14381368,0.21759874,0.7974459,0.5627886,,-1.137367e-05,-5.567464e-06,1.1145123e-05,-0.8418717,-0.51364136,0.1656029,-0.53791857,0.8233992,-0.18071327,-0.043535464,-0.24121828,-0.9694939,,-0.005838386052913729,0.028952525545467688,0.12527994705,0.0041937988696904875,0.4047173123052346,0.43996565255627995,0.5117569591986968,,-1.5057398421519237,0.15754375063418,0.10738984876000002,1.3977931632678393,-0.3881842958336163,2.1242521411924566,-0.10748039551635546
1.5996206689997052,,-0.0373282,0.061395448,0.17142086,0.058569938,-0.5068416,-0.860047,-0.9929867,-0.11820795,0.0020390153,-0.10269788,0.8538961,-0.5102105,,-0.1370634,0.10499596,0.4029494,-0.021953702,0.58046085,-0.813992,-0.975788,0.16478027,0.14382297,0.21761343,0.7974413,0.5627893,,-1.137367e-05,-5.567464e-06,1.1145123e-05,-0.8418717,-0.51364136,0.1656029,-0.53791857,0.8233992,-0.18071327,-0.043535464,-0.24121828,-0.9694939,,-0.005838386052913729,0.028952525545467688,0.12527994705,0.0041937988696904875,0.4047173123052346,0.43996565255627995,0.5117569591986968,,-1.5057243966861753,0.15754375063418,0.10738984876000002,1.3977931632678393,-0.3881842958336163,2.1242521411924566,-0.10748039551635546
1.6301983839985041,,-0.0373282,0.061395448,0.17142086,0.058569938,-0.5068416,-0.860047,-0.9929867,-0.11820795,0.0020390153,-0.10269788,0.8538961,-0.5102105,,-0.1370634,0.10499596,0.4029494,-0.021953702,0.58046085,-0.813992,-0.975788,0.16478027,0.14382297,0.21761343,0.7974413,0.5627893,,-1.137367e-05,-5.567464e-06,1.1145123e-05,-0.8418717,-0.51364136,0.1656029,-0.53791857,0.8233992,-0.18071327,-0.043535464,-0.24121828,-0.9694939,,-0.005838386052913729,0.028952525545467688,0.12527994705,0.0041937988696904875,0.4047173123052346,0.43996565255627995,0.5117569591986968,,-1.5057243966861753,0.15754375063418,0.10738984876000002,1.3977931632678393,-0.3881842958336163,2.1242521411924566,-0.10748039551635546
1.6664438499992684,,-0.0373059,0.061413936,0.17142352,0.058561184,-0.5068367,-0.8600506,-0.99298924,-0.11818668,0.0020355582,-0.102678254,0.8539019,-0.51020455,,-0.13705152,0.10502642,0.4029777,-0.021939922,0.5803845,-0.81404686,-0.9757951,0.16477703,0.1437791,0.2175834,0.7974975,0.56272125,,-5.6985045e-06,-5.5856367e-07,3.8032333e-06,-0.8418733,-0.5136388,0.1656032,-0.5379162,0.8234008,-0.18071313,-0.04353653,-0.24121821,-0.96949387,,-0.005838386052913729,0.028952525545467688,0.12527994705,0.0041937988696904875,0.4047173123052346,0.43996565255627995,0.5117569591986968,,-1.5057321194190496,0.15754375063418,0.10738984876000002,1.3977931632678393,-0.3881842958336163,2.1242521411924566,-0.10748039551635546
1.7142538899988722,,-0.0373059,0.061413936,0.17142352,0.058561184,-0.5068367,-0.8600506,-0.99298924,-0.11818668,0.0020355582,-0.102678254,0.8539019,-0.51020455,,-0.13705134,0.105027154,0.4029778,-0.021939792,0.58038306,-0.81404793,-0.9757967,0.16477136,0.14377442,0.21757604,0.7974998,0.5627209,,-5.6985045e-06,-5.5856367e-07,3.8032333e-06,-0.8418733,-0.5136388,0.1656032,-0.5379162,0.8234008,-0.18071313,-0.04353653,-0.24121821,-0.96949387,,-0.005838386052913729,0.028952525545467688,0.12527994705,0.0041937988696904875,0.4047173123052346,0.43996565255627995,0.5117569591986968,,-1.5057398421519237,0.15754375063418,0.10738984876000002,1.3977931632678393,-0.3881842958336163,2.1242521411924566,-0.10748039551635546
1.750139740999657,,-0.0373059,0.061413936,0.17142352,0.058561184,-0.5068367,-0.8600506,-0.99298924,-0.11818668,0.0020355582,-0.102678254,0.8539019,-0.51020455,,-0.13705134,0.105027154,0.4029778,-0.021939792,0.58038306,-0.81404793,-0.9757967,0.16477136,0.14377442,0.21757604,0.7974998,0.5627209,,-5.6985045e-06,-5.5856367e-07,3.8032333e-06,-0.8418733,-0.5136388,0.1656032,-0.5379162,0.8234008,-0.18071313,-0.04353653,-0.24121821,-0.96949387,,-0.005838386052913729,0.028952525545467688,0.12527994705,0.0041937988696904875,0.4047173123052346,0.43996565255627995,0.5117569591986968,,-1.5057398421519237,0.15754375063418,0.10738984876000002,1.3977931632678393,-0.3881842958336163,2.1242521411924566,-0.10748039551635546
1.793517393998627,,-0.037306648,0.061413836,0.17142403,0.058558505,-0.5068308,-0.86005425,-0.99298966,-0.11818375,0.002036102,-0.10267642,0.8539058,-0.5101984,,-0.13705152,0.10502642,0.4029777,-0.021939922,0.5803845,-0.81404686,-0.9757951,0.16477703,0.1437791,0.2175834,0.7974975,0.56272125,,-5.6985045e-06,-5.5856367e-07,3.8032333e-06,-0.8418733,-0.5136388,0.1656032,-0.5379162,0.8234008,-0.18071313,-0.04353653,-0.24121821,-0.96949387,,-0.005830663320039505,0.028952525545467688,0.12527994705,0.0041937988696904875,0.4047173123052346,0.43996565255627995,0.5117569591986968,,-1.5057321194190496,0.15754375063418,0.10738984876000002,1.3977931632678393,-0.3881842958336163,2.1242521411924566,-0.10748039551635546
1.8436207259983348,,-0.037306648,0.061413836,0.17142403,0.058558505,-0.5068308,-0.86005425,-0.99298966,-0.11818375,0.002036102,-0.10267642,0.8539058,-0.5101984,,-0.13705152,0.10502642,0.4029777,-0.021939922,0.5803845,-0.81404686,-0.9757951,0.16477703,0.1437791,0.2175834,0.7974975,0.56272125,,-5.6985045e-06,-5.5856367e-07,3.8032333e-06,-0.8418733,-0.5136388,0.1656032,-0.5379162,0.8234008,-0.18071313,-0.04353653,-0.24121821,-0.96949387,,-0.005830663320039505,0.028952525545467688,0.12527994705,0.0041937988696904875,0.4047173123052346,0.43996565255627995,0.5117569591986968,,-1.5057321194190496,0.15754375063418,0.10738984876000002,1.3977931632678393,-0.3881842958336163,2.1242521411924566,-0.10748039551635546
1.8763054289993306,,-0.0373059,0.061413936,0.17142352,0.058561184,-0.5068367,-0.8600506,-0.99298924,-0.11818668,0.0020355582,-0.102678254,0.8539019,-0.51020455,,-0.13705152,0.10502642,0.4029777,-0.021939922,0.5803845,-0.81404686,-0.9757951,0.16477703,0.1437791,0.2175834,0.7974975,0.56272125,,-5.6985045e-06,-5.5856367e-07,3.8032333e-06,-0.8418733,-0.5136388,0.1656032,-0.5379162,0.8234008,-0.18071313,-0.04353653,-0.24121821,-0.96949387,,-0.005838386052913729,0.028952525545467688,0.12527994705,0.0041937988696904875,0.4047173123052346,0.43996565255627995,0.5117569591986968,,-1.5057321194190496,0.15754375063418,0.10738984876000002,1.3977931632678393,-0.3881842958336163,2.1242521411924566,-0.10748039551635546
1.9146187419992202,,-0.0373059,0.061413936,0.17142352,0.058561184,-0.5068367,-0.8600506,-0.99298924,-0.11818668,0.0020355582,-0.102678254,0.8539019,-0.51020455,,-0.13705134,0.105027154,0.4029778,-0.021939792,0.58038306,-0.81404793,-0.9757967,0.16477136,0.14377442,0.21757604,0.7974998,0.5627209,,-5.6985045e-06,-5.5856367e-07,3.8032333e-06,-0.8418733,-0.5136388,0.1656032,-0.5379162,0.8234008,-0.18071313,-0.04353653,-0.24121821,-0.96949387,,-0.005838386052913729,0.028952525545467688,0.12527994705,0.0041937988696904875,0.4047173123052346,0.43996565255627995,0.5117569591986968,,-1.5057398421519237,0.15754375063418,0.10738984876000002,1.3977931632678393,-0.3881842958336163,2.1242521411924566,-0.10748039551635546
1.9571096239997132,,-0.037306648,0.061413836,0.17142403,0.058558505,-0.5068308,-0.86005425,-0.99298966,-0.11818375,0.002036102,-0.10267642,0.8539058,-0.5101984,,-0.13705134,0.105027154,0.4029778,-0.021939792,0.58038306,-0.81404793,-0.9757967,0.16477136,0.14377442,0.21757604,0.7974998,0.5627209,,-5.6985045e-06,-5.5856367e-07,3.8032333e-06,-0.8418733,-0.5136388,0.1656032,-0.5379162,0.8234008,-0.18071313,-0.04353653,-0.24121821,-0.96949387,,-0.005830663320039505,0.028952525545467688,0.12527994705,0.0041937988696904875,0.4047173123052346,0.43996565255627995,0.5117569591986968,,-1.5057398421519237,0.15754375063418,0.10738984876000002,1.3977931632678393,-0.3881842958336163,2.1242521411924566,-0.10748039551635546
1.9944596259992977,,-0.0373059,0.061413936,0.17142352,0.058561184,-0.5068367,-0.8600506,-0.99298924,-0.11818668,0.0020355582,-0.102678254,0.8539019,-0.51020455,,-0.13705134,0.105027154,0.4029778,-0.021939792,0.58038306,-0.81404793,-0.9757967,0.16477136,0.14377442,0.21757604,0.7974998,0.5627209,,-5.6985045e-06,-5.5856367e-07,3.8032333e-06,-0.8418733,-0.5136388,0.1656032,-0.5379162,0.8234008,-0.18071313,-0.04353653,-0.24121821,-0.96949387,,-0.005838386052913729,0.028952525545467688,0.12527994705,0.0041937988696904875,0.4047173123052346,0.43996565255627995,0.5117569591986968,,-1.5057398421519237,0.15754375063418,0.10738984876000002,1.3977931632678393,-0.3881842958336163,2.1242521411924566,-0.10748039551635546
2.0316870529986772,,-0.037306648,0.061413836,0.17142403,0.058558505,-0.5068308,-0.86005425,-0.99298966,-0.11818375,0.002036102,-0.10267642,0.8539058,-0.5101984,,-0.13705152,0.10502642,0.4029777,-0.021939922,0.5803845,-0.81404686,-0.9757951,0.16477703,0.1437791,0.2175834,0.7974975,0.56272125,,-5.6985045e-06,-5.5856367e-07,3.8032333e-06,-0.8418733,-0.5136388,0.1656032,-0.5379162,0.8234008,-0.18071313,-0.04353653,-0.24121821,-0.96949387,,-0.005830663320039505,0.028952525545467688,0.12527994705,0.0041937988696904875,0.4047173123052346,0.43996565255627995,0.5117569591986968,,-1.5057321194190496,0.15754375063418,0.10738984876000002,1.3977931632678393,-0.3881842958336163,2.1242521411924566,-0.10748039551635546
2.0861967759992694,,-0.0373059,0.061413936,0.17142352,0.058561184,-0.5068367,-0.8600506,-0.99298924,-0.11818668,0.0020355582,-0.102678254,0.8539019,-0.51020455,,-0.13705134,0.105027154,0.4029778,-0.021939792,0.58038306,-0.81404793,-0.9757967,0.16477136,0.14377442,0.21757604,0.7974998,0.5627209,,-5.6985045e-06,-5.5856367e-07,3.8032333e-06,-0.8418733,-0.5136388,0.1656032,-0.5379162,0.8234008,-0.18071313,-0.04353653,-0.24121821,-0.96949387,,-0.005838386052913729,0.028952525545467688,0.12527994705,0.0041937988696904875,0.4047173123052346,0.43996565255627995,0.5117569591986968,,-1.5057398421519237,0.15754375063418,0.10738984876000002,1.3977931632678393,-0.3881842958336163,2.1242521411924566,-0.10748039551635546
2.129051128998981,,-0.0373059,0.061413936,0.17142352,0.058561184,-0.5068367,-0.8600506,-0.99298924,-0.11818668,0.0020355582,-0.102678254,0.8539019,-0.51020455,,-0.13705134,0.105027154,0.4029778,-0.021939792,0.58038306,-0.81404793,-0.9757967,0.16477136,0.14377442,0.21757604,0.7974998,0.5627209,,-5.6985045e-06,-5.5856367e-07,3.8032333e-06,-0.8418733,-0.5136388,0.1656032,-0.5379162,0.8234008,-0.18071313,-0.04353653,-0.24121821,-0.96949387,,-0.005838386052913729,0.028952525545467688,0.12527994705,0.0041937988696904875,0.4047173123052346,0.43996565255627995,0.5117569591986968,,-1.5057398421519237,0.15754375063418,0.10738984876000002,1.3977931632678393,-0.3881842958336163,2.1242521411924566,-0.10748039551635546
2.1642409069991118,,-0.03730528,0.06141401,0.1714231,0.058402173,-0.50691783,-0.8600136,-0.9930097,-0.11801332,0.0021268725,-0.10257122,0.85387766,-0.51026666,,-0.13705134,0.105027154,0.4029778,-0.021939792,0.58038306,-0.81404793,-0.9757967,0.16477136,0.14377442,0.21757604,0.7974998,0.5627209,,-5.6985045e-06,-5.5856367e-07,3.8032333e-06,-0.8418733,-0.5136388,0.1656032,-0.5379162,0.8234008,-0.18071313,-0.04353653,-0.24121821,-0.96949387,,-0.005838386052913729,0.028952525545467688,0.12527994705,0.004403488813175011,0.4047173123052346,0.43996565255627995,0.5117569591986968,,-1.5057398421519237,0.15754375063418,0.10738984876000002,1.3977931632678393,-0.3881842958336163,2.1242521411924566,-0.10748039551635546
2.2170164250001108,,-0.03730466,0.061414093,0.17142269,0.05824317,-0.5069991,-0.8599764,-0.9930301,-0.11783996,0.0022181123,-0.1024642,0.85385346,-0.51032877,,-0.13705134,0.105027154,0.4029778,-0.021939792,0.58038306,-0.81404793,-0.9757967,0.16477136,0.14377442,0.21757604,0.7974998,0.5627209,,-5.6985045e-06,-5.5856367e-07,3.8032333e-06,-0.8418733,-0.5136388,0.1656032,-0.5379162,0.8234008,-0.18071313,-0.04353653,-0.24121821,-0.96949387,,-0.005838386052913729,0.028952525545467688,0.12527994705,0.004613178756659536,0.4047173123052346,0.43996565255627995,0.5117569591986968,,-1.5057398421519237,0.15754375063418,0.10738984876000002,1.3977931632678393,-0.3881842958336163,2.1242521411924566,-0.10748039551635546
2.2680947029984964,,-0.03730466,0.061414093,0.17142269,0.05824317,-0.5069991,-0.8599764,-0.9930301,-0.11783996,0.0022181123,-0.1024642,0.85385346,-0.51032877,,-0.13705134,0.105027154,0.4029778,-0.021939792,0.58038306,-0.81404793,-0.9757967,0.16477136,0.14377442,0.21757604,0.7974998,0.5627209,,-5.6985045e-06,-5.5856367e-07,3.8032333e-06,-0.8418733,-0.5136388,0.1656032,-0.5379162,0.8234008,-0.18071313,-0.04353653,-0.24121821,-0.96949387,,-0.005838386052913729,0.028952525545467688,0.12527994705,0.004613178756659536,0.4047173123052346,0.43996565255627995,0.5117569591986968,,-1.5057398421519237,0.15754375063418,0.10738984876000002,1.3977931632678393,-0.3881842958336163,2.1242521411924566,-0.10748039551635546
2.2985331139989285,,-0.03730466,0.061414093,0.17142269,0.05824317,-0.5069991,-0.8599764,-0.9930301,-0.11783996,0.0022181123,-0.1024642,0.85385346,-0.51032877,,-0.13705134,0.105027154,0.4029778,-0.021939792,0.58038306,-0.81404793,-0.9757967,0.16477136,0.14377442,0.21757604,0.7974998,0.5627209,,-5.6985045e-06,-5.5856367e-07,3.8032333e-06,-0.8418733,-0.5136388,0.1656032,-0.5379162,0.8234008,-0.18071313,-0.04353653,-0.24121821,-0.96949387,,-0.005838386052913729,0.028952525545467688,0.12527994705,0.004613178756659536,0.4047173123052346,0.43996565255627995,0.5117569591986968,,-1.5057398421519237,0.15754375063418,0.10738984876000002,1.3977931632678393,-0.3881842958336163,2.1242521411924566,-0.10748039551635546
2.3364458289997856,,-0.037305407,0.061413992,0.1714232,0.058240518,-0.5069932,-0.85998017,-0.9930304,-0.11783703,0.0022186637,-0.10246238,0.85385734,-0.5103226,,-0.13705134,0.105027154,0.4029778,-0.021939792,0.58038306,-0.81404793,-0.9757967,0.16477136,0.14377442,0.21757604,0.7974998,0.5627209,,-5.6985045e-06,-5.5856367e-07,3.8032333e-06,-0.8418733,-0.5136388,0.1656032,-0.5379162,0.8234008,-0.18071313,-0.04353653,-0.24121821,-0.96949387,,-0.005830663320039505,0.028952525545467688,0.12527994705,0.004613178756659536,0.4047173123052346,0.43996565255627995,0.5117569591986968,,-1.5057398421519237,0.15754375063418,0.10738984876000002,1.3977931632678393,-0.3881842958336163,2.1242521411924566,-0.10748039551635546
2.380078070998934,,-0.037305407,0.061413992,0.1714232,0.058240518,-0.5069932,-0.85998017,-0.9930304,-0.11783703,0.0022186637,-0.10246238,0.85385734,-0.5103226,,-0.13705134,0.105027154,0.4029778,-0.021939792,0.58038306,-0.81404793,-0.9757967,0.16477136,0.14377442,0.21757604,0.7974998,0.5627209,,-5.6985045e-06,-5.5856367e-07,3.8032333e-06,-0.8418733,-0.5136388,0.1656032,-0.5379162,0.8234008,-0.18071313,-0.04353653,-0.24121821,-0.96949387,,-0.005830663320039505,0.028952525545467688,0.12527994705,0.004613178756659536,0.4047173123052346,0.43996565255627995,0.5117569591986968,,-1.5057398421519237,0.15754375063418,0.10738984876000002,1.3977931632678393,-0.3881842958336163,2.1242521411924566,-0.10748039551635546
2.4220972129987786,,-0.03730466,0.061414093,0.17142269,0.05824317,-0.5069991,-0.8599764,-0.9930301,-0.11783996,0.0022181123,-0.1024642,0.85385346,-0.51032877,,-0.13705152,0.10502642,0.4029777,-0.021939922,0.5803845,-0.81404686,-0.9757951,0.16477703,0.1437791,0.2175834,0.7974975,0.56272125,,-5.6985045e-06,-5.5856367e-07,3.8032333e-06,-0.8418733,-0.5136388,0.1656032,-0.5379162,0.8234008,-0.18071313,-0.04353653,-0.24121821,-0.96949387,,-0.005838386052913729,0.028952525545467688,0.12527994705,0.004613178756659536,0.4047173123052346,0.43996565255627995,0.5117569591986968,,-1.5057321194190496,0.15754375063418,0.10738984876000002,1.3977931632678393,-0.3881842958336163,2.1242521411924566,-0.10748039551635546
2.4672209119999025,,-0.03730466,0.061414093,0.17142269,0.05824317,-0.5069991,-0.8599764,-0.9930301,-0.11783996,0.0022181123,-0.1024642,0.85385346,-0.51032877,,-0.13705134,0.105027154,0.4029778,-0.021939792,0.58038306,-0.81404793,-0.9757967,0.16477136,0.14377442,0.21757604,0.7974998,0.5627209,,-5.6985045e-06,-5.5856367e-07,3.8032333e-06,-0.8418733,-0.5136388,0.1656032,-0.5379162,0.8234008,-0.18071313,-0.04353653,-0.24121821,-0.96949387,,-0.005838386052913729,0.028952525545467688,0.12527994705,0.004613178756659536,0.4047173123052346,0.43996565255627995,0.5117569591986968,,-1.5057398421519237,0.15754375063418,0.10738984876000002,1.3977931632678393,-0.3881842958336163,2.1242521411924566,-0.10748039551635546
2.4969202279989986,,-0.037305407,0.061413992,0.1714232,0.058240518,-0.5069932,-0.85998017,-0.9930304,-0.11783703,0.0022186637,-0.10246238,0.85385734,-0.5103226,,-0.13705134,0.105027154,0.4029778,-0.021939792,0.58038306,-0.81404793,-0.9757967,0.16477136,0.14377442,0.21757604,0.7974998,0.5627209,,-5.6985045e-06,-5.5856367e-07,3.8032333e-06,-0.8418733,-0.5136388,0.1656032,-0.5379162,0.8234008,-0.18071313,-0.04353653,-0.24121821,-0.96949387,,-0.005830663320039505,0.028952525545467688,0.12527994705,0.004613178756659536,0.4047173123052346,0.43996565255627995,0.5117569591986968,,-1.5057398421519237,0.15754375063418,0.10738984876000002,1.3977931632678393,-0.3881842958336163,2.1242521411924566,-0.10748039551635546
2.5452108819990826,,-0.037305407,0.061413992,0.1714232,0.058240518,-0.5071337,-0.85989726,-0.9930304,-0.1178367,0.0022378787,-0.10246238,0.8537739,-0.5104621,,-0.13705134,0.105027154,0.4029778,-0.021939792,0.58038306,-0.81404793,-0.9757967,0.16477136,0.14377442,0.21757604,0.7974998,0.5627209,,-5.6985045e-06,-5.5856367e-07,3.8032333e-06,-0.8418733,-0.5136388,0.1656032,-0.5379162,0.8234008,-0.18071313,-0.04353653,-0.24121821,-0.96949387,,-0.005830663320039505,0.028952525545467688,0.12527994705,0.004613178756659536,0.4047173123052346,0.43980229507599883,0.5120836473309655,,-1.5057398421519237,0.15754375063418,0.10738984876000002,1.3977931632678393,-0.3881842958336163,2.1242521411924566,-0.10748039551635546
2.5841910769995593,,-0.03730466,0.061414093,0.17142269,0.05824317,-0.5071395,-0.8598936,-0.9930301,-0.11783959,0.0022373646,-0.1024642,0.85377,-0.51046824,,-0.13705134,0.105027154,0.4029778,-0.021939792,0.58038306,-0.81404793,-0.9757967,0.16477136,0.14377442,0.21757604,0.7974998,0.5627209,,-5.6985045e-06,-5.5856367e-07,3.8032333e-06,-0.8418733,-0.5136388,0.1656032,-0.5379162,0.8234008,-0.18071313,-0.04353653,-0.24121821,-0.96949387,,-0.005838386052913729,0.028952525545467688,0.12527994705,0.004613178756659536,0.4047173123052346,0.43980229507599883,0.5120836473309655,,-1.5057398421519237,0.15754375063418,0.10738984876000002,1.3977931632678393,-0.3881842958336163,2.1242521411924566,-0.10748039551635546
2.6277745219995268,,-0.037305407,0.061413992,0.1714232,0.058240518,-0.5071337,-0.85989726,-0.9930304,-0.1178367,0.0022378787,-0.10246238,0.8537739,-0.5104621,,-0.13705227,0.105026565,0.40297776,-0.021937124,0.58039033,-0.81404287,-0.97579545,0.16477641,0.14377718,0.21758194,0.79749346,0.5627276,,-5.6985045e-06,-5.5856367e-07,3.8032333e-06,-0.8418733,-0.5136388,0.1656032,-0.5379162,0.8234008,-0.18071313,-0.04353653,-0.24121821,-0.96949387,,-0.005830663320039505,0.028952525545467688,0.12527994705,0.004613178756659536,0.4047173123052346,0.43980229507599883,0.5120836473309655,,-1.5057321194190496,0.15755147336705422,0.10738984876000002,1.3977931632678393,-0.3881842958336163,2.1242521411924566,-0.10748039551635546
2.6609999449992756,,-0.037305407,0.061413992,0.1714232,0.058240518,-0.5071337,-0.85989726,-0.9930304,-0.1178367,0.0022378787,-0.10246238,0.8537739,-0.5104621,,-0.13705286,0.10502747,0.4029779,-0.021934256,0.58039445,-0.8140398,-0.97579753,0.16477008,0.14377062,0.2175731,0.79749167,0.56273353,,-5.6985045e-06,-5.5856367e-07,3.8032333e-06,-0.8418733,-0.5136388,0.1656032,-0.5379162,0.8234008,-0.18071313,-0.04353653,-0.24121821,-0.96949387,,-0.005830663320039505,0.028952525545467688,0.12527994705,0.004613178756659536,0.4047173123052346,0.43980229507599883,0.5120836473309655,,-1.5057398421519237,0.15755919609992844,0.10738984876000002,1.3977931632678393,-0.3881842958336163,2.1242521411924566,-0.10748039551635546
2.698073564999504,,-0.037305407,0.061413992,0.1714232,0.058240518,-0.5071337,-0.85989726,-0.9930304,-0.1178367,0.0022378787,-0.10246238,0.8537739,-0.5104621,,-0.1370521,0.10502731,0.40297782,-0.021937054,0.5803888,-0.81404394,-0.9757971,0.16477075,0.1437725,0.21757457,0.7974957,0.56272715,,-5.6985045e-06,-5.5856367e-07,3.8032333e-06,-0.8418733,-0.5136388,0.1656032,-0.5379162,0.8234008,-0.18071313,-0.04353653,-0.24121821,-0.96949387,,-0.005830663320039505,0.028952525545467688,0.12527994705,0.004613178756659536,0.4047173123052346,0.43980229507599883,0.5120836473309655,,-1.5057398421519237,0.15755147336705422,0.10738984876000002,1.3977931632678393,-0.3881842958336163,2.1242521411924566,-0.10748039551635546
2.747778748998826,,-0.03730466,0.061414093,0.17142269,0.05824317,-0.5071395,-0.8598936,-0.9930301,-0.11783959,0.0022373646,-0.1024642,0.85377,-0.51046824,,-0.13705227,0.105026565,0.40297776,-0.021937124,0.58039033,-0.81404287,-0.97579545,0.16477641,0.14377718,0.21758194,0.79749346,0.5627276,,-5.6985045e-06,-5.5856367e-07,3.8032333e-06,-0.8418733,-0.5136388,0.1656032,-0.5379162,0.8234008,-0.18071313,-0.04353653,-0.24121821,-0.96949387,,-0.005838386052913729,0.028952525545467688,0.12527994705,0.004613178756659536,0.4047173123052346,0.43980229507599883,0.5120836473309655,,-1.5057321194190496,0.15755147336705422,0.10738984876000002,1.3977931632678393,-0.3881842958336163,2.1242521411924566,-0.10748039551635546
2.7888040649995673,,-0.03730466,0.061414093,0.17142269,0.05824317,-0.5071395,-0.8598936,-0.9930301,-0.11783959,0.0022373646,-0.1024642,0.85377,-0.51046824,,-0.13705286,0.10502747,0.4029779,-0.021934256,0.58039445,-0.8140398,-0.97579753,0.16477008,0.14377062,0.2175731,0.79749167,0.56273353,,-5.6985045e-06,-5.5856367e-07,3.8032333e-06,-0.8418733,-0.5136388,0.1656032,-0.5379162,0.8234008,-0.18071313,-0.04353653,-0.24121821,-0.96949387,,-0.005838386052913729,0.028952525545467688,0.12527994705,0.004613178756659536,0.4047173123052346,0.43980229507599883,0.5120836473309655,,-1.5057398421519237,0.15755919609992844,0.10738984876000002,1.3977931632678393,-0.3881842958336163,2.1242521411924566,-0.10748039551635546
2.8388405649984634,,-0.037257895,0.06143206,0.17143096,0.058286276,-0.50710684,-0.85991,-0.99302745,-0.117862284,0.0021967888,-0.102464974,0.85378635,-0.5104408,,-0.13703227,0.105007425,0.40298688,-0.021959754,0.580412,-0.8140267,-0.97578895,0.1647817,0.14381528,0.21760884,0.79747653,0.56274116,,1.3463823e-05,9.026697e-06,4.613421e-06,-0.8418594,-0.5136624,0.16560028,-0.53793854,0.8233859,-0.18071426,-0.043526806,-0.2412188,-0.96949416,,-0.005830663320039505,0.028952525545467688,0.12527994705,0.004403488813175011,0.4047173123052346,0.43980229507599883,0.5120836473309655,,-1.5057321194190496,0.15755147336705422,0.10738984876000002,1.3977931632678393,-0.3881842958336163,2.1242521411924566,-0.10748039551635546
2.880340753999917,,-0.037258625,0.061432865,0.1714311,0.058602583,-0.5069501,-0.8599809,-0.99298584,-0.11821517,0.0020207018,-0.102687225,0.85383064,-0.51032203,,-0.13703167,0.105006516,0.40298674,-0.021962712,0.5804077,-0.8140297,-0.97578686,0.16478795,0.14382184,0.21761763,0.7974783,0.5627352,,1.3463823e-05,9.026697e-06,4.613421e-06,-0.8418594,-0.5136624,0.16560028,-0.53793854,0.8233859,-0.18071426,-0.043526806,-0.2412188,-0.96949416,,-0.005838386052913729,0.028960248278341913,0.12527994705,0.0041937988696904875,0.4047173123052346,0.43980229507599883,0.5120836473309655,,-1.5057243966861753,0.15754375063418,0.10738984876000002,1.3977931632678393,-0.3881842958336163,2.1242521411924566,-0.10748039551635546
2.929771079998318,,-0.037259374,0.061432764,0.1714316,0.058599904,-0.5069442,-0.8599845,-0.9929862,-0.11821227,0.0020212457,-0.10268539,0.8538345,-0.51031595,,-0.13703151,0.10500727,0.40298682,-0.021962551,0.58040625,-0.8140307,-0.97578853,0.16478235,0.14381717,0.21761028,0.79748064,0.56273484,,1.3463823e-05,9.026697e-06,4.613421e-06,-0.8418594,-0.5136624,0.16560028,-0.53793854,0.8233859,-0.18071426,-0.043526806,-0.2412188,-0.96949416,,-0.005830663320039505,0.028960248278341913,0.12527994705,0.0041937988696904875,0.4047173123052346,0.43980229507599883,0.5120836473309655,,-1.5057321194190496,0.15754375063418,0.10738984876000002,1.3977931632678393,-0.3881842958336163,2.1242521411924566,-0.10748039551635546
2.9622885389999283,,-0.037259135,0.061431903,0.1714318,0.05860423,-0.5069444,-0.8599841,-0.9929867,-0.118209004,0.002014257,-0.10267906,0.85383487,-0.51031667,,-0.13703133,0.105008,0.4029869,-0.021962449,0.58040476,-0.81403184,-0.97579014,0.16477662,0.14381249,0.21760292,0.79748285,0.5627345,,1.3463823e-05,9.026697e-06,4.613421e-06,-0.8418594,-0.5136624,0.16560028,-0.53793854,0.8233859,-0.18071426,-0.043526806,-0.2412188,-0.96949416,,-0.005830663320039505,0.028952525545467688,0.12527994705,0.0041937988696904875,0.4047173123052346,0.43980229507599883,0.5120836473309655,,-1.5057398421519237,0.15754375063418,0.10738984876000002,1.3977931632678393,-0.3881842958336163,2.1242521411924566,-0.10748039551635546
3.001085725998564,,-0.037258387,0.061432004,0.17143129,0.05860691,-0.5069503,-0.8599805,-0.9929862,-0.118211925,0.0020138025,-0.10268086,0.853831,-0.5103228,,-0.13703133,0.105008,0.4029869,-0.021962449,0.58040476,-0.81403184,-0.97579014,0.16477662,0.14381249,0.21760292,0.79748285,0.5627345,,1.3463823e-05,9.026697e-06,4.613421e-06,-0.8418594,-0.5136624,0.16560028,-0.53793854,0.8233859,-0.18071426,-0.043526806,-0.2412188,-0.96949416,,-0.005838386052913729,0.028952525545467688,0.12527994705,0.0041937988696904875,0.4047173123052346,0.43980229507599883,0.5120836473309655,,-1.5057398421519237,0.15754375063418,0.10738984876000002,1.3977931632678393,-0.3881842958336163,2.1242521411924566,-0.10748039551635546
3.054356962999009,,-0.037259616,0.061433624,0.17143142,0.058595553,-0.506944,-0.85998493,-0.9929858,-0.118215516,0.002028145,-0.1026918,0.8538342,-0.5103152,,-0.13703151,0.10500727,0.40298682,-0.021962551,0.58040625,-0.8140307,-0.97578853,0.16478235,0.14381717,0.21761028,0.79748064,0.56273484,,1.3463823e-05,9.026697e-06,4.613421e-06,-0.8418594,-0.5136624,0.16560028,-0.53793854,0.8233859,-0.18071426,-0.043526806,-0.2412188,-0.96949416,,-0.005830663320039505,0.028967971011216134,0.12527994705,0.0041937988696904875,0.4047173123052346,0.43980229507599883,0.5120836473309655,,-1.5057321194190496,0.15754375063418,0.10738984876000002,1.3977931632678393,-0.3881842958336163,2.1242521411924566,-0.10748039551635546
3.085279751998314,,-0.037258625,0.061432865,0.1714311,0.058602583,-0.5069501,-0.8599809,-0.99298584,-0.11821517,0.0020207018,-0.102687225,0.85383064,-0.51032203,,-0.13703151,0.10500727,0.40298682,-0.021962551,0.58040625,-0.8140307,-0.97578853,0.16478235,0.14381717,0.21761028,0.79748064,0.56273484,,1.3463823e-05,9.026697e-06,4.613421e-06,-0.8418594,-0.5136624,0.16560028,-0.53793854,0.8233859,-0.18071426,-0.043526806,-0.2412188,-0.96949416,,-0.005838386052913729,0.028960248278341913,0.12527994705,0.0041937988696904875,0.4047173123052346,0.43980229507599883,0.5120836473309655,,-1.5057321194190496,0.15754375063418,0.10738984876000002,1.3977931632678393,-0.3881842958336163,2.1242521411924566,-0.10748039551635546
3.135627181000018,,-0.037259374,0.061432764,0.1714316,0.058599904,-0.5069442,-0.8599845,-0.9929862,-0.11821227,0.0020212457,-0.10268539,0.8538345,-0.51031595,,-0.13703151,0.10500727,0.40298682,-0.021962551,0.58040625,-0.8140307,-0.97578853,0.16478235,0.14381717,0.21761028,0.79748064,0.56273484,,1.3463823e-05,9.026697e-06,4.613421e-06,-0.8418594,-0.5136624,0.16560028,-0.53793854,0.8233859,-0.18071426,-0.043526806,-0.2412188,-0.96949416,,-0.005830663320039505,0.028960248278341913,0.12527994705,0.0041937988696904875,0.4047173123052346,0.43980229507599883,0.5120836473309655,,-1.5057321194190496,0.15754375063418,0.10738984876000002,1.3977931632678393,-0.3881842958336163,2.1242521411924566,-0.10748039551635546
3.166318051999042,,-0.037259616,0.061433624,0.17143142,0.058595553,-0.506944,-0.85998493,-0.9929858,-0.118215516,0.002028145,-0.1026918,0.8538342,-0.5103152,,-0.13703133,0.105008,0.4029869,-0.021962449,0.58040476,-0.81403184,-0.97579014,0.16477662,0.14381249,0.21760292,0.79748285,0.5627345,,1.3463823e-05,9.026697e-06,4.613421e-06,-0.8418594,-0.5136624,0.16560028,-0.53793854,0.8233859,-0.18071426,-0.043526806,-0.2412188,-0.96949416,,-0.005830663320039505,0.028967971011216134,0.12527994705,0.0041937988696904875,0.4047173123052346,0.43980229507599883,0.5120836473309655,,-1.5057398421519237,0.15754375063418,0.10738984876000002,1.3977931632678393,-0.3881842958336163,2.1242521411924566,-0.10748039551635546
3.2153037799998856,,-0.037258863,0.061433725,0.17143092,0.0585982,-0.5069499,-0.85998136,-0.9929855,-0.11821842,0.002027683,-0.10269359,0.8538304,-0.5103213,,-0.13703133,0.105008,0.4029869,-0.021962449,0.58040476,-0.81403184,-0.97579014,0.16477662,0.14381249,0.21760292,0.79748285,0.5627345,,1.3463823e-05,9.026697e-06,4.613421e-06,-0.8418594,-0.5136624,0.16560028,-0.53793854,0.8233859,-0.18071426,-0.043526806,-0.2412188,-0.96949416,,-0.005838386052913729,0.028967971011216134,0.12527994705,0.0041937988696904875,0.4047173123052346,0.43980229507599883,0.5120836473309655,,-1.5057398421519237,0.15754375063418,0.10738984876000002,1.3977931632678393,-0.3881842958336163,2.1242521411924566,-0.10748039551635546
3.2606459649996395,,-0.037258115,0.061433826,0.17143041,0.05860085,-0.50695574,-0.8599776,-0.9929851,-0.11822136,0.0020271465,-0.10269542,0.8538264,-0.51032746,,-0.13703151,0.10500727,0.40298682,-0.021962551,0.58040625,-0.8140307,-0.97578853,0.16478235,0.14381717,0.21761028,0.79748064,0.56273484,,1.3463823e-05,9.026697e-06,4.613421e-06,-0.8418594,-0.5136624,0.16560028,-0.53793854,0.8233859,-0.18071426,-0.043526806,-0.2412188,-0.96949416,,-0.005846108785787954,0.028967971011216134,0.12527994705,0.0041937988696904875,0.4047173123052346,0.43980229507599883,0.5120836473309655,,-1.5057321194190496,0.15754375063418,0.10738984876000002,1.3977931632678393,-0.3881842958336163,2.1242521411924566,-0.10748039551635546
3.2894034549990465,,-0.037259616,0.061433624,0.17143142,0.058595553,-0.506944,-0.85998493,-0.9929858,-0.118215516,0.002028145,-0.1026918,0.8538342,-0.5103152,,-0.13703133,0.105008,0.4029869,-0.021962449,0.58040476,-0.81403184,-0.97579014,0.16477662,0.14381249,0.21760292,0.79748285,0.5627345,,1.3463823e-05,9.026697e-06,4.613421e-06,-0.8418594,-0.5136624,0.16560028,-0.53793854,0.8233859,-0.18071426,-0.043526806,-0.2412188,-0.96949416,,-0.005830663320039505,0.028967971011216134,0.12527994705,0.0041937988696904875,0.4047173123052346,0.43980229507599883,0.5120836473309655,,-1.5057398421519237,0.15754375063418,0.10738984876000002,1.3977931632678393,-0.3881842958336163,2.1242521411924566,-0.10748039551635546
3.333292197999981,,-0.037260365,0.06143352,0.17143193,0.058592837,-0.50693816,-0.8599886,-0.9929862,-0.11821261,0.0020286813,-0.10268995,0.8538381,-0.5103091,,-0.13703151,0.10500727,0.40298682,-0.021962551,0.58040625,-0.8140307,-0.97578853,0.16478235,0.14381717,0.21761028,0.79748064,0.56273484,,1.3463823e-05,9.026697e-06,4.613421e-06,-0.8418594,-0.5136624,0.16560028,-0.53793854,0.8233859,-0.18071426,-0.043526806,-0.2412188,-0.96949416,,-0.00582294058716528,0.028967971011216134,0.12527994705,0.0041937988696904875,0.4047173123052346,0.43980229507599883,0.5120836473309655,,-1.5057321194190496,0.15754375063418,0.10738984876000002,1.3977931632678393,-0.3881842958336163,2.1242521411924566,-0.10748039551635546
3.4102144019998377,,-0.037258387,0.061432004,0.17143129,0.05860691,-0.5069503,-0.8599805,-0.9929862,-0.118211925,0.0020138025,-0.10268086,0.853831,-0.5103228,,-0.13703133,0.105008,0.4029869,-0.021962449,0.58040476,-0.81403184,-0.97579014,0.16477662,0.14381249,0.21760292,0.79748285,0.5627345,,1.3463823e-05,9.026697e-06,4.613421e-06,-0.8418594,-0.5136624,0.16560028,-0.53793854,0.8233859,-0.18071426,-0.043526806,-0.2412188,-0.96949416,,-0.005838386052913729,0.028952525545467688,0.12527994705,0.0041937988696904875,0.4047173123052346,0.43980229507599883,0.5120836473309655,,-1.5057398421519237,0.15754375063418,0.10738984876000002,1.3977931632678393,-0.3881842958336163,2.1242521411924566,-0.10748039551635546
3.4790720419987338,,-0.037259135,0.061431903,0.1714318,0.05860423,-0.5069444,-0.8599841,-0.9929867,-0.118209004,0.002014257,-0.10267906,0.85383487,-0.51031667,,-0.13703151,0.10500727,0.40298682,-0.021962551,0.58040625,-0.8140307,-0.97578853,0.16478235,0.14381717,0.21761028,0.79748064,0.56273484,,1.3463823e-05,9.026697e-06,4.613421e-06,-0.8418594,-0.5136624,0.16560028,-0.53793854,0.8233859,-0.18071426,-0.043526806,-0.2412188,-0.96949416,,-0.005830663320039505,0.028952525545467688,0.12527994705,0.0041937988696904875,0.4047173123052346,0.43980229507599883,0.5120836473309655,,-1.5057321194190496,0.15754375063418,0.10738984876000002,1.3977931632678393,-0.3881842958336163,2.1242521411924566,-0.10748039551635546
3.524959972999568,,-0.037259374,0.061432764,0.1714316,0.058599904,-0.5069442,-0.8599845,-0.9929862,-0.11821227,0.0020212457,-0.10268539,0.8538345,-0.51031595,,-0.13703133,0.105008,0.4029869,-0.021962449,0.58040476,-0.81403184,-0.97579014,0.16477662,0.14381249,0.21760292,0.79748285,0.5627345,,1.3463823e-05,9.026697e-06,4.613421e-06,-0.8418594,-0.5136624,0.16560028,-0.53793854,0.8233859,-0.18071426,-0.043526806,-0.2412188,-0.96949416,,-0.005830663320039505,0.028960248278341913,0.12527994705,0.0041937988696904875,0.4047173123052346,0.43980229507599883,0.5120836473309655,,-1.5057398421519237,0.15754375063418,0.10738984876000002,1.3977931632678393,-0.3881842958336163,2.1242521411924566,-0.10748039551635546
3.5858210070000496,,-0.037258886,0.06143282,0.17143129,0.05827921,-0.50710076,-0.859914,-0.9930274,-0.11786263,0.0022042245,-0.10246952,0.85378987,-0.510434,,-0.13703133,0.105008,0.4029869,-0.021962449,0.58040476,-0.81403184,-0.97579014,0.16477662,0.14381249,0.21760292,0.79748285,0.5627345,,1.3463823e-05,9.026697e-06,4.613421e-06,-0.8418594,-0.5136624,0.16560028,-0.53793854,0.8233859,-0.18071426,-0.043526806,-0.2412188,-0.96949416,,-0.00582294058716528,0.028960248278341913,0.12527994705,0.004613178756659536,0.4047173123052346,0.43980229507599883,0.5120836473309655,,-1.5057398421519237,0.15754375063418,0.10738984876000002,1.3977931632678393,-0.3881842958336163,2.1242521411924566,-0.10748039551635546
3.6355268199986313,,-0.03725739,0.06143302,0.17143026,0.05828451,-0.50711244,-0.8599067,-0.9930266,-0.11786845,0.0022031963,-0.102473184,0.8537821,-0.5104462,,-0.13703151,0.10500727,0.40298682,-0.021962551,0.58040625,-0.8140307,-0.97578853,0.16478235,0.14381717,0.21761028,0.79748064,0.56273484,,1.3463823e-05,9.026697e-06,4.613421e-06,-0.8418594,-0.5136624,0.16560028,-0.53793854,0.8233859,-0.18071426,-0.043526806,-0.2412188,-0.96949416,,-0.005838386052913729,0.028960248278341913,0.12527994705,0.004613178756659536,0.4047173123052346,0.43980229507599883,0.5120836473309655,,-1.5057321194190496,0.15754375063418,0.10738984876000002,1.3977931632678393,-0.3881842958336163,2.1242521411924566,-0.10748039551635546
3.696862824999698,,-0.037257895,0.06143206,0.17143096,0.058286276,-0.50710684,-0.85991,-0.99302745,-0.117862284,0.0021967888,-0.102464974,0.85378635,-0.5104408,,-0.13703133,0.105008,0.4029869,-0.021962449,0.58040476,-0.81403184,-0.97579014,0.16477662,0.14381249,0.21760292,0.79748285,0.5627345,,1.3463823e-05,9.026697e-06,4.613421e-06,-0.8418594,-0.5136624,0.16560028,-0.53793854,0.8233859,-0.18071426,-0.043526806,-0.2412188,-0.96949416,,-0.005830663320039505,0.028952525545467688,0.12527994705,0.004613178756659536,0.4047173123052346,0.43980229507599883,0.5120836473309655,,-1.5057398421519237,0.15754375063418,0.10738984876000002,1.3977931632678393,-0.3881842958336163,2.1242521411924566,-0.10748039551635546
3.7259208069990564,,-0.037257895,0.06143206,0.17143096,0.058286276,-0.50710684,-0.85991,-0.99302745,-0.117862284,0.0021967888,-0.102464974,0.85378635,-0.5104408,,-0.13703133,0.105008,0.4029869,-0.021962449,0.58040476,-0.81403184,-0.97579014,0.16477662,0.14381249,0.21760292,0.79748285,0.5627345,,1.3463823e-05,9.026697e-06,4.613421e-06,-0.8418594,-0.5136624,0.16560028,-0.53793854,0.8233859,-0.18071426,-0.043526806,-0.2412188,-0.96949416,,-0.005830663320039505,0.028952525545467688,0.12527994705,0.004613178756659536,0.4047173123052346,0.43980229507599883,0.5120836473309655,,-1.5057398421519237,0.15754375063418,0.10738984876000002,1.3977931632678393,-0.3881842958336163,2.1242521411924566,-0.10748039551635546
3.769509231999109,,-0.037257146,0.061432164,0.17143045,0.058288895,-0.5071127,-0.8599063,-0.9930271,-0.11786522,0.002196245,-0.10246681,0.8537824,-0.5104469,,-0.13703151,0.10500727,0.40298682,-0.021962551,0.58040625,-0.8140307,-0.97578853,0.16478235,0.14381717,0.21761028,0.79748064,0.56273484,,1.3463823e-05,9.026697e-06,4.613421e-06,-0.8418594,-0.5136624,0.16560028,-0.53793854,0.8233859,-0.18071426,-0.043526806,-0.2412188,-0.96949416,,-0.005838386052913729,0.028952525545467688,0.12527994705,0.004613178756659536,0.4047173123052346,0.43980229507599883,0.5120836473309655,,-1.5057321194190496,0.15754375063418,0.10738984876000002,1.3977931632678393,-0.3881842958336163,2.1242521411924566,-0.10748039551635546
3.8162759679999,,-0.037256394,0.06143226,0.17142995,0.058291547,-0.5071185,-0.8599026,-0.99302673,-0.117868125,0.0021957308,-0.10246864,0.8537786,-0.51045305,,-0.13703133,0.105008,0.4029869,-0.021962449,0.58040476,-0.81403184,-0.97579014,0.16477662,0.14381249,0.21760292,0.79748285,0.5627345,,1.3463823e-05,9.026697e-06,4.613421e-06,-0.8418594,-0.5136624,0.16560028,-0.53793854,0.8233859,-0.18071426,-0.043526806,-0.2412188,-0.96949416,,-0.005846108785787954,0.028952525545467688,0.12527994705,0.004613178756659536,0.4047173123052346,0.43980229507599883,0.5120836473309655,,-1.5057398421519237,0.15754375063418,0.10738984876000002,1.3977931632678393,-0.3881842958336163,2.1242521411924566,-0.10748039551635546
3.8574285249997047,,-0.037258137,0.061432924,0.17143077,0.05828192,-0.5071066,-0.85991037,-0.9930271,-0.11786556,0.0022036806,-0.10247134,0.853786,-0.5104401,,-0.13703151,0.10500727,0.40298682,-0.021962551,0.58040625,-0.8140307,-0.97578853,0.16478235,0.14381717,0.21761028,0.79748064,0.56273484,,1.3463823e-05,9.026697e-06,4.613421e-06,-0.8418594,-0.5136624,0.16560028,-0.53793854,0.8233859,-0.18071426,-0.043526806,-0.2412188,-0.96949416,,-0.005830663320039505,0.028960248278341913,0.12527994705,0.004613178756659536,0.4047173123052346,0.43980229507599883,0.5120836473309655,,-1.5057321194190496,0.15754375063418,0.10738984876000002,1.3977931632678393,-0.3881842958336163,2.1242521411924566,-0.10748039551635546
3.8946621340001,,-0.037259124,0.061433684,0.1714311,0.058274884,-0.5071005,-0.8599145,-0.9930269,-0.11786586,0.0022111237,-0.1024759,0.85378957,-0.5104332,,-0.13703167,0.105006516,0.40298674,-0.021962712,0.5804077,-0.8140297,-0.97578686,0.16478795,0.14382184,0.21761763,0.7974783,0.5627352,,1.3463823e-05,9.026697e-06,4.613421e-06,-0.8418594,-0.5136624,0.16560028,-0.53793854,0.8233859,-0.18071426,-0.043526806,-0.2412188,-0.96949416,,-0.00582294058716528,0.028967971011216134,0.12527994705,0.004613178756659536,0.4047173123052346,0.43980229507599883,0.5120836473309655,,-1.5057243966861753,0.15754375063418,0.10738984876000002,1.3977931632678393,-0.3881842958336163,2.1242521411924566,-0.10748039551635546
3.933743682999193,,-0.037257627,0.061433885,0.17143008,0.05828019,-0.50711226,-0.85990715,-0.99302626,-0.11787172,0.0022101551,-0.10247953,0.8537818,-0.5104455,,-0.13703151,0.10500727,0.40298682,-0.021962551,0.58040625,-0.8140307,-0.97578853,0.16478235,0.14381717,0.21761028,0.79748064,0.56273484,,1.3463823e-05,9.026697e-06,4.613421e-06,-0.8418594,-0.5136624,0.16560028,-0.53793854,0.8233859,-0.18071426,-0.043526806,-0.2412188,-0.96949416,,-0.005838386052913729,0.028967971011216134,0.12527994705,0.004613178756659536,0.4047173123052346,0.43980229507599883,0.5120836473309655,,-1.5057321194190496,0.15754375063418,0.10738984876000002,1.3977931632678393,-0.3881842958336163,2.1242521411924566,-0.10748039551635546
3.984509647998493,,-0.037293717,0.061422046,0.17143847,0.0582349,-0.5071564,-0.85988426,-0.99303144,-0.11782831,0.0022426099,-0.10245612,0.85376155,-0.51048404,,-0.13706107,0.10500655,0.40297186,-0.021949911,0.580408,-0.8140299,-0.97579277,0.16477488,0.14379728,0.21759278,0.79748094,0.56274116,,2.6544672e-05,2.2428298e-05,5.7022967e-06,-0.841851,-0.51367676,0.16559851,-0.5379522,0.82337683,-0.18071495,-0.0435209,-0.24121916,-0.96949434,,-0.005838386052913729,0.028967971011216134,0.12527994705,0.004613178756659536,0.4047173123052346,0.43980229507599883,0.5120836473309655,,-1.5057398421519237,0.15754375063418,0.10738984876000002,1.3977931632678393,-0.3881842958336163,2.1242521411924566,-0.10748039551635546
4.027271459999611,,-0.037294466,0.061421946,0.17143896,0.058232244,-0.50715053,-0.85988784,-0.99303174,-0.11782539,0.0022431538,-0.10245426,0.8537654,-0.5104779,,-0.1370614,0.10500508,0.40297168,-0.021950174,0.5804109,-0.8140277,-0.9757894,0.16478623,0.14380659,0.2176075,0.7974764,0.5627419,,2.6544672e-05,2.2428298e-05,5.7022967e-06,-0.841851,-0.51367676,0.16559851,-0.5379522,0.82337683,-0.18071495,-0.0435209,-0.24121916,-0.96949434,,-0.005830663320039505,0.028967971011216134,0.12527994705,0.004613178756659536,0.4047173123052346,0.43980229507599883,0.5120836473309655,,-1.5057243966861753,0.15754375063418,0.10738984876000002,1.3977931632678393,-0.3881842958336163,2.1242521411924566,-0.10748039551635546
4.058418714999789,,-0.03729348,0.06142119,0.17143865,0.05823922,-0.5071566,-0.8598838,-0.99303174,-0.117825076,0.002235718,-0.10244976,0.8537619,-0.51048476,,-0.13706125,0.10500582,0.4029718,-0.021950012,0.5804094,-0.8140288,-0.9757911,0.16478053,0.14380191,0.21760015,0.7974786,0.5627416,,2.6544672e-05,2.2428298e-05,5.7022967e-06,-0.841851,-0.51367676,0.16559851,-0.5379522,0.82337683,-0.18071495,-0.0435209,-0.24121916,-0.96949434,,-0.005838386052913729,0.028960248278341913,0.12527994705,0.004613178756659536,0.4047173123052346,0.43980229507599883,0.5120836473309655,,-1.5057321194190496,0.15754375063418,0.10738984876000002,1.3977931632678393,-0.3881842958336163,2.1242521411924566,-0.10748039551635546
4.0978434789994935,,-0.037293237,0.06142033,0.17143884,0.058243576,-0.50715685,-0.8598834,-0.99303216,-0.1178218,0.0022287592,-0.1024434,0.8537622,-0.51048553,,-0.13706125,0.10500582,0.4029718,-0.021950012,0.5804094,-0.8140288,-0.9757911,0.16478053,0.14380191,0.21760015,0.7974786,0.5627416,,2.6544672e-05,2.2428298e-05,5.7022967e-06,-0.841851,-0.51367676,0.16559851,-0.5379522,0.82337683,-0.18071495,-0.0435209,-0.24121916,-0.96949434,,-0.005838386052913729,0.028952525545467688,0.12527994705,0.004613178756659536,0.4047173123052346,0.43980229507599883,0.5120836473309655,,-1.5057321194190496,0.15754375063418,0.10738984876000002,1.3977931632678393,-0.3881842958336163,2.1242521411924566,-0.10748039551635546
4.149578782999015,,-0.037294976,0.06142099,0.17143965,0.05823392,-0.5071449,-0.85989106,-0.99303246,-0.117819235,0.0022367463,-0.102446094,0.8537696,-0.51047254,,-0.13706107,0.10500655,0.40297186,-0.021949911,0.580408,-0.8140299,-0.97579277,0.16477488,0.14379728,0.21759278,0.79748094,0.56274116,,2.6544672e-05,2.2428298e-05,5.7022967e-06,-0.841851,-0.51367676,0.16559851,-0.5379522,0.82337683,-0.18071495,-0.0435209,-0.24121916,-0.96949434,,-0.00582294058716528,0.028960248278341913,0.12527994705,0.004613178756659536,0.4047173123052346,0.43980229507599883,0.5120836473309655,,-1.5057398421519237,0.15754375063418,0.10738984876000002,1.3977931632678393,-0.3881842958336163,2.1242521411924566,-0.10748039551635546
4.181371975999355,,-0.037294228,0.06142109,0.17143914,0.0582366,-0.50715077,-0.8598874,-0.9930321,-0.11782214,0.002236195,-0.10244793,0.8537658,-0.5104786,,-0.13706107,0.10500655,0.40297186,-0.021949911,0.580408,-0.8140299,-0.97579277,0.16477488,0.14379728,0.21759278,0.79748094,0.56274116,,2.6544672e-05,2.2428298e-05,5.7022967e-06,-0.841851,-0.51367676,0.16559851,-0.5379522,0.82337683,-0.18071495,-0.0435209,-0.24121916,-0.96949434,,-0.005830663320039505,0.028960248278341913,0.12527994705,0.004613178756659536,0.4047173123052346,0.43980229507599883,0.5120836473309655,,-1.5057398421519237,0.15754375063418,0.10738984876000002,1.3977931632678393,-0.3881842958336163,2.1242521411924566,-0.10748039551635546
4.220111578999422,,-0.037294097,0.06142111,0.17143907,0.058398254,-0.5070755,-0.85992086,-0.9930115,-0.11799842,0.0021444708,-0.102556735,0.85378623,-0.5104227,,-0.13706107,0.10500655,0.40297186,-0.021949911,0.580408,-0.8140299,-0.97579277,0.16477488,0.14379728,0.21759278,0.79748094,0.56274116,,2.6544672e-05,2.2428298e-05,5.7022967e-06,-0.841851,-0.51367676,0.16559851,-0.5379522,0.82337683,-0.18071495,-0.0435209,-0.24121916,-0.96949434,,-0.005838386052913729,0.028960248278341913,0.12527994705,0.004403488813175011,0.4047173123052346,0.43980229507599883,0.5120836473309655,,-1.5057398421519237,0.15754375063418,0.10738984876000002,1.3977931632678393,-0.3881842958336163,2.1242521411924566,-0.10748039551635546
