AlexandreBanks6/ExpertPlaybackApp/resources/Motions/Motion_PSM1_Working.csv
Time,si_T_psm1,Tx,Ty,Tz,R00,R01,R02,R10,R11,R12,R20,R21,R22,si_T_psm3,Tx,Ty,Tz,R00,R01,R02,R10,R11,R12,R20,R21,R22,si_T_ecm,Tx,Ty,Tz,R00,R01,R02,R10,R11,R12,R20,R21,R22,joint_vars_psm1,q1,q2,q3,q4,q5,q6,jaw,joint_vars_psm3,q1,q2,q3,q4,q5,q6,jaw
lci_T_si
,,-0.070212275,0.063258044,0.58671486,0.9998192,-0.00075042783,0.018999701,0.0032799556,-0.977436,-0.21120638,0.018729486,0.2112305,-0.97725683
rci_T_si
,,-0.072575554,0.05245142,0.564738,0.99476296,0.010665912,-0.10165086,-0.0036802725,-0.9901574,-0.13990961,-0.10214262,0.139551,-0.9849327
ecm_T_lc
,,0.022782804,0.054864287,-0.33796614,-0.99125,-0.12739496,-0.0345537,0.12872347,-0.990897,-0.03941251,-0.029218202,-0.043515522,0.99862534
ecm_T_rc
,,0.022707665,0.067641795,-0.42994186,-0.99723834,0.02928547,-0.06824988,-0.024871755,-0.9975983,-0.06464576,-0.069979146,-0.06276973,0.9955716
0.023984350031241775,,0.059129164,0.01603691,0.33556995,-0.695145,-0.054253347,-0.7168193,-0.6847521,-0.2535713,0.6832394,-0.21883285,0.96579397,0.13911876,,-0.24089906,0.14866227,0.16436951,0.26874003,-0.8419987,-0.4677787,-0.8906156,-0.40218037,0.21226119,-0.36685508,0.3595679,-0.8579792,,0.07119265,-0.031850252,0.2464735,-0.99214333,0.12465115,-0.010658026,0.117905155,0.96012425,0.25349513,0.041831486,0.2502469,-0.9672779,,-0.5299262070964116,0.020488410315317625,0.14370022795,0.16481629557883615,-0.0057387329901484995,0.977473347029346,-0.06435756205690601,,-1.3817127521918782,0.03015727187384671,0.1408419085,0.08198876790244902,0.003962458493197773,1.151869623860635,0.0728514534958884
0.05063636996783316,,0.059129164,0.01603691,0.33556995,-0.695145,-0.054253347,-0.7168193,-0.6847521,-0.2535713,0.6832394,-0.21883285,0.96579397,0.13911876,,-0.24089906,0.14866227,0.16436951,0.26874003,-0.8419987,-0.4677787,-0.8906156,-0.40218037,0.21226119,-0.36685508,0.3595679,-0.8579792,,0.07119265,-0.031850252,0.2464735,-0.99214333,0.12465115,-0.010658026,0.117905155,0.96012425,0.25349513,0.041831486,0.2502469,-0.9672779,,-0.5299262070964116,0.020488410315317625,0.14370022795,0.16481629557883615,-0.0057387329901484995,0.977473347029346,-0.06435756205690601,,-1.3817127521918782,0.03015727187384671,0.1408419085,0.08198876790244902,0.003962458493197773,1.151869623860635,0.0728514534958884
0.0725259690079838,,0.059129164,0.01603691,0.33556995,-0.695145,-0.054253347,-0.7168193,-0.6847521,-0.2535713,0.6832394,-0.21883285,0.96579397,0.13911876,,-0.24089906,0.14866227,0.16436951,0.26874003,-0.8419987,-0.4677787,-0.8906156,-0.40218037,0.21226119,-0.36685508,0.3595679,-0.8579792,,0.07119265,-0.031850252,0.2464735,-0.99214333,0.12465115,-0.010658026,0.117905155,0.96012425,0.25349513,0.041831486,0.2502469,-0.9672779,,-0.5299262070964116,0.020488410315317625,0.14370022795,0.16481629557883615,-0.0057387329901484995,0.977473347029346,-0.06435756205690601,,-1.3817127521918782,0.03015727187384671,0.1408419085,0.08198876790244902,0.003962458493197773,1.151869623860635,0.0728514534958884
0.0952183399349451,,0.0591534,0.016021602,0.33554304,-0.69511324,-0.054280307,-0.71684813,-0.6847705,-0.25359815,0.68321097,-0.21887629,0.96578544,0.13910991,,-0.24091612,0.14870305,0.16435786,0.2687263,-0.8420138,-0.4677596,-0.8906132,-0.4021698,0.21229133,-0.36687103,0.35954458,-0.8579822,,0.07118143,-0.03184901,0.24646957,-0.9921403,0.124675915,-0.010655533,0.11792974,0.96012115,0.25349537,0.041835368,0.2502464,-0.9672779,,-0.5299262070964116,0.020488410315317625,0.14370022795,0.16481629557883615,-0.0057387329901484995,0.977473347029346,-0.06435756205690601,,-1.3817127521918782,0.03015727187384671,0.1408419085,0.08198876790244902,0.003962458493197773,1.151869623860635,0.0728514534958884
0.12262513907626271,,0.0591534,0.016021602,0.33554304,-0.69511324,-0.054280307,-0.71684813,-0.6847705,-0.25359815,0.68321097,-0.21887629,0.96578544,0.13910991,,-0.24091612,0.14870305,0.16435786,0.2687263,-0.8420138,-0.4677596,-0.8906132,-0.4021698,0.21229133,-0.36687103,0.35954458,-0.8579822,,0.07118143,-0.03184901,0.24646957,-0.9921403,0.124675915,-0.010655533,0.11792974,0.96012115,0.25349537,0.041835368,0.2502464,-0.9672779,,-0.5299262070964116,0.020488410315317625,0.14370022795,0.16481629557883615,-0.0057387329901484995,0.977473347029346,-0.06435756205690601,,-1.3817127521918782,0.03015727187384671,0.1408419085,0.08198876790244902,0.003962458493197773,1.151869623860635,0.0728514534958884
0.15202336898073554,,0.0591534,0.016021602,0.33554304,-0.69511324,-0.054280307,-0.71684813,-0.6847705,-0.25359815,0.68321097,-0.21887629,0.96578544,0.13910991,,-0.24091612,0.14870305,0.16435786,0.2687263,-0.8420138,-0.4677596,-0.8906132,-0.4021698,0.21229133,-0.36687103,0.35954458,-0.8579822,,0.07118143,-0.03184901,0.24646957,-0.9921403,0.124675915,-0.010655533,0.11792974,0.96012115,0.25349537,0.041835368,0.2502464,-0.9672779,,-0.5299262070964116,0.020488410315317625,0.14370022795,0.16481629557883615,-0.0057387329901484995,0.977473347029346,-0.06435756205690601,,-1.3817127521918782,0.03015727187384671,0.1408419085,0.08198876790244902,0.003962458493197773,1.151869623860635,0.0728514534958884
0.1849155209492892,,0.0591534,0.016021602,0.33554304,-0.69511324,-0.054280307,-0.71684813,-0.6847705,-0.25359815,0.68321097,-0.21887629,0.96578544,0.13910991,,-0.24091612,0.14870305,0.16435786,0.2687263,-0.8420138,-0.4677596,-0.8906132,-0.4021698,0.21229133,-0.36687103,0.35954458,-0.8579822,,0.07118143,-0.03184901,0.24646957,-0.9921403,0.124675915,-0.010655533,0.11792974,0.96012115,0.25349537,0.041835368,0.2502464,-0.9672779,,-0.5299262070964116,0.020488410315317625,0.14370022795,0.16481629557883615,-0.0057387329901484995,0.977473347029346,-0.06435756205690601,,-1.3817127521918782,0.03015727187384671,0.1408419085,0.08198876790244902,0.003962458493197773,1.151869623860635,0.0728514534958884
0.20959791890345514,,0.0591534,0.016021602,0.33554304,-0.69511324,-0.054280307,-0.71684813,-0.6847705,-0.25359815,0.68321097,-0.21887629,0.96578544,0.13910991,,-0.24091612,0.14870305,0.16435786,0.2687263,-0.8420138,-0.4677596,-0.8906132,-0.4021698,0.21229133,-0.36687103,0.35954458,-0.8579822,,0.07118143,-0.03184901,0.24646957,-0.9921403,0.124675915,-0.010655533,0.11792974,0.96012115,0.25349537,0.041835368,0.2502464,-0.9672779,,-0.5299262070964116,0.020488410315317625,0.14370022795,0.16481629557883615,-0.0057387329901484995,0.977473347029346,-0.06435756205690601,,-1.3817127521918782,0.03015727187384671,0.1408419085,0.08198876790244902,0.003962458493197773,1.151869623860635,0.0728514534958884
0.23770202999003232,,0.0591534,0.016021602,0.33554304,-0.69511324,-0.054280307,-0.71684813,-0.6847705,-0.25359815,0.68321097,-0.21887629,0.96578544,0.13910991,,-0.2409171,0.14870636,0.16435936,0.26872963,-0.84201205,-0.46776062,-0.8906097,-0.4021755,0.2122953,-0.36687708,0.35954213,-0.8579806,,0.07118143,-0.03184901,0.24646957,-0.9921403,0.124675915,-0.010655533,0.11792974,0.96012115,0.25349537,0.041835368,0.2502464,-0.9672779,,-0.5299262070964116,0.020488410315317625,0.14370022795,0.16481629557883615,-0.0057387329901484995,0.977473347029346,-0.06435756205690601,,-1.3817127521918782,0.030164994606720934,0.1408419085,0.08198876790244902,0.003962458493197773,1.151869623860635,0.0728514534958884
0.2653939260635525,,0.0591534,0.016021602,0.33554304,-0.69511324,-0.054280307,-0.71684813,-0.6847705,-0.25359815,0.68321097,-0.21887629,0.96578544,0.13910991,,-0.24095885,0.14869007,0.16437636,0.2687225,-0.84197545,-0.4678307,-0.89061004,-0.40218863,0.21226886,-0.36688137,0.35961333,-0.8579489,,0.07118143,-0.03184901,0.24646957,-0.9921403,0.124675915,-0.010655533,0.11792974,0.96012115,0.25349537,0.041835368,0.2502464,-0.9672779,,-0.5299262070964116,0.020488410315317625,0.14370022795,0.16481629557883615,-0.0057387329901484995,0.977473347029346,-0.06435756205690601,,-1.3817127521918782,0.03015727187384671,0.1408419085,0.08198876790244902,0.003962458493197773,1.1519513026007755,0.07268810942975423
0.29101450089365244,,0.0591534,0.016021602,0.33554304,-0.69511324,-0.054280307,-0.71684813,-0.6847705,-0.25359815,0.68321097,-0.21887629,0.96578544,0.13910991,,-0.24100159,0.14867708,0.16439489,0.26871878,-0.8419371,-0.4679018,-0.8906069,-0.40220734,0.21224639,-0.36689168,0.35968202,-0.8579157,,0.07118143,-0.03184901,0.24646957,-0.9921403,0.124675915,-0.010655533,0.11792974,0.96012115,0.25349537,0.041835368,0.2502464,-0.9672779,,-0.5299262070964116,0.020488410315317625,0.14370022795,0.16481629557883615,-0.0057387329901484995,0.977473347029346,-0.06435756205690601,,-1.3817127521918782,0.03015727187384671,0.1408419085,0.08198876790244902,0.003962458493197773,1.152032981340916,0.07252476536362007
0.3150289400946349,,0.0591534,0.016021602,0.33554304,-0.69511324,-0.054280307,-0.71684813,-0.6847705,-0.25359815,0.68321097,-0.21887629,0.96578544,0.13910991,,-0.24100159,0.14867708,0.16439489,0.26871878,-0.8419371,-0.4679018,-0.8906069,-0.40220734,0.21224639,-0.36689168,0.35968202,-0.8579157,,0.07118143,-0.03184901,0.24646957,-0.9921403,0.124675915,-0.010655533,0.11792974,0.96012115,0.25349537,0.041835368,0.2502464,-0.9672779,,-0.5299262070964116,0.020488410315317625,0.14370022795,0.16481629557883615,-0.0057387329901484995,0.977473347029346,-0.06435756205690601,,-1.3817127521918782,0.03015727187384671,0.1408419085,0.08198876790244902,0.003962458493197773,1.152032981340916,0.07252476536362007
0.33743298007175326,,0.0591534,0.016021602,0.33554304,-0.69511324,-0.054280307,-0.71684813,-0.6847705,-0.25359815,0.68321097,-0.21887629,0.96578544,0.13910991,,-0.24100159,0.14867708,0.16439489,0.26871878,-0.8419371,-0.4679018,-0.8906069,-0.40220734,0.21224639,-0.36689168,0.35968202,-0.8579157,,0.07118143,-0.03184901,0.24646957,-0.9921403,0.124675915,-0.010655533,0.11792974,0.96012115,0.25349537,0.041835368,0.2502464,-0.9672779,,-0.5299262070964116,0.020488410315317625,0.14370022795,0.16481629557883615,-0.0057387329901484995,0.977473347029346,-0.06435756205690601,,-1.3817127521918782,0.03015727187384671,0.1408419085,0.08198876790244902,0.003962458493197773,1.152032981340916,0.07252476536362007
0.36378976004198194,,0.0591534,0.016021602,0.33554304,-0.69511324,-0.054280307,-0.71684813,-0.6847705,-0.25359815,0.68321097,-0.21887629,0.96578544,0.13910991,,-0.2410026,0.14868039,0.16439644,0.26872203,-0.8419355,-0.46790296,-0.8906034,-0.40221298,0.21225038,-0.3668978,0.35967958,-0.85791415,,0.07118143,-0.03184901,0.24646957,-0.9921403,0.124675915,-0.010655533,0.11792974,0.96012115,0.25349537,0.041835368,0.2502464,-0.9672779,,-0.5299262070964116,0.020488410315317625,0.14370022795,0.16481629557883615,-0.0057387329901484995,0.977473347029346,-0.06435756205690601,,-1.3817127521918782,0.030164994606720934,0.1408419085,0.08198876790244902,0.003962458493197773,1.152032981340916,0.07252476536362007
0.3878692169673741,,0.0591534,0.016021602,0.33554304,-0.69511324,-0.054280307,-0.71684813,-0.6847705,-0.25359815,0.68321097,-0.21887629,0.96578544,0.13910991,,-0.24100159,0.14867708,0.16439489,0.26871878,-0.8419371,-0.4679018,-0.8906069,-0.40220734,0.21224639,-0.36689168,0.35968202,-0.8579157,,0.07118143,-0.03184901,0.24646957,-0.9921403,0.124675915,-0.010655533,0.11792974,0.96012115,0.25349537,0.041835368,0.2502464,-0.9672779,,-0.5299262070964116,0.020488410315317625,0.14370022795,0.16481629557883615,-0.0057387329901484995,0.977473347029346,-0.06435756205690601,,-1.3817127521918782,0.03015727187384671,0.1408419085,0.08198876790244902,0.003962458493197773,1.152032981340916,0.07252476536362007
0.41503139887936413,,0.0591534,0.016021602,0.33554304,-0.69511324,-0.054280307,-0.71684813,-0.6847705,-0.25359815,0.68321097,-0.21887629,0.96578544,0.13910991,,-0.24100159,0.14867708,0.16439489,0.26871878,-0.8419371,-0.4679018,-0.8906069,-0.40220734,0.21224639,-0.36689168,0.35968202,-0.8579157,,0.07118143,-0.03184901,0.24646957,-0.9921403,0.124675915,-0.010655533,0.11792974,0.96012115,0.25349537,0.041835368,0.2502464,-0.9672779,,-0.5299262070964116,0.020488410315317625,0.14370022795,0.16481629557883615,-0.0057387329901484995,0.977473347029346,-0.06435756205690601,,-1.3817127521918782,0.03015727187384671,0.1408419085,0.08198876790244902,0.003962458493197773,1.152032981340916,0.07252476536362007
0.43513822997920215,,0.0591534,0.016021602,0.33554304,-0.69511324,-0.054280307,-0.71684813,-0.6847705,-0.25359815,0.68321097,-0.21887629,0.96578544,0.13910991,,-0.24100159,0.14867708,0.16439489,0.26871878,-0.8419371,-0.4679018,-0.8906069,-0.40220734,0.21224639,-0.36689168,0.35968202,-0.8579157,,0.07118143,-0.03184901,0.24646957,-0.9921403,0.124675915,-0.010655533,0.11792974,0.96012115,0.25349537,0.041835368,0.2502464,-0.9672779,,-0.5299262070964116,0.020488410315317625,0.14370022795,0.16481629557883615,-0.0057387329901484995,0.977473347029346,-0.06435756205690601,,-1.3817127521918782,0.03015727187384671,0.1408419085,0.08198876790244902,0.003962458493197773,1.152032981340916,0.07252476536362007
0.457428942900151,,0.0591534,0.016021602,0.33554304,-0.69511324,-0.054280307,-0.71684813,-0.6847705,-0.25359815,0.68321097,-0.21887629,0.96578544,0.13910991,,-0.24100159,0.14867708,0.16439489,0.26871878,-0.8419371,-0.4679018,-0.8906069,-0.40220734,0.21224639,-0.36689168,0.35968202,-0.8579157,,0.07118143,-0.03184901,0.24646957,-0.9921403,0.124675915,-0.010655533,0.11792974,0.96012115,0.25349537,0.041835368,0.2502464,-0.9672779,,-0.5299262070964116,0.020488410315317625,0.14370022795,0.16481629557883615,-0.0057387329901484995,0.977473347029346,-0.06435756205690601,,-1.3817127521918782,0.03015727187384671,0.1408419085,0.08198876790244902,0.003962458493197773,1.152032981340916,0.07252476536362007
0.4858633950352669,,0.0591534,0.016021602,0.33554304,-0.69511324,-0.054280307,-0.71684813,-0.6847705,-0.25359815,0.68321097,-0.21887629,0.96578544,0.13910991,,-0.24100159,0.14867708,0.16439489,0.26871878,-0.8419371,-0.4679018,-0.8906069,-0.40220734,0.21224639,-0.36689168,0.35968202,-0.8579157,,0.07118143,-0.03184901,0.24646957,-0.9921403,0.124675915,-0.010655533,0.11792974,0.96012115,0.25349537,0.041835368,0.2502464,-0.9672779,,-0.5299262070964116,0.020488410315317625,0.14370022795,0.16481629557883615,-0.0057387329901484995,0.977473347029346,-0.06435756205690601,,-1.3817127521918782,0.03015727187384671,0.1408419085,0.08198876790244902,0.003962458493197773,1.152032981340916,0.07252476536362007
0.5077228050213307,,0.0591534,0.016021602,0.33554304,-0.69511324,-0.054280307,-0.71684813,-0.6847705,-0.25359815,0.68321097,-0.21887629,0.96578544,0.13910991,,-0.24100159,0.14867708,0.16439489,0.26871878,-0.8419371,-0.4679018,-0.8906069,-0.40220734,0.21224639,-0.36689168,0.35968202,-0.8579157,,0.07118143,-0.03184901,0.24646957,-0.9921403,0.124675915,-0.010655533,0.11792974,0.96012115,0.25349537,0.041835368,0.2502464,-0.9672779,,-0.5299262070964116,0.020488410315317625,0.14370022795,0.16481629557883615,-0.0057387329901484995,0.977473347029346,-0.06435756205690601,,-1.3817127521918782,0.03015727187384671,0.1408419085,0.08198876790244902,0.003962458493197773,1.152032981340916,0.07252476536362007
0.5366389378905296,,0.0591534,0.016021602,0.33554304,-0.69511324,-0.054280307,-0.71684813,-0.6847705,-0.25359815,0.68321097,-0.21887629,0.96578544,0.13910991,,-0.24100159,0.14867708,0.16439489,0.26871878,-0.8419371,-0.4679018,-0.8906069,-0.40220734,0.21224639,-0.36689168,0.35968202,-0.8579157,,0.07118143,-0.03184901,0.24646957,-0.9921403,0.124675915,-0.010655533,0.11792974,0.96012115,0.25349537,0.041835368,0.2502464,-0.9672779,,-0.5299262070964116,0.020488410315317625,0.14370022795,0.16481629557883615,-0.0057387329901484995,0.977473347029346,-0.06435756205690601,,-1.3817127521918782,0.03015727187384671,0.1408419085,0.08198876790244902,0.003962458493197773,1.152032981340916,0.07252476536362007
0.5641894668806344,,0.0591534,0.016021602,0.33554304,-0.69511324,-0.054280307,-0.71684813,-0.6847705,-0.25359815,0.68321097,-0.21887629,0.96578544,0.13910991,,-0.2410026,0.14868039,0.16439644,0.26872203,-0.8419355,-0.46790296,-0.8906034,-0.40221298,0.21225038,-0.3668978,0.35967958,-0.85791415,,0.07118143,-0.03184901,0.24646957,-0.9921403,0.124675915,-0.010655533,0.11792974,0.96012115,0.25349537,0.041835368,0.2502464,-0.9672779,,-0.5299262070964116,0.020488410315317625,0.14370022795,0.16481629557883615,-0.0057387329901484995,0.977473347029346,-0.06435756205690601,,-1.3817127521918782,0.030164994606720934,0.1408419085,0.08198876790244902,0.003962458493197773,1.152032981340916,0.07252476536362007
0.5855485440697521,,0.0591534,0.016021602,0.33554304,-0.69511324,-0.054280307,-0.71684813,-0.6847705,-0.25359815,0.68321097,-0.21887629,0.96578544,0.13910991,,-0.24100159,0.14867708,0.16439489,0.26871878,-0.8419371,-0.4679018,-0.8906069,-0.40220734,0.21224639,-0.36689168,0.35968202,-0.8579157,,0.07118143,-0.03184901,0.24646957,-0.9921403,0.124675915,-0.010655533,0.11792974,0.96012115,0.25349537,0.041835368,0.2502464,-0.9672779,,-0.5299262070964116,0.020488410315317625,0.14370022795,0.16481629557883615,-0.0057387329901484995,0.977473347029346,-0.06435756205690601,,-1.3817127521918782,0.03015727187384671,0.1408419085,0.08198876790244902,0.003962458493197773,1.152032981340916,0.07252476536362007
0.6070786500349641,,0.0591534,0.016021602,0.33554304,-0.69511324,-0.054280307,-0.71684813,-0.6847705,-0.25359815,0.68321097,-0.21887629,0.96578544,0.13910991,,-0.24100159,0.14867708,0.16439489,0.26871878,-0.8419371,-0.4679018,-0.8906069,-0.40220734,0.21224639,-0.36689168,0.35968202,-0.8579157,,0.07118143,-0.03184901,0.24646957,-0.9921403,0.124675915,-0.010655533,0.11792974,0.96012115,0.25349537,0.041835368,0.2502464,-0.9672779,,-0.5299262070964116,0.020488410315317625,0.14370022795,0.16481629557883615,-0.0057387329901484995,0.977473347029346,-0.06435756205690601,,-1.3817127521918782,0.03015727187384671,0.1408419085,0.08198876790244902,0.003962458493197773,1.152032981340916,0.07252476536362007
0.6355756039265543,,0.0591534,0.016021602,0.33554304,-0.69511324,-0.054280307,-0.71684813,-0.6847705,-0.25359815,0.68321097,-0.21887629,0.96578544,0.13910991,,-0.24100159,0.14867708,0.16439489,0.26871878,-0.8419371,-0.4679018,-0.8906069,-0.40220734,0.21224639,-0.36689168,0.35968202,-0.8579157,,0.07118143,-0.03184901,0.24646957,-0.9921403,0.124675915,-0.010655533,0.11792974,0.96012115,0.25349537,0.041835368,0.2502464,-0.9672779,,-0.5299262070964116,0.020488410315317625,0.14370022795,0.16481629557883615,-0.0057387329901484995,0.977473347029346,-0.06435756205690601,,-1.3817127521918782,0.03015727187384671,0.1408419085,0.08198876790244902,0.003962458493197773,1.152032981340916,0.07252476536362007
0.6583346559200436,,0.0591534,0.016021602,0.33554304,-0.69511324,-0.054280307,-0.71684813,-0.6847705,-0.25359815,0.68321097,-0.21887629,0.96578544,0.13910991,,-0.24100159,0.14867708,0.16439489,0.26871878,-0.8419371,-0.4679018,-0.8906069,-0.40220734,0.21224639,-0.36689168,0.35968202,-0.8579157,,0.07118143,-0.03184901,0.24646957,-0.9921403,0.124675915,-0.010655533,0.11792974,0.96012115,0.25349537,0.041835368,0.2502464,-0.9672779,,-0.5299262070964116,0.020488410315317625,0.14370022795,0.16481629557883615,-0.0057387329901484995,0.977473347029346,-0.06435756205690601,,-1.3817127521918782,0.03015727187384671,0.1408419085,0.08198876790244902,0.003962458493197773,1.152032981340916,0.07252476536362007
0.68607027688995,,0.0591534,0.016021602,0.33554304,-0.69511324,-0.054280307,-0.71684813,-0.6847705,-0.25359815,0.68321097,-0.21887629,0.96578544,0.13910991,,-0.2410026,0.14868039,0.16439644,0.26872203,-0.8419355,-0.46790296,-0.8906034,-0.40221298,0.21225038,-0.3668978,0.35967958,-0.85791415,,0.07118143,-0.03184901,0.24646957,-0.9921403,0.124675915,-0.010655533,0.11792974,0.96012115,0.25349537,0.041835368,0.2502464,-0.9672779,,-0.5299262070964116,0.020488410315317625,0.14370022795,0.16481629557883615,-0.0057387329901484995,0.977473347029346,-0.06435756205690601,,-1.3817127521918782,0.030164994606720934,0.1408419085,0.08198876790244902,0.003962458493197773,1.152032981340916,0.07252476536362007
0.7069424970541149,,0.0591534,0.016021602,0.33554304,-0.69511324,-0.054280307,-0.71684813,-0.6847705,-0.25359815,0.68321097,-0.21887629,0.96578544,0.13910991,,-0.24100159,0.14867708,0.16439489,0.26871878,-0.8419371,-0.4679018,-0.8906069,-0.40220734,0.21224639,-0.36689168,0.35968202,-0.8579157,,0.07118143,-0.03184901,0.24646957,-0.9921403,0.124675915,-0.010655533,0.11792974,0.96012115,0.25349537,0.041835368,0.2502464,-0.9672779,,-0.5299262070964116,0.020488410315317625,0.14370022795,0.16481629557883615,-0.0057387329901484995,0.977473347029346,-0.06435756205690601,,-1.3817127521918782,0.03015727187384671,0.1408419085,0.08198876790244902,0.003962458493197773,1.152032981340916,0.07252476536362007
0.734191725961864,,0.0591534,0.016021602,0.33554304,-0.69511324,-0.054280307,-0.71684813,-0.6847705,-0.25359815,0.68321097,-0.21887629,0.96578544,0.13910991,,-0.24100159,0.14867708,0.16439489,0.26871878,-0.8419371,-0.4679018,-0.8906069,-0.40220734,0.21224639,-0.36689168,0.35968202,-0.8579157,,0.07118143,-0.03184901,0.24646957,-0.9921403,0.124675915,-0.010655533,0.11792974,0.96012115,0.25349537,0.041835368,0.2502464,-0.9672779,,-0.5299262070964116,0.020488410315317625,0.14370022795,0.16481629557883615,-0.0057387329901484995,0.977473347029346,-0.06435756205690601,,-1.3817127521918782,0.03015727187384671,0.1408419085,0.08198876790244902,0.003962458493197773,1.152032981340916,0.07252476536362007
0.7570629310794175,,0.0591534,0.016021602,0.33554304,-0.69511324,-0.054280307,-0.71684813,-0.6847705,-0.25359815,0.68321097,-0.21887629,0.96578544,0.13910991,,-0.24100159,0.14867708,0.16439489,0.26871878,-0.8419371,-0.4679018,-0.8906069,-0.40220734,0.21224639,-0.36689168,0.35968202,-0.8579157,,0.07118143,-0.03184901,0.24646957,-0.9921403,0.124675915,-0.010655533,0.11792974,0.96012115,0.25349537,0.041835368,0.2502464,-0.9672779,,-0.5299262070964116,0.020488410315317625,0.14370022795,0.16481629557883615,-0.0057387329901484995,0.977473347029346,-0.06435756205690601,,-1.3817127521918782,0.03015727187384671,0.1408419085,0.08198876790244902,0.003962458493197773,1.152032981340916,0.07252476536362007
0.7820217600092292,,0.0591534,0.016021602,0.33554304,-0.69511324,-0.054280307,-0.71684813,-0.6847705,-0.25359815,0.68321097,-0.21887629,0.96578544,0.13910991,,-0.24100159,0.14867708,0.16439489,0.26871878,-0.8419371,-0.4679018,-0.8906069,-0.40220734,0.21224639,-0.36689168,0.35968202,-0.8579157,,0.07118143,-0.03184901,0.24646957,-0.9921403,0.124675915,-0.010655533,0.11792974,0.96012115,0.25349537,0.041835368,0.2502464,-0.9672779,,-0.5299262070964116,0.020488410315317625,0.14370022795,0.16481629557883615,-0.0057387329901484995,0.977473347029346,-0.06435756205690601,,-1.3817127521918782,0.03015727187384671,0.1408419085,0.08198876790244902,0.003962458493197773,1.152032981340916,0.07252476536362007
0.8060257500037551,,0.059154175,0.01602127,0.3355424,-0.6951136,-0.05428654,-0.71684724,-0.6847698,-0.2535937,0.68321335,-0.21887727,0.9657863,0.13910268,,-0.2410026,0.14868039,0.16439644,0.26872203,-0.8419355,-0.46790296,-0.8906034,-0.40221298,0.21225038,-0.3668978,0.35967958,-0.85791415,,0.07118143,-0.03184901,0.24646957,-0.9921403,0.124675915,-0.010655533,0.11792974,0.96012115,0.25349537,0.041835368,0.2502464,-0.9672779,,-0.5299339298292859,0.020488410315317625,0.14370022795,0.16481629557883615,-0.0057387329901484995,0.977473347029346,-0.06435756205690601,,-1.3817127521918782,0.030164994606720934,0.1408419085,0.08198876790244902,0.003962458493197773,1.152032981340916,0.07252476536362007
0.8311860288958997,,0.0591534,0.016021602,0.33554304,-0.69511324,-0.054280307,-0.71684813,-0.6847705,-0.25359815,0.68321097,-0.21887629,0.96578544,0.13910991,,-0.24100159,0.14867708,0.16439489,0.26871878,-0.8419371,-0.4679018,-0.8906069,-0.40220734,0.21224639,-0.36689168,0.35968202,-0.8579157,,0.07118143,-0.03184901,0.24646957,-0.9921403,0.124675915,-0.010655533,0.11792974,0.96012115,0.25349537,0.041835368,0.2502464,-0.9672779,,-0.5299262070964116,0.020488410315317625,0.14370022795,0.16481629557883615,-0.0057387329901484995,0.977473347029346,-0.06435756205690601,,-1.3817127521918782,0.03015727187384671,0.1408419085,0.08198876790244902,0.003962458493197773,1.152032981340916,0.07252476536362007
0.853119992883876,,0.0591534,0.016021602,0.33554304,-0.69511324,-0.054280307,-0.71684813,-0.6847705,-0.25359815,0.68321097,-0.21887629,0.96578544,0.13910991,,-0.24100159,0.14867708,0.16439489,0.26871878,-0.8419371,-0.4679018,-0.8906069,-0.40220734,0.21224639,-0.36689168,0.35968202,-0.8579157,,0.07118143,-0.03184901,0.24646957,-0.9921403,0.124675915,-0.010655533,0.11792974,0.96012115,0.25349537,0.041835368,0.2502464,-0.9672779,,-0.5299262070964116,0.020488410315317625,0.14370022795,0.16481629557883615,-0.0057387329901484995,0.977473347029346,-0.06435756205690601,,-1.3817127521918782,0.03015727187384671,0.1408419085,0.08198876790244902,0.003962458493197773,1.152032981340916,0.07252476536362007
0.8812824469059706,,0.0591534,0.016021602,0.33554304,-0.69511324,-0.054280307,-0.71684813,-0.6847705,-0.25359815,0.68321097,-0.21887629,0.96578544,0.13910991,,-0.24100159,0.14867708,0.16439489,0.26871878,-0.8419371,-0.4679018,-0.8906069,-0.40220734,0.21224639,-0.36689168,0.35968202,-0.8579157,,0.07118143,-0.03184901,0.24646957,-0.9921403,0.124675915,-0.010655533,0.11792974,0.96012115,0.25349537,0.041835368,0.2502464,-0.9672779,,-0.5299262070964116,0.020488410315317625,0.14370022795,0.16481629557883615,-0.0057387329901484995,0.977473347029346,-0.06435756205690601,,-1.3817127521918782,0.03015727187384671,0.1408419085,0.08198876790244902,0.003962458493197773,1.152032981340916,0.07252476536362007
0.9066795168910176,,0.0591534,0.016021602,0.33554304,-0.69511324,-0.054280307,-0.71684813,-0.6847705,-0.25359815,0.68321097,-0.21887629,0.96578544,0.13910991,,-0.24100159,0.14867708,0.16439489,0.26871878,-0.8419371,-0.4679018,-0.8906069,-0.40220734,0.21224639,-0.36689168,0.35968202,-0.8579157,,0.07118143,-0.03184901,0.24646957,-0.9921403,0.124675915,-0.010655533,0.11792974,0.96012115,0.25349537,0.041835368,0.2502464,-0.9672779,,-0.5299262070964116,0.020488410315317625,0.14370022795,0.16481629557883615,-0.0057387329901484995,0.977473347029346,-0.06435756205690601,,-1.3817127521918782,0.03015727187384671,0.1408419085,0.08198876790244902,0.003962458493197773,1.152032981340916,0.07252476536362007
0.9321594040375203,,0.0591534,0.016021602,0.33554304,-0.69511324,-0.054280307,-0.71684813,-0.6847705,-0.25359815,0.68321097,-0.21887629,0.96578544,0.13910991,,-0.24100159,0.14867708,0.16439489,0.26871878,-0.8419371,-0.4679018,-0.8906069,-0.40220734,0.21224639,-0.36689168,0.35968202,-0.8579157,,0.07118143,-0.03184901,0.24646957,-0.9921403,0.124675915,-0.010655533,0.11792974,0.96012115,0.25349537,0.041835368,0.2502464,-0.9672779,,-0.5299262070964116,0.020488410315317625,0.14370022795,0.16481629557883615,-0.0057387329901484995,0.977473347029346,-0.06435756205690601,,-1.3817127521918782,0.03015727187384671,0.1408419085,0.08198876790244902,0.003962458493197773,1.152032981340916,0.07252476536362007
0.9539975279476494,,0.0591534,0.016021602,0.33554304,-0.69511324,-0.054280307,-0.71684813,-0.6847705,-0.25359815,0.68321097,-0.21887629,0.96578544,0.13910991,,-0.24100159,0.14867708,0.16439489,0.26871878,-0.8419371,-0.4679018,-0.8906069,-0.40220734,0.21224639,-0.36689168,0.35968202,-0.8579157,,0.07118143,-0.03184901,0.24646957,-0.9921403,0.124675915,-0.010655533,0.11792974,0.96012115,0.25349537,0.041835368,0.2502464,-0.9672779,,-0.5299262070964116,0.020488410315317625,0.14370022795,0.16481629557883615,-0.0057387329901484995,0.977473347029346,-0.06435756205690601,,-1.3817127521918782,0.03015727187384671,0.1408419085,0.08198876790244902,0.003962458493197773,1.152032981340916,0.07252476536362007
0.9810331868939102,,0.0591534,0.016021602,0.33554304,-0.69511324,-0.054280307,-0.71684813,-0.6847705,-0.25359815,0.68321097,-0.21887629,0.96578544,0.13910991,,-0.24100159,0.14867708,0.16439489,0.26871878,-0.8419371,-0.4679018,-0.8906069,-0.40220734,0.21224639,-0.36689168,0.35968202,-0.8579157,,0.07118143,-0.03184901,0.24646957,-0.9921403,0.124675915,-0.010655533,0.11792974,0.96012115,0.25349537,0.041835368,0.2502464,-0.9672779,,-0.5299262070964116,0.020488410315317625,0.14370022795,0.16481629557883615,-0.0057387329901484995,0.977473347029346,-0.06435756205690601,,-1.3817127521918782,0.03015727187384671,0.1408419085,0.08198876790244902,0.003962458493197773,1.152032981340916,0.07252476536362007
1.0074017669539899,,0.0591534,0.016021602,0.33554304,-0.69511324,-0.054280307,-0.71684813,-0.6847705,-0.25359815,0.68321097,-0.21887629,0.96578544,0.13910991,,-0.24100159,0.14867708,0.16439489,0.26871878,-0.8419371,-0.4679018,-0.8906069,-0.40220734,0.21224639,-0.36689168,0.35968202,-0.8579157,,0.07118143,-0.03184901,0.24646957,-0.9921403,0.124675915,-0.010655533,0.11792974,0.96012115,0.25349537,0.041835368,0.2502464,-0.9672779,,-0.5299262070964116,0.020488410315317625,0.14370022795,0.16481629557883615,-0.0057387329901484995,0.977473347029346,-0.06435756205690601,,-1.3817127521918782,0.03015727187384671,0.1408419085,0.08198876790244902,0.003962458493197773,1.152032981340916,0.07252476536362007
1.032777301967144,,0.0591534,0.016021602,0.33554304,-0.69511324,-0.054280307,-0.71684813,-0.6847705,-0.25359815,0.68321097,-0.21887629,0.96578544,0.13910991,,-0.24100159,0.14867708,0.16439489,0.26871878,-0.8419371,-0.4679018,-0.8906069,-0.40220734,0.21224639,-0.36689168,0.35968202,-0.8579157,,0.07118143,-0.03184901,0.24646957,-0.9921403,0.124675915,-0.010655533,0.11792974,0.96012115,0.25349537,0.041835368,0.2502464,-0.9672779,,-0.5299262070964116,0.020488410315317625,0.14370022795,0.16481629557883615,-0.0057387329901484995,0.977473347029346,-0.06435756205690601,,-1.3817127521918782,0.03015727187384671,0.1408419085,0.08198876790244902,0.003962458493197773,1.152032981340916,0.07252476536362007
1.054780252976343,,0.0591534,0.016021602,0.33554304,-0.69511324,-0.054280307,-0.71684813,-0.6847705,-0.25359815,0.68321097,-0.21887629,0.96578544,0.13910991,,-0.24100159,0.14867708,0.16439489,0.26871878,-0.8419371,-0.4679018,-0.8906069,-0.40220734,0.21224639,-0.36689168,0.35968202,-0.8579157,,0.07118143,-0.03184901,0.24646957,-0.9921403,0.124675915,-0.010655533,0.11792974,0.96012115,0.25349537,0.041835368,0.2502464,-0.9672779,,-0.5299262070964116,0.020488410315317625,0.14370022795,0.16481629557883615,-0.0057387329901484995,0.977473347029346,-0.06435756205690601,,-1.3817127521918782,0.03015727187384671,0.1408419085,0.08198876790244902,0.003962458493197773,1.152032981340916,0.07252476536362007
1.0826243408955634,,0.0591534,0.016021602,0.33554304,-0.69511324,-0.054280307,-0.71684813,-0.6847705,-0.25359815,0.68321097,-0.21887629,0.96578544,0.13910991,,-0.24100159,0.14867708,0.16439489,0.26871878,-0.8419371,-0.4679018,-0.8906069,-0.40220734,0.21224639,-0.36689168,0.35968202,-0.8579157,,0.07118143,-0.03184901,0.24646957,-0.9921403,0.124675915,-0.010655533,0.11792974,0.96012115,0.25349537,0.041835368,0.2502464,-0.9672779,,-0.5299262070964116,0.020488410315317625,0.14370022795,0.16481629557883615,-0.0057387329901484995,0.977473347029346,-0.06435756205690601,,-1.3817127521918782,0.03015727187384671,0.1408419085,0.08198876790244902,0.003962458493197773,1.152032981340916,0.07252476536362007
1.1031206960324198,,0.0591534,0.016021602,0.33554304,-0.69511324,-0.054280307,-0.71684813,-0.6847705,-0.25359815,0.68321097,-0.21887629,0.96578544,0.13910991,,-0.24100159,0.14867708,0.16439489,0.26871878,-0.8419371,-0.4679018,-0.8906069,-0.40220734,0.21224639,-0.36689168,0.35968202,-0.8579157,,0.07118143,-0.03184901,0.24646957,-0.9921403,0.124675915,-0.010655533,0.11792974,0.96012115,0.25349537,0.041835368,0.2502464,-0.9672779,,-0.5299262070964116,0.020488410315317625,0.14370022795,0.16481629557883615,-0.0057387329901484995,0.977473347029346,-0.06435756205690601,,-1.3817127521918782,0.03015727187384671,0.1408419085,0.08198876790244902,0.003962458493197773,1.152032981340916,0.07252476536362007
1.1261476550716907,,0.0591534,0.016021602,0.33554304,-0.69511324,-0.054280307,-0.71684813,-0.6847705,-0.25359815,0.68321097,-0.21887629,0.96578544,0.13910991,,-0.24100159,0.14867708,0.16439489,0.26871878,-0.8419371,-0.4679018,-0.8906069,-0.40220734,0.21224639,-0.36689168,0.35968202,-0.8579157,,0.07118143,-0.03184901,0.24646957,-0.9921403,0.124675915,-0.010655533,0.11792974,0.96012115,0.25349537,0.041835368,0.2502464,-0.9672779,,-0.5299262070964116,0.020488410315317625,0.14370022795,0.16481629557883615,-0.0057387329901484995,0.977473347029346,-0.06435756205690601,,-1.3817127521918782,0.03015727187384671,0.1408419085,0.08198876790244902,0.003962458493197773,1.152032981340916,0.07252476536362007
1.1544564389623702,,0.0591534,0.016021602,0.33554304,-0.69511324,-0.054280307,-0.71684813,-0.6847705,-0.25359815,0.68321097,-0.21887629,0.96578544,0.13910991,,-0.24100159,0.14867708,0.16439489,0.26871878,-0.8419371,-0.4679018,-0.8906069,-0.40220734,0.21224639,-0.36689168,0.35968202,-0.8579157,,0.07118143,-0.03184901,0.24646957,-0.9921403,0.124675915,-0.010655533,0.11792974,0.96012115,0.25349537,0.041835368,0.2502464,-0.9672779,,-0.5299262070964116,0.020488410315317625,0.14370022795,0.16481629557883615,-0.0057387329901484995,0.977473347029346,-0.06435756205690601,,-1.3817127521918782,0.03015727187384671,0.1408419085,0.08198876790244902,0.003962458493197773,1.152032981340916,0.07252476536362007
1.1749656000174582,,0.0591534,0.016021602,0.33554304,-0.69511324,-0.054280307,-0.71684813,-0.6847705,-0.25359815,0.68321097,-0.21887629,0.96578544,0.13910991,,-0.24100159,0.14867708,0.16439489,0.26871878,-0.8419371,-0.4679018,-0.8906069,-0.40220734,0.21224639,-0.36689168,0.35968202,-0.8579157,,0.07118143,-0.03184901,0.24646957,-0.9921403,0.124675915,-0.010655533,0.11792974,0.96012115,0.25349537,0.041835368,0.2502464,-0.9672779,,-0.5299262070964116,0.020488410315317625,0.14370022795,0.16481629557883615,-0.0057387329901484995,0.977473347029346,-0.06435756205690601,,-1.3817127521918782,0.03015727187384671,0.1408419085,0.08198876790244902,0.003962458493197773,1.152032981340916,0.07252476536362007
1.201826934935525,,0.0591534,0.016021602,0.33554304,-0.69511324,-0.054280307,-0.71684813,-0.6847705,-0.25359815,0.68321097,-0.21887629,0.96578544,0.13910991,,-0.24100159,0.14867708,0.16439489,0.26871878,-0.8419371,-0.4679018,-0.8906069,-0.40220734,0.21224639,-0.36689168,0.35968202,-0.8579157,,0.07118143,-0.03184901,0.24646957,-0.9921403,0.124675915,-0.010655533,0.11792974,0.96012115,0.25349537,0.041835368,0.2502464,-0.9672779,,-0.5299262070964116,0.020488410315317625,0.14370022795,0.16481629557883615,-0.0057387329901484995,0.977473347029346,-0.06435756205690601,,-1.3817127521918782,0.03015727187384671,0.1408419085,0.08198876790244902,0.003962458493197773,1.152032981340916,0.07252476536362007
1.2245206439401954,,0.0591534,0.016021602,0.33554304,-0.69511324,-0.054280307,-0.71684813,-0.6847705,-0.25359815,0.68321097,-0.21887629,0.96578544,0.13910991,,-0.24100159,0.14867708,0.16439489,0.26871878,-0.8419371,-0.4679018,-0.8906069,-0.40220734,0.21224639,-0.36689168,0.35968202,-0.8579157,,0.07118143,-0.03184901,0.24646957,-0.9921403,0.124675915,-0.010655533,0.11792974,0.96012115,0.25349537,0.041835368,0.2502464,-0.9672779,,-0.5299262070964116,0.020488410315317625,0.14370022795,0.16481629557883615,-0.0057387329901484995,0.977473347029346,-0.06435756205690601,,-1.3817127521918782,0.03015727187384671,0.1408419085,0.08198876790244902,0.003962458493197773,1.152032981340916,0.07252476536362007
1.2526275210548192,,0.059137892,0.01603897,0.33554327,-0.69513106,-0.054316062,-0.7168281,-0.684745,-0.25360218,0.68323505,-0.21889985,0.96578234,0.13909408,,-0.24107188,0.14869031,0.16440593,0.2686751,-0.84193397,-0.4679327,-0.890614,-0.40218252,0.2122641,-0.36690673,0.35971725,-0.8578945,,0.07112991,-0.03183449,0.24647623,-0.9921325,0.12473851,-0.010649238,0.117991865,0.9601134,0.25349593,0.04184518,0.25024506,-0.96727777,,-0.5299262070964116,0.020488410315317625,0.14370022795,0.16481629557883615,-0.0057387329901484995,0.977473347029346,-0.06435756205690601,,-1.3817127521918782,0.03015727187384671,0.1408419085,0.08198876790244902,0.003962458493197773,1.152032981340916,0.07252476536362007
1.2782325190491974,,0.059137892,0.01603897,0.33554327,-0.69513106,-0.054316062,-0.7168281,-0.684745,-0.25360218,0.68323505,-0.21889985,0.96578234,0.13909408,,-0.24107188,0.14869031,0.16440593,0.2686751,-0.84193397,-0.4679327,-0.890614,-0.40218252,0.2122641,-0.36690673,0.35971725,-0.8578945,,0.07112991,-0.03183449,0.24647623,-0.9921325,0.12473851,-0.010649238,0.117991865,0.9601134,0.25349593,0.04184518,0.25024506,-0.96727777,,-0.5299262070964116,0.020488410315317625,0.14370022795,0.16481629557883615,-0.0057387329901484995,0.977473347029346,-0.06435756205690601,,-1.3817127521918782,0.03015727187384671,0.1408419085,0.08198876790244902,0.003962458493197773,1.152032981340916,0.07252476536362007
1.3009942090138793,,0.059137892,0.01603897,0.33554327,-0.69513106,-0.054316062,-0.7168281,-0.684745,-0.25360218,0.68323505,-0.21889985,0.96578234,0.13909408,,-0.24107188,0.14869031,0.16440593,0.2686751,-0.84193397,-0.4679327,-0.890614,-0.40218252,0.2122641,-0.36690673,0.35971725,-0.8578945,,0.07112991,-0.03183449,0.24647623,-0.9921325,0.12473851,-0.010649238,0.117991865,0.9601134,0.25349593,0.04184518,0.25024506,-0.96727777,,-0.5299262070964116,0.020488410315317625,0.14370022795,0.16481629557883615,-0.0057387329901484995,0.977473347029346,-0.06435756205690601,,-1.3817127521918782,0.03015727187384671,0.1408419085,0.08198876790244902,0.003962458493197773,1.152032981340916,0.07252476536362007
1.3266128010582179,,0.059137892,0.01603897,0.33554327,-0.69513106,-0.054316062,-0.7168281,-0.684745,-0.25360218,0.68323505,-0.21889985,0.96578234,0.13909408,,-0.24107188,0.14869031,0.16440593,0.2686751,-0.84193397,-0.4679327,-0.890614,-0.40218252,0.2122641,-0.36690673,0.35971725,-0.8578945,,0.07112991,-0.03183449,0.24647623,-0.9921325,0.12473851,-0.010649238,0.117991865,0.9601134,0.25349593,0.04184518,0.25024506,-0.96727777,,-0.5299262070964116,0.020488410315317625,0.14370022795,0.16481629557883615,-0.0057387329901484995,0.977473347029346,-0.06435756205690601,,-1.3817127521918782,0.03015727187384671,0.1408419085,0.08198876790244902,0.003962458493197773,1.152032981340916,0.07252476536362007
1.3478601549286395,,0.059137892,0.01603897,0.33554327,-0.69513106,-0.054316062,-0.7168281,-0.684745,-0.25360218,0.68323505,-0.21889985,0.96578234,0.13909408,,-0.24107188,0.14869031,0.16440593,0.2686751,-0.84193397,-0.4679327,-0.890614,-0.40218252,0.2122641,-0.36690673,0.35971725,-0.8578945,,0.07112991,-0.03183449,0.24647623,-0.9921325,0.12473851,-0.010649238,0.117991865,0.9601134,0.25349593,0.04184518,0.25024506,-0.96727777,,-0.5299262070964116,0.020488410315317625,0.14370022795,0.16481629557883615,-0.0057387329901484995,0.977473347029346,-0.06435756205690601,,-1.3817127521918782,0.03015727187384671,0.1408419085,0.08198876790244902,0.003962458493197773,1.152032981340916,0.07252476536362007
1.3749222930055112,,0.059137892,0.01603897,0.33554327,-0.69513106,-0.054316062,-0.7168281,-0.684745,-0.25360218,0.68323505,-0.21889985,0.96578234,0.13909408,,-0.24107188,0.14869031,0.16440593,0.2686751,-0.84193397,-0.4679327,-0.890614,-0.40218252,0.2122641,-0.36690673,0.35971725,-0.8578945,,0.07112991,-0.03183449,0.24647623,-0.9921325,0.12473851,-0.010649238,0.117991865,0.9601134,0.25349593,0.04184518,0.25024506,-0.96727777,,-0.5299262070964116,0.020488410315317625,0.14370022795,0.16481629557883615,-0.0057387329901484995,0.977473347029346,-0.06435756205690601,,-1.3817127521918782,0.03015727187384671,0.1408419085,0.08198876790244902,0.003962458493197773,1.152032981340916,0.07252476536362007
1.3998338310047984,,0.059137892,0.01603897,0.33554327,-0.69513106,-0.054316062,-0.7168281,-0.684745,-0.25360218,0.68323505,-0.21889985,0.96578234,0.13909408,,-0.24107188,0.14869031,0.16440593,0.2686751,-0.84193397,-0.4679327,-0.890614,-0.40218252,0.2122641,-0.36690673,0.35971725,-0.8578945,,0.07112991,-0.03183449,0.24647623,-0.9921325,0.12473851,-0.010649238,0.117991865,0.9601134,0.25349593,0.04184518,0.25024506,-0.96727777,,-0.5299262070964116,0.020488410315317625,0.14370022795,0.16481629557883615,-0.0057387329901484995,0.977473347029346,-0.06435756205690601,,-1.3817127521918782,0.03015727187384671,0.1408419085,0.08198876790244902,0.003962458493197773,1.152032981340916,0.07252476536362007
1.423818594077602,,0.059137892,0.01603897,0.33554327,-0.69513106,-0.054316062,-0.7168281,-0.684745,-0.25360218,0.68323505,-0.21889985,0.96578234,0.13909408,,-0.24107188,0.14869031,0.16440593,0.2686751,-0.84193397,-0.4679327,-0.890614,-0.40218252,0.2122641,-0.36690673,0.35971725,-0.8578945,,0.07112991,-0.03183449,0.24647623,-0.9921325,0.12473851,-0.010649238,0.117991865,0.9601134,0.25349593,0.04184518,0.25024506,-0.96727777,,-0.5299262070964116,0.020488410315317625,0.14370022795,0.16481629557883615,-0.0057387329901484995,0.977473347029346,-0.06435756205690601,,-1.3817127521918782,0.03015727187384671,0.1408419085,0.08198876790244902,0.003962458493197773,1.152032981340916,0.07252476536362007
1.448910189094022,,0.059137892,0.01603897,0.33554327,-0.69513106,-0.054316062,-0.7168281,-0.684745,-0.25360218,0.68323505,-0.21889985,0.96578234,0.13909408,,-0.24107188,0.14869031,0.16440593,0.2686751,-0.84193397,-0.4679327,-0.890614,-0.40218252,0.2122641,-0.36690673,0.35971725,-0.8578945,,0.07112991,-0.03183449,0.24647623,-0.9921325,0.12473851,-0.010649238,0.117991865,0.9601134,0.25349593,0.04184518,0.25024506,-0.96727777,,-0.5299262070964116,0.020488410315317625,0.14370022795,0.16481629557883615,-0.0057387329901484995,0.977473347029346,-0.06435756205690601,,-1.3817127521918782,0.03015727187384671,0.1408419085,0.08198876790244902,0.003962458493197773,1.152032981340916,0.07252476536362007
1.472849105950445,,0.059137892,0.01603897,0.33554327,-0.69513106,-0.054316062,-0.7168281,-0.684745,-0.25360218,0.68323505,-0.21889985,0.96578234,0.13909408,,-0.24107188,0.14869031,0.16440593,0.2686751,-0.84193397,-0.4679327,-0.890614,-0.40218252,0.2122641,-0.36690673,0.35971725,-0.8578945,,0.07112991,-0.03183449,0.24647623,-0.9921325,0.12473851,-0.010649238,0.117991865,0.9601134,0.25349593,0.04184518,0.25024506,-0.96727777,,-0.5299262070964116,0.020488410315317625,0.14370022795,0.16481629557883615,-0.0057387329901484995,0.977473347029346,-0.06435756205690601,,-1.3817127521918782,0.03015727187384671,0.1408419085,0.08198876790244902,0.003962458493197773,1.152032981340916,0.07252476536362007
1.5015063709579408,,0.059137892,0.01603897,0.33554327,-0.69513106,-0.054316062,-0.7168281,-0.684745,-0.25360218,0.68323505,-0.21889985,0.96578234,0.13909408,,-0.24107188,0.14869031,0.16440593,0.2686751,-0.84193397,-0.4679327,-0.890614,-0.40218252,0.2122641,-0.36690673,0.35971725,-0.8578945,,0.07112991,-0.03183449,0.24647623,-0.9921325,0.12473851,-0.010649238,0.117991865,0.9601134,0.25349593,0.04184518,0.25024506,-0.96727777,,-0.5299262070964116,0.020488410315317625,0.14370022795,0.16481629557883615,-0.0057387329901484995,0.977473347029346,-0.06435756205690601,,-1.3817127521918782,0.03015727187384671,0.1408419085,0.08198876790244902,0.003962458493197773,1.152032981340916,0.07252476536362007
1.523542856099084,,0.059137892,0.01603897,0.33554327,-0.69513106,-0.054316062,-0.7168281,-0.684745,-0.25360218,0.68323505,-0.21889985,0.96578234,0.13909408,,-0.24107188,0.14869031,0.16440593,0.2686751,-0.84193397,-0.4679327,-0.890614,-0.40218252,0.2122641,-0.36690673,0.35971725,-0.8578945,,0.07112991,-0.03183449,0.24647623,-0.9921325,0.12473851,-0.010649238,0.117991865,0.9601134,0.25349593,0.04184518,0.25024506,-0.96727777,,-0.5299262070964116,0.020488410315317625,0.14370022795,0.16481629557883615,-0.0057387329901484995,0.977473347029346,-0.06435756205690601,,-1.3817127521918782,0.03015727187384671,0.1408419085,0.08198876790244902,0.003962458493197773,1.152032981340916,0.07252476536362007
1.5470110978931189,,0.059137892,0.01603897,0.33554327,-0.69513106,-0.054316062,-0.7168281,-0.684745,-0.25360218,0.68323505,-0.21889985,0.96578234,0.13909408,,-0.24107188,0.14869031,0.16440593,0.2686751,-0.84193397,-0.4679327,-0.890614,-0.40218252,0.2122641,-0.36690673,0.35971725,-0.8578945,,0.07112991,-0.03183449,0.24647623,-0.9921325,0.12473851,-0.010649238,0.117991865,0.9601134,0.25349593,0.04184518,0.25024506,-0.96727777,,-0.5299262070964116,0.020488410315317625,0.14370022795,0.16481629557883615,-0.0057387329901484995,0.977473347029346,-0.06435756205690601,,-1.3817127521918782,0.03015727187384671,0.1408419085,0.08198876790244902,0.003962458493197773,1.152032981340916,0.07252476536362007
1.5700474390760064,,0.059137892,0.01603897,0.33554327,-0.69513106,-0.054316062,-0.7168281,-0.684745,-0.25360218,0.68323505,-0.21889985,0.96578234,0.13909408,,-0.24107188,0.14869031,0.16440593,0.2686751,-0.84193397,-0.4679327,-0.890614,-0.40218252,0.2122641,-0.36690673,0.35971725,-0.8578945,,0.07112991,-0.03183449,0.24647623,-0.9921325,0.12473851,-0.010649238,0.117991865,0.9601134,0.25349593,0.04184518,0.25024506,-0.96727777,,-0.5299262070964116,0.020488410315317625,0.14370022795,0.16481629557883615,-0.0057387329901484995,0.977473347029346,-0.06435756205690601,,-1.3817127521918782,0.03015727187384671,0.1408419085,0.08198876790244902,0.003962458493197773,1.152032981340916,0.07252476536362007
1.5947320449631661,,0.059137892,0.01603897,0.33554327,-0.69513106,-0.054316062,-0.7168281,-0.684745,-0.25360218,0.68323505,-0.21889985,0.96578234,0.13909408,,-0.24107188,0.14869031,0.16440593,0.2686751,-0.84193397,-0.4679327,-0.890614,-0.40218252,0.2122641,-0.36690673,0.35971725,-0.8578945,,0.07112991,-0.03183449,0.24647623,-0.9921325,0.12473851,-0.010649238,0.117991865,0.9601134,0.25349593,0.04184518,0.25024506,-0.96727777,,-0.5299262070964116,0.020488410315317625,0.14370022795,0.16481629557883615,-0.0057387329901484995,0.977473347029346,-0.06435756205690601,,-1.3817127521918782,0.03015727187384671,0.1408419085,0.08198876790244902,0.003962458493197773,1.152032981340916,0.07252476536362007
1.6181541469413787,,0.059137892,0.01603897,0.33554327,-0.69513106,-0.054316062,-0.7168281,-0.684745,-0.25360218,0.68323505,-0.21889985,0.96578234,0.13909408,,-0.2410729,0.14869362,0.16440742,0.26867834,-0.84193224,-0.46793377,-0.8906104,-0.40218815,0.21226807,-0.36691275,0.3597148,-0.8578929,,0.07112991,-0.03183449,0.24647623,-0.9921325,0.12473851,-0.010649238,0.117991865,0.9601134,0.25349593,0.04184518,0.25024506,-0.96727777,,-0.5299262070964116,0.020488410315317625,0.14370022795,0.16481629557883615,-0.0057387329901484995,0.977473347029346,-0.06435756205690601,,-1.3817127521918782,0.030164994606720934,0.1408419085,0.08198876790244902,0.003962458493197773,1.152032981340916,0.07252476536362007
1.6439119970891625,,0.05913867,0.016038645,0.33554262,-0.6951314,-0.054322302,-0.71682733,-0.6847443,-0.2535977,0.6832375,-0.21890084,0.9657831,0.13908689,,-0.2410729,0.14869362,0.16440742,0.26867834,-0.84193224,-0.46793377,-0.8906104,-0.40218815,0.21226807,-0.36691275,0.3597148,-0.8578929,,0.07112991,-0.03183449,0.24647623,-0.9921325,0.12473851,-0.010649238,0.117991865,0.9601134,0.25349593,0.04184518,0.25024506,-0.96727777,,-0.5299339298292859,0.020488410315317625,0.14370022795,0.16481629557883615,-0.0057387329901484995,0.977473347029346,-0.06435756205690601,,-1.3817127521918782,0.030164994606720934,0.1408419085,0.08198876790244902,0.003962458493197773,1.152032981340916,0.07252476536362007
1.6664983229711652,,0.059137892,0.01603897,0.33554327,-0.69513106,-0.054316062,-0.7168281,-0.684745,-0.25360218,0.68323505,-0.21889985,0.96578234,0.13909408,,-0.24107188,0.14869031,0.16440593,0.2686751,-0.84193397,-0.4679327,-0.890614,-0.40218252,0.2122641,-0.36690673,0.35971725,-0.8578945,,0.07112991,-0.03183449,0.24647623,-0.9921325,0.12473851,-0.010649238,0.117991865,0.9601134,0.25349593,0.04184518,0.25024506,-0.96727777,,-0.5299262070964116,0.020488410315317625,0.14370022795,0.16481629557883615,-0.0057387329901484995,0.977473347029346,-0.06435756205690601,,-1.3817127521918782,0.03015727187384671,0.1408419085,0.08198876790244902,0.003962458493197773,1.152032981340916,0.07252476536362007
1.6913206339813769,,0.05913944,0.016038321,0.335542,-0.6951317,-0.054328542,-0.7168265,-0.68474364,-0.25359327,0.6832398,-0.21890183,0.9657841,0.13907965,,-0.24107188,0.14869031,0.16440593,0.2686751,-0.84193397,-0.4679327,-0.890614,-0.40218252,0.2122641,-0.36690673,0.35971725,-0.8578945,,0.07112991,-0.03183449,0.24647623,-0.9921325,0.12473851,-0.010649238,0.117991865,0.9601134,0.25349593,0.04184518,0.25024506,-0.96727777,,-0.5299416525621601,0.020488410315317625,0.14370022795,0.16481629557883615,-0.0057387329901484995,0.977473347029346,-0.06435756205690601,,-1.3817127521918782,0.03015727187384671,0.1408419085,0.08198876790244902,0.003962458493197773,1.152032981340916,0.07252476536362007
1.71774587710388,,0.05913944,0.016038321,0.335542,-0.6951317,-0.054328542,-0.7168265,-0.68474364,-0.25359327,0.6832398,-0.21890183,0.9657841,0.13907965,,-0.24106699,0.14869168,0.16440472,0.26867592,-0.84193736,-0.467926,-0.8906139,-0.40218136,0.21226637,-0.3669061,0.3597105,-0.8578976,,0.07112991,-0.03183449,0.24647623,-0.9921325,0.12473851,-0.010649238,0.117991865,0.9601134,0.25349593,0.04184518,0.25024506,-0.96727777,,-0.5299416525621601,0.020488410315317625,0.14370022795,0.16481629557883615,-0.0057387329901484995,0.977473347029346,-0.06435756205690601,,-1.3817204749247525,0.03015727187384671,0.1408419085,0.08198876790244902,0.003962458493197773,1.152032981340916,0.07252476536362007
1.739605732029304,,0.05913867,0.016038645,0.33554262,-0.6951314,-0.054322302,-0.71682733,-0.6847443,-0.2535977,0.6832375,-0.21890084,0.9657831,0.13908689,,-0.24107188,0.14869031,0.16440593,0.2686751,-0.84193397,-0.4679327,-0.890614,-0.40218252,0.2122641,-0.36690673,0.35971725,-0.8578945,,0.07112991,-0.03183449,0.24647623,-0.9921325,0.12473851,-0.010649238,0.117991865,0.9601134,0.25349593,0.04184518,0.25024506,-0.96727777,,-0.5299339298292859,0.020488410315317625,0.14370022795,0.16481629557883615,-0.0057387329901484995,0.977473347029346,-0.06435756205690601,,-1.3817127521918782,0.03015727187384671,0.1408419085,0.08198876790244902,0.003962458493197773,1.152032981340916,0.07252476536362007
1.7669137930497527,,0.05913867,0.016038645,0.33554262,-0.6951314,-0.054322302,-0.71682733,-0.6847443,-0.2535977,0.6832375,-0.21890084,0.9657831,0.13908689,,-0.2410729,0.14869362,0.16440742,0.26867834,-0.84193224,-0.46793377,-0.8906104,-0.40218815,0.21226807,-0.36691275,0.3597148,-0.8578929,,0.07112991,-0.03183449,0.24647623,-0.9921325,0.12473851,-0.010649238,0.117991865,0.9601134,0.25349593,0.04184518,0.25024506,-0.96727777,,-0.5299339298292859,0.020488410315317625,0.14370022795,0.16481629557883615,-0.0057387329901484995,0.977473347029346,-0.06435756205690601,,-1.3817127521918782,0.030164994606720934,0.1408419085,0.08198876790244902,0.003962458493197773,1.152032981340916,0.07252476536362007
1.7897615190595388,,0.059137892,0.01603897,0.33554327,-0.69513106,-0.054316062,-0.7168281,-0.684745,-0.25360218,0.68323505,-0.21889985,0.96578234,0.13909408,,-0.24107188,0.14869031,0.16440593,0.2686751,-0.84193397,-0.4679327,-0.890614,-0.40218252,0.2122641,-0.36690673,0.35971725,-0.8578945,,0.07112991,-0.03183449,0.24647623,-0.9921325,0.12473851,-0.010649238,0.117991865,0.9601134,0.25349593,0.04184518,0.25024506,-0.96727777,,-0.5299262070964116,0.020488410315317625,0.14370022795,0.16481629557883615,-0.0057387329901484995,0.977473347029346,-0.06435756205690601,,-1.3817127521918782,0.03015727187384671,0.1408419085,0.08198876790244902,0.003962458493197773,1.152032981340916,0.07252476536362007
1.8168598990887403,,0.05913867,0.016038645,0.33554262,-0.6951314,-0.054322302,-0.71682733,-0.6847443,-0.2535977,0.6832375,-0.21890084,0.9657831,0.13908689,,-0.24107188,0.14869031,0.16440593,0.2686751,-0.84193397,-0.4679327,-0.890614,-0.40218252,0.2122641,-0.36690673,0.35971725,-0.8578945,,0.07112991,-0.03183449,0.24647623,-0.9921325,0.12473851,-0.010649238,0.117991865,0.9601134,0.25349593,0.04184518,0.25024506,-0.96727777,,-0.5299339298292859,0.020488410315317625,0.14370022795,0.16481629557883615,-0.0057387329901484995,0.977473347029346,-0.06435756205690601,,-1.3817127521918782,0.03015727187384671,0.1408419085,0.08198876790244902,0.003962458493197773,1.152032981340916,0.07252476536362007
1.8388208139222115,,0.05913944,0.016038321,0.335542,-0.6951317,-0.054328542,-0.7168265,-0.68474364,-0.25359327,0.6832398,-0.21890183,0.9657841,0.13907965,,-0.24107188,0.14869031,0.16440593,0.2686751,-0.84193397,-0.4679327,-0.890614,-0.40218252,0.2122641,-0.36690673,0.35971725,-0.8578945,,0.07112991,-0.03183449,0.24647623,-0.9921325,0.12473851,-0.010649238,0.117991865,0.9601134,0.25349593,0.04184518,0.25024506,-0.96727777,,-0.5299416525621601,0.020488410315317625,0.14370022795,0.16481629557883615,-0.0057387329901484995,0.977473347029346,-0.06435756205690601,,-1.3817127521918782,0.03015727187384671,0.1408419085,0.08198876790244902,0.003962458493197773,1.152032981340916,0.07252476536362007
1.8620131709612906,,0.05913867,0.016038645,0.33554262,-0.6951314,-0.054322302,-0.71682733,-0.6847443,-0.2535977,0.6832375,-0.21890084,0.9657831,0.13908689,,-0.2410729,0.14869362,0.16440742,0.26867834,-0.84193224,-0.46793377,-0.8906104,-0.40218815,0.21226807,-0.36691275,0.3597148,-0.8578929,,0.07112991,-0.03183449,0.24647623,-0.9921325,0.12473851,-0.010649238,0.117991865,0.9601134,0.25349593,0.04184518,0.25024506,-0.96727777,,-0.5299339298292859,0.020488410315317625,0.14370022795,0.16481629557883615,-0.0057387329901484995,0.977473347029346,-0.06435756205690601,,-1.3817127521918782,0.030164994606720934,0.1408419085,0.08198876790244902,0.003962458493197773,1.152032981340916,0.07252476536362007
1.8881829970050603,,0.05913867,0.016038645,0.33554262,-0.6951314,-0.054322302,-0.71682733,-0.6847443,-0.2535977,0.6832375,-0.21890084,0.9657831,0.13908689,,-0.2410729,0.14869362,0.16440742,0.26867834,-0.84193224,-0.46793377,-0.8906104,-0.40218815,0.21226807,-0.36691275,0.3597148,-0.8578929,,0.07112991,-0.03183449,0.24647623,-0.9921325,0.12473851,-0.010649238,0.117991865,0.9601134,0.25349593,0.04184518,0.25024506,-0.96727777,,-0.5299339298292859,0.020488410315317625,0.14370022795,0.16481629557883615,-0.0057387329901484995,0.977473347029346,-0.06435756205690601,,-1.3817127521918782,0.030164994606720934,0.1408419085,0.08198876790244902,0.003962458493197773,1.152032981340916,0.07252476536362007
1.9083542490843683,,0.059137892,0.01603897,0.33554327,-0.69513106,-0.054316062,-0.7168281,-0.684745,-0.25360218,0.68323505,-0.21889985,0.96578234,0.13909408,,-0.24107188,0.14869031,0.16440593,0.2686751,-0.84193397,-0.4679327,-0.890614,-0.40218252,0.2122641,-0.36690673,0.35971725,-0.8578945,,0.07112991,-0.03183449,0.24647623,-0.9921325,0.12473851,-0.010649238,0.117991865,0.9601134,0.25349593,0.04184518,0.25024506,-0.96727777,,-0.5299262070964116,0.020488410315317625,0.14370022795,0.16481629557883615,-0.0057387329901484995,0.977473347029346,-0.06435756205690601,,-1.3817127521918782,0.03015727187384671,0.1408419085,0.08198876790244902,0.003962458493197773,1.152032981340916,0.07252476536362007
1.9355168819893152,,0.05913867,0.016038645,0.33554262,-0.6951314,-0.054322302,-0.71682733,-0.6847443,-0.2535977,0.6832375,-0.21890084,0.9657831,0.13908689,,-0.24107188,0.14869031,0.16440593,0.2686751,-0.84193397,-0.4679327,-0.890614,-0.40218252,0.2122641,-0.36690673,0.35971725,-0.8578945,,0.07112991,-0.03183449,0.24647623,-0.9921325,0.12473851,-0.010649238,0.117991865,0.9601134,0.25349593,0.04184518,0.25024506,-0.96727777,,-0.5299339298292859,0.020488410315317625,0.14370022795,0.16481629557883615,-0.0057387329901484995,0.977473347029346,-0.06435756205690601,,-1.3817127521918782,0.03015727187384671,0.1408419085,0.08198876790244902,0.003962458493197773,1.152032981340916,0.07252476536362007
1.9577839460689574,,0.05913944,0.016038321,0.335542,-0.6951317,-0.054328542,-0.7168265,-0.68474364,-0.25359327,0.6832398,-0.21890183,0.9657841,0.13907965,,-0.24107188,0.14869031,0.16440593,0.2686751,-0.84193397,-0.4679327,-0.890614,-0.40218252,0.2122641,-0.36690673,0.35971725,-0.8578945,,0.07112991,-0.03183449,0.24647623,-0.9921325,0.12473851,-0.010649238,0.117991865,0.9601134,0.25349593,0.04184518,0.25024506,-0.96727777,,-0.5299416525621601,0.020488410315317625,0.14370022795,0.16481629557883615,-0.0057387329901484995,0.977473347029346,-0.06435756205690601,,-1.3817127521918782,0.03015727187384671,0.1408419085,0.08198876790244902,0.003962458493197773,1.152032981340916,0.07252476536362007
1.9863946998957545,,0.05913867,0.016038645,0.33554262,-0.6951314,-0.054322302,-0.71682733,-0.6847443,-0.2535977,0.6832375,-0.21890084,0.9657831,0.13908689,,-0.2410729,0.14869362,0.16440742,0.26867834,-0.84193224,-0.46793377,-0.8906104,-0.40218815,0.21226807,-0.36691275,0.3597148,-0.8578929,,0.07112991,-0.03183449,0.24647623,-0.9921325,0.12473851,-0.010649238,0.117991865,0.9601134,0.25349593,0.04184518,0.25024506,-0.96727777,,-0.5299339298292859,0.020488410315317625,0.14370022795,0.16481629557883615,-0.0057387329901484995,0.977473347029346,-0.06435756205690601,,-1.3817127521918782,0.030164994606720934,0.1408419085,0.08198876790244902,0.003962458493197773,1.152032981340916,0.07252476536362007
2.0075760779436678,,0.05913867,0.016038645,0.33554262,-0.6951314,-0.054322302,-0.71682733,-0.6847443,-0.2535977,0.6832375,-0.21890084,0.9657831,0.13908689,,-0.2410729,0.14869362,0.16440742,0.26867834,-0.84193224,-0.46793377,-0.8906104,-0.40218815,0.21226807,-0.36691275,0.3597148,-0.8578929,,0.07112991,-0.03183449,0.24647623,-0.9921325,0.12473851,-0.010649238,0.117991865,0.9601134,0.25349593,0.04184518,0.25024506,-0.96727777,,-0.5299339298292859,0.020488410315317625,0.14370022795,0.16481629557883615,-0.0057387329901484995,0.977473347029346,-0.06435756205690601,,-1.3817127521918782,0.030164994606720934,0.1408419085,0.08198876790244902,0.003962458493197773,1.152032981340916,0.07252476536362007
2.0326649949420244,,0.059137892,0.01603897,0.33554327,-0.69513106,-0.054316062,-0.7168281,-0.684745,-0.25360218,0.68323505,-0.21889985,0.96578234,0.13909408,,-0.24107188,0.14869031,0.16440593,0.2686751,-0.84193397,-0.4679327,-0.890614,-0.40218252,0.2122641,-0.36690673,0.35971725,-0.8578945,,0.07112991,-0.03183449,0.24647623,-0.9921325,0.12473851,-0.010649238,0.117991865,0.9601134,0.25349593,0.04184518,0.25024506,-0.96727777,,-0.5299262070964116,0.020488410315317625,0.14370022795,0.16481629557883615,-0.0057387329901484995,0.977473347029346,-0.06435756205690601,,-1.3817127521918782,0.03015727187384671,0.1408419085,0.08198876790244902,0.003962458493197773,1.152032981340916,0.07252476536362007
2.0579736889339983,,0.059137892,0.01603897,0.33554327,-0.69513106,-0.054316062,-0.7168281,-0.684745,-0.25360218,0.68323505,-0.21889985,0.96578234,0.13909408,,-0.24107188,0.14869031,0.16440593,0.2686751,-0.84193397,-0.4679327,-0.890614,-0.40218252,0.2122641,-0.36690673,0.35971725,-0.8578945,,0.07112991,-0.03183449,0.24647623,-0.9921325,0.12473851,-0.010649238,0.117991865,0.9601134,0.25349593,0.04184518,0.25024506,-0.96727777,,-0.5299262070964116,0.020488410315317625,0.14370022795,0.16481629557883615,-0.0057387329901484995,0.977473347029346,-0.06435756205690601,,-1.3817127521918782,0.03015727187384671,0.1408419085,0.08198876790244902,0.003962458493197773,1.152032981340916,0.07252476536362007
2.0813472310546786,,0.05913867,0.016038645,0.33554262,-0.6951314,-0.054322302,-0.71682733,-0.6847443,-0.2535977,0.6832375,-0.21890084,0.9657831,0.13908689,,-0.24107188,0.14869031,0.16440593,0.2686751,-0.84193397,-0.4679327,-0.890614,-0.40218252,0.2122641,-0.36690673,0.35971725,-0.8578945,,0.07112991,-0.03183449,0.24647623,-0.9921325,0.12473851,-0.010649238,0.117991865,0.9601134,0.25349593,0.04184518,0.25024506,-0.96727777,,-0.5299339298292859,0.020488410315317625,0.14370022795,0.16481629557883615,-0.0057387329901484995,0.977473347029346,-0.06435756205690601,,-1.3817127521918782,0.03015727187384671,0.1408419085,0.08198876790244902,0.003962458493197773,1.152032981340916,0.07252476536362007
2.105066755088046,,0.05913867,0.016038645,0.33554262,-0.6951314,-0.054322302,-0.71682733,-0.6847443,-0.2535977,0.6832375,-0.21890084,0.9657831,0.13908689,,-0.2410729,0.14869362,0.16440742,0.26867834,-0.84193224,-0.46793377,-0.8906104,-0.40218815,0.21226807,-0.36691275,0.3597148,-0.8578929,,0.07112991,-0.03183449,0.24647623,-0.9921325,0.12473851,-0.010649238,0.117991865,0.9601134,0.25349593,0.04184518,0.25024506,-0.96727777,,-0.5299339298292859,0.020488410315317625,0.14370022795,0.16481629557883615,-0.0057387329901484995,0.977473347029346,-0.06435756205690601,,-1.3817127521918782,0.030164994606720934,0.1408419085,0.08198876790244902,0.003962458493197773,1.152032981340916,0.07252476536362007
2.132361751049757,,0.05913867,0.016038645,0.33554262,-0.6951314,-0.054322302,-0.71682733,-0.6847443,-0.2535977,0.6832375,-0.21890084,0.9657831,0.13908689,,-0.241068,0.14869496,0.16440624,0.26867923,-0.8419357,-0.46792707,-0.89061046,-0.40218696,0.21227033,-0.36691213,0.35970807,-0.857896,,0.07112991,-0.03183449,0.24647623,-0.9921325,0.12473851,-0.010649238,0.117991865,0.9601134,0.25349593,0.04184518,0.25024506,-0.96727777,,-0.5299339298292859,0.020488410315317625,0.14370022795,0.16481629557883615,-0.0057387329901484995,0.977473347029346,-0.06435756205690601,,-1.3817204749247525,0.030164994606720934,0.1408419085,0.08198876790244902,0.003962458493197773,1.152032981340916,0.07252476536362007
2.154367537004873,,0.059137892,0.01603897,0.33554327,-0.69513106,-0.054316062,-0.7168281,-0.684745,-0.25360218,0.68323505,-0.21889985,0.96578234,0.13909408,,-0.24106207,0.14869303,0.16440354,0.2686768,-0.8419407,-0.46791932,-0.890614,-0.40218014,0.21226859,-0.36690548,0.35970375,-0.8579006,,0.07112991,-0.03183449,0.24647623,-0.9921325,0.12473851,-0.010649238,0.117991865,0.9601134,0.25349593,0.04184518,0.25024506,-0.96727777,,-0.5299262070964116,0.020488410315317625,0.14370022795,0.16481629557883615,-0.0057387329901484995,0.977473347029346,-0.06435756205690601,,-1.3817281976576266,0.03015727187384671,0.1408419085,0.08198876790244902,0.003962458493197773,1.152032981340916,0.07252476536362007
2.1754477359354496,,0.059137892,0.01603897,0.33554327,-0.69513106,-0.054316062,-0.7168281,-0.684745,-0.25360218,0.68323505,-0.21889985,0.96578234,0.13909408,,-0.24106699,0.14869168,0.16440472,0.26867592,-0.84193736,-0.467926,-0.8906139,-0.40218136,0.21226637,-0.3669061,0.3597105,-0.8578976,,0.07112991,-0.03183449,0.24647623,-0.9921325,0.12473851,-0.010649238,0.117991865,0.9601134,0.25349593,0.04184518,0.25024506,-0.96727777,,-0.5299262070964116,0.020488410315317625,0.14370022795,0.16481629557883615,-0.0057387329901484995,0.977473347029346,-0.06435756205690601,,-1.3817204749247525,0.03015727187384671,0.1408419085,0.08198876790244902,0.003962458493197773,1.152032981340916,0.07252476536362007
2.202086386969313,,0.059137892,0.01603897,0.33554327,-0.69513106,-0.054316062,-0.7168281,-0.684745,-0.25360218,0.68323505,-0.21889985,0.96578234,0.13909408,,-0.24107188,0.14869031,0.16440593,0.2686751,-0.84193397,-0.4679327,-0.890614,-0.40218252,0.2122641,-0.36690673,0.35971725,-0.8578945,,0.07112991,-0.03183449,0.24647623,-0.9921325,0.12473851,-0.010649238,0.117991865,0.9601134,0.25349593,0.04184518,0.25024506,-0.96727777,,-0.5299262070964116,0.020488410315317625,0.14370022795,0.16481629557883615,-0.0057387329901484995,0.977473347029346,-0.06435756205690601,,-1.3817127521918782,0.03015727187384671,0.1408419085,0.08198876790244902,0.003962458493197773,1.152032981340916,0.07252476536362007
2.2257144490722567,,0.059137892,0.01603897,0.33554327,-0.69513106,-0.054316062,-0.7168281,-0.684745,-0.25360218,0.68323505,-0.21889985,0.96578234,0.13909408,,-0.2410729,0.14869362,0.16440742,0.26867834,-0.84193224,-0.46793377,-0.8906104,-0.40218815,0.21226807,-0.36691275,0.3597148,-0.8578929,,0.07112991,-0.03183449,0.24647623,-0.9921325,0.12473851,-0.010649238,0.117991865,0.9601134,0.25349593,0.04184518,0.25024506,-0.96727777,,-0.5299262070964116,0.020488410315317625,0.14370022795,0.16481629557883615,-0.0057387329901484995,0.977473347029346,-0.06435756205690601,,-1.3817127521918782,0.030164994606720934,0.1408419085,0.08198876790244902,0.003962458493197773,1.152032981340916,0.07252476536362007
2.252564651891589,,0.05913867,0.016038645,0.33554262,-0.6951314,-0.054322302,-0.71682733,-0.6847443,-0.2535977,0.6832375,-0.21890084,0.9657831,0.13908689,,-0.2410729,0.14869362,0.16440742,0.26867834,-0.84193224,-0.46793377,-0.8906104,-0.40218815,0.21226807,-0.36691275,0.3597148,-0.8578929,,0.07112991,-0.03183449,0.24647623,-0.9921325,0.12473851,-0.010649238,0.117991865,0.9601134,0.25349593,0.04184518,0.25024506,-0.96727777,,-0.5299339298292859,0.020488410315317625,0.14370022795,0.16481629557883615,-0.0057387329901484995,0.977473347029346,-0.06435756205690601,,-1.3817127521918782,0.030164994606720934,0.1408419085,0.08198876790244902,0.003962458493197773,1.152032981340916,0.07252476536362007
2.2827481059357524,,0.059137892,0.01603897,0.33554327,-0.69513106,-0.054316062,-0.7168281,-0.684745,-0.25360218,0.68323505,-0.21889985,0.96578234,0.13909408,,-0.24107188,0.14869031,0.16440593,0.2686751,-0.84193397,-0.4679327,-0.890614,-0.40218252,0.2122641,-0.36690673,0.35971725,-0.8578945,,0.07112991,-0.03183449,0.24647623,-0.9921325,0.12473851,-0.010649238,0.117991865,0.9601134,0.25349593,0.04184518,0.25024506,-0.96727777,,-0.5299262070964116,0.020488410315317625,0.14370022795,0.16481629557883615,-0.0057387329901484995,0.977473347029346,-0.06435756205690601,,-1.3817127521918782,0.03015727187384671,0.1408419085,0.08198876790244902,0.003962458493197773,1.152032981340916,0.07252476536362007
2.3089792549144477,,0.059137892,0.01603897,0.33554327,-0.69513106,-0.054316062,-0.7168281,-0.684745,-0.25360218,0.68323505,-0.21889985,0.96578234,0.13909408,,-0.2410739,0.14869696,0.16440889,0.26868165,-0.8419306,-0.46793488,-0.8906069,-0.40219378,0.21227203,-0.3669188,0.3597124,-0.85789126,,0.07112991,-0.03183449,0.24647623,-0.9921325,0.12473851,-0.010649238,0.117991865,0.9601134,0.25349593,0.04184518,0.25024506,-0.96727777,,-0.5299262070964116,0.020488410315317625,0.14370022795,0.16481629557883615,-0.0057387329901484995,0.977473347029346,-0.06435756205690601,,-1.3817127521918782,0.03017271733959516,0.1408419085,0.08198876790244902,0.003962458493197773,1.152032981340916,0.07252476536362007
2.3327099040616304,,0.059138514,0.016039755,0.33554363,-0.6951337,-0.05431955,-0.7168253,-0.68474054,-0.25360736,0.6832377,-0.21890536,0.9657808,0.13909625,,-0.2410739,0.14869696,0.16440889,0.26868165,-0.8419306,-0.46793488,-0.8906069,-0.40219378,0.21227203,-0.3669188,0.3597124,-0.85789126,,0.07112991,-0.03183449,0.24647623,-0.9921325,0.12473851,-0.010649238,0.117991865,0.9601134,0.25349593,0.04184518,0.25024506,-0.96727777,,-0.5299262070964116,0.02049613304819185,0.14370022795,0.16481629557883615,-0.0057387329901484995,0.977473347029346,-0.06435756205690601,,-1.3817127521918782,0.03017271733959516,0.1408419085,0.08198876790244902,0.003962458493197773,1.152032981340916,0.07252476536362007
2.3567025139927864,,0.059137892,0.01603897,0.33554327,-0.69513106,-0.054316062,-0.7168281,-0.684745,-0.25360218,0.68323505,-0.21889985,0.96578234,0.13909408,,-0.2410729,0.14869362,0.16440742,0.26867834,-0.84193224,-0.46793377,-0.8906104,-0.40218815,0.21226807,-0.36691275,0.3597148,-0.8578929,,0.07112991,-0.03183449,0.24647623,-0.9921325,0.12473851,-0.010649238,0.117991865,0.9601134,0.25349593,0.04184518,0.25024506,-0.96727777,,-0.5299262070964116,0.020488410315317625,0.14370022795,0.16481629557883615,-0.0057387329901484995,0.977473347029346,-0.06435756205690601,,-1.3817127521918782,0.030164994606720934,0.1408419085,0.08198876790244902,0.003962458493197773,1.152032981340916,0.07252476536362007
2.383708599023521,,0.059090942,0.016074155,0.33556142,-0.6951656,-0.05426343,-0.7167987,-0.6847235,-0.25360203,0.6832567,-0.21885747,0.9657853,0.13913998,,-0.24101135,0.14866836,0.16440219,0.26876757,-0.8418519,-0.46802723,-0.8905736,-0.40230027,0.21220972,-0.36693662,0.3597776,-0.85785645,,0.07115609,-0.031836983,0.24648084,-0.9921374,0.1246997,-0.010653144,0.117953345,0.9601182,0.25349557,0.041839097,0.2502459,-0.9672778,,-0.5299262070964116,0.020488410315317625,0.14370022795,0.16481629557883615,-0.0057387329901484995,0.977473347029346,-0.06435756205690601,,-1.3817127521918782,0.03015727187384671,0.1408419085,0.08198876790244902,0.003962458493197773,1.152032981340916,0.07252476536362007
2.4050115100108087,,0.059090942,0.016074155,0.33556142,-0.6951656,-0.05426343,-0.7167987,-0.6847235,-0.25360203,0.6832567,-0.21885747,0.9657853,0.13913998,,-0.24101135,0.14866836,0.16440219,0.26876757,-0.8418519,-0.46802723,-0.8905736,-0.40230027,0.21220972,-0.36693662,0.3597776,-0.85785645,,0.07115609,-0.031836983,0.24648084,-0.9921374,0.1246997,-0.010653144,0.117953345,0.9601182,0.25349557,0.041839097,0.2502459,-0.9672778,,-0.5299262070964116,0.020488410315317625,0.14370022795,0.16481629557883615,-0.0057387329901484995,0.977473347029346,-0.06435756205690601,,-1.3817127521918782,0.03015727187384671,0.1408419085,0.08198876790244902,0.003962458493197773,1.152032981340916,0.07252476536362007
2.4270742789376527,,0.059090942,0.016074155,0.33556142,-0.6951656,-0.05426343,-0.7167987,-0.6847235,-0.25360203,0.6832567,-0.21885747,0.9657853,0.13913998,,-0.24101135,0.14866836,0.16440219,0.26876757,-0.8418519,-0.46802723,-0.8905736,-0.40230027,0.21220972,-0.36693662,0.3597776,-0.85785645,,0.07115609,-0.031836983,0.24648084,-0.9921374,0.1246997,-0.010653144,0.117953345,0.9601182,0.25349557,0.041839097,0.2502459,-0.9672778,,-0.5299262070964116,0.020488410315317625,0.14370022795,0.16481629557883615,-0.0057387329901484995,0.977473347029346,-0.06435756205690601,,-1.3817127521918782,0.03015727187384671,0.1408419085,0.08198876790244902,0.003962458493197773,1.152032981340916,0.07252476536362007
2.455525445053354,,0.059090942,0.016074155,0.33556142,-0.6951656,-0.05426343,-0.7167987,-0.6847235,-0.25360203,0.6832567,-0.21885747,0.9657853,0.13913998,,-0.2410123,0.14867166,0.16440365,0.2687709,-0.8418503,-0.46802822,-0.89057016,-0.40230593,0.21221367,-0.36694267,0.3597752,-0.8578548,,0.07115609,-0.031836983,0.24648084,-0.9921374,0.1246997,-0.010653144,0.117953345,0.9601182,0.25349557,0.041839097,0.2502459,-0.9672778,,-0.5299262070964116,0.020488410315317625,0.14370022795,0.16481629557883615,-0.0057387329901484995,0.977473347029346,-0.06435756205690601,,-1.3817127521918782,0.030164994606720934,0.1408419085,0.08198876790244902,0.003962458493197773,1.152032981340916,0.07252476536362007
2.4760030729230493,,0.059090942,0.016074155,0.33556142,-0.6951656,-0.05426343,-0.7167987,-0.6847235,-0.25360203,0.6832567,-0.21885747,0.9657853,0.13913998,,-0.24100745,0.14867303,0.16440244,0.2687717,-0.84185374,-0.4680216,-0.89057016,-0.40230477,0.21221592,-0.36694205,0.35976833,-0.8578579,,0.07115609,-0.031836983,0.24648084,-0.9921374,0.1246997,-0.010653144,0.117953345,0.9601182,0.25349557,0.041839097,0.2502459,-0.9672778,,-0.5299262070964116,0.020488410315317625,0.14370022795,0.16481629557883615,-0.0057387329901484995,0.977473347029346,-0.06435756205690601,,-1.3817204749247525,0.030164994606720934,0.1408419085,0.08198876790244902,0.003962458493197773,1.152032981340916,0.07252476536362007
2.504920101026073,,0.059090942,0.016074155,0.33556142,-0.6951656,-0.05426343,-0.7167987,-0.6847235,-0.25360203,0.6832567,-0.21885747,0.9657853,0.13913998,,-0.24100149,0.14867106,0.16439979,0.26876932,-0.8418588,-0.4680138,-0.89057356,-0.40229794,0.21221422,-0.36693537,0.35976404,-0.85786253,,0.07115609,-0.031836983,0.24648084,-0.9921374,0.1246997,-0.010653144,0.117953345,0.9601182,0.25349557,0.041839097,0.2502459,-0.9672778,,-0.5299262070964116,0.020488410315317625,0.14370022795,0.16481629557883615,-0.0057387329901484995,0.977473347029346,-0.06435756205690601,,-1.3817281976576266,0.03015727187384671,0.1408419085,0.08198876790244902,0.003962458493197773,1.152032981340916,0.07252476536362007
2.526309282053262,,0.059090942,0.016074155,0.33556142,-0.6951656,-0.05426343,-0.7167987,-0.6847235,-0.25360203,0.6832567,-0.21885747,0.9657853,0.13913998,,-0.24100643,0.1486697,0.164401,0.2687684,-0.84185535,-0.46802047,-0.8905737,-0.4022991,0.21221194,-0.366936,0.35977077,-0.85785943,,0.07115609,-0.031836983,0.24648084,-0.9921374,0.1246997,-0.010653144,0.117953345,0.9601182,0.25349557,0.041839097,0.2502459,-0.9672778,,-0.5299262070964116,0.020488410315317625,0.14370022795,0.16481629557883615,-0.0057387329901484995,0.977473347029346,-0.06435756205690601,,-1.3817204749247525,0.03015727187384671,0.1408419085,0.08198876790244902,0.003962458493197773,1.152032981340916,0.07252476536362007
2.5532254250720143,,0.059090942,0.016074155,0.33556142,-0.6951656,-0.05426343,-0.7167987,-0.6847235,-0.25360203,0.6832567,-0.21885747,0.9657853,0.13913998,,-0.24100643,0.1486697,0.164401,0.2687684,-0.84185535,-0.46802047,-0.8905737,-0.4022991,0.21221194,-0.366936,0.35977077,-0.85785943,,0.07115609,-0.031836983,0.24648084,-0.9921374,0.1246997,-0.010653144,0.117953345,0.9601182,0.25349557,0.041839097,0.2502459,-0.9672778,,-0.5299262070964116,0.020488410315317625,0.14370022795,0.16481629557883615,-0.0057387329901484995,0.977473347029346,-0.06435756205690601,,-1.3817204749247525,0.03015727187384671,0.1408419085,0.08198876790244902,0.003962458493197773,1.152032981340916,0.07252476536362007
2.57444383809343,,0.059090942,0.016074155,0.33556142,-0.6951656,-0.05426343,-0.7167987,-0.6847235,-0.25360203,0.6832567,-0.21885747,0.9657853,0.13913998,,-0.24101135,0.14866836,0.16440219,0.26876757,-0.8418519,-0.46802723,-0.8905736,-0.40230027,0.21220972,-0.36693662,0.3597776,-0.85785645,,0.07115609,-0.031836983,0.24648084,-0.9921374,0.1246997,-0.010653144,0.117953345,0.9601182,0.25349557,0.041839097,0.2502459,-0.9672778,,-0.5299262070964116,0.020488410315317625,0.14370022795,0.16481629557883615,-0.0057387329901484995,0.977473347029346,-0.06435756205690601,,-1.3817127521918782,0.03015727187384671,0.1408419085,0.08198876790244902,0.003962458493197773,1.152032981340916,0.07252476536362007
2.6011910780798644,,0.05909249,0.016073499,0.33556014,-0.69516635,-0.0542759,-0.716797,-0.684722,-0.25359312,0.6832614,-0.21885945,0.96578705,0.13912551,,-0.24100253,0.14867437,0.16440125,0.26877257,-0.8418571,-0.46801493,-0.8905701,-0.40230358,0.21221817,-0.36694145,0.3597617,-0.857861,,0.07115609,-0.031836983,0.24648084,-0.9921374,0.1246997,-0.010653144,0.117953345,0.9601182,0.25349557,0.041839097,0.2502459,-0.9672778,,-0.5299416525621601,0.020488410315317625,0.14370022795,0.16481629557883615,-0.0057387329901484995,0.977473347029346,-0.06435756205690601,,-1.3817281976576266,0.030164994606720934,0.1408419085,0.08198876790244902,0.003962458493197773,1.152032981340916,0.07252476536362007
2.6260452130809426,,0.05909249,0.016073499,0.33556014,-0.69516635,-0.0542759,-0.716797,-0.684722,-0.25359312,0.6832614,-0.21885945,0.96578705,0.13912551,,-0.24100643,0.1486697,0.164401,0.2687684,-0.84185535,-0.46802047,-0.8905737,-0.4022991,0.21221194,-0.366936,0.35977077,-0.85785943,,0.07115609,-0.031836983,0.24648084,-0.9921374,0.1246997,-0.010653144,0.117953345,0.9601182,0.25349557,0.041839097,0.2502459,-0.9672778,,-0.5299416525621601,0.020488410315317625,0.14370022795,0.16481629557883615,-0.0057387329901484995,0.977473347029346,-0.06435756205690601,,-1.3817204749247525,0.03015727187384671,0.1408419085,0.08198876790244902,0.003962458493197773,1.152032981340916,0.07252476536362007
2.654970606090501,,0.059091717,0.016073827,0.3355608,-0.69516593,-0.054269664,-0.7167978,-0.6847228,-0.2535976,0.683259,-0.21885847,0.9657862,0.13913275,,-0.24101135,0.14866836,0.16440219,0.26876757,-0.8418519,-0.46802723,-0.8905736,-0.40230027,0.21220972,-0.36693662,0.3597776,-0.85785645,,0.07115609,-0.031836983,0.24648084,-0.9921374,0.1246997,-0.010653144,0.117953345,0.9601182,0.25349557,0.041839097,0.2502459,-0.9672778,,-0.5299339298292859,0.020488410315317625,0.14370022795,0.16481629557883615,-0.0057387329901484995,0.977473347029346,-0.06435756205690601,,-1.3817127521918782,0.03015727187384671,0.1408419085,0.08198876790244902,0.003962458493197773,1.152032981340916,0.07252476536362007
2.6753595429472625,,0.059091717,0.016073827,0.3355608,-0.69516593,-0.054269664,-0.7167978,-0.6847228,-0.2535976,0.683259,-0.21885847,0.9657862,0.13913275,,-0.24101135,0.14866836,0.16440219,0.26876757,-0.8418519,-0.46802723,-0.8905736,-0.40230027,0.21220972,-0.36693662,0.3597776,-0.85785645,,0.07115609,-0.031836983,0.24648084,-0.9921374,0.1246997,-0.010653144,0.117953345,0.9601182,0.25349557,0.041839097,0.2502459,-0.9672778,,-0.5299339298292859,0.020488410315317625,0.14370022795,0.16481629557883615,-0.0057387329901484995,0.977473347029346,-0.06435756205690601,,-1.3817127521918782,0.03015727187384671,0.1408419085,0.08198876790244902,0.003962458493197773,1.152032981340916,0.07252476536362007
2.7001536609604955,,0.059090942,0.016074155,0.33556142,-0.6951656,-0.05426343,-0.7167987,-0.6847235,-0.25360203,0.6832567,-0.21885747,0.9657853,0.13913998,,-0.2410123,0.14867166,0.16440365,0.2687709,-0.8418503,-0.46802822,-0.89057016,-0.40230593,0.21221367,-0.36694267,0.3597752,-0.8578548,,0.07115609,-0.031836983,0.24648084,-0.9921374,0.1246997,-0.010653144,0.117953345,0.9601182,0.25349557,0.041839097,0.2502459,-0.9672778,,-0.5299262070964116,0.020488410315317625,0.14370022795,0.16481629557883615,-0.0057387329901484995,0.977473347029346,-0.06435756205690601,,-1.3817127521918782,0.030164994606720934,0.1408419085,0.08198876790244902,0.003962458493197773,1.152032981340916,0.07252476536362007
2.7260633539408445,,0.059091717,0.016073827,0.3355608,-0.69516593,-0.054269664,-0.7167978,-0.6847228,-0.2535976,0.683259,-0.21885847,0.9657862,0.13913275,,-0.24092585,0.14869434,0.16436514,0.26877517,-0.84192854,-0.4678849,-0.8905799,-0.4022628,0.21225466,-0.36691594,0.35964012,-0.85792285,,0.07115609,-0.031836983,0.24648084,-0.9921374,0.1246997,-0.010653144,0.117953345,0.9601182,0.25349557,0.041839097,0.2502459,-0.9672778,,-0.5299339298292859,0.020488410315317625,0.14370022795,0.16481629557883615,-0.0057387329901484995,0.977473347029346,-0.06435756205690601,,-1.3817127521918782,0.03015727187384671,0.1408419085,0.08198876790244902,0.003962458493197773,1.151869623860635,0.0728514534958884
2.7502023079432547,,0.05909249,0.016073499,0.33556014,-0.69516635,-0.0542759,-0.716797,-0.684722,-0.25359312,0.6832614,-0.21885945,0.96578705,0.13912551,,-0.24092585,0.14869434,0.16436514,0.26877517,-0.84192854,-0.4678849,-0.8905799,-0.4022628,0.21225466,-0.36691594,0.35964012,-0.85792285,,0.07115609,-0.031836983,0.24648084,-0.9921374,0.1246997,-0.010653144,0.117953345,0.9601182,0.25349557,0.041839097,0.2502459,-0.9672778,,-0.5299416525621601,0.020488410315317625,0.14370022795,0.16481629557883615,-0.0057387329901484995,0.977473347029346,-0.06435756205690601,,-1.3817127521918782,0.03015727187384671,0.1408419085,0.08198876790244902,0.003962458493197773,1.151869623860635,0.0728514534958884
2.7736864229664207,,0.059091717,0.016073827,0.3355608,-0.69516593,-0.054269664,-0.7167978,-0.6847228,-0.2535976,0.683259,-0.21885847,0.9657862,0.13913275,,-0.24092585,0.14869434,0.16436514,0.26877517,-0.84192854,-0.4678849,-0.8905799,-0.4022628,0.21225466,-0.36691594,0.35964012,-0.85792285,,0.07115609,-0.031836983,0.24648084,-0.9921374,0.1246997,-0.010653144,0.117953345,0.9601182,0.25349557,0.041839097,0.2502459,-0.9672778,,-0.5299339298292859,0.020488410315317625,0.14370022795,0.16481629557883615,-0.0057387329901484995,0.977473347029346,-0.06435756205690601,,-1.3817127521918782,0.03015727187384671,0.1408419085,0.08198876790244902,0.003962458493197773,1.151869623860635,0.0728514534958884
2.7978153659496456,,0.059091717,0.016073827,0.3355608,-0.69516593,-0.054269664,-0.7167978,-0.6847228,-0.2535976,0.683259,-0.21885847,0.9657862,0.13913275,,-0.24092683,0.14869764,0.16436662,0.26877847,-0.84192693,-0.46788606,-0.8905764,-0.40226847,0.21225862,-0.366922,0.35963777,-0.8579213,,0.07115609,-0.031836983,0.24648084,-0.9921374,0.1246997,-0.010653144,0.117953345,0.9601182,0.25349557,0.041839097,0.2502459,-0.9672778,,-0.5299339298292859,0.020488410315317625,0.14370022795,0.16481629557883615,-0.0057387329901484995,0.977473347029346,-0.06435756205690601,,-1.3817127521918782,0.030164994606720934,0.1408419085,0.08198876790244902,0.003962458493197773,1.151869623860635,0.0728514534958884
2.8196682329289615,,0.059090942,0.016074155,0.33556142,-0.6951656,-0.05426343,-0.7167987,-0.6847235,-0.25360203,0.6832567,-0.21885747,0.9657853,0.13913998,,-0.24092683,0.14869764,0.16436662,0.26877847,-0.84192693,-0.46788606,-0.8905764,-0.40226847,0.21225862,-0.366922,0.35963777,-0.8579213,,0.07115609,-0.031836983,0.24648084,-0.9921374,0.1246997,-0.010653144,0.117953345,0.9601182,0.25349557,0.041839097,0.2502459,-0.9672778,,-0.5299262070964116,0.020488410315317625,0.14370022795,0.16481629557883615,-0.0057387329901484995,0.977473347029346,-0.06435756205690601,,-1.3817127521918782,0.030164994606720934,0.1408419085,0.08198876790244902,0.003962458493197773,1.151869623860635,0.0728514534958884
2.8469129039440304,,0.059090942,0.016074155,0.33556142,-0.6951656,-0.05426343,-0.7167987,-0.6847235,-0.25360203,0.6832567,-0.21885747,0.9657853,0.13913998,,-0.24092585,0.14869434,0.16436514,0.26877517,-0.84192854,-0.4678849,-0.8905799,-0.4022628,0.21225466,-0.36691594,0.35964012,-0.85792285,,0.07115609,-0.031836983,0.24648084,-0.9921374,0.1246997,-0.010653144,0.117953345,0.9601182,0.25349557,0.041839097,0.2502459,-0.9672778,,-0.5299262070964116,0.020488410315317625,0.14370022795,0.16481629557883615,-0.0057387329901484995,0.977473347029346,-0.06435756205690601,,-1.3817127521918782,0.03015727187384671,0.1408419085,0.08198876790244902,0.003962458493197773,1.151869623860635,0.0728514534958884
2.8708959470968693,,0.059090942,0.016074155,0.33556142,-0.6951656,-0.05426343,-0.7167987,-0.6847235,-0.25360203,0.6832567,-0.21885747,0.9657853,0.13913998,,-0.24092585,0.14869434,0.16436514,0.26877517,-0.84192854,-0.4678849,-0.8905799,-0.4022628,0.21225466,-0.36691594,0.35964012,-0.85792285,,0.07115609,-0.031836983,0.24648084,-0.9921374,0.1246997,-0.010653144,0.117953345,0.9601182,0.25349557,0.041839097,0.2502459,-0.9672778,,-0.5299262070964116,0.020488410315317625,0.14370022795,0.16481629557883615,-0.0057387329901484995,0.977473347029346,-0.06435756205690601,,-1.3817127521918782,0.03015727187384671,0.1408419085,0.08198876790244902,0.003962458493197773,1.151869623860635,0.0728514534958884
2.896262963069603,,0.059090942,0.016074155,0.33556142,-0.6951656,-0.05426343,-0.7167987,-0.6847235,-0.25360203,0.6832567,-0.21885747,0.9657853,0.13913998,,-0.24092585,0.14869434,0.16436514,0.26877517,-0.84192854,-0.4678849,-0.8905799,-0.4022628,0.21225466,-0.36691594,0.35964012,-0.85792285,,0.07115609,-0.031836983,0.24648084,-0.9921374,0.1246997,-0.010653144,0.117953345,0.9601182,0.25349557,0.041839097,0.2502459,-0.9672778,,-0.5299262070964116,0.020488410315317625,0.14370022795,0.16481629557883615,-0.0057387329901484995,0.977473347029346,-0.06435756205690601,,-1.3817127521918782,0.03015727187384671,0.1408419085,0.08198876790244902,0.003962458493197773,1.151869623860635,0.0728514534958884
2.9182943420019,,0.059091717,0.016073827,0.3355608,-0.69516593,-0.054269664,-0.7167978,-0.6847228,-0.2535976,0.683259,-0.21885847,0.9657862,0.13913275,,-0.24092683,0.14869764,0.16436662,0.26877847,-0.84192693,-0.46788606,-0.8905764,-0.40226847,0.21225862,-0.366922,0.35963777,-0.8579213,,0.07115609,-0.031836983,0.24648084,-0.9921374,0.1246997,-0.010653144,0.117953345,0.9601182,0.25349557,0.041839097,0.2502459,-0.9672778,,-0.5299339298292859,0.020488410315317625,0.14370022795,0.16481629557883615,-0.0057387329901484995,0.977473347029346,-0.06435756205690601,,-1.3817127521918782,0.030164994606720934,0.1408419085,0.08198876790244902,0.003962458493197773,1.151869623860635,0.0728514534958884
2.9412346079479903,,0.059090942,0.016074155,0.33556142,-0.6951656,-0.05426343,-0.7167987,-0.6847235,-0.25360203,0.6832567,-0.21885747,0.9657853,0.13913998,,-0.24092683,0.14869764,0.16436662,0.26877847,-0.84192693,-0.46788606,-0.8905764,-0.40226847,0.21225862,-0.366922,0.35963777,-0.8579213,,0.07115609,-0.031836983,0.24648084,-0.9921374,0.1246997,-0.010653144,0.117953345,0.9601182,0.25349557,0.041839097,0.2502459,-0.9672778,,-0.5299262070964116,0.020488410315317625,0.14370022795,0.16481629557883615,-0.0057387329901484995,0.977473347029346,-0.06435756205690601,,-1.3817127521918782,0.030164994606720934,0.1408419085,0.08198876790244902,0.003962458493197773,1.151869623860635,0.0728514534958884
2.9707323170732707,,0.059090942,0.016074155,0.33556142,-0.6951656,-0.05426343,-0.7167987,-0.6847235,-0.25360203,0.6832567,-0.21885747,0.9657853,0.13913998,,-0.24092585,0.14869434,0.16436514,0.26877517,-0.84192854,-0.4678849,-0.8905799,-0.4022628,0.21225466,-0.36691594,0.35964012,-0.85792285,,0.07115609,-0.031836983,0.24648084,-0.9921374,0.1246997,-0.010653144,0.117953345,0.9601182,0.25349557,0.041839097,0.2502459,-0.9672778,,-0.5299262070964116,0.020488410315317625,0.14370022795,0.16481629557883615,-0.0057387329901484995,0.977473347029346,-0.06435756205690601,,-1.3817127521918782,0.03015727187384671,0.1408419085,0.08198876790244902,0.003962458493197773,1.151869623860635,0.0728514534958884
2.996308824978769,,0.059090942,0.016074155,0.33556142,-0.6951656,-0.05426343,-0.7167987,-0.6847235,-0.25360203,0.6832567,-0.21885747,0.9657853,0.13913998,,-0.24092585,0.14869434,0.16436514,0.26877517,-0.84192854,-0.4678849,-0.8905799,-0.4022628,0.21225466,-0.36691594,0.35964012,-0.85792285,,0.07115609,-0.031836983,0.24648084,-0.9921374,0.1246997,-0.010653144,0.117953345,0.9601182,0.25349557,0.041839097,0.2502459,-0.9672778,,-0.5299262070964116,0.020488410315317625,0.14370022795,0.16481629557883615,-0.0057387329901484995,0.977473347029346,-0.06435756205690601,,-1.3817127521918782,0.03015727187384671,0.1408419085,0.08198876790244902,0.003962458493197773,1.151869623860635,0.0728514534958884
3.0189591620583087,,0.059090942,0.016074155,0.33556142,-0.6951656,-0.05426343,-0.7167987,-0.6847235,-0.25360203,0.6832567,-0.21885747,0.9657853,0.13913998,,-0.24092585,0.14869434,0.16436514,0.26877517,-0.84192854,-0.4678849,-0.8905799,-0.4022628,0.21225466,-0.36691594,0.35964012,-0.85792285,,0.07115609,-0.031836983,0.24648084,-0.9921374,0.1246997,-0.010653144,0.117953345,0.9601182,0.25349557,0.041839097,0.2502459,-0.9672778,,-0.5299262070964116,0.020488410315317625,0.14370022795,0.16481629557883615,-0.0057387329901484995,0.977473347029346,-0.06435756205690601,,-1.3817127521918782,0.03015727187384671,0.1408419085,0.08198876790244902,0.003962458493197773,1.151869623860635,0.0728514534958884
3.0415717400610447,,0.059091717,0.016073827,0.3355608,-0.69516593,-0.054269664,-0.7167978,-0.6847228,-0.2535976,0.683259,-0.21885847,0.9657862,0.13913275,,-0.24092683,0.14869764,0.16436662,0.26877847,-0.84192693,-0.46788606,-0.8905764,-0.40226847,0.21225862,-0.366922,0.35963777,-0.8579213,,0.07115609,-0.031836983,0.24648084,-0.9921374,0.1246997,-0.010653144,0.117953345,0.9601182,0.25349557,0.041839097,0.2502459,-0.9672778,,-0.5299339298292859,0.020488410315317625,0.14370022795,0.16481629557883615,-0.0057387329901484995,0.977473347029346,-0.06435756205690601,,-1.3817127521918782,0.030164994606720934,0.1408419085,0.08198876790244902,0.003962458493197773,1.151869623860635,0.0728514534958884
3.0691288269590586,,0.059090942,0.016074155,0.33556142,-0.6951656,-0.05426343,-0.7167987,-0.6847235,-0.25360203,0.6832567,-0.21885747,0.9657853,0.13913998,,-0.24092683,0.14869764,0.16436662,0.26877847,-0.84192693,-0.46788606,-0.8905764,-0.40226847,0.21225862,-0.366922,0.35963777,-0.8579213,,0.07115609,-0.031836983,0.24648084,-0.9921374,0.1246997,-0.010653144,0.117953345,0.9601182,0.25349557,0.041839097,0.2502459,-0.9672778,,-0.5299262070964116,0.020488410315317625,0.14370022795,0.16481629557883615,-0.0057387329901484995,0.977473347029346,-0.06435756205690601,,-1.3817127521918782,0.030164994606720934,0.1408419085,0.08198876790244902,0.003962458493197773,1.151869623860635,0.0728514534958884
3.0931541409809142,,0.059090942,0.016074155,0.33556142,-0.6951656,-0.05426343,-0.7167987,-0.6847235,-0.25360203,0.6832567,-0.21885747,0.9657853,0.13913998,,-0.24092585,0.14869434,0.16436514,0.26877517,-0.84192854,-0.4678849,-0.8905799,-0.4022628,0.21225466,-0.36691594,0.35964012,-0.85792285,,0.07115609,-0.031836983,0.24648084,-0.9921374,0.1246997,-0.010653144,0.117953345,0.9601182,0.25349557,0.041839097,0.2502459,-0.9672778,,-0.5299262070964116,0.020488410315317625,0.14370022795,0.16481629557883615,-0.0057387329901484995,0.977473347029346,-0.06435756205690601,,-1.3817127521918782,0.03015727187384671,0.1408419085,0.08198876790244902,0.003962458493197773,1.151869623860635,0.0728514534958884
3.1214237089734524,,0.059090942,0.016074155,0.33556142,-0.6951656,-0.05426343,-0.7167987,-0.6847235,-0.25360203,0.6832567,-0.21885747,0.9657853,0.13913998,,-0.24092585,0.14869434,0.16436514,0.26877517,-0.84192854,-0.4678849,-0.8905799,-0.4022628,0.21225466,-0.36691594,0.35964012,-0.85792285,,0.07115609,-0.031836983,0.24648084,-0.9921374,0.1246997,-0.010653144,0.117953345,0.9601182,0.25349557,0.041839097,0.2502459,-0.9672778,,-0.5299262070964116,0.020488410315317625,0.14370022795,0.16481629557883615,-0.0057387329901484995,0.977473347029346,-0.06435756205690601,,-1.3817127521918782,0.03015727187384671,0.1408419085,0.08198876790244902,0.003962458493197773,1.151869623860635,0.0728514534958884
3.143067993922159,,0.059090942,0.016074155,0.33556142,-0.6951656,-0.05426343,-0.7167987,-0.6847235,-0.25360203,0.6832567,-0.21885747,0.9657853,0.13913998,,-0.24092585,0.14869434,0.16436514,0.26877517,-0.84192854,-0.4678849,-0.8905799,-0.4022628,0.21225466,-0.36691594,0.35964012,-0.85792285,,0.07115609,-0.031836983,0.24648084,-0.9921374,0.1246997,-0.010653144,0.117953345,0.9601182,0.25349557,0.041839097,0.2502459,-0.9672778,,-0.5299262070964116,0.020488410315317625,0.14370022795,0.16481629557883615,-0.0057387329901484995,0.977473347029346,-0.06435756205690601,,-1.3817127521918782,0.03015727187384671,0.1408419085,0.08198876790244902,0.003962458493197773,1.151869623860635,0.0728514534958884
3.171258948976174,,0.059090942,0.016074155,0.33556142,-0.6951656,-0.05426343,-0.7167987,-0.6847235,-0.25360203,0.6832567,-0.21885747,0.9657853,0.13913998,,-0.24092683,0.14869764,0.16436662,0.26877847,-0.84192693,-0.46788606,-0.8905764,-0.40226847,0.21225862,-0.366922,0.35963777,-0.8579213,,0.07115609,-0.031836983,0.24648084,-0.9921374,0.1246997,-0.010653144,0.117953345,0.9601182,0.25349557,0.041839097,0.2502459,-0.9672778,,-0.5299262070964116,0.020488410315317625,0.14370022795,0.16481629557883615,-0.0057387329901484995,0.977473347029346,-0.06435756205690601,,-1.3817127521918782,0.030164994606720934,0.1408419085,0.08198876790244902,0.003962458493197773,1.151869623860635,0.0728514534958884
3.193309627007693,,0.059091717,0.016073827,0.3355608,-0.69516593,-0.054269664,-0.7167978,-0.6847228,-0.2535976,0.683259,-0.21885847,0.9657862,0.13913275,,-0.24092683,0.14869764,0.16436662,0.26877847,-0.84192693,-0.46788606,-0.8905764,-0.40226847,0.21225862,-0.366922,0.35963777,-0.8579213,,0.07115609,-0.031836983,0.24648084,-0.9921374,0.1246997,-0.010653144,0.117953345,0.9601182,0.25349557,0.041839097,0.2502459,-0.9672778,,-0.5299339298292859,0.020488410315317625,0.14370022795,0.16481629557883615,-0.0057387329901484995,0.977473347029346,-0.06435756205690601,,-1.3817127521918782,0.030164994606720934,0.1408419085,0.08198876790244902,0.003962458493197773,1.151869623860635,0.0728514534958884
3.221985199023038,,0.059090942,0.016074155,0.33556142,-0.6951656,-0.05426343,-0.7167987,-0.6847235,-0.25360203,0.6832567,-0.21885747,0.9657853,0.13913998,,-0.24092585,0.14869434,0.16436514,0.26877517,-0.84192854,-0.4678849,-0.8905799,-0.4022628,0.21225466,-0.36691594,0.35964012,-0.85792285,,0.07115609,-0.031836983,0.24648084,-0.9921374,0.1246997,-0.010653144,0.117953345,0.9601182,0.25349557,0.041839097,0.2502459,-0.9672778,,-0.5299262070964116,0.020488410315317625,0.14370022795,0.16481629557883615,-0.0057387329901484995,0.977473347029346,-0.06435756205690601,,-1.3817127521918782,0.03015727187384671,0.1408419085,0.08198876790244902,0.003962458493197773,1.151869623860635,0.0728514534958884
3.242468330077827,,0.059090942,0.016074155,0.33556142,-0.6951656,-0.05426343,-0.7167987,-0.6847235,-0.25360203,0.6832567,-0.21885747,0.9657853,0.13913998,,-0.24092585,0.14869434,0.16436514,0.26877517,-0.84192854,-0.4678849,-0.8905799,-0.4022628,0.21225466,-0.36691594,0.35964012,-0.85792285,,0.07115609,-0.031836983,0.24648084,-0.9921374,0.1246997,-0.010653144,0.117953345,0.9601182,0.25349557,0.041839097,0.2502459,-0.9672778,,-0.5299262070964116,0.020488410315317625,0.14370022795,0.16481629557883615,-0.0057387329901484995,0.977473347029346,-0.06435756205690601,,-1.3817127521918782,0.03015727187384671,0.1408419085,0.08198876790244902,0.003962458493197773,1.151869623860635,0.0728514534958884
3.269428438041359,,0.059090942,0.016074155,0.33556142,-0.6951656,-0.05426343,-0.7167987,-0.6847235,-0.25360203,0.6832567,-0.21885747,0.9657853,0.13913998,,-0.24092585,0.14869434,0.16436514,0.26877517,-0.84192854,-0.4678849,-0.8905799,-0.4022628,0.21225466,-0.36691594,0.35964012,-0.85792285,,0.07115609,-0.031836983,0.24648084,-0.9921374,0.1246997,-0.010653144,0.117953345,0.9601182,0.25349557,0.041839097,0.2502459,-0.9672778,,-0.5299262070964116,0.020488410315317625,0.14370022795,0.16481629557883615,-0.0057387329901484995,0.977473347029346,-0.06435756205690601,,-1.3817127521918782,0.03015727187384671,0.1408419085,0.08198876790244902,0.003962458493197773,1.151869623860635,0.0728514534958884
3.2934900210238993,,0.059090942,0.016074155,0.33556142,-0.6951656,-0.05426343,-0.7167987,-0.6847235,-0.25360203,0.6832567,-0.21885747,0.9657853,0.13913998,,-0.24092585,0.14869434,0.16436514,0.26877517,-0.84192854,-0.4678849,-0.8905799,-0.4022628,0.21225466,-0.36691594,0.35964012,-0.85792285,,0.07115609,-0.031836983,0.24648084,-0.9921374,0.1246997,-0.010653144,0.117953345,0.9601182,0.25349557,0.041839097,0.2502459,-0.9672778,,-0.5299262070964116,0.020488410315317625,0.14370022795,0.16481629557883615,-0.0057387329901484995,0.977473347029346,-0.06435756205690601,,-1.3817127521918782,0.03015727187384671,0.1408419085,0.08198876790244902,0.003962458493197773,1.151869623860635,0.0728514534958884
3.321395206032321,,0.059091717,0.016073827,0.3355608,-0.69516593,-0.054269664,-0.7167978,-0.6847228,-0.2535976,0.683259,-0.21885847,0.9657862,0.13913275,,-0.24092585,0.14869434,0.16436514,0.26877517,-0.84192854,-0.4678849,-0.8905799,-0.4022628,0.21225466,-0.36691594,0.35964012,-0.85792285,,0.07115609,-0.031836983,0.24648084,-0.9921374,0.1246997,-0.010653144,0.117953345,0.9601182,0.25349557,0.041839097,0.2502459,-0.9672778,,-0.5299339298292859,0.020488410315317625,0.14370022795,0.16481629557883615,-0.0057387329901484995,0.977473347029346,-0.06435756205690601,,-1.3817127521918782,0.03015727187384671,0.1408419085,0.08198876790244902,0.003962458493197773,1.151869623860635,0.0728514534958884
3.343350708950311,,0.059091717,0.016073827,0.3355608,-0.69516593,-0.054269664,-0.7167978,-0.6847228,-0.2535976,0.683259,-0.21885847,0.9657862,0.13913275,,-0.24092585,0.14869434,0.16436514,0.26877517,-0.84192854,-0.4678849,-0.8905799,-0.4022628,0.21225466,-0.36691594,0.35964012,-0.85792285,,0.07115609,-0.031836983,0.24648084,-0.9921374,0.1246997,-0.010653144,0.117953345,0.9601182,0.25349557,0.041839097,0.2502459,-0.9672778,,-0.5299339298292859,0.020488410315317625,0.14370022795,0.16481629557883615,-0.0057387329901484995,0.977473347029346,-0.06435756205690601,,-1.3817127521918782,0.03015727187384671,0.1408419085,0.08198876790244902,0.003962458493197773,1.151869623860635,0.0728514534958884
3.3676025359891355,,0.059090942,0.016074155,0.33556142,-0.6951656,-0.05426343,-0.7167987,-0.6847235,-0.25360203,0.6832567,-0.21885747,0.9657853,0.13913998,,-0.24092585,0.14869434,0.16436514,0.26877517,-0.84192854,-0.4678849,-0.8905799,-0.4022628,0.21225466,-0.36691594,0.35964012,-0.85792285,,0.07115609,-0.031836983,0.24648084,-0.9921374,0.1246997,-0.010653144,0.117953345,0.9601182,0.25349557,0.041839097,0.2502459,-0.9672778,,-0.5299262070964116,0.020488410315317625,0.14370022795,0.16481629557883615,-0.0057387329901484995,0.977473347029346,-0.06435756205690601,,-1.3817127521918782,0.03015727187384671,0.1408419085,0.08198876790244902,0.003962458493197773,1.151869623860635,0.0728514534958884
3.392750049009919,,0.05909249,0.016073499,0.33556014,-0.69516635,-0.0542759,-0.716797,-0.684722,-0.25359312,0.6832614,-0.21885945,0.96578705,0.13912551,,-0.24092585,0.14869434,0.16436514,0.26877517,-0.84192854,-0.4678849,-0.8905799,-0.4022628,0.21225466,-0.36691594,0.35964012,-0.85792285,,0.07115609,-0.031836983,0.24648084,-0.9921374,0.1246997,-0.010653144,0.117953345,0.9601182,0.25349557,0.041839097,0.2502459,-0.9672778,,-0.5299416525621601,0.020488410315317625,0.14370022795,0.16481629557883615,-0.0057387329901484995,0.977473347029346,-0.06435756205690601,,-1.3817127521918782,0.03015727187384671,0.1408419085,0.08198876790244902,0.003962458493197773,1.151869623860635,0.0728514534958884
3.4166815979406238,,0.05909249,0.016073499,0.33556014,-0.69516635,-0.0542759,-0.716797,-0.684722,-0.25359312,0.6832614,-0.21885945,0.96578705,0.13912551,,-0.24092585,0.14869434,0.16436514,0.26877517,-0.84192854,-0.4678849,-0.8905799,-0.4022628,0.21225466,-0.36691594,0.35964012,-0.85792285,,0.07115609,-0.031836983,0.24648084,-0.9921374,0.1246997,-0.010653144,0.117953345,0.9601182,0.25349557,0.041839097,0.2502459,-0.9672778,,-0.5299416525621601,0.020488410315317625,0.14370022795,0.16481629557883615,-0.0057387329901484995,0.977473347029346,-0.06435756205690601,,-1.3817127521918782,0.03015727187384671,0.1408419085,0.08198876790244902,0.003962458493197773,1.151869623860635,0.0728514534958884
3.440316074062139,,0.05909249,0.016073499,0.33556014,-0.69516635,-0.0542759,-0.716797,-0.684722,-0.25359312,0.6832614,-0.21885945,0.96578705,0.13912551,,-0.24092585,0.14869434,0.16436514,0.26877517,-0.84192854,-0.4678849,-0.8905799,-0.4022628,0.21225466,-0.36691594,0.35964012,-0.85792285,,0.07115609,-0.031836983,0.24648084,-0.9921374,0.1246997,-0.010653144,0.117953345,0.9601182,0.25349557,0.041839097,0.2502459,-0.9672778,,-0.5299416525621601,0.020488410315317625,0.14370022795,0.16481629557883615,-0.0057387329901484995,0.977473347029346,-0.06435756205690601,,-1.3817127521918782,0.03015727187384671,0.1408419085,0.08198876790244902,0.003962458493197773,1.151869623860635,0.0728514534958884
3.4639816579874605,,0.059091717,0.016073827,0.3355608,-0.69516593,-0.054269664,-0.7167978,-0.6847228,-0.2535976,0.683259,-0.21885847,0.9657862,0.13913275,,-0.24092585,0.14869434,0.16436514,0.26877517,-0.84192854,-0.4678849,-0.8905799,-0.4022628,0.21225466,-0.36691594,0.35964012,-0.85792285,,0.07115609,-0.031836983,0.24648084,-0.9921374,0.1246997,-0.010653144,0.117953345,0.9601182,0.25349557,0.041839097,0.2502459,-0.9672778,,-0.5299339298292859,0.020488410315317625,0.14370022795,0.16481629557883615,-0.0057387329901484995,0.977473347029346,-0.06435756205690601,,-1.3817127521918782,0.03015727187384671,0.1408419085,0.08198876790244902,0.003962458493197773,1.151869623860635,0.0728514534958884
3.4871976089198142,,0.059090942,0.016074155,0.33556142,-0.6951656,-0.05426343,-0.7167987,-0.6847235,-0.25360203,0.6832567,-0.21885747,0.9657853,0.13913998,,-0.24092585,0.14869434,0.16436514,0.26877517,-0.84192854,-0.4678849,-0.8905799,-0.4022628,0.21225466,-0.36691594,0.35964012,-0.85792285,,0.07115609,-0.031836983,0.24648084,-0.9921374,0.1246997,-0.010653144,0.117953345,0.9601182,0.25349557,0.041839097,0.2502459,-0.9672778,,-0.5299262070964116,0.020488410315317625,0.14370022795,0.16481629557883615,-0.0057387329901484995,0.977473347029346,-0.06435756205690601,,-1.3817127521918782,0.03015727187384671,0.1408419085,0.08198876790244902,0.003962458493197773,1.151869623860635,0.0728514534958884
