AlexandreBanks6/ExpertPlaybackApp/resources/Motions/Motion_NotBest.csv
Time,si_T_psm1,Tx,Ty,Tz,R00,R01,R02,R10,R11,R12,R20,R21,R22,si_T_psm3,Tx,Ty,Tz,R00,R01,R02,R10,R11,R12,R20,R21,R22,si_T_ecm,Tx,Ty,Tz,R00,R01,R02,R10,R11,R12,R20,R21,R22,joint_vars_psm1,q1,q2,q3,q4,q5,q6,jaw,joint_vars_psm3,q1,q2,q3,q4,q5,q6,jaw
lci_T_si,,,,,,,,,,,,,,,,,,,,,,,,,,,,,,,,,,,,,,,,,,,,,,,,,,,,,,,
0,-0.086561016738415,-0.086561016738415,-0.086561016738415,0.999337375164032,-0.027157271280885,0.024235345423222,-0.024362567812204,-0.993746101856232,-0.108973413705826,0.027043201029301,0.108310766518116,-0.99374920129776,,,,,,,,,,,,,,,,,,,,,,,,,,,,,,,,,,,,,,,,,,,
rci_T_si,,,,,,,,,,,,,,,,,,,,,,,,,,,,,,,,,,,,,,,,,,,,,,,,,,,,,,,
0,-0.095980688929558,-0.095980688929558,-0.095980688929558,0.992128074169159,-0.059417549520731,-0.110233806073666,-0.037969015538693,-0.981560051441193,0.187345162034035,-0.119332693517208,-0.181684926152229,-0.976089298725128,,,,,,,,,,,,,,,,,,,,,,,,,,,,,,,,,,,,,,,,,,,
ecm_T_lc,,,,,,,,,,,,,,,,,,,,,,,,,,,,,,,,,,,,,,,,,,,,,,,,,,,,,,,
0,0.826373636722565,0.89959043264389,-4.47118377685547,-0.828224897384644,-0.541407763957977,0.144641175866127,0.55436235666275,-0.829319536685944,0.07008121907711,0.082011237740517,0.138226628303528,0.986999273300171,,,,,,,,,,,,,,,,,,,,,,,,,,,,,,,,,,,,,,,,,,,
ecm_T_rc,,,,,,,,,,,,,,,,,,,,,,,,,,,,,,,,,,,,,,,,,,,,,,,,,,,,,,,
0,-0.10746905207634,0.019146086648107,-2.60373044013977,-0.345375150442123,0.934715449810028,0.08380301296711,-0.93846321105957,-0.343837082386017,-0.032600942999125,-0.001658021705225,-0.089905597269535,0.995948910713196,,,,,,,,,,,,,,,,,,,,,,,,,,,,,,,,,,,,,,,,,,,
0.040644654000062,,4.05662441253662,0.661106646060944,1.76338505744934,-0.487434953451157,0.34427011013031,-0.802424490451813,0.73715353012085,0.654801487922668,-0.166851624846458,0.467986762523651,-0.672839462757111,-0.572953224182129,,1.5761057138443,0.717811465263367,-4.65022993087769,-0.036325722932816,-0.8968625664711,-0.440815031528473,0.959457337856293,0.092072106897831,-0.266390830278397,0.279502689838409,-0.432620048522949,0.857156991958618,,0.429078936576843,1.81715035438538,4.14535331726074,-0.840726613998413,-0.539681553840637,-0.043845158070326,-0.51520437002182,0.822242498397827,-0.241829663515091,0.166562378406525,-0.180723458528519,-0.969327628612518,,-0.006463927415726,0.028798070887983,0.12527865076,0,0.002732729995309,0.000875434051413,0,,-1.50610281059701,0.157466523305438,0.10739114505,1.39758347332435,-0.388867478332443,2.12456419449052,-0.10764373958249
0.087609647000136,,4.05668020248413,0.661137163639069,1.76331520080566,-0.487425923347473,0.344266414642334,-0.802431702613831,0.737164318561554,0.654788255691528,-0.166856989264488,0.467979490756988,-0.67285430431366,-0.572941660881043,,1.57627332210541,0.717708110809326,-4.65018224716187,-0.03638157248497,-0.896846890449524,-0.44084233045578,0.959467053413391,0.092014707624912,-0.266376435756683,0.279462844133377,-0.432664811611176,0.857147395610809,,0.429155826568604,1.81712985038757,4.14534711837769,-0.840751469135284,-0.539642095565796,-0.043856780976057,-0.515164017677307,0.822268426418304,-0.241827547550201,0.166562378406525,-0.180723458528519,-0.969327628612518,,-0.006463927415726,0.028798070887983,0.12527865076,0,0.002732729995309,0.000875434051413,0,,-1.50610281059701,0.157466523305438,0.10739114505,1.39758347332435,-0.388867478332443,2.12456419449052,-0.10764373958249
0.139713112000209,,4.05668020248413,0.661137163639069,1.76331520080566,-0.487425923347473,0.344266414642334,-0.802431702613831,0.737164318561554,0.654788255691528,-0.166856989264488,0.467979490756988,-0.67285430431366,-0.572941660881043,,1.57629501819611,0.717687547206879,-4.65017747879028,-0.036384135484696,-0.896844685077667,-0.440846681594849,0.959468483924866,0.092011414468289,-0.266372293233871,0.279457479715347,-0.432670176029205,0.857146382331848,,0.429155826568604,1.81712985038757,4.14534711837769,-0.840751469135284,-0.539642095565796,-0.043856780976057,-0.515164017677307,0.822268426418304,-0.241827547550201,0.166562378406525,-0.180723458528519,-0.969327628612518,,-0.006463927415726,0.028798070887983,0.12527865076,0,0.002732729995309,0.000875434051413,0,,-1.50611053332989,0.157466523305438,0.10739114505,1.39758347332435,-0.388867478332443,2.12456419449052,-0.10764373958249
0.181928718000108,,4.05668020248413,0.661137163639069,1.76331520080566,-0.487425923347473,0.344266414642334,-0.802431702613831,0.737164318561554,0.654788255691528,-0.166856989264488,0.467979490756988,-0.67285430431366,-0.572941660881043,,1.57629501819611,0.717687547206879,-4.65017747879028,-0.036384135484696,-0.896844685077667,-0.440846681594849,0.959468483924866,0.092011414468289,-0.266372293233871,0.279457479715347,-0.432670176029205,0.857146382331848,,0.429155826568604,1.81712985038757,4.14534711837769,-0.840751469135284,-0.539642095565796,-0.043856780976057,-0.515164017677307,0.822268426418304,-0.241827547550201,0.166562378406525,-0.180723458528519,-0.969327628612518,,-0.006463927415726,0.028798070887983,0.12527865076,0,0.002732729995309,0.000875434051413,0,,-1.50611053332989,0.157466523305438,0.10739114505,1.39758347332435,-0.388867478332443,2.12456419449052,-0.10764373958249
0.228149180999935,,4.0567102432251,0.661146581172943,1.76325082778931,-0.487419188022613,0.344256013631821,-0.802440166473389,0.737165808677673,0.654785931110382,-0.166859477758408,0.467984110116959,-0.672861993312836,-0.57292902469635,,1.57627332210541,0.717708110809326,-4.65018224716187,-0.03638157248497,-0.896846890449524,-0.44084233045578,0.959467053413391,0.092014707624912,-0.266376435756683,0.279462844133377,-0.432664811611176,0.857147395610809,,0.429155826568604,1.81712985038757,4.14534711837769,-0.840751469135284,-0.539642095565796,-0.043856780976057,-0.515164017677307,0.822268426418304,-0.241827547550201,0.166562378406525,-0.180723458528519,-0.969327628612518,,-0.006448481949977,0.028798070887983,0.12527865076,0,0.002732729995309,0.000875434051413,0,,-1.50610281059701,0.157466523305438,0.10739114505,1.39758347332435,-0.388867478332443,2.12456419449052,-0.10764373958249
0.279091446000166,,4.0567102432251,0.661146581172943,1.76325082778931,-0.487419188022613,0.344256013631821,-0.802440166473389,0.737165808677673,0.654785931110382,-0.166859477758408,0.467984110116959,-0.672861993312836,-0.57292902469635,,1.57627332210541,0.717708110809326,-4.65018224716187,-0.03638157248497,-0.896846890449524,-0.44084233045578,0.959467053413391,0.092014707624912,-0.266376435756683,0.279462844133377,-0.432664811611176,0.857147395610809,,0.429155826568604,1.81712985038757,4.14534711837769,-0.840751469135284,-0.539642095565796,-0.043856780976057,-0.515164017677307,0.822268426418304,-0.241827547550201,0.166562378406525,-0.180723458528519,-0.969327628612518,,-0.006448481949977,0.028798070887983,0.12527865076,0,0.002732729995309,0.000875434051413,0,,-1.50610281059701,0.157466523305438,0.10739114505,1.39758347332435,-0.388867478332443,2.12456419449052,-0.10764373958249
0.341542467000181,,4.05669546127319,0.661141872406006,1.76328325271606,-0.487422496080399,0.344261199235916,-0.802435874938965,0.737165033817291,0.654787003993988,-0.166858226060867,0.467981815338135,-0.672858119010925,-0.572935402393341,,1.57629501819611,0.717687547206879,-4.65017747879028,-0.036384135484696,-0.896844685077667,-0.440846681594849,0.959468483924866,0.092011414468289,-0.266372293233871,0.279457479715347,-0.432670176029205,0.857146382331848,,0.429155826568604,1.81712985038757,4.14534711837769,-0.840751469135284,-0.539642095565796,-0.043856780976057,-0.515164017677307,0.822268426418304,-0.241827547550201,0.166562378406525,-0.180723458528519,-0.969327628612518,,-0.006456204682852,0.028798070887983,0.12527865076,0,0.002732729995309,0.000875434051413,0,,-1.50611053332989,0.157466523305438,0.10739114505,1.39758347332435,-0.388867478332443,2.12456419449052,-0.10764373958249
0.407620637000036,,4.0567102432251,0.661146581172943,1.76325082778931,-0.487419188022613,0.344256013631821,-0.802440166473389,0.737165808677673,0.654785931110382,-0.166859477758408,0.467984110116959,-0.672861993312836,-0.57292902469635,,1.57625424861908,0.717682301998138,-4.65019369125366,-0.03637807816267,-0.896848797798157,-0.440838634967804,0.95946854352951,0.092014327645302,-0.26637077331543,0.279457747936249,-0.432660818099976,0.857151031494141,,0.429155826568604,1.81712985038757,4.14534711837769,-0.840751469135284,-0.539642095565796,-0.043856780976057,-0.515164017677307,0.822268426418304,-0.241827547550201,0.166562378406525,-0.180723458528519,-0.969327628612518,,-0.006448481949977,0.028798070887983,0.12527865076,0,0.002732729995309,0.000875434051413,0,,-1.50610281059701,0.157474246038312,0.10739114505,1.39758347332435,-0.388867478332443,2.12456419449052,-0.10764373958249
0.472034063000137,,4.0567102432251,0.661146581172943,1.76325082778931,-0.487419188022613,0.344256013631821,-0.802440166473389,0.737165808677673,0.654785931110382,-0.166859477758408,0.467984110116959,-0.672861993312836,-0.57292902469635,,1.57629501819611,0.717687547206879,-4.65017747879028,-0.036384135484696,-0.896844685077667,-0.440846681594849,0.959468483924866,0.092011414468289,-0.266372293233871,0.279457479715347,-0.432670176029205,0.857146382331848,,0.429155826568604,1.81712985038757,4.14534711837769,-0.840751469135284,-0.539642095565796,-0.043856780976057,-0.515164017677307,0.822268426418304,-0.241827547550201,0.166562378406525,-0.180723458528519,-0.969327628612518,,-0.006448481949977,0.028798070887983,0.12527865076,0,0.002732729995309,0.000875434051413,0,,-1.50611053332989,0.157466523305438,0.10739114505,1.39758347332435,-0.388867478332443,2.12456419449052,-0.10764373958249
0.506259258000227,,4.0567102432251,0.661146581172943,1.76325082778931,-0.487419188022613,0.344256013631821,-0.802440166473389,0.737165808677673,0.654785931110382,-0.166859477758408,0.467984110116959,-0.672861993312836,-0.57292902469635,,1.57629501819611,0.717687547206879,-4.65017747879028,-0.036384135484696,-0.896844685077667,-0.440846681594849,0.959468483924866,0.092011414468289,-0.266372293233871,0.279457479715347,-0.432670176029205,0.857146382331848,,0.429155826568604,1.81712985038757,4.14534711837769,-0.840751469135284,-0.539642095565796,-0.043856780976057,-0.515164017677307,0.822268426418304,-0.241827547550201,0.166562378406525,-0.180723458528519,-0.969327628612518,,-0.006448481949977,0.028798070887983,0.12527865076,0,0.002732729995309,0.000875434051413,0,,-1.50611053332989,0.157466523305438,0.10739114505,1.39758347332435,-0.388867478332443,2.12456419449052,-0.10764373958249
0.552302658000372,,4.0567102432251,0.661146581172943,1.76325082778931,-0.487419188022613,0.344256013631821,-0.802440166473389,0.737165808677673,0.654785931110382,-0.166859477758408,0.467984110116959,-0.672861993312836,-0.57292902469635,,1.57625424861908,0.717682301998138,-4.65019369125366,-0.03637807816267,-0.896848797798157,-0.440838634967804,0.95946854352951,0.092014327645302,-0.26637077331543,0.279457747936249,-0.432660818099976,0.857151031494141,,0.429155826568604,1.81712985038757,4.14534711837769,-0.840751469135284,-0.539642095565796,-0.043856780976057,-0.515164017677307,0.822268426418304,-0.241827547550201,0.166562378406525,-0.180723458528519,-0.969327628612518,,-0.006448481949977,0.028798070887983,0.12527865076,0,0.002732729995309,0.000875434051413,0,,-1.50610281059701,0.157474246038312,0.10739114505,1.39758347332435,-0.388867478332443,2.12456419449052,-0.10764373958249
0.60694936200025,,4.0567102432251,0.661146581172943,1.76325082778931,-0.487419188022613,0.344256013631821,-0.802440166473389,0.737165808677673,0.654785931110382,-0.166859477758408,0.467984110116959,-0.672861993312836,-0.57292902469635,,1.57627332210541,0.717708110809326,-4.65018224716187,-0.03638157248497,-0.896846890449524,-0.44084233045578,0.959467053413391,0.092014707624912,-0.266376435756683,0.279462844133377,-0.432664811611176,0.857147395610809,,0.429155826568604,1.81712985038757,4.14534711837769,-0.840751469135284,-0.539642095565796,-0.043856780976057,-0.515164017677307,0.822268426418304,-0.241827547550201,0.166562378406525,-0.180723458528519,-0.969327628612518,,-0.006448481949977,0.028798070887983,0.12527865076,0,0.002732729995309,0.000875434051413,0,,-1.50610281059701,0.157466523305438,0.10739114505,1.39758347332435,-0.388867478332443,2.12456419449052,-0.10764373958249
0.641637438000089,,4.0567102432251,0.661146581172943,1.76325082778931,-0.487419188022613,0.344256013631821,-0.802440166473389,0.737165808677673,0.654785931110382,-0.166859477758408,0.467984110116959,-0.672861993312836,-0.57292902469635,,1.57627332210541,0.717708110809326,-4.65018224716187,-0.03638157248497,-0.896846890449524,-0.44084233045578,0.959467053413391,0.092014707624912,-0.266376435756683,0.279462844133377,-0.432664811611176,0.857147395610809,,0.429155826568604,1.81712985038757,4.14534711837769,-0.840751469135284,-0.539642095565796,-0.043856780976057,-0.515164017677307,0.822268426418304,-0.241827547550201,0.166562378406525,-0.180723458528519,-0.969327628612518,,-0.006448481949977,0.028798070887983,0.12527865076,0,0.002732729995309,0.000875434051413,0,,-1.50610281059701,0.157466523305438,0.10739114505,1.39758347332435,-0.388867478332443,2.12456419449052,-0.10764373958249
0.701276602000235,,4.0567102432251,0.661146581172943,1.76325082778931,-0.487419188022613,0.344256013631821,-0.802440166473389,0.737165808677673,0.654785931110382,-0.166859477758408,0.467984110116959,-0.672861993312836,-0.57292902469635,,1.57629501819611,0.717687547206879,-4.65017747879028,-0.036384135484696,-0.896844685077667,-0.440846681594849,0.959468483924866,0.092011414468289,-0.266372293233871,0.279457479715347,-0.432670176029205,0.857146382331848,,0.429155826568604,1.81712985038757,4.14534711837769,-0.840751469135284,-0.539642095565796,-0.043856780976057,-0.515164017677307,0.822268426418304,-0.241827547550201,0.166562378406525,-0.180723458528519,-0.969327628612518,,-0.006448481949977,0.028798070887983,0.12527865076,0,0.002732729995309,0.000875434051413,0,,-1.50611053332989,0.157466523305438,0.10739114505,1.39758347332435,-0.388867478332443,2.12456419449052,-0.10764373958249
0.734857103000195,,4.0567102432251,0.661146581172943,1.76325082778931,-0.487419188022613,0.344256013631821,-0.802440166473389,0.737165808677673,0.654785931110382,-0.166859477758408,0.467984110116959,-0.672861993312836,-0.57292902469635,,1.57627332210541,0.717708110809326,-4.65018224716187,-0.03638157248497,-0.896846890449524,-0.44084233045578,0.959467053413391,0.092014707624912,-0.266376435756683,0.279462844133377,-0.432664811611176,0.857147395610809,,0.429155826568604,1.81712985038757,4.14534711837769,-0.840751469135284,-0.539642095565796,-0.043856780976057,-0.515164017677307,0.822268426418304,-0.241827547550201,0.166562378406525,-0.180723458528519,-0.969327628612518,,-0.006448481949977,0.028798070887983,0.12527865076,0,0.002732729995309,0.000875434051413,0,,-1.50610281059701,0.157466523305438,0.10739114505,1.39758347332435,-0.388867478332443,2.12456419449052,-0.10764373958249
0.776563516000351,,4.0567102432251,0.661146581172943,1.76325082778931,-0.487419188022613,0.344256013631821,-0.802440166473389,0.737165808677673,0.654785931110382,-0.166859477758408,0.467984110116959,-0.672861993312836,-0.57292902469635,,1.57627332210541,0.717708110809326,-4.65018224716187,-0.03638157248497,-0.896846890449524,-0.44084233045578,0.959467053413391,0.092014707624912,-0.266376435756683,0.279462844133377,-0.432664811611176,0.857147395610809,,0.429155826568604,1.81712985038757,4.14534711837769,-0.840751469135284,-0.539642095565796,-0.043856780976057,-0.515164017677307,0.822268426418304,-0.241827547550201,0.166562378406525,-0.180723458528519,-0.969327628612518,,-0.006448481949977,0.028798070887983,0.12527865076,0,0.002732729995309,0.000875434051413,0,,-1.50610281059701,0.157466523305438,0.10739114505,1.39758347332435,-0.388867478332443,2.12456419449052,-0.10764373958249
0.835036940999999,,4.0567102432251,0.661146581172943,1.76325082778931,-0.487419188022613,0.344256013631821,-0.802440166473389,0.737165808677673,0.654785931110382,-0.166859477758408,0.467984110116959,-0.672861993312836,-0.57292902469635,,1.57627332210541,0.717708110809326,-4.65018224716187,-0.03638157248497,-0.896846890449524,-0.44084233045578,0.959467053413391,0.092014707624912,-0.266376435756683,0.279462844133377,-0.432664811611176,0.857147395610809,,0.429155826568604,1.81712985038757,4.14534711837769,-0.840751469135284,-0.539642095565796,-0.043856780976057,-0.515164017677307,0.822268426418304,-0.241827547550201,0.166562378406525,-0.180723458528519,-0.969327628612518,,-0.006448481949977,0.028798070887983,0.12527865076,0,0.002732729995309,0.000875434051413,0,,-1.50610281059701,0.157466523305438,0.10739114505,1.39758347332435,-0.388867478332443,2.12456419449052,-0.10764373958249
0.867581151000195,,4.05668020248413,0.661137163639069,1.76331520080566,-0.487425923347473,0.344266414642334,-0.802431702613831,0.737164318561554,0.654788255691528,-0.166856989264488,0.467979490756988,-0.67285430431366,-0.572941660881043,,1.57629501819611,0.717687547206879,-4.65017747879028,-0.036384135484696,-0.896844685077667,-0.440846681594849,0.959468483924866,0.092011414468289,-0.266372293233871,0.279457479715347,-0.432670176029205,0.857146382331848,,0.429155826568604,1.81712985038757,4.14534711837769,-0.840751469135284,-0.539642095565796,-0.043856780976057,-0.515164017677307,0.822268426418304,-0.241827547550201,0.166562378406525,-0.180723458528519,-0.969327628612518,,-0.006463927415726,0.028798070887983,0.12527865076,0,0.002732729995309,0.000875434051413,0,,-1.50611053332989,0.157466523305438,0.10739114505,1.39758347332435,-0.388867478332443,2.12456419449052,-0.10764373958249
0.906862175000242,,4.05668020248413,0.661137163639069,1.76331520080566,-0.487425923347473,0.344266414642334,-0.802431702613831,0.737164318561554,0.654788255691528,-0.166856989264488,0.467979490756988,-0.67285430431366,-0.572941660881043,,1.57627332210541,0.717708110809326,-4.65018224716187,-0.03638157248497,-0.896846890449524,-0.44084233045578,0.959467053413391,0.092014707624912,-0.266376435756683,0.279462844133377,-0.432664811611176,0.857147395610809,,0.429155826568604,1.81712985038757,4.14534711837769,-0.840751469135284,-0.539642095565796,-0.043856780976057,-0.515164017677307,0.822268426418304,-0.241827547550201,0.166562378406525,-0.180723458528519,-0.969327628612518,,-0.006463927415726,0.028798070887983,0.12527865076,0,0.002732729995309,0.000875434051413,0,,-1.50610281059701,0.157466523305438,0.10739114505,1.39758347332435,-0.388867478332443,2.12456419449052,-0.10764373958249
0.956314018000285,,4.0567102432251,0.661146581172943,1.76325082778931,-0.487419188022613,0.344256013631821,-0.802440166473389,0.737165808677673,0.654785931110382,-0.166859477758408,0.467984110116959,-0.672861993312836,-0.57292902469635,,1.57627332210541,0.717708110809326,-4.65018224716187,-0.03638157248497,-0.896846890449524,-0.44084233045578,0.959467053413391,0.092014707624912,-0.266376435756683,0.279462844133377,-0.432664811611176,0.857147395610809,,0.429155826568604,1.81712985038757,4.14534711837769,-0.840751469135284,-0.539642095565796,-0.043856780976057,-0.515164017677307,0.822268426418304,-0.241827547550201,0.166562378406525,-0.180723458528519,-0.969327628612518,,-0.006448481949977,0.028798070887983,0.12527865076,0,0.002732729995309,0.000875434051413,0,,-1.50610281059701,0.157466523305438,0.10739114505,1.39758347332435,-0.388867478332443,2.12456419449052,-0.10764373958249
1.00444216799997,,4.0567102432251,0.661146581172943,1.76325082778931,-0.487419188022613,0.344256013631821,-0.802440166473389,0.737165808677673,0.654785931110382,-0.166859477758408,0.467984110116959,-0.672861993312836,-0.57292902469635,,1.57629501819611,0.717687547206879,-4.65017747879028,-0.036384135484696,-0.896844685077667,-0.440846681594849,0.959468483924866,0.092011414468289,-0.266372293233871,0.279457479715347,-0.432670176029205,0.857146382331848,,0.429155826568604,1.81712985038757,4.14534711837769,-0.840751469135284,-0.539642095565796,-0.043856780976057,-0.515164017677307,0.822268426418304,-0.241827547550201,0.166562378406525,-0.180723458528519,-0.969327628612518,,-0.006448481949977,0.028798070887983,0.12527865076,0,0.002732729995309,0.000875434051413,0,,-1.50611053332989,0.157466523305438,0.10739114505,1.39758347332435,-0.388867478332443,2.12456419449052,-0.10764373958249
1.03598441300028,,4.0567102432251,0.661146581172943,1.76325082778931,-0.487419188022613,0.344256013631821,-0.802440166473389,0.737165808677673,0.654785931110382,-0.166859477758408,0.467984110116959,-0.672861993312836,-0.57292902469635,,1.57629501819611,0.717687547206879,-4.65017747879028,-0.036384135484696,-0.896844685077667,-0.440846681594849,0.959468483924866,0.092011414468289,-0.266372293233871,0.279457479715347,-0.432670176029205,0.857146382331848,,0.429155826568604,1.81712985038757,4.14534711837769,-0.840751469135284,-0.539642095565796,-0.043856780976057,-0.515164017677307,0.822268426418304,-0.241827547550201,0.166562378406525,-0.180723458528519,-0.969327628612518,,-0.006448481949977,0.028798070887983,0.12527865076,0,0.002732729995309,0.000875434051413,0,,-1.50611053332989,0.157466523305438,0.10739114505,1.39758347332435,-0.388867478332443,2.12456419449052,-0.10764373958249
1.07886538000002,,4.0567102432251,0.661146581172943,1.76325082778931,-0.487419188022613,0.344256013631821,-0.802440166473389,0.737165808677673,0.654785931110382,-0.166859477758408,0.467984110116959,-0.672861993312836,-0.57292902469635,,1.57625424861908,0.717682301998138,-4.65019369125366,-0.03637807816267,-0.896848797798157,-0.440838634967804,0.95946854352951,0.092014327645302,-0.26637077331543,0.279457747936249,-0.432660818099976,0.857151031494141,,0.429155826568604,1.81712985038757,4.14534711837769,-0.840751469135284,-0.539642095565796,-0.043856780976057,-0.515164017677307,0.822268426418304,-0.241827547550201,0.166562378406525,-0.180723458528519,-0.969327628612518,,-0.006448481949977,0.028798070887983,0.12527865076,0,0.002732729995309,0.000875434051413,0,,-1.50610281059701,0.157474246038312,0.10739114505,1.39758347332435,-0.388867478332443,2.12456419449052,-0.10764373958249
1.11578286200029,,4.0567102432251,0.661146581172943,1.76325082778931,-0.487419188022613,0.344256013631821,-0.802440166473389,0.737165808677673,0.654785931110382,-0.166859477758408,0.467984110116959,-0.672861993312836,-0.57292902469635,,1.57627332210541,0.717708110809326,-4.65018224716187,-0.03638157248497,-0.896846890449524,-0.44084233045578,0.959467053413391,0.092014707624912,-0.266376435756683,0.279462844133377,-0.432664811611176,0.857147395610809,,0.429155826568604,1.81712985038757,4.14534711837769,-0.840751469135284,-0.539642095565796,-0.043856780976057,-0.515164017677307,0.822268426418304,-0.241827547550201,0.166562378406525,-0.180723458528519,-0.969327628612518,,-0.006448481949977,0.028798070887983,0.12527865076,0,0.002732729995309,0.000875434051413,0,,-1.50610281059701,0.157466523305438,0.10739114505,1.39758347332435,-0.388867478332443,2.12456419449052,-0.10764373958249
1.15719325500004,,4.0567102432251,0.661146581172943,1.76325082778931,-0.487419188022613,0.344256013631821,-0.802440166473389,0.737165808677673,0.654785931110382,-0.166859477758408,0.467984110116959,-0.672861993312836,-0.57292902469635,,1.57627332210541,0.717708110809326,-4.65018224716187,-0.03638157248497,-0.896846890449524,-0.44084233045578,0.959467053413391,0.092014707624912,-0.266376435756683,0.279462844133377,-0.432664811611176,0.857147395610809,,0.429155826568604,1.81712985038757,4.14534711837769,-0.840751469135284,-0.539642095565796,-0.043856780976057,-0.515164017677307,0.822268426418304,-0.241827547550201,0.166562378406525,-0.180723458528519,-0.969327628612518,,-0.006448481949977,0.028798070887983,0.12527865076,0,0.002732729995309,0.000875434051413,0,,-1.50610281059701,0.157466523305438,0.10739114505,1.39758347332435,-0.388867478332443,2.12456419449052,-0.10764373958249
1.20347808299994,,4.0567102432251,0.661146581172943,1.76325082778931,-0.487419188022613,0.344256013631821,-0.802440166473389,0.737165808677673,0.654785931110382,-0.166859477758408,0.467984110116959,-0.672861993312836,-0.57292902469635,,1.57627582550049,0.717661559581757,-4.65018939971924,-0.036380611360073,-0.8968465924263,-0.440843045711517,0.95947003364563,0.092011034488678,-0.26636666059494,0.279452413320541,-0.432666122913361,0.857150137424469,,0.429155826568604,1.81712985038757,4.14534711837769,-0.840751469135284,-0.539642095565796,-0.043856780976057,-0.515164017677307,0.822268426418304,-0.241827547550201,0.166562378406525,-0.180723458528519,-0.969327628612518,,-0.006448481949977,0.028798070887983,0.12527865076,0,0.002732729995309,0.000875434051413,0,,-1.50611053332989,0.157474246038312,0.10739114505,1.39758347332435,-0.388867478332443,2.12456419449052,-0.10764373958249
1.23259838700005,,4.05672454833984,0.661145329475403,1.76318562030792,-0.487420499324799,0.344233721494675,-0.80244904756546,0.73715090751648,0.654802083969116,-0.1668611317873,0.468006074428558,-0.672857642173767,-0.572916150093079,,1.57592916488647,0.71801495552063,-4.65025281906128,-0.036348007619381,-0.896885454654694,-0.44076681137085,0.959444761276245,0.092057153582573,-0.266441762447357,0.279543429613113,-0.43257600069046,0.857165932655335,,0.429078221321106,1.81715202331543,4.14534568786621,-0.840727031230927,-0.539680957794189,-0.04384533688426,-0.515203773975372,0.822242915630341,-0.241829633712768,0.166562378406525,-0.180723458528519,-0.969327628612518,,-0.006448481949977,0.028798070887983,0.12527865076,0,0.002732729995309,0.000875434051413,0,,-1.50610281059701,0.157466523305438,0.10739114505,1.39758347332435,-0.388867478332443,2.12456419449052,-0.10764373958249
1.27849761400012,,4.05672454833984,0.661145329475403,1.76318562030792,-0.487420499324799,0.344233721494675,-0.80244904756546,0.73715090751648,0.654802083969116,-0.1668611317873,0.468006074428558,-0.672857642173767,-0.572916150093079,,1.57592916488647,0.71801495552063,-4.65025281906128,-0.036348007619381,-0.896885454654694,-0.44076681137085,0.959444761276245,0.092057153582573,-0.266441762447357,0.279543429613113,-0.43257600069046,0.857165932655335,,0.429078221321106,1.81715202331543,4.14534568786621,-0.840727031230927,-0.539680957794189,-0.04384533688426,-0.515203773975372,0.822242915630341,-0.241829633712768,0.166562378406525,-0.180723458528519,-0.969327628612518,,-0.006448481949977,0.028798070887983,0.12527865076,0,0.002732729995309,0.000875434051413,0,,-1.50610281059701,0.157466523305438,0.10739114505,1.39758347332435,-0.388867478332443,2.12456419449052,-0.10764373958249
1.31863267400013,,4.05672454833984,0.661145329475403,1.76318562030792,-0.487420499324799,0.344233721494675,-0.80244904756546,0.73715090751648,0.654802083969116,-0.1668611317873,0.468006074428558,-0.672857642173767,-0.572916150093079,,1.57592916488647,0.71801495552063,-4.65025281906128,-0.036348007619381,-0.896885454654694,-0.44076681137085,0.959444761276245,0.092057153582573,-0.266441762447357,0.279543429613113,-0.43257600069046,0.857165932655335,,0.429078221321106,1.81715202331543,4.14534568786621,-0.840727031230927,-0.539680957794189,-0.04384533688426,-0.515203773975372,0.822242915630341,-0.241829633712768,0.166562378406525,-0.180723458528519,-0.969327628612518,,-0.006448481949977,0.028798070887983,0.12527865076,0,0.002732729995309,0.000875434051413,0,,-1.50610281059701,0.157466523305438,0.10739114505,1.39758347332435,-0.388867478332443,2.12456419449052,-0.10764373958249
1.345668123,,4.05672454833984,0.661145329475403,1.76318562030792,-0.487420499324799,0.344233721494675,-0.80244904756546,0.73715090751648,0.654802083969116,-0.1668611317873,0.468006074428558,-0.672857642173767,-0.572916150093079,,1.57591021060944,0.717988848686218,-4.65026426315308,-0.036344513297081,-0.896887362003326,-0.440763115882874,0.959446310997009,0.092056773602963,-0.266436100006104,0.27953839302063,-0.432572066783905,0.85716962814331,,0.429078221321106,1.81715202331543,4.14534568786621,-0.840727031230927,-0.539680957794189,-0.04384533688426,-0.515203773975372,0.822242915630341,-0.241829633712768,0.166562378406525,-0.180723458528519,-0.969327628612518,,-0.006448481949977,0.028798070887983,0.12527865076,0,0.002732729995309,0.000875434051413,0,,-1.50610281059701,0.157474246038312,0.10739114505,1.39758347332435,-0.388867478332443,2.12456419449052,-0.10764373958249
1.38500929300017,,4.05672454833984,0.661145329475403,1.76318562030792,-0.487420499324799,0.344233721494675,-0.80244904756546,0.73715090751648,0.654802083969116,-0.1668611317873,0.468006074428558,-0.672857642173767,-0.572916150093079,,1.57595074176788,0.717994213104248,-4.6502480506897,-0.036350570619106,-0.896883189678192,-0.440771192312241,0.95944619178772,0.092053852975369,-0.266437590122223,0.279538065195084,-0.43258136510849,0.857164978981018,,0.429078221321106,1.81715202331543,4.14534568786621,-0.840727031230927,-0.539680957794189,-0.04384533688426,-0.515203773975372,0.822242915630341,-0.241829633712768,0.166562378406525,-0.180723458528519,-0.969327628612518,,-0.006448481949977,0.028798070887983,0.12527865076,0,0.002732729995309,0.000875434051413,0,,-1.50611053332989,0.157466523305438,0.10739114505,1.39758347332435,-0.388867478332443,2.12456419449052,-0.10764373958249
1.42413802600004,,4.05669403076172,0.661136031150818,1.76325011253357,-0.487427234649658,0.344244092702866,-0.802440404891968,0.73714941740036,0.654804408550262,-0.166858658194542,0.468001455068588,-0.672850012779236,-0.572928845882416,,1.57592916488647,0.71801495552063,-4.65025281906128,-0.036348007619381,-0.896885454654694,-0.44076681137085,0.959444761276245,0.092057153582573,-0.266441762447357,0.279543429613113,-0.43257600069046,0.857165932655335,,0.429078221321106,1.81715202331543,4.14534568786621,-0.840727031230927,-0.539680957794189,-0.04384533688426,-0.515203773975372,0.822242915630341,-0.241829633712768,0.166562378406525,-0.180723458528519,-0.969327628612518,,-0.006463927415726,0.028798070887983,0.12527865076,0,0.002732729995309,0.000875434051413,0,,-1.50610281059701,0.157466523305438,0.10739114505,1.39758347332435,-0.388867478332443,2.12456419449052,-0.10764373958249
1.47003706500027,,4.05672454833984,0.661145329475403,1.76318562030792,-0.487420499324799,0.344233721494675,-0.80244904756546,0.73715090751648,0.654802083969116,-0.1668611317873,0.468006074428558,-0.672857642173767,-0.572916150093079,,1.57592916488647,0.71801495552063,-4.65025281906128,-0.036348007619381,-0.896885454654694,-0.44076681137085,0.959444761276245,0.092057153582573,-0.266441762447357,0.279543429613113,-0.43257600069046,0.857165932655335,,0.429078221321106,1.81715202331543,4.14534568786621,-0.840727031230927,-0.539680957794189,-0.04384533688426,-0.515203773975372,0.822242915630341,-0.241829633712768,0.166562378406525,-0.180723458528519,-0.969327628612518,,-0.006448481949977,0.028798070887983,0.12527865076,0,0.002732729995309,0.000875434051413,0,,-1.50610281059701,0.157466523305438,0.10739114505,1.39758347332435,-0.388867478332443,2.12456419449052,-0.10764373958249
1.50242012700028,,4.05672454833984,0.661145329475403,1.76318562030792,-0.487420499324799,0.344233721494675,-0.80244904756546,0.73715090751648,0.654802083969116,-0.1668611317873,0.468006074428558,-0.672857642173767,-0.572916150093079,,1.57595074176788,0.717994213104248,-4.6502480506897,-0.036350570619106,-0.896883189678192,-0.440771192312241,0.95944619178772,0.092053852975369,-0.266437590122223,0.279538065195084,-0.43258136510849,0.857164978981018,,0.429078221321106,1.81715202331543,4.14534568786621,-0.840727031230927,-0.539680957794189,-0.04384533688426,-0.515203773975372,0.822242915630341,-0.241829633712768,0.166562378406525,-0.180723458528519,-0.969327628612518,,-0.006448481949977,0.028798070887983,0.12527865076,0,0.002732729995309,0.000875434051413,0,,-1.50611053332989,0.157466523305438,0.10739114505,1.39758347332435,-0.388867478332443,2.12456419449052,-0.10764373958249
1.54093669000031,,4.05670976638794,0.661140739917755,1.76321792602539,-0.487423837184906,0.344238877296448,-0.802444815635681,0.737150132656097,0.654803216457367,-0.166859894990921,0.468003749847412,-0.672853767871857,-0.57292252779007,,1.57595074176788,0.717994213104248,-4.6502480506897,-0.036350570619106,-0.896883189678192,-0.440771192312241,0.95944619178772,0.092053852975369,-0.266437590122223,0.279538065195084,-0.43258136510849,0.857164978981018,,0.429078221321106,1.81715202331543,4.14534568786621,-0.840727031230927,-0.539680957794189,-0.04384533688426,-0.515203773975372,0.822242915630341,-0.241829633712768,0.166562378406525,-0.180723458528519,-0.969327628612518,,-0.006456204682852,0.028798070887983,0.12527865076,0,0.002732729995309,0.000875434051413,0,,-1.50611053332989,0.157466523305438,0.10739114505,1.39758347332435,-0.388867478332443,2.12456419449052,-0.10764373958249
1.59236546300008,,4.05669403076172,0.661136031150818,1.76325011253357,-0.487427234649658,0.344244092702866,-0.802440404891968,0.73714941740036,0.654804408550262,-0.166858658194542,0.468001455068588,-0.672850012779236,-0.572928845882416,,1.57592916488647,0.71801495552063,-4.65025281906128,-0.036348007619381,-0.896885454654694,-0.44076681137085,0.959444761276245,0.092057153582573,-0.266441762447357,0.279543429613113,-0.43257600069046,0.857165932655335,,0.429078221321106,1.81715202331543,4.14534568786621,-0.840727031230927,-0.539680957794189,-0.04384533688426,-0.515203773975372,0.822242915630341,-0.241829633712768,0.166562378406525,-0.180723458528519,-0.969327628612518,,-0.006463927415726,0.028798070887983,0.12527865076,0,0.002732729995309,0.000875434051413,0,,-1.50610281059701,0.157466523305438,0.10739114505,1.39758347332435,-0.388867478332443,2.12456419449052,-0.10764373958249
1.63482970200039,,4.05669403076172,0.661136031150818,1.76325011253357,-0.487427234649658,0.344244092702866,-0.802440404891968,0.73714941740036,0.654804408550262,-0.166858658194542,0.468001455068588,-0.672850012779236,-0.572928845882416,,1.57595074176788,0.717994213104248,-4.6502480506897,-0.036350570619106,-0.896883189678192,-0.440771192312241,0.95944619178772,0.092053852975369,-0.266437590122223,0.279538065195084,-0.43258136510849,0.857164978981018,,0.429078221321106,1.81715202331543,4.14534568786621,-0.840727031230927,-0.539680957794189,-0.04384533688426,-0.515203773975372,0.822242915630341,-0.241829633712768,0.166562378406525,-0.180723458528519,-0.969327628612518,,-0.006463927415726,0.028798070887983,0.12527865076,0,0.002732729995309,0.000875434051413,0,,-1.50611053332989,0.157466523305438,0.10739114505,1.39758347332435,-0.388867478332443,2.12456419449052,-0.10764373958249
1.67013628300037,,4.05672454833984,0.661145329475403,1.76318562030792,-0.487420499324799,0.344233721494675,-0.80244904756546,0.73715090751648,0.654802083969116,-0.1668611317873,0.468006074428558,-0.672857642173767,-0.572916150093079,,1.57592916488647,0.71801495552063,-4.65025281906128,-0.036348007619381,-0.896885454654694,-0.44076681137085,0.959444761276245,0.092057153582573,-0.266441762447357,0.279543429613113,-0.43257600069046,0.857165932655335,,0.429078221321106,1.81715202331543,4.14534568786621,-0.840727031230927,-0.539680957794189,-0.04384533688426,-0.515203773975372,0.822242915630341,-0.241829633712768,0.166562378406525,-0.180723458528519,-0.969327628612518,,-0.006448481949977,0.028798070887983,0.12527865076,0,0.002732729995309,0.000875434051413,0,,-1.50610281059701,0.157466523305438,0.10739114505,1.39758347332435,-0.388867478332443,2.12456419449052,-0.10764373958249
1.711981036,,4.05669403076172,0.661136031150818,1.76325011253357,-0.487427234649658,0.344244092702866,-0.802440404891968,0.73714941740036,0.654804408550262,-0.166858658194542,0.468001455068588,-0.672850012779236,-0.572928845882416,,1.57593190670013,0.717968285083771,-4.65025997161865,-0.036347046494484,-0.896885097026825,-0.440767556428909,0.959447860717773,0.092053532600403,-0.266431927680969,0.279532968997955,-0.432577431201935,0.857168614864349,,0.429078221321106,1.81715202331543,4.14534568786621,-0.840727031230927,-0.539680957794189,-0.04384533688426,-0.515203773975372,0.822242915630341,-0.241829633712768,0.166562378406525,-0.180723458528519,-0.969327628612518,,-0.006463927415726,0.028798070887983,0.12527865076,0,0.002732729995309,0.000875434051413,0,,-1.50611053332989,0.157474246038312,0.10739114505,1.39758347332435,-0.388867478332443,2.12456419449052,-0.10764373958249
1.75671131600029,,4.05669403076172,0.661136031150818,1.76325011253357,-0.487427234649658,0.344244092702866,-0.802440404891968,0.73714941740036,0.654804408550262,-0.166858658194542,0.468001455068588,-0.672850012779236,-0.572928845882416,,1.57592916488647,0.71801495552063,-4.65025281906128,-0.036348007619381,-0.896885454654694,-0.44076681137085,0.959444761276245,0.092057153582573,-0.266441762447357,0.279543429613113,-0.43257600069046,0.857165932655335,,0.429078221321106,1.81715202331543,4.14534568786621,-0.840727031230927,-0.539680957794189,-0.04384533688426,-0.515203773975372,0.822242915630341,-0.241829633712768,0.166562378406525,-0.180723458528519,-0.969327628612518,,-0.006463927415726,0.028798070887983,0.12527865076,0,0.002732729995309,0.000875434051413,0,,-1.50610281059701,0.157466523305438,0.10739114505,1.39758347332435,-0.388867478332443,2.12456419449052,-0.10764373958249
1.80309425400037,,4.05669403076172,0.661136031150818,1.76325011253357,-0.487427234649658,0.344244092702866,-0.802440404891968,0.73714941740036,0.654804408550262,-0.166858658194542,0.468001455068588,-0.672850012779236,-0.572928845882416,,1.57592916488647,0.71801495552063,-4.65025281906128,-0.036348007619381,-0.896885454654694,-0.44076681137085,0.959444761276245,0.092057153582573,-0.266441762447357,0.279543429613113,-0.43257600069046,0.857165932655335,,0.429078221321106,1.81715202331543,4.14534568786621,-0.840727031230927,-0.539680957794189,-0.04384533688426,-0.515203773975372,0.822242915630341,-0.241829633712768,0.166562378406525,-0.180723458528519,-0.969327628612518,,-0.006463927415726,0.028798070887983,0.12527865076,0,0.002732729995309,0.000875434051413,0,,-1.50610281059701,0.157466523305438,0.10739114505,1.39758347332435,-0.388867478332443,2.12456419449052,-0.10764373958249
1.82884896600035,,4.05670976638794,0.661140739917755,1.76321792602539,-0.487423837184906,0.344238877296448,-0.802444815635681,0.737150132656097,0.654803216457367,-0.166859894990921,0.468003749847412,-0.672853767871857,-0.57292252779007,,1.57592916488647,0.71801495552063,-4.65025281906128,-0.036348007619381,-0.896885454654694,-0.44076681137085,0.959444761276245,0.092057153582573,-0.266441762447357,0.279543429613113,-0.43257600069046,0.857165932655335,,0.429078221321106,1.81715202331543,4.14534568786621,-0.840727031230927,-0.539680957794189,-0.04384533688426,-0.515203773975372,0.822242915630341,-0.241829633712768,0.166562378406525,-0.180723458528519,-0.969327628612518,,-0.006456204682852,0.028798070887983,0.12527865076,0,0.002732729995309,0.000875434051413,0,,-1.50610281059701,0.157466523305438,0.10739114505,1.39758347332435,-0.388867478332443,2.12456419449052,-0.10764373958249
1.87883463800017,,4.05672454833984,0.661145329475403,1.76318562030792,-0.487420499324799,0.344233721494675,-0.80244904756546,0.73715090751648,0.654802083969116,-0.1668611317873,0.468006074428558,-0.672857642173767,-0.572916150093079,,1.57592916488647,0.71801495552063,-4.65025281906128,-0.036348007619381,-0.896885454654694,-0.44076681137085,0.959444761276245,0.092057153582573,-0.266441762447357,0.279543429613113,-0.43257600069046,0.857165932655335,,0.429078221321106,1.81715202331543,4.14534568786621,-0.840727031230927,-0.539680957794189,-0.04384533688426,-0.515203773975372,0.822242915630341,-0.241829633712768,0.166562378406525,-0.180723458528519,-0.969327628612518,,-0.006456204682852,0.028798070887983,0.12527865076,0,0.002732729995309,0.000875434051413,0,,-1.50610281059701,0.157466523305438,0.10739114505,1.39758347332435,-0.388867478332443,2.12456419449052,-0.10764373958249
1.92070656400028,,4.05672454833984,0.661145329475403,1.76318562030792,-0.487420499324799,0.344233721494675,-0.80244904756546,0.73715090751648,0.654802083969116,-0.1668611317873,0.468006074428558,-0.672857642173767,-0.572916150093079,,1.57592916488647,0.71801495552063,-4.65025281906128,-0.036348007619381,-0.896885454654694,-0.44076681137085,0.959444761276245,0.092057153582573,-0.266441762447357,0.279543429613113,-0.43257600069046,0.857165932655335,,0.429078221321106,1.81715202331543,4.14534568786621,-0.840727031230927,-0.539680957794189,-0.04384533688426,-0.515203773975372,0.822242915630341,-0.241829633712768,0.166562378406525,-0.180723458528519,-0.969327628612518,,-0.006448481949977,0.028798070887983,0.12527865076,0,0.002732729995309,0.000875434051413,0,,-1.50610281059701,0.157466523305438,0.10739114505,1.39758347332435,-0.388867478332443,2.12456419449052,-0.10764373958249
1.95967641300012,,4.05670976638794,0.661140739917755,1.76321792602539,-0.487423837184906,0.344238877296448,-0.802444815635681,0.737150132656097,0.654803216457367,-0.166859894990921,0.468003749847412,-0.672853767871857,-0.57292252779007,,1.57592916488647,0.71801495552063,-4.65025281906128,-0.036348007619381,-0.896885454654694,-0.44076681137085,0.959444761276245,0.092057153582573,-0.266441762447357,0.279543429613113,-0.43257600069046,0.857165932655335,,0.429078221321106,1.81715202331543,4.14534568786621,-0.840727031230927,-0.539680957794189,-0.04384533688426,-0.515203773975372,0.822242915630341,-0.241829633712768,0.166562378406525,-0.180723458528519,-0.969327628612518,,-0.006456204682852,0.028798070887983,0.12527865076,0,0.002732729995309,0.000875434051413,0,,-1.50610281059701,0.157466523305438,0.10739114505,1.39758347332435,-0.388867478332443,2.12456419449052,-0.10764373958249
1.99394235499994,,4.05669403076172,0.661136031150818,1.76325011253357,-0.487427234649658,0.344244092702866,-0.802440404891968,0.73714941740036,0.654804408550262,-0.166858658194542,0.468001455068588,-0.672850012779236,-0.572928845882416,,1.57592916488647,0.71801495552063,-4.65025281906128,-0.036348007619381,-0.896885454654694,-0.44076681137085,0.959444761276245,0.092057153582573,-0.266441762447357,0.279543429613113,-0.43257600069046,0.857165932655335,,0.429078221321106,1.81715202331543,4.14534568786621,-0.840727031230927,-0.539680957794189,-0.04384533688426,-0.515203773975372,0.822242915630341,-0.241829633712768,0.166562378406525,-0.180723458528519,-0.969327628612518,,-0.006463927415726,0.028798070887983,0.12527865076,0,0.002732729995309,0.000875434051413,0,,-1.50610281059701,0.157466523305438,0.10739114505,1.39758347332435,-0.388867478332443,2.12456419449052,-0.10764373958249
2.0415904460001,,4.05672454833984,0.661145329475403,1.76318562030792,-0.487420499324799,0.344233721494675,-0.80244904756546,0.73715090751648,0.654802083969116,-0.1668611317873,0.468006074428558,-0.672857642173767,-0.572916150093079,,1.57595074176788,0.717994213104248,-4.6502480506897,-0.036350570619106,-0.896883189678192,-0.440771192312241,0.95944619178772,0.092053852975369,-0.266437590122223,0.279538065195084,-0.43258136510849,0.857164978981018,,0.429078221321106,1.81715202331543,4.14534568786621,-0.840727031230927,-0.539680957794189,-0.04384533688426,-0.515203773975372,0.822242915630341,-0.241829633712768,0.166562378406525,-0.180723458528519,-0.969327628612518,,-0.006448481949977,0.028798070887983,0.12527865076,0,0.002732729995309,0.000875434051413,0,,-1.50611053332989,0.157466523305438,0.10739114505,1.39758347332435,-0.388867478332443,2.12456419449052,-0.10764373958249
2.0859367930002,,4.05672454833984,0.661145329475403,1.76318562030792,-0.487420499324799,0.344233721494675,-0.80244904756546,0.73715090751648,0.654802083969116,-0.1668611317873,0.468006074428558,-0.672857642173767,-0.572916150093079,,1.57592916488647,0.71801495552063,-4.65025281906128,-0.036348007619381,-0.896885454654694,-0.44076681137085,0.959444761276245,0.092057153582573,-0.266441762447357,0.279543429613113,-0.43257600069046,0.857165932655335,,0.429078221321106,1.81715202331543,4.14534568786621,-0.840727031230927,-0.539680957794189,-0.04384533688426,-0.515203773975372,0.822242915630341,-0.241829633712768,0.166562378406525,-0.180723458528519,-0.969327628612518,,-0.006448481949977,0.028798070887983,0.12527865076,0,0.002732729995309,0.000875434051413,0,,-1.50610281059701,0.157466523305438,0.10739114505,1.39758347332435,-0.388867478332443,2.12456419449052,-0.10764373958249
2.11935635300006,,4.05670976638794,0.661140739917755,1.76321792602539,-0.487423837184906,0.344238877296448,-0.802444815635681,0.737150132656097,0.654803216457367,-0.166859894990921,0.468003749847412,-0.672853767871857,-0.57292252779007,,1.57592916488647,0.71801495552063,-4.65025281906128,-0.036348007619381,-0.896885454654694,-0.44076681137085,0.959444761276245,0.092057153582573,-0.266441762447357,0.279543429613113,-0.43257600069046,0.857165932655335,,0.429078221321106,1.81715202331543,4.14534568786621,-0.840727031230927,-0.539680957794189,-0.04384533688426,-0.515203773975372,0.822242915630341,-0.241829633712768,0.166562378406525,-0.180723458528519,-0.969327628612518,,-0.006456204682852,0.028798070887983,0.12527865076,0,0.002732729995309,0.000875434051413,0,,-1.50610281059701,0.157466523305438,0.10739114505,1.39758347332435,-0.388867478332443,2.12456419449052,-0.10764373958249
2.15904287700005,,4.05670976638794,0.661140739917755,1.76321792602539,-0.487423837184906,0.344238877296448,-0.802444815635681,0.737150132656097,0.654803216457367,-0.166859894990921,0.468003749847412,-0.672853767871857,-0.57292252779007,,1.57595074176788,0.717994213104248,-4.6502480506897,-0.036350570619106,-0.896883189678192,-0.440771192312241,0.95944619178772,0.092053852975369,-0.266437590122223,0.279538065195084,-0.43258136510849,0.857164978981018,,0.429078221321106,1.81715202331543,4.14534568786621,-0.840727031230927,-0.539680957794189,-0.04384533688426,-0.515203773975372,0.822242915630341,-0.241829633712768,0.166562378406525,-0.180723458528519,-0.969327628612518,,-0.006456204682852,0.028798070887983,0.12527865076,0,0.002732729995309,0.000875434051413,0,,-1.50611053332989,0.157466523305438,0.10739114505,1.39758347332435,-0.388867478332443,2.12456419449052,-0.10764373958249
2.2032417610003,,4.05672454833984,0.661145329475403,1.76318562030792,-0.487420499324799,0.344233721494675,-0.80244904756546,0.73715090751648,0.654802083969116,-0.1668611317873,0.468006074428558,-0.672857642173767,-0.572916150093079,,1.57595074176788,0.717994213104248,-4.6502480506897,-0.036350570619106,-0.896883189678192,-0.440771192312241,0.95944619178772,0.092053852975369,-0.266437590122223,0.279538065195084,-0.43258136510849,0.857164978981018,,0.429078221321106,1.81715202331543,4.14534568786621,-0.840727031230927,-0.539680957794189,-0.04384533688426,-0.515203773975372,0.822242915630341,-0.241829633712768,0.166562378406525,-0.180723458528519,-0.969327628612518,,-0.006448481949977,0.028798070887983,0.12527865076,0,0.002732729995309,0.000875434051413,0,,-1.50611053332989,0.157466523305438,0.10739114505,1.39758347332435,-0.388867478332443,2.12456419449052,-0.10764373958249
2.25192827900037,,4.05669403076172,0.661136031150818,1.76325011253357,-0.487427234649658,0.344244092702866,-0.802440404891968,0.73714941740036,0.654804408550262,-0.166858658194542,0.468001455068588,-0.672850012779236,-0.572928845882416,,1.57592916488647,0.71801495552063,-4.65025281906128,-0.036348007619381,-0.896885454654694,-0.44076681137085,0.959444761276245,0.092057153582573,-0.266441762447357,0.279543429613113,-0.43257600069046,0.857165932655335,,0.429078221321106,1.81715202331543,4.14534568786621,-0.840727031230927,-0.539680957794189,-0.04384533688426,-0.515203773975372,0.822242915630341,-0.241829633712768,0.166562378406525,-0.180723458528519,-0.969327628612518,,-0.006463927415726,0.028798070887983,0.12527865076,0,0.002732729995309,0.000875434051413,0,,-1.50610281059701,0.157466523305438,0.10739114505,1.39758347332435,-0.388867478332443,2.12456419449052,-0.10764373958249
2.28715342600026,,4.05669403076172,0.661136031150818,1.76325011253357,-0.487427234649658,0.344244092702866,-0.802440404891968,0.73714941740036,0.654804408550262,-0.166858658194542,0.468001455068588,-0.672850012779236,-0.572928845882416,,1.57592916488647,0.71801495552063,-4.65025281906128,-0.036348007619381,-0.896885454654694,-0.44076681137085,0.959444761276245,0.092057153582573,-0.266441762447357,0.279543429613113,-0.43257600069046,0.857165932655335,,0.429078221321106,1.81715202331543,4.14534568786621,-0.840727031230927,-0.539680957794189,-0.04384533688426,-0.515203773975372,0.822242915630341,-0.241829633712768,0.166562378406525,-0.180723458528519,-0.969327628612518,,-0.006463927415726,0.028798070887983,0.12527865076,0,0.002732729995309,0.000875434051413,0,,-1.50610281059701,0.157466523305438,0.10739114505,1.39758347332435,-0.388867478332443,2.12456419449052,-0.10764373958249
2.32448633100012,,4.05672454833984,0.661145329475403,1.76318562030792,-0.487420499324799,0.344233721494675,-0.80244904756546,0.73715090751648,0.654802083969116,-0.1668611317873,0.468006074428558,-0.672857642173767,-0.572916150093079,,1.57592916488647,0.71801495552063,-4.65025281906128,-0.036348007619381,-0.896885454654694,-0.44076681137085,0.959444761276245,0.092057153582573,-0.266441762447357,0.279543429613113,-0.43257600069046,0.857165932655335,,0.429078221321106,1.81715202331543,4.14534568786621,-0.840727031230927,-0.539680957794189,-0.04384533688426,-0.515203773975372,0.822242915630341,-0.241829633712768,0.166562378406525,-0.180723458528519,-0.969327628612518,,-0.006448481949977,0.028798070887983,0.12527865076,0,0.002732729995309,0.000875434051413,0,,-1.50610281059701,0.157466523305438,0.10739114505,1.39758347332435,-0.388867478332443,2.12456419449052,-0.10764373958249
2.36285759600014,,4.05672454833984,0.661145329475403,1.76318562030792,-0.487420499324799,0.344233721494675,-0.80244904756546,0.73715090751648,0.654802083969116,-0.1668611317873,0.468006074428558,-0.672857642173767,-0.572916150093079,,1.57623636722565,0.717813074588776,-4.65021562576294,-0.036412939429283,-0.896861433982849,-0.440810173749924,0.959459662437439,0.091987811028957,-0.266411930322647,0.279483735561371,-0.432640433311462,0.857152938842773,,0.429078221321106,1.81715202331543,4.14534568786621,-0.840727031230927,-0.539680957794189,-0.04384533688426,-0.515203773975372,0.822242915630341,-0.241829633712768,0.166562378406525,-0.180723458528519,-0.969327628612518,,-0.006448481949977,0.028798070887983,0.12527865076,0,0.002732729995309,0.000875434051413,0,,-1.50611053332989,0.157474246038312,0.10739114505,1.39758347332435,-0.388867478332443,2.12456419449052,-0.10764373958249
2.41486174900001,,4.05666351318359,0.660968005657196,1.76334834098816,-0.487396627664566,0.344301879405975,-0.802434146404266,0.737189888954163,0.654767632484436,-0.16682505607605,0.467969655990601,-0.672856271266937,-0.572947382926941,,1.57629120349884,0.717799842357636,-4.65019464492798,-0.036447755992413,-0.896855175495148,-0.440820038318634,0.959463477134705,0.091953203082085,-0.266410142183304,0.279466032981873,-0.432660698890686,0.857148349285126,,0.429130077362061,1.81713724136353,4.14534425735474,-0.840747475624085,-0.539648473262787,-0.043854918330908,-0.515170454978943,0.82226425409317,-0.241827890276909,0.166562378406525,-0.180723458528519,-0.969327628612518,,-0.006448481949977,0.028798070887983,0.12527865076,0,0.002732729995309,0.000875434051413,0,,-1.50611053332989,0.157466523305438,0.10739114505,1.39758347332435,-0.388867478332443,2.12456419449052,-0.10764373958249
2.45025429199995,,4.05666351318359,0.660968005657196,1.76334834098816,-0.487396627664566,0.344301879405975,-0.802434146404266,0.737189888954163,0.654767632484436,-0.16682505607605,0.467969655990601,-0.672856271266937,-0.572947382926941,,1.57626950740814,0.717820525169373,-4.65019941329956,-0.036445252597332,-0.896857500076294,-0.440815716981888,0.959461987018585,0.091956436634064,-0.266414254903793,0.279471397399902,-0.432655394077301,0.857149362564087,,0.429130077362061,1.81713724136353,4.14534425735474,-0.840747475624085,-0.539648473262787,-0.043854918330908,-0.515170454978943,0.82226425409317,-0.241827890276909,0.166562378406525,-0.180723458528519,-0.969327628612518,,-0.006448481949977,0.028798070887983,0.12527865076,0,0.002732729995309,0.000875434051413,0,,-1.50610281059701,0.157466523305438,0.10739114505,1.39758347332435,-0.388867478332443,2.12456419449052,-0.10764373958249
2.48906697400025,,4.05666351318359,0.660968005657196,1.76334834098816,-0.487396627664566,0.344301879405975,-0.802434146404266,0.737189888954163,0.654767632484436,-0.16682505607605,0.467969655990601,-0.672856271266937,-0.572947382926941,,1.57625043392181,0.717794477939606,-4.65021085739136,-0.03644172847271,-0.896859407424927,-0.440812021493912,0.959463655948639,0.091956086456776,-0.266408622264862,0.279466360807419,-0.432651370763779,0.857152998447418,,0.429130077362061,1.81713724136353,4.14534425735474,-0.840747475624085,-0.539648473262787,-0.043854918330908,-0.515170454978943,0.82226425409317,-0.241827890276909,0.166562378406525,-0.180723458528519,-0.969327628612518,,-0.006448481949977,0.028798070887983,0.12527865076,0,0.002732729995309,0.000875434051413,0,,-1.50610281059701,0.157474246038312,0.10739114505,1.39758347332435,-0.388867478332443,2.12456419449052,-0.10764373958249
2.53052440900001,,4.05666351318359,0.660968005657196,1.76334834098816,-0.487396627664566,0.344301879405975,-0.802434146404266,0.737189888954163,0.654767632484436,-0.16682505607605,0.467969655990601,-0.672856271266937,-0.572947382926941,,1.57629120349884,0.717799842357636,-4.65019464492798,-0.036447755992413,-0.896855175495148,-0.440820038318634,0.959463477134705,0.091953203082085,-0.266410142183304,0.279466032981873,-0.432660698890686,0.857148349285126,,0.429130077362061,1.81713724136353,4.14534425735474,-0.840747475624085,-0.539648473262787,-0.043854918330908,-0.515170454978943,0.82226425409317,-0.241827890276909,0.166562378406525,-0.180723458528519,-0.969327628612518,,-0.006448481949977,0.028798070887983,0.12527865076,0,0.002732729995309,0.000875434051413,0,,-1.50611053332989,0.157466523305438,0.10739114505,1.39758347332435,-0.388867478332443,2.12456419449052,-0.10764373958249
2.56068078900034,,4.05666351318359,0.660968005657196,1.76334834098816,-0.487396627664566,0.344301879405975,-0.802434146404266,0.737189888954163,0.654767632484436,-0.16682505607605,0.467969655990601,-0.672856271266937,-0.572947382926941,,1.57629120349884,0.717799842357636,-4.65019464492798,-0.036447755992413,-0.896855175495148,-0.440820038318634,0.959463477134705,0.091953203082085,-0.266410142183304,0.279466032981873,-0.432660698890686,0.857148349285126,,0.429130077362061,1.81713724136353,4.14534425735474,-0.840747475624085,-0.539648473262787,-0.043854918330908,-0.515170454978943,0.82226425409317,-0.241827890276909,0.166562378406525,-0.180723458528519,-0.969327628612518,,-0.006448481949977,0.028798070887983,0.12527865076,0,0.002732729995309,0.000875434051413,0,,-1.50611053332989,0.157466523305438,0.10739114505,1.39758347332435,-0.388867478332443,2.12456419449052,-0.10764373958249
2.60645251200003,,4.05666351318359,0.660968005657196,1.76334834098816,-0.487396627664566,0.344301879405975,-0.802434146404266,0.737189888954163,0.654767632484436,-0.16682505607605,0.467969655990601,-0.672856271266937,-0.572947382926941,,1.57625043392181,0.717794477939606,-4.65021085739136,-0.03644172847271,-0.896859407424927,-0.440812021493912,0.959463655948639,0.091956086456776,-0.266408622264862,0.279466360807419,-0.432651370763779,0.857152998447418,,0.429130077362061,1.81713724136353,4.14534425735474,-0.840747475624085,-0.539648473262787,-0.043854918330908,-0.515170454978943,0.82226425409317,-0.241827890276909,0.166562378406525,-0.180723458528519,-0.969327628612518,,-0.006448481949977,0.028798070887983,0.12527865076,0,0.002732729995309,0.000875434051413,0,,-1.50610281059701,0.157474246038312,0.10739114505,1.39758347332435,-0.388867478332443,2.12456419449052,-0.10764373958249
2.64736636099997,,4.05666351318359,0.660968005657196,1.76334834098816,-0.487396627664566,0.344301879405975,-0.802434146404266,0.737189888954163,0.654767632484436,-0.16682505607605,0.467969655990601,-0.672856271266937,-0.572947382926941,,1.57626950740814,0.717820525169373,-4.65019941329956,-0.036445252597332,-0.896857500076294,-0.440815716981888,0.959461987018585,0.091956436634064,-0.266414254903793,0.279471397399902,-0.432655394077301,0.857149362564087,,0.429130077362061,1.81713724136353,4.14534425735474,-0.840747475624085,-0.539648473262787,-0.043854918330908,-0.515170454978943,0.82226425409317,-0.241827890276909,0.166562378406525,-0.180723458528519,-0.969327628612518,,-0.006448481949977,0.028798070887983,0.12527865076,0,0.002732729995309,0.000875434051413,0,,-1.50610281059701,0.157466523305438,0.10739114505,1.39758347332435,-0.388867478332443,2.12456419449052,-0.10764373958249
2.68715804700014,,4.05666351318359,0.660968005657196,1.76334834098816,-0.487396627664566,0.344301879405975,-0.802434146404266,0.737189888954163,0.654767632484436,-0.16682505607605,0.467969655990601,-0.672856271266937,-0.572947382926941,,1.57629120349884,0.717799842357636,-4.65019464492798,-0.036447755992413,-0.896855175495148,-0.440820038318634,0.959463477134705,0.091953203082085,-0.266410142183304,0.279466032981873,-0.432660698890686,0.857148349285126,,0.429130077362061,1.81713724136353,4.14534425735474,-0.840747475624085,-0.539648473262787,-0.043854918330908,-0.515170454978943,0.82226425409317,-0.241827890276909,0.166562378406525,-0.180723458528519,-0.969327628612518,,-0.006448481949977,0.028798070887983,0.12527865076,0,0.002732729995309,0.000875434051413,0,,-1.50611053332989,0.157466523305438,0.10739114505,1.39758347332435,-0.388867478332443,2.12456419449052,-0.10764373958249
2.72616490200016,,4.05666351318359,0.660968005657196,1.76334834098816,-0.487396627664566,0.344301879405975,-0.802434146404266,0.737189888954163,0.654767632484436,-0.16682505607605,0.467969655990601,-0.672856271266937,-0.572947382926941,,1.57629120349884,0.717799842357636,-4.65019464492798,-0.036447755992413,-0.896855175495148,-0.440820038318634,0.959463477134705,0.091953203082085,-0.266410142183304,0.279466032981873,-0.432660698890686,0.857148349285126,,0.429130077362061,1.81713724136353,4.14534425735474,-0.840747475624085,-0.539648473262787,-0.043854918330908,-0.515170454978943,0.82226425409317,-0.241827890276909,0.166562378406525,-0.180723458528519,-0.969327628612518,,-0.006448481949977,0.028798070887983,0.12527865076,0,0.002732729995309,0.000875434051413,0,,-1.50611053332989,0.157466523305438,0.10739114505,1.39758347332435,-0.388867478332443,2.12456419449052,-0.10764373958249
2.76910843700034,,4.05666351318359,0.660968005657196,1.76334834098816,-0.487396627664566,0.344301879405975,-0.802434146404266,0.737189888954163,0.654767632484436,-0.16682505607605,0.467969655990601,-0.672856271266937,-0.572947382926941,,1.57626950740814,0.717820525169373,-4.65019941329956,-0.036445252597332,-0.896857500076294,-0.440815716981888,0.959461987018585,0.091956436634064,-0.266414254903793,0.279471397399902,-0.432655394077301,0.857149362564087,,0.429130077362061,1.81713724136353,4.14534425735474,-0.840747475624085,-0.539648473262787,-0.043854918330908,-0.515170454978943,0.82226425409317,-0.241827890276909,0.166562378406525,-0.180723458528519,-0.969327628612518,,-0.006448481949977,0.028798070887983,0.12527865076,0,0.002732729995309,0.000875434051413,0,,-1.50610281059701,0.157466523305438,0.10739114505,1.39758347332435,-0.388867478332443,2.12456419449052,-0.10764373958249
2.80717270500008,,4.05666351318359,0.660968005657196,1.76334834098816,-0.487396627664566,0.344301879405975,-0.802434146404266,0.737189888954163,0.654767632484436,-0.16682505607605,0.467969655990601,-0.672856271266937,-0.572947382926941,,1.57626950740814,0.717820525169373,-4.65019941329956,-0.036445252597332,-0.896857500076294,-0.440815716981888,0.959461987018585,0.091956436634064,-0.266414254903793,0.279471397399902,-0.432655394077301,0.857149362564087,,0.429130077362061,1.81713724136353,4.14534425735474,-0.840747475624085,-0.539648473262787,-0.043854918330908,-0.515170454978943,0.82226425409317,-0.241827890276909,0.166562378406525,-0.180723458528519,-0.969327628612518,,-0.006448481949977,0.028798070887983,0.12527865076,0,0.002732729995309,0.000875434051413,0,,-1.50610281059701,0.157466523305438,0.10739114505,1.39758347332435,-0.388867478332443,2.12456419449052,-0.10764373958249
2.85314917100004,,4.05666351318359,0.660968005657196,1.76334834098816,-0.487396627664566,0.344301879405975,-0.802434146404266,0.737189888954163,0.654767632484436,-0.16682505607605,0.467969655990601,-0.672856271266937,-0.572947382926941,,1.57629120349884,0.717799842357636,-4.65019464492798,-0.036447755992413,-0.896855175495148,-0.440820038318634,0.959463477134705,0.091953203082085,-0.266410142183304,0.279466032981873,-0.432660698890686,0.857148349285126,,0.429130077362061,1.81713724136353,4.14534425735474,-0.840747475624085,-0.539648473262787,-0.043854918330908,-0.515170454978943,0.82226425409317,-0.241827890276909,0.166562378406525,-0.180723458528519,-0.969327628612518,,-0.006448481949977,0.028798070887983,0.12527865076,0,0.002732729995309,0.000875434051413,0,,-1.50611053332989,0.157466523305438,0.10739114505,1.39758347332435,-0.388867478332443,2.12456419449052,-0.10764373958249
2.87942863300032,,4.05666351318359,0.660968005657196,1.76334834098816,-0.487396627664566,0.344301879405975,-0.802434146404266,0.737189888954163,0.654767632484436,-0.16682505607605,0.467969655990601,-0.672856271266937,-0.572947382926941,,1.57629120349884,0.717799842357636,-4.65019464492798,-0.036447755992413,-0.896855175495148,-0.440820038318634,0.959463477134705,0.091953203082085,-0.266410142183304,0.279466032981873,-0.432660698890686,0.857148349285126,,0.429130077362061,1.81713724136353,4.14534425735474,-0.840747475624085,-0.539648473262787,-0.043854918330908,-0.515170454978943,0.82226425409317,-0.241827890276909,0.166562378406525,-0.180723458528519,-0.969327628612518,,-0.006448481949977,0.028798070887983,0.12527865076,0,0.002732729995309,0.000875434051413,0,,-1.50611053332989,0.157466523305438,0.10739114505,1.39758347332435,-0.388867478332443,2.12456419449052,-0.10764373958249
2.92698365900014,,4.05664777755737,0.660963296890259,1.76338064670563,-0.487399965524674,0.344307065010071,-0.802429914474487,0.737189054489136,0.654768705368042,-0.166823819279671,0.467967331409454,-0.672852516174316,-0.572953701019287,,1.57629120349884,0.717799842357636,-4.65019464492798,-0.036447755992413,-0.896855175495148,-0.440820038318634,0.959463477134705,0.091953203082085,-0.266410142183304,0.279466032981873,-0.432660698890686,0.857148349285126,,0.429130077362061,1.81713724136353,4.14534425735474,-0.840747475624085,-0.539648473262787,-0.043854918330908,-0.515170454978943,0.82226425409317,-0.241827890276909,0.166562378406525,-0.180723458528519,-0.969327628612518,,-0.006456204682852,0.028798070887983,0.12527865076,0,0.002732729995309,0.000875434051413,0,,-1.50611053332989,0.157466523305438,0.10739114505,1.39758347332435,-0.388867478332443,2.12456419449052,-0.10764373958249
2.97143386100015,,4.05663347244263,0.660958707332611,1.76341283321381,-0.487403333187103,0.344312280416489,-0.802425742149353,0.737188339233398,0.654769957065582,-0.166822597384453,0.467965036630631,-0.672848701477051,-0.572960078716278,,1.57626950740814,0.717820525169373,-4.65019941329956,-0.036445252597332,-0.896857500076294,-0.440815716981888,0.959461987018585,0.091956436634064,-0.266414254903793,0.279471397399902,-0.432655394077301,0.857149362564087,,0.429130077362061,1.81713724136353,4.14534425735474,-0.840747475624085,-0.539648473262787,-0.043854918330908,-0.515170454978943,0.82226425409317,-0.241827890276909,0.166562378406525,-0.180723458528519,-0.969327628612518,,-0.006463927415726,0.028798070887983,0.12527865076,0,0.002732729995309,0.000875434051413,0,,-1.50610281059701,0.157466523305438,0.10739114505,1.39758347332435,-0.388867478332443,2.12456419449052,-0.10764373958249
3.00061598100001,,4.05663347244263,0.660958707332611,1.76341283321381,-0.487403333187103,0.344312280416489,-0.802425742149353,0.737188339233398,0.654769957065582,-0.166822597384453,0.467965036630631,-0.672848701477051,-0.572960078716278,,1.57626950740814,0.717820525169373,-4.65019941329956,-0.036445252597332,-0.896857500076294,-0.440815716981888,0.959461987018585,0.091956436634064,-0.266414254903793,0.279471397399902,-0.432655394077301,0.857149362564087,,0.429130077362061,1.81713724136353,4.14534425735474,-0.840747475624085,-0.539648473262787,-0.043854918330908,-0.515170454978943,0.82226425409317,-0.241827890276909,0.166562378406525,-0.180723458528519,-0.969327628612518,,-0.006463927415726,0.028798070887983,0.12527865076,0,0.002732729995309,0.000875434051413,0,,-1.50610281059701,0.157466523305438,0.10739114505,1.39758347332435,-0.388867478332443,2.12456419449052,-0.10764373958249
3.04112398100006,,4.05666351318359,0.660968005657196,1.76334834098816,-0.487396627664566,0.344301879405975,-0.802434146404266,0.737189888954163,0.654767632484436,-0.16682505607605,0.467969655990601,-0.672856271266937,-0.572947382926941,,1.57626950740814,0.717820525169373,-4.65019941329956,-0.036445252597332,-0.896857500076294,-0.440815716981888,0.959461987018585,0.091956436634064,-0.266414254903793,0.279471397399902,-0.432655394077301,0.857149362564087,,0.429130077362061,1.81713724136353,4.14534425735474,-0.840747475624085,-0.539648473262787,-0.043854918330908,-0.515170454978943,0.82226425409317,-0.241827890276909,0.166562378406525,-0.180723458528519,-0.969327628612518,,-0.006448481949977,0.028798070887983,0.12527865076,0,0.002732729995309,0.000875434051413,0,,-1.50610281059701,0.157466523305438,0.10739114505,1.39758347332435,-0.388867478332443,2.12456419449052,-0.10764373958249
3.08783340500031,,4.05663347244263,0.660958707332611,1.76341283321381,-0.487403333187103,0.344312280416489,-0.802425742149353,0.737188339233398,0.654769957065582,-0.166822597384453,0.467965036630631,-0.672848701477051,-0.572960078716278,,1.57629120349884,0.717799842357636,-4.65019464492798,-0.036447755992413,-0.896855175495148,-0.440820038318634,0.959463477134705,0.091953203082085,-0.266410142183304,0.279466032981873,-0.432660698890686,0.857148349285126,,0.429130077362061,1.81713724136353,4.14534425735474,-0.840747475624085,-0.539648473262787,-0.043854918330908,-0.515170454978943,0.82226425409317,-0.241827890276909,0.166562378406525,-0.180723458528519,-0.969327628612518,,-0.006463927415726,0.028798070887983,0.12527865076,0,0.002732729995309,0.000875434051413,0,,-1.50611053332989,0.157466523305438,0.10739114505,1.39758347332435,-0.388867478332443,2.12456419449052,-0.10764373958249
3.11841717100015,,4.05663347244263,0.660958707332611,1.76341283321381,-0.487403333187103,0.344312280416489,-0.802425742149353,0.737188339233398,0.654769957065582,-0.166822597384453,0.467965036630631,-0.672848701477051,-0.572960078716278,,1.57626950740814,0.717820525169373,-4.65019941329956,-0.036445252597332,-0.896857500076294,-0.440815716981888,0.959461987018585,0.091956436634064,-0.266414254903793,0.279471397399902,-0.432655394077301,0.857149362564087,,0.429130077362061,1.81713724136353,4.14534425735474,-0.840747475624085,-0.539648473262787,-0.043854918330908,-0.515170454978943,0.82226425409317,-0.241827890276909,0.166562378406525,-0.180723458528519,-0.969327628612518,,-0.006463927415726,0.028798070887983,0.12527865076,0,0.002732729995309,0.000875434051413,0,,-1.50610281059701,0.157466523305438,0.10739114505,1.39758347332435,-0.388867478332443,2.12456419449052,-0.10764373958249
3.15858149099995,,4.05663347244263,0.660958707332611,1.76341283321381,-0.487403333187103,0.344312280416489,-0.802425742149353,0.737188339233398,0.654769957065582,-0.166822597384453,0.467965036630631,-0.672848701477051,-0.572960078716278,,1.57626950740814,0.717820525169373,-4.65019941329956,-0.036445252597332,-0.896857500076294,-0.440815716981888,0.959461987018585,0.091956436634064,-0.266414254903793,0.279471397399902,-0.432655394077301,0.857149362564087,,0.429130077362061,1.81713724136353,4.14534425735474,-0.840747475624085,-0.539648473262787,-0.043854918330908,-0.515170454978943,0.82226425409317,-0.241827890276909,0.166562378406525,-0.180723458528519,-0.969327628612518,,-0.006463927415726,0.028798070887983,0.12527865076,0,0.002732729995309,0.000875434051413,0,,-1.50610281059701,0.157466523305438,0.10739114505,1.39758347332435,-0.388867478332443,2.12456419449052,-0.10764373958249
3.20273905000022,,4.05666351318359,0.660968005657196,1.76334834098816,-0.487396627664566,0.344301879405975,-0.802434146404266,0.737189888954163,0.654767632484436,-0.16682505607605,0.467969655990601,-0.672856271266937,-0.572947382926941,,1.57629120349884,0.717799842357636,-4.65019464492798,-0.036447755992413,-0.896855175495148,-0.440820038318634,0.959463477134705,0.091953203082085,-0.266410142183304,0.279466032981873,-0.432660698890686,0.857148349285126,,0.429130077362061,1.81713724136353,4.14534425735474,-0.840747475624085,-0.539648473262787,-0.043854918330908,-0.515170454978943,0.82226425409317,-0.241827890276909,0.166562378406525,-0.180723458528519,-0.969327628612518,,-0.006448481949977,0.028798070887983,0.12527865076,0,0.002732729995309,0.000875434051413,0,,-1.50611053332989,0.157466523305438,0.10739114505,1.39758347332435,-0.388867478332443,2.12456419449052,-0.10764373958249
3.23922312200011,,4.05666351318359,0.660968005657196,1.76334834098816,-0.487396627664566,0.344301879405975,-0.802434146404266,0.737189888954163,0.654767632484436,-0.16682505607605,0.467969655990601,-0.672856271266937,-0.572947382926941,,1.57629120349884,0.717799842357636,-4.65019464492798,-0.036447755992413,-0.896855175495148,-0.440820038318634,0.959463477134705,0.091953203082085,-0.266410142183304,0.279466032981873,-0.432660698890686,0.857148349285126,,0.429130077362061,1.81713724136353,4.14534425735474,-0.840747475624085,-0.539648473262787,-0.043854918330908,-0.515170454978943,0.82226425409317,-0.241827890276909,0.166562378406525,-0.180723458528519,-0.969327628612518,,-0.006448481949977,0.028798070887983,0.12527865076,0,0.002732729995309,0.000875434051413,0,,-1.50611053332989,0.157466523305438,0.10739114505,1.39758347332435,-0.388867478332443,2.12456419449052,-0.10764373958249
3.28806248499995,,4.05663347244263,0.660958707332611,1.76341283321381,-0.487403333187103,0.344312280416489,-0.802425742149353,0.737188339233398,0.654769957065582,-0.166822597384453,0.467965036630631,-0.672848701477051,-0.572960078716278,,1.57629120349884,0.717799842357636,-4.65019464492798,-0.036447755992413,-0.896855175495148,-0.440820038318634,0.959463477134705,0.091953203082085,-0.266410142183304,0.279466032981873,-0.432660698890686,0.857148349285126,,0.429130077362061,1.81713724136353,4.14534425735474,-0.840747475624085,-0.539648473262787,-0.043854918330908,-0.515170454978943,0.82226425409317,-0.241827890276909,0.166562378406525,-0.180723458528519,-0.969327628612518,,-0.006463927415726,0.028798070887983,0.12527865076,0,0.002732729995309,0.000875434051413,0,,-1.50611053332989,0.157466523305438,0.10739114505,1.39758347332435,-0.388867478332443,2.12456419449052,-0.10764373958249
3.31024813300019,,4.05663347244263,0.660958707332611,1.76341283321381,-0.487403333187103,0.344312280416489,-0.802425742149353,0.737188339233398,0.654769957065582,-0.166822597384453,0.467965036630631,-0.672848701477051,-0.572960078716278,,1.57626950740814,0.717820525169373,-4.65019941329956,-0.036445252597332,-0.896857500076294,-0.440815716981888,0.959461987018585,0.091956436634064,-0.266414254903793,0.279471397399902,-0.432655394077301,0.857149362564087,,0.429130077362061,1.81713724136353,4.14534425735474,-0.840747475624085,-0.539648473262787,-0.043854918330908,-0.515170454978943,0.82226425409317,-0.241827890276909,0.166562378406525,-0.180723458528519,-0.969327628612518,,-0.006463927415726,0.028798070887983,0.12527865076,0,0.002732729995309,0.000875434051413,0,,-1.50610281059701,0.157466523305438,0.10739114505,1.39758347332435,-0.388867478332443,2.12456419449052,-0.10764373958249
3.35325623800009,,4.05663347244263,0.660958707332611,1.76341283321381,-0.487403333187103,0.344312280416489,-0.802425742149353,0.737188339233398,0.654769957065582,-0.166822597384453,0.467965036630631,-0.672848701477051,-0.572960078716278,,1.57626950740814,0.717820525169373,-4.65019941329956,-0.036445252597332,-0.896857500076294,-0.440815716981888,0.959461987018585,0.091956436634064,-0.266414254903793,0.279471397399902,-0.432655394077301,0.857149362564087,,0.429130077362061,1.81713724136353,4.14534425735474,-0.840747475624085,-0.539648473262787,-0.043854918330908,-0.515170454978943,0.82226425409317,-0.241827890276909,0.166562378406525,-0.180723458528519,-0.969327628612518,,-0.006463927415726,0.028798070887983,0.12527865076,0,0.002732729995309,0.000875434051413,0,,-1.50610281059701,0.157466523305438,0.10739114505,1.39758347332435,-0.388867478332443,2.12456419449052,-0.10764373958249
3.3899389610001,,4.05666351318359,0.660968005657196,1.76334834098816,-0.487396627664566,0.344301879405975,-0.802434146404266,0.737189888954163,0.654767632484436,-0.16682505607605,0.467969655990601,-0.672856271266937,-0.572947382926941,,1.57626950740814,0.717820525169373,-4.65019941329956,-0.036445252597332,-0.896857500076294,-0.440815716981888,0.959461987018585,0.091956436634064,-0.266414254903793,0.279471397399902,-0.432655394077301,0.857149362564087,,0.429130077362061,1.81713724136353,4.14534425735474,-0.840747475624085,-0.539648473262787,-0.043854918330908,-0.515170454978943,0.82226425409317,-0.241827890276909,0.166562378406525,-0.180723458528519,-0.969327628612518,,-0.006448481949977,0.028798070887983,0.12527865076,0,0.002732729995309,0.000875434051413,0,,-1.50610281059701,0.157466523305438,0.10739114505,1.39758347332435,-0.388867478332443,2.12456419449052,-0.10764373958249
3.4328021450001,,4.05666351318359,0.660968005657196,1.76334834098816,-0.487396627664566,0.344301879405975,-0.802434146404266,0.737189888954163,0.654767632484436,-0.16682505607605,0.467969655990601,-0.672856271266937,-0.572947382926941,,1.57629120349884,0.717799842357636,-4.65019464492798,-0.036447755992413,-0.896855175495148,-0.440820038318634,0.959463477134705,0.091953203082085,-0.266410142183304,0.279466032981873,-0.432660698890686,0.857148349285126,,0.429130077362061,1.81713724136353,4.14534425735474,-0.840747475624085,-0.539648473262787,-0.043854918330908,-0.515170454978943,0.82226425409317,-0.241827890276909,0.166562378406525,-0.180723458528519,-0.969327628612518,,-0.006448481949977,0.028798070887983,0.12527865076,0,0.002732729995309,0.000875434051413,0,,-1.50611053332989,0.157466523305438,0.10739114505,1.39758347332435,-0.388867478332443,2.12456419449052,-0.10764373958249
3.47185136100006,,4.05666351318359,0.660968005657196,1.76334834098816,-0.487396627664566,0.344301879405975,-0.802434146404266,0.737189888954163,0.654767632484436,-0.16682505607605,0.467969655990601,-0.672856271266937,-0.572947382926941,,1.57626950740814,0.717820525169373,-4.65019941329956,-0.036445252597332,-0.896857500076294,-0.440815716981888,0.959461987018585,0.091956436634064,-0.266414254903793,0.279471397399902,-0.432655394077301,0.857149362564087,,0.429130077362061,1.81713724136353,4.14534425735474,-0.840747475624085,-0.539648473262787,-0.043854918330908,-0.515170454978943,0.82226425409317,-0.241827890276909,0.166562378406525,-0.180723458528519,-0.969327628612518,,-0.006448481949977,0.028798070887983,0.12527865076,0,0.002732729995309,0.000875434051413,0,,-1.50610281059701,0.157466523305438,0.10739114505,1.39758347332435,-0.388867478332443,2.12456419449052,-0.10764373958249
3.52171189800038,,4.05668640136719,0.661128759384155,1.76327574253082,-0.487417221069336,0.344263941049576,-0.802438020706177,0.737165868282318,0.654787838459015,-0.166850909590721,0.46798586845398,-0.672855913639069,-0.572934627532959,,1.57628607749939,0.717555582523346,-4.65020656585693,-0.036404088139534,-0.896848917007446,-0.440836310386658,0.959477603435516,0.091975770890713,-0.26635131239891,0.279423117637634,-0.432668805122376,0.857158303260803,,0.429143667221069,1.81713461875916,4.14534854888916,-0.840750098228455,-0.539644122123718,-0.043856166303158,-0.515166103839874,0.822267115116119,-0.241827666759491,0.166562378406525,-0.180723458528519,-0.969327628612518,,-0.006463927415726,0.028798070887983,0.12527865076,0,0.002732729995309,0.000875434051413,0,,-1.50611053332989,0.157466523305438,0.10739114505,1.39758347332435,-0.388867478332443,2.12456419449052,-0.10764373958249
3.55101504899994,,4.05670118331909,0.661133348941803,1.76324355602264,-0.487413883209229,0.344258785247803,-0.802442252635956,0.7371666431427,0.654786705970764,-0.1668521463871,0.467988193035126,-0.672859728336334,-0.572928309440613,,1.5762642621994,0.717576205730438,-4.65021133422852,-0.036401584744454,-0.896851181983948,-0.440831899642944,0.959476172924041,0.091979004442692,-0.266355454921722,0.279428511857986,-0.432663500308991,0.85715925693512,,0.429143667221069,1.81713461875916,4.14534854888916,-0.840750098228455,-0.539644122123718,-0.043856166303158,-0.515166103839874,0.822267115116119,-0.241827666759491,0.166562378406525,-0.180723458528519,-0.969327628612518,,-0.006456204682852,0.028798070887983,0.12527865076,0,0.002732729995309,0.000875434051413,0,,-1.50610281059701,0.157466523305438,0.10739114505,1.39758347332435,-0.388867478332443,2.12456419449052,-0.10764373958249
3.58578069100031,,4.056715965271,0.66113805770874,1.76321125030518,-0.487410575151444,0.344253599643707,-0.802446484565735,0.737167358398438,0.654785454273224,-0.166853398084641,0.467990458011627,-0.6728635430336,-0.572921931743622,,1.57628607749939,0.717555582523346,-4.65020656585693,-0.036404088139534,-0.896848917007446,-0.440836310386658,0.959477603435516,0.091975770890713,-0.26635131239891,0.279423117637634,-0.432668805122376,0.857158303260803,,0.429143667221069,1.81713461875916,4.14534854888916,-0.840750098228455,-0.539644122123718,-0.043856166303158,-0.515166103839874,0.822267115116119,-0.241827666759491,0.166562378406525,-0.180723458528519,-0.969327628612518,,-0.006448481949977,0.028798070887983,0.12527865076,0,0.002732729995309,0.000875434051413,0,,-1.50611053332989,0.157466523305438,0.10739114505,1.39758347332435,-0.388867478332443,2.12456419449052,-0.10764373958249
3.62535928900024,,4.05670118331909,0.661133348941803,1.76324355602264,-0.487413883209229,0.344258785247803,-0.802442252635956,0.7371666431427,0.654786705970764,-0.1668521463871,0.467988193035126,-0.672859728336334,-0.572928309440613,,1.5762642621994,0.717576205730438,-4.65021133422852,-0.036401584744454,-0.896851181983948,-0.440831899642944,0.959476172924041,0.091979004442692,-0.266355454921722,0.279428511857986,-0.432663500308991,0.85715925693512,,0.429143667221069,1.81713461875916,4.14534854888916,-0.840750098228455,-0.539644122123718,-0.043856166303158,-0.515166103839874,0.822267115116119,-0.241827666759491,0.166562378406525,-0.180723458528519,-0.969327628612518,,-0.006456204682852,0.028798070887983,0.12527865076,0,0.002732729995309,0.000875434051413,0,,-1.50610281059701,0.157466523305438,0.10739114505,1.39758347332435,-0.388867478332443,2.12456419449052,-0.10764373958249
3.66996433400027,,4.05668640136719,0.661128759384155,1.76327574253082,-0.487417221069336,0.344263941049576,-0.802438020706177,0.737165868282318,0.654787838459015,-0.166850909590721,0.46798586845398,-0.672855913639069,-0.572934627532959,,1.5762642621994,0.717576205730438,-4.65021133422852,-0.036401584744454,-0.896851181983948,-0.440831899642944,0.959476172924041,0.091979004442692,-0.266355454921722,0.279428511857986,-0.432663500308991,0.85715925693512,,0.429143667221069,1.81713461875916,4.14534854888916,-0.840750098228455,-0.539644122123718,-0.043856166303158,-0.515166103839874,0.822267115116119,-0.241827666759491,0.166562378406525,-0.180723458528519,-0.969327628612518,,-0.006463927415726,0.028798070887983,0.12527865076,0,0.002732729995309,0.000875434051413,0,,-1.50610281059701,0.157466523305438,0.10739114505,1.39758347332435,-0.388867478332443,2.12456419449052,-0.10764373958249
3.70543912400035,,4.05668640136719,0.661128759384155,1.76327574253082,-0.487417221069336,0.344263941049576,-0.802438020706177,0.737165868282318,0.654787838459015,-0.166850909590721,0.46798586845398,-0.672855913639069,-0.572934627532959,,1.5762642621994,0.717576205730438,-4.65021133422852,-0.036401584744454,-0.896851181983948,-0.440831899642944,0.959476172924041,0.091979004442692,-0.266355454921722,0.279428511857986,-0.432663500308991,0.85715925693512,,0.429143667221069,1.81713461875916,4.14534854888916,-0.840750098228455,-0.539644122123718,-0.043856166303158,-0.515166103839874,0.822267115116119,-0.241827666759491,0.166562378406525,-0.180723458528519,-0.969327628612518,,-0.006463927415726,0.028798070887983,0.12527865076,0,0.002732729995309,0.000875434051413,0,,-1.50610281059701,0.157466523305438,0.10739114505,1.39758347332435,-0.388867478332443,2.12456419449052,-0.10764373958249
3.74142992199995,,4.05670118331909,0.661133348941803,1.76324355602264,-0.487413883209229,0.344258785247803,-0.802442252635956,0.7371666431427,0.654786705970764,-0.1668521463871,0.467988193035126,-0.672859728336334,-0.572928309440613,,1.57628607749939,0.717555582523346,-4.65020656585693,-0.036404088139534,-0.896848917007446,-0.440836310386658,0.959477603435516,0.091975770890713,-0.26635131239891,0.279423117637634,-0.432668805122376,0.857158303260803,,0.429143667221069,1.81713461875916,4.14534854888916,-0.840750098228455,-0.539644122123718,-0.043856166303158,-0.515166103839874,0.822267115116119,-0.241827666759491,0.166562378406525,-0.180723458528519,-0.969327628612518,,-0.006456204682852,0.028798070887983,0.12527865076,0,0.002732729995309,0.000875434051413,0,,-1.50611053332989,0.157466523305438,0.10739114505,1.39758347332435,-0.388867478332443,2.12456419449052,-0.10764373958249
3.78017804499996,,4.05670118331909,0.661133348941803,1.76324355602264,-0.487413883209229,0.344258785247803,-0.802442252635956,0.7371666431427,0.654786705970764,-0.1668521463871,0.467988193035126,-0.672859728336334,-0.572928309440613,,1.57628607749939,0.717555582523346,-4.65020656585693,-0.036404088139534,-0.896848917007446,-0.440836310386658,0.959477603435516,0.091975770890713,-0.26635131239891,0.279423117637634,-0.432668805122376,0.857158303260803,,0.429143667221069,1.81713461875916,4.14534854888916,-0.840750098228455,-0.539644122123718,-0.043856166303158,-0.515166103839874,0.822267115116119,-0.241827666759491,0.166562378406525,-0.180723458528519,-0.969327628612518,,-0.006456204682852,0.028798070887983,0.12527865076,0,0.002732729995309,0.000875434051413,0,,-1.50611053332989,0.157466523305438,0.10739114505,1.39758347332435,-0.388867478332443,2.12456419449052,-0.10764373958249
3.81877399800032,,4.05668640136719,0.661128759384155,1.76327574253082,-0.487417221069336,0.344263941049576,-0.802438020706177,0.737165868282318,0.654787838459015,-0.166850909590721,0.46798586845398,-0.672855913639069,-0.572934627532959,,1.5762642621994,0.717576205730438,-4.65021133422852,-0.036401584744454,-0.896851181983948,-0.440831899642944,0.959476172924041,0.091979004442692,-0.266355454921722,0.279428511857986,-0.432663500308991,0.85715925693512,,0.429143667221069,1.81713461875916,4.14534854888916,-0.840750098228455,-0.539644122123718,-0.043856166303158,-0.515166103839874,0.822267115116119,-0.241827666759491,0.166562378406525,-0.180723458528519,-0.969327628612518,,-0.006463927415726,0.028798070887983,0.12527865076,0,0.002732729995309,0.000875434051413,0,,-1.50610281059701,0.157466523305438,0.10739114505,1.39758347332435,-0.388867478332443,2.12456419449052,-0.10764373958249
3.85645029900024,,4.05668640136719,0.661128759384155,1.76327574253082,-0.487417221069336,0.344263941049576,-0.802438020706177,0.737165868282318,0.654787838459015,-0.166850909590721,0.46798586845398,-0.672855913639069,-0.572934627532959,,1.5762642621994,0.717576205730438,-4.65021133422852,-0.036401584744454,-0.896851181983948,-0.440831899642944,0.959476172924041,0.091979004442692,-0.266355454921722,0.279428511857986,-0.432663500308991,0.85715925693512,,0.429143667221069,1.81713461875916,4.14534854888916,-0.840750098228455,-0.539644122123718,-0.043856166303158,-0.515166103839874,0.822267115116119,-0.241827666759491,0.166562378406525,-0.180723458528519,-0.969327628612518,,-0.006463927415726,0.028798070887983,0.12527865076,0,0.002732729995309,0.000875434051413,0,,-1.50610281059701,0.157466523305438,0.10739114505,1.39758347332435,-0.388867478332443,2.12456419449052,-0.10764373958249
3.89370061900036,,4.05670118331909,0.661133348941803,1.76324355602264,-0.487413883209229,0.344258785247803,-0.802442252635956,0.7371666431427,0.654786705970764,-0.1668521463871,0.467988193035126,-0.672859728336334,-0.572928309440613,,1.5762642621994,0.717576205730438,-4.65021133422852,-0.036401584744454,-0.896851181983948,-0.440831899642944,0.959476172924041,0.091979004442692,-0.266355454921722,0.279428511857986,-0.432663500308991,0.85715925693512,,0.429143667221069,1.81713461875916,4.14534854888916,-0.840750098228455,-0.539644122123718,-0.043856166303158,-0.515166103839874,0.822267115116119,-0.241827666759491,0.166562378406525,-0.180723458528519,-0.969327628612518,,-0.006456204682852,0.028798070887983,0.12527865076,0,0.002732729995309,0.000875434051413,0,,-1.50610281059701,0.157466523305438,0.10739114505,1.39758347332435,-0.388867478332443,2.12456419449052,-0.10764373958249
3.93636390900019,,4.056715965271,0.66113805770874,1.76321125030518,-0.487410575151444,0.344253599643707,-0.802446484565735,0.737167358398438,0.654785454273224,-0.166853398084641,0.467990458011627,-0.6728635430336,-0.572921931743622,,1.57628607749939,0.717555582523346,-4.65020656585693,-0.036404088139534,-0.896848917007446,-0.440836310386658,0.959477603435516,0.091975770890713,-0.26635131239891,0.279423117637634,-0.432668805122376,0.857158303260803,,0.429143667221069,1.81713461875916,4.14534854888916,-0.840750098228455,-0.539644122123718,-0.043856166303158,-0.515166103839874,0.822267115116119,-0.241827666759491,0.166562378406525,-0.180723458528519,-0.969327628612518,,-0.006448481949977,0.028798070887983,0.12527865076,0,0.002732729995309,0.000875434051413,0,,-1.50611053332989,0.157466523305438,0.10739114505,1.39758347332435,-0.388867478332443,2.12456419449052,-0.10764373958249
3.97305075500026,,4.056715965271,0.66113805770874,1.76321125030518,-0.487410575151444,0.344253599643707,-0.802446484565735,0.737167358398438,0.654785454273224,-0.166853398084641,0.467990458011627,-0.6728635430336,-0.572921931743622,,1.5762642621994,0.717576205730438,-4.65021133422852,-0.036401584744454,-0.896851181983948,-0.440831899642944,0.959476172924041,0.091979004442692,-0.266355454921722,0.279428511857986,-0.432663500308991,0.85715925693512,,0.429143667221069,1.81713461875916,4.14534854888916,-0.840750098228455,-0.539644122123718,-0.043856166303158,-0.515166103839874,0.822267115116119,-0.241827666759491,0.166562378406525,-0.180723458528519,-0.969327628612518,,-0.006448481949977,0.028798070887983,0.12527865076,0,0.002732729995309,0.000875434051413,0,,-1.50610281059701,0.157466523305438,0.10739114505,1.39758347332435,-0.388867478332443,2.12456419449052,-0.10764373958249
4.01662745200019,,4.05668640136719,0.661128759384155,1.76327574253082,-0.487417221069336,0.344263941049576,-0.802438020706177,0.737165868282318,0.654787838459015,-0.166850909590721,0.46798586845398,-0.672855913639069,-0.572934627532959,,1.5762642621994,0.717576205730438,-4.65021133422852,-0.036401584744454,-0.896851181983948,-0.440831899642944,0.959476172924041,0.091979004442692,-0.266355454921722,0.279428511857986,-0.432663500308991,0.85715925693512,,0.429143667221069,1.81713461875916,4.14534854888916,-0.840750098228455,-0.539644122123718,-0.043856166303158,-0.515166103839874,0.822267115116119,-0.241827666759491,0.166562378406525,-0.180723458528519,-0.969327628612518,,-0.006463927415726,0.028798070887983,0.12527865076,0,0.002732729995309,0.000875434051413,0,,-1.50610281059701,0.157466523305438,0.10739114505,1.39758347332435,-0.388867478332443,2.12456419449052,-0.10764373958249
4.04633036700034,,4.05668640136719,0.661128759384155,1.76327574253082,-0.487417221069336,0.344263941049576,-0.802438020706177,0.737165868282318,0.654787838459015,-0.166850909590721,0.46798586845398,-0.672855913639069,-0.572934627532959,,1.57628607749939,0.717555582523346,-4.65020656585693,-0.036404088139534,-0.896848917007446,-0.440836310386658,0.959477603435516,0.091975770890713,-0.26635131239891,0.279423117637634,-0.432668805122376,0.857158303260803,,0.429143667221069,1.81713461875916,4.14534854888916,-0.840750098228455,-0.539644122123718,-0.043856166303158,-0.515166103839874,0.822267115116119,-0.241827666759491,0.166562378406525,-0.180723458528519,-0.969327628612518,,-0.006463927415726,0.028798070887983,0.12527865076,0,0.002732729995309,0.000875434051413,0,,-1.50611053332989,0.157466523305438,0.10739114505,1.39758347332435,-0.388867478332443,2.12456419449052,-0.10764373958249
4.09460829299997,,4.05670118331909,0.661133348941803,1.76324355602264,-0.487413883209229,0.344258785247803,-0.802442252635956,0.7371666431427,0.654786705970764,-0.1668521463871,0.467988193035126,-0.672859728336334,-0.572928309440613,,1.5762642621994,0.717576205730438,-4.65021133422852,-0.036401584744454,-0.896851181983948,-0.440831899642944,0.959476172924041,0.091979004442692,-0.266355454921722,0.279428511857986,-0.432663500308991,0.85715925693512,,0.429143667221069,1.81713461875916,4.14534854888916,-0.840750098228455,-0.539644122123718,-0.043856166303158,-0.515166103839874,0.822267115116119,-0.241827666759491,0.166562378406525,-0.180723458528519,-0.969327628612518,,-0.006456204682852,0.028798070887983,0.12527865076,0,0.002732729995309,0.000875434051413,0,,-1.50610281059701,0.157466523305438,0.10739114505,1.39758347332435,-0.388867478332443,2.12456419449052,-0.10764373958249
4.13945582800034,,4.056715965271,0.66113805770874,1.76321125030518,-0.487410575151444,0.344253599643707,-0.802446484565735,0.737167358398438,0.654785454273224,-0.166853398084641,0.467990458011627,-0.6728635430336,-0.572921931743622,,1.5762642621994,0.717576205730438,-4.65021133422852,-0.036401584744454,-0.896851181983948,-0.440831899642944,0.959476172924041,0.091979004442692,-0.266355454921722,0.279428511857986,-0.432663500308991,0.85715925693512,,0.429143667221069,1.81713461875916,4.14534854888916,-0.840750098228455,-0.539644122123718,-0.043856166303158,-0.515166103839874,0.822267115116119,-0.241827666759491,0.166562378406525,-0.180723458528519,-0.969327628612518,,-0.006448481949977,0.028798070887983,0.12527865076,0,0.002732729995309,0.000875434051413,0,,-1.50610281059701,0.157466523305438,0.10739114505,1.39758347332435,-0.388867478332443,2.12456419449052,-0.10764373958249
4.17287724800008,,4.056715965271,0.66113805770874,1.76321125030518,-0.487410575151444,0.344253599643707,-0.802446484565735,0.737167358398438,0.654785454273224,-0.166853398084641,0.467990458011627,-0.6728635430336,-0.572921931743622,,1.5762642621994,0.717576205730438,-4.65021133422852,-0.036401584744454,-0.896851181983948,-0.440831899642944,0.959476172924041,0.091979004442692,-0.266355454921722,0.279428511857986,-0.432663500308991,0.85715925693512,,0.429143667221069,1.81713461875916,4.14534854888916,-0.840750098228455,-0.539644122123718,-0.043856166303158,-0.515166103839874,0.822267115116119,-0.241827666759491,0.166562378406525,-0.180723458528519,-0.969327628612518,,-0.006448481949977,0.028798070887983,0.12527865076,0,0.002732729995309,0.000875434051413,0,,-1.50610281059701,0.157466523305438,0.10739114505,1.39758347332435,-0.388867478332443,2.12456419449052,-0.10764373958249
4.22061247900001,,4.05668640136719,0.661128759384155,1.76327574253082,-0.487417221069336,0.344263941049576,-0.802438020706177,0.737165868282318,0.654787838459015,-0.166850909590721,0.46798586845398,-0.672855913639069,-0.572934627532959,,1.57628607749939,0.717555582523346,-4.65020656585693,-0.036404088139534,-0.896848917007446,-0.440836310386658,0.959477603435516,0.091975770890713,-0.26635131239891,0.279423117637634,-0.432668805122376,0.857158303260803,,0.429143667221069,1.81713461875916,4.14534854888916,-0.840750098228455,-0.539644122123718,-0.043856166303158,-0.515166103839874,0.822267115116119,-0.241827666759491,0.166562378406525,-0.180723458528519,-0.969327628612518,,-0.006463927415726,0.028798070887983,0.12527865076,0,0.002732729995309,0.000875434051413,0,,-1.50611053332989,0.157466523305438,0.10739114505,1.39758347332435,-0.388867478332443,2.12456419449052,-0.10764373958249
4.27040484000008,,4.056715965271,0.66113805770874,1.76321125030518,-0.487410575151444,0.344253599643707,-0.802446484565735,0.737167358398438,0.654785454273224,-0.166853398084641,0.467990458011627,-0.6728635430336,-0.572921931743622,,1.5762642621994,0.717576205730438,-4.65021133422852,-0.036401584744454,-0.896851181983948,-0.440831899642944,0.959476172924041,0.091979004442692,-0.266355454921722,0.279428511857986,-0.432663500308991,0.85715925693512,,0.429143667221069,1.81713461875916,4.14534854888916,-0.840750098228455,-0.539644122123718,-0.043856166303158,-0.515166103839874,0.822267115116119,-0.241827666759491,0.166562378406525,-0.180723458528519,-0.969327628612518,,-0.006448481949977,0.028798070887983,0.12527865076,0,0.002732729995309,0.000875434051413,0,,-1.50610281059701,0.157466523305438,0.10739114505,1.39758347332435,-0.388867478332443,2.12456419449052,-0.10764373958249
4.30428338699994,,4.056715965271,0.66113805770874,1.76321125030518,-0.487410575151444,0.344253599643707,-0.802446484565735,0.737167358398438,0.654785454273224,-0.166853398084641,0.467990458011627,-0.6728635430336,-0.572921931743622,,1.5762642621994,0.717576205730438,-4.65021133422852,-0.036401584744454,-0.896851181983948,-0.440831899642944,0.959476172924041,0.091979004442692,-0.266355454921722,0.279428511857986,-0.432663500308991,0.85715925693512,,0.429143667221069,1.81713461875916,4.14534854888916,-0.840750098228455,-0.539644122123718,-0.043856166303158,-0.515166103839874,0.822267115116119,-0.241827666759491,0.166562378406525,-0.180723458528519,-0.969327628612518,,-0.006448481949977,0.028798070887983,0.12527865076,0,0.002732729995309,0.000875434051413,0,,-1.50610281059701,0.157466523305438,0.10739114505,1.39758347332435,-0.388867478332443,2.12456419449052,-0.10764373958249
4.34339879500021,,4.056715965271,0.66113805770874,1.76321125030518,-0.487410575151444,0.344253599643707,-0.802446484565735,0.737167358398438,0.654785454273224,-0.166853398084641,0.467990458011627,-0.6728635430336,-0.572921931743622,,1.5762642621994,0.717576205730438,-4.65021133422852,-0.036401584744454,-0.896851181983948,-0.440831899642944,0.959476172924041,0.091979004442692,-0.266355454921722,0.279428511857986,-0.432663500308991,0.85715925693512,,0.429143667221069,1.81713461875916,4.14534854888916,-0.840750098228455,-0.539644122123718,-0.043856166303158,-0.515166103839874,0.822267115116119,-0.241827666759491,0.166562378406525,-0.180723458528519,-0.969327628612518,,-0.006448481949977,0.028798070887983,0.12527865076,0,0.002732729995309,0.000875434051413,0,,-1.50610281059701,0.157466523305438,0.10739114505,1.39758347332435,-0.388867478332443,2.12456419449052,-0.10764373958249
4.39088090199994,,4.05668640136719,0.661128759384155,1.76327574253082,-0.487417221069336,0.344263941049576,-0.802438020706177,0.737165868282318,0.654787838459015,-0.166850909590721,0.46798586845398,-0.672855913639069,-0.572934627532959,,1.57628607749939,0.717555582523346,-4.65020656585693,-0.036404088139534,-0.896848917007446,-0.440836310386658,0.959477603435516,0.091975770890713,-0.26635131239891,0.279423117637634,-0.432668805122376,0.857158303260803,,0.429143667221069,1.81713461875916,4.14534854888916,-0.840750098228455,-0.539644122123718,-0.043856166303158,-0.515166103839874,0.822267115116119,-0.241827666759491,0.166562378406525,-0.180723458528519,-0.969327628612518,,-0.006463927415726,0.028798070887983,0.12527865076,0,0.002732729995309,0.000875434051413,0,,-1.50611053332989,0.157466523305438,0.10739114505,1.39758347332435,-0.388867478332443,2.12456419449052,-0.10764373958249
4.41912084500018,,4.05668640136719,0.661128759384155,1.76327574253082,-0.487417221069336,0.344263941049576,-0.802438020706177,0.737165868282318,0.654787838459015,-0.166850909590721,0.46798586845398,-0.672855913639069,-0.572934627532959,,1.5762642621994,0.717576205730438,-4.65021133422852,-0.036401584744454,-0.896851181983948,-0.440831899642944,0.959476172924041,0.091979004442692,-0.266355454921722,0.279428511857986,-0.432663500308991,0.85715925693512,,0.429143667221069,1.81713461875916,4.14534854888916,-0.840750098228455,-0.539644122123718,-0.043856166303158,-0.515166103839874,0.822267115116119,-0.241827666759491,0.166562378406525,-0.180723458528519,-0.969327628612518,,-0.006463927415726,0.028798070887983,0.12527865076,0,0.002732729995309,0.000875434051413,0,,-1.50610281059701,0.157466523305438,0.10739114505,1.39758347332435,-0.388867478332443,2.12456419449052,-0.10764373958249
4.46499724900013,,4.05668640136719,0.661128759384155,1.76327574253082,-0.487417221069336,0.344263941049576,-0.802438020706177,0.737165868282318,0.654787838459015,-0.166850909590721,0.46798586845398,-0.672855913639069,-0.572934627532959,,1.5762642621994,0.717576205730438,-4.65021133422852,-0.036401584744454,-0.896851181983948,-0.440831899642944,0.959476172924041,0.091979004442692,-0.266355454921722,0.279428511857986,-0.432663500308991,0.85715925693512,,0.429143667221069,1.81713461875916,4.14534854888916,-0.840750098228455,-0.539644122123718,-0.043856166303158,-0.515166103839874,0.822267115116119,-0.241827666759491,0.166562378406525,-0.180723458528519,-0.969327628612518,,-0.006463927415726,0.028798070887983,0.12527865076,0,0.002732729995309,0.000875434051413,0,,-1.50610281059701,0.157466523305438,0.10739114505,1.39758347332435,-0.388867478332443,2.12456419449052,-0.10764373958249
4.50371691300006,,4.05668640136719,0.661128759384155,1.76327574253082,-0.487417221069336,0.344263941049576,-0.802438020706177,0.737165868282318,0.654787838459015,-0.166850909590721,0.46798586845398,-0.672855913639069,-0.572934627532959,,1.5762642621994,0.717576205730438,-4.65021133422852,-0.036401584744454,-0.896851181983948,-0.440831899642944,0.959476172924041,0.091979004442692,-0.266355454921722,0.279428511857986,-0.432663500308991,0.85715925693512,,0.429143667221069,1.81713461875916,4.14534854888916,-0.840750098228455,-0.539644122123718,-0.043856166303158,-0.515166103839874,0.822267115116119,-0.241827666759491,0.166562378406525,-0.180723458528519,-0.969327628612518,,-0.006463927415726,0.028798070887983,0.12527865076,0,0.002732729995309,0.000875434051413,0,,-1.50610281059701,0.157466523305438,0.10739114505,1.39758347332435,-0.388867478332443,2.12456419449052,-0.10764373958249
4.54334776700034,,4.05668640136719,0.661128759384155,1.76327574253082,-0.487417221069336,0.344263941049576,-0.802438020706177,0.737165868282318,0.654787838459015,-0.166850909590721,0.46798586845398,-0.672855913639069,-0.572934627532959,,1.57628607749939,0.717555582523346,-4.65020656585693,-0.036404088139534,-0.896848917007446,-0.440836310386658,0.959477603435516,0.091975770890713,-0.26635131239891,0.279423117637634,-0.432668805122376,0.857158303260803,,0.429143667221069,1.81713461875916,4.14534854888916,-0.840750098228455,-0.539644122123718,-0.043856166303158,-0.515166103839874,0.822267115116119,-0.241827666759491,0.166562378406525,-0.180723458528519,-0.969327628612518,,-0.006463927415726,0.028798070887983,0.12527865076,0,0.002732729995309,0.000875434051413,0,,-1.50611053332989,0.157466523305438,0.10739114505,1.39758347332435,-0.388867478332443,2.12456419449052,-0.10764373958249
