AlexandreBanks6/ExpertPlaybackApp/resources/Motions/Motion_6.csv
Time,si_T_psm1,Tx,Ty,Tz,R00,R01,R02,R10,R11,R12,R20,R21,R22,si_T_psm3,Tx,Ty,Tz,R00,R01,R02,R10,R11,R12,R20,R21,R22,si_T_ecm,Tx,Ty,Tz,R00,R01,R02,R10,R11,R12,R20,R21,R22,joint_vars_psm1,q1,q2,q3,q4,q5,q6,jaw,joint_vars_psm3,q1,q2,q3,q4,q5,q6,jaw
si_T_lci
0,-0.0574224516749382,-0.0574224516749382,-0.0574224516749382,0.9941056370735168,-0.10793527960777283,-0.010193276219069958,-0.10838233679533005,-0.9917254447937012,-0.06880301982164383,-0.0026826593093574047,0.06950224190950394,-0.9975782036781311
si_T_rci
0,-0.05744428187608719,-0.05744428187608719,-0.05744428187608719,0.9928275942802429,-0.11819655448198318,-0.017969148233532906,-0.11600217968225479,-0.9887504577636719,0.0944245308637619,-0.02892765961587429,-0.09166282415390015,-0.9953698515892029
lc_T_ecm
0,4.336808689942018e-18,1.1102230246251565e-16,-3.469446951953614e-18,0.9340208768844604,-0.32346540689468384,0.15157562494277954,-0.3336535692214966,-0.9415361881256104,0.046742480248212814,0.12759436666965485,-0.09423220157623291,-0.9873398542404175
rc_T_ecm
0,-8.326672684688674e-17,-1.119764003743029e-15,4.3725873616340394e-16,0.9962640404701233,-0.08602791279554367,-0.00755940331146121,0.08463667333126068,0.9552455544471741,0.28344762325286865,-0.017163321375846863,-0.2830284833908081,0.9589579105377197
0.044808979000663385,,1.329763412475586,-1.046736478805542,-0.3193507790565491,-0.5740217566490173,2.005445957183838,1.3042876720428467,-0.5985455513000488,-2.0149173736572266,-0.4408766031265259,0.5716723203659058,-0.7414190769195557,0.5787968635559082,,1.022966980934143,1.1743887662887573,-0.02799975872039795,0.26794788241386414,2.04644775390625,0.052812859416007996,-0.6312621831893921,1.8468372821807861,1.14215087890625,0.7456977963447571,0.06633955240249634,0.6386770009994507,,0.17122028768062592,1.5516945123672485,0.712388277053833,0.9560366868972778,0.488474041223526,-0.025978468358516693,-0.2788871228694916,2.750253438949585,0.7966024875640869,0.1178969144821167,0.8001276254653931,1.3342410326004028,,-0.8265177631310039,-0.2720487109603068,0.10559837598,-0.6399737075147683,0.09140981834307967,-0.08123623426443202,0.01764115914250216,,-0.8755339486837069,0.35577858078264896,0.15654775814000002,1.5842075230255817,0.04905250341579312,-0.17011326047093092,-0.017804503208636427
0.09011189700686373,,1.329764485359192,-1.046735167503357,-0.31934067606925964,-0.5740254521369934,2.005450963973999,1.304282546043396,-0.5985464453697205,-2.0149152278900146,-0.4408757984638214,0.571667492389679,-0.7414045333862305,0.5788068175315857,,1.022966980934143,1.1743887662887573,-0.02799975872039795,0.26794788241386414,2.04644775390625,0.052812859416007996,-0.6312621831893921,1.8468372821807861,1.14215087890625,0.7456977963447571,0.06633955240249634,0.6386770009994507,,0.17122028768062592,1.5516945123672485,0.712388277053833,0.9560366868972778,0.488474041223526,-0.025978468358516693,-0.2788871228694916,2.750253438949585,0.7966024875640869,0.1178969144821167,0.8001276254653931,1.3342410326004028,,-0.8265254858638782,-0.2720487109603068,0.10559837598,-0.6399737075147683,0.09140981834307967,-0.08123623426443202,0.01764115914250216,,-0.8755339486837069,0.35577858078264896,0.15654775814000002,1.5842075230255817,0.04905250341579312,-0.17011326047093092,-0.017804503208636427
0.14970190700842068,,1.329764485359192,-1.046735167503357,-0.31934067606925964,-0.5740254521369934,2.005450963973999,1.304282546043396,-0.5985464453697205,-2.0149152278900146,-0.4408757984638214,0.571667492389679,-0.7414045333862305,0.5788068175315857,,1.0229772329330444,1.174387812614441,-0.02800983190536499,0.26794788241386414,2.0464627742767334,0.052823591977357864,-0.6312604546546936,1.8468327522277832,1.142155408859253,0.7456992268562317,0.06632214784622192,0.6386715173721313,,0.17122028768062592,1.5516945123672485,0.712388277053833,0.9560366868972778,0.488474041223526,-0.025978468358516693,-0.2788871228694916,2.750253438949585,0.7966024875640869,0.1178969144821167,0.8001276254653931,1.3342410326004028,,-0.8265254858638782,-0.2720487109603068,0.10559837598,-0.6399737075147683,0.09140981834307967,-0.08123623426443202,0.01764115914250216,,-0.8755339486837069,0.35578630351552315,0.15654775814000002,1.5842075230255817,0.04905250341579312,-0.17011326047093092,-0.017804503208636427
0.19838760400307365,,1.329764485359192,-1.046735167503357,-0.31934067606925964,-0.5740254521369934,2.005450963973999,1.304282546043396,-0.5985464453697205,-2.0149152278900146,-0.4408757984638214,0.571667492389679,-0.7414045333862305,0.5788068175315857,,1.022966980934143,1.1743887662887573,-0.02799975872039795,0.26794788241386414,2.04644775390625,0.052812859416007996,-0.6312621831893921,1.8468372821807861,1.14215087890625,0.7456977963447571,0.06633955240249634,0.6386770009994507,,0.17122028768062592,1.5516945123672485,0.712388277053833,0.9560366868972778,0.488474041223526,-0.025978468358516693,-0.2788871228694916,2.750253438949585,0.7966024875640869,0.1178969144821167,0.8001276254653931,1.3342410326004028,,-0.8265254858638782,-0.2720487109603068,0.10559837598,-0.6399737075147683,0.09140981834307967,-0.08123623426443202,0.01764115914250216,,-0.8755339486837069,0.35577858078264896,0.15654775814000002,1.5842075230255817,0.04905250341579312,-0.17011326047093092,-0.017804503208636427
0.2603373510064557,,1.329764485359192,-1.046735167503357,-0.31934067606925964,-0.5740254521369934,2.005450963973999,1.304282546043396,-0.5985464453697205,-2.0149152278900146,-0.4408757984638214,0.571667492389679,-0.7414045333862305,0.5788068175315857,,1.022966980934143,1.1743887662887573,-0.02799975872039795,0.26794788241386414,2.04644775390625,0.052812859416007996,-0.6312621831893921,1.8468372821807861,1.14215087890625,0.7456977963447571,0.06633955240249634,0.6386770009994507,,0.17122028768062592,1.5516945123672485,0.712388277053833,0.9560366868972778,0.488474041223526,-0.025978468358516693,-0.2788871228694916,2.750253438949585,0.7966024875640869,0.1178969144821167,0.8001276254653931,1.3342410326004028,,-0.8265254858638782,-0.2720487109603068,0.10559837598,-0.6399737075147683,0.09140981834307967,-0.08123623426443202,0.01764115914250216,,-0.8755339486837069,0.35577858078264896,0.15654775814000002,1.5842075230255817,0.04905250341579312,-0.17011326047093092,-0.017804503208636427
0.31325187801849097,,1.3299015760421753,-1.046630859375,-0.31938427686691284,-0.5739955902099609,2.00569486618042,1.3043174743652344,-0.5986276865005493,-2.0147345066070557,-0.44081026315689087,0.5716137886047363,-0.741484522819519,0.5788124799728394,,1.0229814052581787,1.1744040250778198,-0.028047919273376465,0.267956405878067,2.046482801437378,0.052860889583826065,-0.6312763690948486,1.8468294143676758,1.1421704292297363,0.7456849217414856,0.06625407934188843,0.6386726498603821,,0.1711842119693756,1.5517005920410156,0.7123813033103943,0.9560447335243225,0.48840415477752686,-0.02599688619375229,-0.27885860204696655,2.7502694129943848,0.7966022491455078,0.1178971529006958,0.8001192808151245,1.3342375755310059,,-0.8265254858638782,-0.2720487109603068,0.10559837598,-0.6399737075147683,0.09140981834307967,-0.08123623426443202,0.01764115914250216,,-0.8755339486837069,0.35578630351552315,0.15654775814000002,1.5842075230255817,0.04905250341579312,-0.17011326047093092,-0.017804503208636427
0.36324668300221674,,1.3299015760421753,-1.046630859375,-0.31938427686691284,-0.5739955902099609,2.00569486618042,1.3043174743652344,-0.5986276865005493,-2.0147345066070557,-0.44081026315689087,0.5716137886047363,-0.741484522819519,0.5788124799728394,,1.0229710340499878,1.1744047403335571,-0.02803802490234375,0.26795631647109985,2.0464677810668945,0.05285021662712097,-0.6312781572341919,1.8468339443206787,1.1421657800674438,0.7456834316253662,0.06627136468887329,0.6386779546737671,,0.1711842119693756,1.5517005920410156,0.7123813033103943,0.9560447335243225,0.48840415477752686,-0.02599688619375229,-0.27885860204696655,2.7502694129943848,0.7966022491455078,0.1178971529006958,0.8001192808151245,1.3342375755310059,,-0.8265254858638782,-0.2720487109603068,0.10559837598,-0.6399737075147683,0.09140981834307967,-0.08123623426443202,0.01764115914250216,,-0.8755339486837069,0.35577858078264896,0.15654775814000002,1.5842075230255817,0.04905250341579312,-0.17011326047093092,-0.017804503208636427
0.3995191210124176,,1.3299015760421753,-1.046630859375,-0.31938427686691284,-0.5739955902099609,2.00569486618042,1.3043174743652344,-0.5986276865005493,-2.0147345066070557,-0.44081026315689087,0.5716137886047363,-0.741484522819519,0.5788124799728394,,1.0229710340499878,1.1744047403335571,-0.02803802490234375,0.26795631647109985,2.0464677810668945,0.05285021662712097,-0.6312781572341919,1.8468339443206787,1.1421657800674438,0.7456834316253662,0.06627136468887329,0.6386779546737671,,0.1711842119693756,1.5517005920410156,0.7123813033103943,0.9560447335243225,0.48840415477752686,-0.02599688619375229,-0.27885860204696655,2.7502694129943848,0.7966022491455078,0.1178971529006958,0.8001192808151245,1.3342375755310059,,-0.8265254858638782,-0.2720487109603068,0.10559837598,-0.6399737075147683,0.09140981834307967,-0.08123623426443202,0.01764115914250216,,-0.8755339486837069,0.35577858078264896,0.15654775814000002,1.5842075230255817,0.04905250341579312,-0.17011326047093092,-0.017804503208636427
0.44979479801259004,,1.3299015760421753,-1.046630859375,-0.31938427686691284,-0.5739955902099609,2.00569486618042,1.3043174743652344,-0.5986276865005493,-2.0147345066070557,-0.44081026315689087,0.5716137886047363,-0.741484522819519,0.5788124799728394,,1.0229710340499878,1.1744047403335571,-0.02803802490234375,0.26795631647109985,2.0464677810668945,0.05285021662712097,-0.6312781572341919,1.8468339443206787,1.1421657800674438,0.7456834316253662,0.06627136468887329,0.6386779546737671,,0.1711842119693756,1.5517005920410156,0.7123813033103943,0.9560447335243225,0.48840415477752686,-0.02599688619375229,-0.27885860204696655,2.7502694129943848,0.7966022491455078,0.1178971529006958,0.8001192808151245,1.3342375755310059,,-0.8265254858638782,-0.2720487109603068,0.10559837598,-0.6399737075147683,0.09140981834307967,-0.08123623426443202,0.01764115914250216,,-0.8755339486837069,0.35577858078264896,0.15654775814000002,1.5842075230255817,0.04905250341579312,-0.17011326047093092,-0.017804503208636427
0.4946370300021954,,1.3299015760421753,-1.046630859375,-0.31938427686691284,-0.5739955902099609,2.00569486618042,1.3043174743652344,-0.5986276865005493,-2.0147345066070557,-0.44081026315689087,0.5716137886047363,-0.741484522819519,0.5788124799728394,,1.0229710340499878,1.1744047403335571,-0.02803802490234375,0.26795631647109985,2.0464677810668945,0.05285021662712097,-0.6312781572341919,1.8468339443206787,1.1421657800674438,0.7456834316253662,0.06627136468887329,0.6386779546737671,,0.1711842119693756,1.5517005920410156,0.7123813033103943,0.9560447335243225,0.48840415477752686,-0.02599688619375229,-0.27885860204696655,2.7502694129943848,0.7966022491455078,0.1178971529006958,0.8001192808151245,1.3342375755310059,,-0.8265254858638782,-0.2720487109603068,0.10559837598,-0.6399737075147683,0.09140981834307967,-0.08123623426443202,0.01764115914250216,,-0.8755339486837069,0.35577858078264896,0.15654775814000002,1.5842075230255817,0.04905250341579312,-0.17011326047093092,-0.017804503208636427
0.5279977289901581,,1.3299015760421753,-1.046630859375,-0.31938427686691284,-0.5739955902099609,2.00569486618042,1.3043174743652344,-0.5986276865005493,-2.0147345066070557,-0.44081026315689087,0.5716137886047363,-0.741484522819519,0.5788124799728394,,1.0229710340499878,1.1744047403335571,-0.02803802490234375,0.26795631647109985,2.0464677810668945,0.05285021662712097,-0.6312781572341919,1.8468339443206787,1.1421657800674438,0.7456834316253662,0.06627136468887329,0.6386779546737671,,0.1711842119693756,1.5517005920410156,0.7123813033103943,0.9560447335243225,0.48840415477752686,-0.02599688619375229,-0.27885860204696655,2.7502694129943848,0.7966022491455078,0.1178971529006958,0.8001192808151245,1.3342375755310059,,-0.8265254858638782,-0.2720487109603068,0.10559837598,-0.6399737075147683,0.09140981834307967,-0.08123623426443202,0.01764115914250216,,-0.8755339486837069,0.35577858078264896,0.15654775814000002,1.5842075230255817,0.04905250341579312,-0.17011326047093092,-0.017804503208636427
0.5823137499974109,,1.3299015760421753,-1.046630859375,-0.31938427686691284,-0.5739955902099609,2.00569486618042,1.3043174743652344,-0.5986276865005493,-2.0147345066070557,-0.44081026315689087,0.5716137886047363,-0.741484522819519,0.5788124799728394,,1.0229710340499878,1.1744047403335571,-0.02803802490234375,0.26795631647109985,2.0464677810668945,0.05285021662712097,-0.6312781572341919,1.8468339443206787,1.1421657800674438,0.7456834316253662,0.06627136468887329,0.6386779546737671,,0.1711842119693756,1.5517005920410156,0.7123813033103943,0.9560447335243225,0.48840415477752686,-0.02599688619375229,-0.27885860204696655,2.7502694129943848,0.7966022491455078,0.1178971529006958,0.8001192808151245,1.3342375755310059,,-0.8265254858638782,-0.2720487109603068,0.10559837598,-0.6399737075147683,0.09140981834307967,-0.08123623426443202,0.01764115914250216,,-0.8755339486837069,0.35577858078264896,0.15654775814000002,1.5842075230255817,0.04905250341579312,-0.17011326047093092,-0.017804503208636427
0.6255485510046128,,1.3299015760421753,-1.046630859375,-0.31938427686691284,-0.5739955902099609,2.00569486618042,1.3043174743652344,-0.5986276865005493,-2.0147345066070557,-0.44081026315689087,0.5716137886047363,-0.741484522819519,0.5788124799728394,,1.0229710340499878,1.1744047403335571,-0.02803802490234375,0.26795631647109985,2.0464677810668945,0.05285021662712097,-0.6312781572341919,1.8468339443206787,1.1421657800674438,0.7456834316253662,0.06627136468887329,0.6386779546737671,,0.1711842119693756,1.5517005920410156,0.7123813033103943,0.9560447335243225,0.48840415477752686,-0.02599688619375229,-0.27885860204696655,2.7502694129943848,0.7966022491455078,0.1178971529006958,0.8001192808151245,1.3342375755310059,,-0.8265254858638782,-0.2720487109603068,0.10559837598,-0.6399737075147683,0.09140981834307967,-0.08123623426443202,0.01764115914250216,,-0.8755339486837069,0.35577858078264896,0.15654775814000002,1.5842075230255817,0.04905250341579312,-0.17011326047093092,-0.017804503208636427
0.6612365439941641,,1.3299015760421753,-1.046630859375,-0.31938427686691284,-0.5739955902099609,2.00569486618042,1.3043174743652344,-0.5986276865005493,-2.0147345066070557,-0.44081026315689087,0.5716137886047363,-0.741484522819519,0.5788124799728394,,1.0229710340499878,1.1744047403335571,-0.02803802490234375,0.26795631647109985,2.0464677810668945,0.05285021662712097,-0.6312781572341919,1.8468339443206787,1.1421657800674438,0.7456834316253662,0.06627136468887329,0.6386779546737671,,0.1711842119693756,1.5517005920410156,0.7123813033103943,0.9560447335243225,0.48840415477752686,-0.02599688619375229,-0.27885860204696655,2.7502694129943848,0.7966022491455078,0.1178971529006958,0.8001192808151245,1.3342375755310059,,-0.8265254858638782,-0.2720487109603068,0.10559837598,-0.6399737075147683,0.09140981834307967,-0.08123623426443202,0.01764115914250216,,-0.8755339486837069,0.35577858078264896,0.15654775814000002,1.5842075230255817,0.04905250341579312,-0.17011326047093092,-0.017804503208636427
0.7154814200184774,,1.3299015760421753,-1.046630859375,-0.31938427686691284,-0.5739955902099609,2.00569486618042,1.3043174743652344,-0.5986276865005493,-2.0147345066070557,-0.44081026315689087,0.5716137886047363,-0.741484522819519,0.5788124799728394,,1.0229710340499878,1.1744047403335571,-0.02803802490234375,0.26795631647109985,2.0464677810668945,0.05285021662712097,-0.6312781572341919,1.8468339443206787,1.1421657800674438,0.7456834316253662,0.06627136468887329,0.6386779546737671,,0.1711842119693756,1.5517005920410156,0.7123813033103943,0.9560447335243225,0.48840415477752686,-0.02599688619375229,-0.27885860204696655,2.7502694129943848,0.7966022491455078,0.1178971529006958,0.8001192808151245,1.3342375755310059,,-0.8265254858638782,-0.2720487109603068,0.10559837598,-0.6399737075147683,0.09140981834307967,-0.08123623426443202,0.01764115914250216,,-0.8755339486837069,0.35577858078264896,0.15654775814000002,1.5842075230255817,0.04905250341579312,-0.17011326047093092,-0.017804503208636427
0.7886714530177414,,1.3299015760421753,-1.046630859375,-0.31938427686691284,-0.5739955902099609,2.00569486618042,1.3043174743652344,-0.5986276865005493,-2.0147345066070557,-0.44081026315689087,0.5716137886047363,-0.741484522819519,0.5788124799728394,,1.0229710340499878,1.1744047403335571,-0.02803802490234375,0.26795631647109985,2.0464677810668945,0.05285021662712097,-0.6312781572341919,1.8468339443206787,1.1421657800674438,0.7456834316253662,0.06627136468887329,0.6386779546737671,,0.1711842119693756,1.5517005920410156,0.7123813033103943,0.9560447335243225,0.48840415477752686,-0.02599688619375229,-0.27885860204696655,2.7502694129943848,0.7966022491455078,0.1178971529006958,0.8001192808151245,1.3342375755310059,,-0.8265254858638782,-0.2720487109603068,0.10559837598,-0.6399737075147683,0.09140981834307967,-0.08123623426443202,0.01764115914250216,,-0.8755339486837069,0.35577858078264896,0.15654775814000002,1.5842075230255817,0.04905250341579312,-0.17011326047093092,-0.017804503208636427
0.8393053240142763,,1.3299015760421753,-1.046630859375,-0.31938427686691284,-0.5739955902099609,2.00569486618042,1.3043174743652344,-0.5986276865005493,-2.0147345066070557,-0.44081026315689087,0.5716137886047363,-0.741484522819519,0.5788124799728394,,1.0229710340499878,1.1744047403335571,-0.02803802490234375,0.26795631647109985,2.0464677810668945,0.05285021662712097,-0.6312781572341919,1.8468339443206787,1.1421657800674438,0.7456834316253662,0.06627136468887329,0.6386779546737671,,0.1711842119693756,1.5517005920410156,0.7123813033103943,0.9560447335243225,0.48840415477752686,-0.02599688619375229,-0.27885860204696655,2.7502694129943848,0.7966022491455078,0.1178971529006958,0.8001192808151245,1.3342375755310059,,-0.8265254858638782,-0.2720487109603068,0.10559837598,-0.6399737075147683,0.09140981834307967,-0.08123623426443202,0.01764115914250216,,-0.8755339486837069,0.35577858078264896,0.15654775814000002,1.5842075230255817,0.04905250341579312,-0.17011326047093092,-0.017804503208636427
0.900278190994868,,1.3299015760421753,-1.046630859375,-0.31938427686691284,-0.5739955902099609,2.00569486618042,1.3043174743652344,-0.5986276865005493,-2.0147345066070557,-0.44081026315689087,0.5716137886047363,-0.741484522819519,0.5788124799728394,,1.0229710340499878,1.1744047403335571,-0.02803802490234375,0.26795631647109985,2.0464677810668945,0.05285021662712097,-0.6312781572341919,1.8468339443206787,1.1421657800674438,0.7456834316253662,0.06627136468887329,0.6386779546737671,,0.1711842119693756,1.5517005920410156,0.7123813033103943,0.9560447335243225,0.48840415477752686,-0.02599688619375229,-0.27885860204696655,2.7502694129943848,0.7966022491455078,0.1178971529006958,0.8001192808151245,1.3342375755310059,,-0.8265254858638782,-0.2720487109603068,0.10559837598,-0.6399737075147683,0.09140981834307967,-0.08123623426443202,0.01764115914250216,,-0.8755339486837069,0.35577858078264896,0.15654775814000002,1.5842075230255817,0.04905250341579312,-0.17011326047093092,-0.017804503208636427
0.9461307089950424,,1.3299015760421753,-1.046630859375,-0.31938427686691284,-0.5739955902099609,2.00569486618042,1.3043174743652344,-0.5986276865005493,-2.0147345066070557,-0.44081026315689087,0.5716137886047363,-0.741484522819519,0.5788124799728394,,1.0229814052581787,1.1744040250778198,-0.028047919273376465,0.267956405878067,2.046482801437378,0.052860889583826065,-0.6312763690948486,1.8468294143676758,1.1421704292297363,0.7456849217414856,0.06625407934188843,0.6386726498603821,,0.1711842119693756,1.5517005920410156,0.7123813033103943,0.9560447335243225,0.48840415477752686,-0.02599688619375229,-0.27885860204696655,2.7502694129943848,0.7966022491455078,0.1178971529006958,0.8001192808151245,1.3342375755310059,,-0.8265254858638782,-0.2720487109603068,0.10559837598,-0.6399737075147683,0.09140981834307967,-0.08123623426443202,0.01764115914250216,,-0.8755339486837069,0.35578630351552315,0.15654775814000002,1.5842075230255817,0.04905250341579312,-0.17011326047093092,-0.017804503208636427
1.0145066349941771,,1.3299007415771484,-1.046632170677185,-0.31939440965652466,-0.5739919543266296,2.005690336227417,1.3043228387832642,-0.5986267328262329,-2.0147366523742676,-0.44081106781959534,0.5716185569763184,-0.7414993047714233,0.5788025856018066,,1.0229710340499878,1.1744047403335571,-0.02803802490234375,0.26795631647109985,2.0464677810668945,0.05285021662712097,-0.6312781572341919,1.8468339443206787,1.1421657800674438,0.7456834316253662,0.06627136468887329,0.6386779546737671,,0.1711842119693756,1.5517005920410156,0.7123813033103943,0.9560447335243225,0.48840415477752686,-0.02599688619375229,-0.27885860204696655,2.7502694129943848,0.7966022491455078,0.1178971529006958,0.8001192808151245,1.3342375755310059,,-0.8265177631310039,-0.2720487109603068,0.10559837598,-0.6399737075147683,0.09140981834307967,-0.08123623426443202,0.01764115914250216,,-0.8755339486837069,0.35577858078264896,0.15654775814000002,1.5842075230255817,0.04905250341579312,-0.17011326047093092,-0.017804503208636427
1.0548854669905268,,1.3299015760421753,-1.046630859375,-0.31938427686691284,-0.5739955902099609,2.00569486618042,1.3043174743652344,-0.5986276865005493,-2.0147345066070557,-0.44081026315689087,0.5716137886047363,-0.741484522819519,0.5788124799728394,,1.0229710340499878,1.1744047403335571,-0.02803802490234375,0.26795631647109985,2.0464677810668945,0.05285021662712097,-0.6312781572341919,1.8468339443206787,1.1421657800674438,0.7456834316253662,0.06627136468887329,0.6386779546737671,,0.1711842119693756,1.5517005920410156,0.7123813033103943,0.9560447335243225,0.48840415477752686,-0.02599688619375229,-0.27885860204696655,2.7502694129943848,0.7966022491455078,0.1178971529006958,0.8001192808151245,1.3342375755310059,,-0.8265254858638782,-0.2720487109603068,0.10559837598,-0.6399737075147683,0.09140981834307967,-0.08123623426443202,0.01764115914250216,,-0.8755339486837069,0.35577858078264896,0.15654775814000002,1.5842075230255817,0.04905250341579312,-0.17011326047093092,-0.017804503208636427
1.1003904140088707,,1.3299015760421753,-1.046630859375,-0.31938427686691284,-0.5739955902099609,2.00569486618042,1.3043174743652344,-0.5986276865005493,-2.0147345066070557,-0.44081026315689087,0.5716137886047363,-0.741484522819519,0.5788124799728394,,1.0229710340499878,1.1744047403335571,-0.02803802490234375,0.26795631647109985,2.0464677810668945,0.05285021662712097,-0.6312781572341919,1.8468339443206787,1.1421657800674438,0.7456834316253662,0.06627136468887329,0.6386779546737671,,0.1711842119693756,1.5517005920410156,0.7123813033103943,0.9560447335243225,0.48840415477752686,-0.02599688619375229,-0.27885860204696655,2.7502694129943848,0.7966022491455078,0.1178971529006958,0.8001192808151245,1.3342375755310059,,-0.8265254858638782,-0.2720487109603068,0.10559837598,-0.6399737075147683,0.09140981834307967,-0.08123623426443202,0.01764115914250216,,-0.8755339486837069,0.35577858078264896,0.15654775814000002,1.5842075230255817,0.04905250341579312,-0.17011326047093092,-0.017804503208636427
1.1464114309928846,,1.3299015760421753,-1.046630859375,-0.31938427686691284,-0.5739955902099609,2.00569486618042,1.3043174743652344,-0.5986276865005493,-2.0147345066070557,-0.44081026315689087,0.5716137886047363,-0.741484522819519,0.5788124799728394,,1.0229710340499878,1.1744047403335571,-0.02803802490234375,0.26795631647109985,2.0464677810668945,0.05285021662712097,-0.6312781572341919,1.8468339443206787,1.1421657800674438,0.7456834316253662,0.06627136468887329,0.6386779546737671,,0.1711842119693756,1.5517005920410156,0.7123813033103943,0.9560447335243225,0.48840415477752686,-0.02599688619375229,-0.27885860204696655,2.7502694129943848,0.7966022491455078,0.1178971529006958,0.8001192808151245,1.3342375755310059,,-0.8265254858638782,-0.2720487109603068,0.10559837598,-0.6399737075147683,0.09140981834307967,-0.08123623426443202,0.01764115914250216,,-0.8755339486837069,0.35577858078264896,0.15654775814000002,1.5842075230255817,0.04905250341579312,-0.17011326047093092,-0.017804503208636427
1.2111282639962155,,1.3299015760421753,-1.046630859375,-0.31938427686691284,-0.5739955902099609,2.00569486618042,1.3043174743652344,-0.5986276865005493,-2.0147345066070557,-0.44081026315689087,0.5716137886047363,-0.741484522819519,0.5788124799728394,,1.0229710340499878,1.1744047403335571,-0.02803802490234375,0.26795631647109985,2.0464677810668945,0.05285021662712097,-0.6312781572341919,1.8468339443206787,1.1421657800674438,0.7456834316253662,0.06627136468887329,0.6386779546737671,,0.1711842119693756,1.5517005920410156,0.7123813033103943,0.9560447335243225,0.48840415477752686,-0.02599688619375229,-0.27885860204696655,2.7502694129943848,0.7966022491455078,0.1178971529006958,0.8001192808151245,1.3342375755310059,,-0.8265254858638782,-0.2720487109603068,0.10559837598,-0.6399737075147683,0.09140981834307967,-0.08123623426443202,0.01764115914250216,,-0.8755339486837069,0.35577858078264896,0.15654775814000002,1.5842075230255817,0.04905250341579312,-0.17011326047093092,-0.017804503208636427
1.248424988007173,,1.3299015760421753,-1.046630859375,-0.31938427686691284,-0.5739955902099609,2.00569486618042,1.3043174743652344,-0.5986276865005493,-2.0147345066070557,-0.44081026315689087,0.5716137886047363,-0.741484522819519,0.5788124799728394,,1.0229710340499878,1.1744047403335571,-0.02803802490234375,0.26795631647109985,2.0464677810668945,0.05285021662712097,-0.6312781572341919,1.8468339443206787,1.1421657800674438,0.7456834316253662,0.06627136468887329,0.6386779546737671,,0.1711842119693756,1.5517005920410156,0.7123813033103943,0.9560447335243225,0.48840415477752686,-0.02599688619375229,-0.27885860204696655,2.7502694129943848,0.7966022491455078,0.1178971529006958,0.8001192808151245,1.3342375755310059,,-0.8265254858638782,-0.2720487109603068,0.10559837598,-0.6399737075147683,0.09140981834307967,-0.08123623426443202,0.01764115914250216,,-0.8755339486837069,0.35577858078264896,0.15654775814000002,1.5842075230255817,0.04905250341579312,-0.17011326047093092,-0.017804503208636427
1.2932948840025347,,1.3299015760421753,-1.046630859375,-0.31938427686691284,-0.5739955902099609,2.00569486618042,1.3043174743652344,-0.5986276865005493,-2.0147345066070557,-0.44081026315689087,0.5716137886047363,-0.741484522819519,0.5788124799728394,,1.0229710340499878,1.1744047403335571,-0.02803802490234375,0.26795631647109985,2.0464677810668945,0.05285021662712097,-0.6312781572341919,1.8468339443206787,1.1421657800674438,0.7456834316253662,0.06627136468887329,0.6386779546737671,,0.1711842119693756,1.5517005920410156,0.7123813033103943,0.9560447335243225,0.48840415477752686,-0.02599688619375229,-0.27885860204696655,2.7502694129943848,0.7966022491455078,0.1178971529006958,0.8001192808151245,1.3342375755310059,,-0.8265254858638782,-0.2720487109603068,0.10559837598,-0.6399737075147683,0.09140981834307967,-0.08123623426443202,0.01764115914250216,,-0.8755339486837069,0.35577858078264896,0.15654775814000002,1.5842075230255817,0.04905250341579312,-0.17011326047093092,-0.017804503208636427
1.3458134270040318,,1.3299015760421753,-1.046630859375,-0.31938427686691284,-0.5739955902099609,2.00569486618042,1.3043174743652344,-0.5986276865005493,-2.0147345066070557,-0.44081026315689087,0.5716137886047363,-0.741484522819519,0.5788124799728394,,1.0229710340499878,1.1744047403335571,-0.02803802490234375,0.26795631647109985,2.0464677810668945,0.05285021662712097,-0.6312781572341919,1.8468339443206787,1.1421657800674438,0.7456834316253662,0.06627136468887329,0.6386779546737671,,0.1711842119693756,1.5517005920410156,0.7123813033103943,0.9560447335243225,0.48840415477752686,-0.02599688619375229,-0.27885860204696655,2.7502694129943848,0.7966022491455078,0.1178971529006958,0.8001192808151245,1.3342375755310059,,-0.8265254858638782,-0.2720487109603068,0.10559837598,-0.6399737075147683,0.09140981834307967,-0.08123623426443202,0.01764115914250216,,-0.8755339486837069,0.35577858078264896,0.15654775814000002,1.5842075230255817,0.04905250341579312,-0.17011326047093092,-0.017804503208636427
1.3863526619970798,,1.3299015760421753,-1.046630859375,-0.31938427686691284,-0.5739955902099609,2.00569486618042,1.3043174743652344,-0.5986276865005493,-2.0147345066070557,-0.44081026315689087,0.5716137886047363,-0.741484522819519,0.5788124799728394,,1.0229710340499878,1.1744047403335571,-0.02803802490234375,0.26795631647109985,2.0464677810668945,0.05285021662712097,-0.6312781572341919,1.8468339443206787,1.1421657800674438,0.7456834316253662,0.06627136468887329,0.6386779546737671,,0.1711842119693756,1.5517005920410156,0.7123813033103943,0.9560447335243225,0.48840415477752686,-0.02599688619375229,-0.27885860204696655,2.7502694129943848,0.7966022491455078,0.1178971529006958,0.8001192808151245,1.3342375755310059,,-0.8265254858638782,-0.2720487109603068,0.10559837598,-0.6399737075147683,0.09140981834307967,-0.08123623426443202,0.01764115914250216,,-0.8755339486837069,0.35577858078264896,0.15654775814000002,1.5842075230255817,0.04905250341579312,-0.17011326047093092,-0.017804503208636427
1.463018878013827,,1.3298231363296509,-1.046666145324707,-0.31921595335006714,-0.5740108489990234,2.005584478378296,1.3042750358581543,-0.5985680222511292,-2.0148160457611084,-0.440782368183136,0.5716572403907776,-0.7412189245223999,0.5788947343826294,,1.0229828357696533,1.1744158267974854,-0.02803105115890503,0.2679821848869324,2.0464727878570557,0.05285293608903885,-0.6312662363052368,1.846868872642517,1.1421630382537842,0.7456821203231812,0.06626468896865845,0.6386855840682983,,0.17118661105632782,1.5517048835754395,0.7123886942863464,0.9560472965240479,0.48839646577835083,-0.025995463132858276,-0.27884721755981445,2.7502784729003906,0.7966031432151794,0.1178969070315361,0.800128161907196,1.334241271018982,,-0.8265254858638782,-0.2720487109603068,0.10559837598,-0.6399737075147683,0.09140981834307967,-0.08123623426443202,0.01764115914250216,,-0.8755339486837069,0.35577858078264896,0.15654775814000002,1.5842075230255817,0.04905250341579312,-0.17011326047093092,-0.017804503208636427
1.4959667270013597,,1.3298231363296509,-1.046666145324707,-0.31921595335006714,-0.5740108489990234,2.005584478378296,1.3042750358581543,-0.5985680222511292,-2.0148160457611084,-0.440782368183136,0.5716572403907776,-0.7412189245223999,0.5788947343826294,,1.0229828357696533,1.1744158267974854,-0.02803105115890503,0.2679821848869324,2.0464727878570557,0.05285293608903885,-0.6312662363052368,1.846868872642517,1.1421630382537842,0.7456821203231812,0.06626468896865845,0.6386855840682983,,0.17118661105632782,1.5517048835754395,0.7123886942863464,0.9560472965240479,0.48839646577835083,-0.025995463132858276,-0.27884721755981445,2.7502784729003906,0.7966031432151794,0.1178969070315361,0.800128161907196,1.334241271018982,,-0.8265254858638782,-0.2720487109603068,0.10559837598,-0.6399737075147683,0.09140981834307967,-0.08123623426443202,0.01764115914250216,,-0.8755339486837069,0.35577858078264896,0.15654775814000002,1.5842075230255817,0.04905250341579312,-0.17011326047093092,-0.017804503208636427
1.5343250620062463,,1.3298231363296509,-1.046666145324707,-0.31921595335006714,-0.5740108489990234,2.005584478378296,1.3042750358581543,-0.5985680222511292,-2.0148160457611084,-0.440782368183136,0.5716572403907776,-0.7412189245223999,0.5788947343826294,,1.0229828357696533,1.1744158267974854,-0.02803105115890503,0.2679821848869324,2.0464727878570557,0.05285293608903885,-0.6312662363052368,1.846868872642517,1.1421630382537842,0.7456821203231812,0.06626468896865845,0.6386855840682983,,0.17118661105632782,1.5517048835754395,0.7123886942863464,0.9560472965240479,0.48839646577835083,-0.025995463132858276,-0.27884721755981445,2.7502784729003906,0.7966031432151794,0.1178969070315361,0.800128161907196,1.334241271018982,,-0.8265254858638782,-0.2720487109603068,0.10559837598,-0.6399737075147683,0.09140981834307967,-0.08123623426443202,0.01764115914250216,,-0.8755339486837069,0.35577858078264896,0.15654775814000002,1.5842075230255817,0.04905250341579312,-0.17011326047093092,-0.017804503208636427
1.5967730669945013,,1.3298231363296509,-1.046666145324707,-0.31921595335006714,-0.5740108489990234,2.005584478378296,1.3042750358581543,-0.5985680222511292,-2.0148160457611084,-0.440782368183136,0.5716572403907776,-0.7412189245223999,0.5788947343826294,,1.0229828357696533,1.1744158267974854,-0.02803105115890503,0.2679821848869324,2.0464727878570557,0.05285293608903885,-0.6312662363052368,1.846868872642517,1.1421630382537842,0.7456821203231812,0.06626468896865845,0.6386855840682983,,0.17118661105632782,1.5517048835754395,0.7123886942863464,0.9560472965240479,0.48839646577835083,-0.025995463132858276,-0.27884721755981445,2.7502784729003906,0.7966031432151794,0.1178969070315361,0.800128161907196,1.334241271018982,,-0.8265254858638782,-0.2720487109603068,0.10559837598,-0.6399737075147683,0.09140981834307967,-0.08123623426443202,0.01764115914250216,,-0.8755339486837069,0.35577858078264896,0.15654775814000002,1.5842075230255817,0.04905250341579312,-0.17011326047093092,-0.017804503208636427
1.6302862820157316,,1.3298231363296509,-1.046666145324707,-0.31921595335006714,-0.5740108489990234,2.005584478378296,1.3042750358581543,-0.5985680222511292,-2.0148160457611084,-0.440782368183136,0.5716572403907776,-0.7412189245223999,0.5788947343826294,,1.0229828357696533,1.1744158267974854,-0.02803105115890503,0.2679821848869324,2.0464727878570557,0.05285293608903885,-0.6312662363052368,1.846868872642517,1.1421630382537842,0.7456821203231812,0.06626468896865845,0.6386855840682983,,0.17118661105632782,1.5517048835754395,0.7123886942863464,0.9560472965240479,0.48839646577835083,-0.025995463132858276,-0.27884721755981445,2.7502784729003906,0.7966031432151794,0.1178969070315361,0.800128161907196,1.334241271018982,,-0.8265254858638782,-0.2720487109603068,0.10559837598,-0.6399737075147683,0.09140981834307967,-0.08123623426443202,0.01764115914250216,,-0.8755339486837069,0.35577858078264896,0.15654775814000002,1.5842075230255817,0.04905250341579312,-0.17011326047093092,-0.017804503208636427
1.6929281069897115,,1.3298231363296509,-1.046666145324707,-0.31921595335006714,-0.5740108489990234,2.005584478378296,1.3042750358581543,-0.5985680222511292,-2.0148160457611084,-0.440782368183136,0.5716572403907776,-0.7412189245223999,0.5788947343826294,,1.0229828357696533,1.1744158267974854,-0.02803105115890503,0.2679821848869324,2.0464727878570557,0.05285293608903885,-0.6312662363052368,1.846868872642517,1.1421630382537842,0.7456821203231812,0.06626468896865845,0.6386855840682983,,0.17118661105632782,1.5517048835754395,0.7123886942863464,0.9560472965240479,0.48839646577835083,-0.025995463132858276,-0.27884721755981445,2.7502784729003906,0.7966031432151794,0.1178969070315361,0.800128161907196,1.334241271018982,,-0.8265254858638782,-0.2720487109603068,0.10559837598,-0.6399737075147683,0.09140981834307967,-0.08123623426443202,0.01764115914250216,,-0.8755339486837069,0.35577858078264896,0.15654775814000002,1.5842075230255817,0.04905250341579312,-0.17011326047093092,-0.017804503208636427
1.7482789519999642,,1.3298231363296509,-1.046666145324707,-0.31921595335006714,-0.5740108489990234,2.005584478378296,1.3042750358581543,-0.5985680222511292,-2.0148160457611084,-0.440782368183136,0.5716572403907776,-0.7412189245223999,0.5788947343826294,,1.0229828357696533,1.1744158267974854,-0.02803105115890503,0.2679821848869324,2.0464727878570557,0.05285293608903885,-0.6312662363052368,1.846868872642517,1.1421630382537842,0.7456821203231812,0.06626468896865845,0.6386855840682983,,0.17118661105632782,1.5517048835754395,0.7123886942863464,0.9560472965240479,0.48839646577835083,-0.025995463132858276,-0.27884721755981445,2.7502784729003906,0.7966031432151794,0.1178969070315361,0.800128161907196,1.334241271018982,,-0.8265254858638782,-0.2720487109603068,0.10559837598,-0.6399737075147683,0.09140981834307967,-0.08123623426443202,0.01764115914250216,,-0.8755339486837069,0.35577858078264896,0.15654775814000002,1.5842075230255817,0.04905250341579312,-0.17011326047093092,-0.017804503208636427
1.7948310860083438,,1.3298231363296509,-1.046666145324707,-0.31921595335006714,-0.5740108489990234,2.005584478378296,1.3042750358581543,-0.5985680222511292,-2.0148160457611084,-0.440782368183136,0.5716572403907776,-0.7412189245223999,0.5788947343826294,,1.0229828357696533,1.1744158267974854,-0.02803105115890503,0.2679821848869324,2.0464727878570557,0.05285293608903885,-0.6312662363052368,1.846868872642517,1.1421630382537842,0.7456821203231812,0.06626468896865845,0.6386855840682983,,0.17118661105632782,1.5517048835754395,0.7123886942863464,0.9560472965240479,0.48839646577835083,-0.025995463132858276,-0.27884721755981445,2.7502784729003906,0.7966031432151794,0.1178969070315361,0.800128161907196,1.334241271018982,,-0.8265254858638782,-0.2720487109603068,0.10559837598,-0.6399737075147683,0.09140981834307967,-0.08123623426443202,0.01764115914250216,,-0.8755339486837069,0.35577858078264896,0.15654775814000002,1.5842075230255817,0.04905250341579312,-0.17011326047093092,-0.017804503208636427
1.8494281629973557,,1.3298231363296509,-1.046666145324707,-0.31921595335006714,-0.5740108489990234,2.005584478378296,1.3042750358581543,-0.5985680222511292,-2.0148160457611084,-0.440782368183136,0.5716572403907776,-0.7412189245223999,0.5788947343826294,,1.0229828357696533,1.1744158267974854,-0.02803105115890503,0.2679821848869324,2.0464727878570557,0.05285293608903885,-0.6312662363052368,1.846868872642517,1.1421630382537842,0.7456821203231812,0.06626468896865845,0.6386855840682983,,0.17118661105632782,1.5517048835754395,0.7123886942863464,0.9560472965240479,0.48839646577835083,-0.025995463132858276,-0.27884721755981445,2.7502784729003906,0.7966031432151794,0.1178969070315361,0.800128161907196,1.334241271018982,,-0.8265254858638782,-0.2720487109603068,0.10559837598,-0.6399737075147683,0.09140981834307967,-0.08123623426443202,0.01764115914250216,,-0.8755339486837069,0.35577858078264896,0.15654775814000002,1.5842075230255817,0.04905250341579312,-0.17011326047093092,-0.017804503208636427
1.898246229015058,,1.3298231363296509,-1.046666145324707,-0.31921595335006714,-0.5740108489990234,2.005584478378296,1.3042750358581543,-0.5985680222511292,-2.0148160457611084,-0.440782368183136,0.5716572403907776,-0.7412189245223999,0.5788947343826294,,1.0229828357696533,1.1744158267974854,-0.02803105115890503,0.2679821848869324,2.0464727878570557,0.05285293608903885,-0.6312662363052368,1.846868872642517,1.1421630382537842,0.7456821203231812,0.06626468896865845,0.6386855840682983,,0.17118661105632782,1.5517048835754395,0.7123886942863464,0.9560472965240479,0.48839646577835083,-0.025995463132858276,-0.27884721755981445,2.7502784729003906,0.7966031432151794,0.1178969070315361,0.800128161907196,1.334241271018982,,-0.8265254858638782,-0.2720487109603068,0.10559837598,-0.6399737075147683,0.09140981834307967,-0.08123623426443202,0.01764115914250216,,-0.8755339486837069,0.35577858078264896,0.15654775814000002,1.5842075230255817,0.04905250341579312,-0.17011326047093092,-0.017804503208636427
1.940828402992338,,1.329822063446045,-1.046667456626892,-0.3192260265350342,-0.5740072131156921,2.005579948425293,1.304280400276184,-0.598567008972168,-2.0148181915283203,-0.44078320264816284,0.5716620087623596,-0.7412335872650146,0.5788847804069519,,1.0229828357696533,1.1744158267974854,-0.02803105115890503,0.2679821848869324,2.0464727878570557,0.05285293608903885,-0.6312662363052368,1.846868872642517,1.1421630382537842,0.7456821203231812,0.06626468896865845,0.6386855840682983,,0.17118661105632782,1.5517048835754395,0.7123886942863464,0.9560472965240479,0.48839646577835083,-0.025995463132858276,-0.27884721755981445,2.7502784729003906,0.7966031432151794,0.1178969070315361,0.800128161907196,1.334241271018982,,-0.8265177631310039,-0.2720487109603068,0.10559837598,-0.6399737075147683,0.09140981834307967,-0.08123623426443202,0.01764115914250216,,-0.8755339486837069,0.35577858078264896,0.15654775814000002,1.5842075230255817,0.04905250341579312,-0.17011326047093092,-0.017804503208636427
1.9845267499913462,,1.3298231363296509,-1.046666145324707,-0.31921595335006714,-0.5740108489990234,2.005584478378296,1.3042750358581543,-0.5985680222511292,-2.0148160457611084,-0.440782368183136,0.5716572403907776,-0.7412189245223999,0.5788947343826294,,1.0229828357696533,1.1744158267974854,-0.02803105115890503,0.2679821848869324,2.0464727878570557,0.05285293608903885,-0.6312662363052368,1.846868872642517,1.1421630382537842,0.7456821203231812,0.06626468896865845,0.6386855840682983,,0.17118661105632782,1.5517048835754395,0.7123886942863464,0.9560472965240479,0.48839646577835083,-0.025995463132858276,-0.27884721755981445,2.7502784729003906,0.7966031432151794,0.1178969070315361,0.800128161907196,1.334241271018982,,-0.8265254858638782,-0.2720487109603068,0.10559837598,-0.6399737075147683,0.09140981834307967,-0.08123623426443202,0.01764115914250216,,-0.8755339486837069,0.35577858078264896,0.15654775814000002,1.5842075230255817,0.04905250341579312,-0.17011326047093092,-0.017804503208636427
2.0461162269930355,,1.3298231363296509,-1.046666145324707,-0.31921595335006714,-0.5740108489990234,2.005584478378296,1.3042750358581543,-0.5985680222511292,-2.0148160457611084,-0.440782368183136,0.5716572403907776,-0.7412189245223999,0.5788947343826294,,1.0229828357696533,1.1744158267974854,-0.02803105115890503,0.2679821848869324,2.0464727878570557,0.05285293608903885,-0.6312662363052368,1.846868872642517,1.1421630382537842,0.7456821203231812,0.06626468896865845,0.6386855840682983,,0.17118661105632782,1.5517048835754395,0.7123886942863464,0.9560472965240479,0.48839646577835083,-0.025995463132858276,-0.27884721755981445,2.7502784729003906,0.7966031432151794,0.1178969070315361,0.800128161907196,1.334241271018982,,-0.8265254858638782,-0.2720487109603068,0.10559837598,-0.6399737075147683,0.09140981834307967,-0.08123623426443202,0.01764115914250216,,-0.8755339486837069,0.35577858078264896,0.15654775814000002,1.5842075230255817,0.04905250341579312,-0.17011326047093092,-0.017804503208636427
2.1039653409970924,,1.3298231363296509,-1.046666145324707,-0.31921595335006714,-0.5740108489990234,2.005584478378296,1.3042750358581543,-0.5985680222511292,-2.0148160457611084,-0.440782368183136,0.5716572403907776,-0.7412189245223999,0.5788947343826294,,1.0229828357696533,1.1744158267974854,-0.02803105115890503,0.2679821848869324,2.0464727878570557,0.05285293608903885,-0.6312662363052368,1.846868872642517,1.1421630382537842,0.7456821203231812,0.06626468896865845,0.6386855840682983,,0.17118661105632782,1.5517048835754395,0.7123886942863464,0.9560472965240479,0.48839646577835083,-0.025995463132858276,-0.27884721755981445,2.7502784729003906,0.7966031432151794,0.1178969070315361,0.800128161907196,1.334241271018982,,-0.8265254858638782,-0.2720487109603068,0.10559837598,-0.6399737075147683,0.09140981834307967,-0.08123623426443202,0.01764115914250216,,-0.8755339486837069,0.35577858078264896,0.15654775814000002,1.5842075230255817,0.04905250341579312,-0.17011326047093092,-0.017804503208636427
2.166231258015614,,1.3298231363296509,-1.046666145324707,-0.31921595335006714,-0.5740108489990234,2.005584478378296,1.3042750358581543,-0.5985680222511292,-2.0148160457611084,-0.440782368183136,0.5716572403907776,-0.7412189245223999,0.5788947343826294,,1.0229828357696533,1.1744158267974854,-0.02803105115890503,0.2679821848869324,2.0464727878570557,0.05285293608903885,-0.6312662363052368,1.846868872642517,1.1421630382537842,0.7456821203231812,0.06626468896865845,0.6386855840682983,,0.17118661105632782,1.5517048835754395,0.7123886942863464,0.9560472965240479,0.48839646577835083,-0.025995463132858276,-0.27884721755981445,2.7502784729003906,0.7966031432151794,0.1178969070315361,0.800128161907196,1.334241271018982,,-0.8265254858638782,-0.2720487109603068,0.10559837598,-0.6399737075147683,0.09140981834307967,-0.08123623426443202,0.01764115914250216,,-0.8755339486837069,0.35577858078264896,0.15654775814000002,1.5842075230255817,0.04905250341579312,-0.17011326047093092,-0.017804503208636427
2.2125611120136455,,1.3298231363296509,-1.046666145324707,-0.31921595335006714,-0.5740108489990234,2.005584478378296,1.3042750358581543,-0.5985680222511292,-2.0148160457611084,-0.440782368183136,0.5716572403907776,-0.7412189245223999,0.5788947343826294,,1.0229828357696533,1.1744158267974854,-0.02803105115890503,0.2679821848869324,2.0464727878570557,0.05285293608903885,-0.6312662363052368,1.846868872642517,1.1421630382537842,0.7456821203231812,0.06626468896865845,0.6386855840682983,,0.17118661105632782,1.5517048835754395,0.7123886942863464,0.9560472965240479,0.48839646577835083,-0.025995463132858276,-0.27884721755981445,2.7502784729003906,0.7966031432151794,0.1178969070315361,0.800128161907196,1.334241271018982,,-0.8265254858638782,-0.2720487109603068,0.10559837598,-0.6399737075147683,0.09140981834307967,-0.08123623426443202,0.01764115914250216,,-0.8755339486837069,0.35577858078264896,0.15654775814000002,1.5842075230255817,0.04905250341579312,-0.17011326047093092,-0.017804503208636427
2.2647555049916264,,1.3298231363296509,-1.046666145324707,-0.31921595335006714,-0.5740108489990234,2.005584478378296,1.3042750358581543,-0.5985680222511292,-2.0148160457611084,-0.440782368183136,0.5716572403907776,-0.7412189245223999,0.5788947343826294,,1.0229828357696533,1.1744158267974854,-0.02803105115890503,0.2679821848869324,2.0464727878570557,0.05285293608903885,-0.6312662363052368,1.846868872642517,1.1421630382537842,0.7456821203231812,0.06626468896865845,0.6386855840682983,,0.17118661105632782,1.5517048835754395,0.7123886942863464,0.9560472965240479,0.48839646577835083,-0.025995463132858276,-0.27884721755981445,2.7502784729003906,0.7966031432151794,0.1178969070315361,0.800128161907196,1.334241271018982,,-0.8265254858638782,-0.2720487109603068,0.10559837598,-0.6399737075147683,0.09140981834307967,-0.08123623426443202,0.01764115914250216,,-0.8755339486837069,0.35577858078264896,0.15654775814000002,1.5842075230255817,0.04905250341579312,-0.17011326047093092,-0.017804503208636427
2.313232649990823,,1.3298231363296509,-1.046666145324707,-0.31921595335006714,-0.5740108489990234,2.005584478378296,1.3042750358581543,-0.5985680222511292,-2.0148160457611084,-0.440782368183136,0.5716572403907776,-0.7412189245223999,0.5788947343826294,,1.0229828357696533,1.1744158267974854,-0.02803105115890503,0.2679821848869324,2.0464727878570557,0.05285293608903885,-0.6312662363052368,1.846868872642517,1.1421630382537842,0.7456821203231812,0.06626468896865845,0.6386855840682983,,0.17118661105632782,1.5517048835754395,0.7123886942863464,0.9560472965240479,0.48839646577835083,-0.025995463132858276,-0.27884721755981445,2.7502784729003906,0.7966031432151794,0.1178969070315361,0.800128161907196,1.334241271018982,,-0.8265254858638782,-0.2720487109603068,0.10559837598,-0.6399737075147683,0.09140981834307967,-0.08123623426443202,0.01764115914250216,,-0.8755339486837069,0.35577858078264896,0.15654775814000002,1.5842075230255817,0.04905250341579312,-0.17011326047093092,-0.017804503208636427
2.3671350399963558,,1.3298231363296509,-1.046666145324707,-0.31921595335006714,-0.5740108489990234,2.005584478378296,1.3042750358581543,-0.5985680222511292,-2.0148160457611084,-0.440782368183136,0.5716572403907776,-0.7412189245223999,0.5788947343826294,,1.0229828357696533,1.1744158267974854,-0.02803105115890503,0.2679821848869324,2.0464727878570557,0.05285293608903885,-0.6312662363052368,1.846868872642517,1.1421630382537842,0.7456821203231812,0.06626468896865845,0.6386855840682983,,0.17118661105632782,1.5517048835754395,0.7123886942863464,0.9560472965240479,0.48839646577835083,-0.025995463132858276,-0.27884721755981445,2.7502784729003906,0.7966031432151794,0.1178969070315361,0.800128161907196,1.334241271018982,,-0.8265254858638782,-0.2720487109603068,0.10559837598,-0.6399737075147683,0.09140981834307967,-0.08123623426443202,0.01764115914250216,,-0.8755339486837069,0.35577858078264896,0.15654775814000002,1.5842075230255817,0.04905250341579312,-0.17011326047093092,-0.017804503208636427
2.416876569011947,,1.3298231363296509,-1.046666145324707,-0.31921595335006714,-0.5740108489990234,2.005584478378296,1.3042750358581543,-0.5985680222511292,-2.0148160457611084,-0.440782368183136,0.5716572403907776,-0.7412189245223999,0.5788947343826294,,1.0229828357696533,1.1744158267974854,-0.02803105115890503,0.2679821848869324,2.0464727878570557,0.05285293608903885,-0.6312662363052368,1.846868872642517,1.1421630382537842,0.7456821203231812,0.06626468896865845,0.6386855840682983,,0.17118661105632782,1.5517048835754395,0.7123886942863464,0.9560472965240479,0.48839646577835083,-0.025995463132858276,-0.27884721755981445,2.7502784729003906,0.7966031432151794,0.1178969070315361,0.800128161907196,1.334241271018982,,-0.8265254858638782,-0.2720487109603068,0.10559837598,-0.6399737075147683,0.09140981834307967,-0.08123623426443202,0.01764115914250216,,-0.8755339486837069,0.35577858078264896,0.15654775814000002,1.5842075230255817,0.04905250341579312,-0.17011326047093092,-0.017804503208636427
2.463167423993582,,1.3298231363296509,-1.046666145324707,-0.31921595335006714,-0.5740108489990234,2.005584478378296,1.3042750358581543,-0.5985680222511292,-2.0148160457611084,-0.440782368183136,0.5716572403907776,-0.7412189245223999,0.5788947343826294,,1.0229828357696533,1.1744158267974854,-0.02803105115890503,0.2679821848869324,2.0464727878570557,0.05285293608903885,-0.6312662363052368,1.846868872642517,1.1421630382537842,0.7456821203231812,0.06626468896865845,0.6386855840682983,,0.17118661105632782,1.5517048835754395,0.7123886942863464,0.9560472965240479,0.48839646577835083,-0.025995463132858276,-0.27884721755981445,2.7502784729003906,0.7966031432151794,0.1178969070315361,0.800128161907196,1.334241271018982,,-0.8265254858638782,-0.2720487109603068,0.10559837598,-0.6399737075147683,0.09140981834307967,-0.08123623426443202,0.01764115914250216,,-0.8755339486837069,0.35577858078264896,0.15654775814000002,1.5842075230255817,0.04905250341579312,-0.17011326047093092,-0.017804503208636427
2.502934346004622,,1.3298231363296509,-1.046666145324707,-0.31921595335006714,-0.5740108489990234,2.005584478378296,1.3042750358581543,-0.5985680222511292,-2.0148160457611084,-0.440782368183136,0.5716572403907776,-0.7412189245223999,0.5788947343826294,,1.0229828357696533,1.1744158267974854,-0.02803105115890503,0.2679821848869324,2.0464727878570557,0.05285293608903885,-0.6312662363052368,1.846868872642517,1.1421630382537842,0.7456821203231812,0.06626468896865845,0.6386855840682983,,0.17118661105632782,1.5517048835754395,0.7123886942863464,0.9560472965240479,0.48839646577835083,-0.025995463132858276,-0.27884721755981445,2.7502784729003906,0.7966031432151794,0.1178969070315361,0.800128161907196,1.334241271018982,,-0.8265254858638782,-0.2720487109603068,0.10559837598,-0.6399737075147683,0.09140981834307967,-0.08123623426443202,0.01764115914250216,,-0.8755339486837069,0.35577858078264896,0.15654775814000002,1.5842075230255817,0.04905250341579312,-0.17011326047093092,-0.017804503208636427
2.5609129299991764,,1.3298231363296509,-1.046666145324707,-0.31921595335006714,-0.5740108489990234,2.005584478378296,1.3042750358581543,-0.5985680222511292,-2.0148160457611084,-0.440782368183136,0.5716572403907776,-0.7412189245223999,0.5788947343826294,,1.0229828357696533,1.1744158267974854,-0.02803105115890503,0.2679821848869324,2.0464727878570557,0.05285293608903885,-0.6312662363052368,1.846868872642517,1.1421630382537842,0.7456821203231812,0.06626468896865845,0.6386855840682983,,0.17118661105632782,1.5517048835754395,0.7123886942863464,0.9560472965240479,0.48839646577835083,-0.025995463132858276,-0.27884721755981445,2.7502784729003906,0.7966031432151794,0.1178969070315361,0.800128161907196,1.334241271018982,,-0.8265254858638782,-0.2720487109603068,0.10559837598,-0.6399737075147683,0.09140981834307967,-0.08123623426443202,0.01764115914250216,,-0.8755339486837069,0.35577858078264896,0.15654775814000002,1.5842075230255817,0.04905250341579312,-0.17011326047093092,-0.017804503208636427
2.59859873901587,,1.329750657081604,-1.0467196702957153,-0.31930142641067505,-0.5740416646003723,2.005467653274536,1.3042347431182861,-0.5985734462738037,-2.014878749847412,-0.44087764620780945,0.571620523929596,-0.741358757019043,0.578861653804779,,1.0229796171188354,1.174384355545044,-0.02802520990371704,0.2679411470890045,2.0464937686920166,0.05287637561559677,-0.6312825679779053,1.84678316116333,1.1421751976013184,0.7456848621368408,0.06627869606018066,0.6386842727661133,,0.17118661105632782,1.5517048835754395,0.7123886942863464,0.9560472965240479,0.48839646577835083,-0.025995463132858276,-0.27884721755981445,2.7502784729003906,0.7966031432151794,0.1178969070315361,0.800128161907196,1.334241271018982,,-0.8265254858638782,-0.2720487109603068,0.10559837598,-0.6399737075147683,0.09140981834307967,-0.08123623426443202,0.01764115914250216,,-0.8755339486837069,0.35577858078264896,0.15654775814000002,1.5842075230255817,0.04905250341579312,-0.17011326047093092,-0.017804503208636427
2.644872752018273,,1.3297193050384521,-1.046739101409912,-0.3192877173423767,-0.5740684270858765,2.005396842956543,1.3042229413986206,-0.5985320210456848,-2.0149309635162354,-0.4408907890319824,0.5716398358345032,-0.7413180470466614,0.5788655877113342,,1.0229911804199219,1.1743515729904175,-0.028006792068481445,0.26789671182632446,2.0465221405029297,0.05288632959127426,-0.6313108205795288,1.846708059310913,1.1421629190444946,0.7456787824630737,0.06633251905441284,0.6386930346488953,,0.1712220311164856,1.5516897439956665,0.7123814821243286,0.9560338854789734,0.48848670721054077,-0.02597775310277939,-0.2788984775543213,2.750244617462158,0.796601414680481,0.1178971454501152,0.8001195192337036,1.3342375755310059,,-0.8265254858638782,-0.2720487109603068,0.10559837598,-0.6399737075147683,0.09140981834307967,-0.08123623426443202,0.01764115914250216,,-0.8755339486837069,0.35577858078264896,0.15654775814000002,1.5842075230255817,0.04905250341579312,-0.17011326047093092,-0.017804503208636427
2.6988810159964487,,1.3297193050384521,-1.046739101409912,-0.3192877173423767,-0.5740684270858765,2.005396842956543,1.3042229413986206,-0.5985320210456848,-2.0149309635162354,-0.4408907890319824,0.5716398358345032,-0.7413180470466614,0.5788655877113342,,1.0229911804199219,1.1743515729904175,-0.028006792068481445,0.26789671182632446,2.0465221405029297,0.05288632959127426,-0.6313108205795288,1.846708059310913,1.1421629190444946,0.7456787824630737,0.06633251905441284,0.6386930346488953,,0.1712220311164856,1.5516897439956665,0.7123814821243286,0.9560338854789734,0.48848670721054077,-0.02597775310277939,-0.2788984775543213,2.750244617462158,0.796601414680481,0.1178971454501152,0.8001195192337036,1.3342375755310059,,-0.8265254858638782,-0.2720487109603068,0.10559837598,-0.6399737075147683,0.09140981834307967,-0.08123623426443202,0.01764115914250216,,-0.8755339486837069,0.35577858078264896,0.15654775814000002,1.5842075230255817,0.04905250341579312,-0.17011326047093092,-0.017804503208636427
2.7359550679975655,,1.3297193050384521,-1.046739101409912,-0.3192877173423767,-0.5740684270858765,2.005396842956543,1.3042229413986206,-0.5985320210456848,-2.0149309635162354,-0.4408907890319824,0.5716398358345032,-0.7413180470466614,0.5788655877113342,,1.0229911804199219,1.1743515729904175,-0.028006792068481445,0.26789671182632446,2.0465221405029297,0.05288632959127426,-0.6313108205795288,1.846708059310913,1.1421629190444946,0.7456787824630737,0.06633251905441284,0.6386930346488953,,0.1712220311164856,1.5516897439956665,0.7123814821243286,0.9560338854789734,0.48848670721054077,-0.02597775310277939,-0.2788984775543213,2.750244617462158,0.796601414680481,0.1178971454501152,0.8001195192337036,1.3342375755310059,,-0.8265254858638782,-0.2720487109603068,0.10559837598,-0.6399737075147683,0.09140981834307967,-0.08123623426443202,0.01764115914250216,,-0.8755339486837069,0.35577858078264896,0.15654775814000002,1.5842075230255817,0.04905250341579312,-0.17011326047093092,-0.017804503208636427
2.788945837994106,,1.3297193050384521,-1.046739101409912,-0.3192877173423767,-0.5740684270858765,2.005396842956543,1.3042229413986206,-0.5985320210456848,-2.0149309635162354,-0.4408907890319824,0.5716398358345032,-0.7413180470466614,0.5788655877113342,,1.0229911804199219,1.1743515729904175,-0.028006792068481445,0.26789671182632446,2.0465221405029297,0.05288632959127426,-0.6313108205795288,1.846708059310913,1.1421629190444946,0.7456787824630737,0.06633251905441284,0.6386930346488953,,0.1712220311164856,1.5516897439956665,0.7123814821243286,0.9560338854789734,0.48848670721054077,-0.02597775310277939,-0.2788984775543213,2.750244617462158,0.796601414680481,0.1178971454501152,0.8001195192337036,1.3342375755310059,,-0.8265254858638782,-0.2720487109603068,0.10559837598,-0.6399737075147683,0.09140981834307967,-0.08123623426443202,0.01764115914250216,,-0.8755339486837069,0.35577858078264896,0.15654775814000002,1.5842075230255817,0.04905250341579312,-0.17011326047093092,-0.017804503208636427
2.8499044039926957,,1.3297193050384521,-1.046739101409912,-0.3192877173423767,-0.5740684270858765,2.005396842956543,1.3042229413986206,-0.5985320210456848,-2.0149309635162354,-0.4408907890319824,0.5716398358345032,-0.7413180470466614,0.5788655877113342,,1.0229911804199219,1.1743515729904175,-0.028006792068481445,0.26789671182632446,2.0465221405029297,0.05288632959127426,-0.6313108205795288,1.846708059310913,1.1421629190444946,0.7456787824630737,0.06633251905441284,0.6386930346488953,,0.1712220311164856,1.5516897439956665,0.7123814821243286,0.9560338854789734,0.48848670721054077,-0.02597775310277939,-0.2788984775543213,2.750244617462158,0.796601414680481,0.1178971454501152,0.8001195192337036,1.3342375755310059,,-0.8265254858638782,-0.2720487109603068,0.10559837598,-0.6399737075147683,0.09140981834307967,-0.08123623426443202,0.01764115914250216,,-0.8755339486837069,0.35577858078264896,0.15654775814000002,1.5842075230255817,0.04905250341579312,-0.17011326047093092,-0.017804503208636427
2.897680513007799,,1.3297193050384521,-1.046739101409912,-0.3192877173423767,-0.5740684270858765,2.005396842956543,1.3042229413986206,-0.5985320210456848,-2.0149309635162354,-0.4408907890319824,0.5716398358345032,-0.7413180470466614,0.5788655877113342,,1.0229911804199219,1.1743515729904175,-0.028006792068481445,0.26789671182632446,2.0465221405029297,0.05288632959127426,-0.6313108205795288,1.846708059310913,1.1421629190444946,0.7456787824630737,0.06633251905441284,0.6386930346488953,,0.1712220311164856,1.5516897439956665,0.7123814821243286,0.9560338854789734,0.48848670721054077,-0.02597775310277939,-0.2788984775543213,2.750244617462158,0.796601414680481,0.1178971454501152,0.8001195192337036,1.3342375755310059,,-0.8265254858638782,-0.2720487109603068,0.10559837598,-0.6399737075147683,0.09140981834307967,-0.08123623426443202,0.01764115914250216,,-0.8755339486837069,0.35577858078264896,0.15654775814000002,1.5842075230255817,0.04905250341579312,-0.17011326047093092,-0.017804503208636427
2.9406986109970603,,1.3297193050384521,-1.046739101409912,-0.3192877173423767,-0.5740684270858765,2.005396842956543,1.3042229413986206,-0.5985320210456848,-2.0149309635162354,-0.4408907890319824,0.5716398358345032,-0.7413180470466614,0.5788655877113342,,1.0229911804199219,1.1743515729904175,-0.028006792068481445,0.26789671182632446,2.0465221405029297,0.05288632959127426,-0.6313108205795288,1.846708059310913,1.1421629190444946,0.7456787824630737,0.06633251905441284,0.6386930346488953,,0.1712220311164856,1.5516897439956665,0.7123814821243286,0.9560338854789734,0.48848670721054077,-0.02597775310277939,-0.2788984775543213,2.750244617462158,0.796601414680481,0.1178971454501152,0.8001195192337036,1.3342375755310059,,-0.8265254858638782,-0.2720487109603068,0.10559837598,-0.6399737075147683,0.09140981834307967,-0.08123623426443202,0.01764115914250216,,-0.8755339486837069,0.35577858078264896,0.15654775814000002,1.5842075230255817,0.04905250341579312,-0.17011326047093092,-0.017804503208636427
2.9946977439976763,,1.3297193050384521,-1.046739101409912,-0.3192877173423767,-0.5740684270858765,2.005396842956543,1.3042229413986206,-0.5985320210456848,-2.0149309635162354,-0.4408907890319824,0.5716398358345032,-0.7413180470466614,0.5788655877113342,,1.0229911804199219,1.1743515729904175,-0.028006792068481445,0.26789671182632446,2.0465221405029297,0.05288632959127426,-0.6313108205795288,1.846708059310913,1.1421629190444946,0.7456787824630737,0.06633251905441284,0.6386930346488953,,0.1712220311164856,1.5516897439956665,0.7123814821243286,0.9560338854789734,0.48848670721054077,-0.02597775310277939,-0.2788984775543213,2.750244617462158,0.796601414680481,0.1178971454501152,0.8001195192337036,1.3342375755310059,,-0.8265254858638782,-0.2720487109603068,0.10559837598,-0.6399737075147683,0.09140981834307967,-0.08123623426443202,0.01764115914250216,,-0.8755339486837069,0.35577858078264896,0.15654775814000002,1.5842075230255817,0.04905250341579312,-0.17011326047093092,-0.017804503208636427
3.0385963110020384,,1.3297193050384521,-1.046739101409912,-0.3192877173423767,-0.5740684270858765,2.005396842956543,1.3042229413986206,-0.5985320210456848,-2.0149309635162354,-0.4408907890319824,0.5716398358345032,-0.7413180470466614,0.5788655877113342,,1.0229911804199219,1.1743515729904175,-0.028006792068481445,0.26789671182632446,2.0465221405029297,0.05288632959127426,-0.6313108205795288,1.846708059310913,1.1421629190444946,0.7456787824630737,0.06633251905441284,0.6386930346488953,,0.1712220311164856,1.5516897439956665,0.7123814821243286,0.9560338854789734,0.48848670721054077,-0.02597775310277939,-0.2788984775543213,2.750244617462158,0.796601414680481,0.1178971454501152,0.8001195192337036,1.3342375755310059,,-0.8265254858638782,-0.2720487109603068,0.10559837598,-0.6399737075147683,0.09140981834307967,-0.08123623426443202,0.01764115914250216,,-0.8755339486837069,0.35577858078264896,0.15654775814000002,1.5842075230255817,0.04905250341579312,-0.17011326047093092,-0.017804503208636427
3.099387972994009,,1.3297193050384521,-1.046739101409912,-0.3192877173423767,-0.5740684270858765,2.005396842956543,1.3042229413986206,-0.5985320210456848,-2.0149309635162354,-0.4408907890319824,0.5716398358345032,-0.7413180470466614,0.5788655877113342,,1.0229911804199219,1.1743515729904175,-0.028006792068481445,0.26789671182632446,2.0465221405029297,0.05288632959127426,-0.6313108205795288,1.846708059310913,1.1421629190444946,0.7456787824630737,0.06633251905441284,0.6386930346488953,,0.1712220311164856,1.5516897439956665,0.7123814821243286,0.9560338854789734,0.48848670721054077,-0.02597775310277939,-0.2788984775543213,2.750244617462158,0.796601414680481,0.1178971454501152,0.8001195192337036,1.3342375755310059,,-0.8265254858638782,-0.2720487109603068,0.10559837598,-0.6399737075147683,0.09140981834307967,-0.08123623426443202,0.01764115914250216,,-0.8755339486837069,0.35577858078264896,0.15654775814000002,1.5842075230255817,0.04905250341579312,-0.17011326047093092,-0.017804503208636427
3.1316981010022573,,1.3297193050384521,-1.046739101409912,-0.3192877173423767,-0.5740684270858765,2.005396842956543,1.3042229413986206,-0.5985320210456848,-2.0149309635162354,-0.4408907890319824,0.5716398358345032,-0.7413180470466614,0.5788655877113342,,1.0229911804199219,1.1743515729904175,-0.028006792068481445,0.26789671182632446,2.0465221405029297,0.05288632959127426,-0.6313108205795288,1.846708059310913,1.1421629190444946,0.7456787824630737,0.06633251905441284,0.6386930346488953,,0.1712220311164856,1.5516897439956665,0.7123814821243286,0.9560338854789734,0.48848670721054077,-0.02597775310277939,-0.2788984775543213,2.750244617462158,0.796601414680481,0.1178971454501152,0.8001195192337036,1.3342375755310059,,-0.8265254858638782,-0.2720487109603068,0.10559837598,-0.6399737075147683,0.09140981834307967,-0.08123623426443202,0.01764115914250216,,-0.8755339486837069,0.35577858078264896,0.15654775814000002,1.5842075230255817,0.04905250341579312,-0.17011326047093092,-0.017804503208636427
3.1816635279974435,,1.3297193050384521,-1.046739101409912,-0.3192877173423767,-0.5740684270858765,2.005396842956543,1.3042229413986206,-0.5985320210456848,-2.0149309635162354,-0.4408907890319824,0.5716398358345032,-0.7413180470466614,0.5788655877113342,,1.0229911804199219,1.1743515729904175,-0.028006792068481445,0.26789671182632446,2.0465221405029297,0.05288632959127426,-0.6313108205795288,1.846708059310913,1.1421629190444946,0.7456787824630737,0.06633251905441284,0.6386930346488953,,0.1712220311164856,1.5516897439956665,0.7123814821243286,0.9560338854789734,0.48848670721054077,-0.02597775310277939,-0.2788984775543213,2.750244617462158,0.796601414680481,0.1178971454501152,0.8001195192337036,1.3342375755310059,,-0.8265254858638782,-0.2720487109603068,0.10559837598,-0.6399737075147683,0.09140981834307967,-0.08123623426443202,0.01764115914250216,,-0.8755339486837069,0.35577858078264896,0.15654775814000002,1.5842075230255817,0.04905250341579312,-0.17011326047093092,-0.017804503208636427
3.2351295170083176,,1.3297193050384521,-1.046739101409912,-0.3192877173423767,-0.5740684270858765,2.005396842956543,1.3042229413986206,-0.5985320210456848,-2.0149309635162354,-0.4408907890319824,0.5716398358345032,-0.7413180470466614,0.5788655877113342,,1.0229911804199219,1.1743515729904175,-0.028006792068481445,0.26789671182632446,2.0465221405029297,0.05288632959127426,-0.6313108205795288,1.846708059310913,1.1421629190444946,0.7456787824630737,0.06633251905441284,0.6386930346488953,,0.1712220311164856,1.5516897439956665,0.7123814821243286,0.9560338854789734,0.48848670721054077,-0.02597775310277939,-0.2788984775543213,2.750244617462158,0.796601414680481,0.1178971454501152,0.8001195192337036,1.3342375755310059,,-0.8265254858638782,-0.2720487109603068,0.10559837598,-0.6399737075147683,0.09140981834307967,-0.08123623426443202,0.01764115914250216,,-0.8755339486837069,0.35577858078264896,0.15654775814000002,1.5842075230255817,0.04905250341579312,-0.17011326047093092,-0.017804503208636427
3.3020869409956504,,1.3297193050384521,-1.046739101409912,-0.3192877173423767,-0.5740684270858765,2.005396842956543,1.3042229413986206,-0.5985320210456848,-2.0149309635162354,-0.4408907890319824,0.5716398358345032,-0.7413180470466614,0.5788655877113342,,1.0229911804199219,1.1743515729904175,-0.028006792068481445,0.26789671182632446,2.0465221405029297,0.05288632959127426,-0.6313108205795288,1.846708059310913,1.1421629190444946,0.7456787824630737,0.06633251905441284,0.6386930346488953,,0.1712220311164856,1.5516897439956665,0.7123814821243286,0.9560338854789734,0.48848670721054077,-0.02597775310277939,-0.2788984775543213,2.750244617462158,0.796601414680481,0.1178971454501152,0.8001195192337036,1.3342375755310059,,-0.8265254858638782,-0.2720487109603068,0.10559837598,-0.6399737075147683,0.09140981834307967,-0.08123623426443202,0.01764115914250216,,-0.8755339486837069,0.35577858078264896,0.15654775814000002,1.5842075230255817,0.04905250341579312,-0.17011326047093092,-0.017804503208636427
3.353441198996734,,1.3297193050384521,-1.046739101409912,-0.3192877173423767,-0.5740684270858765,2.005396842956543,1.3042229413986206,-0.5985320210456848,-2.0149309635162354,-0.4408907890319824,0.5716398358345032,-0.7413180470466614,0.5788655877113342,,1.0229911804199219,1.1743515729904175,-0.028006792068481445,0.26789671182632446,2.0465221405029297,0.05288632959127426,-0.6313108205795288,1.846708059310913,1.1421629190444946,0.7456787824630737,0.06633251905441284,0.6386930346488953,,0.1712220311164856,1.5516897439956665,0.7123814821243286,0.9560338854789734,0.48848670721054077,-0.02597775310277939,-0.2788984775543213,2.750244617462158,0.796601414680481,0.1178971454501152,0.8001195192337036,1.3342375755310059,,-0.8265254858638782,-0.2720487109603068,0.10559837598,-0.6399737075147683,0.09140981834307967,-0.08123623426443202,0.01764115914250216,,-0.8755339486837069,0.35577858078264896,0.15654775814000002,1.5842075230255817,0.04905250341579312,-0.17011326047093092,-0.017804503208636427
3.399555620009778,,1.3297193050384521,-1.046739101409912,-0.3192877173423767,-0.5740684270858765,2.005396842956543,1.3042229413986206,-0.5985320210456848,-2.0149309635162354,-0.4408907890319824,0.5716398358345032,-0.7413180470466614,0.5788655877113342,,1.0229911804199219,1.1743515729904175,-0.028006792068481445,0.26789671182632446,2.0465221405029297,0.05288632959127426,-0.6313108205795288,1.846708059310913,1.1421629190444946,0.7456787824630737,0.06633251905441284,0.6386930346488953,,0.1712220311164856,1.5516897439956665,0.7123814821243286,0.9560338854789734,0.48848670721054077,-0.02597775310277939,-0.2788984775543213,2.750244617462158,0.796601414680481,0.1178971454501152,0.8001195192337036,1.3342375755310059,,-0.8265254858638782,-0.2720487109603068,0.10559837598,-0.6399737075147683,0.09140981834307967,-0.08123623426443202,0.01764115914250216,,-0.8755339486837069,0.35577858078264896,0.15654775814000002,1.5842075230255817,0.04905250341579312,-0.17011326047093092,-0.017804503208636427
3.4513116939924657,,1.3297193050384521,-1.046739101409912,-0.3192877173423767,-0.5740684270858765,2.005396842956543,1.3042229413986206,-0.5985320210456848,-2.0149309635162354,-0.4408907890319824,0.5716398358345032,-0.7413180470466614,0.5788655877113342,,1.0229911804199219,1.1743515729904175,-0.028006792068481445,0.26789671182632446,2.0465221405029297,0.05288632959127426,-0.6313108205795288,1.846708059310913,1.1421629190444946,0.7456787824630737,0.06633251905441284,0.6386930346488953,,0.1712220311164856,1.5516897439956665,0.7123814821243286,0.9560338854789734,0.48848670721054077,-0.02597775310277939,-0.2788984775543213,2.750244617462158,0.796601414680481,0.1178971454501152,0.8001195192337036,1.3342375755310059,,-0.8265254858638782,-0.2720487109603068,0.10559837598,-0.6399737075147683,0.09140981834307967,-0.08123623426443202,0.01764115914250216,,-0.8755339486837069,0.35577858078264896,0.15654775814000002,1.5842075230255817,0.04905250341579312,-0.17011326047093092,-0.017804503208636427
3.5175862710166257,,1.3297193050384521,-1.046739101409912,-0.3192877173423767,-0.5740684270858765,2.005396842956543,1.3042229413986206,-0.5985320210456848,-2.0149309635162354,-0.4408907890319824,0.5716398358345032,-0.7413180470466614,0.5788655877113342,,1.0229911804199219,1.1743515729904175,-0.028006792068481445,0.26789671182632446,2.0465221405029297,0.05288632959127426,-0.6313108205795288,1.846708059310913,1.1421629190444946,0.7456787824630737,0.06633251905441284,0.6386930346488953,,0.1712220311164856,1.5516897439956665,0.7123814821243286,0.9560338854789734,0.48848670721054077,-0.02597775310277939,-0.2788984775543213,2.750244617462158,0.796601414680481,0.1178971454501152,0.8001195192337036,1.3342375755310059,,-0.8265254858638782,-0.2720487109603068,0.10559837598,-0.6399737075147683,0.09140981834307967,-0.08123623426443202,0.01764115914250216,,-0.8755339486837069,0.35577858078264896,0.15654775814000002,1.5842075230255817,0.04905250341579312,-0.17011326047093092,-0.017804503208636427
3.564734635001514,,1.3297193050384521,-1.046739101409912,-0.3192877173423767,-0.5740684270858765,2.005396842956543,1.3042229413986206,-0.5985320210456848,-2.0149309635162354,-0.4408907890319824,0.5716398358345032,-0.7413180470466614,0.5788655877113342,,1.0230013132095337,1.1743508577346802,-0.02801668643951416,0.26789671182632446,2.046536922454834,0.05289705842733383,-0.6313090324401855,1.8467036485671997,1.1421674489974976,0.7456803321838379,0.06631529331207275,0.6386877298355103,,0.1712220311164856,1.5516897439956665,0.7123814821243286,0.9560338854789734,0.48848670721054077,-0.02597775310277939,-0.2788984775543213,2.750244617462158,0.796601414680481,0.1178971454501152,0.8001195192337036,1.3342375755310059,,-0.8265254858638782,-0.2720487109603068,0.10559837598,-0.6399737075147683,0.09140981834307967,-0.08123623426443202,0.01764115914250216,,-0.8755339486837069,0.35578630351552315,0.15654775814000002,1.5842075230255817,0.04905250341579312,-0.17011326047093092,-0.017804503208636427
3.6227528720046394,,1.3297193050384521,-1.046739101409912,-0.3192877173423767,-0.5740684270858765,2.005396842956543,1.3042229413986206,-0.5985320210456848,-2.0149309635162354,-0.4408907890319824,0.5716398358345032,-0.7413180470466614,0.5788655877113342,,1.0229911804199219,1.1743515729904175,-0.028006792068481445,0.26789671182632446,2.0465221405029297,0.05288632959127426,-0.6313108205795288,1.846708059310913,1.1421629190444946,0.7456787824630737,0.06633251905441284,0.6386930346488953,,0.1712220311164856,1.5516897439956665,0.7123814821243286,0.9560338854789734,0.48848670721054077,-0.02597775310277939,-0.2788984775543213,2.750244617462158,0.796601414680481,0.1178971454501152,0.8001195192337036,1.3342375755310059,,-0.8265254858638782,-0.2720487109603068,0.10559837598,-0.6399737075147683,0.09140981834307967,-0.08123623426443202,0.01764115914250216,,-0.8755339486837069,0.35577858078264896,0.15654775814000002,1.5842075230255817,0.04905250341579312,-0.17011326047093092,-0.017804503208636427
3.6842622730182484,,1.3297193050384521,-1.046739101409912,-0.3192877173423767,-0.5740684270858765,2.005396842956543,1.3042229413986206,-0.5985320210456848,-2.0149309635162354,-0.4408907890319824,0.5716398358345032,-0.7413180470466614,0.5788655877113342,,1.0229911804199219,1.1743515729904175,-0.028006792068481445,0.26789671182632446,2.0465221405029297,0.05288632959127426,-0.6313108205795288,1.846708059310913,1.1421629190444946,0.7456787824630737,0.06633251905441284,0.6386930346488953,,0.1712220311164856,1.5516897439956665,0.7123814821243286,0.9560338854789734,0.48848670721054077,-0.02597775310277939,-0.2788984775543213,2.750244617462158,0.796601414680481,0.1178971454501152,0.8001195192337036,1.3342375755310059,,-0.8265254858638782,-0.2720487109603068,0.10559837598,-0.6399737075147683,0.09140981834307967,-0.08123623426443202,0.01764115914250216,,-0.8755339486837069,0.35577858078264896,0.15654775814000002,1.5842075230255817,0.04905250341579312,-0.17011326047093092,-0.017804503208636427
3.7348106100107543,,1.3297193050384521,-1.046739101409912,-0.3192877173423767,-0.5740684270858765,2.005396842956543,1.3042229413986206,-0.5985320210456848,-2.0149309635162354,-0.4408907890319824,0.5716398358345032,-0.7413180470466614,0.5788655877113342,,1.0229911804199219,1.1743515729904175,-0.028006792068481445,0.26789671182632446,2.0465221405029297,0.05288632959127426,-0.6313108205795288,1.846708059310913,1.1421629190444946,0.7456787824630737,0.06633251905441284,0.6386930346488953,,0.1712220311164856,1.5516897439956665,0.7123814821243286,0.9560338854789734,0.48848670721054077,-0.02597775310277939,-0.2788984775543213,2.750244617462158,0.796601414680481,0.1178971454501152,0.8001195192337036,1.3342375755310059,,-0.8265254858638782,-0.2720487109603068,0.10559837598,-0.6399737075147683,0.09140981834307967,-0.08123623426443202,0.01764115914250216,,-0.8755339486837069,0.35577858078264896,0.15654775814000002,1.5842075230255817,0.04905250341579312,-0.17011326047093092,-0.017804503208636427
3.7852700900111813,,1.3299227952957153,-1.0466095209121704,-0.31925368309020996,-0.573978066444397,2.00573992729187,1.3043274879455566,-0.5985995531082153,-2.01472544670105,-0.44072580337524414,0.5716592669487,-0.7412710785865784,0.5788710117340088,,1.0229462385177612,1.1744320392608643,-0.028028905391693115,0.26801806688308716,2.046398162841797,0.05279289186000824,-0.6312456130981445,1.8469442129135132,1.1421394348144531,0.7456850409507751,0.06627285480499268,0.6386825442314148,,0.17118248343467712,1.551703929901123,0.7123823761940002,0.9560487866401672,0.4883863925933838,-0.02599753439426422,-0.27884167432785034,2.7502787113189697,0.7966018915176392,0.11789710819721222,0.80012047290802,1.3342379331588745,,-0.8265254858638782,-0.2720487109603068,0.10559837598,-0.6399737075147683,0.09140981834307967,-0.08123623426443202,0.01764115914250216,,-0.8755339486837069,0.35577858078264896,0.15654775814000002,1.5842075230255817,0.04905250341579312,-0.17011326047093092,-0.017804503208636427
3.849375146004604,,1.3299227952957153,-1.0466095209121704,-0.31925368309020996,-0.573978066444397,2.00573992729187,1.3043274879455566,-0.5985995531082153,-2.01472544670105,-0.44072580337524414,0.5716592669487,-0.7412710785865784,0.5788710117340088,,1.0229462385177612,1.1744320392608643,-0.028028905391693115,0.26801806688308716,2.046398162841797,0.05279289186000824,-0.6312456130981445,1.8469442129135132,1.1421394348144531,0.7456850409507751,0.06627285480499268,0.6386825442314148,,0.17118248343467712,1.551703929901123,0.7123823761940002,0.9560487866401672,0.4883863925933838,-0.02599753439426422,-0.27884167432785034,2.7502787113189697,0.7966018915176392,0.11789710819721222,0.80012047290802,1.3342379331588745,,-0.8265254858638782,-0.2720487109603068,0.10559837598,-0.6399737075147683,0.09140981834307967,-0.08123623426443202,0.01764115914250216,,-0.8755339486837069,0.35577858078264896,0.15654775814000002,1.5842075230255817,0.04905250341579312,-0.17011326047093092,-0.017804503208636427
3.894996749004349,,1.3299227952957153,-1.0466095209121704,-0.31925368309020996,-0.573978066444397,2.00573992729187,1.3043274879455566,-0.5985995531082153,-2.01472544670105,-0.44072580337524414,0.5716592669487,-0.7412710785865784,0.5788710117340088,,1.0229462385177612,1.1744320392608643,-0.028028905391693115,0.26801806688308716,2.046398162841797,0.05279289186000824,-0.6312456130981445,1.8469442129135132,1.1421394348144531,0.7456850409507751,0.06627285480499268,0.6386825442314148,,0.17118248343467712,1.551703929901123,0.7123823761940002,0.9560487866401672,0.4883863925933838,-0.02599753439426422,-0.27884167432785034,2.7502787113189697,0.7966018915176392,0.11789710819721222,0.80012047290802,1.3342379331588745,,-0.8265254858638782,-0.2720487109603068,0.10559837598,-0.6399737075147683,0.09140981834307967,-0.08123623426443202,0.01764115914250216,,-0.8755339486837069,0.35577858078264896,0.15654775814000002,1.5842075230255817,0.04905250341579312,-0.17011326047093092,-0.017804503208636427
3.946737538994057,,1.3299227952957153,-1.0466095209121704,-0.31925368309020996,-0.573978066444397,2.00573992729187,1.3043274879455566,-0.5985995531082153,-2.01472544670105,-0.44072580337524414,0.5716592669487,-0.7412710785865784,0.5788710117340088,,1.0229462385177612,1.1744320392608643,-0.028028905391693115,0.26801806688308716,2.046398162841797,0.05279289186000824,-0.6312456130981445,1.8469442129135132,1.1421394348144531,0.7456850409507751,0.06627285480499268,0.6386825442314148,,0.17118248343467712,1.551703929901123,0.7123823761940002,0.9560487866401672,0.4883863925933838,-0.02599753439426422,-0.27884167432785034,2.7502787113189697,0.7966018915176392,0.11789710819721222,0.80012047290802,1.3342379331588745,,-0.8265254858638782,-0.2720487109603068,0.10559837598,-0.6399737075147683,0.09140981834307967,-0.08123623426443202,0.01764115914250216,,-0.8755339486837069,0.35577858078264896,0.15654775814000002,1.5842075230255817,0.04905250341579312,-0.17011326047093092,-0.017804503208636427
4.0022289250046015,,1.3299227952957153,-1.0466095209121704,-0.31925368309020996,-0.573978066444397,2.00573992729187,1.3043274879455566,-0.5985995531082153,-2.01472544670105,-0.44072580337524414,0.5716592669487,-0.7412710785865784,0.5788710117340088,,1.0229462385177612,1.1744320392608643,-0.028028905391693115,0.26801806688308716,2.046398162841797,0.05279289186000824,-0.6312456130981445,1.8469442129135132,1.1421394348144531,0.7456850409507751,0.06627285480499268,0.6386825442314148,,0.17118248343467712,1.551703929901123,0.7123823761940002,0.9560487866401672,0.4883863925933838,-0.02599753439426422,-0.27884167432785034,2.7502787113189697,0.7966018915176392,0.11789710819721222,0.80012047290802,1.3342379331588745,,-0.8265254858638782,-0.2720487109603068,0.10559837598,-0.6399737075147683,0.09140981834307967,-0.08123623426443202,0.01764115914250216,,-0.8755339486837069,0.35577858078264896,0.15654775814000002,1.5842075230255817,0.04905250341579312,-0.17011326047093092,-0.017804503208636427
4.044606087991269,,1.3299227952957153,-1.0466095209121704,-0.31925368309020996,-0.573978066444397,2.00573992729187,1.3043274879455566,-0.5985995531082153,-2.01472544670105,-0.44072580337524414,0.5716592669487,-0.7412710785865784,0.5788710117340088,,1.0229462385177612,1.1744320392608643,-0.028028905391693115,0.26801806688308716,2.046398162841797,0.05279289186000824,-0.6312456130981445,1.8469442129135132,1.1421394348144531,0.7456850409507751,0.06627285480499268,0.6386825442314148,,0.17118248343467712,1.551703929901123,0.7123823761940002,0.9560487866401672,0.4883863925933838,-0.02599753439426422,-0.27884167432785034,2.7502787113189697,0.7966018915176392,0.11789710819721222,0.80012047290802,1.3342379331588745,,-0.8265254858638782,-0.2720487109603068,0.10559837598,-0.6399737075147683,0.09140981834307967,-0.08123623426443202,0.01764115914250216,,-0.8755339486837069,0.35577858078264896,0.15654775814000002,1.5842075230255817,0.04905250341579312,-0.17011326047093092,-0.017804503208636427
4.086097093997523,,1.3299227952957153,-1.0466095209121704,-0.31925368309020996,-0.573978066444397,2.00573992729187,1.3043274879455566,-0.5985995531082153,-2.01472544670105,-0.44072580337524414,0.5716592669487,-0.7412710785865784,0.5788710117340088,,1.0229462385177612,1.1744320392608643,-0.028028905391693115,0.26801806688308716,2.046398162841797,0.05279289186000824,-0.6312456130981445,1.8469442129135132,1.1421394348144531,0.7456850409507751,0.06627285480499268,0.6386825442314148,,0.17118248343467712,1.551703929901123,0.7123823761940002,0.9560487866401672,0.4883863925933838,-0.02599753439426422,-0.27884167432785034,2.7502787113189697,0.7966018915176392,0.11789710819721222,0.80012047290802,1.3342379331588745,,-0.8265254858638782,-0.2720487109603068,0.10559837598,-0.6399737075147683,0.09140981834307967,-0.08123623426443202,0.01764115914250216,,-0.8755339486837069,0.35577858078264896,0.15654775814000002,1.5842075230255817,0.04905250341579312,-0.17011326047093092,-0.017804503208636427
4.13216336700134,,1.3299227952957153,-1.0466095209121704,-0.31925368309020996,-0.573978066444397,2.00573992729187,1.3043274879455566,-0.5985995531082153,-2.01472544670105,-0.44072580337524414,0.5716592669487,-0.7412710785865784,0.5788710117340088,,1.0229462385177612,1.1744320392608643,-0.028028905391693115,0.26801806688308716,2.046398162841797,0.05279289186000824,-0.6312456130981445,1.8469442129135132,1.1421394348144531,0.7456850409507751,0.06627285480499268,0.6386825442314148,,0.17118248343467712,1.551703929901123,0.7123823761940002,0.9560487866401672,0.4883863925933838,-0.02599753439426422,-0.27884167432785034,2.7502787113189697,0.7966018915176392,0.11789710819721222,0.80012047290802,1.3342379331588745,,-0.8265254858638782,-0.2720487109603068,0.10559837598,-0.6399737075147683,0.09140981834307967,-0.08123623426443202,0.01764115914250216,,-0.8755339486837069,0.35577858078264896,0.15654775814000002,1.5842075230255817,0.04905250341579312,-0.17011326047093092,-0.017804503208636427
4.191679187992122,,1.3299227952957153,-1.0466095209121704,-0.31925368309020996,-0.573978066444397,2.00573992729187,1.3043274879455566,-0.5985995531082153,-2.01472544670105,-0.44072580337524414,0.5716592669487,-0.7412710785865784,0.5788710117340088,,1.0229462385177612,1.1744320392608643,-0.028028905391693115,0.26801806688308716,2.046398162841797,0.05279289186000824,-0.6312456130981445,1.8469442129135132,1.1421394348144531,0.7456850409507751,0.06627285480499268,0.6386825442314148,,0.17118248343467712,1.551703929901123,0.7123823761940002,0.9560487866401672,0.4883863925933838,-0.02599753439426422,-0.27884167432785034,2.7502787113189697,0.7966018915176392,0.11789710819721222,0.80012047290802,1.3342379331588745,,-0.8265254858638782,-0.2720487109603068,0.10559837598,-0.6399737075147683,0.09140981834307967,-0.08123623426443202,0.01764115914250216,,-0.8755339486837069,0.35577858078264896,0.15654775814000002,1.5842075230255817,0.04905250341579312,-0.17011326047093092,-0.017804503208636427
4.233787533012219,,1.3299227952957153,-1.0466095209121704,-0.31925368309020996,-0.573978066444397,2.00573992729187,1.3043274879455566,-0.5985995531082153,-2.01472544670105,-0.44072580337524414,0.5716592669487,-0.7412710785865784,0.5788710117340088,,1.0229462385177612,1.1744320392608643,-0.028028905391693115,0.26801806688308716,2.046398162841797,0.05279289186000824,-0.6312456130981445,1.8469442129135132,1.1421394348144531,0.7456850409507751,0.06627285480499268,0.6386825442314148,,0.17118248343467712,1.551703929901123,0.7123823761940002,0.9560487866401672,0.4883863925933838,-0.02599753439426422,-0.27884167432785034,2.7502787113189697,0.7966018915176392,0.11789710819721222,0.80012047290802,1.3342379331588745,,-0.8265254858638782,-0.2720487109603068,0.10559837598,-0.6399737075147683,0.09140981834307967,-0.08123623426443202,0.01764115914250216,,-0.8755339486837069,0.35577858078264896,0.15654775814000002,1.5842075230255817,0.04905250341579312,-0.17011326047093092,-0.017804503208636427
4.283621523005422,,1.3299227952957153,-1.0466095209121704,-0.31925368309020996,-0.573978066444397,2.00573992729187,1.3043274879455566,-0.5985995531082153,-2.01472544670105,-0.44072580337524414,0.5716592669487,-0.7412710785865784,0.5788710117340088,,1.0229462385177612,1.1744320392608643,-0.028028905391693115,0.26801806688308716,2.046398162841797,0.05279289186000824,-0.6312456130981445,1.8469442129135132,1.1421394348144531,0.7456850409507751,0.06627285480499268,0.6386825442314148,,0.17118248343467712,1.551703929901123,0.7123823761940002,0.9560487866401672,0.4883863925933838,-0.02599753439426422,-0.27884167432785034,2.7502787113189697,0.7966018915176392,0.11789710819721222,0.80012047290802,1.3342379331588745,,-0.8265254858638782,-0.2720487109603068,0.10559837598,-0.6399737075147683,0.09140981834307967,-0.08123623426443202,0.01764115914250216,,-0.8755339486837069,0.35577858078264896,0.15654775814000002,1.5842075230255817,0.04905250341579312,-0.17011326047093092,-0.017804503208636427
4.332041501009371,,1.3299227952957153,-1.0466095209121704,-0.31925368309020996,-0.573978066444397,2.00573992729187,1.3043274879455566,-0.5985995531082153,-2.01472544670105,-0.44072580337524414,0.5716592669487,-0.7412710785865784,0.5788710117340088,,1.0229462385177612,1.1744320392608643,-0.028028905391693115,0.26801806688308716,2.046398162841797,0.05279289186000824,-0.6312456130981445,1.8469442129135132,1.1421394348144531,0.7456850409507751,0.06627285480499268,0.6386825442314148,,0.17118248343467712,1.551703929901123,0.7123823761940002,0.9560487866401672,0.4883863925933838,-0.02599753439426422,-0.27884167432785034,2.7502787113189697,0.7966018915176392,0.11789710819721222,0.80012047290802,1.3342379331588745,,-0.8265254858638782,-0.2720487109603068,0.10559837598,-0.6399737075147683,0.09140981834307967,-0.08123623426443202,0.01764115914250216,,-0.8755339486837069,0.35577858078264896,0.15654775814000002,1.5842075230255817,0.04905250341579312,-0.17011326047093092,-0.017804503208636427
4.365766864997568,,1.3299227952957153,-1.0466095209121704,-0.31925368309020996,-0.573978066444397,2.00573992729187,1.3043274879455566,-0.5985995531082153,-2.01472544670105,-0.44072580337524414,0.5716592669487,-0.7412710785865784,0.5788710117340088,,1.0229462385177612,1.1744320392608643,-0.028028905391693115,0.26801806688308716,2.046398162841797,0.05279289186000824,-0.6312456130981445,1.8469442129135132,1.1421394348144531,0.7456850409507751,0.06627285480499268,0.6386825442314148,,0.17118248343467712,1.551703929901123,0.7123823761940002,0.9560487866401672,0.4883863925933838,-0.02599753439426422,-0.27884167432785034,2.7502787113189697,0.7966018915176392,0.11789710819721222,0.80012047290802,1.3342379331588745,,-0.8265254858638782,-0.2720487109603068,0.10559837598,-0.6399737075147683,0.09140981834307967,-0.08123623426443202,0.01764115914250216,,-0.8755339486837069,0.35577858078264896,0.15654775814000002,1.5842075230255817,0.04905250341579312,-0.17011326047093092,-0.017804503208636427
