AlexandreBanks6/ExpertPlaybackApp/resources/Motions/Motion_29.csv
Time,si_T_psm1,Tx,Ty,Tz,R00,R01,R02,R10,R11,R12,R20,R21,R22,si_T_psm3,Tx,Ty,Tz,R00,R01,R02,R10,R11,R12,R20,R21,R22,si_T_ecm,Tx,Ty,Tz,R00,R01,R02,R10,R11,R12,R20,R21,R22,joint_vars_psm1,q1,q2,q3,q4,q5,q6,jaw,joint_vars_psm3,q1,q2,q3,q4,q5,q6,jaw
lci_T_si
,,-0.054495238,0.06751902,0.47661215,0.9996616,0.023549872,0.011047421,0.024860695,-0.98992974,-0.13935962,0.007654269,0.13958712,-0.9901802
rci_T_si
,,-0.072237924,0.07989245,0.5695228,0.99280995,0.0020615282,0.11968351,0.016571593,-0.9925909,-0.120369025,0.11854862,0.12148691,-0.9854883
ecm_T_lc
,,-0.039348,0.051043153,-0.2725159,-0.9888841,-0.12934415,0.07333705,0.13224038,-0.9905602,0.036096916,0.06797584,0.045393787,0.9966537
ecm_T_rc
,,0.010096899,0.19171284,-0.6841031,-0.99695045,-0.013193613,-0.07691395,0.014341901,-0.9997935,-0.014396289,-0.07670814,-0.015455482,0.99693376
0.026621575001627207,,0.03997556,0.03302911,0.35017943,-0.7318487,-0.55329025,-0.39782828,-0.65847325,0.4237787,0.6219523,-0.17552897,0.7171342,-0.67446864,,0.0024617333,-0.0065732244,0.580833,0.54650956,-0.80792135,0.22043222,-0.6627327,-0.25632298,0.703622,-0.5119693,-0.5306238,-0.67551875,,0.025548976,-0.018243903,0.20360951,-0.9912039,0.10784444,0.07670984,0.114988945,0.98873806,0.095784195,-0.06551613,0.103762455,-0.99244183,,-0.32317320258767307,-0.004927103573755237,0.09345084239000001,0.0010484497174226219,0.0013663649976544045,0.008360554819341004,-0.001960128793611352,,-1.4642610438844639,0.1734216894235856,0.08959437964000001,-0.006919768134989304,-0.017079562470680057,-0.0016734014047947105,0.0017967847274770708
0.054556168033741415,,0.03997507,0.033028662,0.35017934,-0.73184574,-0.5532902,-0.39783388,-0.6584781,0.42377877,0.62194717,-0.17552373,0.7171342,-0.67447,,0.0024622474,-0.0065730605,0.5808333,0.5465106,-0.80791897,0.2204384,-0.6627325,-0.25631845,0.70362395,-0.5119687,-0.5306295,-0.6755147,,0.025548976,-0.018243903,0.20360951,-0.9912039,0.10784444,0.07670984,0.114988945,0.98873806,0.095784195,-0.06551613,0.103762455,-0.99244183,,-0.32317320258767307,-0.004934826306629462,0.09345084239000001,0.0010484497174226219,0.0013663649976544045,0.008360554819341004,-0.001960128793611352,,-1.4642687666173382,0.1734216894235856,0.08959437964000001,-0.006919768134989304,-0.017079562470680057,-0.0016734014047947105,0.0017967847274770708
0.09557734400732443,,0.039974697,0.033028945,0.3501798,-0.7318457,-0.55328715,-0.39783823,-0.6584781,0.4237739,0.6219504,-0.17552373,0.7171394,-0.6744645,,0.0024627578,-0.006572908,0.5808337,0.54651153,-0.8079167,0.2204446,-0.6627322,-0.25631383,0.70362586,-0.511968,-0.5306353,-0.67551076,,0.025548976,-0.018243903,0.20360951,-0.9912039,0.10784444,0.07670984,0.114988945,0.98873806,0.095784195,-0.06551613,0.103762455,-0.99244183,,-0.3231654798547988,-0.004934826306629462,0.09345084239000001,0.0010484497174226219,0.0013663649976544045,0.008360554819341004,-0.001960128793611352,,-1.4642764893502125,0.1734216894235856,0.08959437964000001,-0.006919768134989304,-0.017079562470680057,-0.0016734014047947105,0.0017967847274770708
0.16110658401157707,,0.03997556,0.03302911,0.35017943,-0.7318487,-0.55329025,-0.39782828,-0.65847325,0.4237787,0.6219523,-0.17552897,0.7171342,-0.67446864,,0.0024624094,-0.0065724794,0.58083403,0.5465132,-0.8079167,0.22044043,-0.66272676,-0.2563138,0.703631,-0.5119732,-0.53063536,-0.6755068,,0.025548976,-0.018243903,0.20360951,-0.9912039,0.10784444,0.07670984,0.114988945,0.98873806,0.095784195,-0.06551613,0.103762455,-0.99244183,,-0.32317320258767307,-0.004927103573755237,0.09345084239000001,0.0010484497174226219,0.0013663649976544045,0.008360554819341004,-0.001960128793611352,,-1.4642764893502125,0.17342941215645982,0.08959437964000001,-0.006919768134989304,-0.017079562470680057,-0.0016734014047947105,0.0017967847274770708
0.1951335920020938,,0.03997507,0.033028662,0.35017934,-0.73184574,-0.5532902,-0.39783388,-0.6584781,0.42377877,0.62194717,-0.17552373,0.7171342,-0.67447,,0.0024613813,-0.0065728035,0.5808334,0.5465113,-0.80792135,0.22042805,-0.66272724,-0.25632295,0.7036271,-0.5119746,-0.5306238,-0.6755148,,0.025548976,-0.018243903,0.20360951,-0.9912039,0.10784444,0.07670984,0.114988945,0.98873806,0.095784195,-0.06551613,0.103762455,-0.99244183,,-0.32317320258767307,-0.004934826306629462,0.09345084239000001,0.0010484497174226219,0.0013663649976544045,0.008360554819341004,-0.001960128793611352,,-1.4642610438844639,0.17342941215645982,0.08959437964000001,-0.006919768134989304,-0.017079562470680057,-0.0016734014047947105,0.0017967847274770708
0.24350544501794502,,0.03997507,0.033028662,0.35017934,-0.73184574,-0.5532902,-0.39783388,-0.6584781,0.42377877,0.62194717,-0.17552373,0.7171342,-0.67447,,0.0024622474,-0.0065730605,0.5808333,0.5465106,-0.80791897,0.2204384,-0.6627325,-0.25631845,0.70362395,-0.5119687,-0.5306295,-0.6755147,,0.025548976,-0.018243903,0.20360951,-0.9912039,0.10784444,0.07670984,0.114988945,0.98873806,0.095784195,-0.06551613,0.103762455,-0.99244183,,-0.32317320258767307,-0.004934826306629462,0.09345084239000001,0.0010484497174226219,0.0013663649976544045,0.008360554819341004,-0.001960128793611352,,-1.4642687666173382,0.1734216894235856,0.08959437964000001,-0.006919768134989304,-0.017079562470680057,-0.0016734014047947105,0.0017967847274770708
0.29456301702884957,,0.03997556,0.03302911,0.35017943,-0.7318487,-0.55329025,-0.39782828,-0.65847325,0.4237787,0.6219523,-0.17552897,0.7171342,-0.67446864,,0.0024625752,-0.0065719057,0.5808346,0.5465159,-0.8079144,0.22044244,-0.66272104,-0.25630918,0.703638,-0.5119778,-0.53064114,-0.6754987,,0.025548976,-0.018243903,0.20360951,-0.9912039,0.10784444,0.07670984,0.114988945,0.98873806,0.095784195,-0.06551613,0.103762455,-0.99244183,,-0.32317320258767307,-0.004927103573755237,0.09345084239000001,0.0010484497174226219,0.0013663649976544045,0.008360554819341004,-0.001960128793611352,,-1.4642842120830866,0.17343713488933404,0.08959437964000001,-0.006919768134989304,-0.017079562470680057,-0.0016734014047947105,0.0017967847274770708
0.34257404698291793,,0.03997556,0.03302911,0.35017943,-0.7318487,-0.55329025,-0.39782828,-0.65847325,0.4237787,0.6219523,-0.17552897,0.7171342,-0.67446864,,0.0024618953,-0.0065726433,0.5808337,0.5465122,-0.80791897,0.22043425,-0.662727,-0.2563184,0.7036291,-0.51197386,-0.5306296,-0.6755108,,0.025548976,-0.018243903,0.20360951,-0.9912039,0.10784444,0.07670984,0.114988945,0.98873806,0.095784195,-0.06551613,0.103762455,-0.99244183,,-0.32317320258767307,-0.004927103573755237,0.09345084239000001,0.0010484497174226219,0.0013663649976544045,0.008360554819341004,-0.001960128793611352,,-1.4642687666173382,0.17342941215645982,0.08959437964000001,-0.006919768134989304,-0.017079562470680057,-0.0016734014047947105,0.0017967847274770708
0.3787453330005519,,0.039974697,0.033028945,0.3501798,-0.7318457,-0.55328715,-0.39783823,-0.6584781,0.4237739,0.6219504,-0.17552373,0.7171394,-0.6744645,,0.0024622474,-0.0065730605,0.5808333,0.5465106,-0.80791897,0.2204384,-0.6627325,-0.25631845,0.70362395,-0.5119687,-0.5306295,-0.6755147,,0.025548976,-0.018243903,0.20360951,-0.9912039,0.10784444,0.07670984,0.114988945,0.98873806,0.095784195,-0.06551613,0.103762455,-0.99244183,,-0.3231654798547988,-0.004934826306629462,0.09345084239000001,0.0010484497174226219,0.0013663649976544045,0.008360554819341004,-0.001960128793611352,,-1.4642687666173382,0.1734216894235856,0.08959437964000001,-0.006919768134989304,-0.017079562470680057,-0.0016734014047947105,0.0017967847274770708
0.4380730410339311,,0.03997556,0.03302911,0.35017943,-0.7318487,-0.55329025,-0.39782828,-0.65847325,0.4237787,0.6219523,-0.17552897,0.7171342,-0.67446864,,0.0024627578,-0.006572908,0.5808337,0.54651153,-0.8079167,0.2204446,-0.6627322,-0.25631383,0.70362586,-0.511968,-0.5306353,-0.67551076,,0.025548976,-0.018243903,0.20360951,-0.9912039,0.10784444,0.07670984,0.114988945,0.98873806,0.095784195,-0.06551613,0.103762455,-0.99244183,,-0.32317320258767307,-0.004927103573755237,0.09345084239000001,0.0010484497174226219,0.0013663649976544045,0.008360554819341004,-0.001960128793611352,,-1.4642764893502125,0.1734216894235856,0.08959437964000001,-0.006919768134989304,-0.017079562470680057,-0.0016734014047947105,0.0017967847274770708
0.4772615510155447,,0.03997556,0.03302911,0.35017943,-0.7318487,-0.55329025,-0.39782828,-0.65847325,0.4237787,0.6219523,-0.17552897,0.7171342,-0.67446864,,0.0024632718,-0.006572744,0.58083403,0.5465125,-0.8079144,0.2204508,-0.6627319,-0.25630927,0.7036277,-0.5119673,-0.5306411,-0.6755067,,0.025548976,-0.018243903,0.20360951,-0.9912039,0.10784444,0.07670984,0.114988945,0.98873806,0.095784195,-0.06551613,0.103762455,-0.99244183,,-0.32317320258767307,-0.004927103573755237,0.09345084239000001,0.0010484497174226219,0.0013663649976544045,0.008360554819341004,-0.001960128793611352,,-1.4642842120830866,0.1734216894235856,0.08959437964000001,-0.006919768134989304,-0.017079562470680057,-0.0016734014047947105,0.0017967847274770708
0.526404561009258,,0.039974697,0.033028945,0.3501798,-0.7318457,-0.55328715,-0.39783823,-0.6584781,0.4237739,0.6219504,-0.17552373,0.7171394,-0.6744645,,0.0024618953,-0.0065726433,0.5808337,0.5465122,-0.80791897,0.22043425,-0.662727,-0.2563184,0.7036291,-0.51197386,-0.5306296,-0.6755108,,0.025548976,-0.018243903,0.20360951,-0.9912039,0.10784444,0.07670984,0.114988945,0.98873806,0.095784195,-0.06551613,0.103762455,-0.99244183,,-0.3231654798547988,-0.004934826306629462,0.09345084239000001,0.0010484497174226219,0.0013663649976544045,0.008360554819341004,-0.001960128793611352,,-1.4642687666173382,0.17342941215645982,0.08959437964000001,-0.006919768134989304,-0.017079562470680057,-0.0016734014047947105,0.0017967847274770708
0.5730653959908523,,0.03997556,0.03302911,0.35017943,-0.7318487,-0.55329025,-0.39782828,-0.65847325,0.4237787,0.6219523,-0.17552897,0.7171342,-0.67446864,,0.0024622474,-0.0065730605,0.5808333,0.5465106,-0.80791897,0.2204384,-0.6627325,-0.25631845,0.70362395,-0.5119687,-0.5306295,-0.6755147,,0.025548976,-0.018243903,0.20360951,-0.9912039,0.10784444,0.07670984,0.114988945,0.98873806,0.095784195,-0.06551613,0.103762455,-0.99244183,,-0.32317320258767307,-0.004927103573755237,0.09345084239000001,0.0010484497174226219,0.0013663649976544045,0.008360554819341004,-0.001960128793611352,,-1.4642687666173382,0.1734216894235856,0.08959437964000001,-0.006919768134989304,-0.017079562470680057,-0.0016734014047947105,0.0017967847274770708
0.6233398590120487,,0.03997556,0.03302911,0.35017943,-0.7318487,-0.55329025,-0.39782828,-0.65847325,0.4237787,0.6219523,-0.17552897,0.7171342,-0.67446864,,0.0024627578,-0.006572908,0.5808337,0.54651153,-0.8079167,0.2204446,-0.6627322,-0.25631383,0.70362586,-0.511968,-0.5306353,-0.67551076,,0.025548976,-0.018243903,0.20360951,-0.9912039,0.10784444,0.07670984,0.114988945,0.98873806,0.095784195,-0.06551613,0.103762455,-0.99244183,,-0.32317320258767307,-0.004927103573755237,0.09345084239000001,0.0010484497174226219,0.0013663649976544045,0.008360554819341004,-0.001960128793611352,,-1.4642764893502125,0.1734216894235856,0.08959437964000001,-0.006919768134989304,-0.017079562470680057,-0.0016734014047947105,0.0017967847274770708
0.6758855790249072,,0.039974812,0.033029683,0.35018042,-0.7318487,-0.5532841,-0.39783686,-0.6584733,0.42376906,0.6219588,-0.175529,0.7171446,-0.67445755,,0.0024627578,-0.006572908,0.5808337,0.54651153,-0.8079167,0.2204446,-0.6627322,-0.25631383,0.70362586,-0.511968,-0.5306353,-0.67551076,,0.025548976,-0.018243903,0.20360951,-0.9912039,0.10784444,0.07670984,0.114988945,0.98873806,0.095784195,-0.06551613,0.103762455,-0.99244183,,-0.3231577571219246,-0.004927103573755237,0.09345084239000001,0.0010484497174226219,0.0013663649976544045,0.008360554819341004,-0.001960128793611352,,-1.4642764893502125,0.1734216894235856,0.08959437964000001,-0.006919768134989304,-0.017079562470680057,-0.0016734014047947105,0.0017967847274770708
0.7097254770342261,,0.039975185,0.033029392,0.35017994,-0.7318487,-0.5532872,-0.3978325,-0.6584733,0.42377388,0.6219555,-0.17552899,0.7171394,-0.67446315,,0.0024622474,-0.0065730605,0.5808333,0.5465106,-0.80791897,0.2204384,-0.6627325,-0.25631845,0.70362395,-0.5119687,-0.5306295,-0.6755147,,0.025548976,-0.018243903,0.20360951,-0.9912039,0.10784444,0.07670984,0.114988945,0.98873806,0.095784195,-0.06551613,0.103762455,-0.99244183,,-0.3231654798547988,-0.004927103573755237,0.09345084239000001,0.0010484497174226219,0.0013663649976544045,0.008360554819341004,-0.001960128793611352,,-1.4642687666173382,0.1734216894235856,0.08959437964000001,-0.006919768134989304,-0.017079562470680057,-0.0016734014047947105,0.0017967847274770708
0.7594859360251576,,0.039975442,0.03302837,0.35017884,-0.73184574,-0.5532933,-0.39782962,-0.6584781,0.42378357,0.6219439,-0.1755237,0.717129,-0.67447555,,0.0024622474,-0.0065730605,0.5808333,0.5465106,-0.80791897,0.2204384,-0.6627325,-0.25631845,0.70362395,-0.5119687,-0.5306295,-0.6755147,,0.025548976,-0.018243903,0.20360951,-0.9912039,0.10784444,0.07670984,0.114988945,0.98873806,0.095784195,-0.06551613,0.103762455,-0.99244183,,-0.32318092532054726,-0.004934826306629462,0.09345084239000001,0.0010484497174226219,0.0013663649976544045,0.008360554819341004,-0.001960128793611352,,-1.4642687666173382,0.1734216894235856,0.08959437964000001,-0.006919768134989304,-0.017079562470680057,-0.0016734014047947105,0.0017967847274770708
0.8088165079825558,,0.03997507,0.033028662,0.35017934,-0.73184574,-0.5532902,-0.39783388,-0.6584781,0.42377877,0.62194717,-0.17552373,0.7171342,-0.67447,,0.0024629217,-0.0065723266,0.5808343,0.54651415,-0.8079144,0.22044663,-0.66272646,-0.25630924,0.70363295,-0.51197255,-0.5306411,-0.6755028,,0.025548976,-0.018243903,0.20360951,-0.9912039,0.10784444,0.07670984,0.114988945,0.98873806,0.095784195,-0.06551613,0.103762455,-0.99244183,,-0.32317320258767307,-0.004934826306629462,0.09345084239000001,0.0010484497174226219,0.0013663649976544045,0.008360554819341004,-0.001960128793611352,,-1.4642842120830866,0.17342941215645982,0.08959437964000001,-0.006919768134989304,-0.017079562470680057,-0.0016734014047947105,0.0017967847274770708
0.8428433330263942,,0.03999698,0.033010233,0.35017544,-0.7318364,-0.5533019,-0.39783478,-0.6584832,0.4237586,0.6219554,-0.17554319,0.7171371,-0.67446196,,0.0023561157,-0.006547183,0.5808421,0.546458,-0.80794305,0.22048034,-0.662774,-0.25626475,0.7036043,-0.5119708,-0.53061885,-0.67552155,,0.02555465,-0.018252261,0.20361318,-0.9912033,0.10784913,0.076710425,0.114993684,0.9887375,0.09578412,-0.065516226,0.103762746,-0.99244183,,-0.3231654798547988,-0.004927103573755237,0.09345084239000001,0.0010484497174226219,0.0013663649976544045,0.008360554819341004,-0.001960128793611352,,-1.4642842120830866,0.17343713488933404,0.08959437964000001,-0.006919768134989304,-0.017079562470680057,-0.0016734014047947105,0.0017967847274770708
0.894513335020747,,0.039997242,0.033009224,0.35017437,-0.73183334,-0.55330795,-0.39783186,-0.658488,0.42376828,0.62194383,-0.17553791,0.71712667,-0.6744743,,0.0023549236,-0.0065480806,0.58084077,0.5464535,-0.80795,0.22046596,-0.6627803,-0.25627849,0.7035934,-0.5119676,-0.5306015,-0.6755377,,0.02555465,-0.018252261,0.20361318,-0.9912033,0.10784913,0.076710425,0.114993684,0.9887375,0.09578412,-0.065516226,0.103762746,-0.99244183,,-0.32318092532054726,-0.004934826306629462,0.09345084239000001,0.0010484497174226219,0.0013663649976544045,0.008360554819341004,-0.001960128793611352,,-1.4642610438844639,0.17342941215645982,0.08959437964000001,-0.006919768134989304,-0.017079562470680057,-0.0016734014047947105,0.0017967847274770708
0.9411389250308275,,0.039997358,0.03300995,0.35017496,-0.7318364,-0.553305,-0.39783052,-0.6584832,0.42376342,0.6219522,-0.17554319,0.7171319,-0.67446744,,0.002355272,-0.0065485053,0.5808404,0.5464518,-0.80795,0.22047013,-0.6627857,-0.25627854,0.70358825,-0.5119624,-0.5306015,-0.67554164,,0.02555465,-0.018252261,0.20361318,-0.9912033,0.10784913,0.076710425,0.114993684,0.9887375,0.09578412,-0.065516226,0.103762746,-0.99244183,,-0.32317320258767307,-0.004927103573755237,0.09345084239000001,0.0010484497174226219,0.0013663649976544045,0.008360554819341004,-0.001960128793611352,,-1.4642610438844639,0.1734216894235856,0.08959437964000001,-0.006919768134989304,-0.017079562470680057,-0.0016734014047947105,0.0017967847274770708
0.9814353290130384,,0.039996866,0.0330095,0.3501748,-0.73183334,-0.5533049,-0.3978361,-0.65848804,0.42376342,0.62194705,-0.17553793,0.7171319,-0.67446876,,0.002356464,-0.0065476038,0.5808418,0.5464564,-0.80794305,0.22048452,-0.6627795,-0.25626478,0.70359915,-0.51196563,-0.5306188,-0.6755256,,0.02555465,-0.018252261,0.20361318,-0.9912033,0.10784913,0.076710425,0.114993684,0.9887375,0.09578412,-0.065516226,0.103762746,-0.99244183,,-0.32317320258767307,-0.004934826306629462,0.09345084239000001,0.0010484497174226219,0.0013663649976544045,0.008360554819341004,-0.001960128793611352,,-1.4642842120830866,0.17342941215645982,0.08959437964000001,-0.006919768134989304,-0.017079562470680057,-0.0016734014047947105,0.0017967847274770708
1.0347570159938186,,0.039997358,0.03300995,0.35017496,-0.7318364,-0.553305,-0.39783052,-0.6584832,0.42376342,0.6219522,-0.17554319,0.7171319,-0.67446744,,0.0023554377,-0.006547924,0.58084106,0.5464544,-0.80794775,0.22047214,-0.66278005,-0.2562739,0.70359534,-0.51196694,-0.5306073,-0.67553365,,0.02555465,-0.018252261,0.20361318,-0.9912033,0.10784913,0.076710425,0.114993684,0.9887375,0.09578412,-0.065516226,0.103762746,-0.99244183,,-0.32318092532054726,-0.004927103573755237,0.09345084239000001,0.0010484497174226219,0.0013663649976544045,0.008360554819341004,-0.001960128793611352,,-1.4642687666173382,0.17342941215645982,0.08959437964000001,-0.006919768134989304,-0.017079562470680057,-0.0016734014047947105,0.0017967847274770708
1.0830464090104215,,0.039996866,0.0330095,0.3501748,-0.73183334,-0.5533049,-0.3978361,-0.65848804,0.42376342,0.62194705,-0.17553793,0.7171319,-0.67446876,,0.002355272,-0.0065485053,0.5808404,0.5464518,-0.80795,0.22047013,-0.6627857,-0.25627854,0.70358825,-0.5119624,-0.5306015,-0.67554164,,0.02555465,-0.018252261,0.20361318,-0.9912033,0.10784913,0.076710425,0.114993684,0.9887375,0.09578412,-0.065516226,0.103762746,-0.99244183,,-0.32317320258767307,-0.004934826306629462,0.09345084239000001,0.0010484497174226219,0.0013663649976544045,0.008360554819341004,-0.001960128793611352,,-1.4642610438844639,0.1734216894235856,0.08959437964000001,-0.006919768134989304,-0.017079562470680057,-0.0016734014047947105,0.0017967847274770708
1.1370546630350873,,0.039996494,0.03300979,0.3501753,-0.73183334,-0.5533018,-0.39784044,-0.65848804,0.42375866,0.6219504,-0.17553794,0.7171371,-0.6744633,,0.0023562983,-0.006548181,0.5808411,0.5464537,-0.80794543,0.22048251,-0.6627851,-0.2562694,0.70359206,-0.51196104,-0.53061306,-0.67553353,,0.02555465,-0.018252261,0.20361318,-0.9912033,0.10784913,0.076710425,0.114993684,0.9887375,0.09578412,-0.065516226,0.103762746,-0.99244183,,-0.3231654798547988,-0.004934826306629462,0.09345084239000001,0.0010484497174226219,0.0013663649976544045,0.008360554819341004,-0.001960128793611352,,-1.4642764893502125,0.1734216894235856,0.08959437964000001,-0.006919768134989304,-0.017079562470680057,-0.0016734014047947105,0.0017967847274770708
1.1754883769899607,,0.03999698,0.033010233,0.35017544,-0.7318364,-0.5533019,-0.39783478,-0.6584832,0.4237586,0.6219554,-0.17554319,0.7171371,-0.67446196,,0.0023568124,-0.006548021,0.5808414,0.54645467,-0.80794305,0.2204887,-0.66278493,-0.25626484,0.70359397,-0.5119604,-0.5306188,-0.6755295,,0.02555465,-0.018252261,0.20361318,-0.9912033,0.10784913,0.076710425,0.114993684,0.9887375,0.09578412,-0.065516226,0.103762746,-0.99244183,,-0.3231654798547988,-0.004927103573755237,0.09345084239000001,0.0010484497174226219,0.0013663649976544045,0.008360554819341004,-0.001960128793611352,,-1.4642842120830866,0.1734216894235856,0.08959437964000001,-0.006919768134989304,-0.017079562470680057,-0.0016734014047947105,0.0017967847274770708
1.2285748590365984,,0.039997775,0.033010326,0.35017502,-0.73188704,-0.55331755,-0.39771968,-0.6584035,0.42378122,0.6220245,-0.1756309,0.71711165,-0.67446613,,0.002355786,-0.006548345,0.58084077,0.54645276,-0.80794775,0.22047631,-0.6627854,-0.25627396,0.70359015,-0.5119617,-0.5306072,-0.6755376,,0.02555465,-0.018252261,0.20361318,-0.9912033,0.10784913,0.076710425,0.114993684,0.9887375,0.09578412,-0.065516226,0.103762746,-0.99244183,,-0.32317320258767307,-0.004934826306629462,0.09345084239000001,0.0010484497174226219,0.001503001497419845,0.008330815655785147,-0.0017967847274770726,,-1.4642687666173382,0.1734216894235856,0.08959437964000001,-0.006919768134989304,-0.017079562470680057,-0.0016734014047947105,0.0017967847274770708
1.27451006002957,,0.039997894,0.03301106,0.35017562,-0.7318901,-0.553282,-0.39776355,-0.6583987,0.42372555,0.6220674,-0.17563617,0.71717197,-0.6744007,,0.002355272,-0.0065485053,0.5808404,0.5464518,-0.80795,0.22047013,-0.6627857,-0.25627854,0.70358825,-0.5119624,-0.5306015,-0.67554164,,0.02555465,-0.018252261,0.20361318,-0.9912033,0.10784913,0.076710425,0.114993684,0.9887375,0.09578412,-0.065516226,0.103762746,-0.99244183,,-0.3231654798547988,-0.004927103573755237,0.09345084239000001,0.0010484497174226219,0.001503001497419845,0.008412494395925708,-0.001633440661342793,,-1.4642610438844639,0.1734216894235856,0.08959437964000001,-0.006919768134989304,-0.017079562470680057,-0.0016734014047947105,0.0017967847274770708
1.3260313849896193,,0.039998643,0.033010483,0.35017467,-0.7318901,-0.55328816,-0.39775497,-0.6583986,0.42373514,0.6220609,-0.17563614,0.71716154,-0.6744118,,0.002355786,-0.006548345,0.58084077,0.54645276,-0.80794775,0.22047631,-0.6627854,-0.25627396,0.70359015,-0.5119617,-0.5306072,-0.6755376,,0.02555465,-0.018252261,0.20361318,-0.9912033,0.10784913,0.076710425,0.114993684,0.9887375,0.09578412,-0.065516226,0.103762746,-0.99244183,,-0.32318092532054726,-0.004927103573755237,0.09345084239000001,0.0010484497174226219,0.001503001497419845,0.008412494395925708,-0.001633440661342793,,-1.4642687666173382,0.1734216894235856,0.08959437964000001,-0.006919768134989304,-0.017079562470680057,-0.0016734014047947105,0.0017967847274770708
1.3638278970029205,,0.039997775,0.033010326,0.35017502,-0.73188704,-0.55328506,-0.39776492,-0.6584035,0.42373037,0.62205905,-0.1756309,0.7171667,-0.67440754,,0.002355786,-0.006548345,0.58084077,0.54645276,-0.80794775,0.22047631,-0.6627854,-0.25627396,0.70359015,-0.5119617,-0.5306072,-0.6755376,,0.02555465,-0.018252261,0.20361318,-0.9912033,0.10784913,0.076710425,0.114993684,0.9887375,0.09578412,-0.065516226,0.103762746,-0.99244183,,-0.32317320258767307,-0.004934826306629462,0.09345084239000001,0.0010484497174226219,0.001503001497419845,0.008412494395925708,-0.001633440661342793,,-1.4642687666173382,0.1734216894235856,0.08959437964000001,-0.006919768134989304,-0.017079562470680057,-0.0016734014047947105,0.0017967847274770708
1.4260996379889548,,0.039997403,0.03301061,0.35017553,-0.73188704,-0.553282,-0.39776915,-0.6584035,0.4237256,0.62206227,-0.17563091,0.7171719,-0.674402,,0.0023562983,-0.006548181,0.5808411,0.5464537,-0.80794543,0.22048251,-0.6627851,-0.2562694,0.70359206,-0.51196104,-0.53061306,-0.67553353,,0.02555465,-0.018252261,0.20361318,-0.9912033,0.10784913,0.076710425,0.114993684,0.9887375,0.09578412,-0.065516226,0.103762746,-0.99244183,,-0.3231654798547988,-0.004934826306629462,0.09345084239000001,0.0010484497174226219,0.001503001497419845,0.008412494395925708,-0.001633440661342793,,-1.4642764893502125,0.1734216894235856,0.08959437964000001,-0.006919768134989304,-0.017079562470680057,-0.0016734014047947105,0.0017967847274770708
1.459596298984252,,0.039998267,0.033010766,0.35017514,-0.7318901,-0.55328506,-0.3977592,-0.6583986,0.42373034,0.6220641,-0.17563614,0.7171667,-0.67440623,,0.0023562983,-0.006548181,0.5808411,0.5464537,-0.80794543,0.22048251,-0.6627851,-0.2562694,0.70359206,-0.51196104,-0.53061306,-0.67553353,,0.02555465,-0.018252261,0.20361318,-0.9912033,0.10784913,0.076710425,0.114993684,0.9887375,0.09578412,-0.065516226,0.103762746,-0.99244183,,-0.32317320258767307,-0.004927103573755237,0.09345084239000001,0.0010484497174226219,0.001503001497419845,0.008412494395925708,-0.001633440661342793,,-1.4642764893502125,0.1734216894235856,0.08959437964000001,-0.006919768134989304,-0.017079562470680057,-0.0016734014047947105,0.0017967847274770708
1.5281040100380778,,0.039997775,0.033010326,0.35017502,-0.73188704,-0.55328506,-0.39776492,-0.6584035,0.42373037,0.62205905,-0.1756309,0.7171667,-0.67440754,,0.002355786,-0.006548345,0.58084077,0.54645276,-0.80794775,0.22047631,-0.6627854,-0.25627396,0.70359015,-0.5119617,-0.5306072,-0.6755376,,0.02555465,-0.018252261,0.20361318,-0.9912033,0.10784913,0.076710425,0.114993684,0.9887375,0.09578412,-0.065516226,0.103762746,-0.99244183,,-0.32317320258767307,-0.004934826306629462,0.09345084239000001,0.0010484497174226219,0.001503001497419845,0.008412494395925708,-0.001633440661342793,,-1.4642687666173382,0.1734216894235856,0.08959437964000001,-0.006919768134989304,-0.017079562470680057,-0.0016734014047947105,0.0017967847274770708
1.5600038610282354,,0.039997894,0.03301106,0.35017562,-0.7318901,-0.553282,-0.39776355,-0.6583987,0.42372555,0.6220674,-0.17563617,0.71717197,-0.6744007,,0.0023562983,-0.006548181,0.5808411,0.5464537,-0.80794543,0.22048251,-0.6627851,-0.2562694,0.70359206,-0.51196104,-0.53061306,-0.67553353,,0.02555465,-0.018252261,0.20361318,-0.9912033,0.10784913,0.076710425,0.114993684,0.9887375,0.09578412,-0.065516226,0.103762746,-0.99244183,,-0.3231654798547988,-0.004927103573755237,0.09345084239000001,0.0010484497174226219,0.001503001497419845,0.008412494395925708,-0.001633440661342793,,-1.4642764893502125,0.1734216894235856,0.08959437964000001,-0.006919768134989304,-0.017079562470680057,-0.0016734014047947105,0.0017967847274770708
1.6238197840284556,,0.039998267,0.033010766,0.35017514,-0.7318901,-0.55328506,-0.3977592,-0.6583986,0.42373034,0.6220641,-0.17563614,0.7171667,-0.67440623,,0.0023549236,-0.0065480806,0.58084077,0.5464535,-0.80795,0.22046596,-0.6627803,-0.25627849,0.7035934,-0.5119676,-0.5306015,-0.6755377,,0.02555465,-0.018252261,0.20361318,-0.9912033,0.10784913,0.076710425,0.114993684,0.9887375,0.09578412,-0.065516226,0.103762746,-0.99244183,,-0.32317320258767307,-0.004927103573755237,0.09345084239000001,0.0010484497174226219,0.001503001497419845,0.008412494395925708,-0.001633440661342793,,-1.4642610438844639,0.17342941215645982,0.08959437964000001,-0.006919768134989304,-0.017079562470680057,-0.0016734014047947105,0.0017967847274770708
1.6580799280200154,,0.039997775,0.033010326,0.35017502,-0.73188704,-0.55328506,-0.39776492,-0.6584035,0.42373037,0.62205905,-0.1756309,0.7171667,-0.67440754,,0.0023562983,-0.006548181,0.5808411,0.5464537,-0.80794543,0.22048251,-0.6627851,-0.2562694,0.70359206,-0.51196104,-0.53061306,-0.67553353,,0.02555465,-0.018252261,0.20361318,-0.9912033,0.10784913,0.076710425,0.114993684,0.9887375,0.09578412,-0.065516226,0.103762746,-0.99244183,,-0.32317320258767307,-0.004934826306629462,0.09345084239000001,0.0010484497174226219,0.001503001497419845,0.008412494395925708,-0.001633440661342793,,-1.4642764893502125,0.1734216894235856,0.08959437964000001,-0.006919768134989304,-0.017079562470680057,-0.0016734014047947105,0.0017967847274770708
1.7255681360256858,,0.039998267,0.033010766,0.35017514,-0.7318901,-0.55328506,-0.3977592,-0.6583986,0.42373034,0.6220641,-0.17563614,0.7171667,-0.67440623,,0.0023568124,-0.006548021,0.5808414,0.54645467,-0.80794305,0.2204887,-0.66278493,-0.25626484,0.70359397,-0.5119604,-0.5306188,-0.6755295,,0.02555465,-0.018252261,0.20361318,-0.9912033,0.10784913,0.076710425,0.114993684,0.9887375,0.09578412,-0.065516226,0.103762746,-0.99244183,,-0.32317320258767307,-0.004927103573755237,0.09345084239000001,0.0010484497174226219,0.001503001497419845,0.008412494395925708,-0.001633440661342793,,-1.4642842120830866,0.1734216894235856,0.08959437964000001,-0.006919768134989304,-0.017079562470680057,-0.0016734014047947105,0.0017967847274770708
1.7543937870068476,,0.039998643,0.033010483,0.35017467,-0.7318901,-0.55328816,-0.39775497,-0.6583986,0.42373514,0.6220609,-0.17563614,0.71716154,-0.6744118,,0.0023568124,-0.006548021,0.5808414,0.54645467,-0.80794305,0.2204887,-0.66278493,-0.25626484,0.70359397,-0.5119604,-0.5306188,-0.6755295,,0.02555465,-0.018252261,0.20361318,-0.9912033,0.10784913,0.076710425,0.114993684,0.9887375,0.09578412,-0.065516226,0.103762746,-0.99244183,,-0.32318092532054726,-0.004927103573755237,0.09345084239000001,0.0010484497174226219,0.001503001497419845,0.008412494395925708,-0.001633440661342793,,-1.4642842120830866,0.1734216894235856,0.08959437964000001,-0.006919768134989304,-0.017079562470680057,-0.0016734014047947105,0.0017967847274770708
1.8200861710356548,,0.039997403,0.03301061,0.35017553,-0.73188704,-0.553282,-0.39776915,-0.6584035,0.4237256,0.62206227,-0.17563091,0.7171719,-0.674402,,0.002355786,-0.006548345,0.58084077,0.54645276,-0.80794775,0.22047631,-0.6627854,-0.25627396,0.70359015,-0.5119617,-0.5306072,-0.6755376,,0.02555465,-0.018252261,0.20361318,-0.9912033,0.10784913,0.076710425,0.114993684,0.9887375,0.09578412,-0.065516226,0.103762746,-0.99244183,,-0.3231654798547988,-0.004934826306629462,0.09345084239000001,0.0010484497174226219,0.001503001497419845,0.008412494395925708,-0.001633440661342793,,-1.4642687666173382,0.1734216894235856,0.08959437964000001,-0.006919768134989304,-0.017079562470680057,-0.0016734014047947105,0.0017967847274770708
1.8650646770256571,,0.039997894,0.03301106,0.35017562,-0.7318901,-0.553282,-0.39776355,-0.6583987,0.42372555,0.6220674,-0.17563617,0.71717197,-0.6744007,,0.002355786,-0.006548345,0.58084077,0.54645276,-0.80794775,0.22047631,-0.6627854,-0.25627396,0.70359015,-0.5119617,-0.5306072,-0.6755376,,0.02555465,-0.018252261,0.20361318,-0.9912033,0.10784913,0.076710425,0.114993684,0.9887375,0.09578412,-0.065516226,0.103762746,-0.99244183,,-0.3231654798547988,-0.004927103573755237,0.09345084239000001,0.0010484497174226219,0.001503001497419845,0.008412494395925708,-0.001633440661342793,,-1.4642687666173382,0.1734216894235856,0.08959437964000001,-0.006919768134989304,-0.017079562470680057,-0.0016734014047947105,0.0017967847274770708
1.9236409300356172,,0.039997775,0.033010326,0.35017502,-0.73188704,-0.55328506,-0.39776492,-0.6584035,0.42373037,0.62205905,-0.1756309,0.7171667,-0.67440754,,0.0023561157,-0.006547183,0.5808421,0.546458,-0.80794305,0.22048034,-0.662774,-0.25626475,0.7036043,-0.5119708,-0.53061885,-0.67552155,,0.02555465,-0.018252261,0.20361318,-0.9912033,0.10784913,0.076710425,0.114993684,0.9887375,0.09578412,-0.065516226,0.103762746,-0.99244183,,-0.32317320258767307,-0.004934826306629462,0.09345084239000001,0.0010484497174226219,0.001503001497419845,0.008412494395925708,-0.001633440661342793,,-1.4642842120830866,0.17343713488933404,0.08959437964000001,-0.006919768134989304,-0.017079562470680057,-0.0016734014047947105,0.0017967847274770708
1.9538697880343534,,0.039997775,0.033010326,0.35017502,-0.73188704,-0.55328506,-0.39776492,-0.6584035,0.42373037,0.62205905,-0.1756309,0.7171667,-0.67440754,,0.0023559518,-0.006547764,0.5808414,0.5464553,-0.80794543,0.22047833,-0.66277975,-0.25626934,0.70359725,-0.5119663,-0.53061306,-0.6755296,,0.02555465,-0.018252261,0.20361318,-0.9912033,0.10784913,0.076710425,0.114993684,0.9887375,0.09578412,-0.065516226,0.103762746,-0.99244183,,-0.32317320258767307,-0.004934826306629462,0.09345084239000001,0.0010484497174226219,0.001503001497419845,0.008412494395925708,-0.001633440661342793,,-1.4642764893502125,0.17342941215645982,0.08959437964000001,-0.006919768134989304,-0.017079562470680057,-0.0016734014047947105,0.0017967847274770708
1.9964549720170908,,0.039980046,0.033033025,0.3501802,-0.7319101,-0.5532653,-0.3977501,-0.65837806,0.4237428,0.62207747,-0.17563011,0.71717465,-0.6743992,,0.002382962,-0.006582726,0.5808404,0.5464474,-0.80795914,0.22044808,-0.6627875,-0.25629452,0.70358074,-0.5119648,-0.53058004,-0.67555654,,0.025617545,-0.018279415,0.2036147,-0.99121195,0.107776515,0.076701306,0.114920385,0.9887459,0.09578535,-0.06551468,0.10375813,-0.99244237,,-0.3231654798547988,-0.004927103573755237,0.09345084239000001,0.0010484497174226219,0.001503001497419845,0.008412494395925708,-0.001633440661342793,,-1.4642610438844639,0.1734216894235856,0.08959437964000001,-0.006919768134989304,-0.017079562470680057,-0.0016734014047947105,0.0017967847274770708
2.0420654520276003,,0.039980307,0.033032004,0.35017914,-0.7319072,-0.55327135,-0.39774716,-0.65838283,0.4237525,0.6220659,-0.17562483,0.7171642,-0.6744117,,0.0023834761,-0.0065825656,0.5808407,0.54644835,-0.80795676,0.22045426,-0.66278726,-0.25628996,0.7035827,-0.5119641,-0.53058577,-0.67555255,,0.025617545,-0.018279415,0.2036147,-0.99121195,0.107776515,0.076701306,0.114920385,0.9887459,0.09578535,-0.06551468,0.10375813,-0.99244237,,-0.32318092532054726,-0.004934826306629462,0.09345084239000001,0.0010484497174226219,0.001503001497419845,0.008412494395925708,-0.001633440661342793,,-1.4642687666173382,0.1734216894235856,0.08959437964000001,-0.006919768134989304,-0.017079562470680057,-0.0016734014047947105,0.0017967847274770708
2.0943847129819915,,0.039979935,0.033032294,0.3501796,-0.73190707,-0.55326825,-0.39775154,-0.65838283,0.42374766,0.6220692,-0.17562483,0.7171695,-0.6744061,,0.0023834761,-0.0065825656,0.5808407,0.54644835,-0.80795676,0.22045426,-0.66278726,-0.25628996,0.7035827,-0.5119641,-0.53058577,-0.67555255,,0.025617545,-0.018279415,0.2036147,-0.99121195,0.107776515,0.076701306,0.114920385,0.9887459,0.09578535,-0.06551468,0.10375813,-0.99244237,,-0.32317320258767307,-0.004934826306629462,0.09345084239000001,0.0010484497174226219,0.001503001497419845,0.008412494395925708,-0.001633440661342793,,-1.4642687666173382,0.1734216894235856,0.08959437964000001,-0.006919768134989304,-0.017079562470680057,-0.0016734014047947105,0.0017967847274770708
2.1444242260186,,0.039980046,0.033033025,0.3501802,-0.7319101,-0.5532653,-0.3977501,-0.65837806,0.4237428,0.62207747,-0.17563011,0.71717465,-0.6743992,,0.002382962,-0.006582726,0.5808404,0.5464474,-0.80795914,0.22044808,-0.6627875,-0.25629452,0.70358074,-0.5119648,-0.53058004,-0.67555654,,0.025617545,-0.018279415,0.2036147,-0.99121195,0.107776515,0.076701306,0.114920385,0.9887459,0.09578535,-0.06551468,0.10375813,-0.99244237,,-0.3231654798547988,-0.004927103573755237,0.09345084239000001,0.0010484497174226219,0.001503001497419845,0.008412494395925708,-0.001633440661342793,,-1.4642610438844639,0.1734216894235856,0.08959437964000001,-0.006919768134989304,-0.017079562470680057,-0.0016734014047947105,0.0017967847274770708
2.181473475997336,,0.039979935,0.033032294,0.3501796,-0.73190707,-0.55326825,-0.39775154,-0.65838283,0.42374766,0.6220692,-0.17562483,0.7171695,-0.6744061,,0.002382962,-0.006582726,0.5808404,0.5464474,-0.80795914,0.22044808,-0.6627875,-0.25629452,0.70358074,-0.5119648,-0.53058004,-0.67555654,,0.025617545,-0.018279415,0.2036147,-0.99121195,0.107776515,0.076701306,0.114920385,0.9887459,0.09578535,-0.06551468,0.10375813,-0.99244237,,-0.32317320258767307,-0.004934826306629462,0.09345084239000001,0.0010484497174226219,0.001503001497419845,0.008412494395925708,-0.001633440661342793,,-1.4642610438844639,0.1734216894235856,0.08959437964000001,-0.006919768134989304,-0.017079562470680057,-0.0016734014047947105,0.0017967847274770708
2.2429158790037036,,0.039979182,0.033032864,0.35018057,-0.73190707,-0.5532622,-0.39776,-0.65838283,0.423738,0.6220756,-0.17562486,0.7171799,-0.6743951,,0.0023845006,-0.006582249,0.5808414,0.54645026,-0.8079521,0.22046664,-0.6627867,-0.2562808,0.7035865,-0.5119628,-0.5305973,-0.6755445,,0.025617545,-0.018279415,0.2036147,-0.99121195,0.107776515,0.076701306,0.114920385,0.9887459,0.09578535,-0.06551468,0.10375813,-0.99244237,,-0.3231577571219246,-0.004934826306629462,0.09345084239000001,0.0010484497174226219,0.001503001497419845,0.008412494395925708,-0.001633440661342793,,-1.4642842120830866,0.1734216894235856,0.08959437964000001,-0.006919768134989304,-0.017079562470680057,-0.0016734014047947105,0.0017967847274770708
2.2745345840230584,,0.039980046,0.033033025,0.3501802,-0.7319101,-0.5532653,-0.3977501,-0.65837806,0.4237428,0.62207747,-0.17563011,0.71717465,-0.6743992,,0.002383804,-0.0065814108,0.580842,0.54645365,-0.8079521,0.2204583,-0.6627758,-0.25628072,0.70359683,-0.5119732,-0.5305974,-0.6755366,,0.025617545,-0.018279415,0.2036147,-0.99121195,0.107776515,0.076701306,0.114920385,0.9887459,0.09578535,-0.06551468,0.10375813,-0.99244237,,-0.3231654798547988,-0.004927103573755237,0.09345084239000001,0.0010484497174226219,0.001503001497419845,0.008412494395925708,-0.001633440661342793,,-1.4642842120830866,0.17343713488933404,0.08959437964000001,-0.006919768134989304,-0.017079562470680057,-0.0016734014047947105,0.0017967847274770708
2.3246299070306122,,0.039980423,0.033032734,0.35017976,-0.7319101,-0.5532683,-0.39774582,-0.65837806,0.4237476,0.62207425,-0.1756301,0.71716946,-0.67440474,,0.002383126,-0.0065821484,0.58084106,0.54645,-0.80795676,0.22045009,-0.66278183,-0.2562899,0.7035878,-0.5119693,-0.5305858,-0.67554855,,0.025617545,-0.018279415,0.2036147,-0.99121195,0.107776515,0.076701306,0.114920385,0.9887459,0.09578535,-0.06551468,0.10375813,-0.99244237,,-0.32317320258767307,-0.004927103573755237,0.09345084239000001,0.0010484497174226219,0.001503001497419845,0.008412494395925708,-0.001633440661342793,,-1.4642687666173382,0.17342941215645982,0.08959437964000001,-0.006919768134989304,-0.017079562470680057,-0.0016734014047947105,0.0017967847274770708
2.36690007901052,,0.039979935,0.033032294,0.3501796,-0.73190707,-0.55326825,-0.39775154,-0.65838283,0.42374766,0.6220692,-0.17562483,0.7171695,-0.6744061,,0.002382962,-0.006582726,0.5808404,0.5464474,-0.80795914,0.22044808,-0.6627875,-0.25629452,0.70358074,-0.5119648,-0.53058004,-0.67555654,,0.025617545,-0.018279415,0.2036147,-0.99121195,0.107776515,0.076701306,0.114920385,0.9887459,0.09578535,-0.06551468,0.10375813,-0.99244237,,-0.32317320258767307,-0.004934826306629462,0.09345084239000001,0.0010484497174226219,0.001503001497419845,0.008412494395925708,-0.001633440661342793,,-1.4642610438844639,0.1734216894235856,0.08959437964000001,-0.006919768134989304,-0.017079562470680057,-0.0016734014047947105,0.0017967847274770708
2.419397427001968,,0.039980046,0.033033025,0.3501802,-0.7319101,-0.5532653,-0.3977501,-0.65837806,0.4237428,0.62207747,-0.17563011,0.71717465,-0.6743992,,0.0023839865,-0.006582413,0.58084106,0.5464493,-0.8079544,0.22046044,-0.6627869,-0.25628537,0.70358455,-0.5119634,-0.5305916,-0.6755485,,0.025617545,-0.018279415,0.2036147,-0.99121195,0.107776515,0.076701306,0.114920385,0.9887459,0.09578535,-0.06551468,0.10375813,-0.99244237,,-0.3231654798547988,-0.004927103573755237,0.09345084239000001,0.0010484497174226219,0.001503001497419845,0.008412494395925708,-0.001633440661342793,,-1.4642764893502125,0.1734216894235856,0.08959437964000001,-0.006919768134989304,-0.017079562470680057,-0.0016734014047947105,0.0017967847274770708
2.4503587399958633,,0.039980046,0.033033025,0.3501802,-0.7319101,-0.5532653,-0.3977501,-0.65837806,0.4237428,0.62207747,-0.17563011,0.71717465,-0.6743992,,0.0023845006,-0.006582249,0.5808414,0.54645026,-0.8079521,0.22046664,-0.6627867,-0.2562808,0.7035865,-0.5119628,-0.5305973,-0.6755445,,0.025617545,-0.018279415,0.2036147,-0.99121195,0.107776515,0.076701306,0.114920385,0.9887459,0.09578535,-0.06551468,0.10375813,-0.99244237,,-0.3231654798547988,-0.004927103573755237,0.09345084239000001,0.0010484497174226219,0.001503001497419845,0.008412494395925708,-0.001633440661342793,,-1.4642842120830866,0.1734216894235856,0.08959437964000001,-0.006919768134989304,-0.017079562470680057,-0.0016734014047947105,0.0017967847274770708
2.506288768025115,,0.039979935,0.033032294,0.3501796,-0.73190707,-0.55326825,-0.39775154,-0.65838283,0.42374766,0.6220692,-0.17562483,0.7171695,-0.6744061,,0.0023834761,-0.0065825656,0.5808407,0.54644835,-0.80795676,0.22045426,-0.66278726,-0.25628996,0.7035827,-0.5119641,-0.53058577,-0.67555255,,0.025617545,-0.018279415,0.2036147,-0.99121195,0.107776515,0.076701306,0.114920385,0.9887459,0.09578535,-0.06551468,0.10375813,-0.99244237,,-0.32317320258767307,-0.004934826306629462,0.09345084239000001,0.0010484497174226219,0.001503001497419845,0.008412494395925708,-0.001633440661342793,,-1.4642687666173382,0.1734216894235856,0.08959437964000001,-0.006919768134989304,-0.017079562470680057,-0.0016734014047947105,0.0017967847274770708
2.544215162983164,,0.03997956,0.03303258,0.35018012,-0.73190707,-0.5532652,-0.39775577,-0.65838283,0.42374283,0.6220724,-0.17562485,0.71717465,-0.6744006,,0.0023834761,-0.0065825656,0.5808407,0.54644835,-0.80795676,0.22045426,-0.66278726,-0.25628996,0.7035827,-0.5119641,-0.53058577,-0.67555255,,0.025617545,-0.018279415,0.2036147,-0.99121195,0.107776515,0.076701306,0.114920385,0.9887459,0.09578535,-0.06551468,0.10375813,-0.99244237,,-0.3231654798547988,-0.004934826306629462,0.09345084239000001,0.0010484497174226219,0.001503001497419845,0.008412494395925708,-0.001633440661342793,,-1.4642687666173382,0.1734216894235856,0.08959437964000001,-0.006919768134989304,-0.017079562470680057,-0.0016734014047947105,0.0017967847274770708
2.601914047030732,,0.0399808,0.033032447,0.35017926,-0.7319101,-0.5532714,-0.3977416,-0.65837806,0.42375246,0.62207097,-0.17563008,0.7171642,-0.67441034,,0.0023834761,-0.0065825656,0.5808407,0.54644835,-0.80795676,0.22045426,-0.66278726,-0.25628996,0.7035827,-0.5119641,-0.53058577,-0.67555255,,0.025617545,-0.018279415,0.2036147,-0.99121195,0.107776515,0.076701306,0.114920385,0.9887459,0.09578535,-0.06551468,0.10375813,-0.99244237,,-0.32318092532054726,-0.004927103573755237,0.09345084239000001,0.0010484497174226219,0.001503001497419845,0.008412494395925708,-0.001633440661342793,,-1.4642687666173382,0.1734216894235856,0.08959437964000001,-0.006919768134989304,-0.017079562470680057,-0.0016734014047947105,0.0017967847274770708
2.6465190980234183,,0.039979935,0.033032294,0.3501796,-0.73190707,-0.55326825,-0.39775154,-0.65838283,0.42374766,0.6220692,-0.17562483,0.7171695,-0.6744061,,0.002382962,-0.006582726,0.5808404,0.5464474,-0.80795914,0.22044808,-0.6627875,-0.25629452,0.70358074,-0.5119648,-0.53058004,-0.67555654,,0.025617545,-0.018279415,0.2036147,-0.99121195,0.107776515,0.076701306,0.114920385,0.9887459,0.09578535,-0.06551468,0.10375813,-0.99244237,,-0.32317320258767307,-0.004934826306629462,0.09345084239000001,0.0010484497174226219,0.001503001497419845,0.008412494395925708,-0.001633440661342793,,-1.4642610438844639,0.1734216894235856,0.08959437964000001,-0.006919768134989304,-0.017079562470680057,-0.0016734014047947105,0.0017967847274770708
2.711437574995216,,0.039980423,0.033032734,0.35017976,-0.7319101,-0.5532683,-0.39774582,-0.65837806,0.4237476,0.62207425,-0.1756301,0.71716946,-0.67440474,,0.002383126,-0.0065821484,0.58084106,0.54645,-0.80795676,0.22045009,-0.66278183,-0.2562899,0.7035878,-0.5119693,-0.5305858,-0.67554855,,0.025617545,-0.018279415,0.2036147,-0.99121195,0.107776515,0.076701306,0.114920385,0.9887459,0.09578535,-0.06551468,0.10375813,-0.99244237,,-0.32317320258767307,-0.004927103573755237,0.09345084239000001,0.0010484497174226219,0.001503001497419845,0.008412494395925708,-0.001633440661342793,,-1.4642687666173382,0.17342941215645982,0.08959437964000001,-0.006919768134989304,-0.017079562470680057,-0.0016734014047947105,0.0017967847274770708
2.741870686004404,,0.039980307,0.033032004,0.35017914,-0.7319072,-0.55327135,-0.39774716,-0.65838283,0.4237525,0.6220659,-0.17562483,0.7171642,-0.6744117,,0.0023834761,-0.0065825656,0.5808407,0.54644835,-0.80795676,0.22045426,-0.66278726,-0.25628996,0.7035827,-0.5119641,-0.53058577,-0.67555255,,0.025617545,-0.018279415,0.2036147,-0.99121195,0.107776515,0.076701306,0.114920385,0.9887459,0.09578535,-0.06551468,0.10375813,-0.99244237,,-0.32318092532054726,-0.004934826306629462,0.09345084239000001,0.0010484497174226219,0.001503001497419845,0.008412494395925708,-0.001633440661342793,,-1.4642687666173382,0.1734216894235856,0.08959437964000001,-0.006919768134989304,-0.017079562470680057,-0.0016734014047947105,0.0017967847274770708
2.7938196909963153,,0.039980423,0.033032734,0.35017976,-0.7319101,-0.5532683,-0.39774582,-0.65837806,0.4237476,0.62207425,-0.1756301,0.71716946,-0.67440474,,0.0023834761,-0.0065825656,0.5808407,0.54644835,-0.80795676,0.22045426,-0.66278726,-0.25628996,0.7035827,-0.5119641,-0.53058577,-0.67555255,,0.025617545,-0.018279415,0.2036147,-0.99121195,0.107776515,0.076701306,0.114920385,0.9887459,0.09578535,-0.06551468,0.10375813,-0.99244237,,-0.32317320258767307,-0.004927103573755237,0.09345084239000001,0.0010484497174226219,0.001503001497419845,0.008412494395925708,-0.001633440661342793,,-1.4642687666173382,0.1734216894235856,0.08959437964000001,-0.006919768134989304,-0.017079562470680057,-0.0016734014047947105,0.0017967847274770708
2.8463529139989987,,0.03997956,0.03303258,0.35018012,-0.73190707,-0.5532652,-0.39775577,-0.65838283,0.42374283,0.6220724,-0.17562485,0.71717465,-0.6744006,,0.0023839865,-0.006582413,0.58084106,0.5464493,-0.8079544,0.22046044,-0.6627869,-0.25628537,0.70358455,-0.5119634,-0.5305916,-0.6755485,,0.025617545,-0.018279415,0.2036147,-0.99121195,0.107776515,0.076701306,0.114920385,0.9887459,0.09578535,-0.06551468,0.10375813,-0.99244237,,-0.3231654798547988,-0.004934826306629462,0.09345084239000001,0.0010484497174226219,0.001503001497419845,0.008412494395925708,-0.001633440661342793,,-1.4642764893502125,0.1734216894235856,0.08959437964000001,-0.006919768134989304,-0.017079562470680057,-0.0016734014047947105,0.0017967847274770708
2.8903468740172684,,0.039980423,0.033032734,0.35017976,-0.7319101,-0.5532683,-0.39774582,-0.65837806,0.4237476,0.62207425,-0.1756301,0.71716946,-0.67440474,,0.002382962,-0.006582726,0.5808404,0.5464474,-0.80795914,0.22044808,-0.6627875,-0.25629452,0.70358074,-0.5119648,-0.53058004,-0.67555654,,0.025617545,-0.018279415,0.2036147,-0.99121195,0.107776515,0.076701306,0.114920385,0.9887459,0.09578535,-0.06551468,0.10375813,-0.99244237,,-0.32317320258767307,-0.004927103573755237,0.09345084239000001,0.0010484497174226219,0.001503001497419845,0.008412494395925708,-0.001633440661342793,,-1.4642610438844639,0.1734216894235856,0.08959437964000001,-0.006919768134989304,-0.017079562470680057,-0.0016734014047947105,0.0017967847274770708
2.930865109025035,,0.039979935,0.033032294,0.3501796,-0.73190707,-0.55326825,-0.39775154,-0.65838283,0.42374766,0.6220692,-0.17562483,0.7171695,-0.6744061,,0.0023834761,-0.0065825656,0.5808407,0.54644835,-0.80795676,0.22045426,-0.66278726,-0.25628996,0.7035827,-0.5119641,-0.53058577,-0.67555255,,0.025617545,-0.018279415,0.2036147,-0.99121195,0.107776515,0.076701306,0.114920385,0.9887459,0.09578535,-0.06551468,0.10375813,-0.99244237,,-0.32317320258767307,-0.004934826306629462,0.09345084239000001,0.0010484497174226219,0.001503001497419845,0.008412494395925708,-0.001633440661342793,,-1.4642687666173382,0.1734216894235856,0.08959437964000001,-0.006919768134989304,-0.017079562470680057,-0.0016734014047947105,0.0017967847274770708
2.995525559002999,,0.0399808,0.033032447,0.35017926,-0.7319101,-0.5532714,-0.3977416,-0.65837806,0.42375246,0.62207097,-0.17563008,0.7171642,-0.67441034,,0.0023834761,-0.0065825656,0.5808407,0.54644835,-0.80795676,0.22045426,-0.66278726,-0.25628996,0.7035827,-0.5119641,-0.53058577,-0.67555255,,0.025617545,-0.018279415,0.2036147,-0.99121195,0.107776515,0.076701306,0.114920385,0.9887459,0.09578535,-0.06551468,0.10375813,-0.99244237,,-0.32318092532054726,-0.004927103573755237,0.09345084239000001,0.0010484497174226219,0.001503001497419845,0.008412494395925708,-0.001633440661342793,,-1.4642687666173382,0.1734216894235856,0.08959437964000001,-0.006919768134989304,-0.017079562470680057,-0.0016734014047947105,0.0017967847274770708
3.0456585370120592,,0.039980423,0.033032734,0.35017976,-0.7319101,-0.5532683,-0.39774582,-0.65837806,0.4237476,0.62207425,-0.1756301,0.71716946,-0.67440474,,0.0023827758,-0.006581731,0.58084136,0.5464517,-0.80795676,0.2204459,-0.66277635,-0.25628984,0.7035929,-0.5119746,-0.5305858,-0.6755446,,0.025617545,-0.018279415,0.2036147,-0.99121195,0.107776515,0.076701306,0.114920385,0.9887459,0.09578535,-0.06551468,0.10375813,-0.99244237,,-0.32317320258767307,-0.004927103573755237,0.09345084239000001,0.0010484497174226219,0.001503001497419845,0.008412494395925708,-0.001633440661342793,,-1.4642687666173382,0.17343713488933404,0.08959437964000001,-0.006919768134989304,-0.017079562470680057,-0.0016734014047947105,0.0017967847274770708
3.091026417037938,,0.03997956,0.03303258,0.35018012,-0.73190707,-0.5532652,-0.39775577,-0.65838283,0.42374283,0.6220724,-0.17562485,0.71717465,-0.6744006,,0.0023839865,-0.006582413,0.58084106,0.5464493,-0.8079544,0.22046044,-0.6627869,-0.25628537,0.70358455,-0.5119634,-0.5305916,-0.6755485,,0.025617545,-0.018279415,0.2036147,-0.99121195,0.107776515,0.076701306,0.114920385,0.9887459,0.09578535,-0.06551468,0.10375813,-0.99244237,,-0.3231654798547988,-0.004934826306629462,0.09345084239000001,0.0010484497174226219,0.001503001497419845,0.008412494395925708,-0.001633440661342793,,-1.4642764893502125,0.1734216894235856,0.08959437964000001,-0.006919768134989304,-0.017079562470680057,-0.0016734014047947105,0.0017967847274770708
3.1298227999941446,,0.040022016,0.03300105,0.35018075,-0.7318808,-0.5532852,-0.3977763,-0.6584105,0.42371947,0.62205905,-0.17563045,0.7171731,-0.67440087,,0.0024748743,-0.0065923873,0.5808488,0.5465147,-0.8079225,0.22041544,-0.66273475,-0.25634566,0.70361173,-0.51196116,-0.5306111,-0.6755349,,0.02560205,-0.018277576,0.20361902,-0.9912107,0.10778715,0.07670265,0.11493111,0.9887447,0.09578517,-0.06551491,0.10375881,-0.9924423,,-0.32318092532054726,-0.004927103573755237,0.09345084239000001,0.0010484497174226219,0.001503001497419845,0.008412494395925708,-0.001633440661342793,,-1.4642687666173382,0.1734216894235856,0.08959437964000001,-0.006919768134989304,-0.017079562470680057,-0.0016734014047947105,0.0017967847274770708
3.1874134450335987,,0.04002115,0.033000894,0.3501811,-0.73187774,-0.5532821,-0.3977862,-0.65841526,0.4237147,0.6220572,-0.1756252,0.7171783,-0.6743967,,0.002474524,-0.006591974,0.5808492,0.54651636,-0.8079225,0.22041127,-0.6627293,-0.2563456,0.7036169,-0.5119664,-0.53061116,-0.6755309,,0.02560205,-0.018277576,0.20361902,-0.9912107,0.10778715,0.07670265,0.11493111,0.9887447,0.09578517,-0.06551491,0.10375881,-0.9924423,,-0.32318092532054726,-0.004934826306629462,0.09345084239000001,0.0010484497174226219,0.001503001497419845,0.008412494395925708,-0.001633440661342793,,-1.4642687666173382,0.17342941215645982,0.08959437964000001,-0.006919768134989304,-0.017079562470680057,-0.0016734014047947105,0.0017967847274770708
3.243499881005846,,0.04002078,0.033001177,0.35018158,-0.73187774,-0.55327904,-0.3977905,-0.6584154,0.42370987,0.6220605,-0.17562523,0.71718353,-0.67439115,,0.0024750382,-0.0065918136,0.58084947,0.5465174,-0.8079201,0.22041747,-0.6627291,-0.25634104,0.7036188,-0.51196575,-0.5306169,-0.6755269,,0.02560205,-0.018277576,0.20361902,-0.9912107,0.10778715,0.07670265,0.11493111,0.9887447,0.09578517,-0.06551491,0.10375881,-0.9924423,,-0.3231654798547988,-0.004934826306629462,0.09345084239000001,0.0010484497174226219,0.001503001497419845,0.008412494395925708,-0.001633440661342793,,-1.4642764893502125,0.17342941215645982,0.08959437964000001,-0.006919768134989304,-0.017079562470680057,-0.0016734014047947105,0.0017967847274770708
3.2736954599968158,,0.04002115,0.033000894,0.3501811,-0.73187774,-0.5532821,-0.3977862,-0.65841526,0.4237147,0.6220572,-0.1756252,0.7171783,-0.6743967,,0.0024748743,-0.0065923873,0.5808488,0.5465147,-0.8079225,0.22041544,-0.66273475,-0.25634566,0.70361173,-0.51196116,-0.5306111,-0.6755349,,0.02560205,-0.018277576,0.20361902,-0.9912107,0.10778715,0.07670265,0.11493111,0.9887447,0.09578517,-0.06551491,0.10375881,-0.9924423,,-0.32317320258767307,-0.004934826306629462,0.09345084239000001,0.0010484497174226219,0.001503001497419845,0.008412494395925708,-0.001633440661342793,,-1.4642687666173382,0.1734216894235856,0.08959437964000001,-0.006919768134989304,-0.017079562470680057,-0.0016734014047947105,0.0017967847274770708
3.3307002410292625,,0.04002115,0.033000894,0.3501811,-0.73187774,-0.5532821,-0.3977862,-0.65841526,0.4237147,0.6220572,-0.1756252,0.7171783,-0.6743967,,0.0024753883,-0.006592227,0.5808491,0.54651564,-0.8079201,0.22042163,-0.6627345,-0.25634107,0.70361364,-0.5119605,-0.5306169,-0.6755309,,0.02560205,-0.018277576,0.20361902,-0.9912107,0.10778715,0.07670265,0.11493111,0.9887447,0.09578517,-0.06551491,0.10375881,-0.9924423,,-0.32317320258767307,-0.004934826306629462,0.09345084239000001,0.0010484497174226219,0.001503001497419845,0.008412494395925708,-0.001633440661342793,,-1.4642764893502125,0.1734216894235856,0.08959437964000001,-0.006919768134989304,-0.017079562470680057,-0.0016734014047947105,0.0017967847274770708
3.3835208429954946,,0.04002127,0.033001624,0.3501817,-0.7318807,-0.55327904,-0.39778483,-0.65841055,0.42370987,0.62206554,-0.17563048,0.71718353,-0.6743898,,0.0024743602,-0.006592555,0.58084846,0.54651374,-0.8079248,0.22040923,-0.6627351,-0.25635022,0.7036098,-0.5119619,-0.5306053,-0.67553896,,0.02560205,-0.018277576,0.20361902,-0.9912107,0.10778715,0.07670265,0.11493111,0.9887447,0.09578517,-0.06551491,0.10375881,-0.9924423,,-0.3231654798547988,-0.004927103573755237,0.09345084239000001,0.0010484497174226219,0.001503001497419845,0.008412494395925708,-0.001633440661342793,,-1.4642610438844639,0.1734216894235856,0.08959437964000001,-0.006919768134989304,-0.017079562470680057,-0.0016734014047947105,0.0017967847274770708
3.427362948015798,,0.04002127,0.033001624,0.3501817,-0.7318807,-0.55327904,-0.39778483,-0.65841055,0.42370987,0.62206554,-0.17563048,0.71718353,-0.6743898,,0.0024748743,-0.0065923873,0.5808488,0.5465147,-0.8079225,0.22041544,-0.66273475,-0.25634566,0.70361173,-0.51196116,-0.5306111,-0.6755349,,0.02560205,-0.018277576,0.20361902,-0.9912107,0.10778715,0.07670265,0.11493111,0.9887447,0.09578517,-0.06551491,0.10375881,-0.9924423,,-0.3231654798547988,-0.004927103573755237,0.09345084239000001,0.0010484497174226219,0.001503001497419845,0.008412494395925708,-0.001633440661342793,,-1.4642687666173382,0.1734216894235856,0.08959437964000001,-0.006919768134989304,-0.017079562470680057,-0.0016734014047947105,0.0017967847274770708
3.4671193810063414,,0.04002115,0.033000894,0.3501811,-0.73187774,-0.5532821,-0.3977862,-0.65841526,0.4237147,0.6220572,-0.1756252,0.7171783,-0.6743967,,0.002474524,-0.006591974,0.5808492,0.54651636,-0.8079225,0.22041127,-0.6627293,-0.2563456,0.7036169,-0.5119664,-0.53061116,-0.6755309,,0.02560205,-0.018277576,0.20361902,-0.9912107,0.10778715,0.07670265,0.11493111,0.9887447,0.09578517,-0.06551491,0.10375881,-0.9924423,,-0.32317320258767307,-0.004934826306629462,0.09345084239000001,0.0010484497174226219,0.001503001497419845,0.008412494395925708,-0.001633440661342793,,-1.4642687666173382,0.17342941215645982,0.08959437964000001,-0.006919768134989304,-0.017079562470680057,-0.0016734014047947105,0.0017967847274770708
3.525908662995789,,0.040021643,0.033001333,0.35018122,-0.7318808,-0.55328214,-0.39778054,-0.65841055,0.42371467,0.62206227,-0.17563047,0.7171783,-0.6743953,,0.0024748743,-0.0065923873,0.5808488,0.5465147,-0.8079225,0.22041544,-0.66273475,-0.25634566,0.70361173,-0.51196116,-0.5306111,-0.6755349,,0.02560205,-0.018277576,0.20361902,-0.9912107,0.10778715,0.07670265,0.11493111,0.9887447,0.09578517,-0.06551491,0.10375881,-0.9924423,,-0.32317320258767307,-0.004927103573755237,0.09345084239000001,0.0010484497174226219,0.001503001497419845,0.008412494395925708,-0.001633440661342793,,-1.4642687666173382,0.1734216894235856,0.08959437964000001,-0.006919768134989304,-0.017079562470680057,-0.0016734014047947105,0.0017967847274770708
3.5522827290114947,,0.040021643,0.033001333,0.35018122,-0.7318808,-0.55328214,-0.39778054,-0.65841055,0.42371467,0.62206227,-0.17563047,0.7171783,-0.6743953,,0.0024748743,-0.0065923873,0.5808488,0.5465147,-0.8079225,0.22041544,-0.66273475,-0.25634566,0.70361173,-0.51196116,-0.5306111,-0.6755349,,0.02560205,-0.018277576,0.20361902,-0.9912107,0.10778715,0.07670265,0.11493111,0.9887447,0.09578517,-0.06551491,0.10375881,-0.9924423,,-0.3231577571219246,-0.004934826306629462,0.09345084239000001,0.0010484497174226219,0.001503001497419845,0.008412494395925708,-0.001633440661342793,,-1.4642687666173382,0.1734216894235856,0.08959437964000001,-0.006919768134989304,-0.017079562470680057,-0.0016734014047947105,0.0017967847274770708
3.590725199028384,,0.040021643,0.033001333,0.35018122,-0.7318808,-0.55328214,-0.39778054,-0.65841055,0.42371467,0.62206227,-0.17563047,0.7171783,-0.6743953,,0.0024750382,-0.0065918136,0.58084947,0.5465174,-0.8079201,0.22041747,-0.6627291,-0.25634104,0.7036188,-0.51196575,-0.5306169,-0.6755269,,0.02560205,-0.018277576,0.20361902,-0.9912107,0.10778715,0.07670265,0.11493111,0.9887447,0.09578517,-0.06551491,0.10375881,-0.9924423,,-0.32317320258767307,-0.004927103573755237,0.09345084239000001,0.0010484497174226219,0.001503001497419845,0.008412494395925708,-0.001633440661342793,,-1.4642764893502125,0.17342941215645982,0.08959437964000001,-0.006919768134989304,-0.017079562470680057,-0.0016734014047947105,0.0017967847274770708
3.6405975369852968,,0.040020403,0.033001475,0.35018206,-0.73187774,-0.553276,-0.39779478,-0.6584154,0.42370504,0.6220637,-0.17562523,0.7171887,-0.6743856,,0.0024748743,-0.0065923873,0.5808488,0.5465147,-0.8079225,0.22041544,-0.66273475,-0.25634566,0.70361173,-0.51196116,-0.5306111,-0.6755349,,0.02560205,-0.018277576,0.20361902,-0.9912107,0.10778715,0.07670265,0.11493111,0.9887447,0.09578517,-0.06551491,0.10375881,-0.9924423,,-0.3231577571219246,-0.004934826306629462,0.09345084239000001,0.0010484497174226219,0.001503001497419845,0.008412494395925708,-0.001633440661342793,,-1.4642687666173382,0.1734216894235856,0.08959437964000001,-0.006919768134989304,-0.017079562470680057,-0.0016734014047947105,0.0017967847274770708
3.67989651998505,,0.04002115,0.033000894,0.3501811,-0.73187774,-0.5532821,-0.3977862,-0.65841526,0.4237147,0.6220572,-0.1756252,0.7171783,-0.6743967,,0.002474688,-0.0065913927,0.5808498,0.54651904,-0.8079201,0.22041327,-0.66272366,-0.25634098,0.7036239,-0.511971,-0.5306169,-0.6755229,,0.02560205,-0.018277576,0.20361902,-0.9912107,0.10778715,0.07670265,0.11493111,0.9887447,0.09578517,-0.06551491,0.10375881,-0.9924423,,-0.32317320258767307,-0.004934826306629462,0.09345084239000001,0.0010484497174226219,0.001503001497419845,0.008412494395925708,-0.001633440661342793,,-1.4642764893502125,0.17343713488933404,0.08959437964000001,-0.006919768134989304,-0.017079562470680057,-0.0016734014047947105,0.0017967847274770708
3.729811287019402,,0.0400219,0.03300032,0.35018015,-0.7318778,-0.55328816,-0.39777768,-0.65841526,0.42372435,0.62205064,-0.17562518,0.7171679,-0.6744078,,0.002474524,-0.006591974,0.5808492,0.54651636,-0.8079225,0.22041127,-0.6627293,-0.2563456,0.7036169,-0.5119664,-0.53061116,-0.6755309,,0.02560205,-0.018277576,0.20361902,-0.9912107,0.10778715,0.07670265,0.11493111,0.9887447,0.09578517,-0.06551491,0.10375881,-0.9924423,,-0.3231886480534215,-0.004934826306629462,0.09345084239000001,0.0010484497174226219,0.001503001497419845,0.008412494395925708,-0.001633440661342793,,-1.4642687666173382,0.17342941215645982,0.08959437964000001,-0.006919768134989304,-0.017079562470680057,-0.0016734014047947105,0.0017967847274770708
3.781829624029342,,0.040021643,0.033001333,0.35018122,-0.7318808,-0.55328214,-0.39778054,-0.65841055,0.42371467,0.62206227,-0.17563047,0.7171783,-0.6743953,,0.0024753883,-0.006592227,0.5808491,0.54651564,-0.8079201,0.22042163,-0.6627345,-0.25634107,0.70361364,-0.5119605,-0.5306169,-0.6755309,,0.02560205,-0.018277576,0.20361902,-0.9912107,0.10778715,0.07670265,0.11493111,0.9887447,0.09578517,-0.06551491,0.10375881,-0.9924423,,-0.32317320258767307,-0.004927103573755237,0.09345084239000001,0.0010484497174226219,0.001503001497419845,0.008412494395925708,-0.001633440661342793,,-1.4642764893502125,0.1734216894235856,0.08959437964000001,-0.006919768134989304,-0.017079562470680057,-0.0016734014047947105,0.0017967847274770708
3.827203308988828,,0.040020403,0.033001475,0.35018206,-0.73187774,-0.553276,-0.39779478,-0.6584154,0.42370504,0.6220637,-0.17562523,0.7171887,-0.6743856,,0.0024750382,-0.0065918136,0.58084947,0.5465174,-0.8079201,0.22041747,-0.6627291,-0.25634104,0.7036188,-0.51196575,-0.5306169,-0.6755269,,0.02560205,-0.018277576,0.20361902,-0.9912107,0.10778715,0.07670265,0.11493111,0.9887447,0.09578517,-0.06551491,0.10375881,-0.9924423,,-0.3231577571219246,-0.004934826306629462,0.09345084239000001,0.0010484497174226219,0.001503001497419845,0.008412494395925708,-0.001633440661342793,,-1.4642764893502125,0.17342941215645982,0.08959437964000001,-0.006919768134989304,-0.017079562470680057,-0.0016734014047947105,0.0017967847274770708
3.877193755004555,,0.040022388,0.033000767,0.35018027,-0.7318808,-0.5532882,-0.397772,-0.6584105,0.4237243,0.62205577,-0.17563042,0.7171679,-0.67440635,,0.0024759024,-0.0065920707,0.58084947,0.5465166,-0.80791783,0.22042781,-0.6627342,-0.2563365,0.70361555,-0.51195985,-0.53062266,-0.67552686,,0.02560205,-0.018277576,0.20361902,-0.9912107,0.10778715,0.07670265,0.11493111,0.9887447,0.09578517,-0.06551491,0.10375881,-0.9924423,,-0.3231886480534215,-0.004927103573755237,0.09345084239000001,0.0010484497174226219,0.001503001497419845,0.008412494395925708,-0.001633440661342793,,-1.4642842120830866,0.1734216894235856,0.08959437964000001,-0.006919768134989304,-0.017079562470680057,-0.0016734014047947105,0.0017967847274770708
3.9098796540056355,,0.040021524,0.033000596,0.35018063,-0.7318778,-0.5532851,-0.39778197,-0.65841526,0.42371953,0.6220539,-0.17562519,0.7171731,-0.67440224,,0.0024748743,-0.0065923873,0.5808488,0.5465147,-0.8079225,0.22041544,-0.66273475,-0.25634566,0.70361173,-0.51196116,-0.5306111,-0.6755349,,0.02560205,-0.018277576,0.20361902,-0.9912107,0.10778715,0.07670265,0.11493111,0.9887447,0.09578517,-0.06551491,0.10375881,-0.9924423,,-0.32318092532054726,-0.004934826306629462,0.09345084239000001,0.0010484497174226219,0.001503001497419845,0.008412494395925708,-0.001633440661342793,,-1.4642687666173382,0.1734216894235856,0.08959437964000001,-0.006919768134989304,-0.017079562470680057,-0.0016734014047947105,0.0017967847274770708
3.964265061018523,,0.04002127,0.033001624,0.3501817,-0.7318807,-0.55327904,-0.39778483,-0.65841055,0.42370987,0.62206554,-0.17563048,0.71718353,-0.6743898,,0.0024753883,-0.006592227,0.5808491,0.54651564,-0.8079201,0.22042163,-0.6627345,-0.25634107,0.70361364,-0.5119605,-0.5306169,-0.6755309,,0.02560205,-0.018277576,0.20361902,-0.9912107,0.10778715,0.07670265,0.11493111,0.9887447,0.09578517,-0.06551491,0.10375881,-0.9924423,,-0.3231654798547988,-0.004927103573755237,0.09345084239000001,0.0010484497174226219,0.001503001497419845,0.008412494395925708,-0.001633440661342793,,-1.4642764893502125,0.1734216894235856,0.08959437964000001,-0.006919768134989304,-0.017079562470680057,-0.0016734014047947105,0.0017967847274770708
4.014011606981512,,0.04002115,0.033000894,0.3501811,-0.73187774,-0.5532821,-0.3977862,-0.65841526,0.4237147,0.6220572,-0.1756252,0.7171783,-0.6743967,,0.0024748743,-0.0065923873,0.5808488,0.5465147,-0.8079225,0.22041544,-0.66273475,-0.25634566,0.70361173,-0.51196116,-0.5306111,-0.6755349,,0.02560205,-0.018277576,0.20361902,-0.9912107,0.10778715,0.07670265,0.11493111,0.9887447,0.09578517,-0.06551491,0.10375881,-0.9924423,,-0.32317320258767307,-0.004934826306629462,0.09345084239000001,0.0010484497174226219,0.001503001497419845,0.008412494395925708,-0.001633440661342793,,-1.4642687666173382,0.1734216894235856,0.08959437964000001,-0.006919768134989304,-0.017079562470680057,-0.0016734014047947105,0.0017967847274770708
4.0608373479917645,,0.040021524,0.033000596,0.35018063,-0.7318778,-0.5532851,-0.39778197,-0.65841526,0.42371953,0.6220539,-0.17562519,0.7171731,-0.67440224,,0.002474524,-0.006591974,0.5808492,0.54651636,-0.8079225,0.22041127,-0.6627293,-0.2563456,0.7036169,-0.5119664,-0.53061116,-0.6755309,,0.02560205,-0.018277576,0.20361902,-0.9912107,0.10778715,0.07670265,0.11493111,0.9887447,0.09578517,-0.06551491,0.10375881,-0.9924423,,-0.32318092532054726,-0.004934826306629462,0.09345084239000001,0.0010484497174226219,0.001503001497419845,0.008412494395925708,-0.001633440661342793,,-1.4642687666173382,0.17342941215645982,0.08959437964000001,-0.006919768134989304,-0.017079562470680057,-0.0016734014047947105,0.0017967847274770708
4.094960062997416,,0.040021643,0.033001333,0.35018122,-0.7318808,-0.55328214,-0.39778054,-0.65841055,0.42371467,0.62206227,-0.17563047,0.7171783,-0.6743953,,0.0024748743,-0.0065923873,0.5808488,0.5465147,-0.8079225,0.22041544,-0.66273475,-0.25634566,0.70361173,-0.51196116,-0.5306111,-0.6755349,,0.02560205,-0.018277576,0.20361902,-0.9912107,0.10778715,0.07670265,0.11493111,0.9887447,0.09578517,-0.06551491,0.10375881,-0.9924423,,-0.32317320258767307,-0.004927103573755237,0.09345084239000001,0.0010484497174226219,0.001503001497419845,0.008412494395925708,-0.001633440661342793,,-1.4642687666173382,0.1734216894235856,0.08959437964000001,-0.006919768134989304,-0.017079562470680057,-0.0016734014047947105,0.0017967847274770708
4.142663367034402,,0.04002078,0.033001177,0.35018158,-0.73187774,-0.55327904,-0.3977905,-0.6584154,0.42370987,0.6220605,-0.17562523,0.71718353,-0.67439115,,0.0024750382,-0.0065918136,0.58084947,0.5465174,-0.8079201,0.22041747,-0.6627291,-0.25634104,0.7036188,-0.51196575,-0.5306169,-0.6755269,,0.02560205,-0.018277576,0.20361902,-0.9912107,0.10778715,0.07670265,0.11493111,0.9887447,0.09578517,-0.06551491,0.10375881,-0.9924423,,-0.3231654798547988,-0.004934826306629462,0.09345084239000001,0.0010484497174226219,0.001503001497419845,0.008412494395925708,-0.001633440661342793,,-1.4642764893502125,0.17342941215645982,0.08959437964000001,-0.006919768134989304,-0.017079562470680057,-0.0016734014047947105,0.0017967847274770708
4.200520469981711,,0.04002115,0.033000894,0.3501811,-0.73187774,-0.5532821,-0.3977862,-0.65841526,0.4237147,0.6220572,-0.1756252,0.7171783,-0.6743967,,0.002474524,-0.006591974,0.5808492,0.54651636,-0.8079225,0.22041127,-0.6627293,-0.2563456,0.7036169,-0.5119664,-0.53061116,-0.6755309,,0.02560205,-0.018277576,0.20361902,-0.9912107,0.10778715,0.07670265,0.11493111,0.9887447,0.09578517,-0.06551491,0.10375881,-0.9924423,,-0.3231654798547988,-0.004934826306629462,0.09345084239000001,0.0010484497174226219,0.001503001497419845,0.008412494395925708,-0.001633440661342793,,-1.4642687666173382,0.17342941215645982,0.08959437964000001,-0.006919768134989304,-0.017079562470680057,-0.0016734014047947105,0.0017967847274770708
4.248697012022603,,0.04002115,0.033000894,0.3501811,-0.73187774,-0.5532821,-0.3977862,-0.65841526,0.4237147,0.6220572,-0.1756252,0.7171783,-0.6743967,,0.00247401,-0.006592134,0.5808488,0.54651546,-0.8079248,0.22040507,-0.6627296,-0.2563502,0.70361495,-0.51196706,-0.5306054,-0.6755349,,0.02560205,-0.018277576,0.20361902,-0.9912107,0.10778715,0.07670265,0.11493111,0.9887447,0.09578517,-0.06551491,0.10375881,-0.9924423,,-0.32317320258767307,-0.004934826306629462,0.09345084239000001,0.0010484497174226219,0.001503001497419845,0.008412494395925708,-0.001633440661342793,,-1.4642610438844639,0.17342941215645982,0.08959437964000001,-0.006919768134989304,-0.017079562470680057,-0.0016734014047947105,0.0017967847274770708
4.303620890015736,,0.040029757,0.032976784,0.35017088,-0.7318587,-0.5533691,-0.39770013,-0.6584302,0.42378992,0.6219902,-0.17564884,0.71706665,-0.67450917,,0.002390204,-0.00656512,0.58083177,0.54645085,-0.8079616,0.22043012,-0.6627719,-0.256298,0.7035942,-0.51198125,-0.5305745,-0.6755483,,0.025578847,-0.0182621,0.20361055,-0.9912084,0.10780631,0.07670505,0.11495047,0.9887425,0.09578484,-0.06551531,0.103760034,-0.99244213,,-0.32317320258767307,-0.0049193808408810125,0.09345084239000001,0.0010484497174226219,0.001503001497419845,0.008249136915644583,-0.001960128793611352,,-1.4642687666173382,0.17342941215645982,0.08959437964000001,-0.006919768134989304,-0.017079562470680057,-0.0016734014047947105,0.0017967847274770708
4.348947509017307,,0.040036745,0.032983724,0.35017312,-0.73190415,-0.5533668,-0.39761975,-0.6583586,0.42378438,0.6220698,-0.17572767,0.7170718,-0.67448324,,0.0023915824,-0.0065652207,0.58083206,0.54645115,-0.80795693,0.22044668,-0.66277677,-0.25628886,0.70359296,-0.5119747,-0.53058606,-0.6755444,,0.025578847,-0.0182621,0.20361055,-0.9912084,0.10780631,0.07670505,0.11495047,0.9887425,0.09578484,-0.06551531,0.103760034,-0.99244213,,-0.3231654798547988,-0.004803539847767645,0.09345084239000001,0.0010484497174226219,0.001503001497419845,0.008249136915644583,-0.001960128793611352,,-1.4642842120830866,0.1734216894235856,0.08959437964000001,-0.006919768134989304,-0.017079562470680057,-0.0016734014047947105,0.0017967847274770708
4.391216924006585,,0.040045112,0.032988776,0.35017288,-0.7319467,-0.5533796,-0.39752358,-0.65829164,0.42380303,0.6221279,-0.17580119,0.7170509,-0.6744863,,0.002390042,-0.006565701,0.5808311,0.5464482,-0.80796385,0.22042811,-0.66277766,-0.25630257,0.7035871,-0.5119767,-0.5305687,-0.6755564,,0.025578847,-0.0182621,0.20361055,-0.9912084,0.10780631,0.07670505,0.11495047,0.9887425,0.09578484,-0.06551531,0.103760034,-0.99244213,,-0.3231963707862957,-0.0046954215875285015,0.09345084239000001,0.0010484497174226219,0.001503001497419845,0.008249136915644583,-0.001960128793611352,,-1.4642610438844639,0.1734216894235856,0.08959437964000001,-0.006919768134989304,-0.017079562470680057,-0.0016734014047947105,0.0017967847274770708
4.4456531460164115,,0.04000306,0.032958336,0.35016388,-0.7317098,-0.55335784,-0.39798972,-0.6586643,0.42377776,0.6217506,-0.1753914,0.71708256,-0.6745593,,0.002390556,-0.006565541,0.5808314,0.5464492,-0.8079616,0.22043431,-0.6627773,-0.256298,0.7035891,-0.51197606,-0.5305745,-0.67555237,,0.025578847,-0.0182621,0.20361055,-0.9912084,0.10780631,0.07670505,0.11495047,0.9887425,0.09578484,-0.06551531,0.103760034,-0.99244213,,-0.3231500343890504,-0.005297794751718014,0.09345473126,0.0010484497174226219,0.001503001497419845,0.008249136915644583,-0.001960128793611352,,-1.4642687666173382,0.1734216894235856,0.08959437964000001,-0.006919768134989304,-0.017079562470680057,-0.0016734014047947105,0.0017967847274770708
4.479962219018489,,0.039995424,0.032983895,0.35020295,-0.7317906,-0.55316365,-0.3981111,-0.65853643,0.4234679,0.6220971,-0.17553419,0.7174154,-0.6741681,,0.0023915824,-0.0065652207,0.58083206,0.54645115,-0.80795693,0.22044668,-0.66277677,-0.25628886,0.70359296,-0.5119747,-0.53058606,-0.6755444,,0.025578847,-0.0182621,0.20361055,-0.9912084,0.10780631,0.07670505,0.11495047,0.9887425,0.09578484,-0.06551531,0.103760034,-0.99244213,,-0.3226557794851,-0.005089280964113952,0.09344695352000001,0.0010484497174226219,0.001503001497419845,0.008249136915644583,-0.001960128793611352,,-1.4642842120830866,0.1734216894235856,0.08959437964000001,-0.006919768134989304,-0.017079562470680057,-0.0016734014047947105,0.0017967847274770708
4.536426059028599,,0.039969556,0.033028748,0.35024536,-0.731871,-0.5528745,-0.39836496,-0.658409,0.42300838,0.62254447,-0.17567724,0.71790916,-0.67360497,,0.0023910683,-0.006565377,0.58083177,0.54645014,-0.80795926,0.2204405,-0.66277707,-0.25629345,0.70359105,-0.5119754,-0.5305803,-0.6755483,,0.025578847,-0.0182621,0.20361055,-0.9912084,0.10780631,0.07670505,0.11495047,0.9887425,0.09578484,-0.06551531,0.103760034,-0.99244213,,-0.32192211986204866,-0.00488076717650989,0.09345602755000001,0.0010484497174226219,0.001503001497419845,0.008249136915644583,-0.001960128793611352,,-1.4642764893502125,0.1734216894235856,0.08959437964000001,-0.006919768134989304,-0.017079562470680057,-0.0016734014047947105,0.0017967847274770708
4.574691301037092,,0.03993067,0.033007354,0.35025042,-0.7316818,-0.5527984,-0.39881763,-0.6587057,0.42289546,0.6223072,-0.17535225,0.71803427,-0.6735563,,0.002390556,-0.006565541,0.5808314,0.5464492,-0.8079616,0.22043431,-0.6627773,-0.256298,0.7035891,-0.51197606,-0.5305745,-0.67555237,,0.025578847,-0.0182621,0.20361055,-0.9912084,0.10780631,0.07670505,0.11495047,0.9887425,0.09578484,-0.06551531,0.103760034,-0.99244213,,-0.3217367742730673,-0.00535957661471181,0.09345473126,0.0010484497174226219,0.001503001497419845,0.008249136915644583,-0.001960128793611352,,-1.4642687666173382,0.1734216894235856,0.08959437964000001,-0.006919768134989304,-0.017079562470680057,-0.0016734014047947105,0.0017967847274770708
4.641069726028945,,0.039948475,0.033021573,0.350253,-0.7317854,-0.55280906,-0.39861283,-0.65854317,0.4229084,0.62247044,-0.1755306,0.7180185,-0.6735267,,0.002390556,-0.006565541,0.5808314,0.5464492,-0.8079616,0.22043431,-0.6627773,-0.256298,0.7035891,-0.51197606,-0.5305745,-0.67555237,,0.025578847,-0.0182621,0.20361055,-0.9912084,0.10780631,0.07670505,0.11495047,0.9887425,0.09578484,-0.06551531,0.103760034,-0.99244213,,-0.32175994247169,-0.0050970036969881765,0.09345473126,0.0010484497174226219,0.001503001497419845,0.008249136915644583,-0.001960128793611352,,-1.4642687666173382,0.1734216894235856,0.08959437964000001,-0.006919768134989304,-0.017079562470680057,-0.0016734014047947105,0.0017967847274770708
4.676456168002915,,0.03998637,0.033065833,0.35026172,-0.7320499,-0.5527945,-0.39814714,-0.65812725,0.42287531,0.6229326,-0.17598711,0.7180492,-0.67337483,,0.002390556,-0.006565541,0.5808314,0.5464492,-0.8079616,0.22043431,-0.6627773,-0.256298,0.7035891,-0.51197606,-0.5305745,-0.67555237,,0.025578847,-0.0182621,0.20361055,-0.9912084,0.10780631,0.07670505,0.11495047,0.9887425,0.09578484,-0.06551531,0.103760034,-0.99244213,,-0.3217136060744446,-0.004425125936930644,0.09346121271,0.0010484497174226219,0.001503001497419845,0.008249136915644583,-0.001960128793611352,,-1.4642687666173382,0.1734216894235856,0.08959437964000001,-0.006919768134989304,-0.017079562470680057,-0.0016734014047947105,0.0017967847274770708
4.727478447020985,,0.03999363,0.033079926,0.3502627,-0.7321167,-0.55278313,-0.39803997,-0.658022,0.42285502,0.6230575,-0.17610256,0.71806985,-0.6733227,,0.002390556,-0.006565541,0.5808314,0.5464492,-0.8079616,0.22043431,-0.6627773,-0.256298,0.7035891,-0.51197606,-0.5305745,-0.67555237,,0.025578847,-0.0182621,0.20361055,-0.9912084,0.10780631,0.07670505,0.11495047,0.9887425,0.09578484,-0.06551531,0.103760034,-0.99244213,,-0.3216827151429477,-0.004255225813697705,0.09346639787000001,0.0010484497174226219,0.001503001497419845,0.008249136915644583,-0.001960128793611352,,-1.4642687666173382,0.1734216894235856,0.08959437964000001,-0.006919768134989304,-0.017079562470680057,-0.0016734014047947105,0.0017967847274770708
4.761566561006475,,0.039984114,0.033065103,0.3502547,-0.73203474,-0.55281264,-0.39814973,-0.6581511,0.4229045,0.6228876,-0.17596081,0.718018,-0.67341495,,0.002390556,-0.006565541,0.5808314,0.5464492,-0.8079616,0.22043431,-0.6627773,-0.256298,0.7035891,-0.51197606,-0.5305745,-0.67555237,,0.025578847,-0.0182621,0.20361055,-0.9912084,0.10780631,0.07670505,0.11495047,0.9887425,0.09578484,-0.06551531,0.103760034,-0.99244213,,-0.32175994247169,-0.004463739601301767,0.09346639787000001,0.0010484497174226219,0.001503001497419845,0.008249136915644583,-0.001960128793611352,,-1.4642687666173382,0.1734216894235856,0.08959437964000001,-0.006919768134989304,-0.017079562470680057,-0.0016734014047947105,0.0017967847274770708
4.817397311038803,,0.039984956,0.03306773,0.35025662,-0.73204684,-0.5528036,-0.39813992,-0.658132,0.42288983,0.6229178,-0.17598183,0.7180336,-0.67339283,,0.0023915824,-0.0065652207,0.58083206,0.54645115,-0.80795693,0.22044668,-0.66277677,-0.25628886,0.70359296,-0.5119747,-0.53058606,-0.6755444,,0.025578847,-0.0182621,0.20361055,-0.9912084,0.10780631,0.07670505,0.11495047,0.9887425,0.09578484,-0.06551531,0.103760034,-0.99244213,,-0.32169043787582197,-0.004378789539685297,0.09346639787000001,0.0010484497174226219,0.001503001497419845,0.008249136915644583,-0.001960128793611352,,-1.4642842120830866,0.1734216894235856,0.08959437964000001,-0.006919768134989304,-0.017079562470680057,-0.0016734014047947105,0.0017967847274770708
4.87773622298846,,0.039960213,0.03310721,0.350307,-0.73212135,-0.55250186,-0.39842188,-0.65801376,0.42241082,0.6233674,-0.17611393,0.7185477,-0.6728097,,0.0023898575,-0.006564703,0.58083206,0.5464526,-0.80796164,0.22042596,-0.66276646,-0.25629792,0.7035994,-0.5119865,-0.53057456,-0.67554444,,0.025578847,-0.0182621,0.20361055,-0.9912084,0.10780631,0.07670505,0.11495047,0.9887425,0.09578484,-0.06551531,0.103760034,-0.99244213,,-0.3209722237185191,-0.004239780347949256,0.09346639787000001,0.0010484497174226219,0.001503001497419845,0.008249136915644583,-0.001960128793611352,,-1.4642687666173382,0.17343713488933404,0.08959437964000001,-0.006919768134989304,-0.017079562470680057,-0.0016734014047947105,0.0017967847274770708
4.90934847103199,,0.039931122,0.033113938,0.35033768,-0.7320687,-0.5523142,-0.39877847,-0.6580961,0.42211708,0.6234796,-0.17602545,0.71886444,-0.6724944,,0.002390556,-0.006565541,0.5808314,0.5464492,-0.8079616,0.22043431,-0.6627773,-0.256298,0.7035891,-0.51197606,-0.5305745,-0.67555237,,0.025578847,-0.0182621,0.20361055,-0.9912084,0.10780631,0.07670505,0.11495047,0.9887425,0.09578484,-0.06551531,0.103760034,-0.99244213,,-0.3205011370131914,-0.004371066806811073,0.09346121271,0.0010484497174226219,0.001503001497419845,0.008249136915644583,-0.001960128793611352,,-1.4642687666173382,0.1734216894235856,0.08959437964000001,-0.006919768134989304,-0.017079562470680057,-0.0016734014047947105,0.0017967847274770708
4.949314056022558,,0.03991082,0.03314303,0.35037416,-0.73211634,-0.55208814,-0.39900413,-0.65802044,0.42175886,0.62380165,-0.17611,0.71924824,-0.6720618,,0.0023910683,-0.006565377,0.58083177,0.54645014,-0.80795926,0.2204405,-0.66277707,-0.25629345,0.70359105,-0.5119754,-0.5305803,-0.6755483,,0.025578847,-0.0182621,0.20361055,-0.9912084,0.10780631,0.07670505,0.11495047,0.9887425,0.09578484,-0.06551531,0.103760034,-0.99244213,,-0.3199296547804988,-0.00424750308082348,0.09346250900000001,0.0010484497174226219,0.001503001497419845,0.008249136915644583,-0.001960128793611352,,-1.4642764893502125,0.1734216894235856,0.08959437964000001,-0.006919768134989304,-0.017079562470680057,-0.0016734014047947105,0.0017967847274770708
5.010830804007128,,0.039928753,0.03321649,0.35042894,-0.7324379,-0.5518167,-0.39878935,-0.6575135,0.42131895,0.62463295,-0.17666538,0.7197142,-0.6714168,,0.0023912322,-0.0065648034,0.5808324,0.5464529,-0.80795693,0.2204425,-0.66277134,-0.25628886,0.7035981,-0.51197994,-0.53058606,-0.6755404,,0.025578847,-0.0182621,0.20361055,-0.9912084,0.10780631,0.07670505,0.11495047,0.9887425,0.09578484,-0.06551531,0.103760034,-0.99244213,,-0.31923460882181853,-0.003428893396155682,0.09346380529000001,0.0010484497174226219,0.001503001497419845,0.008249136915644583,-0.001960128793611352,,-1.4642842120830866,0.17342941215645982,0.08959437964000001,-0.006919768134989304,-0.017079562470680057,-0.0016734014047947105,0.0017967847274770708
5.051033416995779,,0.04000927,0.033340473,0.35049954,-0.7331783,-0.551637,-0.39767593,-0.6563438,0.42100793,0.6260712,-0.17793934,0.72003394,-0.67073727,,0.002390204,-0.00656512,0.58083177,0.54645085,-0.8079616,0.22043012,-0.6627719,-0.256298,0.7035942,-0.51198125,-0.5305745,-0.6755483,,0.025578847,-0.0182621,0.20361055,-0.9912084,0.10780631,0.07670505,0.11495047,0.9887425,0.09578484,-0.06551531,0.103760034,-0.99244213,,-0.31856273106176103,-0.001683555766580943,0.09346121271,0.0010484497174226219,0.0016396379971852853,0.008056040271807601,-0.0017967847274770726,,-1.4642687666173382,0.17342941215645982,0.08959437964000001,-0.006919768134989304,-0.017079562470680057,-0.0016734014047947105,0.0017967847274770708
5.1132124600117095,,0.0401863,0.03357655,0.35061604,-0.734557,-0.5512661,-0.39564097,-0.65415096,0.42037278,0.62878704,-0.18031225,0.72068876,-0.6693989,,0.002390042,-0.006565701,0.5808311,0.5464482,-0.80796385,0.22042811,-0.66277766,-0.25630257,0.7035871,-0.5119767,-0.5305687,-0.6755564,,0.025578847,-0.0182621,0.20361055,-0.9912084,0.10780631,0.07670505,0.11495047,0.9887425,0.09578484,-0.06551531,0.103760034,-0.99244213,,-0.3175819439867345,0.0018302876911912088,0.09345991642000001,0.0010484497174226219,0.0016396379971852853,0.008056040271807601,-0.0017967847274770726,,-1.4642610438844639,0.1734216894235856,0.08959437964000001,-0.006919768134989304,-0.017079562470680057,-0.0016734014047947105,0.0017967847274770708
5.145613681001123,,0.04036036,0.03377006,0.35069448,-0.73576343,-0.5510923,-0.3936361,-0.652215,0.42005444,0.631007,-0.18239449,0.7210072,-0.6684913,,0.0023917481,-0.0065646432,0.5808327,0.5464538,-0.80795455,0.2204487,-0.66277105,-0.25628427,0.7036,-0.5119793,-0.53059185,-0.6755364,,0.025578847,-0.0182621,0.20361055,-0.9912084,0.10780631,0.07670505,0.11495047,0.9887425,0.09578484,-0.06551531,0.103760034,-0.99244213,,-0.3171031345485326,0.0049193808408810125,0.09345991642000001,0.0010484497174226219,0.0016396379971852853,0.008056040271807601,-0.0017967847274770726,,-1.4642919348159609,0.17342941215645982,0.08959437964000001,-0.006919768134989304,-0.017079562470680057,-0.0016734014047947105,0.0017967847274770708
5.196790779009461,,0.040645577,0.034080043,0.35082102,-0.73770624,-0.55082744,-0.390357,-0.649063,0.41956502,0.6345727,-0.1857599,0.72149444,-0.6670373,,0.0023896936,-0.0065652803,0.5808314,0.54644996,-0.80796385,0.22042394,-0.6627722,-0.25630254,0.70359224,-0.51198196,-0.5305687,-0.6755524,,0.025578847,-0.0182621,0.20361055,-0.9912084,0.10780631,0.07670505,0.11495047,0.9887425,0.09578484,-0.06551531,0.103760034,-0.99244213,,-0.3163694749254813,0.009923711743378494,0.09345862013,0.0010484497174226219,0.0016396379971852853,0.008056040271807601,-0.0017967847274770726,,-1.4642610438844639,0.17342941215645982,0.08959437964000001,-0.006919768134989304,-0.017079562470680057,-0.0016734014047947105,0.0017967847274770708
5.241806247038767,,0.040899973,0.034300763,0.35089397,-0.7392298,-0.55082786,-0.38746357,-0.646557,0.41950786,0.6371634,-0.18842337,0.72152734,-0.66625416,,0.0023914184,-0.006565802,0.5808314,0.54644847,-0.80795926,0.22044466,-0.6627825,-0.25629348,0.70358586,-0.51197016,-0.5305802,-0.6755523,,0.025578847,-0.0182621,0.20361055,-0.9912084,0.10780631,0.07670505,0.11495047,0.9887425,0.09578484,-0.06551531,0.103760034,-0.99244213,,-0.3163154157953617,0.013885473707855669,0.09345084239000001,0.0010484497174226219,0.0016396379971852853,0.008056040271807601,-0.0017967847274770726,,-1.4642764893502125,0.17341396669071135,0.08959437964000001,-0.006919768134989304,-0.017079562470680057,-0.0016734014047947105,0.0017967847274770708
5.278261204017326,,0.04116815,0.03454036,0.3509655,-0.7408387,-0.5508328,-0.38437116,-0.6438786,0.41945404,0.6399052,-0.19125472,0.7215549,-0.6654171,,0.0023888294,-0.006565023,0.5808314,0.5464507,-0.80796623,0.22041357,-0.662767,-0.25630707,0.7035955,-0.51198786,-0.530563,-0.6755525,,0.025578847,-0.0182621,0.20361055,-0.9912084,0.10780631,0.07670505,0.11495047,0.9887425,0.09578484,-0.06551531,0.103760034,-0.99244213,,-0.3162690793981163,0.01810208585718225,0.09345213868,0.0010484497174226219,0.0016396379971852853,0.008056040271807601,-0.0017967847274770726,,-1.4642533211515898,0.17343713488933404,0.08959437964000001,-0.006919768134989304,-0.017079562470680057,-0.0016734014047947105,0.0017967847274770708
5.336222326033749,,0.04150948,0.034807384,0.35104746,-0.7427512,-0.55094105,-0.3805055,-0.6406477,0.41955036,0.6430771,-0.19465633,0.7214162,-0.6645805,,0.0023915824,-0.0065652207,0.58083206,0.54645115,-0.80795693,0.22044668,-0.66277677,-0.25628886,0.70359296,-0.5119747,-0.53058606,-0.6755444,,0.025578847,-0.0182621,0.20361055,-0.9912084,0.10780631,0.07670505,0.11495047,0.9887425,0.09578484,-0.06551531,0.103760034,-0.99244213,,-0.3164698704528462,0.02316819862267353,0.09343787949000001,0.0010484497174226219,0.0016396379971852853,0.008056040271807601,-0.0017967847274770726,,-1.4642842120830866,0.1734216894235856,0.08959437964000001,-0.006919768134989304,-0.017079562470680057,-0.0016734014047947105,0.0017967847274770708
5.381147885986138,,0.04185932,0.035093907,0.35112542,-0.74472135,-0.55104756,-0.37647927,-0.6372671,0.41964066,0.6463686,-0.19819383,0.72128236,-0.6636798,,0.0023896936,-0.0065652803,0.5808314,0.54644996,-0.80796385,0.22042394,-0.6627722,-0.25630254,0.70359224,-0.51198196,-0.5305687,-0.6755524,,0.025578847,-0.0182621,0.20361055,-0.9912084,0.10780631,0.07670505,0.11495047,0.9887425,0.09578484,-0.06551531,0.103760034,-0.99244213,,-0.3166629387747018,0.02844282517576887,0.09343787949000001,0.0010484497174226219,0.0016396379971852853,0.008056040271807601,-0.0017967847274770726,,-1.4642610438844639,0.17342941215645982,0.08959437964000001,-0.006919768134989304,-0.017079562470680057,-0.0016734014047947105,0.0017967847274770708
5.41814288101159,,0.041953765,0.035364836,0.35121173,-0.7460907,-0.5509557,-0.37389353,-0.63494533,0.4196327,0.64865464,-0.20048207,0.7213571,-0.66291076,,0.002344912,-0.0065520797,0.58082366,0.5464263,-0.8079799,0.22042403,-0.6627535,-0.25625592,0.70362693,-0.5120314,-0.530567,-0.67551637,,0.025559945,-0.018250277,0.20361978,-0.9912082,0.10780804,0.07670527,0.114952214,0.9887423,0.09578482,-0.065515354,0.103760146,-0.99244213,,-0.3165470977815884,0.033115078564674695,0.0934365832,0.0010484497174226219,0.0016396379971852853,0.008056040271807601,-0.0017967847274770726,,-1.4642610438844639,0.17344485762220826,0.08959437964000001,-0.006919768134989304,-0.017079562470680057,-0.0016734014047947105,0.0017967847274770708
5.48080718901474,,0.042542413,0.035863668,0.3513695,-0.7494062,-0.551016,-0.3671125,-0.6290745,0.41959494,0.65437406,-0.206532,0.7213331,-0.66107714,,0.002347337,-0.006553432,0.58082294,0.5464214,-0.80797523,0.22045311,-0.6627746,-0.25624698,0.70361024,-0.51200914,-0.5305784,-0.67552423,,0.025559945,-0.018250277,0.20361978,-0.9912082,0.10780804,0.07670527,0.114952214,0.9887423,0.09578482,-0.065515354,0.103760146,-0.99244213,,-0.31658571144595954,0.04097682063063525,0.09343787949000001,0.0010484497174226219,0.0016396379971852853,0.008056040271807601,-0.0017967847274770726,,-1.4642764893502125,0.17341396669071135,0.08959437964000001,-0.006919768134989304,-0.017079562470680057,-0.0016734014047947105,0.0017967847274770708
5.5198450179887,,0.04292331,0.036174238,0.3514666,-0.7514801,-0.5510947,-0.36272871,-0.6253161,0.4196345,0.65794134,-0.21037453,0.7212498,-0.65995526,,0.0023462866,-0.0065521803,0.580824,0.54642653,-0.80797523,0.22044058,-0.66275835,-0.2562468,0.7036256,-0.5120249,-0.5305785,-0.67551225,,0.025559945,-0.018250277,0.20361978,-0.9912082,0.10780804,0.07670527,0.114952214,0.9887423,0.09578482,-0.065515354,0.103760146,-0.99244213,,-0.31670155243907294,0.04673797935480673,0.09343787949000001,0.0010484497174226219,0.0016396379971852853,0.008056040271807601,-0.0017967847274770726,,-1.4642764893502125,0.17343713488933404,0.08959437964000001,-0.006919768134989304,-0.017079562470680057,-0.0016734014047947105,0.0017967847274770708
5.580923929985147,,0.04346937,0.036626823,0.35162064,-0.7544447,-0.55114526,-0.35644352,-0.61983013,0.41959172,0.66313905,-0.21592522,0.7212361,-0.6581752,,0.0023464728,-0.006553175,0.58082294,0.5464222,-0.80797756,0.22044273,-0.66276944,-0.25625148,0.7036134,-0.51201504,-0.53057265,-0.6755243,,0.025559945,-0.018250277,0.20361978,-0.9912082,0.10780804,0.07670527,0.114952214,0.9887423,0.09578482,-0.065515354,0.103760146,-0.99244213,,-0.31670927517194714,0.05508625359184343,0.09343787949000001,0.0010484497174226219,0.0016396379971852853,0.008056040271807601,-0.0017967847274770726,,-1.4642687666173382,0.1734216894235856,0.08959437964000001,-0.006919768134989304,-0.017079562470680057,-0.0016734014047947105,0.0017967847274770708
5.629937678982969,,0.043853626,0.03693364,0.3517385,-0.7564794,-0.5511723,-0.35206228,-0.6159828,0.4195491,0.66674113,-0.21978189,0.72124034,-0.65689284,,0.0023464728,-0.006553175,0.58082294,0.5464222,-0.80797756,0.22044273,-0.66276944,-0.25625148,0.7036134,-0.51201504,-0.53057265,-0.6755243,,0.025559945,-0.018250277,0.20361978,-0.9912082,0.10780804,0.07670527,0.114952214,0.9887423,0.09578482,-0.065515354,0.103760146,-0.99244213,,-0.3166938297061987,0.06090147144613448,0.09342750917,0.0010484497174226219,0.0016396379971852853,0.008056040271807601,-0.0017967847274770726,,-1.4642687666173382,0.1734216894235856,0.08959437964000001,-0.006919768134989304,-0.017079562470680057,-0.0016734014047947105,0.0017967847274770708
5.672746983997058,,0.04433386,0.03732921,0.3518847,-0.7590173,-0.5511868,-0.34653395,-0.6110872,0.419464,0.67128414,-0.2246444,0.7212787,-0.6552036,,0.0023462866,-0.0065521803,0.580824,0.54642653,-0.80797523,0.22044058,-0.66275835,-0.2562468,0.7036256,-0.5120249,-0.5305785,-0.67551225,,0.025559945,-0.018250277,0.20361978,-0.9912082,0.10780804,0.07670527,0.114952214,0.9887423,0.09578482,-0.065515354,0.103760146,-0.99244213,,-0.3166243251103307,0.06825351314239622,0.09342750917,0.0010484497174226219,0.0016396379971852853,0.008056040271807601,-0.0017967847274770726,,-1.4642764893502125,0.17343713488933404,0.08959437964000001,-0.006919768134989304,-0.017079562470680057,-0.0016734014047947105,0.0017967847274770708
5.718327824026346,,0.044702522,0.037629336,0.35199815,-0.7609305,-0.5512007,-0.34229016,-0.60732126,0.41940343,0.67473096,-0.22835448,0.72130334,-0.6538926,,0.0023468006,-0.00655202,0.5808243,0.5464275,-0.8079729,0.22044677,-0.66275805,-0.25624225,0.7036276,-0.51202416,-0.5305843,-0.67550826,,0.025559945,-0.018250277,0.20361978,-0.9912082,0.10780804,0.07670527,0.114952214,0.9887423,0.09578482,-0.065515354,0.103760146,-0.99244213,,-0.31657798871308535,0.07387566267483166,0.09342750917,0.0010484497174226219,0.0016396379971852853,0.008056040271807601,-0.0017967847274770726,,-1.4642842120830866,0.17343713488933404,0.08959437964000001,-0.006919768134989304,-0.017079562470680057,-0.0016734014047947105,0.0017967847274770708
5.7717241200152785,,0.045128923,0.03797798,0.35213417,-0.7631235,-0.55119836,-0.33737648,-0.6029239,0.41930407,0.67872447,-0.23264846,0.7213629,-0.6523114,,0.0023464728,-0.006553175,0.58082294,0.5464222,-0.80797756,0.22044273,-0.66276944,-0.25625148,0.7036134,-0.51201504,-0.53057265,-0.6755243,,0.025559945,-0.018250277,0.20361978,-0.9912082,0.10780804,0.07670527,0.114952214,0.9887423,0.09578482,-0.065515354,0.103760146,-0.99244213,,-0.3164775931857204,0.08040137195355138,0.09342880546000001,0.0010484497174226219,0.0016396379971852853,0.008056040271807601,-0.0017967847274770726,,-1.4642687666173382,0.1734216894235856,0.08959437964000001,-0.006919768134989304,-0.017079562470680057,-0.0016734014047947105,0.0017967847274770708
5.813074242032599,,0.045569293,0.03832657,0.35227075,-0.765321,-0.5512307,-0.33230746,-0.59841967,0.4192575,0.6827277,-0.23701814,0.7213652,-0.6507338,,0.0023466367,-0.006552594,0.58082366,0.5464248,-0.80797523,0.22044475,-0.6627638,-0.25624686,0.7036205,-0.51201963,-0.5305785,-0.6755163,,0.025559945,-0.018250277,0.20361978,-0.9912082,0.10780804,0.07670527,0.114952214,0.9887423,0.09578482,-0.065515354,0.103760146,-0.99244213,,-0.31646214771997194,0.08705064495825868,0.09342880546000001,0.0010484497174226219,0.0016396379971852853,0.008056040271807601,-0.0017967847274770726,,-1.4642764893502125,0.17342941215645982,0.08959437964000001,-0.006919768134989304,-0.017079562470680057,-0.0016734014047947105,0.0017967847274770708
5.849728532019071,,0.04583504,0.038539656,0.35235882,-0.76664513,-0.5512266,-0.32924837,-0.5956631,0.4191915,0.68517447,-0.23966828,0.7214067,-0.6497163,,0.002346987,-0.0065530185,0.5808233,0.5464232,-0.80797523,0.22044894,-0.6627692,-0.25624692,0.7036153,-0.5120144,-0.53057843,-0.67552024,,0.025559945,-0.018250277,0.20361978,-0.9912082,0.10780804,0.07670527,0.114952214,0.9887423,0.09578482,-0.065515354,0.103760146,-0.99244213,,-0.3163926431241039,0.09109735698435231,0.09342880546000001,0.0010484497174226219,0.0016396379971852853,0.008056040271807601,-0.0017967847274770726,,-1.4642764893502125,0.1734216894235856,0.08959437964000001,-0.006919768134989304,-0.017079562470680057,-0.0016734014047947105,0.0017967847274770708
5.912862684985157,,0.046383925,0.038971253,0.3525387,-0.7693174,-0.55121475,-0.32297516,-0.5899841,0.41903633,0.6901647,-0.24509063,0.7215059,-0.64757985,,0.0023466367,-0.006552594,0.58082366,0.5464248,-0.80797523,0.22044475,-0.6627638,-0.25624686,0.7036205,-0.51201963,-0.5305785,-0.6755163,,0.025559945,-0.018250277,0.20361978,-0.9912082,0.10780804,0.07670527,0.114952214,0.9887423,0.09578482,-0.065515354,0.103760146,-0.99244213,,-0.31630769306248746,0.09939157209126943,0.09342880546000001,0.0010484497174226219,0.0016396379971852853,0.008137719011948163,-0.001960128793611352,,-1.4642764893502125,0.17342941215645982,0.08959437964000001,-0.006919768134989304,-0.017079562470680057,-0.0016734014047947105,0.0017967847274770708
5.946584671037272,,0.046817593,0.039306372,0.3526771,-0.77137256,-0.5512502,-0.3179741,-0.5855059,0.4189957,0.6939925,-0.24933374,0.72150236,-0.64596194,,0.0023461226,-0.0065527577,0.5808233,0.54642385,-0.80797756,0.22043857,-0.662764,-0.25625145,0.7036186,-0.5120203,-0.53057265,-0.67552036,,0.025559945,-0.018250277,0.20361978,-0.9912082,0.10780804,0.07670527,0.114952214,0.9887423,0.09578482,-0.065515354,0.103760146,-0.99244213,,-0.31629997032961327,0.10589411317136647,0.09343139804000002,0.0010484497174226219,0.0016396379971852853,0.008137719011948163,-0.001960128793611352,,-1.4642687666173382,0.17342941215645982,0.08959437964000001,-0.006919768134989304,-0.017079562470680057,-0.0016734014047947105,0.0017967847274770708
5.9970540549838915,,0.04730378,0.03967374,0.3528306,-0.7736154,-0.55131173,-0.3123691,-0.58050114,0.41898522,0.6981905,-0.25404257,0.7214615,-0.64417046,,0.0023471508,-0.0065524373,0.580824,0.5464259,-0.8079729,0.22045094,-0.6627634,-0.2562423,0.7036224,-0.5120189,-0.5305842,-0.67551225,,0.025559945,-0.018250277,0.20361978,-0.9912082,0.10780804,0.07670527,0.114952214,0.9887423,0.09578482,-0.065515354,0.103760146,-0.99244213,,-0.3163463067268586,0.11312259114164062,0.09343399062,0.0010484497174226219,0.0016396379971852853,0.008137719011948163,-0.001960128793611352,,-1.4642842120830866,0.17342941215645982,0.08959437964000001,-0.006919768134989304,-0.017079562470680057,-0.0016734014047947105,0.0017967847274770708
6.048266694997437,,0.047777414,0.040021986,0.35297635,-0.77573305,-0.5514026,-0.30690932,-0.57565373,0.41902483,0.70216876,-0.25857514,0.72136897,-0.64246833,,0.0023468006,-0.00655202,0.5808243,0.5464275,-0.8079729,0.22044677,-0.66275805,-0.25624225,0.7036276,-0.51202416,-0.5305843,-0.67550826,,0.025559945,-0.018250277,0.20361978,-0.9912082,0.10780804,0.07670527,0.114952214,0.9887423,0.09578482,-0.065515354,0.103760146,-0.99244213,,-0.3164698704528462,0.12008849619419112,0.0934365832,0.0010484497174226219,0.0016396379971852853,0.008137719011948163,-0.001960128793611352,,-1.4642842120830866,0.17343713488933404,0.08959437964000001,-0.006919768134989304,-0.017079562470680057,-0.0016734014047947105,0.0017967847274770708
6.086837106035091,,0.04814117,0.040296793,0.3531038,-0.77737284,-0.5514076,-0.3027227,-0.57183725,0.4189518,0.7053238,-0.26209468,0.7214076,-0.64099705,,0.0023462866,-0.0065521803,0.580824,0.54642653,-0.80797523,0.22044058,-0.66275835,-0.2562468,0.7036256,-0.5120249,-0.5305785,-0.67551225,,0.025559945,-0.018250277,0.20361978,-0.9912082,0.10780804,0.07670527,0.114952214,0.9887423,0.09578482,-0.065515354,0.103760146,-0.99244213,,-0.31640036585697817,0.1255330228705194,0.0934365832,0.0010484497174226219,0.0016396379971852853,0.008137719011948163,-0.001960128793611352,,-1.4642764893502125,0.17343713488933404,0.08959437964000001,-0.006919768134989304,-0.017079562470680057,-0.0016734014047947105,0.0017967847274770708
6.155768676020671,,0.048716985,0.040710747,0.3532926,-0.779855,-0.5514984,-0.29610062,-0.56589794,0.41896945,0.7100874,-0.267555,0.7213279,-0.63882715,,0.0023461226,-0.0065527577,0.5808233,0.54642385,-0.80797756,0.22043857,-0.662764,-0.25625145,0.7036186,-0.5120203,-0.53057265,-0.67552036,,0.025559945,-0.018250277,0.20361978,-0.9912082,0.10780804,0.07670527,0.114952214,0.9887423,0.09578482,-0.065515354,0.103760146,-0.99244213,,-0.3165007613843431,0.1339739699020468,0.09343528691000001,0.0010484497174226219,0.0016396379971852853,0.008137719011948163,-0.001960128793611352,,-1.4642687666173382,0.17342941215645982,0.08959437964000001,-0.006919768134989304,-0.017079562470680057,-0.0016734014047947105,0.0017967847274770708
6.1906431640381925,,0.049182795,0.041018702,0.3534191,-0.7817208,-0.55171055,-0.29073694,-0.5612673,0.41920558,0.7136146,-0.27183014,0.72102845,-0.6373587,,0.0023471508,-0.0065524373,0.580824,0.5464259,-0.8079729,0.22045094,-0.6627634,-0.2562423,0.7036224,-0.5120189,-0.5305842,-0.67551225,,0.025559945,-0.018250277,0.20361978,-0.9912082,0.10780804,0.07670527,0.114952214,0.9887423,0.09578482,-0.065515354,0.103760146,-0.99244213,,-0.31693323442529964,0.14054601557801186,0.0934365832,0.0010484497174226219,0.0016396379971852853,0.008137719011948163,-0.001960128793611352,,-1.4642842120830866,0.17342941215645982,0.08959437964000001,-0.006919768134989304,-0.017079562470680057,-0.0016734014047947105,0.0017967847274770708
6.251249357999768,,0.049636595,0.04130763,0.3535356,-0.7834677,-0.5519612,-0.28551212,-0.55680835,0.41950616,0.7169234,-0.2759397,0.7206618,-0.636006,,0.0023466367,-0.006552594,0.58082366,0.5464248,-0.80797523,0.22044475,-0.6627638,-0.25624686,0.7036205,-0.51201963,-0.5305785,-0.6755163,,0.025559945,-0.018250277,0.20361978,-0.9912082,0.10780804,0.07670527,0.114952214,0.9887423,0.09578482,-0.065515354,0.103760146,-0.99244213,,-0.31747382572649535,0.14693271566499552,0.09343787949000001,0.0010484497174226219,0.0016396379971852853,0.008137719011948163,-0.001960128793611352,,-1.4642764893502125,0.17342941215645982,0.08959437964000001,-0.006919768134989304,-0.017079562470680057,-0.0016734014047947105,0.0017967847274770708
6.299743337032851,,0.050125845,0.041626595,0.35367578,-0.78535146,-0.55216914,-0.27987912,-0.5519018,0.41973117,0.72057635,-0.28040597,0.72037137,-0.6343795,,0.002346987,-0.0065530185,0.5808233,0.5464232,-0.80797523,0.22044894,-0.6627692,-0.25624692,0.7036153,-0.5120144,-0.53057843,-0.67552024,,0.025559945,-0.018250277,0.20361978,-0.9912082,0.10780804,0.07670527,0.114952214,0.9887423,0.09578482,-0.065515354,0.103760146,-0.99244213,,-0.3178831305688293,0.15375188879293578,0.09343917578000001,0.0010484497174226219,0.0016396379971852853,0.008137719011948163,-0.001960128793611352,,-1.4642764893502125,0.1734216894235856,0.08959437964000001,-0.006919768134989304,-0.017079562470680057,-0.0016734014047947105,0.0017967847274770708
6.351335323997773,,0.050439842,0.041848026,0.35378525,-0.7866065,-0.5522064,-0.2762577,-0.5486023,0.41972166,0.7230971,-0.28334746,0.72034836,-0.6330974,,0.0023464728,-0.006553175,0.58082294,0.5464222,-0.80797756,0.22044273,-0.66276944,-0.25625148,0.7036134,-0.51201504,-0.53057265,-0.6755243,,0.025559945,-0.018250277,0.20361978,-0.9912082,0.10780804,0.07670527,0.114952214,0.9887423,0.09578482,-0.065515354,0.103760146,-0.99244213,,-0.3179217442332004,0.15950532478423302,0.09344176836000001,0.0010484497174226219,0.0016396379971852853,0.008137719011948163,-0.001960128793611352,,-1.4642687666173382,0.1734216894235856,0.08959437964000001,-0.006919768134989304,-0.017079562470680057,-0.0016734014047947105,0.0017967847274770708
