AlexandreBanks6/ExpertPlaybackApp/resources/Motions/Motion_Best.csv
Time,si_T_psm1,Tx,Ty,Tz,R00,R01,R02,R10,R11,R12,R20,R21,R22,si_T_psm3,Tx,Ty,Tz,R00,R01,R02,R10,R11,R12,R20,R21,R22,si_T_ecm,Tx,Ty,Tz,R00,R01,R02,R10,R11,R12,R20,R21,R22,joint_vars_psm1,q1,q2,q3,q4,q5,q6,jaw,joint_vars_psm3,q1,q2,q3,q4,q5,q6,jaw
lci_T_si
,,-0.04976115,0.047440402,0.29524562,0.9937468,0.11022242,0.01783984,0.111495815,-0.988143,-0.10555568,0.005993711,0.106884696,-0.99425334
rci_T_si
,,-0.05792119,0.050294437,0.39328775,0.9950663,0.09854892,0.011454966,0.0991106,-0.9926267,-0.06977982,0.004493779,0.07057086,-0.99749666
ecm_T_lc
,,0.007666607,0.00063629355,0.01577023,-0.9989534,-0.044765916,-0.009387498,0.044879016,-0.9989179,-0.012205263,-0.00883096,-0.01261379,0.99988145
ecm_T_rc
,,-0.008239545,0.013894887,-0.24892122,-0.99980205,-0.018179558,0.00808652,0.017913941,-0.9993341,-0.031788383,0.008659034,-0.031637233,0.9994619
0.025995914998929948,,0.058553103,0.057885364,0.43344694,-0.62208164,-0.6121428,-0.48815542,-0.77928483,0.4238136,0.4616242,-0.07569298,0.66758007,-0.74068034,,0.009898189,0.04229936,0.7212636,0.2631898,-0.95471376,0.13875437,-0.95285726,-0.27975214,-0.11748041,0.15097705,-0.101293445,-0.9833339,,0.050134327,0.018812144,0.31506288,-0.9977546,-0.066845514,-0.0041886843,-0.06687087,0.9907161,0.11836292,-0.0037622326,0.11837722,-0.9929615,,-0.2001191769697797,-0.11088299860811551,0.15482628502,0.0052422485871131096,0.0002732729995308809,-0.0002228358073928428,-0.0003266881322685585,,-1.5060101378025217,0.0409304842333899,0.07532481932000001,0.0004193798869690487,-0.5490054560575397,0.4207231528058356,-0.0016334406613427895
0.04599749699991662,,0.058553103,0.057885364,0.43344694,-0.62208164,-0.6121428,-0.48815542,-0.77928483,0.4238136,0.4616242,-0.07569298,0.66758007,-0.74068034,,0.009898189,0.04229936,0.7212636,0.2631898,-0.95471376,0.13875437,-0.95285726,-0.27975214,-0.11748041,0.15097705,-0.101293445,-0.9833339,,0.050134327,0.018812144,0.31506288,-0.9977546,-0.066845514,-0.0041886843,-0.06687087,0.9907161,0.11836292,-0.0037622326,0.11837722,-0.9929615,,-0.2001191769697797,-0.11088299860811551,0.15482628502,0.0052422485871131096,0.0002732729995308809,-0.0002228358073928428,-0.0003266881322685585,,-1.5060101378025217,0.0409304842333899,0.07532481932000001,0.0004193798869690487,-0.5490054560575397,0.4207231528058356,-0.0016334406613427895
0.07182239999929152,,0.058553103,0.057885364,0.43344694,-0.62208164,-0.6121428,-0.48815542,-0.77928483,0.4238136,0.4616242,-0.07569298,0.66758007,-0.74068034,,0.009897761,0.04229919,0.7212633,0.26319286,-0.9547139,0.13874833,-0.9528561,-0.2797546,-0.11748377,0.15097886,-0.101286285,-0.9833343,,0.050134327,0.018812144,0.31506288,-0.9977546,-0.066845514,-0.0041886843,-0.06687087,0.9907161,0.11836292,-0.0037622326,0.11837722,-0.9929615,,-0.2001191769697797,-0.11088299860811551,0.15482628502,0.0052422485871131096,0.0002732729995308809,-0.0002228358073928428,-0.0003266881322685585,,-1.5060024150696474,0.0409304842333899,0.07532481932000001,0.0004193798869690487,-0.5490054560575397,0.4207231528058356,-0.0016334406613427895
0.09846922299948346,,0.058553103,0.057885364,0.43344694,-0.62208164,-0.6121428,-0.48815542,-0.77928483,0.4238136,0.4616242,-0.07569298,0.66758007,-0.74068034,,0.009897761,0.04229919,0.7212633,0.26319286,-0.9547139,0.13874833,-0.9528561,-0.2797546,-0.11748377,0.15097886,-0.101286285,-0.9833343,,0.050134327,0.018812144,0.31506288,-0.9977546,-0.066845514,-0.0041886843,-0.06687087,0.9907161,0.11836292,-0.0037622326,0.11837722,-0.9929615,,-0.2001191769697797,-0.11088299860811551,0.15482628502,0.0052422485871131096,0.0002732729995308809,-0.0002228358073928428,-0.0003266881322685585,,-1.5060024150696474,0.0409304842333899,0.07532481932000001,0.0004193798869690487,-0.5490054560575397,0.4207231528058356,-0.0016334406613427895
0.11974686499888776,,0.058553103,0.057885364,0.43344694,-0.62208164,-0.6121428,-0.48815542,-0.77928483,0.4238136,0.4616242,-0.07569298,0.66758007,-0.74068034,,0.009897761,0.04229919,0.7212633,0.26319286,-0.9547139,0.13874833,-0.9528561,-0.2797546,-0.11748377,0.15097886,-0.101286285,-0.9833343,,0.050134327,0.018812144,0.31506288,-0.9977546,-0.066845514,-0.0041886843,-0.06687087,0.9907161,0.11836292,-0.0037622326,0.11837722,-0.9929615,,-0.2001191769697797,-0.11088299860811551,0.15482628502,0.0052422485871131096,0.0002732729995308809,-0.0002228358073928428,-0.0003266881322685585,,-1.5060024150696474,0.0409304842333899,0.07532481932000001,0.0004193798869690487,-0.5490054560575397,0.4207231528058356,-0.0016334406613427895
0.1434867169991776,,0.058553103,0.057885364,0.43344694,-0.62208164,-0.6121428,-0.48815542,-0.77928483,0.4238136,0.4616242,-0.07569298,0.66758007,-0.74068034,,0.009897761,0.04229919,0.7212633,0.26319286,-0.9547139,0.13874833,-0.9528561,-0.2797546,-0.11748377,0.15097886,-0.101286285,-0.9833343,,0.050134327,0.018812144,0.31506288,-0.9977546,-0.066845514,-0.0041886843,-0.06687087,0.9907161,0.11836292,-0.0037622326,0.11837722,-0.9929615,,-0.2001191769697797,-0.11088299860811551,0.15482628502,0.0052422485871131096,0.0002732729995308809,-0.0002228358073928428,-0.0003266881322685585,,-1.5060024150696474,0.0409304842333899,0.07532481932000001,0.0004193798869690487,-0.5490054560575397,0.4207231528058356,-0.0016334406613427895
0.1704610609995143,,0.058553103,0.057885364,0.43344694,-0.62208164,-0.6121428,-0.48815542,-0.77928483,0.4238136,0.4616242,-0.07569298,0.66758007,-0.74068034,,0.009898189,0.04229936,0.7212636,0.2631898,-0.95471376,0.13875437,-0.95285726,-0.27975214,-0.11748041,0.15097705,-0.101293445,-0.9833339,,0.050134327,0.018812144,0.31506288,-0.9977546,-0.066845514,-0.0041886843,-0.06687087,0.9907161,0.11836292,-0.0037622326,0.11837722,-0.9929615,,-0.2001191769697797,-0.11088299860811551,0.15482628502,0.0052422485871131096,0.0002732729995308809,-0.0002228358073928428,-0.0003266881322685585,,-1.5060101378025217,0.0409304842333899,0.07532481932000001,0.0004193798869690487,-0.5490054560575397,0.4207231528058356,-0.0016334406613427895
0.19334913099919504,,0.058552403,0.05788584,0.4334477,-0.6220811,-0.6121396,-0.48816016,-0.7792853,0.42380944,0.46162742,-0.07569352,0.66758573,-0.7406752,,0.009897761,0.04229919,0.7212633,0.26319286,-0.9547139,0.13874833,-0.9528561,-0.2797546,-0.11748377,0.15097886,-0.101286285,-0.9833343,,0.050134327,0.018812144,0.31506288,-0.9977546,-0.066845514,-0.0041886843,-0.06687087,0.9907161,0.11836292,-0.0037622326,0.11837722,-0.9929615,,-0.2001114542369055,-0.11088299860811551,0.15482628502,0.0052422485871131096,0.0002732729995308809,-0.0002228358073928428,-0.0003266881322685585,,-1.5060024150696474,0.0409304842333899,0.07532481932000001,0.0004193798869690487,-0.5490054560575397,0.4207231528058356,-0.0016334406613427895
0.2196498249995784,,0.058553103,0.057885364,0.43344694,-0.62208164,-0.6121428,-0.48815542,-0.77928483,0.4238136,0.4616242,-0.07569298,0.66758007,-0.74068034,,0.009898189,0.04229936,0.7212636,0.2631898,-0.95471376,0.13875437,-0.95285726,-0.27975214,-0.11748041,0.15097705,-0.101293445,-0.9833339,,0.050134327,0.018812144,0.31506288,-0.9977546,-0.066845514,-0.0041886843,-0.06687087,0.9907161,0.11836292,-0.0037622326,0.11837722,-0.9929615,,-0.2001191769697797,-0.11088299860811551,0.15482628502,0.0052422485871131096,0.0002732729995308809,-0.0002228358073928428,-0.0003266881322685585,,-1.5060101378025217,0.0409304842333899,0.07532481932000001,0.0004193798869690487,-0.5490054560575397,0.4207231528058356,-0.0016334406613427895
0.24230164300024626,,0.058553103,0.057885364,0.43344694,-0.62208164,-0.6121428,-0.48815542,-0.77928483,0.4238136,0.4616242,-0.07569298,0.66758007,-0.74068034,,0.009897761,0.04229919,0.7212633,0.26319286,-0.9547139,0.13874833,-0.9528561,-0.2797546,-0.11748377,0.15097886,-0.101286285,-0.9833343,,0.050134327,0.018812144,0.31506288,-0.9977546,-0.066845514,-0.0041886843,-0.06687087,0.9907161,0.11836292,-0.0037622326,0.11837722,-0.9929615,,-0.2001191769697797,-0.11088299860811551,0.15482628502,0.0052422485871131096,0.0002732729995308809,-0.0002228358073928428,-0.0003266881322685585,,-1.5060024150696474,0.0409304842333899,0.07532481932000001,0.0004193798869690487,-0.5490054560575397,0.4207231528058356,-0.0016334406613427895
0.2647743919987988,,0.05855239,0.057884462,0.43344685,-0.6220779,-0.6121428,-0.48816022,-0.77928853,0.42381367,0.46161816,-0.07568727,0.66758007,-0.7406809,,0.009897761,0.04229919,0.7212633,0.26319286,-0.9547139,0.13874833,-0.9528561,-0.2797546,-0.11748377,0.15097886,-0.101286285,-0.9833343,,0.050134327,0.018812144,0.31506288,-0.9977546,-0.066845514,-0.0041886843,-0.06687087,0.9907161,0.11836292,-0.0037622326,0.11837722,-0.9929615,,-0.2001191769697797,-0.11089072134098973,0.15482628502,0.0052422485871131096,0.0002732729995308809,-0.0002228358073928428,-0.0003266881322685585,,-1.5060024150696474,0.0409304842333899,0.07532481932000001,0.0004193798869690487,-0.5490054560575397,0.4207231528058356,-0.0016334406613427895
0.2900990879988967,,0.058553103,0.057885364,0.43344694,-0.62208164,-0.6121428,-0.48815542,-0.77928483,0.4238136,0.4616242,-0.07569298,0.66758007,-0.74068034,,0.009898189,0.04229936,0.7212636,0.2631898,-0.95471376,0.13875437,-0.95285726,-0.27975214,-0.11748041,0.15097705,-0.101293445,-0.9833339,,0.050134327,0.018812144,0.31506288,-0.9977546,-0.066845514,-0.0041886843,-0.06687087,0.9907161,0.11836292,-0.0037622326,0.11837722,-0.9929615,,-0.2001191769697797,-0.11088299860811551,0.15482628502,0.0052422485871131096,0.0002732729995308809,-0.0002228358073928428,-0.0003266881322685585,,-1.5060101378025217,0.0409304842333899,0.07532481932000001,0.0004193798869690487,-0.5490054560575397,0.4207231528058356,-0.0016334406613427895
0.3120241460001125,,0.058551703,0.05788631,0.43344846,-0.62208056,-0.6121364,-0.4881649,-0.77928567,0.42380524,0.46163064,-0.07569406,0.66759133,-0.7406701,,0.009897761,0.04229919,0.7212633,0.26319286,-0.9547139,0.13874833,-0.9528561,-0.2797546,-0.11748377,0.15097886,-0.101286285,-0.9833343,,0.050134327,0.018812144,0.31506288,-0.9977546,-0.066845514,-0.0041886843,-0.06687087,0.9907161,0.11836292,-0.0037622326,0.11837722,-0.9929615,,-0.20010373150403127,-0.11088299860811551,0.15482628502,0.0052422485871131096,0.0002732729995308809,-0.0002228358073928428,-0.0003266881322685585,,-1.5060024150696474,0.0409304842333899,0.07532481932000001,0.0004193798869690487,-0.5490054560575397,0.4207231528058356,-0.0016334406613427895
0.3401201189990388,,0.05855169,0.057884946,0.4334476,-0.62182057,-0.61240035,-0.48816493,-0.77946645,0.42348254,0.4616215,-0.07596784,0.66755396,-0.74067575,,0.009898189,0.04229936,0.7212636,0.2631898,-0.95471376,0.13875437,-0.95285726,-0.27975214,-0.11748041,0.15097705,-0.101293445,-0.9833339,,0.050134327,0.018812144,0.31506288,-0.9977546,-0.066845514,-0.0041886843,-0.06687087,0.9907161,0.11836292,-0.0037622326,0.11837722,-0.9929615,,-0.2001114542369055,-0.11089072134098973,0.15482628502,0.00482286870014406,0.0002732729995308809,-0.0002228358073928428,-0.0003266881322685585,,-1.5060101378025217,0.0409304842333899,0.07532481932000001,0.0004193798869690487,-0.5490054560575397,0.4207231528058356,-0.0016334406613427895
0.36252346099900024,,0.0585531,0.057885364,0.43344694,-0.62182486,-0.6124036,-0.48815545,-0.7794625,0.4234867,0.46162432,-0.07597302,0.6675484,-0.7406802,,0.009898189,0.04229936,0.7212636,0.2631898,-0.95471376,0.13875437,-0.95285726,-0.27975214,-0.11748041,0.15097705,-0.101293445,-0.9833339,,0.050134327,0.018812144,0.31506288,-0.9977546,-0.066845514,-0.0041886843,-0.06687087,0.9907161,0.11836292,-0.0037622326,0.11837722,-0.9929615,,-0.2001191769697797,-0.11088299860811551,0.15482628502,0.00482286870014406,0.0002732729995308809,-0.0002228358073928428,-0.0003266881322685585,,-1.5060101378025217,0.0409304842333899,0.07532481932000001,0.0004193798869690487,-0.5490054560575397,0.4207231528058356,-0.0016334406613427895
0.3886977009988186,,0.0585531,0.057885364,0.43344694,-0.62182486,-0.6124036,-0.48815545,-0.7794625,0.4234867,0.46162432,-0.07597302,0.6675484,-0.7406802,,0.009897761,0.04229919,0.7212633,0.26319286,-0.9547139,0.13874833,-0.9528561,-0.2797546,-0.11748377,0.15097886,-0.101286285,-0.9833343,,0.050134327,0.018812144,0.31506288,-0.9977546,-0.066845514,-0.0041886843,-0.06687087,0.9907161,0.11836292,-0.0037622326,0.11837722,-0.9929615,,-0.2001191769697797,-0.11088299860811551,0.15482628502,0.00482286870014406,0.0002732729995308809,-0.0002228358073928428,-0.0003266881322685585,,-1.5060024150696474,0.0409304842333899,0.07532481932000001,0.0004193798869690487,-0.5490054560575397,0.4207231528058356,-0.0016334406613427895
0.41050165799970273,,0.058497958,0.057927962,0.43343347,-0.62187386,-0.61237025,-0.48813498,-0.7794234,0.4235171,0.46166265,-0.075974956,0.6675597,-0.74066985,,0.009929229,0.04230047,0.72125393,0.26323077,-0.9547051,0.13873643,-0.952849,-0.27978837,-0.11746169,0.15095815,-0.101275325,-0.98333865,,0.050140485,0.018825714,0.31505853,-0.99775505,-0.06683859,-0.0041879965,-0.06686392,0.9907166,0.118362956,-0.0037620952,0.11837725,-0.9929615,,-0.2001191769697797,-0.11089072134098973,0.15482628502,0.00482286870014406,0.0002732729995308809,-0.0002228358073928428,-0.0003266881322685585,,-1.5060024150696474,0.0409304842333899,0.07532481932000001,0.0004193798869690487,-0.5490054560575397,0.4207231528058356,-0.0016334406613427895
0.43606783199902566,,0.058497265,0.057929818,0.43343508,-0.6218765,-0.61236376,-0.48813963,-0.77942055,0.42350864,0.46167517,-0.07598176,0.66757095,-0.740659,,0.009929229,0.04230047,0.72125393,0.26323077,-0.9547051,0.13873643,-0.952849,-0.27978837,-0.11746169,0.15095815,-0.101275325,-0.98333865,,0.050140485,0.018825714,0.31505853,-0.99775505,-0.06683859,-0.0041879965,-0.06686392,0.9907166,0.118362956,-0.0037620952,0.11837725,-0.9929615,,-0.20010373150403127,-0.11088299860811551,0.15482628502,0.00482286870014406,0.0002732729995308809,-0.0002228358073928428,-0.0003266881322685585,,-1.5060024150696474,0.0409304842333899,0.07532481932000001,0.0004193798869690487,-0.5490054560575397,0.4207231528058356,-0.0016334406613427895
0.4612834359995759,,0.058497965,0.057929337,0.43343434,-0.6218771,-0.61236703,-0.48813492,-0.77942014,0.42351285,0.46167192,-0.07598122,0.66756535,-0.74066406,,0.009929229,0.04230047,0.72125393,0.26323077,-0.9547051,0.13873643,-0.952849,-0.27978837,-0.11746169,0.15095815,-0.101275325,-0.98333865,,0.050140485,0.018825714,0.31505853,-0.99775505,-0.06683859,-0.0041879965,-0.06686392,0.9907166,0.118362956,-0.0037620952,0.11837725,-0.9929615,,-0.2001114542369055,-0.11088299860811551,0.15482628502,0.00482286870014406,0.0002732729995308809,-0.0002228358073928428,-0.0003266881322685585,,-1.5060024150696474,0.0409304842333899,0.07532481932000001,0.0004193798869690487,-0.5490054560575397,0.4207231528058356,-0.0016334406613427895
0.48589940700003353,,0.058497965,0.057929337,0.43343434,-0.6218771,-0.61236703,-0.48813492,-0.77942014,0.42351285,0.46167192,-0.07598122,0.66756535,-0.74066406,,0.009930145,0.042299747,0.7212539,0.26321974,-0.9547068,0.13874617,-0.9528502,-0.27977988,-0.11747177,0.15096949,-0.101283446,-0.9833361,,0.050140485,0.018825714,0.31505853,-0.99775505,-0.06683859,-0.0041879965,-0.06686392,0.9907166,0.118362956,-0.0037620952,0.11837725,-0.9929615,,-0.2001114542369055,-0.11088299860811551,0.15482628502,0.00482286870014406,0.0002732729995308809,-0.0002228358073928428,-0.0003266881322685585,,-1.5060101378025217,0.04091503876764145,0.07532481932000001,0.0004193798869690487,-0.5490054560575397,0.4207231528058356,-0.0016334406613427895
0.5108571849996224,,0.058498666,0.05792886,0.43343356,-0.62187755,-0.61237025,-0.4881302,-0.7794198,0.4235171,0.46166873,-0.07598067,0.6675597,-0.7406692,,0.009929717,0.04229959,0.72125363,0.2632228,-0.9547068,0.13874015,-0.9528491,-0.27978235,-0.11747512,0.15097132,-0.101276286,-0.98333657,,0.050140485,0.018825714,0.31505853,-0.99775505,-0.06683859,-0.0041879965,-0.06686392,0.9907166,0.118362956,-0.0037620952,0.11837725,-0.9929615,,-0.2001191769697797,-0.11088299860811551,0.15482628502,0.00482286870014406,0.0002732729995308809,-0.0002228358073928428,-0.0003266881322685585,,-1.5060024150696474,0.04091503876764145,0.07532481932000001,0.0004193798869690487,-0.5490054560575397,0.4207231528058356,-0.0016334406613427895
0.5348175330000231,,0.058497965,0.057929337,0.43343434,-0.6218771,-0.61236703,-0.48813492,-0.77942014,0.42351285,0.46167192,-0.07598122,0.66756535,-0.74066406,,0.009930145,0.042299747,0.7212539,0.26321974,-0.9547068,0.13874617,-0.9528502,-0.27977988,-0.11747177,0.15096949,-0.101283446,-0.9833361,,0.050140485,0.018825714,0.31505853,-0.99775505,-0.06683859,-0.0041879965,-0.06686392,0.9907166,0.118362956,-0.0037620952,0.11837725,-0.9929615,,-0.2001114542369055,-0.11088299860811551,0.15482628502,0.00482286870014406,0.0002732729995308809,-0.0002228358073928428,-0.0003266881322685585,,-1.5060101378025217,0.04091503876764145,0.07532481932000001,0.0004193798869690487,-0.5490054560575397,0.4207231528058356,-0.0016334406613427895
0.5593373869996867,,0.058498666,0.05792886,0.43343356,-0.62187755,-0.61237025,-0.4881302,-0.7794198,0.4235171,0.46166873,-0.07598067,0.6675597,-0.7406692,,0.009929717,0.04229959,0.72125363,0.2632228,-0.95471805,0.13866216,-0.9528491,-0.27977273,-0.11749798,0.15097132,-0.10119597,-0.98334473,,0.050140485,0.018825714,0.31505853,-0.99775505,-0.06683859,-0.0041879965,-0.06686392,0.9907166,0.118362956,-0.0037620952,0.11837725,-0.9929615,,-0.2001191769697797,-0.11088299860811551,0.15482628502,0.00482286870014406,0.0002732729995308809,-0.0002228358073928428,-0.0003266881322685585,,-1.5060024150696474,0.04091503876764145,0.07532481932000001,0.0004193798869690487,-0.5490054560575397,0.4208048315459762,-0.0014700965952085115
0.5802459239985183,,0.058497265,0.057929818,0.43343508,-0.6218765,-0.61236376,-0.48813963,-0.77942055,0.42350864,0.46167517,-0.07598176,0.66757095,-0.740659,,0.009929717,0.04229959,0.72125363,0.2632228,-0.9547294,0.1385842,-0.9528491,-0.27976316,-0.11752082,0.15097132,-0.101115644,-0.983353,,0.050140485,0.018825714,0.31505853,-0.99775505,-0.06683859,-0.0041879965,-0.06686392,0.9907166,0.118362956,-0.0037620952,0.11837725,-0.9929615,,-0.20010373150403127,-0.11088299860811551,0.15482628502,0.00482286870014406,0.0002732729995308809,-0.0002228358073928428,-0.0003266881322685585,,-1.5060024150696474,0.04091503876764145,0.07532481932000001,0.0004193798869690487,-0.5490054560575397,0.42088651028611673,-0.0013067525290742371
0.6057451769993349,,0.058497265,0.057929818,0.43343508,-0.6218765,-0.61236376,-0.48813963,-0.77942055,0.42350864,0.46167517,-0.07598176,0.66757095,-0.740659,,0.009929717,0.04229959,0.72125363,0.2632228,-0.9547294,0.1385842,-0.9528491,-0.27976316,-0.11752082,0.15097132,-0.101115644,-0.983353,,0.050140485,0.018825714,0.31505853,-0.99775505,-0.06683859,-0.0041879965,-0.06686392,0.9907166,0.118362956,-0.0037620952,0.11837725,-0.9929615,,-0.20010373150403127,-0.11088299860811551,0.15482628502,0.00482286870014406,0.0002732729995308809,-0.0002228358073928428,-0.0003266881322685585,,-1.5060024150696474,0.04091503876764145,0.07532481932000001,0.0004193798869690487,-0.5490054560575397,0.42088651028611673,-0.0013067525290742371
0.6321794969990151,,0.058497965,0.057929337,0.43343434,-0.6218771,-0.61236703,-0.48813492,-0.77942014,0.42351285,0.46167192,-0.07598122,0.66756535,-0.74066406,,0.009929717,0.04229959,0.72125363,0.2632228,-0.9547294,0.1385842,-0.9528491,-0.27976316,-0.11752082,0.15097132,-0.101115644,-0.983353,,0.050140485,0.018825714,0.31505853,-0.99775505,-0.06683859,-0.0041879965,-0.06686392,0.9907166,0.118362956,-0.0037620952,0.11837725,-0.9929615,,-0.2001114542369055,-0.11088299860811551,0.15482628502,0.00482286870014406,0.0002732729995308809,-0.0002228358073928428,-0.0003266881322685585,,-1.5060024150696474,0.04091503876764145,0.07532481932000001,0.0004193798869690487,-0.5490054560575397,0.42088651028611673,-0.0013067525290742371
0.6569128619994444,,0.058497965,0.057929337,0.43343434,-0.6218771,-0.61236703,-0.48813492,-0.77942014,0.42351285,0.46167192,-0.07598122,0.66756535,-0.74066406,,0.009930145,0.042299747,0.7212539,0.26321974,-0.9547293,0.13859023,-0.9528502,-0.2797607,-0.11751747,0.15096949,-0.1011228,-0.9833526,,0.050140485,0.018825714,0.31505853,-0.99775505,-0.06683859,-0.0041879965,-0.06686392,0.9907166,0.118362956,-0.0037620952,0.11837725,-0.9929615,,-0.2001114542369055,-0.11088299860811551,0.15482628502,0.00482286870014406,0.0002732729995308809,-0.0002228358073928428,-0.0003266881322685585,,-1.5060101378025217,0.04091503876764145,0.07532481932000001,0.0004193798869690487,-0.5490054560575397,0.42088651028611673,-0.0013067525290742371
0.6811926430000312,,0.058497958,0.057927962,0.43343347,-0.62187386,-0.61237025,-0.48813498,-0.7794234,0.4235171,0.46166265,-0.075974956,0.6675597,-0.74066985,,0.009929717,0.04229959,0.72125363,0.2632228,-0.9547294,0.1385842,-0.9528491,-0.27976316,-0.11752082,0.15097132,-0.101115644,-0.983353,,0.050140485,0.018825714,0.31505853,-0.99775505,-0.06683859,-0.0041879965,-0.06686392,0.9907166,0.118362956,-0.0037620952,0.11837725,-0.9929615,,-0.2001191769697797,-0.11089072134098973,0.15482628502,0.00482286870014406,0.0002732729995308809,-0.0002228358073928428,-0.0003266881322685585,,-1.5060024150696474,0.04091503876764145,0.07532481932000001,0.0004193798869690487,-0.5490054560575397,0.42088651028611673,-0.0013067525290742371
0.7051707279988477,,0.058498666,0.05792886,0.43343356,-0.62187755,-0.61237025,-0.4881302,-0.7794198,0.4235171,0.46166873,-0.07598067,0.6675597,-0.7406692,,0.009929717,0.04229959,0.72125363,0.2632228,-0.9547294,0.1385842,-0.9528491,-0.27976316,-0.11752082,0.15097132,-0.101115644,-0.983353,,0.050140485,0.018825714,0.31505853,-0.99775505,-0.06683859,-0.0041879965,-0.06686392,0.9907166,0.118362956,-0.0037620952,0.11837725,-0.9929615,,-0.2001191769697797,-0.11088299860811551,0.15482628502,0.00482286870014406,0.0002732729995308809,-0.0002228358073928428,-0.0003266881322685585,,-1.5060024150696474,0.04091503876764145,0.07532481932000001,0.0004193798869690487,-0.5490054560575397,0.42088651028611673,-0.0013067525290742371
0.7276720819991169,,0.058498666,0.05792886,0.43343356,-0.62187755,-0.61237025,-0.4881302,-0.7794198,0.4235171,0.46166873,-0.07598067,0.6675597,-0.7406692,,0.009929717,0.04229959,0.72125363,0.2632228,-0.9547294,0.1385842,-0.9528491,-0.27976316,-0.11752082,0.15097132,-0.101115644,-0.983353,,0.050140485,0.018825714,0.31505853,-0.99775505,-0.06683859,-0.0041879965,-0.06686392,0.9907166,0.118362956,-0.0037620952,0.11837725,-0.9929615,,-0.2001191769697797,-0.11088299860811551,0.15482628502,0.00482286870014406,0.0002732729995308809,-0.0002228358073928428,-0.0003266881322685585,,-1.5060024150696474,0.04091503876764145,0.07532481932000001,0.0004193798869690487,-0.5490054560575397,0.42088651028611673,-0.0013067525290742371
0.7538424919985118,,0.058498666,0.05792886,0.43343356,-0.62187755,-0.61237025,-0.4881302,-0.7794198,0.4235171,0.46166873,-0.07598067,0.6675597,-0.7406692,,0.009929717,0.04229959,0.72125363,0.2632228,-0.9547294,0.1385842,-0.9528491,-0.27976316,-0.11752082,0.15097132,-0.101115644,-0.983353,,0.050140485,0.018825714,0.31505853,-0.99775505,-0.06683859,-0.0041879965,-0.06686392,0.9907166,0.118362956,-0.0037620952,0.11837725,-0.9929615,,-0.2001191769697797,-0.11088299860811551,0.15482628502,0.00482286870014406,0.0002732729995308809,-0.0002228358073928428,-0.0003266881322685585,,-1.5060024150696474,0.04091503876764145,0.07532481932000001,0.0004193798869690487,-0.5490054560575397,0.42088651028611673,-0.0013067525290742371
0.7760735079991719,,0.058498666,0.05792886,0.43343356,-0.62187755,-0.61237025,-0.4881302,-0.7794198,0.4235171,0.46166873,-0.07598067,0.6675597,-0.7406692,,0.009929717,0.04229959,0.72125363,0.2632228,-0.9547294,0.1385842,-0.9528491,-0.27976316,-0.11752082,0.15097132,-0.101115644,-0.983353,,0.050140485,0.018825714,0.31505853,-0.99775505,-0.06683859,-0.0041879965,-0.06686392,0.9907166,0.118362956,-0.0037620952,0.11837725,-0.9929615,,-0.2001191769697797,-0.11088299860811551,0.15482628502,0.00482286870014406,0.0002732729995308809,-0.0002228358073928428,-0.0003266881322685585,,-1.5060024150696474,0.04091503876764145,0.07532481932000001,0.0004193798869690487,-0.5490054560575397,0.42088651028611673,-0.0013067525290742371
0.8027044919999753,,0.058498666,0.05792886,0.43343356,-0.62187755,-0.61237025,-0.4881302,-0.7794198,0.4235171,0.46166873,-0.07598067,0.6675597,-0.7406692,,0.009929717,0.04229959,0.72125363,0.2632228,-0.9547294,0.1385842,-0.9528491,-0.27976316,-0.11752082,0.15097132,-0.101115644,-0.983353,,0.050140485,0.018825714,0.31505853,-0.99775505,-0.06683859,-0.0041879965,-0.06686392,0.9907166,0.118362956,-0.0037620952,0.11837725,-0.9929615,,-0.2001191769697797,-0.11088299860811551,0.15482628502,0.00482286870014406,0.0002732729995308809,-0.0002228358073928428,-0.0003266881322685585,,-1.5060024150696474,0.04091503876764145,0.07532481932000001,0.0004193798869690487,-0.5490054560575397,0.42088651028611673,-0.0013067525290742371
0.8253481719984848,,0.058498666,0.05792886,0.43343356,-0.62187755,-0.61237025,-0.4881302,-0.7794198,0.4235171,0.46166873,-0.07598067,0.6675597,-0.7406692,,0.009930145,0.042299747,0.7212539,0.26321974,-0.9547293,0.13859023,-0.9528502,-0.2797607,-0.11751747,0.15096949,-0.1011228,-0.9833526,,0.050140485,0.018825714,0.31505853,-0.99775505,-0.06683859,-0.0041879965,-0.06686392,0.9907166,0.118362956,-0.0037620952,0.11837725,-0.9929615,,-0.2001191769697797,-0.11088299860811551,0.15482628502,0.00482286870014406,0.0002732729995308809,-0.0002228358073928428,-0.0003266881322685585,,-1.5060101378025217,0.04091503876764145,0.07532481932000001,0.0004193798869690487,-0.5490054560575397,0.42088651028611673,-0.0013067525290742371
0.8456171910002013,,0.058497123,0.057926923,0.43343338,-0.6217441,-0.61226135,-0.48843655,-0.7795459,0.4234142,0.46155006,-0.07577832,0.6677248,-0.74054116,,0.009930145,0.042299747,0.7212539,0.26321974,-0.9547293,0.13859023,-0.9528502,-0.2797607,-0.11751747,0.15096949,-0.1011228,-0.9833526,,0.050140485,0.018825714,0.31505853,-0.99775505,-0.06683859,-0.0041879965,-0.06686392,0.9907166,0.118362956,-0.0037620952,0.11837725,-0.9929615,,-0.2001191769697797,-0.11088299860811551,0.15482628502,0.00482286870014406,0.0,0.0,-0.0003266881322685585,,-1.5060101378025217,0.04091503876764145,0.07532481932000001,0.0004193798869690487,-0.5490054560575397,0.42088651028611673,-0.0013067525290742371
0.8741107119985827,,0.058497123,0.057926923,0.43343338,-0.6217441,-0.61226135,-0.48843655,-0.7795459,0.4234142,0.46155006,-0.07577832,0.6677248,-0.74054116,,0.009929717,0.04229959,0.72125363,0.2632228,-0.9547294,0.1385842,-0.9528491,-0.27976316,-0.11752082,0.15097132,-0.101115644,-0.983353,,0.050140485,0.018825714,0.31505853,-0.99775505,-0.06683859,-0.0041879965,-0.06686392,0.9907166,0.118362956,-0.0037620952,0.11837725,-0.9929615,,-0.2001191769697797,-0.11088299860811551,0.15482628502,0.00482286870014406,0.0,0.0,-0.0003266881322685585,,-1.5060024150696474,0.04091503876764145,0.07532481932000001,0.0004193798869690487,-0.5490054560575397,0.42088651028611673,-0.0013067525290742371
0.896385083999121,,0.058497123,0.057926923,0.43343338,-0.6217441,-0.61226135,-0.48843655,-0.7795459,0.4234142,0.46155006,-0.07577832,0.6677248,-0.74054116,,0.009929717,0.04229959,0.72125363,0.2632228,-0.9547294,0.1385842,-0.9528491,-0.27976316,-0.11752082,0.15097132,-0.101115644,-0.983353,,0.050140485,0.018825714,0.31505853,-0.99775505,-0.06683859,-0.0041879965,-0.06686392,0.9907166,0.118362956,-0.0037620952,0.11837725,-0.9929615,,-0.2001191769697797,-0.11088299860811551,0.15482628502,0.00482286870014406,0.0,0.0,-0.0003266881322685585,,-1.5060024150696474,0.04091503876764145,0.07532481932000001,0.0004193798869690487,-0.5490054560575397,0.42088651028611673,-0.0013067525290742371
0.9233202269988396,,0.058497123,0.057926923,0.43343338,-0.6217441,-0.61226135,-0.48843655,-0.7795459,0.4234142,0.46155006,-0.07577832,0.6677248,-0.74054116,,0.009929717,0.04229959,0.72125363,0.2632228,-0.9547294,0.1385842,-0.9528491,-0.27976316,-0.11752082,0.15097132,-0.101115644,-0.983353,,0.050140485,0.018825714,0.31505853,-0.99775505,-0.06683859,-0.0041879965,-0.06686392,0.9907166,0.118362956,-0.0037620952,0.11837725,-0.9929615,,-0.2001191769697797,-0.11088299860811551,0.15482628502,0.00482286870014406,0.0,0.0,-0.0003266881322685585,,-1.5060024150696474,0.04091503876764145,0.07532481932000001,0.0004193798869690487,-0.5490054560575397,0.42088651028611673,-0.0013067525290742371
0.9446760099999665,,0.058496412,0.057926025,0.4334333,-0.62174034,-0.61226135,-0.48844132,-0.7795495,0.42341423,0.461544,-0.0757726,0.6677247,-0.74054176,,0.009929717,0.04229959,0.72125363,0.2632228,-0.9547294,0.1385842,-0.9528491,-0.27976316,-0.11752082,0.15097132,-0.101115644,-0.983353,,0.050140485,0.018825714,0.31505853,-0.99775505,-0.06683859,-0.0041879965,-0.06686392,0.9907166,0.118362956,-0.0037620952,0.11837725,-0.9929615,,-0.2001191769697797,-0.11089072134098973,0.15482628502,0.00482286870014406,0.0,0.0,-0.0003266881322685585,,-1.5060024150696474,0.04091503876764145,0.07532481932000001,0.0004193798869690487,-0.5490054560575397,0.42088651028611673,-0.0013067525290742371
0.9684015530001489,,0.058497123,0.057926923,0.43343338,-0.6217441,-0.61226135,-0.48843655,-0.7795459,0.4234142,0.46155006,-0.07577832,0.6677248,-0.74054116,,0.009929717,0.04229959,0.72125363,0.2632228,-0.9547294,0.1385842,-0.9528491,-0.27976316,-0.11752082,0.15097132,-0.101115644,-0.983353,,0.050140485,0.018825714,0.31505853,-0.99775505,-0.06683859,-0.0041879965,-0.06686392,0.9907166,0.118362956,-0.0037620952,0.11837725,-0.9929615,,-0.2001191769697797,-0.11088299860811551,0.15482628502,0.00482286870014406,0.0,0.0,-0.0003266881322685585,,-1.5060024150696474,0.04091503876764145,0.07532481932000001,0.0004193798869690487,-0.5490054560575397,0.42088651028611673,-0.0013067525290742371
0.99356782599898,,0.058496423,0.0579274,0.43343413,-0.6220003,-0.61199737,-0.4884413,-0.77936864,0.42373684,0.46155328,-0.075498804,0.6677621,-0.7405361,,0.009930145,0.042299747,0.7212539,0.26321974,-0.9547293,0.13859023,-0.9528502,-0.2797607,-0.11751747,0.15096949,-0.1011228,-0.9833526,,0.050140485,0.018825714,0.31505853,-0.99775505,-0.06683859,-0.0041879965,-0.06686392,0.9907166,0.118362956,-0.0037620952,0.11837725,-0.9929615,,-0.2001114542369055,-0.11088299860811551,0.15482628502,0.0052422485871131096,0.0,0.0,-0.0003266881322685585,,-1.5060101378025217,0.04091503876764145,0.07532481932000001,0.0004193798869690487,-0.5490054560575397,0.42088651028611673,-0.0013067525290742371
1.0160582680000516,,0.058496423,0.0579274,0.43343413,-0.6220003,-0.61199737,-0.4884413,-0.77936864,0.42373684,0.46155328,-0.075498804,0.6677621,-0.7405361,,0.009930145,0.042299747,0.7212539,0.26321974,-0.9547293,0.13859023,-0.9528502,-0.2797607,-0.11751747,0.15096949,-0.1011228,-0.9833526,,0.050140485,0.018825714,0.31505853,-0.99775505,-0.06683859,-0.0041879965,-0.06686392,0.9907166,0.118362956,-0.0037620952,0.11837725,-0.9929615,,-0.2001114542369055,-0.11088299860811551,0.15482628502,0.0052422485871131096,0.0,0.0,-0.0003266881322685585,,-1.5060101378025217,0.04091503876764145,0.07532481932000001,0.0004193798869690487,-0.5490054560575397,0.42088651028611673,-0.0013067525290742371
1.0440172009984963,,0.058497123,0.057926923,0.43343338,-0.6220009,-0.61200064,-0.48843655,-0.7793683,0.42374107,0.46155006,-0.075498275,0.6677565,-0.74054116,,0.009930145,0.042299747,0.7212539,0.26321974,-0.9547293,0.13859023,-0.9528502,-0.2797607,-0.11751747,0.15096949,-0.1011228,-0.9833526,,0.050140485,0.018825714,0.31505853,-0.99775505,-0.06683859,-0.0041879965,-0.06686392,0.9907166,0.118362956,-0.0037620952,0.11837725,-0.9929615,,-0.2001191769697797,-0.11088299860811551,0.15482628502,0.0052422485871131096,0.0,0.0,-0.0003266881322685585,,-1.5060101378025217,0.04091503876764145,0.07532481932000001,0.0004193798869690487,-0.5490054560575397,0.42088651028611673,-0.0013067525290742371
1.069066281999767,,0.058497123,0.057926923,0.43343338,-0.6220009,-0.61200064,-0.48843655,-0.7793683,0.42374107,0.46155006,-0.075498275,0.6677565,-0.74054116,,0.009929717,0.04229959,0.72125363,0.2632228,-0.9547294,0.1385842,-0.9528491,-0.27976316,-0.11752082,0.15097132,-0.101115644,-0.983353,,0.050140485,0.018825714,0.31505853,-0.99775505,-0.06683859,-0.0041879965,-0.06686392,0.9907166,0.118362956,-0.0037620952,0.11837725,-0.9929615,,-0.2001191769697797,-0.11088299860811551,0.15482628502,0.0052422485871131096,0.0,0.0,-0.0003266881322685585,,-1.5060024150696474,0.04091503876764145,0.07532481932000001,0.0004193798869690487,-0.5490054560575397,0.42088651028611673,-0.0013067525290742371
1.0951263030001428,,0.058497123,0.057926923,0.43343338,-0.6220009,-0.61200064,-0.48843655,-0.7793683,0.42374107,0.46155006,-0.075498275,0.6677565,-0.74054116,,0.009929717,0.04229959,0.72125363,0.2632228,-0.9547294,0.1385842,-0.9528491,-0.27976316,-0.11752082,0.15097132,-0.101115644,-0.983353,,0.050140485,0.018825714,0.31505853,-0.99775505,-0.06683859,-0.0041879965,-0.06686392,0.9907166,0.118362956,-0.0037620952,0.11837725,-0.9929615,,-0.2001191769697797,-0.11088299860811551,0.15482628502,0.0052422485871131096,0.0,0.0,-0.0003266881322685585,,-1.5060024150696474,0.04091503876764145,0.07532481932000001,0.0004193798869690487,-0.5490054560575397,0.42088651028611673,-0.0013067525290742371
1.1198574489990278,,0.058497123,0.057926923,0.43343338,-0.6220009,-0.61200064,-0.48843655,-0.7793683,0.42374107,0.46155006,-0.075498275,0.6677565,-0.74054116,,0.009929717,0.04229959,0.72125363,0.2632228,-0.9547294,0.1385842,-0.9528491,-0.27976316,-0.11752082,0.15097132,-0.101115644,-0.983353,,0.050140485,0.018825714,0.31505853,-0.99775505,-0.06683859,-0.0041879965,-0.06686392,0.9907166,0.118362956,-0.0037620952,0.11837725,-0.9929615,,-0.2001191769697797,-0.11088299860811551,0.15482628502,0.0052422485871131096,0.0,0.0,-0.0003266881322685585,,-1.5060024150696474,0.04091503876764145,0.07532481932000001,0.0004193798869690487,-0.5490054560575397,0.42088651028611673,-0.0013067525290742371
1.1448962819995359,,0.058496423,0.0579274,0.43343413,-0.6220003,-0.61199737,-0.4884413,-0.77936864,0.42373684,0.46155328,-0.075498804,0.6677621,-0.7405361,,0.009929717,0.04229959,0.72125363,0.2632228,-0.9547294,0.1385842,-0.9528491,-0.27976316,-0.11752082,0.15097132,-0.101115644,-0.983353,,0.050140485,0.018825714,0.31505853,-0.99775505,-0.06683859,-0.0041879965,-0.06686392,0.9907166,0.118362956,-0.0037620952,0.11837725,-0.9929615,,-0.2001114542369055,-0.11088299860811551,0.15482628502,0.0052422485871131096,0.0,0.0,-0.0003266881322685585,,-1.5060024150696474,0.04091503876764145,0.07532481932000001,0.0004193798869690487,-0.5490054560575397,0.42088651028611673,-0.0013067525290742371
1.169155306999528,,0.058496423,0.0579274,0.43343413,-0.6220003,-0.61199737,-0.4884413,-0.77936864,0.42373684,0.46155328,-0.075498804,0.6677621,-0.7405361,,0.009930145,0.042299747,0.7212539,0.26321974,-0.9547293,0.13859023,-0.9528502,-0.2797607,-0.11751747,0.15096949,-0.1011228,-0.9833526,,0.050140485,0.018825714,0.31505853,-0.99775505,-0.06683859,-0.0041879965,-0.06686392,0.9907166,0.118362956,-0.0037620952,0.11837725,-0.9929615,,-0.2001114542369055,-0.11088299860811551,0.15482628502,0.0052422485871131096,0.0,0.0,-0.0003266881322685585,,-1.5060101378025217,0.04091503876764145,0.07532481932000001,0.0004193798869690487,-0.5490054560575397,0.42088651028611673,-0.0013067525290742371
1.1931894199988164,,0.058497123,0.057926923,0.43343338,-0.6220009,-0.61200064,-0.48843655,-0.7793683,0.42374107,0.46155006,-0.075498275,0.6677565,-0.74054116,,0.009930145,0.042299747,0.7212539,0.26321974,-0.9547293,0.13859023,-0.9528502,-0.2797607,-0.11751747,0.15096949,-0.1011228,-0.9833526,,0.050140485,0.018825714,0.31505853,-0.99775505,-0.06683859,-0.0041879965,-0.06686392,0.9907166,0.118362956,-0.0037620952,0.11837725,-0.9929615,,-0.2001191769697797,-0.11088299860811551,0.15482628502,0.0052422485871131096,0.0,0.0,-0.0003266881322685585,,-1.5060101378025217,0.04091503876764145,0.07532481932000001,0.0004193798869690487,-0.5490054560575397,0.42088651028611673,-0.0013067525290742371
1.2200703500002419,,0.058496412,0.057926025,0.4334333,-0.621997,-0.61200064,-0.48844132,-0.7793719,0.42374107,0.461544,-0.07549256,0.6677565,-0.74054176,,0.009930145,0.042299747,0.7212539,0.26321974,-0.9547293,0.13859023,-0.9528502,-0.2797607,-0.11751747,0.15096949,-0.1011228,-0.9833526,,0.050140485,0.018825714,0.31505853,-0.99775505,-0.06683859,-0.0041879965,-0.06686392,0.9907166,0.118362956,-0.0037620952,0.11837725,-0.9929615,,-0.2001191769697797,-0.11089072134098973,0.15482628502,0.0052422485871131096,0.0,0.0,-0.0003266881322685585,,-1.5060101378025217,0.04091503876764145,0.07532481932000001,0.0004193798869690487,-0.5490054560575397,0.42088651028611673,-0.0013067525290742371
1.242162089998601,,0.058497123,0.057926923,0.43343338,-0.6220009,-0.61200064,-0.48843655,-0.7793683,0.42374107,0.46155006,-0.075498275,0.6677565,-0.74054116,,0.009929717,0.04229959,0.72125363,0.2632228,-0.9547294,0.1385842,-0.9528491,-0.27976316,-0.11752082,0.15097132,-0.101115644,-0.983353,,0.050140485,0.018825714,0.31505853,-0.99775505,-0.06683859,-0.0041879965,-0.06686392,0.9907166,0.118362956,-0.0037620952,0.11837725,-0.9929615,,-0.2001191769697797,-0.11088299860811551,0.15482628502,0.0052422485871131096,0.0,0.0,-0.0003266881322685585,,-1.5060024150696474,0.04091503876764145,0.07532481932000001,0.0004193798869690487,-0.5490054560575397,0.42088651028611673,-0.0013067525290742371
1.2711318139990908,,0.058497123,0.057926923,0.43343338,-0.6220009,-0.61200064,-0.48843655,-0.7793683,0.42374107,0.46155006,-0.075498275,0.6677565,-0.74054116,,0.009929717,0.04229959,0.72125363,0.2632228,-0.9547294,0.1385842,-0.9528491,-0.27976316,-0.11752082,0.15097132,-0.101115644,-0.983353,,0.050140485,0.018825714,0.31505853,-0.99775505,-0.06683859,-0.0041879965,-0.06686392,0.9907166,0.118362956,-0.0037620952,0.11837725,-0.9929615,,-0.2001191769697797,-0.11088299860811551,0.15482628502,0.0052422485871131096,0.0,0.0,-0.0003266881322685585,,-1.5060024150696474,0.04091503876764145,0.07532481932000001,0.0004193798869690487,-0.5490054560575397,0.42088651028611673,-0.0013067525290742371
1.2937353279994568,,0.058497123,0.057926923,0.43343338,-0.6220009,-0.61200064,-0.48843655,-0.7793683,0.42374107,0.46155006,-0.075498275,0.6677565,-0.74054116,,0.009929717,0.04229959,0.72125363,0.2632228,-0.9547294,0.1385842,-0.9528491,-0.27976316,-0.11752082,0.15097132,-0.101115644,-0.983353,,0.050140485,0.018825714,0.31505853,-0.99775505,-0.06683859,-0.0041879965,-0.06686392,0.9907166,0.118362956,-0.0037620952,0.11837725,-0.9929615,,-0.2001191769697797,-0.11088299860811551,0.15482628502,0.0052422485871131096,0.0,0.0,-0.0003266881322685585,,-1.5060024150696474,0.04091503876764145,0.07532481932000001,0.0004193798869690487,-0.5490054560575397,0.42088651028611673,-0.0013067525290742371
1.3195899429993005,,0.058497123,0.057926923,0.43343338,-0.6220009,-0.61200064,-0.48843655,-0.7793683,0.42374107,0.46155006,-0.075498275,0.6677565,-0.74054116,,0.009930145,0.042299747,0.7212539,0.26321974,-0.9547293,0.13859023,-0.9528502,-0.2797607,-0.11751747,0.15096949,-0.1011228,-0.9833526,,0.050140485,0.018825714,0.31505853,-0.99775505,-0.06683859,-0.0041879965,-0.06686392,0.9907166,0.118362956,-0.0037620952,0.11837725,-0.9929615,,-0.2001191769697797,-0.11088299860811551,0.15482628502,0.0052422485871131096,0.0,0.0,-0.0003266881322685585,,-1.5060101378025217,0.04091503876764145,0.07532481932000001,0.0004193798869690487,-0.5490054560575397,0.42088651028611673,-0.0013067525290742371
1.3430143549994682,,0.058497123,0.057926923,0.43343338,-0.6220009,-0.61200064,-0.48843655,-0.7793683,0.42374107,0.46155006,-0.075498275,0.6677565,-0.74054116,,0.009930145,0.042299747,0.7212539,0.26321974,-0.9547293,0.13859023,-0.9528502,-0.2797607,-0.11751747,0.15096949,-0.1011228,-0.9833526,,0.050140485,0.018825714,0.31505853,-0.99775505,-0.06683859,-0.0041879965,-0.06686392,0.9907166,0.118362956,-0.0037620952,0.11837725,-0.9929615,,-0.2001191769697797,-0.11088299860811551,0.15482628502,0.0052422485871131096,0.0,0.0,-0.0003266881322685585,,-1.5060101378025217,0.04091503876764145,0.07532481932000001,0.0004193798869690487,-0.5490054560575397,0.42088651028611673,-0.0013067525290742371
1.3694113259989535,,0.058496423,0.0579274,0.43343413,-0.6220003,-0.61199737,-0.4884413,-0.77936864,0.42373684,0.46155328,-0.075498804,0.6677621,-0.7405361,,0.009929717,0.04229959,0.72125363,0.2632228,-0.95471805,0.13866216,-0.9528491,-0.27977273,-0.11749798,0.15097132,-0.10119597,-0.98334473,,0.050140485,0.018825714,0.31505853,-0.99775505,-0.06683859,-0.0041879965,-0.06686392,0.9907166,0.118362956,-0.0037620952,0.11837725,-0.9929615,,-0.2001114542369055,-0.11088299860811551,0.15482628502,0.0052422485871131096,0.0,0.0,-0.0003266881322685585,,-1.5060024150696474,0.04091503876764145,0.07532481932000001,0.0004193798869690487,-0.5490054560575397,0.4208048315459762,-0.0014700965952085115
1.3904660989992408,,0.058497123,0.057926923,0.43343338,-0.6220009,-0.61200064,-0.48843655,-0.7793683,0.42374107,0.46155006,-0.075498275,0.6677565,-0.74054116,,0.009929717,0.04229959,0.72125363,0.2632228,-0.9547068,0.13874015,-0.9528491,-0.27978235,-0.11747512,0.15097132,-0.101276286,-0.98333657,,0.050140485,0.018825714,0.31505853,-0.99775505,-0.06683859,-0.0041879965,-0.06686392,0.9907166,0.118362956,-0.0037620952,0.11837725,-0.9929615,,-0.2001191769697797,-0.11088299860811551,0.15482628502,0.0052422485871131096,0.0,0.0,-0.0003266881322685585,,-1.5060024150696474,0.04091503876764145,0.07532481932000001,0.0004193798869690487,-0.5490054560575397,0.4207231528058356,-0.0016334406613427895
1.412994741998773,,0.058497123,0.057926923,0.43343338,-0.6220009,-0.61200064,-0.48843655,-0.7793683,0.42374107,0.46155006,-0.075498275,0.6677565,-0.74054116,,0.009929717,0.04229959,0.72125363,0.2632228,-0.9547068,0.13874015,-0.9528491,-0.27978235,-0.11747512,0.15097132,-0.101276286,-0.98333657,,0.050140485,0.018825714,0.31505853,-0.99775505,-0.06683859,-0.0041879965,-0.06686392,0.9907166,0.118362956,-0.0037620952,0.11837725,-0.9929615,,-0.2001191769697797,-0.11088299860811551,0.15482628502,0.0052422485871131096,0.0,0.0,-0.0003266881322685585,,-1.5060024150696474,0.04091503876764145,0.07532481932000001,0.0004193798869690487,-0.5490054560575397,0.4207231528058356,-0.0016334406613427895
1.4411766899993381,,0.058497123,0.057926923,0.43343338,-0.6220009,-0.61200064,-0.48843655,-0.7793683,0.42374107,0.46155006,-0.075498275,0.6677565,-0.74054116,,0.009929717,0.04229959,0.72125363,0.2632228,-0.9547068,0.13874015,-0.9528491,-0.27978235,-0.11747512,0.15097132,-0.101276286,-0.98333657,,0.050140485,0.018825714,0.31505853,-0.99775505,-0.06683859,-0.0041879965,-0.06686392,0.9907166,0.118362956,-0.0037620952,0.11837725,-0.9929615,,-0.2001191769697797,-0.11088299860811551,0.15482628502,0.0052422485871131096,0.0,0.0,-0.0003266881322685585,,-1.5060024150696474,0.04091503876764145,0.07532481932000001,0.0004193798869690487,-0.5490054560575397,0.4207231528058356,-0.0016334406613427895
1.4621375699989585,,0.058497123,0.057926923,0.43343338,-0.6220009,-0.61200064,-0.48843655,-0.7793683,0.42374107,0.46155006,-0.075498275,0.6677565,-0.74054116,,0.009929717,0.04229959,0.72125363,0.2632228,-0.9547068,0.13874015,-0.9528491,-0.27978235,-0.11747512,0.15097132,-0.101276286,-0.98333657,,0.050140485,0.018825714,0.31505853,-0.99775505,-0.06683859,-0.0041879965,-0.06686392,0.9907166,0.118362956,-0.0037620952,0.11837725,-0.9929615,,-0.2001191769697797,-0.11088299860811551,0.15482628502,0.0052422485871131096,0.0,0.0,-0.0003266881322685585,,-1.5060024150696474,0.04091503876764145,0.07532481932000001,0.0004193798869690487,-0.5490054560575397,0.4207231528058356,-0.0016334406613427895
1.4896536659998674,,0.058497123,0.057926923,0.43343338,-0.6220009,-0.61200064,-0.48843655,-0.7793683,0.42374107,0.46155006,-0.075498275,0.6677565,-0.74054116,,0.009930145,0.042299747,0.7212539,0.26321974,-0.9547068,0.13874617,-0.9528502,-0.27977988,-0.11747177,0.15096949,-0.101283446,-0.9833361,,0.050140485,0.018825714,0.31505853,-0.99775505,-0.06683859,-0.0041879965,-0.06686392,0.9907166,0.118362956,-0.0037620952,0.11837725,-0.9929615,,-0.2001191769697797,-0.11088299860811551,0.15482628502,0.0052422485871131096,0.0,0.0,-0.0003266881322685585,,-1.5060101378025217,0.04091503876764145,0.07532481932000001,0.0004193798869690487,-0.5490054560575397,0.4207231528058356,-0.0016334406613427895
1.512434164998922,,0.058496423,0.0579274,0.43343413,-0.6220003,-0.61199737,-0.4884413,-0.77936864,0.42373684,0.46155328,-0.075498804,0.6677621,-0.7405361,,0.009930145,0.042299747,0.7212539,0.26321974,-0.9547068,0.13874617,-0.9528502,-0.27977988,-0.11747177,0.15096949,-0.101283446,-0.9833361,,0.050140485,0.018825714,0.31505853,-0.99775505,-0.06683859,-0.0041879965,-0.06686392,0.9907166,0.118362956,-0.0037620952,0.11837725,-0.9929615,,-0.2001114542369055,-0.11088299860811551,0.15482628502,0.0052422485871131096,0.0,0.0,-0.0003266881322685585,,-1.5060101378025217,0.04091503876764145,0.07532481932000001,0.0004193798869690487,-0.5490054560575397,0.4207231528058356,-0.0016334406613427895
1.5418993729999784,,0.05852722,0.057901666,0.43343616,-0.62196606,-0.61202586,-0.48844934,-0.77939576,0.4237169,0.46152598,-0.07550157,0.66774875,-0.7405478,,0.009910524,0.0423069,0.7212508,0.26322308,-0.9547124,0.13870095,-0.95284414,-0.27978107,-0.11751815,0.15100196,-0.10122687,-0.9833369,,0.05012713,0.018828692,0.31505424,-0.9977565,-0.06681743,-0.0041858954,-0.06684266,0.990718,0.11836308,-0.0037616752,0.118377306,-0.9929615,,-0.2001191769697797,-0.11088299860811551,0.15482628502,0.0052422485871131096,0.0,0.0,-0.0003266881322685585,,-1.5060024150696474,0.04091503876764145,0.07532481932000001,0.0004193798869690487,-0.5490054560575397,0.4207231528058356,-0.0016334406613427895
1.5721104419990297,,0.05852722,0.057901666,0.43343616,-0.62196606,-0.61202586,-0.48844934,-0.77939576,0.4237169,0.46152598,-0.07550157,0.66774875,-0.7405478,,0.009910524,0.0423069,0.7212508,0.26322308,-0.9547124,0.13870095,-0.95284414,-0.27978107,-0.11751815,0.15100196,-0.10122687,-0.9833369,,0.05012713,0.018828692,0.31505424,-0.9977565,-0.06681743,-0.0041858954,-0.06684266,0.990718,0.11836308,-0.0037616752,0.118377306,-0.9929615,,-0.2001191769697797,-0.11088299860811551,0.15482628502,0.0052422485871131096,0.0,0.0,-0.0003266881322685585,,-1.5060024150696474,0.04091503876764145,0.07532481932000001,0.0004193798869690487,-0.5490054560575397,0.4207231528058356,-0.0016334406613427895
1.5950356939993071,,0.05852722,0.057901666,0.43343616,-0.62196606,-0.61202586,-0.48844934,-0.77939576,0.4237169,0.46152598,-0.07550157,0.66774875,-0.7405478,,0.009910524,0.0423069,0.7212508,0.26322308,-0.9547124,0.13870095,-0.95284414,-0.27978107,-0.11751815,0.15100196,-0.10122687,-0.9833369,,0.05012713,0.018828692,0.31505424,-0.9977565,-0.06681743,-0.0041858954,-0.06684266,0.990718,0.11836308,-0.0037616752,0.118377306,-0.9929615,,-0.2001191769697797,-0.11088299860811551,0.15482628502,0.0052422485871131096,0.0,0.0,-0.0003266881322685585,,-1.5060024150696474,0.04091503876764145,0.07532481932000001,0.0004193798869690487,-0.5490054560575397,0.4207231528058356,-0.0016334406613427895
1.6253852239988191,,0.05852722,0.057901666,0.43343616,-0.62196606,-0.61202586,-0.48844934,-0.77939576,0.4237169,0.46152598,-0.07550157,0.66774875,-0.7405478,,0.009910524,0.0423069,0.7212508,0.26322308,-0.9547124,0.13870095,-0.95284414,-0.27978107,-0.11751815,0.15100196,-0.10122687,-0.9833369,,0.05012713,0.018828692,0.31505424,-0.9977565,-0.06681743,-0.0041858954,-0.06684266,0.990718,0.11836308,-0.0037616752,0.118377306,-0.9929615,,-0.2001191769697797,-0.11088299860811551,0.15482628502,0.0052422485871131096,0.0,0.0,-0.0003266881322685585,,-1.5060024150696474,0.04091503876764145,0.07532481932000001,0.0004193798869690487,-0.5490054560575397,0.4207231528058356,-0.0016334406613427895
1.6535160539988283,,0.05852652,0.057902142,0.43343693,-0.62196547,-0.6120225,-0.48845404,-0.7793961,0.4237126,0.4615292,-0.075502105,0.66775435,-0.74054265,,0.009910949,0.042307056,0.721251,0.26322,-0.95471233,0.13870698,-0.9528452,-0.2797786,-0.11751479,0.1510001,-0.10123403,-0.98333645,,0.05012713,0.018828692,0.31505424,-0.9977565,-0.06681743,-0.0041858954,-0.06684266,0.990718,0.11836308,-0.0037616752,0.118377306,-0.9929615,,-0.2001114542369055,-0.11088299860811551,0.15482628502,0.0052422485871131096,0.0,0.0,-0.0003266881322685585,,-1.5060101378025217,0.04091503876764145,0.07532481932000001,0.0004193798869690487,-0.5490054560575397,0.4207231528058356,-0.0016334406613427895
1.6800559779985633,,0.05852652,0.057902142,0.43343693,-0.62196547,-0.6120225,-0.48845404,-0.7793961,0.4237126,0.4615292,-0.075502105,0.66775435,-0.74054265,,0.009910949,0.042307056,0.721251,0.26322,-0.95471233,0.13870698,-0.9528452,-0.2797786,-0.11751479,0.1510001,-0.10123403,-0.98333645,,0.05012713,0.018828692,0.31505424,-0.9977565,-0.06681743,-0.0041858954,-0.06684266,0.990718,0.11836308,-0.0037616752,0.118377306,-0.9929615,,-0.2001114542369055,-0.11088299860811551,0.15482628502,0.0052422485871131096,0.0,0.0,-0.0003266881322685585,,-1.5060101378025217,0.04091503876764145,0.07532481932000001,0.0004193798869690487,-0.5490054560575397,0.4207231528058356,-0.0016334406613427895
1.7052248969994253,,0.05852652,0.057902142,0.43343693,-0.62196547,-0.6120225,-0.48845404,-0.7793961,0.4237126,0.4615292,-0.075502105,0.66775435,-0.74054265,,0.009910524,0.0423069,0.7212508,0.26322308,-0.9547124,0.13870095,-0.95284414,-0.27978107,-0.11751815,0.15100196,-0.10122687,-0.9833369,,0.05012713,0.018828692,0.31505424,-0.9977565,-0.06681743,-0.0041858954,-0.06684266,0.990718,0.11836308,-0.0037616752,0.118377306,-0.9929615,,-0.2001114542369055,-0.11088299860811551,0.15482628502,0.0052422485871131096,0.0,0.0,-0.0003266881322685585,,-1.5060024150696474,0.04091503876764145,0.07532481932000001,0.0004193798869690487,-0.5490054560575397,0.4207231528058356,-0.0016334406613427895
1.7285372099995584,,0.05852652,0.057902142,0.43343693,-0.62183714,-0.612153,-0.48845404,-0.77948505,0.4235492,0.4615292,-0.07564213,0.66773856,-0.74054265,,0.009910524,0.0423069,0.7212508,0.26322308,-0.9547124,0.13870095,-0.95284414,-0.27978107,-0.11751815,0.15100196,-0.10122687,-0.9833369,,0.05012713,0.018828692,0.31505424,-0.9977565,-0.06681743,-0.0041858954,-0.06684266,0.990718,0.11836308,-0.0037616752,0.118377306,-0.9929615,,-0.2001114542369055,-0.11088299860811551,0.15482628502,0.005032558643628585,0.0,0.0,-0.0003266881322685585,,-1.5060024150696474,0.04091503876764145,0.07532481932000001,0.0004193798869690487,-0.5490054560575397,0.4207231528058356,-0.0016334406613427895
1.7549720850001904,,0.05852582,0.05790262,0.4334377,-0.6217082,-0.61228013,-0.48845875,-0.77957416,0.42338154,0.4615324,-0.075782694,0.6677283,-0.7405375,,0.009910032,0.04230777,0.721251,0.26323107,-0.9547107,0.13869722,-0.9528441,-0.2797871,-0.11750472,0.15098873,-0.10122593,-0.983339,,0.05012713,0.018828692,0.31505424,-0.9977565,-0.06681743,-0.0041858954,-0.06684266,0.990718,0.11836308,-0.0037616752,0.118377306,-0.9929615,,-0.20010373150403127,-0.11088299860811551,0.15482628502,0.00482286870014406,0.0,0.0,-0.0003266881322685585,,-1.5060024150696474,0.0409304842333899,0.07532481932000001,0.0004193798869690487,-0.5490054560575397,0.4207231528058356,-0.0016334406613427895
1.7774205779987824,,0.05852582,0.05790262,0.4334377,-0.6217082,-0.61228013,-0.48845875,-0.77957416,0.42338154,0.4615324,-0.075782694,0.6677283,-0.7405375,,0.009910032,0.04230777,0.721251,0.26323107,-0.9547107,0.13869722,-0.9528441,-0.2797871,-0.11750472,0.15098873,-0.10122593,-0.983339,,0.05012713,0.018828692,0.31505424,-0.9977565,-0.06681743,-0.0041858954,-0.06684266,0.990718,0.11836308,-0.0037616752,0.118377306,-0.9929615,,-0.20010373150403127,-0.11088299860811551,0.15482628502,0.00482286870014406,0.0,0.0,-0.0003266881322685585,,-1.5060024150696474,0.0409304842333899,0.07532481932000001,0.0004193798869690487,-0.5490054560575397,0.4207231528058356,-0.0016334406613427895
1.8041793949996645,,0.05852582,0.05790262,0.4334377,-0.6217082,-0.61228013,-0.48845875,-0.77957416,0.42338154,0.4615324,-0.075782694,0.6677283,-0.7405375,,0.009910032,0.04230777,0.721251,0.26323107,-0.9547107,0.13869722,-0.9528441,-0.2797871,-0.11750472,0.15098873,-0.10122593,-0.983339,,0.05012713,0.018828692,0.31505424,-0.9977565,-0.06681743,-0.0041858954,-0.06684266,0.990718,0.11836308,-0.0037616752,0.118377306,-0.9929615,,-0.20010373150403127,-0.11088299860811551,0.15482628502,0.00482286870014406,0.0,0.0,-0.0003266881322685585,,-1.5060024150696474,0.0409304842333899,0.07532481932000001,0.0004193798869690487,-0.5490054560575397,0.4207231528058356,-0.0016334406613427895
1.8255908849987463,,0.05852652,0.057902142,0.43343693,-0.6217088,-0.61228335,-0.48845404,-0.77957374,0.42338577,0.4615292,-0.07578215,0.6677227,-0.74054265,,0.009910453,0.042307943,0.72125125,0.26322797,-0.9547107,0.13870327,-0.9528452,-0.27978462,-0.11750138,0.15098687,-0.10123308,-0.9833386,,0.05012713,0.018828692,0.31505424,-0.9977565,-0.06681743,-0.0041858954,-0.06684266,0.990718,0.11836308,-0.0037616752,0.118377306,-0.9929615,,-0.2001114542369055,-0.11088299860811551,0.15482628502,0.00482286870014406,0.0,0.0,-0.0003266881322685585,,-1.5060101378025217,0.0409304842333899,0.07532481932000001,0.0004193798869690487,-0.5490054560575397,0.4207231528058356,-0.0016334406613427895
1.8471002509995742,,0.05852722,0.057901666,0.43343616,-0.6217093,-0.61228657,-0.48844934,-0.7795734,0.4233899,0.461526,-0.0757816,0.66771704,-0.7405478,,0.009910453,0.042307943,0.72125125,0.26322797,-0.9547107,0.13870327,-0.9528452,-0.27978462,-0.11750138,0.15098687,-0.10123308,-0.9833386,,0.05012713,0.018828692,0.31505424,-0.9977565,-0.06681743,-0.0041858954,-0.06684266,0.990718,0.11836308,-0.0037616752,0.118377306,-0.9929615,,-0.2001191769697797,-0.11088299860811551,0.15482628502,0.00482286870014406,0.0,0.0,-0.0003266881322685585,,-1.5060101378025217,0.0409304842333899,0.07532481932000001,0.0004193798869690487,-0.5490054560575397,0.4207231528058356,-0.0016334406613427895
1.8732630659997085,,0.05852722,0.057901666,0.43343616,-0.6217093,-0.61228657,-0.48844934,-0.7795734,0.4233899,0.461526,-0.0757816,0.66771704,-0.7405478,,0.009910032,0.04230777,0.721251,0.26323107,-0.9547107,0.13869722,-0.9528441,-0.2797871,-0.11750472,0.15098873,-0.10122593,-0.983339,,0.05012713,0.018828692,0.31505424,-0.9977565,-0.06681743,-0.0041858954,-0.06684266,0.990718,0.11836308,-0.0037616752,0.118377306,-0.9929615,,-0.2001191769697797,-0.11088299860811551,0.15482628502,0.00482286870014406,0.0,0.0,-0.0003266881322685585,,-1.5060024150696474,0.0409304842333899,0.07532481932000001,0.0004193798869690487,-0.5490054560575397,0.4207231528058356,-0.0016334406613427895
1.8961090709999553,,0.05852722,0.057901666,0.43343616,-0.6217093,-0.61228657,-0.48844934,-0.7795734,0.4233899,0.461526,-0.0757816,0.66771704,-0.7405478,,0.009910032,0.04230777,0.721251,0.26323107,-0.9547107,0.13869722,-0.9528441,-0.2797871,-0.11750472,0.15098873,-0.10122593,-0.983339,,0.05012713,0.018828692,0.31505424,-0.9977565,-0.06681743,-0.0041858954,-0.06684266,0.990718,0.11836308,-0.0037616752,0.118377306,-0.9929615,,-0.2001191769697797,-0.11088299860811551,0.15482628502,0.00482286870014406,0.0,0.0,-0.0003266881322685585,,-1.5060024150696474,0.0409304842333899,0.07532481932000001,0.0004193798869690487,-0.5490054560575397,0.4207231528058356,-0.0016334406613427895
1.9233088080000016,,0.05852722,0.057901666,0.43343616,-0.6217093,-0.61228657,-0.48844934,-0.7795734,0.4233899,0.461526,-0.0757816,0.66771704,-0.7405478,,0.009910032,0.04230777,0.721251,0.26323107,-0.9547107,0.13869722,-0.9528441,-0.2797871,-0.11750472,0.15098873,-0.10122593,-0.983339,,0.05012713,0.018828692,0.31505424,-0.9977565,-0.06681743,-0.0041858954,-0.06684266,0.990718,0.11836308,-0.0037616752,0.118377306,-0.9929615,,-0.2001191769697797,-0.11088299860811551,0.15482628502,0.00482286870014406,0.0,0.0,-0.0003266881322685585,,-1.5060024150696474,0.0409304842333899,0.07532481932000001,0.0004193798869690487,-0.5490054560575397,0.4207231528058356,-0.0016334406613427895
1.9440575579992583,,0.05852652,0.057902142,0.43343693,-0.6217088,-0.61228335,-0.48845404,-0.77957374,0.42338577,0.4615292,-0.07578215,0.6677227,-0.74054265,,0.009910032,0.04230777,0.721251,0.26323107,-0.9547107,0.13869722,-0.9528441,-0.2797871,-0.11750472,0.15098873,-0.10122593,-0.983339,,0.05012713,0.018828692,0.31505424,-0.9977565,-0.06681743,-0.0041858954,-0.06684266,0.990718,0.11836308,-0.0037616752,0.118377306,-0.9929615,,-0.2001114542369055,-0.11088299860811551,0.15482628502,0.00482286870014406,0.0,0.0,-0.0003266881322685585,,-1.5060024150696474,0.0409304842333899,0.07532481932000001,0.0004193798869690487,-0.5490054560575397,0.4207231528058356,-0.0016334406613427895
1.9662585059995763,,0.05852652,0.057902142,0.43343693,-0.6217088,-0.61228335,-0.48845404,-0.77957374,0.42338577,0.4615292,-0.07578215,0.6677227,-0.74054265,,0.009910453,0.042307943,0.72125125,0.26322797,-0.9547107,0.13870327,-0.9528452,-0.27978462,-0.11750138,0.15098687,-0.10123308,-0.9833386,,0.05012713,0.018828692,0.31505424,-0.9977565,-0.06681743,-0.0041858954,-0.06684266,0.990718,0.11836308,-0.0037616752,0.118377306,-0.9929615,,-0.2001114542369055,-0.11088299860811551,0.15482628502,0.00482286870014406,0.0,0.0,-0.0003266881322685585,,-1.5060101378025217,0.0409304842333899,0.07532481932000001,0.0004193798869690487,-0.5490054560575397,0.4207231528058356,-0.0016334406613427895
1.989238733998718,,0.05852722,0.057901666,0.43343616,-0.6217093,-0.61228657,-0.48844934,-0.7795734,0.4233899,0.461526,-0.0757816,0.66771704,-0.7405478,,0.009910453,0.042307943,0.72125125,0.26322797,-0.9547107,0.13870327,-0.9528452,-0.27978462,-0.11750138,0.15098687,-0.10123308,-0.9833386,,0.05012713,0.018828692,0.31505424,-0.9977565,-0.06681743,-0.0041858954,-0.06684266,0.990718,0.11836308,-0.0037616752,0.118377306,-0.9929615,,-0.2001191769697797,-0.11088299860811551,0.15482628502,0.00482286870014406,0.0,0.0,-0.0003266881322685585,,-1.5060101378025217,0.0409304842333899,0.07532481932000001,0.0004193798869690487,-0.5490054560575397,0.4207231528058356,-0.0016334406613427895
2.013126210998962,,0.05852722,0.057901666,0.43343616,-0.6217093,-0.61228657,-0.48844934,-0.7795734,0.4233899,0.461526,-0.0757816,0.66771704,-0.7405478,,0.009910453,0.042307943,0.72125125,0.26322797,-0.9547107,0.13870327,-0.9528452,-0.27978462,-0.11750138,0.15098687,-0.10123308,-0.9833386,,0.05012713,0.018828692,0.31505424,-0.9977565,-0.06681743,-0.0041858954,-0.06684266,0.990718,0.11836308,-0.0037616752,0.118377306,-0.9929615,,-0.2001191769697797,-0.11088299860811551,0.15482628502,0.00482286870014406,0.0,0.0,-0.0003266881322685585,,-1.5060101378025217,0.0409304842333899,0.07532481932000001,0.0004193798869690487,-0.5490054560575397,0.4207231528058356,-0.0016334406613427895
2.0393224809995445,,0.05852722,0.057901666,0.43343616,-0.6217093,-0.61228657,-0.48844934,-0.7795734,0.4233899,0.461526,-0.0757816,0.66771704,-0.7405478,,0.009910032,0.04230777,0.721251,0.26323107,-0.9547107,0.13869722,-0.9528441,-0.2797871,-0.11750472,0.15098873,-0.10122593,-0.983339,,0.05012713,0.018828692,0.31505424,-0.9977565,-0.06681743,-0.0041858954,-0.06684266,0.990718,0.11836308,-0.0037616752,0.118377306,-0.9929615,,-0.2001191769697797,-0.11088299860811551,0.15482628502,0.00482286870014406,0.0,0.0,-0.0003266881322685585,,-1.5060024150696474,0.0409304842333899,0.07532481932000001,0.0004193798869690487,-0.5490054560575397,0.4207231528058356,-0.0016334406613427895
2.0625008279985195,,0.05852722,0.057901666,0.43343616,-0.6217093,-0.61228657,-0.48844934,-0.7795734,0.4233899,0.461526,-0.0757816,0.66771704,-0.7405478,,0.009910032,0.04230777,0.721251,0.26323107,-0.9547107,0.13869722,-0.9528441,-0.2797871,-0.11750472,0.15098873,-0.10122593,-0.983339,,0.05012713,0.018828692,0.31505424,-0.9977565,-0.06681743,-0.0041858954,-0.06684266,0.990718,0.11836308,-0.0037616752,0.118377306,-0.9929615,,-0.2001191769697797,-0.11088299860811551,0.15482628502,0.00482286870014406,0.0,0.0,-0.0003266881322685585,,-1.5060024150696474,0.0409304842333899,0.07532481932000001,0.0004193798869690487,-0.5490054560575397,0.4207231528058356,-0.0016334406613427895
2.0902601789985056,,0.05852722,0.057901666,0.43343616,-0.6217093,-0.61228657,-0.48844934,-0.7795734,0.4233899,0.461526,-0.0757816,0.66771704,-0.7405478,,0.009910032,0.04230777,0.721251,0.26323107,-0.9547107,0.13869722,-0.9528441,-0.2797871,-0.11750472,0.15098873,-0.10122593,-0.983339,,0.05012713,0.018828692,0.31505424,-0.9977565,-0.06681743,-0.0041858954,-0.06684266,0.990718,0.11836308,-0.0037616752,0.118377306,-0.9929615,,-0.2001191769697797,-0.11088299860811551,0.15482628502,0.00482286870014406,0.0,0.0,-0.0003266881322685585,,-1.5060024150696474,0.0409304842333899,0.07532481932000001,0.0004193798869690487,-0.5490054560575397,0.4207231528058356,-0.0016334406613427895
2.1122720280000067,,0.05852722,0.057901666,0.43343616,-0.6217093,-0.61228657,-0.48844934,-0.7795734,0.4233899,0.461526,-0.0757816,0.66771704,-0.7405478,,0.009910453,0.042307943,0.72125125,0.26322797,-0.9547107,0.13870327,-0.9528452,-0.27978462,-0.11750138,0.15098687,-0.10123308,-0.9833386,,0.05012713,0.018828692,0.31505424,-0.9977565,-0.06681743,-0.0041858954,-0.06684266,0.990718,0.11836308,-0.0037616752,0.118377306,-0.9929615,,-0.2001191769697797,-0.11088299860811551,0.15482628502,0.00482286870014406,0.0,0.0,-0.0003266881322685585,,-1.5060101378025217,0.0409304842333899,0.07532481932000001,0.0004193798869690487,-0.5490054560575397,0.4207231528058356,-0.0016334406613427895
2.1409961150002346,,0.058527995,0.057902634,0.43343627,-0.6217761,-0.6123409,-0.48829612,-0.77951026,0.42344135,0.46158534,-0.07588278,0.66763455,-0.74061185,,0.009910453,0.042307943,0.72125125,0.26322797,-0.9547107,0.13870327,-0.9528452,-0.27978462,-0.11750138,0.15098687,-0.10123308,-0.9833386,,0.05012713,0.018828692,0.31505424,-0.9977565,-0.06681743,-0.0041858954,-0.06684266,0.990718,0.11836308,-0.0037616752,0.118377306,-0.9929615,,-0.2001191769697797,-0.11088299860811551,0.15482628502,0.00482286870014406,0.00013663649976544044,-0.0001114179036964214,-0.0003266881322685585,,-1.5060101378025217,0.0409304842333899,0.07532481932000001,0.0004193798869690487,-0.5490054560575397,0.4207231528058356,-0.0016334406613427895
2.168339643998479,,0.058528766,0.05790361,0.43343633,-0.6218428,-0.61239535,-0.48814294,-0.77944726,0.42349285,0.46164465,-0.07598397,0.667552,-0.7406758,,0.009910453,0.042307943,0.72125125,0.26322797,-0.9547107,0.13870327,-0.9528452,-0.27978462,-0.11750138,0.15098687,-0.10123308,-0.9833386,,0.05012713,0.018828692,0.31505424,-0.9977565,-0.06681743,-0.0041858954,-0.06684266,0.990718,0.11836308,-0.0037616752,0.118377306,-0.9929615,,-0.2001191769697797,-0.11088299860811551,0.15482628502,0.00482286870014406,0.0002732729995308809,-0.0002228358073928428,-0.0003266881322685585,,-1.5060101378025217,0.0409304842333899,0.07532481932000001,0.0004193798869690487,-0.5490054560575397,0.4207231528058356,-0.0016334406613427895
2.1896484310000233,,0.058528066,0.05790408,0.4334371,-0.62184227,-0.6123921,-0.48814768,-0.7794476,0.42348862,0.46164787,-0.07598451,0.6675576,-0.7406707,,0.009910453,0.042307943,0.72125125,0.26322797,-0.95472205,0.13862528,-0.9528452,-0.27977502,-0.11752423,0.15098687,-0.101152755,-0.9833469,,0.05012713,0.018828692,0.31505424,-0.9977565,-0.06681743,-0.0041858954,-0.06684266,0.990718,0.11836308,-0.0037616752,0.118377306,-0.9929615,,-0.2001114542369055,-0.11088299860811551,0.15482628502,0.00482286870014406,0.0002732729995308809,-0.0002228358073928428,-0.0003266881322685585,,-1.5060101378025217,0.0409304842333899,0.07532481932000001,0.0004193798869690487,-0.5490054560575397,0.4208048315459762,-0.0013067525290742371
2.2121014739987004,,0.058528766,0.05790361,0.43343633,-0.6218428,-0.61239535,-0.48814294,-0.77944726,0.42349285,0.46164465,-0.07598397,0.667552,-0.7406758,,0.009910032,0.04230777,0.721251,0.26323107,-0.9547334,0.13854127,-0.9528441,-0.27976787,-0.117550425,0.15098873,-0.10106528,-0.9833556,,0.05012713,0.018828692,0.31505424,-0.9977565,-0.06681743,-0.0041858954,-0.06684266,0.990718,0.11836308,-0.0037616752,0.118377306,-0.9929615,,-0.2001191769697797,-0.11088299860811551,0.15482628502,0.00482286870014406,0.0002732729995308809,-0.0002228358073928428,-0.0003266881322685585,,-1.5060024150696474,0.0409304842333899,0.07532481932000001,0.0004193798869690487,-0.5490054560575397,0.42088651028611673,-0.0013067525290742371
2.2406278809994546,,0.058528766,0.05790361,0.43343633,-0.6218428,-0.61239535,-0.48814294,-0.77944726,0.42349285,0.46164465,-0.07598397,0.667552,-0.7406758,,0.009910032,0.04230777,0.721251,0.26323107,-0.9547334,0.13854127,-0.9528441,-0.27976787,-0.117550425,0.15098873,-0.10106528,-0.9833556,,0.05012713,0.018828692,0.31505424,-0.9977565,-0.06681743,-0.0041858954,-0.06684266,0.990718,0.11836308,-0.0037616752,0.118377306,-0.9929615,,-0.2001191769697797,-0.11088299860811551,0.15482628502,0.00482286870014406,0.0002732729995308809,-0.0002228358073928428,-0.0003266881322685585,,-1.5060024150696474,0.0409304842333899,0.07532481932000001,0.0004193798869690487,-0.5490054560575397,0.42088651028611673,-0.0013067525290742371
2.262140136999733,,0.058528766,0.05790361,0.43343633,-0.6218428,-0.61239535,-0.48814294,-0.77944726,0.42349285,0.46164465,-0.07598397,0.667552,-0.7406758,,0.009910032,0.04230777,0.721251,0.26323107,-0.9547334,0.13854127,-0.9528441,-0.27976787,-0.117550425,0.15098873,-0.10106528,-0.9833556,,0.05012713,0.018828692,0.31505424,-0.9977565,-0.06681743,-0.0041858954,-0.06684266,0.990718,0.11836308,-0.0037616752,0.118377306,-0.9929615,,-0.2001191769697797,-0.11088299860811551,0.15482628502,0.00482286870014406,0.0002732729995308809,-0.0002228358073928428,-0.0003266881322685585,,-1.5060024150696474,0.0409304842333899,0.07532481932000001,0.0004193798869690487,-0.5490054560575397,0.42088651028611673,-0.0013067525290742371
2.290423682999972,,0.058528766,0.05790361,0.43343633,-0.6218428,-0.61239535,-0.48814294,-0.77944726,0.42349285,0.46164465,-0.07598397,0.667552,-0.7406758,,0.009910032,0.04230777,0.721251,0.26323107,-0.9547334,0.13854127,-0.9528441,-0.27976787,-0.117550425,0.15098873,-0.10106528,-0.9833556,,0.05012713,0.018828692,0.31505424,-0.9977565,-0.06681743,-0.0041858954,-0.06684266,0.990718,0.11836308,-0.0037616752,0.118377306,-0.9929615,,-0.2001191769697797,-0.11088299860811551,0.15482628502,0.00482286870014406,0.0002732729995308809,-0.0002228358073928428,-0.0003266881322685585,,-1.5060024150696474,0.0409304842333899,0.07532481932000001,0.0004193798869690487,-0.5490054560575397,0.42088651028611673,-0.0013067525290742371
2.31090013299945,,0.058528766,0.05790361,0.43343633,-0.6218428,-0.61239535,-0.48814294,-0.77944726,0.42349285,0.46164465,-0.07598397,0.667552,-0.7406758,,0.009910453,0.042307943,0.72125125,0.26322797,-0.9547333,0.13854732,-0.9528452,-0.27976543,-0.11754707,0.15098687,-0.10107244,-0.98335505,,0.05012713,0.018828692,0.31505424,-0.9977565,-0.06681743,-0.0041858954,-0.06684266,0.990718,0.11836308,-0.0037616752,0.118377306,-0.9929615,,-0.2001191769697797,-0.11088299860811551,0.15482628502,0.00482286870014406,0.0002732729995308809,-0.0002228358073928428,-0.0003266881322685585,,-1.5060101378025217,0.0409304842333899,0.07532481932000001,0.0004193798869690487,-0.5490054560575397,0.42088651028611673,-0.0013067525290742371
2.337985377998848,,0.058528766,0.05790361,0.43343633,-0.6218428,-0.61239535,-0.48814294,-0.77944726,0.42349285,0.46164465,-0.07598397,0.667552,-0.7406758,,0.009910949,0.042307056,0.721251,0.26322,-0.954735,0.13855103,-0.9528452,-0.27975938,-0.117560506,0.1510001,-0.10107339,-0.98335296,,0.05012713,0.018828692,0.31505424,-0.9977565,-0.06681743,-0.0041858954,-0.06684266,0.990718,0.11836308,-0.0037616752,0.118377306,-0.9929615,,-0.2001191769697797,-0.11088299860811551,0.15482628502,0.00482286870014406,0.0002732729995308809,-0.0002228358073928428,-0.0003266881322685585,,-1.5060101378025217,0.04091503876764145,0.07532481932000001,0.0004193798869690487,-0.5490054560575397,0.42088651028611673,-0.0013067525290742371
2.3597270179998304,,0.058528066,0.05790408,0.4334371,-0.62184227,-0.6123921,-0.48814768,-0.7794476,0.42348862,0.46164787,-0.07598451,0.6675576,-0.7406707,,0.009910524,0.0423069,0.7212508,0.26322308,-0.95473504,0.13854499,-0.95284414,-0.27976185,-0.11756385,0.15100196,-0.10106625,-0.98335344,,0.05012713,0.018828692,0.31505424,-0.9977565,-0.06681743,-0.0041858954,-0.06684266,0.990718,0.11836308,-0.0037616752,0.118377306,-0.9929615,,-0.2001114542369055,-0.11088299860811551,0.15482628502,0.00482286870014406,0.0002732729995308809,-0.0002228358073928428,-0.0003266881322685585,,-1.5060024150696474,0.04091503876764145,0.07532481932000001,0.0004193798869690487,-0.5490054560575397,0.42088651028611673,-0.0013067525290742371
2.3823225929991168,,0.058528766,0.05790361,0.43343633,-0.6218428,-0.61239535,-0.48814294,-0.77944726,0.42349285,0.46164465,-0.07598397,0.667552,-0.7406758,,0.009910524,0.0423069,0.7212508,0.26322308,-0.95473504,0.13854499,-0.95284414,-0.27976185,-0.11756385,0.15100196,-0.10106625,-0.98335344,,0.05012713,0.018828692,0.31505424,-0.9977565,-0.06681743,-0.0041858954,-0.06684266,0.990718,0.11836308,-0.0037616752,0.118377306,-0.9929615,,-0.2001191769697797,-0.11088299860811551,0.15482628502,0.00482286870014406,0.0002732729995308809,-0.0002228358073928428,-0.0003266881322685585,,-1.5060024150696474,0.04091503876764145,0.07532481932000001,0.0004193798869690487,-0.5490054560575397,0.42088651028611673,-0.0013067525290742371
2.4098424859985244,,0.058528766,0.05790361,0.43343633,-0.6218428,-0.61239535,-0.48814294,-0.77944726,0.42349285,0.46164465,-0.07598397,0.667552,-0.7406758,,0.009910282,0.04230734,0.7212509,0.26322705,-0.95473415,0.13854313,-0.9528441,-0.2797649,-0.11755714,0.15099534,-0.10106576,-0.9833545,,0.05012713,0.018828692,0.31505424,-0.9977565,-0.06681743,-0.0041858954,-0.06684266,0.990718,0.11836308,-0.0037616752,0.118377306,-0.9929615,,-0.2001191769697797,-0.11088299860811551,0.15482628502,0.00482286870014406,0.0002732729995308809,-0.0002228358073928428,-0.0003266881322685585,,-1.5060024150696474,0.04092276150051568,0.07532481932000001,0.0004193798869690487,-0.5490054560575397,0.42088651028611673,-0.0013067525290742371
2.4344394029994874,,0.058527358,0.057903185,0.43343702,-0.62196684,-0.6122618,-0.48815244,-0.7793623,0.42365214,0.46164173,-0.075838774,0.6675735,-0.74067134,,0.009910032,0.04230777,0.721251,0.26323107,-0.9547334,0.13854127,-0.9528441,-0.27976787,-0.117550425,0.15098873,-0.10106528,-0.9833556,,0.05012713,0.018828692,0.31505424,-0.9977565,-0.06681743,-0.0041858954,-0.06684266,0.990718,0.11836308,-0.0037616752,0.118377306,-0.9929615,,-0.2001114542369055,-0.11089072134098973,0.15482628502,0.005032558643628585,0.0002732729995308809,-0.0002228358073928428,-0.0003266881322685585,,-1.5060024150696474,0.0409304842333899,0.07532481932000001,0.0004193798869690487,-0.5490054560575397,0.42088651028611673,-0.0013067525290742371
2.4569283700002416,,0.058528766,0.057903603,0.43343633,-0.62209946,-0.6121346,-0.48814294,-0.7792696,0.42381978,0.46164453,-0.075703934,0.66758376,-0.74067587,,0.009910032,0.04230777,0.721251,0.26323107,-0.9547334,0.13854127,-0.9528441,-0.27976787,-0.117550425,0.15098873,-0.10106528,-0.9833556,,0.05012713,0.018828692,0.31505424,-0.9977565,-0.06681743,-0.0041858954,-0.06684266,0.990718,0.11836308,-0.0037616752,0.118377306,-0.9929615,,-0.2001191769697797,-0.11088299860811551,0.15482628502,0.0052422485871131096,0.0002732729995308809,-0.0002228358073928428,-0.0003266881322685585,,-1.5060024150696474,0.0409304842333899,0.07532481932000001,0.0004193798869690487,-0.5490054560575397,0.42088651028611673,-0.0013067525290742371
2.479096908999054,,0.058528066,0.05790408,0.4334371,-0.6220989,-0.6121314,-0.48814768,-0.77927,0.42381558,0.46164775,-0.07570448,0.66758937,-0.74067074,,0.009910032,0.04230777,0.721251,0.26323107,-0.9547334,0.13854127,-0.9528441,-0.27976787,-0.117550425,0.15098873,-0.10106528,-0.9833556,,0.05012713,0.018828692,0.31505424,-0.9977565,-0.06681743,-0.0041858954,-0.06684266,0.990718,0.11836308,-0.0037616752,0.118377306,-0.9929615,,-0.2001114542369055,-0.11088299860811551,0.15482628502,0.0052422485871131096,0.0002732729995308809,-0.0002228358073928428,-0.0003266881322685585,,-1.5060024150696474,0.0409304842333899,0.07532481932000001,0.0004193798869690487,-0.5490054560575397,0.42088651028611673,-0.0013067525290742371
2.5060057819991925,,0.058528066,0.05790408,0.4334371,-0.6220989,-0.6121314,-0.48814768,-0.77927,0.42381558,0.46164775,-0.07570448,0.66758937,-0.74067074,,0.009910453,0.042307943,0.72125125,0.26322797,-0.9547333,0.13854732,-0.9528452,-0.27976543,-0.11754707,0.15098687,-0.10107244,-0.98335505,,0.05012713,0.018828692,0.31505424,-0.9977565,-0.06681743,-0.0041858954,-0.06684266,0.990718,0.11836308,-0.0037616752,0.118377306,-0.9929615,,-0.2001114542369055,-0.11088299860811551,0.15482628502,0.0052422485871131096,0.0002732729995308809,-0.0002228358073928428,-0.0003266881322685585,,-1.5060101378025217,0.0409304842333899,0.07532481932000001,0.0004193798869690487,-0.5490054560575397,0.42088651028611673,-0.0013067525290742371
2.5295805019995896,,0.058528766,0.057903603,0.43343633,-0.62209946,-0.6121346,-0.48814294,-0.7792696,0.42381978,0.46164453,-0.075703934,0.66758376,-0.74067587,,0.009910032,0.04230777,0.721251,0.26323107,-0.9547334,0.13854127,-0.9528441,-0.27976787,-0.117550425,0.15098873,-0.10106528,-0.9833556,,0.05012713,0.018828692,0.31505424,-0.9977565,-0.06681743,-0.0041858954,-0.06684266,0.990718,0.11836308,-0.0037616752,0.118377306,-0.9929615,,-0.2001191769697797,-0.11088299860811551,0.15482628502,0.0052422485871131096,0.0002732729995308809,-0.0002228358073928428,-0.0003266881322685585,,-1.5060024150696474,0.0409304842333899,0.07532481932000001,0.0004193798869690487,-0.5490054560575397,0.42088651028611673,-0.0013067525290742371
2.5557101689992123,,0.058528766,0.057903603,0.43343633,-0.62209946,-0.6121346,-0.48814294,-0.7792696,0.42381978,0.46164453,-0.075703934,0.66758376,-0.74067587,,0.009910032,0.04230777,0.721251,0.26323107,-0.9547334,0.13854127,-0.9528441,-0.27976787,-0.117550425,0.15098873,-0.10106528,-0.9833556,,0.05012713,0.018828692,0.31505424,-0.9977565,-0.06681743,-0.0041858954,-0.06684266,0.990718,0.11836308,-0.0037616752,0.118377306,-0.9929615,,-0.2001191769697797,-0.11088299860811551,0.15482628502,0.0052422485871131096,0.0002732729995308809,-0.0002228358073928428,-0.0003266881322685585,,-1.5060024150696474,0.0409304842333899,0.07532481932000001,0.0004193798869690487,-0.5490054560575397,0.42088651028611673,-0.0013067525290742371
2.5774628009985463,,0.058528766,0.057903603,0.43343633,-0.62209946,-0.6121346,-0.48814294,-0.7792696,0.42381978,0.46164453,-0.075703934,0.66758376,-0.74067587,,0.009910032,0.04230777,0.721251,0.26323107,-0.9547334,0.13854127,-0.9528441,-0.27976787,-0.117550425,0.15098873,-0.10106528,-0.9833556,,0.05012713,0.018828692,0.31505424,-0.9977565,-0.06681743,-0.0041858954,-0.06684266,0.990718,0.11836308,-0.0037616752,0.118377306,-0.9929615,,-0.2001191769697797,-0.11088299860811551,0.15482628502,0.0052422485871131096,0.0002732729995308809,-0.0002228358073928428,-0.0003266881322685585,,-1.5060024150696474,0.0409304842333899,0.07532481932000001,0.0004193798869690487,-0.5490054560575397,0.42088651028611673,-0.0013067525290742371
2.6046924389993364,,0.058528766,0.057903603,0.43343633,-0.62209946,-0.6121346,-0.48814294,-0.7792696,0.42381978,0.46164453,-0.075703934,0.66758376,-0.74067587,,0.009910032,0.04230777,0.721251,0.26323107,-0.9547334,0.13854127,-0.9528441,-0.27976787,-0.117550425,0.15098873,-0.10106528,-0.9833556,,0.05012713,0.018828692,0.31505424,-0.9977565,-0.06681743,-0.0041858954,-0.06684266,0.990718,0.11836308,-0.0037616752,0.118377306,-0.9929615,,-0.2001191769697797,-0.11088299860811551,0.15482628502,0.0052422485871131096,0.0002732729995308809,-0.0002228358073928428,-0.0003266881322685585,,-1.5060024150696474,0.0409304842333899,0.07532481932000001,0.0004193798869690487,-0.5490054560575397,0.42088651028611673,-0.0013067525290742371
2.6261231939988647,,0.058528766,0.057903603,0.43343633,-0.62209946,-0.6121346,-0.48814294,-0.7792696,0.42381978,0.46164453,-0.075703934,0.66758376,-0.74067587,,0.009910453,0.042307943,0.72125125,0.26322797,-0.9547333,0.13854732,-0.9528452,-0.27976543,-0.11754707,0.15098687,-0.10107244,-0.98335505,,0.05012713,0.018828692,0.31505424,-0.9977565,-0.06681743,-0.0041858954,-0.06684266,0.990718,0.11836308,-0.0037616752,0.118377306,-0.9929615,,-0.2001191769697797,-0.11088299860811551,0.15482628502,0.0052422485871131096,0.0002732729995308809,-0.0002228358073928428,-0.0003266881322685585,,-1.5060101378025217,0.0409304842333899,0.07532481932000001,0.0004193798869690487,-0.5490054560575397,0.42088651028611673,-0.0013067525290742371
2.6485902029999124,,0.058528766,0.057903603,0.43343633,-0.62209946,-0.6121346,-0.48814294,-0.7792696,0.42381978,0.46164453,-0.075703934,0.66758376,-0.74067587,,0.009910032,0.04230777,0.721251,0.26323107,-0.9547334,0.13854127,-0.9528441,-0.27976787,-0.117550425,0.15098873,-0.10106528,-0.9833556,,0.05012713,0.018828692,0.31505424,-0.9977565,-0.06681743,-0.0041858954,-0.06684266,0.990718,0.11836308,-0.0037616752,0.118377306,-0.9929615,,-0.2001191769697797,-0.11088299860811551,0.15482628502,0.0052422485871131096,0.0002732729995308809,-0.0002228358073928428,-0.0003266881322685585,,-1.5060024150696474,0.0409304842333899,0.07532481932000001,0.0004193798869690487,-0.5490054560575397,0.42088651028611673,-0.0013067525290742371
2.675548732999232,,0.058477465,0.057945803,0.43344057,-0.62214524,-0.61210686,-0.48811945,-0.77923256,0.42384887,0.46168014,-0.075708695,0.66759074,-0.7406691,,0.00992186,0.042308412,0.72126496,0.26321065,-0.9547316,0.13859221,-0.95285106,-0.2797531,-0.11752858,0.15097983,-0.10112296,-0.983351,,0.050168395,0.01881182,0.31505662,-0.9977528,-0.06687187,-0.0041913004,-0.06689735,0.9907143,0.118362755,-0.003762756,0.11837715,-0.9929615,,-0.2001191769697797,-0.11088299860811551,0.15482628502,0.0052422485871131096,0.0002732729995308809,-0.0002228358073928428,-0.0003266881322685585,,-1.5060101378025217,0.0409304842333899,0.07532481932000001,0.0004193798869690487,-0.5490054560575397,0.42088651028611673,-0.0013067525290742371
2.695859011999346,,0.058477465,0.057945803,0.43344057,-0.62214524,-0.61210686,-0.48811945,-0.77923256,0.42384887,0.46168014,-0.075708695,0.66759074,-0.7406691,,0.00992186,0.042308412,0.72126496,0.26321065,-0.9547316,0.13859221,-0.95285106,-0.2797531,-0.11752858,0.15097983,-0.10112296,-0.983351,,0.050168395,0.01881182,0.31505662,-0.9977528,-0.06687187,-0.0041913004,-0.06689735,0.9907143,0.118362755,-0.003762756,0.11837715,-0.9929615,,-0.2001191769697797,-0.11088299860811551,0.15482628502,0.0052422485871131096,0.0002732729995308809,-0.0002228358073928428,-0.0003266881322685585,,-1.5060101378025217,0.0409304842333899,0.07532481932000001,0.0004193798869690487,-0.5490054560575397,0.42088651028611673,-0.0013067525290742371
2.724377808999634,,0.058477465,0.057945803,0.43344057,-0.62214524,-0.61210686,-0.48811945,-0.77923256,0.42384887,0.46168014,-0.075708695,0.66759074,-0.7406691,,0.009921435,0.04230825,0.7212647,0.26321372,-0.95473164,0.13858618,-0.95284986,-0.27975556,-0.117531925,0.15098172,-0.10111581,-0.98335147,,0.050168395,0.01881182,0.31505662,-0.9977528,-0.06687187,-0.0041913004,-0.06689735,0.9907143,0.118362755,-0.003762756,0.11837715,-0.9929615,,-0.2001191769697797,-0.11088299860811551,0.15482628502,0.0052422485871131096,0.0002732729995308809,-0.0002228358073928428,-0.0003266881322685585,,-1.5060024150696474,0.0409304842333899,0.07532481932000001,0.0004193798869690487,-0.5490054560575397,0.42088651028611673,-0.0013067525290742371
2.7451667609984725,,0.058477465,0.057945803,0.43344057,-0.62214524,-0.61210686,-0.48811945,-0.77923256,0.42384887,0.46168014,-0.075708695,0.66759074,-0.7406691,,0.009921435,0.04230825,0.7212647,0.26321372,-0.95473164,0.13858618,-0.95284986,-0.27975556,-0.117531925,0.15098172,-0.10111581,-0.98335147,,0.050168395,0.01881182,0.31505662,-0.9977528,-0.06687187,-0.0041913004,-0.06689735,0.9907143,0.118362755,-0.003762756,0.11837715,-0.9929615,,-0.2001191769697797,-0.11088299860811551,0.15482628502,0.0052422485871131096,0.0002732729995308809,-0.0002228358073928428,-0.0003266881322685585,,-1.5060024150696474,0.0409304842333899,0.07532481932000001,0.0004193798869690487,-0.5490054560575397,0.42088651028611673,-0.0013067525290742371
2.7687887430001865,,0.058477465,0.057945803,0.43344057,-0.62214524,-0.61210686,-0.48811945,-0.77923256,0.42384887,0.46168014,-0.075708695,0.66759074,-0.7406691,,0.009921435,0.04230825,0.7212647,0.26321372,-0.95473164,0.13858618,-0.95284986,-0.27975556,-0.117531925,0.15098172,-0.10111581,-0.98335147,,0.050168395,0.01881182,0.31505662,-0.9977528,-0.06687187,-0.0041913004,-0.06689735,0.9907143,0.118362755,-0.003762756,0.11837715,-0.9929615,,-0.2001191769697797,-0.11088299860811551,0.15482628502,0.0052422485871131096,0.0002732729995308809,-0.0002228358073928428,-0.0003266881322685585,,-1.5060024150696474,0.0409304842333899,0.07532481932000001,0.0004193798869690487,-0.5490054560575397,0.42088651028611673,-0.0013067525290742371
2.7929623250001896,,0.058477465,0.057945803,0.43344057,-0.62214524,-0.61210686,-0.48811945,-0.77923256,0.42384887,0.46168014,-0.075708695,0.66759074,-0.7406691,,0.009921435,0.04230825,0.7212647,0.26321372,-0.95473164,0.13858618,-0.95284986,-0.27975556,-0.117531925,0.15098172,-0.10111581,-0.98335147,,0.050168395,0.01881182,0.31505662,-0.9977528,-0.06687187,-0.0041913004,-0.06689735,0.9907143,0.118362755,-0.003762756,0.11837715,-0.9929615,,-0.2001191769697797,-0.11088299860811551,0.15482628502,0.0052422485871131096,0.0002732729995308809,-0.0002228358073928428,-0.0003266881322685585,,-1.5060024150696474,0.0409304842333899,0.07532481932000001,0.0004193798869690487,-0.5490054560575397,0.42088651028611673,-0.0013067525290742371
2.8125895889988897,,0.058477465,0.057945803,0.43344057,-0.62214524,-0.61210686,-0.48811945,-0.77923256,0.42384887,0.46168014,-0.075708695,0.66759074,-0.7406691,,0.00992186,0.042308412,0.72126496,0.26321065,-0.9547316,0.13859221,-0.95285106,-0.2797531,-0.11752858,0.15097983,-0.10112296,-0.983351,,0.050168395,0.01881182,0.31505662,-0.9977528,-0.06687187,-0.0041913004,-0.06689735,0.9907143,0.118362755,-0.003762756,0.11837715,-0.9929615,,-0.2001191769697797,-0.11088299860811551,0.15482628502,0.0052422485871131096,0.0002732729995308809,-0.0002228358073928428,-0.0003266881322685585,,-1.5060101378025217,0.0409304842333899,0.07532481932000001,0.0004193798869690487,-0.5490054560575397,0.42088651028611673,-0.0013067525290742371
2.8402754580001783,,0.058477465,0.057945803,0.43344057,-0.62214524,-0.61210686,-0.48811945,-0.77923256,0.42384887,0.46168014,-0.075708695,0.66759074,-0.7406691,,0.009921435,0.04230825,0.7212647,0.26321372,-0.95473164,0.13858618,-0.95284986,-0.27975556,-0.117531925,0.15098172,-0.10111581,-0.98335147,,0.050168395,0.01881182,0.31505662,-0.9977528,-0.06687187,-0.0041913004,-0.06689735,0.9907143,0.118362755,-0.003762756,0.11837715,-0.9929615,,-0.2001191769697797,-0.11088299860811551,0.15482628502,0.0052422485871131096,0.0002732729995308809,-0.0002228358073928428,-0.0003266881322685585,,-1.5060024150696474,0.0409304842333899,0.07532481932000001,0.0004193798869690487,-0.5490054560575397,0.42088651028611673,-0.0013067525290742371
2.8613644119996025,,0.058476765,0.05794628,0.43344134,-0.6221447,-0.6121036,-0.4881242,-0.7792329,0.42384464,0.4616834,-0.07570924,0.6675963,-0.740664,,0.009921435,0.04230825,0.7212647,0.26321372,-0.95473164,0.13858618,-0.95284986,-0.27975556,-0.117531925,0.15098172,-0.10111581,-0.98335147,,0.050168395,0.01881182,0.31505662,-0.9977528,-0.06687187,-0.0041913004,-0.06689735,0.9907143,0.118362755,-0.003762756,0.11837715,-0.9929615,,-0.2001114542369055,-0.11088299860811551,0.15482628502,0.0052422485871131096,0.0002732729995308809,-0.0002228358073928428,-0.0003266881322685585,,-1.5060024150696474,0.0409304842333899,0.07532481932000001,0.0004193798869690487,-0.5490054560575397,0.42088651028611673,-0.0013067525290742371
2.88965098799963,,0.058477465,0.057945803,0.43344057,-0.62214524,-0.61210686,-0.48811945,-0.77923256,0.42384887,0.46168014,-0.075708695,0.66759074,-0.7406691,,0.009921435,0.04230825,0.7212647,0.26321372,-0.95473164,0.13858618,-0.95284986,-0.27975556,-0.117531925,0.15098172,-0.10111581,-0.98335147,,0.050168395,0.01881182,0.31505662,-0.9977528,-0.06687187,-0.0041913004,-0.06689735,0.9907143,0.118362755,-0.003762756,0.11837715,-0.9929615,,-0.2001191769697797,-0.11088299860811551,0.15482628502,0.0052422485871131096,0.0002732729995308809,-0.0002228358073928428,-0.0003266881322685585,,-1.5060024150696474,0.0409304842333899,0.07532481932000001,0.0004193798869690487,-0.5490054560575397,0.42088651028611673,-0.0013067525290742371
2.9108923759995378,,0.058477465,0.057945803,0.43344057,-0.62214524,-0.61210686,-0.48811945,-0.77923256,0.42384887,0.46168014,-0.075708695,0.66759074,-0.7406691,,0.009921435,0.04230825,0.7212647,0.26321372,-0.95473164,0.13858618,-0.95284986,-0.27975556,-0.117531925,0.15098172,-0.10111581,-0.98335147,,0.050168395,0.01881182,0.31505662,-0.9977528,-0.06687187,-0.0041913004,-0.06689735,0.9907143,0.118362755,-0.003762756,0.11837715,-0.9929615,,-0.2001191769697797,-0.11088299860811551,0.15482628502,0.0052422485871131096,0.0002732729995308809,-0.0002228358073928428,-0.0003266881322685585,,-1.5060024150696474,0.0409304842333899,0.07532481932000001,0.0004193798869690487,-0.5490054560575397,0.42088651028611673,-0.0013067525290742371
2.937853161000021,,0.058477465,0.057945803,0.43344057,-0.62214524,-0.61210686,-0.48811945,-0.77923256,0.42384887,0.46168014,-0.075708695,0.66759074,-0.7406691,,0.00992186,0.042308412,0.72126496,0.26321065,-0.9547316,0.13859221,-0.95285106,-0.2797531,-0.11752858,0.15097983,-0.10112296,-0.983351,,0.050168395,0.01881182,0.31505662,-0.9977528,-0.06687187,-0.0041913004,-0.06689735,0.9907143,0.118362755,-0.003762756,0.11837715,-0.9929615,,-0.2001191769697797,-0.11088299860811551,0.15482628502,0.0052422485871131096,0.0002732729995308809,-0.0002228358073928428,-0.0003266881322685585,,-1.5060101378025217,0.0409304842333899,0.07532481932000001,0.0004193798869690487,-0.5490054560575397,0.42088651028611673,-0.0013067525290742371
2.9592540269986785,,0.058477465,0.057945803,0.43344057,-0.62214524,-0.61210686,-0.48811945,-0.77923256,0.42384887,0.46168014,-0.075708695,0.66759074,-0.7406691,,0.009921435,0.04230825,0.7212647,0.26321372,-0.95473164,0.13858618,-0.95284986,-0.27975556,-0.117531925,0.15098172,-0.10111581,-0.98335147,,0.050168395,0.01881182,0.31505662,-0.9977528,-0.06687187,-0.0041913004,-0.06689735,0.9907143,0.118362755,-0.003762756,0.11837715,-0.9929615,,-0.2001191769697797,-0.11088299860811551,0.15482628502,0.0052422485871131096,0.0002732729995308809,-0.0002228358073928428,-0.0003266881322685585,,-1.5060024150696474,0.0409304842333899,0.07532481932000001,0.0004193798869690487,-0.5490054560575397,0.42088651028611673,-0.0013067525290742371
2.979278451999562,,0.058477465,0.057945803,0.43344057,-0.62214524,-0.61210686,-0.48811945,-0.77923256,0.42384887,0.46168014,-0.075708695,0.66759074,-0.7406691,,0.009921435,0.04230825,0.7212647,0.26321372,-0.95473164,0.13858618,-0.95284986,-0.27975556,-0.117531925,0.15098172,-0.10111581,-0.98335147,,0.050168395,0.01881182,0.31505662,-0.9977528,-0.06687187,-0.0041913004,-0.06689735,0.9907143,0.118362755,-0.003762756,0.11837715,-0.9929615,,-0.2001191769697797,-0.11088299860811551,0.15482628502,0.0052422485871131096,0.0002732729995308809,-0.0002228358073928428,-0.0003266881322685585,,-1.5060024150696474,0.0409304842333899,0.07532481932000001,0.0004193798869690487,-0.5490054560575397,0.42088651028611673,-0.0013067525290742371
3.0078272009996,,0.058477465,0.057945803,0.43344057,-0.62214524,-0.61210686,-0.48811945,-0.77923256,0.42384887,0.46168014,-0.075708695,0.66759074,-0.7406691,,0.009921435,0.04230825,0.7212647,0.26321372,-0.9547089,0.13874215,-0.95284986,-0.27977476,-0.11748624,0.15098172,-0.10127644,-0.9833349,,0.050168395,0.01881182,0.31505662,-0.9977528,-0.06687187,-0.0041913004,-0.06689735,0.9907143,0.118362755,-0.003762756,0.11837715,-0.9929615,,-0.2001191769697797,-0.11088299860811551,0.15482628502,0.0052422485871131096,0.0002732729995308809,-0.0002228358073928428,-0.0003266881322685585,,-1.5060024150696474,0.0409304842333899,0.07532481932000001,0.0004193798869690487,-0.5490054560575397,0.4207231528058356,-0.0016334406613427895
3.029331624999031,,0.058477465,0.057945803,0.43344057,-0.62214524,-0.61210686,-0.48811945,-0.77923256,0.42384887,0.46168014,-0.075708695,0.66759074,-0.7406691,,0.009921435,0.04230825,0.7212647,0.26321372,-0.9547089,0.13874215,-0.95284986,-0.27977476,-0.11748624,0.15098172,-0.10127644,-0.9833349,,0.050168395,0.01881182,0.31505662,-0.9977528,-0.06687187,-0.0041913004,-0.06689735,0.9907143,0.118362755,-0.003762756,0.11837715,-0.9929615,,-0.2001191769697797,-0.11088299860811551,0.15482628502,0.0052422485871131096,0.0002732729995308809,-0.0002228358073928428,-0.0003266881322685585,,-1.5060024150696474,0.0409304842333899,0.07532481932000001,0.0004193798869690487,-0.5490054560575397,0.4207231528058356,-0.0016334406613427895
3.056571723000161,,0.058477465,0.057945803,0.43344057,-0.62214524,-0.61210686,-0.48811945,-0.77923256,0.42384887,0.46168014,-0.075708695,0.66759074,-0.7406691,,0.009921435,0.04230825,0.7212647,0.26321372,-0.9547089,0.13874215,-0.95284986,-0.27977476,-0.11748624,0.15098172,-0.10127644,-0.9833349,,0.050168395,0.01881182,0.31505662,-0.9977528,-0.06687187,-0.0041913004,-0.06689735,0.9907143,0.118362755,-0.003762756,0.11837715,-0.9929615,,-0.2001191769697797,-0.11088299860811551,0.15482628502,0.0052422485871131096,0.0002732729995308809,-0.0002228358073928428,-0.0003266881322685585,,-1.5060024150696474,0.0409304842333899,0.07532481932000001,0.0004193798869690487,-0.5490054560575397,0.4207231528058356,-0.0016334406613427895
3.077415273999577,,0.058477465,0.057945803,0.43344057,-0.62214524,-0.61210686,-0.48811945,-0.77923256,0.42384887,0.46168014,-0.075708695,0.66759074,-0.7406691,,0.009921435,0.04230825,0.7212647,0.26321372,-0.9547089,0.13874215,-0.95284986,-0.27977476,-0.11748624,0.15098172,-0.10127644,-0.9833349,,0.050168395,0.01881182,0.31505662,-0.9977528,-0.06687187,-0.0041913004,-0.06689735,0.9907143,0.118362755,-0.003762756,0.11837715,-0.9929615,,-0.2001191769697797,-0.11088299860811551,0.15482628502,0.0052422485871131096,0.0002732729995308809,-0.0002228358073928428,-0.0003266881322685585,,-1.5060024150696474,0.0409304842333899,0.07532481932000001,0.0004193798869690487,-0.5490054560575397,0.4207231528058356,-0.0016334406613427895
3.1027674619999743,,0.058477465,0.057945803,0.43344057,-0.62214524,-0.61210686,-0.48811945,-0.77923256,0.42384887,0.46168014,-0.075708695,0.66759074,-0.7406691,,0.009921435,0.04230825,0.7212647,0.26321372,-0.9547089,0.13874215,-0.95284986,-0.27977476,-0.11748624,0.15098172,-0.10127644,-0.9833349,,0.050168395,0.01881182,0.31505662,-0.9977528,-0.06687187,-0.0041913004,-0.06689735,0.9907143,0.118362755,-0.003762756,0.11837715,-0.9929615,,-0.2001191769697797,-0.11088299860811551,0.15482628502,0.0052422485871131096,0.0002732729995308809,-0.0002228358073928428,-0.0003266881322685585,,-1.5060024150696474,0.0409304842333899,0.07532481932000001,0.0004193798869690487,-0.5490054560575397,0.4207231528058356,-0.0016334406613427895
3.125076545999036,,0.05847676,0.05794628,0.43344134,-0.6220163,-0.61223406,-0.4881242,-0.77932185,0.42368123,0.46168345,-0.075849265,0.66758054,-0.74066395,,0.00992186,0.042308412,0.72126496,0.26321065,-0.9547089,0.13874818,-0.95285106,-0.27977225,-0.11748289,0.15097983,-0.101283595,-0.9833344,,0.050168395,0.01881182,0.31505662,-0.9977528,-0.06687187,-0.0041913004,-0.06689735,0.9907143,0.118362755,-0.003762756,0.11837715,-0.9929615,,-0.2001114542369055,-0.11088299860811551,0.15482628502,0.005032558643628585,0.0002732729995308809,-0.0002228358073928428,-0.0003266881322685585,,-1.5060101378025217,0.0409304842333899,0.07532481932000001,0.0004193798869690487,-0.5490054560575397,0.4207231528058356,-0.0016334406613427895
3.1526352589989983,,0.05847746,0.057945803,0.43344057,-0.6218885,-0.6123676,-0.48811948,-0.77941024,0.42352197,0.46168026,-0.07598874,0.667559,-0.740669,,0.009921435,0.04230825,0.7212647,0.26321372,-0.9547089,0.13874215,-0.95284986,-0.27977476,-0.11748624,0.15098172,-0.10127644,-0.9833349,,0.050168395,0.01881182,0.31505662,-0.9977528,-0.06687187,-0.0041913004,-0.06689735,0.9907143,0.118362755,-0.003762756,0.11837715,-0.9929615,,-0.2001191769697797,-0.11088299860811551,0.15482628502,0.00482286870014406,0.0002732729995308809,-0.0002228358073928428,-0.0003266881322685585,,-1.5060024150696474,0.0409304842333899,0.07532481932000001,0.0004193798869690487,-0.5490054560575397,0.4207231528058356,-0.0016334406613427895
3.173821409000084,,0.05847746,0.057945803,0.43344057,-0.6218885,-0.6123676,-0.48811948,-0.77941024,0.42352197,0.46168026,-0.07598874,0.667559,-0.740669,,0.009921435,0.04230825,0.7212647,0.26321372,-0.9547089,0.13874215,-0.95284986,-0.27977476,-0.11748624,0.15098172,-0.10127644,-0.9833349,,0.050168395,0.01881182,0.31505662,-0.9977528,-0.06687187,-0.0041913004,-0.06689735,0.9907143,0.118362755,-0.003762756,0.11837715,-0.9929615,,-0.2001191769697797,-0.11088299860811551,0.15482628502,0.00482286870014406,0.0002732729995308809,-0.0002228358073928428,-0.0003266881322685585,,-1.5060024150696474,0.0409304842333899,0.07532481932000001,0.0004193798869690487,-0.5490054560575397,0.4207231528058356,-0.0016334406613427895
3.201440648999778,,0.05847746,0.057945803,0.43344057,-0.6218885,-0.6123676,-0.48811948,-0.77941024,0.42352197,0.46168026,-0.07598874,0.667559,-0.740669,,0.009921435,0.04230825,0.7212647,0.26321372,-0.9547089,0.13874215,-0.95284986,-0.27977476,-0.11748624,0.15098172,-0.10127644,-0.9833349,,0.050168395,0.01881182,0.31505662,-0.9977528,-0.06687187,-0.0041913004,-0.06689735,0.9907143,0.118362755,-0.003762756,0.11837715,-0.9929615,,-0.2001191769697797,-0.11088299860811551,0.15482628502,0.00482286870014406,0.0002732729995308809,-0.0002228358073928428,-0.0003266881322685585,,-1.5060024150696474,0.0409304842333899,0.07532481932000001,0.0004193798869690487,-0.5490054560575397,0.4207231528058356,-0.0016334406613427895
3.2241944889992737,,0.05847746,0.057945803,0.43344057,-0.6218885,-0.6123676,-0.48811948,-0.77941024,0.42352197,0.46168026,-0.07598874,0.667559,-0.740669,,0.009921435,0.04230825,0.7212647,0.26321372,-0.9547089,0.13874215,-0.95284986,-0.27977476,-0.11748624,0.15098172,-0.10127644,-0.9833349,,0.050168395,0.01881182,0.31505662,-0.9977528,-0.06687187,-0.0041913004,-0.06689735,0.9907143,0.118362755,-0.003762756,0.11837715,-0.9929615,,-0.2001191769697797,-0.11088299860811551,0.15482628502,0.00482286870014406,0.0002732729995308809,-0.0002228358073928428,-0.0003266881322685585,,-1.5060024150696474,0.0409304842333899,0.07532481932000001,0.0004193798869690487,-0.5490054560575397,0.4207231528058356,-0.0016334406613427895
3.2531301469989558,,0.05847746,0.057945803,0.43344057,-0.6218885,-0.6123676,-0.48811948,-0.77941024,0.42352197,0.46168026,-0.07598874,0.667559,-0.740669,,0.009921435,0.04230825,0.7212647,0.26321372,-0.9547089,0.13874215,-0.95284986,-0.27977476,-0.11748624,0.15098172,-0.10127644,-0.9833349,,0.050168395,0.01881182,0.31505662,-0.9977528,-0.06687187,-0.0041913004,-0.06689735,0.9907143,0.118362755,-0.003762756,0.11837715,-0.9929615,,-0.2001191769697797,-0.11088299860811551,0.15482628502,0.00482286870014406,0.0002732729995308809,-0.0002228358073928428,-0.0003266881322685585,,-1.5060024150696474,0.0409304842333899,0.07532481932000001,0.0004193798869690487,-0.5490054560575397,0.4207231528058356,-0.0016334406613427895
3.278939100999196,,0.05847746,0.057945803,0.43344057,-0.6218885,-0.6123676,-0.48811948,-0.77941024,0.42352197,0.46168026,-0.07598874,0.667559,-0.740669,,0.009921435,0.04230825,0.7212647,0.26321372,-0.9547089,0.13874215,-0.95284986,-0.27977476,-0.11748624,0.15098172,-0.10127644,-0.9833349,,0.050168395,0.01881182,0.31505662,-0.9977528,-0.06687187,-0.0041913004,-0.06689735,0.9907143,0.118362755,-0.003762756,0.11837715,-0.9929615,,-0.2001191769697797,-0.11088299860811551,0.15482628502,0.00482286870014406,0.0002732729995308809,-0.0002228358073928428,-0.0003266881322685585,,-1.5060024150696474,0.0409304842333899,0.07532481932000001,0.0004193798869690487,-0.5490054560575397,0.4207231528058356,-0.0016334406613427895
3.3050290969986236,,0.05847676,0.05794628,0.43344134,-0.621888,-0.6123644,-0.4881242,-0.7794106,0.42351776,0.4616835,-0.07598928,0.66756463,-0.74066395,,0.00992186,0.042308412,0.72126496,0.26321065,-0.9547089,0.13874818,-0.95285106,-0.27977225,-0.11748289,0.15097983,-0.101283595,-0.9833344,,0.050168395,0.01881182,0.31505662,-0.9977528,-0.06687187,-0.0041913004,-0.06689735,0.9907143,0.118362755,-0.003762756,0.11837715,-0.9929615,,-0.2001114542369055,-0.11088299860811551,0.15482628502,0.00482286870014406,0.0002732729995308809,-0.0002228358073928428,-0.0003266881322685585,,-1.5060101378025217,0.0409304842333899,0.07532481932000001,0.0004193798869690487,-0.5490054560575397,0.4207231528058356,-0.0016334406613427895
3.326417930999014,,0.05847746,0.057945803,0.43344057,-0.6218885,-0.6123676,-0.48811948,-0.77941024,0.42352197,0.46168026,-0.07598874,0.667559,-0.740669,,0.00992186,0.042308412,0.72126496,0.26321065,-0.9547089,0.13874818,-0.95285106,-0.27977225,-0.11748289,0.15097983,-0.101283595,-0.9833344,,0.050168395,0.01881182,0.31505662,-0.9977528,-0.06687187,-0.0041913004,-0.06689735,0.9907143,0.118362755,-0.003762756,0.11837715,-0.9929615,,-0.2001191769697797,-0.11088299860811551,0.15482628502,0.00482286870014406,0.0002732729995308809,-0.0002228358073928428,-0.0003266881322685585,,-1.5060024150696474,0.0409304842333899,0.07532481932000001,0.0004193798869690487,-0.5490054560575397,0.4207231528058356,-0.0016334406613427895
3.353738533998694,,0.05847746,0.057945803,0.43344057,-0.6218885,-0.6123676,-0.48811948,-0.77941024,0.42352197,0.46168026,-0.07598874,0.667559,-0.740669,,0.009921435,0.04230825,0.7212647,0.26321372,-0.9547089,0.13874215,-0.95284986,-0.27977476,-0.11748624,0.15098172,-0.10127644,-0.9833349,,0.050168395,0.01881182,0.31505662,-0.9977528,-0.06687187,-0.0041913004,-0.06689735,0.9907143,0.118362755,-0.003762756,0.11837715,-0.9929615,,-0.2001191769697797,-0.11088299860811551,0.15482628502,0.00482286870014406,0.0002732729995308809,-0.0002228358073928428,-0.0003266881322685585,,-1.5060024150696474,0.0409304842333899,0.07532481932000001,0.0004193798869690487,-0.5490054560575397,0.4207231528058356,-0.0016334406613427895
3.3761893029986823,,0.05847746,0.057945803,0.43344057,-0.6218885,-0.6123676,-0.48811948,-0.77941024,0.42352197,0.46168026,-0.07598874,0.667559,-0.740669,,0.009921435,0.04230825,0.7212647,0.26321372,-0.9547089,0.13874215,-0.95284986,-0.27977476,-0.11748624,0.15098172,-0.10127644,-0.9833349,,0.050168395,0.01881182,0.31505662,-0.9977528,-0.06687187,-0.0041913004,-0.06689735,0.9907143,0.118362755,-0.003762756,0.11837715,-0.9929615,,-0.2001191769697797,-0.11088299860811551,0.15482628502,0.00482286870014406,0.0002732729995308809,-0.0002228358073928428,-0.0003266881322685585,,-1.5060024150696474,0.0409304842333899,0.07532481932000001,0.0004193798869690487,-0.5490054560575397,0.4207231528058356,-0.0016334406613427895
3.404610704999868,,0.05847746,0.057945803,0.43344057,-0.6218885,-0.6123676,-0.48811948,-0.77941024,0.42352197,0.46168026,-0.07598874,0.667559,-0.740669,,0.009921435,0.04230825,0.7212647,0.26321372,-0.9547089,0.13874215,-0.95284986,-0.27977476,-0.11748624,0.15098172,-0.10127644,-0.9833349,,0.050168395,0.01881182,0.31505662,-0.9977528,-0.06687187,-0.0041913004,-0.06689735,0.9907143,0.118362755,-0.003762756,0.11837715,-0.9929615,,-0.2001191769697797,-0.11088299860811551,0.15482628502,0.00482286870014406,0.0002732729995308809,-0.0002228358073928428,-0.0003266881322685585,,-1.5060024150696474,0.0409304842333899,0.07532481932000001,0.0004193798869690487,-0.5490054560575397,0.4207231528058356,-0.0016334406613427895
