AlexandreBanks6/ExpertPlaybackApp/resources/Motions/Motion_TheOldBest.csv
Time,si_T_psm1,Tx,Ty,Tz,R00,R01,R02,R10,R11,R12,R20,R21,R22,si_T_psm3,Tx,Ty,Tz,R00,R01,R02,R10,R11,R12,R20,R21,R22,si_T_ecm,Tx,Ty,Tz,R00,R01,R02,R10,R11,R12,R20,R21,R22,joint_vars_psm1,q1,q2,q3,q4,q5,q6,jaw,joint_vars_psm3,q1,q2,q3,q4,q5,q6,jaw
lci_T_si
,,-0.07997321,0.0611798,0.5602119,0.9993585,0.0027568766,0.0357078,0.011412344,-0.9695717,-0.24454133,0.033947103,0.24479197,-0.96898115
rci_T_si
,,-0.08173719,0.051419955,0.53734964,0.9989804,0.00948836,-0.044137433,0.0025238236,-0.987873,-0.1552434,-0.045075186,0.15497372,-0.9868897
ecm_T_lc
,,0.022782804,0.054864287,-0.33796614,-0.99125,-0.12739496,-0.0345537,0.12872347,-0.990897,-0.03941251,-0.029218202,-0.043515522,0.99862534
ecm_T_rc
,,0.022707665,0.067641795,-0.42994186,-0.99723834,0.02928547,-0.06824988,-0.024871755,-0.9975983,-0.06464576,-0.069979146,-0.06276973,0.9955716
0.024740349035710096,,0.05019125,0.15100104,0.1464341,-0.50272036,-0.85868907,-0.09962654,-0.726078,0.35689244,0.5877403,-0.46913022,0.3678056,-0.8028921,,0.4506099,0.090650335,0.26338747,0.19752748,-0.69553685,0.69080484,-0.97688454,-0.08091107,0.1978633,-0.081727535,-0.71392,-0.6954413,,0.0812383,-0.038979694,0.23238866,-0.99280334,0.11208338,0.042176466,0.11949221,0.95051664,0.28677478,-0.007946746,0.28975078,-0.957069,,-0.607300267763267,0.012634390982231299,0.07790573271000001,0.023065893783297677,0.004372367992494094,-0.013040106774590703,-0.01502765408435369,,-1.4234386779113133,-0.1345145612032425,0.1451974429,0.002935659208783341,0.005602096490383059,-0.006365066334645647,-0.0022868169258799097
0.05298971896991134,,0.05018952,0.15099911,0.14643285,-0.5027185,-0.8586896,-0.099631146,-0.7260828,0.35689098,0.5877352,-0.46912464,0.36780578,-0.8028953,,0.45060584,0.09065072,0.2633837,0.19752917,-0.69554186,0.6907994,-0.9768842,-0.08091365,0.19786385,-0.08172755,-0.7139148,-0.69544655,,0.0812383,-0.038979694,0.23238866,-0.99280334,0.11208338,0.042176466,0.11949221,0.95051664,0.28677478,-0.007946746,0.28975078,-0.957069,,-0.607300267763267,0.012626668249357074,0.07790573271000001,0.023065893783297677,0.004372367992494094,-0.013040106774590703,-0.01502765408435369,,-1.423430955178439,-0.1345145612032425,0.1451974429,0.002935659208783341,0.005602096490383059,-0.006365066334645647,-0.0022868169258799097
0.07906825304962695,,0.05018952,0.15099911,0.14643285,-0.5027185,-0.8586896,-0.099631146,-0.7260828,0.35689098,0.5877352,-0.46912464,0.36780578,-0.8028953,,0.45060584,0.09065072,0.2633837,0.19752917,-0.69554186,0.6907994,-0.9768842,-0.08091365,0.19786385,-0.08172755,-0.7139148,-0.69544655,,0.0812383,-0.038979694,0.23238866,-0.99280334,0.11208338,0.042176466,0.11949221,0.95051664,0.28677478,-0.007946746,0.28975078,-0.957069,,-0.607300267763267,0.012626668249357074,0.07790573271000001,0.023065893783297677,0.004372367992494094,-0.013040106774590703,-0.01502765408435369,,-1.423430955178439,-0.1345145612032425,0.1451974429,0.002935659208783341,0.005602096490383059,-0.006365066334645647,-0.0022868169258799097
0.1019456391222775,,0.05018952,0.15099911,0.14643285,-0.5027185,-0.8586896,-0.099631146,-0.7260828,0.35689098,0.5877352,-0.46912464,0.36780578,-0.8028953,,0.4506099,0.090650335,0.26338747,0.19752748,-0.69553685,0.69080484,-0.97688454,-0.08091107,0.1978633,-0.081727535,-0.71392,-0.6954413,,0.0812383,-0.038979694,0.23238866,-0.99280334,0.11208338,0.042176466,0.11949221,0.95051664,0.28677478,-0.007946746,0.28975078,-0.957069,,-0.607300267763267,0.012626668249357074,0.07790573271000001,0.023065893783297677,0.004372367992494094,-0.013040106774590703,-0.01502765408435369,,-1.4234386779113133,-0.1345145612032425,0.1451974429,0.002935659208783341,0.005602096490383059,-0.006365066334645647,-0.0022868169258799097
0.12215232709422708,,0.05018952,0.15099911,0.14643285,-0.5027185,-0.8586896,-0.099631146,-0.7260828,0.35689098,0.5877352,-0.46912464,0.36780578,-0.8028953,,0.4506099,0.090650335,0.26338747,0.19752748,-0.69553685,0.69080484,-0.97688454,-0.08091107,0.1978633,-0.081727535,-0.71392,-0.6954413,,0.0812383,-0.038979694,0.23238866,-0.99280334,0.11208338,0.042176466,0.11949221,0.95051664,0.28677478,-0.007946746,0.28975078,-0.957069,,-0.607300267763267,0.012626668249357074,0.07790573271000001,0.023065893783297677,0.004372367992494094,-0.013040106774590703,-0.01502765408435369,,-1.4234386779113133,-0.1345145612032425,0.1451974429,0.002935659208783341,0.005602096490383059,-0.006365066334645647,-0.0022868169258799097
0.14982866402715445,,0.05018952,0.15099911,0.14643285,-0.5027185,-0.8586896,-0.099631146,-0.7260828,0.35689098,0.5877352,-0.46912464,0.36780578,-0.8028953,,0.4506099,0.090650335,0.26338747,0.19752748,-0.69553685,0.69080484,-0.97688454,-0.08091107,0.1978633,-0.081727535,-0.71392,-0.6954413,,0.0812383,-0.038979694,0.23238866,-0.99280334,0.11208338,0.042176466,0.11949221,0.95051664,0.28677478,-0.007946746,0.28975078,-0.957069,,-0.607300267763267,0.012626668249357074,0.07790573271000001,0.023065893783297677,0.004372367992494094,-0.013040106774590703,-0.01502765408435369,,-1.4234386779113133,-0.1345145612032425,0.1451974429,0.002935659208783341,0.005602096490383059,-0.006365066334645647,-0.0022868169258799097
0.17485404293984175,,0.05018952,0.15099911,0.14643285,-0.5027185,-0.8586896,-0.099631146,-0.7260828,0.35689098,0.5877352,-0.46912464,0.36780578,-0.8028953,,0.4506099,0.090650335,0.26338747,0.19752748,-0.69553685,0.69080484,-0.97688454,-0.08091107,0.1978633,-0.081727535,-0.71392,-0.6954413,,0.0812383,-0.038979694,0.23238866,-0.99280334,0.11208338,0.042176466,0.11949221,0.95051664,0.28677478,-0.007946746,0.28975078,-0.957069,,-0.607300267763267,0.012626668249357074,0.07790573271000001,0.023065893783297677,0.004372367992494094,-0.013040106774590703,-0.01502765408435369,,-1.4234386779113133,-0.1345145612032425,0.1451974429,0.002935659208783341,0.005602096490383059,-0.006365066334645647,-0.0022868169258799097
0.20940205408260226,,0.05018952,0.15099911,0.14643285,-0.5027185,-0.8586896,-0.099631146,-0.7260828,0.35689098,0.5877352,-0.46912464,0.36780578,-0.8028953,,0.4506099,0.090650335,0.26338747,0.19752748,-0.69553685,0.69080484,-0.97688454,-0.08091107,0.1978633,-0.081727535,-0.71392,-0.6954413,,0.0812383,-0.038979694,0.23238866,-0.99280334,0.11208338,0.042176466,0.11949221,0.95051664,0.28677478,-0.007946746,0.28975078,-0.957069,,-0.607300267763267,0.012626668249357074,0.07790573271000001,0.023065893783297677,0.004372367992494094,-0.013040106774590703,-0.01502765408435369,,-1.4234386779113133,-0.1345145612032425,0.1451974429,0.002935659208783341,0.005602096490383059,-0.006365066334645647,-0.0022868169258799097
0.22752442699857056,,0.05018952,0.15099911,0.14643285,-0.5027185,-0.8586896,-0.099631146,-0.7260828,0.35689098,0.5877352,-0.46912464,0.36780578,-0.8028953,,0.4506099,0.090650335,0.26338747,0.19752748,-0.69553685,0.69080484,-0.97688454,-0.08091107,0.1978633,-0.081727535,-0.71392,-0.6954413,,0.0812383,-0.038979694,0.23238866,-0.99280334,0.11208338,0.042176466,0.11949221,0.95051664,0.28677478,-0.007946746,0.28975078,-0.957069,,-0.607300267763267,0.012626668249357074,0.07790573271000001,0.023065893783297677,0.004372367992494094,-0.013040106774590703,-0.01502765408435369,,-1.4234386779113133,-0.1345145612032425,0.1451974429,0.002935659208783341,0.005602096490383059,-0.006365066334645647,-0.0022868169258799097
0.25512243201956153,,0.05018952,0.15099911,0.14643285,-0.5027185,-0.8586896,-0.099631146,-0.7260828,0.35689098,0.5877352,-0.46912464,0.36780578,-0.8028953,,0.4506099,0.090650335,0.26338747,0.19752748,-0.69553685,0.69080484,-0.97688454,-0.08091107,0.1978633,-0.081727535,-0.71392,-0.6954413,,0.0812383,-0.038979694,0.23238866,-0.99280334,0.11208338,0.042176466,0.11949221,0.95051664,0.28677478,-0.007946746,0.28975078,-0.957069,,-0.607300267763267,0.012626668249357074,0.07790573271000001,0.023065893783297677,0.004372367992494094,-0.013040106774590703,-0.01502765408435369,,-1.4234386779113133,-0.1345145612032425,0.1451974429,0.002935659208783341,0.005602096490383059,-0.006365066334645647,-0.0022868169258799097
0.2830690140835941,,0.05018952,0.15099911,0.14643285,-0.5027185,-0.8586896,-0.099631146,-0.7260828,0.35689098,0.5877352,-0.46912464,0.36780578,-0.8028953,,0.4506099,0.090650335,0.26338747,0.19752748,-0.69553685,0.69080484,-0.97688454,-0.08091107,0.1978633,-0.081727535,-0.71392,-0.6954413,,0.0812383,-0.038979694,0.23238866,-0.99280334,0.11208338,0.042176466,0.11949221,0.95051664,0.28677478,-0.007946746,0.28975078,-0.957069,,-0.607300267763267,0.012626668249357074,0.07790573271000001,0.023065893783297677,0.004372367992494094,-0.013040106774590703,-0.01502765408435369,,-1.4234386779113133,-0.1345145612032425,0.1451974429,0.002935659208783341,0.005602096490383059,-0.006365066334645647,-0.0022868169258799097
0.3114599341060966,,0.05018952,0.15099911,0.14643285,-0.5027185,-0.8586896,-0.099631146,-0.7260828,0.35689098,0.5877352,-0.46912464,0.36780578,-0.8028953,,0.4506099,0.090650335,0.26338747,0.19752748,-0.69553685,0.69080484,-0.97688454,-0.08091107,0.1978633,-0.081727535,-0.71392,-0.6954413,,0.0812383,-0.038979694,0.23238866,-0.99280334,0.11208338,0.042176466,0.11949221,0.95051664,0.28677478,-0.007946746,0.28975078,-0.957069,,-0.607300267763267,0.012626668249357074,0.07790573271000001,0.023065893783297677,0.004372367992494094,-0.013040106774590703,-0.01502765408435369,,-1.4234386779113133,-0.1345145612032425,0.1451974429,0.002935659208783341,0.005602096490383059,-0.006365066334645647,-0.0022868169258799097
0.33405892201699317,,0.05018952,0.15099911,0.14643285,-0.5027185,-0.8586896,-0.099631146,-0.7260828,0.35689098,0.5877352,-0.46912464,0.36780578,-0.8028953,,0.4506099,0.090650335,0.26338747,0.19752748,-0.69553685,0.69080484,-0.97688454,-0.08091107,0.1978633,-0.081727535,-0.71392,-0.6954413,,0.0812383,-0.038979694,0.23238866,-0.99280334,0.11208338,0.042176466,0.11949221,0.95051664,0.28677478,-0.007946746,0.28975078,-0.957069,,-0.607300267763267,0.012626668249357074,0.07790573271000001,0.023065893783297677,0.004372367992494094,-0.013040106774590703,-0.01502765408435369,,-1.4234386779113133,-0.1345145612032425,0.1451974429,0.002935659208783341,0.005602096490383059,-0.006365066334645647,-0.0022868169258799097
0.3577656301204115,,0.05018952,0.15099911,0.14643285,-0.5027185,-0.8586896,-0.099631146,-0.7260828,0.35689098,0.5877352,-0.46912464,0.36780578,-0.8028953,,0.4506099,0.090650335,0.26338747,0.19752748,-0.69553685,0.69080484,-0.97688454,-0.08091107,0.1978633,-0.081727535,-0.71392,-0.6954413,,0.0812383,-0.038979694,0.23238866,-0.99280334,0.11208338,0.042176466,0.11949221,0.95051664,0.28677478,-0.007946746,0.28975078,-0.957069,,-0.607300267763267,0.012626668249357074,0.07790573271000001,0.023065893783297677,0.004372367992494094,-0.013040106774590703,-0.01502765408435369,,-1.4234386779113133,-0.1345145612032425,0.1451974429,0.002935659208783341,0.005602096490383059,-0.006365066334645647,-0.0022868169258799097
0.38447871897369623,,0.05018952,0.15099911,0.14643285,-0.5027185,-0.8586896,-0.099631146,-0.7260828,0.35689098,0.5877352,-0.46912464,0.36780578,-0.8028953,,0.4506099,0.090650335,0.26338747,0.19752748,-0.69553685,0.69080484,-0.97688454,-0.08091107,0.1978633,-0.081727535,-0.71392,-0.6954413,,0.0812383,-0.038979694,0.23238866,-0.99280334,0.11208338,0.042176466,0.11949221,0.95051664,0.28677478,-0.007946746,0.28975078,-0.957069,,-0.607300267763267,0.012626668249357074,0.07790573271000001,0.023065893783297677,0.004372367992494094,-0.013040106774590703,-0.01502765408435369,,-1.4234386779113133,-0.1345145612032425,0.1451974429,0.002935659208783341,0.005602096490383059,-0.006365066334645647,-0.0022868169258799097
0.4140002259518951,,0.05018952,0.15099911,0.14643285,-0.5027185,-0.8586896,-0.099631146,-0.7260828,0.35689098,0.5877352,-0.46912464,0.36780578,-0.8028953,,0.4506099,0.090650335,0.26338747,0.19752748,-0.69553685,0.69080484,-0.97688454,-0.08091107,0.1978633,-0.081727535,-0.71392,-0.6954413,,0.0812383,-0.038979694,0.23238866,-0.99280334,0.11208338,0.042176466,0.11949221,0.95051664,0.28677478,-0.007946746,0.28975078,-0.957069,,-0.607300267763267,0.012626668249357074,0.07790573271000001,0.023065893783297677,0.004372367992494094,-0.013040106774590703,-0.01502765408435369,,-1.4234386779113133,-0.1345145612032425,0.1451974429,0.002935659208783341,0.005602096490383059,-0.006365066334645647,-0.0022868169258799097
0.43574180314317346,,0.05018952,0.15099911,0.14643285,-0.5027185,-0.8586896,-0.099631146,-0.7260828,0.35689098,0.5877352,-0.46912464,0.36780578,-0.8028953,,0.45060584,0.09065072,0.2633837,0.19752917,-0.69554186,0.6907994,-0.9768842,-0.08091365,0.19786385,-0.08172755,-0.7139148,-0.69544655,,0.0812383,-0.038979694,0.23238866,-0.99280334,0.11208338,0.042176466,0.11949221,0.95051664,0.28677478,-0.007946746,0.28975078,-0.957069,,-0.607300267763267,0.012626668249357074,0.07790573271000001,0.023065893783297677,0.004372367992494094,-0.013040106774590703,-0.01502765408435369,,-1.423430955178439,-0.1345145612032425,0.1451974429,0.002935659208783341,0.005602096490383059,-0.006365066334645647,-0.0022868169258799097
0.4575181440450251,,0.05018952,0.15099911,0.14643285,-0.5027185,-0.8586896,-0.099631146,-0.7260828,0.35689098,0.5877352,-0.46912464,0.36780578,-0.8028953,,0.45060176,0.09065114,0.2633798,0.19753078,-0.69554687,0.69079393,-0.9768838,-0.0809163,0.19786447,-0.08172758,-0.7139097,-0.69545186,,0.0812383,-0.038979694,0.23238866,-0.99280334,0.11208338,0.042176466,0.11949221,0.95051664,0.28677478,-0.007946746,0.28975078,-0.957069,,-0.607300267763267,0.012626668249357074,0.07790573271000001,0.023065893783297677,0.004372367992494094,-0.013040106774590703,-0.01502765408435369,,-1.4234232324455647,-0.1345145612032425,0.1451974429,0.002935659208783341,0.005602096490383059,-0.006365066334645647,-0.0022868169258799097
0.4834791470784694,,0.05018952,0.15099911,0.14643285,-0.5027185,-0.8586896,-0.099631146,-0.7260828,0.35689098,0.5877352,-0.46912464,0.36780578,-0.8028953,,0.45060176,0.09065114,0.2633798,0.19753078,-0.69554687,0.69079393,-0.9768838,-0.0809163,0.19786447,-0.08172758,-0.7139097,-0.69545186,,0.0812383,-0.038979694,0.23238866,-0.99280334,0.11208338,0.042176466,0.11949221,0.95051664,0.28677478,-0.007946746,0.28975078,-0.957069,,-0.607300267763267,0.012626668249357074,0.07790573271000001,0.023065893783297677,0.004372367992494094,-0.013040106774590703,-0.01502765408435369,,-1.4234232324455647,-0.1345145612032425,0.1451974429,0.002935659208783341,0.005602096490383059,-0.006365066334645647,-0.0022868169258799097
0.5058114691637456,,0.05018952,0.15099911,0.14643285,-0.5027185,-0.8586896,-0.099631146,-0.7260828,0.35689098,0.5877352,-0.46912464,0.36780578,-0.8028953,,0.45060176,0.09065114,0.2633798,0.19753078,-0.69554687,0.69079393,-0.9768838,-0.0809163,0.19786447,-0.08172758,-0.7139097,-0.69545186,,0.0812383,-0.038979694,0.23238866,-0.99280334,0.11208338,0.042176466,0.11949221,0.95051664,0.28677478,-0.007946746,0.28975078,-0.957069,,-0.607300267763267,0.012626668249357074,0.07790573271000001,0.023065893783297677,0.004372367992494094,-0.013040106774590703,-0.01502765408435369,,-1.4234232324455647,-0.1345145612032425,0.1451974429,0.002935659208783341,0.005602096490383059,-0.006365066334645647,-0.0022868169258799097
0.5336011340841651,,0.05018952,0.15099911,0.14643285,-0.5027185,-0.8586896,-0.099631146,-0.7260828,0.35689098,0.5877352,-0.46912464,0.36780578,-0.8028953,,0.45060176,0.09065114,0.2633798,0.19753078,-0.69554687,0.69079393,-0.9768838,-0.0809163,0.19786447,-0.08172758,-0.7139097,-0.69545186,,0.0812383,-0.038979694,0.23238866,-0.99280334,0.11208338,0.042176466,0.11949221,0.95051664,0.28677478,-0.007946746,0.28975078,-0.957069,,-0.607300267763267,0.012626668249357074,0.07790573271000001,0.023065893783297677,0.004372367992494094,-0.013040106774590703,-0.01502765408435369,,-1.4234232324455647,-0.1345145612032425,0.1451974429,0.002935659208783341,0.005602096490383059,-0.006365066334645647,-0.0022868169258799097
0.5587695669382811,,0.05018952,0.15099911,0.14643285,-0.5027185,-0.8586896,-0.099631146,-0.7260828,0.35689098,0.5877352,-0.46912464,0.36780578,-0.8028953,,0.45060176,0.09065114,0.2633798,0.19753078,-0.69554687,0.69079393,-0.9768838,-0.0809163,0.19786447,-0.08172758,-0.7139097,-0.69545186,,0.0812383,-0.038979694,0.23238866,-0.99280334,0.11208338,0.042176466,0.11949221,0.95051664,0.28677478,-0.007946746,0.28975078,-0.957069,,-0.607300267763267,0.012626668249357074,0.07790573271000001,0.023065893783297677,0.004372367992494094,-0.013040106774590703,-0.01502765408435369,,-1.4234232324455647,-0.1345145612032425,0.1451974429,0.002935659208783341,0.005602096490383059,-0.006365066334645647,-0.0022868169258799097
0.5832219310104847,,0.05018952,0.15099911,0.14643285,-0.5027185,-0.8586896,-0.099631146,-0.7260828,0.35689098,0.5877352,-0.46912464,0.36780578,-0.8028953,,0.45060176,0.09065114,0.2633798,0.19753078,-0.69554687,0.69079393,-0.9768838,-0.0809163,0.19786447,-0.08172758,-0.7139097,-0.69545186,,0.0812383,-0.038979694,0.23238866,-0.99280334,0.11208338,0.042176466,0.11949221,0.95051664,0.28677478,-0.007946746,0.28975078,-0.957069,,-0.607300267763267,0.012626668249357074,0.07790573271000001,0.023065893783297677,0.004372367992494094,-0.013040106774590703,-0.01502765408435369,,-1.4234232324455647,-0.1345145612032425,0.1451974429,0.002935659208783341,0.005602096490383059,-0.006365066334645647,-0.0022868169258799097
0.6062522931024432,,0.05018952,0.15099911,0.14643285,-0.5027185,-0.8586896,-0.099631146,-0.7260828,0.35689098,0.5877352,-0.46912464,0.36780578,-0.8028953,,0.45060176,0.09065114,0.2633798,0.19753078,-0.69554687,0.69079393,-0.9768838,-0.0809163,0.19786447,-0.08172758,-0.7139097,-0.69545186,,0.0812383,-0.038979694,0.23238866,-0.99280334,0.11208338,0.042176466,0.11949221,0.95051664,0.28677478,-0.007946746,0.28975078,-0.957069,,-0.607300267763267,0.012626668249357074,0.07790573271000001,0.023065893783297677,0.004372367992494094,-0.013040106774590703,-0.01502765408435369,,-1.4234232324455647,-0.1345145612032425,0.1451974429,0.002935659208783341,0.005602096490383059,-0.006365066334645647,-0.0022868169258799097
0.6346599771641195,,0.05018952,0.15099911,0.14643285,-0.5027185,-0.8586896,-0.099631146,-0.7260828,0.35689098,0.5877352,-0.46912464,0.36780578,-0.8028953,,0.45060176,0.09065114,0.2633798,0.19753078,-0.69554687,0.69079393,-0.9768838,-0.0809163,0.19786447,-0.08172758,-0.7139097,-0.69545186,,0.0812383,-0.038979694,0.23238866,-0.99280334,0.11208338,0.042176466,0.11949221,0.95051664,0.28677478,-0.007946746,0.28975078,-0.957069,,-0.607300267763267,0.012626668249357074,0.07790573271000001,0.023065893783297677,0.004372367992494094,-0.013040106774590703,-0.01502765408435369,,-1.4234232324455647,-0.1345145612032425,0.1451974429,0.002935659208783341,0.005602096490383059,-0.006365066334645647,-0.0022868169258799097
0.6586622491013259,,0.05018952,0.15099911,0.14643285,-0.5027185,-0.8586896,-0.099631146,-0.7260828,0.35689098,0.5877352,-0.46912464,0.36780578,-0.8028953,,0.45060176,0.09065114,0.2633798,0.19753078,-0.69554687,0.69079393,-0.9768838,-0.0809163,0.19786447,-0.08172758,-0.7139097,-0.69545186,,0.0812383,-0.038979694,0.23238866,-0.99280334,0.11208338,0.042176466,0.11949221,0.95051664,0.28677478,-0.007946746,0.28975078,-0.957069,,-0.607300267763267,0.012626668249357074,0.07790573271000001,0.023065893783297677,0.004372367992494094,-0.013040106774590703,-0.01502765408435369,,-1.4234232324455647,-0.1345145612032425,0.1451974429,0.002935659208783341,0.005602096490383059,-0.006365066334645647,-0.0022868169258799097
0.6820602060761303,,0.05018726,0.15100023,0.14643425,-0.50271916,-0.8586885,-0.0996373,-0.72608215,0.35688692,0.5877385,-0.46912503,0.3678122,-0.80289197,,0.45060176,0.09065114,0.2633798,0.19753078,-0.69554687,0.69079393,-0.9768838,-0.0809163,0.19786447,-0.08172758,-0.7139097,-0.69545186,,0.0812383,-0.038979694,0.23238866,-0.99280334,0.11208338,0.042176466,0.11949221,0.95051664,0.28677478,-0.007946746,0.28975078,-0.957069,,-0.6072925450303928,0.012626668249357074,0.07790573271000001,0.023065893783297677,0.004372367992494094,-0.013040106774590703,-0.01502765408435369,,-1.4234232324455647,-0.1345145612032425,0.1451974429,0.002935659208783341,0.005602096490383059,-0.006365066334645647,-0.0022868169258799097
0.7129191439598799,,0.05018952,0.15099911,0.14643285,-0.5027185,-0.8586896,-0.099631146,-0.7260828,0.35689098,0.5877352,-0.46912464,0.36780578,-0.8028953,,0.45060176,0.09065114,0.2633798,0.19753078,-0.69554687,0.69079393,-0.9768838,-0.0809163,0.19786447,-0.08172758,-0.7139097,-0.69545186,,0.0812383,-0.038979694,0.23238866,-0.99280334,0.11208338,0.042176466,0.11949221,0.95051664,0.28677478,-0.007946746,0.28975078,-0.957069,,-0.607300267763267,0.012626668249357074,0.07790573271000001,0.023065893783297677,0.004372367992494094,-0.013040106774590703,-0.01502765408435369,,-1.4234232324455647,-0.1345145612032425,0.1451974429,0.002935659208783341,0.005602096490383059,-0.006365066334645647,-0.0022868169258799097
0.7400942770764232,,0.05018726,0.15100023,0.14643425,-0.50271916,-0.8586885,-0.0996373,-0.72608215,0.35688692,0.5877385,-0.46912503,0.3678122,-0.80289197,,0.45060176,0.09065114,0.2633798,0.19753078,-0.69554687,0.69079393,-0.9768838,-0.0809163,0.19786447,-0.08172758,-0.7139097,-0.69545186,,0.0812383,-0.038979694,0.23238866,-0.99280334,0.11208338,0.042176466,0.11949221,0.95051664,0.28677478,-0.007946746,0.28975078,-0.957069,,-0.6072925450303928,0.012626668249357074,0.07790573271000001,0.023065893783297677,0.004372367992494094,-0.013040106774590703,-0.01502765408435369,,-1.4234232324455647,-0.1345145612032425,0.1451974429,0.002935659208783341,0.005602096490383059,-0.006365066334645647,-0.0022868169258799097
0.7685846029780805,,0.050185017,0.15100135,0.14643565,-0.5027198,-0.8586873,-0.09964344,-0.7260813,0.35688287,0.58774185,-0.46912548,0.36781865,-0.80288875,,0.45060176,0.09065114,0.2633798,0.19753078,-0.69554687,0.69079393,-0.9768838,-0.0809163,0.19786447,-0.08172758,-0.7139097,-0.69545186,,0.0812383,-0.038979694,0.23238866,-0.99280334,0.11208338,0.042176466,0.11949221,0.95051664,0.28677478,-0.007946746,0.28975078,-0.957069,,-0.6072848222975186,0.012626668249357074,0.07790573271000001,0.023065893783297677,0.004372367992494094,-0.013040106774590703,-0.01502765408435369,,-1.4234232324455647,-0.1345145612032425,0.1451974429,0.002935659208783341,0.005602096490383059,-0.006365066334645647,-0.0022868169258799097
0.7893028010148555,,0.05018726,0.15100023,0.14643425,-0.50271916,-0.8586885,-0.0996373,-0.72608215,0.35688692,0.5877385,-0.46912503,0.3678122,-0.80289197,,0.45060176,0.09065114,0.2633798,0.19753078,-0.69554687,0.69079393,-0.9768838,-0.0809163,0.19786447,-0.08172758,-0.7139097,-0.69545186,,0.0812383,-0.038979694,0.23238866,-0.99280334,0.11208338,0.042176466,0.11949221,0.95051664,0.28677478,-0.007946746,0.28975078,-0.957069,,-0.6072925450303928,0.012626668249357074,0.07790573271000001,0.023065893783297677,0.004372367992494094,-0.013040106774590703,-0.01502765408435369,,-1.4234232324455647,-0.1345145612032425,0.1451974429,0.002935659208783341,0.005602096490383059,-0.006365066334645647,-0.0022868169258799097
0.8151401111390442,,0.05018952,0.15099911,0.14643285,-0.5027185,-0.8586896,-0.099631146,-0.7260828,0.35689098,0.5877352,-0.46912464,0.36780578,-0.8028953,,0.45060176,0.09065114,0.2633798,0.19753078,-0.69554687,0.69079393,-0.9768838,-0.0809163,0.19786447,-0.08172758,-0.7139097,-0.69545186,,0.0812383,-0.038979694,0.23238866,-0.99280334,0.11208338,0.042176466,0.11949221,0.95051664,0.28677478,-0.007946746,0.28975078,-0.957069,,-0.607300267763267,0.012626668249357074,0.07790573271000001,0.023065893783297677,0.004372367992494094,-0.013040106774590703,-0.01502765408435369,,-1.4234232324455647,-0.1345145612032425,0.1451974429,0.002935659208783341,0.005602096490383059,-0.006365066334645647,-0.0022868169258799097
0.8395015529822558,,0.05018952,0.15099911,0.14643285,-0.5027185,-0.8586896,-0.099631146,-0.7260828,0.35689098,0.5877352,-0.46912464,0.36780578,-0.8028953,,0.45060176,0.09065114,0.2633798,0.19753078,-0.69554687,0.69079393,-0.9768838,-0.0809163,0.19786447,-0.08172758,-0.7139097,-0.69545186,,0.0812383,-0.038979694,0.23238866,-0.99280334,0.11208338,0.042176466,0.11949221,0.95051664,0.28677478,-0.007946746,0.28975078,-0.957069,,-0.607300267763267,0.012626668249357074,0.07790573271000001,0.023065893783297677,0.004372367992494094,-0.013040106774590703,-0.01502765408435369,,-1.4234232324455647,-0.1345145612032425,0.1451974429,0.002935659208783341,0.005602096490383059,-0.006365066334645647,-0.0022868169258799097
0.8620426210109144,,0.05018952,0.15099911,0.14643285,-0.5027185,-0.8586896,-0.099631146,-0.7260828,0.35689098,0.5877352,-0.46912464,0.36780578,-0.8028953,,0.45060176,0.09065114,0.2633798,0.19753078,-0.69554687,0.69079393,-0.9768838,-0.0809163,0.19786447,-0.08172758,-0.7139097,-0.69545186,,0.0812383,-0.038979694,0.23238866,-0.99280334,0.11208338,0.042176466,0.11949221,0.95051664,0.28677478,-0.007946746,0.28975078,-0.957069,,-0.607300267763267,0.012626668249357074,0.07790573271000001,0.023065893783297677,0.004372367992494094,-0.013040106774590703,-0.01502765408435369,,-1.4234232324455647,-0.1345145612032425,0.1451974429,0.002935659208783341,0.005602096490383059,-0.006365066334645647,-0.0022868169258799097
0.886423533083871,,0.05018952,0.15099911,0.14643285,-0.5027185,-0.8586896,-0.099631146,-0.7260828,0.35689098,0.5877352,-0.46912464,0.36780578,-0.8028953,,0.45060176,0.09065114,0.2633798,0.19753078,-0.69554687,0.69079393,-0.9768838,-0.0809163,0.19786447,-0.08172758,-0.7139097,-0.69545186,,0.0812383,-0.038979694,0.23238866,-0.99280334,0.11208338,0.042176466,0.11949221,0.95051664,0.28677478,-0.007946746,0.28975078,-0.957069,,-0.607300267763267,0.012626668249357074,0.07790573271000001,0.023065893783297677,0.004372367992494094,-0.013040106774590703,-0.01502765408435369,,-1.4234232324455647,-0.1345145612032425,0.1451974429,0.002935659208783341,0.005602096490383059,-0.006365066334645647,-0.0022868169258799097
0.910436486126855,,0.05018952,0.15099911,0.14643285,-0.5027185,-0.8586896,-0.099631146,-0.7260828,0.35689098,0.5877352,-0.46912464,0.36780578,-0.8028953,,0.45060176,0.09065114,0.2633798,0.19753078,-0.69554687,0.69079393,-0.9768838,-0.0809163,0.19786447,-0.08172758,-0.7139097,-0.69545186,,0.0812383,-0.038979694,0.23238866,-0.99280334,0.11208338,0.042176466,0.11949221,0.95051664,0.28677478,-0.007946746,0.28975078,-0.957069,,-0.607300267763267,0.012626668249357074,0.07790573271000001,0.023065893783297677,0.004372367992494094,-0.013040106774590703,-0.01502765408435369,,-1.4234232324455647,-0.1345145612032425,0.1451974429,0.002935659208783341,0.005602096490383059,-0.006365066334645647,-0.0022868169258799097
0.9327561920508742,,0.05018952,0.15099911,0.14643285,-0.5027185,-0.8586896,-0.099631146,-0.7260828,0.35689098,0.5877352,-0.46912464,0.36780578,-0.8028953,,0.45060176,0.09065114,0.2633798,0.19753078,-0.69554687,0.69079393,-0.9768838,-0.0809163,0.19786447,-0.08172758,-0.7139097,-0.69545186,,0.0812383,-0.038979694,0.23238866,-0.99280334,0.11208338,0.042176466,0.11949221,0.95051664,0.28677478,-0.007946746,0.28975078,-0.957069,,-0.607300267763267,0.012626668249357074,0.07790573271000001,0.023065893783297677,0.004372367992494094,-0.013040106774590703,-0.01502765408435369,,-1.4234232324455647,-0.1345145612032425,0.1451974429,0.002935659208783341,0.005602096490383059,-0.006365066334645647,-0.0022868169258799097
0.9593550120480359,,0.05017647,0.15102807,0.14642632,-0.5027372,-0.8586822,-0.09959972,-0.72606444,0.35692006,0.5877401,-0.46913284,0.36779463,-0.80289555,,0.45064285,0.0906566,0.263383,0.19756094,-0.69554293,0.6907892,-0.97688,-0.08095731,0.19786653,-0.081700236,-0.7139089,-0.69545597,,0.081272095,-0.038993232,0.23237492,-0.9928057,0.11206267,0.04217447,0.11947182,0.950519,0.28677508,-0.007950852,0.28975064,-0.95706904,,-0.607300267763267,0.012626668249357074,0.07790573271000001,0.023065893783297677,0.004372367992494094,-0.013040106774590703,-0.01502765408435369,,-1.4234232324455647,-0.1345145612032425,0.1451974429,0.002935659208783341,0.005602096490383059,-0.006365066334645647,-0.0022868169258799097
0.9821593021042645,,0.05017647,0.15102807,0.14642632,-0.5027372,-0.8586822,-0.09959972,-0.72606444,0.35692006,0.5877401,-0.46913284,0.36779463,-0.80289555,,0.45064285,0.0906566,0.263383,0.19756094,-0.69554293,0.6907892,-0.97688,-0.08095731,0.19786653,-0.081700236,-0.7139089,-0.69545597,,0.081272095,-0.038993232,0.23237492,-0.9928057,0.11206267,0.04217447,0.11947182,0.950519,0.28677508,-0.007950852,0.28975064,-0.95706904,,-0.607300267763267,0.012626668249357074,0.07790573271000001,0.023065893783297677,0.004372367992494094,-0.013040106774590703,-0.01502765408435369,,-1.4234232324455647,-0.1345145612032425,0.1451974429,0.002935659208783341,0.005602096490383059,-0.006365066334645647,-0.0022868169258799097
1.0068656210787594,,0.05017647,0.15102807,0.14642632,-0.5027372,-0.8586822,-0.09959972,-0.72606444,0.35692006,0.5877401,-0.46913284,0.36779463,-0.80289555,,0.45064285,0.0906566,0.263383,0.19756094,-0.69554293,0.6907892,-0.97688,-0.08095731,0.19786653,-0.081700236,-0.7139089,-0.69545597,,0.081272095,-0.038993232,0.23237492,-0.9928057,0.11206267,0.04217447,0.11947182,0.950519,0.28677508,-0.007950852,0.28975064,-0.95706904,,-0.607300267763267,0.012626668249357074,0.07790573271000001,0.023065893783297677,0.004372367992494094,-0.013040106774590703,-0.01502765408435369,,-1.4234232324455647,-0.1345145612032425,0.1451974429,0.002935659208783341,0.005602096490383059,-0.006365066334645647,-0.0022868169258799097
1.0230537031311542,,0.05017647,0.15102807,0.14642632,-0.5027372,-0.8586822,-0.09959972,-0.72606444,0.35692006,0.5877401,-0.46913284,0.36779463,-0.80289555,,0.45064285,0.0906566,0.263383,0.19756094,-0.69554293,0.6907892,-0.97688,-0.08095731,0.19786653,-0.081700236,-0.7139089,-0.69545597,,0.081272095,-0.038993232,0.23237492,-0.9928057,0.11206267,0.04217447,0.11947182,0.950519,0.28677508,-0.007950852,0.28975064,-0.95706904,,-0.607300267763267,0.012626668249357074,0.07790573271000001,0.023065893783297677,0.004372367992494094,-0.013040106774590703,-0.01502765408435369,,-1.423430955178439,-0.1345145612032425,0.1451974429,0.002935659208783341,0.005602096490383059,-0.006365066334645647,-0.0022868169258799097
1.0522037311457098,,0.050177705,0.15103304,0.14643018,-0.5027415,-0.85868,-0.099596664,-0.72605395,0.35691887,0.5877538,-0.46914452,0.36780074,-0.8028859,,0.4506469,0.09065617,0.26338685,0.1975593,-0.695538,0.6907947,-0.9768804,-0.08095467,0.19786593,-0.081700236,-0.71391416,-0.6954507,,0.081272095,-0.038993232,0.23237492,-0.9928057,0.11206267,0.04217447,0.11947182,0.950519,0.28677508,-0.007950852,0.28975064,-0.95706904,,-0.6072925450303928,0.012642113715105522,0.07790573271000001,0.023065893783297677,0.004372367992494094,-0.013040106774590703,-0.01502765408435369,,-1.423430955178439,-0.1345145612032425,0.1451974429,0.002935659208783341,0.005602096490383059,-0.006365066334645647,-0.0022868169258799097
1.0782985740806907,,0.050178207,0.15103,0.14642756,-0.502739,-0.8586816,-0.099595115,-0.72605956,0.35692152,0.58774525,-0.46913844,0.36779445,-0.8028923,,0.4506469,0.09065617,0.26338685,0.1975593,-0.695538,0.6907947,-0.9768804,-0.08095467,0.19786593,-0.081700236,-0.71391416,-0.6954507,,0.081272095,-0.038993232,0.23237492,-0.9928057,0.11206267,0.04217447,0.11947182,0.950519,0.28677508,-0.007950852,0.28975064,-0.95706904,,-0.607300267763267,0.012634390982231299,0.07790573271000001,0.023065893783297677,0.004372367992494094,-0.013040106774590703,-0.01502765408435369,,-1.423430955178439,-0.1345145612032425,0.1451974429,0.002935659208783341,0.005602096490383059,-0.006365066334645647,-0.0022868169258799097
1.09968093293719,,0.050171964,0.15103027,0.14642912,-0.5027386,-0.85868007,-0.09961201,-0.72606295,0.35691208,0.58774674,-0.4691337,0.36780754,-0.80288917,,0.4506469,0.09065617,0.26338685,0.1975593,-0.695538,0.6907947,-0.9768804,-0.08095467,0.19786593,-0.081700236,-0.71391416,-0.6954507,,0.081272095,-0.038993232,0.23237492,-0.9928057,0.11206267,0.04217447,0.11947182,0.950519,0.28677508,-0.007950852,0.28975064,-0.95706904,,-0.6072848222975186,0.012626668249357074,0.07790573271000001,0.023065893783297677,0.004372367992494094,-0.013040106774590703,-0.01502765408435369,,-1.423430955178439,-0.1345145612032425,0.1451974429,0.002935659208783341,0.005602096490383059,-0.006365066334645647,-0.0022868169258799097
1.1216458659619093,,0.050171964,0.15103027,0.14642912,-0.5027386,-0.85868007,-0.09961201,-0.72606295,0.35691208,0.58774674,-0.4691337,0.36780754,-0.80288917,,0.450651,0.09065578,0.26339063,0.19755766,-0.6955329,0.69080013,-0.97688067,-0.08095206,0.19786534,-0.08170016,-0.71391916,-0.69544536,,0.081272095,-0.038993232,0.23237492,-0.9928057,0.11206267,0.04217447,0.11947182,0.950519,0.28677508,-0.007950852,0.28975064,-0.95706904,,-0.6072848222975186,0.012626668249357074,0.07790573271000001,0.023065893783297677,0.004372367992494094,-0.013040106774590703,-0.01502765408435369,,-1.4234386779113133,-0.1345145612032425,0.1451974429,0.002935659208783341,0.005602096490383059,-0.006365066334645647,-0.0022868169258799097
1.1484135859645903,,0.05017422,0.1510292,0.14642772,-0.5027379,-0.85868114,-0.09960588,-0.72606367,0.35691604,0.58774346,-0.46913326,0.3678011,-0.8028924,,0.4506469,0.09065617,0.26338685,0.1975593,-0.695538,0.6907947,-0.9768804,-0.08095467,0.19786593,-0.081700236,-0.71391416,-0.6954507,,0.081272095,-0.038993232,0.23237492,-0.9928057,0.11206267,0.04217447,0.11947182,0.950519,0.28677508,-0.007950852,0.28975064,-0.95706904,,-0.6072925450303928,0.012626668249357074,0.07790573271000001,0.023065893783297677,0.004372367992494094,-0.013040106774590703,-0.01502765408435369,,-1.423430955178439,-0.1345145612032425,0.1451974429,0.002935659208783341,0.005602096490383059,-0.006365066334645647,-0.0022868169258799097
1.171761257108301,,0.05017422,0.1510292,0.14642772,-0.5027379,-0.85868114,-0.09960588,-0.72606367,0.35691604,0.58774346,-0.46913326,0.3678011,-0.8028924,,0.4506469,0.09065617,0.26338685,0.1975593,-0.695538,0.6907947,-0.9768804,-0.08095467,0.19786593,-0.081700236,-0.71391416,-0.6954507,,0.081272095,-0.038993232,0.23237492,-0.9928057,0.11206267,0.04217447,0.11947182,0.950519,0.28677508,-0.007950852,0.28975064,-0.95706904,,-0.6072925450303928,0.012626668249357074,0.07790573271000001,0.023065893783297677,0.004372367992494094,-0.013040106774590703,-0.01502765408435369,,-1.423430955178439,-0.1345145612032425,0.1451974429,0.002935659208783341,0.005602096490383059,-0.006365066334645647,-0.0022868169258799097
1.1959523509722203,,0.05017872,0.15102693,0.14642492,-0.5027366,-0.85868317,-0.099593565,-0.72606516,0.35692412,0.5877367,-0.4691324,0.36778826,-0.80289876,,0.450651,0.09065578,0.26339063,0.19755766,-0.6955329,0.69080013,-0.97688067,-0.08095206,0.19786534,-0.08170016,-0.71391916,-0.69544536,,0.081272095,-0.038993232,0.23237492,-0.9928057,0.11206267,0.04217447,0.11947182,0.950519,0.28677508,-0.007950852,0.28975064,-0.95706904,,-0.6073079904961413,0.012626668249357074,0.07790573271000001,0.023065893783297677,0.004372367992494094,-0.013040106774590703,-0.01502765408435369,,-1.4234386779113133,-0.1345145612032425,0.1451974429,0.002935659208783341,0.005602096490383059,-0.006365066334645647,-0.0022868169258799097
1.2196925331372768,,0.05017647,0.15102807,0.14642632,-0.5027372,-0.8586822,-0.09959972,-0.72606444,0.35692006,0.5877401,-0.46913284,0.36779463,-0.80289555,,0.4506469,0.09065617,0.26338685,0.1975593,-0.695538,0.6907947,-0.9768804,-0.08095467,0.19786593,-0.081700236,-0.71391416,-0.6954507,,0.081272095,-0.038993232,0.23237492,-0.9928057,0.11206267,0.04217447,0.11947182,0.950519,0.28677508,-0.007950852,0.28975064,-0.95706904,,-0.607300267763267,0.012626668249357074,0.07790573271000001,0.023065893783297677,0.004372367992494094,-0.013040106774590703,-0.01502765408435369,,-1.423430955178439,-0.1345145612032425,0.1451974429,0.002935659208783341,0.005602096490383059,-0.006365066334645647,-0.0022868169258799097
1.2531244340352714,,0.05017647,0.15102807,0.14642632,-0.5027372,-0.8586822,-0.09959972,-0.72606444,0.35692006,0.5877401,-0.46913284,0.36779463,-0.80289555,,0.450651,0.09065578,0.26339063,0.19755766,-0.6955329,0.69080013,-0.97688067,-0.08095206,0.19786534,-0.08170016,-0.71391916,-0.69544536,,0.081272095,-0.038993232,0.23237492,-0.9928057,0.11206267,0.04217447,0.11947182,0.950519,0.28677508,-0.007950852,0.28975064,-0.95706904,,-0.607300267763267,0.012626668249357074,0.07790573271000001,0.023065893783297677,0.004372367992494094,-0.013040106774590703,-0.01502765408435369,,-1.4234386779113133,-0.1345145612032425,0.1451974429,0.002935659208783341,0.005602096490383059,-0.006365066334645647,-0.0022868169258799097
1.2771632871590555,,0.05017422,0.1510292,0.14642772,-0.5027379,-0.85868114,-0.09960588,-0.72606367,0.35691604,0.58774346,-0.46913326,0.3678011,-0.8028924,,0.4506469,0.09065617,0.26338685,0.1975593,-0.695538,0.6907947,-0.9768804,-0.08095467,0.19786593,-0.081700236,-0.71391416,-0.6954507,,0.081272095,-0.038993232,0.23237492,-0.9928057,0.11206267,0.04217447,0.11947182,0.950519,0.28677508,-0.007950852,0.28975064,-0.95706904,,-0.6072925450303928,0.012626668249357074,0.07790573271000001,0.023065893783297677,0.004372367992494094,-0.013040106774590703,-0.01502765408435369,,-1.423430955178439,-0.1345145612032425,0.1451974429,0.002935659208783341,0.005602096490383059,-0.006365066334645647,-0.0022868169258799097
1.2989331679418683,,0.05017422,0.1510292,0.14642772,-0.5027379,-0.85868114,-0.09960588,-0.72606367,0.35691604,0.58774346,-0.46913326,0.3678011,-0.8028924,,0.45064285,0.0906566,0.263383,0.19756094,-0.69554293,0.6907892,-0.97688,-0.08095731,0.19786653,-0.081700236,-0.7139089,-0.69545597,,0.081272095,-0.038993232,0.23237492,-0.9928057,0.11206267,0.04217447,0.11947182,0.950519,0.28677508,-0.007950852,0.28975064,-0.95706904,,-0.6072925450303928,0.012626668249357074,0.07790573271000001,0.023065893783297677,0.004372367992494094,-0.013040106774590703,-0.01502765408435369,,-1.4234232324455647,-0.1345145612032425,0.1451974429,0.002935659208783341,0.005602096490383059,-0.006365066334645647,-0.0022868169258799097
1.3233313581440598,,0.05017422,0.1510292,0.14642772,-0.5027379,-0.85868114,-0.09960588,-0.72606367,0.35691604,0.58774346,-0.46913326,0.3678011,-0.8028924,,0.45064285,0.0906566,0.263383,0.19756094,-0.69554293,0.6907892,-0.97688,-0.08095731,0.19786653,-0.081700236,-0.7139089,-0.69545597,,0.081272095,-0.038993232,0.23237492,-0.9928057,0.11206267,0.04217447,0.11947182,0.950519,0.28677508,-0.007950852,0.28975064,-0.95706904,,-0.6072925450303928,0.012626668249357074,0.07790573271000001,0.023065893783297677,0.004372367992494094,-0.013040106774590703,-0.01502765408435369,,-1.4234232324455647,-0.1345145612032425,0.1451974429,0.002935659208783341,0.005602096490383059,-0.006365066334645647,-0.0022868169258799097
1.3528495761565864,,0.05017647,0.15102807,0.14642632,-0.5027372,-0.8586822,-0.09959972,-0.72606444,0.35692006,0.5877401,-0.46913284,0.36779463,-0.80289555,,0.4506469,0.09065617,0.26338685,0.1975593,-0.695538,0.6907947,-0.9768804,-0.08095467,0.19786593,-0.081700236,-0.71391416,-0.6954507,,0.081272095,-0.038993232,0.23237492,-0.9928057,0.11206267,0.04217447,0.11947182,0.950519,0.28677508,-0.007950852,0.28975064,-0.95706904,,-0.607300267763267,0.012626668249357074,0.07790573271000001,0.023065893783297677,0.004372367992494094,-0.013040106774590703,-0.01502765408435369,,-1.423430955178439,-0.1345145612032425,0.1451974429,0.002935659208783341,0.005602096490383059,-0.006365066334645647,-0.0022868169258799097
1.3767543861176819,,0.05017647,0.15102807,0.14642632,-0.5027372,-0.8586822,-0.09959972,-0.72606444,0.35692006,0.5877401,-0.46913284,0.36779463,-0.80289555,,0.4506469,0.09065617,0.26338685,0.1975593,-0.695538,0.6907947,-0.9768804,-0.08095467,0.19786593,-0.081700236,-0.71391416,-0.6954507,,0.081272095,-0.038993232,0.23237492,-0.9928057,0.11206267,0.04217447,0.11947182,0.950519,0.28677508,-0.007950852,0.28975064,-0.95706904,,-0.607300267763267,0.012626668249357074,0.07790573271000001,0.023065893783297677,0.004372367992494094,-0.013040106774590703,-0.01502765408435369,,-1.423430955178439,-0.1345145612032425,0.1451974429,0.002935659208783341,0.005602096490383059,-0.006365066334645647,-0.0022868169258799097
1.397604261059314,,0.050175965,0.1510311,0.14642897,-0.50273967,-0.85868055,-0.09960126,-0.72605884,0.35691753,0.5877486,-0.4691389,0.3678009,-0.8028891,,0.4506469,0.09065617,0.26338685,0.1975593,-0.695538,0.6907947,-0.9768804,-0.08095467,0.19786593,-0.081700236,-0.71391416,-0.6954507,,0.081272095,-0.038993232,0.23237492,-0.9928057,0.11206267,0.04217447,0.11947182,0.950519,0.28677508,-0.007950852,0.28975064,-0.95706904,,-0.6072925450303928,0.012634390982231299,0.07790573271000001,0.023065893783297677,0.004372367992494094,-0.013040106774590703,-0.01502765408435369,,-1.423430955178439,-0.1345145612032425,0.1451974429,0.002935659208783341,0.005602096490383059,-0.006365066334645647,-0.0022868169258799097
1.421703709056601,,0.050175965,0.1510311,0.14642897,-0.50273967,-0.85868055,-0.09960126,-0.72605884,0.35691753,0.5877486,-0.4691389,0.3678009,-0.8028891,,0.45064285,0.0906566,0.263383,0.19756094,-0.69554293,0.6907892,-0.97688,-0.08095731,0.19786653,-0.081700236,-0.7139089,-0.69545597,,0.081272095,-0.038993232,0.23237492,-0.9928057,0.11206267,0.04217447,0.11947182,0.950519,0.28677508,-0.007950852,0.28975064,-0.95706904,,-0.6072925450303928,0.012634390982231299,0.07790573271000001,0.023065893783297677,0.004372367992494094,-0.013040106774590703,-0.01502765408435369,,-1.4234232324455647,-0.1345145612032425,0.1451974429,0.002935659208783341,0.005602096490383059,-0.006365066334645647,-0.0022868169258799097
1.4460074449889362,,0.050171964,0.15103027,0.14642912,-0.5027386,-0.85868007,-0.09961201,-0.72606295,0.35691208,0.58774674,-0.4691337,0.36780754,-0.80288917,,0.4506469,0.09065617,0.26338685,0.1975593,-0.695538,0.6907947,-0.9768804,-0.08095467,0.19786593,-0.081700236,-0.71391416,-0.6954507,,0.081272095,-0.038993232,0.23237492,-0.9928057,0.11206267,0.04217447,0.11947182,0.950519,0.28677508,-0.007950852,0.28975064,-0.95706904,,-0.6072848222975186,0.012626668249357074,0.07790573271000001,0.023065893783297677,0.004372367992494094,-0.013040106774590703,-0.01502765408435369,,-1.423430955178439,-0.1345145612032425,0.1451974429,0.002935659208783341,0.005602096490383059,-0.006365066334645647,-0.0022868169258799097
1.473091971129179,,0.05017422,0.1510292,0.14642772,-0.5027379,-0.85868114,-0.09960588,-0.72606367,0.35691604,0.58774346,-0.46913326,0.3678011,-0.8028924,,0.450651,0.09065578,0.26339063,0.19755766,-0.6955329,0.69080013,-0.97688067,-0.08095206,0.19786534,-0.08170016,-0.71391916,-0.69544536,,0.081272095,-0.038993232,0.23237492,-0.9928057,0.11206267,0.04217447,0.11947182,0.950519,0.28677508,-0.007950852,0.28975064,-0.95706904,,-0.6072925450303928,0.012626668249357074,0.07790573271000001,0.023065893783297677,0.004372367992494094,-0.013040106774590703,-0.01502765408435369,,-1.4234386779113133,-0.1345145612032425,0.1451974429,0.002935659208783341,0.005602096490383059,-0.006365066334645647,-0.0022868169258799097
1.5035164530854672,,0.05017647,0.15102807,0.14642632,-0.5027372,-0.8586822,-0.09959972,-0.72606444,0.35692006,0.5877401,-0.46913284,0.36779463,-0.80289555,,0.450651,0.09065578,0.26339063,0.19755766,-0.6955329,0.69080013,-0.97688067,-0.08095206,0.19786534,-0.08170016,-0.71391916,-0.69544536,,0.081272095,-0.038993232,0.23237492,-0.9928057,0.11206267,0.04217447,0.11947182,0.950519,0.28677508,-0.007950852,0.28975064,-0.95706904,,-0.607300267763267,0.012626668249357074,0.07790573271000001,0.023065893783297677,0.004372367992494094,-0.013040106774590703,-0.01502765408435369,,-1.4234386779113133,-0.1345145612032425,0.1451974429,0.002935659208783341,0.005602096490383059,-0.006365066334645647,-0.0022868169258799097
1.528023554943502,,0.05017422,0.1510292,0.14642772,-0.5027379,-0.85868114,-0.09960588,-0.72606367,0.35691604,0.58774346,-0.46913326,0.3678011,-0.8028924,,0.450651,0.09065578,0.26339063,0.19755766,-0.6955329,0.69080013,-0.97688067,-0.08095206,0.19786534,-0.08170016,-0.71391916,-0.69544536,,0.081272095,-0.038993232,0.23237492,-0.9928057,0.11206267,0.04217447,0.11947182,0.950519,0.28677508,-0.007950852,0.28975064,-0.95706904,,-0.6072925450303928,0.012626668249357074,0.07790573271000001,0.023065893783297677,0.004372367992494094,-0.013040106774590703,-0.01502765408435369,,-1.4234386779113133,-0.1345145612032425,0.1451974429,0.002935659208783341,0.005602096490383059,-0.006365066334645647,-0.0022868169258799097
1.552457578945905,,0.05017647,0.15102807,0.14642632,-0.5027372,-0.8586822,-0.09959972,-0.72606444,0.35692006,0.5877401,-0.46913284,0.36779463,-0.80289555,,0.450651,0.09065578,0.26339063,0.19755766,-0.6955329,0.69080013,-0.97688067,-0.08095206,0.19786534,-0.08170016,-0.71391916,-0.69544536,,0.081272095,-0.038993232,0.23237492,-0.9928057,0.11206267,0.04217447,0.11947182,0.950519,0.28677508,-0.007950852,0.28975064,-0.95706904,,-0.607300267763267,0.012626668249357074,0.07790573271000001,0.023065893783297677,0.004372367992494094,-0.013040106774590703,-0.01502765408435369,,-1.4234386779113133,-0.1345145612032425,0.1451974429,0.002935659208783341,0.005602096490383059,-0.006365066334645647,-0.0022868169258799097
1.5773979630321264,,0.050171964,0.15103027,0.14642912,-0.5027386,-0.85868007,-0.09961201,-0.72606295,0.35691208,0.58774674,-0.4691337,0.36780754,-0.80288917,,0.450651,0.09065578,0.26339063,0.19755766,-0.6955329,0.69080013,-0.97688067,-0.08095206,0.19786534,-0.08170016,-0.71391916,-0.69544536,,0.081272095,-0.038993232,0.23237492,-0.9928057,0.11206267,0.04217447,0.11947182,0.950519,0.28677508,-0.007950852,0.28975064,-0.95706904,,-0.6072848222975186,0.012626668249357074,0.07790573271000001,0.023065893783297677,0.004372367992494094,-0.013040106774590703,-0.01502765408435369,,-1.4234386779113133,-0.1345145612032425,0.1451974429,0.002935659208783341,0.005602096490383059,-0.006365066334645647,-0.0022868169258799097
1.5996214209590107,,0.050175965,0.1510311,0.14642897,-0.50273967,-0.85868055,-0.09960126,-0.72605884,0.35691753,0.5877486,-0.4691389,0.3678009,-0.8028891,,0.450651,0.09065578,0.26339063,0.19755766,-0.6955329,0.69080013,-0.97688067,-0.08095206,0.19786534,-0.08170016,-0.71391916,-0.69544536,,0.081272095,-0.038993232,0.23237492,-0.9928057,0.11206267,0.04217447,0.11947182,0.950519,0.28677508,-0.007950852,0.28975064,-0.95706904,,-0.6072925450303928,0.012634390982231299,0.07790573271000001,0.023065893783297677,0.004372367992494094,-0.013040106774590703,-0.01502765408435369,,-1.4234386779113133,-0.1345145612032425,0.1451974429,0.002935659208783341,0.005602096490383059,-0.006365066334645647,-0.0022868169258799097
1.622796120122075,,0.05017995,0.15103194,0.1464288,-0.5027408,-0.8586811,-0.09959054,-0.7260546,0.35692292,0.58775043,-0.46914408,0.36779428,-0.8028891,,0.450651,0.09065578,0.26339063,0.19755766,-0.6955329,0.69080013,-0.97688067,-0.08095206,0.19786534,-0.08170016,-0.71391916,-0.69544536,,0.081272095,-0.038993232,0.23237492,-0.9928057,0.11206267,0.04217447,0.11947182,0.950519,0.28677508,-0.007950852,0.28975064,-0.95706904,,-0.607300267763267,0.012642113715105522,0.07790573271000001,0.023065893783297677,0.004372367992494094,-0.013040106774590703,-0.01502765408435369,,-1.4234386779113133,-0.1345145612032425,0.1451974429,0.002935659208783341,0.005602096490383059,-0.006365066334645647,-0.0022868169258799097
1.6488171780947596,,0.050173715,0.15103221,0.14643034,-0.5027403,-0.8586795,-0.09960741,-0.7260582,0.3569135,0.587752,-0.46913934,0.36780736,-0.802886,,0.450651,0.09065578,0.26339063,0.19755766,-0.6955329,0.69080013,-0.97688067,-0.08095206,0.19786534,-0.08170016,-0.71391916,-0.69544536,,0.081272095,-0.038993232,0.23237492,-0.9928057,0.11206267,0.04217447,0.11947182,0.950519,0.28677508,-0.007950852,0.28975064,-0.95706904,,-0.6072848222975186,0.012634390982231299,0.07790573271000001,0.023065893783297677,0.004372367992494094,-0.013040106774590703,-0.01502765408435369,,-1.4234386779113133,-0.1345145612032425,0.1451974429,0.002935659208783341,0.005602096490383059,-0.006365066334645647,-0.0022868169258799097
1.6729365109931678,,0.050171964,0.15103027,0.14642912,-0.5027386,-0.85868007,-0.09961201,-0.72606295,0.35691208,0.58774674,-0.4691337,0.36780754,-0.80288917,,0.4506469,0.09065617,0.26338685,0.1975593,-0.695538,0.6907947,-0.9768804,-0.08095467,0.19786593,-0.081700236,-0.71391416,-0.6954507,,0.081272095,-0.038993232,0.23237492,-0.9928057,0.11206267,0.04217447,0.11947182,0.950519,0.28677508,-0.007950852,0.28975064,-0.95706904,,-0.6072848222975186,0.012626668249357074,0.07790573271000001,0.023065893783297677,0.004372367992494094,-0.013040106774590703,-0.01502765408435369,,-1.423430955178439,-0.1345145612032425,0.1451974429,0.002935659208783341,0.005602096490383059,-0.006365066334645647,-0.0022868169258799097
1.6987975609954447,,0.050171964,0.15103027,0.14642912,-0.5027386,-0.85868007,-0.09961201,-0.72606295,0.35691208,0.58774674,-0.4691337,0.36780754,-0.80288917,,0.4506469,0.09065617,0.26338685,0.1975593,-0.695538,0.6907947,-0.9768804,-0.08095467,0.19786593,-0.081700236,-0.71391416,-0.6954507,,0.081272095,-0.038993232,0.23237492,-0.9928057,0.11206267,0.04217447,0.11947182,0.950519,0.28677508,-0.007950852,0.28975064,-0.95706904,,-0.6072848222975186,0.012626668249357074,0.07790573271000001,0.023065893783297677,0.004372367992494094,-0.013040106774590703,-0.01502765408435369,,-1.423430955178439,-0.1345145612032425,0.1451974429,0.002935659208783341,0.005602096490383059,-0.006365066334645647,-0.0022868169258799097
1.7202884999569505,,0.050171964,0.15103027,0.14642912,-0.5027386,-0.85868007,-0.09961201,-0.72606295,0.35691208,0.58774674,-0.4691337,0.36780754,-0.80288917,,0.450651,0.09065578,0.26339063,0.19755766,-0.6955329,0.69080013,-0.97688067,-0.08095206,0.19786534,-0.08170016,-0.71391916,-0.69544536,,0.081272095,-0.038993232,0.23237492,-0.9928057,0.11206267,0.04217447,0.11947182,0.950519,0.28677508,-0.007950852,0.28975064,-0.95706904,,-0.6072848222975186,0.012626668249357074,0.07790573271000001,0.023065893783297677,0.004372367992494094,-0.013040106774590703,-0.01502765408435369,,-1.4234386779113133,-0.1345145612032425,0.1451974429,0.002935659208783341,0.005602096490383059,-0.006365066334645647,-0.0022868169258799097
1.7467781330924481,,0.05017422,0.1510292,0.14642772,-0.5027379,-0.85868114,-0.09960588,-0.72606367,0.35691604,0.58774346,-0.46913326,0.3678011,-0.8028924,,0.45065174,0.09065042,0.26338947,0.19755347,-0.6955334,0.6908011,-0.976882,-0.08095375,0.19785795,-0.08169393,-0.71391857,-0.6954468,,0.081272095,-0.038993232,0.23237492,-0.9928057,0.11206267,0.04217447,0.11947182,0.950519,0.28677508,-0.007950852,0.28975064,-0.95706904,,-0.6072925450303928,0.012626668249357074,0.07790573271000001,0.023065893783297677,0.004372367992494094,-0.013040106774590703,-0.01502765408435369,,-1.4234386779113133,-0.13452228393611673,0.1451974429,0.002935659208783341,0.005602096490383059,-0.006365066334645647,-0.0022868169258799097
1.7700909320265055,,0.05017422,0.1510292,0.14642772,-0.5027379,-0.85868114,-0.09960588,-0.72606367,0.35691604,0.58774346,-0.46913326,0.3678011,-0.8028924,,0.450651,0.09065578,0.26339063,0.19755766,-0.6955329,0.69080013,-0.97688067,-0.08095206,0.19786534,-0.08170016,-0.71391916,-0.69544536,,0.081272095,-0.038993232,0.23237492,-0.9928057,0.11206267,0.04217447,0.11947182,0.950519,0.28677508,-0.007950852,0.28975064,-0.95706904,,-0.6072925450303928,0.012626668249357074,0.07790573271000001,0.023065893783297677,0.004372367992494094,-0.013040106774590703,-0.01502765408435369,,-1.4234386779113133,-0.1345145612032425,0.1451974429,0.002935659208783341,0.005602096490383059,-0.006365066334645647,-0.0022868169258799097
1.7968577949795872,,0.050171964,0.15103027,0.14642912,-0.5027386,-0.85868007,-0.09961201,-0.72606295,0.35691208,0.58774674,-0.4691337,0.36780754,-0.80288917,,0.450651,0.09065578,0.26339063,0.19755766,-0.6955329,0.69080013,-0.97688067,-0.08095206,0.19786534,-0.08170016,-0.71391916,-0.69544536,,0.081272095,-0.038993232,0.23237492,-0.9928057,0.11206267,0.04217447,0.11947182,0.950519,0.28677508,-0.007950852,0.28975064,-0.95706904,,-0.6072848222975186,0.012626668249357074,0.07790573271000001,0.023065893783297677,0.004372367992494094,-0.013040106774590703,-0.01502765408435369,,-1.4234386779113133,-0.1345145612032425,0.1451974429,0.002935659208783341,0.005602096490383059,-0.006365066334645647,-0.0022868169258799097
1.81955752405338,,0.050171964,0.15103027,0.14642912,-0.5027386,-0.85868007,-0.09961201,-0.72606295,0.35691208,0.58774674,-0.4691337,0.36780754,-0.80288917,,0.450651,0.09065578,0.26339063,0.19755766,-0.6955329,0.69080013,-0.97688067,-0.08095206,0.19786534,-0.08170016,-0.71391916,-0.69544536,,0.081272095,-0.038993232,0.23237492,-0.9928057,0.11206267,0.04217447,0.11947182,0.950519,0.28677508,-0.007950852,0.28975064,-0.95706904,,-0.6072848222975186,0.012626668249357074,0.07790573271000001,0.023065893783297677,0.004372367992494094,-0.013040106774590703,-0.01502765408435369,,-1.4234386779113133,-0.1345145612032425,0.1451974429,0.002935659208783341,0.005602096490383059,-0.006365066334645647,-0.0022868169258799097
1.8433003860991448,,0.050171964,0.15103027,0.14642912,-0.5027386,-0.85868007,-0.09961201,-0.72606295,0.35691208,0.58774674,-0.4691337,0.36780754,-0.80288917,,0.450651,0.09065578,0.26339063,0.19755766,-0.6955329,0.69080013,-0.97688067,-0.08095206,0.19786534,-0.08170016,-0.71391916,-0.69544536,,0.081272095,-0.038993232,0.23237492,-0.9928057,0.11206267,0.04217447,0.11947182,0.950519,0.28677508,-0.007950852,0.28975064,-0.95706904,,-0.6072848222975186,0.012626668249357074,0.07790573271000001,0.023065893783297677,0.004372367992494094,-0.013040106774590703,-0.01502765408435369,,-1.4234386779113133,-0.1345145612032425,0.1451974429,0.002935659208783341,0.005602096490383059,-0.006365066334645647,-0.0022868169258799097
1.872468848945573,,0.05017422,0.1510292,0.14642772,-0.5027379,-0.85868114,-0.09960588,-0.72606367,0.35691604,0.58774346,-0.46913326,0.3678011,-0.8028924,,0.450651,0.09065578,0.26339063,0.19755766,-0.6955329,0.69080013,-0.97688067,-0.08095206,0.19786534,-0.08170016,-0.71391916,-0.69544536,,0.081272095,-0.038993232,0.23237492,-0.9928057,0.11206267,0.04217447,0.11947182,0.950519,0.28677508,-0.007950852,0.28975064,-0.95706904,,-0.6072925450303928,0.012626668249357074,0.07790573271000001,0.023065893783297677,0.004372367992494094,-0.013040106774590703,-0.01502765408435369,,-1.4234386779113133,-0.1345145612032425,0.1451974429,0.002935659208783341,0.005602096490383059,-0.006365066334645647,-0.0022868169258799097
1.8989942639600486,,0.05017422,0.1510292,0.14642772,-0.5027379,-0.85868114,-0.09960588,-0.72606367,0.35691604,0.58774346,-0.46913326,0.3678011,-0.8028924,,0.450651,0.09065578,0.26339063,0.19755766,-0.6955329,0.69080013,-0.97688067,-0.08095206,0.19786534,-0.08170016,-0.71391916,-0.69544536,,0.081272095,-0.038993232,0.23237492,-0.9928057,0.11206267,0.04217447,0.11947182,0.950519,0.28677508,-0.007950852,0.28975064,-0.95706904,,-0.6072925450303928,0.012626668249357074,0.07790573271000001,0.023065893783297677,0.004372367992494094,-0.013040106774590703,-0.01502765408435369,,-1.4234386779113133,-0.1345145612032425,0.1451974429,0.002935659208783341,0.005602096490383059,-0.006365066334645647,-0.0022868169258799097
1.921463544946164,,0.05017647,0.15102807,0.14642632,-0.5027372,-0.8586822,-0.09959972,-0.72606444,0.35692006,0.5877401,-0.46913284,0.36779463,-0.80289555,,0.450651,0.09065578,0.26339063,0.19755766,-0.6955329,0.69080013,-0.97688067,-0.08095206,0.19786534,-0.08170016,-0.71391916,-0.69544536,,0.081272095,-0.038993232,0.23237492,-0.9928057,0.11206267,0.04217447,0.11947182,0.950519,0.28677508,-0.007950852,0.28975064,-0.95706904,,-0.607300267763267,0.012626668249357074,0.07790573271000001,0.023065893783297677,0.004372367992494094,-0.013040106774590703,-0.01502765408435369,,-1.4234386779113133,-0.1345145612032425,0.1451974429,0.002935659208783341,0.005602096490383059,-0.006365066334645647,-0.0022868169258799097
1.95040851412341,,0.05017647,0.15102807,0.14642632,-0.5027372,-0.8586822,-0.09959972,-0.72606444,0.35692006,0.5877401,-0.46913284,0.36779463,-0.80289555,,0.450651,0.09065578,0.26339063,0.19755766,-0.6955329,0.69080013,-0.97688067,-0.08095206,0.19786534,-0.08170016,-0.71391916,-0.69544536,,0.081272095,-0.038993232,0.23237492,-0.9928057,0.11206267,0.04217447,0.11947182,0.950519,0.28677508,-0.007950852,0.28975064,-0.95706904,,-0.607300267763267,0.012626668249357074,0.07790573271000001,0.023065893783297677,0.004372367992494094,-0.013040106774590703,-0.01502765408435369,,-1.4234386779113133,-0.1345145612032425,0.1451974429,0.002935659208783341,0.005602096490383059,-0.006365066334645647,-0.0022868169258799097
1.9730538211297244,,0.05017422,0.1510292,0.14642772,-0.5027379,-0.85868114,-0.09960588,-0.72606367,0.35691604,0.58774346,-0.46913326,0.3678011,-0.8028924,,0.450651,0.09065578,0.26339063,0.19755766,-0.6955329,0.69080013,-0.97688067,-0.08095206,0.19786534,-0.08170016,-0.71391916,-0.69544536,,0.081272095,-0.038993232,0.23237492,-0.9928057,0.11206267,0.04217447,0.11947182,0.950519,0.28677508,-0.007950852,0.28975064,-0.95706904,,-0.6072925450303928,0.012626668249357074,0.07790573271000001,0.023065893783297677,0.004372367992494094,-0.013040106774590703,-0.01502765408435369,,-1.4234386779113133,-0.1345145612032425,0.1451974429,0.002935659208783341,0.005602096490383059,-0.006365066334645647,-0.0022868169258799097
1.9985047110822052,,0.050171964,0.15103027,0.14642912,-0.5027386,-0.85868007,-0.09961201,-0.72606295,0.35691208,0.58774674,-0.4691337,0.36780754,-0.80288917,,0.450651,0.09065578,0.26339063,0.19755766,-0.6955329,0.69080013,-0.97688067,-0.08095206,0.19786534,-0.08170016,-0.71391916,-0.69544536,,0.081272095,-0.038993232,0.23237492,-0.9928057,0.11206267,0.04217447,0.11947182,0.950519,0.28677508,-0.007950852,0.28975064,-0.95706904,,-0.6072848222975186,0.012626668249357074,0.07790573271000001,0.023065893783297677,0.004372367992494094,-0.013040106774590703,-0.01502765408435369,,-1.4234386779113133,-0.1345145612032425,0.1451974429,0.002935659208783341,0.005602096490383059,-0.006365066334645647,-0.0022868169258799097
2.019776913104579,,0.05017422,0.1510292,0.14642772,-0.5027379,-0.85868114,-0.09960588,-0.72606367,0.35691604,0.58774346,-0.46913326,0.3678011,-0.8028924,,0.450651,0.09065578,0.26339063,0.19755766,-0.6955329,0.69080013,-0.97688067,-0.08095206,0.19786534,-0.08170016,-0.71391916,-0.69544536,,0.081272095,-0.038993232,0.23237492,-0.9928057,0.11206267,0.04217447,0.11947182,0.950519,0.28677508,-0.007950852,0.28975064,-0.95706904,,-0.6072925450303928,0.012626668249357074,0.07790573271000001,0.023065893783297677,0.004372367992494094,-0.013040106774590703,-0.01502765408435369,,-1.4234386779113133,-0.1345145612032425,0.1451974429,0.002935659208783341,0.005602096490383059,-0.006365066334645647,-0.0022868169258799097
2.042476389091462,,0.05017647,0.15102807,0.14642632,-0.5027372,-0.8586822,-0.09959972,-0.72606444,0.35692006,0.5877401,-0.46913284,0.36779463,-0.80289555,,0.450651,0.09065578,0.26339063,0.19755766,-0.6955329,0.69080013,-0.97688067,-0.08095206,0.19786534,-0.08170016,-0.71391916,-0.69544536,,0.081272095,-0.038993232,0.23237492,-0.9928057,0.11206267,0.04217447,0.11947182,0.950519,0.28677508,-0.007950852,0.28975064,-0.95706904,,-0.607300267763267,0.012626668249357074,0.07790573271000001,0.023065893783297677,0.004372367992494094,-0.013040106774590703,-0.01502765408435369,,-1.4234386779113133,-0.1345145612032425,0.1451974429,0.002935659208783341,0.005602096490383059,-0.006365066334645647,-0.0022868169258799097
2.0690016869921237,,0.05017647,0.15102807,0.14642632,-0.5027372,-0.8586822,-0.09959972,-0.72606444,0.35692006,0.5877401,-0.46913284,0.36779463,-0.80289555,,0.450651,0.09065578,0.26339063,0.19755766,-0.6955329,0.69080013,-0.97688067,-0.08095206,0.19786534,-0.08170016,-0.71391916,-0.69544536,,0.081272095,-0.038993232,0.23237492,-0.9928057,0.11206267,0.04217447,0.11947182,0.950519,0.28677508,-0.007950852,0.28975064,-0.95706904,,-0.607300267763267,0.012626668249357074,0.07790573271000001,0.023065893783297677,0.004372367992494094,-0.013040106774590703,-0.01502765408435369,,-1.4234386779113133,-0.1345145612032425,0.1451974429,0.002935659208783341,0.005602096490383059,-0.006365066334645647,-0.0022868169258799097
2.094052001135424,,0.050273623,0.15093398,0.14641826,-0.502656,-0.85872394,-0.0996498,-0.7261243,0.35683754,0.58771646,-0.46912736,0.36777726,-0.80290675,,0.4505578,0.09063913,0.26336262,0.19750044,-0.69555223,0.6907971,-0.9768886,-0.08088291,0.19785492,-0.08174476,-0.7139082,-0.6954514,,0.0812991,-0.039007414,0.23237322,-0.99281067,0.112020515,0.0421704,0.11943028,0.95052415,0.2867757,-0.007959219,0.28975043,-0.95706904,,-0.607300267763267,0.012626668249357074,0.07790573271000001,0.023065893783297677,0.004372367992494094,-0.013040106774590703,-0.01502765408435369,,-1.4234386779113133,-0.1345145612032425,0.1451974429,0.002935659208783341,0.005602096490383059,-0.006365066334645647,-0.0022868169258799097
2.118780751945451,,0.050273623,0.15093398,0.14641826,-0.502656,-0.85872394,-0.0996498,-0.7261243,0.35683754,0.58771646,-0.46912736,0.36777726,-0.80290675,,0.4505578,0.09063913,0.26336262,0.19750044,-0.69555223,0.6907971,-0.9768886,-0.08088291,0.19785492,-0.08174476,-0.7139082,-0.6954514,,0.0812991,-0.039007414,0.23237322,-0.99281067,0.112020515,0.0421704,0.11943028,0.95052415,0.2867757,-0.007959219,0.28975043,-0.95706904,,-0.607300267763267,0.012626668249357074,0.07790573271000001,0.023065893783297677,0.004372367992494094,-0.013040106774590703,-0.01502765408435369,,-1.4234386779113133,-0.1345145612032425,0.1451974429,0.002935659208783341,0.005602096490383059,-0.006365066334645647,-0.0022868169258799097
2.14420074201189,,0.050273623,0.15093398,0.14641826,-0.502656,-0.85872394,-0.0996498,-0.7261243,0.35683754,0.58771646,-0.46912736,0.36777726,-0.80290675,,0.4505578,0.09063913,0.26336262,0.19750044,-0.69555223,0.6907971,-0.9768886,-0.08088291,0.19785492,-0.08174476,-0.7139082,-0.6954514,,0.0812991,-0.039007414,0.23237322,-0.99281067,0.112020515,0.0421704,0.11943028,0.95052415,0.2867757,-0.007959219,0.28975043,-0.95706904,,-0.607300267763267,0.012626668249357074,0.07790573271000001,0.023065893783297677,0.004372367992494094,-0.013040106774590703,-0.01502765408435369,,-1.4234386779113133,-0.1345145612032425,0.1451974429,0.002935659208783341,0.005602096490383059,-0.006365066334645647,-0.0022868169258799097
2.1660205780062824,,0.050273623,0.15093398,0.14641826,-0.502656,-0.85872394,-0.0996498,-0.7261243,0.35683754,0.58771646,-0.46912736,0.36777726,-0.80290675,,0.4505578,0.09063913,0.26336262,0.19750044,-0.69555223,0.6907971,-0.9768886,-0.08088291,0.19785492,-0.08174476,-0.7139082,-0.6954514,,0.0812991,-0.039007414,0.23237322,-0.99281067,0.112020515,0.0421704,0.11943028,0.95052415,0.2867757,-0.007959219,0.28975043,-0.95706904,,-0.607300267763267,0.012626668249357074,0.07790573271000001,0.023065893783297677,0.004372367992494094,-0.013040106774590703,-0.01502765408435369,,-1.4234386779113133,-0.1345145612032425,0.1451974429,0.002935659208783341,0.005602096490383059,-0.006365066334645647,-0.0022868169258799097
2.18989701801911,,0.050273623,0.15093398,0.14641826,-0.502656,-0.85872394,-0.0996498,-0.7261243,0.35683754,0.58771646,-0.46912736,0.36777726,-0.80290675,,0.4505578,0.09063913,0.26336262,0.19750044,-0.69555223,0.6907971,-0.9768886,-0.08088291,0.19785492,-0.08174476,-0.7139082,-0.6954514,,0.0812991,-0.039007414,0.23237322,-0.99281067,0.112020515,0.0421704,0.11943028,0.95052415,0.2867757,-0.007959219,0.28975043,-0.95706904,,-0.607300267763267,0.012626668249357074,0.07790573271000001,0.023065893783297677,0.004372367992494094,-0.013040106774590703,-0.01502765408435369,,-1.4234386779113133,-0.1345145612032425,0.1451974429,0.002935659208783341,0.005602096490383059,-0.006365066334645647,-0.0022868169258799097
2.2150430879555643,,0.050273623,0.15093398,0.14641826,-0.502656,-0.85872394,-0.0996498,-0.7261243,0.35683754,0.58771646,-0.46912736,0.36777726,-0.80290675,,0.4505578,0.09063913,0.26336262,0.19750044,-0.69555223,0.6907971,-0.9768886,-0.08088291,0.19785492,-0.08174476,-0.7139082,-0.6954514,,0.0812991,-0.039007414,0.23237322,-0.99281067,0.112020515,0.0421704,0.11943028,0.95052415,0.2867757,-0.007959219,0.28975043,-0.95706904,,-0.607300267763267,0.012626668249357074,0.07790573271000001,0.023065893783297677,0.004372367992494094,-0.013040106774590703,-0.01502765408435369,,-1.4234386779113133,-0.1345145612032425,0.1451974429,0.002935659208783341,0.005602096490383059,-0.006365066334645647,-0.0022868169258799097
2.239968506153673,,0.050273623,0.15093398,0.14641826,-0.502656,-0.85872394,-0.0996498,-0.7261243,0.35683754,0.58771646,-0.46912736,0.36777726,-0.80290675,,0.4505578,0.09063913,0.26336262,0.19750044,-0.69555223,0.6907971,-0.9768886,-0.08088291,0.19785492,-0.08174476,-0.7139082,-0.6954514,,0.0812991,-0.039007414,0.23237322,-0.99281067,0.112020515,0.0421704,0.11943028,0.95052415,0.2867757,-0.007959219,0.28975043,-0.95706904,,-0.607300267763267,0.012626668249357074,0.07790573271000001,0.023065893783297677,0.004372367992494094,-0.013040106774590703,-0.01502765408435369,,-1.4234386779113133,-0.1345145612032425,0.1451974429,0.002935659208783341,0.005602096490383059,-0.006365066334645647,-0.0022868169258799097
2.2603342970833182,,0.050271377,0.1509351,0.14641967,-0.5026567,-0.85872287,-0.09965597,-0.7261235,0.35683355,0.5877198,-0.46912777,0.36778376,-0.80290353,,0.4505537,0.09063955,0.26335874,0.19750203,-0.6955573,0.6907916,-0.97688824,-0.08088556,0.19785552,-0.08174482,-0.71390307,-0.6954568,,0.0812991,-0.039007414,0.23237322,-0.99281067,0.112020515,0.0421704,0.11943028,0.95052415,0.2867757,-0.007959219,0.28975043,-0.95706904,,-0.6072925450303928,0.012626668249357074,0.07790573271000001,0.023065893783297677,0.004372367992494094,-0.013040106774590703,-0.01502765408435369,,-1.423430955178439,-0.1345145612032425,0.1451974429,0.002935659208783341,0.005602096490383059,-0.006365066334645647,-0.0022868169258799097
2.285657500149682,,0.050271377,0.1509351,0.14641967,-0.5026567,-0.85872287,-0.09965597,-0.7261235,0.35683355,0.5877198,-0.46912777,0.36778376,-0.80290353,,0.4505578,0.09063913,0.26336262,0.19750044,-0.69555223,0.6907971,-0.9768886,-0.08088291,0.19785492,-0.08174476,-0.7139082,-0.6954514,,0.0812991,-0.039007414,0.23237322,-0.99281067,0.112020515,0.0421704,0.11943028,0.95052415,0.2867757,-0.007959219,0.28975043,-0.95706904,,-0.6072925450303928,0.012626668249357074,0.07790573271000001,0.023065893783297677,0.004372367992494094,-0.013040106774590703,-0.01502765408435369,,-1.4234386779113133,-0.1345145612032425,0.1451974429,0.002935659208783341,0.005602096490383059,-0.006365066334645647,-0.0022868169258799097
2.3112240119371563,,0.050273623,0.15093398,0.14641826,-0.502656,-0.85872394,-0.0996498,-0.7261243,0.35683754,0.58771646,-0.46912736,0.36777726,-0.80290675,,0.4505537,0.09063955,0.26335874,0.19750203,-0.6955573,0.6907916,-0.97688824,-0.08088556,0.19785552,-0.08174482,-0.71390307,-0.6954568,,0.0812991,-0.039007414,0.23237322,-0.99281067,0.112020515,0.0421704,0.11943028,0.95052415,0.2867757,-0.007959219,0.28975043,-0.95706904,,-0.607300267763267,0.012626668249357074,0.07790573271000001,0.023065893783297677,0.004372367992494094,-0.013040106774590703,-0.01502765408435369,,-1.423430955178439,-0.1345145612032425,0.1451974429,0.002935659208783341,0.005602096490383059,-0.006365066334645647,-0.0022868169258799097
2.3347712671384215,,0.050271377,0.1509351,0.14641967,-0.5026567,-0.85872287,-0.09965597,-0.7261235,0.35683355,0.5877198,-0.46912777,0.36778376,-0.80290353,,0.45054963,0.09063995,0.26335496,0.1975037,-0.6955623,0.69078606,-0.97688794,-0.08088814,0.1978561,-0.081744865,-0.7138979,-0.695462,,0.0812991,-0.039007414,0.23237322,-0.99281067,0.112020515,0.0421704,0.11943028,0.95052415,0.2867757,-0.007959219,0.28975043,-0.95706904,,-0.6072925450303928,0.012626668249357074,0.07790573271000001,0.023065893783297677,0.004372367992494094,-0.013040106774590703,-0.01502765408435369,,-1.4234232324455647,-0.1345145612032425,0.1451974429,0.002935659208783341,0.005602096490383059,-0.006365066334645647,-0.0022868169258799097
2.356187944067642,,0.050271377,0.1509351,0.14641967,-0.5026567,-0.85872287,-0.09965597,-0.7261235,0.35683355,0.5877198,-0.46912777,0.36778376,-0.80290353,,0.45054963,0.09063995,0.26335496,0.1975037,-0.6955623,0.69078606,-0.97688794,-0.08088814,0.1978561,-0.081744865,-0.7138979,-0.695462,,0.0812991,-0.039007414,0.23237322,-0.99281067,0.112020515,0.0421704,0.11943028,0.95052415,0.2867757,-0.007959219,0.28975043,-0.95706904,,-0.6072925450303928,0.012626668249357074,0.07790573271000001,0.023065893783297677,0.004372367992494094,-0.013040106774590703,-0.01502765408435369,,-1.4234232324455647,-0.1345145612032425,0.1451974429,0.002935659208783341,0.005602096490383059,-0.006365066334645647,-0.0022868169258799097
2.381478023948148,,0.050269134,0.15093623,0.14642105,-0.50265735,-0.85872173,-0.099662095,-0.72612286,0.3568295,0.5877231,-0.4691282,0.36779016,-0.8029003,,0.45054963,0.09063995,0.26335496,0.1975037,-0.6955623,0.69078606,-0.97688794,-0.08088814,0.1978561,-0.081744865,-0.7138979,-0.695462,,0.0812991,-0.039007414,0.23237322,-0.99281067,0.112020515,0.0421704,0.11943028,0.95052415,0.2867757,-0.007959219,0.28975043,-0.95706904,,-0.6072848222975186,0.012626668249357074,0.07790573271000001,0.023065893783297677,0.004372367992494094,-0.013040106774590703,-0.01502765408435369,,-1.4234232324455647,-0.1345145612032425,0.1451974429,0.002935659208783341,0.005602096490383059,-0.006365066334645647,-0.0022868169258799097
2.4073007409460843,,0.050274856,0.15093897,0.14642212,-0.5026603,-0.85872185,-0.09964675,-0.7261138,0.35683635,0.5877301,-0.469139,0.36778337,-0.8028971,,0.4505578,0.09063913,0.26336262,0.19750044,-0.69555223,0.6907971,-0.9768886,-0.08088291,0.19785492,-0.08174476,-0.7139082,-0.6954514,,0.0812991,-0.039007414,0.23237322,-0.99281067,0.112020515,0.0421704,0.11943028,0.95052415,0.2867757,-0.007959219,0.28975043,-0.95706904,,-0.6072925450303928,0.012642113715105522,0.07790573271000001,0.023065893783297677,0.004372367992494094,-0.013040106774590703,-0.01502765408435369,,-1.4234386779113133,-0.1345145612032425,0.1451974429,0.002935659208783341,0.005602096490383059,-0.006365066334645647,-0.0022868169258799097
2.4354002620093524,,0.05027537,0.1509359,0.1464195,-0.5026578,-0.8587234,-0.09964523,-0.7261194,0.3568389,0.5877216,-0.46913293,0.36777714,-0.8029036,,0.4505578,0.09063913,0.26336262,0.19750044,-0.69555223,0.6907971,-0.9768886,-0.08088291,0.19785492,-0.08174476,-0.7139082,-0.6954514,,0.0812991,-0.039007414,0.23237322,-0.99281067,0.112020515,0.0421704,0.11943028,0.95052415,0.2867757,-0.007959219,0.28975043,-0.95706904,,-0.607300267763267,0.012634390982231299,0.07790573271000001,0.023065893783297677,0.004372367992494094,-0.013040106774590703,-0.01502765408435369,,-1.4234386779113133,-0.1345145612032425,0.1451974429,0.002935659208783341,0.005602096490383059,-0.006365066334645647,-0.0022868169258799097
2.455793943023309,,0.05027537,0.1509359,0.1464195,-0.5026578,-0.8587234,-0.09964523,-0.7261194,0.3568389,0.5877216,-0.46913293,0.36777714,-0.8029036,,0.4505578,0.09063913,0.26336262,0.19750044,-0.69555223,0.6907971,-0.9768886,-0.08088291,0.19785492,-0.08174476,-0.7139082,-0.6954514,,0.0812991,-0.039007414,0.23237322,-0.99281067,0.112020515,0.0421704,0.11943028,0.95052415,0.2867757,-0.007959219,0.28975043,-0.95706904,,-0.607300267763267,0.012634390982231299,0.07790573271000001,0.023065893783297677,0.004372367992494094,-0.013040106774590703,-0.01502765408435369,,-1.4234386779113133,-0.1345145612032425,0.1451974429,0.002935659208783341,0.005602096490383059,-0.006365066334645647,-0.0022868169258799097
2.4818432121537626,,0.050271377,0.1509351,0.14641967,-0.5026567,-0.85872287,-0.09965597,-0.7261235,0.35683355,0.5877198,-0.46912777,0.36778376,-0.80290353,,0.45055848,0.090633795,0.26336133,0.19749624,-0.69555265,0.69079787,-0.97688997,-0.08088456,0.19784752,-0.08173852,-0.7139076,-0.69545287,,0.0812991,-0.039007414,0.23237322,-0.99281067,0.112020515,0.0421704,0.11943028,0.95052415,0.2867757,-0.007959219,0.28975043,-0.95706904,,-0.6072925450303928,0.012626668249357074,0.07790573271000001,0.023065893783297677,0.004372367992494094,-0.013040106774590703,-0.01502765408435369,,-1.4234386779113133,-0.13452228393611673,0.1451974429,0.002935659208783341,0.005602096490383059,-0.006365066334645647,-0.0022868169258799097
2.5038399931509048,,0.05027087,0.15093815,0.14642227,-0.50265914,-0.85872126,-0.099657506,-0.7261179,0.35683087,0.58772826,-0.46913382,0.36779004,-0.8028971,,0.4505593,0.090628445,0.26336017,0.19749208,-0.69555306,0.6907987,-0.9768914,-0.080886185,0.19784008,-0.08173226,-0.71390706,-0.6954541,,0.0812991,-0.039007414,0.23237322,-0.99281067,0.112020515,0.0421704,0.11943028,0.95052415,0.2867757,-0.007959219,0.28975043,-0.95706904,,-0.6072848222975186,0.012634390982231299,0.07790573271000001,0.023065893783297677,0.004372367992494094,-0.013040106774590703,-0.01502765408435369,,-1.4234386779113133,-0.13453000666899095,0.1451974429,0.002935659208783341,0.005602096490383059,-0.006365066334645647,-0.0022868169258799097
2.5244416531641036,,0.050274856,0.15093897,0.14642212,-0.5026603,-0.85872185,-0.09964675,-0.7261138,0.35683635,0.5877301,-0.469139,0.36778337,-0.8028971,,0.45055848,0.090633795,0.26336133,0.19749624,-0.69555265,0.69079787,-0.97688997,-0.08088456,0.19784752,-0.08173852,-0.7139076,-0.69545287,,0.0812991,-0.039007414,0.23237322,-0.99281067,0.112020515,0.0421704,0.11943028,0.95052415,0.2867757,-0.007959219,0.28975043,-0.95706904,,-0.6072925450303928,0.012642113715105522,0.07790573271000001,0.023065893783297677,0.004372367992494094,-0.013040106774590703,-0.01502765408435369,,-1.4234386779113133,-0.13452228393611673,0.1451974429,0.002935659208783341,0.005602096490383059,-0.006365066334645647,-0.0022868169258799097
2.5522226551547647,,0.05027537,0.1509359,0.1464195,-0.5026578,-0.8587234,-0.09964523,-0.7261194,0.3568389,0.5877216,-0.46913293,0.36777714,-0.8029036,,0.4505578,0.09063913,0.26336262,0.19750044,-0.69555223,0.6907971,-0.9768886,-0.08088291,0.19785492,-0.08174476,-0.7139082,-0.6954514,,0.0812991,-0.039007414,0.23237322,-0.99281067,0.112020515,0.0421704,0.11943028,0.95052415,0.2867757,-0.007959219,0.28975043,-0.95706904,,-0.607300267763267,0.012634390982231299,0.07790573271000001,0.023065893783297677,0.004372367992494094,-0.013040106774590703,-0.01502765408435369,,-1.4234386779113133,-0.1345145612032425,0.1451974429,0.002935659208783341,0.005602096490383059,-0.006365066334645647,-0.0022868169258799097
2.5760742251295596,,0.05032617,0.15094763,0.14642031,-0.50267947,-0.85873,-0.09947877,-0.7260498,0.35692364,0.58775616,-0.46921754,0.36767945,-0.8028988,,0.4505578,0.09063913,0.26336262,0.19750044,-0.69555223,0.6907971,-0.9768886,-0.08088291,0.19785492,-0.08174476,-0.7139082,-0.6954514,,0.0812991,-0.039007414,0.23237322,-0.99281067,0.112020515,0.0421704,0.11943028,0.95052415,0.2867757,-0.007959219,0.28975043,-0.95706904,,-0.607300267763267,0.012626668249357074,0.07790573271000001,0.023065893783297677,0.004509004492259535,-0.013151524678287126,-0.01502765408435369,,-1.4234386779113133,-0.1345145612032425,0.1451974429,0.002935659208783341,0.005602096490383059,-0.006365066334645647,-0.0022868169258799097
2.6020108319353312,,0.05037819,0.15096429,0.14642496,-0.50270534,-0.85873455,-0.09930927,-0.7259697,0.35700718,0.58780444,-0.46931386,0.36758786,-0.8028845,,0.4505578,0.09063913,0.26336262,0.19750044,-0.69555223,0.6907971,-0.9768886,-0.08088291,0.19785492,-0.08174476,-0.7139082,-0.6954514,,0.0812991,-0.039007414,0.23237322,-0.99281067,0.112020515,0.0421704,0.11943028,0.95052415,0.2867757,-0.007959219,0.28975043,-0.95706904,,-0.6072925450303928,0.012634390982231299,0.07790573271000001,0.023065893783297677,0.0046456409920249755,-0.013262942581983548,-0.01502765408435369,,-1.4234386779113133,-0.1345145612032425,0.1451974429,0.002935659208783341,0.005602096490383059,-0.006365066334645647,-0.0022868169258799097
2.621997743146494,,0.050377686,0.15096734,0.14642754,-0.50270784,-0.8587329,-0.09931083,-0.72596395,0.35700464,0.5878129,-0.46931988,0.36759415,-0.8028781,,0.4505578,0.09063913,0.26336262,0.19750044,-0.69555223,0.6907971,-0.9768886,-0.08088291,0.19785492,-0.08174476,-0.7139082,-0.6954514,,0.0812991,-0.039007414,0.23237322,-0.99281067,0.112020515,0.0421704,0.11943028,0.95052415,0.2867757,-0.007959219,0.28975043,-0.95706904,,-0.6072848222975186,0.012642113715105522,0.07790573271000001,0.023065893783297677,0.0046456409920249755,-0.013262942581983548,-0.01502765408435369,,-1.4234386779113133,-0.1345145612032425,0.1451974429,0.002935659208783341,0.005602096490383059,-0.006365066334645647,-0.0022868169258799097
2.6502780029550195,,0.05037819,0.15096429,0.14642496,-0.50270534,-0.85873455,-0.09930927,-0.7259697,0.35700718,0.58780444,-0.46931386,0.36758786,-0.8028845,,0.4505578,0.09063913,0.26336262,0.19750044,-0.69555223,0.6907971,-0.9768886,-0.08088291,0.19785492,-0.08174476,-0.7139082,-0.6954514,,0.0812991,-0.039007414,0.23237322,-0.99281067,0.112020515,0.0421704,0.11943028,0.95052415,0.2867757,-0.007959219,0.28975043,-0.95706904,,-0.6072925450303928,0.012634390982231299,0.07790573271000001,0.023065893783297677,0.0046456409920249755,-0.013262942581983548,-0.01502765408435369,,-1.4234386779113133,-0.1345145612032425,0.1451974429,0.002935659208783341,0.005602096490383059,-0.006365066334645647,-0.0022868169258799097
2.672701749019325,,0.05037819,0.15096429,0.14642496,-0.50270534,-0.85873455,-0.09930927,-0.7259697,0.35700718,0.58780444,-0.46931386,0.36758786,-0.8028845,,0.4505537,0.09063955,0.26335874,0.19750203,-0.6955573,0.6907916,-0.97688824,-0.08088556,0.19785552,-0.08174482,-0.71390307,-0.6954568,,0.0812991,-0.039007414,0.23237322,-0.99281067,0.112020515,0.0421704,0.11943028,0.95052415,0.2867757,-0.007959219,0.28975043,-0.95706904,,-0.6072925450303928,0.012634390982231299,0.07790573271000001,0.023065893783297677,0.0046456409920249755,-0.013262942581983548,-0.01502765408435369,,-1.423430955178439,-0.1345145612032425,0.1451974429,0.002935659208783341,0.005602096490383059,-0.006365066334645647,-0.0022868169258799097
2.697129264008254,,0.050378706,0.15096126,0.14642233,-0.502703,-0.85873616,-0.09930773,-0.72597533,0.35700974,0.58779585,-0.46930775,0.36758158,-0.8028909,,0.4505537,0.09063955,0.26335874,0.19750203,-0.6955573,0.6907916,-0.97688824,-0.08088556,0.19785552,-0.08174482,-0.71390307,-0.6954568,,0.0812991,-0.039007414,0.23237322,-0.99281067,0.112020515,0.0421704,0.11943028,0.95052415,0.2867757,-0.007959219,0.28975043,-0.95706904,,-0.607300267763267,0.012626668249357074,0.07790573271000001,0.023065893783297677,0.0046456409920249755,-0.013262942581983548,-0.01502765408435369,,-1.423430955178439,-0.1345145612032425,0.1451974429,0.002935659208783341,0.005602096490383059,-0.006365066334645647,-0.0022868169258799097
2.7215428960043937,,0.050378706,0.15096126,0.14642233,-0.502703,-0.85873616,-0.09930773,-0.72597533,0.35700974,0.58779585,-0.46930775,0.36758158,-0.8028909,,0.4505537,0.09063955,0.26335874,0.19750203,-0.6955573,0.6907916,-0.97688824,-0.08088556,0.19785552,-0.08174482,-0.71390307,-0.6954568,,0.0812991,-0.039007414,0.23237322,-0.99281067,0.112020515,0.0421704,0.11943028,0.95052415,0.2867757,-0.007959219,0.28975043,-0.95706904,,-0.607300267763267,0.012626668249357074,0.07790573271000001,0.023065893783297677,0.0046456409920249755,-0.013262942581983548,-0.01502765408435369,,-1.423430955178439,-0.1345145612032425,0.1451974429,0.002935659208783341,0.005602096490383059,-0.006365066334645647,-0.0022868169258799097
2.748078763950616,,0.050382186,0.15096511,0.14642479,-0.5027066,-0.8587351,-0.09929852,-0.7259655,0.35701266,0.5878062,-0.469319,0.36758125,-0.80288446,,0.4505578,0.09063913,0.26336262,0.19750044,-0.69555223,0.6907971,-0.9768886,-0.08088291,0.19785492,-0.08174476,-0.7139082,-0.6954514,,0.0812991,-0.039007414,0.23237322,-0.99281067,0.112020515,0.0421704,0.11943028,0.95052415,0.2867757,-0.007959219,0.28975043,-0.95706904,,-0.607300267763267,0.012642113715105522,0.07790573271000001,0.023065893783297677,0.0046456409920249755,-0.013262942581983548,-0.01502765408435369,,-1.4234386779113133,-0.1345145612032425,0.1451974429,0.002935659208783341,0.005602096490383059,-0.006365066334645647,-0.0022868169258799097
2.7718876991420984,,0.050382186,0.15096511,0.14642479,-0.5027066,-0.8587351,-0.09929852,-0.7259655,0.35701266,0.5878062,-0.469319,0.36758125,-0.80288446,,0.45055848,0.090633795,0.26336133,0.19749624,-0.69555265,0.69079787,-0.97688997,-0.08088456,0.19784752,-0.08173852,-0.7139076,-0.69545287,,0.0812991,-0.039007414,0.23237322,-0.99281067,0.112020515,0.0421704,0.11943028,0.95052415,0.2867757,-0.007959219,0.28975043,-0.95706904,,-0.607300267763267,0.012642113715105522,0.07790573271000001,0.023065893783297677,0.0046456409920249755,-0.013262942581983548,-0.01502765408435369,,-1.4234386779113133,-0.13452228393611673,0.1451974429,0.002935659208783341,0.005602096490383059,-0.006365066334645647,-0.0022868169258799097
2.7975683589465916,,0.05037994,0.15096624,0.14642619,-0.5027072,-0.858734,-0.09930464,-0.7259648,0.35700864,0.58780956,-0.46931943,0.36758772,-0.8028813,,0.4505578,0.09063913,0.26336262,0.19750044,-0.69555223,0.6907971,-0.9768886,-0.08088291,0.19785492,-0.08174476,-0.7139082,-0.6954514,,0.0812991,-0.039007414,0.23237322,-0.99281067,0.112020515,0.0421704,0.11943028,0.95052415,0.2867757,-0.007959219,0.28975043,-0.95706904,,-0.6072925450303928,0.012642113715105522,0.07790573271000001,0.023065893783297677,0.0046456409920249755,-0.013262942581983548,-0.01502765408435369,,-1.4234386779113133,-0.1345145612032425,0.1451974429,0.002935659208783341,0.005602096490383059,-0.006365066334645647,-0.0022868169258799097
2.81872071698308,,0.050378706,0.15096126,0.14642233,-0.502703,-0.85873616,-0.09930773,-0.72597533,0.35700974,0.58779585,-0.46930775,0.36758158,-0.8028909,,0.4505578,0.09063913,0.26336262,0.19750044,-0.69555223,0.6907971,-0.9768886,-0.08088291,0.19785492,-0.08174476,-0.7139082,-0.6954514,,0.0812991,-0.039007414,0.23237322,-0.99281067,0.112020515,0.0421704,0.11943028,0.95052415,0.2867757,-0.007959219,0.28975043,-0.95706904,,-0.607300267763267,0.012626668249357074,0.07790573271000001,0.023065893783297677,0.0046456409920249755,-0.013262942581983548,-0.01502765408435369,,-1.4234386779113133,-0.1345145612032425,0.1451974429,0.002935659208783341,0.005602096490383059,-0.006365066334645647,-0.0022868169258799097
2.8427233500406146,,0.050378706,0.15096126,0.14642233,-0.502703,-0.85873616,-0.09930773,-0.72597533,0.35700974,0.58779585,-0.46930775,0.36758158,-0.8028909,,0.4505578,0.09063913,0.26336262,0.19750044,-0.69555223,0.6907971,-0.9768886,-0.08088291,0.19785492,-0.08174476,-0.7139082,-0.6954514,,0.0812991,-0.039007414,0.23237322,-0.99281067,0.112020515,0.0421704,0.11943028,0.95052415,0.2867757,-0.007959219,0.28975043,-0.95706904,,-0.607300267763267,0.012626668249357074,0.07790573271000001,0.023065893783297677,0.0046456409920249755,-0.013262942581983548,-0.01502765408435369,,-1.4234386779113133,-0.1345145612032425,0.1451974429,0.002935659208783341,0.005602096490383059,-0.006365066334645647,-0.0022868169258799097
2.8632219119463116,,0.05038045,0.15096317,0.14642356,-0.5027047,-0.85873556,-0.0993031,-0.72597045,0.3570112,0.5878011,-0.46931338,0.36758146,-0.80288774,,0.4505578,0.09063913,0.26336262,0.19750044,-0.69555223,0.6907971,-0.9768886,-0.08088291,0.19785492,-0.08174476,-0.7139082,-0.6954514,,0.0812991,-0.039007414,0.23237322,-0.99281067,0.112020515,0.0421704,0.11943028,0.95052415,0.2867757,-0.007959219,0.28975043,-0.95706904,,-0.607300267763267,0.012634390982231299,0.07790573271000001,0.023065893783297677,0.0046456409920249755,-0.013262942581983548,-0.01502765408435369,,-1.4234386779113133,-0.1345145612032425,0.1451974429,0.002935659208783341,0.005602096490383059,-0.006365066334645647,-0.0022868169258799097
2.8890579261351377,,0.05037994,0.15096624,0.14642619,-0.5027072,-0.858734,-0.09930464,-0.7259648,0.35700864,0.58780956,-0.46931943,0.36758772,-0.8028813,,0.45055848,0.090633795,0.26336133,0.19749624,-0.69555265,0.69079787,-0.97688997,-0.08088456,0.19784752,-0.08173852,-0.7139076,-0.69545287,,0.0812991,-0.039007414,0.23237322,-0.99281067,0.112020515,0.0421704,0.11943028,0.95052415,0.2867757,-0.007959219,0.28975043,-0.95706904,,-0.6072925450303928,0.012642113715105522,0.07790573271000001,0.023065893783297677,0.0046456409920249755,-0.013262942581983548,-0.01502765408435369,,-1.4234386779113133,-0.13452228393611673,0.1451974429,0.002935659208783341,0.005602096490383059,-0.006365066334645647,-0.0022868169258799097
2.9166841951664537,,0.05038045,0.15096317,0.14642356,-0.5027047,-0.85873556,-0.0993031,-0.72597045,0.3570112,0.5878011,-0.46931338,0.36758146,-0.80288774,,0.4505578,0.09063913,0.26336262,0.19750044,-0.69555223,0.6907971,-0.9768886,-0.08088291,0.19785492,-0.08174476,-0.7139082,-0.6954514,,0.0812991,-0.039007414,0.23237322,-0.99281067,0.112020515,0.0421704,0.11943028,0.95052415,0.2867757,-0.007959219,0.28975043,-0.95706904,,-0.607300267763267,0.012634390982231299,0.07790573271000001,0.023065893783297677,0.0046456409920249755,-0.013262942581983548,-0.01502765408435369,,-1.4234386779113133,-0.1345145612032425,0.1451974429,0.002935659208783341,0.005602096490383059,-0.006365066334645647,-0.0022868169258799097
2.93934664898552,,0.050378706,0.15096126,0.14642233,-0.502703,-0.85873616,-0.09930773,-0.72597533,0.35700974,0.58779585,-0.46930775,0.36758158,-0.8028909,,0.4505578,0.09063913,0.26336262,0.19750044,-0.69555223,0.6907971,-0.9768886,-0.08088291,0.19785492,-0.08174476,-0.7139082,-0.6954514,,0.0812991,-0.039007414,0.23237322,-0.99281067,0.112020515,0.0421704,0.11943028,0.95052415,0.2867757,-0.007959219,0.28975043,-0.95706904,,-0.607300267763267,0.012626668249357074,0.07790573271000001,0.023065893783297677,0.0046456409920249755,-0.013262942581983548,-0.01502765408435369,,-1.4234386779113133,-0.1345145612032425,0.1451974429,0.002935659208783341,0.005602096490383059,-0.006365066334645647,-0.0022868169258799097
2.9642282330896705,,0.05038045,0.15096317,0.14642356,-0.5027047,-0.85873556,-0.0993031,-0.72597045,0.3570112,0.5878011,-0.46931338,0.36758146,-0.80288774,,0.4505537,0.09063955,0.26335874,0.19750203,-0.6955573,0.6907916,-0.97688824,-0.08088556,0.19785552,-0.08174482,-0.71390307,-0.6954568,,0.0812991,-0.039007414,0.23237322,-0.99281067,0.112020515,0.0421704,0.11943028,0.95052415,0.2867757,-0.007959219,0.28975043,-0.95706904,,-0.607300267763267,0.012634390982231299,0.07790573271000001,0.023065893783297677,0.0046456409920249755,-0.013262942581983548,-0.01502765408435369,,-1.423430955178439,-0.1345145612032425,0.1451974429,0.002935659208783341,0.005602096490383059,-0.006365066334645647,-0.0022868169258799097
2.9863931101281196,,0.05037994,0.15096624,0.14642619,-0.5027072,-0.858734,-0.09930464,-0.7259648,0.35700864,0.58780956,-0.46931943,0.36758772,-0.8028813,,0.4505578,0.09063913,0.26336262,0.19750044,-0.69555223,0.6907971,-0.9768886,-0.08088291,0.19785492,-0.08174476,-0.7139082,-0.6954514,,0.0812991,-0.039007414,0.23237322,-0.99281067,0.112020515,0.0421704,0.11943028,0.95052415,0.2867757,-0.007959219,0.28975043,-0.95706904,,-0.6072925450303928,0.012642113715105522,0.07790573271000001,0.023065893783297677,0.0046456409920249755,-0.013262942581983548,-0.01502765408435369,,-1.4234386779113133,-0.1345145612032425,0.1451974429,0.002935659208783341,0.005602096490383059,-0.006365066334645647,-0.0022868169258799097
3.0110236869659275,,0.050377686,0.15096734,0.14642754,-0.50270784,-0.8587329,-0.09931083,-0.72596395,0.35700464,0.5878129,-0.46931988,0.36759415,-0.8028781,,0.45054963,0.09063995,0.26335496,0.1975037,-0.6955623,0.69078606,-0.97688794,-0.08088814,0.1978561,-0.081744865,-0.7138979,-0.695462,,0.0812991,-0.039007414,0.23237322,-0.99281067,0.112020515,0.0421704,0.11943028,0.95052415,0.2867757,-0.007959219,0.28975043,-0.95706904,,-0.6072848222975186,0.012642113715105522,0.07790573271000001,0.023065893783297677,0.0046456409920249755,-0.013262942581983548,-0.01502765408435369,,-1.4234232324455647,-0.1345145612032425,0.1451974429,0.002935659208783341,0.005602096490383059,-0.006365066334645647,-0.0022868169258799097
3.0373560909647495,,0.05037994,0.15096624,0.14642619,-0.5027072,-0.858734,-0.09930464,-0.7259648,0.35700864,0.58780956,-0.46931943,0.36758772,-0.8028813,,0.45054963,0.09063995,0.26335496,0.1975037,-0.6955623,0.69078606,-0.97688794,-0.08088814,0.1978561,-0.081744865,-0.7138979,-0.695462,,0.0812991,-0.039007414,0.23237322,-0.99281067,0.112020515,0.0421704,0.11943028,0.95052415,0.2867757,-0.007959219,0.28975043,-0.95706904,,-0.6072925450303928,0.012642113715105522,0.07790573271000001,0.023065893783297677,0.0046456409920249755,-0.013262942581983548,-0.01502765408435369,,-1.4234232324455647,-0.1345145612032425,0.1451974429,0.002935659208783341,0.005602096490383059,-0.006365066334645647,-0.0022868169258799097
3.056884919060394,,0.05037994,0.15096624,0.14642619,-0.5027072,-0.858734,-0.09930464,-0.7259648,0.35700864,0.58780956,-0.46931943,0.36758772,-0.8028813,,0.45054963,0.09063995,0.26335496,0.1975037,-0.6955623,0.69078606,-0.97688794,-0.08088814,0.1978561,-0.081744865,-0.7138979,-0.695462,,0.0812991,-0.039007414,0.23237322,-0.99281067,0.112020515,0.0421704,0.11943028,0.95052415,0.2867757,-0.007959219,0.28975043,-0.95706904,,-0.6072925450303928,0.012642113715105522,0.07790573271000001,0.023065893783297677,0.0046456409920249755,-0.013262942581983548,-0.01502765408435369,,-1.4234232324455647,-0.1345145612032425,0.1451974429,0.002935659208783341,0.005602096490383059,-0.006365066334645647,-0.0022868169258799097
3.083275489974767,,0.050382186,0.15096511,0.14642479,-0.5027066,-0.8587351,-0.09929852,-0.7259655,0.35701266,0.5878062,-0.469319,0.36758125,-0.80288446,,0.45054963,0.09063995,0.26335496,0.1975037,-0.6955623,0.69078606,-0.97688794,-0.08088814,0.1978561,-0.081744865,-0.7138979,-0.695462,,0.0812991,-0.039007414,0.23237322,-0.99281067,0.112020515,0.0421704,0.11943028,0.95052415,0.2867757,-0.007959219,0.28975043,-0.95706904,,-0.607300267763267,0.012642113715105522,0.07790573271000001,0.023065893783297677,0.0046456409920249755,-0.013262942581983548,-0.01502765408435369,,-1.4234232324455647,-0.1345145612032425,0.1451974429,0.002935659208783341,0.005602096490383059,-0.006365066334645647,-0.0022868169258799097
3.105015827110037,,0.050382186,0.15096511,0.14642479,-0.5027066,-0.8587351,-0.09929852,-0.7259655,0.35701266,0.5878062,-0.469319,0.36758125,-0.80288446,,0.45054963,0.09063995,0.26335496,0.1975037,-0.6955623,0.69078606,-0.97688794,-0.08088814,0.1978561,-0.081744865,-0.7138979,-0.695462,,0.0812991,-0.039007414,0.23237322,-0.99281067,0.112020515,0.0421704,0.11943028,0.95052415,0.2867757,-0.007959219,0.28975043,-0.95706904,,-0.607300267763267,0.012642113715105522,0.07790573271000001,0.023065893783297677,0.0046456409920249755,-0.013262942581983548,-0.01502765408435369,,-1.4234232324455647,-0.1345145612032425,0.1451974429,0.002935659208783341,0.005602096490383059,-0.006365066334645647,-0.0022868169258799097
3.1321439400780946,,0.05037994,0.15096624,0.14642619,-0.5027072,-0.858734,-0.09930464,-0.7259648,0.35700864,0.58780956,-0.46931943,0.36758772,-0.8028813,,0.45054963,0.09063995,0.26335496,0.1975037,-0.6955623,0.69078606,-0.97688794,-0.08088814,0.1978561,-0.081744865,-0.7138979,-0.695462,,0.0812991,-0.039007414,0.23237322,-0.99281067,0.112020515,0.0421704,0.11943028,0.95052415,0.2867757,-0.007959219,0.28975043,-0.95706904,,-0.6072925450303928,0.012642113715105522,0.07790573271000001,0.023065893783297677,0.0046456409920249755,-0.013262942581983548,-0.01502765408435369,,-1.4234232324455647,-0.1345145612032425,0.1451974429,0.002935659208783341,0.005602096490383059,-0.006365066334645647,-0.0022868169258799097
3.1547309239394963,,0.050377686,0.15096734,0.14642754,-0.50270784,-0.8587329,-0.09931083,-0.72596395,0.35700464,0.5878129,-0.46931988,0.36759415,-0.8028781,,0.45054963,0.09063995,0.26335496,0.1975037,-0.6955623,0.69078606,-0.97688794,-0.08088814,0.1978561,-0.081744865,-0.7138979,-0.695462,,0.0812991,-0.039007414,0.23237322,-0.99281067,0.112020515,0.0421704,0.11943028,0.95052415,0.2867757,-0.007959219,0.28975043,-0.95706904,,-0.6072848222975186,0.012642113715105522,0.07790573271000001,0.023065893783297677,0.0046456409920249755,-0.013262942581983548,-0.01502765408435369,,-1.4234232324455647,-0.1345145612032425,0.1451974429,0.002935659208783341,0.005602096490383059,-0.006365066334645647,-0.0022868169258799097
3.181960560148582,,0.05037994,0.15096624,0.14642619,-0.5027072,-0.858734,-0.09930464,-0.7259648,0.35700864,0.58780956,-0.46931943,0.36758772,-0.8028813,,0.45054963,0.09063995,0.26335496,0.1975037,-0.6955623,0.69078606,-0.97688794,-0.08088814,0.1978561,-0.081744865,-0.7138979,-0.695462,,0.0812991,-0.039007414,0.23237322,-0.99281067,0.112020515,0.0421704,0.11943028,0.95052415,0.2867757,-0.007959219,0.28975043,-0.95706904,,-0.6072925450303928,0.012642113715105522,0.07790573271000001,0.023065893783297677,0.0046456409920249755,-0.013262942581983548,-0.01502765408435369,,-1.4234232324455647,-0.1345145612032425,0.1451974429,0.002935659208783341,0.005602096490383059,-0.006365066334645647,-0.0022868169258799097
3.2058006890583783,,0.050382186,0.15096511,0.14642479,-0.5027066,-0.8587351,-0.09929852,-0.7259655,0.35701266,0.5878062,-0.469319,0.36758125,-0.80288446,,0.45054963,0.09063995,0.26335496,0.1975037,-0.6955623,0.69078606,-0.97688794,-0.08088814,0.1978561,-0.081744865,-0.7138979,-0.695462,,0.0812991,-0.039007414,0.23237322,-0.99281067,0.112020515,0.0421704,0.11943028,0.95052415,0.2867757,-0.007959219,0.28975043,-0.95706904,,-0.607300267763267,0.012642113715105522,0.07790573271000001,0.023065893783297677,0.0046456409920249755,-0.013262942581983548,-0.01502765408435369,,-1.4234232324455647,-0.1345145612032425,0.1451974429,0.002935659208783341,0.005602096490383059,-0.006365066334645647,-0.0022868169258799097
3.2267204870004207,,0.050301038,0.15103665,0.14643684,-0.5027861,-0.85869527,-0.09924102,-0.72591716,0.35710734,0.5878084,-0.46930856,0.3675825,-0.80289,,0.45058936,0.09061749,0.26340964,0.19748425,-0.69552636,0.69082785,-0.9768968,-0.08090654,0.19780493,-0.081686124,-0.7139307,-0.6954353,,0.08123903,-0.038984,0.23238015,-0.9928023,0.112092555,0.042177353,0.119501255,0.95051557,0.28677467,-0.007944921,0.2897508,-0.95706904,,-0.607300267763267,0.012642113715105522,0.07790573271000001,0.023065893783297677,0.0046456409920249755,-0.013262942581983548,-0.01502765408435369,,-1.4234232324455647,-0.1345145612032425,0.1451974429,0.002935659208783341,0.005602096490383059,-0.006365066334645647,-0.0022868169258799097
3.2520569460466504,,0.050299294,0.15103471,0.1464356,-0.50278425,-0.8586957,-0.09924561,-0.7259221,0.35710588,0.58780324,-0.4693029,0.36758268,-0.8028933,,0.45059752,0.09061669,0.2634173,0.197481,-0.6955165,0.6908387,-0.9768974,-0.080901325,0.19780375,-0.08168605,-0.713941,-0.6954247,,0.08123903,-0.038984,0.23238015,-0.9928023,0.112092555,0.042177353,0.119501255,0.95051557,0.28677467,-0.007944921,0.2897508,-0.95706904,,-0.607300267763267,0.012634390982231299,0.07790573271000001,0.023065893783297677,0.0046456409920249755,-0.013262942581983548,-0.01502765408435369,,-1.4234386779113133,-0.1345145612032425,0.1451974429,0.002935659208783341,0.005602096490383059,-0.006365066334645647,-0.0022868169258799097
3.275628512026742,,0.050301038,0.15103665,0.14643684,-0.5027861,-0.85869527,-0.09924102,-0.72591716,0.35710734,0.5878084,-0.46930856,0.3675825,-0.80289,,0.45059752,0.09061669,0.2634173,0.197481,-0.6955165,0.6908387,-0.9768974,-0.080901325,0.19780375,-0.08168605,-0.713941,-0.6954247,,0.08123903,-0.038984,0.23238015,-0.9928023,0.112092555,0.042177353,0.119501255,0.95051557,0.28677467,-0.007944921,0.2897508,-0.95706904,,-0.607300267763267,0.012642113715105522,0.07790573271000001,0.023065893783297677,0.0046456409920249755,-0.013262942581983548,-0.01502765408435369,,-1.4234386779113133,-0.1345145612032425,0.1451974429,0.002935659208783341,0.005602096490383059,-0.006365066334645647,-0.0022868169258799097
3.302166030043736,,0.050301038,0.15103665,0.14643684,-0.5027861,-0.85869527,-0.09924102,-0.72591716,0.35710734,0.5878084,-0.46930856,0.3675825,-0.80289,,0.45059752,0.09061669,0.2634173,0.197481,-0.6955165,0.6908387,-0.9768974,-0.080901325,0.19780375,-0.08168605,-0.713941,-0.6954247,,0.08123903,-0.038984,0.23238015,-0.9928023,0.112092555,0.042177353,0.119501255,0.95051557,0.28677467,-0.007944921,0.2897508,-0.95706904,,-0.607300267763267,0.012642113715105522,0.07790573271000001,0.023065893783297677,0.0046456409920249755,-0.013262942581983548,-0.01502765408435369,,-1.4234386779113133,-0.1345145612032425,0.1451974429,0.002935659208783341,0.005602096490383059,-0.006365066334645647,-0.0022868169258799097
3.3235556399449706,,0.050301038,0.15103665,0.14643684,-0.5027861,-0.85869527,-0.09924102,-0.72591716,0.35710734,0.5878084,-0.46930856,0.3675825,-0.80289,,0.45058936,0.09061749,0.26340964,0.19748425,-0.69552636,0.69082785,-0.9768968,-0.08090654,0.19780493,-0.081686124,-0.7139307,-0.6954353,,0.08123903,-0.038984,0.23238015,-0.9928023,0.112092555,0.042177353,0.119501255,0.95051557,0.28677467,-0.007944921,0.2897508,-0.95706904,,-0.607300267763267,0.012642113715105522,0.07790573271000001,0.023065893783297677,0.0046456409920249755,-0.013262942581983548,-0.01502765408435369,,-1.4234232324455647,-0.1345145612032425,0.1451974429,0.002935659208783341,0.005602096490383059,-0.006365066334645647,-0.0022868169258799097
3.349674597149715,,0.050298795,0.15103777,0.14643824,-0.5027867,-0.85869414,-0.099247135,-0.7259165,0.35710335,0.5878117,-0.46930894,0.36758897,-0.8028868,,0.45059347,0.09061709,0.2634135,0.19748265,-0.69552153,0.69083333,-0.97689724,-0.08090393,0.19780433,-0.081686094,-0.71393585,-0.6954299,,0.08123903,-0.038984,0.23238015,-0.9928023,0.112092555,0.042177353,0.119501255,0.95051557,0.28677467,-0.007944921,0.2897508,-0.95706904,,-0.6072925450303928,0.012642113715105522,0.07790573271000001,0.023065893783297677,0.0046456409920249755,-0.013262942581983548,-0.01502765408435369,,-1.423430955178439,-0.1345145612032425,0.1451974429,0.002935659208783341,0.005602096490383059,-0.006365066334645647,-0.0022868169258799097
3.373763032956049,,0.050296545,0.15103889,0.14643961,-0.50278735,-0.85869306,-0.09925327,-0.72591573,0.35709932,0.58781505,-0.4693094,0.36759543,-0.8028837,,0.45059752,0.09061669,0.2634173,0.197481,-0.6955165,0.6908387,-0.9768974,-0.080901325,0.19780375,-0.08168605,-0.713941,-0.6954247,,0.08123903,-0.038984,0.23238015,-0.9928023,0.112092555,0.042177353,0.119501255,0.95051557,0.28677467,-0.007944921,0.2897508,-0.95706904,,-0.6072848222975186,0.012642113715105522,0.07790573271000001,0.023065893783297677,0.0046456409920249755,-0.013262942581983548,-0.01502765408435369,,-1.4234386779113133,-0.1345145612032425,0.1451974429,0.002935659208783341,0.005602096490383059,-0.006365066334645647,-0.0022868169258799097
3.399755927035585,,0.050298795,0.15103777,0.14643824,-0.5027867,-0.85869414,-0.099247135,-0.7259165,0.35710335,0.5878117,-0.46930894,0.36758897,-0.8028868,,0.45059752,0.09061669,0.2634173,0.197481,-0.6955165,0.6908387,-0.9768974,-0.080901325,0.19780375,-0.08168605,-0.713941,-0.6954247,,0.08123903,-0.038984,0.23238015,-0.9928023,0.112092555,0.042177353,0.119501255,0.95051557,0.28677467,-0.007944921,0.2897508,-0.95706904,,-0.6072925450303928,0.012642113715105522,0.07790573271000001,0.023065893783297677,0.0046456409920249755,-0.013262942581983548,-0.01502765408435369,,-1.4234386779113133,-0.1345145612032425,0.1451974429,0.002935659208783341,0.005602096490383059,-0.006365066334645647,-0.0022868169258799097
