AlexandreBanks6/ExpertPlaybackApp/resources/Motions/Motion_OldAlign.csv
Time,si_T_psm1,Tx,Ty,Tz,R00,R01,R02,R10,R11,R12,R20,R21,R22,si_T_psm3,Tx,Ty,Tz,R00,R01,R02,R10,R11,R12,R20,R21,R22,si_T_ecm,Tx,Ty,Tz,R00,R01,R02,R10,R11,R12,R20,R21,R22,joint_vars_psm1,q1,q2,q3,q4,q5,q6,jaw,joint_vars_psm3,q1,q2,q3,q4,q5,q6,jaw
lci_T_si
,,-0.070839226,0.0633796,0.58980376,0.99993247,0.0063197804,-0.009754879,0.00423926,-0.97974813,-0.20018896,-0.010822475,0.2001341,-0.97970873
rci_T_si
,,-0.07230388,0.05178487,0.5613385,0.9998141,0.0023921218,-0.019133728,-0.0004875692,-0.9888218,-0.14910114,-0.019276517,0.14908275,-0.9886368
ecm_T_lc
,,0.022782804,0.054864287,-0.33796614,-0.99125,-0.12739496,-0.0345537,0.12872347,-0.990897,-0.03941251,-0.029218202,-0.043515522,0.99862534
ecm_T_rc
,,0.022707665,0.067641795,-0.42994186,-0.99723834,0.02928547,-0.06824988,-0.024871755,-0.9975983,-0.06464576,-0.069979146,-0.06276973,0.9955716
0.028926516184583306,,0.069174,0.01985266,0.33660892,-0.69629174,-0.024553448,-0.71733886,-0.6917956,-0.2434143,0.6798296,-0.1913027,0.96961164,0.15250137,,-0.23647355,0.14870067,0.17271361,0.26440933,-0.82844615,-0.49372524,-0.89266014,-0.40400472,0.1998448,-0.36502796,0.38788804,-0.84634364,,0.07902001,-0.028993782,0.24771664,-0.99134105,0.125007,-0.04020166,0.11170112,0.9637474,0.24230926,0.069034584,0.23572053,-0.96936584,,-0.5297949206375498,0.020503855781066074,0.14369504279,0.16481629557883615,-0.0057387329901484995,0.977636704509627,-0.06403087392463735,,-1.3817127521918782,0.030164994606720934,0.14084061221000002,0.08219845784593355,0.004235731492728653,1.1518101455335232,0.07252476536362007
0.06765270605683327,,0.06917262,0.019852199,0.33660927,-0.6962884,-0.02454371,-0.71734244,-0.6918007,-0.2434135,0.6798247,-0.1912962,0.9696121,0.15250659,,-0.23647745,0.14869596,0.17271346,0.2644054,-0.8284442,-0.49373078,-0.8926636,-0.40400013,0.19983858,-0.36502236,0.38789716,-0.8463419,,0.07902001,-0.028993782,0.24771664,-0.99134105,0.125007,-0.04020166,0.11170112,0.9637474,0.24230926,0.069034584,0.23572053,-0.96936584,,-0.5297871979046755,0.02049613304819185,0.14369504279,0.16481629557883615,-0.0057387329901484995,0.977636704509627,-0.06403087392463735,,-1.3817050294590039,0.03015727187384671,0.14084061221000002,0.08219845784593355,0.004235731492728653,1.1518101455335232,0.07252476536362007
0.09050221019424498,,0.069174,0.01985266,0.33660892,-0.69629174,-0.024553448,-0.71733886,-0.6917956,-0.2434143,0.6798296,-0.1913027,0.96961164,0.15250137,,-0.23647843,0.14869928,0.172715,0.26440844,-0.8284426,-0.49373183,-0.89266026,-0.4040058,0.19984254,-0.36502856,0.38789475,-0.84634036,,0.07902001,-0.028993782,0.24771664,-0.99134105,0.125007,-0.04020166,0.11170112,0.9637474,0.24230926,0.069034584,0.23572053,-0.96936584,,-0.5297949206375498,0.020503855781066074,0.14369504279,0.16481629557883615,-0.0057387329901484995,0.977636704509627,-0.06403087392463735,,-1.3817050294590039,0.030164994606720934,0.14084061221000002,0.08219845784593355,0.004235731492728653,1.1518101455335232,0.07252476536362007
0.12384535023011267,,0.06917476,0.019852333,0.33660826,-0.69629216,-0.024559684,-0.7173382,-0.6917949,-0.2434099,0.67983186,-0.19130369,0.96961254,0.1524941,,-0.23647453,0.14870396,0.17271514,0.26441243,-0.82844454,-0.49372634,-0.89265674,-0.4040103,0.19984877,-0.36503416,0.38788563,-0.846342,,0.07902001,-0.028993782,0.24771664,-0.99134105,0.125007,-0.04020166,0.11170112,0.9637474,0.24230926,0.069034584,0.23572053,-0.96936584,,-0.529802643370424,0.020503855781066074,0.14369504279,0.16481629557883615,-0.0057387329901484995,0.977636704509627,-0.06403087392463735,,-1.3817127521918782,0.03017271733959516,0.14084061221000002,0.08219845784593355,0.004235731492728653,1.1518101455335232,0.07252476536362007
0.15132050216197968,,0.06920236,0.019815437,0.33660316,-0.69625854,-0.024550982,-0.7173711,-0.691832,-0.2433913,0.67980075,-0.19129166,0.9696175,0.1524781,,-0.23657276,0.14869219,0.17272991,0.26426363,-0.8285419,-0.49364272,-0.8927282,-0.40383098,0.19989213,-0.3649672,0.38786465,-0.8463806,,0.07900579,-0.028989874,0.24771678,-0.99134034,0.12501326,-0.04020103,0.111707374,0.96374667,0.24230932,0.069035485,0.23572022,-0.96936584,,-0.5297949206375498,0.02049613304819185,0.14369504279,0.16481629557883615,-0.0057387329901484995,0.977636704509627,-0.06403087392463735,,-1.3817204749247525,0.03017271733959516,0.14084061221000002,0.08219845784593355,0.004235731492728653,1.1518101455335232,0.07252476536362007
0.17712324718013406,,0.06920299,0.019816231,0.33660346,-0.6962614,-0.024554484,-0.71736825,-0.69182765,-0.24339654,0.67980343,-0.19129713,0.96961606,0.15248014,,-0.23657764,0.14869082,0.17273128,0.26426277,-0.8285383,-0.49364936,-0.8927282,-0.40383208,0.19988984,-0.36496776,0.38787127,-0.8463772,,0.07900579,-0.028989874,0.24771678,-0.99134034,0.12501326,-0.04020103,0.111707374,0.96374667,0.24230932,0.069035485,0.23572022,-0.96936584,,-0.5297949206375498,0.020503855781066074,0.14369504279,0.16481629557883615,-0.0057387329901484995,0.977636704509627,-0.06403087392463735,,-1.3817127521918782,0.03017271733959516,0.14084061221000002,0.08219845784593355,0.004235731492728653,1.1518101455335232,0.07252476536362007
0.20536778611131012,,0.06920223,0.019816563,0.33660412,-0.69626105,-0.024548233,-0.7173688,-0.69182825,-0.24340095,0.6798011,-0.19129616,0.96961516,0.15248743,,-0.2365873,0.14868808,0.17273398,0.264261,-0.82853097,-0.4936625,-0.89272827,-0.40383422,0.19988534,-0.36496896,0.3878846,-0.8463707,,0.07900579,-0.028989874,0.24771678,-0.99134034,0.12501326,-0.04020103,0.111707374,0.96374667,0.24230932,0.069035485,0.23572022,-0.96936584,,-0.5297871979046755,0.020503855781066074,0.14369504279,0.16481629557883615,-0.0057387329901484995,0.977636704509627,-0.06403087392463735,,-1.3816973067261298,0.03017271733959516,0.14084061221000002,0.08219845784593355,0.004235731492728653,1.1518101455335232,0.07252476536362007
0.2316558752208948,,0.06920223,0.019816563,0.33660412,-0.69626105,-0.024548233,-0.7173688,-0.69182825,-0.24340095,0.6798011,-0.19129616,0.96961516,0.15248743,,-0.23658253,0.14868948,0.17273262,0.26426184,-0.82853466,-0.49365592,-0.8927282,-0.40383312,0.1998876,-0.36496836,0.3878779,-0.846374,,0.07900579,-0.028989874,0.24771678,-0.99134034,0.12501326,-0.04020103,0.111707374,0.96374667,0.24230932,0.069035485,0.23572022,-0.96936584,,-0.5297871979046755,0.020503855781066074,0.14369504279,0.16481629557883615,-0.0057387329901484995,0.977636704509627,-0.06403087392463735,,-1.3817050294590039,0.03017271733959516,0.14084061221000002,0.08219845784593355,0.004235731492728653,1.1518101455335232,0.07252476536362007
0.25238319020718336,,0.0692016,0.019815758,0.33660382,-0.6962581,-0.024544746,-0.71737176,-0.6918328,-0.2433957,0.6797985,-0.19129066,0.9696165,0.15248537,,-0.23658253,0.14868948,0.17273262,0.26426184,-0.82853466,-0.49365592,-0.8927282,-0.40383312,0.1998876,-0.36496836,0.3878779,-0.846374,,0.07900579,-0.028989874,0.24771678,-0.99134034,0.12501326,-0.04020103,0.111707374,0.96374667,0.24230932,0.069035485,0.23572022,-0.96936584,,-0.5297871979046755,0.02049613304819185,0.14369504279,0.16481629557883615,-0.0057387329901484995,0.977636704509627,-0.06403087392463735,,-1.3817050294590039,0.03017271733959516,0.14084061221000002,0.08219845784593355,0.004235731492728653,1.1518101455335232,0.07252476536362007
0.2750917561352253,,0.0692016,0.019815758,0.33660382,-0.6962581,-0.024544746,-0.71737176,-0.6918328,-0.2433957,0.6797985,-0.19129066,0.9696165,0.15248537,,-0.23657276,0.14869219,0.17272991,0.26426363,-0.8285419,-0.49364272,-0.8927282,-0.40383098,0.19989213,-0.3649672,0.38786465,-0.8463806,,0.07900579,-0.028989874,0.24771678,-0.99134034,0.12501326,-0.04020103,0.111707374,0.96374667,0.24230932,0.069035485,0.23572022,-0.96936584,,-0.5297871979046755,0.02049613304819185,0.14369504279,0.16481629557883615,-0.0057387329901484995,0.977636704509627,-0.06403087392463735,,-1.3817204749247525,0.03017271733959516,0.14084061221000002,0.08219845784593355,0.004235731492728653,1.1518101455335232,0.07252476536362007
0.3023522531148046,,0.06920299,0.019816231,0.33660346,-0.6962614,-0.024554484,-0.71736825,-0.69182765,-0.24339654,0.67980343,-0.19129713,0.96961606,0.15248014,,-0.23657276,0.14869219,0.17272991,0.26426363,-0.8285419,-0.49364272,-0.8927282,-0.40383098,0.19989213,-0.3649672,0.38786465,-0.8463806,,0.07900579,-0.028989874,0.24771678,-0.99134034,0.12501326,-0.04020103,0.111707374,0.96374667,0.24230932,0.069035485,0.23572022,-0.96936584,,-0.5297949206375498,0.020503855781066074,0.14369504279,0.16481629557883615,-0.0057387329901484995,0.977636704509627,-0.06403087392463735,,-1.3817204749247525,0.03017271733959516,0.14084061221000002,0.08219845784593355,0.004235731492728653,1.1518101455335232,0.07252476536362007
0.3235781821422279,,0.06920299,0.019816231,0.33660346,-0.6962614,-0.024554484,-0.71736825,-0.69182765,-0.24339654,0.67980343,-0.19129713,0.96961606,0.15248014,,-0.23657276,0.14869219,0.17272991,0.26426363,-0.8285419,-0.49364272,-0.8927282,-0.40383098,0.19989213,-0.3649672,0.38786465,-0.8463806,,0.07900579,-0.028989874,0.24771678,-0.99134034,0.12501326,-0.04020103,0.111707374,0.96374667,0.24230932,0.069035485,0.23572022,-0.96936584,,-0.5297949206375498,0.020503855781066074,0.14369504279,0.16481629557883615,-0.0057387329901484995,0.977636704509627,-0.06403087392463735,,-1.3817204749247525,0.03017271733959516,0.14084061221000002,0.08219845784593355,0.004235731492728653,1.1518101455335232,0.07252476536362007
0.3472691320348531,,0.06920299,0.019816231,0.33660346,-0.6962614,-0.024554484,-0.71736825,-0.69182765,-0.24339654,0.67980343,-0.19129713,0.96961606,0.15248014,,-0.23657764,0.14869082,0.17273128,0.26426277,-0.8285383,-0.49364936,-0.8927282,-0.40383208,0.19988984,-0.36496776,0.38787127,-0.8463772,,0.07900579,-0.028989874,0.24771678,-0.99134034,0.12501326,-0.04020103,0.111707374,0.96374667,0.24230932,0.069035485,0.23572022,-0.96936584,,-0.5297949206375498,0.020503855781066074,0.14369504279,0.16481629557883615,-0.0057387329901484995,0.977636704509627,-0.06403087392463735,,-1.3817127521918782,0.03017271733959516,0.14084061221000002,0.08219845784593355,0.004235731492728653,1.1518101455335232,0.07252476536362007
0.37160724122077227,,0.06920299,0.019816231,0.33660346,-0.6962614,-0.024554484,-0.71736825,-0.69182765,-0.24339654,0.67980343,-0.19129713,0.96961606,0.15248014,,-0.2365766,0.14868748,0.17272982,0.2642597,-0.82853997,-0.49364832,-0.89273167,-0.40382645,0.19988589,-0.3649616,0.3878737,-0.8463788,,0.07900579,-0.028989874,0.24771678,-0.99134034,0.12501326,-0.04020103,0.111707374,0.96374667,0.24230932,0.069035485,0.23572022,-0.96936584,,-0.5297949206375498,0.020503855781066074,0.14369504279,0.16481629557883615,-0.0057387329901484995,0.977636704509627,-0.06403087392463735,,-1.3817127521918782,0.030164994606720934,0.14084061221000002,0.08219845784593355,0.004235731492728653,1.1518101455335232,0.07252476536362007
0.3942506480962038,,0.0692016,0.019815758,0.33660382,-0.6962581,-0.024544746,-0.71737176,-0.6918328,-0.2433957,0.6797985,-0.19129066,0.9696165,0.15248537,,-0.23657565,0.14868417,0.17272833,0.26425657,-0.8285415,-0.4936472,-0.8927351,-0.4038208,0.19988194,-0.36495543,0.38787612,-0.8463804,,0.07900579,-0.028989874,0.24771678,-0.99134034,0.12501326,-0.04020103,0.111707374,0.96374667,0.24230932,0.069035485,0.23572022,-0.96936584,,-0.5297871979046755,0.02049613304819185,0.14369504279,0.16481629557883615,-0.0057387329901484995,0.977636704509627,-0.06403087392463735,,-1.3817127521918782,0.03015727187384671,0.14084061221000002,0.08219845784593355,0.004235731492728653,1.1518101455335232,0.07252476536362007
0.4194252120796591,,0.0692016,0.019815758,0.33660382,-0.6962581,-0.024544746,-0.71737176,-0.6918328,-0.2433957,0.6797985,-0.19129066,0.9696165,0.15248537,,-0.23658048,0.1486828,0.17272967,0.26425567,-0.82853794,-0.49365374,-0.89273506,-0.40382186,0.19987965,-0.364956,0.3878827,-0.8463771,,0.07900579,-0.028989874,0.24771678,-0.99134034,0.12501326,-0.04020103,0.111707374,0.96374667,0.24230932,0.069035485,0.23572022,-0.96936584,,-0.5297871979046755,0.02049613304819185,0.14369504279,0.16481629557883615,-0.0057387329901484995,0.977636704509627,-0.06403087392463735,,-1.3817050294590039,0.03015727187384671,0.14084061221000002,0.08219845784593355,0.004235731492728653,1.1518101455335232,0.07252476536362007
0.4437938490882516,,0.06920223,0.019816563,0.33660412,-0.69626105,-0.024548233,-0.7173688,-0.69182825,-0.24340095,0.6798011,-0.19129616,0.96961516,0.15248743,,-0.2365766,0.14868748,0.17272982,0.2642597,-0.82853997,-0.49364832,-0.89273167,-0.40382645,0.19988589,-0.3649616,0.3878737,-0.8463788,,0.07900579,-0.028989874,0.24771678,-0.99134034,0.12501326,-0.04020103,0.111707374,0.96374667,0.24230932,0.069035485,0.23572022,-0.96936584,,-0.5297871979046755,0.020503855781066074,0.14369504279,0.16481629557883615,-0.0057387329901484995,0.977636704509627,-0.06403087392463735,,-1.3817127521918782,0.030164994606720934,0.14084061221000002,0.08219845784593355,0.004235731492728653,1.1518101455335232,0.07252476536362007
0.4669031170196831,,0.06920223,0.019816563,0.33660412,-0.69626105,-0.024548233,-0.7173688,-0.69182825,-0.24340095,0.6798011,-0.19129616,0.96961516,0.15248743,,-0.23657276,0.14869219,0.17272991,0.26426363,-0.8285419,-0.49364272,-0.8927282,-0.40383098,0.19989213,-0.3649672,0.38786465,-0.8463806,,0.07900579,-0.028989874,0.24771678,-0.99134034,0.12501326,-0.04020103,0.111707374,0.96374667,0.24230932,0.069035485,0.23572022,-0.96936584,,-0.5297871979046755,0.020503855781066074,0.14369504279,0.16481629557883615,-0.0057387329901484995,0.977636704509627,-0.06403087392463735,,-1.3817204749247525,0.03017271733959516,0.14084061221000002,0.08219845784593355,0.004235731492728653,1.1518101455335232,0.07252476536362007
0.49113309709355235,,0.06920236,0.019815437,0.33660316,-0.69625854,-0.024550982,-0.7173711,-0.691832,-0.2433913,0.67980075,-0.19129166,0.9696175,0.1524781,,-0.23657276,0.14869219,0.17272991,0.26426363,-0.8285419,-0.49364272,-0.8927282,-0.40383098,0.19989213,-0.3649672,0.38786465,-0.8463806,,0.07900579,-0.028989874,0.24771678,-0.99134034,0.12501326,-0.04020103,0.111707374,0.96374667,0.24230932,0.069035485,0.23572022,-0.96936584,,-0.5297949206375498,0.02049613304819185,0.14369504279,0.16481629557883615,-0.0057387329901484995,0.977636704509627,-0.06403087392463735,,-1.3817204749247525,0.03017271733959516,0.14084061221000002,0.08219845784593355,0.004235731492728653,1.1518101455335232,0.07252476536362007
0.5175202421378344,,0.06920299,0.019816231,0.33660346,-0.6962614,-0.024554484,-0.71736825,-0.69182765,-0.24339654,0.67980343,-0.19129713,0.96961606,0.15248014,,-0.23657764,0.14869082,0.17273128,0.26426277,-0.8285383,-0.49364936,-0.8927282,-0.40383208,0.19988984,-0.36496776,0.38787127,-0.8463772,,0.07900579,-0.028989874,0.24771678,-0.99134034,0.12501326,-0.04020103,0.111707374,0.96374667,0.24230932,0.069035485,0.23572022,-0.96936584,,-0.5297949206375498,0.020503855781066074,0.14369504279,0.16481629557883615,-0.0057387329901484995,0.977636704509627,-0.06403087392463735,,-1.3817127521918782,0.03017271733959516,0.14084061221000002,0.08219845784593355,0.004235731492728653,1.1518101455335232,0.07252476536362007
0.5429732010234147,,0.06920299,0.019816231,0.33660346,-0.6962614,-0.024554484,-0.71736825,-0.69182765,-0.24339654,0.67980343,-0.19129713,0.96961606,0.15248014,,-0.2365873,0.14868808,0.17273398,0.264261,-0.82853097,-0.4936625,-0.89272827,-0.40383422,0.19988534,-0.36496896,0.3878846,-0.8463707,,0.07900579,-0.028989874,0.24771678,-0.99134034,0.12501326,-0.04020103,0.111707374,0.96374667,0.24230932,0.069035485,0.23572022,-0.96936584,,-0.5297949206375498,0.020503855781066074,0.14369504279,0.16481629557883615,-0.0057387329901484995,0.977636704509627,-0.06403087392463735,,-1.3816973067261298,0.03017271733959516,0.14084061221000002,0.08219845784593355,0.004235731492728653,1.1518101455335232,0.07252476536362007
0.560652363114059,,0.06920299,0.019816231,0.33660346,-0.6962614,-0.024554484,-0.71736825,-0.69182765,-0.24339654,0.67980343,-0.19129713,0.96961606,0.15248014,,-0.2365873,0.14868808,0.17273398,0.264261,-0.82853097,-0.4936625,-0.89272827,-0.40383422,0.19988534,-0.36496896,0.3878846,-0.8463707,,0.07900579,-0.028989874,0.24771678,-0.99134034,0.12501326,-0.04020103,0.111707374,0.96374667,0.24230932,0.069035485,0.23572022,-0.96936584,,-0.5297949206375498,0.020503855781066074,0.14369504279,0.16481629557883615,-0.0057387329901484995,0.977636704509627,-0.06403087392463735,,-1.3816973067261298,0.03017271733959516,0.14084061221000002,0.08219845784593355,0.004235731492728653,1.1518101455335232,0.07252476536362007
0.5898573491722345,,0.0692016,0.019815758,0.33660382,-0.6962581,-0.024544746,-0.71737176,-0.6918328,-0.2433957,0.6797985,-0.19129066,0.9696165,0.15248537,,-0.23658253,0.14868948,0.17273262,0.26426184,-0.82853466,-0.49365592,-0.8927282,-0.40383312,0.1998876,-0.36496836,0.3878779,-0.846374,,0.07900579,-0.028989874,0.24771678,-0.99134034,0.12501326,-0.04020103,0.111707374,0.96374667,0.24230932,0.069035485,0.23572022,-0.96936584,,-0.5297871979046755,0.02049613304819185,0.14369504279,0.16481629557883615,-0.0057387329901484995,0.977636704509627,-0.06403087392463735,,-1.3817050294590039,0.03017271733959516,0.14084061221000002,0.08219845784593355,0.004235731492728653,1.1518101455335232,0.07252476536362007
0.616444795159623,,0.06920374,0.019815907,0.3366028,-0.6962618,-0.024560723,-0.7173676,-0.69182694,-0.24339214,0.6798057,-0.19129813,0.96961695,0.15247285,,-0.23658253,0.14868948,0.17273262,0.26426184,-0.82853466,-0.49365592,-0.8927282,-0.40383312,0.1998876,-0.36496836,0.3878779,-0.846374,,0.07900579,-0.028989874,0.24771678,-0.99134034,0.12501326,-0.04020103,0.111707374,0.96374667,0.24230932,0.069035485,0.23572022,-0.96936584,,-0.529802643370424,0.020503855781066074,0.14369504279,0.16481629557883615,-0.0057387329901484995,0.977636704509627,-0.06403087392463735,,-1.3817050294590039,0.03017271733959516,0.14084061221000002,0.08219845784593355,0.004235731492728653,1.1518101455335232,0.07252476536362007
0.6398426371160895,,0.06920374,0.019815907,0.3366028,-0.6962618,-0.024560723,-0.7173676,-0.69182694,-0.24339214,0.6798057,-0.19129813,0.96961695,0.15247285,,-0.23657276,0.14869219,0.17272991,0.26426363,-0.8285419,-0.49364272,-0.8927282,-0.40383098,0.19989213,-0.3649672,0.38786465,-0.8463806,,0.07900579,-0.028989874,0.24771678,-0.99134034,0.12501326,-0.04020103,0.111707374,0.96374667,0.24230932,0.069035485,0.23572022,-0.96936584,,-0.529802643370424,0.020503855781066074,0.14369504279,0.16481629557883615,-0.0057387329901484995,0.977636704509627,-0.06403087392463735,,-1.3817204749247525,0.03017271733959516,0.14084061221000002,0.08219845784593355,0.004235731492728653,1.1518101455335232,0.07236142129748568
0.6670501490589231,,0.06920236,0.019815437,0.33660316,-0.69625854,-0.024550982,-0.7173711,-0.691832,-0.2433913,0.67980075,-0.19129166,0.9696175,0.1524781,,-0.23661487,0.1486791,0.17274985,0.26425952,-0.8285015,-0.49371272,-0.89272517,-0.40384874,0.19986954,-0.36497742,0.3879324,-0.84634507,,0.07900579,-0.028989874,0.24771678,-0.99134034,0.12501326,-0.04020103,0.111707374,0.96374667,0.24230932,0.069035485,0.23572022,-0.96936584,,-0.5297949206375498,0.02049613304819185,0.14369504279,0.16481629557883615,-0.0057387329901484995,0.977636704509627,-0.06403087392463735,,-1.3817204749247525,0.03017271733959516,0.14084061221000002,0.08219845784593355,0.004235731492728653,1.1518918242736635,0.07236142129748568
0.6872663621325046,,0.06920299,0.019816231,0.33660346,-0.6962614,-0.024554484,-0.71736825,-0.69182765,-0.24339654,0.67980343,-0.19129713,0.96961606,0.15248014,,-0.23666184,0.14866468,0.17277104,0.26425457,-0.82845753,-0.49378932,-0.89272225,-0.4038676,0.19984472,-0.3649883,0.3880068,-0.84630626,,0.07900579,-0.028989874,0.24771678,-0.99134034,0.12501326,-0.04020103,0.111707374,0.96374667,0.24230932,0.069035485,0.23572022,-0.96936584,,-0.5297949206375498,0.020503855781066074,0.14369504279,0.16481629557883615,-0.0057387329901484995,0.977636704509627,-0.06403087392463735,,-1.3817127521918782,0.03017271733959516,0.14084061221000002,0.08219845784593355,0.004235731492728653,1.1519735030138043,0.0721980772313513
0.7098979530856013,,0.06920299,0.019816231,0.33660346,-0.6962614,-0.024554484,-0.71736825,-0.69182765,-0.24339654,0.67980343,-0.19129713,0.96961606,0.15248014,,-0.23666184,0.14866468,0.17277104,0.26425457,-0.82845753,-0.49378932,-0.89272225,-0.4038676,0.19984472,-0.3649883,0.3880068,-0.84630626,,0.07900579,-0.028989874,0.24771678,-0.99134034,0.12501326,-0.04020103,0.111707374,0.96374667,0.24230932,0.069035485,0.23572022,-0.96936584,,-0.5297949206375498,0.020503855781066074,0.14369504279,0.16481629557883615,-0.0057387329901484995,0.977636704509627,-0.06403087392463735,,-1.3817127521918782,0.03017271733959516,0.14084061221000002,0.08219845784593355,0.004235731492728653,1.1519735030138043,0.0721980772313513
0.7392874620854855,,0.06920223,0.019816563,0.33660412,-0.69626105,-0.024548233,-0.7173688,-0.69182825,-0.24340095,0.6798011,-0.19129616,0.96961516,0.15248743,,-0.23666184,0.14866468,0.17277104,0.26425457,-0.82845753,-0.49378932,-0.89272225,-0.4038676,0.19984472,-0.3649883,0.3880068,-0.84630626,,0.07900579,-0.028989874,0.24771678,-0.99134034,0.12501326,-0.04020103,0.111707374,0.96374667,0.24230932,0.069035485,0.23572022,-0.96936584,,-0.5297871979046755,0.020503855781066074,0.14369504279,0.16481629557883615,-0.0057387329901484995,0.977636704509627,-0.06403087392463735,,-1.3817127521918782,0.03017271733959516,0.14084061221000002,0.08219845784593355,0.004235731492728653,1.1519735030138043,0.0721980772313513
0.7661661461461335,,0.0692016,0.019815758,0.33660382,-0.6962581,-0.024544746,-0.71737176,-0.6918328,-0.2433957,0.6797985,-0.19129066,0.9696165,0.15248537,,-0.23666184,0.14866468,0.17277104,0.26425457,-0.82845753,-0.49378932,-0.89272225,-0.4038676,0.19984472,-0.3649883,0.3880068,-0.84630626,,0.07900579,-0.028989874,0.24771678,-0.99134034,0.12501326,-0.04020103,0.111707374,0.96374667,0.24230932,0.069035485,0.23572022,-0.96936584,,-0.5297871979046755,0.02049613304819185,0.14369504279,0.16481629557883615,-0.0057387329901484995,0.977636704509627,-0.06403087392463735,,-1.3817127521918782,0.03017271733959516,0.14084061221000002,0.08219845784593355,0.004235731492728653,1.1519735030138043,0.0721980772313513
0.7902183700352907,,0.06920223,0.019816563,0.33660412,-0.69626105,-0.024548233,-0.7173688,-0.69182825,-0.24340095,0.6798011,-0.19129616,0.96961516,0.15248743,,-0.23665698,0.14866605,0.17276973,0.26425543,-0.8284611,-0.49378267,-0.8927222,-0.40386653,0.199847,-0.3649877,0.38800022,-0.8463096,,0.07900579,-0.028989874,0.24771678,-0.99134034,0.12501326,-0.04020103,0.111707374,0.96374667,0.24230932,0.069035485,0.23572022,-0.96936584,,-0.5297871979046755,0.020503855781066074,0.14369504279,0.16481629557883615,-0.0057387329901484995,0.977636704509627,-0.06403087392463735,,-1.3817204749247525,0.03017271733959516,0.14084061221000002,0.08219845784593355,0.004235731492728653,1.1519735030138043,0.0721980772313513
0.8170172940008342,,0.06920236,0.019815437,0.33660316,-0.69625854,-0.024550982,-0.7173711,-0.691832,-0.2433913,0.67980075,-0.19129166,0.9696175,0.1524781,,-0.23665698,0.14866605,0.17276973,0.26425543,-0.8284611,-0.49378267,-0.8927222,-0.40386653,0.199847,-0.3649877,0.38800022,-0.8463096,,0.07900579,-0.028989874,0.24771678,-0.99134034,0.12501326,-0.04020103,0.111707374,0.96374667,0.24230932,0.069035485,0.23572022,-0.96936584,,-0.5297949206375498,0.02049613304819185,0.14369504279,0.16481629557883615,-0.0057387329901484995,0.977636704509627,-0.06403087392463735,,-1.3817204749247525,0.03017271733959516,0.14084061221000002,0.08219845784593355,0.004235731492728653,1.1519735030138043,0.0721980772313513
0.8404571351129562,,0.06920236,0.019815437,0.33660316,-0.69625854,-0.024550982,-0.7173711,-0.691832,-0.2433913,0.67980075,-0.19129166,0.9696175,0.1524781,,-0.23665698,0.14866605,0.17276973,0.26425543,-0.8284611,-0.49378267,-0.8927222,-0.40386653,0.199847,-0.3649877,0.38800022,-0.8463096,,0.07900579,-0.028989874,0.24771678,-0.99134034,0.12501326,-0.04020103,0.111707374,0.96374667,0.24230932,0.069035485,0.23572022,-0.96936584,,-0.5297949206375498,0.02049613304819185,0.14369504279,0.16481629557883615,-0.0057387329901484995,0.977636704509627,-0.06403087392463735,,-1.3817204749247525,0.03017271733959516,0.14084061221000002,0.08219845784593355,0.004235731492728653,1.1519735030138043,0.0721980772313513
0.862844271119684,,0.06920299,0.019816231,0.33660346,-0.6962614,-0.024554484,-0.71736825,-0.69182765,-0.24339654,0.67980343,-0.19129713,0.96961606,0.15248014,,-0.23666184,0.14866468,0.17277104,0.26425457,-0.82845753,-0.49378932,-0.89272225,-0.4038676,0.19984472,-0.3649883,0.3880068,-0.84630626,,0.07900579,-0.028989874,0.24771678,-0.99134034,0.12501326,-0.04020103,0.111707374,0.96374667,0.24230932,0.069035485,0.23572022,-0.96936584,,-0.5297949206375498,0.020503855781066074,0.14369504279,0.16481629557883615,-0.0057387329901484995,0.977636704509627,-0.06403087392463735,,-1.3817127521918782,0.03017271733959516,0.14084061221000002,0.08219845784593355,0.004235731492728653,1.1519735030138043,0.0721980772313513
0.8873033851850778,,0.06920299,0.019816231,0.33660346,-0.6962614,-0.024554484,-0.71736825,-0.69182765,-0.24339654,0.67980343,-0.19129713,0.96961606,0.15248014,,-0.23666184,0.14866468,0.17277104,0.26425457,-0.82845753,-0.49378932,-0.89272225,-0.4038676,0.19984472,-0.3649883,0.3880068,-0.84630626,,0.07900579,-0.028989874,0.24771678,-0.99134034,0.12501326,-0.04020103,0.111707374,0.96374667,0.24230932,0.069035485,0.23572022,-0.96936584,,-0.5297949206375498,0.020503855781066074,0.14369504279,0.16481629557883615,-0.0057387329901484995,0.977636704509627,-0.06403087392463735,,-1.3817127521918782,0.03017271733959516,0.14084061221000002,0.08219845784593355,0.004235731492728653,1.1519735030138043,0.0721980772313513
0.9126111131627113,,0.06920223,0.019816563,0.33660412,-0.69626105,-0.024548233,-0.7173688,-0.69182825,-0.24340095,0.6798011,-0.19129616,0.96961516,0.15248743,,-0.2366667,0.14866334,0.17277238,0.26425365,-0.82845384,-0.4937959,-0.89272225,-0.40386868,0.19984245,-0.3649889,0.38801345,-0.8463029,,0.07900579,-0.028989874,0.24771678,-0.99134034,0.12501326,-0.04020103,0.111707374,0.96374667,0.24230932,0.069035485,0.23572022,-0.96936584,,-0.5297871979046755,0.020503855781066074,0.14369504279,0.16481629557883615,-0.0057387329901484995,0.977636704509627,-0.06403087392463735,,-1.3817050294590039,0.03017271733959516,0.14084061221000002,0.08219845784593355,0.004235731492728653,1.1519735030138043,0.0721980772313513
0.9376289651263505,,0.06920223,0.019816563,0.33660412,-0.69626105,-0.024548233,-0.7173688,-0.69182825,-0.24340095,0.6798011,-0.19129616,0.96961516,0.15248743,,-0.2366667,0.14866334,0.17277238,0.26425365,-0.82845384,-0.4937959,-0.89272225,-0.40386868,0.19984245,-0.3649889,0.38801345,-0.8463029,,0.07900579,-0.028989874,0.24771678,-0.99134034,0.12501326,-0.04020103,0.111707374,0.96374667,0.24230932,0.069035485,0.23572022,-0.96936584,,-0.5297871979046755,0.020503855781066074,0.14369504279,0.16481629557883615,-0.0057387329901484995,0.977636704509627,-0.06403087392463735,,-1.3817050294590039,0.03017271733959516,0.14084061221000002,0.08219845784593355,0.004235731492728653,1.1519735030138043,0.0721980772313513
0.9578201971016824,,0.06920223,0.019816563,0.33660412,-0.69626105,-0.024548233,-0.7173688,-0.69182825,-0.24340095,0.6798011,-0.19129616,0.96961516,0.15248743,,-0.2366667,0.14866334,0.17277238,0.26425365,-0.82845384,-0.4937959,-0.89272225,-0.40386868,0.19984245,-0.3649889,0.38801345,-0.8463029,,0.07900579,-0.028989874,0.24771678,-0.99134034,0.12501326,-0.04020103,0.111707374,0.96374667,0.24230932,0.069035485,0.23572022,-0.96936584,,-0.5297871979046755,0.020503855781066074,0.14369504279,0.16481629557883615,-0.0057387329901484995,0.977636704509627,-0.06403087392463735,,-1.3817050294590039,0.03017271733959516,0.14084061221000002,0.08219845784593355,0.004235731492728653,1.1519735030138043,0.0721980772313513
0.9823836090508848,,0.0692016,0.019815758,0.33660382,-0.6962581,-0.024544746,-0.71737176,-0.6918328,-0.2433957,0.6797985,-0.19129066,0.9696165,0.15248537,,-0.2366667,0.14866334,0.17277238,0.26425365,-0.82845384,-0.4937959,-0.89272225,-0.40386868,0.19984245,-0.3649889,0.38801345,-0.8463029,,0.07900579,-0.028989874,0.24771678,-0.99134034,0.12501326,-0.04020103,0.111707374,0.96374667,0.24230932,0.069035485,0.23572022,-0.96936584,,-0.5297871979046755,0.02049613304819185,0.14369504279,0.16481629557883615,-0.0057387329901484995,0.977636704509627,-0.06403087392463735,,-1.3817050294590039,0.03017271733959516,0.14084061221000002,0.08219845784593355,0.004235731492728653,1.1519735030138043,0.0721980772313513
1.006662093102932,,0.06920299,0.019816231,0.33660346,-0.6962614,-0.024554484,-0.71736825,-0.69182765,-0.24339654,0.67980343,-0.19129713,0.96961606,0.15248014,,-0.2366667,0.14866334,0.17277238,0.26425365,-0.82845384,-0.4937959,-0.89272225,-0.40386868,0.19984245,-0.3649889,0.38801345,-0.8463029,,0.07900579,-0.028989874,0.24771678,-0.99134034,0.12501326,-0.04020103,0.111707374,0.96374667,0.24230932,0.069035485,0.23572022,-0.96936584,,-0.5297949206375498,0.020503855781066074,0.14369504279,0.16481629557883615,-0.0057387329901484995,0.977636704509627,-0.06403087392463735,,-1.3817050294590039,0.03017271733959516,0.14084061221000002,0.08219845784593355,0.004235731492728653,1.1519735030138043,0.0721980772313513
1.033000143012032,,0.06920299,0.019816231,0.33660346,-0.6962614,-0.024554484,-0.71736825,-0.69182765,-0.24339654,0.67980343,-0.19129713,0.96961606,0.15248014,,-0.23666184,0.14866468,0.17277104,0.26425457,-0.82845753,-0.49378932,-0.89272225,-0.4038676,0.19984472,-0.3649883,0.3880068,-0.84630626,,0.07900579,-0.028989874,0.24771678,-0.99134034,0.12501326,-0.04020103,0.111707374,0.96374667,0.24230932,0.069035485,0.23572022,-0.96936584,,-0.5297949206375498,0.020503855781066074,0.14369504279,0.16481629557883615,-0.0057387329901484995,0.977636704509627,-0.06403087392463735,,-1.3817127521918782,0.03017271733959516,0.14084061221000002,0.08219845784593355,0.004235731492728653,1.1519735030138043,0.0721980772313513
1.053064774023369,,0.06920299,0.019816231,0.33660346,-0.6962614,-0.024554484,-0.71736825,-0.69182765,-0.24339654,0.67980343,-0.19129713,0.96961606,0.15248014,,-0.23666184,0.14866468,0.17277104,0.26425457,-0.82845753,-0.49378932,-0.89272225,-0.4038676,0.19984472,-0.3649883,0.3880068,-0.84630626,,0.07900579,-0.028989874,0.24771678,-0.99134034,0.12501326,-0.04020103,0.111707374,0.96374667,0.24230932,0.069035485,0.23572022,-0.96936584,,-0.5297949206375498,0.020503855781066074,0.14369504279,0.16481629557883615,-0.0057387329901484995,0.977636704509627,-0.06403087392463735,,-1.3817127521918782,0.03017271733959516,0.14084061221000002,0.08219845784593355,0.004235731492728653,1.1519735030138043,0.0721980772313513
1.0751909271348268,,0.06920299,0.019816231,0.33660346,-0.6962614,-0.024554484,-0.71736825,-0.69182765,-0.24339654,0.67980343,-0.19129713,0.96961606,0.15248014,,-0.2366667,0.14866334,0.17277238,0.26425365,-0.82845384,-0.4937959,-0.89272225,-0.40386868,0.19984245,-0.3649889,0.38801345,-0.8463029,,0.07900579,-0.028989874,0.24771678,-0.99134034,0.12501326,-0.04020103,0.111707374,0.96374667,0.24230932,0.069035485,0.23572022,-0.96936584,,-0.5297949206375498,0.020503855781066074,0.14369504279,0.16481629557883615,-0.0057387329901484995,0.977636704509627,-0.06403087392463735,,-1.3817050294590039,0.03017271733959516,0.14084061221000002,0.08219845784593355,0.004235731492728653,1.1519735030138043,0.0721980772313513
1.1025780742056668,,0.06920223,0.019816563,0.33660412,-0.69626105,-0.024548233,-0.7173688,-0.69182825,-0.24340095,0.6798011,-0.19129616,0.96961516,0.15248743,,-0.2366667,0.14866334,0.17277238,0.26425365,-0.82845384,-0.4937959,-0.89272225,-0.40386868,0.19984245,-0.3649889,0.38801345,-0.8463029,,0.07900579,-0.028989874,0.24771678,-0.99134034,0.12501326,-0.04020103,0.111707374,0.96374667,0.24230932,0.069035485,0.23572022,-0.96936584,,-0.5297871979046755,0.020503855781066074,0.14369504279,0.16481629557883615,-0.0057387329901484995,0.977636704509627,-0.06403087392463735,,-1.3817050294590039,0.03017271733959516,0.14084061221000002,0.08219845784593355,0.004235731492728653,1.1519735030138043,0.0721980772313513
1.123194833053276,,0.06920223,0.019816563,0.33660412,-0.69626105,-0.024548233,-0.7173688,-0.69182825,-0.24340095,0.6798011,-0.19129616,0.96961516,0.15248743,,-0.2366667,0.14866334,0.17277238,0.26425365,-0.82845384,-0.4937959,-0.89272225,-0.40386868,0.19984245,-0.3649889,0.38801345,-0.8463029,,0.07900579,-0.028989874,0.24771678,-0.99134034,0.12501326,-0.04020103,0.111707374,0.96374667,0.24230932,0.069035485,0.23572022,-0.96936584,,-0.5297871979046755,0.020503855781066074,0.14369504279,0.16481629557883615,-0.0057387329901484995,0.977636704509627,-0.06403087392463735,,-1.3817050294590039,0.03017271733959516,0.14084061221000002,0.08219845784593355,0.004235731492728653,1.1519735030138043,0.0721980772313513
1.1492205790709704,,0.0692016,0.019815758,0.33660382,-0.6962581,-0.024544746,-0.71737176,-0.6918328,-0.2433957,0.6797985,-0.19129066,0.9696165,0.15248537,,-0.2366667,0.14866334,0.17277238,0.26425365,-0.82845384,-0.4937959,-0.89272225,-0.40386868,0.19984245,-0.3649889,0.38801345,-0.8463029,,0.07900579,-0.028989874,0.24771678,-0.99134034,0.12501326,-0.04020103,0.111707374,0.96374667,0.24230932,0.069035485,0.23572022,-0.96936584,,-0.5297871979046755,0.02049613304819185,0.14369504279,0.16481629557883615,-0.0057387329901484995,0.977636704509627,-0.06403087392463735,,-1.3817050294590039,0.03017271733959516,0.14084061221000002,0.08219845784593355,0.004235731492728653,1.1519735030138043,0.0721980772313513
1.1737341932021081,,0.06920223,0.019816563,0.33660412,-0.69626105,-0.024548233,-0.7173688,-0.69182825,-0.24340095,0.6798011,-0.19129616,0.96961516,0.15248743,,-0.2366667,0.14866334,0.17277238,0.26425365,-0.82845384,-0.4937959,-0.89272225,-0.40386868,0.19984245,-0.3649889,0.38801345,-0.8463029,,0.07900579,-0.028989874,0.24771678,-0.99134034,0.12501326,-0.04020103,0.111707374,0.96374667,0.24230932,0.069035485,0.23572022,-0.96936584,,-0.5297871979046755,0.020503855781066074,0.14369504279,0.16481629557883615,-0.0057387329901484995,0.977636704509627,-0.06403087392463735,,-1.3817050294590039,0.03017271733959516,0.14084061221000002,0.08219845784593355,0.004235731492728653,1.1519735030138043,0.0721980772313513
1.1945648312103003,,0.06920299,0.019816231,0.33660346,-0.6962614,-0.024554484,-0.71736825,-0.69182765,-0.24339654,0.67980343,-0.19129713,0.96961606,0.15248014,,-0.23666184,0.14866468,0.17277104,0.26425457,-0.82845753,-0.49378932,-0.89272225,-0.4038676,0.19984472,-0.3649883,0.3880068,-0.84630626,,0.07900579,-0.028989874,0.24771678,-0.99134034,0.12501326,-0.04020103,0.111707374,0.96374667,0.24230932,0.069035485,0.23572022,-0.96936584,,-0.5297949206375498,0.020503855781066074,0.14369504279,0.16481629557883615,-0.0057387329901484995,0.977636704509627,-0.06403087392463735,,-1.3817127521918782,0.03017271733959516,0.14084061221000002,0.08219845784593355,0.004235731492728653,1.1519735030138043,0.0721980772313513
1.219979427056387,,0.06920147,0.019816883,0.3366048,-0.6962606,-0.024541996,-0.71736944,-0.69182897,-0.24340536,0.67979884,-0.19129518,0.9696141,0.15249467,,-0.23666184,0.14866468,0.17277104,0.26425457,-0.82845753,-0.49378932,-0.89272225,-0.4038676,0.19984472,-0.3649883,0.3880068,-0.84630626,,0.07900579,-0.028989874,0.24771678,-0.99134034,0.12501326,-0.04020103,0.111707374,0.96374667,0.24230932,0.069035485,0.23572022,-0.96936584,,-0.5297794751718014,0.020503855781066074,0.14369504279,0.16481629557883615,-0.0057387329901484995,0.977636704509627,-0.06403087392463735,,-1.3817127521918782,0.03017271733959516,0.14084061221000002,0.08219845784593355,0.004235731492728653,1.1519735030138043,0.0721980772313513
1.2425984351430088,,0.06920084,0.019816097,0.33660448,-0.6962577,-0.024538506,-0.7173724,-0.69183344,-0.24340013,0.67979616,-0.19128968,0.9696155,0.15249263,,-0.2366667,0.14866334,0.17277238,0.26425365,-0.82845384,-0.4937959,-0.89272225,-0.40386868,0.19984245,-0.3649889,0.38801345,-0.8463029,,0.07900579,-0.028989874,0.24771678,-0.99134034,0.12501326,-0.04020103,0.111707374,0.96374667,0.24230932,0.069035485,0.23572022,-0.96936584,,-0.5297794751718014,0.02049613304819185,0.14369504279,0.16481629557883615,-0.0057387329901484995,0.977636704509627,-0.06403087392463735,,-1.3817050294590039,0.03017271733959516,0.14084061221000002,0.08219845784593355,0.004235731492728653,1.1519735030138043,0.0721980772313513
1.270536162192002,,0.06920223,0.019816563,0.33660412,-0.69626105,-0.024548233,-0.7173688,-0.69182825,-0.24340095,0.6798011,-0.19129616,0.96961516,0.15248743,,-0.2366667,0.14866334,0.17277238,0.26425365,-0.82845384,-0.4937959,-0.89272225,-0.40386868,0.19984245,-0.3649889,0.38801345,-0.8463029,,0.07900579,-0.028989874,0.24771678,-0.99134034,0.12501326,-0.04020103,0.111707374,0.96374667,0.24230932,0.069035485,0.23572022,-0.96936584,,-0.5297871979046755,0.020503855781066074,0.14369504279,0.16481629557883615,-0.0057387329901484995,0.977636704509627,-0.06403087392463735,,-1.3817050294590039,0.03017271733959516,0.14084061221000002,0.08219845784593355,0.004235731492728653,1.1519735030138043,0.0721980772313513
1.2925979441497475,,0.06921139,0.019812865,0.33660668,-0.6962645,-0.024549522,-0.7173653,-0.69182557,-0.2433963,0.6798055,-0.19129297,0.96961623,0.15248421,,-0.23659539,0.14866972,0.17277001,0.2643261,-0.8284336,-0.49379098,-0.8926995,-0.40393215,0.1998156,-0.36499196,0.38799056,-0.8463122,,0.079007976,-0.028992774,0.24771789,-0.99133575,0.12505035,-0.040197313,0.111744285,0.96374226,0.24230969,0.06904075,0.23571843,-0.9693659,,-0.5297949206375498,0.020503855781066074,0.14369504279,0.16481629557883615,-0.0057387329901484995,0.977636704509627,-0.06403087392463735,,-1.3817050294590039,0.03017271733959516,0.14084061221000002,0.08219845784593355,0.004235731492728653,1.1519735030138043,0.0721980772313513
1.3159387591294944,,0.069212146,0.01981253,0.33660603,-0.6962649,-0.024555758,-0.7173647,-0.6918249,-0.24339189,0.6798077,-0.19129397,0.9696172,0.15247694,,-0.23659539,0.14866972,0.17277001,0.2643261,-0.8284336,-0.49379098,-0.8926995,-0.40393215,0.1998156,-0.36499196,0.38799056,-0.8463122,,0.079007976,-0.028992774,0.24771789,-0.99133575,0.12505035,-0.040197313,0.111744285,0.96374226,0.24230969,0.06904075,0.23571843,-0.9693659,,-0.529802643370424,0.020503855781066074,0.14369504279,0.16481629557883615,-0.0057387329901484995,0.977636704509627,-0.06403087392463735,,-1.3817050294590039,0.03017271733959516,0.14084061221000002,0.08219845784593355,0.004235731492728653,1.1519735030138043,0.0721980772313513
1.3414999460801482,,0.06921139,0.019812865,0.33660668,-0.6962645,-0.024549522,-0.7173653,-0.69182557,-0.2433963,0.6798055,-0.19129297,0.96961623,0.15248421,,-0.23659539,0.14866972,0.17277001,0.2643261,-0.8284336,-0.49379098,-0.8926995,-0.40393215,0.1998156,-0.36499196,0.38799056,-0.8463122,,0.079007976,-0.028992774,0.24771789,-0.99133575,0.12505035,-0.040197313,0.111744285,0.96374226,0.24230969,0.06904075,0.23571843,-0.9693659,,-0.5297949206375498,0.020503855781066074,0.14369504279,0.16481629557883615,-0.0057387329901484995,0.977636704509627,-0.06403087392463735,,-1.3817050294590039,0.03017271733959516,0.14084061221000002,0.08219845784593355,0.004235731492728653,1.1519735030138043,0.0721980772313513
1.3670923521276563,,0.06921063,0.019813178,0.33660734,-0.6962641,-0.024543278,-0.7173659,-0.69182634,-0.24340071,0.6798032,-0.19129199,0.9696152,0.15249148,,-0.23659539,0.14866972,0.17277001,0.2643261,-0.8284336,-0.49379098,-0.8926995,-0.40393215,0.1998156,-0.36499196,0.38799056,-0.8463122,,0.079007976,-0.028992774,0.24771789,-0.99133575,0.12505035,-0.040197313,0.111744285,0.96374226,0.24230969,0.06904075,0.23571843,-0.9693659,,-0.5297871979046755,0.020503855781066074,0.14369504279,0.16481629557883615,-0.0057387329901484995,0.977636704509627,-0.06403087392463735,,-1.3817050294590039,0.03017271733959516,0.14084061221000002,0.08219845784593355,0.004235731492728653,1.1519735030138043,0.0721980772313513
1.3890759891364723,,0.06920988,0.019813513,0.33660802,-0.6962637,-0.024537038,-0.7173666,-0.691827,-0.24340512,0.67980087,-0.191291,0.9696143,0.15249874,,-0.23659539,0.14866972,0.17277001,0.2643261,-0.8284336,-0.49379098,-0.8926995,-0.40393215,0.1998156,-0.36499196,0.38799056,-0.8463122,,0.079007976,-0.028992774,0.24771789,-0.99133575,0.12505035,-0.040197313,0.111744285,0.96374226,0.24230969,0.06904075,0.23571843,-0.9693659,,-0.5297794751718014,0.020503855781066074,0.14369504279,0.16481629557883615,-0.0057387329901484995,0.977636704509627,-0.06403087392463735,,-1.3817050294590039,0.03017271733959516,0.14084061221000002,0.08219845784593355,0.004235731492728653,1.1519735030138043,0.0721980772313513
1.4156734300777316,,0.06921063,0.019813178,0.33660734,-0.6962641,-0.024543278,-0.7173659,-0.69182634,-0.24340071,0.6798032,-0.19129199,0.9696152,0.15249148,,-0.23659539,0.14866972,0.17277001,0.2643261,-0.8284336,-0.49379098,-0.8926995,-0.40393215,0.1998156,-0.36499196,0.38799056,-0.8463122,,0.079007976,-0.028992774,0.24771789,-0.99133575,0.12505035,-0.040197313,0.111744285,0.96374226,0.24230969,0.06904075,0.23571843,-0.9693659,,-0.5297871979046755,0.020503855781066074,0.14369504279,0.16481629557883615,-0.0057387329901484995,0.977636704509627,-0.06403087392463735,,-1.3817050294590039,0.03017271733959516,0.14084061221000002,0.08219845784593355,0.004235731492728653,1.1519735030138043,0.0721980772313513
1.4380767571274191,,0.06921063,0.019813178,0.33660734,-0.6962641,-0.024543278,-0.7173659,-0.69182634,-0.24340071,0.6798032,-0.19129199,0.9696152,0.15249148,,-0.23659539,0.14866972,0.17277001,0.2643261,-0.8284336,-0.49379098,-0.8926995,-0.40393215,0.1998156,-0.36499196,0.38799056,-0.8463122,,0.079007976,-0.028992774,0.24771789,-0.99133575,0.12505035,-0.040197313,0.111744285,0.96374226,0.24230969,0.06904075,0.23571843,-0.9693659,,-0.5297871979046755,0.020503855781066074,0.14369504279,0.16481629557883615,-0.0057387329901484995,0.977636704509627,-0.06403087392463735,,-1.3817050294590039,0.03017271733959516,0.14084061221000002,0.08219845784593355,0.004235731492728653,1.1519735030138043,0.0721980772313513
1.4582747330423445,,0.06921063,0.019813178,0.33660734,-0.6962641,-0.024543278,-0.7173659,-0.69182634,-0.24340071,0.6798032,-0.19129199,0.9696152,0.15249148,,-0.23659539,0.14866972,0.17277001,0.2643261,-0.8284336,-0.49379098,-0.8926995,-0.40393215,0.1998156,-0.36499196,0.38799056,-0.8463122,,0.079007976,-0.028992774,0.24771789,-0.99133575,0.12505035,-0.040197313,0.111744285,0.96374226,0.24230969,0.06904075,0.23571843,-0.9693659,,-0.5297871979046755,0.020503855781066074,0.14369504279,0.16481629557883615,-0.0057387329901484995,0.977636704509627,-0.06403087392463735,,-1.3817050294590039,0.03017271733959516,0.14084061221000002,0.08219845784593355,0.004235731492728653,1.1519735030138043,0.0721980772313513
1.4862080470193177,,0.06921077,0.019812053,0.33660638,-0.6962616,-0.024546035,-0.71736825,-0.69183004,-0.24339107,0.67980283,-0.19128749,0.9696176,0.15248215,,-0.23659539,0.14866972,0.17277001,0.2643261,-0.8284336,-0.49379098,-0.8926995,-0.40393215,0.1998156,-0.36499196,0.38799056,-0.8463122,,0.079007976,-0.028992774,0.24771789,-0.99133575,0.12505035,-0.040197313,0.111744285,0.96374226,0.24230969,0.06904075,0.23571843,-0.9693659,,-0.5297949206375498,0.02049613304819185,0.14369504279,0.16481629557883615,-0.0057387329901484995,0.977636704509627,-0.06403087392463735,,-1.3817050294590039,0.03017271733959516,0.14084061221000002,0.08219845784593355,0.004235731492728653,1.1519735030138043,0.0721980772313513
1.5091430491302162,,0.06921077,0.019812053,0.33660638,-0.6962616,-0.024546035,-0.71736825,-0.69183004,-0.24339107,0.67980283,-0.19128749,0.9696176,0.15248215,,-0.23659539,0.14866972,0.17277001,0.2643261,-0.8284336,-0.49379098,-0.8926995,-0.40393215,0.1998156,-0.36499196,0.38799056,-0.8463122,,0.079007976,-0.028992774,0.24771789,-0.99133575,0.12505035,-0.040197313,0.111744285,0.96374226,0.24230969,0.06904075,0.23571843,-0.9693659,,-0.5297949206375498,0.02049613304819185,0.14369504279,0.16481629557883615,-0.0057387329901484995,0.977636704509627,-0.06403087392463735,,-1.3817050294590039,0.03017271733959516,0.14084061221000002,0.08219845784593355,0.004235731492728653,1.1519735030138043,0.0721980772313513
1.5369966470170766,,0.06921063,0.019813178,0.33660734,-0.6962641,-0.024543278,-0.7173659,-0.69182634,-0.24340071,0.6798032,-0.19129199,0.9696152,0.15249148,,-0.23659441,0.14866638,0.17276855,0.26432303,-0.82843524,-0.49378985,-0.8927029,-0.40392646,0.19981164,-0.3649858,0.38799292,-0.8463137,,0.079007976,-0.028992774,0.24771789,-0.99133575,0.12505035,-0.040197313,0.111744285,0.96374226,0.24230969,0.06904075,0.23571843,-0.9693659,,-0.5297871979046755,0.020503855781066074,0.14369504279,0.16481629557883615,-0.0057387329901484995,0.977636704509627,-0.06403087392463735,,-1.3817050294590039,0.030164994606720934,0.14084061221000002,0.08219845784593355,0.004235731492728653,1.1519735030138043,0.0721980772313513
1.5570580651983619,,0.06921063,0.019813178,0.33660734,-0.6962641,-0.024543278,-0.7173659,-0.69182634,-0.24340071,0.6798032,-0.19129199,0.9696152,0.15249148,,-0.23659053,0.14867108,0.17276871,0.264327,-0.82843727,-0.4937844,-0.8926995,-0.40393108,0.19981787,-0.3649914,0.38798392,-0.84631544,,0.079007976,-0.028992774,0.24771789,-0.99133575,0.12505035,-0.040197313,0.111744285,0.96374226,0.24230969,0.06904075,0.23571843,-0.9693659,,-0.5297871979046755,0.020503855781066074,0.14369504279,0.16481629557883615,-0.0057387329901484995,0.977636704509627,-0.06403087392463735,,-1.3817127521918782,0.03017271733959516,0.14084061221000002,0.08219845784593355,0.004235731492728653,1.1519735030138043,0.0721980772313513
1.5842560741584748,,0.06921139,0.019812865,0.33660668,-0.6962645,-0.024549522,-0.7173653,-0.69182557,-0.2433963,0.6798055,-0.19129297,0.96961623,0.15248421,,-0.23659053,0.14867108,0.17276871,0.264327,-0.82843727,-0.4937844,-0.8926995,-0.40393108,0.19981787,-0.3649914,0.38798392,-0.84631544,,0.079007976,-0.028992774,0.24771789,-0.99133575,0.12505035,-0.040197313,0.111744285,0.96374226,0.24230969,0.06904075,0.23571843,-0.9693659,,-0.5297949206375498,0.020503855781066074,0.14369504279,0.16481629557883615,-0.0057387329901484995,0.977636704509627,-0.06403087392463735,,-1.3817127521918782,0.03017271733959516,0.14084061221000002,0.08219845784593355,0.004235731492728653,1.1519735030138043,0.0721980772313513
1.6059137762058526,,0.06921077,0.019812053,0.33660638,-0.6962616,-0.024546035,-0.71736825,-0.69183004,-0.24339107,0.67980283,-0.19128749,0.9696176,0.15248215,,-0.23659539,0.14866972,0.17277001,0.2643261,-0.8284336,-0.49379098,-0.8926995,-0.40393215,0.1998156,-0.36499196,0.38799056,-0.8463122,,0.079007976,-0.028992774,0.24771789,-0.99133575,0.12505035,-0.040197313,0.111744285,0.96374226,0.24230969,0.06904075,0.23571843,-0.9693659,,-0.5297949206375498,0.02049613304819185,0.14369504279,0.16481629557883615,-0.0057387329901484995,0.977636704509627,-0.06403087392463735,,-1.3817050294590039,0.03017271733959516,0.14084061221000002,0.08219845784593355,0.004235731492728653,1.1519735030138043,0.0721980772313513
1.6300919770728797,,0.06921001,0.019812396,0.33660704,-0.69626117,-0.024539795,-0.7173689,-0.6918307,-0.24339548,0.67980057,-0.19128647,0.96961665,0.15248942,,-0.23659539,0.14866972,0.17277001,0.2643261,-0.8284336,-0.49379098,-0.8926995,-0.40393215,0.1998156,-0.36499196,0.38799056,-0.8463122,,0.079007976,-0.028992774,0.24771789,-0.99133575,0.12505035,-0.040197313,0.111744285,0.96374226,0.24230969,0.06904075,0.23571843,-0.9693659,,-0.5297871979046755,0.02049613304819185,0.14369504279,0.16481629557883615,-0.0057387329901484995,0.977636704509627,-0.06403087392463735,,-1.3817050294590039,0.03017271733959516,0.14084061221000002,0.08219845784593355,0.004235731492728653,1.1519735030138043,0.0721980772313513
1.6553259592037648,,0.06921063,0.019813178,0.33660734,-0.6962641,-0.024543278,-0.7173659,-0.69182634,-0.24340071,0.6798032,-0.19129199,0.9696152,0.15249148,,-0.23659053,0.14867108,0.17276871,0.264327,-0.82843727,-0.4937844,-0.8926995,-0.40393108,0.19981787,-0.3649914,0.38798392,-0.84631544,,0.079007976,-0.028992774,0.24771789,-0.99133575,0.12505035,-0.040197313,0.111744285,0.96374226,0.24230969,0.06904075,0.23571843,-0.9693659,,-0.5297871979046755,0.020503855781066074,0.14369504279,0.16481629557883615,-0.0057387329901484995,0.977636704509627,-0.06403087392463735,,-1.3817127521918782,0.03017271733959516,0.14084061221000002,0.08219845784593355,0.004235731492728653,1.1519735030138043,0.0721980772313513
1.6795801080297679,,0.06921063,0.019813178,0.33660734,-0.6962641,-0.024543278,-0.7173659,-0.69182634,-0.24340071,0.6798032,-0.19129199,0.9696152,0.15249148,,-0.23659539,0.14866972,0.17277001,0.2643261,-0.8284336,-0.49379098,-0.8926995,-0.40393215,0.1998156,-0.36499196,0.38799056,-0.8463122,,0.079007976,-0.028992774,0.24771789,-0.99133575,0.12505035,-0.040197313,0.111744285,0.96374226,0.24230969,0.06904075,0.23571843,-0.9693659,,-0.5297871979046755,0.020503855781066074,0.14369504279,0.16481629557883615,-0.0057387329901484995,0.977636704509627,-0.06403087392463735,,-1.3817050294590039,0.03017271733959516,0.14084061221000002,0.08219845784593355,0.004235731492728653,1.1519735030138043,0.0721980772313513
1.7057546821888536,,0.06921139,0.019812865,0.33660668,-0.6962645,-0.024549522,-0.7173653,-0.69182557,-0.2433963,0.6798055,-0.19129297,0.96961623,0.15248421,,-0.23659539,0.14866972,0.17277001,0.2643261,-0.8284336,-0.49379098,-0.8926995,-0.40393215,0.1998156,-0.36499196,0.38799056,-0.8463122,,0.079007976,-0.028992774,0.24771789,-0.99133575,0.12505035,-0.040197313,0.111744285,0.96374226,0.24230969,0.06904075,0.23571843,-0.9693659,,-0.5297949206375498,0.020503855781066074,0.14369504279,0.16481629557883615,-0.0057387329901484995,0.977636704509627,-0.06403087392463735,,-1.3817050294590039,0.03017271733959516,0.14084061221000002,0.08219845784593355,0.004235731492728653,1.1519735030138043,0.0721980772313513
1.732805254170671,,0.06920988,0.019813513,0.33660802,-0.6962637,-0.024537038,-0.7173666,-0.691827,-0.24340512,0.67980087,-0.191291,0.9696143,0.15249874,,-0.23659539,0.14866972,0.17277001,0.2643261,-0.8284336,-0.49379098,-0.8926995,-0.40393215,0.1998156,-0.36499196,0.38799056,-0.8463122,,0.079007976,-0.028992774,0.24771789,-0.99133575,0.12505035,-0.040197313,0.111744285,0.96374226,0.24230969,0.06904075,0.23571843,-0.9693659,,-0.5297794751718014,0.020503855781066074,0.14369504279,0.16481629557883615,-0.0057387329901484995,0.977636704509627,-0.06403087392463735,,-1.3817050294590039,0.03017271733959516,0.14084061221000002,0.08219845784593355,0.004235731492728653,1.1519735030138043,0.0721980772313513
1.7568833481054753,,0.069209255,0.019812724,0.3366077,-0.69626075,-0.024533559,-0.7173695,-0.6918314,-0.24339989,0.6797982,-0.19128552,0.96961576,0.15249668,,-0.23659053,0.14867108,0.17276871,0.264327,-0.82843727,-0.4937844,-0.8926995,-0.40393108,0.19981787,-0.3649914,0.38798392,-0.84631544,,0.079007976,-0.028992774,0.24771789,-0.99133575,0.12505035,-0.040197313,0.111744285,0.96374226,0.24230969,0.06904075,0.23571843,-0.9693659,,-0.5297794751718014,0.02049613304819185,0.14369504279,0.16481629557883615,-0.0057387329901484995,0.977636704509627,-0.06403087392463735,,-1.3817127521918782,0.03017271733959516,0.14084061221000002,0.08219845784593355,0.004235731492728653,1.1519735030138043,0.0721980772313513
1.7819519641343504,,0.06921001,0.019812396,0.33660704,-0.69626117,-0.024539795,-0.7173689,-0.6918307,-0.24339548,0.67980057,-0.19128647,0.96961665,0.15248942,,-0.23659539,0.14866972,0.17277001,0.2643261,-0.8284336,-0.49379098,-0.8926995,-0.40393215,0.1998156,-0.36499196,0.38799056,-0.8463122,,0.079007976,-0.028992774,0.24771789,-0.99133575,0.12505035,-0.040197313,0.111744285,0.96374226,0.24230969,0.06904075,0.23571843,-0.9693659,,-0.5297871979046755,0.02049613304819185,0.14369504279,0.16481629557883615,-0.0057387329901484995,0.977636704509627,-0.06403087392463735,,-1.3817050294590039,0.03017271733959516,0.14084061221000002,0.08219845784593355,0.004235731492728653,1.1519735030138043,0.0721980772313513
1.804454657016322,,0.06921139,0.019812865,0.33660668,-0.6962645,-0.024549522,-0.7173653,-0.69182557,-0.2433963,0.6798055,-0.19129297,0.96961623,0.15248421,,-0.23659539,0.14866972,0.17277001,0.2643261,-0.8284336,-0.49379098,-0.8926995,-0.40393215,0.1998156,-0.36499196,0.38799056,-0.8463122,,0.079007976,-0.028992774,0.24771789,-0.99133575,0.12505035,-0.040197313,0.111744285,0.96374226,0.24230969,0.06904075,0.23571843,-0.9693659,,-0.5297949206375498,0.020503855781066074,0.14369504279,0.16481629557883615,-0.0057387329901484995,0.977636704509627,-0.06403087392463735,,-1.3817050294590039,0.03017271733959516,0.14084061221000002,0.08219845784593355,0.004235731492728653,1.1519735030138043,0.0721980772313513
1.8258486550766975,,0.069212146,0.01981253,0.33660603,-0.6962649,-0.024555758,-0.7173647,-0.6918249,-0.24339189,0.6798077,-0.19129397,0.9696172,0.15247694,,-0.23659539,0.14866972,0.17277001,0.2643261,-0.8284336,-0.49379098,-0.8926995,-0.40393215,0.1998156,-0.36499196,0.38799056,-0.8463122,,0.079007976,-0.028992774,0.24771789,-0.99133575,0.12505035,-0.040197313,0.111744285,0.96374226,0.24230969,0.06904075,0.23571843,-0.9693659,,-0.529802643370424,0.020503855781066074,0.14369504279,0.16481629557883615,-0.0057387329901484995,0.977636704509627,-0.06403087392463735,,-1.3817050294590039,0.03017271733959516,0.14084061221000002,0.08219845784593355,0.004235731492728653,1.1519735030138043,0.0721980772313513
1.8527978342026472,,0.06921153,0.01981174,0.3366057,-0.696262,-0.02455227,-0.71736765,-0.6918294,-0.24338664,0.67980516,-0.19128849,0.96961856,0.1524749,,-0.23659539,0.14866972,0.17277001,0.2643261,-0.8284336,-0.49379098,-0.8926995,-0.40393215,0.1998156,-0.36499196,0.38799056,-0.8463122,,0.079007976,-0.028992774,0.24771789,-0.99133575,0.12505035,-0.040197313,0.111744285,0.96374226,0.24230969,0.06904075,0.23571843,-0.9693659,,-0.529802643370424,0.02049613304819185,0.14369504279,0.16481629557883615,-0.0057387329901484995,0.977636704509627,-0.06403087392463735,,-1.3817050294590039,0.03017271733959516,0.14084061221000002,0.08219845784593355,0.004235731492728653,1.1519735030138043,0.0721980772313513
1.87633299222216,,0.06921063,0.019813178,0.33660734,-0.6962641,-0.024543278,-0.7173659,-0.69182634,-0.24340071,0.6798032,-0.19129199,0.9696152,0.15249148,,-0.23659539,0.14866972,0.17277001,0.2643261,-0.8284336,-0.49379098,-0.8926995,-0.40393215,0.1998156,-0.36499196,0.38799056,-0.8463122,,0.079007976,-0.028992774,0.24771789,-0.99133575,0.12505035,-0.040197313,0.111744285,0.96374226,0.24230969,0.06904075,0.23571843,-0.9693659,,-0.5297871979046755,0.020503855781066074,0.14369504279,0.16481629557883615,-0.0057387329901484995,0.977636704509627,-0.06403087392463735,,-1.3817050294590039,0.03017271733959516,0.14084061221000002,0.08219845784593355,0.004235731492728653,1.1519735030138043,0.0721980772313513
1.9002850071992725,,0.06920988,0.019813513,0.33660802,-0.6962637,-0.024537038,-0.7173666,-0.691827,-0.24340512,0.67980087,-0.191291,0.9696143,0.15249874,,-0.23659539,0.14866972,0.17277001,0.2643261,-0.8284336,-0.49379098,-0.8926995,-0.40393215,0.1998156,-0.36499196,0.38799056,-0.8463122,,0.079007976,-0.028992774,0.24771789,-0.99133575,0.12505035,-0.040197313,0.111744285,0.96374226,0.24230969,0.06904075,0.23571843,-0.9693659,,-0.5297794751718014,0.020503855781066074,0.14369504279,0.16481629557883615,-0.0057387329901484995,0.977636704509627,-0.06403087392463735,,-1.3817050294590039,0.03017271733959516,0.14084061221000002,0.08219845784593355,0.004235731492728653,1.1519735030138043,0.0721980772313513
1.9231652552261949,,0.06920988,0.019813513,0.33660802,-0.6962637,-0.024537038,-0.7173666,-0.691827,-0.24340512,0.67980087,-0.191291,0.9696143,0.15249874,,-0.23659539,0.14866972,0.17277001,0.2643261,-0.8284336,-0.49379098,-0.8926995,-0.40393215,0.1998156,-0.36499196,0.38799056,-0.8463122,,0.079007976,-0.028992774,0.24771789,-0.99133575,0.12505035,-0.040197313,0.111744285,0.96374226,0.24230969,0.06904075,0.23571843,-0.9693659,,-0.5297794751718014,0.020503855781066074,0.14369504279,0.16481629557883615,-0.0057387329901484995,0.977636704509627,-0.06403087392463735,,-1.3817050294590039,0.03017271733959516,0.14084061221000002,0.08219845784593355,0.004235731492728653,1.1519735030138043,0.0721980772313513
1.9489638851955533,,0.06921001,0.019812396,0.33660704,-0.69626117,-0.024539795,-0.7173689,-0.6918307,-0.24339548,0.67980057,-0.19128647,0.96961665,0.15248942,,-0.23659539,0.14866972,0.17277001,0.2643261,-0.8284336,-0.49379098,-0.8926995,-0.40393215,0.1998156,-0.36499196,0.38799056,-0.8463122,,0.079007976,-0.028992774,0.24771789,-0.99133575,0.12505035,-0.040197313,0.111744285,0.96374226,0.24230969,0.06904075,0.23571843,-0.9693659,,-0.5297871979046755,0.02049613304819185,0.14369504279,0.16481629557883615,-0.0057387329901484995,0.977636704509627,-0.06403087392463735,,-1.3817050294590039,0.03017271733959516,0.14084061221000002,0.08219845784593355,0.004235731492728653,1.1519735030138043,0.0721980772313513
1.9742021921556443,,0.06921001,0.019812396,0.33660704,-0.69626117,-0.024539795,-0.7173689,-0.6918307,-0.24339548,0.67980057,-0.19128647,0.96961665,0.15248942,,-0.23659539,0.14866972,0.17277001,0.2643261,-0.8284336,-0.49379098,-0.8926995,-0.40393215,0.1998156,-0.36499196,0.38799056,-0.8463122,,0.079007976,-0.028992774,0.24771789,-0.99133575,0.12505035,-0.040197313,0.111744285,0.96374226,0.24230969,0.06904075,0.23571843,-0.9693659,,-0.5297871979046755,0.02049613304819185,0.14369504279,0.16481629557883615,-0.0057387329901484995,0.977636704509627,-0.06403087392463735,,-1.3817050294590039,0.03017271733959516,0.14084061221000002,0.08219845784593355,0.004235731492728653,1.1519735030138043,0.0721980772313513
2.0004738981369883,,0.06921063,0.019813178,0.33660734,-0.6962641,-0.024543278,-0.7173659,-0.69182634,-0.24340071,0.6798032,-0.19129199,0.9696152,0.15249148,,-0.23659539,0.14866972,0.17277001,0.2643261,-0.8284336,-0.49379098,-0.8926995,-0.40393215,0.1998156,-0.36499196,0.38799056,-0.8463122,,0.079007976,-0.028992774,0.24771789,-0.99133575,0.12505035,-0.040197313,0.111744285,0.96374226,0.24230969,0.06904075,0.23571843,-0.9693659,,-0.5297871979046755,0.020503855781066074,0.14369504279,0.16481629557883615,-0.0057387329901484995,0.977636704509627,-0.06403087392463735,,-1.3817050294590039,0.03017271733959516,0.14084061221000002,0.08219845784593355,0.004235731492728653,1.1519735030138043,0.0721980772313513
2.020974965998903,,0.06921139,0.019812865,0.33660668,-0.6962645,-0.024549522,-0.7173653,-0.69182557,-0.2433963,0.6798055,-0.19129297,0.96961623,0.15248421,,-0.23659539,0.14866972,0.17277001,0.2643261,-0.8284336,-0.49379098,-0.8926995,-0.40393215,0.1998156,-0.36499196,0.38799056,-0.8463122,,0.079007976,-0.028992774,0.24771789,-0.99133575,0.12505035,-0.040197313,0.111744285,0.96374226,0.24230969,0.06904075,0.23571843,-0.9693659,,-0.5297949206375498,0.020503855781066074,0.14369504279,0.16481629557883615,-0.0057387329901484995,0.977636704509627,-0.06403087392463735,,-1.3817050294590039,0.03017271733959516,0.14084061221000002,0.08219845784593355,0.004235731492728653,1.1519735030138043,0.0721980772313513
2.0430133282206953,,0.06921139,0.019812865,0.33660668,-0.6962645,-0.024549522,-0.7173653,-0.69182557,-0.2433963,0.6798055,-0.19129297,0.96961623,0.15248421,,-0.23651117,0.14869586,0.17273025,0.26433432,-0.8285144,-0.49365103,-0.89270544,-0.40389663,0.19986075,-0.36497146,0.387855,-0.84638315,,0.079007976,-0.028992774,0.24771789,-0.99133575,0.12505035,-0.040197313,0.111744285,0.96374226,0.24230969,0.06904075,0.23571843,-0.9693659,,-0.5297949206375498,0.020503855781066074,0.14369504279,0.16481629557883615,-0.0057387329901484995,0.977636704509627,-0.06403087392463735,,-1.3817050294590039,0.03017271733959516,0.14084061221000002,0.08219845784593355,0.004235731492728653,1.1518101455335232,0.07252476536362007
2.071032529231161,,0.06921139,0.019812865,0.33660668,-0.6962645,-0.024549522,-0.7173653,-0.69182557,-0.2433963,0.6798055,-0.19129297,0.96961623,0.15248421,,-0.23651117,0.14869586,0.17273025,0.26433432,-0.8285144,-0.49365103,-0.89270544,-0.40389663,0.19986075,-0.36497146,0.387855,-0.84638315,,0.079007976,-0.028992774,0.24771789,-0.99133575,0.12505035,-0.040197313,0.111744285,0.96374226,0.24230969,0.06904075,0.23571843,-0.9693659,,-0.5297949206375498,0.020503855781066074,0.14369504279,0.16481629557883615,-0.0057387329901484995,0.977636704509627,-0.06403087392463735,,-1.3817050294590039,0.03017271733959516,0.14084061221000002,0.08219845784593355,0.004235731492728653,1.1518101455335232,0.07252476536362007
2.092353225219995,,0.06921139,0.019812865,0.33660668,-0.6962645,-0.024549522,-0.7173653,-0.69182557,-0.2433963,0.6798055,-0.19129297,0.96961623,0.15248421,,-0.23651117,0.14869586,0.17273025,0.26433432,-0.8285144,-0.49365103,-0.89270544,-0.40389663,0.19986075,-0.36497146,0.387855,-0.84638315,,0.079007976,-0.028992774,0.24771789,-0.99133575,0.12505035,-0.040197313,0.111744285,0.96374226,0.24230969,0.06904075,0.23571843,-0.9693659,,-0.5297949206375498,0.020503855781066074,0.14369504279,0.16481629557883615,-0.0057387329901484995,0.977636704509627,-0.06403087392463735,,-1.3817050294590039,0.03017271733959516,0.14084061221000002,0.08219845784593355,0.004235731492728653,1.1518101455335232,0.07252476536362007
2.1201255270279944,,0.06921063,0.019813178,0.33660734,-0.6962641,-0.024543278,-0.7173659,-0.69182634,-0.24340071,0.6798032,-0.19129199,0.9696152,0.15249148,,-0.23651117,0.14869586,0.17273025,0.26433432,-0.8285144,-0.49365103,-0.89270544,-0.40389663,0.19986075,-0.36497146,0.387855,-0.84638315,,0.079007976,-0.028992774,0.24771789,-0.99133575,0.12505035,-0.040197313,0.111744285,0.96374226,0.24230969,0.06904075,0.23571843,-0.9693659,,-0.5297871979046755,0.020503855781066074,0.14369504279,0.16481629557883615,-0.0057387329901484995,0.977636704509627,-0.06403087392463735,,-1.3817050294590039,0.03017271733959516,0.14084061221000002,0.08219845784593355,0.004235731492728653,1.1518101455335232,0.07252476536362007
2.142334556207061,,0.06921001,0.019812396,0.33660704,-0.69626117,-0.024539795,-0.7173689,-0.6918307,-0.24339548,0.67980057,-0.19128647,0.96961665,0.15248942,,-0.23650631,0.14869723,0.1727289,0.2643352,-0.82851803,-0.49364442,-0.89270544,-0.40389553,0.19986302,-0.36497086,0.38784832,-0.8463865,,0.079007976,-0.028992774,0.24771789,-0.99133575,0.12505035,-0.040197313,0.111744285,0.96374226,0.24230969,0.06904075,0.23571843,-0.9693659,,-0.5297871979046755,0.02049613304819185,0.14369504279,0.16481629557883615,-0.0057387329901484995,0.977636704509627,-0.06403087392463735,,-1.3817127521918782,0.03017271733959516,0.14084061221000002,0.08219845784593355,0.004235731492728653,1.1518101455335232,0.07252476536362007
2.168313777074218,,0.06921001,0.019812396,0.33660704,-0.69626117,-0.024539795,-0.7173689,-0.6918307,-0.24339548,0.67980057,-0.19128647,0.96961665,0.15248942,,-0.23651117,0.14869586,0.17273025,0.26433432,-0.8285144,-0.49365103,-0.89270544,-0.40389663,0.19986075,-0.36497146,0.387855,-0.84638315,,0.079007976,-0.028992774,0.24771789,-0.99133575,0.12505035,-0.040197313,0.111744285,0.96374226,0.24230969,0.06904075,0.23571843,-0.9693659,,-0.5297871979046755,0.02049613304819185,0.14369504279,0.16481629557883615,-0.0057387329901484995,0.977636704509627,-0.06403087392463735,,-1.3817050294590039,0.03017271733959516,0.14084061221000002,0.08219845784593355,0.004235731492728653,1.1518101455335232,0.07252476536362007
2.193779217079282,,0.069212146,0.01981253,0.33660603,-0.6962649,-0.024555758,-0.7173647,-0.6918249,-0.24339189,0.6798077,-0.19129397,0.9696172,0.15247694,,-0.23650146,0.1486986,0.17272756,0.26433608,-0.8285216,-0.49363783,-0.8927054,-0.40389445,0.19986528,-0.36497027,0.38784164,-0.8463897,,0.079007976,-0.028992774,0.24771789,-0.99133575,0.12505035,-0.040197313,0.111744285,0.96374226,0.24230969,0.06904075,0.23571843,-0.9693659,,-0.529802643370424,0.020503855781066074,0.14369504279,0.16481629557883615,-0.0057387329901484995,0.977636704509627,-0.06403087392463735,,-1.3817204749247525,0.03017271733959516,0.14084061221000002,0.08219845784593355,0.004235731492728653,1.1518101455335232,0.07252476536362007
2.2216380301397294,,0.06921139,0.019812865,0.33660668,-0.6962645,-0.024549522,-0.7173653,-0.69182557,-0.2433963,0.6798055,-0.19129297,0.96961623,0.15248421,,-0.23650631,0.14869723,0.1727289,0.2643352,-0.82851803,-0.49364442,-0.89270544,-0.40389553,0.19986302,-0.36497086,0.38784832,-0.8463865,,0.079007976,-0.028992774,0.24771789,-0.99133575,0.12505035,-0.040197313,0.111744285,0.96374226,0.24230969,0.06904075,0.23571843,-0.9693659,,-0.5297949206375498,0.020503855781066074,0.14369504279,0.16481629557883615,-0.0057387329901484995,0.977636704509627,-0.06403087392463735,,-1.3817127521918782,0.03017271733959516,0.14084061221000002,0.08219845784593355,0.004235731492728653,1.1518101455335232,0.07252476536362007
2.243983307154849,,0.06921063,0.019813178,0.33660734,-0.6962641,-0.024543278,-0.7173659,-0.69182634,-0.24340071,0.6798032,-0.19129199,0.9696152,0.15249148,,-0.23651117,0.14869586,0.17273025,0.26433432,-0.8285144,-0.49365103,-0.89270544,-0.40389663,0.19986075,-0.36497146,0.387855,-0.84638315,,0.079007976,-0.028992774,0.24771789,-0.99133575,0.12505035,-0.040197313,0.111744285,0.96374226,0.24230969,0.06904075,0.23571843,-0.9693659,,-0.5297871979046755,0.020503855781066074,0.14369504279,0.16481629557883615,-0.0057387329901484995,0.977636704509627,-0.06403087392463735,,-1.3817050294590039,0.03017271733959516,0.14084061221000002,0.08219845784593355,0.004235731492728653,1.1518101455335232,0.07252476536362007
2.270700541092083,,0.069209255,0.019812724,0.3366077,-0.69626075,-0.024533559,-0.7173695,-0.6918314,-0.24339989,0.6797982,-0.19128552,0.96961576,0.15249668,,-0.23651117,0.14869586,0.17273025,0.26433432,-0.8285144,-0.49365103,-0.89270544,-0.40389663,0.19986075,-0.36497146,0.387855,-0.84638315,,0.079007976,-0.028992774,0.24771789,-0.99133575,0.12505035,-0.040197313,0.111744285,0.96374226,0.24230969,0.06904075,0.23571843,-0.9693659,,-0.5297794751718014,0.02049613304819185,0.14369504279,0.16481629557883615,-0.0057387329901484995,0.977636704509627,-0.06403087392463735,,-1.3817050294590039,0.03017271733959516,0.14084061221000002,0.08219845784593355,0.004235731492728653,1.1518101455335232,0.07252476536362007
2.292875510174781,,0.06921063,0.019813178,0.33660734,-0.6962641,-0.024543278,-0.7173659,-0.69182634,-0.24340071,0.6798032,-0.19129199,0.9696152,0.15249148,,-0.23650631,0.14869723,0.1727289,0.2643352,-0.82851803,-0.49364442,-0.89270544,-0.40389553,0.19986302,-0.36497086,0.38784832,-0.8463865,,0.079007976,-0.028992774,0.24771789,-0.99133575,0.12505035,-0.040197313,0.111744285,0.96374226,0.24230969,0.06904075,0.23571843,-0.9693659,,-0.5297871979046755,0.020503855781066074,0.14369504279,0.16481629557883615,-0.0057387329901484995,0.977636704509627,-0.06403087392463735,,-1.3817127521918782,0.03017271733959516,0.14084061221000002,0.08219845784593355,0.004235731492728653,1.1518101455335232,0.07252476536362007
2.3174185371026397,,0.06921139,0.019812865,0.33660668,-0.6962645,-0.024549522,-0.7173653,-0.69182557,-0.2433963,0.6798055,-0.19129297,0.96961623,0.15248421,,-0.23651117,0.14869586,0.17273025,0.26433432,-0.8285144,-0.49365103,-0.89270544,-0.40389663,0.19986075,-0.36497146,0.387855,-0.84638315,,0.079007976,-0.028992774,0.24771789,-0.99133575,0.12505035,-0.040197313,0.111744285,0.96374226,0.24230969,0.06904075,0.23571843,-0.9693659,,-0.5297949206375498,0.020503855781066074,0.14369504279,0.16481629557883615,-0.0057387329901484995,0.977636704509627,-0.06403087392463735,,-1.3817050294590039,0.03017271733959516,0.14084061221000002,0.08219845784593355,0.004235731492728653,1.1518101455335232,0.07252476536362007
2.3413711581379175,,0.069212146,0.01981253,0.33660603,-0.6962649,-0.024555758,-0.7173647,-0.6918249,-0.24339189,0.6798077,-0.19129397,0.9696172,0.15247694,,-0.23651117,0.14869586,0.17273025,0.26433432,-0.8285144,-0.49365103,-0.89270544,-0.40389663,0.19986075,-0.36497146,0.387855,-0.84638315,,0.079007976,-0.028992774,0.24771789,-0.99133575,0.12505035,-0.040197313,0.111744285,0.96374226,0.24230969,0.06904075,0.23571843,-0.9693659,,-0.529802643370424,0.020503855781066074,0.14369504279,0.16481629557883615,-0.0057387329901484995,0.977636704509627,-0.06403087392463735,,-1.3817050294590039,0.03017271733959516,0.14084061221000002,0.08219845784593355,0.004235731492728653,1.1518101455335232,0.07252476536362007
2.367427319055423,,0.06921139,0.019812865,0.33660668,-0.6962645,-0.024549522,-0.7173653,-0.69182557,-0.2433963,0.6798055,-0.19129297,0.96961623,0.15248421,,-0.23651117,0.14869586,0.17273025,0.26433432,-0.8285144,-0.49365103,-0.89270544,-0.40389663,0.19986075,-0.36497146,0.387855,-0.84638315,,0.079007976,-0.028992774,0.24771789,-0.99133575,0.12505035,-0.040197313,0.111744285,0.96374226,0.24230969,0.06904075,0.23571843,-0.9693659,,-0.5297949206375498,0.020503855781066074,0.14369504279,0.16481629557883615,-0.0057387329901484995,0.977636704509627,-0.06403087392463735,,-1.3817050294590039,0.03017271733959516,0.14084061221000002,0.08219845784593355,0.004235731492728653,1.1518101455335232,0.07252476536362007
2.3909008980263025,,0.06921139,0.019812865,0.33660668,-0.6962645,-0.024549522,-0.7173653,-0.69182557,-0.2433963,0.6798055,-0.19129297,0.96961623,0.15248421,,-0.23651117,0.14869586,0.17273025,0.26433432,-0.8285144,-0.49365103,-0.89270544,-0.40389663,0.19986075,-0.36497146,0.387855,-0.84638315,,0.079007976,-0.028992774,0.24771789,-0.99133575,0.12505035,-0.040197313,0.111744285,0.96374226,0.24230969,0.06904075,0.23571843,-0.9693659,,-0.5297949206375498,0.020503855781066074,0.14369504279,0.16481629557883615,-0.0057387329901484995,0.977636704509627,-0.06403087392463735,,-1.3817050294590039,0.03017271733959516,0.14084061221000002,0.08219845784593355,0.004235731492728653,1.1518101455335232,0.07252476536362007
2.4148347610607743,,0.06921139,0.019812865,0.33660668,-0.6962645,-0.024549522,-0.7173653,-0.69182557,-0.2433963,0.6798055,-0.19129297,0.96961623,0.15248421,,-0.23650631,0.14869723,0.1727289,0.2643352,-0.82851803,-0.49364442,-0.89270544,-0.40389553,0.19986302,-0.36497086,0.38784832,-0.8463865,,0.079007976,-0.028992774,0.24771789,-0.99133575,0.12505035,-0.040197313,0.111744285,0.96374226,0.24230969,0.06904075,0.23571843,-0.9693659,,-0.5297949206375498,0.020503855781066074,0.14369504279,0.16481629557883615,-0.0057387329901484995,0.977636704509627,-0.06403087392463735,,-1.3817127521918782,0.03017271733959516,0.14084061221000002,0.08219845784593355,0.004235731492728653,1.1518101455335232,0.07252476536362007
2.4393768100999296,,0.069218725,0.019813884,0.3366059,-0.6962544,-0.0245457,-0.7173753,-0.691832,-0.24341561,0.6797919,-0.19130632,0.96961147,0.15249768,,-0.23654443,0.14871164,0.17272556,0.26430386,-0.8285207,-0.49365667,-0.892707,-0.4038794,0.19988893,-0.36498985,0.3878594,-0.8463732,,0.07905809,-0.029010598,0.24771817,-0.9913443,0.12498067,-0.040204298,0.111674935,0.9637504,0.242309,0.06903084,0.23572181,-0.9693658,,-0.5297949206375498,0.020503855781066074,0.14369504279,0.16481629557883615,-0.0057387329901484995,0.977636704509627,-0.06403087392463735,,-1.3817050294590039,0.03017271733959516,0.14084061221000002,0.08219845784593355,0.004235731492728653,1.1518101455335232,0.07252476536362007
2.4601611541584134,,0.06921797,0.019814204,0.3366066,-0.69625396,-0.024539452,-0.7173759,-0.6918327,-0.24342003,0.6797896,-0.19130532,0.9696105,0.15250495,,-0.23654443,0.14871164,0.17272556,0.26430386,-0.8285207,-0.49365667,-0.892707,-0.4038794,0.19988893,-0.36498985,0.3878594,-0.8463732,,0.07905809,-0.029010598,0.24771817,-0.9913443,0.12498067,-0.040204298,0.111674935,0.9637504,0.242309,0.06903084,0.23572181,-0.9693658,,-0.5297871979046755,0.020503855781066074,0.14369504279,0.16481629557883615,-0.0057387329901484995,0.977636704509627,-0.06403087392463735,,-1.3817050294590039,0.03017271733959516,0.14084061221000002,0.08219845784593355,0.004235731492728653,1.1518101455335232,0.07252476536362007
2.4866395560093224,,0.06921797,0.019814204,0.3366066,-0.69625396,-0.024539452,-0.7173759,-0.6918327,-0.24342003,0.6797896,-0.19130532,0.9696105,0.15250495,,-0.23654443,0.14871164,0.17272556,0.26430386,-0.8285207,-0.49365667,-0.892707,-0.4038794,0.19988893,-0.36498985,0.3878594,-0.8463732,,0.07905809,-0.029010598,0.24771817,-0.9913443,0.12498067,-0.040204298,0.111674935,0.9637504,0.242309,0.06903084,0.23572181,-0.9693658,,-0.5297871979046755,0.020503855781066074,0.14369504279,0.16481629557883615,-0.0057387329901484995,0.977636704509627,-0.06403087392463735,,-1.3817050294590039,0.03017271733959516,0.14084061221000002,0.08219845784593355,0.004235731492728653,1.1518101455335232,0.07252476536362007
2.510073967045173,,0.06921735,0.019813422,0.33660626,-0.6962511,-0.024535973,-0.7173789,-0.6918372,-0.2434148,0.679787,-0.19129984,0.9696119,0.15250292,,-0.23654443,0.14871164,0.17272556,0.26430386,-0.8285207,-0.49365667,-0.892707,-0.4038794,0.19988893,-0.36498985,0.3878594,-0.8463732,,0.07905809,-0.029010598,0.24771817,-0.9913443,0.12498067,-0.040204298,0.111674935,0.9637504,0.242309,0.06903084,0.23572181,-0.9693658,,-0.5297871979046755,0.02049613304819185,0.14369504279,0.16481629557883615,-0.0057387329901484995,0.977636704509627,-0.06403087392463735,,-1.3817050294590039,0.03017271733959516,0.14084061221000002,0.08219845784593355,0.004235731492728653,1.1518101455335232,0.07252476536362007
2.5364950702060014,,0.06921735,0.019813422,0.33660626,-0.6962511,-0.024535973,-0.7173789,-0.6918372,-0.2434148,0.679787,-0.19129984,0.9696119,0.15250292,,-0.23654443,0.14871164,0.17272556,0.26430386,-0.8285207,-0.49365667,-0.892707,-0.4038794,0.19988893,-0.36498985,0.3878594,-0.8463732,,0.07905809,-0.029010598,0.24771817,-0.9913443,0.12498067,-0.040204298,0.111674935,0.9637504,0.242309,0.06903084,0.23572181,-0.9693658,,-0.5297871979046755,0.02049613304819185,0.14369504279,0.16481629557883615,-0.0057387329901484995,0.977636704509627,-0.06403087392463735,,-1.3817050294590039,0.03017271733959516,0.14084061221000002,0.08219845784593355,0.004235731492728653,1.1518101455335232,0.07252476536362007
2.556115063140169,,0.06921797,0.019814204,0.3366066,-0.69625396,-0.024539452,-0.7173759,-0.6918327,-0.24342003,0.6797896,-0.19130532,0.9696105,0.15250495,,-0.23654443,0.14871164,0.17272556,0.26430386,-0.8285207,-0.49365667,-0.892707,-0.4038794,0.19988893,-0.36498985,0.3878594,-0.8463732,,0.07905809,-0.029010598,0.24771817,-0.9913443,0.12498067,-0.040204298,0.111674935,0.9637504,0.242309,0.06903084,0.23572181,-0.9693658,,-0.5297871979046755,0.020503855781066074,0.14369504279,0.16481629557883615,-0.0057387329901484995,0.977636704509627,-0.06403087392463735,,-1.3817050294590039,0.03017271733959516,0.14084061221000002,0.08219845784593355,0.004235731492728653,1.1518101455335232,0.07252476536362007
2.58584584412165,,0.069218725,0.019813884,0.3366059,-0.6962544,-0.0245457,-0.7173753,-0.691832,-0.24341561,0.6797919,-0.19130632,0.96961147,0.15249768,,-0.23654443,0.14871164,0.17272556,0.26430386,-0.8285207,-0.49365667,-0.892707,-0.4038794,0.19988893,-0.36498985,0.3878594,-0.8463732,,0.07905809,-0.029010598,0.24771817,-0.9913443,0.12498067,-0.040204298,0.111674935,0.9637504,0.242309,0.06903084,0.23572181,-0.9693658,,-0.5297949206375498,0.020503855781066074,0.14369504279,0.16481629557883615,-0.0057387329901484995,0.977636704509627,-0.06403087392463735,,-1.3817050294590039,0.03017271733959516,0.14084061221000002,0.08219845784593355,0.004235731492728653,1.1518101455335232,0.07252476536362007
2.607477242127061,,0.06921811,0.019813094,0.3366056,-0.6962515,-0.024542209,-0.7173782,-0.69183654,-0.24341038,0.6797893,-0.19130084,0.96961284,0.15249564,,-0.23654443,0.14871164,0.17272556,0.26430386,-0.8285207,-0.49365667,-0.892707,-0.4038794,0.19988893,-0.36498985,0.3878594,-0.8463732,,0.07905809,-0.029010598,0.24771817,-0.9913443,0.12498067,-0.040204298,0.111674935,0.9637504,0.242309,0.06903084,0.23572181,-0.9693658,,-0.5297949206375498,0.02049613304819185,0.14369504279,0.16481629557883615,-0.0057387329901484995,0.977636704509627,-0.06403087392463735,,-1.3817050294590039,0.03017271733959516,0.14084061221000002,0.08219845784593355,0.004235731492728653,1.1518101455335232,0.07252476536362007
2.635566989192739,,0.069218725,0.019813884,0.3366059,-0.6962544,-0.0245457,-0.7173753,-0.691832,-0.24341561,0.6797919,-0.19130632,0.96961147,0.15249768,,-0.23654443,0.14871164,0.17272556,0.26430386,-0.8285207,-0.49365667,-0.892707,-0.4038794,0.19988893,-0.36498985,0.3878594,-0.8463732,,0.07905809,-0.029010598,0.24771817,-0.9913443,0.12498067,-0.040204298,0.111674935,0.9637504,0.242309,0.06903084,0.23572181,-0.9693658,,-0.5297949206375498,0.020503855781066074,0.14369504279,0.16481629557883615,-0.0057387329901484995,0.977636704509627,-0.06403087392463735,,-1.3817050294590039,0.03017271733959516,0.14084061221000002,0.08219845784593355,0.004235731492728653,1.1518101455335232,0.07252476536362007
2.6553793891798705,,0.06921797,0.019814204,0.3366066,-0.69625396,-0.024539452,-0.7173759,-0.6918327,-0.24342003,0.6797896,-0.19130532,0.9696105,0.15250495,,-0.23654443,0.14871164,0.17272556,0.26430386,-0.8285207,-0.49365667,-0.892707,-0.4038794,0.19988893,-0.36498985,0.3878594,-0.8463732,,0.07905809,-0.029010598,0.24771817,-0.9913443,0.12498067,-0.040204298,0.111674935,0.9637504,0.242309,0.06903084,0.23572181,-0.9693658,,-0.5297871979046755,0.020503855781066074,0.14369504279,0.16481629557883615,-0.0057387329901484995,0.977636704509627,-0.06403087392463735,,-1.3817050294590039,0.03017271733959516,0.14084061221000002,0.08219845784593355,0.004235731492728653,1.1518101455335232,0.07252476536362007
2.6772179692052305,,0.069218725,0.019813884,0.3366059,-0.6962544,-0.0245457,-0.7173753,-0.691832,-0.24341561,0.6797919,-0.19130632,0.96961147,0.15249768,,-0.23654443,0.14871164,0.17272556,0.26430386,-0.8285207,-0.49365667,-0.892707,-0.4038794,0.19988893,-0.36498985,0.3878594,-0.8463732,,0.07905809,-0.029010598,0.24771817,-0.9913443,0.12498067,-0.040204298,0.111674935,0.9637504,0.242309,0.06903084,0.23572181,-0.9693658,,-0.5297949206375498,0.020503855781066074,0.14369504279,0.16481629557883615,-0.0057387329901484995,0.977636704509627,-0.06403087392463735,,-1.3817050294590039,0.03017271733959516,0.14084061221000002,0.08219845784593355,0.004235731492728653,1.1518101455335232,0.07252476536362007
2.7048807230312377,,0.069219485,0.019813564,0.33660525,-0.6962548,-0.024551935,-0.7173746,-0.69183147,-0.24341121,0.67979413,-0.1913073,0.9696124,0.1524904,,-0.23654443,0.14871164,0.17272556,0.26430386,-0.8285207,-0.49365667,-0.892707,-0.4038794,0.19988893,-0.36498985,0.3878594,-0.8463732,,0.07905809,-0.029010598,0.24771817,-0.9913443,0.12498067,-0.040204298,0.111674935,0.9637504,0.242309,0.06903084,0.23572181,-0.9693658,,-0.529802643370424,0.020503855781066074,0.14369504279,0.16481629557883615,-0.0057387329901484995,0.977636704509627,-0.06403087392463735,,-1.3817050294590039,0.03017271733959516,0.14084061221000002,0.08219845784593355,0.004235731492728653,1.1518101455335232,0.07252476536362007
2.7339545402210206,,0.069218725,0.019813884,0.3366059,-0.6962544,-0.0245457,-0.7173753,-0.691832,-0.24341561,0.6797919,-0.19130632,0.96961147,0.15249768,,-0.23654243,0.14870499,0.17272262,0.26429772,-0.828524,-0.4936545,-0.89271384,-0.40386808,0.19988099,-0.36497748,0.3878642,-0.8463764,,0.07905809,-0.029010598,0.24771817,-0.9913443,0.12498067,-0.040204298,0.111674935,0.9637504,0.242309,0.06903084,0.23572181,-0.9693658,,-0.5297949206375498,0.020503855781066074,0.14369504279,0.16481629557883615,-0.0057387329901484995,0.977636704509627,-0.06403087392463735,,-1.3817050294590039,0.03015727187384671,0.14084061221000002,0.08219845784593355,0.004235731492728653,1.1518101455335232,0.07252476536362007
2.7545060731936246,,0.06921811,0.019813094,0.3366056,-0.6962515,-0.024542209,-0.7173782,-0.69183654,-0.24341038,0.6797893,-0.19130084,0.96961284,0.15249564,,-0.23654243,0.14870499,0.17272262,0.26429772,-0.828524,-0.4936545,-0.89271384,-0.40386808,0.19988099,-0.36497748,0.3878642,-0.8463764,,0.07905809,-0.029010598,0.24771817,-0.9913443,0.12498067,-0.040204298,0.111674935,0.9637504,0.242309,0.06903084,0.23572181,-0.9693658,,-0.5297949206375498,0.02049613304819185,0.14369504279,0.16481629557883615,-0.0057387329901484995,0.977636704509627,-0.06403087392463735,,-1.3817050294590039,0.03015727187384671,0.14084061221000002,0.08219845784593355,0.004235731492728653,1.1518101455335232,0.07252476536362007
2.7771929481532425,,0.069218725,0.019813884,0.3366059,-0.6962544,-0.0245457,-0.7173753,-0.691832,-0.24341561,0.6797919,-0.19130632,0.96961147,0.15249768,,-0.23653758,0.14870635,0.17272133,0.2642986,-0.8285277,-0.49364796,-0.8927139,-0.40386698,0.19988322,-0.36497688,0.3878575,-0.8463796,,0.07905809,-0.029010598,0.24771817,-0.9913443,0.12498067,-0.040204298,0.111674935,0.9637504,0.242309,0.06903084,0.23572181,-0.9693658,,-0.5297949206375498,0.020503855781066074,0.14369504279,0.16481629557883615,-0.0057387329901484995,0.977636704509627,-0.06403087392463735,,-1.3817127521918782,0.03015727187384671,0.14084061221000002,0.08219845784593355,0.004235731492728653,1.1518101455335232,0.07252476536362007
2.799898953177035,,0.06921797,0.019814204,0.3366066,-0.69625396,-0.024539452,-0.7173759,-0.6918327,-0.24342003,0.6797896,-0.19130532,0.9696105,0.15250495,,-0.23657972,0.1486933,0.17274114,0.2642945,-0.8284873,-0.49371794,-0.89271086,-0.40388477,0.19986066,-0.36498713,0.3879253,-0.8463442,,0.07905809,-0.029010598,0.24771817,-0.9913443,0.12498067,-0.040204298,0.111674935,0.9637504,0.242309,0.06903084,0.23572181,-0.9693658,,-0.5297871979046755,0.020503855781066074,0.14369504279,0.16481629557883615,-0.0057387329901484995,0.977636704509627,-0.06403087392463735,,-1.3817127521918782,0.03015727187384671,0.14084061221000002,0.08219845784593355,0.004235731492728653,1.1518918242736635,0.07236142129748568
2.8254353580996394,,0.06921735,0.019813422,0.33660626,-0.6962511,-0.024535973,-0.7173789,-0.6918372,-0.2434148,0.679787,-0.19129984,0.9696119,0.15250292,,-0.23662665,0.14867884,0.17276238,0.26428953,-0.82844317,-0.4937945,-0.8927079,-0.40390357,0.19983582,-0.36499798,0.3879998,-0.8463053,,0.07905809,-0.029010598,0.24771817,-0.9913443,0.12498067,-0.040204298,0.111674935,0.9637504,0.242309,0.06903084,0.23572181,-0.9693658,,-0.5297871979046755,0.02049613304819185,0.14369504279,0.16481629557883615,-0.0057387329901484995,0.977636704509627,-0.06403087392463735,,-1.3817050294590039,0.03015727187384671,0.14084061221000002,0.08219845784593355,0.004235731492728653,1.1519735030138043,0.0721980772313513
2.8538374982308596,,0.06921735,0.019813422,0.33660626,-0.6962511,-0.024535973,-0.7173789,-0.6918372,-0.2434148,0.679787,-0.19129984,0.9696119,0.15250292,,-0.23662665,0.14867884,0.17276238,0.26428953,-0.82844317,-0.4937945,-0.8927079,-0.40390357,0.19983582,-0.36499798,0.3879998,-0.8463053,,0.07905809,-0.029010598,0.24771817,-0.9913443,0.12498067,-0.040204298,0.111674935,0.9637504,0.242309,0.06903084,0.23572181,-0.9693658,,-0.5297871979046755,0.02049613304819185,0.14369504279,0.16481629557883615,-0.0057387329901484995,0.977636704509627,-0.06403087392463735,,-1.3817050294590039,0.03015727187384671,0.14084061221000002,0.08219845784593355,0.004235731492728653,1.1519735030138043,0.0721980772313513
2.8757518040947616,,0.06921797,0.019814204,0.3366066,-0.69625396,-0.024539452,-0.7173759,-0.6918327,-0.24342003,0.6797896,-0.19130532,0.9696105,0.15250495,,-0.23662665,0.14867884,0.17276238,0.26428953,-0.82844317,-0.4937945,-0.8927079,-0.40390357,0.19983582,-0.36499798,0.3879998,-0.8463053,,0.07905809,-0.029010598,0.24771817,-0.9913443,0.12498067,-0.040204298,0.111674935,0.9637504,0.242309,0.06903084,0.23572181,-0.9693658,,-0.5297871979046755,0.020503855781066074,0.14369504279,0.16481629557883615,-0.0057387329901484995,0.977636704509627,-0.06403087392463735,,-1.3817050294590039,0.03015727187384671,0.14084061221000002,0.08219845784593355,0.004235731492728653,1.1519735030138043,0.0721980772313513
2.9036439310293645,,0.06921797,0.019814204,0.3366066,-0.69625396,-0.024539452,-0.7173759,-0.6918327,-0.24342003,0.6797896,-0.19130532,0.9696105,0.15250495,,-0.23662183,0.14868021,0.17276107,0.26429042,-0.8284468,-0.49378794,-0.89270794,-0.4039025,0.1998381,-0.36499742,0.3879931,-0.8463086,,0.07905809,-0.029010598,0.24771817,-0.9913443,0.12498067,-0.040204298,0.111674935,0.9637504,0.242309,0.06903084,0.23572181,-0.9693658,,-0.5297871979046755,0.020503855781066074,0.14369504279,0.16481629557883615,-0.0057387329901484995,0.977636704509627,-0.06403087392463735,,-1.3817127521918782,0.03015727187384671,0.14084061221000002,0.08219845784593355,0.004235731492728653,1.1519735030138043,0.0721980772313513
2.9245156911201775,,0.069218725,0.019813884,0.3366059,-0.6962544,-0.0245457,-0.7173753,-0.691832,-0.24341561,0.6797919,-0.19130632,0.96961147,0.15249768,,-0.23662665,0.14867884,0.17276238,0.26428953,-0.82844317,-0.4937945,-0.8927079,-0.40390357,0.19983582,-0.36499798,0.3879998,-0.8463053,,0.07905809,-0.029010598,0.24771817,-0.9913443,0.12498067,-0.040204298,0.111674935,0.9637504,0.242309,0.06903084,0.23572181,-0.9693658,,-0.5297949206375498,0.020503855781066074,0.14369504279,0.16481629557883615,-0.0057387329901484995,0.977636704509627,-0.06403087392463735,,-1.3817050294590039,0.03015727187384671,0.14084061221000002,0.08219845784593355,0.004235731492728653,1.1519735030138043,0.0721980772313513
2.947275485144928,,0.069218725,0.019813884,0.3366059,-0.6962544,-0.0245457,-0.7173753,-0.691832,-0.24341561,0.6797919,-0.19130632,0.96961147,0.15249768,,-0.23662665,0.14867884,0.17276238,0.26428953,-0.82844317,-0.4937945,-0.8927079,-0.40390357,0.19983582,-0.36499798,0.3879998,-0.8463053,,0.07905809,-0.029010598,0.24771817,-0.9913443,0.12498067,-0.040204298,0.111674935,0.9637504,0.242309,0.06903084,0.23572181,-0.9693658,,-0.5297949206375498,0.020503855781066074,0.14369504279,0.16481629557883615,-0.0057387329901484995,0.977636704509627,-0.06403087392463735,,-1.3817050294590039,0.03015727187384671,0.14084061221000002,0.08219845784593355,0.004235731492728653,1.1519735030138043,0.0721980772313513
2.974531570216641,,0.06921735,0.019813422,0.33660626,-0.6962511,-0.024535973,-0.7173789,-0.6918372,-0.2434148,0.679787,-0.19129984,0.9696119,0.15250292,,-0.23662665,0.14867884,0.17276238,0.26428953,-0.82844317,-0.4937945,-0.8927079,-0.40390357,0.19983582,-0.36499798,0.3879998,-0.8463053,,0.07905809,-0.029010598,0.24771817,-0.9913443,0.12498067,-0.040204298,0.111674935,0.9637504,0.242309,0.06903084,0.23572181,-0.9693658,,-0.5297871979046755,0.02049613304819185,0.14369504279,0.16481629557883615,-0.0057387329901484995,0.977636704509627,-0.06403087392463735,,-1.3817050294590039,0.03015727187384671,0.14084061221000002,0.08219845784593355,0.004235731492728653,1.1519735030138043,0.0721980772313513
2.996428481070325,,0.06921735,0.019813422,0.33660626,-0.6962511,-0.024535973,-0.7173789,-0.6918372,-0.2434148,0.679787,-0.19129984,0.9696119,0.15250292,,-0.23662665,0.14867884,0.17276238,0.26428953,-0.82844317,-0.4937945,-0.8927079,-0.40390357,0.19983582,-0.36499798,0.3879998,-0.8463053,,0.07905809,-0.029010598,0.24771817,-0.9913443,0.12498067,-0.040204298,0.111674935,0.9637504,0.242309,0.06903084,0.23572181,-0.9693658,,-0.5297871979046755,0.02049613304819185,0.14369504279,0.16481629557883615,-0.0057387329901484995,0.977636704509627,-0.06403087392463735,,-1.3817050294590039,0.03015727187384671,0.14084061221000002,0.08219845784593355,0.004235731492728653,1.1519735030138043,0.0721980772313513
3.0177999841980636,,0.06921797,0.019814204,0.3366066,-0.69625396,-0.024539452,-0.7173759,-0.6918327,-0.24342003,0.6797896,-0.19130532,0.9696105,0.15250495,,-0.2366277,0.14868218,0.17276387,0.26429263,-0.8284416,-0.49379557,-0.89270437,-0.4039092,0.19983982,-0.36500415,0.38799736,-0.84630376,,0.07905809,-0.029010598,0.24771817,-0.9913443,0.12498067,-0.040204298,0.111674935,0.9637504,0.242309,0.06903084,0.23572181,-0.9693658,,-0.5297871979046755,0.020503855781066074,0.14369504279,0.16481629557883615,-0.0057387329901484995,0.977636704509627,-0.06403087392463735,,-1.3817050294590039,0.030164994606720934,0.14084061221000002,0.08219845784593355,0.004235731492728653,1.1519735030138043,0.0721980772313513
3.043356346199289,,0.06921797,0.019814204,0.3366066,-0.69625396,-0.024539452,-0.7173759,-0.6918327,-0.24342003,0.6797896,-0.19130532,0.9696105,0.15250495,,-0.23662865,0.1486855,0.17276531,0.2642957,-0.82843995,-0.49379668,-0.892701,-0.40391487,0.19984378,-0.36501035,0.387995,-0.8463022,,0.07905809,-0.029010598,0.24771817,-0.9913443,0.12498067,-0.040204298,0.111674935,0.9637504,0.242309,0.06903084,0.23572181,-0.9693658,,-0.5297871979046755,0.020503855781066074,0.14369504279,0.16481629557883615,-0.0057387329901484995,0.977636704509627,-0.06403087392463735,,-1.3817050294590039,0.03017271733959516,0.14084061221000002,0.08219845784593355,0.004235731492728653,1.1519735030138043,0.0721980772313513
3.071201882092282,,0.069218725,0.019813884,0.3366059,-0.6962544,-0.0245457,-0.7173753,-0.691832,-0.24341561,0.6797919,-0.19130632,0.96961147,0.15249768,,-0.23662865,0.1486855,0.17276531,0.2642957,-0.82843995,-0.49379668,-0.892701,-0.40391487,0.19984378,-0.36501035,0.387995,-0.8463022,,0.07905809,-0.029010598,0.24771817,-0.9913443,0.12498067,-0.040204298,0.111674935,0.9637504,0.242309,0.06903084,0.23572181,-0.9693658,,-0.5297949206375498,0.020503855781066074,0.14369504279,0.16481629557883615,-0.0057387329901484995,0.977636704509627,-0.06403087392463735,,-1.3817050294590039,0.03017271733959516,0.14084061221000002,0.08219845784593355,0.004235731492728653,1.1519735030138043,0.0721980772313513
3.0928549591917545,,0.06921811,0.019813094,0.3366056,-0.6962515,-0.024542209,-0.7173782,-0.69183654,-0.24341038,0.6797893,-0.19130084,0.96961284,0.15249564,,-0.23662183,0.14868021,0.17276107,0.26429042,-0.8284468,-0.49378794,-0.89270794,-0.4039025,0.1998381,-0.36499742,0.3879931,-0.8463086,,0.07905809,-0.029010598,0.24771817,-0.9913443,0.12498067,-0.040204298,0.111674935,0.9637504,0.242309,0.06903084,0.23572181,-0.9693658,,-0.5297949206375498,0.02049613304819185,0.14369504279,0.16481629557883615,-0.0057387329901484995,0.977636704509627,-0.06403087392463735,,-1.3817127521918782,0.03015727187384671,0.14084061221000002,0.08219845784593355,0.004235731492728653,1.1519735030138043,0.0721980772313513
3.1191184571944177,,0.06921735,0.019813422,0.33660626,-0.6962511,-0.024535973,-0.7173789,-0.6918372,-0.2434148,0.679787,-0.19129984,0.9696119,0.15250292,,-0.23662665,0.14867884,0.17276238,0.26428953,-0.82844317,-0.4937945,-0.8927079,-0.40390357,0.19983582,-0.36499798,0.3879998,-0.8463053,,0.07905809,-0.029010598,0.24771817,-0.9913443,0.12498067,-0.040204298,0.111674935,0.9637504,0.242309,0.06903084,0.23572181,-0.9693658,,-0.5297871979046755,0.02049613304819185,0.14369504279,0.16481629557883615,-0.0057387329901484995,0.977636704509627,-0.06403087392463735,,-1.3817050294590039,0.03015727187384671,0.14084061221000002,0.08219845784593355,0.004235731492728653,1.1519735030138043,0.0721980772313513
3.1417944121640176,,0.06921797,0.019814204,0.3366066,-0.69625396,-0.024539452,-0.7173759,-0.6918327,-0.24342003,0.6797896,-0.19130532,0.9696105,0.15250495,,-0.2366277,0.14868218,0.17276387,0.26429263,-0.8284416,-0.49379557,-0.89270437,-0.4039092,0.19983982,-0.36500415,0.38799736,-0.84630376,,0.07905809,-0.029010598,0.24771817,-0.9913443,0.12498067,-0.040204298,0.111674935,0.9637504,0.242309,0.06903084,0.23572181,-0.9693658,,-0.5297871979046755,0.020503855781066074,0.14369504279,0.16481629557883615,-0.0057387329901484995,0.977636704509627,-0.06403087392463735,,-1.3817050294590039,0.030164994606720934,0.14084061221000002,0.08219845784593355,0.004235731492728653,1.1519735030138043,0.0721980772313513
3.1646753731183708,,0.06921797,0.019814204,0.3366066,-0.69625396,-0.024539452,-0.7173759,-0.6918327,-0.24342003,0.6797896,-0.19130532,0.9696105,0.15250495,,-0.23662865,0.1486855,0.17276531,0.2642957,-0.82843995,-0.49379668,-0.892701,-0.40391487,0.19984378,-0.36501035,0.387995,-0.8463022,,0.07905809,-0.029010598,0.24771817,-0.9913443,0.12498067,-0.040204298,0.111674935,0.9637504,0.242309,0.06903084,0.23572181,-0.9693658,,-0.5297871979046755,0.020503855781066074,0.14369504279,0.16481629557883615,-0.0057387329901484995,0.977636704509627,-0.06403087392463735,,-1.3817050294590039,0.03017271733959516,0.14084061221000002,0.08219845784593355,0.004235731492728653,1.1519735030138043,0.0721980772313513
3.1909642522223294,,0.06921735,0.019813422,0.33660626,-0.6962511,-0.024535973,-0.7173789,-0.6918372,-0.2434148,0.679787,-0.19129984,0.9696119,0.15250292,,-0.23662865,0.1486855,0.17276531,0.2642957,-0.82843995,-0.49379668,-0.892701,-0.40391487,0.19984378,-0.36501035,0.387995,-0.8463022,,0.07905809,-0.029010598,0.24771817,-0.9913443,0.12498067,-0.040204298,0.111674935,0.9637504,0.242309,0.06903084,0.23572181,-0.9693658,,-0.5297871979046755,0.02049613304819185,0.14369504279,0.16481629557883615,-0.0057387329901484995,0.977636704509627,-0.06403087392463735,,-1.3817050294590039,0.03017271733959516,0.14084061221000002,0.08219845784593355,0.004235731492728653,1.1519735030138043,0.0721980772313513
3.2148060481995344,,0.06921811,0.019813094,0.3366056,-0.6962515,-0.024542209,-0.7173782,-0.69183654,-0.24341038,0.6797893,-0.19130084,0.96961284,0.15249564,,-0.23662865,0.1486855,0.17276531,0.2642957,-0.82843995,-0.49379668,-0.892701,-0.40391487,0.19984378,-0.36501035,0.387995,-0.8463022,,0.07905809,-0.029010598,0.24771817,-0.9913443,0.12498067,-0.040204298,0.111674935,0.9637504,0.242309,0.06903084,0.23572181,-0.9693658,,-0.5297949206375498,0.02049613304819185,0.14369504279,0.16481629557883615,-0.0057387329901484995,0.977636704509627,-0.06403087392463735,,-1.3817050294590039,0.03017271733959516,0.14084061221000002,0.08219845784593355,0.004235731492728653,1.1519735030138043,0.0721980772313513
3.2395122691523284,,0.069218725,0.019813884,0.3366059,-0.6962544,-0.0245457,-0.7173753,-0.691832,-0.24341561,0.6797919,-0.19130632,0.96961147,0.15249768,,-0.23662865,0.1486855,0.17276531,0.2642957,-0.82843995,-0.49379668,-0.892701,-0.40391487,0.19984378,-0.36501035,0.387995,-0.8463022,,0.07905809,-0.029010598,0.24771817,-0.9913443,0.12498067,-0.040204298,0.111674935,0.9637504,0.242309,0.06903084,0.23572181,-0.9693658,,-0.5297949206375498,0.020503855781066074,0.14369504279,0.16481629557883615,-0.0057387329901484995,0.977636704509627,-0.06403087392463735,,-1.3817050294590039,0.03017271733959516,0.14084061221000002,0.08219845784593355,0.004235731492728653,1.1519735030138043,0.0721980772313513
3.260034381179139,,0.06921797,0.019814204,0.3366066,-0.69625396,-0.024539452,-0.7173759,-0.6918327,-0.24342003,0.6797896,-0.19130532,0.9696105,0.15250495,,-0.2366238,0.14868686,0.172764,0.2642966,-0.8284437,-0.4937901,-0.8927009,-0.40391377,0.19984604,-0.36500975,0.3879883,-0.84630555,,0.07905809,-0.029010598,0.24771817,-0.9913443,0.12498067,-0.040204298,0.111674935,0.9637504,0.242309,0.06903084,0.23572181,-0.9693658,,-0.5297871979046755,0.020503855781066074,0.14369504279,0.16481629557883615,-0.0057387329901484995,0.977636704509627,-0.06403087392463735,,-1.3817127521918782,0.03017271733959516,0.14084061221000002,0.08219845784593355,0.004235731492728653,1.1519735030138043,0.0721980772313513
3.2860501760151237,,0.06921797,0.019814204,0.3366066,-0.69625396,-0.024539452,-0.7173759,-0.6918327,-0.24342003,0.6797896,-0.19130532,0.9696105,0.15250495,,-0.23662865,0.1486855,0.17276531,0.2642957,-0.82843995,-0.49379668,-0.892701,-0.40391487,0.19984378,-0.36501035,0.387995,-0.8463022,,0.07905809,-0.029010598,0.24771817,-0.9913443,0.12498067,-0.040204298,0.111674935,0.9637504,0.242309,0.06903084,0.23572181,-0.9693658,,-0.5297871979046755,0.020503855781066074,0.14369504279,0.16481629557883615,-0.0057387329901484995,0.977636704509627,-0.06403087392463735,,-1.3817050294590039,0.03017271733959516,0.14084061221000002,0.08219845784593355,0.004235731492728653,1.1519735030138043,0.0721980772313513
3.3098807181231678,,0.069218725,0.019813884,0.3366059,-0.6962544,-0.0245457,-0.7173753,-0.691832,-0.24341561,0.6797919,-0.19130632,0.96961147,0.15249768,,-0.23662865,0.1486855,0.17276531,0.2642957,-0.82843995,-0.49379668,-0.892701,-0.40391487,0.19984378,-0.36501035,0.387995,-0.8463022,,0.07905809,-0.029010598,0.24771817,-0.9913443,0.12498067,-0.040204298,0.111674935,0.9637504,0.242309,0.06903084,0.23572181,-0.9693658,,-0.5297949206375498,0.020503855781066074,0.14369504279,0.16481629557883615,-0.0057387329901484995,0.977636704509627,-0.06403087392463735,,-1.3817050294590039,0.03017271733959516,0.14084061221000002,0.08219845784593355,0.004235731492728653,1.1519735030138043,0.0721980772313513
3.3353669131174684,,0.06921811,0.019813094,0.3366056,-0.6962515,-0.024542209,-0.7173782,-0.69183654,-0.24341038,0.6797893,-0.19130084,0.96961284,0.15249564,,-0.23662865,0.1486855,0.17276531,0.2642957,-0.82843995,-0.49379668,-0.892701,-0.40391487,0.19984378,-0.36501035,0.387995,-0.8463022,,0.07905809,-0.029010598,0.24771817,-0.9913443,0.12498067,-0.040204298,0.111674935,0.9637504,0.242309,0.06903084,0.23572181,-0.9693658,,-0.5297949206375498,0.02049613304819185,0.14369504279,0.16481629557883615,-0.0057387329901484995,0.977636704509627,-0.06403087392463735,,-1.3817050294590039,0.03017271733959516,0.14084061221000002,0.08219845784593355,0.004235731492728653,1.1519735030138043,0.0721980772313513
3.3589865860994905,,0.06921735,0.019813422,0.33660626,-0.6962511,-0.024535973,-0.7173789,-0.6918372,-0.2434148,0.679787,-0.19129984,0.9696119,0.15250292,,-0.23662865,0.1486855,0.17276531,0.2642957,-0.82843995,-0.49379668,-0.892701,-0.40391487,0.19984378,-0.36501035,0.387995,-0.8463022,,0.07905809,-0.029010598,0.24771817,-0.9913443,0.12498067,-0.040204298,0.111674935,0.9637504,0.242309,0.06903084,0.23572181,-0.9693658,,-0.5297871979046755,0.02049613304819185,0.14369504279,0.16481629557883615,-0.0057387329901484995,0.977636704509627,-0.06403087392463735,,-1.3817050294590039,0.03017271733959516,0.14084061221000002,0.08219845784593355,0.004235731492728653,1.1519735030138043,0.0721980772313513
3.384470297023654,,0.06921797,0.019814204,0.3366066,-0.69625396,-0.024539452,-0.7173759,-0.6918327,-0.24342003,0.6797896,-0.19130532,0.9696105,0.15250495,,-0.23662865,0.1486855,0.17276531,0.2642957,-0.82843995,-0.49379668,-0.892701,-0.40391487,0.19984378,-0.36501035,0.387995,-0.8463022,,0.07905809,-0.029010598,0.24771817,-0.9913443,0.12498067,-0.040204298,0.111674935,0.9637504,0.242309,0.06903084,0.23572181,-0.9693658,,-0.5297871979046755,0.020503855781066074,0.14369504279,0.16481629557883615,-0.0057387329901484995,0.977636704509627,-0.06403087392463735,,-1.3817050294590039,0.03017271733959516,0.14084061221000002,0.08219845784593355,0.004235731492728653,1.1519735030138043,0.0721980772313513
3.4077205951325595,,0.06921797,0.019814204,0.3366066,-0.69625396,-0.024539452,-0.7173759,-0.6918327,-0.24342003,0.6797896,-0.19130532,0.9696105,0.15250495,,-0.2366238,0.14868686,0.172764,0.2642966,-0.8284437,-0.4937901,-0.8927009,-0.40391377,0.19984604,-0.36500975,0.3879883,-0.84630555,,0.07905809,-0.029010598,0.24771817,-0.9913443,0.12498067,-0.040204298,0.111674935,0.9637504,0.242309,0.06903084,0.23572181,-0.9693658,,-0.5297871979046755,0.020503855781066074,0.14369504279,0.16481629557883615,-0.0057387329901484995,0.977636704509627,-0.06403087392463735,,-1.3817127521918782,0.03017271733959516,0.14084061221000002,0.08219845784593355,0.004235731492728653,1.1519735030138043,0.0721980772313513
