AlexandreBanks6/ExpertPlaybackApp/resources/Motions/Motion_Best2.csv
Time,si_T_psm1,Tx,Ty,Tz,R00,R01,R02,R10,R11,R12,R20,R21,R22,si_T_psm3,Tx,Ty,Tz,R00,R01,R02,R10,R11,R12,R20,R21,R22,si_T_ecm,Tx,Ty,Tz,R00,R01,R02,R10,R11,R12,R20,R21,R22,joint_vars_psm1,q1,q2,q3,q4,q5,q6,jaw,joint_vars_psm3,q1,q2,q3,q4,q5,q6,jaw
lci_T_si
,,-0.05265522,0.061951384,0.44402486,0.9997172,0.01120037,0.020979134,0.013901535,-0.9909661,-0.13339044,0.019295588,0.13364436,-0.9908415
rci_T_si
,,-0.07077262,0.07327331,0.53821594,0.99996483,0.002480815,-0.00801043,0.0012844234,-0.98927796,-0.14603925,-0.008286838,0.14602382,-0.98924637
ecm_T_lc
,,-0.039348,0.051043153,-0.2725159,-0.9888841,-0.12934415,0.07333705,0.13224038,-0.9905602,0.036096916,0.06797584,0.045393787,0.9966537
ecm_T_rc
,,0.010096899,0.19171284,-0.6841031,-0.99695045,-0.013193613,-0.07691395,0.014341901,-0.9997935,-0.014396289,-0.07670814,-0.015455482,0.99693376
0.025929972005542368,,0.026921583,0.039133944,0.3312418,-0.9897999,-0.14202966,-0.011122806,-0.047667928,0.2565972,0.9653423,-0.13425314,0.9560258,-0.26075006,,-0.03071907,0.06903137,0.5841156,0.23614836,-0.7909431,0.56448466,-0.9664897,-0.13100773,0.22075939,-0.10065627,-0.59770054,-0.79537547,,0.0221173,-0.01853196,0.17089692,-0.9889838,0.1191567,0.08782191,0.12692867,0.9879133,0.08897434,-0.076158546,0.09914131,-0.99215454,,-0.30323310630642536,-0.055750408619026734,0.10913335881000001,0.5168857106893525,0.5074679601288459,0.5205170141393822,0.5117569591986969,,-1.492155555026163,-0.22718735569393664,0.07773073356,-0.0052422485871131096,-0.00888137248475363,0.013694784211371807,-0.003103537256551306
0.04924266302259639,,0.026921583,0.039133944,0.3312418,-0.9897999,-0.14202966,-0.011122806,-0.047667928,0.2565972,0.9653423,-0.13425314,0.9560258,-0.26075006,,-0.030719781,0.06903127,0.584115,0.23614979,-0.79099303,0.56441414,-0.96648943,-0.13102914,0.22074771,-0.10065519,-0.5976297,-0.79542875,,0.0221173,-0.01853196,0.17089692,-0.9889838,0.1191567,0.08782191,0.12692867,0.9879133,0.08897434,-0.076158546,0.09914131,-0.99215454,,-0.30323310630642536,-0.055750408619026734,0.10913335881000001,0.5168857106893525,0.5074679601288459,0.5205170141393822,0.5117569591986969,,-1.4921478322932886,-0.22718735569393664,0.07773073356,-0.0052422485871131096,-0.00888137248475363,0.013776462951512369,-0.0029401931904170266
0.07579639001050964,,0.0269207,0.039134618,0.33124292,-0.9898011,-0.14202082,-0.0111282375,-0.04766929,0.2565859,0.9653452,-0.13424377,0.9560301,-0.26073897,,-0.030719781,0.06903127,0.584115,0.23614979,-0.7910391,0.5643495,-0.96648943,-0.13104716,0.22073701,-0.10065519,-0.59756476,-0.79547757,,0.0221173,-0.01853196,0.17089692,-0.9889838,0.1191567,0.08782191,0.12692867,0.9879133,0.08897434,-0.076158546,0.09914131,-0.99215454,,-0.3032176608406769,-0.055750408619026734,0.10913335881000001,0.5168857106893525,0.5074679601288459,0.5205170141393822,0.5117569591986969,,-1.4921478322932886,-0.22718735569393664,0.07773073356,-0.0052422485871131096,-0.00888137248475363,0.013858141691652932,-0.002776849124282747
0.09786586603149772,,0.0269207,0.039134618,0.33124292,-0.9898011,-0.14202082,-0.0111282375,-0.04766929,0.2565859,0.9653452,-0.13424377,0.9560301,-0.26073897,,-0.030719781,0.06903127,0.584115,0.23614979,-0.7910391,0.5643495,-0.96648943,-0.13104716,0.22073701,-0.10065519,-0.59756476,-0.79547757,,0.0221173,-0.01853196,0.17089692,-0.9889838,0.1191567,0.08782191,0.12692867,0.9879133,0.08897434,-0.076158546,0.09914131,-0.99215454,,-0.3032176608406769,-0.055750408619026734,0.10913335881000001,0.5168857106893525,0.5074679601288459,0.5205170141393822,0.5117569591986969,,-1.4921478322932886,-0.22718735569393664,0.07773073356,-0.0052422485871131096,-0.00888137248475363,0.013858141691652932,-0.002776849124282747
0.12553379900055006,,0.026921583,0.039133944,0.3312418,-0.9897999,-0.14202966,-0.011122806,-0.047667928,0.2565972,0.9653423,-0.13425314,0.9560258,-0.26075006,,-0.030719781,0.06903127,0.584115,0.23614979,-0.7910391,0.5643495,-0.96648943,-0.13104716,0.22073701,-0.10065519,-0.59756476,-0.79547757,,0.0221173,-0.01853196,0.17089692,-0.9889838,0.1191567,0.08782191,0.12692867,0.9879133,0.08897434,-0.076158546,0.09914131,-0.99215454,,-0.30323310630642536,-0.055750408619026734,0.10913335881000001,0.5168857106893525,0.5074679601288459,0.5205170141393822,0.5117569591986969,,-1.4921478322932886,-0.22718735569393664,0.07773073356,-0.0052422485871131096,-0.00888137248475363,0.013858141691652932,-0.002776849124282747
0.15278171200770885,,0.026921583,0.039133944,0.3312418,-0.9897999,-0.14202966,-0.011122806,-0.047667928,0.2565972,0.9653423,-0.13425314,0.9560258,-0.26075006,,-0.030719781,0.06903127,0.584115,0.23614979,-0.7910391,0.5643495,-0.96648943,-0.13104716,0.22073701,-0.10065519,-0.59756476,-0.79547757,,0.0221173,-0.01853196,0.17089692,-0.9889838,0.1191567,0.08782191,0.12692867,0.9879133,0.08897434,-0.076158546,0.09914131,-0.99215454,,-0.30323310630642536,-0.055750408619026734,0.10913335881000001,0.5168857106893525,0.5074679601288459,0.5205170141393822,0.5117569591986969,,-1.4921478322932886,-0.22718735569393664,0.07773073356,-0.0052422485871131096,-0.00888137248475363,0.013858141691652932,-0.002776849124282747
0.17942767997737974,,0.026921583,0.039133944,0.3312418,-0.9897999,-0.14202966,-0.011122806,-0.047667928,0.2565972,0.9653423,-0.13425314,0.9560258,-0.26075006,,-0.030719781,0.06903127,0.584115,0.23614979,-0.7910391,0.5643495,-0.96648943,-0.13104716,0.22073701,-0.10065519,-0.59756476,-0.79547757,,0.0221173,-0.01853196,0.17089692,-0.9889838,0.1191567,0.08782191,0.12692867,0.9879133,0.08897434,-0.076158546,0.09914131,-0.99215454,,-0.30323310630642536,-0.055750408619026734,0.10913335881000001,0.5168857106893525,0.5074679601288459,0.5205170141393822,0.5117569591986969,,-1.4921478322932886,-0.22718735569393664,0.07773073356,-0.0052422485871131096,-0.00888137248475363,0.013858141691652932,-0.002776849124282747
0.21752467000624165,,0.026921583,0.039133944,0.3312418,-0.9897999,-0.14202966,-0.011122806,-0.047667928,0.2565972,0.9653423,-0.13425314,0.9560258,-0.26075006,,-0.03071907,0.06903137,0.5841156,0.23614836,-0.7910353,0.5643555,-0.9664897,-0.13104378,0.22073796,-0.10065627,-0.5975706,-0.7954731,,0.0221173,-0.01853196,0.17089692,-0.9889838,0.1191567,0.08782191,0.12692867,0.9879133,0.08897434,-0.076158546,0.09914131,-0.99215454,,-0.30323310630642536,-0.055750408619026734,0.10913335881000001,0.5168857106893525,0.5074679601288459,0.5205170141393822,0.5117569591986969,,-1.492155555026163,-0.22718735569393664,0.07773073356,-0.0052422485871131096,-0.00888137248475363,0.013858141691652932,-0.002776849124282747
0.24502016400219873,,0.026921583,0.039133944,0.3312418,-0.9897999,-0.14202966,-0.011122806,-0.047667928,0.2565972,0.9653423,-0.13425314,0.9560258,-0.26075006,,-0.030719781,0.06903127,0.584115,0.23614979,-0.7910391,0.5643495,-0.96648943,-0.13104716,0.22073701,-0.10065519,-0.59756476,-0.79547757,,0.0221173,-0.01853196,0.17089692,-0.9889838,0.1191567,0.08782191,0.12692867,0.9879133,0.08897434,-0.076158546,0.09914131,-0.99215454,,-0.30323310630642536,-0.055750408619026734,0.10913335881000001,0.5168857106893525,0.5074679601288459,0.5205170141393822,0.5117569591986969,,-1.4921478322932886,-0.22718735569393664,0.07773073356,-0.0052422485871131096,-0.00888137248475363,0.013858141691652932,-0.002776849124282747
0.27174984698649496,,0.026921142,0.039134283,0.33124232,-0.98980045,-0.14202523,-0.011125533,-0.047668606,0.25659153,0.9653437,-0.13424845,0.9560279,-0.2607445,,-0.030718343,0.06903148,0.58411616,0.23614688,-0.7910315,0.56436145,-0.9664899,-0.13104035,0.22073895,-0.10065733,-0.5975764,-0.7954686,,0.0221173,-0.01853196,0.17089692,-0.9889838,0.1191567,0.08782191,0.12692867,0.9879133,0.08897434,-0.076158546,0.09914131,-0.99215454,,-0.30322538357355117,-0.055750408619026734,0.10913335881000001,0.5168857106893525,0.5074679601288459,0.5205170141393822,0.5117569591986969,,-1.492163277759037,-0.22718735569393664,0.07773073356,-0.0052422485871131096,-0.00888137248475363,0.013858141691652932,-0.002776849124282747
0.2988905140082352,,0.026921583,0.039133944,0.3312418,-0.9897999,-0.14202966,-0.011122806,-0.047667928,0.2565972,0.9653423,-0.13425314,0.9560258,-0.26075006,,-0.030718343,0.06903148,0.58411616,0.23614688,-0.7910315,0.56436145,-0.9664899,-0.13104035,0.22073895,-0.10065733,-0.5975764,-0.7954686,,0.0221173,-0.01853196,0.17089692,-0.9889838,0.1191567,0.08782191,0.12692867,0.9879133,0.08897434,-0.076158546,0.09914131,-0.99215454,,-0.30323310630642536,-0.055750408619026734,0.10913335881000001,0.5168857106893525,0.5074679601288459,0.5205170141393822,0.5117569591986969,,-1.492163277759037,-0.22718735569393664,0.07773073356,-0.0052422485871131096,-0.00888137248475363,0.013858141691652932,-0.002776849124282747
0.3263486670330167,,0.026921142,0.039134283,0.33124232,-0.98980045,-0.14202523,-0.011125533,-0.047668606,0.25659153,0.9653437,-0.13424845,0.9560279,-0.2607445,,-0.030718343,0.06903148,0.58411616,0.23614688,-0.7910315,0.56436145,-0.9664899,-0.13104035,0.22073895,-0.10065733,-0.5975764,-0.7954686,,0.0221173,-0.01853196,0.17089692,-0.9889838,0.1191567,0.08782191,0.12692867,0.9879133,0.08897434,-0.076158546,0.09914131,-0.99215454,,-0.30322538357355117,-0.055750408619026734,0.10913335881000001,0.5168857106893525,0.5074679601288459,0.5205170141393822,0.5117569591986969,,-1.492163277759037,-0.22718735569393664,0.07773073356,-0.0052422485871131096,-0.00888137248475363,0.013858141691652932,-0.002776849124282747
0.351314254978206,,0.0269207,0.039134618,0.33124292,-0.9898011,-0.14202082,-0.0111282375,-0.04766929,0.2565859,0.9653452,-0.13424377,0.9560301,-0.26073897,,-0.030718343,0.06903148,0.58411616,0.23614688,-0.7910315,0.56436145,-0.9664899,-0.13104035,0.22073895,-0.10065733,-0.5975764,-0.7954686,,0.0221173,-0.01853196,0.17089692,-0.9889838,0.1191567,0.08782191,0.12692867,0.9879133,0.08897434,-0.076158546,0.09914131,-0.99215454,,-0.3032176608406769,-0.055750408619026734,0.10913335881000001,0.5168857106893525,0.5074679601288459,0.5205170141393822,0.5117569591986969,,-1.492163277759037,-0.22718735569393664,0.07773073356,-0.0052422485871131096,-0.00888137248475363,0.013858141691652932,-0.002776849124282747
0.3764618120039813,,0.0269207,0.039134618,0.33124292,-0.9898011,-0.14202082,-0.0111282375,-0.04766929,0.2565859,0.9653452,-0.13424377,0.9560301,-0.26073897,,-0.030718343,0.06903148,0.58411616,0.23614688,-0.7910315,0.56436145,-0.9664899,-0.13104035,0.22073895,-0.10065733,-0.5975764,-0.7954686,,0.0221173,-0.01853196,0.17089692,-0.9889838,0.1191567,0.08782191,0.12692867,0.9879133,0.08897434,-0.076158546,0.09914131,-0.99215454,,-0.3032176608406769,-0.055750408619026734,0.10913335881000001,0.5168857106893525,0.5074679601288459,0.5205170141393822,0.5117569591986969,,-1.492163277759037,-0.22718735569393664,0.07773073356,-0.0052422485871131096,-0.00888137248475363,0.013858141691652932,-0.002776849124282747
0.4023190860170871,,0.0269207,0.039134618,0.33124292,-0.9898011,-0.14202082,-0.0111282375,-0.04766929,0.2565859,0.9653452,-0.13424377,0.9560301,-0.26073897,,-0.030719781,0.06903127,0.584115,0.23614979,-0.7910391,0.5643495,-0.96648943,-0.13104716,0.22073701,-0.10065519,-0.59756476,-0.79547757,,0.0221173,-0.01853196,0.17089692,-0.9889838,0.1191567,0.08782191,0.12692867,0.9879133,0.08897434,-0.076158546,0.09914131,-0.99215454,,-0.3032176608406769,-0.055750408619026734,0.10913335881000001,0.5168857106893525,0.5074679601288459,0.5205170141393822,0.5117569591986969,,-1.4921478322932886,-0.22718735569393664,0.07773073356,-0.0052422485871131096,-0.00888137248475363,0.013858141691652932,-0.002776849124282747
0.42829827102832496,,0.0269207,0.039134618,0.33124292,-0.9898011,-0.14202082,-0.0111282375,-0.04766929,0.2565859,0.9653452,-0.13424377,0.9560301,-0.26073897,,-0.030719781,0.06903127,0.584115,0.23614979,-0.7910391,0.5643495,-0.96648943,-0.13104716,0.22073701,-0.10065519,-0.59756476,-0.79547757,,0.0221173,-0.01853196,0.17089692,-0.9889838,0.1191567,0.08782191,0.12692867,0.9879133,0.08897434,-0.076158546,0.09914131,-0.99215454,,-0.3032176608406769,-0.055750408619026734,0.10913335881000001,0.5168857106893525,0.5074679601288459,0.5205170141393822,0.5117569591986969,,-1.4921478322932886,-0.22718735569393664,0.07773073356,-0.0052422485871131096,-0.00888137248475363,0.013858141691652932,-0.002776849124282747
0.4534117419971153,,0.0269207,0.039134618,0.33124292,-0.9898011,-0.14202082,-0.0111282375,-0.04766929,0.2565859,0.9653452,-0.13424377,0.9560301,-0.26073897,,-0.030718343,0.06903148,0.58411616,0.23614688,-0.7910315,0.56436145,-0.9664899,-0.13104035,0.22073895,-0.10065733,-0.5975764,-0.7954686,,0.0221173,-0.01853196,0.17089692,-0.9889838,0.1191567,0.08782191,0.12692867,0.9879133,0.08897434,-0.076158546,0.09914131,-0.99215454,,-0.3032176608406769,-0.055750408619026734,0.10913335881000001,0.5168857106893525,0.5074679601288459,0.5205170141393822,0.5117569591986969,,-1.492163277759037,-0.22718735569393664,0.07773073356,-0.0052422485871131096,-0.00888137248475363,0.013858141691652932,-0.002776849124282747
0.47880198701750487,,0.0269207,0.039134618,0.33124292,-0.9898011,-0.14202082,-0.0111282375,-0.04766929,0.2565859,0.9653452,-0.13424377,0.9560301,-0.26073897,,-0.030718343,0.06903148,0.58411616,0.23614688,-0.7910315,0.56436145,-0.9664899,-0.13104035,0.22073895,-0.10065733,-0.5975764,-0.7954686,,0.0221173,-0.01853196,0.17089692,-0.9889838,0.1191567,0.08782191,0.12692867,0.9879133,0.08897434,-0.076158546,0.09914131,-0.99215454,,-0.3032176608406769,-0.055750408619026734,0.10913335881000001,0.5168857106893525,0.5074679601288459,0.5205170141393822,0.5117569591986969,,-1.492163277759037,-0.22718735569393664,0.07773073356,-0.0052422485871131096,-0.00888137248475363,0.013858141691652932,-0.002776849124282747
0.5059319360298105,,0.0269207,0.039134618,0.33124292,-0.9898011,-0.14202082,-0.0111282375,-0.04766929,0.2565859,0.9653452,-0.13424377,0.9560301,-0.26073897,,-0.030718343,0.06903148,0.58411616,0.23614688,-0.7910315,0.56436145,-0.9664899,-0.13104035,0.22073895,-0.10065733,-0.5975764,-0.7954686,,0.0221173,-0.01853196,0.17089692,-0.9889838,0.1191567,0.08782191,0.12692867,0.9879133,0.08897434,-0.076158546,0.09914131,-0.99215454,,-0.3032176608406769,-0.055750408619026734,0.10913335881000001,0.5168857106893525,0.5074679601288459,0.5205170141393822,0.5117569591986969,,-1.492163277759037,-0.22718735569393664,0.07773073356,-0.0052422485871131096,-0.00888137248475363,0.013858141691652932,-0.002776849124282747
0.5272038049879484,,0.0269207,0.039134618,0.33124292,-0.9898011,-0.14202082,-0.0111282375,-0.04766929,0.2565859,0.9653452,-0.13424377,0.9560301,-0.26073897,,-0.030718343,0.06903148,0.58411616,0.23614688,-0.79098535,0.564426,-0.9664899,-0.13102236,0.22074965,-0.10065733,-0.5976413,-0.7954198,,0.0221173,-0.01853196,0.17089692,-0.9889838,0.1191567,0.08782191,0.12692867,0.9879133,0.08897434,-0.076158546,0.09914131,-0.99215454,,-0.3032176608406769,-0.055750408619026734,0.10913335881000001,0.5168857106893525,0.5074679601288459,0.5205170141393822,0.5117569591986969,,-1.492163277759037,-0.22718735569393664,0.07773073356,-0.0052422485871131096,-0.00888137248475363,0.013776462951512369,-0.0029401931904170266
0.5556434729951434,,0.0269207,0.039134618,0.33124292,-0.9898011,-0.14202082,-0.0111282375,-0.04766929,0.2565859,0.9653452,-0.13424377,0.9560301,-0.26073897,,-0.030718343,0.06903148,0.58411616,0.23614688,-0.7909393,0.5644906,-0.9664899,-0.13100433,0.22076035,-0.10065733,-0.5977063,-0.79537106,,0.0221173,-0.01853196,0.17089692,-0.9889838,0.1191567,0.08782191,0.12692867,0.9879133,0.08897434,-0.076158546,0.09914131,-0.99215454,,-0.3032176608406769,-0.055750408619026734,0.10913335881000001,0.5168857106893525,0.5074679601288459,0.5205170141393822,0.5117569591986969,,-1.492163277759037,-0.22718735569393664,0.07773073356,-0.0052422485871131096,-0.00888137248475363,0.013694784211371807,-0.003103537256551306
0.5778635310125537,,0.0269207,0.039134618,0.33124292,-0.9898011,-0.14202082,-0.0111282375,-0.04766929,0.2565859,0.9653452,-0.13424377,0.9560301,-0.26073897,,-0.030718343,0.06903148,0.58411616,0.23614688,-0.7909393,0.5644906,-0.9664899,-0.13100433,0.22076035,-0.10065733,-0.5977063,-0.79537106,,0.0221173,-0.01853196,0.17089692,-0.9889838,0.1191567,0.08782191,0.12692867,0.9879133,0.08897434,-0.076158546,0.09914131,-0.99215454,,-0.3032176608406769,-0.055750408619026734,0.10913335881000001,0.5168857106893525,0.5074679601288459,0.5205170141393822,0.5117569591986969,,-1.492163277759037,-0.22718735569393664,0.07773073356,-0.0052422485871131096,-0.00888137248475363,0.013694784211371807,-0.003103537256551306
0.6078926940099336,,0.0269207,0.039134618,0.33124292,-0.9898011,-0.14202082,-0.0111282375,-0.04766929,0.2565859,0.9653452,-0.13424377,0.9560301,-0.26073897,,-0.030718343,0.06903148,0.58411616,0.23614688,-0.7909393,0.5644906,-0.9664899,-0.13100433,0.22076035,-0.10065733,-0.5977063,-0.79537106,,0.0221173,-0.01853196,0.17089692,-0.9889838,0.1191567,0.08782191,0.12692867,0.9879133,0.08897434,-0.076158546,0.09914131,-0.99215454,,-0.3032176608406769,-0.055750408619026734,0.10913335881000001,0.5168857106893525,0.5074679601288459,0.5205170141393822,0.5117569591986969,,-1.492163277759037,-0.22718735569393664,0.07773073356,-0.0052422485871131096,-0.00888137248475363,0.013694784211371807,-0.003103537256551306
0.6294391410192475,,0.0269207,0.039134618,0.33124292,-0.9898011,-0.14202082,-0.0111282375,-0.04766929,0.2565859,0.9653452,-0.13424377,0.9560301,-0.26073897,,-0.030718343,0.06903148,0.58411616,0.23614688,-0.7909393,0.5644906,-0.9664899,-0.13100433,0.22076035,-0.10065733,-0.5977063,-0.79537106,,0.0221173,-0.01853196,0.17089692,-0.9889838,0.1191567,0.08782191,0.12692867,0.9879133,0.08897434,-0.076158546,0.09914131,-0.99215454,,-0.3032176608406769,-0.055750408619026734,0.10913335881000001,0.5168857106893525,0.5074679601288459,0.5205170141393822,0.5117569591986969,,-1.492163277759037,-0.22718735569393664,0.07773073356,-0.0052422485871131096,-0.00888137248475363,0.013694784211371807,-0.003103537256551306
0.6578821330331266,,0.026921583,0.039133944,0.3312418,-0.9897999,-0.14202966,-0.011122806,-0.047667928,0.2565972,0.9653423,-0.13425314,0.9560258,-0.26075006,,-0.030718343,0.06903148,0.58411616,0.23614688,-0.7909393,0.5644906,-0.9664899,-0.13100433,0.22076035,-0.10065733,-0.5977063,-0.79537106,,0.0221173,-0.01853196,0.17089692,-0.9889838,0.1191567,0.08782191,0.12692867,0.9879133,0.08897434,-0.076158546,0.09914131,-0.99215454,,-0.30323310630642536,-0.055750408619026734,0.10913335881000001,0.5168857106893525,0.5074679601288459,0.5205170141393822,0.5117569591986969,,-1.492163277759037,-0.22718735569393664,0.07773073356,-0.0052422485871131096,-0.00888137248475363,0.013694784211371807,-0.003103537256551306
0.6809570059995167,,0.026921583,0.039133944,0.3312418,-0.9897999,-0.14202966,-0.011122806,-0.047667928,0.2565972,0.9653423,-0.13425314,0.9560258,-0.26075006,,-0.030718343,0.06903148,0.58411616,0.23614688,-0.7909393,0.5644906,-0.9664899,-0.13100433,0.22076035,-0.10065733,-0.5977063,-0.79537106,,0.0221173,-0.01853196,0.17089692,-0.9889838,0.1191567,0.08782191,0.12692867,0.9879133,0.08897434,-0.076158546,0.09914131,-0.99215454,,-0.30323310630642536,-0.055750408619026734,0.10913335881000001,0.5168857106893525,0.5074679601288459,0.5205170141393822,0.5117569591986969,,-1.492163277759037,-0.22718735569393664,0.07773073356,-0.0052422485871131096,-0.00888137248475363,0.013694784211371807,-0.003103537256551306
0.7079217890277505,,0.026921583,0.039133944,0.3312418,-0.9897999,-0.14202966,-0.011122806,-0.047667928,0.2565972,0.9653423,-0.13425314,0.9560258,-0.26075006,,-0.030718343,0.06903148,0.58411616,0.23614688,-0.7909393,0.5644906,-0.9664899,-0.13100433,0.22076035,-0.10065733,-0.5977063,-0.79537106,,0.0221173,-0.01853196,0.17089692,-0.9889838,0.1191567,0.08782191,0.12692867,0.9879133,0.08897434,-0.076158546,0.09914131,-0.99215454,,-0.30323310630642536,-0.055750408619026734,0.10913335881000001,0.5168857106893525,0.5074679601288459,0.5205170141393822,0.5117569591986969,,-1.492163277759037,-0.22718735569393664,0.07773073356,-0.0052422485871131096,-0.00888137248475363,0.013694784211371807,-0.003103537256551306
0.7315283039934002,,0.026921583,0.039133944,0.3312418,-0.9897999,-0.14202966,-0.011122806,-0.047667928,0.2565972,0.9653423,-0.13425314,0.9560258,-0.26075006,,-0.030718343,0.06903148,0.58411616,0.23614688,-0.7909393,0.5644906,-0.9664899,-0.13100433,0.22076035,-0.10065733,-0.5977063,-0.79537106,,0.0221173,-0.01853196,0.17089692,-0.9889838,0.1191567,0.08782191,0.12692867,0.9879133,0.08897434,-0.076158546,0.09914131,-0.99215454,,-0.30323310630642536,-0.055750408619026734,0.10913335881000001,0.5168857106893525,0.5074679601288459,0.5205170141393822,0.5117569591986969,,-1.492163277759037,-0.22718735569393664,0.07773073356,-0.0052422485871131096,-0.00888137248475363,0.013694784211371807,-0.003103537256551306
0.7578250690130517,,0.026921583,0.039133944,0.3312418,-0.9897999,-0.14202966,-0.011122806,-0.047667928,0.2565972,0.9653423,-0.13425314,0.9560258,-0.26075006,,-0.030718343,0.06903148,0.58411616,0.23614688,-0.7909393,0.5644906,-0.9664899,-0.13100433,0.22076035,-0.10065733,-0.5977063,-0.79537106,,0.0221173,-0.01853196,0.17089692,-0.9889838,0.1191567,0.08782191,0.12692867,0.9879133,0.08897434,-0.076158546,0.09914131,-0.99215454,,-0.30323310630642536,-0.055750408619026734,0.10913335881000001,0.5168857106893525,0.5074679601288459,0.5205170141393822,0.5117569591986969,,-1.492163277759037,-0.22718735569393664,0.07773073356,-0.0052422485871131096,-0.00888137248475363,0.013694784211371807,-0.003103537256551306
0.7838575480272993,,0.026921583,0.039133944,0.3312418,-0.9897999,-0.14202966,-0.011122806,-0.047667928,0.2565972,0.9653423,-0.13425314,0.9560258,-0.26075006,,-0.030718343,0.06903148,0.58411616,0.23614688,-0.7909393,0.5644906,-0.9664899,-0.13100433,0.22076035,-0.10065733,-0.5977063,-0.79537106,,0.0221173,-0.01853196,0.17089692,-0.9889838,0.1191567,0.08782191,0.12692867,0.9879133,0.08897434,-0.076158546,0.09914131,-0.99215454,,-0.30323310630642536,-0.055750408619026734,0.10913335881000001,0.5168857106893525,0.5074679601288459,0.5205170141393822,0.5117569591986969,,-1.492163277759037,-0.22718735569393664,0.07773073356,-0.0052422485871131096,-0.00888137248475363,0.013694784211371807,-0.003103537256551306
0.8128705529961735,,0.026921142,0.039134283,0.33124232,-0.98980045,-0.14202523,-0.011125533,-0.047668606,0.25659153,0.9653437,-0.13424845,0.9560279,-0.2607445,,-0.030718343,0.06903148,0.58411616,0.23614688,-0.7909393,0.5644906,-0.9664899,-0.13100433,0.22076035,-0.10065733,-0.5977063,-0.79537106,,0.0221173,-0.01853196,0.17089692,-0.9889838,0.1191567,0.08782191,0.12692867,0.9879133,0.08897434,-0.076158546,0.09914131,-0.99215454,,-0.30322538357355117,-0.055750408619026734,0.10913335881000001,0.5168857106893525,0.5074679601288459,0.5205170141393822,0.5117569591986969,,-1.492163277759037,-0.22718735569393664,0.07773073356,-0.0052422485871131096,-0.00888137248475363,0.013694784211371807,-0.003103537256551306
0.8389243599958718,,0.026921583,0.039133944,0.3312418,-0.9897999,-0.14202966,-0.011122806,-0.047667928,0.2565972,0.9653423,-0.13425314,0.9560258,-0.26075006,,-0.030718343,0.06903148,0.58411616,0.23614688,-0.7909393,0.5644906,-0.9664899,-0.13100433,0.22076035,-0.10065733,-0.5977063,-0.79537106,,0.0221173,-0.01853196,0.17089692,-0.9889838,0.1191567,0.08782191,0.12692867,0.9879133,0.08897434,-0.076158546,0.09914131,-0.99215454,,-0.30323310630642536,-0.055750408619026734,0.10913335881000001,0.5168857106893525,0.5074679601288459,0.5205170141393822,0.5117569591986969,,-1.492163277759037,-0.22718735569393664,0.07773073356,-0.0052422485871131096,-0.00888137248475363,0.013694784211371807,-0.003103537256551306
0.8618646140093915,,0.026921583,0.039133944,0.3312418,-0.9897999,-0.14202966,-0.011122806,-0.047667928,0.2565972,0.9653423,-0.13425314,0.9560258,-0.26075006,,-0.030718343,0.06903148,0.58411616,0.23614688,-0.7909393,0.5644906,-0.9664899,-0.13100433,0.22076035,-0.10065733,-0.5977063,-0.79537106,,0.0221173,-0.01853196,0.17089692,-0.9889838,0.1191567,0.08782191,0.12692867,0.9879133,0.08897434,-0.076158546,0.09914131,-0.99215454,,-0.30323310630642536,-0.055750408619026734,0.10913335881000001,0.5168857106893525,0.5074679601288459,0.5205170141393822,0.5117569591986969,,-1.492163277759037,-0.22718735569393664,0.07773073356,-0.0052422485871131096,-0.00888137248475363,0.013694784211371807,-0.003103537256551306
0.8919342129956931,,0.026921583,0.039133944,0.3312418,-0.9897999,-0.14202966,-0.011122806,-0.047667928,0.2565972,0.9653423,-0.13425314,0.9560258,-0.26075006,,-0.030718343,0.06903148,0.58411616,0.23614688,-0.7909393,0.5644906,-0.9664899,-0.13100433,0.22076035,-0.10065733,-0.5977063,-0.79537106,,0.0221173,-0.01853196,0.17089692,-0.9889838,0.1191567,0.08782191,0.12692867,0.9879133,0.08897434,-0.076158546,0.09914131,-0.99215454,,-0.30323310630642536,-0.055750408619026734,0.10913335881000001,0.5168857106893525,0.5074679601288459,0.5205170141393822,0.5117569591986969,,-1.492163277759037,-0.22718735569393664,0.07773073356,-0.0052422485871131096,-0.00888137248475363,0.013694784211371807,-0.003103537256551306
0.9202343910001218,,0.0269207,0.039134618,0.33124292,-0.9898011,-0.14202082,-0.0111282375,-0.04766929,0.2565859,0.9653452,-0.13424377,0.9560301,-0.26073897,,-0.030718343,0.06903148,0.58411616,0.23614688,-0.7909393,0.5644906,-0.9664899,-0.13100433,0.22076035,-0.10065733,-0.5977063,-0.79537106,,0.0221173,-0.01853196,0.17089692,-0.9889838,0.1191567,0.08782191,0.12692867,0.9879133,0.08897434,-0.076158546,0.09914131,-0.99215454,,-0.3032176608406769,-0.055750408619026734,0.10913335881000001,0.5168857106893525,0.5074679601288459,0.5205170141393822,0.5117569591986969,,-1.492163277759037,-0.22718735569393664,0.07773073356,-0.0052422485871131096,-0.00888137248475363,0.013694784211371807,-0.003103537256551306
0.9439262539963238,,0.0269207,0.039134618,0.33124292,-0.9898011,-0.14202082,-0.0111282375,-0.04766929,0.2565859,0.9653452,-0.13424377,0.9560301,-0.26073897,,-0.030718343,0.06903148,0.58411616,0.23614688,-0.7909393,0.5644906,-0.9664899,-0.13100433,0.22076035,-0.10065733,-0.5977063,-0.79537106,,0.0221173,-0.01853196,0.17089692,-0.9889838,0.1191567,0.08782191,0.12692867,0.9879133,0.08897434,-0.076158546,0.09914131,-0.99215454,,-0.3032176608406769,-0.055750408619026734,0.10913335881000001,0.5168857106893525,0.5074679601288459,0.5205170141393822,0.5117569591986969,,-1.492163277759037,-0.22718735569393664,0.07773073356,-0.0052422485871131096,-0.00888137248475363,0.013694784211371807,-0.003103537256551306
0.9701021020300686,,0.026921583,0.039133944,0.3312418,-0.9897999,-0.14202966,-0.011122806,-0.047667928,0.2565972,0.9653423,-0.13425314,0.9560258,-0.26075006,,-0.030718343,0.06903148,0.58411616,0.23614688,-0.7909393,0.5644906,-0.9664899,-0.13100433,0.22076035,-0.10065733,-0.5977063,-0.79537106,,0.0221173,-0.01853196,0.17089692,-0.9889838,0.1191567,0.08782191,0.12692867,0.9879133,0.08897434,-0.076158546,0.09914131,-0.99215454,,-0.30323310630642536,-0.055750408619026734,0.10913335881000001,0.5168857106893525,0.5074679601288459,0.5205170141393822,0.5117569591986969,,-1.492163277759037,-0.22718735569393664,0.07773073356,-0.0052422485871131096,-0.00888137248475363,0.013694784211371807,-0.003103537256551306
0.9925049520097673,,0.026921583,0.039133944,0.3312418,-0.9897999,-0.14202966,-0.011122806,-0.047667928,0.2565972,0.9653423,-0.13425314,0.9560258,-0.26075006,,-0.030718343,0.06903148,0.58411616,0.23614688,-0.7909393,0.5644906,-0.9664899,-0.13100433,0.22076035,-0.10065733,-0.5977063,-0.79537106,,0.0221173,-0.01853196,0.17089692,-0.9889838,0.1191567,0.08782191,0.12692867,0.9879133,0.08897434,-0.076158546,0.09914131,-0.99215454,,-0.30323310630642536,-0.055750408619026734,0.10913335881000001,0.5168857106893525,0.5074679601288459,0.5205170141393822,0.5117569591986969,,-1.492163277759037,-0.22718735569393664,0.07773073356,-0.0052422485871131096,-0.00888137248475363,0.013694784211371807,-0.003103537256551306
1.0212838930310681,,0.026921583,0.039133944,0.3312418,-0.9897999,-0.14202966,-0.011122806,-0.047667928,0.2565972,0.9653423,-0.13425314,0.9560258,-0.26075006,,-0.030718343,0.06903148,0.58411616,0.23614688,-0.7909393,0.5644906,-0.9664899,-0.13100433,0.22076035,-0.10065733,-0.5977063,-0.79537106,,0.0221173,-0.01853196,0.17089692,-0.9889838,0.1191567,0.08782191,0.12692867,0.9879133,0.08897434,-0.076158546,0.09914131,-0.99215454,,-0.30323310630642536,-0.055750408619026734,0.10913335881000001,0.5168857106893525,0.5074679601288459,0.5205170141393822,0.5117569591986969,,-1.492163277759037,-0.22718735569393664,0.07773073356,-0.0052422485871131096,-0.00888137248475363,0.013694784211371807,-0.003103537256551306
1.0455775710288435,,0.026921583,0.039133944,0.3312418,-0.9897999,-0.14202966,-0.011122806,-0.047667928,0.2565972,0.9653423,-0.13425314,0.9560258,-0.26075006,,-0.030718343,0.06903148,0.58411616,0.23614688,-0.79098535,0.564426,-0.9664899,-0.13102236,0.22074965,-0.10065733,-0.5976413,-0.7954198,,0.0221173,-0.01853196,0.17089692,-0.9889838,0.1191567,0.08782191,0.12692867,0.9879133,0.08897434,-0.076158546,0.09914131,-0.99215454,,-0.30323310630642536,-0.055750408619026734,0.10913335881000001,0.5168857106893525,0.5074679601288459,0.5205170141393822,0.5117569591986969,,-1.492163277759037,-0.22718735569393664,0.07773073356,-0.0052422485871131096,-0.00888137248475363,0.013776462951512369,-0.0029401931904170266
1.0757622940000147,,0.026921583,0.039133944,0.3312418,-0.9897999,-0.14202966,-0.011122806,-0.047667928,0.2565972,0.9653423,-0.13425314,0.9560258,-0.26075006,,-0.030718343,0.06903148,0.58411616,0.23614688,-0.7910315,0.56436145,-0.9664899,-0.13104035,0.22073895,-0.10065733,-0.5975764,-0.7954686,,0.0221173,-0.01853196,0.17089692,-0.9889838,0.1191567,0.08782191,0.12692867,0.9879133,0.08897434,-0.076158546,0.09914131,-0.99215454,,-0.30323310630642536,-0.055750408619026734,0.10913335881000001,0.5168857106893525,0.5074679601288459,0.5205170141393822,0.5117569591986969,,-1.492163277759037,-0.22718735569393664,0.07773073356,-0.0052422485871131096,-0.00888137248475363,0.013858141691652932,-0.002776849124282747
1.1036496610031463,,0.026908245,0.039140396,0.33124387,-0.98979855,-0.1420411,-0.01110358,-0.047656294,0.25662625,0.96533513,-0.13426779,0.95601624,-0.26077738,,-0.030744938,0.06901856,0.5841242,0.23610774,-0.7910288,0.5643818,-0.96649945,-0.13100463,0.22071859,-0.100658104,-0.59758794,-0.79545987,,0.022121256,-0.018532235,0.1708901,-0.9889864,0.11913775,0.08781968,0.12690952,0.98791575,0.088974655,-0.07615821,0.09913988,-0.9921547,,-0.30323310630642536,-0.055750408619026734,0.10913335881000001,0.5168857106893525,0.5074679601288459,0.5205170141393822,0.5117569591986969,,-1.492163277759037,-0.22718735569393664,0.07773073356,-0.0052422485871131096,-0.00888137248475363,0.013858141691652932,-0.002776849124282747
1.127773760992568,,0.026908245,0.039140396,0.33124387,-0.98979855,-0.1420411,-0.01110358,-0.047656294,0.25662625,0.96533513,-0.13426779,0.95601624,-0.26077738,,-0.030744938,0.06901856,0.5841242,0.23610774,-0.7910288,0.5643818,-0.96649945,-0.13100463,0.22071859,-0.100658104,-0.59758794,-0.79545987,,0.022121256,-0.018532235,0.1708901,-0.9889864,0.11913775,0.08781968,0.12690952,0.98791575,0.088974655,-0.07615821,0.09913988,-0.9921547,,-0.30323310630642536,-0.055750408619026734,0.10913335881000001,0.5168857106893525,0.5074679601288459,0.5205170141393822,0.5117569591986969,,-1.492163277759037,-0.22718735569393664,0.07773073356,-0.0052422485871131096,-0.00888137248475363,0.013858141691652932,-0.002776849124282747
1.1583137040142901,,0.026908245,0.039140396,0.33124387,-0.98979855,-0.1420411,-0.01110358,-0.047656294,0.25662625,0.96533513,-0.13426779,0.95601624,-0.26077738,,-0.030744938,0.06901856,0.5841242,0.23610774,-0.7910288,0.5643818,-0.96649945,-0.13100463,0.22071859,-0.100658104,-0.59758794,-0.79545987,,0.022121256,-0.018532235,0.1708901,-0.9889864,0.11913775,0.08781968,0.12690952,0.98791575,0.088974655,-0.07615821,0.09913988,-0.9921547,,-0.30323310630642536,-0.055750408619026734,0.10913335881000001,0.5168857106893525,0.5074679601288459,0.5205170141393822,0.5117569591986969,,-1.492163277759037,-0.22718735569393664,0.07773073356,-0.0052422485871131096,-0.00888137248475363,0.013858141691652932,-0.002776849124282747
1.179492941009812,,0.026908245,0.039140396,0.33124387,-0.98979855,-0.1420411,-0.01110358,-0.047656294,0.25662625,0.96533513,-0.13426779,0.95601624,-0.26077738,,-0.030744938,0.06901856,0.5841242,0.23610774,-0.7910288,0.5643818,-0.96649945,-0.13100463,0.22071859,-0.100658104,-0.59758794,-0.79545987,,0.022121256,-0.018532235,0.1708901,-0.9889864,0.11913775,0.08781968,0.12690952,0.98791575,0.088974655,-0.07615821,0.09913988,-0.9921547,,-0.30323310630642536,-0.055750408619026734,0.10913335881000001,0.5168857106893525,0.5074679601288459,0.5205170141393822,0.5117569591986969,,-1.492163277759037,-0.22718735569393664,0.07773073356,-0.0052422485871131096,-0.00888137248475363,0.013858141691652932,-0.002776849124282747
1.2078644760185853,,0.026908245,0.039140396,0.33124387,-0.98979855,-0.1420411,-0.01110358,-0.047656294,0.25662625,0.96533513,-0.13426779,0.95601624,-0.26077738,,-0.030744938,0.06901856,0.5841242,0.23610774,-0.7910288,0.5643818,-0.96649945,-0.13100463,0.22071859,-0.100658104,-0.59758794,-0.79545987,,0.022121256,-0.018532235,0.1708901,-0.9889864,0.11913775,0.08781968,0.12690952,0.98791575,0.088974655,-0.07615821,0.09913988,-0.9921547,,-0.30323310630642536,-0.055750408619026734,0.10913335881000001,0.5168857106893525,0.5074679601288459,0.5205170141393822,0.5117569591986969,,-1.492163277759037,-0.22718735569393664,0.07773073356,-0.0052422485871131096,-0.00888137248475363,0.013858141691652932,-0.002776849124282747
1.2300705980160274,,0.026908245,0.039140396,0.33124387,-0.98979855,-0.1420411,-0.01110358,-0.047656294,0.25662625,0.96533513,-0.13426779,0.95601624,-0.26077738,,-0.030744938,0.06901856,0.5841242,0.23610774,-0.7910288,0.5643818,-0.96649945,-0.13100463,0.22071859,-0.100658104,-0.59758794,-0.79545987,,0.022121256,-0.018532235,0.1708901,-0.9889864,0.11913775,0.08781968,0.12690952,0.98791575,0.088974655,-0.07615821,0.09913988,-0.9921547,,-0.30323310630642536,-0.055750408619026734,0.10913335881000001,0.5168857106893525,0.5074679601288459,0.5205170141393822,0.5117569591986969,,-1.492163277759037,-0.22718735569393664,0.07773073356,-0.0052422485871131096,-0.00888137248475363,0.013858141691652932,-0.002776849124282747
1.2598982109921053,,0.026908245,0.039140396,0.33124387,-0.98979855,-0.1420411,-0.01110358,-0.047656294,0.25662625,0.96533513,-0.13426779,0.95601624,-0.26077738,,-0.030744938,0.06901856,0.5841242,0.23610774,-0.7910288,0.5643818,-0.96649945,-0.13100463,0.22071859,-0.100658104,-0.59758794,-0.79545987,,0.022121256,-0.018532235,0.1708901,-0.9889864,0.11913775,0.08781968,0.12690952,0.98791575,0.088974655,-0.07615821,0.09913988,-0.9921547,,-0.30323310630642536,-0.055750408619026734,0.10913335881000001,0.5168857106893525,0.5074679601288459,0.5205170141393822,0.5117569591986969,,-1.492163277759037,-0.22718735569393664,0.07773073356,-0.0052422485871131096,-0.00888137248475363,0.013858141691652932,-0.002776849124282747
1.286399134027306,,0.026908245,0.039140396,0.33124387,-0.98979855,-0.1420411,-0.01110358,-0.047656294,0.25662625,0.96533513,-0.13426779,0.95601624,-0.26077738,,-0.030744938,0.06901856,0.5841242,0.23610774,-0.7910288,0.5643818,-0.96649945,-0.13100463,0.22071859,-0.100658104,-0.59758794,-0.79545987,,0.022121256,-0.018532235,0.1708901,-0.9889864,0.11913775,0.08781968,0.12690952,0.98791575,0.088974655,-0.07615821,0.09913988,-0.9921547,,-0.30323310630642536,-0.055750408619026734,0.10913335881000001,0.5168857106893525,0.5074679601288459,0.5205170141393822,0.5117569591986969,,-1.492163277759037,-0.22718735569393664,0.07773073356,-0.0052422485871131096,-0.00888137248475363,0.013858141691652932,-0.002776849124282747
1.3105039710062556,,0.026908245,0.039140396,0.33124387,-0.98979855,-0.1420411,-0.01110358,-0.047656294,0.25662625,0.96533513,-0.13426779,0.95601624,-0.26077738,,-0.030744938,0.06901856,0.5841242,0.23610774,-0.7910288,0.5643818,-0.96649945,-0.13100463,0.22071859,-0.100658104,-0.59758794,-0.79545987,,0.022121256,-0.018532235,0.1708901,-0.9889864,0.11913775,0.08781968,0.12690952,0.98791575,0.088974655,-0.07615821,0.09913988,-0.9921547,,-0.30323310630642536,-0.055750408619026734,0.10913335881000001,0.5168857106893525,0.5074679601288459,0.5205170141393822,0.5117569591986969,,-1.492163277759037,-0.22718735569393664,0.07773073356,-0.0052422485871131096,-0.00888137248475363,0.013858141691652932,-0.002776849124282747
1.3363506000023335,,0.026908245,0.039140396,0.33124387,-0.98979855,-0.1420411,-0.01110358,-0.047656294,0.25662625,0.96533513,-0.13426779,0.95601624,-0.26077738,,-0.030744938,0.06901856,0.5841242,0.23610774,-0.7910288,0.5643818,-0.96649945,-0.13100463,0.22071859,-0.100658104,-0.59758794,-0.79545987,,0.022121256,-0.018532235,0.1708901,-0.9889864,0.11913775,0.08781968,0.12690952,0.98791575,0.088974655,-0.07615821,0.09913988,-0.9921547,,-0.30323310630642536,-0.055750408619026734,0.10913335881000001,0.5168857106893525,0.5074679601288459,0.5205170141393822,0.5117569591986969,,-1.492163277759037,-0.22718735569393664,0.07773073356,-0.0052422485871131096,-0.00888137248475363,0.013858141691652932,-0.002776849124282747
1.3613188890158199,,0.026908245,0.039140396,0.33124387,-0.98979855,-0.1420411,-0.01110358,-0.047656294,0.25662625,0.96533513,-0.13426779,0.95601624,-0.26077738,,-0.030744938,0.06901856,0.5841242,0.23610774,-0.7910288,0.5643818,-0.96649945,-0.13100463,0.22071859,-0.100658104,-0.59758794,-0.79545987,,0.022121256,-0.018532235,0.1708901,-0.9889864,0.11913775,0.08781968,0.12690952,0.98791575,0.088974655,-0.07615821,0.09913988,-0.9921547,,-0.30323310630642536,-0.055750408619026734,0.10913335881000001,0.5168857106893525,0.5074679601288459,0.5205170141393822,0.5117569591986969,,-1.492163277759037,-0.22718735569393664,0.07773073356,-0.0052422485871131096,-0.00888137248475363,0.013858141691652932,-0.002776849124282747
1.3921024579904042,,0.026908245,0.039140396,0.33124387,-0.98979855,-0.1420411,-0.01110358,-0.047656294,0.25662625,0.96533513,-0.13426779,0.95601624,-0.26077738,,-0.030745665,0.06901845,0.5841237,0.23610914,-0.7910325,0.5643759,-0.9664992,-0.13100803,0.22071761,-0.100657046,-0.59758216,-0.7954643,,0.022121256,-0.018532235,0.1708901,-0.9889864,0.11913775,0.08781968,0.12690952,0.98791575,0.088974655,-0.07615821,0.09913988,-0.9921547,,-0.30323310630642536,-0.055750408619026734,0.10913335881000001,0.5168857106893525,0.5074679601288459,0.5205170141393822,0.5117569591986969,,-1.492155555026163,-0.22718735569393664,0.07773073356,-0.0052422485871131096,-0.00888137248475363,0.013858141691652932,-0.002776849124282747
1.4169761440134607,,0.026908245,0.039140396,0.33124387,-0.98979855,-0.1420411,-0.01110358,-0.047656294,0.25662625,0.96533513,-0.13426779,0.95601624,-0.26077738,,-0.030744938,0.06901856,0.5841242,0.23610774,-0.7910288,0.5643818,-0.96649945,-0.13100463,0.22071859,-0.100658104,-0.59758794,-0.79545987,,0.022121256,-0.018532235,0.1708901,-0.9889864,0.11913775,0.08781968,0.12690952,0.98791575,0.088974655,-0.07615821,0.09913988,-0.9921547,,-0.30323310630642536,-0.055750408619026734,0.10913335881000001,0.5168857106893525,0.5074679601288459,0.5205170141393822,0.5117569591986969,,-1.492163277759037,-0.22718735569393664,0.07773073356,-0.0052422485871131096,-0.00888137248475363,0.013858141691652932,-0.002776849124282747
1.442600490001496,,0.026907805,0.039140735,0.3312444,-0.98979914,-0.14203668,-0.011106292,-0.047656987,0.25662062,0.96533656,-0.1342631,0.95601845,-0.26077184,,-0.030744938,0.06901856,0.5841242,0.23610774,-0.7910288,0.5643818,-0.96649945,-0.13100463,0.22071859,-0.100658104,-0.59758794,-0.79545987,,0.022121256,-0.018532235,0.1708901,-0.9889864,0.11913775,0.08781968,0.12690952,0.98791575,0.088974655,-0.07615821,0.09913988,-0.9921547,,-0.30322538357355117,-0.055750408619026734,0.10913335881000001,0.5168857106893525,0.5074679601288459,0.5205170141393822,0.5117569591986969,,-1.492163277759037,-0.22718735569393664,0.07773073356,-0.0052422485871131096,-0.00888137248475363,0.013858141691652932,-0.002776849124282747
1.4713534790207632,,0.026907358,0.039141063,0.33124495,-0.98979974,-0.14203225,-0.011109,-0.047657672,0.25661495,0.96533805,-0.13425842,0.9560206,-0.26076627,,-0.030744938,0.06901856,0.5841242,0.23610774,-0.7910288,0.5643818,-0.96649945,-0.13100463,0.22071859,-0.100658104,-0.59758794,-0.79545987,,0.022121256,-0.018532235,0.1708901,-0.9889864,0.11913775,0.08781968,0.12690952,0.98791575,0.088974655,-0.07615821,0.09913988,-0.9921547,,-0.3032176608406769,-0.055750408619026734,0.10913335881000001,0.5168857106893525,0.5074679601288459,0.5205170141393822,0.5117569591986969,,-1.492163277759037,-0.22718735569393664,0.07773073356,-0.0052422485871131096,-0.00888137248475363,0.013858141691652932,-0.002776849124282747
1.494431302009616,,0.026908245,0.039140396,0.33124387,-0.98979855,-0.1420411,-0.01110358,-0.047656294,0.25662625,0.96533513,-0.13426779,0.95601624,-0.26077738,,-0.030744938,0.06901856,0.5841242,0.23610774,-0.7910288,0.5643818,-0.96649945,-0.13100463,0.22071859,-0.100658104,-0.59758794,-0.79545987,,0.022121256,-0.018532235,0.1708901,-0.9889864,0.11913775,0.08781968,0.12690952,0.98791575,0.088974655,-0.07615821,0.09913988,-0.9921547,,-0.30323310630642536,-0.055750408619026734,0.10913335881000001,0.5168857106893525,0.5074679601288459,0.5205170141393822,0.5117569591986969,,-1.492163277759037,-0.22718735569393664,0.07773073356,-0.0052422485871131096,-0.00888137248475363,0.013858141691652932,-0.002776849124282747
1.521411658031866,,0.026908245,0.039140396,0.33124387,-0.98979855,-0.1420411,-0.01110358,-0.047656294,0.25662625,0.96533513,-0.13426779,0.95601624,-0.26077738,,-0.030744938,0.06901856,0.5841242,0.23610774,-0.7910288,0.5643818,-0.96649945,-0.13100463,0.22071859,-0.100658104,-0.59758794,-0.79545987,,0.022121256,-0.018532235,0.1708901,-0.9889864,0.11913775,0.08781968,0.12690952,0.98791575,0.088974655,-0.07615821,0.09913988,-0.9921547,,-0.30323310630642536,-0.055750408619026734,0.10913335881000001,0.5168857106893525,0.5074679601288459,0.5205170141393822,0.5117569591986969,,-1.492163277759037,-0.22718735569393664,0.07773073356,-0.0052422485871131096,-0.00888137248475363,0.013858141691652932,-0.002776849124282747
1.5452579089906067,,0.026908245,0.039140396,0.33124387,-0.98979855,-0.1420411,-0.01110358,-0.047656294,0.25662625,0.96533513,-0.13426779,0.95601624,-0.26077738,,-0.030744938,0.06901856,0.5841242,0.23610774,-0.7910288,0.5643818,-0.96649945,-0.13100463,0.22071859,-0.100658104,-0.59758794,-0.79545987,,0.022121256,-0.018532235,0.1708901,-0.9889864,0.11913775,0.08781968,0.12690952,0.98791575,0.088974655,-0.07615821,0.09913988,-0.9921547,,-0.30323310630642536,-0.055750408619026734,0.10913335881000001,0.5168857106893525,0.5074679601288459,0.5205170141393822,0.5117569591986969,,-1.492163277759037,-0.22718735569393664,0.07773073356,-0.0052422485871131096,-0.00888137248475363,0.013858141691652932,-0.002776849124282747
1.5753693570150062,,0.026908245,0.039140396,0.33124387,-0.98979855,-0.1420411,-0.01110358,-0.047656294,0.25662625,0.96533513,-0.13426779,0.95601624,-0.26077738,,-0.030744938,0.06901856,0.5841242,0.23610774,-0.7910288,0.5643818,-0.96649945,-0.13100463,0.22071859,-0.100658104,-0.59758794,-0.79545987,,0.022121256,-0.018532235,0.1708901,-0.9889864,0.11913775,0.08781968,0.12690952,0.98791575,0.088974655,-0.07615821,0.09913988,-0.9921547,,-0.30323310630642536,-0.055750408619026734,0.10913335881000001,0.5168857106893525,0.5074679601288459,0.5205170141393822,0.5117569591986969,,-1.492163277759037,-0.22718735569393664,0.07773073356,-0.0052422485871131096,-0.00888137248475363,0.013858141691652932,-0.002776849124282747
1.6013465729774907,,0.026908245,0.039140396,0.33124387,-0.98979855,-0.1420411,-0.01110358,-0.047656294,0.25662625,0.96533513,-0.13426779,0.95601624,-0.26077738,,-0.030744938,0.06901856,0.5841242,0.23610774,-0.7910288,0.5643818,-0.96649945,-0.13100463,0.22071859,-0.100658104,-0.59758794,-0.79545987,,0.022121256,-0.018532235,0.1708901,-0.9889864,0.11913775,0.08781968,0.12690952,0.98791575,0.088974655,-0.07615821,0.09913988,-0.9921547,,-0.30323310630642536,-0.055750408619026734,0.10913335881000001,0.5168857106893525,0.5074679601288459,0.5205170141393822,0.5117569591986969,,-1.492163277759037,-0.22718735569393664,0.07773073356,-0.0052422485871131096,-0.00888137248475363,0.013858141691652932,-0.002776849124282747
1.6274306619889103,,0.026908245,0.039140396,0.33124387,-0.98979855,-0.14203927,-0.011126783,-0.047656294,0.25646856,0.96537703,-0.13426779,0.9560589,-0.2606212,,-0.030746387,0.069018334,0.58412313,0.23611058,-0.7910364,0.5643699,-0.966499,-0.13101141,0.22071664,-0.10065597,-0.5975764,-0.7954688,,0.022121256,-0.018532235,0.1708901,-0.9889864,0.11913775,0.08781968,0.12690952,0.98791575,0.088974655,-0.07615821,0.09913988,-0.9921547,,-0.30323310630642536,-0.055750408619026734,0.10913335881000001,0.5168857106893525,0.5074679601288459,0.5206803716196634,0.5120836473309655,,-1.4921478322932886,-0.22718735569393664,0.07773073356,-0.0052422485871131096,-0.00888137248475363,0.013858141691652932,-0.002776849124282747
1.657211129029747,,0.026908245,0.039140396,0.33124387,-0.98979855,-0.14203927,-0.011126783,-0.047656294,0.25646856,0.96537703,-0.13426779,0.9560589,-0.2606212,,-0.030746387,0.069018334,0.58412313,0.23611058,-0.79099023,0.5644345,-0.966499,-0.13099343,0.22072735,-0.10065597,-0.5976413,-0.79542,,0.022121256,-0.018532235,0.1708901,-0.9889864,0.11913775,0.08781968,0.12690952,0.98791575,0.088974655,-0.07615821,0.09913988,-0.9921547,,-0.30323310630642536,-0.055750408619026734,0.10913335881000001,0.5168857106893525,0.5074679601288459,0.5206803716196634,0.5120836473309655,,-1.4921478322932886,-0.22718735569393664,0.07773073356,-0.0052422485871131096,-0.00888137248475363,0.013776462951512369,-0.0029401931904170266
1.680468246981036,,0.026907805,0.039140735,0.3312444,-0.98979914,-0.14203486,-0.011129491,-0.047656987,0.25646293,0.9653785,-0.1342631,0.956061,-0.26061565,,-0.030746387,0.069018334,0.58412313,0.23611058,-0.79094416,0.56449914,-0.966499,-0.1309754,0.22073804,-0.10065597,-0.59770626,-0.7953712,,0.022121256,-0.018532235,0.1708901,-0.9889864,0.11913775,0.08781968,0.12690952,0.98791575,0.088974655,-0.07615821,0.09913988,-0.9921547,,-0.30322538357355117,-0.055750408619026734,0.10913335881000001,0.5168857106893525,0.5074679601288459,0.5206803716196634,0.5120836473309655,,-1.4921478322932886,-0.22718735569393664,0.07773073356,-0.0052422485871131096,-0.00888137248475363,0.013694784211371807,-0.003103537256551306
1.7073128040065058,,0.026908245,0.039140396,0.33124387,-0.98979855,-0.14203927,-0.011126783,-0.047656294,0.25646856,0.96537703,-0.13426779,0.9560589,-0.2606212,,-0.030746387,0.069018334,0.58412313,0.23611058,-0.79094416,0.56449914,-0.966499,-0.1309754,0.22073804,-0.10065597,-0.59770626,-0.7953712,,0.022121256,-0.018532235,0.1708901,-0.9889864,0.11913775,0.08781968,0.12690952,0.98791575,0.088974655,-0.07615821,0.09913988,-0.9921547,,-0.30323310630642536,-0.055750408619026734,0.10913335881000001,0.5168857106893525,0.5074679601288459,0.5206803716196634,0.5120836473309655,,-1.4921478322932886,-0.22718735569393664,0.07773073356,-0.0052422485871131096,-0.00888137248475363,0.013694784211371807,-0.003103537256551306
1.7338714330107905,,0.026908245,0.039140396,0.33124387,-0.98979855,-0.14203927,-0.011126783,-0.047656294,0.25646856,0.96537703,-0.13426779,0.9560589,-0.2606212,,-0.030744938,0.06901856,0.5841242,0.23610774,-0.79093647,0.564511,-0.96649945,-0.13096857,0.22073999,-0.100658104,-0.5977179,-0.79536223,,0.022121256,-0.018532235,0.1708901,-0.9889864,0.11913775,0.08781968,0.12690952,0.98791575,0.088974655,-0.07615821,0.09913988,-0.9921547,,-0.30323310630642536,-0.055750408619026734,0.10913335881000001,0.5168857106893525,0.5074679601288459,0.5206803716196634,0.5120836473309655,,-1.492163277759037,-0.22718735569393664,0.07773073356,-0.0052422485871131096,-0.00888137248475363,0.013694784211371807,-0.003103537256551306
1.7617240950348787,,0.026908245,0.039140396,0.33124387,-0.98979855,-0.14203927,-0.011126783,-0.047656294,0.25646856,0.96537703,-0.13426779,0.9560589,-0.2606212,,-0.030744938,0.06901856,0.5841242,0.23610774,-0.79093647,0.564511,-0.96649945,-0.13096857,0.22073999,-0.100658104,-0.5977179,-0.79536223,,0.022121256,-0.018532235,0.1708901,-0.9889864,0.11913775,0.08781968,0.12690952,0.98791575,0.088974655,-0.07615821,0.09913988,-0.9921547,,-0.30323310630642536,-0.055750408619026734,0.10913335881000001,0.5168857106893525,0.5074679601288459,0.5206803716196634,0.5120836473309655,,-1.492163277759037,-0.22718735569393664,0.07773073356,-0.0052422485871131096,-0.00888137248475363,0.013694784211371807,-0.003103537256551306
1.7865091339917853,,0.026908245,0.039140396,0.33124387,-0.98979855,-0.14203927,-0.011126783,-0.047656294,0.25646856,0.96537703,-0.13426779,0.9560589,-0.2606212,,-0.030744938,0.06901856,0.5841242,0.23610774,-0.79093647,0.564511,-0.96649945,-0.13096857,0.22073999,-0.100658104,-0.5977179,-0.79536223,,0.022121256,-0.018532235,0.1708901,-0.9889864,0.11913775,0.08781968,0.12690952,0.98791575,0.088974655,-0.07615821,0.09913988,-0.9921547,,-0.30323310630642536,-0.055750408619026734,0.10913335881000001,0.5168857106893525,0.5074679601288459,0.5206803716196634,0.5120836473309655,,-1.492163277759037,-0.22718735569393664,0.07773073356,-0.0052422485871131096,-0.00888137248475363,0.013694784211371807,-0.003103537256551306
1.8141588629805483,,0.026908245,0.039140396,0.33124387,-0.98979855,-0.14203927,-0.011126783,-0.047656294,0.25646856,0.96537703,-0.13426779,0.9560589,-0.2606212,,-0.030745665,0.06901845,0.5841237,0.23610914,-0.79094034,0.5645051,-0.9664992,-0.13097197,0.220739,-0.100657046,-0.59771204,-0.7953667,,0.022121256,-0.018532235,0.1708901,-0.9889864,0.11913775,0.08781968,0.12690952,0.98791575,0.088974655,-0.07615821,0.09913988,-0.9921547,,-0.30323310630642536,-0.055750408619026734,0.10913335881000001,0.5168857106893525,0.5074679601288459,0.5206803716196634,0.5120836473309655,,-1.492155555026163,-0.22718735569393664,0.07773073356,-0.0052422485871131096,-0.00888137248475363,0.013694784211371807,-0.003103537256551306
1.8425636360188946,,0.026908245,0.039140396,0.33124387,-0.98979855,-0.14203927,-0.011126783,-0.047656294,0.25646856,0.96537703,-0.13426779,0.9560589,-0.2606212,,-0.030745665,0.06901845,0.5841237,0.23610914,-0.79094034,0.5645051,-0.9664992,-0.13097197,0.220739,-0.100657046,-0.59771204,-0.7953667,,0.022121256,-0.018532235,0.1708901,-0.9889864,0.11913775,0.08781968,0.12690952,0.98791575,0.088974655,-0.07615821,0.09913988,-0.9921547,,-0.30323310630642536,-0.055750408619026734,0.10913335881000001,0.5168857106893525,0.5074679601288459,0.5206803716196634,0.5120836473309655,,-1.492155555026163,-0.22718735569393664,0.07773073356,-0.0052422485871131096,-0.00888137248475363,0.013694784211371807,-0.003103537256551306
1.8655740580288693,,0.026908245,0.039140396,0.33124387,-0.98979855,-0.14203927,-0.011126783,-0.047656294,0.25646856,0.96537703,-0.13426779,0.9560589,-0.2606212,,-0.030744938,0.06901856,0.5841242,0.23610774,-0.79093647,0.564511,-0.96649945,-0.13096857,0.22073999,-0.100658104,-0.5977179,-0.79536223,,0.022121256,-0.018532235,0.1708901,-0.9889864,0.11913775,0.08781968,0.12690952,0.98791575,0.088974655,-0.07615821,0.09913988,-0.9921547,,-0.30323310630642536,-0.055750408619026734,0.10913335881000001,0.5168857106893525,0.5074679601288459,0.5206803716196634,0.5120836473309655,,-1.492163277759037,-0.22718735569393664,0.07773073356,-0.0052422485871131096,-0.00888137248475363,0.013694784211371807,-0.003103537256551306
1.895725021022372,,0.026908245,0.039140396,0.33124387,-0.98979855,-0.14203927,-0.011126783,-0.047656294,0.25646856,0.96537703,-0.13426779,0.9560589,-0.2606212,,-0.030744938,0.06901856,0.5841242,0.23610774,-0.79093647,0.564511,-0.96649945,-0.13096857,0.22073999,-0.100658104,-0.5977179,-0.79536223,,0.022121256,-0.018532235,0.1708901,-0.9889864,0.11913775,0.08781968,0.12690952,0.98791575,0.088974655,-0.07615821,0.09913988,-0.9921547,,-0.30323310630642536,-0.055750408619026734,0.10913335881000001,0.5168857106893525,0.5074679601288459,0.5206803716196634,0.5120836473309655,,-1.492163277759037,-0.22718735569393664,0.07773073356,-0.0052422485871131096,-0.00888137248475363,0.013694784211371807,-0.003103537256551306
1.9197995190043002,,0.026908245,0.039140396,0.33124387,-0.98979855,-0.14203927,-0.011126783,-0.047656294,0.25646856,0.96537703,-0.13426779,0.9560589,-0.2606212,,-0.030744938,0.06901856,0.5841242,0.23610774,-0.79093647,0.564511,-0.96649945,-0.13096857,0.22073999,-0.100658104,-0.5977179,-0.79536223,,0.022121256,-0.018532235,0.1708901,-0.9889864,0.11913775,0.08781968,0.12690952,0.98791575,0.088974655,-0.07615821,0.09913988,-0.9921547,,-0.30323310630642536,-0.055750408619026734,0.10913335881000001,0.5168857106893525,0.5074679601288459,0.5206803716196634,0.5120836473309655,,-1.492163277759037,-0.22718735569393664,0.07773073356,-0.0052422485871131096,-0.00888137248475363,0.013694784211371807,-0.003103537256551306
1.9452655210043304,,0.026908245,0.039140396,0.33124387,-0.98979855,-0.14203927,-0.011126783,-0.047656294,0.25646856,0.96537703,-0.13426779,0.9560589,-0.2606212,,-0.030744938,0.06901856,0.5841242,0.23610774,-0.79093647,0.564511,-0.96649945,-0.13096857,0.22073999,-0.100658104,-0.5977179,-0.79536223,,0.022121256,-0.018532235,0.1708901,-0.9889864,0.11913775,0.08781968,0.12690952,0.98791575,0.088974655,-0.07615821,0.09913988,-0.9921547,,-0.30323310630642536,-0.055750408619026734,0.10913335881000001,0.5168857106893525,0.5074679601288459,0.5206803716196634,0.5120836473309655,,-1.492163277759037,-0.22718735569393664,0.07773073356,-0.0052422485871131096,-0.00888137248475363,0.013694784211371807,-0.003103537256551306
1.9690970869851299,,0.026908245,0.039140396,0.33124387,-0.98979855,-0.14203927,-0.011126783,-0.047656294,0.25646856,0.96537703,-0.13426779,0.9560589,-0.2606212,,-0.030744938,0.06901856,0.5841242,0.23610774,-0.79093647,0.564511,-0.96649945,-0.13096857,0.22073999,-0.100658104,-0.5977179,-0.79536223,,0.022121256,-0.018532235,0.1708901,-0.9889864,0.11913775,0.08781968,0.12690952,0.98791575,0.088974655,-0.07615821,0.09913988,-0.9921547,,-0.30323310630642536,-0.055750408619026734,0.10913335881000001,0.5168857106893525,0.5074679601288459,0.5206803716196634,0.5120836473309655,,-1.492163277759037,-0.22718735569393664,0.07773073356,-0.0052422485871131096,-0.00888137248475363,0.013694784211371807,-0.003103537256551306
1.996481837995816,,0.026907358,0.039141063,0.33124495,-0.98979974,-0.14203045,-0.0111322105,-0.047657672,0.2564573,0.96537995,-0.13425842,0.9560632,-0.2606101,,-0.030744938,0.06901856,0.5841242,0.23610774,-0.79093647,0.564511,-0.96649945,-0.13096857,0.22073999,-0.100658104,-0.5977179,-0.79536223,,0.022121256,-0.018532235,0.1708901,-0.9889864,0.11913775,0.08781968,0.12690952,0.98791575,0.088974655,-0.07615821,0.09913988,-0.9921547,,-0.3032176608406769,-0.055750408619026734,0.10913335881000001,0.5168857106893525,0.5074679601288459,0.5206803716196634,0.5120836473309655,,-1.492163277759037,-0.22718735569393664,0.07773073356,-0.0052422485871131096,-0.00888137248475363,0.013694784211371807,-0.003103537256551306
2.0216360579943284,,0.026907358,0.039141063,0.33124495,-0.98979974,-0.14203045,-0.0111322105,-0.047657672,0.2564573,0.96537995,-0.13425842,0.9560632,-0.2606101,,-0.030744938,0.06901856,0.5841242,0.23610774,-0.79093647,0.564511,-0.96649945,-0.13096857,0.22073999,-0.100658104,-0.5977179,-0.79536223,,0.022121256,-0.018532235,0.1708901,-0.9889864,0.11913775,0.08781968,0.12690952,0.98791575,0.088974655,-0.07615821,0.09913988,-0.9921547,,-0.3032176608406769,-0.055750408619026734,0.10913335881000001,0.5168857106893525,0.5074679601288459,0.5206803716196634,0.5120836473309655,,-1.492163277759037,-0.22718735569393664,0.07773073356,-0.0052422485871131096,-0.00888137248475363,0.013694784211371807,-0.003103537256551306
2.0478185579995625,,0.026907358,0.039141063,0.33124495,-0.98979974,-0.14203045,-0.0111322105,-0.047657672,0.2564573,0.96537995,-0.13425842,0.9560632,-0.2606101,,-0.030745665,0.06901845,0.5841237,0.23610914,-0.79094034,0.5645051,-0.9664992,-0.13097197,0.220739,-0.100657046,-0.59771204,-0.7953667,,0.022121256,-0.018532235,0.1708901,-0.9889864,0.11913775,0.08781968,0.12690952,0.98791575,0.088974655,-0.07615821,0.09913988,-0.9921547,,-0.3032176608406769,-0.055750408619026734,0.10913335881000001,0.5168857106893525,0.5074679601288459,0.5206803716196634,0.5120836473309655,,-1.492155555026163,-0.22718735569393664,0.07773073356,-0.0052422485871131096,-0.00888137248475363,0.013694784211371807,-0.003103537256551306
2.077551399997901,,0.026907805,0.039140735,0.3312444,-0.98979914,-0.14203486,-0.011129491,-0.047656987,0.25646293,0.9653785,-0.1342631,0.956061,-0.26061565,,-0.030745665,0.06901845,0.5841237,0.23610914,-0.79094034,0.5645051,-0.9664992,-0.13097197,0.220739,-0.100657046,-0.59771204,-0.7953667,,0.022121256,-0.018532235,0.1708901,-0.9889864,0.11913775,0.08781968,0.12690952,0.98791575,0.088974655,-0.07615821,0.09913988,-0.9921547,,-0.30322538357355117,-0.055750408619026734,0.10913335881000001,0.5168857106893525,0.5074679601288459,0.5206803716196634,0.5120836473309655,,-1.492155555026163,-0.22718735569393664,0.07773073356,-0.0052422485871131096,-0.00888137248475363,0.013694784211371807,-0.003103537256551306
2.1007893630303442,,0.026908245,0.039140396,0.33124387,-0.98979855,-0.14203927,-0.011126783,-0.047656294,0.25646856,0.96537703,-0.13426779,0.9560589,-0.2606212,,-0.030746387,0.069018334,0.58412313,0.23611058,-0.79094416,0.56449914,-0.966499,-0.1309754,0.22073804,-0.10065597,-0.59770626,-0.7953712,,0.022121256,-0.018532235,0.1708901,-0.9889864,0.11913775,0.08781968,0.12690952,0.98791575,0.088974655,-0.07615821,0.09913988,-0.9921547,,-0.30323310630642536,-0.055750408619026734,0.10913335881000001,0.5168857106893525,0.5074679601288459,0.5206803716196634,0.5120836473309655,,-1.4921478322932886,-0.22718735569393664,0.07773073356,-0.0052422485871131096,-0.00888137248475363,0.013694784211371807,-0.003103537256551306
2.1290018979925662,,0.026908245,0.039140396,0.33124387,-0.98979855,-0.14203927,-0.011126783,-0.047656294,0.25646856,0.96537703,-0.13426779,0.9560589,-0.2606212,,-0.030746387,0.069018334,0.58412313,0.23611058,-0.79094416,0.56449914,-0.966499,-0.1309754,0.22073804,-0.10065597,-0.59770626,-0.7953712,,0.022121256,-0.018532235,0.1708901,-0.9889864,0.11913775,0.08781968,0.12690952,0.98791575,0.088974655,-0.07615821,0.09913988,-0.9921547,,-0.30323310630642536,-0.055750408619026734,0.10913335881000001,0.5168857106893525,0.5074679601288459,0.5206803716196634,0.5120836473309655,,-1.4921478322932886,-0.22718735569393664,0.07773073356,-0.0052422485871131096,-0.00888137248475363,0.013694784211371807,-0.003103537256551306
2.156697519996669,,0.026908245,0.039140396,0.33124387,-0.98979855,-0.14203927,-0.011126783,-0.047656294,0.25646856,0.96537703,-0.13426779,0.9560589,-0.2606212,,-0.030746387,0.069018334,0.58412313,0.23611058,-0.79094416,0.56449914,-0.966499,-0.1309754,0.22073804,-0.10065597,-0.59770626,-0.7953712,,0.022121256,-0.018532235,0.1708901,-0.9889864,0.11913775,0.08781968,0.12690952,0.98791575,0.088974655,-0.07615821,0.09913988,-0.9921547,,-0.30323310630642536,-0.055750408619026734,0.10913335881000001,0.5168857106893525,0.5074679601288459,0.5206803716196634,0.5120836473309655,,-1.4921478322932886,-0.22718735569393664,0.07773073356,-0.0052422485871131096,-0.00888137248475363,0.013694784211371807,-0.003103537256551306
2.1786573370336555,,0.026907805,0.039140735,0.3312444,-0.98979914,-0.14203486,-0.011129491,-0.047656987,0.25646293,0.9653785,-0.1342631,0.956061,-0.26061565,,-0.030746387,0.069018334,0.58412313,0.23611058,-0.79094416,0.56449914,-0.966499,-0.1309754,0.22073804,-0.10065597,-0.59770626,-0.7953712,,0.022121256,-0.018532235,0.1708901,-0.9889864,0.11913775,0.08781968,0.12690952,0.98791575,0.088974655,-0.07615821,0.09913988,-0.9921547,,-0.30322538357355117,-0.055750408619026734,0.10913335881000001,0.5168857106893525,0.5074679601288459,0.5206803716196634,0.5120836473309655,,-1.4921478322932886,-0.22718735569393664,0.07773073356,-0.0052422485871131096,-0.00888137248475363,0.013694784211371807,-0.003103537256551306
2.205967365996912,,0.026907358,0.039141063,0.33124495,-0.98979974,-0.14203045,-0.0111322105,-0.047657672,0.2564573,0.96537995,-0.13425842,0.9560632,-0.2606101,,-0.030746387,0.069018334,0.58412313,0.23611058,-0.79094416,0.56449914,-0.966499,-0.1309754,0.22073804,-0.10065597,-0.59770626,-0.7953712,,0.022121256,-0.018532235,0.1708901,-0.9889864,0.11913775,0.08781968,0.12690952,0.98791575,0.088974655,-0.07615821,0.09913988,-0.9921547,,-0.3032176608406769,-0.055750408619026734,0.10913335881000001,0.5168857106893525,0.5074679601288459,0.5206803716196634,0.5120836473309655,,-1.4921478322932886,-0.22718735569393664,0.07773073356,-0.0052422485871131096,-0.00888137248475363,0.013694784211371807,-0.003103537256551306
2.2308080149814487,,0.026908245,0.039140396,0.33124387,-0.98979855,-0.14203927,-0.011126783,-0.047656294,0.25646856,0.96537703,-0.13426779,0.9560589,-0.2606212,,-0.030689584,0.06902279,0.584116,0.23620315,-0.79091305,0.5645041,-0.9664749,-0.13103482,0.22080839,-0.100670524,-0.5977345,-0.79534817,,0.022121256,-0.018532235,0.1708901,-0.9889864,0.11913775,0.08781968,0.12690952,0.98791575,0.088974655,-0.07615821,0.09913988,-0.9921547,,-0.30323310630642536,-0.055750408619026734,0.10913335881000001,0.5168857106893525,0.5074679601288459,0.5206803716196634,0.5120836473309655,,-1.4921478322932886,-0.22718735569393664,0.07773073356,-0.0052422485871131096,-0.00888137248475363,0.013694784211371807,-0.003103537256551306
2.25865536701167,,0.02689779,0.03916221,0.33124095,-0.98979723,-0.14205012,-0.011098804,-0.047630806,0.25646067,0.96538043,-0.13428599,0.95605934,-0.26060998,,-0.030687721,0.06901915,0.5841209,0.23618542,-0.790915,0.5645085,-0.96647906,-0.13101953,0.22079909,-0.10067169,-0.59773505,-0.7953476,,0.022121714,-0.01853628,0.170895,-0.9889839,0.1191558,0.0878218,0.12692776,0.9879134,0.088974364,-0.07615852,0.09914124,-0.99215454,,-0.30323310630642536,-0.055750408619026734,0.10913335881000001,0.5168857106893525,0.5074679601288459,0.5206803716196634,0.5120836473309655,,-1.4921478322932886,-0.22718735569393664,0.07773073356,-0.0052422485871131096,-0.00888137248475363,0.013694784211371807,-0.003103537256551306
2.2808734599966556,,0.02689779,0.03916221,0.33124095,-0.98979723,-0.14205012,-0.011098804,-0.047630806,0.25646067,0.96538043,-0.13428599,0.95605934,-0.26060998,,-0.03068701,0.06901927,0.58412147,0.23618403,-0.7909112,0.5645144,-0.9664793,-0.1310161,0.22080007,-0.10067275,-0.5977409,-0.79534304,,0.022121714,-0.01853628,0.170895,-0.9889839,0.1191558,0.0878218,0.12692776,0.9879134,0.088974364,-0.07615852,0.09914124,-0.99215454,,-0.30323310630642536,-0.055750408619026734,0.10913335881000001,0.5168857106893525,0.5074679601288459,0.5206803716196634,0.5120836473309655,,-1.492155555026163,-0.22718735569393664,0.07773073356,-0.0052422485871131096,-0.00888137248475363,0.013694784211371807,-0.003103537256551306
2.3087287910166197,,0.02689779,0.03916221,0.33124095,-0.98979723,-0.14205012,-0.011098804,-0.047630806,0.25646067,0.96538043,-0.13428599,0.95605934,-0.26060998,,-0.030687721,0.06901915,0.5841209,0.23618542,-0.7910072,0.5643793,-0.96647906,-0.13105558,0.22077768,-0.10067169,-0.5976051,-0.7954452,,0.022121714,-0.01853628,0.170895,-0.9889839,0.1191558,0.0878218,0.12692776,0.9879134,0.088974364,-0.07615852,0.09914124,-0.99215454,,-0.30323310630642536,-0.055750408619026734,0.10913335881000001,0.5168857106893525,0.5074679601288459,0.5206803716196634,0.5120836473309655,,-1.4921478322932886,-0.22718735569393664,0.07773073356,-0.0052422485871131096,-0.00888137248475363,0.013858141691652932,-0.002776849124282747
2.3295890879817307,,0.026896909,0.039162893,0.33124202,-0.9897984,-0.14204128,-0.011104252,-0.047632165,0.25644937,0.96538335,-0.1342766,0.9560637,-0.2605989,,-0.030687721,0.06901915,0.5841209,0.23618542,-0.7910072,0.5643793,-0.96647906,-0.13105558,0.22077768,-0.10067169,-0.5976051,-0.7954452,,0.022121714,-0.01853628,0.170895,-0.9889839,0.1191558,0.0878218,0.12692776,0.9879134,0.088974364,-0.07615852,0.09914124,-0.99215454,,-0.3032176608406769,-0.055750408619026734,0.10913335881000001,0.5168857106893525,0.5074679601288459,0.5206803716196634,0.5120836473309655,,-1.4921478322932886,-0.22718735569393664,0.07773073356,-0.0052422485871131096,-0.00888137248475363,0.013858141691652932,-0.002776849124282747
2.3583904349943623,,0.02689779,0.03916221,0.33124095,-0.98979723,-0.14205012,-0.011098804,-0.047630806,0.25646067,0.96538043,-0.13428599,0.95605934,-0.26060998,,-0.030687721,0.06901915,0.5841209,0.23618542,-0.7910072,0.5643793,-0.96647906,-0.13105558,0.22077768,-0.10067169,-0.5976051,-0.7954452,,0.022121714,-0.01853628,0.170895,-0.9889839,0.1191558,0.0878218,0.12692776,0.9879134,0.088974364,-0.07615852,0.09914124,-0.99215454,,-0.30323310630642536,-0.055750408619026734,0.10913335881000001,0.5168857106893525,0.5074679601288459,0.5206803716196634,0.5120836473309655,,-1.4921478322932886,-0.22718735569393664,0.07773073356,-0.0052422485871131096,-0.00888137248475363,0.013858141691652932,-0.002776849124282747
2.3820606620283797,,0.02689779,0.03916221,0.33124095,-0.98979723,-0.14205194,-0.011075599,-0.047630806,0.25661838,0.9653385,-0.13428599,0.9560168,-0.26076615,,-0.030687721,0.06901915,0.5841209,0.23618542,-0.7910072,0.5643793,-0.96647906,-0.13105558,0.22077768,-0.10067169,-0.5976051,-0.7954452,,0.022121714,-0.01853628,0.170895,-0.9889839,0.1191558,0.0878218,0.12692776,0.9879134,0.088974364,-0.07615852,0.09914124,-0.99215454,,-0.30323310630642536,-0.055750408619026734,0.10913335881000001,0.5168857106893525,0.5074679601288459,0.5205170141393822,0.5117569591986969,,-1.4921478322932886,-0.22718735569393664,0.07773073356,-0.0052422485871131096,-0.00888137248475363,0.013858141691652932,-0.002776849124282747
2.4098894500057213,,0.026896909,0.039162893,0.33124202,-0.9897984,-0.14204308,-0.01108104,-0.047632165,0.2566071,0.9653414,-0.1342766,0.9560211,-0.26075503,,-0.030687721,0.06901915,0.5841209,0.23618542,-0.7910072,0.5643793,-0.96647906,-0.13105558,0.22077768,-0.10067169,-0.5976051,-0.7954452,,0.022121714,-0.01853628,0.170895,-0.9889839,0.1191558,0.0878218,0.12692776,0.9879134,0.088974364,-0.07615852,0.09914124,-0.99215454,,-0.3032176608406769,-0.055750408619026734,0.10913335881000001,0.5168857106893525,0.5074679601288459,0.5205170141393822,0.5117569591986969,,-1.4921478322932886,-0.22718735569393664,0.07773073356,-0.0052422485871131096,-0.00888137248475363,0.013858141691652932,-0.002776849124282747
2.4337209329823963,,0.026896909,0.039162893,0.33124202,-0.9897984,-0.14204308,-0.01108104,-0.047632165,0.2566071,0.9653414,-0.1342766,0.9560211,-0.26075503,,-0.030687721,0.06901915,0.5841209,0.23618542,-0.7910072,0.5643793,-0.96647906,-0.13105558,0.22077768,-0.10067169,-0.5976051,-0.7954452,,0.022121714,-0.01853628,0.170895,-0.9889839,0.1191558,0.0878218,0.12692776,0.9879134,0.088974364,-0.07615852,0.09914124,-0.99215454,,-0.3032176608406769,-0.055750408619026734,0.10913335881000001,0.5168857106893525,0.5074679601288459,0.5205170141393822,0.5117569591986969,,-1.4921478322932886,-0.22718735569393664,0.07773073356,-0.0052422485871131096,-0.00888137248475363,0.013858141691652932,-0.002776849124282747
2.4591462230309844,,0.026896909,0.039162893,0.33124202,-0.9897984,-0.14204308,-0.01108104,-0.047632165,0.2566071,0.9653414,-0.1342766,0.9560211,-0.26075503,,-0.030687721,0.06901915,0.5841209,0.23618542,-0.7910072,0.5643793,-0.96647906,-0.13105558,0.22077768,-0.10067169,-0.5976051,-0.7954452,,0.022121714,-0.01853628,0.170895,-0.9889839,0.1191558,0.0878218,0.12692776,0.9879134,0.088974364,-0.07615852,0.09914124,-0.99215454,,-0.3032176608406769,-0.055750408619026734,0.10913335881000001,0.5168857106893525,0.5074679601288459,0.5205170141393822,0.5117569591986969,,-1.4921478322932886,-0.22718735569393664,0.07773073356,-0.0052422485871131096,-0.00888137248475363,0.013858141691652932,-0.002776849124282747
2.4853064300259575,,0.026896909,0.039162893,0.33124202,-0.9897984,-0.14204308,-0.01108104,-0.047632165,0.2566071,0.9653414,-0.1342766,0.9560211,-0.26075503,,-0.030687721,0.06901915,0.5841209,0.23618542,-0.7910072,0.5643793,-0.96647906,-0.13105558,0.22077768,-0.10067169,-0.5976051,-0.7954452,,0.022121714,-0.01853628,0.170895,-0.9889839,0.1191558,0.0878218,0.12692776,0.9879134,0.088974364,-0.07615852,0.09914124,-0.99215454,,-0.3032176608406769,-0.055750408619026734,0.10913335881000001,0.5168857106893525,0.5074679601288459,0.5205170141393822,0.5117569591986969,,-1.4921478322932886,-0.22718735569393664,0.07773073356,-0.0052422485871131096,-0.00888137248475363,0.013858141691652932,-0.002776849124282747
2.5123536310275085,,0.026896909,0.039162893,0.33124202,-0.9897984,-0.14204308,-0.01108104,-0.047632165,0.2566071,0.9653414,-0.1342766,0.9560211,-0.26075503,,-0.03068701,0.06901927,0.58412147,0.23618403,-0.7910035,0.56438524,-0.9664793,-0.13105218,0.22077864,-0.10067275,-0.59761095,-0.7954407,,0.022121714,-0.01853628,0.170895,-0.9889839,0.1191558,0.0878218,0.12692776,0.9879134,0.088974364,-0.07615852,0.09914124,-0.99215454,,-0.3032176608406769,-0.055750408619026734,0.10913335881000001,0.5168857106893525,0.5074679601288459,0.5205170141393822,0.5117569591986969,,-1.492155555026163,-0.22718735569393664,0.07773073356,-0.0052422485871131096,-0.00888137248475363,0.013858141691652932,-0.002776849124282747
2.5359254259965383,,0.026896909,0.039162893,0.33124202,-0.9897984,-0.14204308,-0.01108104,-0.047632165,0.2566071,0.9653414,-0.1342766,0.9560211,-0.26075503,,-0.030686287,0.06901938,0.58412206,0.23618257,-0.7909996,0.5643912,-0.9664795,-0.13104877,0.22077963,-0.10067382,-0.59761673,-0.7954362,,0.022121714,-0.01853628,0.170895,-0.9889839,0.1191558,0.0878218,0.12692776,0.9879134,0.088974364,-0.07615852,0.09914124,-0.99215454,,-0.3032176608406769,-0.055750408619026734,0.10913335881000001,0.5168857106893525,0.5074679601288459,0.5205170141393822,0.5117569591986969,,-1.492163277759037,-0.22718735569393664,0.07773073356,-0.0052422485871131096,-0.00888137248475363,0.013858141691652932,-0.002776849124282747
2.5621835800120607,,0.026896909,0.039162893,0.33124202,-0.9897984,-0.14204308,-0.01108104,-0.047632165,0.2566071,0.9653414,-0.1342766,0.9560211,-0.26075503,,-0.030686287,0.06901938,0.58412206,0.23618257,-0.7909996,0.5643912,-0.9664795,-0.13104877,0.22077963,-0.10067382,-0.59761673,-0.7954362,,0.022121714,-0.01853628,0.170895,-0.9889839,0.1191558,0.0878218,0.12692776,0.9879134,0.088974364,-0.07615852,0.09914124,-0.99215454,,-0.3032176608406769,-0.055750408619026734,0.10913335881000001,0.5168857106893525,0.5074679601288459,0.5205170141393822,0.5117569591986969,,-1.492163277759037,-0.22718735569393664,0.07773073356,-0.0052422485871131096,-0.00888137248475363,0.013858141691652932,-0.002776849124282747
2.5925483040045947,,0.026896909,0.039162893,0.33124202,-0.9897984,-0.14204308,-0.01108104,-0.047632165,0.2566071,0.9653414,-0.1342766,0.9560211,-0.26075503,,-0.030686287,0.06901938,0.58412206,0.23618257,-0.7909996,0.5643912,-0.9664795,-0.13104877,0.22077963,-0.10067382,-0.59761673,-0.7954362,,0.022121714,-0.01853628,0.170895,-0.9889839,0.1191558,0.0878218,0.12692776,0.9879134,0.088974364,-0.07615852,0.09914124,-0.99215454,,-0.3032176608406769,-0.055750408619026734,0.10913335881000001,0.5168857106893525,0.5074679601288459,0.5205170141393822,0.5117569591986969,,-1.492163277759037,-0.22718735569393664,0.07773073356,-0.0052422485871131096,-0.00888137248475363,0.013858141691652932,-0.002776849124282747
2.6165087959961966,,0.02689779,0.03916221,0.33124095,-0.98979723,-0.14205194,-0.011075599,-0.047630806,0.25661838,0.9653385,-0.13428599,0.9560168,-0.26076615,,-0.03068701,0.06901927,0.58412147,0.23618403,-0.7910035,0.56438524,-0.9664793,-0.13105218,0.22077864,-0.10067275,-0.59761095,-0.7954407,,0.022121714,-0.01853628,0.170895,-0.9889839,0.1191558,0.0878218,0.12692776,0.9879134,0.088974364,-0.07615852,0.09914124,-0.99215454,,-0.30323310630642536,-0.055750408619026734,0.10913335881000001,0.5168857106893525,0.5074679601288459,0.5205170141393822,0.5117569591986969,,-1.492155555026163,-0.22718735569393664,0.07773073356,-0.0052422485871131096,-0.00888137248475363,0.013858141691652932,-0.002776849124282747
2.6449872400262393,,0.02689779,0.03916221,0.33124095,-0.98979723,-0.14205194,-0.011075599,-0.047630806,0.25661838,0.9653385,-0.13428599,0.9560168,-0.26076615,,-0.030687721,0.06901915,0.5841209,0.23618542,-0.7910072,0.5643793,-0.96647906,-0.13105558,0.22077768,-0.10067169,-0.5976051,-0.7954452,,0.022121714,-0.01853628,0.170895,-0.9889839,0.1191558,0.0878218,0.12692776,0.9879134,0.088974364,-0.07615852,0.09914124,-0.99215454,,-0.30323310630642536,-0.055750408619026734,0.10913335881000001,0.5168857106893525,0.5074679601288459,0.5205170141393822,0.5117569591986969,,-1.4921478322932886,-0.22718735569393664,0.07773073356,-0.0052422485871131096,-0.00888137248475363,0.013858141691652932,-0.002776849124282747
2.6751145080197603,,0.02689779,0.03916221,0.33124095,-0.98979723,-0.14205194,-0.011075599,-0.047630806,0.25661838,0.9653385,-0.13428599,0.9560168,-0.26076615,,-0.03068701,0.06901927,0.58412147,0.23618403,-0.7910035,0.56438524,-0.9664793,-0.13105218,0.22077864,-0.10067275,-0.59761095,-0.7954407,,0.022121714,-0.01853628,0.170895,-0.9889839,0.1191558,0.0878218,0.12692776,0.9879134,0.088974364,-0.07615852,0.09914124,-0.99215454,,-0.30323310630642536,-0.055750408619026734,0.10913335881000001,0.5168857106893525,0.5074679601288459,0.5205170141393822,0.5117569591986969,,-1.492155555026163,-0.22718735569393664,0.07773073356,-0.0052422485871131096,-0.00888137248475363,0.013858141691652932,-0.002776849124282747
2.6958906649961136,,0.02689779,0.03916221,0.33124095,-0.98979723,-0.14205194,-0.011075599,-0.047630806,0.25661838,0.9653385,-0.13428599,0.9560168,-0.26076615,,-0.030686287,0.06901938,0.58412206,0.23618257,-0.7909996,0.5643912,-0.9664795,-0.13104877,0.22077963,-0.10067382,-0.59761673,-0.7954362,,0.022121714,-0.01853628,0.170895,-0.9889839,0.1191558,0.0878218,0.12692776,0.9879134,0.088974364,-0.07615852,0.09914124,-0.99215454,,-0.30323310630642536,-0.055750408619026734,0.10913335881000001,0.5168857106893525,0.5074679601288459,0.5205170141393822,0.5117569591986969,,-1.492163277759037,-0.22718735569393664,0.07773073356,-0.0052422485871131096,-0.00888137248475363,0.013858141691652932,-0.002776849124282747
2.7260228050290607,,0.026897348,0.03916255,0.3312415,-0.9897979,-0.14204752,-0.0110783335,-0.047631472,0.25661272,0.96533996,-0.1342813,0.95601887,-0.2607606,,-0.030686287,0.06901938,0.58412206,0.23618257,-0.7909996,0.5643912,-0.9664795,-0.13104877,0.22077963,-0.10067382,-0.59761673,-0.7954362,,0.022121714,-0.01853628,0.170895,-0.9889839,0.1191558,0.0878218,0.12692776,0.9879134,0.088974364,-0.07615852,0.09914124,-0.99215454,,-0.30322538357355117,-0.055750408619026734,0.10913335881000001,0.5168857106893525,0.5074679601288459,0.5205170141393822,0.5117569591986969,,-1.492163277759037,-0.22718735569393664,0.07773073356,-0.0052422485871131096,-0.00888137248475363,0.013858141691652932,-0.002776849124282747
2.7483969570021145,,0.026896909,0.039162893,0.33124202,-0.9897984,-0.14204308,-0.01108104,-0.047632165,0.2566071,0.9653414,-0.1342766,0.9560211,-0.26075503,,-0.030686287,0.06901938,0.58412206,0.23618257,-0.7909996,0.5643912,-0.9664795,-0.13104877,0.22077963,-0.10067382,-0.59761673,-0.7954362,,0.022121714,-0.01853628,0.170895,-0.9889839,0.1191558,0.0878218,0.12692776,0.9879134,0.088974364,-0.07615852,0.09914124,-0.99215454,,-0.3032176608406769,-0.055750408619026734,0.10913335881000001,0.5168857106893525,0.5074679601288459,0.5205170141393822,0.5117569591986969,,-1.492163277759037,-0.22718735569393664,0.07773073356,-0.0052422485871131096,-0.00888137248475363,0.013858141691652932,-0.002776849124282747
2.7766708609997295,,0.026896909,0.039162893,0.33124202,-0.9897984,-0.14204308,-0.01108104,-0.047632165,0.2566071,0.9653414,-0.1342766,0.9560211,-0.26075503,,-0.030686287,0.06901938,0.58412206,0.23618257,-0.7909996,0.5643912,-0.9664795,-0.13104877,0.22077963,-0.10067382,-0.59761673,-0.7954362,,0.022121714,-0.01853628,0.170895,-0.9889839,0.1191558,0.0878218,0.12692776,0.9879134,0.088974364,-0.07615852,0.09914124,-0.99215454,,-0.3032176608406769,-0.055750408619026734,0.10913335881000001,0.5168857106893525,0.5074679601288459,0.5205170141393822,0.5117569591986969,,-1.492163277759037,-0.22718735569393664,0.07773073356,-0.0052422485871131096,-0.00888137248475363,0.013858141691652932,-0.002776849124282747
2.805558210995514,,0.026896909,0.039162893,0.33124202,-0.9897984,-0.14204308,-0.01108104,-0.047632165,0.2566071,0.9653414,-0.1342766,0.9560211,-0.26075503,,-0.030686287,0.06901938,0.58412206,0.23618257,-0.7909996,0.5643912,-0.9664795,-0.13104877,0.22077963,-0.10067382,-0.59761673,-0.7954362,,0.022121714,-0.01853628,0.170895,-0.9889839,0.1191558,0.0878218,0.12692776,0.9879134,0.088974364,-0.07615852,0.09914124,-0.99215454,,-0.3032176608406769,-0.055750408619026734,0.10913335881000001,0.5168857106893525,0.5074679601288459,0.5205170141393822,0.5117569591986969,,-1.492163277759037,-0.22718735569393664,0.07773073356,-0.0052422485871131096,-0.00888137248475363,0.013858141691652932,-0.002776849124282747
2.827569911023602,,0.026897348,0.03916255,0.3312415,-0.9897979,-0.14204752,-0.0110783335,-0.047631472,0.25661272,0.96533996,-0.1342813,0.95601887,-0.2607606,,-0.030686287,0.06901938,0.58412206,0.23618257,-0.79095346,0.56445575,-0.9664795,-0.13103074,0.22079033,-0.10067382,-0.5976817,-0.7953874,,0.022121714,-0.01853628,0.170895,-0.9889839,0.1191558,0.0878218,0.12692776,0.9879134,0.088974364,-0.07615852,0.09914124,-0.99215454,,-0.30322538357355117,-0.055750408619026734,0.10913335881000001,0.5168857106893525,0.5074679601288459,0.5205170141393822,0.5117569591986969,,-1.492163277759037,-0.22718735569393664,0.07773073356,-0.0052422485871131096,-0.00888137248475363,0.013776462951512369,-0.0029401931904170266
2.855029390018899,,0.02689779,0.03916221,0.33124095,-0.98979723,-0.14205194,-0.011075599,-0.047630806,0.25661838,0.9653385,-0.13428599,0.9560168,-0.26076615,,-0.030686287,0.06901938,0.58412206,0.23618257,-0.79090744,0.56452036,-0.9664795,-0.13101271,0.22080103,-0.10067382,-0.5977467,-0.7953386,,0.022121714,-0.01853628,0.170895,-0.9889839,0.1191558,0.0878218,0.12692776,0.9879134,0.088974364,-0.07615852,0.09914124,-0.99215454,,-0.30323310630642536,-0.055750408619026734,0.10913335881000001,0.5168857106893525,0.5074679601288459,0.5205170141393822,0.5117569591986969,,-1.492163277759037,-0.22718735569393664,0.07773073356,-0.0052422485871131096,-0.00888137248475363,0.013694784211371807,-0.003103537256551306
2.8797232040087692,,0.02689779,0.03916221,0.33124095,-0.98979723,-0.14205194,-0.011075599,-0.047630806,0.25661838,0.9653385,-0.13428599,0.9560168,-0.26076615,,-0.030686287,0.06901938,0.58412206,0.23618257,-0.79090744,0.56452036,-0.9664795,-0.13101271,0.22080103,-0.10067382,-0.5977467,-0.7953386,,0.022121714,-0.01853628,0.170895,-0.9889839,0.1191558,0.0878218,0.12692776,0.9879134,0.088974364,-0.07615852,0.09914124,-0.99215454,,-0.30323310630642536,-0.055750408619026734,0.10913335881000001,0.5168857106893525,0.5074679601288459,0.5205170141393822,0.5117569591986969,,-1.492163277759037,-0.22718735569393664,0.07773073356,-0.0052422485871131096,-0.00888137248475363,0.013694784211371807,-0.003103537256551306
2.9082819310133345,,0.026897348,0.03916255,0.3312415,-0.9897979,-0.14204752,-0.0110783335,-0.047631472,0.25661272,0.96533996,-0.1342813,0.95601887,-0.2607606,,-0.030686287,0.06901938,0.58412206,0.23618257,-0.79090744,0.56452036,-0.9664795,-0.13101271,0.22080103,-0.10067382,-0.5977467,-0.7953386,,0.022121714,-0.01853628,0.170895,-0.9889839,0.1191558,0.0878218,0.12692776,0.9879134,0.088974364,-0.07615852,0.09914124,-0.99215454,,-0.30322538357355117,-0.055750408619026734,0.10913335881000001,0.5168857106893525,0.5074679601288459,0.5205170141393822,0.5117569591986969,,-1.492163277759037,-0.22718735569393664,0.07773073356,-0.0052422485871131096,-0.00888137248475363,0.013694784211371807,-0.003103537256551306
2.9362856230000034,,0.026896909,0.039162893,0.33124202,-0.9897984,-0.14204308,-0.01108104,-0.047632165,0.2566071,0.9653414,-0.1342766,0.9560211,-0.26075503,,-0.030686287,0.06901938,0.58412206,0.23618257,-0.79090744,0.56452036,-0.9664795,-0.13101271,0.22080103,-0.10067382,-0.5977467,-0.7953386,,0.022121714,-0.01853628,0.170895,-0.9889839,0.1191558,0.0878218,0.12692776,0.9879134,0.088974364,-0.07615852,0.09914124,-0.99215454,,-0.3032176608406769,-0.055750408619026734,0.10913335881000001,0.5168857106893525,0.5074679601288459,0.5205170141393822,0.5117569591986969,,-1.492163277759037,-0.22718735569393664,0.07773073356,-0.0052422485871131096,-0.00888137248475363,0.013694784211371807,-0.003103537256551306
2.9657107529928908,,0.026897348,0.03916255,0.3312415,-0.9897979,-0.14204752,-0.0110783335,-0.047631472,0.25661272,0.96533996,-0.1342813,0.95601887,-0.2607606,,-0.03068701,0.06901927,0.58412147,0.23618403,-0.7909112,0.5645144,-0.9664793,-0.1310161,0.22080007,-0.10067275,-0.5977409,-0.79534304,,0.022121714,-0.01853628,0.170895,-0.9889839,0.1191558,0.0878218,0.12692776,0.9879134,0.088974364,-0.07615852,0.09914124,-0.99215454,,-0.30322538357355117,-0.055750408619026734,0.10913335881000001,0.5168857106893525,0.5074679601288459,0.5205170141393822,0.5117569591986969,,-1.492155555026163,-0.22718735569393664,0.07773073356,-0.0052422485871131096,-0.00888137248475363,0.013694784211371807,-0.003103537256551306
2.9885429100249894,,0.02689779,0.03916221,0.33124095,-0.98979723,-0.14205194,-0.011075599,-0.047630806,0.25661838,0.9653385,-0.13428599,0.9560168,-0.26076615,,-0.030687721,0.06901915,0.5841209,0.23618542,-0.790915,0.5645085,-0.96647906,-0.13101953,0.22079909,-0.10067169,-0.59773505,-0.7953476,,0.022121714,-0.01853628,0.170895,-0.9889839,0.1191558,0.0878218,0.12692776,0.9879134,0.088974364,-0.07615852,0.09914124,-0.99215454,,-0.30323310630642536,-0.055750408619026734,0.10913335881000001,0.5168857106893525,0.5074679601288459,0.5205170141393822,0.5117569591986969,,-1.4921478322932886,-0.22718735569393664,0.07773073356,-0.0052422485871131096,-0.00888137248475363,0.013694784211371807,-0.003103537256551306
3.0133965000277385,,0.026897348,0.03916255,0.3312415,-0.9897979,-0.14204752,-0.0110783335,-0.047631472,0.25661272,0.96533996,-0.1342813,0.95601887,-0.2607606,,-0.030686287,0.06901938,0.58412206,0.23618257,-0.79090744,0.56452036,-0.9664795,-0.13101271,0.22080103,-0.10067382,-0.5977467,-0.7953386,,0.022121714,-0.01853628,0.170895,-0.9889839,0.1191558,0.0878218,0.12692776,0.9879134,0.088974364,-0.07615852,0.09914124,-0.99215454,,-0.30322538357355117,-0.055750408619026734,0.10913335881000001,0.5168857106893525,0.5074679601288459,0.5205170141393822,0.5117569591986969,,-1.492163277759037,-0.22718735569393664,0.07773073356,-0.0052422485871131096,-0.00888137248475363,0.013694784211371807,-0.003103537256551306
3.041134505008813,,0.02689779,0.03916221,0.33124095,-0.98979723,-0.14205194,-0.011075599,-0.047630806,0.25661838,0.9653385,-0.13428599,0.9560168,-0.26076615,,-0.030686287,0.06901938,0.58412206,0.23618257,-0.79090744,0.56452036,-0.9664795,-0.13101271,0.22080103,-0.10067382,-0.5977467,-0.7953386,,0.022121714,-0.01853628,0.170895,-0.9889839,0.1191558,0.0878218,0.12692776,0.9879134,0.088974364,-0.07615852,0.09914124,-0.99215454,,-0.30323310630642536,-0.055750408619026734,0.10913335881000001,0.5168857106893525,0.5074679601288459,0.5205170141393822,0.5117569591986969,,-1.492163277759037,-0.22718735569393664,0.07773073356,-0.0052422485871131096,-0.00888137248475363,0.013694784211371807,-0.003103537256551306
3.0681559430086054,,0.026896909,0.039162893,0.33124202,-0.9897984,-0.14204308,-0.01108104,-0.047632165,0.2566071,0.9653414,-0.1342766,0.9560211,-0.26075503,,-0.03068701,0.06901927,0.58412147,0.23618403,-0.7909112,0.5645144,-0.9664793,-0.1310161,0.22080007,-0.10067275,-0.5977409,-0.79534304,,0.022121714,-0.01853628,0.170895,-0.9889839,0.1191558,0.0878218,0.12692776,0.9879134,0.088974364,-0.07615852,0.09914124,-0.99215454,,-0.3032176608406769,-0.055750408619026734,0.10913335881000001,0.5168857106893525,0.5074679601288459,0.5205170141393822,0.5117569591986969,,-1.492155555026163,-0.22718735569393664,0.07773073356,-0.0052422485871131096,-0.00888137248475363,0.013694784211371807,-0.003103537256551306
3.0938218280207366,,0.026896909,0.039162893,0.33124202,-0.9897984,-0.14204308,-0.01108104,-0.047632165,0.2566071,0.9653414,-0.1342766,0.9560211,-0.26075503,,-0.03068701,0.06901927,0.58412147,0.23618403,-0.7909112,0.5645144,-0.9664793,-0.1310161,0.22080007,-0.10067275,-0.5977409,-0.79534304,,0.022121714,-0.01853628,0.170895,-0.9889839,0.1191558,0.0878218,0.12692776,0.9879134,0.088974364,-0.07615852,0.09914124,-0.99215454,,-0.3032176608406769,-0.055750408619026734,0.10913335881000001,0.5168857106893525,0.5074679601288459,0.5205170141393822,0.5117569591986969,,-1.492155555026163,-0.22718735569393664,0.07773073356,-0.0052422485871131096,-0.00888137248475363,0.013694784211371807,-0.003103537256551306
3.1183345750323497,,0.026896909,0.039162893,0.33124202,-0.9897984,-0.14204308,-0.01108104,-0.047632165,0.2566071,0.9653414,-0.1342766,0.9560211,-0.26075503,,-0.030687721,0.06901915,0.5841209,0.23618542,-0.790915,0.5645085,-0.96647906,-0.13101953,0.22079909,-0.10067169,-0.59773505,-0.7953476,,0.022121714,-0.01853628,0.170895,-0.9889839,0.1191558,0.0878218,0.12692776,0.9879134,0.088974364,-0.07615852,0.09914124,-0.99215454,,-0.3032176608406769,-0.055750408619026734,0.10913335881000001,0.5168857106893525,0.5074679601288459,0.5205170141393822,0.5117569591986969,,-1.4921478322932886,-0.22718735569393664,0.07773073356,-0.0052422485871131096,-0.00888137248475363,0.013694784211371807,-0.003103537256551306
3.1452979150344618,,0.026896909,0.039162893,0.33124202,-0.9897984,-0.14204308,-0.01108104,-0.047632165,0.2566071,0.9653414,-0.1342766,0.9560211,-0.26075503,,-0.030687721,0.06901915,0.5841209,0.23618542,-0.790915,0.5645085,-0.96647906,-0.13101953,0.22079909,-0.10067169,-0.59773505,-0.7953476,,0.022121714,-0.01853628,0.170895,-0.9889839,0.1191558,0.0878218,0.12692776,0.9879134,0.088974364,-0.07615852,0.09914124,-0.99215454,,-0.3032176608406769,-0.055750408619026734,0.10913335881000001,0.5168857106893525,0.5074679601288459,0.5205170141393822,0.5117569591986969,,-1.4921478322932886,-0.22718735569393664,0.07773073356,-0.0052422485871131096,-0.00888137248475363,0.013694784211371807,-0.003103537256551306
3.170846552005969,,0.02689779,0.03916221,0.33124095,-0.98979723,-0.14205194,-0.011075599,-0.047630806,0.25661838,0.9653385,-0.13428599,0.9560168,-0.26076615,,-0.030687721,0.06901915,0.5841209,0.23618542,-0.790915,0.5645085,-0.96647906,-0.13101953,0.22079909,-0.10067169,-0.59773505,-0.7953476,,0.022121714,-0.01853628,0.170895,-0.9889839,0.1191558,0.0878218,0.12692776,0.9879134,0.088974364,-0.07615852,0.09914124,-0.99215454,,-0.30323310630642536,-0.055750408619026734,0.10913335881000001,0.5168857106893525,0.5074679601288459,0.5205170141393822,0.5117569591986969,,-1.4921478322932886,-0.22718735569393664,0.07773073356,-0.0052422485871131096,-0.00888137248475363,0.013694784211371807,-0.003103537256551306
3.1980966220144182,,0.02689779,0.03916221,0.33124095,-0.98979723,-0.14205194,-0.011075599,-0.047630806,0.25661838,0.9653385,-0.13428599,0.9560168,-0.26076615,,-0.03068701,0.06901927,0.58412147,0.23618403,-0.7909112,0.5645144,-0.9664793,-0.1310161,0.22080007,-0.10067275,-0.5977409,-0.79534304,,0.022121714,-0.01853628,0.170895,-0.9889839,0.1191558,0.0878218,0.12692776,0.9879134,0.088974364,-0.07615852,0.09914124,-0.99215454,,-0.30323310630642536,-0.055750408619026734,0.10913335881000001,0.5168857106893525,0.5074679601288459,0.5205170141393822,0.5117569591986969,,-1.492155555026163,-0.22718735569393664,0.07773073356,-0.0052422485871131096,-0.00888137248475363,0.013694784211371807,-0.003103537256551306
3.226700401981361,,0.026897348,0.03916255,0.3312415,-0.9897979,-0.14204752,-0.0110783335,-0.047631472,0.25661272,0.96533996,-0.1342813,0.95601887,-0.2607606,,-0.030686287,0.06901938,0.58412206,0.23618257,-0.79090744,0.56452036,-0.9664795,-0.13101271,0.22080103,-0.10067382,-0.5977467,-0.7953386,,0.022121714,-0.01853628,0.170895,-0.9889839,0.1191558,0.0878218,0.12692776,0.9879134,0.088974364,-0.07615852,0.09914124,-0.99215454,,-0.30322538357355117,-0.055750408619026734,0.10913335881000001,0.5168857106893525,0.5074679601288459,0.5205170141393822,0.5117569591986969,,-1.492163277759037,-0.22718735569393664,0.07773073356,-0.0052422485871131096,-0.00888137248475363,0.013694784211371807,-0.003103537256551306
3.249071669008117,,0.02689779,0.03916221,0.33124095,-0.98979723,-0.14205194,-0.011075599,-0.047630806,0.25661838,0.9653385,-0.13428599,0.9560168,-0.26076615,,-0.030686287,0.06901938,0.58412206,0.23618257,-0.79090744,0.56452036,-0.9664795,-0.13101271,0.22080103,-0.10067382,-0.5977467,-0.7953386,,0.022121714,-0.01853628,0.170895,-0.9889839,0.1191558,0.0878218,0.12692776,0.9879134,0.088974364,-0.07615852,0.09914124,-0.99215454,,-0.30323310630642536,-0.055750408619026734,0.10913335881000001,0.5168857106893525,0.5074679601288459,0.5205170141393822,0.5117569591986969,,-1.492163277759037,-0.22718735569393664,0.07773073356,-0.0052422485871131096,-0.00888137248475363,0.013694784211371807,-0.003103537256551306
3.2770978800253943,,0.026896909,0.039162893,0.33124202,-0.9897984,-0.14204308,-0.01108104,-0.047632165,0.2566071,0.9653414,-0.1342766,0.9560211,-0.26075503,,-0.030686287,0.06901938,0.58412206,0.23618257,-0.79090744,0.56452036,-0.9664795,-0.13101271,0.22080103,-0.10067382,-0.5977467,-0.7953386,,0.022121714,-0.01853628,0.170895,-0.9889839,0.1191558,0.0878218,0.12692776,0.9879134,0.088974364,-0.07615852,0.09914124,-0.99215454,,-0.3032176608406769,-0.055750408619026734,0.10913335881000001,0.5168857106893525,0.5074679601288459,0.5205170141393822,0.5117569591986969,,-1.492163277759037,-0.22718735569393664,0.07773073356,-0.0052422485871131096,-0.00888137248475363,0.013694784211371807,-0.003103537256551306
3.300891411025077,,0.02689779,0.03916221,0.33124095,-0.98979723,-0.14205194,-0.011075599,-0.047630806,0.25661838,0.9653385,-0.13428599,0.9560168,-0.26076615,,-0.030687721,0.06901915,0.5841209,0.23618542,-0.790915,0.5645085,-0.96647906,-0.13101953,0.22079909,-0.10067169,-0.59773505,-0.7953476,,0.022121714,-0.01853628,0.170895,-0.9889839,0.1191558,0.0878218,0.12692776,0.9879134,0.088974364,-0.07615852,0.09914124,-0.99215454,,-0.30323310630642536,-0.055750408619026734,0.10913335881000001,0.5168857106893525,0.5074679601288459,0.5205170141393822,0.5117569591986969,,-1.4921478322932886,-0.22718735569393664,0.07773073356,-0.0052422485871131096,-0.00888137248475363,0.013694784211371807,-0.003103537256551306
3.3285451009869576,,0.026897348,0.03916255,0.3312415,-0.9897979,-0.14204752,-0.0110783335,-0.047631472,0.25661272,0.96533996,-0.1342813,0.95601887,-0.2607606,,-0.03068701,0.06901927,0.58412147,0.23618403,-0.7909112,0.5645144,-0.9664793,-0.1310161,0.22080007,-0.10067275,-0.5977409,-0.79534304,,0.022121714,-0.01853628,0.170895,-0.9889839,0.1191558,0.0878218,0.12692776,0.9879134,0.088974364,-0.07615852,0.09914124,-0.99215454,,-0.30322538357355117,-0.055750408619026734,0.10913335881000001,0.5168857106893525,0.5074679601288459,0.5205170141393822,0.5117569591986969,,-1.492155555026163,-0.22718735569393664,0.07773073356,-0.0052422485871131096,-0.00888137248475363,0.013694784211371807,-0.003103537256551306
3.3539029440144077,,0.026894886,0.03916243,0.33124113,-0.9898145,-0.14190862,-0.011367796,-0.04782547,0.2562464,0.9654277,-0.13408954,0.9561378,-0.26042318,,-0.03068701,0.06901927,0.58412147,0.23618403,-0.7909112,0.5645144,-0.9664793,-0.1310161,0.22080007,-0.10067275,-0.5977409,-0.79534304,,0.022121714,-0.01853628,0.170895,-0.9889839,0.1191558,0.0878218,0.12692776,0.9879134,0.088974364,-0.07615852,0.09914124,-0.99215454,,-0.30322538357355117,-0.055750408619026734,0.10913335881000001,0.5168857106893525,0.5071946871293149,0.5209032074270563,0.5120836473309655,,-1.492155555026163,-0.22718735569393664,0.07773073356,-0.0052422485871131096,-0.00888137248475363,0.013694784211371807,-0.003103537256551306
3.38024064298952,,0.026894886,0.03916243,0.33124113,-0.9898145,-0.14190862,-0.011367796,-0.04782547,0.2562464,0.9654277,-0.13408954,0.9561378,-0.26042318,,-0.030687721,0.06901915,0.5841209,0.23618542,-0.790915,0.5645085,-0.96647906,-0.13101953,0.22079909,-0.10067169,-0.59773505,-0.7953476,,0.022121714,-0.01853628,0.170895,-0.9889839,0.1191558,0.0878218,0.12692776,0.9879134,0.088974364,-0.07615852,0.09914124,-0.99215454,,-0.30322538357355117,-0.055750408619026734,0.10913335881000001,0.5168857106893525,0.5071946871293149,0.5209032074270563,0.5120836473309655,,-1.4921478322932886,-0.22718735569393664,0.07773073356,-0.0052422485871131096,-0.00888137248475363,0.013694784211371807,-0.003103537256551306
3.4083740999922156,,0.026880033,0.039168417,0.331243,-0.989818,-0.14188448,-0.01135968,-0.047811434,0.25624847,0.9654278,-0.13406831,0.95614076,-0.26042297,,-0.030824399,0.06902662,0.58412695,0.23603255,-0.7909347,0.56454486,-0.96651876,-0.13090849,0.22069073,-0.10064827,-0.5977334,-0.7953518,,0.022099262,-0.01852903,0.1708942,-0.9889825,0.119166575,0.08782306,0.12693864,0.98791206,0.08897418,-0.07615872,0.09914206,-0.9921544,,-0.3032176608406769,-0.055750408619026734,0.10913335881000001,0.5168857106893525,0.5071946871293149,0.5209032074270563,0.5120836473309655,,-1.4921478322932886,-0.22718735569393664,0.07773073356,-0.0052422485871131096,-0.00888137248475363,0.013694784211371807,-0.003103537256551306
3.4320158640039153,,0.026880033,0.039168417,0.331243,-0.989818,-0.1418854,-0.011348093,-0.047811434,0.25632727,0.9654069,-0.13406831,0.95611954,-0.26050103,,-0.030824399,0.06902662,0.58412695,0.23603255,-0.7909808,0.56448025,-0.96651876,-0.13092649,0.22068006,-0.10064827,-0.59766835,-0.7954006,,0.022099262,-0.01852903,0.1708942,-0.9889825,0.119166575,0.08782306,0.12693864,0.98791206,0.08897418,-0.07615872,0.09914206,-0.9921544,,-0.3032176608406769,-0.055750408619026734,0.10913335881000001,0.5168857106893525,0.5071946871293149,0.5208215286869158,0.5119203032648313,,-1.4921478322932886,-0.22718735569393664,0.07773073356,-0.0052422485871131096,-0.00888137248475363,0.013776462951512369,-0.0029401931904170266
3.4573187709902413,,0.026880477,0.039168067,0.33124244,-0.9898174,-0.14189073,-0.011333784,-0.047810752,0.25641182,0.9653845,-0.134073,0.95609605,-0.26058468,,-0.030824399,0.06902662,0.58412695,0.23603255,-0.79102695,0.56441563,-0.96651876,-0.1309445,0.22066936,-0.10064827,-0.5976034,-0.7954495,,0.022099262,-0.01852903,0.1708942,-0.9889825,0.119166575,0.08782306,0.12693864,0.98791206,0.08897418,-0.07615872,0.09914206,-0.9921544,,-0.30322538357355117,-0.055750408619026734,0.10913335881000001,0.5168857106893525,0.5071946871293149,0.520739849946775,0.5117569591986969,,-1.4921478322932886,-0.22718735569393664,0.07773073356,-0.0052422485871131096,-0.00888137248475363,0.013858141691652932,-0.002776849124282747
3.481595846998971,,0.026880033,0.039168417,0.331243,-0.989818,-0.14188632,-0.011336511,-0.047811434,0.2564062,0.965386,-0.13406831,0.95609826,-0.26057917,,-0.030824399,0.06902662,0.58412695,0.23603255,-0.79102695,0.56441563,-0.96651876,-0.1309445,0.22066936,-0.10064827,-0.5976034,-0.7954495,,0.022099262,-0.01852903,0.1708942,-0.9889825,0.119166575,0.08782306,0.12693864,0.98791206,0.08897418,-0.07615872,0.09914206,-0.9921544,,-0.3032176608406769,-0.055750408619026734,0.10913335881000001,0.5168857106893525,0.5071946871293149,0.520739849946775,0.5117569591986969,,-1.4921478322932886,-0.22718735569393664,0.07773073356,-0.0052422485871131096,-0.00888137248475363,0.013858141691652932,-0.002776849124282747
3.5114404869964346,,0.026880477,0.039168067,0.33124244,-0.9898174,-0.14189073,-0.011333784,-0.047810752,0.25641182,0.9653845,-0.134073,0.95609605,-0.26058468,,-0.030824399,0.06902662,0.58412695,0.23603255,-0.79102695,0.56441563,-0.96651876,-0.1309445,0.22066936,-0.10064827,-0.5976034,-0.7954495,,0.022099262,-0.01852903,0.1708942,-0.9889825,0.119166575,0.08782306,0.12693864,0.98791206,0.08897418,-0.07615872,0.09914206,-0.9921544,,-0.30322538357355117,-0.055750408619026734,0.10913335881000001,0.5168857106893525,0.5071946871293149,0.520739849946775,0.5117569591986969,,-1.4921478322932886,-0.22718735569393664,0.07773073356,-0.0052422485871131096,-0.00888137248475363,0.013858141691652932,-0.002776849124282747
3.534718755981885,,0.026880916,0.039167732,0.3312419,-0.9898168,-0.14189516,-0.011331076,-0.04781006,0.25641745,0.96538305,-0.1340777,0.9560939,-0.26059026,,-0.030824399,0.06902662,0.58412695,0.23603255,-0.79102695,0.56441563,-0.96651876,-0.1309445,0.22066936,-0.10064827,-0.5976034,-0.7954495,,0.022099262,-0.01852903,0.1708942,-0.9889825,0.119166575,0.08782306,0.12693864,0.98791206,0.08897418,-0.07615872,0.09914206,-0.9921544,,-0.30323310630642536,-0.055750408619026734,0.10913335881000001,0.5168857106893525,0.5071946871293149,0.520739849946775,0.5117569591986969,,-1.4921478322932886,-0.22718735569393664,0.07773073356,-0.0052422485871131096,-0.00888137248475363,0.013858141691652932,-0.002776849124282747
3.5625239349901676,,0.026880477,0.039168067,0.33124244,-0.9898174,-0.14189073,-0.011333784,-0.047810752,0.25641182,0.9653845,-0.134073,0.95609605,-0.26058468,,-0.030824399,0.06902662,0.58412695,0.23603255,-0.79102695,0.56441563,-0.96651876,-0.1309445,0.22066936,-0.10064827,-0.5976034,-0.7954495,,0.022099262,-0.01852903,0.1708942,-0.9889825,0.119166575,0.08782306,0.12693864,0.98791206,0.08897418,-0.07615872,0.09914206,-0.9921544,,-0.30322538357355117,-0.055750408619026734,0.10913335881000001,0.5168857106893525,0.5071946871293149,0.520739849946775,0.5117569591986969,,-1.4921478322932886,-0.22718735569393664,0.07773073356,-0.0052422485871131096,-0.00888137248475363,0.013858141691652932,-0.002776849124282747
3.5926647490123287,,0.026880916,0.039167732,0.3312419,-0.9898168,-0.14189516,-0.011331076,-0.04781006,0.25641745,0.96538305,-0.1340777,0.9560939,-0.26059026,,-0.030824399,0.06902662,0.58412695,0.23603255,-0.79102695,0.56441563,-0.96651876,-0.1309445,0.22066936,-0.10064827,-0.5976034,-0.7954495,,0.022099262,-0.01852903,0.1708942,-0.9889825,0.119166575,0.08782306,0.12693864,0.98791206,0.08897418,-0.07615872,0.09914206,-0.9921544,,-0.30323310630642536,-0.055750408619026734,0.10913335881000001,0.5168857106893525,0.5071946871293149,0.520739849946775,0.5117569591986969,,-1.4921478322932886,-0.22718735569393664,0.07773073356,-0.0052422485871131096,-0.00888137248475363,0.013858141691652932,-0.002776849124282747
3.6137929030228406,,0.026880033,0.039168417,0.331243,-0.989818,-0.14188632,-0.011336511,-0.047811434,0.2564062,0.965386,-0.13406831,0.95609826,-0.26057917,,-0.030824399,0.06902662,0.58412695,0.23603255,-0.79102695,0.56441563,-0.96651876,-0.1309445,0.22066936,-0.10064827,-0.5976034,-0.7954495,,0.022099262,-0.01852903,0.1708942,-0.9889825,0.119166575,0.08782306,0.12693864,0.98791206,0.08897418,-0.07615872,0.09914206,-0.9921544,,-0.3032176608406769,-0.055750408619026734,0.10913335881000001,0.5168857106893525,0.5071946871293149,0.520739849946775,0.5117569591986969,,-1.4921478322932886,-0.22718735569393664,0.07773073356,-0.0052422485871131096,-0.00888137248475363,0.013858141691652932,-0.002776849124282747
3.643986006034538,,0.026880033,0.039168417,0.331243,-0.989818,-0.14188632,-0.011336511,-0.047811434,0.2564062,0.965386,-0.13406831,0.95609826,-0.26057917,,-0.030824399,0.06902662,0.58412695,0.23603255,-0.79102695,0.56441563,-0.96651876,-0.1309445,0.22066936,-0.10064827,-0.5976034,-0.7954495,,0.022099262,-0.01852903,0.1708942,-0.9889825,0.119166575,0.08782306,0.12693864,0.98791206,0.08897418,-0.07615872,0.09914206,-0.9921544,,-0.3032176608406769,-0.055750408619026734,0.10913335881000001,0.5168857106893525,0.5071946871293149,0.520739849946775,0.5117569591986969,,-1.4921478322932886,-0.22718735569393664,0.07773073356,-0.0052422485871131096,-0.00888137248475363,0.013858141691652932,-0.002776849124282747
