AlexandreBanks6/ExpertPlaybackApp/resources/Motions/Motion_27.csv
Time,si_T_psm1,Tx,Ty,Tz,R00,R01,R02,R10,R11,R12,R20,R21,R22,si_T_psm3,Tx,Ty,Tz,R00,R01,R02,R10,R11,R12,R20,R21,R22,si_T_ecm,Tx,Ty,Tz,R00,R01,R02,R10,R11,R12,R20,R21,R22,joint_vars_psm1,q1,q2,q3,q4,q5,q6,jaw,joint_vars_psm3,q1,q2,q3,q4,q5,q6,jaw
lci_T_si
,,-0.05469241,0.06786659,0.48088318,0.9996263,0.026522135,-0.006623638,0.025327725,-0.98973507,-0.14065208,-0.01028604,0.14043176,-0.9900369
rci_T_si
,,-0.07293025,0.079442605,0.57492524,0.9958229,0.011875881,0.09053031,0.028659841,-0.9820505,-0.18642828,0.08669134,0.18824413,-0.9782887
ecm_T_lc
,,-0.039348,0.051043153,-0.2725159,-0.9888841,-0.12934415,0.07333705,0.13224038,-0.9905602,0.036096916,0.06797584,0.045393787,0.9966537
ecm_T_rc
,,0.010096899,0.19171284,-0.6841031,-0.99695045,-0.013193613,-0.07691395,0.014341901,-0.9997935,-0.014396289,-0.07670814,-0.015455482,0.99693376
0.028545428009238094,,0.035423573,0.03406509,0.36477703,-0.7140556,-0.570954,-0.40513718,-0.6753008,0.40909827,0.6136835,-0.18464415,0.71179354,-0.67768455,,0.0024624038,-0.022707602,0.6052178,0.54798,-0.80171496,0.23868638,-0.6423282,-0.22050396,0.73402476,-0.5358473,-0.55554587,-0.63579583,,0.03158242,-0.015961407,0.2308889,-0.9888507,0.11512082,0.09445349,0.12814063,0.9809622,0.14592125,-0.07585672,0.15639764,-0.9847768,,-0.3404180650958164,-0.057356737056865434,0.10926298781000002,0.0,0.0,0.0003267149605622489,0.0,,-1.4642687666173382,0.17319000743735885,0.08959437964000001,-0.0067100781915047794,-0.017079562470680057,-0.0016734014047947105,0.0017967847274770708
0.050202058046124876,,0.035423573,0.03406509,0.36477703,-0.7140556,-0.570954,-0.40513718,-0.6753008,0.40909827,0.6136835,-0.18464415,0.71179354,-0.67768455,,0.002462754,-0.022708012,0.60521746,0.54797816,-0.80171496,0.23869056,-0.64233387,-0.22050402,0.7340198,-0.53584236,-0.5555458,-0.6358,,0.03158242,-0.015961407,0.2308889,-0.9888507,0.11512082,0.09445349,0.12814063,0.9809622,0.14592125,-0.07585672,0.15639764,-0.9847768,,-0.3404180650958164,-0.057356737056865434,0.10926298781000002,0.0,0.0,0.0003267149605622489,0.0,,-1.4642687666173382,0.17318228470448463,0.08959437964000001,-0.0067100781915047794,-0.017079562470680057,-0.0016734014047947105,0.0017967847274770708
0.07960153004387394,,0.03542401,0.034066252,0.3647778,-0.7141107,-0.57099634,-0.4049804,-0.6752171,0.40916154,0.61373335,-0.18473707,0.71172315,-0.6777332,,0.002462754,-0.022708012,0.60521746,0.54797816,-0.80171496,0.23869056,-0.64233387,-0.22050402,0.7340198,-0.53584236,-0.5555458,-0.6358,,0.03158242,-0.015961407,0.2308889,-0.9888507,0.11512082,0.09445349,0.12814063,0.9809622,0.14592125,-0.07585672,0.15639764,-0.9847768,,-0.34041034236294215,-0.057356737056865434,0.10926298781000002,0.0,0.00013663649976544044,0.0002152970568658275,0.0,,-1.4642687666173382,0.17318228470448463,0.08959437964000001,-0.0067100781915047794,-0.017079562470680057,-0.0016734014047947105,0.0017967847274770708
0.10116702102823183,,0.035424896,0.034067087,0.36477804,-0.714166,-0.57104146,-0.4048192,-0.67513317,0.4092299,0.61377996,-0.1848297,0.7116477,-0.6777871,,0.0024624038,-0.022707602,0.6052178,0.54798,-0.80171496,0.23868638,-0.6423282,-0.22050396,0.73402476,-0.5358473,-0.55554587,-0.63579583,,0.03158242,-0.015961407,0.2308889,-0.9888507,0.11512082,0.09445349,0.12814063,0.9809622,0.14592125,-0.07585672,0.15639764,-0.9847768,,-0.34041034236294215,-0.057356737056865434,0.10926298781000002,0.0,0.0002732729995308809,0.00010387915316940611,0.0,,-1.4642687666173382,0.17319000743735885,0.08959437964000001,-0.0067100781915047794,-0.017079562470680057,-0.0016734014047947105,0.0017967847274770708
0.13116411899682134,,0.035424896,0.034067087,0.36477804,-0.714166,-0.57104146,-0.4048192,-0.67513317,0.4092299,0.61377996,-0.1848297,0.7116477,-0.6777871,,0.002462564,-0.022707058,0.6052185,0.5479828,-0.80171245,0.23868832,-0.64232236,-0.22049905,0.73403144,-0.5358515,-0.55555135,-0.63578737,,0.03158242,-0.015961407,0.2308889,-0.9888507,0.11512082,0.09445349,0.12814063,0.9809622,0.14592125,-0.07585672,0.15639764,-0.9847768,,-0.34041034236294215,-0.057356737056865434,0.10926298781000002,0.0,0.0002732729995308809,0.00010387915316940611,0.0,,-1.4642764893502125,0.17319773017023307,0.08959437964000001,-0.0067100781915047794,-0.017079562470680057,-0.0016734014047947105,0.0017967847274770708
0.1586890949984081,,0.035424896,0.034067087,0.36477804,-0.714166,-0.57104146,-0.4048192,-0.67513317,0.4092299,0.61377996,-0.1848297,0.7116477,-0.6777871,,0.002462564,-0.022707058,0.6052185,0.5479828,-0.80171245,0.23868832,-0.64232236,-0.22049905,0.73403144,-0.5358515,-0.55555135,-0.63578737,,0.03158242,-0.015961407,0.2308889,-0.9888507,0.11512082,0.09445349,0.12814063,0.9809622,0.14592125,-0.07585672,0.15639764,-0.9847768,,-0.34041034236294215,-0.057356737056865434,0.10926298781000002,0.0,0.0002732729995308809,0.00010387915316940611,0.0,,-1.4642764893502125,0.17319773017023307,0.08959437964000001,-0.0067100781915047794,-0.017079562470680057,-0.0016734014047947105,0.0017967847274770708
0.18369406001875177,,0.03542535,0.034066767,0.36477748,-0.7141663,-0.57104427,-0.40481478,-0.6751331,0.40923494,0.6137768,-0.18482938,0.7116425,-0.6777926,,0.0024620555,-0.022707192,0.6052181,0.54798186,-0.80171496,0.23868218,-0.6423226,-0.2205039,0.73402977,-0.5358522,-0.55554587,-0.63579166,,0.03158242,-0.015961407,0.2308889,-0.9888507,0.11512082,0.09445349,0.12814063,0.9809622,0.14592125,-0.07585672,0.15639764,-0.9847768,,-0.3404180650958164,-0.057356737056865434,0.10926298781000002,0.0,0.0002732729995308809,0.00010387915316940611,0.0,,-1.4642687666173382,0.17319773017023307,0.08959437964000001,-0.0067100781915047794,-0.017079562470680057,-0.0016734014047947105,0.0017967847274770708
0.21417870902223513,,0.03542535,0.034066767,0.36477748,-0.7141663,-0.57104427,-0.40481478,-0.6751331,0.40923494,0.6137768,-0.18482938,0.7116425,-0.6777926,,0.0024620555,-0.022707192,0.6052181,0.54798186,-0.80171496,0.23868218,-0.6423226,-0.2205039,0.73402977,-0.5358522,-0.55554587,-0.63579166,,0.03158242,-0.015961407,0.2308889,-0.9888507,0.11512082,0.09445349,0.12814063,0.9809622,0.14592125,-0.07585672,0.15639764,-0.9847768,,-0.3404180650958164,-0.057356737056865434,0.10926298781000002,0.0,0.0002732729995308809,0.00010387915316940611,0.0,,-1.4642687666173382,0.17319773017023307,0.08959437964000001,-0.0067100781915047794,-0.017079562470680057,-0.0016734014047947105,0.0017967847274770708
0.2418889620457776,,0.035424896,0.034067087,0.36477804,-0.714166,-0.57104146,-0.4048192,-0.67513317,0.4092299,0.61377996,-0.1848297,0.7116477,-0.6777871,,0.0024620555,-0.022707192,0.6052181,0.54798186,-0.80171496,0.23868218,-0.6423226,-0.2205039,0.73402977,-0.5358522,-0.55554587,-0.63579166,,0.03158242,-0.015961407,0.2308889,-0.9888507,0.11512082,0.09445349,0.12814063,0.9809622,0.14592125,-0.07585672,0.15639764,-0.9847768,,-0.34041034236294215,-0.057356737056865434,0.10926298781000002,0.0,0.0002732729995308809,0.00010387915316940611,0.0,,-1.4642687666173382,0.17319773017023307,0.08959437964000001,-0.0067100781915047794,-0.017079562470680057,-0.0016734014047947105,0.0017967847274770708
0.2661957680247724,,0.03542535,0.034066767,0.36477748,-0.7141663,-0.57104427,-0.40481478,-0.6751331,0.40923494,0.6137768,-0.18482938,0.7116425,-0.6777926,,0.0024615452,-0.022707334,0.6052178,0.5479808,-0.80171734,0.23867604,-0.6423228,-0.22050875,0.73402804,-0.5358529,-0.5555404,-0.6357959,,0.03158242,-0.015961407,0.2308889,-0.9888507,0.11512082,0.09445349,0.12814063,0.9809622,0.14592125,-0.07585672,0.15639764,-0.9847768,,-0.3404180650958164,-0.057356737056865434,0.10926298781000002,0.0,0.0002732729995308809,0.00010387915316940611,0.0,,-1.4642610438844639,0.17319773017023307,0.08959437964000001,-0.0067100781915047794,-0.017079562470680057,-0.0016734014047947105,0.0017967847274770708
0.2924193990183994,,0.035424896,0.034067087,0.36477804,-0.714166,-0.57104146,-0.4048192,-0.67513317,0.4092299,0.61377996,-0.1848297,0.7116477,-0.6777871,,0.0024620555,-0.022707192,0.6052181,0.54798186,-0.80171496,0.23868218,-0.6423226,-0.2205039,0.73402977,-0.5358522,-0.55554587,-0.63579166,,0.03158242,-0.015961407,0.2308889,-0.9888507,0.11512082,0.09445349,0.12814063,0.9809622,0.14592125,-0.07585672,0.15639764,-0.9847768,,-0.34041034236294215,-0.057356737056865434,0.10926298781000002,0.0,0.0002732729995308809,0.00010387915316940611,0.0,,-1.4642687666173382,0.17319773017023307,0.08959437964000001,-0.0067100781915047794,-0.017079562470680057,-0.0016734014047947105,0.0017967847274770708
0.3203442140365951,,0.03540232,0.034098484,0.36476701,-0.7141831,-0.5710524,-0.40477344,-0.6751076,0.40924776,0.61379635,-0.18485722,0.7116286,-0.6777997,,0.0026125647,-0.022690909,0.6052382,0.54811573,-0.80163777,0.23863374,-0.642237,-0.22060505,0.73407423,-0.5358178,-0.555617,-0.63575846,,0.031619634,-0.015977273,0.23088692,-0.9888522,0.11510899,0.09445199,0.12812866,0.98096377,0.14592147,-0.0758571,0.15639675,-0.9847769,,-0.34041034236294215,-0.057356737056865434,0.10926298781000002,0.0,0.0002732729995308809,0.00010387915316940611,0.0,,-1.4642687666173382,0.17319773017023307,0.08959437964000001,-0.0067100781915047794,-0.017079562470680057,-0.0016734014047947105,0.0017967847274770708
0.3446158560109325,,0.035402775,0.034098156,0.36476648,-0.7141834,-0.57105523,-0.40476906,-0.67510736,0.4092528,0.6137932,-0.1848569,0.71162343,-0.67780507,,0.0026125647,-0.022690909,0.6052382,0.54811573,-0.80163777,0.23863374,-0.642237,-0.22060505,0.73407423,-0.5358178,-0.555617,-0.63575846,,0.031619634,-0.015977273,0.23088692,-0.9888522,0.11510899,0.09445199,0.12812866,0.98096377,0.14592147,-0.0758571,0.15639675,-0.9847769,,-0.3404180650958164,-0.057356737056865434,0.10926298781000002,0.0,0.0002732729995308809,0.00010387915316940611,0.0,,-1.4642687666173382,0.17319773017023307,0.08959437964000001,-0.0067100781915047794,-0.017079562470680057,-0.0016734014047947105,0.0017967847274770708
0.3706440450041555,,0.03540232,0.034098484,0.36476701,-0.7141831,-0.5710524,-0.40477344,-0.6751076,0.40924776,0.61379635,-0.18485722,0.7116286,-0.6777997,,0.0026120562,-0.022691047,0.60523784,0.5481148,-0.8016402,0.23862761,-0.6422372,-0.22060984,0.7340726,-0.53581846,-0.55561155,-0.6357627,,0.031619634,-0.015977273,0.23088692,-0.9888522,0.11510899,0.09445199,0.12812866,0.98096377,0.14592147,-0.0758571,0.15639675,-0.9847769,,-0.34041034236294215,-0.057356737056865434,0.10926298781000002,0.0,0.0002732729995308809,0.00010387915316940611,0.0,,-1.4642610438844639,0.17319773017023307,0.08959437964000001,-0.0067100781915047794,-0.017079562470680057,-0.0016734014047947105,0.0017967847274770708
0.3941156759974547,,0.035402775,0.034098156,0.36476648,-0.7141834,-0.57105523,-0.40476906,-0.67510736,0.4092528,0.6137932,-0.1848569,0.71162343,-0.67780507,,0.0026125647,-0.022690909,0.6052382,0.54811573,-0.80163777,0.23863374,-0.642237,-0.22060505,0.73407423,-0.5358178,-0.555617,-0.63575846,,0.031619634,-0.015977273,0.23088692,-0.9888522,0.11510899,0.09445199,0.12812866,0.98096377,0.14592147,-0.0758571,0.15639675,-0.9847769,,-0.3404180650958164,-0.057356737056865434,0.10926298781000002,0.0,0.0002732729995308809,0.00010387915316940611,0.0,,-1.4642687666173382,0.17319773017023307,0.08959437964000001,-0.0067100781915047794,-0.017079562470680057,-0.0016734014047947105,0.0017967847274770708
0.4235629360191524,,0.035402775,0.034098156,0.36476648,-0.7141834,-0.57105523,-0.40476906,-0.67510736,0.4092528,0.6137932,-0.1848569,0.71162343,-0.67780507,,0.0026120562,-0.022691047,0.60523784,0.5481148,-0.8016402,0.23862761,-0.6422372,-0.22060984,0.7340726,-0.53581846,-0.55561155,-0.6357627,,0.031619634,-0.015977273,0.23088692,-0.9888522,0.11510899,0.09445199,0.12812866,0.98096377,0.14592147,-0.0758571,0.15639675,-0.9847769,,-0.3404180650958164,-0.057356737056865434,0.10926298781000002,0.0,0.0002732729995308809,0.00010387915316940611,0.0,,-1.4642610438844639,0.17319773017023307,0.08959437964000001,-0.0067100781915047794,-0.017079562470680057,-0.0016734014047947105,0.0017967847274770708
0.4505881420336664,,0.03540232,0.034098484,0.36476701,-0.7141831,-0.5710524,-0.40477344,-0.6751076,0.40924776,0.61379635,-0.18485722,0.7116286,-0.6777997,,0.0026120562,-0.022691047,0.60523784,0.5481148,-0.8016402,0.23862761,-0.6422372,-0.22060984,0.7340726,-0.53581846,-0.55561155,-0.6357627,,0.031619634,-0.015977273,0.23088692,-0.9888522,0.11510899,0.09445199,0.12812866,0.98096377,0.14592147,-0.0758571,0.15639675,-0.9847769,,-0.34041034236294215,-0.057356737056865434,0.10926298781000002,0.0,0.0002732729995308809,0.00010387915316940611,0.0,,-1.4642610438844639,0.17319773017023307,0.08959437964000001,-0.0067100781915047794,-0.017079562470680057,-0.0016734014047947105,0.0017967847274770708
0.4770369400503114,,0.035402775,0.034098156,0.36476648,-0.7141834,-0.57105523,-0.40476906,-0.67510736,0.4092528,0.6137932,-0.1848569,0.71162343,-0.67780507,,0.0026120562,-0.022691047,0.60523784,0.5481148,-0.8016402,0.23862761,-0.6422372,-0.22060984,0.7340726,-0.53581846,-0.55561155,-0.6357627,,0.031619634,-0.015977273,0.23088692,-0.9888522,0.11510899,0.09445199,0.12812866,0.98096377,0.14592147,-0.0758571,0.15639675,-0.9847769,,-0.3404180650958164,-0.057356737056865434,0.10926298781000002,0.0,0.0002732729995308809,0.00010387915316940611,0.0,,-1.4642610438844639,0.17319773017023307,0.08959437964000001,-0.0067100781915047794,-0.017079562470680057,-0.0016734014047947105,0.0017967847274770708
0.5012570400140248,,0.035402775,0.034098156,0.36476648,-0.7141834,-0.57105523,-0.40476906,-0.67510736,0.4092528,0.6137932,-0.1848569,0.71162343,-0.67780507,,0.0026125647,-0.022690909,0.6052382,0.54811573,-0.80163777,0.23863374,-0.642237,-0.22060505,0.73407423,-0.5358178,-0.555617,-0.63575846,,0.031619634,-0.015977273,0.23088692,-0.9888522,0.11510899,0.09445199,0.12812866,0.98096377,0.14592147,-0.0758571,0.15639675,-0.9847769,,-0.34041034236294215,-0.057356737056865434,0.10926298781000002,0.0,0.0002732729995308809,0.00010387915316940611,0.0,,-1.4642687666173382,0.17319773017023307,0.08959437964000001,-0.0067100781915047794,-0.017079562470680057,-0.0016734014047947105,0.0017967847274770708
0.5282795310486108,,0.035402775,0.034098156,0.36476648,-0.7141834,-0.57105523,-0.40476906,-0.67510736,0.4092528,0.6137932,-0.1848569,0.71162343,-0.67780507,,0.0026125647,-0.022690909,0.6052382,0.54811573,-0.80163777,0.23863374,-0.642237,-0.22060505,0.73407423,-0.5358178,-0.555617,-0.63575846,,0.031619634,-0.015977273,0.23088692,-0.9888522,0.11510899,0.09445199,0.12812866,0.98096377,0.14592147,-0.0758571,0.15639675,-0.9847769,,-0.3404180650958164,-0.057356737056865434,0.10926298781000002,0.0,0.0002732729995308809,0.00010387915316940611,0.0,,-1.4642687666173382,0.17319773017023307,0.08959437964000001,-0.0067100781915047794,-0.017079562470680057,-0.0016734014047947105,0.0017967847274770708
0.5555122960358858,,0.035402775,0.034098156,0.36476648,-0.7141834,-0.57105523,-0.40476906,-0.67510736,0.4092528,0.6137932,-0.1848569,0.71162343,-0.67780507,,0.0026120562,-0.022691047,0.60523784,0.5481148,-0.8016402,0.23862761,-0.6422372,-0.22060984,0.7340726,-0.53581846,-0.55561155,-0.6357627,,0.031619634,-0.015977273,0.23088692,-0.9888522,0.11510899,0.09445199,0.12812866,0.98096377,0.14592147,-0.0758571,0.15639675,-0.9847769,,-0.3404180650958164,-0.057356737056865434,0.10926298781000002,0.0,0.0002732729995308809,0.00010387915316940611,0.0,,-1.4642610438844639,0.17319773017023307,0.08959437964000001,-0.0067100781915047794,-0.017079562470680057,-0.0016734014047947105,0.0017967847274770708
0.5801742330077104,,0.03540232,0.034098484,0.36476701,-0.7141831,-0.5710524,-0.40477344,-0.6751076,0.40924776,0.61379635,-0.18485722,0.7116286,-0.6777997,,0.0026120562,-0.022691047,0.60523784,0.5481148,-0.8016402,0.23862761,-0.6422372,-0.22060984,0.7340726,-0.53581846,-0.55561155,-0.6357627,,0.031619634,-0.015977273,0.23088692,-0.9888522,0.11510899,0.09445199,0.12812866,0.98096377,0.14592147,-0.0758571,0.15639675,-0.9847769,,-0.34041034236294215,-0.057356737056865434,0.10926298781000002,0.0,0.0002732729995308809,0.00010387915316940611,0.0,,-1.4642610438844639,0.17319773017023307,0.08959437964000001,-0.0067100781915047794,-0.017079562470680057,-0.0016734014047947105,0.0017967847274770708
0.607026270008646,,0.03540232,0.034098484,0.36476701,-0.7141831,-0.5710524,-0.40477344,-0.6751076,0.40924776,0.61379635,-0.18485722,0.7116286,-0.6777997,,0.0026120562,-0.022691047,0.60523784,0.5481148,-0.8016402,0.23862761,-0.6422372,-0.22060984,0.7340726,-0.53581846,-0.55561155,-0.6357627,,0.031619634,-0.015977273,0.23088692,-0.9888522,0.11510899,0.09445199,0.12812866,0.98096377,0.14592147,-0.0758571,0.15639675,-0.9847769,,-0.34041034236294215,-0.057356737056865434,0.10926298781000002,0.0,0.0002732729995308809,0.00010387915316940611,0.0,,-1.4642610438844639,0.17319773017023307,0.08959437964000001,-0.0067100781915047794,-0.017079562470680057,-0.0016734014047947105,0.0017967847274770708
0.6332189830136485,,0.035402775,0.034098156,0.36476648,-0.7141834,-0.57105523,-0.40476906,-0.67510736,0.4092528,0.6137932,-0.1848569,0.71162343,-0.67780507,,0.0026120562,-0.022691047,0.60523784,0.5481148,-0.8016402,0.23862761,-0.6422372,-0.22060984,0.7340726,-0.53581846,-0.55561155,-0.6357627,,0.031619634,-0.015977273,0.23088692,-0.9888522,0.11510899,0.09445199,0.12812866,0.98096377,0.14592147,-0.0758571,0.15639675,-0.9847769,,-0.3404180650958164,-0.057356737056865434,0.10926298781000002,0.0,0.0002732729995308809,0.00010387915316940611,0.0,,-1.4642610438844639,0.17319773017023307,0.08959437964000001,-0.0067100781915047794,-0.017079562470680057,-0.0016734014047947105,0.0017967847274770708
0.6622409140109085,,0.03540232,0.034098484,0.36476701,-0.7141831,-0.5710524,-0.40477344,-0.6751076,0.40924776,0.61379635,-0.18485722,0.7116286,-0.6777997,,0.0026120562,-0.022691047,0.60523784,0.5481148,-0.8016402,0.23862761,-0.6422372,-0.22060984,0.7340726,-0.53581846,-0.55561155,-0.6357627,,0.031619634,-0.015977273,0.23088692,-0.9888522,0.11510899,0.09445199,0.12812866,0.98096377,0.14592147,-0.0758571,0.15639675,-0.9847769,,-0.34041034236294215,-0.057356737056865434,0.10926298781000002,0.0,0.0002732729995308809,0.00010387915316940611,0.0,,-1.4642610438844639,0.17319773017023307,0.08959437964000001,-0.0067100781915047794,-0.017079562470680057,-0.0016734014047947105,0.0017967847274770708
0.6847380960243754,,0.03540232,0.034098484,0.36476701,-0.7141831,-0.5710524,-0.40477344,-0.6751076,0.40924776,0.61379635,-0.18485722,0.7116286,-0.6777997,,0.0026125647,-0.022690909,0.6052382,0.54811573,-0.80163777,0.23863374,-0.642237,-0.22060505,0.73407423,-0.5358178,-0.555617,-0.63575846,,0.031619634,-0.015977273,0.23088692,-0.9888522,0.11510899,0.09445199,0.12812866,0.98096377,0.14592147,-0.0758571,0.15639675,-0.9847769,,-0.34041034236294215,-0.057356737056865434,0.10926298781000002,0.0,0.0002732729995308809,0.00010387915316940611,0.0,,-1.4642687666173382,0.17319773017023307,0.08959437964000001,-0.0067100781915047794,-0.017079562470680057,-0.0016734014047947105,0.0017967847274770708
0.7130343490280211,,0.03540232,0.034098484,0.36476701,-0.7141831,-0.5710524,-0.40477344,-0.6751076,0.40924776,0.61379635,-0.18485722,0.7116286,-0.6777997,,0.0026120562,-0.022691047,0.60523784,0.5481148,-0.8016402,0.23862761,-0.6422372,-0.22060984,0.7340726,-0.53581846,-0.55561155,-0.6357627,,0.031619634,-0.015977273,0.23088692,-0.9888522,0.11510899,0.09445199,0.12812866,0.98096377,0.14592147,-0.0758571,0.15639675,-0.9847769,,-0.34041034236294215,-0.057356737056865434,0.10926298781000002,0.0,0.0002732729995308809,0.00010387915316940611,0.0,,-1.4642610438844639,0.17319773017023307,0.08959437964000001,-0.0067100781915047794,-0.017079562470680057,-0.0016734014047947105,0.0017967847274770708
0.7363092680461705,,0.03540232,0.034098484,0.36476701,-0.7141831,-0.5710524,-0.40477344,-0.6751076,0.40924776,0.61379635,-0.18485722,0.7116286,-0.6777997,,0.0026120562,-0.022691047,0.60523784,0.5481148,-0.8016402,0.23862761,-0.6422372,-0.22060984,0.7340726,-0.53581846,-0.55561155,-0.6357627,,0.031619634,-0.015977273,0.23088692,-0.9888522,0.11510899,0.09445199,0.12812866,0.98096377,0.14592147,-0.0758571,0.15639675,-0.9847769,,-0.34041034236294215,-0.057356737056865434,0.10926298781000002,0.0,0.0002732729995308809,0.00010387915316940611,0.0,,-1.4642610438844639,0.17319773017023307,0.08959437964000001,-0.0067100781915047794,-0.017079562470680057,-0.0016734014047947105,0.0017967847274770708
0.7640061620040797,,0.035402775,0.034098156,0.36476648,-0.7141834,-0.57105523,-0.40476906,-0.67510736,0.4092528,0.6137932,-0.1848569,0.71162343,-0.67780507,,0.0026120562,-0.022691047,0.60523784,0.5481148,-0.8016402,0.23862761,-0.6422372,-0.22060984,0.7340726,-0.53581846,-0.55561155,-0.6357627,,0.031619634,-0.015977273,0.23088692,-0.9888522,0.11510899,0.09445199,0.12812866,0.98096377,0.14592147,-0.0758571,0.15639675,-0.9847769,,-0.3404180650958164,-0.057356737056865434,0.10926298781000002,0.0,0.0002732729995308809,0.00010387915316940611,0.0,,-1.4642610438844639,0.17319773017023307,0.08959437964000001,-0.0067100781915047794,-0.017079562470680057,-0.0016734014047947105,0.0017967847274770708
0.792214306013193,,0.035402775,0.034098156,0.36476648,-0.7141834,-0.57105523,-0.40476906,-0.67510736,0.4092528,0.6137932,-0.1848569,0.71162343,-0.67780507,,0.0026120562,-0.022691047,0.60523784,0.5481148,-0.8016402,0.23862761,-0.6422372,-0.22060984,0.7340726,-0.53581846,-0.55561155,-0.6357627,,0.031619634,-0.015977273,0.23088692,-0.9888522,0.11510899,0.09445199,0.12812866,0.98096377,0.14592147,-0.0758571,0.15639675,-0.9847769,,-0.3404180650958164,-0.057356737056865434,0.10926298781000002,0.0,0.0002732729995308809,0.00010387915316940611,0.0,,-1.4642610438844639,0.17319773017023307,0.08959437964000001,-0.0067100781915047794,-0.017079562470680057,-0.0016734014047947105,0.0017967847274770708
0.8169946430134587,,0.03540232,0.034098484,0.36476701,-0.7141831,-0.5710524,-0.40477344,-0.6751076,0.40924776,0.61379635,-0.18485722,0.7116286,-0.6777997,,0.0026120562,-0.022691047,0.60523784,0.5481148,-0.8016402,0.23862761,-0.6422372,-0.22060984,0.7340726,-0.53581846,-0.55561155,-0.6357627,,0.031619634,-0.015977273,0.23088692,-0.9888522,0.11510899,0.09445199,0.12812866,0.98096377,0.14592147,-0.0758571,0.15639675,-0.9847769,,-0.34041034236294215,-0.057356737056865434,0.10926298781000002,0.0,0.0002732729995308809,0.00010387915316940611,0.0,,-1.4642610438844639,0.17319773017023307,0.08959437964000001,-0.0067100781915047794,-0.017079562470680057,-0.0016734014047947105,0.0017967847274770708
0.845941384031903,,0.03540232,0.034098484,0.36476701,-0.7141831,-0.5710524,-0.40477344,-0.6751076,0.40924776,0.61379635,-0.18485722,0.7116286,-0.6777997,,0.0026125647,-0.022690909,0.6052382,0.54811573,-0.80163777,0.23863374,-0.642237,-0.22060505,0.73407423,-0.5358178,-0.555617,-0.63575846,,0.031619634,-0.015977273,0.23088692,-0.9888522,0.11510899,0.09445199,0.12812866,0.98096377,0.14592147,-0.0758571,0.15639675,-0.9847769,,-0.34041034236294215,-0.057356737056865434,0.10926298781000002,0.0,0.0002732729995308809,0.00010387915316940611,0.0,,-1.4642687666173382,0.17319773017023307,0.08959437964000001,-0.0067100781915047794,-0.017079562470680057,-0.0016734014047947105,0.0017967847274770708
0.8681726220529526,,0.03540232,0.034098484,0.36476701,-0.7141831,-0.5710524,-0.40477344,-0.6751076,0.40924776,0.61379635,-0.18485722,0.7116286,-0.6777997,,0.0026125647,-0.022690909,0.6052382,0.54811573,-0.80163777,0.23863374,-0.642237,-0.22060505,0.73407423,-0.5358178,-0.555617,-0.63575846,,0.031619634,-0.015977273,0.23088692,-0.9888522,0.11510899,0.09445199,0.12812866,0.98096377,0.14592147,-0.0758571,0.15639675,-0.9847769,,-0.34041034236294215,-0.057356737056865434,0.10926298781000002,0.0,0.0002732729995308809,0.00010387915316940611,0.0,,-1.4642687666173382,0.17319773017023307,0.08959437964000001,-0.0067100781915047794,-0.017079562470680057,-0.0016734014047947105,0.0017967847274770708
0.8964855320518836,,0.035402775,0.034098156,0.36476648,-0.7141834,-0.57105523,-0.40476906,-0.67510736,0.4092528,0.6137932,-0.1848569,0.71162343,-0.67780507,,0.0026120562,-0.022691047,0.60523784,0.5481148,-0.8016402,0.23862761,-0.6422372,-0.22060984,0.7340726,-0.53581846,-0.55561155,-0.6357627,,0.031619634,-0.015977273,0.23088692,-0.9888522,0.11510899,0.09445199,0.12812866,0.98096377,0.14592147,-0.0758571,0.15639675,-0.9847769,,-0.3404180650958164,-0.057356737056865434,0.10926298781000002,0.0,0.0002732729995308809,0.00010387915316940611,0.0,,-1.4642610438844639,0.17319773017023307,0.08959437964000001,-0.0067100781915047794,-0.017079562470680057,-0.0016734014047947105,0.0017967847274770708
0.9255670850398019,,0.035402775,0.034098156,0.36476648,-0.7141834,-0.57105523,-0.40476906,-0.67510736,0.4092528,0.6137932,-0.1848569,0.71162343,-0.67780507,,0.0026120562,-0.022691047,0.60523784,0.5481148,-0.8016402,0.23862761,-0.6422372,-0.22060984,0.7340726,-0.53581846,-0.55561155,-0.6357627,,0.031619634,-0.015977273,0.23088692,-0.9888522,0.11510899,0.09445199,0.12812866,0.98096377,0.14592147,-0.0758571,0.15639675,-0.9847769,,-0.3404180650958164,-0.057356737056865434,0.10926298781000002,0.0,0.0002732729995308809,0.00010387915316940611,0.0,,-1.4642610438844639,0.17319773017023307,0.08959437964000001,-0.0067100781915047794,-0.017079562470680057,-0.0016734014047947105,0.0017967847274770708
0.9490864200051874,,0.035402775,0.034098156,0.36476648,-0.7141834,-0.57105523,-0.40476906,-0.67510736,0.4092528,0.6137932,-0.1848569,0.71162343,-0.67780507,,0.0026120562,-0.022691047,0.60523784,0.5481148,-0.8016402,0.23862761,-0.6422372,-0.22060984,0.7340726,-0.53581846,-0.55561155,-0.6357627,,0.031619634,-0.015977273,0.23088692,-0.9888522,0.11510899,0.09445199,0.12812866,0.98096377,0.14592147,-0.0758571,0.15639675,-0.9847769,,-0.3404180650958164,-0.057356737056865434,0.10926298781000002,0.0,0.0002732729995308809,0.00010387915316940611,0.0,,-1.4642610438844639,0.17319773017023307,0.08959437964000001,-0.0067100781915047794,-0.017079562470680057,-0.0016734014047947105,0.0017967847274770708
0.9770888049970381,,0.035402775,0.034098156,0.36476648,-0.7141834,-0.57105523,-0.40476906,-0.67510736,0.4092528,0.6137932,-0.1848569,0.71162343,-0.67780507,,0.0026120562,-0.022691047,0.60523784,0.5481148,-0.8016402,0.23862761,-0.6422372,-0.22060984,0.7340726,-0.53581846,-0.55561155,-0.6357627,,0.031619634,-0.015977273,0.23088692,-0.9888522,0.11510899,0.09445199,0.12812866,0.98096377,0.14592147,-0.0758571,0.15639675,-0.9847769,,-0.3404180650958164,-0.057356737056865434,0.10926298781000002,0.0,0.0002732729995308809,0.00010387915316940611,0.0,,-1.4642610438844639,0.17319773017023307,0.08959437964000001,-0.0067100781915047794,-0.017079562470680057,-0.0016734014047947105,0.0017967847274770708
0.9994070830289274,,0.03540232,0.034098484,0.36476701,-0.7141831,-0.5710524,-0.40477344,-0.6751076,0.40924776,0.61379635,-0.18485722,0.7116286,-0.6777997,,0.0026125647,-0.022690909,0.6052382,0.54811573,-0.80163777,0.23863374,-0.642237,-0.22060505,0.73407423,-0.5358178,-0.555617,-0.63575846,,0.031619634,-0.015977273,0.23088692,-0.9888522,0.11510899,0.09445199,0.12812866,0.98096377,0.14592147,-0.0758571,0.15639675,-0.9847769,,-0.34041034236294215,-0.057356737056865434,0.10926298781000002,0.0,0.0002732729995308809,0.00010387915316940611,0.0,,-1.4642687666173382,0.17319773017023307,0.08959437964000001,-0.0067100781915047794,-0.017079562470680057,-0.0016734014047947105,0.0017967847274770708
1.0277663220185786,,0.03540232,0.034098484,0.36476701,-0.7141831,-0.5710524,-0.40477344,-0.6751076,0.40924776,0.61379635,-0.18485722,0.7116286,-0.6777997,,0.002612915,-0.022691319,0.6052379,0.54811394,-0.80163777,0.23863792,-0.64224267,-0.2206051,0.7340693,-0.53581285,-0.555617,-0.63576263,,0.031619634,-0.015977273,0.23088692,-0.9888522,0.11510899,0.09445199,0.12812866,0.98096377,0.14592147,-0.0758571,0.15639675,-0.9847769,,-0.34041034236294215,-0.057356737056865434,0.10926298781000002,0.0,0.0002732729995308809,0.00010387915316940611,0.0,,-1.4642687666173382,0.17319000743735885,0.08959437964000001,-0.0067100781915047794,-0.017079562470680057,-0.0016734014047947105,0.0017967847274770708
1.0507623180164956,,0.03540232,0.034098484,0.36476701,-0.7141831,-0.5710524,-0.40477344,-0.6751076,0.40924776,0.61379635,-0.18485722,0.7116286,-0.6777997,,0.002612915,-0.022691319,0.6052379,0.54811394,-0.80163777,0.23863792,-0.64224267,-0.2206051,0.7340693,-0.53581285,-0.555617,-0.63576263,,0.031619634,-0.015977273,0.23088692,-0.9888522,0.11510899,0.09445199,0.12812866,0.98096377,0.14592147,-0.0758571,0.15639675,-0.9847769,,-0.34041034236294215,-0.057356737056865434,0.10926298781000002,0.0,0.0002732729995308809,0.00010387915316940611,0.0,,-1.4642687666173382,0.17319000743735885,0.08959437964000001,-0.0067100781915047794,-0.017079562470680057,-0.0016734014047947105,0.0017967847274770708
1.0795235389959998,,0.03540232,0.034098484,0.36476701,-0.7141831,-0.5710524,-0.40477344,-0.6751076,0.40924776,0.61379635,-0.18485722,0.7116286,-0.6777997,,0.002613265,-0.022691725,0.6052375,0.54811203,-0.80163777,0.23864213,-0.64224833,-0.2206051,0.73406434,-0.5358079,-0.555617,-0.63576674,,0.031619634,-0.015977273,0.23088692,-0.9888522,0.11510899,0.09445199,0.12812866,0.98096377,0.14592147,-0.0758571,0.15639675,-0.9847769,,-0.34041034236294215,-0.057356737056865434,0.10926298781000002,0.0,0.0002732729995308809,0.00010387915316940611,0.0,,-1.4642687666173382,0.17318228470448463,0.08959437964000001,-0.0067100781915047794,-0.017079562470680057,-0.0016734014047947105,0.0017967847274770708
1.1021710920031182,,0.035402775,0.034098156,0.36476648,-0.7141834,-0.57105523,-0.40476906,-0.67510736,0.4092528,0.6137932,-0.1848569,0.71162343,-0.67780507,,0.0026124064,-0.022691457,0.6052375,0.548113,-0.8016402,0.23863178,-0.6422429,-0.2206099,0.73406756,-0.53581357,-0.5556115,-0.63576686,,0.031619634,-0.015977273,0.23088692,-0.9888522,0.11510899,0.09445199,0.12812866,0.98096377,0.14592147,-0.0758571,0.15639675,-0.9847769,,-0.3404180650958164,-0.057356737056865434,0.10926298781000002,0.0,0.0002732729995308809,0.00010387915316940611,0.0,,-1.4642610438844639,0.17319000743735885,0.08959437964000001,-0.0067100781915047794,-0.017079562470680057,-0.0016734014047947105,0.0017967847274770708
1.129564058035612,,0.035402775,0.034098156,0.36476648,-0.7141834,-0.57105523,-0.40476906,-0.67510736,0.4092528,0.6137932,-0.1848569,0.71162343,-0.67780507,,0.0026120562,-0.022691047,0.60523784,0.5481148,-0.8016402,0.23862761,-0.6422372,-0.22060984,0.7340726,-0.53581846,-0.55561155,-0.6357627,,0.031619634,-0.015977273,0.23088692,-0.9888522,0.11510899,0.09445199,0.12812866,0.98096377,0.14592147,-0.0758571,0.15639675,-0.9847769,,-0.3404180650958164,-0.057356737056865434,0.10926298781000002,0.0,0.0002732729995308809,0.00010387915316940611,0.0,,-1.4642610438844639,0.17319773017023307,0.08959437964000001,-0.0067100781915047794,-0.017079562470680057,-0.0016734014047947105,0.0017967847274770708
1.153414351050742,,0.035402775,0.034098156,0.36476648,-0.7141834,-0.57105523,-0.40476906,-0.67510736,0.4092528,0.6137932,-0.1848569,0.71162343,-0.67780507,,0.0026120562,-0.022691047,0.60523784,0.5481148,-0.8016402,0.23862761,-0.6422372,-0.22060984,0.7340726,-0.53581846,-0.55561155,-0.6357627,,0.031619634,-0.015977273,0.23088692,-0.9888522,0.11510899,0.09445199,0.12812866,0.98096377,0.14592147,-0.0758571,0.15639675,-0.9847769,,-0.3404180650958164,-0.057356737056865434,0.10926298781000002,0.0,0.0002732729995308809,0.00010387915316940611,0.0,,-1.4642610438844639,0.17319773017023307,0.08959437964000001,-0.0067100781915047794,-0.017079562470680057,-0.0016734014047947105,0.0017967847274770708
1.1823854050016962,,0.035402775,0.034098156,0.36476648,-0.7141834,-0.57105523,-0.40476906,-0.67510736,0.4092528,0.6137932,-0.1848569,0.71162343,-0.67780507,,0.0026120562,-0.022691047,0.60523784,0.5481148,-0.8016402,0.23862761,-0.6422372,-0.22060984,0.7340726,-0.53581846,-0.55561155,-0.6357627,,0.031619634,-0.015977273,0.23088692,-0.9888522,0.11510899,0.09445199,0.12812866,0.98096377,0.14592147,-0.0758571,0.15639675,-0.9847769,,-0.3404180650958164,-0.057356737056865434,0.10926298781000002,0.0,0.0002732729995308809,0.00010387915316940611,0.0,,-1.4642610438844639,0.17319773017023307,0.08959437964000001,-0.0067100781915047794,-0.017079562470680057,-0.0016734014047947105,0.0017967847274770708
1.2103279430302791,,0.03540232,0.034098484,0.36476701,-0.7141831,-0.5710524,-0.40477344,-0.6751076,0.40924776,0.61379635,-0.18485722,0.7116286,-0.6777997,,0.0026120562,-0.022691047,0.60523784,0.5481148,-0.8016402,0.23862761,-0.6422372,-0.22060984,0.7340726,-0.53581846,-0.55561155,-0.6357627,,0.031619634,-0.015977273,0.23088692,-0.9888522,0.11510899,0.09445199,0.12812866,0.98096377,0.14592147,-0.0758571,0.15639675,-0.9847769,,-0.34041034236294215,-0.057356737056865434,0.10926298781000002,0.0,0.0002732729995308809,0.00010387915316940611,0.0,,-1.4642610438844639,0.17319773017023307,0.08959437964000001,-0.0067100781915047794,-0.017079562470680057,-0.0016734014047947105,0.0017967847274770708
1.2322979670134373,,0.03540232,0.034098484,0.36476701,-0.7141831,-0.5710524,-0.40477344,-0.6751076,0.40924776,0.61379635,-0.18485722,0.7116286,-0.6777997,,0.0026115477,-0.022691188,0.60523754,0.5481139,-0.8016427,0.23862146,-0.6422375,-0.22061467,0.73407096,-0.5358192,-0.555606,-0.63576686,,0.031619634,-0.015977273,0.23088692,-0.9888522,0.11510899,0.09445199,0.12812866,0.98096377,0.14592147,-0.0758571,0.15639675,-0.9847769,,-0.34041034236294215,-0.057356737056865434,0.10926298781000002,0.0,0.0002732729995308809,0.00010387915316940611,0.0,,-1.4642533211515898,0.17319773017023307,0.08959437964000001,-0.0067100781915047794,-0.017079562470680057,-0.0016734014047947105,0.0017967847274770708
1.2552387040341273,,0.03540232,0.034098484,0.36476701,-0.7141831,-0.5710524,-0.40477344,-0.6751076,0.40924776,0.61379635,-0.18485722,0.7116286,-0.6777997,,0.0026120562,-0.022691047,0.60523784,0.5481148,-0.8016402,0.23862761,-0.6422372,-0.22060984,0.7340726,-0.53581846,-0.55561155,-0.6357627,,0.031619634,-0.015977273,0.23088692,-0.9888522,0.11510899,0.09445199,0.12812866,0.98096377,0.14592147,-0.0758571,0.15639675,-0.9847769,,-0.34041034236294215,-0.057356737056865434,0.10926298781000002,0.0,0.0002732729995308809,0.00010387915316940611,0.0,,-1.4642610438844639,0.17319773017023307,0.08959437964000001,-0.0067100781915047794,-0.017079562470680057,-0.0016734014047947105,0.0017967847274770708
1.2828503650380298,,0.03540232,0.034098484,0.36476701,-0.7141831,-0.5710524,-0.40477344,-0.6751076,0.40924776,0.61379635,-0.18485722,0.7116286,-0.6777997,,0.0026120562,-0.022691047,0.60523784,0.5481148,-0.8016402,0.23862761,-0.6422372,-0.22060984,0.7340726,-0.53581846,-0.55561155,-0.6357627,,0.031619634,-0.015977273,0.23088692,-0.9888522,0.11510899,0.09445199,0.12812866,0.98096377,0.14592147,-0.0758571,0.15639675,-0.9847769,,-0.34041034236294215,-0.057356737056865434,0.10926298781000002,0.0,0.0002732729995308809,0.00010387915316940611,0.0,,-1.4642610438844639,0.17319773017023307,0.08959437964000001,-0.0067100781915047794,-0.017079562470680057,-0.0016734014047947105,0.0017967847274770708
1.3100449830526486,,0.03540232,0.034098484,0.36476701,-0.7141831,-0.5710524,-0.40477344,-0.6751076,0.40924776,0.61379635,-0.18485722,0.7116286,-0.6777997,,0.0026130714,-0.022690775,0.60523856,0.5481167,-0.80163527,0.23863989,-0.64223677,-0.22060019,0.7340759,-0.5358171,-0.5556225,-0.6357543,,0.031619634,-0.015977273,0.23088692,-0.9888522,0.11510899,0.09445199,0.12812866,0.98096377,0.14592147,-0.0758571,0.15639675,-0.9847769,,-0.34041034236294215,-0.057356737056865434,0.10926298781000002,0.0,0.0002732729995308809,0.00010387915316940611,0.0,,-1.4642764893502125,0.17319773017023307,0.08959437964000001,-0.0067100781915047794,-0.017079562470680057,-0.0016734014047947105,0.0017967847274770708
1.3337632880429737,,0.035401866,0.03409881,0.3647676,-0.71418285,-0.57104963,-0.4047779,-0.6751077,0.40924278,0.61379945,-0.18485753,0.71163374,-0.67779416,,0.0026130714,-0.022690775,0.60523856,0.5481167,-0.80163527,0.23863989,-0.64223677,-0.22060019,0.7340759,-0.5358171,-0.5556225,-0.6357543,,0.031619634,-0.015977273,0.23088692,-0.9888522,0.11510899,0.09445199,0.12812866,0.98096377,0.14592147,-0.0758571,0.15639675,-0.9847769,,-0.34040261963006796,-0.057356737056865434,0.10926298781000002,0.0,0.0002732729995308809,0.00010387915316940611,0.0,,-1.4642764893502125,0.17319773017023307,0.08959437964000001,-0.0067100781915047794,-0.017079562470680057,-0.0016734014047947105,0.0017967847274770708
1.3600269940216094,,0.03540232,0.034098484,0.36476701,-0.7141831,-0.5710524,-0.40477344,-0.6751076,0.40924776,0.61379635,-0.18485722,0.7116286,-0.6777997,,0.0026125647,-0.022690909,0.6052382,0.54811573,-0.80163777,0.23863374,-0.642237,-0.22060505,0.73407423,-0.5358178,-0.555617,-0.63575846,,0.031619634,-0.015977273,0.23088692,-0.9888522,0.11510899,0.09445199,0.12812866,0.98096377,0.14592147,-0.0758571,0.15639675,-0.9847769,,-0.34041034236294215,-0.057356737056865434,0.10926298781000002,0.0,0.0002732729995308809,0.00010387915316940611,0.0,,-1.4642687666173382,0.17319773017023307,0.08959437964000001,-0.0067100781915047794,-0.017079562470680057,-0.0016734014047947105,0.0017967847274770708
1.3843840840272605,,0.03540232,0.034098484,0.36476701,-0.7141831,-0.5710524,-0.40477344,-0.6751076,0.40924776,0.61379635,-0.18485722,0.7116286,-0.6777997,,0.002612915,-0.022691319,0.6052379,0.54811394,-0.80163777,0.23863792,-0.64224267,-0.2206051,0.7340693,-0.53581285,-0.555617,-0.63576263,,0.031619634,-0.015977273,0.23088692,-0.9888522,0.11510899,0.09445199,0.12812866,0.98096377,0.14592147,-0.0758571,0.15639675,-0.9847769,,-0.34041034236294215,-0.057356737056865434,0.10926298781000002,0.0,0.0002732729995308809,0.00010387915316940611,0.0,,-1.4642687666173382,0.17319000743735885,0.08959437964000001,-0.0067100781915047794,-0.017079562470680057,-0.0016734014047947105,0.0017967847274770708
1.4135648200172,,0.03540232,0.034098484,0.36476701,-0.7141831,-0.5710524,-0.40477344,-0.6751076,0.40924776,0.61379635,-0.18485722,0.7116286,-0.6777997,,0.002612915,-0.022691319,0.6052379,0.54811394,-0.80163777,0.23863792,-0.64224267,-0.2206051,0.7340693,-0.53581285,-0.555617,-0.63576263,,0.031619634,-0.015977273,0.23088692,-0.9888522,0.11510899,0.09445199,0.12812866,0.98096377,0.14592147,-0.0758571,0.15639675,-0.9847769,,-0.34041034236294215,-0.057356737056865434,0.10926298781000002,0.0,0.0002732729995308809,0.00010387915316940611,0.0,,-1.4642687666173382,0.17319000743735885,0.08959437964000001,-0.0067100781915047794,-0.017079562470680057,-0.0016734014047947105,0.0017967847274770708
1.4384386989986524,,0.035474114,0.03404013,0.3647648,-0.7141378,-0.5710904,-0.40479973,-0.67514974,0.4092037,0.61377937,-0.18487793,0.7116235,-0.6777994,,0.0026127566,-0.022691863,0.6052372,0.5481111,-0.8016402,0.23863599,-0.6422485,-0.22060993,0.73406273,-0.5358086,-0.5556115,-0.635771,,0.031619634,-0.015977273,0.23088692,-0.9888522,0.11510899,0.09445199,0.12812866,0.98096377,0.14592147,-0.0758571,0.15639675,-0.9847769,,-0.3404180650958164,-0.057356737056865434,0.10926298781000002,0.0,0.0002732729995308809,0.00010387915316940611,0.0,,-1.4642610438844639,0.17318228470448463,0.08959437964000001,-0.0067100781915047794,-0.017079562470680057,-0.0016734014047947105,0.0017967847274770708
1.4636254230281338,,0.035484284,0.034041405,0.36476249,-0.7141204,-0.57110137,-0.4048153,-0.6751685,0.4091903,0.61376756,-0.184877,0.7116223,-0.6778008,,0.0024917778,-0.02272082,0.6052308,0.5480006,-0.8016912,0.2387191,-0.64233834,-0.22050682,0.73401505,-0.53581405,-0.55557895,-0.63579476,,0.031631164,-0.015976356,0.23088469,-0.9888556,0.11508359,0.09444877,0.12810302,0.980967,0.14592195,-0.0758579,0.15639487,-0.9847771,,-0.3404180650958164,-0.057356737056865434,0.10926298781000002,0.0,0.0002732729995308809,0.00010387915316940611,0.0,,-1.4642610438844639,0.17319000743735885,0.08959437964000001,-0.0067100781915047794,-0.017079562470680057,-0.0016734014047947105,0.0017967847274770708
1.4863523270469159,,0.035484284,0.034041405,0.36476249,-0.7141204,-0.57110137,-0.4048153,-0.6751685,0.4091903,0.61376756,-0.184877,0.7116223,-0.6778008,,0.0024914313,-0.022720406,0.6052311,0.54800236,-0.8016912,0.23871492,-0.64233273,-0.22050676,0.7340199,-0.535819,-0.555579,-0.6357906,,0.031631164,-0.015976356,0.23088469,-0.9888556,0.11508359,0.09444877,0.12810302,0.980967,0.14592195,-0.0758579,0.15639487,-0.9847771,,-0.3404180650958164,-0.057356737056865434,0.10926298781000002,0.0,0.0002732729995308809,0.00010387915316940611,0.0,,-1.4642610438844639,0.17319773017023307,0.08959437964000001,-0.0067100781915047794,-0.017079562470680057,-0.0016734014047947105,0.0017967847274770708
1.5146318380138837,,0.035484284,0.034041405,0.36476249,-0.7141204,-0.57110137,-0.4048153,-0.6751685,0.4091903,0.61376756,-0.184877,0.7116223,-0.6778008,,0.0024914313,-0.022720406,0.6052311,0.54800236,-0.8016912,0.23871492,-0.64233273,-0.22050676,0.7340199,-0.535819,-0.555579,-0.6357906,,0.031631164,-0.015976356,0.23088469,-0.9888556,0.11508359,0.09444877,0.12810302,0.980967,0.14592195,-0.0758579,0.15639487,-0.9847771,,-0.3404180650958164,-0.057356737056865434,0.10926298781000002,0.0,0.0002732729995308809,0.00010387915316940611,0.0,,-1.4642610438844639,0.17319773017023307,0.08959437964000001,-0.0067100781915047794,-0.017079562470680057,-0.0016734014047947105,0.0017967847274770708
1.5421029340359382,,0.03548383,0.03404174,0.36476305,-0.71412015,-0.5710986,-0.40481967,-0.6751687,0.40918526,0.61377066,-0.1848773,0.7116275,-0.6777953,,0.002491936,-0.022720268,0.60523146,0.5480033,-0.80168873,0.23872104,-0.64233243,-0.22050196,0.73402154,-0.5358183,-0.5555845,-0.6357864,,0.031631164,-0.015976356,0.23088469,-0.9888556,0.11508359,0.09444877,0.12810302,0.980967,0.14592195,-0.0758579,0.15639487,-0.9847771,,-0.34041034236294215,-0.057356737056865434,0.10926298781000002,0.0,0.0002732729995308809,0.00010387915316940611,0.0,,-1.4642687666173382,0.17319773017023307,0.08959437964000001,-0.0067100781915047794,-0.017079562470680057,-0.0016734014047947105,0.0017967847274770708
1.5679447760339826,,0.035484735,0.03404109,0.36476192,-0.7141207,-0.5711042,-0.40481088,-0.6751683,0.40919536,0.6137644,-0.18487668,0.7116172,-0.67780626,,0.002491936,-0.022720268,0.60523146,0.5480033,-0.80168873,0.23872104,-0.64233243,-0.22050196,0.73402154,-0.5358183,-0.5555845,-0.6357864,,0.031631164,-0.015976356,0.23088469,-0.9888556,0.11508359,0.09444877,0.12810302,0.980967,0.14592195,-0.0758579,0.15639487,-0.9847771,,-0.3404257878286906,-0.057356737056865434,0.10926298781000002,0.0,0.0002732729995308809,0.00010387915316940611,0.0,,-1.4642687666173382,0.17319773017023307,0.08959437964000001,-0.0067100781915047794,-0.017079562470680057,-0.0016734014047947105,0.0017967847274770708
1.5961981060099788,,0.035484284,0.034041405,0.36476249,-0.7141204,-0.57110137,-0.4048153,-0.6751685,0.4091903,0.61376756,-0.184877,0.7116223,-0.6778008,,0.002491936,-0.022720268,0.60523146,0.5480033,-0.80168873,0.23872104,-0.64233243,-0.22050196,0.73402154,-0.5358183,-0.5555845,-0.6357864,,0.031631164,-0.015976356,0.23088469,-0.9888556,0.11508359,0.09444877,0.12810302,0.980967,0.14592195,-0.0758579,0.15639487,-0.9847771,,-0.3404180650958164,-0.057356737056865434,0.10926298781000002,0.0,0.0002732729995308809,0.00010387915316940611,0.0,,-1.4642687666173382,0.17319773017023307,0.08959437964000001,-0.0067100781915047794,-0.017079562470680057,-0.0016734014047947105,0.0017967847274770708
1.6180324960150756,,0.035484284,0.034041405,0.36476249,-0.7141204,-0.57110137,-0.4048153,-0.6751685,0.4091903,0.61376756,-0.184877,0.7116223,-0.6778008,,0.0024914313,-0.022720406,0.6052311,0.54800236,-0.8016912,0.23871492,-0.64233273,-0.22050676,0.7340199,-0.535819,-0.555579,-0.6357906,,0.031631164,-0.015976356,0.23088469,-0.9888556,0.11508359,0.09444877,0.12810302,0.980967,0.14592195,-0.0758579,0.15639487,-0.9847771,,-0.34041034236294215,-0.057356737056865434,0.10926298781000002,0.0,0.0002732729995308809,0.00010387915316940611,0.0,,-1.4642610438844639,0.17319773017023307,0.08959437964000001,-0.0067100781915047794,-0.017079562470680057,-0.0016734014047947105,0.0017967847274770708
1.6484918240457773,,0.035484284,0.034041405,0.36476249,-0.7141204,-0.57110137,-0.4048153,-0.6751685,0.4091903,0.61376756,-0.184877,0.7116223,-0.6778008,,0.002491936,-0.022720268,0.60523146,0.5480033,-0.80168873,0.23872104,-0.64233243,-0.22050196,0.73402154,-0.5358183,-0.5555845,-0.6357864,,0.031631164,-0.015976356,0.23088469,-0.9888556,0.11508359,0.09444877,0.12810302,0.980967,0.14592195,-0.0758579,0.15639487,-0.9847771,,-0.3404180650958164,-0.057356737056865434,0.10926298781000002,0.0,0.0002732729995308809,0.00010387915316940611,0.0,,-1.4642687666173382,0.17319773017023307,0.08959437964000001,-0.0067100781915047794,-0.017079562470680057,-0.0016734014047947105,0.0017967847274770708
1.6767046720487997,,0.035484284,0.034041405,0.36476249,-0.7141204,-0.57110137,-0.4048153,-0.6751685,0.4091903,0.61376756,-0.184877,0.7116223,-0.6778008,,0.0024924465,-0.02272013,0.6052318,0.5480043,-0.8016862,0.23872718,-0.64233226,-0.2204971,0.7340232,-0.53581756,-0.55559003,-0.6357822,,0.031631164,-0.015976356,0.23088469,-0.9888556,0.11508359,0.09444877,0.12810302,0.980967,0.14592195,-0.0758579,0.15639487,-0.9847771,,-0.3404180650958164,-0.057356737056865434,0.10926298781000002,0.0,0.0002732729995308809,0.00010387915316940611,0.0,,-1.4642764893502125,0.17319773017023307,0.08959437964000001,-0.0067100781915047794,-0.017079562470680057,-0.0016734014047947105,0.0017967847274770708
1.7001660150126554,,0.03548383,0.03404174,0.36476305,-0.71412015,-0.5710986,-0.40481967,-0.6751687,0.40918526,0.61377066,-0.1848773,0.7116275,-0.6777953,,0.0024924465,-0.02272013,0.6052318,0.5480043,-0.8016862,0.23872718,-0.64233226,-0.2204971,0.7340232,-0.53581756,-0.55559003,-0.6357822,,0.031631164,-0.015976356,0.23088469,-0.9888556,0.11508359,0.09444877,0.12810302,0.980967,0.14592195,-0.0758579,0.15639487,-0.9847771,,-0.34041034236294215,-0.057356737056865434,0.10926298781000002,0.0,0.0002732729995308809,0.00010387915316940611,0.0,,-1.4642764893502125,0.17319773017023307,0.08959437964000001,-0.0067100781915047794,-0.017079562470680057,-0.0016734014047947105,0.0017967847274770708
1.728211175010074,,0.03548383,0.03404174,0.36476305,-0.71412015,-0.5710986,-0.40481967,-0.6751687,0.40918526,0.61377066,-0.1848773,0.7116275,-0.6777953,,0.0024922863,-0.022720674,0.60523117,0.54800147,-0.80168873,0.23872524,-0.6423381,-0.22050202,0.73401666,-0.5358134,-0.5555845,-0.6357905,,0.031631164,-0.015976356,0.23088469,-0.9888556,0.11508359,0.09444877,0.12810302,0.980967,0.14592195,-0.0758579,0.15639487,-0.9847771,,-0.34041034236294215,-0.057356737056865434,0.10926298781000002,0.0,0.0002732729995308809,0.00010387915316940611,0.0,,-1.4642687666173382,0.17319000743735885,0.08959437964000001,-0.0067100781915047794,-0.017079562470680057,-0.0016734014047947105,0.0017967847274770708
1.751965410017874,,0.03548383,0.03404174,0.36476305,-0.71412015,-0.5710986,-0.40481967,-0.6751687,0.40918526,0.61377066,-0.1848773,0.7116275,-0.6777953,,0.0024922863,-0.022720674,0.60523117,0.54800147,-0.80168873,0.23872524,-0.6423381,-0.22050202,0.73401666,-0.5358134,-0.5555845,-0.6357905,,0.031631164,-0.015976356,0.23088469,-0.9888556,0.11508359,0.09444877,0.12810302,0.980967,0.14592195,-0.0758579,0.15639487,-0.9847771,,-0.34041034236294215,-0.057356737056865434,0.10926298781000002,0.0,0.0002732729995308809,0.00010387915316940611,0.0,,-1.4642687666173382,0.17319000743735885,0.08959437964000001,-0.0067100781915047794,-0.017079562470680057,-0.0016734014047947105,0.0017967847274770708
1.7812208590330556,,0.035484284,0.034041405,0.36476249,-0.7141204,-0.57110137,-0.4048153,-0.6751685,0.4091903,0.61376756,-0.184877,0.7116223,-0.6778008,,0.0024926402,-0.02272108,0.60523075,0.5479997,-0.8016888,0.23872945,-0.6423438,-0.22050202,0.73401165,-0.53580844,-0.55558443,-0.63579476,,0.031631164,-0.015976356,0.23088469,-0.9888556,0.11508359,0.09444877,0.12810302,0.980967,0.14592195,-0.0758579,0.15639487,-0.9847771,,-0.3404180650958164,-0.057356737056865434,0.10926298781000002,0.0,0.0002732729995308809,0.00010387915316940611,0.0,,-1.4642687666173382,0.17318228470448463,0.08959437964000001,-0.0067100781915047794,-0.017079562470680057,-0.0016734014047947105,0.0017967847274770708
1.8022949860314839,,0.035484284,0.034041405,0.36476249,-0.7141204,-0.57110137,-0.4048153,-0.6751685,0.4091903,0.61376756,-0.184877,0.7116223,-0.6778008,,0.0024921317,-0.022721218,0.60523045,0.5479987,-0.8016912,0.23872328,-0.6423441,-0.22050688,0.73401,-0.53580916,-0.55557895,-0.6357989,,0.031631164,-0.015976356,0.23088469,-0.9888556,0.11508359,0.09444877,0.12810302,0.980967,0.14592195,-0.0758579,0.15639487,-0.9847771,,-0.3404180650958164,-0.057356737056865434,0.10926298781000002,0.0,0.0002732729995308809,0.00010387915316940611,0.0,,-1.4642610438844639,0.17318228470448463,0.08959437964000001,-0.0067100781915047794,-0.017079562470680057,-0.0016734014047947105,0.0017967847274770708
1.8324977330048569,,0.03548383,0.03404174,0.36476305,-0.71412015,-0.5710986,-0.40481967,-0.6751687,0.40918526,0.61377066,-0.1848773,0.7116275,-0.6777953,,0.0024922863,-0.022720674,0.60523117,0.54800147,-0.80168873,0.23872524,-0.6423381,-0.22050202,0.73401666,-0.5358134,-0.5555845,-0.6357905,,0.031631164,-0.015976356,0.23088469,-0.9888556,0.11508359,0.09444877,0.12810302,0.980967,0.14592195,-0.0758579,0.15639487,-0.9847771,,-0.34041034236294215,-0.057356737056865434,0.10926298781000002,0.0,0.0002732729995308809,0.00010387915316940611,0.0,,-1.4642687666173382,0.17319000743735885,0.08959437964000001,-0.0067100781915047794,-0.017079562470680057,-0.0016734014047947105,0.0017967847274770708
1.8587104320176877,,0.035484284,0.034041405,0.36476249,-0.7141204,-0.57110137,-0.4048153,-0.6751685,0.4091903,0.61376756,-0.184877,0.7116223,-0.6778008,,0.0024924465,-0.02272013,0.6052318,0.5480043,-0.8016862,0.23872718,-0.64233226,-0.2204971,0.7340232,-0.53581756,-0.55559003,-0.6357822,,0.031631164,-0.015976356,0.23088469,-0.9888556,0.11508359,0.09444877,0.12810302,0.980967,0.14592195,-0.0758579,0.15639487,-0.9847771,,-0.3404180650958164,-0.057356737056865434,0.10926298781000002,0.0,0.0002732729995308809,0.00010387915316940611,0.0,,-1.4642764893502125,0.17319773017023307,0.08959437964000001,-0.0067100781915047794,-0.017079562470680057,-0.0016734014047947105,0.0017967847274770708
1.884963502001483,,0.035484284,0.034041405,0.36476249,-0.7141204,-0.57110137,-0.4048153,-0.6751685,0.4091903,0.61376756,-0.184877,0.7116223,-0.6778008,,0.0024928004,-0.022720536,0.60523146,0.5480025,-0.8016862,0.23873138,-0.6423379,-0.22049716,0.7340183,-0.5358127,-0.55559,-0.63578635,,0.031631164,-0.015976356,0.23088469,-0.9888556,0.11508359,0.09444877,0.12810302,0.980967,0.14592195,-0.0758579,0.15639487,-0.9847771,,-0.3404180650958164,-0.057356737056865434,0.10926298781000002,0.0,0.0002732729995308809,0.00010387915316940611,0.0,,-1.4642764893502125,0.17319000743735885,0.08959437964000001,-0.0067100781915047794,-0.017079562470680057,-0.0016734014047947105,0.0017967847274770708
1.9120227710227482,,0.03548383,0.03404174,0.36476305,-0.71412015,-0.5710986,-0.40481967,-0.6751687,0.40918526,0.61377066,-0.1848773,0.7116275,-0.6777953,,0.0024922863,-0.022720674,0.60523117,0.54800147,-0.80168873,0.23872524,-0.6423381,-0.22050202,0.73401666,-0.5358134,-0.5555845,-0.6357905,,0.031631164,-0.015976356,0.23088469,-0.9888556,0.11508359,0.09444877,0.12810302,0.980967,0.14592195,-0.0758579,0.15639487,-0.9847771,,-0.34041034236294215,-0.057356737056865434,0.10926298781000002,0.0,0.0002732729995308809,0.00010387915316940611,0.0,,-1.4642687666173382,0.17319000743735885,0.08959437964000001,-0.0067100781915047794,-0.017079562470680057,-0.0016734014047947105,0.0017967847274770708
1.9357676260406151,,0.03548383,0.03404174,0.36476305,-0.71412015,-0.5710986,-0.40481967,-0.6751687,0.40918526,0.61377066,-0.1848773,0.7116275,-0.6777953,,0.0024921317,-0.022721218,0.60523045,0.5479987,-0.8016912,0.23872328,-0.6423441,-0.22050688,0.73401,-0.53580916,-0.55557895,-0.6357989,,0.031631164,-0.015976356,0.23088469,-0.9888556,0.11508359,0.09444877,0.12810302,0.980967,0.14592195,-0.0758579,0.15639487,-0.9847771,,-0.34041034236294215,-0.057356737056865434,0.10926298781000002,0.0,0.0002732729995308809,0.00010387915316940611,0.0,,-1.4642610438844639,0.17318228470448463,0.08959437964000001,-0.0067100781915047794,-0.017079562470680057,-0.0016734014047947105,0.0017967847274770708
1.963919246045407,,0.03548383,0.03404174,0.36476305,-0.71412015,-0.5710986,-0.40481967,-0.6751687,0.40918526,0.61377066,-0.1848773,0.7116275,-0.6777953,,0.0024921317,-0.022721218,0.60523045,0.5479987,-0.8016912,0.23872328,-0.6423441,-0.22050688,0.73401,-0.53580916,-0.55557895,-0.6357989,,0.031631164,-0.015976356,0.23088469,-0.9888556,0.11508359,0.09444877,0.12810302,0.980967,0.14592195,-0.0758579,0.15639487,-0.9847771,,-0.34041034236294215,-0.057356737056865434,0.10926298781000002,0.0,0.0002732729995308809,0.00010387915316940611,0.0,,-1.4642610438844639,0.17318228470448463,0.08959437964000001,-0.0067100781915047794,-0.017079562470680057,-0.0016734014047947105,0.0017967847274770708
1.9855813150061294,,0.03548383,0.03404174,0.36476305,-0.71412015,-0.5710986,-0.40481967,-0.6751687,0.40918526,0.61377066,-0.1848773,0.7116275,-0.6777953,,0.0024921317,-0.022721218,0.60523045,0.5479987,-0.8016912,0.23872328,-0.6423441,-0.22050688,0.73401,-0.53580916,-0.55557895,-0.6357989,,0.031631164,-0.015976356,0.23088469,-0.9888556,0.11508359,0.09444877,0.12810302,0.980967,0.14592195,-0.0758579,0.15639487,-0.9847771,,-0.34041034236294215,-0.057356737056865434,0.10926298781000002,0.0,0.0002732729995308809,0.00010387915316940611,0.0,,-1.4642610438844639,0.17318228470448463,0.08959437964000001,-0.0067100781915047794,-0.017079562470680057,-0.0016734014047947105,0.0017967847274770708
2.0148833310231566,,0.035484284,0.034041405,0.36476249,-0.7141204,-0.57110137,-0.4048153,-0.6751685,0.4091903,0.61376756,-0.184877,0.7116223,-0.6778008,,0.0024926402,-0.02272108,0.60523075,0.5479997,-0.8016888,0.23872945,-0.6423438,-0.22050202,0.73401165,-0.53580844,-0.55558443,-0.63579476,,0.031631164,-0.015976356,0.23088469,-0.9888556,0.11508359,0.09444877,0.12810302,0.980967,0.14592195,-0.0758579,0.15639487,-0.9847771,,-0.3404180650958164,-0.057356737056865434,0.10926298781000002,0.0,0.0002732729995308809,0.00010387915316940611,0.0,,-1.4642687666173382,0.17318228470448463,0.08959437964000001,-0.0067100781915047794,-0.017079562470680057,-0.0016734014047947105,0.0017967847274770708
2.039492753043305,,0.035484284,0.034041405,0.36476249,-0.7141204,-0.57110137,-0.4048153,-0.6751685,0.4091903,0.61376756,-0.184877,0.7116223,-0.6778008,,0.0024931505,-0.022720942,0.6052311,0.54800063,-0.8016862,0.23873559,-0.6423436,-0.22049719,0.7340133,-0.5358077,-0.55559,-0.6357905,,0.031631164,-0.015976356,0.23088469,-0.9888556,0.11508359,0.09444877,0.12810302,0.980967,0.14592195,-0.0758579,0.15639487,-0.9847771,,-0.3404180650958164,-0.057356737056865434,0.10926298781000002,0.0,0.0002732729995308809,0.00010387915316940611,0.0,,-1.4642764893502125,0.17318228470448463,0.08959437964000001,-0.0067100781915047794,-0.017079562470680057,-0.0016734014047947105,0.0017967847274770708
2.0657694180263206,,0.03548383,0.03404174,0.36476305,-0.71412015,-0.5710986,-0.40481967,-0.6751687,0.40918526,0.61377066,-0.1848773,0.7116275,-0.6777953,,0.0024917778,-0.02272082,0.6052308,0.5480006,-0.8016912,0.2387191,-0.64233834,-0.22050682,0.73401505,-0.53581405,-0.55557895,-0.63579476,,0.031631164,-0.015976356,0.23088469,-0.9888556,0.11508359,0.09444877,0.12810302,0.980967,0.14592195,-0.0758579,0.15639487,-0.9847771,,-0.34041034236294215,-0.057356737056865434,0.10926298781000002,0.0,0.0002732729995308809,0.00010387915316940611,0.0,,-1.4642610438844639,0.17319000743735885,0.08959437964000001,-0.0067100781915047794,-0.017079562470680057,-0.0016734014047947105,0.0017967847274770708
2.087701342999935,,0.03548383,0.03404174,0.36476305,-0.71412015,-0.5710986,-0.40481967,-0.6751687,0.40918526,0.61377066,-0.1848773,0.7116275,-0.6777953,,0.002491936,-0.022720268,0.60523146,0.5480033,-0.80168873,0.23872104,-0.64233243,-0.22050196,0.73402154,-0.5358183,-0.5555845,-0.6357864,,0.031631164,-0.015976356,0.23088469,-0.9888556,0.11508359,0.09444877,0.12810302,0.980967,0.14592195,-0.0758579,0.15639487,-0.9847771,,-0.34041034236294215,-0.057356737056865434,0.10926298781000002,0.0,0.0002732729995308809,0.00010387915316940611,0.0,,-1.4642687666173382,0.17319773017023307,0.08959437964000001,-0.0067100781915047794,-0.017079562470680057,-0.0016734014047947105,0.0017967847274770708
2.1138027220149525,,0.03548383,0.03404174,0.36476305,-0.71412015,-0.5710986,-0.40481967,-0.6751687,0.40918526,0.61377066,-0.1848773,0.7116275,-0.6777953,,0.002491273,-0.02272095,0.6052304,0.5479996,-0.8016936,0.23871297,-0.6423386,-0.22051162,0.7340133,-0.53581476,-0.55557346,-0.63579905,,0.031631164,-0.015976356,0.23088469,-0.9888556,0.11508359,0.09444877,0.12810302,0.980967,0.14592195,-0.0758579,0.15639487,-0.9847771,,-0.34041034236294215,-0.057356737056865434,0.10926298781000002,0.0,0.0002732729995308809,0.00010387915316940611,0.0,,-1.4642533211515898,0.17319000743735885,0.08959437964000001,-0.0067100781915047794,-0.017079562470680057,-0.0016734014047947105,0.0017967847274770708
2.1412620710325427,,0.035484284,0.034041405,0.36476249,-0.7141204,-0.57110137,-0.4048153,-0.6751685,0.4091903,0.61376756,-0.184877,0.7116223,-0.6778008,,0.0024917778,-0.02272082,0.6052308,0.5480006,-0.8016912,0.2387191,-0.64233834,-0.22050682,0.73401505,-0.53581405,-0.55557895,-0.63579476,,0.031631164,-0.015976356,0.23088469,-0.9888556,0.11508359,0.09444877,0.12810302,0.980967,0.14592195,-0.0758579,0.15639487,-0.9847771,,-0.3404180650958164,-0.057356737056865434,0.10926298781000002,0.0,0.0002732729995308809,0.00010387915316940611,0.0,,-1.4642610438844639,0.17319000743735885,0.08959437964000001,-0.0067100781915047794,-0.017079562470680057,-0.0016734014047947105,0.0017967847274770708
2.1669412970077246,,0.035484284,0.034041405,0.36476249,-0.7141204,-0.57110137,-0.4048153,-0.6751685,0.4091903,0.61376756,-0.184877,0.7116223,-0.6778008,,0.0024921317,-0.022721218,0.60523045,0.5479987,-0.8016912,0.23872328,-0.6423441,-0.22050688,0.73401,-0.53580916,-0.55557895,-0.6357989,,0.031631164,-0.015976356,0.23088469,-0.9888556,0.11508359,0.09444877,0.12810302,0.980967,0.14592195,-0.0758579,0.15639487,-0.9847771,,-0.3404180650958164,-0.057356737056865434,0.10926298781000002,0.0,0.0002732729995308809,0.00010387915316940611,0.0,,-1.4642610438844639,0.17318228470448463,0.08959437964000001,-0.0067100781915047794,-0.017079562470680057,-0.0016734014047947105,0.0017967847274770708
2.193192002014257,,0.035484284,0.034041405,0.36476249,-0.7141204,-0.57110137,-0.4048153,-0.6751685,0.4091903,0.61376756,-0.184877,0.7116223,-0.6778008,,0.0024928004,-0.022720536,0.60523146,0.5480025,-0.8016862,0.23873138,-0.6423379,-0.22049716,0.7340183,-0.5358127,-0.55559,-0.63578635,,0.031631164,-0.015976356,0.23088469,-0.9888556,0.11508359,0.09444877,0.12810302,0.980967,0.14592195,-0.0758579,0.15639487,-0.9847771,,-0.3404180650958164,-0.057356737056865434,0.10926298781000002,0.0,0.0002732729995308809,0.00010387915316940611,0.0,,-1.4642764893502125,0.17319000743735885,0.08959437964000001,-0.0067100781915047794,-0.017079562470680057,-0.0016734014047947105,0.0017967847274770708
2.2183069810271263,,0.03548383,0.03404174,0.36476305,-0.71412015,-0.5710986,-0.40481967,-0.6751687,0.40918526,0.61377066,-0.1848773,0.7116275,-0.6777953,,0.002491936,-0.022720268,0.60523146,0.5480033,-0.80168873,0.23872104,-0.64233243,-0.22050196,0.73402154,-0.5358183,-0.5555845,-0.6357864,,0.031631164,-0.015976356,0.23088469,-0.9888556,0.11508359,0.09444877,0.12810302,0.980967,0.14592195,-0.0758579,0.15639487,-0.9847771,,-0.34041034236294215,-0.057356737056865434,0.10926298781000002,0.0,0.0002732729995308809,0.00010387915316940611,0.0,,-1.4642687666173382,0.17319773017023307,0.08959437964000001,-0.0067100781915047794,-0.017079562470680057,-0.0016734014047947105,0.0017967847274770708
2.2475369140156545,,0.03548383,0.03404174,0.36476305,-0.71412015,-0.5710986,-0.40481967,-0.6751687,0.40918526,0.61377066,-0.1848773,0.7116275,-0.6777953,,0.0024917778,-0.02272082,0.6052308,0.5480006,-0.8016912,0.2387191,-0.64233834,-0.22050682,0.73401505,-0.53581405,-0.55557895,-0.63579476,,0.031631164,-0.015976356,0.23088469,-0.9888556,0.11508359,0.09444877,0.12810302,0.980967,0.14592195,-0.0758579,0.15639487,-0.9847771,,-0.34041034236294215,-0.057356737056865434,0.10926298781000002,0.0,0.0002732729995308809,0.00010387915316940611,0.0,,-1.4642610438844639,0.17319000743735885,0.08959437964000001,-0.0067100781915047794,-0.017079562470680057,-0.0016734014047947105,0.0017967847274770708
2.272684734023642,,0.03548383,0.03404174,0.36476305,-0.71412015,-0.5710986,-0.40481967,-0.6751687,0.40918526,0.61377066,-0.1848773,0.7116275,-0.6777953,,0.0024922863,-0.022720674,0.60523117,0.54800147,-0.80168873,0.23872524,-0.6423381,-0.22050202,0.73401666,-0.5358134,-0.5555845,-0.6357905,,0.031631164,-0.015976356,0.23088469,-0.9888556,0.11508359,0.09444877,0.12810302,0.980967,0.14592195,-0.0758579,0.15639487,-0.9847771,,-0.34041034236294215,-0.057356737056865434,0.10926298781000002,0.0,0.0002732729995308809,0.00010387915316940611,0.0,,-1.4642687666173382,0.17319000743735885,0.08959437964000001,-0.0067100781915047794,-0.017079562470680057,-0.0016734014047947105,0.0017967847274770708
2.299272454052698,,0.03548383,0.03404174,0.36476305,-0.71412015,-0.5710986,-0.40481967,-0.6751687,0.40918526,0.61377066,-0.1848773,0.7116275,-0.6777953,,0.0024926402,-0.02272108,0.60523075,0.5479997,-0.8016888,0.23872945,-0.6423438,-0.22050202,0.73401165,-0.53580844,-0.55558443,-0.63579476,,0.031631164,-0.015976356,0.23088469,-0.9888556,0.11508359,0.09444877,0.12810302,0.980967,0.14592195,-0.0758579,0.15639487,-0.9847771,,-0.34041034236294215,-0.057356737056865434,0.10926298781000002,0.0,0.0002732729995308809,0.00010387915316940611,0.0,,-1.4642687666173382,0.17318228470448463,0.08959437964000001,-0.0067100781915047794,-0.017079562470680057,-0.0016734014047947105,0.0017967847274770708
2.324325818044599,,0.035484284,0.034041405,0.36476249,-0.7141204,-0.57110137,-0.4048153,-0.6751685,0.4091903,0.61376756,-0.184877,0.7116223,-0.6778008,,0.0024921317,-0.022721218,0.60523045,0.5479987,-0.8016912,0.23872328,-0.6423441,-0.22050688,0.73401,-0.53580916,-0.55557895,-0.6357989,,0.031631164,-0.015976356,0.23088469,-0.9888556,0.11508359,0.09444877,0.12810302,0.980967,0.14592195,-0.0758579,0.15639487,-0.9847771,,-0.3404180650958164,-0.057356737056865434,0.10926298781000002,0.0,0.0002732729995308809,0.00010387915316940611,0.0,,-1.4642610438844639,0.17318228470448463,0.08959437964000001,-0.0067100781915047794,-0.017079562470680057,-0.0016734014047947105,0.0017967847274770708
2.3499471030081622,,0.035484284,0.034041405,0.36476249,-0.7141204,-0.57110137,-0.4048153,-0.6751685,0.4091903,0.61376756,-0.184877,0.7116223,-0.6778008,,0.0024921317,-0.022721218,0.60523045,0.5479987,-0.8016912,0.23872328,-0.6423441,-0.22050688,0.73401,-0.53580916,-0.55557895,-0.6357989,,0.031631164,-0.015976356,0.23088469,-0.9888556,0.11508359,0.09444877,0.12810302,0.980967,0.14592195,-0.0758579,0.15639487,-0.9847771,,-0.3404180650958164,-0.057356737056865434,0.10926298781000002,0.0,0.0002732729995308809,0.00010387915316940611,0.0,,-1.4642610438844639,0.17318228470448463,0.08959437964000001,-0.0067100781915047794,-0.017079562470680057,-0.0016734014047947105,0.0017967847274770708
2.3786780270165764,,0.035484284,0.034041405,0.36476249,-0.7141204,-0.57110137,-0.4048153,-0.6751685,0.4091903,0.61376756,-0.184877,0.7116223,-0.6778008,,0.0024931505,-0.022720942,0.6052311,0.54800063,-0.8016862,0.23873559,-0.6423436,-0.22049719,0.7340133,-0.5358077,-0.55559,-0.6357905,,0.031631164,-0.015976356,0.23088469,-0.9888556,0.11508359,0.09444877,0.12810302,0.980967,0.14592195,-0.0758579,0.15639487,-0.9847771,,-0.3404180650958164,-0.057356737056865434,0.10926298781000002,0.0,0.0002732729995308809,0.00010387915316940611,0.0,,-1.4642764893502125,0.17318228470448463,0.08959437964000001,-0.0067100781915047794,-0.017079562470680057,-0.0016734014047947105,0.0017967847274770708
2.4009428700082935,,0.03548383,0.03404174,0.36476305,-0.71412015,-0.5710986,-0.40481967,-0.6751687,0.40918526,0.61377066,-0.1848773,0.7116275,-0.6777953,,0.0024931505,-0.022720942,0.6052311,0.54800063,-0.8016862,0.23873559,-0.6423436,-0.22049719,0.7340133,-0.5358077,-0.55559,-0.6357905,,0.031631164,-0.015976356,0.23088469,-0.9888556,0.11508359,0.09444877,0.12810302,0.980967,0.14592195,-0.0758579,0.15639487,-0.9847771,,-0.34041034236294215,-0.057356737056865434,0.10926298781000002,0.0,0.0002732729995308809,0.00010387915316940611,0.0,,-1.4642764893502125,0.17318228470448463,0.08959437964000001,-0.0067100781915047794,-0.017079562470680057,-0.0016734014047947105,0.0017967847274770708
2.430290515010711,,0.03548383,0.03404174,0.36476305,-0.71412015,-0.5710986,-0.40481967,-0.6751687,0.40918526,0.61377066,-0.1848773,0.7116275,-0.6777953,,0.0024926402,-0.02272108,0.60523075,0.5479997,-0.8016888,0.23872945,-0.6423438,-0.22050202,0.73401165,-0.53580844,-0.55558443,-0.63579476,,0.031631164,-0.015976356,0.23088469,-0.9888556,0.11508359,0.09444877,0.12810302,0.980967,0.14592195,-0.0758579,0.15639487,-0.9847771,,-0.34041034236294215,-0.057356737056865434,0.10926298781000002,0.0,0.0002732729995308809,0.00010387915316940611,0.0,,-1.4642687666173382,0.17318228470448463,0.08959437964000001,-0.0067100781915047794,-0.017079562470680057,-0.0016734014047947105,0.0017967847274770708
2.4515696140006185,,0.035484284,0.034041405,0.36476249,-0.7141204,-0.57110137,-0.4048153,-0.6751685,0.4091903,0.61376756,-0.184877,0.7116223,-0.6778008,,0.0024926402,-0.02272108,0.60523075,0.5479997,-0.8016888,0.23872945,-0.6423438,-0.22050202,0.73401165,-0.53580844,-0.55558443,-0.63579476,,0.031631164,-0.015976356,0.23088469,-0.9888556,0.11508359,0.09444877,0.12810302,0.980967,0.14592195,-0.0758579,0.15639487,-0.9847771,,-0.3404180650958164,-0.057356737056865434,0.10926298781000002,0.0,0.0002732729995308809,0.00010387915316940611,0.0,,-1.4642687666173382,0.17318228470448463,0.08959437964000001,-0.0067100781915047794,-0.017079562470680057,-0.0016734014047947105,0.0017967847274770708
2.480749494046904,,0.03548383,0.03404174,0.36476305,-0.71412015,-0.5710986,-0.40481967,-0.6751687,0.40918526,0.61377066,-0.1848773,0.7116275,-0.6777953,,0.0024926402,-0.02272108,0.60523075,0.5479997,-0.8016888,0.23872945,-0.6423438,-0.22050202,0.73401165,-0.53580844,-0.55558443,-0.63579476,,0.031631164,-0.015976356,0.23088469,-0.9888556,0.11508359,0.09444877,0.12810302,0.980967,0.14592195,-0.0758579,0.15639487,-0.9847771,,-0.34041034236294215,-0.057356737056865434,0.10926298781000002,0.0,0.0002732729995308809,0.00010387915316940611,0.0,,-1.4642687666173382,0.17318228470448463,0.08959437964000001,-0.0067100781915047794,-0.017079562470680057,-0.0016734014047947105,0.0017967847274770708
2.507578277029097,,0.035484284,0.034041405,0.36476249,-0.7141204,-0.57110137,-0.4048153,-0.6751685,0.4091903,0.61376756,-0.184877,0.7116223,-0.6778008,,0.0024921317,-0.022721218,0.60523045,0.5479987,-0.8016912,0.23872328,-0.6423441,-0.22050688,0.73401,-0.53580916,-0.55557895,-0.6357989,,0.031631164,-0.015976356,0.23088469,-0.9888556,0.11508359,0.09444877,0.12810302,0.980967,0.14592195,-0.0758579,0.15639487,-0.9847771,,-0.3404180650958164,-0.057356737056865434,0.10926298781000002,0.0,0.0002732729995308809,0.00010387915316940611,0.0,,-1.4642610438844639,0.17318228470448463,0.08959437964000001,-0.0067100781915047794,-0.017079562470680057,-0.0016734014047947105,0.0017967847274770708
2.533888800011482,,0.035484284,0.034041405,0.36476249,-0.7141204,-0.57110137,-0.4048153,-0.6751685,0.4091903,0.61376756,-0.184877,0.7116223,-0.6778008,,0.0024926402,-0.02272108,0.60523075,0.5479997,-0.8016888,0.23872945,-0.6423438,-0.22050202,0.73401165,-0.53580844,-0.55558443,-0.63579476,,0.031631164,-0.015976356,0.23088469,-0.9888556,0.11508359,0.09444877,0.12810302,0.980967,0.14592195,-0.0758579,0.15639487,-0.9847771,,-0.3404180650958164,-0.057356737056865434,0.10926298781000002,0.0,0.0002732729995308809,0.00010387915316940611,0.0,,-1.4642687666173382,0.17318228470448463,0.08959437964000001,-0.0067100781915047794,-0.017079562470680057,-0.0016734014047947105,0.0017967847274770708
2.561228980019223,,0.03548383,0.03404174,0.36476305,-0.71412015,-0.5710986,-0.40481967,-0.6751687,0.40918526,0.61377066,-0.1848773,0.7116275,-0.6777953,,0.0024931505,-0.022720942,0.6052311,0.54800063,-0.8016862,0.23873559,-0.6423436,-0.22049719,0.7340133,-0.5358077,-0.55559,-0.6357905,,0.031631164,-0.015976356,0.23088469,-0.9888556,0.11508359,0.09444877,0.12810302,0.980967,0.14592195,-0.0758579,0.15639487,-0.9847771,,-0.34041034236294215,-0.057356737056865434,0.10926298781000002,0.0,0.0002732729995308809,0.00010387915316940611,0.0,,-1.4642764893502125,0.17318228470448463,0.08959437964000001,-0.0067100781915047794,-0.017079562470680057,-0.0016734014047947105,0.0017967847274770708
2.585179941030219,,0.03548383,0.03404174,0.36476305,-0.71412015,-0.5710986,-0.40481967,-0.6751687,0.40918526,0.61377066,-0.1848773,0.7116275,-0.6777953,,0.0025116038,-0.022705792,0.6052155,0.54804456,-0.80167484,0.23867303,-0.642287,-0.22054353,0.7340489,-0.5358306,-0.555588,-0.63577294,,0.031631164,-0.015976356,0.23088469,-0.9888556,0.11508359,0.09444877,0.12810302,0.980967,0.14592195,-0.0758579,0.15639487,-0.9847771,,-0.34041034236294215,-0.057356737056865434,0.10926298781000002,0.0,0.0002732729995308809,0.00010387915316940611,0.0,,-1.4642764893502125,0.17318228470448463,0.08959437964000001,-0.0067100781915047794,-0.017079562470680057,-0.0016734014047947105,0.0017967847274770708
2.614936951023992,,0.03543341,0.03407643,0.36477387,-0.7141713,-0.57106817,-0.40477237,-0.6751258,0.4092722,0.61376005,-0.18483672,0.7116019,-0.6778332,,0.002493143,-0.022704419,0.60521716,0.5480164,-0.80168694,0.23869689,-0.64230835,-0.22051325,0.7340394,-0.53583384,-0.5555825,-0.63577497,,0.03161316,-0.015974864,0.23088671,-0.9888503,0.11512458,0.09445397,0.12814443,0.98096174,0.14592117,-0.07585661,0.15639791,-0.98477674,,-0.3404180650958164,-0.057356737056865434,0.10926298781000002,0.0,0.0002732729995308809,0.00010387915316940611,0.0,,-1.4642687666173382,0.17318228470448463,0.08959437964000001,-0.0067100781915047794,-0.017079562470680057,-0.0016734014047947105,0.0017967847274770708
2.638703332049772,,0.03543296,0.03407675,0.3647744,-0.714171,-0.57106537,-0.40477684,-0.675126,0.40926716,0.6137632,-0.18483704,0.71160704,-0.6778277,,0.002493143,-0.022704419,0.60521716,0.5480164,-0.80168694,0.23869689,-0.64230835,-0.22051325,0.7340394,-0.53583384,-0.5555825,-0.63577497,,0.03161316,-0.015974864,0.23088671,-0.9888503,0.11512458,0.09445397,0.12814443,0.98096174,0.14592117,-0.07585661,0.15639791,-0.98477674,,-0.34041034236294215,-0.057356737056865434,0.10926298781000002,0.0,0.0002732729995308809,0.00010387915316940611,0.0,,-1.4642687666173382,0.17318228470448463,0.08959437964000001,-0.0067100781915047794,-0.017079562470680057,-0.0016734014047947105,0.0017967847274770708
2.6676083340425976,,0.03543296,0.03407675,0.3647744,-0.714171,-0.57106537,-0.40477684,-0.675126,0.40926716,0.6137632,-0.18483704,0.71160704,-0.6778277,,0.0024926364,-0.022704557,0.6052168,0.5480155,-0.80168945,0.23869073,-0.6423086,-0.22051811,0.73403776,-0.53583455,-0.55557704,-0.6357792,,0.03161316,-0.015974864,0.23088671,-0.9888503,0.11512458,0.09445397,0.12814443,0.98096174,0.14592117,-0.07585661,0.15639791,-0.98477674,,-0.34041034236294215,-0.057356737056865434,0.10926298781000002,0.0,0.0002732729995308809,0.00010387915316940611,0.0,,-1.4642610438844639,0.17318228470448463,0.08959437964000001,-0.0067100781915047794,-0.017079562470680057,-0.0016734014047947105,0.0017967847274770708
2.6967846620245837,,0.03543341,0.03407643,0.36477387,-0.7141713,-0.57106817,-0.40477237,-0.6751258,0.4092722,0.61376005,-0.18483672,0.7116019,-0.6778332,,0.002493143,-0.022704419,0.60521716,0.5480164,-0.80168694,0.23869689,-0.64230835,-0.22051325,0.7340394,-0.53583384,-0.5555825,-0.63577497,,0.03161316,-0.015974864,0.23088671,-0.9888503,0.11512458,0.09445397,0.12814443,0.98096174,0.14592117,-0.07585661,0.15639791,-0.98477674,,-0.3404180650958164,-0.057356737056865434,0.10926298781000002,0.0,0.0002732729995308809,0.00010387915316940611,0.0,,-1.4642687666173382,0.17318228470448463,0.08959437964000001,-0.0067100781915047794,-0.017079562470680057,-0.0016734014047947105,0.0017967847274770708
2.7193724370445125,,0.03543341,0.03407643,0.36477387,-0.7141713,-0.57106817,-0.40477237,-0.6751258,0.4092722,0.61376005,-0.18483672,0.7116019,-0.6778332,,0.0024926364,-0.022704557,0.6052168,0.5480155,-0.80168945,0.23869073,-0.6423086,-0.22051811,0.73403776,-0.53583455,-0.55557704,-0.6357792,,0.03161316,-0.015974864,0.23088671,-0.9888503,0.11512458,0.09445397,0.12814443,0.98096174,0.14592117,-0.07585661,0.15639791,-0.98477674,,-0.3404180650958164,-0.057356737056865434,0.10926298781000002,0.0,0.0002732729995308809,0.00010387915316940611,0.0,,-1.4642610438844639,0.17318228470448463,0.08959437964000001,-0.0067100781915047794,-0.017079562470680057,-0.0016734014047947105,0.0017967847274770708
2.7488842270104215,,0.03543296,0.03407675,0.3647744,-0.714171,-0.57106537,-0.40477684,-0.675126,0.40926716,0.6137632,-0.18483704,0.71160704,-0.6778277,,0.0024926364,-0.022704557,0.6052168,0.5480155,-0.80168945,0.23869073,-0.6423086,-0.22051811,0.73403776,-0.53583455,-0.55557704,-0.6357792,,0.03161316,-0.015974864,0.23088671,-0.9888503,0.11512458,0.09445397,0.12814443,0.98096174,0.14592117,-0.07585661,0.15639791,-0.98477674,,-0.34041034236294215,-0.057356737056865434,0.10926298781000002,0.0,0.0002732729995308809,0.00010387915316940611,0.0,,-1.4642610438844639,0.17318228470448463,0.08959437964000001,-0.0067100781915047794,-0.017079562470680057,-0.0016734014047947105,0.0017967847274770708
2.774871960049495,,0.03543296,0.03407675,0.3647744,-0.714171,-0.57106537,-0.40477684,-0.675126,0.40926716,0.6137632,-0.18483704,0.71160704,-0.6778277,,0.002493143,-0.022704419,0.60521716,0.5480164,-0.80168694,0.23869689,-0.64230835,-0.22051325,0.7340394,-0.53583384,-0.5555825,-0.63577497,,0.03161316,-0.015974864,0.23088671,-0.9888503,0.11512458,0.09445397,0.12814443,0.98096174,0.14592117,-0.07585661,0.15639791,-0.98477674,,-0.34041034236294215,-0.057356737056865434,0.10926298781000002,0.0,0.0002732729995308809,0.00010387915316940611,0.0,,-1.4642687666173382,0.17318228470448463,0.08959437964000001,-0.0067100781915047794,-0.017079562470680057,-0.0016734014047947105,0.0017967847274770708
2.7993904210161418,,0.03543296,0.03407675,0.3647744,-0.714171,-0.57106537,-0.40477684,-0.675126,0.40926716,0.6137632,-0.18483704,0.71160704,-0.6778277,,0.0024926364,-0.022704557,0.6052168,0.5480155,-0.80168945,0.23869073,-0.6423086,-0.22051811,0.73403776,-0.53583455,-0.55557704,-0.6357792,,0.03161316,-0.015974864,0.23088671,-0.9888503,0.11512458,0.09445397,0.12814443,0.98096174,0.14592117,-0.07585661,0.15639791,-0.98477674,,-0.34041034236294215,-0.057356737056865434,0.10926298781000002,0.0,0.0002732729995308809,0.00010387915316940611,0.0,,-1.4642610438844639,0.17318228470448463,0.08959437964000001,-0.0067100781915047794,-0.017079562470680057,-0.0016734014047947105,0.0017967847274770708
2.8261140750255436,,0.03543296,0.03407675,0.3647744,-0.714171,-0.57106537,-0.40477684,-0.675126,0.40926716,0.6137632,-0.18483704,0.71160704,-0.6778277,,0.002493143,-0.022704419,0.60521716,0.5480164,-0.80168694,0.23869689,-0.64230835,-0.22051325,0.7340394,-0.53583384,-0.5555825,-0.63577497,,0.03161316,-0.015974864,0.23088671,-0.9888503,0.11512458,0.09445397,0.12814443,0.98096174,0.14592117,-0.07585661,0.15639791,-0.98477674,,-0.34041034236294215,-0.057356737056865434,0.10926298781000002,0.0,0.0002732729995308809,0.00010387915316940611,0.0,,-1.4642687666173382,0.17318228470448463,0.08959437964000001,-0.0067100781915047794,-0.017079562470680057,-0.0016734014047947105,0.0017967847274770708
2.850132603023667,,0.03543296,0.03407675,0.3647744,-0.714171,-0.57106537,-0.40477684,-0.675126,0.40926716,0.6137632,-0.18483704,0.71160704,-0.6778277,,0.0024926364,-0.022704557,0.6052168,0.5480155,-0.80168945,0.23869073,-0.6423086,-0.22051811,0.73403776,-0.53583455,-0.55557704,-0.6357792,,0.03161316,-0.015974864,0.23088671,-0.9888503,0.11512458,0.09445397,0.12814443,0.98096174,0.14592117,-0.07585661,0.15639791,-0.98477674,,-0.34041034236294215,-0.057356737056865434,0.10926298781000002,0.0,0.0002732729995308809,0.00010387915316940611,0.0,,-1.4642610438844639,0.17318228470448463,0.08959437964000001,-0.0067100781915047794,-0.017079562470680057,-0.0016734014047947105,0.0017967847274770708
2.878263454011176,,0.03543251,0.03407707,0.364775,-0.71417075,-0.57106256,-0.40478116,-0.67512614,0.40926212,0.6137663,-0.18483734,0.7116122,-0.6778222,,0.002493143,-0.022704419,0.60521716,0.5480164,-0.80168694,0.23869689,-0.64230835,-0.22051325,0.7340394,-0.53583384,-0.5555825,-0.63577497,,0.03161316,-0.015974864,0.23088671,-0.9888503,0.11512458,0.09445397,0.12814443,0.98096174,0.14592117,-0.07585661,0.15639791,-0.98477674,,-0.34040261963006796,-0.057356737056865434,0.10926298781000002,0.0,0.0002732729995308809,0.00010387915316940611,0.0,,-1.4642687666173382,0.17318228470448463,0.08959437964000001,-0.0067100781915047794,-0.017079562470680057,-0.0016734014047947105,0.0017967847274770708
2.9022960090078413,,0.03543296,0.03407675,0.3647744,-0.714171,-0.57106537,-0.40477684,-0.675126,0.40926716,0.6137632,-0.18483704,0.71160704,-0.6778277,,0.0024926364,-0.022704557,0.6052168,0.5480155,-0.80168945,0.23869073,-0.6423086,-0.22051811,0.73403776,-0.53583455,-0.55557704,-0.6357792,,0.03161316,-0.015974864,0.23088671,-0.9888503,0.11512458,0.09445397,0.12814443,0.98096174,0.14592117,-0.07585661,0.15639791,-0.98477674,,-0.34041034236294215,-0.057356737056865434,0.10926298781000002,0.0,0.0002732729995308809,0.00010387915316940611,0.0,,-1.4642610438844639,0.17318228470448463,0.08959437964000001,-0.0067100781915047794,-0.017079562470680057,-0.0016734014047947105,0.0017967847274770708
2.931708526040893,,0.03543341,0.03407643,0.36477387,-0.7141713,-0.57106817,-0.40477237,-0.6751258,0.4092722,0.61376005,-0.18483672,0.7116019,-0.6778332,,0.0024926364,-0.022704557,0.6052168,0.5480155,-0.80168945,0.23869073,-0.6423086,-0.22051811,0.73403776,-0.53583455,-0.55557704,-0.6357792,,0.03161316,-0.015974864,0.23088671,-0.9888503,0.11512458,0.09445397,0.12814443,0.98096174,0.14592117,-0.07585661,0.15639791,-0.98477674,,-0.3404180650958164,-0.057356737056865434,0.10926298781000002,0.0,0.0002732729995308809,0.00010387915316940611,0.0,,-1.4642610438844639,0.17318228470448463,0.08959437964000001,-0.0067100781915047794,-0.017079562470680057,-0.0016734014047947105,0.0017967847274770708
2.953026415023487,,0.03543296,0.03407675,0.3647744,-0.714171,-0.57106537,-0.40477684,-0.675126,0.40926716,0.6137632,-0.18483704,0.71160704,-0.6778277,,0.002493143,-0.022704419,0.60521716,0.5480164,-0.80168694,0.23869689,-0.64230835,-0.22051325,0.7340394,-0.53583384,-0.5555825,-0.63577497,,0.03161316,-0.015974864,0.23088671,-0.9888503,0.11512458,0.09445397,0.12814443,0.98096174,0.14592117,-0.07585661,0.15639791,-0.98477674,,-0.34041034236294215,-0.057356737056865434,0.10926298781000002,0.0,0.0002732729995308809,0.00010387915316940611,0.0,,-1.4642687666173382,0.17318228470448463,0.08959437964000001,-0.0067100781915047794,-0.017079562470680057,-0.0016734014047947105,0.0017967847274770708
2.9828846900491044,,0.03543341,0.03407643,0.36477387,-0.7141713,-0.57106817,-0.40477237,-0.6751258,0.4092722,0.61376005,-0.18483672,0.7116019,-0.6778332,,0.002493143,-0.022704419,0.60521716,0.5480164,-0.80168694,0.23869689,-0.64230835,-0.22051325,0.7340394,-0.53583384,-0.5555825,-0.63577497,,0.03161316,-0.015974864,0.23088671,-0.9888503,0.11512458,0.09445397,0.12814443,0.98096174,0.14592117,-0.07585661,0.15639791,-0.98477674,,-0.3404180650958164,-0.057356737056865434,0.10926298781000002,0.0,0.0002732729995308809,0.00010387915316940611,0.0,,-1.4642687666173382,0.17318228470448463,0.08959437964000001,-0.0067100781915047794,-0.017079562470680057,-0.0016734014047947105,0.0017967847274770708
3.0037801790167578,,0.03543341,0.03407643,0.36477387,-0.7141713,-0.57106817,-0.40477237,-0.6751258,0.4092722,0.61376005,-0.18483672,0.7116019,-0.6778332,,0.0024926364,-0.022704557,0.6052168,0.5480155,-0.80168945,0.23869073,-0.6423086,-0.22051811,0.73403776,-0.53583455,-0.55557704,-0.6357792,,0.03161316,-0.015974864,0.23088671,-0.9888503,0.11512458,0.09445397,0.12814443,0.98096174,0.14592117,-0.07585661,0.15639791,-0.98477674,,-0.3404180650958164,-0.057356737056865434,0.10926298781000002,0.0,0.0002732729995308809,0.00010387915316940611,0.0,,-1.4642610438844639,0.17318228470448463,0.08959437964000001,-0.0067100781915047794,-0.017079562470680057,-0.0016734014047947105,0.0017967847274770708
3.0314575070515275,,0.03543296,0.03407675,0.3647744,-0.714171,-0.57106537,-0.40477684,-0.675126,0.40926716,0.6137632,-0.18483704,0.71160704,-0.6778277,,0.0024926364,-0.022704557,0.6052168,0.5480155,-0.80168945,0.23869073,-0.6423086,-0.22051811,0.73403776,-0.53583455,-0.55557704,-0.6357792,,0.03161316,-0.015974864,0.23088671,-0.9888503,0.11512458,0.09445397,0.12814443,0.98096174,0.14592117,-0.07585661,0.15639791,-0.98477674,,-0.34041034236294215,-0.057356737056865434,0.10926298781000002,0.0,0.0002732729995308809,0.00010387915316940611,0.0,,-1.4642610438844639,0.17318228470448463,0.08959437964000001,-0.0067100781915047794,-0.017079562470680057,-0.0016734014047947105,0.0017967847274770708
3.0566318060155027,,0.03543341,0.03407643,0.36477387,-0.7141713,-0.57106817,-0.40477237,-0.6751258,0.4092722,0.61376005,-0.18483672,0.7116019,-0.6778332,,0.002493143,-0.022704419,0.60521716,0.5480164,-0.80168694,0.23869689,-0.64230835,-0.22051325,0.7340394,-0.53583384,-0.5555825,-0.63577497,,0.03161316,-0.015974864,0.23088671,-0.9888503,0.11512458,0.09445397,0.12814443,0.98096174,0.14592117,-0.07585661,0.15639791,-0.98477674,,-0.3404180650958164,-0.057356737056865434,0.10926298781000002,0.0,0.0002732729995308809,0.00010387915316940611,0.0,,-1.4642687666173382,0.17318228470448463,0.08959437964000001,-0.0067100781915047794,-0.017079562470680057,-0.0016734014047947105,0.0017967847274770708
3.082466474035755,,0.03543296,0.03407675,0.3647744,-0.714171,-0.57106537,-0.40477684,-0.675126,0.40926716,0.6137632,-0.18483704,0.71160704,-0.6778277,,0.002493143,-0.022704419,0.60521716,0.5480164,-0.80168694,0.23869689,-0.64230835,-0.22051325,0.7340394,-0.53583384,-0.5555825,-0.63577497,,0.03161316,-0.015974864,0.23088671,-0.9888503,0.11512458,0.09445397,0.12814443,0.98096174,0.14592117,-0.07585661,0.15639791,-0.98477674,,-0.34041034236294215,-0.057356737056865434,0.10926298781000002,0.0,0.0002732729995308809,0.00010387915316940611,0.0,,-1.4642687666173382,0.17318228470448463,0.08959437964000001,-0.0067100781915047794,-0.017079562470680057,-0.0016734014047947105,0.0017967847274770708
3.103630024008453,,0.03543296,0.03407675,0.3647744,-0.714171,-0.57106537,-0.40477684,-0.675126,0.40926716,0.6137632,-0.18483704,0.71160704,-0.6778277,,0.0024926364,-0.022704557,0.6052168,0.5480155,-0.80168945,0.23869073,-0.6423086,-0.22051811,0.73403776,-0.53583455,-0.55557704,-0.6357792,,0.03161316,-0.015974864,0.23088671,-0.9888503,0.11512458,0.09445397,0.12814443,0.98096174,0.14592117,-0.07585661,0.15639791,-0.98477674,,-0.34041034236294215,-0.057356737056865434,0.10926298781000002,0.0,0.0002732729995308809,0.00010387915316940611,0.0,,-1.4642610438844639,0.17318228470448463,0.08959437964000001,-0.0067100781915047794,-0.017079562470680057,-0.0016734014047947105,0.0017967847274770708
3.131557087006513,,0.03543341,0.03407643,0.36477387,-0.7141713,-0.57106817,-0.40477237,-0.6751258,0.4092722,0.61376005,-0.18483672,0.7116019,-0.6778332,,0.002493143,-0.022704419,0.60521716,0.5480164,-0.80168694,0.23869689,-0.64230835,-0.22051325,0.7340394,-0.53583384,-0.5555825,-0.63577497,,0.03161316,-0.015974864,0.23088671,-0.9888503,0.11512458,0.09445397,0.12814443,0.98096174,0.14592117,-0.07585661,0.15639791,-0.98477674,,-0.3404180650958164,-0.057356737056865434,0.10926298781000002,0.0,0.0002732729995308809,0.00010387915316940611,0.0,,-1.4642687666173382,0.17318228470448463,0.08959437964000001,-0.0067100781915047794,-0.017079562470680057,-0.0016734014047947105,0.0017967847274770708
3.1575935360160656,,0.03543341,0.03407643,0.36477387,-0.7141713,-0.57106817,-0.40477237,-0.6751258,0.4092722,0.61376005,-0.18483672,0.7116019,-0.6778332,,0.002493143,-0.022704419,0.60521716,0.5480164,-0.80168694,0.23869689,-0.64230835,-0.22051325,0.7340394,-0.53583384,-0.5555825,-0.63577497,,0.03161316,-0.015974864,0.23088671,-0.9888503,0.11512458,0.09445397,0.12814443,0.98096174,0.14592117,-0.07585661,0.15639791,-0.98477674,,-0.3404180650958164,-0.057356737056865434,0.10926298781000002,0.0,0.0002732729995308809,0.00010387915316940611,0.0,,-1.4642687666173382,0.17318228470448463,0.08959437964000001,-0.0067100781915047794,-0.017079562470680057,-0.0016734014047947105,0.0017967847274770708
3.185386218014173,,0.03543341,0.03407643,0.36477387,-0.7141713,-0.57106817,-0.40477237,-0.6751258,0.4092722,0.61376005,-0.18483672,0.7116019,-0.6778332,,0.0024926364,-0.022704557,0.6052168,0.5480155,-0.80168945,0.23869073,-0.6423086,-0.22051811,0.73403776,-0.53583455,-0.55557704,-0.6357792,,0.03161316,-0.015974864,0.23088671,-0.9888503,0.11512458,0.09445397,0.12814443,0.98096174,0.14592117,-0.07585661,0.15639791,-0.98477674,,-0.3404180650958164,-0.057356737056865434,0.10926298781000002,0.0,0.0002732729995308809,0.00010387915316940611,0.0,,-1.4642610438844639,0.17318228470448463,0.08959437964000001,-0.0067100781915047794,-0.017079562470680057,-0.0016734014047947105,0.0017967847274770708
3.2105036030407064,,0.03543341,0.03407643,0.36477387,-0.7141713,-0.57106817,-0.40477237,-0.6751258,0.4092722,0.61376005,-0.18483672,0.7116019,-0.6778332,,0.0024926364,-0.022704557,0.6052168,0.5480155,-0.80168945,0.23869073,-0.6423086,-0.22051811,0.73403776,-0.53583455,-0.55557704,-0.6357792,,0.03161316,-0.015974864,0.23088671,-0.9888503,0.11512458,0.09445397,0.12814443,0.98096174,0.14592117,-0.07585661,0.15639791,-0.98477674,,-0.3404180650958164,-0.057356737056865434,0.10926298781000002,0.0,0.0002732729995308809,0.00010387915316940611,0.0,,-1.4642610438844639,0.17318228470448463,0.08959437964000001,-0.0067100781915047794,-0.017079562470680057,-0.0016734014047947105,0.0017967847274770708
3.2368188020191155,,0.03543296,0.03407675,0.3647744,-0.714171,-0.57106537,-0.40477684,-0.675126,0.40926716,0.6137632,-0.18483704,0.71160704,-0.6778277,,0.002493143,-0.022704419,0.60521716,0.5480164,-0.80168694,0.23869689,-0.64230835,-0.22051325,0.7340394,-0.53583384,-0.5555825,-0.63577497,,0.03161316,-0.015974864,0.23088671,-0.9888503,0.11512458,0.09445397,0.12814443,0.98096174,0.14592117,-0.07585661,0.15639791,-0.98477674,,-0.34041034236294215,-0.057356737056865434,0.10926298781000002,0.0,0.0002732729995308809,0.00010387915316940611,0.0,,-1.4642687666173382,0.17318228470448463,0.08959437964000001,-0.0067100781915047794,-0.017079562470680057,-0.0016734014047947105,0.0017967847274770708
3.262899085995741,,0.03543296,0.03407675,0.3647744,-0.714171,-0.57106537,-0.40477684,-0.675126,0.40926716,0.6137632,-0.18483704,0.71160704,-0.6778277,,0.002493143,-0.022704419,0.60521716,0.5480164,-0.80168694,0.23869689,-0.64230835,-0.22051325,0.7340394,-0.53583384,-0.5555825,-0.63577497,,0.03161316,-0.015974864,0.23088671,-0.9888503,0.11512458,0.09445397,0.12814443,0.98096174,0.14592117,-0.07585661,0.15639791,-0.98477674,,-0.34041034236294215,-0.057356737056865434,0.10926298781000002,0.0,0.0002732729995308809,0.00010387915316940611,0.0,,-1.4642687666173382,0.17318228470448463,0.08959437964000001,-0.0067100781915047794,-0.017079562470680057,-0.0016734014047947105,0.0017967847274770708
3.2866696130367927,,0.03543207,0.034075905,0.3647742,-0.71411574,-0.57102025,-0.404938,-0.6752098,0.4091988,0.61371654,-0.18474442,0.7116826,-0.67777365,,0.0024926364,-0.022704557,0.6052168,0.5480155,-0.80168945,0.23869073,-0.6423086,-0.22051811,0.73403776,-0.53583455,-0.55557704,-0.6357792,,0.03161316,-0.015974864,0.23088671,-0.9888503,0.11512458,0.09445397,0.12814443,0.98096174,0.14592117,-0.07585661,0.15639791,-0.98477674,,-0.34041034236294215,-0.057356737056865434,0.10926298781000002,0.0,0.00013663649976544044,0.0002152970568658275,0.0,,-1.4642610438844639,0.17318228470448463,0.08959437964000001,-0.0067100781915047794,-0.017079562470680057,-0.0016734014047947105,0.0017967847274770708
3.3136704160133377,,0.035431184,0.034075074,0.36477396,-0.71406037,-0.57097507,-0.40509918,-0.6752937,0.40913042,0.6136699,-0.18465178,0.7117581,-0.6777196,,0.002493143,-0.022704419,0.60521716,0.5480164,-0.80168694,0.23869689,-0.64230835,-0.22051325,0.7340394,-0.53583384,-0.5555825,-0.63577497,,0.03161316,-0.015974864,0.23088671,-0.9888503,0.11512458,0.09445397,0.12814443,0.98096174,0.14592117,-0.07585661,0.15639791,-0.98477674,,-0.34041034236294215,-0.057356737056865434,0.10926298781000002,0.0,0.0,0.0003267149605622489,0.0,,-1.4642687666173382,0.17318228470448463,0.08959437964000001,-0.0067100781915047794,-0.017079562470680057,-0.0016734014047947105,0.0017967847274770708
3.3364370400086045,,0.03543164,0.03407475,0.3647734,-0.71406066,-0.5709779,-0.4050948,-0.67529345,0.40913546,0.6136667,-0.18465146,0.71175295,-0.6777251,,0.002493143,-0.022704419,0.60521716,0.5480164,-0.80168694,0.23869689,-0.64230835,-0.22051325,0.7340394,-0.53583384,-0.5555825,-0.63577497,,0.03161316,-0.015974864,0.23088671,-0.9888503,0.11512458,0.09445397,0.12814443,0.98096174,0.14592117,-0.07585661,0.15639791,-0.98477674,,-0.3404180650958164,-0.057356737056865434,0.10926298781000002,0.0,0.0,0.0003267149605622489,0.0,,-1.4642687666173382,0.17318228470448463,0.08959437964000001,-0.0067100781915047794,-0.017079562470680057,-0.0016734014047947105,0.0017967847274770708
3.366929058043752,,0.03543164,0.03407475,0.3647734,-0.71406066,-0.571044,-0.40500152,-0.67529345,0.40923572,0.61359984,-0.18465146,0.7116423,-0.67784137,,0.0024926364,-0.022704557,0.6052168,0.5480155,-0.80168945,0.23869073,-0.6423086,-0.22051811,0.73403776,-0.53583455,-0.55557704,-0.6357792,,0.03161316,-0.015974864,0.23088671,-0.9888503,0.11512458,0.09445397,0.12814443,0.98096174,0.14592117,-0.07585661,0.15639791,-0.98477674,,-0.3404180650958164,-0.057356737056865434,0.10926298781000002,0.0,0.0,0.00016335748028112446,-0.0003266881322685585,,-1.4642610438844639,0.17318228470448463,0.08959437964000001,-0.0067100781915047794,-0.017079562470680057,-0.0016734014047947105,0.0017967847274770708
3.3936671930132434,,0.03543164,0.03407475,0.3647734,-0.71406066,-0.571044,-0.40500152,-0.67529345,0.40923572,0.61359984,-0.18465146,0.7116423,-0.67784137,,0.0024926364,-0.022704557,0.6052168,0.5480155,-0.80168945,0.23869073,-0.6423086,-0.22051811,0.73403776,-0.53583455,-0.55557704,-0.6357792,,0.03161316,-0.015974864,0.23088671,-0.9888503,0.11512458,0.09445397,0.12814443,0.98096174,0.14592117,-0.07585661,0.15639791,-0.98477674,,-0.3404180650958164,-0.057356737056865434,0.10926298781000002,0.0,0.0,0.00016335748028112446,-0.0003266881322685585,,-1.4642610438844639,0.17318228470448463,0.08959437964000001,-0.0067100781915047794,-0.017079562470680057,-0.0016734014047947105,0.0017967847274770708
3.418990421050694,,0.03543164,0.03407475,0.3647734,-0.71406066,-0.571044,-0.40500152,-0.67529345,0.40923572,0.61359984,-0.18465146,0.7116423,-0.67784137,,0.0024926364,-0.022704557,0.6052168,0.5480155,-0.80168945,0.23869073,-0.6423086,-0.22051811,0.73403776,-0.53583455,-0.55557704,-0.6357792,,0.03161316,-0.015974864,0.23088671,-0.9888503,0.11512458,0.09445397,0.12814443,0.98096174,0.14592117,-0.07585661,0.15639791,-0.98477674,,-0.3404180650958164,-0.057356737056865434,0.10926298781000002,0.0,0.0,0.00016335748028112446,-0.0003266881322685585,,-1.4642610438844639,0.17318228470448463,0.08959437964000001,-0.0067100781915047794,-0.017079562470680057,-0.0016734014047947105,0.0017967847274770708
3.448762519052252,,0.035431184,0.034075074,0.36477396,-0.71406037,-0.5710412,-0.40500593,-0.6752937,0.4092307,0.613603,-0.18465178,0.7116474,-0.6778358,,0.002493143,-0.022704419,0.60521716,0.5480164,-0.80168694,0.23869689,-0.64230835,-0.22051325,0.7340394,-0.53583384,-0.5555825,-0.63577497,,0.03161316,-0.015974864,0.23088671,-0.9888503,0.11512458,0.09445397,0.12814443,0.98096174,0.14592117,-0.07585661,0.15639791,-0.98477674,,-0.34041034236294215,-0.057356737056865434,0.10926298781000002,0.0,0.0,0.00016335748028112446,-0.0003266881322685585,,-1.4642687666173382,0.17318228470448463,0.08959437964000001,-0.0067100781915047794,-0.017079562470680057,-0.0016734014047947105,0.0017967847274770708
3.470124476996716,,0.035431184,0.034075074,0.36477396,-0.71406037,-0.5710412,-0.40500593,-0.6752937,0.4092307,0.613603,-0.18465178,0.7116474,-0.6778358,,0.0024926364,-0.022704557,0.6052168,0.5480155,-0.80168945,0.23869073,-0.6423086,-0.22051811,0.73403776,-0.53583455,-0.55557704,-0.6357792,,0.03161316,-0.015974864,0.23088671,-0.9888503,0.11512458,0.09445397,0.12814443,0.98096174,0.14592117,-0.07585661,0.15639791,-0.98477674,,-0.34041034236294215,-0.057356737056865434,0.10926298781000002,0.0,0.0,0.00016335748028112446,-0.0003266881322685585,,-1.4642610438844639,0.17318228470448463,0.08959437964000001,-0.0067100781915047794,-0.017079562470680057,-0.0016734014047947105,0.0017967847274770708
3.5005066040321253,,0.035431184,0.034075074,0.36477396,-0.71406037,-0.5710412,-0.40500593,-0.6752937,0.4092307,0.613603,-0.18465178,0.7116474,-0.6778358,,0.002493143,-0.022704419,0.60521716,0.5480164,-0.80168694,0.23869689,-0.64230835,-0.22051325,0.7340394,-0.53583384,-0.5555825,-0.63577497,,0.03161316,-0.015974864,0.23088671,-0.9888503,0.11512458,0.09445397,0.12814443,0.98096174,0.14592117,-0.07585661,0.15639791,-0.98477674,,-0.34041034236294215,-0.057356737056865434,0.10926298781000002,0.0,0.0,0.00016335748028112446,-0.0003266881322685585,,-1.4642687666173382,0.17318228470448463,0.08959437964000001,-0.0067100781915047794,-0.017079562470680057,-0.0016734014047947105,0.0017967847274770708
3.5266685410169885,,0.03543164,0.03407475,0.3647734,-0.71406066,-0.571044,-0.40500152,-0.67529345,0.40923572,0.61359984,-0.18465146,0.7116423,-0.67784137,,0.0024926364,-0.022704557,0.6052168,0.5480155,-0.80168945,0.23869073,-0.6423086,-0.22051811,0.73403776,-0.53583455,-0.55557704,-0.6357792,,0.03161316,-0.015974864,0.23088671,-0.9888503,0.11512458,0.09445397,0.12814443,0.98096174,0.14592117,-0.07585661,0.15639791,-0.98477674,,-0.3404180650958164,-0.057356737056865434,0.10926298781000002,0.0,0.0,0.00016335748028112446,-0.0003266881322685585,,-1.4642610438844639,0.17318228470448463,0.08959437964000001,-0.0067100781915047794,-0.017079562470680057,-0.0016734014047947105,0.0017967847274770708
3.551476715016179,,0.03543164,0.03407475,0.3647734,-0.71406066,-0.571044,-0.40500152,-0.67529345,0.40923572,0.61359984,-0.18465146,0.7116423,-0.67784137,,0.0024926364,-0.022704557,0.6052168,0.5480155,-0.80168945,0.23869073,-0.6423086,-0.22051811,0.73403776,-0.53583455,-0.55557704,-0.6357792,,0.03161316,-0.015974864,0.23088671,-0.9888503,0.11512458,0.09445397,0.12814443,0.98096174,0.14592117,-0.07585661,0.15639791,-0.98477674,,-0.3404180650958164,-0.057356737056865434,0.10926298781000002,0.0,0.0,0.00016335748028112446,-0.0003266881322685585,,-1.4642610438844639,0.17318228470448463,0.08959437964000001,-0.0067100781915047794,-0.017079562470680057,-0.0016734014047947105,0.0017967847274770708
3.5797149130376056,,0.03543164,0.03407475,0.3647734,-0.71406066,-0.571044,-0.40500152,-0.67529345,0.40923572,0.61359984,-0.18465146,0.7116423,-0.67784137,,0.0024926364,-0.022704557,0.6052168,0.5480155,-0.80168945,0.23869073,-0.6423086,-0.22051811,0.73403776,-0.53583455,-0.55557704,-0.6357792,,0.03161316,-0.015974864,0.23088671,-0.9888503,0.11512458,0.09445397,0.12814443,0.98096174,0.14592117,-0.07585661,0.15639791,-0.98477674,,-0.3404180650958164,-0.057356737056865434,0.10926298781000002,0.0,0.0,0.00016335748028112446,-0.0003266881322685585,,-1.4642610438844639,0.17318228470448463,0.08959437964000001,-0.0067100781915047794,-0.017079562470680057,-0.0016734014047947105,0.0017967847274770708
3.60215029300889,,0.035431184,0.034075074,0.36477396,-0.71406037,-0.5710743,-0.40495926,-0.6752937,0.4092808,0.61356956,-0.18465178,0.711592,-0.677894,,0.002493143,-0.022704419,0.60521716,0.5480164,-0.80168694,0.23869689,-0.64230835,-0.22051325,0.7340394,-0.53583384,-0.5555825,-0.63577497,,0.03161316,-0.015974864,0.23088671,-0.9888503,0.11512458,0.09445397,0.12814443,0.98096174,0.14592117,-0.07585661,0.15639791,-0.98477674,,-0.34041034236294215,-0.057356737056865434,0.10926298781000002,0.0,0.0,8.167874014056223e-05,-0.00016334406613427926,,-1.4642687666173382,0.17318228470448463,0.08959437964000001,-0.0067100781915047794,-0.017079562470680057,-0.0016734014047947105,0.0017967847274770708
3.630001673998777,,0.035431184,0.034075074,0.36477396,-0.71406037,-0.5711074,-0.4049126,-0.6752937,0.4093309,0.6135362,-0.18465178,0.71153665,-0.6779521,,0.002493143,-0.022704419,0.60521716,0.5480164,-0.80168694,0.23869689,-0.64230835,-0.22051325,0.7340394,-0.53583384,-0.5555825,-0.63577497,,0.03161316,-0.015974864,0.23088671,-0.9888503,0.11512458,0.09445397,0.12814443,0.98096174,0.14592117,-0.07585661,0.15639791,-0.98477674,,-0.34041034236294215,-0.057356737056865434,0.10926298781000002,0.0,0.0,0.0,0.0,,-1.4642687666173382,0.17318228470448463,0.08959437964000001,-0.0067100781915047794,-0.017079562470680057,-0.0016734014047947105,0.0017967847274770708
3.6530070709995925,,0.035431184,0.034075074,0.36477396,-0.71406037,-0.5711074,-0.4049126,-0.6752937,0.4093309,0.6135362,-0.18465178,0.71153665,-0.6779521,,0.0024926364,-0.022704557,0.6052168,0.5480155,-0.80168945,0.23869073,-0.6423086,-0.22051811,0.73403776,-0.53583455,-0.55557704,-0.6357792,,0.03161316,-0.015974864,0.23088671,-0.9888503,0.11512458,0.09445397,0.12814443,0.98096174,0.14592117,-0.07585661,0.15639791,-0.98477674,,-0.34041034236294215,-0.057356737056865434,0.10926298781000002,0.0,0.0,0.0,0.0,,-1.4642610438844639,0.17318228470448463,0.08959437964000001,-0.0067100781915047794,-0.017079562470680057,-0.0016734014047947105,0.0017967847274770708
3.682297863007989,,0.035431184,0.034075074,0.36477396,-0.71406037,-0.5711074,-0.4049126,-0.6752937,0.4093309,0.6135362,-0.18465178,0.71153665,-0.6779521,,0.0024926364,-0.022704557,0.6052168,0.5480155,-0.80168945,0.23869073,-0.6423086,-0.22051811,0.73403776,-0.53583455,-0.55557704,-0.6357792,,0.03161316,-0.015974864,0.23088671,-0.9888503,0.11512458,0.09445397,0.12814443,0.98096174,0.14592117,-0.07585661,0.15639791,-0.98477674,,-0.34041034236294215,-0.057356737056865434,0.10926298781000002,0.0,0.0,0.0,0.0,,-1.4642610438844639,0.17318228470448463,0.08959437964000001,-0.0067100781915047794,-0.017079562470680057,-0.0016734014047947105,0.0017967847274770708
3.7033867069985718,,0.03543164,0.03407475,0.3647734,-0.71406066,-0.57111025,-0.4049082,-0.67529345,0.40933597,0.613533,-0.18465146,0.7115315,-0.67795753,,0.002493143,-0.022704419,0.60521716,0.5480164,-0.80168694,0.23869689,-0.64230835,-0.22051325,0.7340394,-0.53583384,-0.5555825,-0.63577497,,0.03161316,-0.015974864,0.23088671,-0.9888503,0.11512458,0.09445397,0.12814443,0.98096174,0.14592117,-0.07585661,0.15639791,-0.98477674,,-0.3404180650958164,-0.057356737056865434,0.10926298781000002,0.0,0.0,0.0,0.0,,-1.4642687666173382,0.17318228470448463,0.08959437964000001,-0.0067100781915047794,-0.017079562470680057,-0.0016734014047947105,0.0017967847274770708
3.7363444580114447,,0.03545298,0.03405352,0.3647591,-0.7140238,-0.57112986,-0.40494546,-0.67532384,0.4092681,0.6135448,-0.18468243,0.7115548,-0.67792463,,0.0025592335,-0.02270168,0.6052205,0.5480541,-0.80167747,0.2386424,-0.6422815,-0.22057626,0.734044,-0.53582746,-0.55557126,-0.6357902,,0.03162353,-0.015976455,0.23088777,-0.98885405,0.11509568,0.0944503,0.12811522,0.9809655,0.14592172,-0.07585753,0.15639578,-0.984777,,-0.3404180650958164,-0.057356737056865434,0.10926298781000002,0.0,0.0,0.0,0.0,,-1.4642687666173382,0.17318228470448463,0.08959437964000001,-0.0067100781915047794,-0.017079562470680057,-0.0016734014047947105,0.0017967847274770708
