AlexandreBanks6/ExpertPlaybackApp/resources/Motions/Motion_2.csv
Time,si_T_psm1,Tx,Ty,Tz,R00,R01,R02,R10,R11,R12,R20,R21,R22,si_T_psm3,Tx,Ty,Tz,R00,R01,R02,R10,R11,R12,R20,R21,R22,si_T_ecm,Tx,Ty,Tz,R00,R01,R02,R10,R11,R12,R20,R21,R22,joint_vars,"q1,q2,q3,q4,q5,q6,jaw"
si_T_lci
0,-0.07086427509784698,-0.07086427509784698,-0.07086427509784698,0.9992376565933228,0.03828062862157822,0.007660926319658756,0.038833849132061005,-0.9947677850723267,-0.09449341148138046,0.004003575537353754,0.09471888095140457,-0.9954960346221924
si_T_rci
0,-0.07024144381284714,-0.07024144381284714,-0.07024144381284714,0.9981765151023865,0.03145105019211769,-0.05152183398604393,0.02679126150906086,-0.9956924915313721,-0.08876174688339233,-0.05409155413508415,0.08721955865621567,-0.9947195053100586
lc_T_ecm
0,4.336808689942018e-18,1.1102230246251565e-16,-3.469446951953614e-18,0.9340208768844604,-0.32346540689468384,0.15157562494277954,-0.3336535692214966,-0.9415361881256104,0.046742480248212814,0.12759436666965485,-0.09423220157623291,-0.9873398542404175
rc_T_ecm
0,-8.326672684688674e-17,-1.119764003743029e-15,4.3725873616340394e-16,0.9962640404701233,-0.08602791279554367,-0.00755940331146121,0.08463667333126068,0.9552455544471741,0.28344762325286865,-0.017163321375846863,-0.2830284833908081,0.9589579105377197
0.11290091599221341,,,,,,,,,,,,,,,,,,,,,,,,,,,,0.16440801322460175,1.6131455898284912,0.7574251890182495,0.8747274875640869,0.6214855909347534,0.006673835217952728,-0.6954909563064575,2.6719648838043213,0.8772623538970947,-0.02732585370540619,0.7932976484298706,1.3712849617004395,,,,,,,,,,,,,,,,,,,,,
0.22741938999388367,,,,,,,,,,,,,,,,,,,,,,,,,,,,0.16440801322460175,1.6131455898284912,0.7574251890182495,0.8747274875640869,0.6214855909347534,0.006673835217952728,-0.6954909563064575,2.6719648838043213,0.8772623538970947,-0.02732585370540619,0.7932976484298706,1.3712849617004395,,,,,,,,,,,,,,,,,,,,,
0.36277704598614946,,,,,,,,,,,,,,,,,,,,,,,,,,,,0.16440801322460175,1.6131455898284912,0.7574251890182495,0.8747274875640869,0.6214855909347534,0.006673835217952728,-0.6954909563064575,2.6719648838043213,0.8772623538970947,-0.02732585370540619,0.7932976484298706,1.3712849617004395,,,,,,,,,,,,,,,,,,,,,
0.4750214359955862,,,,,,,,,,,,,,,,,,,,,,,,,,,,0.16440801322460175,1.6131455898284912,0.7574251890182495,0.8747274875640869,0.6214855909347534,0.006673835217952728,-0.6954909563064575,2.6719648838043213,0.8772623538970947,-0.02732585370540619,0.7932976484298706,1.3712849617004395,,,,,,,,,,,,,,,,,,,,,
0.5953750440094154,,,,,,,,,,,,,,,,,,,,,,,,,,,,0.16440801322460175,1.6131455898284912,0.7574251890182495,0.8747274875640869,0.6214855909347534,0.006673835217952728,-0.6954909563064575,2.6719648838043213,0.8772623538970947,-0.02732585370540619,0.7932976484298706,1.3712849617004395,,,,,,,,,,,,,,,,,,,,,
0.714557914994657,,,,,,,,,,,,,,,,,,,,,,,,,,,,0.16440801322460175,1.6131455898284912,0.7574251890182495,0.8747274875640869,0.6214855909347534,0.006673835217952728,-0.6954909563064575,2.6719648838043213,0.8772623538970947,-0.02732585370540619,0.7932976484298706,1.3712849617004395,,,,,,,,,,,,,,,,,,,,,
0.8435770049982239,,,,,,,,,,,,,,,,,,,,,,,,,,,,0.16440801322460175,1.6131455898284912,0.7574251890182495,0.8747274875640869,0.6214855909347534,0.006673835217952728,-0.6954909563064575,2.6719648838043213,0.8772623538970947,-0.02732585370540619,0.7932976484298706,1.3712849617004395,,,,,,,,,,,,,,,,,,,,,
0.9637098299863283,,,,,,,,,,,,,,,,,,,,,,,,,,,,0.1643439531326294,1.6131601333618164,0.7574313282966614,0.8747655749320984,0.6213546395301819,0.006639242172241211,-0.6954305171966553,2.672011375427246,0.8772644996643066,-0.027327165007591248,0.7933045625686646,1.3712882995605469,,,,,,,,,,,,,,,,,,,,,
1.0690586399869062,,,,,,,,,,,,,,,,,,,,,,,,,,,,0.1643439531326294,1.6131601333618164,0.7574313282966614,0.8747655749320984,0.6213546395301819,0.006639242172241211,-0.6954305171966553,2.672011375427246,0.8772644996643066,-0.027327165007591248,0.7933045625686646,1.3712882995605469,,,,,,,,,,,,,,,,,,,,,
1.1800522599951364,,,,,,,,,,,,,,,,,,,,,,,,,,,,0.1643439531326294,1.6131601333618164,0.7574313282966614,0.8747655749320984,0.6213546395301819,0.006639242172241211,-0.6954305171966553,2.672011375427246,0.8772644996643066,-0.027327165007591248,0.7933045625686646,1.3712882995605469,,,,,,,,,,,,,,,,,,,,,
1.3027344509901013,,,,,,,,,,,,,,,,,,,,,,,,,,,,0.1643439531326294,1.6131601333618164,0.7574313282966614,0.8747655749320984,0.6213546395301819,0.006639242172241211,-0.6954305171966553,2.672011375427246,0.8772644996643066,-0.027327165007591248,0.7933045625686646,1.3712882995605469,,,,,,,,,,,,,,,,,,,,,
1.43319172799238,,,,,,,,,,,,,,,,,,,,,,,,,,,,0.1643439531326294,1.6131601333618164,0.7574313282966614,0.8747655749320984,0.6213546395301819,0.006639242172241211,-0.6954305171966553,2.672011375427246,0.8772644996643066,-0.027327165007591248,0.7933045625686646,1.3712882995605469,,,,,,,,,,,,,,,,,,,,,
1.5482698460109532,,,,,,,,,,,,,,,,,,,,,,,,,,,,0.1643439531326294,1.6131601333618164,0.7574313282966614,0.8747655749320984,0.6213546395301819,0.006639242172241211,-0.6954305171966553,2.672011375427246,0.8772644996643066,-0.027327165007591248,0.7933045625686646,1.3712882995605469,,,,,,,,,,,,,,,,,,,,,
1.6980303459858987,,,,,,,,,,,,,,,,,,,,,,,,,,,,0.1643439531326294,1.6131601333618164,0.7574313282966614,0.8747655749320984,0.6213546395301819,0.006639242172241211,-0.6954305171966553,2.672011375427246,0.8772644996643066,-0.027327165007591248,0.7933045625686646,1.3712882995605469,,,,,,,,,,,,,,,,,,,,,
1.834290720988065,,,,,,,,,,,,,,,,,,,,,,,,,,,,0.1643439531326294,1.6131601333618164,0.7574313282966614,0.8747655749320984,0.6213546395301819,0.006639242172241211,-0.6954305171966553,2.672011375427246,0.8772644996643066,-0.027327165007591248,0.7933045625686646,1.3712882995605469,,,,,,,,,,,,,,,,,,,,,
1.973408907011617,,,,,,,,,,,,,,,,,,,,,,,,,,,,0.1643439531326294,1.6131601333618164,0.7574313282966614,0.8747655749320984,0.6213546395301819,0.006639242172241211,-0.6954305171966553,2.672011375427246,0.8772644996643066,-0.027327165007591248,0.7933045625686646,1.3712882995605469,,,,,,,,,,,,,,,,,,,,,
2.100380376999965,,,,,,,,,,,,,,,,,,,,,,,,,,,,0.16433101892471313,1.613161325454712,0.7574241757392883,0.8747715353965759,0.6213325262069702,0.006632208824157715,-0.695422887802124,2.6720168590545654,0.8772643804550171,-0.027325645089149475,0.7932963967323303,1.3712843656539917,,,,,,,,,,,,,,,,,,,,,
2.2071515810093842,,,,,,,,,,,,,,,,,,,,,,,,,,,,0.16433101892471313,1.613161325454712,0.7574241757392883,0.8747715353965759,0.6213325262069702,0.006632208824157715,-0.695422887802124,2.6720168590545654,0.8772643804550171,-0.027325645089149475,0.7932963967323303,1.3712843656539917,,,,,,,,,,,,,,,,,,,,,
2.3280297130113468,,,,,,,,,,,,,,,,,,,,,,,,,,,,0.16433101892471313,1.613161325454712,0.7574241757392883,0.8747715353965759,0.6213325262069702,0.006632208824157715,-0.695422887802124,2.6720168590545654,0.8772643804550171,-0.027325645089149475,0.7932963967323303,1.3712843656539917,,,,,,,,,,,,,,,,,,,,,
2.4461284120043274,,,,,,,,,,,,,,,,,,,,,,,,,,,,0.16433101892471313,1.613161325454712,0.7574241757392883,0.8747715353965759,0.6213325262069702,0.006632208824157715,-0.695422887802124,2.6720168590545654,0.8772643804550171,-0.027325645089149475,0.7932963967323303,1.3712843656539917,,,,,,,,,,,,,,,,,,,,,
2.568264740984887,,,,,,,,,,,,,,,,,,,,,,,,,,,,0.16433101892471313,1.613161325454712,0.7574241757392883,0.8747715353965759,0.6213325262069702,0.006632208824157715,-0.695422887802124,2.6720168590545654,0.8772643804550171,-0.027325645089149475,0.7932963967323303,1.3712843656539917,,,,,,,,,,,,,,,,,,,,,
2.6863378710113466,,,,,,,,,,,,,,,,,,,,,,,,,,,,0.16433101892471313,1.613161325454712,0.7574241757392883,0.8747715353965759,0.6213325262069702,0.006632208824157715,-0.695422887802124,2.6720168590545654,0.8772643804550171,-0.027325645089149475,0.7932963967323303,1.3712843656539917,,,,,,,,,,,,,,,,,,,,,
2.796633258985821,,,,,,,,,,,,,,,,,,,,,,,,,,,,0.16433101892471313,1.613161325454712,0.7574241757392883,0.8747715353965759,0.6213325262069702,0.006632208824157715,-0.695422887802124,2.6720168590545654,0.8772643804550171,-0.027325645089149475,0.7932963967323303,1.3712843656539917,,,,,,,,,,,,,,,,,,,,,
2.9199657739955,,,,,,,,,,,,,,,,,,,,,,,,,,,,0.16433101892471313,1.613161325454712,0.7574241757392883,0.8747715353965759,0.6213325262069702,0.006632208824157715,-0.695422887802124,2.6720168590545654,0.8772643804550171,-0.027325645089149475,0.7932963967323303,1.3712843656539917,,,,,,,,,,,,,,,,,,,,,
3.034862256987253,,,,,,,,,,,,,,,,,,,,,,,,,,,,0.16433101892471313,1.613161325454712,0.7574241757392883,0.8747715353965759,0.6213325262069702,0.006632208824157715,-0.695422887802124,2.6720168590545654,0.8772643804550171,-0.027325645089149475,0.7932963967323303,1.3712843656539917,,,,,,,,,,,,,,,,,,,,,
3.149405821983237,,,,,,,,,,,,,,,,,,,,,,,,,,,,0.16433101892471313,1.613161325454712,0.7574241757392883,0.8747715353965759,0.6213325262069702,0.006632208824157715,-0.695422887802124,2.6720168590545654,0.8772643804550171,-0.027325645089149475,0.7932963967323303,1.3712843656539917,,,,,,,,,,,,,,,,,,,,,
3.265793163998751,,,,,,,,,,,,,,,,,,,,,,,,,,,,0.16440336406230927,1.6131525039672852,0.7574288845062256,0.8747377395629883,0.6214584708213806,0.006671495735645294,-0.6954684257507324,2.6719839572906494,0.8772638440132141,-0.027326658368110657,0.7933017611503601,1.3712869882583618,,,,,,,,,,,,,,,,,,,,,
3.3967812589835376,,,,,,,,,,,,,,,,,,,,,,,,,,,,0.16440336406230927,1.6131525039672852,0.7574288845062256,0.8747377395629883,0.6214584708213806,0.006671495735645294,-0.6954684257507324,2.6719839572906494,0.8772638440132141,-0.027326658368110657,0.7933017611503601,1.3712869882583618,,,,,,,,,,,,,,,,,,,,,
3.5151364670018665,,,,,,,,,,,,,,,,,,,,,,,,,,,,0.16440336406230927,1.6131525039672852,0.7574288845062256,0.8747377395629883,0.6214584708213806,0.006671495735645294,-0.6954684257507324,2.6719839572906494,0.8772638440132141,-0.027326658368110657,0.7933017611503601,1.3712869882583618,,,,,,,,,,,,,,,,,,,,,
3.6312587599968538,,,,,,,,,,,,,,,,,,,,,,,,,,,,0.16440336406230927,1.6131525039672852,0.7574288845062256,0.8747377395629883,0.6214584708213806,0.006671495735645294,-0.6954684257507324,2.6719839572906494,0.8772638440132141,-0.027326658368110657,0.7933017611503601,1.3712869882583618,,,,,,,,,,,,,,,,,,,,,
3.755820386984851,,,,,,,,,,,,,,,,,,,,,,,,,,,,0.16440336406230927,1.6131525039672852,0.7574288845062256,0.8747377395629883,0.6214584708213806,0.006671495735645294,-0.6954684257507324,2.6719839572906494,0.8772638440132141,-0.027326658368110657,0.7933017611503601,1.3712869882583618,,,,,,,,,,,,,,,,,,,,,
3.879294171987567,,,,,,,,,,,,,,,,,,,,,,,,,,,,0.16440336406230927,1.6131525039672852,0.7574288845062256,0.8747377395629883,0.6214584708213806,0.006671495735645294,-0.6954684257507324,2.6719839572906494,0.8772638440132141,-0.027326658368110657,0.7933017611503601,1.3712869882583618,,,,,,,,,,,,,,,,,,,,,
3.998244596994482,,,,,,,,,,,,,,,,,,,,,,,,,,,,0.16440336406230927,1.6131525039672852,0.7574288845062256,0.8747377395629883,0.6214584708213806,0.006671495735645294,-0.6954684257507324,2.6719839572906494,0.8772638440132141,-0.027326658368110657,0.7933017611503601,1.3712869882583618,,,,,,,,,,,,,,,,,,,,,
4.187541810009861,,,,,,,,,,,,,,,,,,,,,,,,,,,,0.16440336406230927,1.6131525039672852,0.7574288845062256,0.8747377395629883,0.6214584708213806,0.006671495735645294,-0.6954684257507324,2.6719839572906494,0.8772638440132141,-0.027326658368110657,0.7933017611503601,1.3712869882583618,,,,,,,,,,,,,,,,,,,,,
4.347717778000515,,,,,,,,,,,,,,,,,,,,,,,,,,,,0.16438987851142883,1.6131584644317627,0.7574295997619629,0.8747484683990479,0.6214246153831482,0.006664268672466278,-0.6954494118690491,2.6720001697540283,0.8772653341293335,-0.027326807379722595,0.793302595615387,1.3712873458862305,,,,,,,,,,,,,,,,,,,,,
4.538360967999324,,,,,,,,,,,,,,,,,,,,,,,,,,,,0.16438987851142883,1.6131584644317627,0.7574295997619629,0.8747484683990479,0.6214246153831482,0.006664268672466278,-0.6954494118690491,2.6720001697540283,0.8772653341293335,-0.027326807379722595,0.793302595615387,1.3712873458862305,,,,,,,,,,,,,,,,,,,,,
4.6773700779885985,,,,,,,,,,,,,,,,,,,,,,,,,,,,0.16438987851142883,1.6131584644317627,0.7574295997619629,0.8747484683990479,0.6214246153831482,0.006664268672466278,-0.6954494118690491,2.6720001697540283,0.8772653341293335,-0.027326807379722595,0.793302595615387,1.3712873458862305,,,,,,,,,,,,,,,,,,,,,
4.8205566389951855,,,,,,,,,,,,,,,,,,,,,,,,,,,,0.16438987851142883,1.6131584644317627,0.7574295997619629,0.8747484683990479,0.6214246153831482,0.006664268672466278,-0.6954494118690491,2.6720001697540283,0.8772653341293335,-0.027326807379722595,0.793302595615387,1.3712873458862305,,,,,,,,,,,,,,,,,,,,,
4.9511855590099,,,,,,,,,,,,,,,,,,,,,,,,,,,,0.16438987851142883,1.6131584644317627,0.7574295997619629,0.8747484683990479,0.6214246153831482,0.006664268672466278,-0.6954494118690491,2.6720001697540283,0.8772653341293335,-0.027326807379722595,0.793302595615387,1.3712873458862305,,,,,,,,,,,,,,,,,,,,,
5.066938342992216,,,,,,,,,,,,,,,,,,,,,,,,,,,,0.16438987851142883,1.6131584644317627,0.7574295997619629,0.8747484683990479,0.6214246153831482,0.006664268672466278,-0.6954494118690491,2.6720001697540283,0.8772653341293335,-0.027326807379722595,0.793302595615387,1.3712873458862305,,,,,,,,,,,,,,,,,,,,,
5.183303185011027,,,,,,,,,,,,,,,,,,,,,,,,,,,,0.16438987851142883,1.6131584644317627,0.7574295997619629,0.8747484683990479,0.6214246153831482,0.006664268672466278,-0.6954494118690491,2.6720001697540283,0.8772653341293335,-0.027326807379722595,0.793302595615387,1.3712873458862305,,,,,,,,,,,,,,,,,,,,,
5.3081188469950575,,,,,,,,,,,,,,,,,,,,,,,,,,,,0.16438987851142883,1.6131584644317627,0.7574295997619629,0.8747484683990479,0.6214246153831482,0.006664268672466278,-0.6954494118690491,2.6720001697540283,0.8772653341293335,-0.027326807379722595,0.793302595615387,1.3712873458862305,,,,,,,,,,,,,,,,,,,,,
5.437615489994641,,,,,,,,,,,,,,,,,,,,,,,,,,,,0.16438987851142883,1.6131584644317627,0.7574295997619629,0.8747484683990479,0.6214246153831482,0.006664268672466278,-0.6954494118690491,2.6720001697540283,0.8772653341293335,-0.027326807379722595,0.793302595615387,1.3712873458862305,,,,,,,,,,,,,,,,,,,,,
5.562123299983796,,,,,,,,,,,,,,,,,,,,,,,,,,,,0.16433891654014587,1.6131627559661865,0.7574278116226196,0.8747701644897461,0.6213409900665283,0.006636537611484528,-0.6954224705696106,2.6720187664031982,0.8772650957107544,-0.02732643485069275,0.7933005690574646,1.3712862730026245,,,,,,,,,,,,,,,,,,,,,
5.684247324010357,,,,,,,,,,,,,,,,,,,,,,,,,,,,0.16433891654014587,1.6131627559661865,0.7574278116226196,0.8747701644897461,0.6213409900665283,0.006636537611484528,-0.6954224705696106,2.6720187664031982,0.8772650957107544,-0.02732643485069275,0.7933005690574646,1.3712862730026245,,,,,,,,,,,,,,,,,,,,,
5.800157630990725,,,,,,,,,,,,,,,,,,,,,,,,,,,,0.16433891654014587,1.6131627559661865,0.7574278116226196,0.8747701644897461,0.6213409900665283,0.006636537611484528,-0.6954224705696106,2.6720187664031982,0.8772650957107544,-0.02732643485069275,0.7933005690574646,1.3712862730026245,,,,,,,,,,,,,,,,,,,,,
5.919309905992122,,,,,,,,,,,,,,,,,,,,,,,,,,,,0.16433891654014587,1.6131627559661865,0.7574278116226196,0.8747701644897461,0.6213409900665283,0.006636537611484528,-0.6954224705696106,2.6720187664031982,0.8772650957107544,-0.02732643485069275,0.7933005690574646,1.3712862730026245,,,,,,,,,,,,,,,,,,,,,
6.039868658990599,,,,,,,,,,,,,,,,,,,,,,,,,,,,0.16433891654014587,1.6131627559661865,0.7574278116226196,0.8747701644897461,0.6213409900665283,0.006636537611484528,-0.6954224705696106,2.6720187664031982,0.8772650957107544,-0.02732643485069275,0.7933005690574646,1.3712862730026245,,,,,,,,,,,,,,,,,,,,,
6.157366914005252,,,,,,,,,,,,,,,,,,,,,,,,,,,,0.16433891654014587,1.6131627559661865,0.7574278116226196,0.8747701644897461,0.6213409900665283,0.006636537611484528,-0.6954224705696106,2.6720187664031982,0.8772650957107544,-0.02732643485069275,0.7933005690574646,1.3712862730026245,,,,,,,,,,,,,,,,,,,,,
6.284006467991276,,,,,,,,,,,,,,,,,,,,,,,,,,,,0.16433891654014587,1.6131627559661865,0.7574278116226196,0.8747701644897461,0.6213409900665283,0.006636537611484528,-0.6954224705696106,2.6720187664031982,0.8772650957107544,-0.02732643485069275,0.7933005690574646,1.3712862730026245,,,,,,,,,,,,,,,,,,,,,
6.400271796010202,,,,,,,,,,,,,,,,,,,,,,,,,,,,0.16433891654014587,1.6131627559661865,0.7574278116226196,0.8747701644897461,0.6213409900665283,0.006636537611484528,-0.6954224705696106,2.6720187664031982,0.8772650957107544,-0.02732643485069275,0.7933005690574646,1.3712862730026245,,,,,,,,,,,,,,,,,,,,,
6.517412373010302,,,,,,,,,,,,,,,,,,,,,,,,,,,,0.16433891654014587,1.6131627559661865,0.7574278116226196,0.8747701644897461,0.6213409900665283,0.006636537611484528,-0.6954224705696106,2.6720187664031982,0.8772650957107544,-0.02732643485069275,0.7933005690574646,1.3712862730026245,,,,,,,,,,,,,,,,,,,,,
6.640429221006343,,,,,,,,,,,,,,,,,,,,,,,,,,,,0.16444700956344604,1.613142490386963,0.7574304342269897,0.8747140169143677,0.6215425133705139,0.006695106625556946,-0.6955036520957947,2.671954393386841,0.8772618770599365,-0.027326971292495728,0.7933035492897034,1.3712878227233887,,,,,,,,,,,,,,,,,,,,,
6.758036234008614,,,,,,,,,,,,,,,,,,,,,,,,,,,,0.16444700956344604,1.613142490386963,0.7574304342269897,0.8747140169143677,0.6215425133705139,0.006695106625556946,-0.6955036520957947,2.671954393386841,0.8772618770599365,-0.027326971292495728,0.7933035492897034,1.3712878227233887,,,,,,,,,,,,,,,,,,,,,
6.9027551189938094,,,,,,,,,,,,,,,,,,,,,,,,,,,,0.16444700956344604,1.613142490386963,0.7574304342269897,0.8747140169143677,0.6215425133705139,0.006695106625556946,-0.6955036520957947,2.671954393386841,0.8772618770599365,-0.027326971292495728,0.7933035492897034,1.3712878227233887,,,,,,,,,,,,,,,,,,,,,
7.015157666988671,,,,,,,,,,,,,,,,,,,,,,,,,,,,0.16444700956344604,1.613142490386963,0.7574304342269897,0.8747140169143677,0.6215425133705139,0.006695106625556946,-0.6955036520957947,2.671954393386841,0.8772618770599365,-0.027326971292495728,0.7933035492897034,1.3712878227233887,,,,,,,,,,,,,,,,,,,,,
7.134897037991323,,,,,,,,,,,,,,,,,,,,,,,,,,,,0.16444700956344604,1.613142490386963,0.7574304342269897,0.8747140169143677,0.6215425133705139,0.006695106625556946,-0.6955036520957947,2.671954393386841,0.8772618770599365,-0.027326971292495728,0.7933035492897034,1.3712878227233887,,,,,,,,,,,,,,,,,,,,,
7.256194946996402,,,,,,,,,,,,,,,,,,,,,,,,,,,,0.16444700956344604,1.613142490386963,0.7574304342269897,0.8747140169143677,0.6215425133705139,0.006695106625556946,-0.6955036520957947,2.671954393386841,0.8772618770599365,-0.027326971292495728,0.7933035492897034,1.3712878227233887,,,,,,,,,,,,,,,,,,,,,
7.376613989996258,,,,,,,,,,,,,,,,,,,,,,,,,,,,0.16444700956344604,1.613142490386963,0.7574304342269897,0.8747140169143677,0.6215425133705139,0.006695106625556946,-0.6955036520957947,2.671954393386841,0.8772618770599365,-0.027326971292495728,0.7933035492897034,1.3712878227233887,,,,,,,,,,,,,,,,,,,,,
7.499599461007165,,,,,,,,,,,,,,,,,,,,,,,,,,,,0.16444700956344604,1.613142490386963,0.7574304342269897,0.8747140169143677,0.6215425133705139,0.006695106625556946,-0.6955036520957947,2.671954393386841,0.8772618770599365,-0.027326971292495728,0.7933035492897034,1.3712878227233887,,,,,,,,,,,,,,,,,,,,,
7.62090155199985,,,,,,,,,,,,,,,,,,,,,,,,,,,,0.16444700956344604,1.613142490386963,0.7574304342269897,0.8747140169143677,0.6215425133705139,0.006695106625556946,-0.6955036520957947,2.671954393386841,0.8772618770599365,-0.027326971292495728,0.7933035492897034,1.3712878227233887,,,,,,,,,,,,,,,,,,,,,
7.734562381985597,,,,,,,,,,,,,,,,,,,,,,,,,,,,0.16444739699363708,1.6131360530853271,0.757429838180542,0.8747095465660095,0.6215533018112183,0.006695225834846497,-0.6955136656761169,2.6719417572021484,0.8772593140602112,-0.027326852083206177,0.7933027744293213,1.37128746509552,,,,,,,,,,,,,,,,,,,,,
7.851226234983187,,,,,,,,,,,,,,,,,,,,,,,,,,,,0.16444739699363708,1.6131360530853271,0.757429838180542,0.8747095465660095,0.6215533018112183,0.006695225834846497,-0.6955136656761169,2.6719417572021484,0.8772593140602112,-0.027326852083206177,0.7933027744293213,1.37128746509552,,,,,,,,,,,,,,,,,,,,,
7.976393716002349,,,,,,,,,,,,,,,,,,,,,,,,,,,,0.16444739699363708,1.6131360530853271,0.757429838180542,0.8747095465660095,0.6215533018112183,0.006695225834846497,-0.6955136656761169,2.6719417572021484,0.8772593140602112,-0.027326852083206177,0.7933027744293213,1.37128746509552,,,,,,,,,,,,,,,,,,,,,
8.103504519996932,,,,,,,,,,,,,,,,,,,,,,,,,,,,0.16444739699363708,1.6131360530853271,0.757429838180542,0.8747095465660095,0.6215533018112183,0.006695225834846497,-0.6955136656761169,2.6719417572021484,0.8772593140602112,-0.027326852083206177,0.7933027744293213,1.37128746509552,,,,,,,,,,,,,,,,,,,,,
8.217802558996482,,,,,,,,,,,,,,,,,,,,,,,,,,,,0.16444739699363708,1.6131360530853271,0.757429838180542,0.8747095465660095,0.6215533018112183,0.006695225834846497,-0.6955136656761169,2.6719417572021484,0.8772593140602112,-0.027326852083206177,0.7933027744293213,1.37128746509552,,,,,,,,,,,,,,,,,,,,,
8.333499534986913,,,,,,,,,,,,,,,,,,,,,,,,,,,,0.16444739699363708,1.6131360530853271,0.757429838180542,0.8747095465660095,0.6215533018112183,0.006695225834846497,-0.6955136656761169,2.6719417572021484,0.8772593140602112,-0.027326852083206177,0.7933027744293213,1.37128746509552,,,,,,,,,,,,,,,,,,,,,
8.456212941993726,,,,,,,,,,,,,,,,,,,,,,,,,,,,0.16444739699363708,1.6131360530853271,0.757429838180542,0.8747095465660095,0.6215533018112183,0.006695225834846497,-0.6955136656761169,2.6719417572021484,0.8772593140602112,-0.027326852083206177,0.7933027744293213,1.37128746509552,,,,,,,,,,,,,,,,,,,,,
8.56881533798878,,,,,,,,,,,,,,,,,,,,,,,,,,,,0.16444739699363708,1.6131360530853271,0.757429838180542,0.8747095465660095,0.6215533018112183,0.006695225834846497,-0.6955136656761169,2.6719417572021484,0.8772593140602112,-0.027326852083206177,0.7933027744293213,1.37128746509552,,,,,,,,,,,,,,,,,,,,,
8.692592668987345,,,,,,,,,,,,,,,,,,,,,,,,,,,,0.16444739699363708,1.6131360530853271,0.757429838180542,0.8747095465660095,0.6215533018112183,0.006695225834846497,-0.6955136656761169,2.6719417572021484,0.8772593140602112,-0.027326852083206177,0.7933027744293213,1.37128746509552,,,,,,,,,,,,,,,,,,,,,
8.809749364998424,,,,,,,,,,,,,,,,,,,,,,,,,,,,0.16444739699363708,1.6131360530853271,0.757429838180542,0.8747095465660095,0.6215533018112183,0.006695225834846497,-0.6955136656761169,2.6719417572021484,0.8772593140602112,-0.027326852083206177,0.7933027744293213,1.37128746509552,,,,,,,,,,,,,,,,,,,,,
8.846180402004393,,,,,,,,,,,,,,,,,,,,,,,,,,,,0.16444739699363708,1.6131360530853271,0.757429838180542,0.8747095465660095,0.6215533018112183,0.006695225834846497,-0.6955136656761169,2.6719417572021484,0.8772593140602112,-0.027326852083206177,0.7933027744293213,1.37128746509552,,,,,,,,,,,,,,,,,,,,,
8.885431428992888,,,,,,,,,,,,,,,,,,,,,,,,,,,,0.16435839235782623,1.6131519079208374,0.7574285864830017,0.8747532367706299,0.621393084526062,0.006646953523159027,-0.6954528093338013,2.6719906330108643,0.8772621154785156,-0.027326568961143494,0.7933014035224915,1.3712868690490723,,,,,,,,,,,,,,,,,,,,,
8.942067266994854,,,,,,,,,,,,,,,,,,,,,,,,,,,,0.16435839235782623,1.6131519079208374,0.7574285864830017,0.8747532367706299,0.621393084526062,0.006646953523159027,-0.6954528093338013,2.6719906330108643,0.8772621154785156,-0.027326568961143494,0.7933014035224915,1.3712868690490723,,,,,,,,,,,,,,,,,,,,,
8.974383121007122,,,,,,,,,,,,,,,,,,,,,,,,,,,,0.16435839235782623,1.6131519079208374,0.7574285864830017,0.8747532367706299,0.621393084526062,0.006646953523159027,-0.6954528093338013,2.6719906330108643,0.8772621154785156,-0.027326568961143494,0.7933014035224915,1.3712868690490723,,,,,,,,,,,,,,,,,,,,,
9.034357246011496,,,,,,,,,,,,,,,,,,,,,,,,,,,,0.16435839235782623,1.6131519079208374,0.7574285864830017,0.8747532367706299,0.621393084526062,0.006646953523159027,-0.6954528093338013,2.6719906330108643,0.8772621154785156,-0.027326568961143494,0.7933014035224915,1.3712868690490723,,,,,,,,,,,,,,,,,,,,,
9.07822364999447,,,,,,,,,,,,,,,,,,,,,,,,,,,,0.16435839235782623,1.6131519079208374,0.7574285864830017,0.8747532367706299,0.621393084526062,0.006646953523159027,-0.6954528093338013,2.6719906330108643,0.8772621154785156,-0.027326568961143494,0.7933014035224915,1.3712868690490723,,,,,,,,,,,,,,,,,,,,,
9.125000898988219,,,,,,,,,,,,,,,,,,,,,,,,,,,,0.16435839235782623,1.6131519079208374,0.7574285864830017,0.8747532367706299,0.621393084526062,0.006646953523159027,-0.6954528093338013,2.6719906330108643,0.8772621154785156,-0.027326568961143494,0.7933014035224915,1.3712868690490723,,,,,,,,,,,,,,,,,,,,,
9.15298289299244,,,,,,,,,,,,,,,,,,,,,,,,,,,,0.16435839235782623,1.6131519079208374,0.7574285864830017,0.8747532367706299,0.621393084526062,0.006646953523159027,-0.6954528093338013,2.6719906330108643,0.8772621154785156,-0.027326568961143494,0.7933014035224915,1.3712868690490723,,,,,,,,,,,,,,,,,,,,,
9.208169650984928,,,,,,,,,,,,,,,,,,,,,,,,,,,,0.16435839235782623,1.6131519079208374,0.7574285864830017,0.8747532367706299,0.621393084526062,0.006646953523159027,-0.6954528093338013,2.6719906330108643,0.8772621154785156,-0.027326568961143494,0.7933014035224915,1.3712868690490723,,,,,,,,,,,,,,,,,,,,,
9.25882923899917,,,,,,,,,,,,,,,,,,,,,,,,,,,,0.16435839235782623,1.6131519079208374,0.7574285864830017,0.8747532367706299,0.621393084526062,0.006646953523159027,-0.6954528093338013,2.6719906330108643,0.8772621154785156,-0.027326568961143494,0.7933014035224915,1.3712868690490723,,,,,,,,,,,,,,,,,,,,,
9.290042753011221,,,,,,,,,,,,,,,,,,,,,,,,,,,,0.16435839235782623,1.6131519079208374,0.7574285864830017,0.8747532367706299,0.621393084526062,0.006646953523159027,-0.6954528093338013,2.6719906330108643,0.8772621154785156,-0.027326568961143494,0.7933014035224915,1.3712868690490723,,,,,,,,,,,,,,,,,,,,,
9.327992445003474,,,,,,,,,,,,,,,,,,,,,,,,,,,,0.16435839235782623,1.6131519079208374,0.7574285864830017,0.8747532367706299,0.621393084526062,0.006646953523159027,-0.6954528093338013,2.6719906330108643,0.8772621154785156,-0.027326568961143494,0.7933014035224915,1.3712868690490723,,,,,,,,,,,,,,,,,,,,,
9.397302213998046,,,,,,,,,,,,,,,,,,,,,,,,,,,,0.16435839235782623,1.6131519079208374,0.7574285864830017,0.8747532367706299,0.621393084526062,0.006646953523159027,-0.6954528093338013,2.6719906330108643,0.8772621154785156,-0.027326568961143494,0.7933014035224915,1.3712868690490723,,,,,,,,,,,,,,,,,,,,,
9.44027043398819,,,,,,,,,,,,,,,,,,,,,,,,,,,,0.16435839235782623,1.6131519079208374,0.7574285864830017,0.8747532367706299,0.621393084526062,0.006646953523159027,-0.6954528093338013,2.6719906330108643,0.8772621154785156,-0.027326568961143494,0.7933014035224915,1.3712868690490723,,,,,,,,,,,,,,,,,,,,,
9.483424848003779,,,,,,,,,,,,,,,,,,,,,,,,,,,,0.16435839235782623,1.6131519079208374,0.7574285864830017,0.8747532367706299,0.621393084526062,0.006646953523159027,-0.6954528093338013,2.6719906330108643,0.8772621154785156,-0.027326568961143494,0.7933014035224915,1.3712868690490723,,,,,,,,,,,,,,,,,,,,,
9.54278198099928,,,,,,,,,,,,,,,,,,,,,,,,,,,,0.16435839235782623,1.6131519079208374,0.7574285864830017,0.8747532367706299,0.621393084526062,0.006646953523159027,-0.6954528093338013,2.6719906330108643,0.8772621154785156,-0.027326568961143494,0.7933014035224915,1.3712868690490723,,,,,,,,,,,,,,,,,,,,,
9.57620707899332,,,,,,,,,,,,,,,,,,,,,,,,,,,,0.16435839235782623,1.6131519079208374,0.7574285864830017,0.8747532367706299,0.621393084526062,0.006646953523159027,-0.6954528093338013,2.6719906330108643,0.8772621154785156,-0.027326568961143494,0.7933014035224915,1.3712868690490723,,,,,,,,,,,,,,,,,,,,,
9.638429801998427,,,,,,,,,,,,,,,,,,,,,,,,,,,,0.16435839235782623,1.6131519079208374,0.7574285864830017,0.8747532367706299,0.621393084526062,0.006646953523159027,-0.6954528093338013,2.6719906330108643,0.8772621154785156,-0.027326568961143494,0.7933014035224915,1.3712868690490723,,,,,,,,,,,,,,,,,,,,,
9.671685245004483,,,,,,,,,,,,,,,,,,,,,,,,,,,,0.16435839235782623,1.6131519079208374,0.7574285864830017,0.8747532367706299,0.621393084526062,0.006646953523159027,-0.6954528093338013,2.6719906330108643,0.8772621154785156,-0.027326568961143494,0.7933014035224915,1.3712868690490723,,,,,,,,,,,,,,,,,,,,,
9.733371812006226,,,,,,,,,,,,,,,,,,,,,,,,,,,,0.16435839235782623,1.6131519079208374,0.7574285864830017,0.8747532367706299,0.621393084526062,0.006646953523159027,-0.6954528093338013,2.6719906330108643,0.8772621154785156,-0.027326568961143494,0.7933014035224915,1.3712868690490723,,,,,,,,,,,,,,,,,,,,,
9.773312798992265,,,,,,,,,,,,,,,,,,,,,,,,,,,,0.16435839235782623,1.6131519079208374,0.7574285864830017,0.8747532367706299,0.621393084526062,0.006646953523159027,-0.6954528093338013,2.6719906330108643,0.8772621154785156,-0.027326568961143494,0.7933014035224915,1.3712868690490723,,,,,,,,,,,,,,,,,,,,,
9.813480334996711,,,,,,,,,,,,,,,,,,,,,,,,,,,,0.16435839235782623,1.6131519079208374,0.7574285864830017,0.8747532367706299,0.621393084526062,0.006646953523159027,-0.6954528093338013,2.6719906330108643,0.8772621154785156,-0.027326568961143494,0.7933014035224915,1.3712868690490723,,,,,,,,,,,,,,,,,,,,,
9.864224246994127,,,,,,,,,,,,,,,,,,,,,,,,,,,,0.16435839235782623,1.6131519079208374,0.7574285864830017,0.8747532367706299,0.621393084526062,0.006646953523159027,-0.6954528093338013,2.6719906330108643,0.8772621154785156,-0.027326568961143494,0.7933014035224915,1.3712868690490723,,,,,,,,,,,,,,,,,,,,,
9.914027589984471,,,,,,,,,,,,,,,,,,,,,,,,,,,,0.16435839235782623,1.6131519079208374,0.7574285864830017,0.8747532367706299,0.621393084526062,0.006646953523159027,-0.6954528093338013,2.6719906330108643,0.8772621154785156,-0.027326568961143494,0.7933014035224915,1.3712868690490723,,,,,,,,,,,,,,,,,,,,,
9.964852225006325,,,,,,,,,,,,,,,,,,,,,,,,,,,,0.16435839235782623,1.6131519079208374,0.7574285864830017,0.8747532367706299,0.621393084526062,0.006646953523159027,-0.6954528093338013,2.6719906330108643,0.8772621154785156,-0.027326568961143494,0.7933014035224915,1.3712868690490723,,,,,,,,,,,,,,,,,,,,,
10.000232536986005,,,,,,,,,,,,,,,,,,,,,,,,,,,,0.16435839235782623,1.6131519079208374,0.7574285864830017,0.8747532367706299,0.621393084526062,0.006646953523159027,-0.6954528093338013,2.6719906330108643,0.8772621154785156,-0.027326568961143494,0.7933014035224915,1.3712868690490723,,,,,,,,,,,,,,,,,,,,,
10.068166916986229,,,,,,,,,,,,,,,,,,,,,,,,,,,,0.1643770933151245,1.6131529808044434,0.7574325799942017,0.8747472763061523,0.6214193105697632,0.006657160818576813,-0.6954584121704102,2.6719892024993896,0.8772633075714111,-0.02732740342617035,0.7933061122894287,1.3712890148162842,,,,,,,,,,,,,,,,,,,,,
10.091696863004472,,,,,,,,,,,,,,,,,,,,,,,,,,,,0.1643770933151245,1.6131529808044434,0.7574325799942017,0.8747472763061523,0.6214193105697632,0.006657160818576813,-0.6954584121704102,2.6719892024993896,0.8772633075714111,-0.02732740342617035,0.7933061122894287,1.3712890148162842,,,,,,,,,,,,,,,,,,,,,
10.141150206007296,,,,,,,,,,,,,,,,,,,,,,,,,,,,0.1643770933151245,1.6131529808044434,0.7574325799942017,0.8747472763061523,0.6214193105697632,0.006657160818576813,-0.6954584121704102,2.6719892024993896,0.8772633075714111,-0.02732740342617035,0.7933061122894287,1.3712890148162842,,,,,,,,,,,,,,,,,,,,,
10.201699708006345,,,,,,,,,,,,,,,,,,,,,,,,,,,,0.1643770933151245,1.6131529808044434,0.7574325799942017,0.8747472763061523,0.6214193105697632,0.006657160818576813,-0.6954584121704102,2.6719892024993896,0.8772633075714111,-0.02732740342617035,0.7933061122894287,1.3712890148162842,,,,,,,,,,,,,,,,,,,,,
10.24256265501026,,,,,,,,,,,,,,,,,,,,,,,,,,,,0.1643770933151245,1.6131529808044434,0.7574325799942017,0.8747472763061523,0.6214193105697632,0.006657160818576813,-0.6954584121704102,2.6719892024993896,0.8772633075714111,-0.02732740342617035,0.7933061122894287,1.3712890148162842,,,,,,,,,,,,,,,,,,,,,
10.29075018200092,,,,,,,,,,,,,,,,,,,,,,,,,,,,0.1643770933151245,1.6131529808044434,0.7574325799942017,0.8747472763061523,0.6214193105697632,0.006657160818576813,-0.6954584121704102,2.6719892024993896,0.8772633075714111,-0.02732740342617035,0.7933061122894287,1.3712890148162842,,,,,,,,,,,,,,,,,,,,,
10.327721754991217,,,,,,,,,,,,,,,,,,,,,,,,,,,,0.1643770933151245,1.6131529808044434,0.7574325799942017,0.8747472763061523,0.6214193105697632,0.006657160818576813,-0.6954584121704102,2.6719892024993896,0.8772633075714111,-0.02732740342617035,0.7933061122894287,1.3712890148162842,,,,,,,,,,,,,,,,,,,,,
10.388977695984067,,,,,,,,,,,,,,,,,,,,,,,,,,,,0.1643770933151245,1.6131529808044434,0.7574325799942017,0.8747472763061523,0.6214193105697632,0.006657160818576813,-0.6954584121704102,2.6719892024993896,0.8772633075714111,-0.02732740342617035,0.7933061122894287,1.3712890148162842,,,,,,,,,,,,,,,,,,,,,
10.424712764011929,,,,,,,,,,,,,,,,,,,,,,,,,,,,0.1643770933151245,1.6131529808044434,0.7574325799942017,0.8747472763061523,0.6214193105697632,0.006657160818576813,-0.6954584121704102,2.6719892024993896,0.8772633075714111,-0.02732740342617035,0.7933061122894287,1.3712890148162842,,,,,,,,,,,,,,,,,,,,,
10.490654644992901,,,,,,,,,,,,,,,,,,,,,,,,,,,,0.1643770933151245,1.6131529808044434,0.7574325799942017,0.8747472763061523,0.6214193105697632,0.006657160818576813,-0.6954584121704102,2.6719892024993896,0.8772633075714111,-0.02732740342617035,0.7933061122894287,1.3712890148162842,,,,,,,,,,,,,,,,,,,,,
10.521763809985714,,,,,,,,,,,,,,,,,,,,,,,,,,,,0.1643770933151245,1.6131529808044434,0.7574325799942017,0.8747472763061523,0.6214193105697632,0.006657160818576813,-0.6954584121704102,2.6719892024993896,0.8772633075714111,-0.02732740342617035,0.7933061122894287,1.3712890148162842,,,,,,,,,,,,,,,,,,,,,
10.555294065998169,,,,,,,,,,,,,,,,,,,,,,,,,,,,0.1643770933151245,1.6131529808044434,0.7574325799942017,0.8747472763061523,0.6214193105697632,0.006657160818576813,-0.6954584121704102,2.6719892024993896,0.8772633075714111,-0.02732740342617035,0.7933061122894287,1.3712890148162842,,,,,,,,,,,,,,,,,,,,,
10.622428264992777,,,,,,,,,,,,,,,,,,,,,,,,,,,,0.1643770933151245,1.6131529808044434,0.7574325799942017,0.8747472763061523,0.6214193105697632,0.006657160818576813,-0.6954584121704102,2.6719892024993896,0.8772633075714111,-0.02732740342617035,0.7933061122894287,1.3712890148162842,,,,,,,,,,,,,,,,,,,,,
10.657771158003015,,,,,,,,,,,,,,,,,,,,,,,,,,,,0.1643770933151245,1.6131529808044434,0.7574325799942017,0.8747472763061523,0.6214193105697632,0.006657160818576813,-0.6954584121704102,2.6719892024993896,0.8772633075714111,-0.02732740342617035,0.7933061122894287,1.3712890148162842,,,,,,,,,,,,,,,,,,,,,
10.707461907994002,,,,,,,,,,,,,,,,,,,,,,,,,,,,0.1643770933151245,1.6131529808044434,0.7574325799942017,0.8747472763061523,0.6214193105697632,0.006657160818576813,-0.6954584121704102,2.6719892024993896,0.8772633075714111,-0.02732740342617035,0.7933061122894287,1.3712890148162842,,,,,,,,,,,,,,,,,,,,,
10.744179834990064,,,,,,,,,,,,,,,,,,,,,,,,,,,,0.1643770933151245,1.6131529808044434,0.7574325799942017,0.8747472763061523,0.6214193105697632,0.006657160818576813,-0.6954584121704102,2.6719892024993896,0.8772633075714111,-0.02732740342617035,0.7933061122894287,1.3712890148162842,,,,,,,,,,,,,,,,,,,,,
10.80581530299969,,,,,,,,,,,,,,,,,,,,,,,,,,,,0.1643770933151245,1.6131529808044434,0.7574325799942017,0.8747472763061523,0.6214193105697632,0.006657160818576813,-0.6954584121704102,2.6719892024993896,0.8772633075714111,-0.02732740342617035,0.7933061122894287,1.3712890148162842,,,,,,,,,,,,,,,,,,,,,
10.84706899599405,,,,,,,,,,,,,,,,,,,,,,,,,,,,0.1643770933151245,1.6131529808044434,0.7574325799942017,0.8747472763061523,0.6214193105697632,0.006657160818576813,-0.6954584121704102,2.6719892024993896,0.8772633075714111,-0.02732740342617035,0.7933061122894287,1.3712890148162842,,,,,,,,,,,,,,,,,,,,,
10.895369957986986,,,,,,,,,,,,,,,,,,,,,,,,,,,,0.1643770933151245,1.6131529808044434,0.7574325799942017,0.8747472763061523,0.6214193105697632,0.006657160818576813,-0.6954584121704102,2.6719892024993896,0.8772633075714111,-0.02732740342617035,0.7933061122894287,1.3712890148162842,,,,,,,,,,,,,,,,,,,,,
