AlexandreBanks6/ExpertPlaybackApp/resources/Motions/P_19/PC1/Data_PC1_10.csv
Task Time,PC1 Time,PC2 Time,Gaze Calib,s_T_psm1,Tx,Ty,Tz,R00,R01,R02,R10,R11,R12,R20,R21,R22,s_T_psm3,Tx,Ty,Tz,R00,R01,R02,R10,R11,R12,R20,R21,R22,cart_T_ecm,Tx,Ty,Tz,R00,R01,R02,R10,R11,R12,R20,R21,R22,ecm_T_psm1,Tx,Ty,Tz,R00,R01,R02,R10,R11,R12,R20,R21,R22,ecm_T_psm3,Tx,Ty,Tz,R00,R01,R02,R10,R11,R12,R20,R21,R22,psm1_joints,q1,q2,q3,q4,q5,q6,jaw,psm3_joints,q1,q2,q3,q4,q5,q6,jaw,ecm_joints,q1,q2,q3,q4,ecmi_T_ecm,Tx,Ty,Tz,R00,R01,R02,R10,R11,R12,R20,R21,R22,Sample #,Task Duration (s),Collisions (binary),Collisions (increments),Cumulative Collision Time (s),Clutch Press,MTMR Angle,MTML Angle
""
lci_T_si,,,,,-0.05352222,0.052262206,0.18758368,0.9852688,0.08240888,0.14984752,0.16226129,-0.7272103,-0.6669606,0.054007176,0.6814499,-0.72986937
rci_T_si,,,,,-0.062090434,0.054590147,0.19598114,0.98279583,0.06324867,0.17352791,0.16653219,-0.70975983,-0.68447644,0.079870924,0.7015986,-0.70808196
ecm_T_lc,,,,,-4.4061628e-05,-0.00034663224,-0.01840835,-0.99912,0.030754527,0.028518902,-0.031987965,-0.99852574,-0.043852776,0.027128186,-0.04472645,0.9986309
ecm_T_rc,,,,,-0.0043358393,0.01870579,-0.007592615,-0.99555075,-0.052743673,-0.078081585,0.04863213,-0.9973746,0.053654674,-0.08070653,0.04961868,0.9955021
cart_T_ecmi,,,,,0.08275826,1.28792,0.42543122,0.99152017,0.10184248,-0.08072096,0.019885775,-0.73274505,-0.6802127,-0.12842242,0.6728394,-0.7285567
ecmac_T_ecmrep_psm1,,,,,0.022898523,-0.26913688,-0.29720387,0.9902475,0.13300471,0.041468147,-0.1315095,0.99062705,-0.036922794,-0.045990374,0.031109251,0.9984574
ecmac_T_ecmrep_psm3,,,,,0.02078248,-0.4666591,-0.5231304,0.997355,0.0035024614,0.07259993,-0.011652398,0.993624,0.11214125,-0.07174426,-0.1126906,0.99103665
""
0,16:59:42.757499,16:58:25.020450,0,,0.09096699,0.0056388527,0.030818716,-0.49039948,0.6514331,-0.57891554,-0.02703759,0.6525844,0.7572335,0.87107825,0.38699943,-0.30241382,,0.04276835,0.02356916,0.026982605,0.6589423,0.36548585,0.65743077,-0.32424477,-0.65062785,0.68669415,0.6787197,-0.6656604,-0.3102193,,0.08280278,1.287919,0.42543015,0.9915214,0.10179642,-0.08076372,0.019823447,-0.7327514,-0.6802076,-0.12842242,0.6728394,-0.7285567,,-0.08743637,0.24130031,-0.12967138,0.4276688,-0.68871886,0.585462,0.60705453,0.69872224,0.37851292,-0.6697643,0.19352914,0.7169116,,-0.051755693,0.434843,-0.3391523,-0.6982603,-0.1858115,-0.6913079,0.20359044,-0.97739154,0.05706786,-0.68628234,-0.100895464,0.7203032,,1.1660554366791587,0.3477006021962101,0.19246276888000002,1.6024505481087352,-0.7053176117892036,0.04798463001373876,-0.40901354160023523,,-1.2057039472554274,0.2877644723593537,0.18401484695,-1.2115884934535817,-0.6547621068759906,-0.3063962840528529,0.8533094014854747,,-0.07621634677302738,-0.03363467634749572,0.09367612488,-0.1102278800231344,,4.4260174e-05,4.529953e-06,-2.1457672e-06,1.0,-4.579872e-05,-4.2289495e-05,4.579872e-05,1.0000001,-8.076429e-06,4.2304397e-05,8.076429e-06,1.0,36,0.108,0,0,0.0,False,-0.25356279746043464,1.0291407426297956
0.12750036595389247,16:59:42.781728,16:58:25.020450,0,,0.091569886,0.0056050643,0.03126894,-0.48974553,0.6552394,-0.57516134,-0.025713682,0.64854836,0.76073897,0.8714861,0.38735813,-0.30077502,,0.042764023,0.023572885,0.02698189,0.6586989,0.36487776,0.6580122,-0.32457012,-0.65119255,0.6860049,0.67880046,-0.66544175,-0.31051132,,0.08280278,1.287919,0.42543015,0.9915214,0.10179642,-0.08076372,0.019823447,-0.7327514,-0.6802076,-0.12842242,0.6728394,-0.7285567,,-0.088069044,0.2415469,-0.12999733,0.42696422,-0.6924691,0.58153933,0.6082549,0.6958023,0.38194922,-0.6691244,0.19064552,0.71828043,,-0.05175181,0.4348455,-0.3391489,-0.6979907,-0.1851718,-0.69175166,0.20349975,-0.97745407,0.056314986,-0.68658346,-0.10146396,0.71993625,,1.1643332672482067,0.3503494995720691,0.19198962303000003,1.6072734168088794,-0.7064107037873271,0.0485492582827477,-0.40934022973250384,,-1.2056730563239304,0.2878030860237248,0.18401873582000003,-1.2113788035100972,-0.655172016375287,-0.3056536366410608,0.8544528099484148,,-0.07621634677302738,-0.03363467634749572,0.09367612488,-0.1102278800231344,,4.4260174e-05,4.529953e-06,-2.1457672e-06,1.0,-4.579872e-05,-4.2289495e-05,4.579872e-05,1.0000001,-8.076429e-06,4.2304397e-05,8.076429e-06,1.0,44,0.133,0,0,0.0,False,-0.2544564632382502,1.0289959020274573
0.15170113509520888,16:59:42.809392,16:58:25.115626,0,,0.09260778,0.0056656376,0.031818375,-0.48747417,0.6642977,-0.56663704,-0.020118654,0.64024866,0.7679042,0.8729056,0.38573352,-0.29873985,,0.042760096,0.023575954,0.026981354,0.65871716,0.36487174,0.65799725,-0.32457113,-0.651179,0.6860172,0.6787822,-0.6654583,-0.31051588,,0.08280278,1.287919,0.42543015,0.9915214,0.10179642,-0.08076372,0.019823447,-0.7327514,-0.6802076,-0.12842242,0.6728394,-0.7285567,,-0.08914427,0.24190311,-0.13031325,0.42449918,-0.7012409,0.57276666,0.6131498,0.6881042,0.3880205,-0.666219,0.18647741,0.7220654,,-0.051748276,0.4348477,-0.3391461,-0.69800603,-0.18516536,-0.69173795,0.20348163,-0.97745746,0.056321703,-0.6865732,-0.101443075,0.71994895,,1.1611206103725293,0.35477462550899974,0.19142055172000003,1.6198548134179507,-0.7069572497863889,0.048668214936971155,-0.40966691786477233,,-1.205657610858182,0.2878262542223475,0.18402003211,-1.2113788035100972,-0.655172016375287,-0.30565363664106077,0.8547794980806833,,-0.07621634677302738,-0.03363467634749572,0.09367612488,-0.1102278800231344,,4.4260174e-05,4.529953e-06,-2.1457672e-06,1.0,-4.579872e-05,-4.2289495e-05,4.579872e-05,1.0000001,-8.076429e-06,4.2304397e-05,8.076429e-06,1.0,52,0.157,0,0,0.0,False,-0.2549926627049395,1.0288993416258982
0.17939849896356463,16:59:42.836144,16:58:25.115626,0,,0.093559965,0.005758606,0.032147184,-0.48505345,0.6697502,-0.56227916,-0.016863823,0.63570005,0.77175194,0.87432194,0.38382316,-0.29705387,,0.042743787,0.023580275,0.026975214,0.65884477,0.36445764,0.658099,-0.32483196,-0.65122455,0.68585056,0.6785337,-0.6656406,-0.31066835,,0.08280278,1.287919,0.42543015,0.9915214,0.10179642,-0.08076372,0.019823447,-0.7327514,-0.6802076,-0.12842242,0.6728394,-0.7285567,,-0.0901189,0.24213706,-0.13045023,0.42192677,-0.7064626,0.56823266,0.61633396,0.68315685,0.39170036,-0.6649137,0.18495224,0.72365904,,-0.051731963,0.4348486,-0.33913863,-0.6980644,-0.18472792,-0.691796,0.20310743,-0.97754896,0.05608377,-0.6866247,-0.10135882,0.71991175,,1.1577148851749963,0.3586591601447347,0.19107573858000002,1.6301296206486924,-0.7094167067821668,0.045691334054932475,-0.40983026193090655,,-1.2055726607965656,0.28788803608534125,0.18402392098,-1.210959423623128,-0.655172016375287,-0.30565363664106077,0.8547794980806833,,-0.07621634677302738,-0.03363467634749572,0.09367612488,-0.1102278800231344,,4.4260174e-05,4.529953e-06,-2.1457672e-06,1.0,-4.579872e-05,-4.2289495e-05,4.579872e-05,1.0000001,-8.076429e-06,4.2304397e-05,8.076429e-06,1.0,63,0.19,0,0,0.0,False,-0.25493308498641865,1.0298166654407082
0.2060622510034591,16:59:42.862092,16:58:25.115626,0,,0.094230205,0.005843945,0.032285437,-0.48111635,0.6732349,-0.56149966,-0.015880585,0.63370305,0.77341336,0.8765129,0.38101882,-0.29419354,,0.042715743,0.023578547,0.026964128,0.658878,0.3643289,0.65813696,-0.3248388,-0.65131795,0.6857586,0.678498,-0.6656197,-0.3107909,,0.08280278,1.287919,0.42543015,0.9915214,0.10179642,-0.08076372,0.019823447,-0.7327514,-0.6802076,-0.12842242,0.6728394,-0.7285567,,-0.090798676,0.24225236,-0.13046539,0.41782722,-0.7097034,0.56722265,0.6183055,0.67957157,0.39481738,-0.66567165,0.18575144,0.722757,,-0.051702697,0.43484426,-0.33913267,-0.6980914,-0.18459238,-0.69180495,0.20306966,-0.9775658,0.055926196,-0.68660843,-0.101443,0.7199154,,1.1550042059361434,0.36122310745897723,0.19093833184000003,1.6387269083315579,-0.7140623477741919,0.041311668766554566,-0.4108103263277124,,-1.2053950379404583,0.28793437248258663,0.18402651356000002,-1.210959423623128,-0.6553086528750525,-0.30554221873736437,0.8547794980806833,,-0.07621634677302738,-0.03363467634749572,0.09367612488,-0.1102278800231344,,4.4260174e-05,4.529953e-06,-2.1457672e-06,1.0,-4.579872e-05,-4.2289495e-05,4.579872e-05,1.0000001,-8.076429e-06,4.2304397e-05,8.076429e-06,1.0,71,0.214,0,0,0.0,False,-0.254694774112334,1.0313616318656509
0.23204884002916515,16:59:42.892086,16:58:25.115626,0,,0.09532718,0.0060041547,0.03232284,-0.4738997,0.6798928,-0.5596114,-0.01316002,0.62996477,0.77651215,0.88048047,0.37535352,-0.28959265,,0.042678513,0.023572825,0.026951253,0.65875864,0.36402088,0.6584268,-0.3249457,-0.6516558,0.6853869,0.67856276,-0.66545755,-0.31099683,,0.08280278,1.287919,0.42543015,0.9915214,0.10179642,-0.08076372,0.019823447,-0.7327514,-0.6802076,-0.12842242,0.6728394,-0.7285567,,-0.09189819,0.24232668,-0.13033909,0.4102999,-0.7158748,0.56495774,0.6225529,0.6725672,0.40010163,-0.6663947,0.18755439,0.72162414,,-0.05166363,0.43483773,-0.33912858,-0.69796926,-0.18426874,-0.6920144,0.20307657,-0.9775894,0.05548724,-0.6867305,-0.10180352,0.719748,,1.1501311614925078,0.3650226920330957,0.19088129508,1.6546633440363818,-0.7217139917610564,0.033829043029939665,-0.41113701445998074,,-1.2051479104884832,0.2879884316127062,0.18402780985000003,-1.210959423623128,-0.6557185623743488,-0.3051262862861346,0.8569029709404288,,-0.07621634677302738,-0.03363467634749572,0.09367612488,-0.1102278800231344,,4.4260174e-05,4.529953e-06,-2.1457672e-06,1.0,-4.579872e-05,-4.2289495e-05,4.579872e-05,1.0000001,-8.076429e-06,4.2304397e-05,8.076429e-06,1.0,79,0.239,0,0,0.0,False,-0.25427773008268684,1.0331479992944907
0.2620814749971032,16:59:42.915887,16:58:25.115626,0,,0.09656047,0.0061597526,0.03220035,-0.46990186,0.6869236,-0.5543719,-0.005941093,0.6255525,0.7801595,0.88269866,0.369892,-0.28986713,,0.042654898,0.023569547,0.02694267,0.6588668,0.36389858,0.65838623,-0.32489732,-0.65172017,0.68534863,0.67848086,-0.6654614,-0.31116706,,0.08280278,1.287919,0.42543015,0.9915214,0.10179642,-0.08076372,0.019823447,-0.7327514,-0.6802076,-0.12842242,0.6728394,-0.7285567,,-0.09312222,0.24227978,-0.1300946,0.40602756,-0.7224207,0.5596874,0.62906754,0.6651899,0.40223923,-0.66288435,0.18876097,0.72453684,,-0.05163884,0.43483347,-0.33912542,-0.6980706,-0.18413982,-0.6919465,0.20302282,-0.9776089,0.055340208,-0.6866434,-0.10184956,0.7198246,,1.1444086164327074,0.36888405847020794,0.19090592459000003,1.6714385395151437,-0.7241734487568343,0.026604867660591724,-0.40999360599704093,,-1.205001178563873,0.2880193225442031,0.18402780985000003,-1.210959423623128,-0.6557185623743488,-0.305044607545994,0.8570663150065632,,-0.07621634677302738,-0.03363467634749572,0.09367612488,-0.1102278800231344,,4.4260174e-05,4.529953e-06,-2.1457672e-06,1.0,-4.579872e-05,-4.2289495e-05,4.579872e-05,1.0000001,-8.076429e-06,4.2304397e-05,8.076429e-06,1.0,90,0.272,0,0,0.0,False,-0.2540989969271239,1.0351757677272282
0.28587754303589463,16:59:42.955100,16:58:25.248069,0,,0.09801097,0.0063405484,0.032048926,-0.4666634,0.69242096,-0.55025315,-0.0031818151,0.6208338,0.7839358,0.88442934,0.3675849,-0.28751725,,0.042615347,0.023560815,0.026922762,0.6590768,0.36326307,0.6585271,-0.32494077,-0.6521246,0.68494326,0.67825615,-0.6654124,-0.31176108,,0.08280278,1.287919,0.42543015,0.9915214,0.10179642,-0.08076372,0.019823447,-0.7327514,-0.6802076,-0.12842242,0.6728394,-0.7285567,,-0.094561264,0.24221796,-0.12980324,0.40262604,-0.72765595,0.55534595,0.63205665,0.65984464,0.40633664,-0.66211534,0.18740839,0.7255904,,-0.051596172,0.43482018,-0.33911926,-0.6982408,-0.18347056,-0.6919526,0.20278417,-0.9776996,0.054609105,-0.6865409,-0.10218672,0.7198746,,1.1374890477774022,0.37357948005773645,0.19096944280000003,1.6848586958981533,-0.7303220912462791,0.021408830809360457,-0.4104836381954438,,-1.2047386056461493,0.2880502134757,0.18403040243000002,-1.2107497336796438,-0.6557185623743488,-0.3045545351051506,0.8596798200647118,,-0.07621634677302738,-0.03363467634749572,0.09367612488,-0.1102278800231344,,4.4260174e-05,4.529953e-06,-2.1457672e-06,1.0,-4.579872e-05,-4.2289495e-05,4.579872e-05,1.0000001,-8.076429e-06,4.2304397e-05,8.076429e-06,1.0,98,0.296,0,0,0.0,False,-0.2551713958605024,1.0361896519435967
0.3251070980913937,16:59:42.974315,16:58:25.248069,0,,0.09969336,0.006574951,0.031951293,-0.46052667,0.70202124,-0.54321396,0.00081446767,0.61230546,0.7906209,0.8876455,0.36365962,-0.28255475,,0.042602077,0.023556106,0.026915967,0.6591383,0.3632186,0.65848994,-0.3249042,-0.6521439,0.68494225,0.6782139,-0.6654178,-0.31184173,,0.08280278,1.287919,0.42543015,0.9915214,0.10179642,-0.08076372,0.019823447,-0.7327514,-0.6802076,-0.12842242,0.6728394,-0.7285567,,-0.09623635,0.24221759,-0.12950487,0.39620665,-0.7368008,0.54785484,0.6367825,0.6503718,0.41415522,-0.6614592,0.18477333,0.7268635,,-0.051581603,0.43481448,-0.33911848,-0.6983002,-0.18342368,-0.691905,0.20276242,-0.9777072,0.054553173,-0.6864869,-0.10219785,0.71992457,,1.1296890875744354,0.37913984772717807,0.19101481295000003,1.7041501706987296,-0.7381103717329093,0.016487985180658915,-0.4124437669890551,,-1.2046459328516586,0.2880502134757,0.18403040243000002,-1.2107497336796438,-0.6557185623743488,-0.3045545351051507,0.8600065081969803,,-0.07621634677302738,-0.03363467634749572,0.09367612488,-0.1102278800231344,,4.4260174e-05,4.529953e-06,-2.1457672e-06,1.0,-4.579872e-05,-4.2289495e-05,4.579872e-05,1.0000001,-8.076429e-06,4.2304397e-05,8.076429e-06,1.0,110,0.333,0,0,0.0,False,-0.25350321974191337,1.0368172945537295
0.34432281204499304,16:59:43.007064,16:58:25.248069,0,,0.101284176,0.0068045184,0.031894967,-0.45921102,0.7095438,-0.53448373,0.004527867,0.6035361,0.79732287,0.8883157,0.36371937,-0.28036317,,0.0425853,0.023552649,0.026909053,0.6592154,0.3630601,0.65850013,-0.32486624,-0.6522672,0.68484277,0.6781571,-0.6653834,-0.3120386,,0.08280278,1.287919,0.42543015,0.9915214,0.10179642,-0.08076372,0.019823447,-0.7327514,-0.6802076,-0.12842242,0.6728394,-0.7285567,,-0.09782295,0.24224766,-0.12924343,0.39478126,-0.74415237,0.53887385,0.63985693,0.64358073,0.41998443,-0.6593413,0.17900017,0.73022467,,-0.051563744,0.4348102,-0.33911663,-0.6983731,-0.1832569,-0.69187564,0.20272738,-0.9777264,0.05433889,-0.68642306,-0.10231332,0.71996903,,1.1225146687342809,0.3846693244651228,0.19102777585000003,1.7173606371382544,-0.7419361937263417,0.015687106957411656,-0.40983026193090666,,-1.2045378145914194,0.2880656589414484,0.18403040243000002,-1.2107497336796438,-0.6557185623743488,-0.30439117762486956,0.8613132607260545,,-0.07621634677302738,-0.03363467634749572,0.09367612488,-0.1102278800231344,,4.4260174e-05,4.529953e-06,-2.1457672e-06,1.0,-4.579872e-05,-4.2289495e-05,4.579872e-05,1.0000001,-8.076429e-06,4.2304397e-05,8.076429e-06,1.0,118,0.357,0,0,0.0,False,-0.254694774112334,1.0367207341521705
0.3770678360015154,16:59:43.030494,16:58:25.248069,0,,0.102385886,0.007018782,0.031897053,-0.45163053,0.72241735,-0.52358675,0.016194373,0.5933866,0.80475473,0.8920581,0.35497266,-0.27969056,,0.04257953,0.023549967,0.026907265,0.65924114,0.36304158,0.6584847,-0.32485104,-0.65227526,0.6848423,0.67813945,-0.6653856,-0.31207216,,0.08280278,1.287919,0.42543015,0.9915214,0.10179642,-0.08076372,0.019823447,-0.7327514,-0.6802076,-0.12842242,0.6728394,-0.7285567,,-0.09892564,0.24233674,-0.12905417,0.38674894,-0.7561905,0.5278269,0.6504241,0.62942743,0.42517003,-0.65373826,0.1788773,0.7352749,,-0.05155749,0.43480822,-0.33911753,-0.6983979,-0.18323737,-0.69185585,0.20271832,-0.97772956,0.054315586,-0.68640053,-0.10231796,0.7199898,,1.1179891472699854,0.3882990089160083,0.19102647956000002,1.7416846705824591,-0.7413896477272798,0.009768959753208406,-0.4099936059970409,,-1.2044992009270483,0.2880656589414484,0.18402910614,-1.2107497336796438,-0.6557185623743488,-0.30439117762486956,0.8616399488583228,,-0.07621634677302738,-0.03363467634749572,0.09367612488,-0.1102278800231344,,4.4260174e-05,4.529953e-06,-2.1457672e-06,1.0,-4.579872e-05,-4.2289495e-05,4.579872e-05,1.0000001,-8.076429e-06,4.2304397e-05,8.076429e-06,1.0,137,0.415,0,0,0.0,False,-0.25451604095677105,1.0363827727467145
0.40048893191851676,16:59:43.085575,16:58:25.396802,0,,0.1049397,0.007410489,0.032094225,-0.43282625,0.7361234,-0.5203689,0.0215002,0.5855053,0.81038344,0.901221,0.33956724,-0.2692488,,0.04257643,0.02354949,0.026907742,0.6592541,0.3630884,0.6584459,-0.32484728,-0.65221703,0.68489957,0.6781286,-0.6654172,-0.31202835,,0.08280278,1.287919,0.42543015,0.9915214,0.10179642,-0.08076372,0.019823447,-0.7327514,-0.6802076,-0.12842242,0.6728394,-0.7285567,,-0.10149353,0.24259873,-0.12882711,0.3672503,-0.7686258,0.5237763,0.6593918,0.6123106,0.4362089,-0.6559952,0.18517593,0.7316968,,-0.05155445,0.43480888,-0.33911812,-0.69840956,-0.18328652,-0.691831,0.20270985,-0.9777271,0.054391466,-0.6863911,-0.10225344,0.72000796,,1.106760293670863,0.39721876538573764,0.19093703555000002,1.783622659279364,-0.7579226641988982,-0.014240015624042757,-0.4116270466583837,,-1.2044837554613,0.28807338167432267,0.18402780985000003,-1.2107497336796438,-0.6557185623743488,-0.3044728563650101,0.8614766047921887,,-0.07621634677302738,-0.03363467634749572,0.09367612488,-0.1102278800231344,,4.4260174e-05,4.529953e-06,-2.1457672e-06,1.0,-4.579872e-05,-4.2289495e-05,4.579872e-05,1.0000001,-8.076429e-06,4.2304397e-05,8.076429e-06,1.0,145,0.44,0,0,0.0,False,-0.2538011083345184,1.0356585697350225
0.45557878096587956,16:59:43.116057,16:58:25.396802,0,,0.10569042,0.0074808,0.03215806,-0.42577177,0.74561393,-0.512619,0.02743867,0.57691485,0.8163433,0.9044145,0.3335104,-0.2660926,,0.042573523,0.02354651,0.02690649,0.65926677,0.3630768,0.6584396,-0.32483575,-0.6522274,0.68489516,0.6781218,-0.6654133,-0.31205148,,0.08280278,1.287919,0.42543015,0.9915214,0.10179642,-0.08076372,0.019823447,-0.7327514,-0.6802076,-0.12842242,0.6728394,-0.7285567,,-0.102248006,0.24264725,-0.12879546,0.35988283,-0.7775086,0.5157176,0.665456,0.6013399,0.44222018,-0.6539516,0.18403992,0.73380965,,-0.05155105,0.43480667,-0.33911964,-0.6984226,-0.18327434,-0.69182104,0.20270926,-0.9777283,0.054372143,-0.68637806,-0.1022638,0.720019,,1.103663477788299,0.3994042987891432,0.19087222105,1.8006075447016108,-0.7596989386958489,-0.01703887736329851,-0.41015695006317515,,-1.2044605872626772,0.2880656589414484,0.18402651356000002,-1.2107497336796438,-0.6557185623743488,-0.3044728563650101,0.8608232285276516,,-0.07621634677302738,-0.03363467634749572,0.09367612488,-0.1102278800231344,,4.4260174e-05,4.529953e-06,-2.1457672e-06,1.0,-4.579872e-05,-4.2289495e-05,4.579872e-05,1.0000001,-8.076429e-06,4.2304397e-05,8.076429e-06,1.0,153,0.464,0,0,0.0,False,-0.2552905512975445,1.0362379321443762
0.48598556709475815,16:59:43.138824,16:58:25.396802,0,,0.10667127,0.0074944645,0.032173917,-0.4220429,0.7531222,-0.504665,0.036278993,0.570256,0.8206655,0.9058497,0.3280474,-0.26799497,,0.04257399,0.023548,0.026907623,0.65926427,0.36302722,0.6584694,-0.3248412,-0.65227616,0.6848461,0.67812157,-0.6653926,-0.31209612,,0.08280278,1.287919,0.42543015,0.9915214,0.10179642,-0.08076372,0.019823447,-0.7327514,-0.6802076,-0.12842242,0.6728394,-0.7285567,,-0.1032276,0.24260753,-0.12875882,0.3559057,-0.7844909,0.5078437,0.6726285,0.5923007,0.44356593,-0.6487696,0.18372248,0.73847413,,-0.051551837,0.43480834,-0.33911923,-0.69841945,-0.1832222,-0.691838,0.20270623,-0.97773284,0.054302286,-0.6863821,-0.10231411,0.7200079,,1.0991997381869971,0.4021690371581156,0.19076981414000002,1.8171730502368881,-0.7579226641988982,-0.02208117467753673,-0.4104836381954438,,-1.2044683099955513,0.28807338167432267,0.18402651356000002,-1.2107497336796438,-0.6557185623743488,-0.30439117762486956,0.8606598844615174,,-0.07621634677302738,-0.03363467634749572,0.09367612488,-0.1102278800231344,,4.4260174e-05,4.529953e-06,-2.1457672e-06,1.0,-4.579872e-05,-4.2289495e-05,4.579872e-05,1.0000001,-8.076429e-06,4.2304397e-05,8.076429e-06,1.0,161,0.489,0,0,0.0,False,-0.25356279746043464,1.0367207341521705
0.5088143260218203,16:59:43.161814,16:58:25.396802,0,,0.10732525,0.0074782893,0.03219752,-0.41591328,0.7610307,-0.49784386,0.04317367,0.5633461,0.82509226,0.9083789,0.3216731,-0.26715958,,0.042571314,0.023545735,0.026905358,0.659277,0.36317697,0.6583741,-0.32482964,-0.65211874,0.6850015,0.6781148,-0.6654652,-0.31195617,,0.08280278,1.287919,0.42543015,0.9915214,0.10179642,-0.08076372,0.019823447,-0.7327514,-0.6802076,-0.12842242,0.6728394,-0.7285567,,-0.10388122,0.24257162,-0.12876123,0.34949097,-0.791803,0.50090325,0.67898923,0.5824306,0.446932,-0.6456235,0.18390924,0.74117994,,-0.051548623,0.43480572,-0.33911952,-0.6984325,-0.18337955,-0.6917832,0.20270564,-0.9777207,0.05452254,-0.68636906,-0.10214803,0.72004396,,1.0961801496331753,0.40376764286308003,0.19068685158,1.8333191758851966,-0.7580593006986637,-0.02605369378086836,-0.4114637025922495,,-1.2044451417969289,0.2880656589414484,0.18402651356000002,-1.2107497336796438,-0.6557185623743488,-0.30463621384529127,0.8611499166599201,,-0.07621634677302738,-0.03363467634749572,0.09367612488,-0.1102278800231344,,4.4260174e-05,4.529953e-06,-2.1457672e-06,1.0,-4.579872e-05,-4.2289495e-05,4.579872e-05,1.0000001,-8.076429e-06,4.2304397e-05,8.076429e-06,1.0,180,0.546,0,0,0.0,False,-0.2543373078012081,1.0372518163607447
0.5318094498943537,16:59:43.215456,16:58:25.396802,0,,0.10905613,0.007354647,0.032224998,-0.40399346,0.77579296,-0.48470044,0.053725004,0.5490729,0.8340458,0.91318285,0.31090853,-0.2635014,,0.04251346,0.023496715,0.026916087,0.659249,0.362835,0.65859056,-0.32501614,-0.6523198,0.6847214,0.67805254,-0.66545445,-0.312114,,0.08274938,1.2879168,0.4254293,0.9915197,0.10186023,-0.08070448,0.019909797,-0.73274255,-0.68021464,-0.12842242,0.6728394,-0.7285567,,-0.10556216,0.2423931,-0.12880771,0.33706912,-0.80555505,0.48730433,0.68923455,0.56373155,0.45515108,-0.6413581,0.18244958,0.7452328,,-0.051441837,0.43479988,-0.33916828,-0.6983454,-0.18295136,-0.6919844,0.20251267,-0.977782,0.05413814,-0.68651456,-0.10232849,0.71987957,,1.0877083116701511,0.40784524582067055,0.19047685260000002,1.8651920472948442,-0.7622950321913923,-0.033871404905676805,-0.41146370259224935,,-1.2044374190640545,0.2880656589414484,0.18402651356000002,-1.210540043736159,-0.6557185623743488,-0.30447285636501004,0.8624566691889943,,-0.07621634677302738,-0.03363467634749572,0.09367612488,-0.1102278800231344,,-8.627772e-06,1.1920929e-07,4.2915344e-06,0.99999994,1.7650425e-05,1.630187e-05,-1.7650425e-05,1.0,3.0994415e-06,-1.630187e-05,-3.1292439e-06,1.0,184,0.559,0,0,0.0,False,-0.25320533114930877,1.0386036619825694
0.58546257391572,16:59:43.240909,16:58:25.396802,0,,0.11013505,0.007213779,0.032166258,-0.4035102,0.7795456,-0.47904915,0.05801785,0.5443108,0.83687496,0.91313374,0.30989414,-0.2648627,,0.04251773,0.023500798,0.026913583,0.65923357,0.36284614,0.6585998,-0.32502532,-0.652315,0.68472165,0.67806315,-0.6654531,-0.31209385,,0.08274938,1.2879168,0.4254293,0.9915197,0.10186023,-0.08070448,0.019909797,-0.73274255,-0.68021464,-0.12842242,0.6728394,-0.7285567,,-0.10663151,0.24218401,-0.12881938,0.3365144,-0.8091409,0.4817147,0.6922885,0.5593472,0.45592466,-0.63835305,0.18006036,0.7483874,,-0.05144621,0.43479967,-0.3391636,-0.6983306,-0.18296307,-0.69199634,0.2025181,-0.9777801,0.05415212,-0.6865281,-0.1023257,0.7198671,,1.0819780438774764,0.410370579470542,0.19036796424000002,1.8748377846951323,-0.7631148511899849,-0.036306689608839815,-0.4098302619309066,,-1.2044605872626772,0.2880656589414484,0.18403169872000003,-1.210540043736159,-0.6557185623743488,-0.30447285636501004,0.8624566691889943,,-0.07621634677302738,-0.03363467634749572,0.09367612488,-0.1102278800231344,,-8.627772e-06,1.1920929e-07,4.2915344e-06,0.99999994,1.7650425e-05,1.630187e-05,-1.7650425e-05,1.0,3.0994415e-06,-1.630187e-05,-3.1292439e-06,1.0,196,0.595,0,0,0.0,False,-0.25397984149008224,1.0389899035888053
0.6108987049665302,16:59:43.269527,16:58:25.553168,0,,0.11128367,0.0070933253,0.03211777,-0.39799848,0.7883862,-0.46908885,0.06644601,0.5347623,0.842386,0.9149766,0.3040992,-0.26521978,,0.042525716,0.023504285,0.026913404,0.6592002,0.3628141,0.65865093,-0.32504123,-0.6523668,0.6846647,0.67808807,-0.66541976,-0.3121108,,0.08274938,1.2879168,0.4254293,0.9915197,0.10186023,-0.08070448,0.019909797,-0.73274255,-0.68021464,-0.12842242,0.6728394,-0.7285567,,-0.107771456,0.24199244,-0.12882169,0.3307368,-0.8173764,0.47170863,0.69933045,0.5478997,0.4590673,-0.6336798,0.17804976,0.7528268,,-0.051454477,0.43480012,-0.33916083,-0.6982991,-0.18292953,-0.692037,0.20253383,-0.97778004,0.05409488,-0.6865555,-0.10238649,0.7198323,,1.0761087668930658,0.41291135858616185,0.19026037217000002,1.893919569552224,-0.7631148511899849,-0.04014559039544624,-0.4106469822615781,,-1.2045069236599226,0.28805793620857423,0.18403558759000002,-1.210540043736159,-0.6557185623743488,-0.30439117762486956,0.8632733895196658,,-0.07621634677302738,-0.03363467634749572,0.09367612488,-0.1102278800231344,,-8.627772e-06,1.1920929e-07,4.2915344e-06,0.99999994,1.7650425e-05,1.630187e-05,-1.7650425e-05,1.0,3.0994415e-06,-1.630187e-05,-3.1292439e-06,1.0,204,0.62,0,0,0.0,False,-0.25397984149008224,1.039376145195041
0.6395229559857398,16:59:43.299608,16:58:25.553168,0,,0.112222634,0.0069489926,0.032050237,-0.39667922,0.7904972,-0.46664724,0.06597936,0.5315921,0.84442675,0.915583,0.30417743,-0.2630281,,0.042528637,0.023507295,0.026911378,0.6591899,0.3627677,0.6586867,-0.3250473,-0.6524195,0.6846117,0.6780951,-0.6653934,-0.31215176,,0.08274938,1.2879168,0.4254293,0.9915197,0.10186023,-0.08070448,0.019909797,-0.73274255,-0.68021464,-0.12842242,0.6728394,-0.7285567,,-0.10870054,0.24178344,-0.12883489,0.32938632,-0.81943095,0.4690816,0.6993254,0.54552084,0.4618993,-0.6343884,0.17589736,0.752736,,-0.051457454,0.43479985,-0.33915728,-0.6982892,-0.18288082,-0.6920598,0.20253745,-0.9777832,0.054024335,-0.6865645,-0.10244342,0.7198157,,1.070818694874222,0.4149733282635798,0.19020333541,1.9008393376872132,-0.7681704016813061,-0.042312390949501955,-0.4114637025922495,,-1.204522369125671,0.28805793620857423,0.18403947646000002,-1.210540043736159,-0.6557185623743488,-0.3043094988847289,0.8637634217180685,,-0.07621634677302738,-0.03363467634749572,0.09367612488,-0.1102278800231344,,-8.627772e-06,1.1920929e-07,4.2915344e-06,0.99999994,1.7650425e-05,1.630187e-05,-1.7650425e-05,1.0,3.0994415e-06,-1.630187e-05,-3.1292439e-06,1.0,212,0.644,0,0,0.0,False,-0.25386068605304013,1.0396175461989383
0.6695554100442678,16:59:43.326759,16:58:25.553168,0,,0.11284991,0.0068279654,0.031988546,-0.39526808,0.79213566,-0.4650637,0.064893395,0.52910906,0.84606874,0.9162706,0.3042444,-0.26054442,,0.042528637,0.023507295,0.026911378,0.6591899,0.3627677,0.6586867,-0.3250473,-0.6524195,0.6846117,0.6780951,-0.6653934,-0.31215176,,0.08274938,1.2879168,0.4254293,0.9915197,0.10186023,-0.08070448,0.019909797,-0.73274255,-0.68021464,-0.12842242,0.6728394,-0.7285567,,-0.109319605,0.24161461,-0.1288486,0.32794937,-0.8210256,0.46729666,0.69892055,0.5436625,0.46469465,-0.63557786,0.17420693,0.75212544,,-0.051457454,0.43479985,-0.33915728,-0.6982892,-0.18288082,-0.6920598,0.20253745,-0.9777832,0.054024335,-0.6865645,-0.10244342,0.7198157,,1.0669804966357326,0.41623985645495265,0.19017352074000002,1.905871896330842,-0.7726794061735658,-0.04361800327609433,-0.4104836381954437,,-1.204522369125671,0.28805793620857423,0.18403947646000002,-1.210540043736159,-0.6557185623743488,-0.3043094988847289,0.8637634217180685,,-0.07621634677302738,-0.03363467634749572,0.09367612488,-0.1102278800231344,,-8.627772e-06,1.1920929e-07,4.2915344e-06,0.99999994,1.7650425e-05,1.630187e-05,-1.7650425e-05,1.0,3.0994415e-06,-1.630187e-05,-3.1292439e-06,1.0,227,0.69,0,0,0.0,False,-0.25439688551972894,1.0388933431872462
0.6967621420044452,16:59:43.359830,16:58:25.553168,0,,0.113714516,0.0066500306,0.031860992,-0.389832,0.7996464,-0.45672393,0.069835305,0.520204,0.851182,0.9182341,0.2999225,-0.2586358,,0.042526662,0.023507206,0.026909173,0.6592002,0.36270648,0.6587102,-0.32504123,-0.6524787,0.6845582,0.67808807,-0.6653688,-0.31221956,,0.08274938,1.2879168,0.4254293,0.9915197,0.10186023,-0.08070448,0.019909797,-0.73274255,-0.68021464,-0.12842242,0.6728394,-0.7285567,,-0.11016966,0.24134469,-0.12884426,0.32230058,-0.82805085,0.4587528,0.7035182,0.53377295,0.46919993,-0.6333912,0.17151755,0.7545842,,-0.051455207,0.43479848,-0.33915594,-0.6982991,-0.18281648,-0.69206685,0.20253383,-0.97778887,0.05393515,-0.6865555,-0.102504075,0.7198156,,1.0621846795208392,0.41748321644770275,0.1901398172,1.920759882318243,-0.7750022266695782,-0.04458265481817475,-0.4111370144599809,,-1.2045069236599226,0.28805793620857423,0.18404077275000003,-1.210540043736159,-0.6557185623743488,-0.3042278201445884,0.8639267657842029,,-0.07621634677302738,-0.03363467634749572,0.09367612488,-0.1102278800231344,,-8.627772e-06,1.1920929e-07,4.2915344e-06,0.99999994,1.7650425e-05,1.630187e-05,-1.7650425e-05,1.0,3.0994415e-06,-1.630187e-05,-3.1292439e-06,1.0,231,0.702,0,0,0.0,False,-0.254218152364166,1.0377346183685394
0.7298375470563769,16:59:43.390144,16:58:25.691983,0,,0.114490844,0.006442897,0.031669304,-0.38446048,0.80803466,-0.44639692,0.078109145,0.51030266,0.85644037,0.9198309,0.2943998,-0.25930616,,0.04252556,0.023506818,0.026908576,0.65920526,0.3627028,0.6587071,-0.3250382,-0.65248024,0.68455803,0.6780845,-0.66536915,-0.31222624,,0.08274938,1.2879168,0.4254293,0.9915197,0.10186023,-0.08070448,0.019909797,-0.73274255,-0.68021464,-0.12842242,0.6728394,-0.7285567,,-0.1109266,0.2410151,-0.12881698,0.31668305,-0.8358483,0.44840777,0.71028835,0.52228355,0.471922,-0.62865114,0.16904911,0.7590916,,-0.051453993,0.434798,-0.33915588,-0.69830406,-0.18281257,-0.69206285,0.20253201,-0.97778946,0.05393049,-0.686551,-0.102505006,0.7198197,,1.0575973761935498,0.4182091533378799,0.19012815059000002,1.9371156979100361,-0.7740457711712202,-0.04544425888419018,-0.4109736703938466,,-1.2044992009270483,0.28805793620857423,0.18404077275000003,-1.210540043736159,-0.6557185623743488,-0.3042278201445884,0.8626200132551287,,-0.07621634677302738,-0.03363467634749572,0.09367612488,-0.1102278800231344,,-8.627772e-06,1.1920929e-07,4.2915344e-06,0.99999994,1.7650425e-05,1.630187e-05,-1.7650425e-05,1.0,3.0994415e-06,-1.630187e-05,-3.1292439e-06,1.0,243,0.739,0,0,0.0,False,-0.2538011083345184,1.0372035361599652
0.7601455450057983,16:59:43.417055,16:58:25.691983,0,,0.11518678,0.0061904043,0.031411394,-0.3824449,0.81276894,-0.4394799,0.08750683,0.50536156,0.85845923,0.91982514,0.2898559,-0.2643958,,0.042530872,0.02350807,0.026909292,0.6591821,0.36277094,0.6586927,-0.325048,-0.65242344,0.68460757,0.6781024,-0.6653878,-0.31214797,,0.08274938,1.2879168,0.4254293,0.9915197,0.10186023,-0.08070448,0.019909797,-0.73274255,-0.68021464,-0.12842242,0.6728394,-0.7285567,,-0.11159785,0.24061218,-0.12877598,0.31450635,-0.84015924,0.44183508,0.71698433,0.5152918,0.4694761,-0.62210864,0.16913563,0.7644436,,-0.05145946,0.4347983,-0.3391554,-0.6982824,-0.18288426,-0.6920657,0.20254411,-0.97778183,0.054023657,-0.6865694,-0.102450065,0.71981,,1.0531954184552417,0.41851806265284885,0.19013203946,1.949068024688654,-0.7702199491777878,-0.04864563892783064,-0.41081032632771225,,-1.2045300918585453,0.2880502134757,0.18404206904,-1.210540043736159,-0.6557185623743488,-0.3043094988847289,0.8624566691889946,,-0.07621634677302738,-0.03363467634749572,0.09367612488,-0.1102278800231344,,-8.627772e-06,1.1920929e-07,4.2915344e-06,0.99999994,1.7650425e-05,1.630187e-05,-1.7650425e-05,1.0,3.0994415e-06,-1.630187e-05,-3.1292439e-06,1.0,251,0.763,0,0,0.0,False,-0.2540989969271239,1.0372035361599652
0.7870341239031404,16:59:43.437777,16:58:25.691983,0,,0.11560033,0.006004721,0.031222567,-0.3821944,0.81464297,-0.43621582,0.09181002,0.5031926,0.8592835,0.91950977,0.2883643,-0.26710984,,0.04252982,0.023510931,0.026906133,0.6591899,0.3627677,0.6586867,-0.3250473,-0.6524195,0.6846117,0.6780951,-0.6653934,-0.31215176,,0.08274938,1.2879168,0.4254293,0.9915197,0.10186023,-0.08070448,0.019909797,-0.73274255,-0.68021464,-0.12842242,0.6728394,-0.7285567,,-0.11199359,0.24032253,-0.12875034,0.31420246,-0.8418837,0.438758,0.71987784,0.5125798,0.4680148,-0.6189125,0.16880076,0.7671073,,-0.051458366,0.4347978,-0.3391512,-0.6982892,-0.18288082,-0.6920598,0.20253745,-0.9777832,0.054024335,-0.6865645,-0.10244342,0.7198157,,1.0503457300246528,0.4185335081185973,0.19014889123,1.9541005833322824,-0.7688535841801334,-0.04975981796479495,-0.41081032632771225,,-1.204522369125671,0.28805793620857423,0.18404595791000003,-1.210540043736159,-0.6557185623743488,-0.3043094988847289,0.8624566691889946,,-0.07621634677302738,-0.03363467634749572,0.09367612488,-0.1102278800231344,,-8.627772e-06,1.1920929e-07,4.2915344e-06,0.99999994,1.7650425e-05,1.630187e-05,-1.7650425e-05,1.0,3.0994415e-06,-1.630187e-05,-3.1292439e-06,1.0,259,0.787,0,0,0.0,False,-0.25451604095677105,1.0373483767623035
0.8077629799954593,16:59:43.463121,16:58:25.691983,0,,0.116163954,0.005737439,0.030901954,-0.3845752,0.8146618,-0.43408296,0.09486362,0.50263757,0.85927665,0.9182062,0.2892778,-0.27058375,,0.042530343,0.02351558,0.026904702,0.6591901,0.36282614,0.6586544,-0.32505512,-0.6523509,0.6846733,0.6780911,-0.6654289,-0.3120848,,0.08274938,1.2879168,0.4254293,0.9915197,0.10186023,-0.08070448,0.019909797,-0.73274255,-0.68021464,-0.12842242,0.6728394,-0.7285567,,-0.11252815,0.23987412,-0.12867926,0.31661522,-0.84195757,0.43687782,0.72134966,0.51280105,0.46549952,-0.6159622,0.16775744,0.7697064,,-0.05145927,0.43479943,-0.33914667,-0.69828784,-0.18294217,-0.692045,0.20252958,-0.97777957,0.054119546,-0.68656814,-0.102368556,0.71982276,,1.0461677315396973,0.41848717172135197,0.19022537234000003,1.9557781028801586,-0.7684436746808371,-0.0500123929357435,-0.4109736703938466,,-1.2045300918585453,0.28807338167432267,0.18404984678000003,-1.210540043736159,-0.6557185623743488,-0.3043911776248695,0.8622933251228602,,-0.07621634677302738,-0.03363467634749572,0.09367612488,-0.1102278800231344,,-8.627772e-06,1.1920929e-07,4.2915344e-06,0.99999994,1.7650425e-05,1.630187e-05,-1.7650425e-05,1.0,3.0994415e-06,-1.630187e-05,-3.1292439e-06,1.0,270,0.821,0,0,0.0,False,-0.2536819528974772,1.0375414975654216
0.8331042539793998,16:59:43.496359,16:58:25.691983,0,,0.11673458,0.005548194,0.03051205,-0.38508546,0.8164553,-0.4302441,0.100997865,0.50067955,0.8597205,0.9173378,0.2876121,-0.27526468,,0.04252994,0.023517398,0.026900947,0.6591952,0.3627686,0.6586809,-0.32505208,-0.65240836,0.68461996,0.6780876,-0.6654038,-0.3121459,,0.08274938,1.2879168,0.4254293,0.9915197,0.10186023,-0.08070448,0.019909797,-0.73274255,-0.68021464,-0.12842242,0.6728394,-0.7285567,,-0.11306618,0.2394345,-0.12850401,0.31707686,-0.84359306,0.43337396,0.72524095,0.51012796,0.46237972,-0.6111365,0.16769062,0.773558,,-0.051458605,0.43479773,-0.33914295,-0.6982928,-0.18288173,-0.69205594,0.20252778,-0.9777846,0.054035023,-0.6865637,-0.10242828,0.7198186,,1.0421750786437234,0.4184640035227293,0.19039389004,1.9616494212977253,-0.7659842176850592,-0.051936236462138574,-0.4111370144599809,,-1.204522369125671,0.28807338167432267,0.18405373565000002,-1.210540043736159,-0.6557185623743488,-0.3043094988847291,0.862129981056726,,-0.07621634677302738,-0.03363467634749572,0.09367612488,-0.1102278800231344,,-8.627772e-06,1.1920929e-07,4.2915344e-06,0.99999994,1.7650425e-05,1.630187e-05,-1.7650425e-05,1.0,3.0994415e-06,-1.630187e-05,-3.1292439e-06,1.0,278,0.845,0,0,0.0,False,-0.2547543518308557,1.0368172945537295
0.8662909909617156,16:59:43.521684,16:58:25.691983,0,,0.11711761,0.0054476187,0.030223206,-0.38347635,0.8192622,-0.42632788,0.107537895,0.4980879,0.8604324,0.9172685,0.28410906,-0.27910677,,0.04252953,0.023519157,0.02690047,0.6591979,0.36276907,0.658678,-0.32505453,-0.6524029,0.6846241,0.6780839,-0.6654089,-0.3121429,,0.08274938,1.2879168,0.4254293,0.9915197,0.10186023,-0.08070448,0.019909797,-0.73274255,-0.68021464,-0.12842242,0.6728394,-0.7285567,,-0.11342588,0.23914005,-0.12834854,0.3153608,-0.84609747,0.4297286,0.72984344,0.5056741,0.4600242,-0.6065279,0.168561,0.77698845,,-0.05145836,0.4347985,-0.33914125,-0.6982946,-0.18288219,-0.69205403,0.20252293,-0.9777853,0.054040365,-0.68656325,-0.10242072,0.71982,,1.0396265767952293,0.41837133072823857,0.19053777823,1.969407949206653,-0.7629782146902195,-0.05471414530402213,-0.4111370144599808,,-1.204522369125671,0.28808110440719686,0.18405503194000003,-1.210540043736159,-0.6557185623743488,-0.3043094988847291,0.862129981056726,,-0.07621634677302738,-0.03363467634749572,0.09367612488,-0.1102278800231344,,-8.627772e-06,1.1920929e-07,4.2915344e-06,0.99999994,1.7650425e-05,1.630187e-05,-1.7650425e-05,1.0,3.0994415e-06,-1.630187e-05,-3.1292439e-06,1.0,286,0.87,0,0,0.0,False,-0.2546351963938136,1.0369621351560678
0.8916606369893998,16:59:43.545202,16:58:25.843875,0,,0.1175932,0.0053001046,0.029757902,-0.3846992,0.8192151,-0.42531526,0.11281109,0.49904943,0.8591992,0.9161223,0.28255293,-0.28440058,,0.042530637,0.023519544,0.026901066,0.65919274,0.36282662,0.6586514,-0.32505763,-0.65234536,0.6846775,0.67808735,-0.6654341,-0.31208184,,0.08274938,1.2879168,0.4254293,0.9915197,0.10186023,-0.08070448,0.019909797,-0.73274255,-0.68021464,-0.12842242,0.6728394,-0.7285567,,-0.113864504,0.23868495,-0.12809367,0.31656814,-0.8459571,0.42911676,0.7329634,0.5053097,0.45544133,-0.6021207,0.17034866,0.78002053,,-0.051459573,0.434799,-0.3391413,-0.69828963,-0.18294263,-0.692043,0.20252475,-0.9777803,0.054124888,-0.6865678,-0.102360986,0.71982425,,1.0360586742073374,0.41807014414614385,0.19079962881,1.9731823681893743,-0.7606553941942069,-0.058323503209813055,-0.41162704665838373,,-1.2045300918585453,0.28808110440719686,0.18405503194000003,-1.210540043736159,-0.6557185623743488,-0.3043911776248695,0.8622933251228602,,-0.07621634677302738,-0.03363467634749572,0.09367612488,-0.1102278800231344,,-8.627772e-06,1.1920929e-07,4.2915344e-06,0.99999994,1.7650425e-05,1.630187e-05,-1.7650425e-05,1.0,3.0994415e-06,-1.630187e-05,-3.1292439e-06,1.0,294,0.894,0,0,0.0,False,-0.25481392954937654,1.0366241737506119
0.9151882568839937,16:59:43.570917,16:58:25.843875,0,,0.117824584,0.00520996,0.029469952,-0.3861913,0.81862444,-0.4251003,0.114245355,0.49975473,0.85859954,0.91531646,0.2830179,-0.28652504,,0.04253041,0.023518858,0.026898861,0.6591952,0.36271483,0.6587105,-0.32505208,-0.6524643,0.6845667,0.6780876,-0.6653782,-0.3122002,,0.08274938,1.2879168,0.4254293,0.9915197,0.10186023,-0.08070448,0.019909797,-0.73274255,-0.68021464,-0.12842242,0.6728394,-0.7285567,,-0.11407321,0.23840804,-0.12793764,0.31808802,-0.84541357,0.42906398,0.7335452,0.5061767,0.45353788,-0.60060924,0.17047285,0.7811578,,-0.05145897,0.43479693,-0.3391405,-0.6982928,-0.18282521,-0.6920709,0.20252778,-0.977789,0.053955156,-0.6865637,-0.10248708,0.7198102,,1.0340971000572845,0.4177457893654264,0.19097203538000002,1.9731823681893743,-0.7603821211946761,-0.05879137523762756,-0.41146370259224946,,-1.204522369125671,0.28807338167432267,0.18405632823,-1.210540043736159,-0.6557185623743488,-0.3042278201445885,0.8622933251228604,,-0.07621634677302738,-0.03363467634749572,0.09367612488,-0.1102278800231344,,-8.627772e-06,1.1920929e-07,4.2915344e-06,0.99999994,1.7650425e-05,1.630187e-05,-1.7650425e-05,1.0,3.0994415e-06,-1.630187e-05,-3.1292439e-06,1.0,302,0.918,0,0,0.0,False,-0.2543373078012081,1.0360930915420377
0.9408519628923386,16:59:43.593256,16:58:25.843875,0,,0.118105814,0.005064845,0.02894102,-0.3908217,0.81562525,-0.4266307,0.11921519,0.5044425,0.8551757,0.9127136,0.28336027,-0.29438213,,0.042528003,0.023520527,0.026899457,0.6592057,0.3626583,0.6587312,-0.32505387,-0.65251076,0.68452156,0.6780766,-0.6653636,-0.3122554,,0.08274938,1.2879168,0.4254293,0.9915197,0.10186023,-0.08070448,0.019909797,-0.73274255,-0.68021464,-0.12842242,0.6728394,-0.7285567,,-0.11431353,0.23792313,-0.12764263,0.3228026,-0.8425301,0.4312094,0.7356577,0.5100004,0.445766,-0.59548825,0.17332807,0.7844432,,-0.0514569,0.43479884,-0.3391395,-0.6983014,-0.18276569,-0.692078,0.20251627,-0.9777955,0.053881317,-0.68655837,-0.102531664,0.71980894,,1.0313864208184318,0.41688856601638746,0.19128314498,1.971085468754529,-0.7561463897019475,-0.06191861529165443,-0.41146370259224935,,-1.2045146463927967,0.2880888271400711,0.18405632823,-1.210540043736159,-0.6557185623743488,-0.30414614140444785,0.8621299810567258,,-0.07621634677302738,-0.03363467634749572,0.09367612488,-0.1102278800231344,,-8.627772e-06,1.1920929e-07,4.2915344e-06,0.99999994,1.7650425e-05,1.630187e-05,-1.7650425e-05,1.0,3.0994415e-06,-1.630187e-05,-3.1292439e-06,1.0,317,0.964,0,0,0.0,False,-0.2549926627049395,1.0362862123451555
0.9632618080358952,16:59:43.640264,16:58:25.843875,0,,0.118336864,0.0048615634,0.028167471,-0.39582002,0.81262594,-0.4277448,0.12771204,0.5099709,0.8506581,0.9094043,0.28207934,-0.3056389,,0.042526826,0.023527531,0.02689755,0.6591889,0.36284837,0.6586433,-0.32492355,-0.65245813,0.6846337,0.67815536,-0.6653116,-0.31219524,,0.08274938,1.2879168,0.4254293,0.9915197,0.10186023,-0.08070448,0.019909797,-0.73274255,-0.68021464,-0.12842242,0.6728394,-0.7285567,,-0.11448538,0.23723158,-0.12721217,0.3278717,-0.83954597,0.43320057,0.73987037,0.513323,0.43484634,-0.5874453,0.17793845,0.7894593,,-0.051456377,0.43480188,-0.33913282,-0.6983122,-0.18296628,-0.69201404,0.2026595,-0.9777586,0.054012273,-0.6865051,-0.102525786,0.7198606,,1.0284286141276038,0.41505827832519626,0.19174462422000002,1.9698273290936217,-0.7490412917141446,-0.0661604502211976,-0.4116270466583837,,-1.2045146463927967,0.2881119953386938,0.18406151339000001,-1.2107497336796438,-0.6557185623743488,-0.3041461414044479,0.8618032929244572,,-0.07621634677302738,-0.03363467634749572,0.09367612488,-0.1102278800231344,,-8.627772e-06,1.1920929e-07,4.2915344e-06,0.99999994,1.7650425e-05,1.630187e-05,-1.7650425e-05,1.0,3.0994415e-06,-1.630187e-05,-3.1292439e-06,1.0,325,0.989,0,0,0.0,False,-0.2539202637715605,1.0358516905381403
1.010251804953441,16:59:43.659008,16:58:25.843875,0,,0.11841039,0.004764363,0.027782455,-0.3973758,0.81149423,-0.4284502,0.13214594,0.51263344,0.84837747,0.9080913,0.2805067,-0.3109438,,0.042528853,0.023530869,0.026897132,0.65918136,0.36285627,0.6586465,-0.32493204,-0.65244937,0.684638,0.67815864,-0.66531587,-0.31217885,,0.08274938,1.2879168,0.4254293,0.9915197,0.10186023,-0.08070448,0.019909797,-0.73274255,-0.68021464,-0.12842242,0.6728394,-0.7285567,,-0.11452963,0.23689282,-0.12699682,0.32943782,-0.83835286,0.43432152,0.74228716,0.5142495,0.42960128,-0.58350706,0.18086438,0.7917118,,-0.051458742,0.43480322,-0.33913,-0.6983041,-0.18297455,-0.69202,0.20265828,-0.977758,0.054026935,-0.68651366,-0.10251635,0.71985376,,1.0271929768677277,0.4140002639214275,0.19197925271000002,1.9702467089805908,-0.7456253792200086,-0.0689458978136081,-0.4116270466583837,,-1.2045300918585453,0.288119718071568,0.18406410597000003,-1.2107497336796438,-0.6557185623743488,-0.3041461414044479,0.8618032929244572,,-0.07621634677302738,-0.03363467634749572,0.09367612488,-0.1102278800231344,,-8.627772e-06,1.1920929e-07,4.2915344e-06,0.99999994,1.7650425e-05,1.630187e-05,-1.7650425e-05,1.0,3.0994415e-06,-1.630187e-05,-3.1292439e-06,1.0,329,1.001,0,0,0.0,False,-0.2540989969271239,1.0359965311404788
1.029015565989539,16:59:43.684643,16:58:25.843875,0,,0.11847701,0.004592642,0.02713947,-0.3983649,0.80993503,-0.43047714,0.13616076,0.5163436,0.8454877,0.9070643,0.27819848,-0.31597462,,0.042528674,0.023534892,0.026893437,0.6592114,0.36261466,0.6587495,-0.32507437,-0.65253013,0.68449336,0.67806125,-0.6653684,-0.31227863,,0.08274938,1.2879168,0.4254293,0.9915197,0.10186023,-0.08070448,0.019909797,-0.73274255,-0.68021464,-0.12842242,0.6728394,-0.7285567,,-0.11454733,0.23632373,-0.12664583,0.33042592,-0.8366998,0.4367518,0.7445604,0.5154594,0.42418316,-0.5800418,0.185027,0.7932947,,-0.05145858,0.43480286,-0.33912456,-0.69830227,-0.18271972,-0.6920892,0.20249087,-0.9778028,0.053842824,-0.6865649,-0.102543175,0.719801,,1.0252468481834232,0.4119769079083807,0.19239147293000003,1.9708757788110443,-0.7438491047230578,-0.07251797780531644,-0.41113701445998085,,-1.2045300918585453,0.28813516353731644,0.18406929113,-1.210540043736159,-0.6557185623743488,-0.30406446266430726,0.8616399488583228,,-0.07621634677302738,-0.03363467634749572,0.09367612488,-0.1102278800231344,,-8.627772e-06,1.1920929e-07,4.2915344e-06,0.99999994,1.7650425e-05,1.630187e-05,-1.7650425e-05,1.0,3.0994415e-06,-1.630187e-05,-3.1292439e-06,1.0,358,1.09,0,0,0.0,False,-0.2540989969271239,1.0358999707389198
1.054647410986945,16:59:43.760246,16:58:25.997654,0,,0.118567616,0.0042224154,0.02560179,-0.3958412,0.8039611,-0.44379753,0.14410058,0.53166413,0.83460665,0.9069425,0.26642025,-0.32630587,,0.04251643,0.023559628,0.026886523,0.6593018,0.36241895,0.6587666,-0.32524052,-0.6524781,0.68446404,0.6778936,-0.665526,-0.3123068,,0.08274938,1.2879168,0.4254293,0.9915197,0.10186023,-0.08070448,0.019909797,-0.73274255,-0.68021464,-0.12842242,0.6728394,-0.7285567,,-0.11452185,0.2349964,-0.1257814,0.32777664,-0.8301772,0.4509638,0.75008696,0.5188886,0.41002953,-0.5743971,0.20386395,0.79278463,,-0.051448755,0.43481484,-0.3391007,-0.6983472,-0.18251269,-0.6920985,0.20224361,-0.9778564,0.053800046,-0.6865921,-0.102401376,0.7197953,,1.0210302360340966,0.40690307241001517,0.19342980122000003,1.9773761670590646,-0.743302558723996,-0.09272990453411806,-0.41064698226157786,,-1.2044992009270483,0.2882664499961783,0.18408614290000003,-1.2103303537926746,-0.6557185623743488,-0.3040644626643073,0.8613132607260545,,-0.07621634677302738,-0.03363467634749572,0.09367612488,-0.1102278800231344,,-8.627772e-06,1.1920929e-07,4.2915344e-06,0.99999994,1.7650425e-05,1.630187e-05,-1.7650425e-05,1.0,3.0994415e-06,-1.630187e-05,-3.1292439e-06,1.0,362,1.102,0,0,0.0,False,-0.254218152364166,1.0362862123451555
1.130237276898697,16:59:43.786007,16:58:25.997654,0,,0.11861256,0.004055366,0.024914011,-0.39504012,0.80115175,-0.4495544,0.14849067,0.53860736,0.8293688,0.90658355,0.26087928,-0.33173516,,0.04251942,0.023572234,0.026885688,0.6591967,0.36244392,0.6588583,-0.3253297,-0.65247196,0.6844275,0.6779531,-0.6655183,-0.31219363,,0.08274938,1.2879168,0.4254293,0.9915197,0.10186023,-0.08070448,0.019909797,-0.73274255,-0.68021464,-0.12842242,0.6728394,-0.7285567,,-0.114514835,0.23440136,-0.12539555,0.32692522,-0.827105,0.45718408,0.75297976,0.5203099,0.40286362,-0.5710879,0.21254407,0.79289573,,-0.051453184,0.4348213,-0.33909038,-0.6982405,-0.18253905,-0.6921992,0.2022548,-0.9778514,0.05384803,-0.6866973,-0.102401726,0.71969485,,1.0191767801442828,0.4046712026093643,0.19388998417000003,1.980311826267848,-0.742072830226107,-0.1020638971617232,-0.4109736703938466,,-1.2045300918585453,0.2883127863934236,0.18409521693000003,-1.2103303537926746,-0.6558551988741141,-0.3040347235007514,0.8618032929244572,,-0.07621634677302738,-0.03363467634749572,0.09367612488,-0.1102278800231344,,-8.627772e-06,1.1920929e-07,4.2915344e-06,0.99999994,1.7650425e-05,1.630187e-05,-1.7650425e-05,1.0,3.0994415e-06,-1.630187e-05,-3.1292439e-06,1.0,374,1.139,0,0,0.0,False,-0.2536819528974772,1.0363827727467145
1.155991663923487,16:59:43.815237,16:58:25.997654,0,,0.118635856,0.0039484575,0.024456248,-0.3941393,0.80001247,-0.45236513,0.15085438,0.5418483,0.82682717,0.90658545,0.25764382,-0.3342492,,0.042517103,0.02358037,0.026884377,0.6592099,0.36244628,0.65884364,-0.32534167,-0.65244424,0.68444824,0.6779344,-0.66554433,-0.3121789,,0.08274938,1.2879168,0.4254293,0.9915197,0.10186023,-0.08070448,0.019909797,-0.73274255,-0.68021464,-0.12842242,0.6728394,-0.7285567,,-0.114503644,0.23400885,-0.1251361,0.32598466,-0.8257965,0.460211,0.7546419,0.5205183,0.39947003,-0.5694292,0.2170734,0.7928616,,-0.05145177,0.43482566,-0.3390831,-0.6982495,-0.18254134,-0.69218946,0.2022306,-0.97785497,0.05387474,-0.6866953,-0.102363884,0.7197022,,1.0174468879804566,0.40250883740458143,0.19435405599000002,1.9832474854766313,-0.7419361937263417,-0.1089546504970863,-0.41113701445998085,,-1.2045300918585453,0.28835140005779475,0.18410040209000003,-1.2103303537926746,-0.6558551988741141,-0.3040347235007514,0.8618032929244572,,-0.07621634677302738,-0.03363467634749572,0.09367612488,-0.1102278800231344,,-8.627772e-06,1.1920929e-07,4.2915344e-06,0.99999994,1.7650425e-05,1.630187e-05,-1.7650425e-05,1.0,3.0994415e-06,-1.630187e-05,-3.1292439e-06,1.0,382,1.165,0,0,0.0,False,-0.25481392954937654,1.0367207341521705
1.1852352928835899,16:59:43.841610,16:58:25.997654,0,,0.11864221,0.0038208216,0.023781136,-0.3929028,0.7971322,-0.45848408,0.15371838,0.5484973,0.82190096,0.9066411,0.25244975,-0.33804005,,0.042510673,0.02359408,0.026884198,0.6592417,0.36233953,0.6588705,-0.3253626,-0.6525022,0.6843831,0.6778935,-0.6655457,-0.31226492,,0.08274938,1.2879168,0.4254293,0.9915197,0.10186023,-0.08070448,0.019909797,-0.73274255,-0.68021464,-0.12842242,0.6728394,-0.7285567,,-0.11445975,0.2334535,-0.1247339,0.32469666,-0.82267296,0.4666704,0.7566834,0.5219679,0.39367467,-0.5674525,0.22529688,0.7919842,,-0.05144717,0.43483508,-0.33907217,-0.6982725,-0.18242894,-0.6921959,0.20218039,-0.9778714,0.05376375,-0.6866867,-0.102406695,0.7197043,,1.016404319042436,0.4010106272269819,0.19468720252000002,1.9849250050245073,-0.742072830226107,-0.11554088928491596,-0.41179039072451795,,-1.204522369125671,0.28842862738653696,0.18410688354000002,-1.2103303537926746,-0.6558551988741141,-0.3038713660204702,0.8614766047921887,,-0.07621634677302738,-0.03363467634749572,0.09367612488,-0.1102278800231344,,-8.627772e-06,1.1920929e-07,4.2915344e-06,0.99999994,1.7650425e-05,1.630187e-05,-1.7650425e-05,1.0,3.0994415e-06,-1.630187e-05,-3.1292439e-06,1.0,390,1.189,0,0,0.0,False,-0.25397984149008224,1.036865574754509
1.2116113589145243,16:59:43.863648,16:58:26.158434,0,,0.118610136,0.0037417412,0.023338899,-0.3928694,0.7952008,-0.46185416,0.1551353,0.5523502,0.8190496,0.90641415,0.25012958,-0.34036535,,0.04250829,0.023602156,0.026885271,0.659157,0.36229587,0.65897936,-0.3254395,-0.6525584,0.68429285,0.67793894,-0.6655143,-0.31223303,,0.08274938,1.2879168,0.4254293,0.9915197,0.10186023,-0.08070448,0.019909797,-0.73274255,-0.68021464,-0.12842242,0.6728394,-0.7285567,,-0.11439493,0.23309526,-0.12446876,0.3246543,-0.8206504,0.4702473,0.75755495,0.5232963,0.3902198,-0.56631273,0.22955161,0.7915782,,-0.05144601,0.43484128,-0.33906648,-0.6981856,-0.1823831,-0.6922957,0.20218432,-0.9778734,0.053713202,-0.6867739,-0.10246953,0.7196121,,1.0155548184262715,0.3995510307137535,0.19500738615000002,1.9851346949679922,-0.742072830226107,-0.11954314755180351,-0.41130035852611513,,-1.204522369125671,0.28847496378378235,0.18411077241,-1.2103303537926746,-0.6559918353738795,-0.3037599481167739,0.8614766047921887,,-0.07621634677302738,-0.03363467634749572,0.09367612488,-0.1102278800231344,,-8.627772e-06,1.1920929e-07,4.2915344e-06,0.99999994,1.7650425e-05,1.630187e-05,-1.7650425e-05,1.0,3.0994415e-06,-1.630187e-05,-3.1292439e-06,1.0,398,1.214,0,0,0.0,False,-0.2549926627049395,1.036431052947494
1.2335708560422063,16:59:43.890294,16:58:26.158434,0,,0.11853824,0.0036241785,0.022730514,-0.3928742,0.7943957,-0.4632336,0.15657547,0.5541687,0.8175458,0.9061644,0.24866156,-0.34210157,,0.042501807,0.023612676,0.026884437,0.6591885,0.36223835,0.6589794,-0.32545263,-0.65257305,0.68427265,0.677902,-0.6655313,-0.3122773,,0.08274938,1.2879168,0.4254293,0.9915197,0.10186023,-0.08070448,0.019909797,-0.73274255,-0.68021464,-0.12842242,0.6728394,-0.7285567,,-0.114277914,0.23259771,-0.1241111,0.32465127,-0.8197754,0.47177312,0.75843006,0.52366126,0.38802406,-0.5651419,0.23183441,0.7917496,,-0.051440876,0.43484825,-0.33905762,-0.69820994,-0.18232243,-0.6922871,0.20214196,-0.9778847,0.053666737,-0.6867616,-0.10246962,0.7196238,,1.0144813585567543,0.39744272463909014,0.19544682846000003,1.9849250050245073,-0.7424827397254035,-0.12035239620268212,-0.41130035852611524,,-1.2045069236599226,0.2885367456467761,0.18411595757000002,-1.2103303537926746,-0.6559918353738795,-0.30367826937663334,0.8616399488583231,,-0.07621634677302738,-0.03363467634749572,0.09367612488,-0.1102278800231344,,-8.627772e-06,1.1920929e-07,4.2915344e-06,0.99999994,1.7650425e-05,1.630187e-05,-1.7650425e-05,1.0,3.0994415e-06,-1.630187e-05,-3.1292439e-06,1.0,406,1.238,0,0,0.0,False,-0.2545756186752919,1.0361896519435967
1.2602975810877979,16:59:43.914840,16:58:26.158434,0,,0.11846976,0.0035529286,0.022317842,-0.39382407,0.79294,-0.46491805,0.15793762,0.5566453,0.81559896,0.90551543,0.2477744,-0.34445545,,0.042505916,0.023621587,0.026895106,0.65806854,0.36356926,0.65936565,-0.32478103,-0.65298873,0.6841952,0.6793107,-0.6643969,-0.31163102,,0.08274938,1.2879168,0.4254293,0.9915197,0.10186023,-0.08070448,0.019909797,-0.73274255,-0.68021464,-0.12842242,0.6728394,-0.7285567,,-0.11417903,0.23226763,-0.12386346,0.32562047,-0.8183046,0.47365487,0.75903344,0.5249421,0.38510257,-0.56377256,0.23412262,0.79205245,,-0.051447496,0.43486115,-0.33905736,-0.6973865,-0.18373108,-0.6927445,0.20384508,-0.9775102,0.054046173,-0.68709475,-0.10352149,0.71915513,,1.013894430858313,0.3960371872559813,0.19574497516000003,1.9836668653636005,-0.7417995572265762,-0.12156291564228866,-0.4122804229229209,,-1.2044992009270483,0.28855219111252456,0.18411984644,-1.2122175632840353,-0.6572215638717686,-0.30275718698350607,0.8618032929244572,,-0.07621634677302738,-0.03363467634749572,0.09367612488,-0.1102278800231344,,-8.627772e-06,1.1920929e-07,4.2915344e-06,0.99999994,1.7650425e-05,1.630187e-05,-1.7650425e-05,1.0,3.0994415e-06,-1.630187e-05,-3.1292439e-06,1.0,414,1.263,0,0,0.0,False,-0.2540989969271239,1.0363827727467145
1.284836817998439,16:59:43.942504,16:58:26.158434,0,,0.11836207,0.0034327358,0.021742627,-0.39562616,0.7903706,-0.4677545,0.1617378,0.561307,0.81164974,0.904058,0.24545625,-0.34990054,,0.042515025,0.023647247,0.026920617,0.6555772,0.3675476,0.6596417,-0.32220855,-0.6538799,0.6845603,0.682935,-0.66132426,-0.31024188,,0.08274938,1.2879168,0.4254293,0.9915197,0.10186023,-0.08070448,0.019909797,-0.73274255,-0.68021464,-0.12842242,0.6728394,-0.7285567,,-0.114028625,0.23179314,-0.1235331,0.32745376,-0.8156602,0.47694078,0.7609063,0.52689856,0.37868133,-0.5601747,0.2389066,0.7931759,,-0.051463183,0.43489477,-0.3390533,-0.6957589,-0.18794338,-0.6932509,0.208669,-0.97642225,0.055288475,-0.68729675,-0.10619254,0.71857244,,1.013160771235262,0.3939906630443118,0.19613775103000003,1.9821990357592085,-0.7387935542317365,-0.12499425440529671,-0.41130035852611513,,-1.204491478194174,0.28856763657827306,0.18412892047,-1.2178791917581173,-0.6596810208675464,-0.3003432710162677,0.8616399488583231,,-0.07621634677302738,-0.03363467634749572,0.09367612488,-0.1102278800231344,,-8.627772e-06,1.1920929e-07,4.2915344e-06,0.99999994,1.7650425e-05,1.630187e-05,-1.7650425e-05,1.0,3.0994415e-06,-1.630187e-05,-3.1292439e-06,1.0,443,1.352,0,0,0.0,False,-0.2546351963938136,1.0361896519435967
1.312502393964678,16:59:44.024933,16:58:26.297675,0,,0.11816974,0.0030826032,0.020433888,-0.39626053,0.78802985,-0.47115448,0.16984838,0.56722283,0.80585957,0.90229094,0.23930548,-0.35861373,,0.042516127,0.023650555,0.026908696,0.6556881,0.36673623,0.65998304,-0.32275614,-0.65407944,0.6841115,0.68256986,-0.6615773,-0.31050584,,0.08274938,1.2879168,0.4254293,0.9915197,0.10186023,-0.08070448,0.019909797,-0.73274255,-0.68021464,-0.12842242,0.6728394,-0.7285567,,-0.113737606,0.23065461,-0.122832075,0.32806793,-0.8129938,0.48105356,0.7656253,0.5271274,0.3687203,-0.55334383,0.24734145,0.7953822,,-0.05146306,0.43488738,-0.3390433,-0.69574845,-0.18708643,-0.6934931,0.20803334,-0.9765883,0.05474826,-0.68749994,-0.10617868,0.71838003,,1.0110138514962275,0.3890712822034308,0.19700756162000002,1.9832474854766313,-0.7346944592387733,-0.13046043875984392,-0.4119537347906522,,-1.2044837554613,0.28857535931114725,0.18414058708000003,-1.2170404319841794,-0.6596810208675464,-0.30026159227612725,0.8614766047921889,,-0.07621634677302738,-0.03363467634749572,0.09367612488,-0.1102278800231344,,-8.627772e-06,1.1920929e-07,4.2915344e-06,0.99999994,1.7650425e-05,1.630187e-05,-1.7650425e-05,1.0,3.0994415e-06,-1.630187e-05,-3.1292439e-06,1.0,447,1.364,0,0,0.0,False,-0.2536223751789555,1.0361896519435967
1.3949412910733372,16:59:44.045797,16:58:26.297675,0,,0.11818087,0.002947107,0.020161495,-0.39647755,0.7877571,-0.4714279,0.17087144,0.5678618,0.80519307,0.90200245,0.2386874,-0.3597498,,0.042511977,0.02365291,0.026906013,0.6557089,0.36667225,0.6599979,-0.32275182,-0.6541291,0.6840662,0.68255186,-0.66156375,-0.3105742,,0.08274938,1.2879168,0.4254293,0.9915197,0.10186023,-0.08070448,0.019909797,-0.73274255,-0.68021464,-0.12842242,0.6728394,-0.7285567,,-0.11372694,0.230369,-0.12272716,0.3282867,-0.8126892,0.48141882,0.766184,0.52718496,0.36747527,-0.55244,0.24821815,0.79573727,,-0.05145892,0.43488753,-0.3390397,-0.695767,-0.18701908,-0.6934927,0.20801824,-0.9765962,0.054665163,-0.68748575,-0.10622492,0.7183868,,1.0101180144828175,0.38796693140241667,0.19715922755,1.9832474854766313,-0.7348310957385388,-0.13059405707656924,-0.41179039072451806,,-1.2044605872626772,0.2885908047768957,0.18414317966000002,-1.2170404319841794,-0.6596810208675464,-0.30017991353598666,0.8616399488583231,,-0.07621634677302738,-0.03363467634749572,0.09367612488,-0.1102278800231344,,-8.627772e-06,1.1920929e-07,4.2915344e-06,0.99999994,1.7650425e-05,1.630187e-05,-1.7650425e-05,1.0,3.0994415e-06,-1.630187e-05,-3.1292439e-06,1.0,459,1.401,0,0,0.0,False,-0.25397984149008224,1.0359482509396993
1.4157831040211022,16:59:44.077062,16:58:26.297675,0,,0.11831514,0.0026734173,0.01986508,-0.39746058,0.7878964,-0.47036618,0.17190787,0.5674528,0.8052608,0.9013727,0.2391997,-0.36098582,,0.042508893,0.023652492,0.026903272,0.65572447,0.3665534,0.6600485,-0.32274264,-0.65424556,0.683959,0.6825414,-0.6615144,-0.31070244,,0.08274938,1.2879168,0.4254293,0.9915197,0.10186023,-0.08070448,0.019909797,-0.73274255,-0.68021464,-0.12842242,0.6728394,-0.7285567,,-0.11383492,0.22995901,-0.122694984,0.32929337,-0.8128573,0.48044655,0.7665661,0.52723014,0.3666126,-0.55130965,0.24757092,0.79672223,,-0.05145546,0.43488568,-0.33903828,-0.69578195,-0.18689416,-0.69351137,0.20801285,-0.976607,0.054491635,-0.6874723,-0.10634498,0.71838194,,1.0081950539971356,0.386669512279547,0.19725515301000002,1.9828281055896624,-0.7355142782373659,-0.12889346519611927,-0.41113701445998085,,-1.2044374190640545,0.2885908047768957,0.18414447595000002,-1.2170404319841794,-0.6596810208675464,-0.30001655605570543,0.8616399488583228,,-0.07621634677302738,-0.03363467634749572,0.09367612488,-0.1102278800231344,,-8.627772e-06,1.1920929e-07,4.2915344e-06,0.99999994,1.7650425e-05,1.630187e-05,-1.7650425e-05,1.0,3.0994415e-06,-1.630187e-05,-3.1292439e-06,1.0,467,1.427,0,0,0.0,False,-0.25386068605304013,1.0361896519435967
1.447069251909852,16:59:44.098194,16:58:26.297675,0,,0.118439905,0.0025623888,0.019786939,-0.39670902,0.789662,-0.46803412,0.17306581,0.5650696,0.8066873,0.9014821,0.23901941,-0.36083177,,0.042510234,0.023653595,0.026902795,0.6557193,0.36650318,0.6600816,-0.3227457,-0.6542998,0.68390566,0.6825448,-0.6614886,-0.3107497,,0.08274938,1.2879168,0.4254293,0.9915197,0.10186023,-0.08070448,0.019909797,-0.73274255,-0.68021464,-0.12842242,0.6728394,-0.7285567,,-0.113951825,0.22981718,-0.122709684,0.3285155,-0.814563,0.47808447,0.76743555,0.5252671,0.36761004,-0.5505636,0.24613342,0.79768294,,-0.051456857,0.43488574,-0.33903715,-0.695777,-0.1868414,-0.6935306,0.20801465,-0.97661084,0.054416534,-0.68747675,-0.106402755,0.71836907,,1.0071833759906121,0.38638377116320066,0.19725774559000003,1.9849250050245073,-0.7357875512368969,-0.1274454482866179,-0.41130035852611513,,-1.2044451417969289,0.2885908047768957,0.18414577224,-1.2170404319841794,-0.6596810208675464,-0.2999348773155649,0.8614766047921887,,-0.07621634677302738,-0.03363467634749572,0.09367612488,-0.1102278800231344,,-8.627772e-06,1.1920929e-07,4.2915344e-06,0.99999994,1.7650425e-05,1.630187e-05,-1.7650425e-05,1.0,3.0994415e-06,-1.630187e-05,-3.1292439e-06,1.0,475,1.451,0,0,0.0,False,-0.2540989969271239,1.0361896519435967
1.468191985040903,16:59:44.127182,16:58:26.440014,0,,0.11863607,0.0024538934,0.019727811,-0.3973736,0.78998595,-0.4669223,0.17403504,0.5644633,0.80690324,0.90100276,0.23938118,-0.36178812,,0.042512678,0.023655144,0.026902914,0.6557089,0.36651054,0.6600877,-0.32275182,-0.6542967,0.68390584,0.68255186,-0.6614877,-0.31073627,,0.08274938,1.2879168,0.4254293,0.9915197,0.10186023,-0.08070448,0.019909797,-0.73274255,-0.68021464,-0.12842242,0.6728394,-0.7285567,,-0.114141345,0.22968581,-0.122733645,0.3291951,-0.814901,0.4770398,0.7678521,0.5250546,0.3670434,-0.5495759,0.24546713,0.79856884,,-0.05145947,0.4348863,-0.33903605,-0.695767,-0.18684915,-0.6935385,0.20801824,-0.9766096,0.05442586,-0.68748575,-0.106400944,0.7183607,,1.0058627886691198,0.38641466209469755,0.19724219011000002,1.9855540748549612,-0.7356509147371314,-0.12714847248961164,-0.4114637025922495,,-1.2044605872626772,0.2885908047768957,0.18414706853,-1.2170404319841794,-0.6596810208675464,-0.29993487731556495,0.8611499166599201,,-0.07621634677302738,-0.03363467634749572,0.09367612488,-0.1102278800231344,,-8.627772e-06,1.1920929e-07,4.2915344e-06,0.99999994,1.7650425e-05,1.630187e-05,-1.7650425e-05,1.0,3.0994415e-06,-1.630187e-05,-3.1292439e-06,1.0,483,1.476,0,0,0.0,False,-0.2537415306159976,1.0361896519435967
1.4971877799835056,16:59:44.148067,16:58:26.440014,0,,0.118756615,0.0024330989,0.0197417,-0.39695552,0.79084164,-0.4658282,0.17453757,0.56330794,0.80760187,0.9010898,0.23927742,-0.3616398,,0.042510062,0.023656068,0.026901245,0.65572196,0.36650366,0.6600786,-0.32274812,-0.6542943,0.68390983,0.68254113,-0.6614938,-0.3107468,,0.08274938,1.2879168,0.4254293,0.9915197,0.10186023,-0.08070448,0.019909797,-0.73274255,-0.68021464,-0.12842242,0.6728394,-0.7285567,,-0.11426217,0.22967277,-0.12275326,0.32876304,-0.81572646,0.47592568,0.7682508,0.5240917,0.3675847,-0.54927725,0.24478203,0.7989845,,-0.051456794,0.43488613,-0.33903423,-0.6957788,-0.18684186,-0.69352865,0.20800981,-0.97661155,0.054421864,-0.6874764,-0.106395185,0.71837056,,1.0052681382378044,0.38668495774529543,0.1972175606,1.9870219044593527,-0.7357875512368969,-0.12703705458591513,-0.4114637025922495,,-1.2044451417969289,0.28859852750976994,0.18414836482000002,-1.2170404319841794,-0.6596810208675464,-0.29993487731556495,0.8611499166599201,,-0.07621634677302738,-0.03363467634749572,0.09367612488,-0.1102278800231344,,-8.627772e-06,1.1920929e-07,4.2915344e-06,0.99999994,1.7650425e-05,1.630187e-05,-1.7650425e-05,1.0,3.0994415e-06,-1.630187e-05,-3.1292439e-06,1.0,516,1.577,0,0,0.0,False,-0.25403941920860307,1.035803410337361
1.5180731189902872,16:59:44.247624,16:58:26.440014,0,,0.11901912,0.0023273304,0.02003096,-0.39608002,0.7934634,-0.46209994,0.17915165,0.5603658,0.8086376,0.9005694,0.23749919,-0.36410007,,0.04250951,0.02368757,0.026921332,0.6544579,0.37087706,0.65888906,-0.31909838,-0.65454286,0.685383,0.6854641,-0.6588048,-0.31002465,,0.08274938,1.2879168,0.4254293,0.9915197,0.10186023,-0.08070448,0.019909797,-0.73274255,-0.68021464,-0.12842242,0.6728394,-0.7285567,,-0.11454265,0.22977783,-0.1230254,0.32784492,-0.8181627,0.4723638,0.7711911,0.52057576,0.36642215,-0.54569405,0.24415313,0.8016279,,-0.051462997,0.43492088,-0.33902207,-0.6953992,-0.1914722,-0.69264585,0.21272126,-0.9755013,0.056096762,-0.68641794,-0.10833085,0.7190931,,1.0044109148887654,0.3876502993545735,0.19689219181,1.9920544631029815,-0.7322350022429953,-0.12813698779892974,-0.41113701445998085,,-1.204452864529803,0.2886139729755184,0.18415354998000003,-1.2231214403452306,-0.6603642033663737,-0.2980709279548337,0.8627833573212629,,-0.07621634677302738,-0.03363467634749572,0.09367612488,-0.1102278800231344,,-8.627772e-06,1.1920929e-07,4.2915344e-06,0.99999994,1.7650425e-05,1.630187e-05,-1.7650425e-05,1.0,3.0994415e-06,-1.630187e-05,-3.1292439e-06,1.0,524,1.602,0,0,0.0,False,-0.2536223751789555,1.03676901435295
1.6176162459887564,16:59:44.277520,16:58:26.440014,0,,0.11906188,0.0022429228,0.020148829,-0.395379,0.7947603,-0.46046883,0.17983851,0.5585962,0.80970883,0.90074056,0.23733176,-0.36378577,,0.04251246,0.023690252,0.026926458,0.6535319,0.370945,0.6597694,-0.3189108,-0.6555754,0.6844828,0.68643415,-0.65773904,-0.3101412,,0.08274938,1.2879168,0.4254293,0.9915197,0.10186023,-0.08070448,0.019909797,-0.73274255,-0.68021464,-0.12842242,0.6728394,-0.7285567,,-0.114592165,0.22979459,-0.12316721,0.32712144,-0.81941265,0.47069573,0.7717638,0.519096,0.36731452,-0.5453185,0.24310948,0.80220044,,-0.05146693,0.4349259,-0.3390232,-0.69464505,-0.19155204,-0.6933802,0.21375537,-0.975321,0.05529524,-0.68686014,-0.10980317,0.7184472,,1.0042024011011614,0.38769663575181884,0.19674571104000002,1.9935222927073728,-0.7320983657432298,-0.12718658208079903,-0.4109736703938466,,-1.2044296963311802,0.2886139729755184,0.18415743885000002,-1.2241698900626532,-0.6614572953644973,-0.2964444760639973,0.8619666369905916,,-0.07621634677302738,-0.03363467634749572,0.09367612488,-0.1102278800231344,,-8.627772e-06,1.1920929e-07,4.2915344e-06,0.99999994,1.7650425e-05,1.630187e-05,-1.7650425e-05,1.0,3.0994415e-06,-1.630187e-05,-3.1292439e-06,1.0,532,1.627,0,0,0.0,False,-0.25350321974191337,1.036334492545935
1.6474937880411744,16:59:44.297563,16:58:26.440014,0,,0.11915764,0.002132386,0.020239279,-0.39431918,0.7974064,-0.4567881,0.18076974,0.55465674,0.81220573,0.9010187,0.2376948,-0.36285886,,0.042511553,0.02368885,0.026925266,0.653564,0.370753,0.6598457,-0.31904462,-0.65561473,0.6843829,0.6863416,-0.6578081,-0.3101995,,0.08274938,1.2879168,0.4254293,0.9915197,0.10186023,-0.08070448,0.019909797,-0.73274255,-0.68021464,-0.12842242,0.6728394,-0.7285567,,-0.114692144,0.22977035,-0.123305015,0.32602817,-0.8220075,0.46691465,0.77256507,0.5163206,0.36953527,-0.5448384,0.24024305,0.8033893,,-0.051465694,0.4349243,-0.3390235,-0.69464684,-0.19134896,-0.6934345,0.21359657,-0.9753626,0.055175275,-0.68690777,-0.10978788,0.71840405,,1.0036231961355946,0.3877120812175673,0.1966083043,1.9958288820857029,-0.7322350022429953,-0.12421640827218278,-0.41179039072451795,,-1.2044219735983062,0.2886139729755184,0.18415743885000002,-1.2239602001191687,-0.6614572953644973,-0.2964444760639973,0.8619666369905916,,-0.07621634677302738,-0.03363467634749572,0.09367612488,-0.1102278800231344,,-8.627772e-06,1.1920929e-07,4.2915344e-06,0.99999994,1.7650425e-05,1.630187e-05,-1.7650425e-05,1.0,3.0994415e-06,-1.630187e-05,-3.1292439e-06,1.0,540,1.652,0,0,0.0,False,-0.25308617571226666,1.036865574754509
1.6675558350980282,16:59:44.328717,16:58:26.630147,0,,0.119207196,0.002056934,0.020305395,-0.39323694,0.7991729,-0.45462894,0.18171936,0.5522649,0.8136225,0.90130055,0.23733148,-0.36239627,,0.04260996,0.02374564,0.026915729,0.6536686,0.3708005,0.6597153,-0.31893045,-0.6555708,0.6844782,0.6862949,-0.6578252,-0.31026655,,0.082817964,1.287918,0.42543066,0.99152166,0.101786375,-0.08077304,0.019809857,-0.7327528,-0.6802065,-0.12842242,0.6728394,-0.7285567,,-0.11480427,0.22975759,-0.12339078,0.3249318,-0.8236469,0.46478504,0.77335,0.51428944,0.37072378,-0.54437953,0.23898157,0.8040763,,-0.05162722,0.43492562,-0.33896953,-0.6947888,-0.19147801,-0.69325656,0.21365285,-0.97534513,0.055266034,-0.68674666,-0.10971802,0.7185687,,1.0026346863276938,0.3877584176148126,0.19646960127000002,1.9991839211814553,-0.7322350022429953,-0.12290954842993379,-0.41113701445998074,,-1.2044142508654319,0.2886139729755184,0.18415873514000003,-1.2239602001191687,-0.6614572953644973,-0.2964444760639973,0.8622933251228602,,-0.07621634677302738,-0.03363467634749572,0.09367612488,-0.1102278800231344,,5.9224665e-05,7.1525574e-06,-2.9802322e-06,0.99999994,-5.5782497e-05,-5.1513314e-05,5.5782497e-05,1.0,-9.834766e-06,5.1520765e-05,9.804964e-06,1.0,548,1.677,0,0,0.0,False,-0.25356279746043464,1.0372035361599652
1.6986873399000615,16:59:44.349389,16:58:26.630147,0,,0.11941137,0.0019146502,0.02034098,-0.39269054,0.8010312,-0.45182198,0.18240768,0.5493652,0.81542945,0.90139973,0.23779559,-0.36184484,,0.042595983,0.023738695,0.026911974,0.65373075,0.37075672,0.65967834,-0.3188936,-0.6555897,0.6844773,0.6862529,-0.65783095,-0.31034726,,0.082817964,1.287918,0.42543066,0.99152166,0.101786375,-0.08077304,0.019809857,-0.7327528,-0.6802065,-0.12842242,0.6728394,-0.7285567,,-0.115007915,0.22966605,-0.12350633,0.32436764,-0.8254821,0.4619145,0.77388406,0.512387,0.37224057,-0.5439569,0.23672546,0.80502915,,-0.051612098,0.43492112,-0.33897242,-0.69484884,-0.1914318,-0.6932092,0.2136313,-0.975353,0.05521006,-0.68669266,-0.10972854,0.71861875,,1.001707958382787,0.38782792221068063,0.19640478677,2.000232370898878,-0.733054821241588,-0.12134257486620909,-0.4109736703938467,,-1.204321578070941,0.2886139729755184,0.18415484627,-1.2239602001191687,-0.6614572953644973,-0.2964444760639973,0.8622933251228602,,-0.07621634677302738,-0.03363467634749572,0.09367612488,-0.1102278800231344,,5.9224665e-05,7.1525574e-06,-2.9802322e-06,0.99999994,-5.5782497e-05,-5.1513314e-05,5.5782497e-05,1.0,-9.834766e-06,5.1520765e-05,9.804964e-06,1.0,556,1.701,0,0,0.0,False,-0.2539202637715605,1.036865574754509
1.7193699718918651,16:59:44.376769,16:58:26.630147,0,,0.11958261,0.001821734,0.020346016,-0.3911503,0.803266,-0.44918275,0.1825544,0.5460897,0.817594,0.9020395,0.23780179,-0.36024305,,0.042574786,0.023727877,0.026902199,0.6536348,0.3705848,0.65987,-0.31895325,-0.6558063,0.68424195,0.68631655,-0.657712,-0.31045866,,0.082817964,1.287918,0.42543066,0.99152166,0.101786375,-0.08077304,0.019809857,-0.7327528,-0.6802065,-0.12842242,0.6728394,-0.7285567,,-0.11517741,0.22959146,-0.123567075,0.3227835,-0.8276534,0.4591303,0.7743337,0.5098748,0.3747465,-0.5442592,0.2345581,0.80545914,,-0.051588565,0.4349109,-0.33897448,-0.6947556,-0.19125143,-0.6933524,0.2136619,-0.9753613,0.054945264,-0.6867774,-0.10996946,0.71850085,,1.0006267757803955,0.38789742680654865,0.19635552775,2.003168030107661,-0.7345578227390079,-0.1197085842248456,-0.41113701445998085,,-1.2041594006805825,0.28860625024264414,0.18415354998000003,-1.2239602001191687,-0.6617305683640281,-0.2962216402566045,0.8622933251228602,,-0.07621634677302738,-0.03363467634749572,0.09367612488,-0.1102278800231344,,5.9224665e-05,7.1525574e-06,-2.9802322e-06,0.99999994,-5.5782497e-05,-5.1513314e-05,5.5782497e-05,1.0,-9.834766e-06,5.1520765e-05,9.804964e-06,1.0,564,1.726,0,0,0.0,False,-0.2537415306159976,1.0374449371638625
1.7467756399419159,16:59:44.406012,16:58:26.630147,0,,0.11985255,0.001644887,0.020324767,-0.39224446,0.8035013,-0.44780567,0.18300292,0.54525185,0.81805277,0.9014733,0.23892684,-0.36091518,,0.042532932,0.023716731,0.026885808,0.65373087,0.37040797,0.6598741,-0.3189159,-0.65592986,0.6841408,0.6862424,-0.65768826,-0.31067264,,0.082817964,1.287918,0.42543066,0.99152166,0.101786375,-0.08077304,0.019809857,-0.7327528,-0.6802065,-0.12842242,0.6728394,-0.7285567,,-0.11544199,0.22943185,-0.12366254,0.32390705,-0.8279532,0.45779657,0.7743392,0.5100222,0.37453455,-0.5435835,0.23317546,0.80631644,,-0.051543802,0.43489924,-0.33897233,-0.69484466,-0.19106519,-0.6933145,0.21360964,-0.9753855,0.054717895,-0.6867036,-0.11007823,0.71855474,,0.9987887653563301,0.38798237686816517,0.19627515777,2.003377720051146,-0.7351043687380696,-0.11877284016921652,-0.4114637025922495,,-1.2038813822971104,0.2886371411741411,0.18415225369000002,-1.2239602001191687,-0.6618672048637936,-0.29611022235290807,0.8626200132551287,,-0.07621634677302738,-0.03363467634749572,0.09367612488,-0.1102278800231344,,5.9224665e-05,7.1525574e-06,-2.9802322e-06,0.99999994,-5.5782497e-05,-5.1513314e-05,5.5782497e-05,1.0,-9.834766e-06,5.1520765e-05,9.804964e-06,1.0,593,1.815,0,0,0.0,False,-0.2532649088678296,1.0375414975654216
1.775949957082048,16:59:44.487761,16:58:26.772758,0,,0.1206671,0.0012481436,0.020213574,-0.3947,0.80799747,-0.43743786,0.18924233,0.53737384,0.8218373,0.8991102,0.2415974,-0.36500895,,0.042435914,0.02371977,0.02689159,0.64944524,0.3783288,0.6596121,-0.3128567,-0.6576815,0.68525594,0.69306684,-0.65140027,-0.30876547,,0.082817964,1.287918,0.42543066,0.99152166,0.101786375,-0.08077304,0.019809857,-0.7327528,-0.6802065,-0.12842242,0.6728394,-0.7285567,,-0.116239436,0.22901739,-0.12382239,0.32641366,-0.83248794,0.4476806,0.7774035,0.50585276,0.37384066,-0.5376783,0.22600175,0.8122963,,-0.05144965,0.43492356,-0.3389721,-0.6923325,-0.19947812,-0.69345814,0.22335766,-0.9730734,0.056916323,-0.6861392,-0.11548416,0.7182453,,0.9937535435223357,0.3886001954981031,0.19612219555000002,2.007571518920836,-0.7319617292434645,-0.11275918423947517,-0.4116270466583837,,-1.2031013862768136,0.2886371411741411,0.18415225369000002,-1.2359125268977864,-0.6662395728562877,-0.29115631085223304,0.8634367335858,,-0.07621634677302738,-0.03363467634749572,0.09367612488,-0.1102278800231344,,5.9224665e-05,7.1525574e-06,-2.9802322e-06,0.99999994,-5.5782497e-05,-5.1513314e-05,5.5782497e-05,1.0,-9.834766e-06,5.1520765e-05,9.804964e-06,1.0,597,1.827,0,0,0.0,False,-0.25403941920860307,1.0375414975654216
1.8577664499171078,16:59:44.507982,16:58:26.772758,0,,0.12087199,0.0011923164,0.020183802,-0.39567146,0.8081085,-0.43635383,0.1899243,0.5368566,0.8220181,0.89853925,0.24237484,-0.36589837,,0.04242474,0.023724718,0.026902974,0.6479876,0.38004446,0.6600592,-0.31099373,-0.65906286,0.6847768,0.6952661,-0.64900106,-0.30887318,,0.082817964,1.287918,0.42543066,0.99152166,0.101786375,-0.08077304,0.019809857,-0.7327528,-0.6802065,-0.12842242,0.6728394,-0.7285567,,-0.11644068,0.22894382,-0.123831056,0.32741103,-0.83264476,0.4466595,0.7775676,0.5060026,0.37329602,-0.5368339,0.22508675,0.81310844,,-0.051440842,0.43493742,-0.3389751,-0.69143635,-0.20131353,-0.6938217,0.22645868,-0.9723831,0.05645844,-0.6860264,-0.11808454,0.71793026,,0.9925719653925793,0.38893227301169475,0.19611312152000002,2.0077812088643205,-0.7316884562439336,-0.11241026886588412,-0.4127704551213236,,-1.2029855452837004,0.2886216957083926,0.1841509574,-1.239686945880508,-0.6676059378539421,-0.28832687827231696,0.8632733895196659,,-0.07621634677302738,-0.03363467634749572,0.09367612488,-0.1102278800231344,,5.9224665e-05,7.1525574e-06,-2.9802322e-06,0.99999994,-5.5782497e-05,-5.1513314e-05,5.5782497e-05,1.0,-9.834766e-06,5.1520765e-05,9.804964e-06,1.0,605,1.852,0,0,0.0,False,-0.2536223751789555,1.037396656963083
1.8779805048834532,16:59:44.527742,16:58:26.772758,0,,0.12110826,0.0011583492,0.020163149,-0.3954904,0.8096056,-0.43373507,0.19104254,0.53442,0.8233456,0.8983819,0.24276334,-0.36602718,,0.04241573,0.02371548,0.026892304,0.64843476,0.3786344,0.66043043,-0.31179383,-0.6593439,0.6841421,0.6944905,-0.64953953,-0.3094856,,0.082817964,1.287918,0.42543066,0.99152166,0.101786375,-0.08077304,0.019809857,-0.7327528,-0.6802065,-0.12842242,0.6728394,-0.7285567,,-0.116674244,0.22889046,-0.123830095,0.32722187,-0.83412236,0.44403347,0.77826077,0.5044069,0.37401044,-0.53594404,0.22318944,0.8142177,,-0.051429365,0.4349252,-0.33897552,-0.6916684,-0.19981925,-0.6940224,0.2252903,-0.97270787,0.055530734,-0.68617713,-0.11794765,0.71780866,,0.9913363281327034,0.38940335971702245,0.19610923265000002,2.009878108299166,-0.7315518197441682,-0.11137818440761271,-0.4114637025922495,,-1.2029237634207066,0.2886216957083926,0.1841509574,-1.2382191162761165,-0.6673326648544111,-0.28830467785928826,0.8627833573212632,,-0.07621634677302738,-0.03363467634749572,0.09367612488,-0.1102278800231344,,5.9224665e-05,7.1525574e-06,-2.9802322e-06,0.99999994,-5.5782497e-05,-5.1513314e-05,5.5782497e-05,1.0,-9.834766e-06,5.1520765e-05,9.804964e-06,1.0,613,1.877,0,0,0.0,False,-0.2536223751789555,1.0371552559591857
1.8977441329043359,16:59:44.551201,16:58:26.772758,0,,0.1214313,0.0011412799,0.020151138,-0.3954649,0.81146014,-0.4302788,0.19279501,0.53136927,0.82491016,0.8980187,0.24326737,-0.36658344,,0.042414676,0.023713423,0.026889622,0.6485673,0.37870637,0.6602589,-0.31186038,-0.6590786,0.68436736,0.6943368,-0.64976686,-0.30935338,,0.082817964,1.287918,0.42543066,0.99152166,0.101786375,-0.08077304,0.019809857,-0.7327528,-0.6802065,-0.12842242,0.6728394,-0.7285567,,-0.11699527,0.22884993,-0.12382037,0.3271913,-0.8359539,0.44059837,0.7792831,0.50242233,0.3745526,-0.5344752,0.22080049,0.815833,,-0.051427715,0.43492213,-0.33897546,-0.69176936,-0.19989285,-0.6939006,0.22510663,-0.97273487,0.055801757,-0.68613565,-0.117599666,0.7179054,,0.9897222769619904,0.3902374148674387,0.1961027512,2.012813767507949,-0.7308686372453409,-0.1101383416430024,-0.41179039072451806,,-1.2029237634207066,0.2886216957083926,0.1841509574,-1.2382191162761165,-0.6671960283546456,-0.28882448946368744,0.8636000776519345,,-0.07621634677302738,-0.03363467634749572,0.09367612488,-0.1102278800231344,,5.9224665e-05,7.1525574e-06,-2.9802322e-06,0.99999994,-5.5782497e-05,-5.1513314e-05,5.5782497e-05,1.0,-9.834766e-06,5.1520765e-05,9.804964e-06,1.0,621,1.902,0,0,0.0,False,-0.2539202637715605,1.0375897777662009
1.9212044379673898,16:59:44.577032,16:58:26.772758,0,,0.1216874,0.001153104,0.020153582,-0.39450514,0.81386137,-0.42660907,0.1941143,0.527599,0.8270181,0.89815664,0.24345192,-0.36612272,,0.04241713,0.023716642,0.026892543,0.64852554,0.37895963,0.6601547,-0.31173605,-0.6589729,0.6845257,0.69443166,-0.6497263,-0.30922544,,0.082817964,1.287918,0.42543066,0.99152166,0.101786375,-0.08077304,0.019809857,-0.7327528,-0.6802065,-0.12842242,0.6728394,-0.7285567,,-0.11725106,0.2288444,-0.1238039,0.32620102,-0.8382952,0.4368685,0.7802764,0.4996628,0.3761726,-0.5336306,0.21817029,0.8170925,,-0.051430933,0.43492588,-0.3389748,-0.69175696,-0.20016065,-0.69383574,0.22526334,-0.9726863,0.056016177,-0.6860967,-0.11754617,0.71795136,,0.9886179261609764,0.3909247380932447,0.19610664007000003,2.015959116660217,-0.7307320007455755,-0.10886122096430922,-0.4122804229229207,,-1.202939208886455,0.2886216957083926,0.1841509574,-1.2382191162761165,-0.6671960283546456,-0.28882448946368744,0.8636000776519345,,-0.07621634677302738,-0.03363467634749572,0.09367612488,-0.1102278800231344,,5.9224665e-05,7.1525574e-06,-2.9802322e-06,0.99999994,-5.5782497e-05,-5.1513314e-05,5.5782497e-05,1.0,-9.834766e-06,5.1520765e-05,9.804964e-06,1.0,629,1.927,0,0,0.0,False,-0.25332448658635043,1.0376380579669804
1.947038239100948,16:59:44.607306,16:58:26.901218,0,,0.122026466,0.0011840984,0.020160526,-0.3948473,0.81539416,-0.4233532,0.19477913,0.52461267,0.8287597,0.8978622,0.2447731,-0.36596376,,0.042415377,0.023717297,0.026892543,0.6485334,0.37895653,0.6601487,-0.3117355,-0.6589689,0.6845298,0.69442457,-0.6497322,-0.30922925,,0.082817964,1.287918,0.42543066,0.99152166,0.101786375,-0.08077304,0.019809857,-0.7327528,-0.6802065,-0.12842242,0.6728394,-0.7285567,,-0.11759026,0.22885075,-0.12377422,0.32655144,-0.83986497,0.4335793,0.7805788,0.49830428,0.37734547,-0.53297365,0.2152201,0.81830275,,-0.05142929,0.4349266,-0.33897427,-0.6917638,-0.20015734,-0.69382983,0.22525671,-0.9726878,0.056016836,-0.686092,-0.11753941,0.717957,,0.9870965477847542,0.39201364342851036,0.19611701039,2.017846326151578,-0.7307320007455755,-0.10730932490163858,-0.41179039072451806,,-1.2029314861535807,0.2886294184412668,0.1841509574,-1.2382191162761165,-0.6671960283546456,-0.28882448946368744,0.8636000776519345,,-0.07621634677302738,-0.03363467634749572,0.09367612488,-0.1102278800231344,,5.9224665e-05,7.1525574e-06,-2.9802322e-06,0.99999994,-5.5782497e-05,-5.1513314e-05,5.5782497e-05,1.0,-9.834766e-06,5.1520765e-05,9.804964e-06,1.0,637,1.951,0,0,0.0,False,-0.25344364202339253,1.0375897777662009
1.9772854009643197,16:59:44.626726,16:58:26.901218,0,,0.12223355,0.0012063384,0.020168066,-0.39563227,0.816457,-0.42056283,0.19473341,0.52208835,0.830363,0.8975266,0.2466207,-0.36554658,,0.042414725,0.02371837,0.02689308,0.648536,0.37895703,0.6601458,-0.31173804,-0.6589635,0.6845339,0.69442093,-0.6497374,-0.30922627,,0.082817964,1.287918,0.42543066,0.99152166,0.101786375,-0.08077304,0.019809857,-0.7327528,-0.6802065,-0.12842242,0.6728394,-0.7285567,,-0.11779771,0.22885932,-0.12375623,0.32735896,-0.8410116,0.43073848,0.7803641,0.49767074,0.3786234,-0.5327926,0.21218708,0.81921226,,-0.051428862,0.4349278,-0.33897376,-0.6917656,-0.20015782,-0.6938279,0.22525187,-0.9726886,0.05602216,-0.6860918,-0.11753183,0.71795845,,0.986162097106973,0.392724134852939,0.19612349184000002,2.0180560160950622,-0.7308686372453409,-0.10474754479372528,-0.411790390724518,,-1.2029314861535807,0.2886371411741411,0.1841509574,-1.2382191162761165,-0.6671960283546456,-0.28882448946368744,0.8636000776519345,,-0.07621634677302738,-0.03363467634749572,0.09367612488,-0.1102278800231344,,5.9224665e-05,7.1525574e-06,-2.9802322e-06,0.99999994,-5.5782497e-05,-5.1513314e-05,5.5782497e-05,1.0,-9.834766e-06,5.1520765e-05,9.804964e-06,1.0,666,2.04,0,0,0.0,False,-0.25213293221593025,1.0377346183685394
1.9967331290245056,16:59:44.710342,16:58:26.901218,0,,0.12283008,0.0012482926,0.020067722,-0.39747435,0.817973,-0.41585353,0.20097515,0.51978886,0.8303183,0.895334,0.24645397,-0.3709951,,0.042412706,0.023715062,0.026890278,0.6485464,0.3788374,0.6602043,-0.31172365,-0.6590909,0.6844177,0.6944177,-0.64967793,-0.3093585,,0.082817964,1.287918,0.42543066,0.99152166,0.101786375,-0.08077304,0.019809857,-0.7327528,-0.6802065,-0.12842242,0.6728394,-0.7285567,,-0.11838626,0.2287843,-0.12363105,0.3292416,-0.8424711,0.42642975,0.783509,0.49579328,0.37456992,-0.52698535,0.21078756,0.8233195,,-0.051426075,0.43492398,-0.33897454,-0.69177717,-0.20003213,-0.6938526,0.22525622,-0.97269815,0.05583862,-0.68607867,-0.117666736,0.71794885,,0.9834668633338687,0.3943845224208973,0.19619997295000002,2.022040125021268,-0.7255398137544887,-0.10615240839282553,-0.411790390724518,,-1.202908317954958,0.2886216957083926,0.1841509574,-1.2382191162761165,-0.6671960283546456,-0.28866113198340626,0.8632733895196659,,-0.07621634677302738,-0.03363467634749572,0.09367612488,-0.1102278800231344,,5.9224665e-05,7.1525574e-06,-2.9802322e-06,0.99999994,-5.5782497e-05,-5.1513314e-05,5.5782497e-05,1.0,-9.834766e-06,5.1520765e-05,9.804964e-06,1.0,670,2.053,0,0,0.0,False,-0.2529074425567037,1.0366724539513914
2.0803503890056163,16:59:44.731134,16:58:26.901218,0,,0.12292675,0.0012150556,0.020016193,-0.39792857,0.81773776,-0.41588208,0.20115042,0.52005726,0.83010775,0.8950929,0.24666867,-0.37143397,,0.04240985,0.02371533,0.026889682,0.6485595,0.37834534,0.6604736,-0.31172,-0.6595914,0.683937,0.6944071,-0.6494567,-0.30984652,,0.082817964,1.287918,0.42543066,0.99152166,0.101786375,-0.08077304,0.019809857,-0.7327528,-0.6802065,-0.12842242,0.6728394,-0.7285567,,-0.11847842,0.2287189,-0.1236127,0.3297086,-0.8422564,0.4264931,0.7834992,0.49614972,0.37411824,-0.52670795,0.210807,0.82349205,,-0.051423218,0.43492422,-0.33897394,-0.6917891,-0.19951493,-0.6939897,0.2252478,-0.9727411,0.05511955,-0.6860694,-0.118188545,0.71787196,,0.9828181537724338,0.3944231360852684,0.19622589875000002,2.022040125021268,-0.7256764502542542,-0.10644938418983196,-0.411790390724518,,-1.2028928724892096,0.2886294184412668,0.1841509574,-1.2382191162761165,-0.6671960283546456,-0.2879260233221412,0.862129981056726,,-0.07621634677302738,-0.03363467634749572,0.09367612488,-0.1102278800231344,,5.9224665e-05,7.1525574e-06,-2.9802322e-06,0.99999994,-5.5782497e-05,-5.1513314e-05,5.5782497e-05,1.0,-9.834766e-06,5.1520765e-05,9.804964e-06,1.0,682,2.09,0,0,0.0,False,-0.2523116653714932,1.036431052947494
2.1011405419558287,16:59:44.767753,16:58:27.050786,0,,0.12295214,0.0011772662,0.019966096,-0.3979088,0.81706,-0.41723087,0.20137346,0.52147937,0.82916105,0.8950515,0.2459112,-0.37203556,,0.04241141,0.023717148,0.02689141,0.6485517,0.37840694,0.66044587,-0.31172875,-0.659527,0.68399525,0.69441044,-0.6494862,-0.30977708,,0.082817964,1.287918,0.42543066,0.99152166,0.101786375,-0.08077304,0.019809857,-0.7327528,-0.6802065,-0.12842242,0.6728394,-0.7285567,,-0.11849951,0.2286556,-0.12360134,0.32968792,-0.8415518,0.42789775,0.7836316,0.4967055,0.373102,-0.5265238,0.21230699,0.8232244,,-0.05142522,0.43492636,-0.33897358,-0.69178075,-0.19957969,-0.6939793,0.22524652,-0.97273606,0.05521366,-0.68607825,-0.118120685,0.71787477,,0.9825092444574648,0.3942300677634128,0.19624793568,2.022249814964753,-0.7258130867540197,-0.1082165773093684,-0.4111370144599808,,-1.202908317954958,0.2886371411741411,0.1841509574,-1.2382191162761165,-0.6671960283546456,-0.28800770206228177,0.8619666369905917,,-0.07621634677302738,-0.03363467634749572,0.09367612488,-0.1102278800231344,,5.9224665e-05,7.1525574e-06,-2.9802322e-06,0.99999994,-5.5782497e-05,-5.1513314e-05,5.5782497e-05,1.0,-9.834766e-06,5.1520765e-05,9.804964e-06,1.0,690,2.115,0,0,0.0,False,-0.2532649088678296,1.036431052947494
2.1377037670463324,16:59:44.786833,16:58:27.050786,0,,0.12293805,0.0011552572,0.019929916,-0.39772898,0.8170305,-0.4174599,0.20160207,0.52169865,0.82896745,0.89508,0.24554357,-0.3722099,,0.04241141,0.023717148,0.02689141,0.6485517,0.37846088,0.660415,-0.31172875,-0.6594711,0.68404907,0.69441044,-0.64951146,-0.309724,,0.082817964,1.287918,0.42543066,0.99152166,0.101786375,-0.08077304,0.019809857,-0.7327528,-0.6802065,-0.12842242,0.6728394,-0.7285567,,-0.1184825,0.22861572,-0.12359078,0.32950255,-0.84150016,0.42814195,0.783806,0.49661484,0.3728562,-0.52638024,0.21272318,0.8232088,,-0.05142522,0.43492636,-0.33897358,-0.69178075,-0.19963636,-0.69396305,0.22524652,-0.97273153,0.055293113,-0.68607825,-0.11806205,0.71788436,,0.9824629080602194,0.3940138312429345,0.19626608374,2.0224595049082374,-0.7258130867540197,-0.10854329226993065,-0.4111370144599808,,-1.202908317954958,0.2886371411741411,0.1841509574,-1.2382191162761165,-0.6671960283546456,-0.2880893808024223,0.8621299810567259,,-0.07621634677302738,-0.03363467634749572,0.09367612488,-0.1102278800231344,,5.9224665e-05,7.1525574e-06,-2.9802322e-06,0.99999994,-5.5782497e-05,-5.1513314e-05,5.5782497e-05,1.0,-9.834766e-06,5.1520765e-05,9.804964e-06,1.0,694,2.127,0,0,0.0,False,-0.2536223751789555,1.036431052947494
2.156835886882618,16:59:44.807962,16:58:27.050786,0,,0.12290595,0.001136899,0.019895226,-0.39743322,0.8170892,-0.41762674,0.20126882,0.52165174,0.82907796,0.8952863,0.24544778,-0.3717764,,0.042412292,0.02371685,0.026889741,0.648549,0.3784604,0.66041785,-0.3117262,-0.65947664,0.6840449,0.69441414,-0.6495063,-0.30972695,,0.082817964,1.287918,0.42543066,0.99152166,0.101786375,-0.08077304,0.019809857,-0.7327528,-0.6802065,-0.12842242,0.6728394,-0.7285567,,-0.118447706,0.22858061,-0.12357951,0.32919878,-0.84155107,0.4282756,0.7836871,0.49651164,0.3732435,-0.5267473,0.21276274,0.8229637,,-0.051425826,0.43492475,-0.33897284,-0.69177896,-0.19963588,-0.69396496,0.22525136,-0.97273076,0.05528779,-0.6860785,-0.11806963,0.71788293,,0.9824937989917163,0.3937589810580851,0.19628812067,2.0224595049082374,-0.7263596327530815,-0.10834265687556671,-0.4113003585261152,,-1.202908317954958,0.2886294184412668,0.18415225369000002,-1.2382191162761165,-0.6671960283546456,-0.2880893808024223,0.8621299810567259,,-0.07621634677302738,-0.03363467634749572,0.09367612488,-0.1102278800231344,,5.9224665e-05,7.1525574e-06,-2.9802322e-06,0.99999994,-5.5782497e-05,-5.1513314e-05,5.5782497e-05,1.0,-9.834766e-06,5.1520765e-05,9.804964e-06,1.0,702,2.152,0,0,0.0,False,-0.252847864838182,1.0358999707389198
2.177956969011575,16:59:44.829475,16:58:27.050786,0,,0.1228626,0.0011255443,0.01984799,-0.39701393,0.81689024,-0.41841397,0.20165443,0.5223793,0.828526,0.8953855,0.24456133,-0.3721215,,0.042410538,0.023717506,0.026889801,0.6485569,0.3784034,0.6604428,-0.31172568,-0.6595285,0.6839951,0.694407,-0.64948666,-0.30978382,,0.082817964,1.287918,0.42543066,0.99152166,0.101786375,-0.08077304,0.019809857,-0.7327528,-0.6802065,-0.12842242,0.6728394,-0.7285567,,-0.11840091,0.2285427,-0.123554744,0.32876676,-0.8413025,0.429095,0.7840092,0.49644518,0.37265497,-0.5265377,0.21389788,0.8228036,,-0.051424183,0.4349255,-0.3389723,-0.6917858,-0.19957589,-0.6939754,0.22524475,-0.9727367,0.055208992,-0.6860737,-0.118121505,0.71787894,,0.9826096399848298,0.3934655172088645,0.19632052792000002,2.0228788847952064,-0.726222996253316,-0.1094342196609498,-0.4113003585261152,,-1.202900595222084,0.2886371411741411,0.18415225369000002,-1.2382191162761165,-0.6671960283546456,-0.2880077020622817,0.8622933251228602,,-0.07621634677302738,-0.03363467634749572,0.09367612488,-0.1102278800231344,,5.9224665e-05,7.1525574e-06,-2.9802322e-06,0.99999994,-5.5782497e-05,-5.1513314e-05,5.5782497e-05,1.0,-9.834766e-06,5.1520765e-05,9.804964e-06,1.0,735,2.253,0,0,0.0,False,-0.2527287094011399,1.036431052947494
2.1994815638754517,16:59:44.927333,16:58:27.193235,0,,0.12254014,0.0011495426,0.019585967,-0.3941626,0.81715715,-0.42058295,0.20132911,0.5232915,0.82802933,0.89671755,0.24170253,-0.3707795,,0.0424068,0.023718072,0.026887596,0.64857525,0.3783392,0.66046154,-0.311719,-0.65958357,0.6839451,0.69439286,-0.64946824,-0.30985412,,0.082817964,1.287918,0.42543066,0.99152166,0.101786375,-0.08077304,0.019809857,-0.7327528,-0.6802065,-0.12842242,0.6728394,-0.7285567,,-0.11806112,0.22840059,-0.12336095,0.32583416,-0.8413817,0.43117157,0.78450924,0.4951337,0.37334684,-0.5276148,0.21660894,0.8214032,,-0.05142029,0.43492484,-0.33897042,-0.6918028,-0.19950832,-0.6939779,0.22523455,-0.9727441,0.055120863,-0.68606,-0.11817504,0.7178832,,0.9837989408474603,0.3919132479011454,0.19656034157000002,2.024346714399598,-0.7275893612509704,-0.11101543904862415,-0.41179039072451795,,-1.2028774270234612,0.28864486390701527,0.18415354998000003,-1.2382191162761165,-0.6671960283546456,-0.2879260233221412,0.862129981056726,,-0.07621634677302738,-0.03363467634749572,0.09367612488,-0.1102278800231344,,5.9224665e-05,7.1525574e-06,-2.9802322e-06,0.99999994,-5.5782497e-05,-5.1513314e-05,5.5782497e-05,1.0,-9.834766e-06,5.1520765e-05,9.804964e-06,1.0,743,2.278,0,0,0.0,False,-0.25403941920860307,1.036865574754509
2.2973396200686693,16:59:44.953537,16:58:27.193235,0,,0.12245702,0.0011976734,0.0194996,-0.39259458,0.8175676,-0.42125145,0.2007891,0.52316815,0.82823837,0.89752614,0.24057914,-0.36955172,,0.04240661,0.023720575,0.026889324,0.64857537,0.37834382,0.66045886,-0.31172717,-0.659571,0.6839535,0.6943891,-0.6494783,-0.3098415,,0.082817964,1.287918,0.42543066,0.99152166,0.101786375,-0.08077304,0.019809857,-0.7327528,-0.6802065,-0.12842242,0.6728394,-0.7285567,,-0.11797294,0.22838151,-0.12326849,0.32422245,-0.841709,0.43174732,0.7845741,0.49424958,0.3743806,-0.52851045,0.21735516,0.8206299,,-0.051420648,0.4349277,-0.33896953,-0.6918013,-0.1995131,-0.693978,0.22522664,-0.97274506,0.055136174,-0.68606406,-0.118159056,0.717882,,0.9841773547582973,0.391588893120428,0.19666534106000003,2.0256048540605054,-0.7286824532490939,-0.11175767062186398,-0.41211707885678656,,-1.2028851497563353,0.2886603093727637,0.18415354998000003,-1.2382191162761165,-0.6671960283546456,-0.2879260233221412,0.862129981056726,,-0.07621634677302738,-0.03363467634749572,0.09367612488,-0.1102278800231344,,5.9224665e-05,7.1525574e-06,-2.9802322e-06,0.99999994,-5.5782497e-05,-5.1513314e-05,5.5782497e-05,1.0,-9.834766e-06,5.1520765e-05,9.804964e-06,1.0,751,2.302,0,0,0.0,False,-0.25386068605304013,1.0370104153568473
2.32354064588435,16:59:44.979409,16:58:27.193235,0,,0.12241281,0.0012270361,0.019441724,-0.39230034,0.8170897,-0.422451,0.20055693,0.5241985,0.8276429,0.8977067,0.23995906,-0.3695164,,0.04239997,0.023718221,0.026885867,0.64860666,0.37832227,0.6604404,-0.31170866,-0.65958023,0.683953,0.6943681,-0.6494814,-0.3098819,,0.082817964,1.287918,0.42543066,0.99152166,0.101786375,-0.08077304,0.019809857,-0.7327528,-0.6802065,-0.12842242,0.6728394,-0.7285567,,-0.11792525,0.22836594,-0.12320808,0.3239203,-0.84120655,0.4329517,0.784511,0.49460268,0.3740463,-0.5287893,0.21849418,0.8201477,,-0.05141336,0.43492487,-0.33896914,-0.6918316,-0.19949035,-0.69395435,0.22521594,-0.9727491,0.055108175,-0.686037,-0.118163995,0.717907,,0.9843704230801529,0.39142671573006926,0.19673145185000002,2.0256048540605054,-0.7289557262486248,-0.11292337339686076,-0.4116270466583837,,-1.2028388133590902,0.2886603093727637,0.18415354998000003,-1.2382191162761165,-0.6671960283546456,-0.2879260233221411,0.8624566691889944,,-0.07621634677302738,-0.03363467634749572,0.09367612488,-0.1102278800231344,,5.9224665e-05,7.1525574e-06,-2.9802322e-06,0.99999994,-5.5782497e-05,-5.1513314e-05,5.5782497e-05,1.0,-9.834766e-06,5.1520765e-05,9.804964e-06,1.0,759,2.328,0,0,0.0,False,-0.2537415306159976,1.0362862123451555
2.349410613067448,16:59:45.004250,16:58:27.193235,0,,0.122354046,0.0013119131,0.019313812,-0.39162862,0.8173932,-0.42248696,0.19945344,0.5236604,0.82825,0.8982457,0.24009983,-0.36811244,,0.042397544,0.0237184,0.02688539,0.64858824,0.37850326,0.66035473,-0.3115663,-0.65954375,0.68405306,0.6944492,-0.649413,-0.3098436,,0.082817964,1.287918,0.42543066,0.99152166,0.101786375,-0.08077304,0.019809857,-0.7327528,-0.6802065,-0.12842242,0.6728394,-0.7285567,,-0.117859066,0.22834362,-0.12305932,0.32323155,-0.8415098,0.43287706,0.78403735,0.49428964,0.3754507,-0.5299121,0.21803425,0.81954515,,-0.051410936,0.43492505,-0.33896863,-0.6918427,-0.19968209,-0.6938882,0.22536859,-0.97270775,0.05521452,-0.68597573,-0.11818084,0.7179628,,0.9846407187307508,0.3912490928739621,0.19689219181,2.0256048540605054,-0.7301854547465138,-0.11216564848401467,-0.41179039072451806,,-1.2028233678933415,0.2886603093727637,0.18415354998000003,-1.238428806219601,-0.6671960283546456,-0.28792602332214123,0.8627833573212631,,-0.07621634677302738,-0.03363467634749572,0.09367612488,-0.1102278800231344,,5.9224665e-05,7.1525574e-06,-2.9802322e-06,0.99999994,-5.5782497e-05,-5.1513314e-05,5.5782497e-05,1.0,-9.834766e-06,5.1520765e-05,9.804964e-06,1.0,767,2.353,0,0,0.0,False,-0.25344364202339253,1.0365758935498322
2.374221736099571,16:59:45.024376,16:58:27.193235,0,,0.1223317,0.001356475,0.019251645,-0.39151296,0.8174128,-0.42255637,0.19941828,0.5236734,0.8282502,0.89830387,0.2400052,-0.3680321,,0.04239533,0.023717655,0.026884198,0.6485987,0.37838823,0.66041046,-0.31156015,-0.6596586,0.6839451,0.6944423,-0.64936346,-0.3099631,,0.082817964,1.287918,0.42543066,0.99152166,0.101786375,-0.08077304,0.019809857,-0.7327528,-0.6802065,-0.12842242,0.6728394,-0.7285567,,-0.117833145,0.22833478,-0.12298446,0.32311273,-0.8415228,0.4329406,0.7840445,0.49423304,0.37551016,-0.5299739,0.21811259,0.8194843,,-0.051408507,0.4349241,-0.33896852,-0.69185275,-0.19956115,-0.6939129,0.22536503,-0.9727181,0.055046286,-0.68596673,-0.11829977,0.71795183,,0.9847720051896126,0.39120275647671676,0.19696867292000003,2.0256048540605054,-0.7301854547465138,-0.11216564848401467,-0.41179039072451806,,-1.2028079224275932,0.2886603093727637,0.18415354998000003,-1.238428806219601,-0.6671960283546456,-0.28776266584186005,0.862783357321263,,-0.07621634677302738,-0.03363467634749572,0.09367612488,-0.1102278800231344,,5.9224665e-05,7.1525574e-06,-2.9802322e-06,0.99999994,-5.5782497e-05,-5.1513314e-05,5.5782497e-05,1.0,-9.834766e-06,5.1520765e-05,9.804964e-06,1.0,775,2.377,0,0,0.0,False,-0.25350321974191337,1.0370104153568473
2.394318416947499,16:59:45.054842,16:58:27.193235,0,,0.122313336,0.0014421195,0.019145727,-0.3907588,0.8179724,-0.42217132,0.19799936,0.52259153,0.82927334,0.89894587,0.24045615,-0.36616534,,0.042385608,0.023714824,0.026878059,0.6486457,0.37824807,0.66044456,-0.31153235,-0.6597842,0.68383664,0.6944108,-0.6493175,-0.31012973,,0.082817964,1.287918,0.42543066,0.99152166,0.101786375,-0.08077304,0.019809857,-0.7327528,-0.6802065,-0.12842242,0.6728394,-0.7285567,,-0.11780881,0.22832559,-0.12284951,0.32234004,-0.8420939,0.43240586,0.7834073,0.4937217,0.3775076,-0.531385,0.21706408,0.81884867,,-0.051397756,0.43491942,-0.33896673,-0.6918982,-0.1994137,-0.69390994,0.22534898,-0.9727332,0.05484539,-0.68592614,-0.118424475,0.71797,,0.9848724007169775,0.3911873110109683,0.1971138574,2.02581454400399,-0.731825092743699,-0.1109919911199388,-0.41179039072451806,,-1.202738417831725,0.2886603093727637,0.18415484627,-1.238428806219601,-0.6671960283546456,-0.2875993083615789,0.8624566691889944,,-0.07621634677302738,-0.03363467634749572,0.09367612488,-0.1102278800231344,,5.9224665e-05,7.1525574e-06,-2.9802322e-06,0.99999994,-5.5782497e-05,-5.1513314e-05,5.5782497e-05,1.0,-9.834766e-06,5.1520765e-05,9.804964e-06,1.0,796,2.442,0,0,0.0,False,-0.2536223751789555,1.0365758935498322
2.424835704965517,16:59:45.114479,16:58:27.377506,0,,0.122291274,0.0014723018,0.019037843,-0.39084402,0.81781715,-0.42239326,0.19679642,0.52252954,0.8295987,0.899173,0.24111816,-0.36517113,,0.04235852,0.023711158,0.02686745,0.6488988,0.37803563,0.6603176,-0.3115524,-0.6597403,0.68386984,0.69416535,-0.64948577,-0.3103268,,0.082817964,1.287918,0.42543066,0.99152166,0.101786375,-0.08077304,0.019809857,-0.7327528,-0.6802065,-0.12842242,0.6728394,-0.7285567,,-0.11777968,0.22827499,-0.12275139,0.32243013,-0.8419849,0.43255082,0.7826944,0.49413955,0.37843832,-0.53237987,0.21653518,0.8183424,,-0.051369235,0.43491402,-0.33896255,-0.69211096,-0.19918771,-0.6937627,0.22510053,-0.9727968,0.054737203,-0.6857931,-0.11828215,0.7181206,,0.9848337870526064,0.39098651995623845,0.19722793092000002,2.0249757842300515,-0.733054821241588,-0.11007090872681158,-0.41130035852611524,,-1.2025762404413665,0.28869892303713485,0.18415484627,-1.2382191162761165,-0.6670593918548803,-0.2877107262652753,0.8624566691889944,,-0.07621634677302738,-0.03363467634749572,0.09367612488,-0.1102278800231344,,5.9224665e-05,7.1525574e-06,-2.9802322e-06,0.99999994,-5.5782497e-05,-5.1513314e-05,5.5782497e-05,1.0,-9.834766e-06,5.1520765e-05,9.804964e-06,1.0,804,2.466,0,0,0.0,False,-0.2524903985270561,1.0370104153568473
2.484471274074167,16:59:45.142308,16:58:27.377506,0,,0.12228179,0.0014560223,0.019040644,-0.38924745,0.81918573,-0.4212138,0.1956935,0.5203819,0.831208,0.9001058,0.24111672,-0.36286673,,0.04235255,0.02370925,0.026864469,0.6489563,0.37788397,0.6603478,-0.31167573,-0.65972614,0.6838273,0.69405615,-0.64958835,-0.3103563,,0.082817964,1.287918,0.42543066,0.99152166,0.101786375,-0.08077304,0.019809857,-0.7327528,-0.6802065,-0.12842242,0.6728394,-0.7285567,,-0.117770135,0.22826567,-0.122764975,0.32079104,-0.84331185,0.43118235,0.78243375,0.4924946,0.38111213,-0.53375137,0.2151143,0.8178235,,-0.051362727,0.43491173,-0.33896214,-0.692137,-0.19902658,-0.693783,0.22493054,-0.9728392,0.054682966,-0.6858226,-0.11820487,0.71810514,,0.9847951733882353,0.390832065298754,0.19722793092000002,2.0264436138344437,-0.7349677322383041,-0.1085927368152022,-0.41113701445998085,,-1.2025376267769954,0.2887066457700091,0.18415484627,-1.2380094263326318,-0.6670593918548803,-0.2877924050054158,0.8622933251228602,,-0.07621634677302738,-0.03363467634749572,0.09367612488,-0.1102278800231344,,5.9224665e-05,7.1525574e-06,-2.9802322e-06,0.99999994,-5.5782497e-05,-5.1513314e-05,5.5782497e-05,1.0,-9.834766e-06,5.1520765e-05,9.804964e-06,1.0,812,2.491,0,0,0.0,False,-0.25308617571226666,1.0370104153568473
2.512289853999391,16:59:45.163929,16:58:27.377506,0,,0.12223945,0.001429446,0.019045949,-0.386686,0.819718,-0.42253548,0.19280109,0.51990896,0.8321793,0.9018324,0.24032675,-0.3590842,,0.042349685,0.023709519,0.026863933,0.6489695,0.37782338,0.66036963,-0.31167215,-0.6597796,0.68377733,0.69404554,-0.6495694,-0.31041986,,0.082817964,1.287918,0.42543066,0.99152166,0.101786375,-0.08077304,0.019809857,-0.7327528,-0.6802065,-0.12842242,0.6728394,-0.7285567,,-0.11772781,0.22825262,-0.12278877,0.31816489,-0.8437782,0.43221456,0.7813577,0.49157745,0.384489,-0.5368904,0.21538326,0.8156953,,-0.05135987,0.43491197,-0.33896154,-0.69214886,-0.19896282,-0.6937894,0.22492212,-0.9728458,0.054599497,-0.68581337,-0.1182576,0.71810526,,0.9848183415868579,0.39050771051803657,0.19723311608000002,2.0281211333823195,-0.7390668272312674,-0.10917077923105656,-0.41130035852611513,,-1.2025221813112468,0.2887143685028833,0.18415484627,-1.2380094263326318,-0.6670593918548803,-0.2877107262652753,0.8624566691889944,,-0.07621634677302738,-0.03363467634749572,0.09367612488,-0.1102278800231344,,5.9224665e-05,7.1525574e-06,-2.9802322e-06,0.99999994,-5.5782497e-05,-5.1513314e-05,5.5782497e-05,1.0,-9.834766e-06,5.1520765e-05,9.804964e-06,1.0,820,2.516,0,0,0.0,False,-0.25356279746043464,1.0368172945537295
