AlexandreBanks6/ExpertPlaybackApp/resources/Motions/P_19/PC1/Data_PC1_5.csv
Task Time,PC1 Time,PC2 Time,Gaze Calib,s_T_psm1,Tx,Ty,Tz,R00,R01,R02,R10,R11,R12,R20,R21,R22,s_T_psm3,Tx,Ty,Tz,R00,R01,R02,R10,R11,R12,R20,R21,R22,cart_T_ecm,Tx,Ty,Tz,R00,R01,R02,R10,R11,R12,R20,R21,R22,ecm_T_psm1,Tx,Ty,Tz,R00,R01,R02,R10,R11,R12,R20,R21,R22,ecm_T_psm3,Tx,Ty,Tz,R00,R01,R02,R10,R11,R12,R20,R21,R22,psm1_joints,q1,q2,q3,q4,q5,q6,jaw,psm3_joints,q1,q2,q3,q4,q5,q6,jaw,ecm_joints,q1,q2,q3,q4,ecmi_T_ecm,Tx,Ty,Tz,R00,R01,R02,R10,R11,R12,R20,R21,R22,Sample #,Task Duration (s),Collisions (binary),Collisions (increments),Cumulative Collision Time (s),Clutch Press,MTMR Angle,MTML Angle
""
lci_T_si,,,,,-0.050445605,0.031140205,0.20799266,0.9865919,-0.013161347,0.16267522,0.100886725,-0.734317,-0.67126775,0.12828997,0.67867905,-0.7231434
rci_T_si,,,,,-0.059559833,0.035046782,0.21627636,0.9849687,-0.028336054,0.17039265,0.097400196,-0.72355855,-0.6833566,0.14265269,0.6896812,-0.7099226
ecm_T_lc,,,,,-4.4061628e-05,-0.00034663224,-0.01840835,-0.99912,0.030754527,0.028518902,-0.031987965,-0.99852574,-0.043852776,0.027128186,-0.04472645,0.9986309
ecm_T_rc,,,,,-0.0043358393,0.01870579,-0.007592615,-0.99555075,-0.052743673,-0.078081585,0.04863213,-0.9973746,0.053654674,-0.08070653,0.04961868,0.9955021
cart_T_ecmi,,,,,0.08296387,1.2897631,0.42729735,0.9916556,0.10047608,-0.08076963,0.018945528,-0.7333144,-0.6796257,-0.12751566,0.6724244,-0.7290989
ecmac_T_ecmrep_psm1,,,,,0.022898523,-0.26913688,-0.29720387,0.9902475,0.13300471,0.041468147,-0.1315095,0.99062705,-0.036922794,-0.045990374,0.031109251,0.9984574
ecmac_T_ecmrep_psm3,,,,,0.02078248,-0.4666591,-0.5231304,0.997355,0.0035024614,0.07259993,-0.011652398,0.993624,0.11214125,-0.07174426,-0.1126906,0.99103665
""
0,16:10:52.876361,16:09:35.061210,0,,0.12916131,-0.0033666044,0.015325695,0.97283703,-0.051476434,-0.2256949,0.22378322,0.45861518,0.859996,0.059237555,-0.8871428,0.45767745,,0.08667712,-0.012325267,0.022738993,-0.20666863,-0.6047505,0.7691323,-0.7679057,0.58739483,0.2555156,-0.6063077,-0.5378141,-0.58578753,,0.08295776,1.2897642,0.42729595,0.99165565,0.10047324,-0.08077226,0.01894169,-0.73331475,-0.6796254,-0.12751566,0.6724244,-0.7290989,,-0.12543918,0.25087392,-0.09277851,-0.9539303,0.16100286,0.25317004,0.20171776,-0.2804726,0.9384269,0.22209668,0.9462628,0.23507416,,-0.09608951,0.42333844,-0.33467877,0.3192048,0.6589744,-0.6810734,-0.915756,0.029502712,-0.40065017,-0.2439247,0.7515865,0.6128772,,1.0577595535839084,0.5389926954907512,0.21985467287000002,3.8272608484795385,0.21670548862798855,-1.375344306825275,-0.4134238313858608,,-1.4337639717641513,0.14911824906840107,0.20083420970000002,0.7077035592602697,-0.021042020963877826,-0.3866613340856908,0.8020193647193111,,-0.07627525163528219,-0.034472434388453,0.0910472212,-0.1089195372335423,,-5.8598816e-06,-2.3245811e-06,8.34465e-07,1.0,-2.82377e-06,-2.6002526e-06,2.82377e-06,1.0,-4.7683716e-07,2.6151538e-06,5.066395e-07,1.0,36,0.108,0,0,0.0,False,-0.26148663402373185,0.976418763378627
0.1279978931415826,16:10:52.905065,16:09:35.170726,0,,0.12894702,-0.0034505427,0.01544264,0.97234213,-0.04634974,-0.22891575,0.22438179,0.45744753,0.8604619,0.064834744,-0.8880279,0.45519555,,0.08667709,-0.012327175,0.02273947,-0.20667158,-0.60474706,0.7691342,-0.7679083,0.5873945,0.25550842,-0.6063033,-0.5378183,-0.5857882,,0.08295776,1.2897642,0.42729595,0.99165565,0.10047324,-0.08077226,0.01894169,-0.73331475,-0.6796254,-0.12751566,0.6724244,-0.7290989,,-0.1252426,0.25089416,-0.09294464,-0.9538591,0.15589246,0.25661334,0.20601496,-0.28193417,0.9370544,0.21842778,0.94668406,0.2368093,,-0.0960895,0.42333767,-0.3346806,0.31920716,0.65897167,-0.681075,-0.91575384,0.029498763,-0.40065536,-0.24392965,0.75158906,0.61287206,,1.0588330134534256,0.5383285404635679,0.21967967372000002,3.8226476697228793,0.21164993813666727,-1.3733454916321621,-0.41309714325359215,,-1.4337639717641513,0.14911052633552682,0.20083291341,0.7077035592602697,-0.021042020963877826,-0.3866613340856908,0.8020193647193111,,-0.07627525163528219,-0.034472434388453,0.0910472212,-0.1089195372335423,,-5.8598816e-06,-2.3245811e-06,8.34465e-07,1.0,-2.82377e-06,-2.6002526e-06,2.82377e-06,1.0,-4.7683716e-07,2.6151538e-06,5.066395e-07,1.0,43,0.128,0,0,0.0,False,-0.26041423509035333,0.976515323780186
0.15670508705079556,16:10:52.924265,16:09:35.170726,0,,0.12882948,-0.0035362989,0.015541077,0.97206223,-0.046139926,-0.23014331,0.22526154,0.45895094,0.8594308,0.065970406,-0.8872627,0.4565225,,0.08667594,-0.012327443,0.022738636,-0.20667484,-0.60475177,0.7691297,-0.7679101,0.58739233,0.255508,-0.6062998,-0.5378155,-0.5857943,,0.08295776,1.2897642,0.42729595,0.99165565,0.10047324,-0.08077226,0.01894169,-0.73331475,-0.6796254,-0.12751566,0.6724244,-0.7290989,,-0.12514074,0.2509002,-0.09308764,-0.95360714,0.15573755,0.25764158,0.20743574,-0.28031844,0.9372257,0.21818292,0.9471892,0.23500814,,-0.09608822,0.42333698,-0.3346803,0.31920993,0.65897596,-0.68106955,-0.9157519,0.029500253,-0.40065974,-0.24393341,0.7515853,0.6128752,,1.0593041001587533,0.5380119084157247,0.21953578553000003,3.8209701501750026,0.21083011913807462,-1.3751273464142004,-0.4127704551213236,,-1.4337562490312772,0.14911052633552682,0.20083291341,0.7077035592602697,-0.021042020963877826,-0.3866613340856908,0.8020193647193111,,-0.07627525163528219,-0.034472434388453,0.0910472212,-0.1089195372335423,,-5.8598816e-06,-2.3245811e-06,8.34465e-07,1.0,-2.82377e-06,-2.6002526e-06,2.82377e-06,1.0,-4.7683716e-07,2.6151538e-06,5.066395e-07,1.0,51,0.153,0,0,0.0,False,-0.2611887454311268,0.9765636039809653
0.175884349970147,16:10:52.952690,16:09:35.170726,0,,0.12878916,-0.0035915002,0.015645921,0.97181386,-0.041809328,-0.23201227,0.22504573,0.45769912,0.86015457,0.07022932,-0.88812363,0.4542074,,0.08667468,-0.012328665,0.022740483,-0.20667484,-0.60475177,0.7691297,-0.7679101,0.58739233,0.255508,-0.6062998,-0.5378155,-0.5857943,,0.08295776,1.2897642,0.42729595,0.99165565,0.10047324,-0.08077226,0.01894169,-0.73331475,-0.6796254,-0.12751566,0.6724244,-0.7290989,,-0.12511374,0.25093266,-0.09320546,-0.9537327,0.15140943,0.25974807,0.21021965,-0.2818233,0.9361535,0.21494552,0.9474444,0.23695487,,-0.09608722,0.42333785,-0.3346825,0.31920993,0.65897596,-0.68106955,-0.9157519,0.029500253,-0.40065974,-0.24393341,0.7515853,0.6128752,,1.0596439004052192,0.5379269583541082,0.21941004540000003,3.818244180909704,0.20714093364440772,-1.3730175291559434,-0.4126071110551893,,-1.4337562490312772,0.14911052633552682,0.20083032083000002,0.7077035592602697,-0.021042020963877826,-0.3866613340856908,0.8020193647193111,,-0.07627525163528219,-0.034472434388453,0.0910472212,-0.1089195372335423,,-5.8598816e-06,-2.3245811e-06,8.34465e-07,1.0,-2.82377e-06,-2.6002526e-06,2.82377e-06,1.0,-4.7683716e-07,2.6151538e-06,5.066395e-07,1.0,59,0.178,0,0,0.0,False,-0.26136747858668974,0.9758394009692735
0.204330129083246,16:10:52.977952,16:09:35.170726,0,,0.12874016,-0.003652878,0.015873015,0.9712199,-0.034822583,-0.23562515,0.22509703,0.45759422,0.860197,0.07786642,-0.888479,0.45226306,,0.08667646,-0.012334446,0.022739649,-0.2066866,-0.60480094,0.76908785,-0.7679207,0.5873701,0.25552738,-0.60628253,-0.5377845,-0.5858407,,0.08295776,1.2897642,0.42729595,0.99165565,0.10047324,-0.08077226,0.01894169,-0.73331475,-0.6796254,-0.12751566,0.6724244,-0.7290989,,-0.12508883,0.25104508,-0.093416385,-0.9537761,0.14448996,0.26350287,0.21552905,-0.28215235,0.9348461,0.20942384,0.9484264,0.23796839,,-0.09608867,0.42333338,-0.33468646,0.3192193,0.6590206,-0.6810219,-0.91574335,0.029517189,-0.40067798,-0.24395318,0.7515455,0.6129162,,1.0603235008981509,0.53805824481297,0.21918319465000002,3.813001932322591,0.2009922911549629,-1.3715975880557891,-0.41260711105518943,,-1.4337562490312772,0.14907963540402994,0.20082902454,0.7077035592602697,-0.021042020963877826,-0.3865796553455503,0.8018560206531768,,-0.07627525163528219,-0.034472434388453,0.0910472212,-0.1089195372335423,,-5.8598816e-06,-2.3245811e-06,8.34465e-07,1.0,-2.82377e-06,-2.6002526e-06,2.82377e-06,1.0,-4.7683716e-07,2.6151538e-06,5.066395e-07,1.0,70,0.21,0,0,0.0,False,-0.26112916771260597,0.9758394009692735
0.22956543997861445,16:10:53.011057,16:09:35.283059,0,,0.12869845,-0.0036601424,0.016095072,0.9709843,-0.026564144,-0.23766312,0.22290899,0.4604558,0.8592392,0.086608365,-0.88728505,0.45301673,,0.086676985,-0.012336771,0.022742033,-0.206508,-0.60514355,0.7688663,-0.7680153,0.5871195,0.25581858,-0.60622346,-0.53767264,-0.58600456,,0.08295776,1.2897642,0.42729595,0.99165565,0.10047324,-0.08077226,0.01894169,-0.73331475,-0.6796254,-0.12751566,0.6724244,-0.7290989,,-0.1250665,0.25119314,-0.09358572,-0.9544426,0.13640945,0.26538977,0.21998042,-0.27926698,0.93467563,0.2016132,0.95047486,0.2365369,,-0.09608947,0.42333373,-0.3346897,0.31903702,0.65935063,-0.68078786,-0.9157806,0.02949577,-0.40059447,-0.24405186,0.75125676,0.61323076,,1.0611807242471898,0.5382513131348257,0.21899264002000002,3.8088081334529007,0.19252082816950558,-1.372694194560386,-0.4122804229229209,,-1.4337639717641513,0.14907191267115572,0.20082643196000002,0.7074938693167852,-0.021042020963877826,-0.38617126164484744,0.8008759562563711,,-0.07627525163528219,-0.034472434388453,0.0910472212,-0.1089195372335423,,-5.8598816e-06,-2.3245811e-06,8.34465e-07,1.0,-2.82377e-06,-2.6002526e-06,2.82377e-06,1.0,-4.7683716e-07,2.6151538e-06,5.066395e-07,1.0,82,0.247,0,0,0.0,False,-0.2622015666459845,0.975791120768494
0.2626817610580474,16:10:53.048429,16:09:35.283059,0,,0.12868446,-0.0036180243,0.0165312,0.96990186,-0.012152277,-0.24319243,0.22078475,0.46507943,0.85729533,0.102685705,-0.88518554,0.45376456,,0.08667667,-0.012341241,0.02274251,-0.20627566,-0.6050156,0.76902944,-0.7680563,0.5870572,0.25583863,-0.60625064,-0.53788465,-0.58578175,,0.08295776,1.2897642,0.42729595,0.99165565,0.10047324,-0.08077226,0.01894169,-0.73331475,-0.6796254,-0.12751566,0.6724244,-0.7290989,,-0.1250857,0.25152466,-0.09387188,-0.9548752,0.12227785,0.27066866,0.22954226,-0.27448845,0.93379146,0.18847743,0.95378417,0.23403427,,-0.09608909,0.42333138,-0.3346935,0.31881276,0.6592577,-0.6809829,-0.91585875,0.029275618,-0.40043193,-0.24405164,0.75134695,0.6131204,,1.062663488959041,0.5390622000866192,0.21866856752000002,3.7995817759395814,0.17858390519343065,-1.3742348093255599,-0.41326048731972653,,-1.4337562490312772,0.14904874447253302,0.20082383938,0.7072841793733007,-0.020905384464112386,-0.38636435828868443,0.8008759562563711,,-0.07627525163528219,-0.034472434388453,0.0910472212,-0.1089195372335423,,-5.8598816e-06,-2.3245811e-06,8.34465e-07,1.0,-2.82377e-06,-2.6002526e-06,2.82377e-06,1.0,-4.7683716e-07,2.6151538e-06,5.066395e-07,1.0,90,0.272,0,0,0.0,False,-0.2618441003348577,0.9750669177568021
0.3000642969273031,16:10:53.070765,16:09:35.283059,0,,0.12865473,-0.0035609975,0.016765207,0.96955776,-0.004529491,-0.24482061,0.21857244,0.4667161,0.8569727,0.11038008,-0.88439554,0.45349827,,0.08667782,-0.012340973,0.022743464,-0.2062724,-0.6050109,0.76903397,-0.7680545,0.5870594,0.25583902,-0.6062541,-0.5378875,-0.5857756,,0.08295776,1.2897642,0.42729595,0.99165565,0.10047324,-0.08077226,0.01894169,-0.73331475,-0.6796254,-0.12751566,0.6724244,-0.7290989,,-0.12507126,0.2517275,-0.09400436,-0.9553483,0.114766896,0.27228317,0.23325306,-0.27276748,0.9333761,0.18139067,0.95521015,0.23381825,,-0.09609036,0.42333207,-0.3346938,0.31881,0.6592535,-0.6809883,-0.9158607,0.029274128,-0.40042752,-0.2440479,0.7513507,0.6131172,,1.0636442760340674,0.5395101185933242,0.21851560530000003,3.7960170469003445,0.17106889770633144,-1.3737426576919556,-0.4121170788567865,,-1.4337639717641513,0.14904874447253302,0.20082383938,0.7072841793733007,-0.020905384464112386,-0.3863643582886845,0.8012026443886398,,-0.07627525163528219,-0.034472434388453,0.0910472212,-0.1089195372335423,,-5.8598816e-06,-2.3245811e-06,8.34465e-07,1.0,-2.82377e-06,-2.6002526e-06,2.82377e-06,1.0,-4.7683716e-07,2.6151538e-06,5.066395e-07,1.0,101,0.305,0,0,0.0,False,-0.2622015666459845,0.9747289563513459
0.3223752900958061,16:10:53.104072,16:09:35.283059,0,,0.12849513,-0.0034301206,0.017152011,0.96727043,0.007086493,-0.25364858,0.22101338,0.46756816,0.8558815,0.12466318,-0.88392854,0.45069873,,0.08667863,-0.012345145,0.022744775,-0.20621502,-0.60534394,0.7687872,-0.76799977,0.58698004,0.256185,-0.6063429,-0.5375993,-0.5859482,,0.08295776,1.2897642,0.42729595,0.99165565,0.10047324,-0.08077226,0.01894169,-0.73331475,-0.6796254,-0.12751566,0.6724244,-0.7290989,,-0.12493476,0.25208935,-0.094210856,-0.9540776,0.1032546,0.28120172,0.24488091,-0.27184168,0.930664,0.17253768,0.9567866,0.23407297,,-0.096091226,0.4233304,-0.33469784,0.31876475,0.65954226,-0.6807298,-0.91590345,0.029493729,-0.40031356,-0.24394645,0.7510886,0.6134786,,1.0658143639717246,0.5401202144903879,0.21827968052000002,3.783855030178242,0.16095779672368885,-1.3717869958092437,-0.4116270466583838,,-1.4337639717641513,0.14902557627391036,0.20082124680000002,0.7072841793733007,-0.020768747964346947,-0.38590402501139687,0.8000592359256997,,-0.07627525163528219,-0.034472434388453,0.0910472212,-0.1089195372335423,,-5.8598816e-06,-2.3245811e-06,8.34465e-07,1.0,-2.82377e-06,-2.6002526e-06,2.82377e-06,1.0,-4.7683716e-07,2.6151538e-06,5.066395e-07,1.0,109,0.329,0,0,0.0,False,-0.261427056305211,0.9743909949458898
0.3557075019925833,16:10:53.124528,16:09:35.283059,0,,0.1283331,-0.003337346,0.017375052,0.96614546,0.0076756254,-0.25788382,0.22432576,0.4687463,0.85437393,0.12743995,-0.88329947,0.4511553,,0.08674477,-0.01233394,0.022740543,-0.2061658,-0.60528564,0.7688463,-0.76797235,0.58700925,0.25620025,-0.60639435,-0.53763306,-0.585864,,0.08295776,1.2897642,0.42729595,0.99165565,0.10047324,-0.08077226,0.01894169,-0.73331475,-0.6796254,-0.12751566,0.6724244,-0.7290989,,-0.12478518,0.25231063,-0.094326034,-0.9529331,0.10270882,0.28525338,0.24919559,-0.2705556,0.92989314,0.17268512,0.95720977,0.23222676,,-0.09615633,0.42332503,-0.334682,0.3187229,0.6594887,-0.6808013,-0.9159331,0.029477658,-0.400247,-0.24388994,0.7511363,0.6134427,,1.0669882193686067,0.5404445692711054,0.21814227378000003,3.7788224715346135,0.16054788722439253,-1.372596244460122,-0.41293379918745776,,-1.4337485262984029,0.14901013080816192,0.20082124680000002,0.7072841793733007,-0.02063211146458151,-0.38601544291509327,0.8000592359256997,,-0.07627525163528219,-0.034472434388453,0.0910472212,-0.1089195372335423,,-5.8598816e-06,-2.3245811e-06,8.34465e-07,1.0,-2.82377e-06,-2.6002526e-06,2.82377e-06,1.0,-4.7683716e-07,2.6151538e-06,5.066395e-07,1.0,117,0.354,0,0,0.0,False,-0.261427056305211,0.9741013137412129
0.37613261211663485,16:10:53.154265,16:09:35.434697,0,,0.1280509,-0.0032182336,0.017665148,0.9651091,0.011998132,-0.26157272,0.22566569,0.46856955,0.85411805,0.13281287,-0.88334507,0.44951326,,0.08669379,-0.012340271,0.022746503,-0.2061979,-0.6052007,0.7689046,-0.7679711,0.5870482,0.2561149,-0.606385,-0.5376862,-0.58582485,,0.08301123,1.2897632,0.42730203,0.99165624,0.10045068,-0.080793165,0.018911185,-0.73331785,-0.6796229,-0.12751566,0.6724244,-0.7290989,,-0.12456825,0.2525896,-0.09447543,-0.95223826,0.098418385,0.28906083,0.253897,-0.2707183,0.9285731,0.1696427,0.9576144,0.23280019,,-0.0961563,0.42332345,-0.33468562,0.31872758,0.6594276,-0.68085825,-0.91592884,0.029437076,-0.40025976,-0.24389985,0.75119156,0.61337113,,1.0690115753816536,0.5406916967230806,0.21797764495000002,3.773370533004016,0.1564487922314293,-1.370478888451338,-0.4121170788567865,,-1.4337485262984029,0.14899468534241347,0.20081865422000003,0.7072841793733007,-0.02063211146458151,-0.38609712165523385,0.800222579991834,,-0.07627525163528219,-0.034472434388453,0.0910472212,-0.1089195372335423,,4.636869e-05,7.867813e-06,-7.2717667e-06,1.0,-2.5257468e-05,-2.3283064e-05,2.5257468e-05,1.0,-4.4107437e-06,2.3290515e-05,4.4107437e-06,1.0,125,0.378,0,0,0.0,False,-0.26106958999408425,0.9740530335404334
0.40590193308889866,16:10:53.180381,16:09:35.434697,0,,0.12787615,-0.0031308904,0.017796397,0.96400815,0.015194371,-0.2654378,0.22740819,0.47011763,0.8528042,0.13774481,-0.88247293,0.449742,,0.08668822,-0.012344801,0.022752285,-0.2062012,-0.60533094,0.7688012,-0.76797295,0.5870042,0.25621045,-0.6063816,-0.5375877,-0.5859188,,0.08301123,1.2897632,0.42730203,0.99165624,0.10045068,-0.080793165,0.018911185,-0.73331785,-0.6796229,-0.12751566,0.6724244,-0.7290989,,-0.124398775,0.2527436,-0.09452983,-0.95142007,0.09529124,0.29277885,0.25856337,-0.26899967,0.92778456,0.16716716,0.95841473,0.23129286,,-0.09615149,0.42332587,-0.3346931,0.31873038,0.65954304,-0.6807451,-0.9159269,0.029503955,-0.40025932,-0.24390359,0.75108755,0.613497,,1.0703939445661397,0.5406530830587095,0.21791412674000002,3.768128284416903,0.1530328797372933,-1.3711239479448314,-0.41244376698905505,,-1.4337408035655286,0.14899468534241347,0.20080958019000003,0.7072841793733007,-0.02063211146458151,-0.38593376417495273,0.7995692037272969,,-0.07627525163528219,-0.034472434388453,0.0910472212,-0.1089195372335423,,4.636869e-05,7.867813e-06,-7.2717667e-06,1.0,-2.5257468e-05,-2.3283064e-05,2.5257468e-05,1.0,-4.4107437e-06,2.3290515e-05,4.4107437e-06,1.0,133,0.403,0,0,0.0,False,-0.26095043455704303,0.9737150721349774
0.4320194451138377,16:10:53.204535,16:09:35.434697,0,,0.12769036,-0.0030641407,0.017912418,0.9626989,0.0176166,-0.2700005,0.2298246,0.4733992,0.85033756,0.14279808,-0.88067174,0.45169222,,0.08668275,-0.012351268,0.02276206,-0.20613793,-0.60523134,0.76889664,-0.767913,0.58707184,0.25623506,-0.60647905,-0.53762597,-0.58578277,,0.08301123,1.2897632,0.42730203,0.99165624,0.10045068,-0.080793165,0.018911185,-0.73331785,-0.6796229,-0.12751566,0.6724244,-0.7290989,,-0.12421868,0.25287217,-0.09458868,-0.95035243,0.092990905,0.29695615,0.2638013,-0.26538467,0.927351,0.16504282,0.95964766,0.22767784,,-0.09614734,0.4233302,-0.3347046,0.31868047,0.6594481,-0.68086046,-0.91597384,0.029502537,-0.40015185,-0.24379225,0.751171,0.6134391,,1.0717299773533806,0.540498628401225,0.21784801595000003,3.7622569659993363,0.14989024024268818,-1.3740338117492312,-0.4114637025922492,,-1.4337408035655286,0.14898696260953925,0.20079661729,0.7072841793733007,-0.020495474964816067,-0.3860451820786492,0.7995692037272969,,-0.07627525163528219,-0.034472434388453,0.0910472212,-0.1089195372335423,,4.636869e-05,7.867813e-06,-7.2717667e-06,1.0,-2.5257468e-05,-2.3283064e-05,2.5257468e-05,1.0,-4.4107437e-06,2.3290515e-05,4.4107437e-06,1.0,144,0.436,0,0,0.0,False,-0.26053339052739544,0.9735219513318596
0.45617631496861577,16:10:53.233241,16:09:35.434697,0,,0.12739083,-0.0029880777,0.018129617,0.9605582,0.02387052,-0.27705225,0.233096,0.4741755,0.8490135,0.15163781,-0.8801067,0.4499091,,0.08667853,-0.01235553,0.02276361,-0.2061474,-0.6051744,0.76893884,-0.7679192,0.58708805,0.25617915,-0.6064679,-0.53767234,-0.5857518,,0.08301123,1.2897632,0.42730203,0.99165624,0.10045068,-0.080793165,0.018911185,-0.73331785,-0.6796229,-0.12751566,0.6724244,-0.7290989,,-0.12393329,0.25307748,-0.094726875,-0.94870806,0.08679146,0.30400708,0.27227247,-0.26443973,0.9251699,0.1606884,0.96048886,0.22724518,,-0.09614326,0.42332935,-0.33470914,0.31868836,0.65939826,-0.68090504,-0.9159678,0.02946889,-0.4001682,-0.2438047,0.75121605,0.61337894,,1.073876897092415,0.5402128872848787,0.21769764631000002,3.7528209185425325,0.14387823425300877,-1.373133682253476,-0.4114637025922494,,-1.4337253580997802,0.148979239876665,0.20079143213000003,0.7072841793733007,-0.020495474964816067,-0.3861268608187898,0.7994058596611626,,-0.07627525163528219,-0.034472434388453,0.0910472212,-0.1089195372335423,,4.636869e-05,7.867813e-06,-7.2717667e-06,1.0,-2.5257468e-05,-2.3283064e-05,2.5257468e-05,1.0,-4.4107437e-06,2.3290515e-05,4.4107437e-06,1.0,152,0.46,0,0,0.0,False,-0.26190367805337944,0.9734736711310801
0.4848361921031028,16:10:53.260288,16:09:35.434697,0,,0.12726204,-0.0029624626,0.018201858,0.96074826,0.026578061,-0.27614498,0.23097047,0.47475082,0.8492728,0.15367208,-0.8797188,0.44997737,,0.08668018,-0.012355649,0.022766411,-0.20614083,-0.6052278,0.7688985,-0.7679156,0.58707154,0.2562279,-0.60647476,-0.5376302,-0.58578336,,0.08301123,1.2897632,0.42730203,0.99165624,0.10045068,-0.080793165,0.018911185,-0.73331785,-0.6796229,-0.12751566,0.6724244,-0.7290989,,-0.12380938,0.25314602,-0.09477595,-0.94923276,0.084114246,0.30312032,0.2721385,-0.26375872,0.92540365,0.15779026,0.9609142,0.2274777,,-0.09614531,0.42333117,-0.33471087,0.3186828,0.65944535,-0.68086207,-0.91597176,0.029498592,-0.400157,-0.2437972,0.75117356,0.61343396,,1.074772734105825,0.5399580371000293,0.21764190584,3.7528209185425325,0.14005241225957646,-1.3723826644140527,-0.41244376698905527,,-1.4337408035655286,0.148979239876665,0.20079013584000002,0.7072841793733007,-0.020495474964816067,-0.3860451820786492,0.7992425155950283,,-0.07627525163528219,-0.034472434388453,0.0910472212,-0.1089195372335423,,4.636869e-05,7.867813e-06,-7.2717667e-06,1.0,-2.5257468e-05,-2.3283064e-05,2.5257468e-05,1.0,-4.4107437e-06,2.3290515e-05,4.4107437e-06,1.0,160,0.485,0,0,0.0,False,-0.261427056305211,0.9738599127373155
0.5119211049750447,16:10:53.282919,16:09:35.434697,0,,0.12714578,-0.0029529557,0.018259257,0.95958,0.03191404,-0.2796203,0.23152319,0.47536442,0.84877896,0.16000949,-0.87920994,0.44876137,,0.08667831,-0.0123555595,0.022768736,-0.20613793,-0.60523134,0.76889664,-0.767913,0.58707184,0.25623506,-0.60647905,-0.53762597,-0.58578277,,0.08301123,1.2897632,0.42730203,0.99165624,0.10045068,-0.080793165,0.018911185,-0.73331785,-0.6796229,-0.12751566,0.6724244,-0.7290989,,-0.12369794,0.25319263,-0.09482397,-0.9485579,0.0788187,0.30663574,0.27691418,-0.2629694,0.9242108,0.15348092,0.96157926,0.2276157,,-0.09614381,0.4233333,-0.33471236,0.31868047,0.6594481,-0.68086046,-0.91597384,0.029502537,-0.40015185,-0.24379225,0.751171,0.6134391,,1.0755527301261216,0.5396336823193119,0.21758875795000002,3.747788359898904,0.1351334982680206,-1.3720471631873068,-0.41244376698905527,,-1.4337408035655286,0.14898696260953925,0.20078754326,0.7072841793733007,-0.020495474964816067,-0.3860451820786492,0.7989158274627598,,-0.07627525163528219,-0.034472434388453,0.0910472212,-0.1089195372335423,,4.636869e-05,7.867813e-06,-7.2717667e-06,1.0,-2.5257468e-05,-2.3283064e-05,2.5257468e-05,1.0,-4.4107437e-06,2.3290515e-05,4.4107437e-06,1.0,168,0.509,0,0,0.0,False,-0.2608908568385213,0.9731839899264032
0.5345325840171427,16:10:53.310866,16:09:35.573371,0,,0.12694642,-0.0029649884,0.01832655,0.9576406,0.037097275,-0.2855663,0.23401748,0.47763032,0.8468206,0.16780984,-0.8777773,0.44871688,,0.08667834,-0.012360328,0.022767425,-0.20615001,-0.6052257,0.7688978,-0.76792264,0.5870686,0.25621322,-0.6064626,-0.5376358,-0.58579075,,0.08301123,1.2897632,0.42730203,0.99165624,0.10045068,-0.080793165,0.018911185,-0.73331785,-0.6796229,-0.12751566,0.6724244,-0.7290989,,-0.12350644,0.2532306,-0.09490337,-0.94708747,0.07372689,0.3123935,0.2841054,-0.26034665,0.9227696,0.14936353,0.9626962,0.22562484,,-0.0961435,0.42332935,-0.3347153,0.31869024,0.6594441,-0.68085974,-0.9159655,0.029492194,-0.40017173,-0.24381083,0.75117487,0.6134269,,1.076695694591507,0.5390235864222481,0.21750449910000003,3.7400298319899763,0.12966803827740297,-1.3736346738098515,-0.4134238313858607,,-1.4337330808326545,0.14896379441091656,0.20078624697000003,0.7072841793733007,-0.020495474964816067,-0.3860451820786492,0.7989158274627598,,-0.07627525163528219,-0.034472434388453,0.0910472212,-0.1089195372335423,,4.636869e-05,7.867813e-06,-7.2717667e-06,1.0,-2.5257468e-05,-2.3283064e-05,2.5257468e-05,1.0,-4.4107437e-06,2.3290515e-05,4.4107437e-06,1.0,176,0.534,0,0,0.0,False,-0.2617249448978165,0.9731839899264032
0.5624906281009316,16:10:53.332157,16:09:35.573371,0,,0.12680258,-0.0029855892,0.01839307,0.955873,0.04158608,-0.29082152,0.23668519,0.47740775,0.8462045,0.17403078,-0.8776972,0.44649845,,0.086677715,-0.012360924,0.022768438,-0.20615001,-0.6052257,0.7688978,-0.76792264,0.5870686,0.25621322,-0.6064626,-0.5376358,-0.58579075,,0.08301123,1.2897632,0.42730203,0.99165624,0.10045068,-0.080793165,0.018911185,-0.73331785,-0.6796229,-0.12751566,0.6724244,-0.7290989,,-0.1233707,0.25326177,-0.09498176,-0.94564235,0.06924344,0.31775132,0.29033166,-0.26045737,0.9207983,0.14651991,0.9629991,0.22619595,,-0.096143,0.4233298,-0.3347164,0.31869024,0.6594441,-0.68085974,-0.9159655,0.029492194,-0.40017173,-0.24381083,0.75117487,0.6134269,,1.0775220270090489,0.53860655884704,0.21742283283000002,3.733319753798472,0.12584221628397066,-1.3726386197500062,-0.4121170788567865,,-1.4337330808326545,0.14896379441091656,0.20078495068000002,0.7072841793733007,-0.020495474964816067,-0.3860451820786492,0.7992425155950283,,-0.07627525163528219,-0.034472434388453,0.0910472212,-0.1089195372335423,,4.636869e-05,7.867813e-06,-7.2717667e-06,1.0,-2.5257468e-05,-2.3283064e-05,2.5257468e-05,1.0,-4.4107437e-06,2.3290515e-05,4.4107437e-06,1.0,187,0.567,0,0,0.0,False,-0.26136747858668974,0.9729425889225058
0.583795232931152,16:10:53.361974,16:09:35.573371,0,,0.12651478,-0.0029975176,0.018530041,0.9543431,0.045016304,-0.2953009,0.23881713,0.47883838,0.844796,0.17943099,-0.87674814,0.44622546,,0.08667943,-0.012363964,0.022769392,-0.20615259,-0.6053398,0.7688073,-0.76792616,0.58702826,0.2562952,-0.6064573,-0.53755134,-0.5858737,,0.08301123,1.2897632,0.42730203,0.99165624,0.10045068,-0.080793165,0.018911185,-0.73331785,-0.6796229,-0.12751566,0.6724244,-0.7290989,,-0.123097144,0.253348,-0.09512128,-0.9444066,0.06586825,0.32211405,0.29560348,-0.25877085,0.91959566,0.14392589,0.96369034,0.22491403,,-0.09614475,0.42332846,-0.33471927,0.31869212,0.6595456,-0.68076056,-0.91596323,0.029548183,-0.40017283,-0.24381699,0.75108355,0.61353624,,1.0791283554468876,0.5379578492856051,0.21728024093000003,3.7272387454374205,0.12174312129100744,-1.37313498342572,-0.4122804229229209,,-1.4337408035655286,0.14894834894516812,0.20078365439,0.7072841793733007,-0.020495474964816067,-0.38588182459836806,0.7989158274627597,,-0.07627525163528219,-0.034472434388453,0.0910472212,-0.1089195372335423,,4.636869e-05,7.867813e-06,-7.2717667e-06,1.0,-2.5257468e-05,-2.3283064e-05,2.5257468e-05,1.0,-4.4107437e-06,2.3290515e-05,4.4107437e-06,1.0,195,0.591,0,0,0.0,False,-0.2607717014014801,0.972749468119388
0.6135491330642253,16:10:53.384592,16:09:35.573371,0,,0.1261722,-0.0029736087,0.018617004,0.9515716,0.047182366,-0.30378467,0.24519664,0.47959054,0.8425388,0.18544522,-0.87622297,0.44479576,,0.08667705,-0.012363487,0.022769868,-0.20615296,-0.6053479,0.76880085,-0.76792526,0.5870265,0.25630197,-0.6064583,-0.5375443,-0.5858792,,0.08301123,1.2897632,0.42730203,0.99165624,0.10045068,-0.080793165,0.018911185,-0.73331785,-0.6796229,-0.12751566,0.6724244,-0.7290989,,-0.12276221,0.2534257,-0.09520653,-0.94165695,0.06373132,0.33048522,0.3043739,-0.2578666,0.9169849,0.14366175,0.96407634,0.22342372,,-0.09614248,0.42332944,-0.33471936,0.3186926,0.6595526,-0.6807536,-0.91596335,0.02955362,-0.40017205,-0.24381578,0.75107723,0.6135445,,1.0809354749394562,0.5371855759981826,0.21719598208000002,3.7171736281501633,0.11969357379452583,-1.3735873621139283,-0.41260711105518943,,-1.4337330808326545,0.14895607167804234,0.20078235810000003,0.7072841793733007,-0.020495474964816067,-0.38588182459836806,0.7985891393304912,,-0.07627525163528219,-0.034472434388453,0.0910472212,-0.1089195372335423,,4.636869e-05,7.867813e-06,-7.2717667e-06,1.0,-2.5257468e-05,-2.3283064e-05,2.5257468e-05,1.0,-4.4107437e-06,2.3290515e-05,4.4107437e-06,1.0,203,0.616,0,0,0.0,False,-0.2618441003348577,0.9723149463123728
0.6362091661430895,16:10:53.413061,16:09:35.573371,0,,0.12587997,-0.0029284433,0.01868251,0.9497216,0.048304264,-0.30934682,0.2496486,0.47945273,0.8413089,0.18895602,-0.8762373,0.44328752,,0.08667705,-0.012363487,0.022769868,-0.20615296,-0.6053479,0.76880085,-0.76792526,0.5870265,0.25630197,-0.6064583,-0.5375443,-0.5858792,,0.08301123,1.2897632,0.42730203,0.99165624,0.10045068,-0.080793165,0.018911185,-0.73331785,-0.6796229,-0.12751566,0.6724244,-0.7290989,,-0.12247384,0.25350392,-0.09525607,-0.9397643,0.0626072,0.33604074,0.31002054,-0.25797734,0.9150601,0.14398025,0.9641203,0.22302838,,-0.09614248,0.42332944,-0.33471936,0.3186926,0.6595526,-0.6807536,-0.91596335,0.02955362,-0.40017205,-0.24381578,0.75107723,0.6135445,,1.0825031897129238,0.5365832028339932,0.21714801935000003,3.710463549958658,0.1186004817964023,-1.3730227338449192,-0.4122804229229209,,-1.4337330808326545,0.14895607167804234,0.20078235810000003,0.7072841793733007,-0.020495474964816067,-0.38588182459836806,0.7985891393304912,,-0.07627525163528219,-0.034472434388453,0.0910472212,-0.1089195372335423,,4.636869e-05,7.867813e-06,-7.2717667e-06,1.0,-2.5257468e-05,-2.3283064e-05,2.5257468e-05,1.0,-4.4107437e-06,2.3290515e-05,4.4107437e-06,1.0,211,0.64,0,0,0.0,False,-0.2613079008681689,0.972121825509255
0.664666912984103,16:10:53.440735,16:09:35.700477,0,,0.12540907,-0.002840355,0.018807977,0.94836336,0.04820629,-0.31350094,0.25329542,0.47980684,0.840016,0.19091396,-0.8760488,0.4428209,,0.08667842,-0.012364232,0.022772014,-0.20608638,-0.6053691,0.7688019,-0.7678635,0.5870545,0.25642294,-0.60655916,-0.5374898,-0.58582485,,0.08301123,1.2897632,0.42730203,0.99165624,0.10045068,-0.080793165,0.018911185,-0.73331785,-0.6796229,-0.12751566,0.6724244,-0.7290989,,-0.122009605,0.25365478,-0.095339656,-0.9382936,0.06271646,0.34010556,0.31401223,-0.25759092,0.91380703,0.14491884,0.96421653,0.22200216,,-0.09614414,0.4233305,-0.33472118,0.31863987,0.65956455,-0.68076664,-0.91601235,0.029616069,-0.40005535,-0.2437007,0.75106424,0.61360615,,1.0850671370271663,0.5357105340192058,0.21706764937000003,3.7050116114280605,0.1175073897982788,-1.3725397843160505,-0.41244376698905505,,-1.4337408035655286,0.14894834894516812,0.20078106181000002,0.7072841793733007,-0.020358838465050627,-0.38582988502178334,0.797935763065954,,-0.07627525163528219,-0.034472434388453,0.0910472212,-0.1089195372335423,,4.636869e-05,7.867813e-06,-7.2717667e-06,1.0,-2.5257468e-05,-2.3283064e-05,2.5257468e-05,1.0,-4.4107437e-06,2.3290515e-05,4.4107437e-06,1.0,219,0.665,0,0,0.0,False,-0.26154621174225356,0.9719287047061373
0.6923747691325843,16:10:53.464455,16:09:35.700477,0,,0.12510997,-0.002788879,0.018874764,0.947326,0.04856407,-0.31656724,0.25584498,0.47983682,0.83922577,0.19265686,-0.87601256,0.44213706,,0.08668018,-0.012365305,0.022772491,-0.20608602,-0.60536104,0.7688085,-0.7678643,0.58705634,0.2564162,-0.60655814,-0.53749686,-0.5858193,,0.08301123,1.2897632,0.42730203,0.99165624,0.10045068,-0.080793165,0.018911185,-0.73331785,-0.6796229,-0.12751566,0.6724244,-0.7290989,,-0.12171403,0.25373846,-0.09538656,-0.9372093,0.062360346,0.3431471,0.31706116,-0.25754464,0.91276664,0.14529614,0.964252,0.22160119,,-0.09614591,0.42332995,-0.3347222,0.3186394,0.6595576,-0.6807737,-0.91601217,0.029610632,-0.40005612,-0.24370189,0.7510706,0.61359787,,1.0866657427321307,0.535100438122142,0.21702357551,3.701027502501855,0.11655093429992071,-1.3720048952105972,-0.41195373479065234,,-1.4337485262984029,0.1489406262122939,0.20078106181000002,0.7072841793733007,-0.020358838465050627,-0.38582988502178334,0.797935763065954,,-0.07627525163528219,-0.034472434388453,0.0910472212,-0.1089195372335423,,4.636869e-05,7.867813e-06,-7.2717667e-06,1.0,-2.5257468e-05,-2.3283064e-05,2.5257468e-05,1.0,-4.4107437e-06,2.3290515e-05,4.4107437e-06,1.0,234,0.71,0,0,0.0,False,-0.26148663402373185,0.9720735453084759
0.7160672459285706,16:10:53.506970,16:09:35.700477,0,,0.124565326,-0.002681233,0.019056171,0.9463008,0.05736147,-0.31815746,0.25222838,0.48460722,0.83757794,0.2022261,-0.87284905,0.44411606,,0.086676165,-0.012369418,0.022768915,-0.206105,-0.60537285,0.76879394,-0.7678769,0.58704686,0.25640026,-0.6065358,-0.5374938,-0.58584523,,0.08301123,1.2897632,0.42730203,0.99165624,0.10045068,-0.080793165,0.018911185,-0.73331785,-0.6796229,-0.12751566,0.6724244,-0.7290989,,-0.1211797,0.25394216,-0.09550538,-0.93727213,0.053729232,0.34443298,0.32105076,-0.251919,0.91294205,0.1358209,0.96625566,0.21886685,,-0.09614127,0.42332518,-0.3347235,0.31865522,0.6595691,-0.680755,-0.91600007,0.029608715,-0.40008402,-0.24372678,0.75106055,0.6136003,,1.0900019633337958,0.5337875735335239,0.21689913167000002,3.6959949438582265,0.10425364932103107,-1.373248950017317,-0.4122804229229209,,-1.433717635366906,0.14892518074654545,0.20077976552000001,0.7072841793733007,-0.020358838465050627,-0.38582988502178334,0.797935763065954,,-0.07627525163528219,-0.034472434388453,0.0910472212,-0.1089195372335423,,4.636869e-05,7.867813e-06,-7.2717667e-06,1.0,-2.5257468e-05,-2.3283064e-05,2.5257468e-05,1.0,-4.4107437e-06,2.3290515e-05,4.4107437e-06,1.0,242,0.735,0,0,0.0,False,-0.2618441003348577,0.9710113808913277
0.7585494650993496,16:10:53.541559,16:09:35.700477,0,,0.12443139,-0.0026626438,0.019151866,0.9463894,0.06064871,-0.31728336,0.24926502,0.48762336,0.8367141,0.20546043,-0.870945,0.446364,,0.08667852,-0.012371802,0.022768974,-0.20610757,-0.60554963,0.768654,-0.7678804,0.5869855,0.25653017,-0.60653055,-0.5373616,-0.58597195,,0.08301123,1.2897632,0.42730203,0.99165624,0.10045068,-0.080793165,0.018911185,-0.73331785,-0.6796229,-0.12751566,0.6724244,-0.7290989,,-0.12105317,0.25402182,-0.09557672,-0.93786156,0.05054023,0.3433095,0.32113907,-0.24842593,0.9138678,0.13147406,0.9673315,0.21675868,,-0.096143536,0.42332342,-0.33472523,0.3186571,0.65972614,-0.68060195,-0.91599774,0.02969737,-0.4000827,-0.24373293,0.7509191,0.61377096,,1.0909518594773253,0.5335018324171775,0.21682394685000003,3.695785253914742,0.09919809882970976,-1.37500735687067,-0.4139138635842634,,-1.4337253580997802,0.14890973528079698,0.20077976552000001,0.7072841793733007,-0.020358838465050627,-0.3855848488013616,0.7967923546030141,,-0.07627525163528219,-0.034472434388453,0.0910472212,-0.1089195372335423,,4.636869e-05,7.867813e-06,-7.2717667e-06,1.0,-2.5257468e-05,-2.3283064e-05,2.5257468e-05,1.0,-4.4107437e-06,2.3290515e-05,4.4107437e-06,1.0,254,0.772,0,0,0.0,False,-0.2616653671792948,0.9713976224975633
0.7931903440039605,16:10:53.565942,16:09:35.700477,0,,0.12444859,-0.002689056,0.01921323,0.94599104,0.06332156,-0.31794834,0.24873535,0.48723498,0.8370979,0.20792189,-0.87097204,0.4451697,,0.086681426,-0.012372666,0.022770345,-0.20610398,-0.6055997,0.7686156,-0.76787937,0.58696866,0.25657177,-0.60653305,-0.53732365,-0.58600414,,0.08301123,1.2897632,0.42730203,0.99165624,0.10045068,-0.080793165,0.018911185,-0.73331785,-0.6796229,-0.12751566,0.6724244,-0.7290989,,-0.12107745,0.25404504,-0.095636964,-0.93771267,0.04785683,0.34409976,0.32245532,-0.24872859,0.9133218,0.12929614,0.9673902,0.21780427,,-0.09614658,0.42332357,-0.33472657,0.31865388,0.6597705,-0.6805605,-0.9159996,0.029723117,-0.40007666,-0.24373038,0.7508791,0.61382085,,1.0909904731416964,0.5335713370130456,0.21676042864000003,3.6945271142538347,0.0970119148334627,-1.3738781003326515,-0.4126071110551892,,-1.4337408035655286,0.14890201254792276,0.20077976552000001,0.7072841793733007,-0.020358838465050627,-0.38550317006122115,0.79662901053688,,-0.07627525163528219,-0.034472434388453,0.0910472212,-0.1089195372335423,,4.636869e-05,7.867813e-06,-7.2717667e-06,1.0,-2.5257468e-05,-2.3283064e-05,2.5257468e-05,1.0,-4.4107437e-06,2.3290515e-05,4.4107437e-06,1.0,262,0.796,0,0,0.0,False,-0.2618441003348577,0.971156221493666
0.8175526480190456,16:10:53.594804,16:09:35.859241,0,,0.124505796,-0.0027165413,0.019265205,0.9459565,0.063608706,-0.3179936,0.24861905,0.48734593,0.83706784,0.20821771,-0.8708891,0.4451938,,0.08668027,-0.012372845,0.022769451,-0.20610724,-0.6054789,0.7687099,-0.7678812,0.58700836,0.2564755,-0.6065297,-0.5374165,-0.58592254,,0.08301123,1.2897632,0.42730203,0.99165624,0.10045068,-0.080793165,0.018911185,-0.73331785,-0.6796229,-0.12751566,0.6724244,-0.7290989,,-0.121140756,0.25406095,-0.095686615,-0.9377122,0.047573313,0.34414038,0.32257536,-0.24859138,0.9133167,0.12899983,0.9674395,0.21776119,,-0.0961453,0.4233229,-0.33472624,0.31865665,0.65966356,-0.6806629,-0.9159976,0.029659254,-0.4000859,-0.24373414,0.75097555,0.61370134,,1.0907742366212183,0.5338107417321466,0.21670857704000002,3.6945271142538347,0.0970119148334627,-1.3739597790727922,-0.4127704551213236,,-1.4337330808326545,0.14890201254792276,0.20077976552000001,0.7072841793733007,-0.020358838465050627,-0.38566652754150216,0.7966290105368798,,-0.07627525163528219,-0.034472434388453,0.0910472212,-0.1089195372335423,,4.636869e-05,7.867813e-06,-7.2717667e-06,1.0,-2.5257468e-05,-2.3283064e-05,2.5257468e-05,1.0,-4.4107437e-06,2.3290515e-05,4.4107437e-06,1.0,281,0.853,0,0,0.0,False,-0.26148663402373185,0.9711079412928865
0.8464283889625221,16:10:53.644803,16:09:35.859241,0,,0.12481455,-0.0027900785,0.019402802,0.94541824,0.07319704,-0.31753162,0.24432254,0.48554924,0.8393738,0.21561694,-0.8711395,0.44116345,,0.08667849,-0.012373709,0.02276951,-0.20611054,-0.60554624,0.76865596,-0.767883,0.58698523,0.256523,-0.60652626,-0.5373658,-0.58597255,,0.08301123,1.2897632,0.42730203,0.99165624,0.10045068,-0.080793165,0.018911185,-0.73331785,-0.6796229,-0.12751566,0.6724244,-0.7290989,,-0.121464714,0.2541024,-0.09580066,-0.9381307,0.03792838,0.344198,0.32457465,-0.25007474,0.9122028,0.120673604,0.96748334,0.2222922,,-0.09614352,0.42332265,-0.33472705,0.31865945,0.6597234,-0.68060356,-0.91599566,0.029693427,-0.40008786,-0.24373788,0.75092167,0.61376584,,1.0897239449503238,0.534652519615437,0.21657894804000002,3.6934786645364124,0.08977018034589437,-1.3697698837198338,-0.412933799187458,,-1.4337253580997802,0.14890201254792276,0.20077846923,0.7072841793733007,-0.020358838465050627,-0.3855848488013616,0.7967923546030141,,-0.07627525163528219,-0.034472434388453,0.0910472212,-0.1089195372335423,,4.636869e-05,7.867813e-06,-7.2717667e-06,1.0,-2.5257468e-05,-2.3283064e-05,2.5257468e-05,1.0,-4.4107437e-06,2.3290515e-05,4.4107437e-06,1.0,285,0.866,0,0,0.0,False,-0.26255903295711036,0.9708182600882096
0.8964318791404366,16:10:53.666599,16:09:35.859241,0,,0.12500663,-0.002866827,0.019547462,0.9450116,0.081199564,-0.3167959,0.23884302,0.4903491,0.83815974,0.22339879,-0.8677351,0.44399172,,0.08668266,-0.012379997,0.0227682,-0.2061219,-0.6055246,0.7686701,-0.7678944,0.5869857,0.25648767,-0.6065079,-0.53738976,-0.58596957,,0.08301123,1.2897632,0.42730203,0.99165624,0.10045068,-0.080793165,0.018911185,-0.73331785,-0.6796229,-0.12751566,0.6724244,-0.7290989,,-0.121673614,0.25414652,-0.095935315,-0.93880427,0.030069133,0.34313613,0.3259819,-0.24426061,0.9132757,0.11127605,0.9692433,0.21951091,,-0.096147254,0.4233172,-0.33473092,0.31866834,0.65970546,-0.6806168,-0.91598696,0.029672218,-0.4001093,-0.24375887,0.75093824,0.61373717,,1.0892142445806248,0.5350927153892678,0.21643117098000003,3.6928495947059585,0.08088880786114075,-1.3729825987175583,-0.412933799187458,,-1.4337330808326545,0.14886339888355166,0.20077846923,0.7072841793733007,-0.020358838465050627,-0.3855848488013616,0.7967923546030141,,-0.07627525163528219,-0.034472434388453,0.0910472212,-0.1089195372335423,,4.636869e-05,7.867813e-06,-7.2717667e-06,1.0,-2.5257468e-05,-2.3283064e-05,2.5257468e-05,1.0,-4.4107437e-06,2.3290515e-05,4.4107437e-06,1.0,297,0.903,0,0,0.0,False,-0.2622611443645053,0.9707699798874305
0.9182058849837631,16:10:53.694892,16:09:35.859241,0,,0.1251092,-0.0029150248,0.019654334,0.94433033,0.08969527,-0.3165358,0.23452127,0.49124447,0.83885556,0.23073782,-0.8663911,0.44286168,,0.08668266,-0.012379997,0.0227682,-0.2061219,-0.6055246,0.7686701,-0.7678944,0.5869857,0.25648767,-0.6065079,-0.53738976,-0.58596957,,0.08301123,1.2897632,0.42730203,0.99165624,0.10045068,-0.080793165,0.018911185,-0.73331785,-0.6796229,-0.12751566,0.6724244,-0.7290989,,-0.12178819,0.2541853,-0.09603345,-0.9390777,0.02158689,0.34302646,0.32792148,-0.24269441,0.91299886,0.10295941,0.9698626,0.2208301,,-0.096147254,0.4233172,-0.33473092,0.31866834,0.65970546,-0.6806168,-0.91598696,0.029672218,-0.4001093,-0.24375887,0.75093824,0.61373717,,1.0890752353888888,0.5352626155125008,0.21632357891,3.691381765101567,0.07269061787521432,-1.3717700000851907,-0.41309714325359215,,-1.4337330808326545,0.14886339888355166,0.20077846923,0.7072841793733007,-0.020358838465050627,-0.3855848488013616,0.7967923546030141,,-0.07627525163528219,-0.034472434388453,0.0910472212,-0.1089195372335423,,4.636869e-05,7.867813e-06,-7.2717667e-06,1.0,-2.5257468e-05,-2.3283064e-05,2.5257468e-05,1.0,-4.4107437e-06,2.3290515e-05,4.4107437e-06,1.0,305,0.927,0,0,0.0,False,-0.2623802998015474,0.9708665402889891
0.9465258000418544,16:10:53.723998,16:09:35.990630,0,,0.12515607,-0.0030234233,0.019842088,0.9440566,0.09424573,-0.31602955,0.23171307,0.4923244,0.83900285,0.23466155,-0.86529434,0.44294417,,0.086682126,-0.012381517,0.022766888,-0.20612812,-0.60552573,0.7686674,-0.76789886,0.5869832,0.25648016,-0.60650015,-0.5373911,-0.58597636,,0.08301123,1.2897632,0.42730203,0.99165624,0.10045068,-0.080793165,0.018911185,-0.73331785,-0.6796229,-0.12751566,0.6724244,-0.7290989,,-0.121858895,0.2542364,-0.09623737,-0.9393527,0.017059077,0.34252816,0.3285983,-0.24116096,0.9131619,0.09818212,0.9703352,0.22092961,,-0.096146464,0.4233153,-0.33473134,0.31867346,0.65970695,-0.6806129,-0.91598284,0.02966977,-0.40011886,-0.24376757,0.75093704,0.61373526,,1.0890675126560145,0.5354556838343564,0.21611357993000002,3.6909623852145974,0.06804497688318935,-1.3716573346658376,-0.41326048731972653,,-1.4337253580997802,0.14885567615067744,0.20077846923,0.7072841793733007,-0.020358838465050627,-0.3855848488013616,0.7967923546030141,,-0.07627525163528219,-0.034472434388453,0.0910472212,-0.1089195372335423,,4.636869e-05,7.867813e-06,-7.2717667e-06,1.0,-2.5257468e-05,-2.3283064e-05,2.5257468e-05,1.0,-4.4107437e-06,2.3290515e-05,4.4107437e-06,1.0,313,0.952,0,0,0.0,False,-0.26101001227556386,0.9706734194858713
0.975638709962368,16:10:53.754097,16:09:35.990630,0,,0.12520409,-0.0031479523,0.020079106,0.94336164,0.103118725,-0.3153334,0.22677718,0.49333033,0.83976024,0.24215855,-0.86370814,0.44200397,,0.08668353,-0.012380355,0.022768497,-0.20605864,-0.6052993,0.7688644,-0.7678344,0.5870954,0.25641644,-0.6066053,-0.5375238,-0.5857457,,0.08301123,1.2897632,0.42730203,0.99165624,0.10045068,-0.080793165,0.018911185,-0.73331785,-0.6796229,-0.12751566,0.6724244,-0.7290989,,-0.121936105,0.25430986,-0.09648764,-0.93967366,0.008190441,0.3419742,0.33020258,-0.2393479,0.9130601,0.089329176,0.97089934,0.2222044,,-0.09614814,0.4233171,-0.33473134,0.3186184,0.6594993,-0.68083996,-0.9160339,0.029605439,-0.40000665,-0.24364753,0.751122,0.61355656,,1.089221967313499,0.5355869702932182,0.21585432193,3.6897042455536906,0.05916360439843572,-1.370296040215691,-0.4135871754519953,,-1.4337330808326545,0.14885567615067744,0.20077846923,0.7072841793733007,-0.020222201965285187,-0.3858596241853392,0.7967923546030141,,-0.07627525163528219,-0.034472434388453,0.0910472212,-0.1089195372335423,,4.636869e-05,7.867813e-06,-7.2717667e-06,1.0,-2.5257468e-05,-2.3283064e-05,2.5257468e-05,1.0,-4.4107437e-06,2.3290515e-05,4.4107437e-06,1.0,328,0.997,0,0,0.0,False,-0.2626781883941529,0.9710113808913277
1.0057367079425603,16:10:53.793610,16:09:35.990630,0,,0.12530838,-0.003279373,0.020424157,0.9414778,0.12079704,-0.31468642,0.21643907,0.49904925,0.83910906,0.25840592,-0.858113,0.44369864,,0.08668304,-0.012384676,0.022765398,-0.20607398,-0.60529834,0.768861,-0.767846,0.5870899,0.25639415,-0.60658544,-0.5375307,-0.5857599,,0.08301123,1.2897632,0.42730203,0.99165624,0.10045068,-0.080793165,0.018911185,-0.73331785,-0.6796229,-0.12751566,0.6724244,-0.7290989,,-0.12207878,0.25445282,-0.09681385,-0.9399659,-0.009392233,0.34113917,0.33393943,-0.23136729,0.913758,0.070346214,0.9728211,0.22061379,,-0.09614705,0.42331207,-0.33473286,0.31863096,0.6594996,-0.68083376,-0.9160236,0.02959659,-0.40003094,-0.24366987,0.75112206,0.61354756,,1.0896081039572103,0.5357800386150738,0.21551210137000001,3.6865588964014226,0.04003449443127405,-1.3717683903875693,-0.41440389578266634,,-1.433717635366906,0.14883250795205474,0.20077846923,0.7072841793733007,-0.020222201965285187,-0.3858596241853392,0.7964656664707456,,-0.07627525163528219,-0.034472434388453,0.0910472212,-0.1089195372335423,,4.636869e-05,7.867813e-06,-7.2717667e-06,1.0,-2.5257468e-05,-2.3283064e-05,2.5257468e-05,1.0,-4.4107437e-06,2.3290515e-05,4.4107437e-06,1.0,341,1.038,0,0,0.0,False,-0.2626186106756321,0.9703354580804153
1.0452212209347636,16:10:53.833714,16:09:36.103300,0,,0.12540169,-0.0034185424,0.02083829,0.9394353,0.13460313,-0.31518742,0.20929137,0.502949,0.8385937,0.27140057,-0.85377055,0.4443168,,0.08668597,-0.012390309,0.022765517,-0.20608242,-0.6053428,0.7688237,-0.76785475,0.5870698,0.25641394,-0.60657156,-0.53750265,-0.5858002,,0.08301123,1.2897632,0.42730203,0.99165624,0.10045068,-0.080793165,0.018911185,-0.73331785,-0.6796229,-0.12751566,0.6724244,-0.7290989,,-0.122216925,0.2546379,-0.097196296,-0.9395799,-0.02316561,0.34154502,0.33773965,-0.22556338,0.9138124,0.05587103,0.973953,0.21975876,,-0.09614979,0.42330828,-0.33473712,0.31863752,0.65953994,-0.68079156,-0.9160171,0.029611994,-0.40004477,-0.24368592,0.751086,0.61358535,,1.0900328542652926,0.5362820162518984,0.21511673292000003,3.6829941673621858,0.025687661955902802,-1.3721579640402481,-0.41244376698905527,,-1.4337253580997802,0.14880161702055786,0.20077717294000003,0.7072841793733007,-0.020222201965285187,-0.3857779454451987,0.7963023224046114,,-0.07627525163528219,-0.034472434388453,0.0910472212,-0.1089195372335423,,4.636869e-05,7.867813e-06,-7.2717667e-06,1.0,-2.5257468e-05,-2.3283064e-05,2.5257468e-05,1.0,-4.4107437e-06,2.3290515e-05,4.4107437e-06,1.0,349,1.062,0,0,0.0,False,-0.2616653671792948,0.9699492164741796
1.0853026970289648,16:10:53.856770,16:09:36.103300,0,,0.12541574,-0.0034612343,0.021003634,0.93876594,0.13782817,-0.31578737,0.20829573,0.5030533,0.8387791,0.27446526,-0.85319436,0.44354042,,0.08668779,-0.012394213,0.022764206,-0.20609121,-0.6053325,0.7688294,-0.7678627,0.58706886,0.25639248,-0.60655844,-0.5375153,-0.585802,,0.08301123,1.2897632,0.42730203,0.99165624,0.10045068,-0.080793165,0.018911185,-0.73331785,-0.6796229,-0.12751566,0.6724244,-0.7290989,,-0.12224802,0.25472113,-0.09734281,-0.9392485,-0.02640945,0.3422203,0.33913544,-0.22509372,0.9134112,0.052908957,0.9739791,0.22037533,,-0.09615126,0.42330462,-0.33473927,0.31864452,0.6595317,-0.68079627,-0.9160107,0.02960016,-0.40006027,-0.24370077,0.7510937,0.61357003,,1.0902645362515193,0.5365523119024963,0.21496636328000002,3.6815263377577945,0.022818295460828555,-1.371206726645013,-0.41391386358426363,,-1.4337253580997802,0.14877844882193517,0.20077717294000003,0.7072841793733007,-0.020222201965285187,-0.3857779454451987,0.7963023224046114,,-0.07627525163528219,-0.034472434388453,0.0910472212,-0.1089195372335423,,4.636869e-05,7.867813e-06,-7.2717667e-06,1.0,-2.5257468e-05,-2.3283064e-05,2.5257468e-05,1.0,-4.4107437e-06,2.3290515e-05,4.4107437e-06,1.0,357,1.087,0,0,0.0,False,-0.26243987752006825,0.970094057076518
1.1084105060435832,16:10:53.885564,16:09:36.103300,0,,0.12546295,-0.003510505,0.021326512,0.9364849,0.15060233,-0.31672487,0.2029126,0.50391746,0.8395795,0.28604582,-0.8505211,0.44135207,,0.08668843,-0.012400233,0.022762477,-0.20610623,-0.6053863,0.7687831,-0.76787513,0.5870443,0.2564114,-0.60653776,-0.5374815,-0.5858546,,0.08301123,1.2897632,0.42730203,0.99165624,0.10045068,-0.080793165,0.018911185,-0.73331785,-0.6796229,-0.12751566,0.6724244,-0.7290989,,-0.12232572,0.2549083,-0.09760326,-0.93836963,-0.039255492,0.34339687,0.3432366,-0.22263722,0.91248083,0.04063304,0.9741107,0.22238994,,-0.09615144,0.42329946,-0.3347429,0.31865665,0.65958065,-0.6807432,-0.91600025,0.029618554,-0.40008292,-0.24372432,0.75105,0.61361414,,1.09090552308008,0.5369770622105786,0.21469673496000002,3.6773325388881037,0.010521010481938913,-1.3684485231848451,-0.41375051951812925,,-1.433717635366906,0.14874755789043828,0.20077587665000002,0.7072841793733007,-0.020222201965285187,-0.38569626670505813,0.7961389783384771,,-0.07627525163528219,-0.034472434388453,0.0910472212,-0.1089195372335423,,4.636869e-05,7.867813e-06,-7.2717667e-06,1.0,-2.5257468e-05,-2.3283064e-05,2.5257468e-05,1.0,-4.4107437e-06,2.3290515e-05,4.4107437e-06,1.0,365,1.112,0,0,0.0,False,-0.2618441003348577,0.9698526560726206
1.1371984190773219,16:10:53.907975,16:09:36.103300,0,,0.12552136,-0.003513582,0.021528095,0.93483293,0.16118288,-0.3163975,0.1960205,0.5087169,0.83832157,0.29607984,-0.845711,0.44397017,,0.08669253,-0.01240366,0.022763014,-0.20610847,-0.60542953,0.76874846,-0.7678794,0.5870268,0.25643873,-0.60653144,-0.53745204,-0.585888,,0.08301123,1.2897632,0.42730203,0.99165624,0.10045068,-0.080793165,0.018911185,-0.73331785,-0.6796229,-0.12751566,0.6724244,-0.7290989,,-0.122400805,0.25504515,-0.09774356,-0.93810433,-0.049793236,0.3427548,0.3451777,-0.21585597,0.9133775,0.028505644,0.97515476,0.21968295,,-0.096155465,0.42329717,-0.33474568,0.31865808,0.6596195,-0.6807049,-0.91599774,0.029636415,-0.4000872,-0.24373166,0.7510152,0.61365384,,1.0913766097854076,0.537231912395428,0.21455025419,3.675445329396743,-0.0016396379971852853,-1.3707841407769479,-0.4127704551213236,,-1.4337330808326545,0.14872438969181562,0.20077587665000002,0.7072841793733007,-0.020222201965285187,-0.38561458796491754,0.7959756342723427,,-0.07627525163528219,-0.034472434388453,0.0910472212,-0.1089195372335423,,4.636869e-05,7.867813e-06,-7.2717667e-06,1.0,-2.5257468e-05,-2.3283064e-05,2.5257468e-05,1.0,-4.4107437e-06,2.3290515e-05,4.4107437e-06,1.0,373,1.136,0,0,0.0,False,-0.26243987752006825,0.9701423372772975
1.1596136479638517,16:10:53.937175,16:09:36.103300,0,,0.12554874,-0.0035358146,0.02181235,0.9313292,0.17405581,-0.31989115,0.1905957,0.51553124,0.8354046,0.3103209,-0.83900654,0.44695505,,0.08669316,-0.012407773,0.022760808,-0.20629874,-0.60538715,0.7687308,-0.7677953,0.5871716,0.2563588,-0.6065732,-0.53734154,-0.5859462,,0.08301123,1.2897632,0.42730203,0.99165624,0.10045068,-0.080793165,0.018911185,-0.73331785,-0.6796229,-0.12751566,0.6724244,-0.7290989,,-0.122453466,0.25522524,-0.09795999,-0.9362361,-0.062609054,0.34574854,0.35108653,-0.20631172,0.9133311,0.014149182,0.9764812,0.21513768,,-0.09615563,0.42329282,-0.3347475,0.31884965,0.6595565,-0.6806762,-0.9159521,0.029805703,-0.4001792,-0.24365276,0.7510638,0.6136257,,1.0921566058057044,0.537471317114529,0.2143285886,3.669154631092207,-0.016259743472087414,-1.3746264219285593,-0.4108103263277123,,-1.4337253580997802,0.14870122149319293,0.20077587665000002,0.7074938693167852,-0.020222201965285187,-0.38561458796491754,0.7959756342723427,,-0.07627525163528219,-0.034472434388453,0.0910472212,-0.1089195372335423,,4.636869e-05,7.867813e-06,-7.2717667e-06,1.0,-2.5257468e-05,-2.3283064e-05,2.5257468e-05,1.0,-4.4107437e-06,2.3290515e-05,4.4107437e-06,1.0,385,1.173,0,0,0.0,False,-0.26243987752006825,0.9701906174780768
1.1888020730111748,16:10:53.972606,16:09:36.103300,0,,0.1254206,-0.0035935715,0.02214989,0.92998296,0.17950185,-0.32079682,0.18892919,0.5152048,0.8359843,0.3153368,-0.83805907,0.44521856,,0.086693265,-0.012412601,0.022759497,-0.20595437,-0.60545504,0.7687696,-0.76799273,0.5868723,0.2564531,-0.6064404,-0.53759193,-0.58585405,,0.08301123,1.2897632,0.42730203,0.99165624,0.10045068,-0.080793165,0.018911185,-0.73331785,-0.6796229,-0.12751566,0.6724244,-0.7290989,,-0.122358866,0.25541657,-0.09825685,-0.9354476,-0.068123974,0.3468385,0.35334447,-0.20589991,0.91255295,0.009247284,0.9761989,0.21667981,,-0.09615538,0.42328885,-0.33475044,0.31849584,0.65967053,-0.68073136,-0.91601837,0.029436108,-0.40005487,-0.24386634,0.75097823,0.6136456,,1.0933767975998319,0.5376412172377619,0.21402914561000003,3.6662189718834237,-0.02158856696293959,-1.371996377227351,-0.4134238313858607,,-1.433717635366906,0.14867805329457026,0.20077458036,0.7070744894298162,-0.020222201965285187,-0.38561458796491754,0.7959756342723427,,-0.07627525163528219,-0.034472434388453,0.0910472212,-0.1089195372335423,,4.636869e-05,7.867813e-06,-7.2717667e-06,1.0,-2.5257468e-05,-2.3283064e-05,2.5257468e-05,1.0,-4.4107437e-06,2.3290515e-05,4.4107437e-06,1.0,393,1.198,0,0,0.0,False,-0.2617249448978165,0.9694181342656054
1.2242439340334386,16:10:53.997071,16:09:36.262916,0,,0.12539852,-0.003600575,0.022307485,0.92837924,0.18697494,-0.32117313,0.18628886,0.51366687,0.83752185,0.32157162,-0.8373689,0.4420464,,0.086695075,-0.012416505,0.022758186,-0.20596316,-0.6056332,0.768627,-0.7680006,0.58680844,0.2565754,-0.60642725,-0.53746104,-0.5859876,,0.08301123,1.2897632,0.42730203,0.99165624,0.10045068,-0.080793165,0.018911185,-0.73331785,-0.6796229,-0.12751566,0.6724244,-0.7290989,,-0.122350626,0.2555203,-0.09837743,-0.93458104,-0.07572583,0.34759727,0.35573947,-0.20654444,0.9114762,0.0027719925,0.97550243,0.2199712,,-0.09615686,0.4232852,-0.3347526,0.31850284,0.65982914,-0.68057436,-0.9160119,0.02952231,-0.40006316,-0.2438812,0.75083554,0.6138143,,1.0939482798325244,0.5377261672993784,0.21390729435000003,3.663493002618125,-0.028283755451446173,-1.3680887960088968,-0.41130035852611524,,-1.433717635366906,0.1486548850959476,0.20077458036,0.7070744894298162,-0.020222201965285187,-0.3853695517444958,0.7958122902062085,,-0.07627525163528219,-0.034472434388453,0.0910472212,-0.1089195372335423,,4.636869e-05,7.867813e-06,-7.2717667e-06,1.0,-2.5257468e-05,-2.3283064e-05,2.5257468e-05,1.0,-4.4107437e-06,2.3290515e-05,4.4107437e-06,1.0,426,1.3,0,0,0.0,False,-0.26243987752006825,0.9698043758718411
1.2486532439943403,16:10:54.090690,16:09:36.262916,0,,0.12530598,-0.0034361184,0.022956967,0.92091465,0.2070544,-0.3302189,0.18008557,0.525336,0.8316197,0.3456664,-0.8253184,0.4465022,,0.08669944,-0.012425655,0.022758722,-0.20591417,-0.6055711,0.76868904,-0.7679547,0.58685535,0.25660557,-0.6065021,-0.5374797,-0.58589303,,0.08301123,1.2897632,0.42730203,0.99165624,0.10045068,-0.080793165,0.018911185,-0.73331785,-0.6796229,-0.12751566,0.6724244,-0.7290989,,-0.12230005,0.25608772,-0.09874202,-0.9296612,-0.095767885,0.35575074,0.36789104,-0.18980522,0.91029125,-0.01965332,0.97713995,0.2116867,,-0.096160956,0.42327932,-0.3347598,0.3184641,0.65976906,-0.6806507,-0.91604817,0.029528372,-0.39997983,-0.24379581,0.75088805,0.61378396,,1.0967439091329938,0.5387378453059017,0.21353655541000002,3.6492340864611776,-0.05123868741204017,-1.3735474952695044,-0.41326048731972653,,-1.4337253580997802,0.14860082596582802,0.20077198778000002,0.7070744894298162,-0.020085565465519747,-0.3853992909080517,0.7956489461400743,,-0.07627525163528219,-0.034472434388453,0.0910472212,-0.1089195372335423,,4.636869e-05,7.867813e-06,-7.2717667e-06,1.0,-2.5257468e-05,-2.3283064e-05,2.5257468e-05,1.0,-4.4107437e-06,2.3290515e-05,4.4107437e-06,1.0,434,1.325,0,0,0.0,False,-0.2622015666459845,0.9694664144663849
1.3423275779932737,16:10:54.122856,16:09:36.398721,0,,0.12522392,-0.0033440143,0.023075908,0.920093,0.20711529,-0.33246338,0.18165128,0.52636266,0.8306294,0.34703237,-0.82464874,0.4466799,,0.08669766,-0.012426459,0.022758782,-0.20591746,-0.6055758,0.76868445,-0.7679565,0.58685315,0.25660515,-0.60649866,-0.53747684,-0.58589923,,0.08301123,1.2897632,0.42730203,0.99165624,0.10045068,-0.080793165,0.018911185,-0.73331785,-0.6796229,-0.12751566,0.6724244,-0.7290989,,-0.12222127,0.25623655,-0.098773725,-0.9288367,-0.09580407,0.35788825,0.3699677,-0.1886002,0.90969986,-0.019655164,0.9773697,0.21062319,,-0.09615917,0.42327908,-0.3347606,0.3184669,0.65977335,-0.6806453,-0.9160462,0.029529866,-0.3999842,-0.24379955,0.75088423,0.6137871,,1.0976165779477811,0.5390390318879965,0.21350285187,3.6465081171958786,-0.051375323911805604,-1.37376279232637,-0.41228042292292066,,-1.433717635366906,0.14860082596582802,0.20077069149000001,0.7070744894298162,-0.020085565465519747,-0.3853992909080517,0.7956489461400743,,-0.07627525163528219,-0.034472434388453,0.0910472212,-0.1089195372335423,,4.636869e-05,7.867813e-06,-7.2717667e-06,1.0,-2.5257468e-05,-2.3283064e-05,2.5257468e-05,1.0,-4.4107437e-06,2.3290515e-05,4.4107437e-06,1.0,442,1.349,0,0,0.0,False,-0.2617249448978165,0.9690801728601495
1.3744893630500883,16:10:54.147820,16:09:36.398721,0,,0.12516347,-0.0032891408,0.02314499,0.918653,0.2083799,-0.3356401,0.18379262,0.5266224,0.8299935,0.3497095,-0.8241643,0.4454846,,0.08669766,-0.012426459,0.022758782,-0.20591746,-0.6055758,0.76868445,-0.7679565,0.58685315,0.25660515,-0.60649866,-0.53747684,-0.58589923,,0.08301123,1.2897632,0.42730203,0.99165624,0.10045068,-0.080793165,0.018911185,-0.73331785,-0.6796229,-0.12751566,0.6724244,-0.7290989,,-0.1221627,0.25632402,-0.098792665,-0.9274623,-0.09708053,0.36109427,0.3733666,-0.18807924,0.9084182,-0.020275377,0.97734416,0.21068303,,-0.09615917,0.42327908,-0.3347606,0.3184669,0.65977335,-0.6806453,-0.9160462,0.029529866,-0.3999842,-0.24379955,0.75088423,0.6137871,,1.098195782913348,0.5391471501482357,0.21348340752000003,3.6425240082696724,-0.05219514291039825,-1.3730942849041916,-0.41228042292292066,,-1.433717635366906,0.14860082596582802,0.20077069149000001,0.7070744894298162,-0.020085565465519747,-0.3853992909080517,0.7953222580078056,,-0.07627525163528219,-0.034472434388453,0.0910472212,-0.1089195372335423,,4.636869e-05,7.867813e-06,-7.2717667e-06,1.0,-2.5257468e-05,-2.3283064e-05,2.5257468e-05,1.0,-4.4107437e-06,2.3290515e-05,4.4107437e-06,1.0,450,1.374,0,0,0.0,False,-0.2626781883941529,0.9689836124585902
1.3994555089157075,16:10:54.174508,16:09:36.398721,0,,0.12511803,-0.0032071918,0.02325362,0.9157353,0.21862112,-0.3370955,0.18060328,0.52548206,0.8314151,0.35890257,-0.8222368,0.44171894,,0.08669941,-0.012427592,0.0227592,-0.20591712,-0.6055677,0.76869094,-0.7679573,0.586855,0.2565984,-0.60649776,-0.53748393,-0.58589375,,0.08301123,1.2897632,0.42730203,0.99165624,0.10045068,-0.080793165,0.018911185,-0.73331785,-0.6796229,-0.12751566,0.6724244,-0.7290989,,-0.122120224,0.25645834,-0.098819725,-0.92558026,-0.10750459,0.3629655,0.37740776,-0.18758509,0.9068491,-0.029403524,0.97634757,0.21419811,,-0.09616094,0.42327854,-0.33476162,0.31846645,0.6597663,-0.68065226,-0.916046,0.029524429,-0.399985,-0.24380076,0.7508906,0.6137789,,1.0990838971938837,0.5391394274153615,0.21345877801000002,3.6377011395695287,-0.06175969789397908,-1.3686438599912052,-0.4127704551213236,,-1.4337253580997802,0.1485931032329538,0.20077069149000001,0.7070744894298162,-0.020085565465519747,-0.3853992909080517,0.7946688817432686,,-0.07627525163528219,-0.034472434388453,0.0910472212,-0.1089195372335423,,4.636869e-05,7.867813e-06,-7.2717667e-06,1.0,-2.5257468e-05,-2.3283064e-05,2.5257468e-05,1.0,-4.4107437e-06,2.3290515e-05,4.4107437e-06,1.0,458,1.398,0,0,0.0,False,-0.26101001227556386,0.9695146946671644
1.426134827081114,16:10:54.198891,16:09:36.398721,0,,0.12505972,-0.0031657517,0.023339123,0.9123785,0.22554865,-0.34160367,0.18006644,0.5282945,0.8297476,0.3676158,-0.81855524,0.44139093,,0.086700015,-0.012428843,0.022758782,-0.20592006,-0.60562706,0.7686433,-0.76796,0.5868337,0.25663918,-0.60649335,-0.5374403,-0.5859382,,0.08301123,1.2897632,0.42730203,0.99165624,0.10045068,-0.080793165,0.018911185,-0.73331785,-0.6796229,-0.12751566,0.6724244,-0.7290989,,-0.1220662,0.25654742,-0.098859414,-0.92301464,-0.1144743,0.36734122,0.38303745,-0.18301652,0.9054211,-0.03641792,0.97642237,0.21277487,,-0.09616143,0.42327732,-0.33476233,0.31846878,0.6598192,-0.6805999,-0.9160439,0.029553158,-0.39998776,-0.2438057,0.75084305,0.6138351,,1.0998021113511867,0.5390004182236254,0.21342248189000002,3.6312007513215083,-0.06927470538107831,-1.3693768894597094,-0.41113701445998063,,-1.4337253580997802,0.14858538050007958,0.20077069149000001,0.7070744894298162,-0.020085565465519747,-0.38531761216791116,0.7945055376771344,,-0.07627525163528219,-0.034472434388453,0.0910472212,-0.1089195372335423,,4.636869e-05,7.867813e-06,-7.2717667e-06,1.0,-2.5257468e-05,-2.3283064e-05,2.5257468e-05,1.0,-4.4107437e-06,2.3290515e-05,4.4107437e-06,1.0,470,1.435,0,0,0.0,False,-0.26243987752006825,0.9692250134624876
1.4505233799573034,16:10:54.228731,16:09:36.398721,0,,0.12496075,-0.003121838,0.023530066,0.90677756,0.23890181,-0.34739062,0.17641214,0.5333708,0.8272813,0.382927,-0.8114441,0.44150352,,0.08669944,-0.0124323005,0.022757947,-0.20592918,-0.60562485,0.7686426,-0.7679671,0.5868308,0.2566245,-0.6064814,-0.53744584,-0.5859456,,0.08301123,1.2897632,0.42730203,0.99165624,0.10045068,-0.080793165,0.018911185,-0.73331785,-0.6796229,-0.12751566,0.6724244,-0.7290989,,-0.121980384,0.2567111,-0.09897786,-0.9190139,-0.1279369,0.37288818,0.3909683,-0.17444965,0.9037207,-0.05056901,0.9763194,0.21034092,,-0.09616063,0.4232746,-0.33476457,0.31847623,0.65981793,-0.68059766,-0.9160377,0.029546767,-0.40000248,-0.24381936,0.75084436,0.61382806,,1.1010918077411822,0.5387301225730275,0.21331229724000003,3.6217647038647045,-0.08430472035527677,-1.3705979121762957,-0.4122804229229209,,-1.433717635366906,0.1485699350343311,0.20076939520000003,0.7070744894298162,-0.020085565465519747,-0.3853176121679111,0.7951589139416714,,-0.07627525163528219,-0.034472434388453,0.0910472212,-0.1089195372335423,,4.636869e-05,7.867813e-06,-7.2717667e-06,1.0,-2.5257468e-05,-2.3283064e-05,2.5257468e-05,1.0,-4.4107437e-06,2.3290515e-05,4.4107437e-06,1.0,499,1.525,0,0,0.0,False,-0.26243987752006825,0.9690801728601495
1.4803639659658074,16:10:54.317276,16:09:36.555300,0,,0.12436272,-0.0029350296,0.024381652,0.8889979,0.27444053,-0.36655843,0.17142205,0.5428338,0.8221593,0.4246142,-0.7937341,0.43553305,,0.08668227,-0.012479833,0.0227651,-0.20625323,-0.60714716,0.7673537,-0.76825166,0.58616537,0.25729242,-0.60601056,-0.5364535,-0.5873405,,0.08296989,1.2897601,0.4272953,0.9916556,0.10047705,-0.08076873,0.018946845,-0.7333143,-0.6796258,-0.12751566,0.6724244,-0.7290989,,-0.12140689,0.25743845,-0.099542275,-0.90522903,-0.16400109,0.392,0.41612905,-0.15542586,0.8959238,-0.086005546,0.9741388,0.20894164,,-0.09610601,0.42325857,-0.3348182,0.3187654,0.66117704,-0.67914176,-0.91579545,0.030125614,-0.40051365,-0.24435087,0.7496248,0.6151059,,1.1074785078281657,0.5379424038198567,0.21280285527,3.589682142511572,-0.12324612278842728,-1.365961151349482,-0.4096669178647723,,-1.4337330808326545,0.14844637130834354,0.20076680262000002,0.7070744894298162,-0.02063211146458151,-0.38323836575031417,0.7941788495448657,,-0.07627525163528219,-0.034472434388453,0.0910472212,-0.1089195372335423,,6.1690807e-06,1.4305115e-06,3.0994415e-06,1.0,9.685755e-07,8.940697e-07,-9.611249e-07,1.0,1.7881393e-07,-8.940697e-07,-1.4901161e-07,1.0,503,1.537,0,0,0.0,False,-0.2618441003348577,0.9684042500492369
1.5689143401104957,16:10:54.337431,16:09:36.555300,0,,0.124146685,-0.0028628781,0.024621025,0.8833645,0.28288752,-0.37368664,0.1703375,0.54901004,0.8182744,0.43663737,-0.78648746,0.43678975,,0.08668762,-0.012483976,0.022764266,-0.20625843,-0.60718685,0.7673209,-0.7682586,0.5861475,0.25731248,-0.60600007,-0.53642815,-0.58737457,,0.08296989,1.2897601,0.4272953,0.9916556,0.10047705,-0.08076873,0.018946845,-0.7333143,-0.6796258,-0.12751566,0.6724244,-0.7290989,,-0.12120663,0.25765613,-0.09968953,-0.9007209,-0.17251533,0.3986732,0.42364988,-0.14596441,0.8939884,-0.0960346,0.9741318,0.20455931,,-0.09611103,0.4232546,-0.33482057,0.3187692,0.6612131,-0.6791049,-0.91579086,0.030139595,-0.4005231,-0.24436317,0.7495925,0.61514044,,1.1093319637179797,0.5376489399706361,0.21266933740000002,3.5798267151678,-0.13431367926942794,-1.3686163609901725,-0.41375051951812947,,-1.4337485262984029,0.14841548037684663,0.20076809891000003,0.7070744894298162,-0.02063211146458151,-0.3831566870101736,0.7940155054787313,,-0.07627525163528219,-0.034472434388453,0.0910472212,-0.1089195372335423,,6.1690807e-06,1.4305115e-06,3.0994415e-06,1.0,9.685755e-07,8.940697e-07,-9.611249e-07,1.0,1.7881393e-07,-8.940697e-07,-1.4901161e-07,1.0,511,1.562,0,0,0.0,False,-0.26232072208302704,0.96811456884456
1.589038752950728,16:10:54.360453,16:09:36.555300,0,,0.12395875,-0.002805315,0.024902299,0.87727225,0.29633725,-0.37759456,0.16319942,0.55565137,0.81524074,0.45139712,-0.7768113,0.4390955,,0.08669063,-0.012490503,0.02276212,-0.2062731,-0.6072325,0.7672808,-0.7682719,0.58612484,0.25732464,-0.6059783,-0.5364013,-0.58742154,,0.08296989,1.2897601,0.4272953,0.9916556,0.10047705,-0.08076873,0.018946845,-0.7333143,-0.6796258,-0.12751566,0.6724244,-0.7290989,,-0.12103891,0.25789213,-0.09987368,-0.8964579,-0.18616599,0.40212616,0.42868006,-0.13449511,0.8933893,-0.1122347,0.9732694,0.20037486,,-0.09611347,0.42324847,-0.33482414,0.31878087,0.6612549,-0.67905873,-0.9157802,0.030152654,-0.4005465,-0.24438791,0.74955505,0.6151762,,1.1112549242036616,0.5372705260597992,0.21250730115000002,3.5722778772023567,-0.1516665147396389,-1.3709653927291205,-0.4108103263277123,,-1.4337485262984029,0.1483768667124755,0.20076809891000003,0.7070744894298162,-0.02063211146458151,-0.383075008270033,0.7938521614125971,,-0.07627525163528219,-0.034472434388453,0.0910472212,-0.1089195372335423,,6.1690807e-06,1.4305115e-06,3.0994415e-06,1.0,9.685755e-07,8.940697e-07,-9.611249e-07,1.0,1.7881393e-07,-8.940697e-07,-1.4901161e-07,1.0,523,1.599,0,0,0.0,False,-0.2616653671792948,0.9686456510531343
1.6120543989818543,16:10:54.399154,16:09:36.555300,0,,0.123537704,-0.0026904866,0.025312379,0.8660326,0.31704044,-0.3866174,0.15483631,0.56518096,0.81030625,0.4754086,-0.76161397,0.44037575,,0.08669305,-0.012495688,0.022760332,-0.2062848,-0.60734415,0.7671893,-0.7682824,0.58608156,0.25739178,-0.6059609,-0.5363222,-0.5875117,,0.08296989,1.2897601,0.4272953,0.9916556,0.10047705,-0.08076873,0.018946845,-0.7333143,-0.6796258,-0.12751566,0.6724244,-0.7290989,,-0.12064588,0.25825876,-0.10013777,-0.88794917,-0.20725793,0.41059768,0.43921587,-0.11713304,0.8907128,-0.13651273,0.9712487,0.19503915,,-0.09611544,0.42324358,-0.33482698,0.3187902,0.66135484,-0.678957,-0.9157716,0.030202366,-0.40056226,-0.24440768,0.74946487,0.61527824,,1.1147610449285594,0.5362665707861499,0.21228693185000003,3.5567608213845023,-0.17831063219389978,-1.3729257361490816,-0.41244376698905505,,-1.4337485262984029,0.1483459757809786,0.20076809891000003,0.7070744894298162,-0.02063211146458151,-0.3829116507897519,0.79319878514806,,-0.07627525163528219,-0.034472434388453,0.0910472212,-0.1089195372335423,,6.1690807e-06,1.4305115e-06,3.0994415e-06,1.0,9.685755e-07,8.940697e-07,-9.611249e-07,1.0,1.7881393e-07,-8.940697e-07,-1.4901161e-07,1.0,531,1.624,0,0,0.0,False,-0.2623802998015474,0.9682111292461191
1.6507854810915887,16:10:54.422096,16:09:36.555300,0,,0.123347566,-0.0026781932,0.025482193,0.8610764,0.32868597,-0.3879598,0.1489986,0.56638944,0.8105568,0.48615503,-0.75575686,0.43873096,,0.08669451,-0.012497327,0.022760212,-0.20622447,-0.6073667,0.7671878,-0.76822513,0.5861067,0.25750524,-0.60605407,-0.5362691,-0.587464,,0.08296989,1.2897601,0.4272953,0.9916556,0.10047705,-0.08076873,0.018946845,-0.7333143,-0.6796258,-0.12751566,0.6724244,-0.7290989,,-0.1204702,0.2583851,-0.100273155,-0.88437843,-0.21922167,0.41208816,0.44241542,-0.112228766,0.88976026,-0.14880659,0.96919894,0.19623974,,-0.09611681,0.42324227,-0.3348281,0.3187426,0.66136837,-0.67896616,-0.9158166,0.030262059,-0.40045497,-0.24430133,0.7494505,0.6153379,,1.1162283641746622,0.5356101384918409,0.21217674720000002,3.551308882853905,-0.1918376456706784,-1.370226595177473,-0.41048363819544376,,-1.4337485262984029,0.14833053031523016,0.20076809891000003,0.7070744894298162,-0.020495474964816067,-0.38285971121316725,0.7935254732803285,,-0.07627525163528219,-0.034472434388453,0.0910472212,-0.1089195372335423,,6.1690807e-06,1.4305115e-06,3.0994415e-06,1.0,9.685755e-07,8.940697e-07,-9.611249e-07,1.0,1.7881393e-07,-8.940697e-07,-1.4901161e-07,1.0,539,1.648,0,0,0.0,False,-0.26202283349042155,0.9679214480414422
1.6737345131114125,16:10:54.451726,16:09:36.720136,0,,0.1230306,-0.002697982,0.025702283,0.85173124,0.3402815,-0.39845002,0.14943129,0.5711077,0.8071594,0.5022193,-0.7470237,0.43558154,,0.08669343,-0.012500397,0.02275747,-0.20623687,-0.6073065,0.76723194,-0.7682341,0.5861227,0.25744227,-0.6060385,-0.5363198,-0.58743376,,0.08296989,1.2897601,0.4272953,0.9916556,0.10047705,-0.08076873,0.018946845,-0.7333143,-0.6796258,-0.12751566,0.6724244,-0.7290989,,-0.120175235,0.25852305,-0.10048111,-0.87640154,-0.23110175,0.42250723,0.45382762,-0.10279976,0.88513994,-0.16112375,0.9674834,0.19497423,,-0.09611524,0.42323843,-0.3348289,0.31875283,0.6613159,-0.6790124,-0.9158084,0.030224496,-0.40047657,-0.24431872,0.7494983,0.6152728,,1.1181744928589668,0.5345521240880721,0.21200045176,3.536001516979534,-0.20591120514651876,-1.3693687873150149,-0.4114637025922496,,-1.4337330808326545,0.14831508484948172,0.20076809891000003,0.7070744894298162,-0.020495474964816067,-0.38294138995330784,0.7936888173464629,,-0.07627525163528219,-0.034472434388453,0.0910472212,-0.1089195372335423,,6.1690807e-06,1.4305115e-06,3.0994415e-06,1.0,9.685755e-07,8.940697e-07,-9.611249e-07,1.0,1.7881393e-07,-8.940697e-07,-1.4901161e-07,1.0,576,1.763,0,0,0.0,False,-0.2621419889274632,0.96811456884456
1.7033324260264635,16:10:54.557781,16:09:36.720136,0,,0.12265369,-0.0028167814,0.026478693,0.81108594,0.40650296,-0.42058882,0.11523199,0.59390855,0.7962375,0.5734642,-0.69428235,0.43486875,,0.08670248,-0.012515209,0.022752285,-0.20609061,-0.60742295,0.7671791,-0.7683577,0.58593076,0.2575102,-0.6059315,-0.5363977,-0.58747303,,0.08296989,1.2897601,0.4272953,0.9916556,0.10047705,-0.08076873,0.018946845,-0.7333143,-0.6796258,-0.12751566,0.6724244,-0.7290989,,-0.11987489,0.25897345,-0.10116371,-0.84463996,-0.29951116,0.4437076,0.47830617,-0.049971014,0.87677026,-0.24042997,0.9527833,0.18546556,,-0.096122935,0.42322397,-0.3348367,0.3185963,0.6614488,-0.67895645,-0.91582197,0.030061435,-0.40045777,-0.24447191,0.7493876,0.6153468,,1.1222907094809285,0.5316020401301184,0.21150397269000001,3.4951119780000517,-0.29076247150085727,-1.3718105242228102,-0.4126071110551892,,-1.4337408035655286,0.148222412054991,0.20076939520000003,0.7068647994863316,-0.020495474964816067,-0.38277803247302666,0.7933621292141942,,-0.07627525163528219,-0.034472434388453,0.0910472212,-0.1089195372335423,,6.1690807e-06,1.4305115e-06,3.0994415e-06,1.0,9.685755e-07,8.940697e-07,-9.611249e-07,1.0,1.7881393e-07,-8.940697e-07,-1.4901161e-07,1.0,584,1.787,0,0,0.0,False,-0.2626781883941529,0.9681628490453396
1.8094217660836875,16:10:54.588812,16:09:36.855369,0,,0.12260871,-0.002782151,0.0266494,0.80349225,0.4147717,-0.4270417,0.113389224,0.5975776,0.793753,0.58441687,-0.6861963,0.43311834,,0.0867077,-0.0125279045,0.022747576,-0.20600505,-0.60808873,0.7666745,-0.7685378,0.5855222,0.25790182,-0.6057322,-0.53608936,-0.5879598,,0.08296989,1.2897601,0.4272953,0.9916556,0.10047705,-0.08076873,0.018946845,-0.7333143,-0.6796258,-0.12751566,0.6724244,-0.7290989,,-0.11984173,0.25911638,-0.101267785,-0.83815414,-0.30811417,0.4500703,0.48454162,-0.041744113,0.8737716,-0.25043365,0.9504331,0.18428215,,-0.09612698,0.42321178,-0.33484343,0.31848782,0.66207397,-0.6783978,-0.91579074,0.03013857,-0.40052345,-0.24473022,0.7488322,0.61591995,,1.1230166463711055,0.5315479809999988,0.21142619529,3.4854662405997634,-0.3012834819827962,-1.3714808983923823,-0.41244376698905527,,-1.4337408035655286,0.148152907459123,0.20076939520000003,0.706655109542847,-0.02063211146458151,-0.3819315059080652,0.7928720970157915,,-0.07627525163528219,-0.034472434388453,0.0910472212,-0.1089195372335423,,6.1690807e-06,1.4305115e-06,3.0994415e-06,1.0,9.685755e-07,8.940697e-07,-9.611249e-07,1.0,1.7881393e-07,-8.940697e-07,-1.4901161e-07,1.0,592,1.812,0,0,0.0,False,-0.26232072208302704,0.9672938054313094
1.8404523809440434,16:10:54.610759,16:09:36.855369,0,,0.12262051,-0.0027344972,0.026756689,0.7985712,0.42183733,-0.4293452,0.11027096,0.59870845,0.7933401,0.5917131,-0.6808829,0.43159497,,0.08670992,-0.012537262,0.022743106,-0.20639662,-0.60944873,0.76548845,-0.7686447,0.5850859,0.25857243,-0.60546315,-0.53502023,-0.58920944,,0.08296989,1.2897601,0.4272953,0.9916556,0.10047705,-0.08076873,0.018946845,-0.7333143,-0.6796258,-0.12751566,0.6724244,-0.7290989,,-0.11985869,0.25922492,-0.10131087,-0.8341179,-0.3154887,0.45245358,0.48732722,-0.037266117,0.8724239,-0.25837868,0.9481973,0.18483056,,-0.09612821,0.42320225,-0.3348479,0.31883818,0.6632728,-0.6770609,-0.915595,0.030882424,-0.40091398,-0.24500605,0.74774027,0.61713576,,1.123410505747691,0.5316483765273637,0.21140286207000003,3.4804336819561357,-0.3094816719687226,-1.3698599060593122,-0.41309714325359215,,-1.4337408035655286,0.14811429379475188,0.20076939520000003,0.7068647994863316,-0.021042020963877826,-0.3801270348744459,0.7928720970157915,,-0.07627525163528219,-0.034472434388453,0.0910472212,-0.1089195372335423,,6.1690807e-06,1.4305115e-06,3.0994415e-06,1.0,9.685755e-07,8.940697e-07,-9.611249e-07,1.0,1.7881393e-07,-8.940697e-07,-1.4901161e-07,1.0,600,1.837,0,0,0.0,False,-0.2618441003348577,0.9679214480414422
1.8623846480622888,16:10:54.632369,16:09:36.855369,0,,0.12266092,-0.00266397,0.026861414,0.7928633,0.4276259,-0.43417022,0.10771944,0.60289204,0.79051733,0.59980345,-0.6735408,0.43194747,,0.08671324,-0.012550346,0.022738636,-0.20654446,-0.6096664,0.7652752,-0.76851845,0.58516806,0.25876188,-0.60557294,-0.5346823,-0.5894032,,0.08296989,1.2897601,0.4272953,0.9916556,0.10047705,-0.08076873,0.018946845,-0.7333143,-0.6796258,-0.12751566,0.6724244,-0.7290989,,-0.11990207,0.25934818,-0.10133316,-0.829322,-0.3215255,0.45699716,0.49107203,-0.029177545,0.8706302,-0.26659575,0.94645125,0.18208976,,-0.09613041,0.4231902,-0.3348552,0.3189966,0.663435,-0.6768273,-0.91558176,0.031224536,-0.4009177,-0.24484922,0.74758214,0.6173895,,1.12371941506266,0.5318800585135904,0.21140026949000001,3.4741429836516,-0.31781649845441445,-1.3716396816485894,-0.41260711105518943,,-1.4337253580997802,0.14803706646600961,0.20076809891000003,0.7070744894298162,-0.020905384464112386,-0.37974838033729885,0.7928720970157914,,-0.07627525163528219,-0.034472434388453,0.0910472212,-0.1089195372335423,,6.1690807e-06,1.4305115e-06,3.0994415e-06,1.0,9.685755e-07,8.940697e-07,-9.611249e-07,1.0,1.7881393e-07,-8.940697e-07,-1.4901161e-07,1.0,608,1.861,0,0,0.0,False,-0.26190367805337944,0.967486926234427
1.8839549850672483,16:10:54.658741,16:09:36.855369,0,,0.12278484,-0.002554372,0.02701421,0.7823834,0.43860492,-0.44215605,0.104888916,0.60701495,0.78773797,0.61390114,-0.66269034,0.4289137,,0.08671451,-0.012555829,0.022735953,-0.20655951,-0.6095949,0.76532805,-0.7685308,0.5851858,0.25868502,-0.6055522,-0.53474444,-0.5893683,,0.08296989,1.2897601,0.4272953,0.9916556,0.10047705,-0.08076873,0.018946845,-0.7333143,-0.6796258,-0.12751566,0.6724244,-0.7290989,,-0.12002937,0.2595328,-0.10135363,-0.82030845,-0.33301637,0.46496686,0.4987669,-0.018717073,0.86653405,-0.2798672,0.94273525,0.18145132,,-0.096131094,0.4231846,-0.33485776,0.31900877,0.663373,-0.6768823,-0.9155713,0.031177647,-0.4009454,-0.24487275,0.7476391,0.6173112,,1.1238661469872702,0.532382036150415,0.21141063981000002,3.4619809669294974,-0.33107023893166215,-1.3706335938069039,-0.4108103263277123,,-1.433717635366906,0.14800617553451273,0.20076809891000003,0.7070744894298162,-0.020905384464112386,-0.3797483803372989,0.7930354410819258,,-0.07627525163528219,-0.034472434388453,0.0910472212,-0.1089195372335423,,6.1690807e-06,1.4305115e-06,3.0994415e-06,1.0,9.685755e-07,8.940697e-07,-9.611249e-07,1.0,1.7881393e-07,-8.940697e-07,-1.4901161e-07,1.0,616,1.886,0,0,0.0,False,-0.2617249448978165,0.9676800470375448
1.9103751881048083,16:10:54.683059,16:09:36.855369,0,,0.12291412,-0.002491422,0.027094021,0.7780185,0.44555128,-0.44291228,0.10041043,0.60775167,0.78775346,0.6201653,-0.6573598,0.42810413,,0.08671719,-0.012560091,0.022735,-0.20650499,-0.6095481,0.7653801,-0.7684789,0.5852312,0.25873658,-0.6056367,-0.53474814,-0.5892781,,0.08296989,1.2897601,0.4272953,0.9916556,0.10047705,-0.08076873,0.018946845,-0.7333143,-0.6796258,-0.12751566,0.6724244,-0.7290989,,-0.12015955,0.2596333,-0.10135305,-0.81684476,-0.34030458,0.4657869,0.4998553,-0.01451234,0.86598736,-0.2879398,0.94020325,0.18195738,,-0.09613345,0.42318085,-0.33486032,0.31896582,0.6633258,-0.67694885,-0.91561204,0.03119645,-0.40085086,-0.24477631,0.7476802,0.6172997,,1.1237425832612826,0.5328376773899943,0.21142878787000002,3.459045307720714,-0.33899515591805773,-1.3693987947615076,-0.4142405517165322,,-1.433717635366906,0.14797528460301582,0.20076809891000003,0.7070744894298162,-0.020768747964346947,-0.3798597982409953,0.7931987851480601,,-0.07627525163528219,-0.034472434388453,0.0910472212,-0.1089195372335423,,6.1690807e-06,1.4305115e-06,3.0994415e-06,1.0,9.685755e-07,8.940697e-07,-9.611249e-07,1.0,1.7881393e-07,-8.940697e-07,-1.4901161e-07,1.0,624,1.91,0,0,0.0,False,-0.2620824112089424,0.9676317668367658
1.9346507559530437,16:10:54.707569,16:09:36.855369,0,,0.12303059,-0.0024469122,0.027149662,0.77110845,0.453125,-0.4472911,0.09741701,0.61027503,0.7861769,0.6292071,-0.6498015,0.4264462,,0.08671719,-0.012560091,0.022735,-0.20650499,-0.6095481,0.7653801,-0.7684789,0.5852312,0.25873658,-0.6056367,-0.53474814,-0.5892781,,0.08296989,1.2897601,0.4272953,0.9916556,0.10047705,-0.08076873,0.018946845,-0.7333143,-0.6796258,-0.12751566,0.6724244,-0.7290989,,-0.12027642,0.2597038,-0.10134918,-0.8109685,-0.34826255,0.47015232,0.50393844,-0.007477895,0.8637072,-0.29728112,0.9373672,0.18156724,,-0.09613345,0.42318085,-0.33486032,0.31896582,0.6633258,-0.67694885,-0.91561204,0.03119645,-0.40085086,-0.24477631,0.7476802,0.6172997,,1.12351862400793,0.5330616366433468,0.21145600996000002,3.452125539585724,-0.34842307440187315,-1.3689803672789644,-0.40950357379863767,,-1.433717635366906,0.14797528460301582,0.20076809891000003,0.7070744894298162,-0.020768747964346947,-0.3798597982409953,0.7931987851480601,,-0.07627525163528219,-0.034472434388453,0.0910472212,-0.1089195372335423,,6.1690807e-06,1.4305115e-06,3.0994415e-06,1.0,9.685755e-07,8.940697e-07,-9.611249e-07,1.0,1.7881393e-07,-8.940697e-07,-1.4901161e-07,1.0,649,1.988,0,0,0.0,False,-0.2630356547052788,0.967052404427412
1.9592103520408273,16:10:54.781396,16:09:36.989112,0,,0.12336132,-0.0023165345,0.027284935,0.7505053,0.47485524,-0.459624,0.08499606,0.6203562,0.7797012,0.6553758,-0.6242361,0.42521983,,0.08671233,-0.012559614,0.022730231,-0.20645514,-0.6094131,0.7655011,-0.76842546,0.5853091,0.25871897,-0.6057215,-0.53481674,-0.58912873,,0.08296989,1.2897601,0.4272953,0.9916556,0.10047705,-0.08076873,0.018946845,-0.7333143,-0.6796258,-0.12751566,0.6724244,-0.7290989,,-0.1206061,0.25989112,-0.101319216,-0.7936546,-0.37119716,0.4820011,0.51303774,0.017438825,0.8581889,-0.32696283,0.9283903,0.17659774,,-0.09612796,0.4231781,-0.33485737,0.31892744,0.6632001,-0.6770901,-0.91565144,0.031173043,-0.40076262,-0.24467883,0.7477927,0.61720204,,1.1228853599122437,0.5335095551500518,0.21156878719000002,3.434092204446056,-0.37889301384956636,-1.3717415889221727,-0.4134238313858607,,-1.4336790217025348,0.14797528460301582,0.20076939520000003,0.7070744894298162,-0.02063211146458151,-0.38005289488483224,0.7927087529496571,,-0.07627525163528219,-0.034472434388453,0.0910472212,-0.1089195372335423,,6.1690807e-06,1.4305115e-06,3.0994415e-06,1.0,9.685755e-07,8.940697e-07,-9.611249e-07,1.0,1.7881393e-07,-8.940697e-07,-1.4901161e-07,1.0,657,2.013,0,0,0.0,False,-0.26255903295711036,0.9669075638250737
2.0329475831240416,16:10:54.808932,16:09:36.989112,0,,0.12342696,-0.0022442937,0.02732642,0.7415565,0.48461962,-0.46393722,0.08255088,0.62035775,0.7799625,0.6657922,-0.61668473,0.4200247,,0.08671178,-0.012561164,0.02272886,-0.20646131,-0.60953933,0.7653988,-0.7684299,0.5852643,0.258807,-0.6057137,-0.5347218,-0.5892228,,0.08296989,1.2897601,0.4272953,0.9916556,0.10047705,-0.08076873,0.018946845,-0.7333143,-0.6796258,-0.12751566,0.6724244,-0.7290989,,-0.12066913,0.25997195,-0.10129196,-0.78582484,-0.38152772,0.4867401,0.5184687,0.022641465,0.8547968,-0.33714917,0.9240801,0.18001793,,-0.09612717,0.4231762,-0.3348578,0.31893253,0.66331214,-0.6769779,-0.9156473,0.031236112,-0.4007671,-0.24468751,0.7476906,0.6173222,,1.1228699144464953,0.5335481688144229,0.21162841653000003,3.4244464670457675,-0.38955066083127077,-1.3668082144803173,-0.4121170788567865,,-1.4336712989696607,0.1479675618701416,0.20076939520000003,0.7070744894298162,-0.02063211146458151,-0.37988953740455117,0.7923820648173887,,-0.07627525163528219,-0.034472434388453,0.0910472212,-0.1089195372335423,,6.1690807e-06,1.4305115e-06,3.0994415e-06,1.0,9.685755e-07,8.940697e-07,-9.611249e-07,1.0,1.7881393e-07,-8.940697e-07,-1.4901161e-07,1.0,669,2.049,0,0,0.0,False,-0.2626781883941529,0.9668592836242942
2.060568752931431,16:10:54.844534,16:09:36.989112,0,,0.123510554,-0.0021096915,0.027405486,0.72746134,0.49344808,-0.47676927,0.078243196,0.63065886,0.77210575,0.68167293,-0.598981,0.42017108,,0.08671369,-0.012565992,0.022725284,-0.20647633,-0.60946774,0.76545167,-0.7684423,0.5852821,0.25873014,-0.605693,-0.5347839,-0.58918786,,0.08296989,1.2897601,0.4272953,0.9916556,0.10047705,-0.08076873,0.018946845,-0.7333143,-0.6796258,-0.12751566,0.6724244,-0.7290989,,-0.120748274,0.26012382,-0.10124693,-0.773484,-0.39097172,0.49886236,0.52632964,0.04230521,0.84922755,-0.35312843,0.9194299,0.1730576,,-0.09612835,0.42317015,-0.33485922,0.31894466,0.66325015,-0.6770329,-0.91563684,0.031189231,-0.40079474,-0.24471106,0.7477476,0.6172439,,1.1230089236382312,0.5336408416089137,0.21172693457000002,3.409558481058366,-0.40635695030241986,-1.3722166375185494,-0.41309714325359215,,-1.4336635762367864,0.1479366709386447,0.20077069149000001,0.7070744894298162,-0.02063211146458151,-0.3799712161446917,0.7922187207512544,,-0.07627525163528219,-0.034472434388453,0.0910472212,-0.1089195372335423,,6.1690807e-06,1.4305115e-06,3.0994415e-06,1.0,9.685755e-07,8.940697e-07,-9.611249e-07,1.0,1.7881393e-07,-8.940697e-07,-1.4901161e-07,1.0,677,2.074,0,0,0.0,False,-0.2626781883941529,0.9668110034235147
2.0961750079877675,16:10:54.874082,16:09:37.137380,0,,0.12358387,-0.0020237938,0.027462795,0.7185208,0.5039877,-0.4792954,0.07163304,0.6318422,0.7717799,0.6918067,-0.5888733,0.41788965,,0.0867155,-0.012569866,0.022723973,-0.20648514,-0.6094576,0.76545745,-0.7684502,0.58528113,0.25870872,-0.60567987,-0.5347966,-0.58918977,,0.08296989,1.2897601,0.4272953,0.9916556,0.10047705,-0.08076873,0.018946845,-0.7333143,-0.6796258,-0.12751566,0.6724244,-0.7290989,,-0.120819174,0.26022547,-0.10122084,-0.76596415,-0.40219358,0.5015369,0.5285518,0.050126504,0.8474198,-0.3659671,0.9141814,0.17418504,,-0.09612983,0.42316648,-0.33486137,0.3189517,0.663242,-0.6770376,-0.9156304,0.031177482,-0.4008103,-0.24472588,0.74775535,0.6172286,,1.123101596432722,0.5336794552732848,0.21179823052000002,3.4026387129233764,-0.42002060027896393,-1.3694877573833852,-0.4099936059970408,,-1.4336635762367864,0.14791350274002205,0.20077069149000001,0.7070744894298162,-0.02063211146458151,-0.3799712161446917,0.7922187207512544,,-0.07627525163528219,-0.034472434388453,0.0910472212,-0.1089195372335423,,6.1690807e-06,1.4305115e-06,3.0994415e-06,1.0,9.685755e-07,8.940697e-07,-9.611249e-07,1.0,1.7881393e-07,-8.940697e-07,-1.4901161e-07,1.0,685,2.099,0,0,0.0,False,-0.26196325577190027,0.9661833608133816
2.1257222320418805,16:10:54.892434,16:09:37.137380,0,,0.12358989,-0.0019350946,0.027471617,0.7109521,0.50641245,-0.48794818,0.07346016,0.6365812,0.76770306,0.69939303,-0.5816449,0.41537768,,0.086716704,-0.012572489,0.022723079,-0.20649101,-0.60957575,0.7653617,-0.76845545,0.5852383,0.25878996,-0.6056712,-0.53470874,-0.5892784,,0.08296989,1.2897601,0.4272953,0.9916556,0.10047705,-0.08076873,0.018946845,-0.7333143,-0.6796258,-0.12751566,0.6724244,-0.7290989,,-0.12081897,0.26029572,-0.101165645,-0.7589356,-0.40483573,0.5100243,0.535119,0.058542274,0.8427458,-0.37103158,0.9125135,0.17220546,,-0.0961308,0.42316404,-0.3348628,0.31895638,0.66334707,-0.6769324,-0.91562617,0.031235125,-0.40081558,-0.24473578,0.7476597,0.61734056,,1.1232097146929612,0.5336949007390331,0.21187600792000003,3.3913154559752123,-0.425622696769347,-1.3708004926219521,-0.41309714325359215,,-1.4336635762367864,0.14789805727427358,0.20077069149000001,0.7070744894298162,-0.02063211146458151,-0.3798078586644106,0.7922187207512543,,-0.07627525163528219,-0.034472434388453,0.0910472212,-0.1089195372335423,,6.1690807e-06,1.4305115e-06,3.0994415e-06,1.0,9.685755e-07,8.940697e-07,-9.611249e-07,1.0,1.7881393e-07,-8.940697e-07,-1.4901161e-07,1.0,718,2.201,0,0,0.0,False,-0.26196325577190027,0.9663764816164995
2.1440632899757475,16:10:54.992789,16:09:37.137380,0,,0.12376495,-0.001409851,0.027549312,0.6676089,0.536957,-0.51572794,0.05925834,0.6521846,0.75574046,0.74215007,-0.5351003,0.40358517,,0.08672934,-0.012608967,0.022707999,-0.20616364,-0.609602,0.76542914,-0.7686618,0.5849495,0.25883028,-0.60552096,-0.5349948,-0.5891732,,0.08296989,1.2897601,0.4272953,0.9916556,0.10047705,-0.08076873,0.018946845,-0.7333143,-0.6796258,-0.12751566,0.6724244,-0.7290989,,-0.12095836,0.2607292,-0.10084125,-0.72055435,-0.4378469,0.5376723,0.5544057,0.10192596,0.8259815,-0.41645622,0.89325315,0.1693016,,-0.09613987,0.4231281,-0.33488128,0.31861708,0.66342485,-0.67701596,-0.91568214,0.030838741,-0.40071842,-0.24496824,0.7476071,0.617312,,1.1237039695969115,0.5337180689376558,0.21237637586000002,3.348329017560885,-0.4742652906858438,-1.3669110070875925,-0.4116270466583838,,-1.4336326853052894,0.1476818207537953,0.20077069149000001,0.706655109542847,-0.020495474964816067,-0.3797559190878259,0.7915653444867173,,-0.07627525163528219,-0.034472434388453,0.0910472212,-0.1089195372335423,,6.1690807e-06,1.4305115e-06,3.0994415e-06,1.0,9.685755e-07,8.940697e-07,-9.611249e-07,1.0,1.7881393e-07,-8.940697e-07,-1.4901161e-07,1.0,726,2.226,0,0,0.0,False,-0.2621419889274632,0.9661833608133816
2.244420058093965,16:10:55.017813,16:09:37.275220,0,,0.12378971,-0.0012575537,0.027571812,0.6567965,0.54587847,-0.5202259,0.055024475,0.65335894,0.7550459,0.75205755,-0.5245367,0.39908722,,0.086741015,-0.012632719,0.022700489,-0.20633133,-0.6094671,0.76549137,-0.76855564,0.5851389,0.2587173,-0.6055985,-0.5349413,-0.589142,,0.08296989,1.2897601,0.4272953,0.9916556,0.10047705,-0.08076873,0.018946845,-0.7333143,-0.6796258,-0.12751566,0.6724244,-0.7290989,,-0.120972954,0.2608549,-0.10075014,-0.7109704,-0.44749987,0.54246193,0.5581932,0.110057205,0.8223793,-0.42771646,0.8874859,0.17154397,,-0.096149534,0.42310596,-0.33489454,0.31879094,0.6632775,-0.6770785,-0.91565365,0.03097881,-0.40077266,-0.24484842,0.74773204,0.61720824,,1.123958819781761,0.5337335144034043,0.21251637518000002,3.3378445203866587,-0.48656257566473343,-1.362437550084473,-0.411300358526115,,-1.4336326853052894,0.14753508882918503,0.20077069149000001,0.7068647994863316,-0.020358838465050627,-0.3797856582513817,0.791402000420583,,-0.07627525163528219,-0.034472434388453,0.0910472212,-0.1089195372335423,,6.1690807e-06,1.4305115e-06,3.0994415e-06,1.0,9.685755e-07,8.940697e-07,-9.611249e-07,1.0,1.7881393e-07,-8.940697e-07,-1.4901161e-07,1.0,734,2.25,0,0,0.0,False,-0.26273776611267374,0.9657488390063664
2.269446725025773,16:10:55.045314,16:09:37.275220,0,,0.12376623,-0.0011121482,0.027595773,0.64637315,0.54949874,-0.529389,0.057397634,0.65682423,0.751856,0.7608595,-0.5163653,0.39301363,,0.08675142,-0.012654952,0.022693098,-0.20566852,-0.60980666,0.7653993,-0.7689755,0.58445483,0.25901562,-0.60529083,-0.5353021,-0.5891305,,0.08296989,1.2897601,0.4272953,0.9916556,0.10047705,-0.08076873,0.018946845,-0.7333143,-0.6796258,-0.12751566,0.6724244,-0.7290989,,-0.12094025,0.26097667,-0.10067034,-0.7011648,-0.45150793,0.5518229,0.5659977,0.11820092,0.8158891,-0.4336064,0.8844033,0.17267415,,-0.096158,0.4230851,-0.33490676,0.31810352,0.6636888,-0.6769988,-0.9157657,0.030323092,-0.40056676,-0.24532296,0.74739397,0.6174293,,1.1242522836309814,0.5338030189992723,0.21262267096,3.323585604229711,-0.4928478546539437,-1.3595176524982326,-0.4111370144599811,,-1.4336326853052894,0.14740380237032322,0.20077069149000001,0.7060260397123935,-0.020358838465050627,-0.3794589432908195,0.7907486241560459,,-0.07627525163528219,-0.034472434388453,0.0910472212,-0.1089195372335423,,6.1690807e-06,1.4305115e-06,3.0994415e-06,1.0,9.685755e-07,8.940697e-07,-9.611249e-07,1.0,1.7881393e-07,-8.940697e-07,-1.4901161e-07,1.0,742,2.275,0,0,0.0,False,-0.2616653671792948,0.9652660369985722
2.29695227695629,16:10:55.067791,16:09:37.275220,0,,0.12377223,-0.00096303225,0.027634278,0.63881636,0.558613,-0.5290227,0.052128106,0.6546078,0.7541692,0.76759124,-0.5093527,0.38905483,,0.08676713,-0.01268845,0.022681892,-0.20526215,-0.60972655,0.7655722,-0.76911116,0.5842404,0.25909698,-0.6052565,-0.53562737,-0.58887005,,0.08296989,1.2897601,0.4272953,0.9916556,0.10047705,-0.08076873,0.018946845,-0.7333143,-0.6796258,-0.12751566,0.6724244,-0.7290989,,-0.120937794,0.26111114,-0.10059503,-0.69463086,-0.4613209,0.55197006,0.5668401,0.12142755,0.8148298,-0.4429224,0.87888473,0.17714785,,-0.09617079,0.4230536,-0.33492514,0.31770113,0.66366494,-0.67721105,-0.91587853,0.029927766,-0.40033847,-0.2454232,0.74743104,0.61734456,,1.124684756671938,0.5338956917937631,0.21274063335,3.3175045958686598,-0.5030955921363518,-1.3526315270435312,-0.4114637025922496,,-1.4336249625724153,0.14719528858271916,0.20077198778000002,0.7056066598254245,-0.020085565465519747,-0.37951842161793126,0.7907486241560459,,-0.07627525163528219,-0.034472434388453,0.0910472212,-0.1089195372335423,,6.1690807e-06,1.4305115e-06,3.0994415e-06,1.0,9.685755e-07,8.940697e-07,-9.611249e-07,1.0,1.7881393e-07,-8.940697e-07,-1.4901161e-07,1.0,750,2.299,0,0,0.0,False,-0.26273776611267374,0.9655557182032488
2.3194247731007636,16:10:55.095981,16:09:37.275220,0,,0.12374735,-0.00084040314,0.027708158,0.6272187,0.5637897,-0.5373433,0.05260557,0.6576826,0.7514561,0.7770645,-0.49959457,0.38285244,,0.08677742,-0.012708656,0.022674024,-0.20530915,-0.6099847,0.7653539,-0.76915336,0.58412963,0.25922114,-0.6051868,-0.53545415,-0.58909905,,0.08296989,1.2897601,0.4272953,0.9916556,0.10047705,-0.08076873,0.018946845,-0.7333143,-0.6796258,-0.12751566,0.6724244,-0.7290989,,-0.12090967,0.26125088,-0.10056688,-0.6838627,-0.46703807,0.560542,0.57373774,0.1303822,0.80859476,-0.45072922,0.87457186,0.17879386,,-0.09617913,0.42303357,-0.3349355,0.31773856,0.6638978,-0.6769652,-0.91584426,0.030028671,-0.4004092,-0.24550241,0.74722016,0.6175683,,1.1250245569184039,0.5339574736567568,0.21280544785000002,3.3030359897682278,-0.5115670551218091,-1.3487457303995538,-0.412933799187458,,-1.4336249625724153,0.14707172485673156,0.20077198778000002,0.7056066598254245,-0.020085565465519747,-0.3791100279172284,0.7899319038253745,,-0.07627525163528219,-0.034472434388453,0.0910472212,-0.1089195372335423,,6.1690807e-06,1.4305115e-06,3.0994415e-06,1.0,9.685755e-07,8.940697e-07,-9.611249e-07,1.0,1.7881393e-07,-8.940697e-07,-1.4901161e-07,1.0,779,2.389,0,0,0.0,False,-0.2616653671792948,0.9651694765970131
2.347613203106448,16:10:55.176218,16:09:37.433279,0,,0.12368806,-0.00048558414,0.028027073,0.59147966,0.5876089,-0.55214804,0.038653553,0.6633248,0.7473327,0.80539286,-0.4633746,0.36963,,0.086820215,-0.012772641,0.022657394,-0.20359032,-0.61063933,0.76529104,-0.7685708,0.5839051,0.26144543,-0.6065063,-0.53495264,-0.5881971,,0.08296989,1.2897601,0.4272953,0.9916556,0.10047705,-0.08076873,0.018946845,-0.7333143,-0.6796258,-0.12751566,0.6724244,-0.7290989,,-0.12084967,0.2617278,-0.1005595,-0.6518119,-0.4932839,0.57603145,0.583237,0.15943916,0.7965009,-0.48474306,0.8551317,0.18377706,,-0.0962169,0.4229753,-0.3349726,0.31621766,0.6644773,-0.67710876,-0.9167405,0.03036759,-0.39832738,-0.24411733,0.74669117,0.618756,,1.1263837579042675,0.5339960873211279,0.21298303958000003,3.268017769206312,-0.5495520020566015,-1.335250803562029,-0.41195373479065234,,-1.433617239839541,0.14658519268565542,0.20077458036,0.7047679000514864,-0.017626108469741816,-0.3779300793182821,0.7904219360237773,,-0.07627525163528219,-0.034472434388453,0.0910472212,-0.1089195372335423,,6.1690807e-06,1.4305115e-06,3.0994415e-06,1.0,9.685755e-07,8.940697e-07,-9.611249e-07,1.0,1.7881393e-07,-8.940697e-07,-1.4901161e-07,1.0,783,2.402,0,0,0.0,False,-0.26232072208302704,0.9650246359946748
2.4278500699438155,16:10:55.196681,16:09:37.433279,0,,0.12364654,-0.0004131943,0.028120413,0.58120257,0.5936298,-0.55660325,0.036635697,0.664209,0.7466486,0.8129338,-0.45434564,0.36429203,,0.0868271,-0.012786052,0.0226534,-0.20355618,-0.6105689,0.7653563,-0.76853734,0.5839484,0.261447,-0.6065601,-0.5349859,-0.5881114,,0.08296989,1.2897601,0.4272953,0.9916556,0.10047705,-0.08076873,0.018946845,-0.7333143,-0.6796258,-0.12751566,0.6724244,-0.7290989,,-0.12081057,0.26184466,-0.10058169,-0.6423892,-0.49994996,0.5808495,0.58699375,0.1663046,0.7923264,-0.4927215,0.84993696,0.18663524,,-0.09622268,0.42296296,-0.33498016,0.31619087,0.66441125,-0.67718613,-0.9167661,0.030358983,-0.398269,-0.2440557,0.74675035,0.6187089,,1.1267312808836074,0.5339343054581341,0.21300378022000002,3.256694512258148,-0.5585700110411206,-1.329775832941298,-0.4121170788567865,,-1.433617239839541,0.14650024262403896,0.20077458036,0.7047679000514864,-0.017489471969976376,-0.3779598184818379,0.7905852800899116,,-0.07627525163528219,-0.034472434388453,0.0910472212,-0.1089195372335423,,6.1690807e-06,1.4305115e-06,3.0994415e-06,1.0,9.685755e-07,8.940697e-07,-9.611249e-07,1.0,1.7881393e-07,-8.940697e-07,-1.4901161e-07,1.0,791,2.426,0,0,0.0,False,-0.26243987752006825,0.964831515191557
2.4483191270846874,16:10:55.226290,16:09:37.433279,0,,0.123587,-0.00031848252,0.028251931,0.5683403,0.60231453,-0.56054115,0.032076478,0.6645285,0.74657404,0.822168,-0.44228834,0.3583583,,0.08683618,-0.012798927,0.02264756,-0.20340699,-0.6106886,0.76530045,-0.76865834,0.5837558,0.26152152,-0.60645676,-0.53505933,-0.58815104,,0.08296989,1.2897601,0.4272953,0.9916556,0.10047705,-0.08076873,0.018946845,-0.7333143,-0.6796258,-0.12751566,0.6724244,-0.7290989,,-0.120755,0.26200405,-0.100618064,-0.630738,-0.5095593,0.58525115,0.5900835,0.17484872,0.78818107,-0.50395536,0.8424828,0.19039877,,-0.09623037,0.42294928,-0.33498612,0.31603193,0.6645467,-0.67712736,-0.91678137,0.030199425,-0.398246,-0.24420421,0.7466362,0.61878806,,1.1272718721848032,0.5338339099307692,0.21302970602000001,3.2436937357621076,-0.571413842019072,-1.322324663379035,-0.41130035852611524,,-1.4336249625724153,0.14641529256242247,0.20077717294000003,0.7045582101080018,-0.017489471969976376,-0.3777964610015567,0.7900952478915088,,-0.07627525163528219,-0.034472434388453,0.0910472212,-0.1089195372335423,,6.1690807e-06,1.4305115e-06,3.0994415e-06,1.0,9.685755e-07,8.940697e-07,-9.611249e-07,1.0,1.7881393e-07,-8.940697e-07,-1.4901161e-07,1.0,803,2.463,0,0,0.0,False,-0.26285692154971585,0.964831515191557
2.477926324121654,16:10:55.257495,16:09:37.433279,0,,0.123500496,-0.00021039695,0.028403327,0.5526139,0.6108048,-0.5670408,0.027833879,0.66645914,0.7450218,0.83297247,-0.4274924,0.35129356,,0.086837605,-0.012808136,0.022640884,-0.20325918,-0.6107781,0.7652683,-0.7687759,0.58357686,0.26157522,-0.60635734,-0.5351524,-0.588169,,0.08296989,1.2897601,0.4272953,0.9916556,0.10047705,-0.08076873,0.018946845,-0.7333143,-0.6796258,-0.12751566,0.6724244,-0.7290989,,-0.12067326,0.26218686,-0.100662656,-0.6163478,-0.51907814,0.59217674,0.59448934,0.18644921,0.78218865,-0.51642793,0.83414304,0.19366887,,-0.09623049,0.4229382,-0.33498913,0.3158748,0.66465473,-0.6770947,-0.9167973,0.030029062,-0.39822227,-0.2443478,0.7465469,0.6188391,,1.1278974135476154,0.5336794552732848,0.21305692811000002,3.226918540283345,-0.5857606744944432,-1.3147913992380797,-0.4114637025922494,,-1.4336017943737926,0.1463612334323029,0.20077846923,0.7043485201645173,-0.017489471969976376,-0.37771478226141625,0.7900952478915088,,-0.07627525163528219,-0.034472434388453,0.0910472212,-0.1089195372335423,,6.1690807e-06,1.4305115e-06,3.0994415e-06,1.0,9.685755e-07,8.940697e-07,-9.611249e-07,1.0,1.7881393e-07,-8.940697e-07,-1.4901161e-07,1.0,811,2.488,0,0,0.0,False,-0.26190367805337944,0.9650729161954543
2.5091327929403633,16:10:55.286421,16:09:37.433279,0,,0.12341364,-8.799136e-05,0.028591976,0.5328701,0.62109995,-0.5747035,0.02178821,0.6688645,0.74306494,0.8459164,-0.40847892,0.34288543,,0.08684069,-0.012810788,0.022637665,-0.20326796,-0.61095536,0.7651245,-0.76878387,0.5835118,0.26169673,-0.6063443,-0.5350209,-0.588302,,0.08296989,1.2897601,0.4272953,0.9916556,0.10047705,-0.08076873,0.018946845,-0.7333143,-0.6796258,-0.12751566,0.6724244,-0.7290989,,-0.12059316,0.26240575,-0.10072421,-0.598286,-0.5307051,0.6003382,0.599072,0.20130241,0.7749775,-0.53213406,0.82330394,0.19749415,,-0.09623297,0.42293364,-0.33498907,0.3158818,0.66481245,-0.67693657,-0.9167909,0.030114926,-0.3982305,-0.2443627,0.74640304,0.61900675,,1.1285306776433017,0.5335250006158002,0.21308803907,3.2063689258218617,-0.6039333289632467,-1.305526972376014,-0.4121170788567865,,-1.4336017943737926,0.14633806523368023,0.20078106181000002,0.7043485201645173,-0.017489471969976376,-0.37746974604099454,0.790258591957643,,-0.07627525163528219,-0.034472434388453,0.0910472212,-0.1089195372335423,,6.1690807e-06,1.4305115e-06,3.0994415e-06,1.0,9.685755e-07,8.940697e-07,-9.611249e-07,1.0,1.7881393e-07,-8.940697e-07,-1.4901161e-07,1.0,819,2.512,0,0,0.0,False,-0.26297607698675796,0.9650246359946748
2.538035683101043,16:10:55.309891,16:09:37.433279,0,,0.12329322,1.4513731e-05,0.028715685,0.5188379,0.62706983,-0.5810255,0.01871401,0.6711691,0.741068,0.8546678,-0.39536753,0.33649302,,0.08684261,-0.012811414,0.022633195,-0.20315048,-0.6107635,0.7653089,-0.7686702,0.58364236,0.26173967,-0.60652775,-0.5350977,-0.58804303,,0.08296989,1.2897601,0.4272953,0.9916556,0.10047705,-0.08076873,0.018946845,-0.7333143,-0.6796258,-0.12751566,0.6724244,-0.7290989,,-0.12047584,0.26256543,-0.10075657,-0.5853162,-0.5375503,0.6069964,0.6029042,0.21201353,0.7691273,-0.5421361,0.81614333,0.19999637,,-0.09623418,0.42292953,-0.33498666,0.31578937,0.66463006,-0.6771588,-0.9168787,0.030109914,-0.39802867,-0.2441526,0.7465657,0.6188935,,1.1292025554033593,0.5332933186295735,0.21311915003,3.1906421800605225,-0.6156840679430747,-1.2989671460433225,-0.4126071110551892,,-1.4335863489080443,0.14631489703505757,0.20078495068000002,0.7043485201645173,-0.017216198970445497,-0.3776925818483874,0.790258591957643,,-0.07627525163528219,-0.034472434388453,0.0910472212,-0.1089195372335423,,6.1690807e-06,1.4305115e-06,3.0994415e-06,1.0,9.685755e-07,8.940697e-07,-9.611249e-07,1.0,1.7881393e-07,-8.940697e-07,-1.4901161e-07,1.0,844,2.59,0,0,0.0,False,-0.2630356547052788,0.9651211963962336
2.561492782086134,16:10:55.379958,16:09:37.627015,0,,0.12298203,0.0002959296,0.029072687,0.47197044,0.6474485,-0.59837633,0.007960647,0.6755706,0.73725235,0.8815784,-0.35272476,0.31369537,,0.086949185,-0.012765693,0.022628546,-0.20309621,-0.61090356,0.76521134,-0.76871943,0.5835346,0.26183537,-0.6064835,-0.53505516,-0.58812726,,0.08301139,1.2897657,0.4272989,0.9916567,0.10043159,-0.08081085,0.018885374,-0.7333205,-0.6796208,-0.12751566,0.6724244,-0.7290989,,-0.12020765,0.26301804,-0.100843035,-0.54183805,-0.56096715,0.62588125,0.6137717,0.2446417,0.7506229,-0.57419145,0.7908642,0.21174958,,-0.09637594,0.4229389,-0.33493024,0.3156791,0.66479814,-0.6770451,-0.91689855,0.03007122,-0.3979859,-0.24422073,0.7464175,0.6190453,,1.1304459153961095,0.5326677772667613,0.21324359387000003,3.138848764019845,-0.6536690148778671,-1.2728936932241508,-0.41228042292292066,,-1.4335554579765473,0.14619133330906997,0.20078883955000001,0.7043485201645173,-0.017216198970445497,-0.3775292243681062,0.7899319038253744,,-0.07627525163528219,-0.034472434388453,0.0910472212,-0.1089195372335423,,4.697591e-05,3.874302e-06,-6.67572e-06,1.0,-4.4226646e-05,-4.0777028e-05,4.4226646e-05,1.0,-7.7188015e-06,4.079193e-05,7.7188015e-06,1.0,852,2.615,0,0,0.0,False,-0.26243987752006825,0.9645901141876596
