AlexandreBanks6/ExpertPlaybackApp/resources/Motions/P_19/PC1/Data_PC1_1.csv
Task Time,PC1 Time,PC2 Time,Gaze Calib,s_T_psm1,Tx,Ty,Tz,R00,R01,R02,R10,R11,R12,R20,R21,R22,s_T_psm3,Tx,Ty,Tz,R00,R01,R02,R10,R11,R12,R20,R21,R22,cart_T_ecm,Tx,Ty,Tz,R00,R01,R02,R10,R11,R12,R20,R21,R22,ecm_T_psm1,Tx,Ty,Tz,R00,R01,R02,R10,R11,R12,R20,R21,R22,ecm_T_psm3,Tx,Ty,Tz,R00,R01,R02,R10,R11,R12,R20,R21,R22,psm1_joints,q1,q2,q3,q4,q5,q6,jaw,psm3_joints,q1,q2,q3,q4,q5,q6,jaw,ecm_joints,q1,q2,q3,q4,ecmi_T_ecm,Tx,Ty,Tz,R00,R01,R02,R10,R11,R12,R20,R21,R22,Sample #,Task Duration (s),Collisions (binary),Collisions (increments),Cumulative Collision Time (s),Clutch Press,MTMR Angle,MTML Angle
""
lci_T_si,,,,,-0.050445605,0.031140205,0.20799266,0.9865919,-0.013161347,0.16267522,0.100886725,-0.734317,-0.67126775,0.12828997,0.67867905,-0.7231434
rci_T_si,,,,,-0.059559833,0.035046782,0.21627636,0.9849687,-0.028336054,0.17039265,0.097400196,-0.72355855,-0.6833566,0.14265269,0.6896812,-0.7099226
ecm_T_lc,,,,,-4.4061628e-05,-0.00034663224,-0.01840835,-0.99912,0.030754527,0.028518902,-0.031987965,-0.99852574,-0.043852776,0.027128186,-0.04472645,0.9986309
ecm_T_rc,,,,,-0.0043358393,0.01870579,-0.007592615,-0.99555075,-0.052743673,-0.078081585,0.04863213,-0.9973746,0.053654674,-0.08070653,0.04961868,0.9955021
cart_T_ecmi,,,,,0.08296387,1.2897631,0.42729735,0.9916556,0.10047608,-0.08076963,0.018945528,-0.7333144,-0.6796257,-0.12751566,0.6724244,-0.7290989
ecmac_T_ecmrep_psm1,,,,,0.022898523,-0.26913688,-0.29720387,0.9902475,0.13300471,0.041468147,-0.1315095,0.99062705,-0.036922794,-0.045990374,0.031109251,0.9984574
ecmac_T_ecmrep_psm3,,,,,0.02078248,-0.4666591,-0.5231304,0.997355,0.0035024614,0.07259993,-0.011652398,0.993624,0.11214125,-0.07174426,-0.1126906,0.99103665
""
0,16:03:12.162775,16:01:54.404842,0,,0.123413324,-0.0026648268,0.0123592615,0.9502048,0.23522034,-0.20440695,0.125259,0.31232262,0.94168186,0.28534368,-0.9203945,0.26730707,,0.0727716,-0.029056586,0.06638259,0.20358975,-0.5484833,0.8109976,-0.38666964,0.7159623,0.5812783,-0.8994652,-0.43193063,-0.06631935,,0.082962215,1.2897649,0.42730072,0.99165535,0.10048458,-0.080761746,0.018957024,-0.7333132,-0.67962664,-0.12751566,0.6724244,-0.7290989,,-0.11943213,0.24933626,-0.09081863,-0.9580165,-0.13246809,0.2542766,0.28651783,-0.40960073,0.86610323,-0.010579152,0.90259594,0.43035874,,-0.0883168,0.44867647,-0.37560606,-0.05480463,0.5834571,-0.8102927,-0.9631066,0.18325068,0.19709127,0.263481,0.79119974,0.5518884,,1.0861714878281803,0.5071518678503235,0.22183281141000002,3.7423364213683064,-0.06162306139421364,-1.170030903132914,-0.4207743143619034,,-1.5056240011588105,0.1464925198911647,0.15617831549000002,0.6401833974582528,0.5734633895155536,-0.4220442048154469,0.8751975063474682,,-0.07627525163528219,-0.034472434388453,0.0910472212,-0.10859245153614427,,-2.041459e-06,7.748604e-07,-3.4570694e-06,1.0,8.448958e-06,7.8082085e-06,-8.448958e-06,1.0,1.4901161e-06,-7.785857e-06,-1.4901161e-06,1.0,35,0.106,0,0,0.0,False,-0.26112916771260597,1.0497563883626244
0.1280645749066025,16:03:12.185148,16:01:54.404842,0,,0.1233216,-0.0025978982,0.012407109,0.9500804,0.23568991,-0.20444408,0.12523156,0.3120942,0.94176126,0.28576946,-0.9203518,0.26699877,,0.07276034,-0.0290666,0.06639689,0.20358975,-0.5484833,0.8109976,-0.38666964,0.7159623,0.5812783,-0.8994652,-0.43193063,-0.06631935,,0.082962215,1.2897649,0.42730072,0.99165535,0.10048458,-0.080761746,0.018957024,-0.7333132,-0.67962664,-0.12751566,0.6724244,-0.7290989,,-0.11933978,0.2494178,-0.09081758,-0.9579306,-0.13295598,0.2543454,0.28679204,-0.40973714,0.8659479,-0.010918202,0.9024623,0.43063048,,-0.08830747,0.44868287,-0.37562343,-0.05480463,0.5834571,-0.8102927,-0.9631066,0.18325068,0.19709127,0.263481,0.79119974,0.5518884,,1.086843365588238,0.5071518678503235,0.22183281141000002,3.7417073515378525,-0.06230624389304085,-1.16922877739401,-0.4212643465603063,,-1.5056240011588105,0.1464925198911647,0.15615757485,0.6401833974582528,0.5734633895155536,-0.4220442048154469,0.8751975063474682,,-0.07627525163528219,-0.034472434388453,0.0910472212,-0.10859245153614427,,-2.041459e-06,7.748604e-07,-3.4570694e-06,1.0,8.448958e-06,7.8082085e-06,-8.448958e-06,1.0,1.4901161e-06,-7.785857e-06,-1.4901161e-06,1.0,46,0.138,0,0,0.0,False,-0.26148663402373185,1.0498529487641832
0.1504168699029833,16:03:12.224286,16:01:54.404842,0,,0.12320169,-0.002552487,0.012477443,0.94769734,0.24295244,-0.20698707,0.12621707,0.31037754,0.94219685,0.29315314,-0.91904294,0.26347926,,0.07265894,-0.029083941,0.066432536,0.20359476,-0.5484181,0.8110404,-0.3866614,0.7160113,0.58122355,-0.8994677,-0.4319322,-0.06627607,,0.08297769,1.2897626,0.42729515,0.9916557,0.10047289,-0.080772586,0.018941214,-0.7333148,-0.67962533,-0.12751566,0.6724244,-0.7290989,,-0.11923707,0.24950103,-0.09085433,-0.9560994,-0.14040929,0.25721422,0.29261562,-0.41008052,0.8638345,-0.015811853,0.9011766,0.43316367,,-0.08822684,0.4487143,-0.37567016,-0.05481783,0.583402,-0.81033146,-0.9631028,0.18326566,0.19709559,0.2634919,0.7912369,0.5518299,,1.0876156388756604,0.5068970176654741,0.22180040416000002,3.735416653233317,-0.06804497688318935,-1.165692727800728,-0.4219177228248432,,-1.5056394466245588,0.14650796535691318,0.15612127873,0.6401833974582528,0.5734633895155536,-0.4220442048154469,0.8751975063474682,,-0.07627525163528219,-0.034472434388453,0.0910472212,-0.10859245153614427,,1.3973564e-05,2.9802322e-07,9.536743e-07,1.0,-3.1664968e-06,-2.9206276e-06,3.181398e-06,1.0,-5.364418e-07,2.9280782e-06,5.364418e-07,1.0,54,0.163,0,0,0.0,False,-0.2611887454311268,1.0495632675595068
0.18956792796961963,16:03:12.245186,16:01:54.404842,0,,0.12318973,-0.0025922507,0.012504831,0.94652534,0.24680737,-0.20778765,0.12594435,0.31028715,0.94226325,0.29703134,-0.91804576,0.2626107,,0.07265364,-0.029085193,0.06643683,0.20359105,-0.5483643,0.8110777,-0.38665116,0.7160561,0.58117515,-0.8994729,-0.4319263,-0.06624311,,0.08297769,1.2897626,0.42729515,0.9916557,0.10047289,-0.080772586,0.018941214,-0.7333148,-0.67962533,-0.12751566,0.6724244,-0.7290989,,-0.11923059,0.24949118,-0.09090265,-0.95528007,-0.14432926,0.25808725,0.29509658,-0.40946198,0.8632838,-0.018920211,0.9008385,0.43374196,,-0.088222206,0.4487176,-0.37567422,-0.054813728,0.5833464,-0.81037176,-0.9631,0.18329057,0.19708608,0.26350296,0.7912721,0.5517741,,1.0876928662044025,0.5067039493436185,0.22175503401000002,3.7329003739115025,-0.07146088937732537,-1.1649492487118316,-0.4211010024941719,,-1.5056317238916845,0.14652341082266163,0.15611479728000002,0.6401833974582528,0.5734633895155536,-0.42212588355558744,0.875034162281334,,-0.07627525163528219,-0.034472434388453,0.0910472212,-0.10859245153614427,,1.3973564e-05,2.9802322e-07,9.536743e-07,1.0,-3.1664968e-06,-2.9206276e-06,3.181398e-06,1.0,-5.364418e-07,2.9280782e-06,5.364418e-07,1.0,62,0.187,0,0,0.0,False,-0.26053339052739544,1.0494667071579475
0.21046645590104163,16:03:12.267380,16:01:54.520949,0,,0.12322879,-0.0026375353,0.012558892,0.9434516,0.25775775,-0.20847037,0.12420713,0.30820125,0.94317794,0.30736226,-0.9157363,0.25875753,,0.07265526,-0.029084954,0.06643838,0.20360288,-0.54835606,0.8110803,-0.38664716,0.7160598,0.5811732,-0.89947194,-0.43193057,-0.06622854,,0.08297769,1.2897626,0.42729515,0.9916557,0.10047289,-0.080772586,0.018941214,-0.7333148,-0.67962533,-0.12751566,0.6724244,-0.7290989,,-0.11927743,0.2494957,-0.0909681,-0.9532244,-0.15556355,0.25915855,0.30097413,-0.4093894,0.86128676,-0.027888058,0.89899963,0.4370606,,-0.088224046,0.44871873,-0.37567484,-0.054825675,0.58333886,-0.8103764,-0.9630984,0.18328846,0.19709581,0.2635063,0.7912782,0.5517638,,1.0877469253345222,0.5064954355560145,0.22169410838000003,3.727029055493936,-0.08088880786114075,-1.1609369566631038,-0.4212643465603063,,-1.5056471693574331,0.14652341082266163,0.15611479728000002,0.6401833974582528,0.5734633895155536,-0.42212588355558744,0.875034162281334,,-0.07627525163528219,-0.034472434388453,0.0910472212,-0.10859245153614427,,1.3973564e-05,2.9802322e-07,9.536743e-07,1.0,-3.1664968e-06,-2.9206276e-06,3.181398e-06,1.0,-5.364418e-07,2.9280782e-06,5.364418e-07,1.0,73,0.22,0,0,0.0,False,-0.26154621174225356,1.0493218665556094
0.2326691539492458,16:03:12.298664,16:01:54.520949,0,,0.12332457,-0.0027062893,0.01271297,0.9368591,0.27745116,-0.21287481,0.12218457,0.31066173,0.9426347,0.32766715,-0.909126,0.2571461,,0.07265405,-0.029086117,0.06643945,0.20368503,-0.5484904,0.8109688,-0.38683078,0.71584696,0.58131313,-0.8993743,-0.4321126,-0.06636572,,0.08297769,1.2897626,0.42729515,0.9916557,0.10047289,-0.080772586,0.018941214,-0.7333148,-0.67962533,-0.12751566,0.6724244,-0.7290989,,-0.11939082,0.2495522,-0.09111504,-0.948528,-0.17548747,0.2636262,0.31353384,-0.4030683,0.8597863,-0.04462236,0.8981871,0.43734285,,-0.08822297,0.448719,-0.37567648,-0.05491553,0.58350563,-0.8102503,-0.96314764,0.18303435,0.19709137,0.26330754,0.791214,0.55195063,,1.087878211793384,0.50634098089853,0.22155410906000003,3.71423796894138,-0.09837827983111713,-1.1596623846723113,-0.4204476262296346,,-1.5056548920903072,0.14652341082266163,0.1561122047,0.6399737075147683,0.5733267530157882,-0.42201446565189105,0.875034162281334,,-0.07627525163528219,-0.034472434388453,0.0910472212,-0.10859245153614427,,1.3973564e-05,2.9802322e-07,9.536743e-07,1.0,-3.1664968e-06,-2.9206276e-06,3.181398e-06,1.0,-5.364418e-07,2.9280782e-06,5.364418e-07,1.0,81,0.245,0,0,0.0,False,-0.26136747858668974,1.0490321853509326
0.2639548499137163,16:03:12.328925,16:01:54.520949,0,,0.12334953,-0.0028323159,0.01309,0.92966574,0.29655296,-0.21858129,0.12158018,0.31310904,0.9419029,0.34776387,-0.90223,0.25503182,,0.072651505,-0.029091183,0.066443205,0.20368282,-0.54848224,0.81097496,-0.3868431,0.71584773,0.5813041,-0.8993696,-0.4321218,-0.066370726,,0.08297769,1.2897626,0.42729515,0.9916557,0.10047289,-0.080772586,0.018941214,-0.7333148,-0.67962533,-0.12751566,0.6724244,-0.7290989,,-0.11945693,0.24972124,-0.0914696,-0.9431065,-0.19484858,0.2694146,0.32697666,-0.39655894,0.85780376,-0.060303073,0.8970925,0.43770826,,-0.08822086,0.4487191,-0.37568298,-0.054913655,0.58349884,-0.8102553,-0.9631513,0.18302658,0.19708104,0.26329482,0.79122084,0.55194694,,1.0885269213548188,0.506410485494398,0.22120411076000002,3.6999790527844323,-0.11491129630273542,-1.1576158419447231,-0.4197942499650975,,-1.5056548920903072,0.14650796535691318,0.15610572325000002,0.6399737075147683,0.5733267530157882,-0.42201446565189105,0.875034162281334,,-0.07627525163528219,-0.034472434388453,0.0910472212,-0.10859245153614427,,1.3973564e-05,2.9802322e-07,9.536743e-07,1.0,-3.1664968e-06,-2.9206276e-06,3.181398e-06,1.0,-5.364418e-07,2.9280782e-06,5.364418e-07,1.0,93,0.281,0,0,0.0,False,-0.26112916771260597,1.0497563883626244
0.29415803402662277,16:03:12.365107,16:01:54.520949,0,,0.12325293,-0.0028642341,0.013451055,0.92509514,0.30836266,-0.2216109,0.12168017,0.31210417,0.94222337,0.35971218,-0.89861196,0.25120446,,0.07265021,-0.029092941,0.06644666,0.20368873,-0.5484781,0.8109762,-0.38684112,0.7158496,0.5813031,-0.89936906,-0.43212396,-0.066363454,,0.08297769,1.2897626,0.42729515,0.9916557,0.10047289,-0.080772586,0.018941214,-0.7333148,-0.67962533,-0.12751566,0.6724244,-0.7290989,,-0.11939359,0.24994746,-0.09176202,-0.9395553,-0.20696135,0.27276888,0.33530167,-0.3948018,0.85539716,-0.06934451,0.8951528,0.4403326,,-0.08822003,0.44872087,-0.37568656,-0.05491963,0.583495,-0.8102576,-0.96315044,0.18302552,0.1970859,0.26329646,0.7912239,0.5519418,,1.0897471131489462,0.5065726628847567,0.22091244551000003,3.690543005327629,-0.12474912428584713,-1.1529425812243437,-0.42093765842803776,,-1.5056626148231815,0.14650796535691318,0.15610183438000003,0.6399737075147683,0.5733267530157882,-0.42201446565189105,0.875034162281334,,-0.07627525163528219,-0.034472434388453,0.0910472212,-0.10859245153614427,,1.3973564e-05,2.9802322e-07,9.536743e-07,1.0,-3.1664968e-06,-2.9206276e-06,3.181398e-06,1.0,-5.364418e-07,2.9280782e-06,5.364418e-07,1.0,104,0.314,0,0,0.0,False,-0.2612483231496481,1.049708108161845
0.33039430901408195,16:03:12.397948,16:01:54.653931,0,,0.12313041,-0.0028396025,0.0138415545,0.91970295,0.32309026,-0.22306736,0.11783308,0.31482035,0.9418087,0.37451532,-0.892469,0.2514705,,0.07264609,-0.02909458,0.06644976,0.20368394,-0.5484863,0.81097186,-0.38683692,0.7158474,0.5813086,-0.899372,-0.43211722,-0.06636822,,0.08297769,1.2897626,0.42729515,0.9916557,0.10047289,-0.080772586,0.018941214,-0.7333148,-0.67962533,-0.12751566,0.6724244,-0.7290989,,-0.11930255,0.250235,-0.0920398,-0.9357345,-0.22189307,0.2741612,0.3427422,-0.38861275,0.85528237,-0.08323869,0.89428383,0.4396905,,-0.08821637,0.44872284,-0.37569004,-0.054914594,0.58350223,-0.8102528,-0.9631494,0.18303047,0.1970862,0.26330116,0.79121745,0.5519488,,1.091415223449779,0.5066962266107443,0.22064022461000002,3.681736027701279,-0.13964250276028015,-1.151416265939707,-0.4219177228248432,,-1.5056548920903072,0.1465156880897874,0.15609664922000002,0.6399737075147683,0.5733267530157882,-0.42201446565189105,0.875034162281334,,-0.07627525163528219,-0.034472434388453,0.0910472212,-0.10859245153614427,,1.3973564e-05,2.9802322e-07,9.536743e-07,1.0,-3.1664968e-06,-2.9206276e-06,3.181398e-06,1.0,-5.364418e-07,2.9280782e-06,5.364418e-07,1.0,115,0.347,0,0,0.0,False,-0.26059296824591627,1.0496115477602863
0.3632336910814047,16:03:12.429239,16:01:54.653931,0,,0.12291912,-0.0027829856,0.01425375,0.91535455,0.33369446,-0.22533056,0.11555417,0.31837386,0.94089603,0.38571113,-0.88729143,0.25286528,,0.07264387,-0.029098544,0.06645471,0.20368873,-0.5484781,0.8109762,-0.38684112,0.7158496,0.5813031,-0.89936906,-0.43212396,-0.066363454,,0.08297769,1.2897626,0.42729515,0.9916557,0.10047289,-0.080772586,0.018941214,-0.7333148,-0.67962533,-0.12751566,0.6724244,-0.7290989,,-0.11912263,0.2505607,-0.09232138,-0.9325271,-0.23258245,0.27622184,0.34882626,-0.38247958,0.8555873,-0.093345374,0.8942118,0.43780345,,-0.08821478,0.44872448,-0.37569633,-0.05491963,0.583495,-0.8102576,-0.96315044,0.18302552,0.1970859,0.26329646,0.7912239,0.5519418,,1.0934926385929453,0.5068275130696062,0.22036281855000003,3.6739774997923518,-0.15084669574104626,-1.151101301771781,-0.42093765842803754,,-1.5056626148231815,0.14650796535691318,0.15609016777,0.6399737075147683,0.5733267530157882,-0.42201446565189105,0.875034162281334,,-0.07627525163528219,-0.034472434388453,0.0910472212,-0.10859245153614427,,1.3973564e-05,2.9802322e-07,9.536743e-07,1.0,-3.1664968e-06,-2.9206276e-06,3.181398e-06,1.0,-5.364418e-07,2.9280782e-06,5.364418e-07,1.0,130,0.392,0,0,0.0,False,-0.2611887454311268,1.0495632675595068
0.39452714403159916,16:03:12.467341,16:01:54.653931,0,,0.12262948,-0.002689734,0.014671966,0.91077,0.34352994,-0.22909608,0.11733446,0.31663784,0.9412615,0.395892,-0.88415366,0.24807632,,0.07263591,-0.029104445,0.066461146,0.20367692,-0.5484863,0.81097364,-0.38684505,0.7158459,0.581305,-0.8993701,-0.43211967,-0.06637803,,0.08297769,1.2897626,0.42729515,0.9916557,0.10047289,-0.080772586,0.018941214,-0.7333148,-0.67962533,-0.12751566,0.6724244,-0.7290989,,-0.11886251,0.25091717,-0.092591114,-0.9286834,-0.24275099,0.28039098,0.35714704,-0.3815808,0.8525503,-0.09996563,0.89189017,0.44106555,,-0.088207684,0.44872692,-0.37570548,-0.054907683,0.5835026,-0.81025296,-0.96315205,0.18302764,0.19707617,0.26329315,0.7912178,0.5519521,,1.0959098539825776,0.5069433540627195,0.22009578281000003,3.663493002618125,-0.1587716127274418,-1.1447207420975292,-0.4207743143619034,,-1.5056471693574331,0.14650796535691318,0.15607850116000002,0.6399737075147683,0.5733267530157882,-0.42201446565189105,0.875034162281334,,-0.07627525163528219,-0.034472434388453,0.0910472212,-0.10859245153614427,,1.3973564e-05,2.9802322e-07,9.536743e-07,1.0,-3.1664968e-06,-2.9206276e-06,3.181398e-06,1.0,-5.364418e-07,2.9280782e-06,5.364418e-07,1.0,137,0.413,0,0,0.0,False,-0.26112916771260597,1.0496115477602863
0.4326231540180743,16:03:12.497778,16:01:54.653931,0,,0.12249016,-0.0026556775,0.014898881,0.9076125,0.3498469,-0.23204857,0.117911324,0.31806067,0.9407095,0.40290982,-0.881161,0.2474249,,0.07263276,-0.029110644,0.066467464,0.2036806,-0.5484739,0.8109811,-0.38685536,0.7158485,0.5812949,-0.8993648,-0.43213096,-0.0663757,,0.08297769,1.2897626,0.42729515,0.9916557,0.10047289,-0.080772586,0.018941214,-0.7333148,-0.67962533,-0.12751566,0.6724244,-0.7290989,,-0.11874039,0.2510986,-0.09274678,-0.9260873,-0.24916524,0.2833354,0.36241212,-0.37849268,0.8517046,-0.104974814,0.89143705,0.44081777,,-0.088205315,0.44872844,-0.37571442,-0.05491178,0.583492,-0.8102603,-0.96315485,0.18301883,0.1970707,0.2632821,0.79122764,0.55194324,,1.097130045776705,0.5069587995284679,0.21994411688,3.656992614370105,-0.1645103457175903,-1.143471697228183,-0.4220810668909776,,-1.5056548920903072,0.1464925198911647,0.15606942713000002,0.6399737075147683,0.5733267530157882,-0.42201446565189105,0.875034162281334,,-0.07627525163528219,-0.034472434388453,0.0910472212,-0.10859245153614427,,1.3973564e-05,2.9802322e-07,9.536743e-07,1.0,-3.1664968e-06,-2.9206276e-06,3.181398e-06,1.0,-5.364418e-07,2.9280782e-06,5.364418e-07,1.0,148,0.446,0,0,0.0,False,-0.2620824112089424,1.049514987358727
0.4630471889395267,16:03:12.521305,16:01:54.653931,0,,0.12247001,-0.002729848,0.015126482,0.9034213,0.35974154,-0.23327224,0.116689384,0.31723428,0.9411408,0.4125694,-0.87746704,0.24461818,,0.0726294,-0.02911583,0.066470444,0.20367248,-0.54846984,0.810986,-0.38686958,0.71584743,0.5812868,-0.8993605,-0.4321381,-0.06638795,,0.08297769,1.2897626,0.42729515,0.9916557,0.10047289,-0.080772586,0.018941214,-0.7333148,-0.67962533,-0.12751566,0.6724244,-0.7290989,,-0.118745156,0.25120208,-0.092963524,-0.9228253,-0.25936788,0.284819,0.36820036,-0.3765519,0.85008067,-0.113234475,0.88934636,0.44299096,,-0.088202275,0.448728,-0.3757206,-0.054903936,0.583489,-0.81026304,-0.9631592,0.18301213,0.19705552,0.2632677,0.79123145,0.55194473,,1.0976243006806554,0.5069356313298453,0.21973541419000003,3.6502825361786004,-0.1732550817025785,-1.1398531372176564,-0.42159103469257486,,-1.5056471693574331,0.14647707442541627,0.15606294568,0.6399737075147683,0.5733267530157882,-0.42201446565189105,0.875034162281334,,-0.07627525163528219,-0.034472434388453,0.0910472212,-0.10859245153614427,,1.3973564e-05,2.9802322e-07,9.536743e-07,1.0,-3.1664968e-06,-2.9206276e-06,3.181398e-06,1.0,-5.364418e-07,2.9280782e-06,5.364418e-07,1.0,159,0.478,0,0,0.0,False,-0.26136747858668974,1.0498529487641832
0.48659520293585956,16:03:12.558957,16:01:54.793051,0,,0.12249775,-0.002856262,0.015296295,0.90017873,0.36663777,-0.2350633,0.115696356,0.31902534,0.94065785,0.41987187,-0.87395626,0.2447612,,0.072625875,-0.029118989,0.066474915,0.20367248,-0.54840356,0.81103075,-0.38686958,0.71589494,0.5812283,-0.8993605,-0.43214345,-0.066352636,,0.08297769,1.2897626,0.42729515,0.9916557,0.10047289,-0.080772586,0.018941214,-0.7333148,-0.67962533,-0.12751566,0.6724244,-0.7290989,,-0.118796766,0.2512278,-0.093169115,-0.9202911,-0.26637208,0.28654867,0.3725261,-0.37284034,0.84983194,-0.119534604,0.88883966,0.4423522,,-0.088199355,0.44873,-0.37572604,-0.054903936,0.5834228,-0.81031066,-0.9631592,0.18302822,0.19704057,0.2632677,0.7912765,0.55188006,,1.0976165779477811,0.506858404001103,0.21953708182000004,3.645459667478456,-0.1798136336913196,-1.1399775534296457,-0.4211010024941719,,-1.5056471693574331,0.14647707442541627,0.15605646423000002,0.6399737075147683,0.5733267530157882,-0.4220961443920316,0.8751975063474682,,-0.07627525163528219,-0.034472434388453,0.0910472212,-0.10859245153614427,,1.3973564e-05,2.9802322e-07,9.536743e-07,1.0,-3.1664968e-06,-2.9206276e-06,3.181398e-06,1.0,-5.364418e-07,2.9280782e-06,5.364418e-07,1.0,174,0.523,0,0,0.0,False,-0.26232072208302704,1.0493218665556094
0.5242189329583198,16:03:12.600498,16:01:54.793051,0,,0.12265748,-0.0030945614,0.015554205,0.89238155,0.38728148,-0.23166367,0.10443916,0.32217658,0.940901,0.43903017,-0.86383754,0.24705708,,0.07262024,-0.029121403,0.06647813,0.20366178,-0.5483497,0.8110699,-0.38686743,0.7159383,0.5811763,-0.8993639,-0.43214005,-0.06632945,,0.08297769,1.2897626,0.42729515,0.9916557,0.10047289,-0.080772586,0.018941214,-0.7333148,-0.67962533,-0.12751566,0.6724244,-0.7290989,,-0.118995585,0.25123322,-0.093499646,-0.91502327,-0.28747904,0.28299868,0.37761396,-0.36359882,0.85158885,-0.14191595,0.8860879,0.44125748,,-0.0881942,0.44873178,-0.3757303,-0.054892927,0.5833676,-0.8103512,-0.963159,0.18305032,0.19702105,0.26327074,0.7913121,0.5518276,,1.0972922231670637,0.5064954355560145,0.21923763883000003,3.6395883490608893,-0.20276856565191362,-1.1398820983606952,-0.4217543787587088,,-1.5056317238916845,0.1464847971582905,0.15604998278,0.6399737075147683,0.5733267530157882,-0.4221778231321722,0.8753608504136026,,-0.07627525163528219,-0.034472434388453,0.0910472212,-0.10859245153614427,,1.3973564e-05,2.9802322e-07,9.536743e-07,1.0,-3.1664968e-06,-2.9206276e-06,3.181398e-06,1.0,-5.364418e-07,2.9280782e-06,5.364418e-07,1.0,181,0.544,0,0,0.0,False,-0.2608908568385213,1.0494667071579475
0.5657701089512557,16:03:12.621891,16:01:54.793051,0,,0.12268818,-0.003220208,0.015712515,0.8902633,0.3932432,-0.22976278,0.101307094,0.32086003,0.941693,0.44403607,-0.86163133,0.24581161,,0.07261721,-0.029125456,0.066482306,0.20366067,-0.5483455,0.81107295,-0.38687357,0.7159387,0.58117175,-0.8993615,-0.43214464,-0.06633195,,0.08297769,1.2897626,0.42729515,0.9916557,0.10047289,-0.080772586,0.018941214,-0.7333148,-0.67962533,-0.12751566,0.6724244,-0.7290989,,-0.11904911,0.25125155,-0.0936961,-0.9135813,-0.29368863,0.28127605,0.37880552,-0.36303523,0.85130006,-0.14790402,0.88428074,0.44291306,,-0.08819168,0.44873285,-0.37573627,-0.054891992,0.5833642,-0.8103537,-0.9631608,0.18304643,0.19701588,0.26326436,0.7913155,0.55182576,,1.0972613322355669,0.5064259309601464,0.21904967678000004,3.6381205194564976,-0.20891720814135845,-1.1375636911189946,-0.420610970295769,,-1.5056317238916845,0.14647707442541627,0.15604350133000003,0.6399737075147683,0.5733267530157882,-0.4221778231321722,0.8753608504136026,,-0.07627525163528219,-0.034472434388453,0.0910472212,-0.10859245153614427,,1.3973564e-05,2.9802322e-07,9.536743e-07,1.0,-3.1664968e-06,-2.9206276e-06,3.181398e-06,1.0,-5.364418e-07,2.9280782e-06,5.364418e-07,1.0,192,0.577,0,0,0.0,False,-0.2607717014014801,1.050046069567301
0.5871807159855962,16:03:12.658687,16:01:54.793051,0,,0.122674614,-0.0034142435,0.015974924,0.8887122,0.39634138,-0.23044299,0.10169653,0.3196968,0.9420466,0.44704393,-0.8606436,0.24381194,,0.07261342,-0.029128645,0.06649041,0.20367359,-0.54834145,0.81107247,-0.38686347,0.715942,0.5811744,-0.8993629,-0.4321443,-0.066314876,,0.08297769,1.2897626,0.42729515,0.9916557,0.10047289,-0.080772586,0.018941214,-0.7333148,-0.67962533,-0.12751566,0.6724244,-0.7290989,,-0.11907269,0.2512923,-0.09401932,-0.91226107,-0.29693982,0.2821463,0.38116527,-0.36319858,0.85017633,-0.14997607,0.88312715,0.44451505,,-0.08818904,0.4487377,-0.375744,-0.054904874,0.58336,-0.81035584,-0.9631574,0.1830482,0.19703078,0.26327404,0.7913182,0.5518173,,1.0973308368314347,0.5064490991587691,0.21872819686000003,3.635394550191199,-0.21110339213760548,-1.1353726109591493,-0.421754378758709,,-1.5056471693574331,0.1464847971582905,0.15603442730000003,0.6399737075147683,0.5733267530157882,-0.4221778231321722,0.8753608504136026,,-0.07627525163528219,-0.034472434388453,0.0910472212,-0.10859245153614427,,1.3973564e-05,2.9802322e-07,9.536743e-07,1.0,-3.1664968e-06,-2.9206276e-06,3.181398e-06,1.0,-5.364418e-07,2.9280782e-06,5.364418e-07,1.0,203,0.609,0,0,0.0,False,-0.2617249448978165,1.049370146756389
0.6239754869602621,16:03:12.690187,16:01:54.943204,0,,0.12266821,-0.003612101,0.016291484,0.88632256,0.4017344,-0.23030765,0.10119401,0.31729734,0.9429115,0.45187598,-0.8590296,0.24057466,,0.07260579,-0.029133383,0.06649798,0.20366879,-0.5483497,0.8110681,-0.38685936,0.71593976,0.58117986,-0.8993658,-0.4321376,-0.066319644,,0.08297769,1.2897626,0.42729515,0.9916557,0.10047289,-0.080772586,0.018941214,-0.7333148,-0.67962533,-0.12751566,0.6724244,-0.7290989,,-0.11910819,0.25136766,-0.09438327,-0.91032964,-0.30261958,0.28234965,0.38413975,-0.3638267,0.8485675,-0.15406679,0.8809379,0.44745043,,-0.08818248,0.44874167,-0.37575293,-0.054899838,0.5833672,-0.81035095,-0.9631564,0.18305314,0.19703108,0.26327875,0.79131174,0.5518243,,1.097508459687542,0.5065417719532598,0.21836782824000003,3.6318298211519617,-0.21533912363033417,-1.1313469047635762,-0.4212643465603063,,-1.5056394466245588,0.1464925198911647,0.15602276069,0.6399737075147683,0.5733267530157882,-0.4221778231321722,0.8753608504136026,,-0.07627525163528219,-0.034472434388453,0.0910472212,-0.10859245153614427,,1.3973564e-05,2.9802322e-07,9.536743e-07,1.0,-3.1664968e-06,-2.9206276e-06,3.181398e-06,1.0,-5.364418e-07,2.9280782e-06,5.364418e-07,1.0,214,0.642,0,0,0.0,False,-0.2621419889274632,1.049804668563404
0.6554609059821814,16:03:12.720197,16:01:54.943204,0,,0.12270534,-0.0037424862,0.016605988,0.8824426,0.41046637,-0.22980905,0.099975616,0.31372017,0.9442376,0.4596735,-0.8562108,0.2358034,,0.07260002,-0.029140983,0.0665099,0.20361611,-0.5484164,0.8110362,-0.38696587,0.71585894,0.5812086,-0.89933187,-0.4321869,-0.066458106,,0.08297769,1.2897626,0.42729515,0.9916557,0.10047289,-0.080772586,0.018941214,-0.7333148,-0.67962533,-0.12751566,0.6724244,-0.7290989,,-0.11918152,0.25149035,-0.09469449,-0.90722114,-0.31180894,0.28235608,0.38864487,-0.36447906,0.84623295,-0.16095011,0.87745667,0.45184606,,-0.08817831,0.44874698,-0.37576658,-0.054849412,0.58344305,-0.81029975,-0.9631888,0.1829741,0.19694601,0.26317066,0.7912741,0.55192983,,1.0977324189408946,0.5068275130696062,0.2180619038,3.626377882621364,-0.22230758511837162,-1.1251745192342153,-0.42224441095711196,,-1.5056626148231815,0.1464925198911647,0.15600720521000003,0.6399737075147683,0.5731901165160227,-0.4220664052284757,0.8753608504136026,,-0.07627525163528219,-0.034472434388453,0.0910472212,-0.10859245153614427,,1.3973564e-05,2.9802322e-07,9.536743e-07,1.0,-3.1664968e-06,-2.9206276e-06,3.181398e-06,1.0,-5.364418e-07,2.9280782e-06,5.364418e-07,1.0,222,0.666,0,0,0.0,False,-0.26178452261633733,1.049804668563404
0.6854883469641209,16:03:12.749790,16:01:54.943204,0,,0.12274886,-0.003823243,0.016860202,0.8814803,0.4136684,-0.22775173,0.09761358,0.3122635,0.94496727,0.46202165,-0.8552017,0.23487446,,0.07259275,-0.029146735,0.06651801,0.20354682,-0.5484994,0.8109974,-0.3870723,0.71577203,0.58124465,-0.89930177,-0.43222523,-0.06661585,,0.08297769,1.2897626,0.42729515,0.9916557,0.10047289,-0.080772586,0.018941214,-0.7333148,-0.67962533,-0.12751566,0.6724244,-0.7290989,,-0.11925228,0.25160736,-0.09492761,-0.90664554,-0.31518796,0.28044683,0.38855773,-0.36484006,0.8461174,-0.16436778,0.87609833,0.45324934,,-0.088172145,0.44875073,-0.3757766,-0.054782007,0.58353364,-0.8102391,-0.96322185,0.18290213,0.19685149,0.26306394,0.7912239,0.5520526,,1.0979100417970016,0.5072754315763112,0.21782727531,3.6261681926778797,-0.22545022461297673,-1.1229386224097597,-0.4212643465603061,,-1.5056626148231815,0.14650024262403896,0.15599424231,0.6399737075147683,0.5730534800162572,-0.4219549873247793,0.8753608504136026,,-0.07627525163528219,-0.034472434388453,0.0910472212,-0.10859245153614427,,1.3973564e-05,2.9802322e-07,9.536743e-07,1.0,-3.1664968e-06,-2.9206276e-06,3.181398e-06,1.0,-5.364418e-07,2.9280782e-06,5.364418e-07,1.0,229,0.687,0,0,0.0,False,-0.2611887454311268,1.049418426957168
0.7150540619622916,16:03:12.769385,16:01:54.943204,0,,0.122795686,-0.0038302243,0.017003521,0.88093185,0.41479197,-0.22783014,0.09673645,0.31342614,0.9446725,0.46325046,-0.8542316,0.23598161,,0.0725891,-0.029149804,0.06652337,0.20348345,-0.54851216,0.8110047,-0.38717663,0.71573466,0.5812213,-0.89927125,-0.43227112,-0.066731036,,0.08297769,1.2897626,0.42729515,0.9916557,0.10047289,-0.080772586,0.018941214,-0.7333148,-0.67962533,-0.12751566,0.6724244,-0.7290989,,-0.11931131,0.25170118,-0.09503006,-0.90627176,-0.31629434,0.28040925,0.38877192,-0.36333042,0.8466684,-0.16591522,0.8763269,0.45224246,,-0.08816924,0.44875345,-0.37578255,-0.054720573,0.5835543,-0.81022835,-0.96325403,0.18284519,0.19674689,0.26295885,0.79122186,0.55210567,,1.0980104373243667,0.507715627350142,0.21772097953000003,3.6257488127909108,-0.2266799531108657,-1.123651114819444,-0.4220810668909778,,-1.5056703375560558,0.14650796535691318,0.15598646457,0.6399737075147683,0.5729168435164919,-0.42192524816122345,0.8751975063474682,,-0.07627525163528219,-0.034472434388453,0.0910472212,-0.10859245153614427,,1.3973564e-05,2.9802322e-07,9.536743e-07,1.0,-3.1664968e-06,-2.9206276e-06,3.181398e-06,1.0,-5.364418e-07,2.9280782e-06,5.364418e-07,1.0,240,0.72,0,0,0.0,False,-0.2621419889274632,1.0498529487641832
0.7346601749304682,16:03:12.799771,16:01:54.943204,0,,0.12291555,-0.003788665,0.017212167,0.88012034,0.41676188,-0.22737092,0.09514458,0.3143708,0.94452024,0.46511877,-0.8529247,0.23703155,,0.072585724,-0.029157255,0.066530526,0.20303635,-0.5483336,0.8112375,-0.38696536,0.716118,0.58088976,-0.8994632,-0.4318626,-0.06678817,,0.08297769,1.2897626,0.42729515,0.9916557,0.10047289,-0.080772586,0.018941214,-0.7333148,-0.67962533,-0.12751566,0.6724244,-0.7290989,,-0.119444564,0.25187513,-0.09513781,-0.90574586,-0.31828666,0.27985352,0.38891065,-0.36174703,0.84728247,-0.16844253,0.87626064,0.45143595,,-0.08816673,0.44875485,-0.375793,-0.05425687,0.58330464,-0.8104393,-0.9632109,0.18337396,0.1964659,0.26321292,0.79128355,0.5518961,,1.0980876646531088,0.5086500780279231,0.21760431343000003,3.6253294329039414,-0.22845622760781642,-1.1238362568742017,-0.421754378758709,,-1.5056626148231815,0.14650024262403896,0.15597609425,0.640602777345222,0.5729168435164919,-0.42192524816122345,0.8751975063474682,,-0.07627525163528219,-0.034472434388453,0.0910472212,-0.10859245153614427,,1.3973564e-05,2.9802322e-07,9.536743e-07,1.0,-3.1664968e-06,-2.9206276e-06,3.181398e-06,1.0,-5.364418e-07,2.9280782e-06,5.364418e-07,1.0,251,0.753,0,0,0.0,False,-0.26196325577190027,1.0496598279610654
0.7650585619267076,16:03:12.832515,16:01:55.081250,0,,0.123154856,-0.0036705583,0.017510608,0.8752508,0.42804763,-0.22519115,0.08993833,0.3134325,0.9453418,0.47523355,-0.8476646,0.23583421,,0.07260369,-0.029174868,0.06654841,0.19901243,-0.5471208,0.8130514,-0.3850888,0.71925133,0.5782596,-0.9011663,-0.42817795,-0.06755021,,0.08297769,1.2897626,0.42729515,0.9916557,0.10047289,-0.080772586,0.018941214,-0.7333148,-0.67962533,-0.12751566,0.6724244,-0.7290989,,-0.11969798,0.25216633,-0.095243946,-0.9021591,-0.3300108,0.27785215,0.392131,-0.3588077,0.847048,-0.17983949,0.8731265,0.45310912,,-0.08818658,0.44875532,-0.37581664,-0.0500864,0.58145666,-0.8120342,-0.9628189,0.1879972,0.19400212,0.26546398,0.79155874,0.55042136,,1.0982189511119707,0.5100324472124093,0.21749801765000001,3.6209259440907666,-0.23897723808975535,-1.1199127664775892,-0.42224441095711196,,-1.5056703375560558,0.14650024262403896,0.15596442764000001,0.6462644058193041,0.5727802070167264,-0.4214054365568243,0.8747074741490655,,-0.07627525163528219,-0.034472434388453,0.0910472212,-0.10859245153614427,,1.3973564e-05,2.9802322e-07,9.536743e-07,1.0,-3.1664968e-06,-2.9206276e-06,3.181398e-06,1.0,-5.364418e-07,2.9280782e-06,5.364418e-07,1.0,262,0.785,0,0,0.0,False,-0.26148663402373185,1.0498529487641832
0.7978054510895163,16:03:12.861965,16:01:55.081250,0,,0.123245314,-0.0036483854,0.017701402,0.87234664,0.4340015,-0.22506419,0.086696535,0.31573373,0.9448788,0.48113918,-0.8437742,0.23780286,,0.072600566,-0.029175255,0.06654942,0.19930562,-0.5475071,0.8127195,-0.38523674,0.718807,0.5787134,-0.9010382,-0.4284303,-0.06765762,,0.08297769,1.2897626,0.42729515,0.9916557,0.10047289,-0.080772586,0.018941214,-0.7333148,-0.67962533,-0.12751566,0.6724244,-0.7290989,,-0.11980204,0.25231397,-0.09535554,-0.90002006,-0.33607066,0.2775255,0.39386505,-0.3544639,0.84807175,-0.18663925,0.8725892,0.45139113,,-0.08818363,0.4487563,-0.37581778,-0.05039049,0.5818903,-0.8117047,-0.96285135,0.18757997,0.19424492,0.26528877,0.79133904,0.55082154,,1.0984120194338263,0.5105962067122277,0.21739042558000002,3.6184096647689525,-0.2455357900784965,-1.1206906126107032,-0.42208106689097735,,-1.5056703375560558,0.14650024262403896,0.15596183506000003,0.645845025932335,0.5727802070167264,-0.421078721596262,0.8747074741490654,,-0.07627525163528219,-0.034472434388453,0.0910472212,-0.10859245153614427,,1.3973564e-05,2.9802322e-07,9.536743e-07,1.0,-3.1664968e-06,-2.9206276e-06,3.181398e-06,1.0,-5.364418e-07,2.9280782e-06,5.364418e-07,1.0,266,0.797,0,0,0.0,False,-0.2626781883941529,1.049804668563404
0.8272395129315555,16:03:12.885044,16:01:55.081250,0,,0.12332695,-0.0036243126,0.017974421,0.8679241,0.44234324,-0.22592033,0.08405076,0.3174884,0.9445298,0.48953348,-0.8387691,0.23837656,,0.07259834,-0.029176626,0.06655043,0.19929971,-0.5477103,0.81258404,-0.3852387,0.7186633,0.57889056,-0.90103865,-0.4284116,-0.067769915,,0.08297769,1.2897626,0.42729515,0.9916557,0.10047289,-0.080772586,0.018941214,-0.7333148,-0.67962533,-0.12751566,0.6724244,-0.7290989,,-0.119904056,0.25251976,-0.095525935,-0.8965338,-0.3446385,0.27830094,0.39774996,-0.34974882,0.8482162,-0.19499254,0.8711487,0.4506416,,-0.08818154,0.44875655,-0.37581962,-0.050384507,0.58209294,-0.81155974,-0.9628521,0.18753342,0.194286,0.2652871,0.791201,0.5510206,,1.0988213242761602,0.5112758072051594,0.21722579675000003,3.613167416181839,-0.25373398006442294,-1.1198047289388977,-0.4232244753539174,,-1.5056626148231815,0.14650024262403896,0.15595924248,0.645845025932335,0.5727802070167264,-0.4208336853758403,0.8751975063474682,,-0.07627525163528219,-0.034472434388453,0.0910472212,-0.10859245153614427,,1.3973564e-05,2.9802322e-07,9.536743e-07,1.0,-3.1664968e-06,-2.9206276e-06,3.181398e-06,1.0,-5.364418e-07,2.9280782e-06,5.364418e-07,1.0,277,0.83,0,0,0.0,False,-0.2621419889274632,1.0496115477602863
0.8503080781083554,16:03:12.910862,16:01:55.081250,0,,0.123342626,-0.00360962,0.018103257,0.86577564,0.44627333,-0.22643411,0.08334388,0.31757313,0.944564,0.49344316,-0.83665246,0.237753,,0.07259763,-0.029177252,0.06655133,0.19929971,-0.5477767,0.81253934,-0.3852387,0.71861595,0.5789492,-0.90103865,-0.42840606,-0.0678049,,0.08297769,1.2897626,0.42729515,0.9916557,0.10047289,-0.080772586,0.018941214,-0.7333148,-0.67962533,-0.12751566,0.6724244,-0.7290989,,-0.11992923,0.2526193,-0.09560665,-0.894781,-0.3487129,0.27886605,0.3999396,-0.3482309,0.84781104,-0.19853288,0.8701348,0.45105448,,-0.08818095,0.44875696,-0.37582073,-0.050384507,0.5821592,-0.81151223,-0.9628521,0.18751755,0.19430132,0.2652871,0.791156,0.55108523,,1.0991070653925064,0.5115461028557573,0.21714801935000003,3.6102317569730555,-0.2572865290583244,-1.1184597595054615,-0.421754378758709,,-1.5056626148231815,0.14650024262403896,0.15595794619,0.645845025932335,0.5727802070167264,-0.4207520066356997,0.8753608504136025,,-0.07627525163528219,-0.034472434388453,0.0910472212,-0.10859245153614427,,1.3973564e-05,2.9802322e-07,9.536743e-07,1.0,-3.1664968e-06,-2.9206276e-06,3.181398e-06,1.0,-5.364418e-07,2.9280782e-06,5.364418e-07,1.0,284,0.851,0,0,0.0,False,-0.2622611443645053,1.049418426957168
0.8761499740649015,16:03:12.934505,16:01:55.081250,0,,0.12336284,-0.0035903305,0.018230304,0.8614161,0.45401964,-0.22765808,0.08289531,0.3165453,0.94494843,0.5010892,-0.83286566,0.23504114,,0.07259573,-0.02917755,0.066553414,0.1993008,-0.54784715,0.81249154,-0.3852325,0.71856827,0.5790125,-0.90104103,-0.42839587,-0.06783739,,0.08297769,1.2897626,0.42729515,0.9916557,0.10047289,-0.080772586,0.018941214,-0.7333148,-0.67962533,-0.12751566,0.6724244,-0.7290989,,-0.11995841,0.25272092,-0.09568242,-0.8911233,-0.3568048,0.28033838,0.40489775,-0.3463694,0.8462187,-0.20483427,0.8675936,0.4531273,,-0.08817939,0.4487587,-0.37582237,-0.050385434,0.5822289,-0.81146216,-0.9628503,0.18750557,0.19432181,0.26529345,0.79110754,0.5511517,,1.0994082519746011,0.511708280246116,0.21708190856,3.6039410586685197,-0.2638450810470655,-1.1147452749308444,-0.4224077550232461,,-1.5056626148231815,0.14650796535691318,0.15595535361,0.645845025932335,0.5727802070167264,-0.4206703278955592,0.8750341622813339,,-0.07627525163528219,-0.034472434388453,0.0910472212,-0.10859245153614427,,1.3973564e-05,2.9802322e-07,9.536743e-07,1.0,-3.1664968e-06,-2.9206276e-06,3.181398e-06,1.0,-5.364418e-07,2.9280782e-06,5.364418e-07,1.0,295,0.884,0,0,0.0,False,-0.26101001227556386,1.0497563883626244
0.8997751011047512,16:03:12.965015,16:01:55.081250,0,,0.12341345,-0.0035321638,0.0184585,0.8574854,0.4610677,-0.22833118,0.07821387,0.32181484,0.94356656,0.5085285,-0.8269533,0.23988971,,0.07259423,-0.029178295,0.06655359,0.19929487,-0.54798394,0.8124007,-0.38523448,0.7184718,0.5791309,-0.9010415,-0.4283827,-0.067914665,,0.08297769,1.2897626,0.42729515,0.9916557,0.10047289,-0.080772586,0.018941214,-0.7333148,-0.67962533,-0.12751566,0.6724244,-0.7290989,,-0.1200232,0.25292048,-0.09580077,-0.8882049,-0.36388868,0.28049445,0.40664992,-0.3384834,0.84856635,-0.21384099,0.8677638,0.4486179,,-0.08817789,0.4487585,-0.37582314,-0.05037945,0.5823652,-0.8113647,-0.96285105,0.18747488,0.19434756,0.26529175,0.7910145,0.5512861,,1.099987456940168,0.5122488715473117,0.21697431649,3.6007957095162526,-0.2728630900315846,-1.1180916082452945,-0.4219177228248434,,-1.5056548920903072,0.14650796535691318,0.15595405732,0.645845025932335,0.5727802070167264,-0.4205069704152781,0.8748708182151996,,-0.07627525163528219,-0.034472434388453,0.0910472212,-0.10859245153614427,,1.3973564e-05,2.9802322e-07,9.536743e-07,1.0,-3.1664968e-06,-2.9206276e-06,3.181398e-06,1.0,-5.364418e-07,2.9280782e-06,5.364418e-07,1.0,306,0.917,0,0,0.0,False,-0.26243987752006825,1.0499012289649627
0.9303000429645181,16:03:12.993744,16:01:55.081250,0,,0.12346643,-0.003479451,0.01858221,0.8570472,0.46187297,-0.22834897,0.076897785,0.32356402,0.9430764,0.509467,-0.8258206,0.24179271,,0.07259352,-0.029178951,0.06655449,0.19929487,-0.54798394,0.8124007,-0.38523448,0.7184718,0.5791309,-0.9010415,-0.4283827,-0.067914665,,0.08297769,1.2897626,0.42729515,0.9916557,0.10047289,-0.080772586,0.018941214,-0.7333148,-0.67962533,-0.12751566,0.6724244,-0.7290989,,-0.12008204,0.25304395,-0.09584746,-0.88795066,-0.36464658,0.28031498,0.406346,-0.33643678,0.8495253,-0.21546823,0.8682414,0.44691193,,-0.0881773,0.44875893,-0.37582424,-0.05037945,0.5823652,-0.8113647,-0.96285105,0.18747488,0.19434756,0.26529175,0.7910145,0.5512861,,1.1001959707277722,0.5128203537800043,0.21692376118,3.6007957095162526,-0.2740928185294736,-1.119457530576103,-0.4217543787587088,,-1.5056548920903072,0.14650796535691318,0.15595276103000003,0.645845025932335,0.5727802070167264,-0.4205069704152781,0.8748708182151996,,-0.07627525163528219,-0.034472434388453,0.0910472212,-0.10859245153614427,,1.3973564e-05,2.9802322e-07,9.536743e-07,1.0,-3.1664968e-06,-2.9206276e-06,3.181398e-06,1.0,-5.364418e-07,2.9280782e-06,5.364418e-07,1.0,317,0.949,0,0,0.0,False,-0.2622611443645053,1.049514987358727
0.9590109619311988,16:03:13.031520,16:01:55.081250,0,,0.12363938,-0.0033238307,0.01887007,0.85449755,0.4657369,-0.23005,0.077116266,0.32422352,0.942832,0.5136993,-0.8233883,0.24113235,,0.07259436,-0.029180858,0.066554606,0.19922894,-0.5480552,0.81236887,-0.385351,0.7183881,0.5791573,-0.90100634,-0.4284321,-0.068069965,,0.08297769,1.2897626,0.42729515,0.9916557,0.10047289,-0.080772586,0.018941214,-0.7333148,-0.67962533,-0.12751566,0.6724244,-0.7290989,,-0.12026572,0.25335503,-0.09592784,-0.88575387,-0.36863673,0.2820409,0.40942833,-0.334285,0.8488946,-0.21865167,0.8673872,0.44702452,,-0.0881781,0.44875774,-0.37582582,-0.050315786,0.5824456,-0.81131095,-0.9628868,0.18739459,0.19424805,0.2651742,0.7909743,0.5514003,,1.1004971573098667,0.5143957912863462,0.21683042830000002,3.596601910646562,-0.27614236602595515,-1.1177862620206567,-0.4217543787587088,,-1.5056626148231815,0.14650024262403896,0.15595146474000002,0.645845025932335,0.5726435705169609,-0.4203955525115816,0.8748708182151996,,-0.07627525163528219,-0.034472434388453,0.0910472212,-0.10859245153614427,,1.3973564e-05,2.9802322e-07,9.536743e-07,1.0,-3.1664968e-06,-2.9206276e-06,3.181398e-06,1.0,-5.364418e-07,2.9280782e-06,5.364418e-07,1.0,328,0.982,0,0,0.0,False,-0.2622015666459845,1.0494667071579475
0.9968073619529605,16:03:13.063200,16:01:55.300021,0,,0.12384311,-0.003200695,0.019113109,0.8528782,0.46918544,-0.2290495,0.07484572,0.3243,0.9429887,0.5167173,-0.8213979,0.24147189,,0.07259381,-0.02918357,0.06655407,0.19922082,-0.548051,0.8123737,-0.38536525,0.718387,0.5791491,-0.90100205,-0.42843923,-0.06808221,,0.08297769,1.2897626,0.42729515,0.9916557,0.10047289,-0.080772586,0.018941214,-0.7333148,-0.67962533,-0.12751566,0.6724244,-0.7290989,,-0.120478794,0.25361168,-0.095994785,-0.88457435,-0.3722228,0.28103086,0.4098705,-0.33285967,0.8492412,-0.22256312,0.8664033,0.44700226,,-0.08817739,0.4487557,-0.37582764,-0.050307944,0.5824426,-0.8113136,-0.96289116,0.18738788,0.19423285,0.26515982,0.79097813,0.5514017,,1.100535770974238,0.5158553877995746,0.21675394719000002,3.5955534609291395,-0.2788750960212639,-1.1166197275685557,-0.4207743143619034,,-1.5056548920903072,0.1464847971582905,0.15595016845,0.645845025932335,0.5726435705169609,-0.4203955525115816,0.8748708182151996,,-0.07627525163528219,-0.034472434388453,0.0910472212,-0.10859245153614427,,1.3973564e-05,2.9802322e-07,9.536743e-07,1.0,-3.1664968e-06,-2.9206276e-06,3.181398e-06,1.0,-5.364418e-07,2.9280782e-06,5.364418e-07,1.0,336,1.006,0,0,0.0,False,-0.2621419889274632,1.0492253061540504
1.0284543440211564,16:03:13.086230,16:01:55.300021,0,,0.12403048,-0.0031315163,0.019400194,0.84983397,0.47348526,-0.23150325,0.07538545,0.32552654,0.942523,0.5216312,-0.8184401,0.24094963,,0.07259446,-0.02918661,0.06655228,0.19921158,-0.5480426,0.81238157,-0.38538563,0.7183864,0.5791364,-0.9009954,-0.4284509,-0.068096936,,0.08297769,1.2897626,0.42729515,0.9916557,0.10047289,-0.080772586,0.018941214,-0.7333148,-0.67962533,-0.12751566,0.6724244,-0.7290989,,-0.12068349,0.25385967,-0.09613227,-0.88191813,-0.37664557,0.28347576,0.41365635,-0.3299353,0.8485465,-0.22607261,0.86561006,0.44677776,,-0.08817766,0.44875234,-0.3758289,-0.050299175,0.5824361,-0.8113188,-0.9628973,0.1873773,0.1942125,0.2651391,0.7909854,0.55140126,,1.1005280482413637,0.5172300342511865,0.21660746642000003,3.590730592228995,-0.28133455301704186,-1.1155943501837067,-0.42191772282484297,,-1.5056471693574331,0.14646162895966783,0.15595016845,0.645845025932335,0.5726435705169609,-0.4203955525115816,0.8748708182151996,,-0.07627525163528219,-0.034472434388453,0.0910472212,-0.10859245153614427,,1.3973564e-05,2.9802322e-07,9.536743e-07,1.0,-3.1664968e-06,-2.9206276e-06,3.181398e-06,1.0,-5.364418e-07,2.9280782e-06,5.364418e-07,1.0,344,1.031,0,0,0.0,False,-0.26196325577190027,1.0493218665556094
1.0514555489644408,16:03:13.113163,16:01:55.300021,0,,0.124147624,-0.0031260177,0.019597903,0.8471012,0.47916082,-0.22983503,0.07254262,0.32417533,0.94321156,0.52645683,-0.8156686,0.23984984,,0.07259527,-0.02918649,0.066553056,0.19921751,-0.5480386,0.8123828,-0.3853836,0.71838826,0.57913536,-0.9009949,-0.42845303,-0.068089604,,0.08297769,1.2897626,0.42729515,0.9916557,0.10047289,-0.080772586,0.018941214,-0.7333148,-0.67962533,-0.12751566,0.6724244,-0.7290989,,-0.12081595,0.254,-0.096257195,-0.87982816,-0.38262078,0.28196403,0.41493344,-0.32900628,0.84828365,-0.231803,0.86334014,0.44823116,,-0.08817858,0.4487529,-0.37582922,-0.050305158,0.5824323,-0.81132114,-0.9628965,0.18737626,0.19421737,0.26514077,0.79098845,0.5513961,,1.1005434937071121,0.517901912011244,0.21648691145,3.58863369279415,-0.2866633765078941,-1.112800948002217,-0.4207743143619034,,-1.5056548920903072,0.14646162895966783,0.15595016845,0.645845025932335,0.5726435705169609,-0.4203955525115816,0.8748708182151996,,-0.07627525163528219,-0.034472434388453,0.0910472212,-0.10859245153614427,,1.3973564e-05,2.9802322e-07,9.536743e-07,1.0,-3.1664968e-06,-2.9206276e-06,3.181398e-06,1.0,-5.364418e-07,2.9280782e-06,5.364418e-07,1.0,352,1.056,0,0,0.0,False,-0.2618441003348577,1.0494667071579475
1.078398197889328,16:03:13.142198,16:01:55.300021,0,,0.12426552,-0.0031624585,0.019893155,0.8409616,0.49111664,-0.22712967,0.06521241,0.32470906,0.9435631,0.5371507,-0.8083121,0.24104097,,0.07259527,-0.02918649,0.066553056,0.19921751,-0.5480386,0.8123828,-0.3853836,0.71838826,0.57913536,-0.9009949,-0.42845303,-0.068089604,,0.08297769,1.2897626,0.42729515,0.9916557,0.10047289,-0.080772586,0.018941214,-0.7333148,-0.67962533,-0.12751566,0.6724244,-0.7290989,,-0.120960556,0.2541773,-0.09648093,-0.8751937,-0.39507064,0.27920443,0.4170181,-0.32355556,0.84935725,-0.24521798,0.85978544,0.44792542,,-0.08817858,0.4487529,-0.37582922,-0.050305158,0.5824323,-0.81132114,-0.9628965,0.18737626,0.19421737,0.26514077,0.79098845,0.5513961,,1.1007828984262131,0.5184038896480687,0.21628728279000003,3.584649583867944,-0.3001903899846727,-1.1108369156918738,-0.4219177228248432,,-1.5056548920903072,0.14646162895966783,0.15595016845,0.645845025932335,0.5726435705169609,-0.4203955525115816,0.8748708182151996,,-0.07627525163528219,-0.034472434388453,0.0910472212,-0.10859245153614427,,1.3973564e-05,2.9802322e-07,9.536743e-07,1.0,-3.1664968e-06,-2.9206276e-06,3.181398e-06,1.0,-5.364418e-07,2.9280782e-06,5.364418e-07,1.0,360,1.08,0,0,0.0,False,-0.2626186106756321,1.0499012289649627
1.10748656000942,16:03:13.165452,16:01:55.300021,0,,0.124267705,-0.0032069162,0.020089045,0.8380368,0.49582177,-0.22771695,0.061197326,0.32930756,0.94223744,0.54217076,-0.8035654,0.2456289,,0.07259575,-0.029187474,0.0665527,0.19921641,-0.54796803,0.8124306,-0.38538972,0.718436,0.5790721,-0.9009925,-0.4284632,-0.06805709,,0.08297769,1.2897626,0.42729515,0.9916557,0.10047289,-0.080772586,0.018941214,-0.7333148,-0.67962533,-0.12751566,0.6724244,-0.7290989,,-0.12098256,0.25428036,-0.09665196,-0.87302065,-0.39978203,0.2793014,0.41758144,-0.3169571,0.8515656,-0.25191405,0.86006546,0.44365162,,-0.08817898,0.44875196,-0.37582973,-0.05030423,0.58236265,-0.8113712,-0.9628983,0.18738824,0.1941969,0.26513442,0.7910369,0.5513296,,1.1011767578027987,0.5185351761069305,0.21613043170000001,3.5829720643200678,-0.30715885147271016,-1.11446597897938,-0.42224441095711174,,-1.5056548920903072,0.1464539062267936,0.15595016845,0.645845025932335,0.5726435705169609,-0.4204772312517222,0.8747074741490655,,-0.07627525163528219,-0.034472434388453,0.0910472212,-0.10859245153614427,,1.3973564e-05,2.9802322e-07,9.536743e-07,1.0,-3.1664968e-06,-2.9206276e-06,3.181398e-06,1.0,-5.364418e-07,2.9280782e-06,5.364418e-07,1.0,368,1.105,0,0,0.0,False,-0.26232072208302704,1.049804668563404
1.1307361780200154,16:03:13.185648,16:01:55.432760,0,,0.12415777,-0.0032807142,0.020439014,0.8342948,0.50210434,-0.22769123,0.057291374,0.3317998,0.94160855,0.54833364,-0.79862386,0.2480526,,0.07259494,-0.029187623,0.06655198,0.19921048,-0.5479722,0.81242937,-0.38539168,0.71843415,0.5790731,-0.90099293,-0.42846107,-0.06806439,,0.08297769,1.2897626,0.42729515,0.9916557,0.10047289,-0.080772586,0.018941214,-0.7333148,-0.67962533,-0.12751566,0.6724244,-0.7290989,,-0.12090832,0.25446865,-0.09696666,-0.8701226,-0.40624127,0.27902442,0.41901347,-0.3117499,0.8527835,-0.25945002,0.8589412,0.4414812,,-0.08817806,0.4487514,-0.37582943,-0.050298247,0.5823664,-0.8113689,-0.9628991,0.18738928,0.19419202,0.26513276,0.79103386,0.55133474,,1.102288831336687,0.5185969579699242,0.21583358129000002,3.5796170252243154,-0.3153570414586365,-1.1148869551498237,-0.42142769062644025,,-1.5056471693574331,0.1464539062267936,0.15595016845,0.645845025932335,0.5726435705169609,-0.4204772312517222,0.8747074741490655,,-0.07627525163528219,-0.034472434388453,0.0910472212,-0.10859245153614427,,1.3973564e-05,2.9802322e-07,9.536743e-07,1.0,-3.1664968e-06,-2.9206276e-06,3.181398e-06,1.0,-5.364418e-07,2.9280782e-06,5.364418e-07,1.0,401,1.206,0,0,0.0,False,-0.2626781883941529,1.0499977893665218
1.150925257941708,16:03:13.285354,16:01:55.432760,0,,0.12368414,-0.0033093393,0.021555915,0.818503,0.5273113,-0.22802505,0.050645873,0.3291347,0.9429239,0.5722654,-0.7833346,0.24269164,,0.07259505,-0.02918813,0.06655359,0.19921641,-0.5480344,0.81238586,-0.38538972,0.71838874,0.57913077,-0.9009925,-0.42845768,-0.06809211,,0.08297769,1.2897626,0.42729515,0.9916557,0.10047289,-0.080772586,0.018941214,-0.7333148,-0.67962533,-0.12751566,0.6724244,-0.7290989,,-0.12053325,0.25521943,-0.09784319,-0.85695094,-0.43276736,0.27990624,0.43074206,-0.3031529,0.8500351,-0.28301305,0.84900576,0.44619825,,-0.088178396,0.44875237,-0.3758308,-0.05030423,0.58242893,-0.81132364,-0.9628983,0.18737237,0.1942122,0.26513442,0.7909919,0.5513942,,1.1068606891982278,0.5189135900177675,0.21501043714,3.559067410762832,-0.34186452241313203,-1.1010313621460714,-0.42191772282484363,,-1.5056548920903072,0.1464539062267936,0.15594887216,0.645845025932335,0.5726435705169609,-0.42039555251158156,0.8751975063474682,,-0.07627525163528219,-0.034472434388453,0.0910472212,-0.10859245153614427,,1.3973564e-05,2.9802322e-07,9.536743e-07,1.0,-3.1664968e-06,-2.9206276e-06,3.181398e-06,1.0,-5.364418e-07,2.9280782e-06,5.364418e-07,1.0,409,1.231,0,0,0.0,False,-0.2622015666459845,1.0496115477602863
1.250645348103717,16:03:13.313703,16:01:55.563656,0,,0.12355529,-0.0032952875,0.02188225,0.8124315,0.53429943,-0.23340723,0.049870804,0.33517063,0.94083667,0.58091974,-0.7760056,0.24565727,,0.07259423,-0.02918825,0.06655282,0.19921048,-0.5481049,0.81233984,-0.38539168,0.7183395,0.5791904,-0.90099293,-0.42844996,-0.0681344,,0.08297769,1.2897626,0.42729515,0.9916557,0.10047289,-0.080772586,0.018941214,-0.7333148,-0.67962533,-0.12751566,0.6724244,-0.7290989,,-0.12043139,0.255455,-0.09808282,-0.85170215,-0.4398501,0.2848426,0.43616185,-0.29373446,0.850578,-0.2904587,0.8486766,0.4420201,,-0.08817747,0.4487518,-0.3758305,-0.050298247,0.58249897,-0.81127375,-0.9628991,0.18735756,0.19422263,0.26513276,0.7909438,0.55146396,,1.1081272173896006,0.5190448764766293,0.21479914187000002,3.550679813023451,-0.3496528028997621,-1.103175130609994,-0.42355116348618616,,-1.5056471693574331,0.1464539062267936,0.15594887216,0.645845025932335,0.5726435705169609,-0.420313873771441,0.8753608504136025,,-0.07627525163528219,-0.034472434388453,0.0910472212,-0.10859245153614427,,1.3973564e-05,2.9802322e-07,9.536743e-07,1.0,-3.1664968e-06,-2.9206276e-06,3.181398e-06,1.0,-5.364418e-07,2.9280782e-06,5.364418e-07,1.0,417,1.256,0,0,0.0,False,-0.26160578946077395,1.0493218665556094
1.2789498560596257,16:03:13.337664,16:01:55.563656,0,,0.123493336,-0.0032737777,0.022077873,0.8070617,0.5435969,-0.23055083,0.045880258,0.33154237,0.94232404,0.5886818,-0.77109146,0.2426348,,0.07267413,-0.029177789,0.066547036,0.19925225,-0.54825306,0.81222963,-0.38536614,0.71823186,0.57934093,-0.9009946,-0.42844087,-0.06816894,,0.08297769,1.2897626,0.42729515,0.9916557,0.10047289,-0.080772586,0.018941214,-0.7333148,-0.67962533,-0.12751566,0.6724244,-0.7290989,,-0.12038449,0.25560567,-0.09821574,-0.84732705,-0.44978014,0.28237337,0.4386384,-0.29297805,0.84956473,-0.29938814,0.84371895,0.44553906,,-0.08825591,0.44874287,-0.37581336,-0.05034009,0.5826475,-0.81116444,-0.9628903,0.18731828,0.19430402,0.2651567,0.7908437,0.55159605,,1.1089767180057655,0.5190294310108808,0.21469284609000003,3.5456472543798223,-0.3593539943831084,-1.096571319289797,-0.4219177228248434,,-1.5056471693574331,0.14644618349391939,0.15594887216,0.645845025932335,0.5726435705169609,-0.4202321950313005,0.8751975063474682,,-0.07627525163528219,-0.034472434388453,0.0910472212,-0.10859245153614427,,1.3973564e-05,2.9802322e-07,9.536743e-07,1.0,-3.1664968e-06,-2.9206276e-06,3.181398e-06,1.0,-5.364418e-07,2.9280782e-06,5.364418e-07,1.0,425,1.281,0,0,0.0,False,-0.26273776611267374,1.0494667071579475
1.302952327998355,16:03:13.365432,16:01:55.563656,0,,0.12352384,-0.0032715276,0.022140369,0.8034081,0.54882485,-0.23092557,0.044456825,0.3314579,0.94242203,0.5937668,-0.7674157,0.24189696,,0.072670326,-0.029182358,0.0665555,0.19923942,-0.54823714,0.81224346,-0.38537064,0.7182454,0.57932115,-0.9009956,-0.42843854,-0.06817177,,0.082983345,1.2897654,0.42730415,0.9916561,0.10045477,-0.08078937,0.018916713,-0.7333173,-0.67962337,-0.12751566,0.6724244,-0.7290989,,-0.12042137,0.25564766,-0.09824552,-0.84423006,-0.45527852,0.2828376,0.44113675,-0.29049692,0.849123,-0.30442402,0.8416252,0.4460863,,-0.08825591,0.44874287,-0.37581336,-0.05034009,0.5826475,-0.81116444,-0.9628903,0.18731828,0.19430402,0.2651567,0.7908437,0.55159605,,1.1091929545262436,0.5189599264150129,0.21466821658000002,3.5416631454536165,-0.364819454373726,-1.0946466440862976,-0.4225710990893805,,-1.5056471693574331,0.14644618349391939,0.15594887216,0.645845025932335,0.5726435705169609,-0.4202321950313005,0.8751975063474682,,-0.07627525163528219,-0.034472434388453,0.0910472212,-0.10859245153614427,,1.8488616e-05,4.887581e-06,-7.987022e-06,1.0,-2.1182e-05,-1.9527972e-05,2.1182e-05,1.0,-3.695488e-06,1.9550323e-05,3.7252903e-06,1.0,433,1.306,0,0,0.0,False,-0.26243987752006825,1.049080465551712
1.330708626890555,16:03:13.385601,16:01:55.563656,0,,0.1235627,-0.0032918528,0.022212759,0.7985903,0.55607826,-0.23028332,0.03988032,0.33288065,0.9421253,0.60055226,-0.7615559,0.24365866,,0.07266478,-0.029186798,0.066562116,0.19945571,-0.54821384,0.81220615,-0.38533843,0.71820396,0.5793939,-0.9009615,-0.4285377,-0.06799799,,0.082983345,1.2897654,0.42730415,0.9916561,0.10045477,-0.08078937,0.018916713,-0.7333173,-0.67962337,-0.12751566,0.6724244,-0.7290989,,-0.12046761,0.2556829,-0.09830703,-0.84036773,-0.4628623,0.28202933,0.44251448,-0.28543067,0.85012364,-0.3129904,0.83921856,0.44469002,,-0.08825128,0.44874603,-0.37582132,-0.050559938,0.5826406,-0.81115574,-0.9628736,0.18721274,0.19448861,0.26517564,0.79087377,0.5515438,,1.109239290923489,0.5188518081547737,0.21463321675000002,3.5385177963013486,-0.3739740998580105,-1.0946144098914286,-0.42289778722164906,,-1.5056471693574331,0.14643846076104516,0.15593979813000003,0.6456353359888505,0.5727802070167264,-0.420343612934997,0.8751975063474682,,-0.07627525163528219,-0.034472434388453,0.0910472212,-0.10859245153614427,,1.8488616e-05,4.887581e-06,-7.987022e-06,1.0,-2.1182e-05,-1.9527972e-05,2.1182e-05,1.0,-3.695488e-06,1.9550323e-05,3.7252903e-06,1.0,441,1.33,0,0,0.0,False,-0.26243987752006825,1.049514987358727
1.3508913510013372,16:03:13.414498,16:01:55.563656,0,,0.12361155,-0.0033363923,0.022316888,0.7917546,0.56445265,-0.23349053,0.036876336,0.33737987,0.94064605,0.6097252,-0.75337106,0.2463071,,0.07265762,-0.02919255,0.06656933,0.19944978,-0.5482179,0.81220484,-0.3853404,0.7182022,0.5793949,-0.900962,-0.4285356,-0.068005264,,0.082983345,1.2897654,0.42730415,0.9916561,0.10045477,-0.08078937,0.018916713,-0.7333173,-0.67962337,-0.12751566,0.6724244,-0.7290989,,-0.1205283,0.2557225,-0.09840684,-0.83457714,-0.47151357,0.2848789,0.44668022,-0.2765348,0.850885,-0.3224249,0.8373789,0.4414054,,-0.08824511,0.44874904,-0.3758308,-0.050553955,0.58264434,-0.8111534,-0.96287435,0.1872138,0.19448376,0.26517397,0.7908708,0.5515489,,1.1091929545262436,0.5187359671616603,0.21456321709,3.5318077181098433,-0.38408520084065306,-1.096497648795323,-0.4230611312877832,,-1.5056394466245588,0.14643846076104516,0.15592813152,0.6456353359888505,0.5727802070167264,-0.420343612934997,0.8751975063474682,,-0.07627525163528219,-0.034472434388453,0.0910472212,-0.10859245153614427,,1.8488616e-05,4.887581e-06,-7.987022e-06,1.0,-2.1182e-05,-1.9527972e-05,2.1182e-05,1.0,-3.695488e-06,1.9550323e-05,3.7252903e-06,1.0,449,1.355,0,0,0.0,False,-0.26232072208302704,1.0496115477602863
1.3797758289147168,16:03:13.437969,16:01:55.691258,0,,0.123630315,-0.003373228,0.02238284,0.7888586,0.5686619,-0.23307855,0.03577505,0.336119,0.94113994,0.61353254,-0.7507646,0.24480644,,0.07265503,-0.029193474,0.06657237,0.19945087,-0.548222,0.8122018,-0.38533425,0.7182017,0.57939947,-0.9009644,-0.428531,-0.06800276,,0.082983345,1.2897654,0.42730415,0.9916561,0.10045477,-0.08078937,0.018916713,-0.7333173,-0.67962337,-0.12751566,0.6724244,-0.7290989,,-0.120555334,0.25574133,-0.09847737,-0.83210397,-0.47601128,0.28463346,0.44851464,-0.27565265,0.850206,-0.3262477,0.83512205,0.4428697,,-0.088242956,0.44875118,-0.3758335,-0.050554883,0.58264774,-0.8111509,-0.96287256,0.18721767,0.19448891,0.26518032,0.7908673,0.55155075,,1.109169786327621,0.5186973534972892,0.21450488404,3.5288720589010607,-0.3881842958336163,-1.0938902203456955,-0.42273444315551467,,-1.5056394466245588,0.14644618349391939,0.15592424265000002,0.6456353359888505,0.5727802070167264,-0.420343612934997,0.8751975063474682,,-0.07627525163528219,-0.034472434388453,0.0910472212,-0.10859245153614427,,1.8488616e-05,4.887581e-06,-7.987022e-06,1.0,-2.1182e-05,-1.9527972e-05,2.1182e-05,1.0,-3.695488e-06,1.9550323e-05,3.7252903e-06,1.0,474,1.432,0,0,0.0,False,-0.2629164992682367,1.0496115477602863
1.40324368304573,16:03:13.504902,16:01:55.691258,0,,0.1235978,-0.0033385903,0.022715405,0.76997286,0.5899467,-0.24311444,0.03974238,0.3359316,0.9410476,0.6368377,-0.73424304,0.23521236,,0.07264366,-0.02920298,0.066584945,0.19944493,-0.5482261,0.8122005,-0.38533625,0.71819985,0.5794004,-0.90096486,-0.42852885,-0.06801009,,0.082983345,1.2897654,0.42730415,0.9916561,0.10045477,-0.08078937,0.018916713,-0.7333173,-0.67962337,-0.12751566,0.6724244,-0.7290989,,-0.12054809,0.255996,-0.09869634,-0.81497747,-0.49855018,0.29539716,0.46749282,-0.26440743,0.84352785,-0.34243575,0.8255522,0.4485547,,-0.08823329,0.4487566,-0.37584952,-0.0505489,0.5826515,-0.8111486,-0.96287334,0.18721873,0.19448406,0.26517862,0.7908643,0.55155593,,1.109926614149295,0.5187282444287861,0.21433895892000002,3.5014026763045876,-0.40581040430335813,-1.0815592792723714,-0.42224441095711174,,-1.5056317238916845,0.14644618349391939,0.1559047983,0.6456353359888505,0.5727802070167264,-0.420343612934997,0.8751975063474682,,-0.07627525163528219,-0.034472434388453,0.0910472212,-0.10859245153614427,,1.8488616e-05,4.887581e-06,-7.987022e-06,1.0,-2.1182e-05,-1.9527972e-05,2.1182e-05,1.0,-3.695488e-06,1.9550323e-05,3.7252903e-06,1.0,478,1.444,0,0,0.0,False,-0.2626781883941529,1.0496115477602863
1.4701938680373132,16:03:13.529725,16:01:55.691258,0,,0.1235019,-0.0032743588,0.022865996,0.7644694,0.59552795,-0.246846,0.040794462,0.33745217,0.94045836,0.64336795,-0.72902155,0.23367766,,0.072642244,-0.029204203,0.06658673,0.19944493,-0.5482261,0.8122005,-0.38533625,0.71819985,0.5794004,-0.90096486,-0.42852885,-0.06801009,,0.082983345,1.2897654,0.42730415,0.9916561,0.10045477,-0.08078937,0.018916713,-0.7333173,-0.67962337,-0.12751566,0.6724244,-0.7290989,,-0.12046036,0.25614652,-0.09877148,-0.80997294,-0.50441194,0.29918632,0.47276774,-0.25970912,0.8420462,-0.34703678,0.82348025,0.44882706,,-0.08823212,0.4487574,-0.3758517,-0.0505489,0.5826515,-0.8111486,-0.96287334,0.18721873,0.19448406,0.26517862,0.7908643,0.55155593,,1.1107761147654598,0.5187514126274088,0.21428062587000002,3.4930150785652065,-0.41100259129444483,-1.079040652474859,-0.42338781942005177,,-1.5056317238916845,0.14644618349391939,0.15590220572000002,0.6456353359888505,0.5727802070167264,-0.420343612934997,0.8751975063474682,,-0.07627525163528219,-0.034472434388453,0.0910472212,-0.10859245153614427,,1.8488616e-05,4.887581e-06,-7.987022e-06,1.0,-2.1182e-05,-1.9527972e-05,2.1182e-05,1.0,-3.695488e-06,1.9550323e-05,3.7252903e-06,1.0,490,1.481,0,0,0.0,False,-0.26333354329788383,1.0497563883626244
1.4950035919900984,16:03:13.566836,16:01:55.691258,0,,0.1233854,-0.003174059,0.023006365,0.7568456,0.6030256,-0.2520809,0.043388397,0.33847815,0.9399734,0.652152,-0.7223521,0.2300114,,0.072641045,-0.029203875,0.066587985,0.19944605,-0.5482303,0.8121975,-0.38533014,0.7181995,0.57940495,-0.9009672,-0.4285243,-0.06800762,,0.082983345,1.2897654,0.42730415,0.9916561,0.10045477,-0.08078937,0.018916713,-0.7333173,-0.67962337,-0.12751566,0.6724244,-0.7290989,,-0.12034851,0.25631613,-0.09881692,-0.8029297,-0.512337,0.30465502,0.4807163,-0.2543714,0.83917046,-0.3524426,0.8202475,0.4505311,,-0.08823114,0.44875875,-0.37585226,-0.050549828,0.58265495,-0.8111461,-0.96287155,0.1872226,0.19448921,0.26518497,0.7908609,0.5515578,,1.1117337336418636,0.5187205216959119,0.21425599636000003,3.480853061843104,-0.4171512337838897,-1.0742718830289417,-0.42289778722164884,,-1.5056317238916845,0.1464539062267936,0.15590090943,0.6456353359888505,0.5727802070167264,-0.420343612934997,0.8751975063474682,,-0.07627525163528219,-0.034472434388453,0.0910472212,-0.10859245153614427,,1.8488616e-05,4.887581e-06,-7.987022e-06,1.0,-2.1182e-05,-1.9527972e-05,2.1182e-05,1.0,-3.695488e-06,1.9550323e-05,3.7252903e-06,1.0,498,1.506,0,0,0.0,False,-0.26148663402373185,1.0493218665556094
1.5321034870576113,16:03:13.588910,16:01:55.691258,0,,0.12330789,-0.0030869618,0.023104444,0.7499373,0.60981923,-0.25634852,0.04526545,0.33930606,0.9395864,0.65995836,-0.71623456,0.22685444,,0.07264019,-0.029202415,0.06659031,0.19945417,-0.54830074,0.81214786,-0.38531584,0.7181532,0.5794718,-0.90097153,-0.42851162,-0.06803036,,0.082983345,1.2897654,0.42730415,0.9916561,0.10045477,-0.08078937,0.018916713,-0.7333173,-0.67962337,-0.12751566,0.6724244,-0.7290989,,-0.12027289,0.25644693,-0.09883653,-0.7965717,-0.519532,0.30912796,0.48747057,-0.24955715,0.836716,-0.35755566,0.81719506,0.45204672,,-0.088230684,0.44876158,-0.3758526,-0.05055767,0.5827242,-0.8110958,-0.9628672,0.1872134,0.1945197,0.26519936,0.790812,0.55162096,,1.1124133341347953,0.518689630764415,0.21425599636000003,3.470368564668878,-0.4228899667740382,-1.0700824035145353,-0.42273444315551467,,-1.5056394466245588,0.14646935169254205,0.15589961314,0.6456353359888505,0.5727802070167264,-0.42026193419485636,0.8750341622813339,,-0.07627525163528219,-0.034472434388453,0.0910472212,-0.10859245153614427,,1.8488616e-05,4.887581e-06,-7.987022e-06,1.0,-2.1182e-05,-1.9527972e-05,2.1182e-05,1.0,-3.695488e-06,1.9550323e-05,3.7252903e-06,1.0,510,1.543,0,0,0.0,False,-0.262797343831195,1.049804668563404
1.5541677558794618,16:03:13.625354,16:01:55.691258,0,,0.123193786,-0.0029393733,0.023265556,0.7396825,0.6214874,-0.25811452,0.04387939,0.33819562,0.9400524,0.6715238,-0.70666623,0.22288686,,0.07263765,-0.029204918,0.06659025,0.19944124,-0.5483711,0.81210357,-0.38532597,0.7181026,0.57952785,-0.90097004,-0.42850646,-0.06808239,,0.082983345,1.2897654,0.42730415,0.9916561,0.10045477,-0.08078937,0.018916713,-0.7333173,-0.67962337,-0.12751566,0.6724244,-0.7290989,,-0.12016146,0.25666505,-0.098864146,-0.7874578,-0.5320091,0.31124994,0.49446222,-0.24376878,0.83431643,-0.3679909,0.8108903,0.45501605,,-0.08822808,0.4487603,-0.37585467,-0.050544776,0.5827946,-0.81104606,-0.96287054,0.18719576,0.1945201,0.26518965,0.79076433,0.551694,,1.1135949122645517,0.5186355716342954,0.21426895926000003,3.4575774781163218,-0.4345040692541006,-1.0622454565031507,-0.42289778722164906,,-1.5056240011588105,0.14646162895966783,0.15589702056000002,0.6456353359888505,0.5727802070167264,-0.4201802554547158,0.8748708182151996,,-0.07627525163528219,-0.034472434388453,0.0910472212,-0.10859245153614427,,1.8488616e-05,4.887581e-06,-7.987022e-06,1.0,-2.1182e-05,-1.9527972e-05,2.1182e-05,1.0,-3.695488e-06,1.9550323e-05,3.7252903e-06,1.0,518,1.568,0,0,0.0,False,-0.2635718541719685,1.0495632675595068
1.590639425907284,16:03:13.650031,16:01:55.898476,0,,0.12312026,-0.0028139204,0.023410365,0.72514653,0.63487756,-0.2666327,0.046521932,0.3411586,0.93885386,0.68702126,-0.69321084,0.21785432,,0.07263613,-0.029208226,0.06659424,0.19944605,-0.5483629,0.81210786,-0.38533014,0.71810484,0.57952225,-0.9009672,-0.42851317,-0.068077594,,0.082983345,1.2897654,0.42730415,0.9916561,0.10045477,-0.08078937,0.018916713,-0.7333173,-0.67962337,-0.12751566,0.6724244,-0.7290989,,-0.12009071,0.25685585,-0.09889059,-0.77410424,-0.54620314,0.32003877,0.5070876,-0.23235187,0.82998484,-0.3789787,0.8047824,0.4568374,,-0.08822706,0.44876155,-0.37585986,-0.050549828,0.5827874,-0.8110509,-0.96287155,0.18719083,0.1945198,0.26518497,0.79077077,0.55168694,,1.1143362946204771,0.5185428988398048,0.21428581103000002,3.4372375535983237,-0.4466647177332248,-1.0554330551995106,-0.42224441095711196,,-1.5056317238916845,0.1464539062267936,0.1558918354,0.6456353359888505,0.5727802070167264,-0.4201802554547158,0.8748708182151996,,-0.07627525163528219,-0.034472434388453,0.0910472212,-0.10859245153614427,,1.8488616e-05,4.887581e-06,-7.987022e-06,1.0,-2.1182e-05,-1.9527972e-05,2.1182e-05,1.0,-3.695488e-06,1.9550323e-05,3.7252903e-06,1.0,551,1.669,0,0,0.0,False,-0.26333354329788383,1.0496115477602863
1.6152806309983134,16:03:13.741436,16:01:55.898476,0,,0.12272546,-0.002537012,0.02380915,0.67964727,0.6767518,-0.2829956,0.0445863,0.34696904,0.9368162,0.7321828,-0.6493223,0.2056427,,0.07261351,-0.029224528,0.06662643,0.19953193,-0.54828775,0.8121375,-0.38519543,0.71819335,0.5795021,-0.9010058,-0.42846093,-0.06789547,,0.082983345,1.2897654,0.42730415,0.9916561,0.10045477,-0.08078937,0.018916713,-0.7333173,-0.67962337,-0.12751566,0.6724244,-0.7290989,,-0.11971014,0.2573319,-0.099032424,-0.7328241,-0.5910124,0.3371545,0.53691065,-0.1978992,0.8200993,-0.41796628,0.7820104,0.46234617,,-0.08820898,0.4487795,-0.375894,-0.050633274,0.5827026,-0.8111066,-0.9628299,0.18727571,0.19464427,0.26532027,0.7908132,0.55156106,,1.1169929147292104,0.5171219159909474,0.21432210715000002,3.3810406487444706,-0.491071580156993,-1.0322091561805231,-0.42338781942005177,,-1.5056471693574331,0.14647707442541627,0.15585035412,0.6456353359888505,0.5729168435164919,-0.4202916733584122,0.8748708182151996,,-0.07627525163528219,-0.034472434388453,0.0910472212,-0.10859245153614427,,1.8488616e-05,4.887581e-06,-7.987022e-06,1.0,-2.1182e-05,-1.9527972e-05,2.1182e-05,1.0,-3.695488e-06,1.9550323e-05,3.7252903e-06,1.0,555,1.681,0,0,0.0,False,-0.26339312101640555,1.0496115477602863
1.7067206290084869,16:03:13.770841,16:01:56.025738,0,,0.12246881,-0.00243745,0.02393733,0.66543216,0.6881749,-0.28916293,0.045744836,0.34905657,0.9359845,0.74505526,-0.6360619,0.20079309,,0.072600126,-0.029241575,0.066651106,0.19955342,-0.5481969,0.8121935,-0.3851997,0.7182489,0.5794305,-0.9009992,-0.42848414,-0.067836314,,0.082983345,1.2897654,0.42730415,0.9916561,0.10045477,-0.08078937,0.018916713,-0.7333173,-0.67962337,-0.12751566,0.6724244,-0.7290989,,-0.119458094,0.25749272,-0.09908562,-0.7196862,-0.6033044,0.34362125,0.54665,-0.1872482,0.8161568,-0.4280485,0.77521735,0.46455628,,-0.08819888,0.44878986,-0.37592345,-0.05065535,0.5826144,-0.81116855,-0.96283036,0.18727963,0.19463812,0.2653143,0.7908772,0.5514722,,1.1183366702493254,0.5163805336350218,0.21432469973,3.3619588638873794,-0.5030955921363518,-1.0239562767179087,-0.4232244753539176,,-1.50567806028893,0.14646162895966783,0.15581794687000003,0.6456353359888505,0.5729168435164919,-0.42037335209855275,0.8747074741490655,,-0.07627525163528219,-0.034472434388453,0.0910472212,-0.10859245153614427,,1.8488616e-05,4.887581e-06,-7.987022e-06,1.0,-2.1182e-05,-1.9527972e-05,2.1182e-05,1.0,-3.695488e-06,1.9550323e-05,3.7252903e-06,1.0,567,1.718,0,0,0.0,False,-0.26404847592013647,1.049804668563404
1.736129878088832,16:03:13.805571,16:01:56.025738,0,,0.12217216,-0.0023199916,0.024081007,0.65240496,0.6989504,-0.29297757,0.04583174,0.34948602,0.93582,0.7564834,-0.6239613,0.19597235,,0.072589196,-0.029255135,0.06666976,0.19949934,-0.54825985,0.8121643,-0.38531214,0.7181688,0.579455,-0.90096307,-0.42853776,-0.06797707,,0.082983345,1.2897654,0.42730415,0.9916561,0.10045477,-0.08078937,0.018916713,-0.7333173,-0.67962337,-0.12751566,0.6724244,-0.7290989,,-0.11916622,0.2576772,-0.09914223,-0.70769155,-0.61498576,0.3478004,0.5546157,-0.17859675,0.8127144,-0.43769178,0.7680467,0.46747217,,-0.08819043,0.44879743,-0.3759463,-0.050603673,0.58268726,-0.8111195,-0.9628646,0.18719722,0.19454831,0.26520014,0.79084307,0.5515761,,1.1199584441529127,0.515631428546222,0.21432469973,3.3447642885216484,-0.5147096946164142,-1.0145674336438537,-0.4230611312877832,,-1.5057012284875526,0.1464539062267936,0.15579202107,0.6456353359888505,0.5727802070167264,-0.42026193419485636,0.8747074741490655,,-0.07627525163528219,-0.034472434388453,0.0910472212,-0.10859245153614427,,1.8488616e-05,4.887581e-06,-7.987022e-06,1.0,-2.1182e-05,-1.9527972e-05,2.1182e-05,1.0,-3.695488e-06,1.9550323e-05,3.7252903e-06,1.0,575,1.744,0,0,0.0,False,-0.2632143878608417,1.0496115477602863
1.7708610659465194,16:03:13.826696,16:01:56.025738,0,,0.1219637,-0.0022211745,0.024191871,0.64159364,0.7063164,-0.29912335,0.048100293,0.352153,0.9347057,0.7655351,-0.6140891,0.19196513,,0.07258237,-0.029259784,0.06667817,0.19950044,-0.5482641,0.8121612,-0.38530606,0.7181684,0.57945955,-0.90096545,-0.42853317,-0.0679746,,0.082983345,1.2897654,0.42730415,0.9916561,0.10045477,-0.08078937,0.018916713,-0.7333173,-0.67962337,-0.12751566,0.6724244,-0.7290989,,-0.118960656,0.25782546,-0.09917796,-0.6975294,-0.62291914,0.3541533,0.5625171,-0.16986069,0.80914885,-0.44387755,0.76362234,0.46888548,,-0.08818478,0.448802,-0.37595558,-0.0506046,0.5826907,-0.81111693,-0.9628628,0.1872011,0.19455346,0.2652065,0.7908396,0.5515779,,1.1210627949539267,0.5151912327723913,0.21432599602000002,3.329247232703793,-0.522088065603748,-1.0086325455843872,-0.4232244753539174,,-1.5057012284875526,0.14646162895966783,0.15578035446000002,0.6456353359888505,0.5727802070167264,-0.42026193419485636,0.8747074741490655,,-0.07627525163528219,-0.034472434388453,0.0910472212,-0.10859245153614427,,1.8488616e-05,4.887581e-06,-7.987022e-06,1.0,-2.1182e-05,-1.9527972e-05,2.1182e-05,1.0,-3.695488e-06,1.9550323e-05,3.7252903e-06,1.0,583,1.769,0,0,0.0,False,-0.26351227645344677,1.0495632675595068
1.7919830810278654,16:03:13.858539,16:01:56.025738,0,,0.12164356,-0.0020868257,0.02434741,0.6317219,0.7150535,-0.29937592,0.04552281,0.35130847,0.9351524,0.77385724,-0.60438466,0.189378,,0.072574735,-0.029264553,0.066685736,0.19949561,-0.5482723,0.81215686,-0.38530195,0.7181661,0.57946515,-0.90096825,-0.42852646,-0.067979425,,0.082983345,1.2897654,0.42730415,0.9916561,0.10045477,-0.08078937,0.018916713,-0.7333173,-0.67962337,-0.12751566,0.6724244,-0.7290989,,-0.1186451,0.25803038,-0.099234216,-0.68861836,-0.6324749,0.3546551,0.56640756,-0.16378279,0.8076866,-0.45275512,0.75706714,0.47102243,,-0.08817822,0.44880596,-0.37596452,-0.050599545,0.58269787,-0.8111121,-0.9628617,0.18720603,0.19455376,0.26521114,0.7908332,0.55158496,,1.1229548645081118,0.5145039095465853,0.21432599602000002,3.3172949059251753,-0.5328823490852177,-1.0002389248930728,-0.4243678838168574,,-1.5056935057546785,0.14646935169254205,0.15576868785,0.6456353359888505,0.5727802070167264,-0.42026193419485636,0.8747074741490655,,-0.07627525163528219,-0.034472434388453,0.0910472212,-0.10859245153614427,,1.8488616e-05,4.887581e-06,-7.987022e-06,1.0,-2.1182e-05,-1.9527972e-05,2.1182e-05,1.0,-3.695488e-06,1.9550323e-05,3.7252903e-06,1.0,595,1.805,0,0,0.0,False,-0.26381016504605226,1.0498529487641832
1.8237962878774852,16:03:13.882327,16:01:56.025738,0,,0.12134746,-0.0019474179,0.024507329,0.62144774,0.7228388,-0.30216992,0.044561654,0.35245222,0.9347683,0.7821873,-0.59437484,0.1868197,,0.07257295,-0.02926792,0.066693366,0.19951336,-0.54826003,0.8121608,-0.38529593,0.71817166,0.57946223,-0.9009669,-0.4285328,-0.06795755,,0.082983345,1.2897654,0.42730415,0.9916561,0.10045477,-0.08078937,0.018916713,-0.7333173,-0.67962337,-0.12751566,0.6724244,-0.7290989,,-0.1183534,0.25824195,-0.09928738,-0.679182,-0.6409554,0.35761434,0.57147336,-0.15605436,0.8056458,-0.4605758,0.7515472,0.47227827,,-0.08817747,0.44881004,-0.37597197,-0.050617494,0.5826866,-0.81111914,-0.9628594,0.18720286,0.19456837,0.2652162,0.79084224,0.5515695,,1.1247079248705607,0.5139633182453895,0.21432340344000003,3.303874749542166,-0.5423102675690331,-0.9932045194591443,-0.42338781942005177,,-1.505716673953301,0.14646935169254205,0.15576091011,0.6456353359888505,0.5727802070167264,-0.42026193419485636,0.8747074741490655,,-0.07627525163528219,-0.034472434388453,0.0910472212,-0.10859245153614427,,1.8488616e-05,4.887581e-06,-7.987022e-06,1.0,-2.1182e-05,-1.9527972e-05,2.1182e-05,1.0,-3.695488e-06,1.9550323e-05,3.7252903e-06,1.0,603,1.83,0,0,0.0,False,-0.26339312101640555,1.049514987358727
1.847559104906395,16:03:13.908981,16:01:56.025738,0,,0.12115881,-0.0018508434,0.024625018,0.6128488,0.7276037,-0.30823532,0.04638481,0.35627532,0.9332291,0.78883755,-0.58622575,0.18459323,,0.07257304,-0.02927096,0.06669891,0.19953002,-0.5482437,0.81216764,-0.38529608,0.7181776,0.5794548,-0.9009632,-0.42854378,-0.06793818,,0.082983345,1.2897654,0.42730415,0.9916561,0.10045477,-0.08078937,0.018916713,-0.7333173,-0.67962337,-0.12751566,0.6724244,-0.7290989,,-0.118168265,0.2583933,-0.0993273,-0.67105216,-0.64607066,0.36370555,0.57739246,-0.14766838,0.8030019,-0.46508813,0.74885696,0.4721295,,-0.0881783,0.44881243,-0.37597778,-0.050634515,0.5826719,-0.8111286,-0.96285886,0.18719582,0.1945778,0.2652149,0.79085475,0.5515522,,1.1257659392743296,0.5136930225947917,0.21431303312000002,3.2912933529330943,-0.5476390910598853,-0.9898393660966704,-0.4243678838168574,,-1.5057398421519237,0.14646162895966783,0.15575572495,0.6456353359888505,0.5727802070167264,-0.42026193419485636,0.8747074741490655,,-0.07627525163528219,-0.034472434388453,0.0910472212,-0.10859245153614427,,1.8488616e-05,4.887581e-06,-7.987022e-06,1.0,-2.1182e-05,-1.9527972e-05,2.1182e-05,1.0,-3.695488e-06,1.9550323e-05,3.7252903e-06,1.0,628,1.907,0,0,0.0,False,-0.2636314318904893,1.0491287457524916
1.8742706289049238,16:03:13.987679,16:01:56.227602,0,,0.12058842,-0.0016672537,0.025270417,0.5812233,0.7497293,-0.31636274,0.042544127,0.3602456,0.9318869,0.81263113,-0.5550937,0.17748663,,0.07255749,-0.029292,0.06671876,0.19967003,-0.54834545,0.81206465,-0.38540667,0.7180048,0.57959527,-0.90088487,-0.42870304,-0.067972004,,0.082983345,1.2897654,0.42730415,0.9916561,0.10045477,-0.08078937,0.018916713,-0.7333173,-0.67962337,-0.12751566,0.6724244,-0.7290989,,-0.11764115,0.25897226,-0.099730454,-0.64192003,-0.6703396,0.37226805,0.59107226,-0.12333076,0.79713434,-0.48843858,0.7317338,0.4753876,,-0.0881652,0.4488169,-0.37600756,-0.050781008,0.58280164,-0.8110262,-0.96288574,0.18697962,0.19465259,0.26508924,0.7908102,0.5516764,,1.12929522819785,0.5129516402388662,0.21405118254000002,3.2520813335014886,-0.5746931180134426,-0.9698205896682932,-0.42420453975072325,,-1.5057398421519237,0.14641529256242247,0.1557233177,0.6454256460453659,0.5727802070167264,-0.4201802554547158,0.8748708182151996,,-0.07627525163528219,-0.034472434388453,0.0910472212,-0.10859245153614427,,1.8488616e-05,4.887581e-06,-7.987022e-06,1.0,-2.1182e-05,-1.9527972e-05,2.1182e-05,1.0,-3.695488e-06,1.9550323e-05,3.7252903e-06,1.0,640,1.944,0,0,0.0,False,-0.2639888982016152,1.0495632675595068
1.9529687999747694,16:03:14.027330,16:01:56.227602,0,,0.12037367,-0.0016579255,0.02561523,0.5640223,0.760716,-0.32123187,0.040152192,0.36328858,0.93081117,0.8247827,-0.5378964,0.17435843,,0.072555624,-0.029299034,0.06672549,0.19967858,-0.5483249,0.8120764,-0.3854211,0.7180097,0.57957965,-0.9008769,-0.42872107,-0.06796485,,0.082983345,1.2897654,0.42730415,0.9916561,0.10045477,-0.08078937,0.018916713,-0.7333173,-0.67962337,-0.12751566,0.6724244,-0.7290989,,-0.11745586,0.25921723,-0.09999645,-0.62603295,-0.6824521,0.37728232,0.5977484,-0.10927041,0.794202,-0.50077903,0.7227165,0.47634152,,-0.08816414,0.44881803,-0.37601733,-0.050790187,0.5827839,-0.8110384,-0.9628896,0.18696588,0.19464682,0.26507354,0.79082656,0.55166054,,1.1305154199919776,0.5126272854581487,0.21385933162,3.2315317190400044,-0.5889033139890484,-0.9603567749275199,-0.42420453975072325,,-1.5057552876176723,0.1463921243637998,0.15571424367,0.6454256460453659,0.5727802070167264,-0.4201802554547158,0.8748708182151996,,-0.07627525163528219,-0.034472434388453,0.0910472212,-0.10859245153614427,,1.8488616e-05,4.887581e-06,-7.987022e-06,1.0,-2.1182e-05,-1.9527972e-05,2.1182e-05,1.0,-3.695488e-06,1.9550323e-05,3.7252903e-06,1.0,648,1.968,0,0,0.0,False,-0.2626186106756321,1.0499495091657423
1.992618028074503,16:03:14.050853,16:01:56.227602,0,,0.1202746,-0.0017005131,0.025726274,0.5616024,0.7613249,-0.32401723,0.040721625,0.36569867,0.9298421,0.8264045,-0.53539604,0.17437488,,0.072556004,-0.029302074,0.06672734,0.19968228,-0.5482462,0.8121286,-0.38543135,0.7180597,0.57951087,-0.9008716,-0.42873797,-0.06792751,,0.082983345,1.2897654,0.42730415,0.9916561,0.10045477,-0.08078937,0.018916713,-0.7333173,-0.67962337,-0.12751566,0.6724244,-0.7290989,,-0.11737003,0.2592632,-0.10011679,-0.62371975,-0.6830774,0.37997234,0.5992825,-0.1058013,0.7935153,-0.50183076,0.72264194,0.47534668,,-0.088164695,0.44881752,-0.37602085,-0.05079431,0.58270705,-0.81109333,-0.9628924,0.18697298,0.1946261,0.26506254,0.7908815,0.55158705,,1.1309710612315567,0.5124342171362931,0.21374914697000003,3.2277573000572835,-0.5902696789867028,-0.9605494557328047,-0.42420453975072325,,-1.5057630103505464,0.14637667889805137,0.15571165109000001,0.6454256460453659,0.5727802070167264,-0.42026193419485636,0.8750341622813339,,-0.07627525163528219,-0.034472434388453,0.0910472212,-0.10859245153614427,,1.8488616e-05,4.887581e-06,-7.987022e-06,1.0,-2.1182e-05,-1.9527972e-05,2.1182e-05,1.0,-3.695488e-06,1.9550323e-05,3.7252903e-06,1.0,656,1.994,0,0,0.0,False,-0.26243987752006825,1.0500943497680806
2.016105535905808,16:03:14.072536,16:01:56.227602,0,,0.120191276,-0.0017504022,0.025874123,0.55747,0.7634501,-0.32614583,0.041073263,0.36700952,0.92931,0.8291804,-0.53145826,0.17323947,,0.07255708,-0.029304517,0.06672835,0.199686,-0.5482339,0.81213605,-0.3854416,0.7180624,0.5795008,-0.9008663,-0.42874926,-0.067925185,,0.082983345,1.2897654,0.42730415,0.9916561,0.10045477,-0.08078937,0.018916713,-0.7333173,-0.67962337,-0.12751566,0.6724244,-0.7290989,,-0.11730348,0.25932923,-0.10026677,-0.6198187,-0.68541497,0.38214022,0.6014576,-0.10213706,0.7923489,-0.5040571,0.72095376,0.4755545,,-0.08816582,0.44881663,-0.3760233,-0.050798435,0.5826965,-0.8111007,-0.9628952,0.18696417,0.19462062,0.2650515,0.7908914,0.55157816,,1.1313726433410165,0.5123183761431798,0.21361433281000003,3.2220956715832014,-0.592865772482246,-0.9584325155625726,-0.4232244753539176,,-1.5057707330834207,0.1463612334323029,0.1557103548,0.6454256460453659,0.5727802070167264,-0.42026193419485636,0.8750341622813339,,-0.07627525163528219,-0.034472434388453,0.0910472212,-0.10859245153614427,,1.8488616e-05,4.887581e-06,-7.987022e-06,1.0,-2.1182e-05,-1.9527972e-05,2.1182e-05,1.0,-3.695488e-06,1.9550323e-05,3.7252903e-06,1.0,664,2.018,0,0,0.0,False,-0.2632143878608417,1.0496115477602863
2.037825268926099,16:03:14.101967,16:01:56.227602,0,,0.12013932,-0.0018018708,0.026124313,0.546654,0.7719003,-0.32456014,0.037609786,0.36457527,0.9304141,0.8365135,-0.52082115,0.17026559,,0.07255721,-0.02930708,0.06672943,0.19962007,-0.5483051,0.8121042,-0.38555804,0.71797854,0.57952714,-0.9008311,-0.42879868,-0.068080485,,0.082983345,1.2897654,0.42730415,0.9916561,0.10045477,-0.08078937,0.018916713,-0.7333173,-0.67962337,-0.12751566,0.6724244,-0.7290989,,-0.11727679,0.25946477,-0.10048785,-0.60995626,-0.6948878,0.38089937,0.6040253,-0.09656533,0.7910933,-0.5129394,0.7126051,0.47863042,,-0.088166036,0.44881585,-0.37602597,-0.05073479,0.58277684,-0.81104696,-0.9629309,0.18688388,0.19452104,0.26493394,0.7908512,0.5516923,,1.1317278890532307,0.5122797624788086,0.21344322253000003,3.210772414635037,-0.6029768734648887,-0.9487173733665073,-0.4238778516184545,,-1.505778455816295,0.14635351069942867,0.15570776222000002,0.6454256460453659,0.5726435705169609,-0.42015051629115996,0.8750341622813339,,-0.07627525163528219,-0.034472434388453,0.0910472212,-0.10859245153614427,,1.8488616e-05,4.887581e-06,-7.987022e-06,1.0,-2.1182e-05,-1.9527972e-05,2.1182e-05,1.0,-3.695488e-06,1.9550323e-05,3.7252903e-06,1.0,672,2.043,0,0,0.0,False,-0.26255903295711036,1.0497563883626244
2.0672561048995703,16:03:14.123150,16:01:56.227602,0,,0.12014618,-0.0018468946,0.0262423,0.542763,0.7763748,-0.3203911,0.033690035,0.36103752,0.9319426,0.8392099,-0.5166179,0.16980168,,0.072557904,-0.029309018,0.06673241,0.19963081,-0.5482928,0.8121098,-0.3855602,0.71798265,0.57952064,-0.9008279,-0.42880747,-0.068068415,,0.082983345,1.2897654,0.42730415,0.9916561,0.10045477,-0.08078937,0.018916713,-0.7333173,-0.67962337,-0.12751566,0.6724244,-0.7290989,,-0.11729696,0.25951362,-0.100602746,-0.60662204,-0.6999602,0.37691578,0.60305464,-0.09622868,0.79187447,-0.51801044,0.7076693,0.48048866,,-0.0881671,0.44881687,-0.37602928,-0.05074582,0.5827659,-0.8110541,-0.96293116,0.18687789,0.1945256,0.26493096,0.79086065,0.55168015,,1.1317896709162245,0.5122720397459344,0.21335637110000003,3.2084658252567073,-0.6088522429548027,-0.9433546523265772,-0.4227344431555149,,-1.5057939012820434,0.14634578796655445,0.15570516964,0.6454256460453659,0.5726435705169609,-0.42015051629115996,0.8750341622813339,,-0.07627525163528219,-0.034472434388453,0.0910472212,-0.10859245153614427,,1.8488616e-05,4.887581e-06,-7.987022e-06,1.0,-2.1182e-05,-1.9527972e-05,2.1182e-05,1.0,-3.695488e-06,1.9550323e-05,3.7252903e-06,1.0,697,2.12,0,0,0.0,False,-0.2622611443645053,1.0499495091657423
2.0884372270666063,16:03:14.201216,16:01:56.407851,0,,0.12029529,-0.0019890517,0.026526049,0.52586526,0.7881877,-0.31972775,0.03218612,0.35719022,0.9334769,0.84995866,-0.50117385,0.16246524,,0.07255731,-0.02931018,0.06673491,0.19963674,-0.5482887,0.8121111,-0.3855582,0.7179845,0.5795197,-0.9008274,-0.4288096,-0.06806114,,0.082983345,1.2897654,0.42730415,0.9916561,0.10045477,-0.08078937,0.018916713,-0.7333173,-0.67962337,-0.12751566,0.6724244,-0.7290989,,-0.11747989,0.25960645,-0.10088714,-0.59084976,-0.7132852,0.37698904,0.6094046,-0.08836495,0.7879198,-0.528699,0.6952811,0.4868897,,-0.088166855,0.4488182,-0.3760318,-0.0507518,0.5827621,-0.81105644,-0.9629304,0.18687683,0.19453047,0.26493266,0.7908637,0.551675,,1.1308629429713177,0.5126581763896456,0.21312174261000003,3.1898034202865846,-0.6204663454348651,-0.9281666187025421,-0.4230611312877832,,-1.5058016240149177,0.14634578796655445,0.15570257706,0.6454256460453659,0.5726435705169609,-0.42015051629115996,0.8750341622813339,,-0.07627525163528219,-0.034472434388453,0.0910472212,-0.10859245153614427,,1.8488616e-05,4.887581e-06,-7.987022e-06,1.0,-2.1182e-05,-1.9527972e-05,2.1182e-05,1.0,-3.695488e-06,1.9550323e-05,3.7252903e-06,1.0,705,2.144,0,0,0.0,False,-0.2630356547052788,1.0496115477602863
2.1665065709967166,16:03:14.225274,16:01:56.407851,0,,0.12043526,-0.0020600334,0.026523367,0.5219377,0.791501,-0.3179736,0.031499982,0.35463846,0.9344728,0.8524018,-0.49775273,0.16016698,,0.07255742,-0.029310657,0.06673658,0.19964266,-0.54828465,0.8121124,-0.38555622,0.71798635,0.57951874,-0.90082693,-0.42881176,-0.0680539,,0.082983345,1.2897654,0.42730415,0.9916561,0.10045477,-0.08078937,0.018916713,-0.7333173,-0.67962337,-0.12751566,0.6724244,-0.7290989,,-0.11762425,0.25955307,-0.10091787,-0.58720547,-0.7170617,0.37551603,0.61059886,-0.08785344,0.787052,-0.53137445,0.6914509,0.48942503,,-0.08816719,0.4488192,-0.3760332,-0.050757784,0.58275837,-0.81105876,-0.9629296,0.18687578,0.19453534,0.26493433,0.79086673,0.5516699,,1.1299516604921591,0.5127971855813817,0.21309970568000003,3.1864483811908326,-0.6233357119299393,-0.9237031954812626,-0.4230611312877832,,-1.5058093467477918,0.14634578796655445,0.15570128077,0.6454256460453659,0.5726435705169609,-0.42015051629115996,0.8750341622813339,,-0.07627525163528219,-0.034472434388453,0.0910472212,-0.10859245153614427,,1.8488616e-05,4.887581e-06,-7.987022e-06,1.0,-2.1182e-05,-1.9527972e-05,2.1182e-05,1.0,-3.695488e-06,1.9550323e-05,3.7252903e-06,1.0,713,2.169,0,0,0.0,False,-0.2631548101423209,1.0499495091657423
2.1905203200876713,16:03:14.254212,16:01:56.407851,0,,0.12055141,-0.002119705,0.02650623,0.51849955,0.79376674,-0.3179504,0.031929314,0.3536057,0.9348495,0.8544815,-0.49487105,0.15799999,,0.07255622,-0.0293103,0.06673783,0.19964375,-0.5482888,0.8121093,-0.38555008,0.717986,0.5795233,-0.9008293,-0.42880714,-0.0680514,,0.082983345,1.2897654,0.42730415,0.9916561,0.10045477,-0.08078937,0.018916713,-0.7333173,-0.67962337,-0.12751566,0.6724244,-0.7290989,,-0.117742874,0.25949797,-0.10093322,-0.58392996,-0.7196338,0.37570325,0.61234885,-0.086614095,0.78582877,-0.5329678,0.68893045,0.49124354,,-0.08816621,0.44882053,-0.37603375,-0.050758712,0.58276176,-0.81105626,-0.9629278,0.18687966,0.1945405,0.26494068,0.7908633,0.55167174,,1.1291330508074913,0.5128975811087466,0.21308803907,3.182883652151595,-0.6249753499271247,-0.9207326058340942,-0.42322447535391783,,-1.5058093467477918,0.14635351069942867,0.15569998448000003,0.6454256460453659,0.5726435705169609,-0.42015051629115996,0.8750341622813339,,-0.07627525163528219,-0.034472434388453,0.0910472212,-0.10859245153614427,,1.8488616e-05,4.887581e-06,-7.987022e-06,1.0,-2.1182e-05,-1.9527972e-05,2.1182e-05,1.0,-3.695488e-06,1.9550323e-05,3.7252903e-06,1.0,725,2.207,0,0,0.0,False,-0.2634526987349264,1.0497563883626244
2.2194508539978415,16:03:14.285658,16:01:56.407851,0,,0.120904885,-0.0022617579,0.026422307,0.51697516,0.7963468,-0.3139561,0.030342221,0.3494926,0.93644774,0.85546243,-0.49364635,0.15651605,,0.07255481,-0.02931155,0.06673962,0.19964375,-0.5483551,0.8120646,-0.38555008,0.7179386,0.579582,-0.9008293,-0.42880157,-0.068086445,,0.082983345,1.2897654,0.42730415,0.9916561,0.10045477,-0.08078937,0.018916713,-0.7333173,-0.67962337,-0.12751566,0.6724244,-0.7290989,,-0.118098125,0.25933686,-0.10092992,-0.5826214,-0.7226205,0.37198386,0.6118793,-0.08874763,0.78595644,-0.53493553,0.6855243,0.49386278,,-0.088165045,0.44882134,-0.3760359,-0.050758712,0.582828,-0.8110087,-0.9629278,0.18686377,0.19455576,0.26494068,0.7908182,0.55173635,,1.1270479129314508,0.5133532223483258,0.21308674278000003,3.184351481755987,-0.6267516244240754,-0.917977313243792,-0.4237145075523203,,-1.5058093467477918,0.14635351069942867,0.1556973919,0.6454256460453659,0.5726435705169609,-0.4200688375510194,0.8751975063474682,,-0.07627525163528219,-0.034472434388453,0.0910472212,-0.10859245153614427,,1.8488616e-05,4.887581e-06,-7.987022e-06,1.0,-2.1182e-05,-1.9527972e-05,2.1182e-05,1.0,-3.695488e-06,1.9550323e-05,3.7252903e-06,1.0,733,2.231,0,0,0.0,False,-0.26339312101640555,1.0497563883626244
2.2509211369324476,16:03:14.306401,16:01:56.407851,0,,0.121099085,-0.002335377,0.026374713,0.5170877,0.7968228,-0.31255984,0.02986893,0.3481481,0.9369636,0.85541105,-0.49382815,0.15622291,,0.07255514,-0.029310418,0.06674069,0.19965078,-0.54835516,0.81206286,-0.38554198,0.7179401,0.5795856,-0.9008312,-0.4287991,-0.06807667,,0.082983345,1.2897654,0.42730415,0.9916561,0.10045477,-0.08078937,0.018916713,-0.7333173,-0.67962337,-0.12751566,0.6724244,-0.7290989,,-0.11829282,0.25925052,-0.10092399,-0.5827659,-0.7231832,0.37066153,0.6115013,-0.08984647,0.78612584,-0.5352104,0.6847873,0.4945869,,-0.08816557,0.44882283,-0.3760357,-0.050765622,0.5828276,-0.8110085,-0.96292526,0.1868666,0.1945658,0.26494873,0.7908178,0.5517331,,1.1259358393975625,0.5136466861975464,0.21308544649000002,3.186029001303863,-0.6267516244240754,-0.917977313243792,-0.4237145075523203,,-1.505817069480666,0.1463612334323029,0.1556973919,0.6454256460453659,0.5726435705169609,-0.4200688375510194,0.8751975063474682,,-0.07627525163528219,-0.034472434388453,0.0910472212,-0.10859245153614427,,1.8488616e-05,4.887581e-06,-7.987022e-06,1.0,-2.1182e-05,-1.9527972e-05,2.1182e-05,1.0,-3.695488e-06,1.9550323e-05,3.7252903e-06,1.0,741,2.256,0,0,0.0,False,-0.2620824112089424,1.0501909101696396
2.27168902894482,16:03:14.334975,16:01:56.407851,0,,0.12129601,-0.0024012998,0.026340827,0.51570404,0.79823136,-0.311249,0.02917841,0.3467094,0.93751866,0.85626984,-0.49256384,0.15550834,,0.072556764,-0.02931018,0.06674224,0.1996626,-0.548347,0.8120654,-0.38553798,0.7179438,0.57958364,-0.9008303,-0.42880332,-0.0680621,,0.082983345,1.2897654,0.42730415,0.9916561,0.10045477,-0.08078937,0.018916713,-0.7333173,-0.67962337,-0.12751566,0.6724244,-0.7290989,,-0.118490785,0.2591792,-0.100922324,-0.58151686,-0.7248005,0.36946228,0.6115959,-0.090016305,0.7860328,-0.5364593,0.6830529,0.495631,,-0.08816741,0.44882396,-0.37603632,-0.050777588,0.5828201,-0.81101316,-0.9629237,0.18686448,0.19457553,0.2649521,0.7908239,0.55172276,,1.1248160431307999,0.5139633182453895,0.21308544649000002,3.186029001303863,-0.6278447164221989,-0.9168409337937988,-0.42355116348618593,,-1.5058402376792888,0.14635351069942867,0.1556973919,0.6454256460453659,0.5725069340171954,-0.4198757409071823,0.8753608504136025,,-0.07627525163528219,-0.034472434388453,0.0910472212,-0.10859245153614427,,1.8488616e-05,4.887581e-06,-7.987022e-06,1.0,-2.1182e-05,-1.9527972e-05,2.1182e-05,1.0,-3.695488e-06,1.9550323e-05,3.7252903e-06,1.0,766,2.333,0,0,0.0,False,-0.2626781883941529,1.0496598279610654
2.300239183008671,16:03:14.407267,16:01:56.626290,0,,0.1220921,-0.0026382506,0.026308492,0.5074572,0.80624497,-0.30406606,0.026575178,0.33806548,0.9407473,0.86126703,-0.48546958,0.15012759,,0.07257022,-0.0293117,0.06675118,0.19937336,-0.54851025,0.81202626,-0.3854888,0.7179489,0.57961,-0.9009154,-0.4285859,-0.06830469,,0.082983345,1.2897654,0.42730415,0.9916561,0.10045477,-0.08078937,0.018916713,-0.7333173,-0.67962337,-0.12751566,0.6724244,-0.7290989,,-0.11929747,0.25898457,-0.10097061,-0.57394457,-0.73402894,0.36302778,0.61317086,-0.0913826,0.78464687,-0.5427791,0.67294186,0.50253373,,-0.088181995,0.4488281,-0.37604213,-0.050480623,0.58294886,-0.8109392,-0.9629196,0.18705828,0.1944094,0.26502362,0.79068315,0.5518901,,1.1204990354541082,0.5155464784846056,0.21303748376000003,3.1824642722646264,-0.633446812912582,-0.9069636816331089,-0.42404119568458887,,-1.5059329104737793,0.14634578796655445,0.1556973919,0.645845025932335,0.5725069340171954,-0.4196307046867606,0.8748708182151996,,-0.07627525163528219,-0.034472434388453,0.0910472212,-0.10859245153614427,,1.8488616e-05,4.887581e-06,-7.987022e-06,1.0,-2.1182e-05,-1.9527972e-05,2.1182e-05,1.0,-3.695488e-06,1.9550323e-05,3.7252903e-06,1.0,774,2.357,0,0,0.0,False,-0.262797343831195,1.0499012289649627
2.372517113108188,16:03:14.435973,16:01:56.626290,0,,0.12236771,-0.00274878,0.02630584,0.5043072,0.8098087,-0.29980654,0.025971174,0.33280846,0.9426367,0.86313355,-0.48316494,0.14680603,,0.072598584,-0.029326094,0.06676161,0.19439648,-0.54859924,0.8131719,-0.38325128,0.72061807,0.5777785,-0.9029554,-0.4239674,-0.07016581,,0.082983345,1.2897654,0.42730415,0.9916561,0.10045477,-0.08078937,0.018916713,-0.7333173,-0.67962337,-0.12751566,0.6724244,-0.7290989,,-0.11957968,0.25890246,-0.10101299,-0.5710183,-0.7381723,0.359221,0.6140257,-0.09359943,0.7837165,-0.54489493,0.6680874,0.5067038,,-0.08821111,0.4488234,-0.37605792,-0.045329645,0.58226335,-0.8117356,-0.96243507,0.19229545,0.19167995,0.26770127,0.78993154,0.551674,,1.1189235979477665,0.5160407333885559,0.21299600248000003,3.1807867527167497,-0.6353597239092981,-0.9009115002736281,-0.4238778516184545,,-1.5059329104737793,0.14635351069942867,0.1556973919,0.6527647940673243,0.5722336610176646,-0.41703918541529156,0.8753608504136025,,-0.07627525163528219,-0.034472434388453,0.0910472212,-0.10859245153614427,,1.8488616e-05,4.887581e-06,-7.987022e-06,1.0,-2.1182e-05,-1.9527972e-05,2.1182e-05,1.0,-3.695488e-06,1.9550323e-05,3.7252903e-06,1.0,782,2.383,0,0,0.0,False,-0.26392932048309437,1.0501909101696396
2.401261901948601,16:03:14.464429,16:01:56.626290,0,,0.12253065,-0.0028333515,0.026283547,0.5027082,0.81013924,-0.3015937,0.027742237,0.3335836,0.94231224,0.8640108,-0.48207498,0.14522016,,0.07259283,-0.029320998,0.066762686,0.19527346,-0.5497482,0.81218535,-0.38338894,0.71944237,0.5791508,-0.90270764,-0.42447576,-0.07027945,,0.082983345,1.2897654,0.42730415,0.9916561,0.10045477,-0.08078937,0.018916713,-0.7333173,-0.67962337,-0.12751566,0.6724244,-0.7290989,,-0.1197463,0.2588257,-0.10103633,-0.5693646,-0.7385311,0.36110345,0.61591446,-0.09228662,0.782389,-0.5444936,0.66787344,0.5074167,,-0.088205755,0.44882816,-0.37605497,-0.04622887,0.5835122,-0.8107875,-0.9624483,0.19133219,0.1925752,0.26749974,0.78924364,0.5527553,,1.1178578608111236,0.5162955835734053,0.21296359523000002,3.1788995432253895,-0.6345399049107054,-0.9010082565148229,-0.42371450755232054,,-1.5059329104737793,0.14636895616517714,0.1556973919,0.6517163443499017,0.5725069340171954,-0.41603684012057596,0.8751975063474682,,-0.07627525163528219,-0.034472434388453,0.0910472212,-0.10859245153614427,,1.8488616e-05,4.887581e-06,-7.987022e-06,1.0,-2.1182e-05,-1.9527972e-05,2.1182e-05,1.0,-3.695488e-06,1.9550323e-05,3.7252903e-06,1.0,790,2.408,0,0,0.0,False,-0.26333354329788383,1.0498529487641832
2.42970240698196,16:03:14.486093,16:01:56.746365,0,,0.12264411,-0.0029033795,0.02625361,0.4993414,0.81169164,-0.30300966,0.029628217,0.33352995,0.94227374,0.8658986,-0.47949398,0.1424964,,0.07259045,-0.029302318,0.066761255,0.19544324,-0.54994905,0.81200844,-0.38338134,0.7192457,0.5794001,-0.9026742,-0.42454877,-0.07026854,,0.083016366,1.2897631,0.42729378,0.99165666,0.100433975,-0.08080865,0.018888598,-0.7333202,-0.67962104,-0.12751566,0.6724244,-0.7290989,,-0.11989258,0.25875837,-0.10105484,-0.5660277,-0.7402821,0.36276037,0.61859554,-0.09052777,0.780477,-0.54493326,0.6661735,0.50917643,,-0.088235706,0.4488414,-0.37604588,-0.0464167,0.58374697,-0.8106078,-0.96243894,0.1911724,0.19278072,0.267501,0.78910875,0.5529472,,1.1166608372156188,0.5165427110253805,0.21292859540000003,3.174915434299183,-0.6346765414104709,-0.8990182275878934,-0.4248579160152606,,-1.5059329104737793,0.1463844016309256,0.1556973919,0.6515066544064172,0.5726435705169609,-0.41590322180385075,0.8756875385458711,,-0.07627525163528219,-0.034472434388453,0.0910472212,-0.10859245153614427,,5.2511692e-05,2.861023e-06,-1.66893e-06,1.0,-4.185736e-05,-3.8601458e-05,4.185736e-05,1.0,-7.3313713e-06,3.860891e-05,7.3313713e-06,1.0,798,2.432,0,0,0.0,False,-0.26232072208302704,1.0499012289649627
2.4513682040851563,16:03:14.515576,16:01:56.746365,0,,0.122916475,-0.0030637234,0.026248515,0.49369174,0.816103,-0.3004068,0.028963357,0.32981747,0.9436003,0.8691546,-0.4745485,0.13919112,,0.072590254,-0.029298175,0.06676328,0.19552356,-0.54987776,0.81203735,-0.3832488,0.7193319,0.57938075,-0.90271306,-0.42449504,-0.07009372,,0.083016366,1.2897631,0.42729378,0.99165666,0.100433975,-0.08080865,0.018888598,-0.7333202,-0.67962104,-0.12751566,0.6724244,-0.7290989,,-0.120175265,0.25863853,-0.10113001,-0.5607388,-0.74536747,0.36055416,0.62036806,-0.08980509,0.77915245,-0.5483753,0.6605773,0.5127594,,-0.08823596,0.44884557,-0.3760439,-0.046494544,0.5836657,-0.8106618,-0.9623981,0.19125755,0.19290009,0.26763436,0.7891482,0.55282634,,1.1148614404559245,0.5168207294088526,0.21286507719000003,3.1705119454860085,-0.6383657269041378,-0.8929878308028891,-0.4237145075523203,,-1.5059406332066536,0.14640756982954825,0.15569868819000002,0.6515066544064172,0.5727802070167264,-0.41601463970754715,0.8756875385458711,,-0.07627525163528219,-0.034472434388453,0.0910472212,-0.10859245153614427,,5.2511692e-05,2.861023e-06,-1.66893e-06,1.0,-4.185736e-05,-3.8601458e-05,4.185736e-05,1.0,-7.3313713e-06,3.860891e-05,7.3313713e-06,1.0,827,2.521,0,0,0.0,False,-0.2626186106756321,1.0499012289649627
2.480841068085283,16:03:14.595724,16:01:56.746365,0,,0.123538256,-0.003475204,0.026138455,0.48068243,0.82297957,-0.3027358,0.03410536,0.32742918,0.94425994,0.87623125,-0.46421415,0.12932155,,0.07258421,-0.029274423,0.066779315,0.19551586,-0.54967564,0.8121761,-0.38290116,0.71964216,0.57922536,-0.90286225,-0.424231,-0.06977004,,0.083016366,1.2897631,0.42729378,0.99165666,0.100433975,-0.08080865,0.018888598,-0.7333202,-0.67962104,-0.12751566,0.6724244,-0.7290989,,-0.12081593,0.25826415,-0.101262,-0.54800373,-0.75324816,0.36374322,0.62898743,-0.08440718,0.77281964,-0.5514224,0.652298,0.5200391,,-0.08823313,0.4488735,-0.37603548,-0.046475828,0.58341664,-0.81084216,-0.9622976,0.19162606,0.19303562,0.2679987,0.789243,0.5525145,,1.1102664143957608,0.5172686479155577,0.21273415190000003,3.15667240921603,-0.641235093399212,-0.883623683173176,-0.4227344431555149,,-1.505994692336773,0.14659291541852965,0.1556973919,0.6517163443499017,0.5729168435164919,-0.41628941509152473,0.8753608504136026,,-0.07627525163528219,-0.034472434388453,0.0910472212,-0.10859245153614427,,5.2511692e-05,2.861023e-06,-1.66893e-06,1.0,-4.185736e-05,-3.8601458e-05,4.185736e-05,1.0,-7.3313713e-06,3.860891e-05,7.3313713e-06,1.0,835,2.546,0,0,0.0,False,-0.26243987752006825,1.0499012289649627
2.5609908949118108,16:03:14.634966,16:01:56.866258,0,,0.12360906,-0.0035286099,0.026186973,0.4626962,0.8298718,-0.31180918,0.03766218,0.33300543,0.9421724,0.88571656,-0.447683,0.12282565,,0.072579525,-0.029261459,0.066785276,0.19554184,-0.54972136,0.81213886,-0.38281763,0.7196401,0.57928306,-0.902892,-0.4241753,-0.06972334,,0.083016366,1.2897631,0.42729378,0.99165666,0.100433975,-0.08080865,0.018888598,-0.7333202,-0.67962104,-0.12751566,0.6724244,-0.7290989,,-0.12089449,0.25825894,-0.10132542,-0.53064924,-0.7610393,0.37313613,0.63812786,-0.068969026,0.76683515,-0.55785686,0.645029,0.52223873,,-0.088229805,0.44888678,-0.37602934,-0.046499744,0.5834536,-0.8108142,-0.9622726,0.19167417,0.19311255,0.26808435,0.789204,0.55252856,,1.1091929545262436,0.5172068660525638,0.2127082261,3.133816205376217,-0.6487501008863112,-0.8755354087064994,-0.4230611312877832,,-1.5060101378025217,0.14669331094589455,0.1556973919,0.6517163443499017,0.5729168435164919,-0.41628941509152473,0.8753608504136026,,-0.07627525163528219,-0.034472434388453,0.0910472212,-0.10859245153614427,,5.2511692e-05,2.861023e-06,-1.66893e-06,1.0,-4.185736e-05,-3.8601458e-05,4.185736e-05,1.0,-7.3313713e-06,3.860891e-05,7.3313713e-06,1.0,843,2.57,0,0,0.0,False,-0.26333354329788383,1.0502391903704191
2.6002124450169504,16:03:14.655134,16:01:56.866258,0,,0.12360063,-0.0035419613,0.026257217,0.45452213,0.83356005,-0.31398585,0.037434846,0.33431435,0.94171786,0.8899485,-0.43978572,0.120749146,,0.07257968,-0.02925827,0.0667879,0.19555697,-0.54972565,0.81213236,-0.38279533,0.71964246,0.5792949,-0.9028983,-0.42416567,-0.069701344,,0.083016366,1.2897631,0.42729378,0.99165666,0.100433975,-0.08080865,0.018888598,-0.7333202,-0.67962104,-0.12751566,0.6724244,-0.7290989,,-0.12089304,0.25829777,-0.10138605,-0.5228998,-0.7652603,0.37543637,0.64089334,-0.06257473,0.76507527,-0.5619889,0.6406724,0.52317053,,-0.08823045,0.44889072,-0.37602842,-0.04651449,0.58345634,-0.8108114,-0.9622657,0.19168364,0.19313781,0.26810676,0.78919965,0.5525239,,1.1090384998687592,0.5171605296553186,0.21267322627000002,3.124170467975928,-0.6536690148778671,-0.8707892555121631,-0.42289778722164906,,-1.50602558326827,0.14671647914451724,0.1556973919,0.6517163443499017,0.5729168435164919,-0.41628941509152473,0.8753608504136026,,-0.07627525163528219,-0.034472434388453,0.0910472212,-0.10859245153614427,,5.2511692e-05,2.861023e-06,-1.66893e-06,1.0,-4.185736e-05,-3.8601458e-05,4.185736e-05,1.0,-7.3313713e-06,3.860891e-05,7.3313713e-06,1.0,851,2.596,0,0,0.0,False,-0.2620824112089424,1.049418426957168
2.6204259670339525,16:03:14.683012,16:01:56.866258,0,,0.1235028,-0.0035772547,0.02638194,0.44345576,0.8360357,-0.32309616,0.04156992,0.34090674,0.9391775,0.89533174,-0.4299148,0.11642319,,0.07257903,-0.029259492,0.066788375,0.19540457,-0.54966885,0.8122074,-0.38272262,0.7197681,0.5791868,-0.902962,-0.42402595,-0.06972474,,0.083016366,1.2897631,0.42729378,0.99165666,0.100433975,-0.08080865,0.018888598,-0.7333202,-0.67962104,-0.12751566,0.6724244,-0.7290989,,-0.12080901,0.25835842,-0.101511054,-0.5120322,-0.7680285,0.38464952,0.64761317,-0.05099392,0.760261,-0.5642873,0.6383822,0.5234959,,-0.08822984,0.44889045,-0.3760297,-0.046356693,0.5833754,-0.81087863,-0.9622493,0.19186172,0.19304258,0.26819286,0.7892162,0.55245847,,1.1091234499303757,0.517006074997834,0.21256433791,3.10802434232762,-0.6564017448731759,-0.8674990738164075,-0.4227344431555149,,-1.5060178605353958,0.14671647914451724,0.15569609561000003,0.6519260342933862,0.5729168435164919,-0.41628941509152473,0.8753608504136026,,-0.07627525163528219,-0.034472434388453,0.0910472212,-0.10859245153614427,,5.2511692e-05,2.861023e-06,-1.66893e-06,1.0,-4.185736e-05,-3.8601458e-05,4.185736e-05,1.0,-7.3313713e-06,3.860891e-05,7.3313713e-06,1.0,859,2.62,0,0,0.0,False,-0.26196325577190027,1.049804668563404
