AlexandreBanks6/ExpertPlaybackApp/resources/Motions/P_19/PC1/Data_PC1_7.csv
Task Time,PC1 Time,PC2 Time,Gaze Calib,s_T_psm1,Tx,Ty,Tz,R00,R01,R02,R10,R11,R12,R20,R21,R22,s_T_psm3,Tx,Ty,Tz,R00,R01,R02,R10,R11,R12,R20,R21,R22,cart_T_ecm,Tx,Ty,Tz,R00,R01,R02,R10,R11,R12,R20,R21,R22,ecm_T_psm1,Tx,Ty,Tz,R00,R01,R02,R10,R11,R12,R20,R21,R22,ecm_T_psm3,Tx,Ty,Tz,R00,R01,R02,R10,R11,R12,R20,R21,R22,psm1_joints,q1,q2,q3,q4,q5,q6,jaw,psm3_joints,q1,q2,q3,q4,q5,q6,jaw,ecm_joints,q1,q2,q3,q4,ecmi_T_ecm,Tx,Ty,Tz,R00,R01,R02,R10,R11,R12,R20,R21,R22,Sample #,Task Duration (s),Collisions (binary),Collisions (increments),Cumulative Collision Time (s),Clutch Press,MTMR Angle,MTML Angle
""
lci_T_si,,,,,-0.05352222,0.052262206,0.18758368,0.9852688,0.08240888,0.14984752,0.16226129,-0.7272103,-0.6669606,0.054007176,0.6814499,-0.72986937
rci_T_si,,,,,-0.062090434,0.054590147,0.19598114,0.98279583,0.06324867,0.17352791,0.16653219,-0.70975983,-0.68447644,0.079870924,0.7015986,-0.70808196
ecm_T_lc,,,,,-4.4061628e-05,-0.00034663224,-0.01840835,-0.99912,0.030754527,0.028518902,-0.031987965,-0.99852574,-0.043852776,0.027128186,-0.04472645,0.9986309
ecm_T_rc,,,,,-0.0043358393,0.01870579,-0.007592615,-0.99555075,-0.052743673,-0.078081585,0.04863213,-0.9973746,0.053654674,-0.08070653,0.04961868,0.9955021
cart_T_ecmi,,,,,0.08275826,1.28792,0.42543122,0.99152017,0.10184248,-0.08072096,0.019885775,-0.73274505,-0.6802127,-0.12842242,0.6728394,-0.7285567
ecmac_T_ecmrep_psm1,,,,,0.022898523,-0.26913688,-0.29720387,0.9902475,0.13300471,0.041468147,-0.1315095,0.99062705,-0.036922794,-0.045990374,0.031109251,0.9984574
ecmac_T_ecmrep_psm3,,,,,0.02078248,-0.4666591,-0.5231304,0.997355,0.0035024614,0.07259993,-0.011652398,0.993624,0.11214125,-0.07174426,-0.1126906,0.99103665
""
0,16:51:14.290040,16:49:56.524851,0,,0.08974002,0.0052943975,0.012763292,-0.17694901,0.7539276,-0.63267857,0.23746294,0.65653515,0.715942,0.9551441,-0.023552477,-0.29520315,,0.061530754,0.017372387,0.027512252,0.1199715,0.33175638,0.9357055,0.0922246,-0.94216156,0.32222086,0.9884845,0.04763773,-0.14362863,,0.08280432,1.2879162,0.42543107,0.99152094,0.10181485,-0.080746606,0.01984839,-0.73274887,-0.68020964,-0.12842242,0.6728394,-0.7285567,,-0.0849273,0.2287588,-0.116862394,0.104404226,-0.7618534,0.6392802,0.8373709,0.4141393,0.35678938,-0.5365722,0.49806428,0.68119174,,-0.06947568,0.42799264,-0.34462526,-0.2638447,-0.21235251,-0.9408998,0.796118,-0.5986901,-0.08812648,-0.54459345,-0.77231896,0.3270189,,1.132600557868018,0.29266840773448627,0.20717047522,2.1314982755201903,-0.7141989842739572,-0.3276014612848092,-0.40525662807914686,,-1.2858273008255066,0.17990106230505995,0.18615372545000003,-2.088931216992832,-0.8058820756165678,0.631659029077638,0.8480823913691778,,-0.07621634677302738,-0.03364776631688568,0.09367612488,-0.1102278800231344,,4.561618e-05,7.3313713e-06,-9.536743e-07,1.0,-2.747029e-05,-2.5361776e-05,2.747029e-05,1.0,-4.8577785e-06,2.5376678e-05,4.827976e-06,1.0,35,0.105,0,0,0.0,False,-0.25171588818628265,1.0223815145206714
0.12070135306566954,16:51:14.320612,16:49:56.594829,0,,0.08982528,0.0048757866,0.0136720985,-0.160885,0.7476058,-0.6443613,0.2164061,0.6636999,0.7160103,0.96295595,-0.024248451,-0.2685659,,0.061493628,0.017430114,0.027504325,0.11977328,0.33232123,0.9355304,0.09225938,-0.9419619,0.32279414,0.98850524,0.047649413,-0.14348161,,0.08280432,1.2879162,0.42543107,0.99152094,0.10181485,-0.080746606,0.01984839,-0.73274887,-0.68020964,-0.12842242,0.6728394,-0.7285567,,-0.085069485,0.22907184,-0.11780592,0.08820108,-0.7556259,0.6490378,0.8264381,0.4192556,0.37579885,-0.55607605,0.50324374,0.6614568,,-0.06944549,0.42802864,-0.34457454,-0.2636572,-0.21293451,-0.9408208,0.79619205,-0.5986643,-0.08763145,-0.54457605,-0.7721787,0.32737893,,1.132600557868018,0.292212766494907,0.20633696075000002,2.1407246330335092,-0.741116374727749,-0.3428159610205699,-0.4057466602775496,,-1.285734628031016,0.1802331398186516,0.18617835496000001,-2.089560286823285,-0.8058820756165678,0.6317407078177786,0.8479190473030436,,-0.07621634677302738,-0.03364776631688568,0.09367612488,-0.1102278800231344,,4.561618e-05,7.3313713e-06,-9.536743e-07,1.0,-2.747029e-05,-2.5361776e-05,2.747029e-05,1.0,-4.8577785e-06,2.5376678e-05,4.827976e-06,1.0,43,0.129,0,0,0.0,False,-0.2511201110010721,1.023685079941717
0.15128098893910646,16:51:14.340661,16:49:56.594829,0,,0.08988759,0.0045993924,0.01430957,-0.15099013,0.74592614,-0.648688,0.20086086,0.6656725,0.7187036,0.9679136,-0.021778941,-0.25033742,,0.06146554,0.017465131,0.027501404,0.119902,0.33252358,0.93544203,0.09211916,-0.9419009,0.32301202,0.9885027,0.047442377,-0.14356756,,0.08280432,1.2879162,0.42543107,0.99152094,0.10181485,-0.080746606,0.01984839,-0.73274887,-0.68020964,-0.12842242,0.6728394,-0.7285567,,-0.08517203,0.22930378,-0.11845579,0.07825571,-0.7541611,0.65200996,0.8179338,0.42248258,0.39050317,-0.5699652,0.50274193,0.6499156,,-0.069421954,0.42805287,-0.34454492,-0.26376545,-0.213113,-0.94075006,0.7960808,-0.5988243,-0.08754861,-0.54468626,-0.7720053,0.32760432,,1.1326160033337667,0.29201197544017715,0.20576400057000002,2.1453378117901685,-0.7599722116953798,-0.3476966178653234,-0.40476659588074415,,-1.2856496779693996,0.18046482180487836,0.18619002157000003,-2.089560286823285,-0.8058820756165678,0.6316590290776379,0.8477557032369093,,-0.07621634677302738,-0.03364776631688568,0.09367612488,-0.1102278800231344,,4.561618e-05,7.3313713e-06,-9.536743e-07,1.0,-2.747029e-05,-2.5361776e-05,2.747029e-05,1.0,-4.8577785e-06,2.5376678e-05,4.827976e-06,1.0,50,0.151,0,0,0.0,False,-0.2536223751789555,1.0251334859651007
0.17126270290464163,16:51:14.364919,16:49:56.594829,0,,0.08999609,0.0042265505,0.015189275,-0.13915922,0.7430372,-0.6546223,0.18076843,0.66900766,0.72093785,0.9736311,-0.018009901,-0.2274163,,0.06141777,0.017510133,0.027491748,0.12006173,0.33144993,0.93580246,0.09184539,-0.94228673,0.321963,0.9885088,0.047293752,-0.14357471,,0.08280432,1.2879162,0.42543107,0.99152094,0.10181485,-0.080746606,0.01984839,-0.73274887,-0.68020964,-0.12842242,0.6728394,-0.7285567,,-0.08533614,0.22962868,-0.119345814,0.06640604,-0.7516068,0.65626013,0.8065283,0.42766348,0.40818638,-0.5874542,0.5021863,0.6345916,,-0.06937946,0.42808178,-0.34450293,-0.26388833,-0.21198878,-0.9409696,0.79588914,-0.5989747,-0.088259965,-0.54490685,-0.7721982,0.326782,,1.1326237260666407,0.29191157991281225,0.20496418964000002,2.1503703704337975,-0.7837469626545664,-0.35452877820726647,-0.40787013313729525,,-1.285464332380418,0.18078145385272154,0.18620687334000002,-2.089560286823285,-0.8060187121163332,0.6329956280834429,0.8498791760966549,,-0.07621634677302738,-0.03364776631688568,0.09367612488,-0.1102278800231344,,4.561618e-05,7.3313713e-06,-9.536743e-07,1.0,-2.747029e-05,-2.5361776e-05,2.747029e-05,1.0,-4.8577785e-06,2.5376678e-05,4.827976e-06,1.0,58,0.174,0,0,0.0,False,-0.2529074425567037,1.0262439305830282
0.19557409593835473,16:51:14.391917,16:49:56.594829,0,,0.090083644,0.003976144,0.015811697,-0.13109833,0.7427181,-0.65664524,0.16616338,0.66945374,0.7240313,0.9773448,-0.0141911805,-0.21117698,,0.061384913,0.017530577,0.027480602,0.12023431,0.33132866,0.93582326,0.091787785,-0.9423341,0.32184094,0.98849314,0.04720083,-0.1437128,,0.08280432,1.2879162,0.42543107,0.99152094,0.10181485,-0.080746606,0.01984839,-0.73274887,-0.68020964,-0.12842242,0.6728394,-0.7285567,,-0.085463256,0.22986764,-0.11996592,0.058361486,-0.75156784,0.657069,0.79796815,0.4306219,0.4216771,-0.5998673,0.49971044,0.624859,,-0.06934826,0.4280917,-0.3444795,-0.26404843,-0.21185094,-0.9409557,0.7958099,-0.59905267,-0.088444665,-0.5449449,-0.77217555,0.326772,,1.1326160033337667,0.29193474811143494,0.20440678494000003,2.153515719586065,-0.8006898886254811,-0.35647695499603854,-0.40541997214528114,,-1.2853098777229337,0.18094363124308027,0.18621594737000002,-2.089560286823285,-0.8060187121163332,0.6332406643038646,0.8503692082950578,,-0.07621634677302738,-0.03364776631688568,0.09367612488,-0.1102278800231344,,4.561618e-05,7.3313713e-06,-9.536743e-07,1.0,-2.747029e-05,-2.5361776e-05,2.747029e-05,1.0,-4.8577785e-06,2.5376678e-05,4.827976e-06,1.0,66,0.199,0,0,0.0,False,-0.25207335449740853,1.0261473701814692
0.22257543704472482,16:51:14.415146,16:49:56.702736,0,,0.09023212,0.0036086962,0.016760364,-0.11954796,0.7397173,-0.66221344,0.14454573,0.67285776,0.72551286,0.98224986,-0.008986592,-0.18736184,,0.061325513,0.017550932,0.027463734,0.12042127,0.33149365,0.93574077,0.09183094,-0.9422783,0.32199186,0.9884664,0.04715532,-0.14391169,,0.08280432,1.2879162,0.42543107,0.99152094,0.10181485,-0.080746606,0.01984839,-0.73274887,-0.68020964,-0.12842242,0.6728394,-0.7285567,,-0.08567223,0.23024124,-0.12090067,0.046876326,-0.74900514,0.6609039,0.78491604,0.43684262,0.43940336,-0.61782634,0.49815646,0.6083837,,-0.0692902,0.4281021,-0.3444521,-0.26423398,-0.212014,-0.9408669,0.7957809,-0.59908444,-0.08849079,-0.5448974,-0.7721062,0.32701516,,1.1326160033337667,0.29210464823466786,0.20355901128,2.1579192083992402,-0.8254210950830257,-0.3631826199332314,-0.40394987555007267,,-1.285016413873713,0.18115986776355855,0.18622113253000003,-2.0897699767667697,-0.8060187121163332,0.6334040217841457,0.8510225845595949,,-0.07621634677302738,-0.03364776631688568,0.09367612488,-0.1102278800231344,,4.561618e-05,7.3313713e-06,-9.536743e-07,1.0,-2.747029e-05,-2.5361776e-05,2.747029e-05,1.0,-4.8577785e-06,2.5376678e-05,4.827976e-06,1.0,77,0.233,0,0,0.0,False,-0.25225208765297147,1.0273060950001762
0.24581515789031982,16:51:14.451480,16:49:56.702736,0,,0.09040763,0.0032790154,0.017661318,-0.10839099,0.73884016,-0.6651065,0.12602189,0.67386276,0.72802985,0.98608816,-0.0049061477,-0.16615078,,0.061274875,0.017554449,0.027441919,0.12088088,0.3311139,0.93581593,0.091591835,-0.94242775,0.3216223,0.9884326,0.046835184,-0.14424881,,0.08280432,1.2879162,0.42543107,0.99152094,0.10181485,-0.080746606,0.01984839,-0.73274887,-0.68020964,-0.12842242,0.6728394,-0.7285567,,-0.08590545,0.23060793,-0.121773824,0.03580452,-0.7484381,0.66223747,0.7734045,0.44042057,0.4559334,-0.6329009,0.49585292,0.59461445,,-0.06923794,0.42809683,-0.344435,-0.2646505,-0.2115784,-0.9408479,0.7955238,-0.5993519,-0.08898978,-0.54507065,-0.7720181,0.32693443,,1.1326237260666407,0.2924367257482595,0.20274883003000002,2.1637905268168067,-0.8468730255461999,-0.368315020071829,-0.4077067890711611,,-1.2847075045587442,0.18128343148954615,0.18622502140000002,-2.0893505968798007,-0.8061553486160986,0.6335971184279827,0.8518393048902663,,-0.07621634677302738,-0.03364776631688568,0.09367612488,-0.1102278800231344,,4.561618e-05,7.3313713e-06,-9.536743e-07,1.0,-2.747029e-05,-2.5361776e-05,2.747029e-05,1.0,-4.8577785e-06,2.5376678e-05,4.827976e-06,1.0,89,0.269,0,0,0.0,False,-0.25350321974191337,1.0308305496570767
0.28213053895160556,16:51:14.475577,16:49:56.702736,0,,0.0905443,0.0030898154,0.01819624,-0.102542676,0.7415827,-0.6629783,0.117818415,0.6708547,0.73216987,0.98772657,-0.0030324757,-0.15616345,,0.061271697,0.017532157,0.02742368,0.12408955,0.32792613,0.9365182,0.0893797,-0.94367015,0.31858754,0.9882374,0.044172406,-0.14640951,,0.08280432,1.2879162,0.42543107,0.99152094,0.10181485,-0.080746606,0.01984839,-0.73274887,-0.68020964,-0.12842242,0.6728394,-0.7285567,,-0.08607641,0.23082839,-0.122286454,0.03000073,-0.75125307,0.6593321,0.76820844,0.43934995,0.46564725,-0.63949645,0.49253476,0.5902998,,-0.0692295,0.42806977,-0.3444411,-0.26749462,-0.2079265,-0.9408577,0.79343057,-0.60157025,-0.09263463,-0.5467308,-0.7712845,0.32589203,,1.1326082806008924,0.2927919714604738,0.20224716580000002,2.1679843256864975,-0.8565742170295462,-0.36734704182133093,-0.40623669247595273,,-1.28449899077114,0.18132976788679148,0.18622761398,-2.0838986583492027,-0.8062919851158641,0.6327283914499924,0.8552695302790861,,-0.07621634677302738,-0.03364776631688568,0.09367612488,-0.1102278800231344,,4.561618e-05,7.3313713e-06,-9.536743e-07,1.0,-2.747029e-05,-2.5361776e-05,2.747029e-05,1.0,-4.8577785e-06,2.5376678e-05,4.827976e-06,1.0,97,0.293,0,0,0.0,False,-0.25260955396409823,1.0326651972866963
0.30625224905088544,16:51:14.506132,16:49:56.702736,0,,0.09088361,0.0028418303,0.01917313,-0.09436534,0.7428984,-0.6627194,0.10711473,0.6694021,0.7351375,0.9897583,-0.0016155243,-0.1427438,,0.061194524,0.017519342,0.027401865,0.12335708,0.32857138,0.9363888,0.08727014,-0.94353163,0.3195811,0.9885175,0.04229629,-0.14506575,,0.08280432,1.2879162,0.42543107,0.99152094,0.10181485,-0.080746606,0.01984839,-0.73274887,-0.68020964,-0.12842242,0.6728394,-0.7285567,,-0.08647983,0.23129627,-0.12315205,0.02189048,-0.7526403,0.6580679,0.7613225,0.43918422,0.47697514,-0.64800376,0.49056068,0.582616,,-0.06914907,0.42805943,-0.34443632,-0.26654416,-0.20832337,-0.9410396,0.79249763,-0.60305226,-0.09096931,-0.54854506,-0.77001905,0.32583585,,1.1325696669365213,0.2941975088435827,0.20133457764,2.1753234737084557,-0.8688715020084359,-0.37153153127311067,-0.4081968212695638,,-1.2839583994699444,0.18140699521553375,0.18623020656000003,-2.0834792784622342,-0.8088880786114074,0.6316598607547425,0.8572296590726974,,-0.07621634677302738,-0.03364776631688568,0.09367612488,-0.1102278800231344,,4.561618e-05,7.3313713e-06,-9.536743e-07,1.0,-2.747029e-05,-2.5361776e-05,2.747029e-05,1.0,-4.8577785e-06,2.5376678e-05,4.827976e-06,1.0,116,0.351,0,0,0.0,False,-0.25332448658635043,1.0326169170859167
0.3368076279293746,16:51:14.564099,16:49:56.836913,0,,0.09155153,0.002971895,0.020276174,-0.08943552,0.73333204,-0.6739625,0.09171465,0.67986286,0.7275815,0.9917609,0.0032593608,-0.12806126,,0.06117812,0.017460452,0.027363062,0.13291642,0.3206071,0.9378403,0.07661185,-0.94672847,0.31278765,0.9881619,0.030275106,-0.15039805,,0.08280432,1.2879162,0.42543107,0.99152094,0.10181485,-0.080746606,0.01984839,-0.73274887,-0.68020964,-0.12842242,0.6728394,-0.7285567,,-0.08722663,0.23210481,-0.12383635,0.017104253,-0.7436311,0.6683713,0.7512064,0.4507086,0.4822351,-0.6598457,0.49383655,0.5663295,,-0.06912019,0.42799675,-0.34445804,-0.2745297,-0.19845873,-0.94087595,0.7839576,-0.6127908,-0.0994881,-0.55681586,-0.76491934,0.3238125,,1.132152639361313,0.2983986755271608,0.20048680398000002,2.178678512804208,-0.8830816979840417,-0.3897568094399881,-0.40934022973250406,,-1.2832015716482703,0.18168501359900582,0.18624835462000003,-2.063978113718173,-0.8125772641050742,0.624539980377116,0.8578830353372346,,-0.07621634677302738,-0.03364776631688568,0.09367612488,-0.1102278800231344,,4.561618e-05,7.3313713e-06,-9.536743e-07,1.0,-2.747029e-05,-2.5361776e-05,2.747029e-05,1.0,-4.8577785e-06,2.5376678e-05,4.827976e-06,1.0,124,0.375,0,0,0.0,False,-0.25481392954937654,1.0299132258422672
0.3947568710427731,16:51:14.587080,16:49:56.836913,0,,0.09223713,0.0033535287,0.020884976,-0.09197482,0.72545063,-0.6821012,0.07978508,0.68817115,0.72114813,0.99255985,0.011905938,-0.12117463,,0.061134003,0.017461436,0.027387321,0.1334509,0.31987652,0.9380138,0.0654462,-0.9472582,0.3137179,0.9888922,0.019523531,-0.14734712,,0.08280432,1.2879162,0.42543107,0.99152094,0.10181485,-0.080746606,0.01984839,-0.73274887,-0.68020964,-0.12842242,0.6728394,-0.7285567,,-0.08796041,0.23275654,-0.12398858,0.01979117,-0.73653233,0.6761127,0.74324703,0.4631486,0.48278072,-0.6687243,0.49296397,0.5565917,,-0.06908026,0.4280242,-0.3444717,-0.27373102,-0.19621351,-0.9415793,0.7776207,-0.62126833,-0.09660117,-0.56601894,-0.75863427,0.3226401,,1.1311100704232928,0.3030940971146893,0.20014587971000003,2.1740653340475484,-0.8915531609694989,-0.3990212899586413,-0.4093402297325037,,-1.2825991984840808,0.18201709111259748,0.18627428042000002,-2.05454206626137,-0.8217319095893589,0.6172211279593346,0.8570663150065632,,-0.07621634677302738,-0.03364776631688568,0.09367612488,-0.1102278800231344,,4.561618e-05,7.3313713e-06,-9.536743e-07,1.0,-2.747029e-05,-2.5361776e-05,2.747029e-05,1.0,-4.8577785e-06,2.5376678e-05,4.827976e-06,1.0,132,0.4,0,0,0.0,False,-0.2561246393568388,1.0313133516648714
0.4177178649697453,16:51:14.606004,16:49:56.836913,0,,0.092530355,0.0035148337,0.021085933,-0.09347111,0.72430986,-0.68310934,0.07633525,0.6893071,0.72043645,0.9926913,0.015194625,-0.11972076,,0.061109714,0.017466323,0.027393341,0.13359717,0.31992966,0.93797493,0.061644584,-0.94730914,0.31433332,0.98911667,0.01582712,-0.14627972,,0.08280432,1.2879162,0.42543107,0.99152094,0.10181485,-0.080746606,0.01984839,-0.73274887,-0.68020964,-0.12842242,0.6728394,-0.7285567,,-0.08826998,0.23299319,-0.124011904,0.021335175,-0.73564845,0.67702746,0.7409241,0.4662957,0.48332158,-0.67124975,0.49131423,0.55500823,,-0.06905784,0.42803633,-0.34447122,-0.27342075,-0.19575734,-0.9417644,0.7754511,-0.6241595,-0.09539607,-0.56913674,-0.75637555,0.32245842,,1.130569479122097,0.305009334867497,0.20003828764,2.172387814499672,-0.8936027084659806,-0.39996374108769284,-0.4093402297325037,,-1.2823520710321057,0.18217154577008196,0.18628465074000003,-2.051396717109102,-0.8248745490839641,0.6144746216352157,0.8569029709404289,,-0.07621634677302738,-0.03364776631688568,0.09367612488,-0.1102278800231344,,4.561618e-05,7.3313713e-06,-9.536743e-07,1.0,-2.747029e-05,-2.5361776e-05,2.747029e-05,1.0,-4.8577785e-06,2.5376678e-05,4.827976e-06,1.0,140,0.424,0,0,0.0,False,-0.2552309735790237,1.0317478734718866
0.4366605489049107,16:51:14.637809,16:49:56.836913,0,,0.09403946,0.004304871,0.021842077,-0.10330148,0.7242369,-0.6817696,0.06630665,0.688926,0.72179234,0.99243754,0.029356271,-0.119188875,,0.060894344,0.017534511,0.027364135,0.13216482,0.3230179,0.937119,0.055652708,-0.94633925,0.31834716,0.98966426,0.010079026,-0.1430496,,0.08280432,1.2879162,0.42543107,0.99152094,0.10181485,-0.080746606,0.01984839,-0.73274887,-0.68020964,-0.12842242,0.6728394,-0.7285567,,-0.089842744,0.23399158,-0.12395782,0.031334724,-0.7365751,0.6756295,0.73407406,0.4757204,0.48458782,-0.6783461,0.48077768,0.55560726,,-0.06885096,0.4280953,-0.3443963,-0.27132422,-0.19813468,-0.94187355,0.77248955,-0.62857413,-0.090301715,-0.5741455,-0.75208855,0.32360438,,1.1272487039861805,0.31431522798093753,0.19965069693,2.1648389765342295,-0.8968819844603511,-0.39728971139897895,-0.41097367039384647,,-1.2811164337722296,0.1829747099890013,0.18631705799,-2.0495095076177408,-0.8312964645729397,0.6097464568117988,0.8582097234695032,,-0.07621634677302738,-0.03364776631688568,0.09367612488,-0.1102278800231344,,4.561618e-05,7.3313713e-06,-9.536743e-07,1.0,-2.747029e-05,-2.5361776e-05,2.747029e-05,1.0,-4.8577785e-06,2.5376678e-05,4.827976e-06,1.0,148,0.449,0,0,0.0,False,-0.25576717304571295,1.0326169170859167
0.468484217999503,16:51:14.666265,16:49:56.963391,0,,0.09491946,0.0047234446,0.022209063,-0.10791891,0.7262909,-0.678863,0.058626324,0.68631196,0.72494054,0.99242955,0.03843552,-0.1166459,,0.06076669,0.017552333,0.02730006,0.13966684,0.31510264,0.93872446,0.051020265,-0.9490472,0.31097665,0.98888326,0.004460901,-0.14862698,,0.08280432,1.2879162,0.42543107,0.99152094,0.10181485,-0.080746606,0.01984839,-0.73274887,-0.68020964,-0.12842242,0.6728394,-0.7285567,,-0.09075386,0.23449256,-0.12390158,0.0360763,-0.73922247,0.67249435,0.72877604,0.47991228,0.48843592,-0.6838011,0.4724768,0.5560411,,-0.068719104,0.42808044,-0.3443405,-0.2779986,-0.1892499,-0.94175434,0.7676737,-0.63308674,-0.0993896,-0.5774027,-0.7505902,0.32127938,,1.1249704977882844,0.31939678621217726,0.19948736439000003,2.161064557551508,-0.9013909889526106,-0.39279613317559126,-0.4099936059970408,,-1.2801588148958258,0.18368520141342995,0.18633520605,-2.0377668707826078,-0.8310231915734089,0.6091152273037033,0.8580463794033689,,-0.07621634677302738,-0.03364776631688568,0.09367612488,-0.1102278800231344,,4.561618e-05,7.3313713e-06,-9.536743e-07,1.0,-2.747029e-05,-2.5361776e-05,2.747029e-05,1.0,-4.8577785e-06,2.5376678e-05,4.827976e-06,1.0,163,0.494,0,0,0.0,False,-0.2561246393568388,1.0317478734718866
0.49689294304698706,16:51:14.703712,16:49:56.963391,0,,0.096812256,0.005389333,0.02278404,-0.11031157,0.7328695,-0.671367,0.054706246,0.67894256,0.7321503,0.9923904,0.044036657,-0.11498785,,0.06058222,0.017604308,0.027252197,0.14120212,0.3170863,0.9378264,0.049693406,-0.9483938,0.31317717,0.9887328,0.0023826063,-0.14967228,,0.08280432,1.2879162,0.42543107,0.99152094,0.10181485,-0.080746606,0.01984839,-0.73274887,-0.68020964,-0.12842242,0.6728394,-0.7285567,,-0.09269423,0.23525308,-0.12378628,0.038534716,-0.7460509,0.664773,0.7260501,0.47799027,0.49434462,-0.6865613,0.46360904,0.5600895,,-0.06853799,0.42810947,-0.3442672,-0.2793175,-0.19099997,-0.9410105,0.7664646,-0.6346594,-0.09868864,-0.57837164,-0.7488167,0.3236662,,1.1195568620434528,0.3286331747297498,0.19914255125000002,2.170290915064827,-0.9033038999493268,-0.3947484683498855,-0.4114637025922495,,-1.2791780278207994,0.18438024737211017,0.18634687266000002,-2.036089351234731,-0.831706374072236,0.6060784522560008,0.8577196912711003,,-0.07621634677302738,-0.03364776631688568,0.09367612488,-0.1102278800231344,,4.561618e-05,7.3313713e-06,-9.536743e-07,1.0,-2.747029e-05,-2.5361776e-05,2.747029e-05,1.0,-4.8577785e-06,2.5376678e-05,4.827976e-06,1.0,171,0.518,0,0,0.0,False,-0.25636295023092304,1.0333894002983879
0.5343860050197691,16:51:14.734691,16:49:56.963391,0,,0.09817854,0.0057043284,0.023130342,-0.107067615,0.73367625,-0.6710108,0.049794316,0.6780002,0.73337317,0.9930041,0.04510796,-0.10912484,,0.060416758,0.017642962,0.027229846,0.14049725,0.3176713,0.9377343,0.047976106,-0.9482006,0.3140288,0.98891807,0.0008687079,-0.1484602,,0.08280432,1.2879162,0.42543107,0.99152094,0.10181485,-0.080746606,0.01984839,-0.73274887,-0.68020964,-0.12842242,0.6728394,-0.7285567,,-0.09408703,0.2356347,-0.123767026,0.03534283,-0.746915,0.6639796,0.7227033,0.47798976,0.4992252,-0.6902542,0.46221617,0.5566914,,-0.068377316,0.42814645,-0.34422046,-0.27843127,-0.19139378,-0.9411931,0.76569223,-0.63581765,-0.09721821,-0.5798202,-0.7477328,0.32358024,,1.1150699542435285,0.3342862151936821,0.19890144131,2.1830820016173833,-0.9093159059390061,-0.40667190105619894,-0.4116270466583837,,-1.2783208044717604,0.18491311594043167,0.18634816895000003,-2.0365087311217005,-0.8340291945682485,0.6060122668554663,0.8593531319324432,,-0.07621634677302738,-0.03364776631688568,0.09367612488,-0.1102278800231344,,4.561618e-05,7.3313713e-06,-9.536743e-07,1.0,-2.747029e-05,-2.5361776e-05,2.747029e-05,1.0,-4.8577785e-06,2.5376678e-05,4.827976e-06,1.0,179,0.543,0,0,0.0,False,-0.257435349164302,1.03411360331008
0.565364982932806,16:51:14.754156,16:49:56.963391,0,,0.0990131,0.005793385,0.023381457,-0.09863436,0.7356224,-0.6701723,0.042124987,0.675939,0.73575246,0.9942317,0.044339478,-0.09765899,,0.06033051,0.017664092,0.027212143,0.14067774,0.31788054,0.9376363,0.04781273,-0.9481306,0.3142648,0.9889003,0.0006209612,-0.14857963,,0.08280432,1.2879162,0.42543107,0.99152094,0.10181485,-0.080746606,0.01984839,-0.73274887,-0.68020964,-0.12842242,0.6728394,-0.7285567,,-0.094938755,0.23581983,-0.123854995,0.026980767,-0.74876475,0.66228646,0.7174545,0.47584674,0.50875235,-0.6960827,0.46143383,0.55004334,,-0.06829286,0.42816168,-0.34419155,-0.27858537,-0.19157466,-0.9411107,0.76554555,-0.6360049,-0.097148366,-0.57993984,-0.7475272,0.3238408,,1.1121430384841975,0.3370895672270256,0.19871736813000002,2.1981796775482687,-0.9199735529207106,-0.4175025234614724,-0.4129337991874581,,-1.2778728859650554,0.1852143025225264,0.18634816895000003,-2.036718421065185,-0.8343024675677794,0.6061534239227185,0.8591897878663088,,-0.07621634677302738,-0.03364776631688568,0.09367612488,-0.1102278800231344,,4.561618e-05,7.3313713e-06,-9.536743e-07,1.0,-2.747029e-05,-2.5361776e-05,2.747029e-05,1.0,-4.8577785e-06,2.5376678e-05,4.827976e-06,1.0,187,0.568,0,0,0.0,False,-0.25636295023092304,1.0356585697350225
0.5848304410465062,16:51:14.778983,16:49:56.963391,0,,0.09996683,0.0057656243,0.023733541,-0.091687754,0.7363874,-0.6703185,0.027805954,0.6747848,0.7374905,0.9953995,0.048979998,-0.082345515,,0.060251363,0.017695772,0.027202606,0.14045389,0.31803554,0.93761736,0.047848433,-0.9480786,0.31441632,0.9889304,0.00070255995,-0.1483788,,0.08280432,1.2879162,0.42543107,0.99152094,0.10181485,-0.080746606,0.01984839,-0.73274887,-0.68020964,-0.12842242,0.6728394,-0.7285567,,-0.09591446,0.23598193,-0.12409183,0.020223333,-0.749837,0.6613135,0.7074274,0.47813886,0.52050906,-0.7064966,0.45730484,0.5401248,,-0.068217844,0.4281883,-0.34415957,-0.27837408,-0.19174464,-0.9411386,0.76563203,-0.63593906,-0.09689773,-0.57992715,-0.74753964,0.32383478,,1.108343453910079,0.34006281938360206,0.19841922143000001,2.2090835546094643,-0.9369164788916252,-0.42614835694177067,-0.4145672398488006,,-1.2775408084514637,0.18550776637174696,0.18634946524,-2.0375571808391233,-0.8345757405673102,0.6068663321709549,0.8608232285276516,,-0.07621634677302738,-0.03364776631688568,0.09367612488,-0.1102278800231344,,4.561618e-05,7.3313713e-06,-9.536743e-07,1.0,-2.747029e-05,-2.5361776e-05,2.747029e-05,1.0,-4.8577785e-06,2.5376678e-05,4.827976e-06,1.0,195,0.592,0,0,0.0,False,-0.25624379479388093,1.0377346183685394
0.6096527450717986,16:51:14.816681,16:49:56.963391,0,,0.1008019,0.005668223,0.023968741,-0.086071685,0.744065,-0.6625398,0.025535196,0.66643673,0.7451241,0.99596167,0.04721597,-0.07636127,,0.06022962,0.01771571,0.027208865,0.14054373,0.3179644,0.937628,0.047749043,-0.94810253,0.31435925,0.9889224,0.00058969855,-0.14843234,,0.08280432,1.2879162,0.42543107,0.99152094,0.10181485,-0.080746606,0.01984839,-0.73274887,-0.68020964,-0.12842242,0.6728394,-0.7285567,,-0.09676227,0.23602076,-0.1242964,0.014622598,-0.7572208,0.6529953,0.705817,0.4703953,0.5296703,-0.7082433,0.45315,0.5413377,,-0.06819988,0.42820933,-0.34414753,-0.27844858,-0.1916564,-0.9411345,0.76554865,-0.63602746,-0.09697573,-0.5800014,-0.74748707,0.32382324,,1.1050149560412883,0.3422715209856303,0.19811070441000003,2.2231327808229273,-0.9419720293829464,-0.4275800488345615,-0.4114637025922495,,-1.2774867493213442,0.18566994376210566,0.18634816895000003,-2.0375571808391233,-0.8345757405673102,0.6070296896512359,0.8631100454535315,,-0.07621634677302738,-0.03364776631688568,0.09367612488,-0.1102278800231344,,4.561618e-05,7.3313713e-06,-9.536743e-07,1.0,-2.747029e-05,-2.5361776e-05,2.747029e-05,1.0,-4.8577785e-06,2.5376678e-05,4.827976e-06,1.0,206,0.625,0,0,0.0,False,-0.2555288621716292,1.0386519421833489
0.6473385340068489,16:51:14.838430,16:49:57.136251,0,,0.10150614,0.0055927485,0.024173602,-0.08738629,0.7483168,-0.6575603,0.025547624,0.66155183,0.7494641,0.99584687,0.048693746,-0.07692835,,0.06022154,0.01773079,0.027218461,0.14024985,0.31805876,0.93763995,0.047731817,-0.94807076,0.31445745,0.988965,0.00065273046,-0.14814831,,0.08280432,1.2879162,0.42543107,0.99152094,0.10181485,-0.080746606,0.01984839,-0.73274887,-0.68020964,-0.12842242,0.6728394,-0.7285567,,-0.09747784,0.23606278,-0.12446905,0.015941607,-0.7614798,0.6479926,0.7058285,0.4675976,0.53212655,-0.7082034,0.4488887,0.5449284,,-0.068195164,0.4282274,-0.34414157,-0.27816343,-0.19176172,-0.9411974,0.76562554,-0.635977,-0.09669914,-0.58003676,-0.7475029,0.32372323,,1.1021112084805798,0.34450339078628117,0.19782422432000002,2.226697509862164,-0.9423819388822428,-0.4251221478798174,-0.41113701445998085,,-1.2775021947870926,0.18576261655659634,0.18634687266000002,-2.0379765607260922,-0.8347123770670757,0.6073044650352134,0.8637634217180686,,-0.07621634677302738,-0.03364776631688568,0.09367612488,-0.1102278800231344,,4.561618e-05,7.3313713e-06,-9.536743e-07,1.0,-2.747029e-05,-2.5361776e-05,2.747029e-05,1.0,-4.8577785e-06,2.5376678e-05,4.827976e-06,1.0,214,0.65,0,0,0.0,False,-0.2561246393568388,1.0388933431872462
0.6691054310649633,16:51:14.867775,16:49:57.136251,0,,0.10204902,0.0056166053,0.024348542,-0.08531429,0.75393414,-0.65138674,0.02542743,0.6552049,0.75502306,0.99602956,0.047851145,-0.07506904,,0.060219053,0.017742293,0.02722454,0.14005323,0.31820577,0.93761945,0.047650248,-0.94802153,0.3146184,0.9889968,0.0006145835,-0.14793606,,0.08280432,1.2879162,0.42543107,0.99152094,0.10181485,-0.080746606,0.01984839,-0.73274887,-0.68020964,-0.12842242,0.6728394,-0.7285567,,-0.098032124,0.2361664,-0.12455812,0.013864316,-0.7669098,0.64160514,0.70573854,0.4620652,0.53705573,-0.7083367,0.44535956,0.547644,,-0.068195,0.42823955,-0.34413633,-0.27796417,-0.19190724,-0.9412266,0.76563686,-0.63600373,-0.09643362,-0.58011734,-0.7474429,0.3237175,,1.1002191389263947,0.3464109058062146,0.19764274372,2.234246347827607,-0.9433383943806009,-0.42385215011309924,-0.41179039072451806,,-1.2775253629857153,0.18582439841959014,0.18634816895000003,-2.0381862506695767,-0.8348490135668412,0.6073342041987694,0.8636000776519344,,-0.07621634677302738,-0.03364776631688568,0.09367612488,-0.1102278800231344,,4.561618e-05,7.3313713e-06,-9.536743e-07,1.0,-2.747029e-05,-2.5361776e-05,2.747029e-05,1.0,-4.8577785e-06,2.5376678e-05,4.827976e-06,1.0,222,0.674,0,0,0.0,False,-0.25624379479388093,1.038748502584908
0.6984315959271044,16:51:14.889845,16:49:57.136251,0,,0.10264433,0.005702734,0.024523899,-0.08596282,0.75735354,-0.6473221,0.024138838,0.6511197,0.75859106,0.9960059,0.049585044,-0.07425374,,0.06021314,0.01776539,0.027229428,0.1400673,0.31826094,0.93759865,0.047540992,-0.94800305,0.31469053,0.9890001,0.0004965365,-0.14791466,,0.08280432,1.2879162,0.42543107,0.99152094,0.10181485,-0.080746606,0.01984839,-0.73274887,-0.68020964,-0.12842242,0.6728394,-0.7285567,,-0.098639816,0.2363123,-0.12460261,0.014535602,-0.7703709,0.6374303,0.70482653,0.46007493,0.5399543,-0.7092308,0.44142923,0.5496653,,-0.068192795,0.42825845,-0.34412116,-0.2779645,-0.19194774,-0.94121826,0.7655702,-0.63609374,-0.09636935,-0.58020514,-0.7473559,0.32376096,,1.0981262783174799,0.3488512893944696,0.19749367037,2.2376013869233593,-0.9444314863787243,-0.422389055702544,-0.4119537347906522,,-1.277548531184338,0.18595568487845196,0.18635465040000002,-2.0381862506695767,-0.8348490135668412,0.6073342041987694,0.8636000776519344,,-0.07621634677302738,-0.03364776631688568,0.09367612488,-0.1102278800231344,,4.561618e-05,7.3313713e-06,-9.536743e-07,1.0,-2.747029e-05,-2.5361776e-05,2.747029e-05,1.0,-4.8577785e-06,2.5376678e-05,4.827976e-06,1.0,234,0.711,0,0,0.0,False,-0.25600548391979716,1.0388450629864667
0.7205191738903522,16:51:14.924349,16:49:57.136251,0,,0.10400262,0.006036021,0.024823591,-0.08690524,0.76528394,-0.6377994,0.02231124,0.64155614,0.76675147,0.9959667,0.052404583,-0.0728291,,0.06019906,0.017799871,0.02722931,0.13985655,0.31812486,0.93767625,0.04727316,-0.94804883,0.31459302,0.98904264,0.00032910705,-0.1476296,,0.08280432,1.2879162,0.42543107,0.99152094,0.10181485,-0.080746606,0.01984839,-0.73274887,-0.68020964,-0.12842242,0.6728394,-0.7285567,,-0.100021645,0.23667577,-0.1245373,0.015510633,-0.77831095,0.6276874,0.70353067,0.4545716,0.54626846,-0.7104956,0.4331244,0.55461633,,-0.06818335,0.42828202,-0.3440939,-0.27772912,-0.1917855,-0.9413208,0.7654791,-0.63622546,-0.096223325,-0.580438,-0.7472854,0.32350612,,1.0935312522573164,0.3547051209131317,0.19731218977,2.2468277444366787,-0.9456612148766134,-0.4202427922073081,-0.412933799187458,,-1.2775330857185896,0.18614103046743335,0.18637020588000003,-2.038395940613061,-0.835122286566372,0.6077203974864432,0.8642534539164715,,-0.07621634677302738,-0.03364776631688568,0.09367612488,-0.1102278800231344,,4.561618e-05,7.3313713e-06,-9.536743e-07,1.0,-2.747029e-05,-2.5361776e-05,2.747029e-05,1.0,-4.8577785e-06,2.5376678e-05,4.827976e-06,1.0,242,0.736,0,0,0.0,False,-0.25576717304571295,1.0388933431872462
0.7549915078561753,16:51:14.949486,16:49:57.136251,0,,0.10479147,0.0062525794,0.024942622,-0.087975785,0.76908505,-0.6330627,0.02173078,0.6368575,0.7706752,0.9958856,0.0540438,-0.07274088,,0.060171623,0.017834859,0.027223706,0.14011061,0.3178529,0.93773055,0.047053516,-0.9481401,0.3143508,0.9890172,7.9751015e-05,-0.14780056,,0.08280432,1.2879162,0.42543107,0.99152094,0.10181485,-0.080746606,0.01984839,-0.73274887,-0.68020964,-0.12842242,0.6728394,-0.7285567,,-0.100820675,0.23686588,-0.12444367,0.01659435,-0.7821352,0.6228878,0.70311964,0.45204747,0.54888606,-0.71087795,0.42885622,0.557436,,-0.06816009,0.4283041,-0.34406263,-0.27794728,-0.19147281,-0.94132006,0.7652785,-0.6364229,-0.096512765,-0.58059806,-0.7471975,0.323422,,1.0907896820869667,0.3581031233777905,0.19726552333000003,2.2516506131368224,-0.9457978513763787,-0.4197229806029089,-0.4121170788567865,,-1.2774404129240988,0.1863727124536601,0.18638446507,-2.0381862506695767,-0.835122286566372,0.607965433706865,0.8640901098503373,,-0.07621634677302738,-0.03364776631688568,0.09367612488,-0.1102278800231344,,4.561618e-05,7.3313713e-06,-9.536743e-07,1.0,-2.747029e-05,-2.5361776e-05,2.747029e-05,1.0,-4.8577785e-06,2.5376678e-05,4.827976e-06,1.0,257,0.781,0,0,0.0,False,-0.2556480176086704,1.03855538178179
0.7801444979850203,16:51:14.989935,16:49:57.263766,0,,0.10667818,0.0066689104,0.025071159,-0.093887605,0.7743431,-0.62576187,0.020789921,0.6299261,0.7763767,0.9953656,0.05988255,-0.07524088,,0.060165707,0.017862605,0.0272066,0.14371297,0.31487384,0.93819034,0.044136852,-0.94912755,0.31178364,0.9886347,-0.0033985376,-0.15029949,,0.08280432,1.2879162,0.42543107,0.99152094,0.10181485,-0.080746606,0.01984839,-0.73274887,-0.68020964,-0.12842242,0.6728394,-0.7285567,,-0.10271883,0.23713988,-0.12417631,0.02254389,-0.78767127,0.6156832,0.70244503,0.45068774,0.55086434,-0.71138084,0.420065,0.563456,,-0.06815549,0.4283089,-0.34403014,-0.281063,-0.18794774,-0.9411053,0.76253855,-0.63915354,-0.100088604,-0.58269936,-0.7457603,0.3229598,,1.083476254055076,0.36567140159453054,0.19723311608000002,2.2581510013848427,-0.9456612148766134,-0.4197527197664648,-0.41195373479065234,,-1.2772936809994886,0.18670478996725173,0.18641168716,-2.0316858624215564,-0.8352589230661375,0.6059532043669069,0.8640901098503372,,-0.07621634677302738,-0.03364776631688568,0.09367612488,-0.1102278800231344,,4.561618e-05,7.3313713e-06,-9.536743e-07,1.0,-2.747029e-05,-2.5361776e-05,2.747029e-05,1.0,-4.8577785e-06,2.5376678e-05,4.827976e-06,1.0,265,0.805,0,0,0.0,False,-0.25540970673458663,1.03855538178179
0.8205853139515966,16:51:15.017994,16:49:57.263766,0,,0.10738447,0.0067396984,0.025063261,-0.09549155,0.777625,-0.62143433,0.018899411,0.6255909,0.77992225,0.9952508,0.06273118,-0.07443541,,0.060153548,0.017889516,0.027212858,0.14309439,0.31498587,0.9382473,0.043358624,-0.9490881,0.31201258,0.9887588,-0.0039661527,-0.14946654,,0.08280432,1.2879162,0.42543107,0.99152094,0.10181485,-0.080746606,0.01984839,-0.73274887,-0.68020964,-0.12842242,0.6728394,-0.7285567,,-0.10342392,0.23714234,-0.12409404,0.024185164,-0.79107004,0.6112473,0.7010925,0.44928777,0.55372363,-0.71266013,0.41514897,0.56547934,,-0.06814782,0.4283324,-0.34401277,-0.28037292,-0.18798575,-0.94130355,0.76227504,-0.639588,-0.09931744,-0.58337617,-0.74537814,0.32262,,1.080340824508141,0.3680113896554206,0.19723830124000002,2.2608769706501417,-0.9478473988728604,-0.41756163960661935,-0.411300358526115,,-1.277270512800866,0.18685152189186202,0.18642335377000002,-2.0318955523650413,-0.8362153785644955,0.6059980210315167,0.8642534539164715,,-0.07621634677302738,-0.03364776631688568,0.09367612488,-0.1102278800231344,,4.561618e-05,7.3313713e-06,-9.536743e-07,1.0,-2.747029e-05,-2.5361776e-05,2.747029e-05,1.0,-4.8577785e-06,2.5376678e-05,4.827976e-06,1.0,273,0.83,0,0,0.0,False,-0.2552905512975445,1.0388933431872462
0.8486684190575033,16:51:15.047022,16:49:57.263766,0,,0.10832333,0.006726183,0.024939135,-0.09883282,0.7801687,-0.6177125,0.018981129,0.6221167,0.78269434,0.994923,0.06563103,-0.076294065,,0.060177263,0.01789807,0.02721709,0.14687873,0.31217074,0.93860334,0.039497793,-0.9499887,0.30977654,0.9883657,-0.008426756,-0.15186319,,0.08280432,1.2879162,0.42543107,0.99152094,0.10181485,-0.080746606,0.01984839,-0.73274887,-0.68020964,-0.12842242,0.6728394,-0.7285567,,-0.10435119,0.2369896,-0.123976216,0.027539317,-0.7937515,0.60761845,0.7011334,0.44859356,0.55423445,-0.7124981,0.41075832,0.5688796,,-0.06817279,0.42833644,-0.34400907,-0.28354564,-0.18449943,-0.94104296,0.75891805,-0.64305365,-0.10259348,-0.5862127,-0.7432644,0.322355,,1.075668571119235,0.3705290005724178,0.19726422704000002,2.2636029399154403,-0.948667217871453,-0.416648095964019,-0.4116270466583837,,-1.2772550673351175,0.18709092661096297,0.18643631667000002,-2.0241370244561137,-0.8368985610633227,0.6026345310232517,0.8652335183132772,,-0.07621634677302738,-0.03364776631688568,0.09367612488,-0.1102278800231344,,4.561618e-05,7.3313713e-06,-9.536743e-07,1.0,-2.747029e-05,-2.5361776e-05,2.747029e-05,1.0,-4.8577785e-06,2.5376678e-05,4.827976e-06,1.0,281,0.854,0,0,0.0,False,-0.2555288621716292,1.039376145195041
0.87768166186288,16:51:15.069189,16:49:57.263766,0,,0.10889126,0.0066649616,0.024826929,-0.09991182,0.78301126,-0.61393076,0.018612415,0.6183809,0.785658,0.99482214,0.06706977,-0.076357335,,0.060164392,0.01792221,0.02724123,0.14494123,0.31374738,0.9383789,0.037693918,-0.949456,0.31162888,0.9887221,-0.009796619,-0.14944166,,0.08280432,1.2879162,0.42543107,0.99152094,0.10181485,-0.080746606,0.01984839,-0.73274887,-0.68020964,-0.12842242,0.6728394,-0.7285567,,-0.10490855,0.2368333,-0.1239145,0.028629106,-0.79662246,0.60379887,0.7008631,0.44669056,0.5561101,-0.712721,0.40725943,0.5711116,,-0.0681665,0.42837217,-0.34400502,-0.28146052,-0.18593034,-0.94138724,0.75845367,-0.6440781,-0.099556394,-0.5878163,-0.7420198,0.3223021,,1.072633537099665,0.3717105787021741,0.19728885655000003,2.2665385991242237,-0.9501702193688728,-0.41493242658251506,-0.4109736703938467,,-1.2772318991364948,0.18721449033695056,0.18644279812000003,-2.0249757842300515,-0.8394946545588661,0.6014843215878612,0.8652335183132771,,-0.07621634677302738,-0.03364776631688568,0.09367612488,-0.1102278800231344,,4.561618e-05,7.3313713e-06,-9.536743e-07,1.0,-2.747029e-05,-2.5361776e-05,2.747029e-05,1.0,-4.8577785e-06,2.5376678e-05,4.827976e-06,1.0,289,0.879,0,0,0.0,False,-0.25558843989015,1.0404865898129685
0.8998629690613598,16:51:15.104283,16:49:57.263766,0,,0.1099688,0.006460689,0.024478957,-0.103010915,0.7863128,-0.6091805,0.019236267,0.61389875,0.78915036,0.9944942,0.06957272,-0.078364015,,0.06014097,0.017939555,0.027247727,0.14441475,0.31496885,0.9380507,0.036764175,-0.94904155,0.31299934,0.9888341,-0.010714978,-0.14863518,,0.08280432,1.2879162,0.42543107,0.99152094,0.10181485,-0.080746606,0.01984839,-0.73274887,-0.68020964,-0.12842242,0.6728394,-0.7285567,,-0.10595485,0.23638022,-0.12375995,0.031732142,-0.80001366,0.5991421,0.7012827,0.44494593,0.5569791,-0.7121767,0.40249383,0.57515484,,-0.06814658,0.42839208,-0.3439951,-0.28084,-0.18705858,-0.941349,0.7580715,-0.64476043,-0.098038904,-0.5886056,-0.74114305,0.3228783,,1.066347232540046,0.37336324353725814,0.19739385604,2.270942087937399,-0.9522197668653545,-0.41383290920805266,-0.41309714325359226,,-1.2771315036091297,0.1873534995286866,0.18644668699000003,-2.0249757842300515,-0.8405877465569896,0.6001703388336375,0.8663769267762171,,-0.07621634677302738,-0.03364776631688568,0.09367612488,-0.1102278800231344,,4.561618e-05,7.3313713e-06,-9.536743e-07,1.0,-2.747029e-05,-2.5361776e-05,2.747029e-05,1.0,-4.8577785e-06,2.5376678e-05,4.827976e-06,1.0,300,0.912,0,0,0.0,False,-0.2555288621716292,1.0410176720215425
0.9349573368672282,16:51:15.127829,16:49:57.263766,0,,0.110400304,0.006376572,0.02431792,-0.10380851,0.7886147,-0.6060616,0.017162949,0.6106833,0.7916888,0.99444926,0.07178217,-0.07692915,,0.060199574,0.017972188,0.027233243,0.14451237,0.31505978,0.9380051,0.03680271,-0.9490112,0.31308657,0.9888183,-0.01072368,-0.14873892,,0.08277794,1.2879195,0.42542806,0.9915206,0.101827785,-0.0807346,0.019865891,-0.7327471,-0.68021107,-0.12842242,0.6728394,-0.7285567,,-0.10634813,0.23618832,-0.1236867,0.032566957,-0.80241984,0.5958706,0.6997976,0.4439706,0.55961907,-0.7135985,0.3987637,0.5759902,,-0.068182066,0.42839694,-0.34396335,-0.28094146,-0.1871335,-0.94130385,0.7580624,-0.64476633,-0.098070115,-0.58856887,-0.741119,0.32300046,,1.0633199212533502,0.37400423036581876,0.19746255941000002,2.273038987372244,-0.9557723158592559,-0.41191618859363244,-0.4114637025922494,,-1.277069721746136,0.18736894499443504,0.18644798328,-2.0249757842300515,-0.8405877465569896,0.6001703388336375,0.8663769267762171,,-0.07621634677302738,-0.03364776631688568,0.09367612488,-0.1102278800231344,,1.9911677e-05,1.7881393e-07,1.0728836e-06,1.0,-1.4610589e-05,-1.3485551e-05,1.4610589e-05,1.0,-2.592802e-06,1.3500452e-05,2.5629997e-06,1.0,308,0.936,0,0,0.0,False,-0.25576717304571295,1.0415004740293372
0.9584812358953059,16:51:15.151762,16:49:57.431634,0,,0.11090903,0.00627476,0.024131685,-0.10519956,0.78998893,-0.6040286,0.017163694,0.6087508,0.7931757,0.994303,0.07307434,-0.077599525,,0.060189467,0.017964827,0.027224362,0.14458078,0.31490967,0.93804497,0.0368568,-0.94906175,0.31292734,0.9888063,-0.010669827,-0.14882265,,0.08277794,1.2879195,0.42542806,0.9915206,0.101827785,-0.0807346,0.019865891,-0.7327471,-0.68021107,-0.12842242,0.6728394,-0.7285567,,-0.10684045,0.23595549,-0.123601496,0.033964653,-0.8038479,0.5938644,0.6997838,0.4433673,0.5601144,-0.7135468,0.39655256,0.57757854,,-0.06817,0.42838752,-0.34396344,-0.28101394,-0.1869869,-0.94131136,0.7580734,-0.6447277,-0.09823908,-0.5885201,-0.74118966,0.32292727,,1.0602848872337798,0.374699276324499,0.19753385536,2.2751358868070892,-0.9571386808569103,-0.41161879695807385,-0.41179039072451806,,-1.2769847716845195,0.18734577679581238,0.18644798328,-2.0249757842300515,-0.8405877465569896,0.6003336963139186,0.8667036149084857,,-0.07621634677302738,-0.03364776631688568,0.09367612488,-0.1102278800231344,,1.9911677e-05,1.7881393e-07,1.0728836e-06,1.0,-1.4610589e-05,-1.3485551e-05,1.4610589e-05,1.0,-2.592802e-06,1.3500452e-05,2.5629997e-06,1.0,316,0.961,0,0,0.0,False,-0.25642252794944387,1.0422729572418084
0.9824371300637722,16:51:15.178463,16:49:57.431634,0,,0.11163224,0.006157115,0.023888081,-0.10669555,0.7925231,-0.60043585,0.015489131,0.6051345,0.79597247,0.994171,0.07562643,-0.07684067,,0.060180325,0.01796122,0.02722007,0.14463505,0.31491947,0.93803334,0.036883444,-0.94905853,0.31293383,0.9887974,-0.010663211,-0.14888242,,0.08277794,1.2879195,0.42542806,0.9915206,0.101827785,-0.0807346,0.019865891,-0.7327471,-0.68021107,-0.12842242,0.6728394,-0.7285567,,-0.10754232,0.23565865,-0.12347714,0.035495672,-0.8064925,0.59017783,0.69856966,0.4423324,0.5624433,-0.71466106,0.39231604,0.5790921,,-0.06815997,0.42838368,-0.34396344,-0.28106943,-0.18699782,-0.94129264,0.7580727,-0.64472246,-0.09827906,-0.58849454,-0.74119145,0.3229697,,1.0560528296187048,0.3757959043926389,0.19764792888000002,2.278281235959357,-0.9606912298508118,-0.41027382752463765,-0.4121170788567866,,-1.2769229898215257,0.18734577679581238,0.18644668699000003,-2.0249757842300515,-0.8405877465569896,0.6003336963139186,0.8673569911730228,,-0.07621634677302738,-0.03364776631688568,0.09367612488,-0.1102278800231344,,1.9911677e-05,1.7881393e-07,1.0728836e-06,1.0,-1.4610589e-05,-1.3485551e-05,1.4610589e-05,1.0,-2.592802e-06,1.3500452e-05,2.5629997e-06,1.0,324,0.985,0,0,0.0,False,-0.25624379479388093,1.0423695176433674
1.0091343629173934,16:51:15.203487,16:49:57.431634,0,,0.112306386,0.0060453415,0.023685306,-0.10795613,0.79201484,-0.6008811,0.01051259,0.6052891,0.7959362,0.99410003,0.079609364,-0.073670864,,0.060165264,0.017954277,0.02721119,0.14472792,0.31500977,0.9379887,0.036935896,-0.9490286,0.31301832,0.9887818,-0.010656863,-0.14898609,,0.08277794,1.2879195,0.42542806,0.9915206,0.101827785,-0.0807346,0.019865891,-0.7327471,-0.68021107,-0.12842242,0.6728394,-0.7285567,,-0.10819827,0.23539706,-0.12338029,0.03684611,-0.8062713,0.59039724,0.694985,0.44520324,0.5646149,-0.71807957,0.38951334,0.57675046,,-0.06814308,0.42837542,-0.34396312,-0.28116524,-0.18709122,-0.94124544,0.7580754,-0.64471614,-0.09829926,-0.58844525,-0.7411734,0.323101,,1.0520447312569823,0.3768307505977849,0.19776070611000002,2.280168445450718,-0.9673864183393184,-0.41257383055686647,-0.41179039072451795,,-1.2768148715612866,0.18733805406293816,0.18644539070000002,-2.0249757842300515,-0.8405877465569896,0.6002520175737781,0.8678470233714257,,-0.07621634677302738,-0.03364776631688568,0.09367612488,-0.1102278800231344,,1.9911677e-05,1.7881393e-07,1.0728836e-06,1.0,-1.4610589e-05,-1.3485551e-05,1.4610589e-05,1.0,-2.592802e-06,1.3500452e-05,2.5629997e-06,1.0,336,1.022,0,0,0.0,False,-0.2566012611050077,1.0422729572418084
1.0341588598676026,16:51:15.233242,16:49:57.431634,0,,0.11285484,0.0059429854,0.023494542,-0.10854355,0.79177755,-0.60108787,0.0038068295,0.604987,0.79622614,0.99408436,0.08413693,-0.06868172,,0.06015145,0.017950969,0.02720356,0.14481135,0.31502792,0.9379696,0.03697008,-0.94902265,0.31303242,0.9887683,-0.010653764,-0.14907584,,0.08277794,1.2879195,0.42542806,0.9915206,0.101827785,-0.0807346,0.019865891,-0.7327471,-0.68021107,-0.12842242,0.6728394,-0.7285567,,-0.108729884,0.23515826,-0.12329061,0.037551906,-0.80635107,0.5902439,0.6901409,0.44809866,0.5682545,-0.72270006,0.38601243,0.57332283,,-0.06812805,0.4283701,-0.34396076,-0.28124973,-0.18711023,-0.9412164,0.7580703,-0.64471346,-0.09835634,-0.5884114,-0.74117094,0.3231682,,1.048631283326575,0.3775257965564652,0.19789033511,2.2814265851116247,-0.9757212448250102,-0.41361849748487867,-0.4121170788567865,,-1.276722198766796,0.18734577679581238,0.18644539070000002,-2.0249757842300515,-0.8405877465569896,0.6002520175737781,0.8678470233714257,,-0.07621634677302738,-0.03364776631688568,0.09367612488,-0.1102278800231344,,1.9911677e-05,1.7881393e-07,1.0728836e-06,1.0,-1.4610589e-05,-1.3485551e-05,1.4610589e-05,1.0,-2.592802e-06,1.3500452e-05,2.5629997e-06,1.0,344,1.047,0,0,0.0,False,-0.25630337251240265,1.0417901552340136
1.0639146720059216,16:51:15.261774,16:49:57.545144,0,,0.11315736,0.0058473125,0.023352414,-0.10918681,0.79294115,-0.59943527,0.0008099377,0.6031114,0.7976565,0.9940209,0.08660799,-0.06649414,,0.060148165,0.017949836,0.027201533,0.14483169,0.3150316,0.93796533,0.036980093,-0.94902146,0.31303483,0.988765,-0.010651261,-0.14909825,,0.08277794,1.2879195,0.42542806,0.9915206,0.101827785,-0.0807346,0.019865891,-0.7327471,-0.68021107,-0.12842242,0.6728394,-0.7285567,,-0.10901979,0.2349728,-0.123241335,0.038251054,-0.8076539,0.58841485,0.6879608,0.44835687,0.5706891,-0.72473913,0.38297692,0.57278436,,-0.068124406,0.42836845,-0.34396031,-0.28127053,-0.18711433,-0.9412094,0.75807005,-0.6447115,-0.09837133,-0.5884018,-0.7411716,0.3231841,,1.0465770363820313,0.3776956966796981,0.19796681622,2.281845964998594,-0.9798203398179735,-0.4117461776965162,-0.4127704551213236,,-1.2766990305681734,0.18734577679581238,0.18644539070000002,-2.0249757842300515,-0.8405877465569896,0.6002520175737781,0.8681737115036943,,-0.07621634677302738,-0.03364776631688568,0.09367612488,-0.1102278800231344,,1.9911677e-05,1.7881393e-07,1.0728836e-06,1.0,-1.4610589e-05,-1.3485551e-05,1.4610589e-05,1.0,-2.592802e-06,1.3500452e-05,2.5629997e-06,1.0,356,1.084,0,0,0.0,False,-0.2561842170753601,1.0428040394503826
1.0924466389697045,16:51:15.299881,16:49:57.545144,0,,0.11351155,0.0056527033,0.023099333,-0.10984355,0.7954144,-0.5960288,-0.0020408034,0.5994756,0.80039036,0.99394673,0.08913407,-0.064225316,,0.06014531,0.017950224,0.02720064,0.1448473,0.31503746,0.93796086,0.036980897,-0.94901943,0.31304085,0.9887626,-0.010656446,-0.14911328,,0.08277794,1.2879195,0.42542806,0.9915206,0.101827785,-0.0807346,0.019865891,-0.7327471,-0.68021107,-0.12842242,0.6728394,-0.7285567,,-0.1093516,0.23463635,-0.12317753,0.038961824,-0.81023556,0.58480793,0.6858804,0.44729373,0.57401776,-0.7266705,0.37874353,0.57315207,,-0.06812154,0.42836854,-0.34395945,-0.28128567,-0.18711968,-0.9412038,0.7580659,-0.6447153,-0.09837843,-0.58839995,-0.7411669,0.32319823,,1.0437968525473105,0.3773790646318549,0.19808088974000002,2.2826847247725324,-0.984602617309764,-0.4078465510671414,-0.4127704551213236,,-1.2766835851024247,0.1873534995286866,0.18644539070000002,-2.0249757842300515,-0.8405877465569896,0.6002520175737781,0.8678470233714257,,-0.07621634677302738,-0.03364776631688568,0.09367612488,-0.1102278800231344,,1.9911677e-05,1.7881393e-07,1.0728836e-06,1.0,-1.4610589e-05,-1.3485551e-05,1.4610589e-05,1.0,-2.592802e-06,1.3500452e-05,2.5629997e-06,1.0,389,1.186,0,0,0.0,False,-0.25558843989015,1.0436730830644128
1.1305561498738825,16:51:15.390815,16:49:57.545144,0,,0.11374538,0.00537771,0.0226821,-0.11350928,0.8055829,-0.5815083,-0.010442793,0.5842913,0.8114767,0.993482,0.09818268,-0.057910025,,0.06013634,0.017946081,0.027201056,0.14465722,0.31508327,0.9379749,0.03668189,-0.94900155,0.31313017,0.9888016,-0.010889739,-0.14883779,,0.08277794,1.2879195,0.42542806,0.9915206,0.101827785,-0.0807346,0.019865891,-0.7327471,-0.68021107,-0.12842242,0.6728394,-0.7285567,,-0.10955029,0.23413654,-0.1230547,0.042799626,-0.8207506,0.56968117,0.67968696,0.4418358,0.585497,-0.7322526,0.3621458,0.57676387,,-0.06811225,0.428368,-0.3439628,-0.2810661,-0.18713528,-0.9412663,0.75794905,-0.6448929,-0.0981142,-0.5886553,-0.7410085,0.32309654,,1.0407077593976206,0.3761897637692243,0.19833107371000003,2.2751358868070892,-0.9948503547921719,-0.38233767286039166,-0.41244376698905505,,-1.276621803239431,0.1873534995286866,0.18644279812000003,-2.0249757842300515,-0.840997656056286,0.6001778775841645,0.8702971843634397,,-0.07621634677302738,-0.03364776631688568,0.09367612488,-0.1102278800231344,,1.9911677e-05,1.7881393e-07,1.0728836e-06,1.0,-1.4610589e-05,-1.3485551e-05,1.4610589e-05,1.0,-2.592802e-06,1.3500452e-05,2.5629997e-06,1.0,393,1.198,0,0,0.0,False,-0.25481392954937654,1.045169769288576
1.2214782589580864,16:51:15.412559,16:49:57.705510,0,,0.11383228,0.0053742602,0.022579193,-0.114660665,0.80851537,-0.5771966,-0.010702342,0.57998955,0.8145535,0.99334705,0.099574536,-0.05784911,,0.06012453,0.017942892,0.027197123,0.14464565,0.31490666,0.93803596,0.036600858,-0.9490597,0.31296355,0.98880637,-0.010935783,-0.1488032,,0.08277794,1.2879195,0.42542806,0.9915206,0.101827785,-0.0807346,0.019865891,-0.7327471,-0.68021107,-0.12842242,0.6728394,-0.7285567,,-0.10962959,0.2340582,-0.12297897,0.043962106,-0.8236978,0.5653223,0.6794771,0.43948412,0.58750707,-0.7323785,0.3582955,0.5790044,,-0.06809969,0.42836517,-0.34396264,-0.28104505,-0.18694809,-0.94130975,0.7579055,-0.64493096,-0.09820036,-0.58872145,-0.7410226,0.32294363,,1.0400436043704373,0.3762438228993439,0.19841273998000003,2.273877747146182,-0.9952602642914682,-0.37604087111904144,-0.41326048731972653,,-1.2765445759106888,0.18736122226156082,0.18644150183000002,-2.0249757842300515,-0.8411342925560513,0.6003709742280015,0.8704605284295741,,-0.07621634677302738,-0.03364776631688568,0.09367612488,-0.1102278800231344,,1.9911677e-05,1.7881393e-07,1.0728836e-06,1.0,-1.4610589e-05,-1.3485551e-05,1.4610589e-05,1.0,-2.592802e-06,1.3500452e-05,2.5629997e-06,1.0,405,1.235,0,0,0.0,False,-0.2549926627049395,1.0453146098909143
1.2432215029839426,16:51:15.442828,16:49:57.705510,0,,0.11405197,0.005369991,0.022406012,-0.11498247,0.81304514,-0.5707333,-0.012687892,0.573295,0.8192507,0.9932865,0.10144085,-0.055603147,,0.060093265,0.0179313,0.027181566,0.14475407,0.3147486,0.93807226,0.03658554,-0.9491119,0.31280708,0.98879105,-0.010960132,-0.14890306,,0.08277794,1.2879195,0.42542806,0.9915206,0.101827785,-0.0807346,0.019865891,-0.7327471,-0.68021107,-0.12842242,0.6728394,-0.7285567,,-0.10983631,0.23392297,-0.12284764,0.04432255,-0.8282295,0.5586335,0.67801356,0.43562117,0.5920572,-0.73371184,0.3525196,0.5808587,,-0.06806539,0.42835194,-0.34396157,-0.28114754,-0.18678282,-0.94131196,0.75786424,-0.6449522,-0.09837938,-0.5887256,-0.74104583,0.32288274,,1.0386148987887058,0.37644461395407375,0.19856310962,2.274506816976636,-0.997992994286777,-0.36850339493597645,-0.4127704551213234,,-1.2763283393902105,0.18736122226156082,0.18643890925,-2.0249757842300515,-0.8412709290558168,0.6005640708718385,0.8704605284295741,,-0.07621634677302738,-0.03364776631688568,0.09367612488,-0.1102278800231344,,1.9911677e-05,1.7881393e-07,1.0728836e-06,1.0,-1.4610589e-05,-1.3485551e-05,1.4610589e-05,1.0,-2.592802e-06,1.3500452e-05,2.5629997e-06,1.0,409,1.248,0,0,0.0,False,-0.2548735072678969,1.0455560108948116
1.273503805976361,16:51:15.469821,16:49:57.705510,0,,0.11438441,0.0052939057,0.022272766,-0.11392804,0.8185987,-0.5629536,-0.01766947,0.5648837,0.8249813,0.9933319,0.10393554,-0.04989198,,0.06005121,0.01791604,0.027160585,0.1448489,0.3145636,0.9381197,0.03649506,-0.94917214,0.31263468,0.9887805,-0.011047989,-0.14896654,,0.08277794,1.2879195,0.42542806,0.9915206,0.101827785,-0.0807346,0.019865891,-0.7327471,-0.68021107,-0.12842242,0.6728394,-0.7285567,,-0.110157035,0.23375598,-0.12279016,0.043355994,-0.83379626,0.55036724,0.6743621,0.43087864,0.59964937,-0.7371269,0.3451484,0.58096176,,-0.06801927,0.42833424,-0.34395978,-0.28122774,-0.18658148,-0.9413279,0.7577834,-0.64502233,-0.098542154,-0.5887914,-0.74103546,0.3227865,,1.0365143154469167,0.3766840186731747,0.19866292395000001,2.277232786241935,-1.0044149097757529,-0.3607347125178871,-0.4126071110551892,,-1.27603487554099,0.18736122226156082,0.18643631667000002,-2.0249757842300515,-0.8415442020553477,0.6007869066792314,0.8706238724957084,,-0.07621634677302738,-0.03364776631688568,0.09367612488,-0.1102278800231344,,1.9911677e-05,1.7881393e-07,1.0728836e-06,1.0,-1.4610589e-05,-1.3485551e-05,1.4610589e-05,1.0,-2.592802e-06,1.3500452e-05,2.5629997e-06,1.0,421,1.284,0,0,0.0,False,-0.25493308498641865,1.045169769288576
1.3004761908669025,16:51:15.502764,16:49:57.705510,0,,0.11479923,0.0051413476,0.022106856,-0.11412222,0.8231747,-0.5562011,-0.01871097,0.5579785,0.8296444,0.9932904,0.10508789,-0.04827538,,0.06000475,0.01790251,0.027136147,0.14504962,0.31419834,0.9382111,0.03651142,-0.9492932,0.3122649,0.98875046,-0.011038393,-0.14916642,,0.08277794,1.2879195,0.42542806,0.9915206,0.101827785,-0.0807346,0.019865891,-0.7327471,-0.68021107,-0.12842242,0.6728394,-0.7285567,,-0.11055625,0.233506,-0.12275829,0.04357105,-0.8383195,0.5434354,0.6735894,0.42637098,0.603726,-0.7378203,0.33974737,0.58326054,,-0.06796859,0.42831582,-0.3439545,-0.28142297,-0.18620847,-0.9413435,0.7577329,-0.6450209,-0.09893848,-0.588763,-0.74113053,0.32261997,,1.0338422498724351,0.37686936426215606,0.19871607184,2.280168445450718,-1.0071476397710615,-0.3549941686179146,-0.41244376698905516,,-1.2757182434931467,0.18737666772730927,0.18643502038,-2.0249757842300515,-0.8416808385551131,0.6012250395434899,0.8712772487602455,,-0.07621634677302738,-0.03364776631688568,0.09367612488,-0.1102278800231344,,1.9911677e-05,1.7881393e-07,1.0728836e-06,1.0,-1.4610589e-05,-1.3485551e-05,1.4610589e-05,1.0,-2.592802e-06,1.3500452e-05,2.5629997e-06,1.0,429,1.309,0,0,0.0,False,-0.2546351963938136,1.0451214890877965
1.333421465009451,16:51:15.522641,16:49:57.705510,0,,0.11508237,0.0049994886,0.021980166,-0.1151854,0.8239871,-0.554777,-0.016751856,0.5568036,0.83047515,0.9932027,0.10495211,-0.050332427,,0.05997124,0.017895984,0.027121484,0.14516635,0.31413057,0.9382158,0.036472797,-0.94931495,0.31220347,0.9887347,-0.011102021,-0.14926578,,0.08277794,1.2879195,0.42542806,0.9915206,0.101827785,-0.0807346,0.019865891,-0.7327471,-0.68021107,-0.12842242,0.6728394,-0.7285567,,-0.11082712,0.23329876,-0.12275274,0.0446029,-0.8390993,0.5421466,0.6750176,0.4253747,0.602833,-0.73645216,0.3390704,0.5853797,,-0.067932844,0.42830676,-0.34394997,-0.2815306,-0.18613048,-0.94132674,0.75767565,-0.64507055,-0.09905337,-0.5887853,-0.74110687,0.32263362,,1.0319347348525016,0.3768848097279045,0.19872255329000002,2.2816362750551096,-1.0063278207724689,-0.35484588863868743,-0.4127704551213237,,-1.2755020069726686,0.18740755865880618,0.18643372409000003,-2.0249757842300515,-0.8418174750548786,0.6013364574471864,0.8709505606279769,,-0.07621634677302738,-0.03364776631688568,0.09367612488,-0.1102278800231344,,1.9911677e-05,1.7881393e-07,1.0728836e-06,1.0,-1.4610589e-05,-1.3485551e-05,1.4610589e-05,1.0,-2.592802e-06,1.3500452e-05,2.5629997e-06,1.0,466,1.424,0,0,0.0,False,-0.2545756186752919,1.044880088083899
1.3533157499041408,16:51:15.632524,16:49:57.863715,0,,0.11622152,0.004451424,0.021666497,-0.1099442,0.8372266,-0.5356902,-0.011324555,0.5378672,0.84295344,0.9938732,0.09874429,-0.049654186,,0.05988583,0.01788901,0.027085245,0.14554343,0.31427765,0.9381081,0.036687374,-0.9492669,0.3123241,0.98867136,-0.011039913,-0.14968958,,0.08277794,1.2879195,0.42542806,0.9915206,0.101827785,-0.0807346,0.019865891,-0.7327471,-0.68021107,-0.12842242,0.6728394,-0.7285567,,-0.111931205,0.23261572,-0.12285694,0.039231945,-0.85152656,0.52284163,0.67909455,0.40655607,0.61118144,-0.73300165,0.33108106,0.594217,,-0.06784312,0.42829043,-0.34393153,-0.2819198,-0.18628952,-0.94117874,0.7576875,-0.6450208,-0.09928669,-0.58858377,-0.74111027,0.32299337,,1.0250460571286935,0.37692342339227564,0.19863570186,2.3028149593470464,-1.007011003271296,-0.35012318337303683,-0.41326048731972664,,-1.2749845838700955,0.18753112238479377,0.18643242780000002,-2.025185474173536,-0.8418174750548786,0.6014998149274675,0.8706238724957084,,-0.07621634677302738,-0.03364776631688568,0.09367612488,-0.1102278800231344,,1.9911677e-05,1.7881393e-07,1.0728836e-06,1.0,-1.4610589e-05,-1.3485551e-05,1.4610589e-05,1.0,-2.592802e-06,1.3500452e-05,2.5629997e-06,1.0,474,1.448,0,0,0.0,False,-0.2555288621716292,1.0453628900916938
1.4631816209293902,16:51:15.661625,16:49:57.863715,0,,0.11633475,0.0044619516,0.02167964,-0.10757065,0.84113204,-0.53002393,-0.011011004,0.5320768,0.8466245,0.99413645,0.09690802,-0.0479742,,0.059888456,0.017891215,0.027087808,0.14552514,0.31435403,0.93808526,0.03667158,-0.9492414,0.3124036,0.98867464,-0.01106143,-0.14966634,,0.08277794,1.2879195,0.42542806,0.9915206,0.101827785,-0.0807346,0.019865891,-0.7327471,-0.68021107,-0.12842242,0.6728394,-0.7285567,,-0.11204526,0.23262537,-0.12285476,0.03684051,-0.8551884,0.5170063,0.6793561,0.4008529,0.6146481,-0.7328834,0.3285874,0.5957451,,-0.06784633,0.42829323,-0.3439314,-0.2819003,-0.1863649,-0.9411697,0.7576838,-0.645036,-0.09921613,-0.5885979,-0.7410781,0.3230415,,1.0247062568822276,0.37717055084425083,0.19862922041000003,2.3080572079341595,-1.007284276270827,-0.3477767003219891,-0.4139138635842635,,-1.2750077520687182,0.187538845117668,0.18643242780000002,-2.025185474173536,-0.8418174750548786,0.601418136187327,0.8707872165618427,,-0.07621634677302738,-0.03364776631688568,0.09367612488,-0.1102278800231344,,1.9911677e-05,1.7881393e-07,1.0728836e-06,1.0,-1.4610589e-05,-1.3485551e-05,1.4610589e-05,1.0,-2.592802e-06,1.3500452e-05,2.5629997e-06,1.0,486,1.485,0,0,0.0,False,-0.25600548391979716,1.0458939723002678
1.4922928209416568,16:51:15.702548,16:49:58.003519,0,,0.11643435,0.0045134425,0.021704793,-0.10291691,0.84588915,-0.5233352,-0.010192364,0.5252045,0.8509149,0.9946377,0.09290752,-0.0454309,,0.059885208,0.017896729,0.027090132,0.1455355,0.3143712,0.93807787,0.036642432,-0.9492353,0.31242552,0.98867416,-0.011095494,-0.14966676,,0.08277794,1.2879195,0.42542806,0.9915206,0.101827785,-0.0807346,0.019865891,-0.7327471,-0.68021107,-0.12842242,0.6728394,-0.7285567,,-0.11214728,0.23267385,-0.12283369,0.032149147,-0.8595267,0.5100787,0.68000674,0.3928297,0.6190926,-0.7325007,0.32695368,0.5971131,,-0.06784415,0.428299,-0.34392852,-0.2819067,-0.18637794,-0.94116515,0.7576638,-0.64506173,-0.09920173,-0.5886206,-0.7410524,0.32305902,,1.024690811416479,0.3774408464948487,0.19863440557000003,2.317283565447479,-1.007284276270827,-0.3475316641015675,-0.4134238313858608,,-1.2750077520687182,0.1875774587820391,0.18643242780000002,-2.025185474173536,-0.8418174750548786,0.601418136187327,0.8707872165618427,,-0.07621634677302738,-0.03364776631688568,0.09367612488,-0.1102278800231344,,1.9911677e-05,1.7881393e-07,1.0728836e-06,1.0,-1.4610589e-05,-1.3485551e-05,1.4610589e-05,1.0,-2.592802e-06,1.3500452e-05,2.5629997e-06,1.0,498,1.522,0,0,0.0,False,-0.2556480176086704,1.0460870931033857
1.533221045974642,16:51:15.733687,16:49:58.003519,0,,0.116510764,0.0045340285,0.021704704,-0.10306379,0.84587616,-0.52332723,-0.010356367,0.5251879,0.8509232,0.9946208,0.093119174,-0.045367718,,0.059881166,0.017898517,0.027089298,0.14547859,0.31418934,0.9381476,0.036532134,-0.94929487,0.31225753,0.9886866,-0.011154145,-0.14958009,,0.08277794,1.2879195,0.42542806,0.9915206,0.101827785,-0.0807346,0.019865891,-0.7327471,-0.68021107,-0.12842242,0.6728394,-0.7285567,,-0.11222384,0.23268402,-0.12281645,0.032299746,-0.8595285,0.51006615,0.6798851,0.39296335,0.6191414,-0.73260695,0.32678828,0.59707326,,-0.06784029,0.42830017,-0.3439265,-0.28183842,-0.1861837,-0.94122404,0.75761676,-0.6451095,-0.099250175,-0.58871377,-0.74105966,0.32287252,,1.0243896248343842,0.37773431034406924,0.19864477589,2.3177029453344478,-1.0074209127705924,-0.3479919973788551,-0.4122804229229208,,-1.2749845838700955,0.18759290424778757,0.18643372409000003,-2.025185474173536,-0.8419541115546441,0.601611232831164,0.8707872165618427,,-0.07621634677302738,-0.03364776631688568,0.09367612488,-0.1102278800231344,,1.9911677e-05,1.7881393e-07,1.0728836e-06,1.0,-1.4610589e-05,-1.3485551e-05,1.4610589e-05,1.0,-2.592802e-06,1.3500452e-05,2.5629997e-06,1.0,506,1.547,0,0,0.0,False,-0.25624379479388093,1.0456525712963705
1.564350577071309,16:51:15.756820,16:49:58.003519,0,,0.11662033,0.004525386,0.021705091,-0.10416512,0.84689003,-0.52146614,-0.0132701695,0.5230882,0.8521751,0.99447143,0.09568685,-0.04324925,,0.059877496,0.017896788,0.027088344,0.14549893,0.31411636,0.93816894,0.036542177,-0.9493191,0.3121824,0.98868334,-0.011139393,-0.14960343,,0.08277794,1.2879195,0.42542806,0.9915206,0.101827785,-0.0807346,0.019865891,-0.7327471,-0.68021107,-0.12842242,0.6728394,-0.7285567,,-0.112332985,0.23267126,-0.12281836,0.033460356,-0.8606849,0.5080373,0.67773485,0.39313424,0.6213863,-0.7345447,0.3235228,0.59647053,,-0.06783634,0.42829904,-0.3439272,-0.28185922,-0.18611091,-0.9412322,0.7576165,-0.64509934,-0.099317856,-0.58870417,-0.7410867,0.3228279,,1.023725469807201,0.3780432196590382,0.19865773879,2.315815735843087,-1.0102902792656667,-0.3441003253385595,-0.412280422922921,,-1.2749614156714728,0.18759290424778757,0.18643242780000002,-2.025185474173536,-0.8419541115546441,0.6016929115713046,0.8711139046941112,,-0.07621634677302738,-0.03364776631688568,0.09367612488,-0.1102278800231344,,1.9911677e-05,1.7881393e-07,1.0728836e-06,1.0,-1.4610589e-05,-1.3485551e-05,1.4610589e-05,1.0,-2.592802e-06,1.3500452e-05,2.5629997e-06,1.0,514,1.571,0,0,0.0,False,-0.25576717304571295,1.0459422525010473
1.5874950580764562,16:51:15.785218,16:49:58.003519,0,,0.1167482,0.004500419,0.021667272,-0.104855835,0.84934914,-0.51731163,-0.013853312,0.51888114,0.85473406,0.9943909,0.09679034,-0.04264143,,0.05987171,0.01789509,0.027088225,0.14552814,0.3141247,0.9381616,0.036549598,-0.9493164,0.31219006,0.98867875,-0.01114288,-0.14963338,,0.08277794,1.2879195,0.42542806,0.9915206,0.101827785,-0.0807346,0.019865891,-0.7327471,-0.68021107,-0.12842242,0.6728394,-0.7285567,,-0.112457395,0.23261933,-0.12280304,0.034165267,-0.86314124,0.50380546,0.67729884,0.39068303,0.62340444,-0.7349143,0.31992805,0.5979523,,-0.06783042,0.428299,-0.34392837,-0.28188825,-0.18611898,-0.94122195,0.7576121,-0.6451019,-0.09933496,-0.58869594,-0.7410825,0.32285264,,1.0229531965197785,0.378244010713768,0.19867718314000002,2.3156060458996026,-1.0111100982642593,-0.33910284468893115,-0.4135871754519952,,-1.2749305247399758,0.1876006269806618,0.18642983522,-2.025185474173536,-0.8419541115546441,0.6016929115713046,0.8711139046941112,,-0.07621634677302738,-0.03364776631688568,0.09367612488,-0.1102278800231344,,1.9911677e-05,1.7881393e-07,1.0728836e-06,1.0,-1.4610589e-05,-1.3485551e-05,1.4610589e-05,1.0,-2.592802e-06,1.3500452e-05,2.5629997e-06,1.0,539,1.649,0,0,0.0,False,-0.25636295023092304,1.045604291095591
1.6158910179510713,16:51:15.856930,16:49:58.121737,0,,0.1174255,0.004319854,0.021099329,-0.12171137,0.85414785,-0.50558656,0.0018299818,0.50956565,0.86042976,0.99256384,0.10379885,-0.063583076,,0.059866715,0.01789816,0.027091086,0.1454686,0.31394848,0.93822986,0.0364244,-0.9493737,0.31202996,0.98869216,-0.011216044,-0.14953946,,0.08277794,1.2879195,0.42542806,0.9915206,0.101827785,-0.0807346,0.019865891,-0.7327471,-0.68021107,-0.12842242,0.6728394,-0.7285567,,-0.113089316,0.23205754,-0.12248848,0.050827444,-0.86826,0.4934989,0.68847644,0.38842124,0.61247784,-0.72347546,0.30863166,0.617519,,-0.06782629,0.42830402,-0.34392768,-0.2818156,-0.18592858,-0.9412813,0.7575572,-0.64516056,-0.09937269,-0.5888014,-0.7410792,0.32266784,,1.0180338156788975,0.3791244022614296,0.19890533018,2.2986211604773557,-0.9949869912919374,-0.31443290064002855,-0.41309714325359226,,-1.2749150792742274,0.18763151791215868,0.18642853893000003,-2.025185474173536,-0.8420907480544095,0.6018860082151415,0.8712772487602455,,-0.07621634677302738,-0.03364776631688568,0.09367612488,-0.1102278800231344,,1.9911677e-05,1.7881393e-07,1.0728836e-06,1.0,-1.4610589e-05,-1.3485551e-05,1.4610589e-05,1.0,-2.592802e-06,1.3500452e-05,2.5629997e-06,1.0,547,1.674,0,0,0.0,False,-0.25576717304571295,1.0458456920994883
1.6876053200103343,16:51:15.877114,16:49:58.121737,0,,0.11789535,0.004269585,0.020752996,-0.12798879,0.85604733,-0.5008012,0.00892055,0.5059273,0.86252993,0.99173546,0.10592669,-0.07238954,,0.059863664,0.01790108,0.027091801,0.14548159,0.31396,0.938224,0.036410272,-0.9493698,0.3120439,0.98869073,-0.011235595,-0.14954719,,0.08277794,1.2879195,0.42542806,0.9915206,0.101827785,-0.0807346,0.019865891,-0.7327471,-0.68021107,-0.12842242,0.6728394,-0.7285567,,-0.11353242,0.23175491,-0.122253284,0.057021204,-0.87024105,0.48931488,0.6934455,0.387119,0.6076777,-0.7182492,0.3046627,0.62553877,,-0.06782377,0.42830694,-0.3439258,-0.28182638,-0.18593776,-0.9412763,0.7575451,-0.64517534,-0.09936906,-0.58881176,-0.7410641,0.32268366,,1.0150682862551954,0.3797962800214872,0.19910236626000002,2.2948467414946343,-0.9882918028034308,-0.30739553067964726,-0.41309714325359215,,-1.2749073565413531,0.18765468611078137,0.18642853893000003,-2.025185474173536,-0.8420907480544095,0.6018860082151415,0.8712772487602455,,-0.07621634677302738,-0.03364776631688568,0.09367612488,-0.1102278800231344,,1.9911677e-05,1.7881393e-07,1.0728836e-06,1.0,-1.4610589e-05,-1.3485551e-05,1.4610589e-05,1.0,-2.592802e-06,1.3500452e-05,2.5629997e-06,1.0,555,1.698,0,0,0.0,False,-0.25636295023092304,1.0453146098909143
1.7077855819370598,16:51:15.906796,16:49:58.121737,0,,0.118190736,0.004237309,0.02055484,-0.1320342,0.854836,-0.5018191,0.0088226795,0.50724465,0.86175686,0.9912058,0.109353974,-0.07451561,,0.059861258,0.017902957,0.0270921,0.1454925,0.31396806,0.93821955,0.036401957,-0.9493669,0.3120535,0.9886894,-0.01124835,-0.14955482,,0.08277794,1.2879195,0.42542806,0.9915206,0.101827785,-0.0807346,0.019865891,-0.7327471,-0.68021107,-0.12842242,0.6728394,-0.7285567,,-0.11381235,0.23157758,-0.12212007,0.06109512,-0.8692998,0.49049482,0.6932613,0.39049706,0.6057233,-0.71809196,0.30303437,0.6265094,,-0.06782168,0.42830873,-0.3439245,-0.28183585,-0.18594433,-0.94127214,0.757537,-0.64518493,-0.0993683,-0.58881766,-0.741054,0.32269597,,1.0130912666393939,0.38023647579531794,0.19924366187000003,2.290652942624944,-0.9885650758029616,-0.3056207988095837,-0.4134238313858609,,-1.2748919110756047,0.18767013157652981,0.18642853893000003,-2.025185474173536,-0.8420907480544095,0.6018860082151415,0.8712772487602455,,-0.07621634677302738,-0.03364776631688568,0.09367612488,-0.1102278800231344,,1.9911677e-05,1.7881393e-07,1.0728836e-06,1.0,-1.4610589e-05,-1.3485551e-05,1.4610589e-05,1.0,-2.592802e-06,1.3500452e-05,2.5629997e-06,1.0,563,1.723,0,0,0.0,False,-0.2571374605716965,1.0454594504932526
1.7374662559013814,16:51:15.935995,16:49:58.121737,0,,0.118660375,0.004223928,0.020260155,-0.13636297,0.85438067,-0.5014368,0.008671999,0.50717497,0.86179936,0.990621,0.113169044,-0.07656914,,0.059856877,0.017901437,0.027089417,0.14551964,0.31397298,0.93821377,0.03641528,-0.9493654,0.31205672,0.988685,-0.011245012,-0.14958471,,0.08277794,1.2879195,0.42542806,0.9915206,0.101827785,-0.0807346,0.019865891,-0.7327471,-0.68021107,-0.12842242,0.6728394,-0.7285567,,-0.11425955,0.2313371,-0.12189699,0.065456495,-0.86911553,0.49025872,0.69301844,0.3930869,0.6043245,-0.7179421,0.3002014,0.6280432,,-0.067816816,0.42830655,-0.34392393,-0.2818636,-0.18594979,-0.9412628,0.75753665,-0.6451823,-0.09938829,-0.58880484,-0.74105495,0.3227172,,1.0101875190786855,0.3810087490827404,0.19947569778000002,2.2875075934726765,-0.9892482583017889,-0.3032667770080093,-0.4127704551213238,,-1.274868742876982,0.18767013157652981,0.18642853893000003,-2.025185474173536,-0.8420907480544095,0.6018860082151415,0.8712772487602455,,-0.07621634677302738,-0.03364776631688568,0.09367612488,-0.1102278800231344,,1.9911677e-05,1.7881393e-07,1.0728836e-06,1.0,-1.4610589e-05,-1.3485551e-05,1.4610589e-05,1.0,-2.592802e-06,1.3500452e-05,2.5629997e-06,1.0,571,1.747,0,0,0.0,False,-0.2559459062012759,1.04478352768234
1.7666690179612488,16:51:15.965238,16:49:58.121737,0,,0.119219765,0.0042581037,0.019857347,-0.13713564,0.8552769,-0.49969518,0.0147462785,0.506168,0.86230874,0.99044245,0.11088462,-0.082025856,,0.059855785,0.01790108,0.027088761,0.14552641,0.3138209,0.9382636,0.036418557,-0.9494159,0.31190246,0.9886838,-0.01121974,-0.14959401,,0.08277794,1.2879195,0.42542806,0.9915206,0.101827785,-0.0807346,0.019865891,-0.7327471,-0.68021107,-0.12842242,0.6728394,-0.7285567,,-0.11478944,0.23105161,-0.12155927,0.066132136,-0.86982924,0.48890048,0.6973549,0.39073613,0.6008506,-0.71366847,0.3012016,0.6324199,,-0.0678156,0.428306,-0.34392378,-0.28187054,-0.18579738,-0.9412908,0.75753653,-0.64516544,-0.099498674,-0.5888017,-0.7411079,0.32260144,,1.0071756532577378,0.38178874510303706,0.19978551109,2.293378911890243,-0.9847392538095293,-0.30743364027083453,-0.41375051951812947,,-1.2748610201441077,0.18767013157652981,0.18642853893000003,-2.025185474173536,-0.8420907480544095,0.6020493656954227,0.8706238724957084,,-0.07621634677302738,-0.03364776631688568,0.09367612488,-0.1102278800231344,,1.9911677e-05,1.7881393e-07,1.0728836e-06,1.0,-1.4610589e-05,-1.3485551e-05,1.4610589e-05,1.0,-2.592802e-06,1.3500452e-05,2.5629997e-06,1.0,579,1.772,0,0,0.0,False,-0.2566012611050077,1.044349005875325
1.795883853919804,16:51:15.978959,16:49:58.121737,0,,0.11956382,0.0042536333,0.019614965,-0.13681194,0.856613,-0.4974905,0.017755002,0.50425255,0.8633736,0.99043787,0.10928689,-0.084196985,,0.059856877,0.017901437,0.027089417,0.14551964,0.3138197,0.938265,0.03641528,-0.94941634,0.31190163,0.988685,-0.011220604,-0.14958653,,0.08277794,1.2879195,0.42542806,0.9915206,0.101827785,-0.0807346,0.019865891,-0.7327471,-0.68021107,-0.12842242,0.6728394,-0.7285567,,-0.115115255,0.23086117,-0.12137296,0.06575632,-0.87101424,0.48683706,0.69951665,0.38816872,0.6000012,-0.7115845,0.30109677,0.6348135,,-0.067816816,0.42830655,-0.34392393,-0.2818636,-0.18579602,-0.9412931,0.75753665,-0.6451661,-0.099493675,-0.58880484,-0.74110764,0.32259613,,1.0052758609706787,0.38213626808237716,0.19996569540000003,2.2979920906469022,-0.9829629793125786,-0.30929046671959093,-0.41326048731972675,,-1.274868742876982,0.18767013157652981,0.18642853893000003,-2.025185474173536,-0.8420907480544095,0.6020493656954227,0.8706238724957084,,-0.07621634677302738,-0.03364776631688568,0.09367612488,-0.1102278800231344,,1.9911677e-05,1.7881393e-07,1.0728836e-06,1.0,-1.4610589e-05,-1.3485551e-05,1.4610589e-05,1.0,-2.592802e-06,1.3500452e-05,2.5629997e-06,1.0,587,1.796,0,0,0.0,False,-0.25731619372725945,1.0445421266784427
1.8096261629834771,16:51:16.008425,16:49:58.310916,0,,0.12004919,0.004235156,0.019253373,-0.13455531,0.8588386,-0.4942582,0.020799607,0.5011322,0.8651207,0.9906877,0.10612613,-0.08529365,,0.059855856,0.017901944,0.027090967,0.14552172,0.31374648,0.9382892,0.036409378,-0.9494406,0.31182846,0.9886849,-0.01121518,-0.14958751,,0.08277794,1.2879195,0.42542806,0.9915206,0.101827785,-0.0807346,0.019865891,-0.7327471,-0.68021107,-0.12842242,0.6728394,-0.7285567,,-0.11557331,0.23057021,-0.12110424,0.063434035,-0.872954,0.4836604,0.7017595,0.38360125,0.6003196,-0.7095842,0.30133262,0.6369372,,-0.06781608,0.42830822,-0.3439245,-0.28186488,-0.18572174,-0.9413074,0.7575326,-0.6451631,-0.0995435,-0.58880943,-0.74112886,0.3225391,,1.0025729044647,0.38242973193159774,0.20024310146000002,2.307008758216737,-0.982143160313986,-0.3134711599678136,-0.41309714325359237,,-1.274868742876982,0.18767785430940404,0.18642724264000002,-2.025185474173536,-0.8420907480544095,0.6021310444355632,0.8704605284295741,,-0.07621634677302738,-0.03364776631688568,0.09367612488,-0.1102278800231344,,1.9911677e-05,1.7881393e-07,1.0728836e-06,1.0,-1.4610589e-05,-1.3485551e-05,1.4610589e-05,1.0,-2.592802e-06,1.3500452e-05,2.5629997e-06,1.0,616,1.887,0,0,0.0,False,-0.25636295023092304,1.045169769288576
1.8390676570124924,16:51:16.098099,16:49:58.310916,0,,0.121144906,0.0039936155,0.018519789,-0.12016668,0.8681784,-0.48148337,0.03877613,0.48873228,0.87157166,0.9919961,0.08606379,-0.092394024,,0.05985544,0.01790704,0.027094245,0.14551646,0.3139877,0.9382093,0.036379457,-0.9493601,0.31207705,0.9886868,-0.011280715,-0.14957017,,0.08277794,1.2879195,0.42542806,0.9915206,0.101827785,-0.0807346,0.019865891,-0.7327471,-0.68021107,-0.12842242,0.6728394,-0.7285567,,-0.11660967,0.22982492,-0.120694906,0.04867251,-0.8806236,0.47131005,0.714822,0.3602832,0.59935427,-0.69761056,0.3077307,0.647025,,-0.06781677,0.42831394,-0.3439225,-0.28185615,-0.18596008,-0.94126296,0.7575168,-0.6452094,-0.0993639,-0.588834,-0.74102885,0.3227241,,0.9968426366720254,0.3821671590138741,0.20062939588000003,2.345801397761374,-0.9713488768325161,-0.3322379806569794,-0.4147305839149349,,-1.2748841883427304,0.18770874524090092,0.18642724264000002,-2.025185474173536,-0.8420907480544095,0.6018860082151415,0.8706238724957084,,-0.07621634677302738,-0.03364776631688568,0.09367612488,-0.1102278800231344,,1.9911677e-05,1.7881393e-07,1.0728836e-06,1.0,-1.4610589e-05,-1.3485551e-05,1.4610589e-05,1.0,-2.592802e-06,1.3500452e-05,2.5629997e-06,1.0,624,1.911,0,0,0.0,False,-0.2580907040680329,1.045169769288576
1.9287391419056803,16:51:16.124293,16:49:58.310916,0,,0.12133649,0.0038956925,0.018337578,-0.117892444,0.868184,-0.48203525,0.04369536,0.48948556,0.8709159,0.99206454,0.08161169,-0.09564233,,0.059856534,0.017907398,0.0270949,0.14550966,0.3140631,0.9381852,0.03637612,-0.9493349,0.31215376,0.9886879,-0.011293769,-0.1495618,,0.08277794,1.2879195,0.42542806,0.9915206,0.101827785,-0.0807346,0.019865891,-0.7327471,-0.68021107,-0.12842242,0.6728394,-0.7285567,,-0.11678607,0.22961722,-0.12062249,0.046312336,-0.8803261,0.4721029,0.7183008,0.35778138,0.5966879,-0.69418955,0.31147787,0.6489086,,-0.067817986,0.42831448,-0.34392264,-0.2818492,-0.1860356,-0.94125015,0.75751686,-0.64521813,-0.0993062,-0.58883715,-0.7410022,0.32277933,,0.9956378903436465,0.3818273587674082,0.20070069183000003,2.3525114759528787,-0.9679329643383802,-0.33878065029585586,-0.4150572720472038,,-1.2748919110756047,0.18770874524090092,0.18642724264000002,-2.025185474173536,-0.8420907480544095,0.6018043294750008,0.8704605284295741,,-0.07621634677302738,-0.03364776631688568,0.09367612488,-0.1102278800231344,,1.9911677e-05,1.7881393e-07,1.0728836e-06,1.0,-1.4610589e-05,-1.3485551e-05,1.4610589e-05,1.0,-2.592802e-06,1.3500452e-05,2.5629997e-06,1.0,632,1.936,0,0,0.0,False,-0.25791197091247,1.0453146098909143
1.954907780047506,16:51:16.149628,16:49:58.434753,0,,0.12137137,0.0038271248,0.018239528,-0.11720056,0.8684499,-0.48172474,0.04469517,0.4891887,0.8710319,0.992102,0.08055465,-0.09614882,,0.059856087,0.017905967,0.027093768,0.14551438,0.31398427,0.9382108,0.036385268,-0.94936126,0.31207266,0.9886868,-0.011273921,-0.14957011,,0.08277794,1.2879195,0.42542806,0.9915206,0.101827785,-0.0807346,0.019865891,-0.7327471,-0.68021107,-0.12842242,0.6728394,-0.7285567,,-0.116812676,0.22949813,-0.120597124,0.045601934,-0.880511,0.47182715,0.7190098,0.35682562,0.5964062,-0.69350225,0.31205106,0.649368,,-0.0678172,0.42831278,-0.34392306,-0.28185487,-0.18595748,-0.94126385,0.7575208,-0.64520425,-0.099366784,-0.5888294,-0.741034,0.32272062,,0.9951822491040672,0.3814103311922001,0.20074217311000003,2.354188995500755,-0.9676596913388492,-0.3397385947645137,-0.41522061611333794,,-1.2748841883427304,0.1877010225080267,0.18642724264000002,-2.025185474173536,-0.8420907480544095,0.6018860082151415,0.8702971843634398,,-0.07621634677302738,-0.03364776631688568,0.09367612488,-0.1102278800231344,,1.9911677e-05,1.7881393e-07,1.0728836e-06,1.0,-1.4610589e-05,-1.3485551e-05,1.4610589e-05,1.0,-2.592802e-06,1.3500452e-05,2.5629997e-06,1.0,640,1.96,0,0,0.0,False,-0.2568991496976123,1.0459422525010473
1.9802773729898036,16:51:16.174808,16:49:58.434753,0,,0.121382356,0.0038004667,0.01819244,-0.11328144,0.8707469,-0.47850507,0.046298563,0.48570824,0.8728939,0.9924836,0.07672855,-0.09533623,,0.059856087,0.017905967,0.027093768,0.14551438,0.31398427,0.9382108,0.036385268,-0.94936126,0.31207266,0.9886868,-0.011273921,-0.14957011,,0.08277794,1.2879195,0.42542806,0.9915206,0.101827785,-0.0807346,0.019865891,-0.7327471,-0.68021107,-0.12842242,0.6728394,-0.7285567,,-0.11681981,0.22944586,-0.12058084,0.041637808,-0.8824683,0.4685254,0.72019374,0.35153663,0.59811616,-0.6925224,0.31252483,0.65018535,,-0.0678172,0.42831278,-0.34392306,-0.28185487,-0.18595748,-0.94126385,0.7575208,-0.64520425,-0.099366784,-0.5888294,-0.741034,0.32272062,,0.9952054173026899,0.38105508547998573,0.20076161746,2.361108763635744,-0.9669765088400221,-0.3415208653851042,-0.41505727204720344,,-1.2748841883427304,0.1877010225080267,0.18642724264000002,-2.025185474173536,-0.8420907480544095,0.6018860082151415,0.8706238724957084,,-0.07621634677302738,-0.03364776631688568,0.09367612488,-0.1102278800231344,,1.9911677e-05,1.7881393e-07,1.0728836e-06,1.0,-1.4610589e-05,-1.3485551e-05,1.4610589e-05,1.0,-2.592802e-06,1.3500452e-05,2.5629997e-06,1.0,648,1.985,0,0,0.0,False,-0.257435349164302,1.0462319337057238
2.005470786942169,16:51:16.190880,16:49:58.434753,0,,0.12133424,0.003779076,0.018155783,-0.11192183,0.8709097,-0.47852886,0.047478825,0.48569113,0.87284005,0.9925821,0.0749699,-0.095709294,,0.059854988,0.01790558,0.027093053,0.14552116,0.31406212,0.9381837,0.036388576,-0.9493354,0.31215099,0.9886857,-0.011285335,-0.14957663,,0.08277794,1.2879195,0.42542806,0.9915206,0.101827785,-0.0807346,0.019865891,-0.7327471,-0.68021107,-0.12842242,0.6728394,-0.7285567,,-0.11676883,0.22940817,-0.12057085,0.040253934,-0.8825053,0.46857658,0.72103435,0.35030994,0.5978231,-0.69172907,0.31379506,0.650418,,-0.06781599,0.42831224,-0.3439229,-0.28186178,-0.18603572,-0.94124633,0.7575207,-0.6452117,-0.09931908,-0.58882624,-0.7410078,0.32278642,,0.9953984856245455,0.38070756250064564,0.20077458036,2.3632056630705893,-0.9661566898414293,-0.3431695176889696,-0.4160373364440092,,-1.2748764656098563,0.1877010225080267,0.18642724264000002,-2.025185474173536,-0.8420907480544095,0.601804329475001,0.8707872165618427,,-0.07621634677302738,-0.03364776631688568,0.09367612488,-0.1102278800231344,,1.9911677e-05,1.7881393e-07,1.0728836e-06,1.0,-1.4610589e-05,-1.3485551e-05,1.4610589e-05,1.0,-2.592802e-06,1.3500452e-05,2.5629997e-06,1.0,656,2.009,0,0,0.0,False,-0.25767366003838577,1.0462802139065033
2.021541377995163,16:51:16.219616,16:49:58.434753,0,,0.12123026,0.0037654415,0.018125951,-0.113152556,0.8696158,-0.4805881,0.04744026,0.48787153,0.8716253,0.9924444,0.075827405,-0.09645876,,0.059854988,0.01790558,0.027093053,0.14552116,0.31413877,0.93815804,0.036388576,-0.94930995,0.31222853,0.9886857,-0.011297524,-0.14957571,,0.08277794,1.2879195,0.42542806,0.9915206,0.101827785,-0.0807346,0.019865891,-0.7327471,-0.68021107,-0.12842242,0.6728394,-0.7285567,,-0.11666277,0.22938429,-0.1205627,0.041491818,-0.88131446,0.4707051,0.720988,0.35256028,0.59655476,-0.6917043,0.31462055,0.65004545,,-0.06781599,0.42831224,-0.3439229,-0.28186178,-0.18611261,-0.94123113,0.7575207,-0.6452198,-0.09926638,-0.58882624,-0.74098146,0.32284695,,0.9957228404052629,0.3803677622541798,0.20079143213000003,2.3602700038618063,-0.966020053341664,-0.34303589937224427,-0.414730583914935,,-1.2748764656098563,0.1877010225080267,0.18642724264000002,-2.025185474173536,-0.8420907480544095,0.6017226507348603,0.8712772487602455,,-0.07621634677302738,-0.03364776631688568,0.09367612488,-0.1102278800231344,,1.9911677e-05,1.7881393e-07,1.0728836e-06,1.0,-1.4610589e-05,-1.3485551e-05,1.4610589e-05,1.0,-2.592802e-06,1.3500452e-05,2.5629997e-06,1.0,681,2.086,0,0,0.0,False,-0.2575545046013441,1.0467147357135185
2.0500427619554102,16:51:16.300260,16:49:58.601782,0,,0.12111206,0.0038084313,0.017950192,-0.110320464,0.87032604,-0.47996032,0.051736504,0.48728192,0.8717107,0.9925486,0.07133603,-0.09878492,,0.05982249,0.01790054,0.027086139,0.14532429,0.31424868,0.9381517,0.03650573,-0.94927543,0.3123198,0.9887104,-0.011139661,-0.14942461,,0.08279348,1.2879208,0.4254347,0.99152094,0.10181343,-0.080747925,0.019846467,-0.73274904,-0.68020946,-0.12842242,0.6728394,-0.7285567,,-0.11654607,0.22929864,-0.12040235,0.03858505,-0.8816841,0.47025985,0.7240022,0.34902632,0.5949802,-0.68871766,0.31751183,0.65180844,,-0.06779548,0.4283048,-0.3439152,-0.2816836,-0.18626542,-0.94125426,0.75765014,-0.64509666,-0.09907888,-0.588745,-0.7410503,0.32283714,,0.9968040230076544,0.3796263798982542,0.20093920919000002,2.364254112788012,-0.9620575948484662,-0.3454502311780348,-0.41456723984880095,,-1.2748764656098563,0.18774735890527205,0.18642983522,-2.0256048540605054,-0.8420907480544095,0.601967686955282,0.872747345355454,,-0.07621634677302738,-0.03364776631688568,0.09367612488,-0.1102278800231344,,3.4488738e-05,5.364418e-06,-5.9604645e-06,0.99999994,-2.887845e-05,-2.6665628e-05,2.887845e-05,1.0,-5.096197e-06,2.668053e-05,5.066395e-06,1.0,689,2.112,0,0,0.0,False,-0.25820985950507547,1.047390658524431
2.1309315559919924,16:51:16.321040,16:49:58.601782,0,,0.121090986,0.003841035,0.01791139,-0.110830665,0.8699308,-0.48055905,0.051590264,0.48792198,0.87136126,0.99249935,0.07178131,-0.09895679,,0.059822284,0.017903162,0.027087748,0.14532162,0.3142543,0.93815017,0.03649074,-0.94927335,0.3123277,0.98871124,-0.011154115,-0.14941733,,0.08279348,1.2879208,0.4254347,0.99152094,0.10181343,-0.080747925,0.019846467,-0.73274904,-0.68020946,-0.12842242,0.6728394,-0.7285567,,-0.11652287,0.22929703,-0.12035262,0.039099973,-0.8813329,0.47087535,0.72389376,0.3498204,0.5946457,-0.6888026,0.31761312,0.6516693,,-0.06779582,0.42830765,-0.34391418,-0.2816792,-0.18626927,-0.9412548,0.7576422,-0.64510757,-0.09906812,-0.5887573,-0.7410398,0.32283884,,0.996896695802145,0.3796263798982542,0.20098976450000003,2.3632056630705893,-0.9620575948484662,-0.3452868736977537,-0.4152206161133378,,-1.2748841883427304,0.1877628043710205,0.18642983522,-2.0256048540605054,-0.8420907480544095,0.601967686955282,0.8730740334877225,,-0.07621634677302738,-0.03364776631688568,0.09367612488,-0.1102278800231344,,3.4488738e-05,5.364418e-06,-5.9604645e-06,0.99999994,-2.887845e-05,-2.6665628e-05,2.887845e-05,1.0,-5.096197e-06,2.668053e-05,5.066395e-06,1.0,697,2.136,0,0,0.0,False,-0.25791197091247,1.0471975377213132
2.1517157680355012,16:51:16.343159,16:49:58.601782,0,,0.1210894,0.0038749129,0.01784654,-0.111446925,0.86918384,-0.48176643,0.053123593,0.489304,0.87049377,0.9923494,0.071420625,-0.10070574,,0.059817106,0.017906172,0.027089357,0.14534348,0.31427053,0.93814135,0.03647408,-0.94926775,0.3123469,0.98870873,-0.011179715,-0.1494326,,0.08279348,1.2879208,0.4254347,0.99152094,0.10181343,-0.080747925,0.019846467,-0.73274904,-0.68020946,-0.12842242,0.6728394,-0.7285567,,-0.11651728,0.22927734,-0.12028236,0.03969808,-0.8805868,0.47221914,0.7249426,0.35062307,0.5928926,-0.68766433,0.31879508,0.652294,,-0.06779134,0.4283117,-0.34391275,-0.2816982,-0.18628241,-0.9412465,0.757626,-0.6451269,-0.0990666,-0.588769,-0.7410197,0.3228635,,0.9969044185350193,0.3796495480968769,0.20105069013000001,2.362576593240136,-0.960417956851281,-0.34637885232168897,-0.41505727204720366,,-1.274868742876982,0.1877936953025174,0.18642853893000003,-2.0256048540605054,-0.8420907480544095,0.601967686955282,0.8730740334877225,,-0.07621634677302738,-0.03364776631688568,0.09367612488,-0.1102278800231344,,3.4488738e-05,5.364418e-06,-5.9604645e-06,0.99999994,-2.887845e-05,-2.6665628e-05,2.887845e-05,1.0,-5.096197e-06,2.668053e-05,5.066395e-06,1.0,705,2.161,0,0,0.0,False,-0.25719703829021734,1.047294098122872
2.1737985438667238,16:51:16.374584,16:49:58.601782,0,,0.12119013,0.0039147437,0.01776217,-0.105295606,0.87287366,-0.47644973,0.059510797,0.4837854,0.87316096,0.9926587,0.06358607,-0.10288599,,0.059812468,0.017913057,0.02709049,0.14536269,0.3142157,0.9381567,0.0364424,-0.94928557,0.31229642,0.988707,-0.011207551,-0.14944148,,0.08279348,1.2879208,0.4254347,0.99152094,0.10181343,-0.080747925,0.019846467,-0.73274904,-0.68020946,-0.12842242,0.6728394,-0.7285567,,-0.11661245,0.22924227,-0.12018982,0.033428233,-0.88361233,0.46702442,0.7294133,0.34102345,0.5930087,-0.6832561,0.32083055,0.65591836,,-0.06778782,0.42831764,-0.34390798,-0.2817128,-0.18622254,-0.94125396,0.75760186,-0.645149,-0.09910703,-0.5887931,-0.7410155,0.32282928,,0.9968812503363966,0.37966499356262534,0.20110383802,2.3749482999057228,-0.9550891333604287,-0.3507241505658495,-0.41505727204720366,,-1.2748610201441077,0.18784003169976274,0.18642983522,-2.0256048540605054,-0.8420907480544095,0.6020493656954226,0.8729106894215883,,-0.07621634677302738,-0.03364776631688568,0.09367612488,-0.1102278800231344,,3.4488738e-05,5.364418e-06,-5.9604645e-06,0.99999994,-2.887845e-05,-2.6665628e-05,2.887845e-05,1.0,-5.096197e-06,2.668053e-05,5.066395e-06,1.0,713,2.186,0,0,0.0,False,-0.2566608388235285,1.0475354991267694
2.2052406810689718,16:51:16.399882,16:49:58.601782,0,,0.12119785,0.003936775,0.01770635,-0.10451046,0.87341595,-0.4756279,0.060096562,0.48291928,0.8736002,0.99270636,0.06271666,-0.10295957,,0.059810515,0.017916335,0.02709192,0.14536887,0.314226,0.9381523,0.036424935,-0.94928193,0.31230956,0.98870677,-0.011227936,-0.14944172,,0.08279348,1.2879208,0.4254347,0.99152094,0.10181343,-0.080747925,0.019846467,-0.73274904,-0.68020946,-0.12842242,0.6728394,-0.7285567,,-0.11661656,0.22921957,-0.12013387,0.03263144,-0.8840761,0.4662023,0.7298229,0.33976573,0.5932266,-0.6828571,0.32088727,0.656306,,-0.067786515,0.4283211,-0.34390625,-0.28171664,-0.18623035,-0.9412513,0.7575899,-0.64516443,-0.09909839,-0.5888067,-0.7410001,0.32283977,,0.9968658048706481,0.37961093443250576,0.20115957849000002,2.3764161295101145,-0.9546792238611325,-0.35097672553679826,-0.4148939279810695,,-1.2748610201441077,0.18786319989838543,0.18642983522,-2.0256048540605054,-0.8420907480544095,0.6020493656954226,0.8729106894215883,,-0.07621634677302738,-0.03364776631688568,0.09367612488,-0.1102278800231344,,3.4488738e-05,5.364418e-06,-5.9604645e-06,0.99999994,-2.887845e-05,-2.6665628e-05,2.887845e-05,1.0,-5.096197e-06,2.668053e-05,5.066395e-06,1.0,721,2.21,0,0,0.0,False,-0.25719703829021734,1.046859576315857
2.230538052972406,16:51:16.422095,16:49:58.601782,0,,0.121236876,0.00395038,0.017588958,-0.10058028,0.8744821,-0.47451505,0.065945804,0.48174435,0.87382686,0.992741,0.056597427,-0.10612258,,0.05980524,0.017921133,0.027094185,0.14531147,0.3140532,0.9382191,0.036293775,-0.94933814,0.3121539,0.98872006,-0.011307985,-0.1493479,,0.08279348,1.2879208,0.4254347,0.99152094,0.10181343,-0.080747925,0.019846467,-0.73274904,-0.68020946,-0.12842242,0.6728394,-0.7285567,,-0.116647385,0.22914666,-0.120037846,0.028605806,-0.8846838,0.46531308,0.73385185,0.33465675,0.5911568,-0.678707,0.32456034,0.65879995,,-0.06778225,0.42832676,-0.34390384,-0.28164533,-0.18604255,-0.94130975,0.75753087,-0.6452283,-0.099133275,-0.5889167,-0.74099165,0.3226585,,0.9968735276035224,0.3793946979120275,0.20122828186000002,2.3843843473625266,-0.9496236733698111,-0.35648772655595534,-0.41571064831174065,,-1.2748455746783594,0.18790181356275654,0.18642983522,-2.0256048540605054,-0.842227384554175,0.6022424623392597,0.872747345355454,,-0.07621634677302738,-0.03364776631688568,0.09367612488,-0.1102278800231344,,3.4488738e-05,5.364418e-06,-5.9604645e-06,0.99999994,-2.887845e-05,-2.6665628e-05,2.887845e-05,1.0,-5.096197e-06,2.668053e-05,5.066395e-06,1.0,729,2.235,0,0,0.0,False,-0.25761408231986493,1.0472458179220927
2.252768446924165,16:51:16.443992,16:49:58.601782,0,,0.12125338,0.003949359,0.017536715,-0.09794718,0.8756179,-0.4729687,0.068098396,0.48003694,0.874601,0.9928589,0.053456247,-0.1066466,,0.059804387,0.017924828,0.027096272,0.14531091,0.3140623,0.9382161,0.036272943,-0.94933486,0.3121662,0.9887209,-0.011329293,-0.14934069,,0.08279348,1.2879208,0.4254347,0.99152094,0.10181343,-0.080747925,0.019846467,-0.73274904,-0.68020946,-0.12842242,0.6728394,-0.7285567,,-0.11666012,0.22910914,-0.12,0.025933288,-0.8855632,0.46379444,0.7353334,0.33119595,0.5912648,-0.6772092,0.3257101,0.6597732,,-0.06778216,0.42833078,-0.34390223,-0.28164223,-0.186049,-0.9413094,0.75751895,-0.6452444,-0.09911965,-0.5889335,-0.740976,0.32266372,,0.9968889730692708,0.37922479778879453,0.20125939282000002,2.3892072160626707,-0.9479840353726259,-0.35864152880171796,-0.41505727204720344,,-1.2748532974112337,0.18792498176137923,0.18642983522,-2.0256048540605054,-0.842227384554175,0.6022424623392597,0.872747345355454,,-0.07621634677302738,-0.03364776631688568,0.09367612488,-0.1102278800231344,,3.4488738e-05,5.364418e-06,-5.9604645e-06,0.99999994,-2.887845e-05,-2.6665628e-05,2.887845e-05,1.0,-5.096197e-06,2.668053e-05,5.066395e-06,1.0,750,2.299,0,0,0.0,False,-0.257435349164302,1.047294098122872
2.274656940018758,16:51:16.509032,16:49:58.786374,0,,0.12118812,0.0039414465,0.017378762,-0.09841014,0.87481,-0.47436562,0.06923857,0.4815433,0.873683,0.99273425,0.053134814,-0.10795948,,0.059795983,0.01793213,0.02709949,0.14546025,0.31400996,0.9382104,0.036145955,-0.94935024,0.3121342,0.98870355,-0.011490554,-0.14944288,,0.08279348,1.2879208,0.4254347,0.99152094,0.10181343,-0.080747925,0.019846467,-0.73274904,-0.68020946,-0.12842242,0.6728394,-0.7285567,,-0.11658367,0.22899927,-0.11989346,0.026383677,-0.8847613,0.46529713,0.73610455,0.33211958,0.5897853,-0.67635345,0.32694662,0.6600393,,-0.06777527,0.42833924,-0.3438984,-0.2817704,-0.18597373,-0.9412859,0.7574005,-0.64536846,-0.0992169,-0.5890245,-0.74088687,0.32270232,,0.9969044185350193,0.37869192922047307,0.20138124408000002,2.388158766345248,-0.9471642163740331,-0.3593100362238966,-0.414730583914935,,-1.274830129212611,0.18799448635724725,0.18642853893000003,-2.025395164117021,-0.842227384554175,0.6021607835991192,0.8725840012893198,,-0.07621634677302738,-0.03364776631688568,0.09367612488,-0.1102278800231344,,3.4488738e-05,5.364418e-06,-5.9604645e-06,0.99999994,-2.887845e-05,-2.6665628e-05,2.887845e-05,1.0,-5.096197e-06,2.668053e-05,5.066395e-06,1.0,758,2.325,0,0,0.0,False,-0.25767366003838577,1.0474389387252105
2.3396896459162235,16:51:16.533151,16:49:58.786374,0,,0.12115146,0.0039169267,0.017331406,-0.09803144,0.875106,-0.47389793,0.06882909,0.48101336,0.8740072,0.99280024,0.05306217,-0.107387334,,0.05979425,0.017936153,0.027103126,0.14523016,0.31434143,0.93813515,0.036296695,-0.9492425,0.31244415,0.98873186,-0.011325061,-0.14926815,,0.08279348,1.2879208,0.4254347,0.99152094,0.10181343,-0.080747925,0.019846467,-0.73274904,-0.68020946,-0.12842242,0.6728394,-0.7285567,,-0.116543315,0.22895129,-0.1198774,0.026008558,-0.88504183,0.46478432,0.735829,0.3316667,0.59038365,-0.67666775,0.32664675,0.6598656,,-0.06777457,0.42834482,-0.34389746,-0.2815674,-0.18633556,-0.9412751,0.75755686,-0.64523673,-0.09887943,-0.58892053,-0.74091065,0.3228374,,0.9969275867336419,0.3783675744397556,0.20141235504000002,2.3883684562887324,-0.9478473988728604,-0.3587529467054145,-0.414730583914935,,-1.2748455746783594,0.1880099318229957,0.18642724264000002,-2.02581454400399,-0.842227384554175,0.6021607835991192,0.8725840012893198,,-0.07621634677302738,-0.03364776631688568,0.09367612488,-0.1102278800231344,,3.4488738e-05,5.364418e-06,-5.9604645e-06,0.99999994,-2.887845e-05,-2.6665628e-05,2.887845e-05,1.0,-5.096197e-06,2.668053e-05,5.066395e-06,1.0,766,2.349,0,0,0.0,False,-0.2570778828531757,1.0472458179220927
2.3637800570577383,16:51:16.563668,16:49:58.786374,0,,0.121099666,0.003895007,0.01730223,-0.09804259,0.8750944,-0.47391695,0.06802103,0.48099017,0.8740832,0.9928548,0.053461015,-0.10668251,,0.059789572,0.01793812,0.027107537,0.14501354,0.3146752,0.93805677,0.036453992,-0.9491339,0.31275564,0.98875785,-0.011157811,-0.14910844,,0.08279348,1.2879208,0.4254347,0.99152094,0.10181343,-0.080747925,0.019846467,-0.73274904,-0.68020946,-0.12842242,0.6728394,-0.7285567,,-0.116489194,0.22891858,-0.11987335,0.02603011,-0.8850583,0.46475187,0.7352803,0.33192372,0.59092265,-0.67726314,0.3263411,0.6594059,,-0.067770824,0.42835027,-0.3438986,-0.28137815,-0.18670009,-0.9412595,0.7577129,-0.6451036,-0.098551966,-0.5888102,-0.74093485,0.32298312,,0.9970279822610069,0.3780663878576609,0.20143179939000003,2.387739386458279,-0.9488038543712184,-0.3580547001196802,-0.41456723984880073,,-1.2748455746783594,0.18802537728874413,0.18642335377000002,-2.026233923890959,-0.842227384554175,0.6021607835991192,0.8725840012893198,,-0.07621634677302738,-0.03364776631688568,0.09367612488,-0.1102278800231344,,3.4488738e-05,5.364418e-06,-5.9604645e-06,0.99999994,-2.887845e-05,-2.6665628e-05,2.887845e-05,1.0,-5.096197e-06,2.668053e-05,5.066395e-06,1.0,774,2.374,0,0,0.0,False,-0.2571374605716965,1.047294098122872
2.394308384973556,16:51:16.590510,16:49:58.786374,0,,0.121059544,0.0038896203,0.017296389,-0.097711556,0.875567,-0.4731117,0.067136794,0.48010272,0.8746393,0.9929476,0.05369912,-0.10569447,,0.05978708,0.017937554,0.027109444,0.14502239,0.3146799,0.93805385,0.03645152,-0.9491323,0.31276083,0.9887567,-0.011163771,-0.14911598,,0.08279348,1.2879208,0.4254347,0.99152094,0.10181343,-0.080747925,0.019846467,-0.73274904,-0.68020946,-0.12842242,0.6728394,-0.7285567,,-0.11644867,0.22891313,-0.11987438,0.025709018,-0.8855308,0.4638687,0.73468125,0.33141315,0.59195334,-0.6779251,0.3255771,0.6591032,,-0.06776856,0.42835188,-0.3439002,-0.28138638,-0.18670405,-0.9412562,0.75770885,-0.64510804,-0.09855408,-0.5888116,-0.74092996,0.32299194,,0.9971747141856171,0.3778964877344279,0.20144087342000003,2.387739386458279,-0.9497603098695766,-0.35694805983324285,-0.41391386358426363,,-1.2748378519454853,0.18803310002161835,0.18642076119,-2.026233923890959,-0.842227384554175,0.6021607835991192,0.8725840012893198,,-0.07621634677302738,-0.03364776631688568,0.09367612488,-0.1102278800231344,,3.4488738e-05,5.364418e-06,-5.9604645e-06,0.99999994,-2.887845e-05,-2.6665628e-05,2.887845e-05,1.0,-5.096197e-06,2.668053e-05,5.066395e-06,1.0,782,2.399,0,0,0.0,False,-0.25725661600873906,1.047294098122872
2.421168864937499,16:51:16.613242,16:49:58.916704,0,,0.1209881,0.003894858,0.017250493,-0.09821258,0.87417346,-0.47557846,0.069776684,0.48276168,0.87296754,0.9927162,0.05255206,-0.10841033,,0.05978262,0.017935527,0.027117252,0.14495204,0.3144956,0.9381265,0.036334485,-0.94919264,0.31259122,0.9887713,-0.011224359,-0.14901444,,0.08279348,1.2879208,0.4254347,0.99152094,0.10181343,-0.080747925,0.019846467,-0.73274904,-0.68020946,-0.12842242,0.6728394,-0.7285567,,-0.116374254,0.22888993,-0.11984033,0.02617841,-0.8841066,0.4665514,0.7364707,0.33264455,0.5890318,-0.6759627,0.32818154,0.65982676,,-0.06776499,0.4283575,-0.34390658,-0.28130433,-0.18650709,-0.9413198,0.7576619,-0.64515734,-0.09859259,-0.5889112,-0.74093664,0.32279485,,0.9974836235005862,0.37768025121394966,0.20146291035000002,2.3869006266843407,-0.9470275798742677,-0.3592580966473119,-0.414077207650398,,-1.274830129212611,0.1880485454873668,0.18641298345,-2.026233923890959,-0.8423640210539404,0.602353880242956,0.872747345355454,,-0.07621634677302738,-0.03364776631688568,0.09367612488,-0.1102278800231344,,3.4488738e-05,5.364418e-06,-5.9604645e-06,0.99999994,-2.887845e-05,-2.6665628e-05,2.887845e-05,1.0,-5.096197e-06,2.668053e-05,5.066395e-06,1.0,794,2.435,0,0,0.0,False,-0.2570778828531757,1.0473423783236515
2.4439085100311786,16:51:16.650133,16:49:58.916704,0,,0.12088436,0.0039371997,0.01720567,-0.09794605,0.8737894,-0.47633865,0.069924235,0.4834996,0.87254727,0.99273217,0.052154884,-0.108456105,,0.05977911,0.017932577,0.027123809,0.14507332,0.31418696,0.9382112,0.03624168,-0.949294,0.3122943,0.98875695,-0.011303186,-0.14910388,,0.08279348,1.2879208,0.4254347,0.99152094,0.10181343,-0.080747925,0.019846467,-0.73274904,-0.68020946,-0.12842242,0.6728394,-0.7285567,,-0.11626835,0.22889638,-0.11978281,0.025908854,-0.88370836,0.4673203,0.7365724,0.33293214,0.58874214,-0.6758623,0.32896158,0.6595411,,-0.06776205,0.4283614,-0.34391287,-0.2814097,-0.18618023,-0.941353,0.75757176,-0.6452225,-0.0988581,-0.58897674,-0.7409621,0.32261676,,0.9980087693360334,0.3774485692277229,0.20152253969000003,2.3864812467973717,-0.9467543068747369,-0.3596442899349859,-0.41440389578266656,,-1.2748224064797367,0.18806399095311527,0.18640520571000002,-2.0260242339474743,-0.8423640210539404,0.6025172377232371,0.8730740334877225,,-0.07621634677302738,-0.03364776631688568,0.09367612488,-0.1102278800231344,,3.4488738e-05,5.364418e-06,-5.9604645e-06,0.99999994,-2.887845e-05,-2.6665628e-05,2.887845e-05,1.0,-5.096197e-06,2.668053e-05,5.066395e-06,1.0,819,2.513,0,0,0.0,False,-0.257435349164302,1.04748721892599
2.480795440962538,16:51:16.721626,16:49:58.916704,0,,0.1205087,0.0041008294,0.017036274,-0.09941155,0.8705061,-0.48201287,0.071104705,0.48938882,0.8691621,0.99250257,0.052131325,-0.11054808,,0.059759293,0.017937435,0.027151942,0.14453943,0.31481433,0.9380833,0.036590457,-0.9490908,0.31287047,0.9888223,-0.01089713,-0.14870024,,0.08279348,1.2879208,0.4254347,0.99152094,0.10181343,-0.080747925,0.019846467,-0.73274904,-0.68020946,-0.12842242,0.6728394,-0.7285567,,-0.11588457,0.22892238,-0.11956231,0.02736583,-0.88053644,0.47318783,0.7373628,0.33739516,0.5852014,-0.6749424,0.3328966,0.6585079,,-0.06774703,0.42838976,-0.3439263,-0.28093848,-0.18687764,-0.9413556,0.7579337,-0.6449021,-0.09817219,-0.58873606,-0.74106544,0.32281867,,0.9998313342943503,0.3767535232690427,0.20174290899000002,2.3812389982102586,-0.9447047593782553,-0.3616422734509945,-0.41440389578266623,,-1.274830129212611,0.18815666374760595,0.18637927991000003,-2.027072683664897,-0.8423640210539404,0.6027622739436588,0.8729106894215883,,-0.07621634677302738,-0.03364776631688568,0.09367612488,-0.1102278800231344,,3.4488738e-05,5.364418e-06,-5.9604645e-06,0.99999994,-2.887845e-05,-2.6665628e-05,2.887845e-05,1.0,-5.096197e-06,2.668053e-05,5.066395e-06,1.0,827,2.538,0,0,0.0,False,-0.25779281547542787,1.047728619929887
2.552300445968285,16:51:16.744619,16:49:58.916704,0,,0.12033996,0.0041710883,0.01693143,-0.10021088,0.86923534,-0.48413593,0.07093221,0.49158853,0.86793387,0.9924345,0.052635565,-0.110919386,,0.059752114,0.017940624,0.02716273,0.14455391,0.31476173,0.9380986,0.036549628,-0.94910777,0.31282356,0.9888217,-0.010932684,-0.14870168,,0.08279348,1.2879208,0.4254347,0.99152094,0.10181343,-0.080747925,0.019846467,-0.73274904,-0.68020946,-0.12842242,0.6728394,-0.7285567,,-0.11571007,0.22891203,-0.11944465,0.02817091,-0.87934387,0.4753533,0.7372402,0.3394162,0.5841862,-0.67504317,0.33399248,0.6578493,,-0.06774183,0.4284013,-0.3439304,-0.28094742,-0.18681897,-0.9413645,0.75790566,-0.6449301,-0.098204724,-0.5887679,-0.74105585,0.3227826,,1.0005649939174017,0.37635966389245723,0.20186994541000003,2.3785130289449596,-0.9445681228784898,-0.3616720126145504,-0.4148939279810695,,-1.274830129212611,0.18821072287772553,0.18637020588000003,-2.027072683664897,-0.8423640210539404,0.6028439526837993,0.8730740334877225,,-0.07621634677302738,-0.03364776631688568,0.09367612488,-0.1102278800231344,,3.4488738e-05,5.364418e-06,-5.9604645e-06,0.99999994,-2.887845e-05,-2.6665628e-05,2.887845e-05,1.0,-5.096197e-06,2.668053e-05,5.066395e-06,1.0,835,2.562,0,0,0.0,False,-0.2568991496976123,1.0480183011345638
