AlexandreBanks6/ExpertPlaybackApp/resources/Motions/P_19/PC1/Data_PC1_9.csv
Task Time,PC1 Time,PC2 Time,Gaze Calib,s_T_psm1,Tx,Ty,Tz,R00,R01,R02,R10,R11,R12,R20,R21,R22,s_T_psm3,Tx,Ty,Tz,R00,R01,R02,R10,R11,R12,R20,R21,R22,cart_T_ecm,Tx,Ty,Tz,R00,R01,R02,R10,R11,R12,R20,R21,R22,ecm_T_psm1,Tx,Ty,Tz,R00,R01,R02,R10,R11,R12,R20,R21,R22,ecm_T_psm3,Tx,Ty,Tz,R00,R01,R02,R10,R11,R12,R20,R21,R22,psm1_joints,q1,q2,q3,q4,q5,q6,jaw,psm3_joints,q1,q2,q3,q4,q5,q6,jaw,ecm_joints,q1,q2,q3,q4,ecmi_T_ecm,Tx,Ty,Tz,R00,R01,R02,R10,R11,R12,R20,R21,R22,Sample #,Task Duration (s),Collisions (binary),Collisions (increments),Cumulative Collision Time (s),Clutch Press,MTMR Angle,MTML Angle
""
lci_T_si,,,,,-0.05352222,0.052262206,0.18758368,0.9852688,0.08240888,0.14984752,0.16226129,-0.7272103,-0.6669606,0.054007176,0.6814499,-0.72986937
rci_T_si,,,,,-0.062090434,0.054590147,0.19598114,0.98279583,0.06324867,0.17352791,0.16653219,-0.70975983,-0.68447644,0.079870924,0.7015986,-0.70808196
ecm_T_lc,,,,,-4.4061628e-05,-0.00034663224,-0.01840835,-0.99912,0.030754527,0.028518902,-0.031987965,-0.99852574,-0.043852776,0.027128186,-0.04472645,0.9986309
ecm_T_rc,,,,,-0.0043358393,0.01870579,-0.007592615,-0.99555075,-0.052743673,-0.078081585,0.04863213,-0.9973746,0.053654674,-0.08070653,0.04961868,0.9955021
cart_T_ecmi,,,,,0.08275826,1.28792,0.42543122,0.99152017,0.10184248,-0.08072096,0.019885775,-0.73274505,-0.6802127,-0.12842242,0.6728394,-0.7285567
ecmac_T_ecmrep_psm1,,,,,0.022898523,-0.26913688,-0.29720387,0.9902475,0.13300471,0.041468147,-0.1315095,0.99062705,-0.036922794,-0.045990374,0.031109251,0.9984574
ecmac_T_ecmrep_psm3,,,,,0.02078248,-0.4666591,-0.5231304,0.997355,0.0035024614,0.07259993,-0.011652398,0.993624,0.11214125,-0.07174426,-0.1126906,0.99103665
""
0,16:56:53.974632,16:55:36.235965,0,,0.1108226,0.00034262985,0.030989036,-0.0072142296,0.8353644,-0.5496491,-0.17256272,0.54037726,0.82353795,0.98497206,0.10079016,0.14025435,,0.06226513,0.018217381,0.023652792,0.32509223,0.06826247,0.94321537,-0.04830101,-0.99489105,0.08864988,0.9444481,-0.074377716,-0.32013422,,0.08281867,1.2879161,0.4254345,0.9915214,0.10179569,-0.0807644,0.019822462,-0.73275155,-0.68020755,-0.12842242,0.6728394,-0.7285567,,-0.107172206,0.2363401,-0.13264829,-0.059739415,-0.8498364,0.52364993,0.5495718,0.4099235,0.72796535,-0.83330786,0.33127147,0.44255754,,-0.06979255,0.42539135,-0.34157097,-0.44148847,0.069793984,-0.89454836,0.638512,-0.6759992,-0.36786875,-0.63038903,-0.73358965,0.25388157,,1.0579217309742672,0.36031182497981873,0.19022666863,2.3780936490579907,-1.1752105344825532,-0.4155310194713364,-0.41130035852611524,,-1.2768457624927836,0.1868129082274909,0.18967574538,-1.7433621901303356,-0.7747289536700473,0.6263487171094323,0.8748708182151996,,-0.07621634677302738,-0.033641221332190704,0.09367612488,-0.1102278800231344,,5.9392303e-05,1.1205673e-05,-4.529953e-06,0.99999994,-4.6521425e-05,-4.2960048e-05,4.6521425e-05,1.0000001,-8.165836e-06,4.297495e-05,8.195639e-06,1.0,37,0.11,0,0,0.0,False,-0.25308617571226666,1.050335750771978
0.12390662799589336,16:56:54.003342,16:55:36.312474,0,,0.1109848,0.00020519644,0.030661479,-0.010286838,0.8354358,-0.54949164,-0.17465544,0.53957236,0.8236245,0.9845758,0.104444176,0.14036289,,0.062266253,0.018217739,0.023653448,0.3250856,0.06833866,0.94321215,-0.04830444,-0.9948837,0.08873088,0.9444502,-0.074406505,-0.32012132,,0.08281867,1.2879161,0.4254345,0.9915214,0.10179569,-0.0807644,0.019822462,-0.73275155,-0.68020755,-0.12842242,0.6728394,-0.7285567,,-0.107308276,0.23600602,-0.13249877,-0.05660991,-0.850153,0.52348363,0.5479703,0.4118366,0.72809285,-0.83458006,0.32807076,0.44254458,,-0.06979379,0.4253919,-0.34157112,-0.44148183,0.0697221,-0.89455724,0.6385128,-0.6760311,-0.36780888,-0.6303929,-0.7335671,0.253937,,1.0557902567009811,0.35968628361700655,0.19043407503,2.3724320205839082,-1.1786264469766894,-0.40980513723386547,-0.4122804229229211,,-1.2768534852256577,0.1868129082274909,0.18967574538,-1.7433621901303356,-0.7747289536700473,0.6262670383692918,0.8750341622813339,,-0.07621634677302738,-0.033641221332190704,0.09367612488,-0.1102278800231344,,5.9392303e-05,1.1205673e-05,-4.529953e-06,0.99999994,-4.6521425e-05,-4.2960048e-05,4.6521425e-05,1.0000001,-8.165836e-06,4.297495e-05,8.195639e-06,1.0,45,0.135,0,0,0.0,False,-0.2539202637715605,1.0499012289649627
0.15262769791297615,16:56:54.033164,16:55:36.312474,0,,0.11121704,2.4452806e-05,0.03021343,-0.012945227,0.8348388,-0.55034226,-0.17445889,0.54006076,0.82334596,0.9845793,0.10667053,0.13865381,,0.062264953,0.018219318,0.023656666,0.3249912,0.06821448,0.9432536,-0.04840368,-0.9948883,0.08862568,0.94447756,-0.07445964,-0.32002813,,0.08281867,1.2879161,0.4254345,0.9915214,0.10179569,-0.0807644,0.019822462,-0.73275155,-0.68020755,-0.12842242,0.6728394,-0.7285567,,-0.10750486,0.23555365,-0.13228884,-0.05396238,-0.8497244,0.5244583,0.5482793,0.4137525,0.7267728,-0.8345525,0.326768,0.4435592,,-0.06979315,0.42539555,-0.34157184,-0.44138017,0.06985189,-0.89459723,0.638491,-0.6760518,-0.3678088,-0.6304862,-0.73353577,0.25379604,,1.0530718547292541,0.35877500113784805,0.19069851819000003,2.369496361375125,-1.18040272147364,-0.4077032745646876,-0.4122804229229209,,-1.2768534852256577,0.18682835369323933,0.18967444909000003,-1.7433621901303356,-0.7748655901698127,0.626378456272988,0.8750341622813339,,-0.07621634677302738,-0.033641221332190704,0.09367612488,-0.1102278800231344,,5.9392303e-05,1.1205673e-05,-4.529953e-06,0.99999994,-4.6521425e-05,-4.2960048e-05,4.6521425e-05,1.0000001,-8.165836e-06,4.297495e-05,8.195639e-06,1.0,56,0.168,0,0,0.0,False,-0.2538011083345184,1.049804668563404
0.1824182840064168,16:56:54.063207,16:55:36.312474,0,,0.11135091,-0.00016091764,0.029828295,-0.01861747,0.8323292,-0.5539688,-0.17681685,0.5425909,0.8211765,0.9840676,0.11323927,0.13706815,,0.062262975,0.018222716,0.023658037,0.32499802,0.0682249,0.94325054,-0.048418373,-0.99488616,0.08864218,0.9444744,-0.07447922,-0.32003272,,0.08281867,1.2879161,0.4254345,0.9915214,0.10179569,-0.0807644,0.019822462,-0.73275155,-0.68020755,-0.12842242,0.6728394,-0.7285567,,-0.10760774,0.23514707,-0.1321316,-0.048227314,-0.847733,0.52822614,0.5465663,0.42024243,0.72433525,-0.83602595,0.32364333,0.44307512,,-0.06979182,0.4253991,-0.34157005,-0.44138458,0.069844045,-0.8945957,0.63847834,-0.67606753,-0.3678017,-0.63049585,-0.733522,0.25381187,,1.0506005802095022,0.35796411418605445,0.1909305541,2.3571246547095384,-1.1839552704675413,-0.4002323996207092,-0.41195373479065234,,-1.2768534852256577,0.18685152189186202,0.18967444909000003,-1.7433621901303356,-0.7748655901698127,0.626378456272988,0.8750341622813339,,-0.07621634677302738,-0.033641221332190704,0.09367612488,-0.1102278800231344,,5.9392303e-05,1.1205673e-05,-4.529953e-06,0.99999994,-4.6521425e-05,-4.2960048e-05,4.6521425e-05,1.0000001,-8.165836e-06,4.297495e-05,8.195639e-06,1.0,64,0.192,0,0,0.0,False,-0.2532649088678296,1.0502391903704191
0.21246827393770218,16:56:54.087216,16:55:36.312474,0,,0.11150351,-0.0003021285,0.029421404,-0.02206564,0.8326254,-0.5533967,-0.17785966,0.5414323,0.8217159,0.98380846,0.116558686,0.13614342,,0.0622578,0.018228289,0.023657978,0.32502264,0.06824397,0.9432407,-0.048435867,-0.9948827,0.088670306,0.94446516,-0.07450664,-0.32005396,,0.08281867,1.2879161,0.4254345,0.9915214,0.10179569,-0.0807644,0.019822462,-0.73275155,-0.68020755,-0.12842242,0.6728394,-0.7285567,,-0.10772852,0.2347565,-0.13192749,-0.044751547,-0.8482438,0.5277118,0.54584414,0.4216557,0.72405845,-0.8366908,0.32045114,0.44413915,,-0.06978744,0.4254034,-0.34156558,-0.44140524,0.06982861,-0.89458674,0.6384559,-0.6760901,-0.36779913,-0.63050413,-0.7335026,0.25384724,,1.0483532649431029,0.3571609499671351,0.19119629355,2.350624266461518,-1.1864147274633194,-0.39316279546545874,-0.412933799187458,,-1.2768380397599093,0.18689013555623313,0.18967574538,-1.7433621901303356,-0.7748655901698127,0.626378456272988,0.8750341622813339,,-0.07621634677302738,-0.033641221332190704,0.09367612488,-0.1102278800231344,,5.9392303e-05,1.1205673e-05,-4.529953e-06,0.99999994,-4.6521425e-05,-4.2960048e-05,4.6521425e-05,1.0000001,-8.165836e-06,4.297495e-05,8.195639e-06,1.0,72,0.217,0,0,0.0,False,-0.25356279746043464,1.0499012289649627
0.23649374791420996,16:56:54.116052,16:55:36.312474,0,,0.11163661,-0.00045734644,0.02901338,-0.024705425,0.8324946,-0.553482,-0.18208435,0.5406426,0.8213104,0.98297244,0.12107119,0.13822734,,0.062256046,0.018232193,0.023658156,0.324936,0.06842874,0.9432571,-0.04833266,-0.9948742,0.088823,0.9445002,-0.07445204,-0.31996313,,0.08281867,1.2879161,0.4254345,0.9915214,0.10179569,-0.0807644,0.019822462,-0.73275155,-0.68020755,-0.12842242,0.6728394,-0.7285567,,-0.107829526,0.2343562,-0.13173297,-0.04198477,-0.84842,0.5276559,0.5423666,0.42418015,0.72519624,-0.8390922,0.31663015,0.44234562,,-0.06978624,0.42540625,-0.3415626,-0.44133806,0.06963856,-0.89463466,0.6385619,-0.67607707,-0.36763912,-0.6304438,-0.7335327,0.25391,,1.0461213951424522,0.3561956083578571,0.19148536622,2.3441238782134977,-1.1922900969532333,-0.38673825080370117,-0.4132604873197263,,-1.2768380397599093,0.18690558102198157,0.18967704167000002,-1.74357188007382,-0.7748655901698127,0.626378456272988,0.8750341622813339,,-0.07621634677302738,-0.033641221332190704,0.09367612488,-0.1102278800231344,,5.9392303e-05,1.1205673e-05,-4.529953e-06,0.99999994,-4.6521425e-05,-4.2960048e-05,4.6521425e-05,1.0000001,-8.165836e-06,4.297495e-05,8.195639e-06,1.0,83,0.25,0,0,0.0,False,-0.2544564632382502,1.049514987358727
0.2653318610973656,16:56:54.146266,16:55:36.429498,0,,0.11178869,-0.0006397739,0.028613284,-0.02709372,0.8313196,-0.555134,-0.18077186,0.54210734,0.82063466,0.98315173,0.12258665,0.13559142,,0.06225469,0.018240388,0.023661375,0.32493648,0.06844787,0.94325554,-0.04836884,-0.9948695,0.08885552,0.9444982,-0.07449663,-0.3199587,,0.08281867,1.2879161,0.4254345,0.9915214,0.10179569,-0.0807644,0.019822462,-0.73275155,-0.68020755,-0.12842242,0.6728394,-0.7285567,,-0.10794953,0.2339404,-0.13156213,-0.039638825,-0.84738165,0.52950275,0.5435897,0.42635396,0.72300243,-0.83841455,0.31649122,0.4437278,,-0.06978639,0.42541394,-0.34155813,-0.44133365,0.069625214,-0.8946379,0.63853824,-0.6761122,-0.3676156,-0.6304709,-0.7335016,0.2539327,,1.0439435844719207,0.355160762152711,0.19170703181,2.3409785290612297,-1.1927000064525297,-0.38542385221092545,-0.412933799187458,,-1.2768534852256577,0.18695191741922693,0.18967833796000003,-1.74357188007382,-0.7748655901698127,0.626378456272988,0.8750341622813339,,-0.07621634677302738,-0.033641221332190704,0.09367612488,-0.1102278800231344,,5.9392303e-05,1.1205673e-05,-4.529953e-06,0.99999994,-4.6521425e-05,-4.2960048e-05,4.6521425e-05,1.0000001,-8.165836e-06,4.297495e-05,8.195639e-06,1.0,91,0.274,0,0,0.0,False,-0.2536223751789555,1.050046069567301
0.2955528220627457,16:56:54.174909,16:55:36.429498,0,,0.11180401,-0.00077940524,0.028419599,-0.031284798,0.82884395,-0.55860436,-0.18160295,0.5448621,0.81862426,0.98287416,0.12705466,0.13347453,,0.06225289,0.018247094,0.023663402,0.3249413,0.068464406,0.9432527,-0.048396707,-0.99486566,0.08888275,0.9444951,-0.07453203,-0.31995952,,0.08281867,1.2879161,0.4254345,0.9915214,0.10179569,-0.0807644,0.019822462,-0.73275155,-0.68020755,-0.12842242,0.6728394,-0.7285567,,-0.10794859,0.23370543,-0.13151702,-0.03542458,-0.8452789,0.5331497,0.5430545,0.43156642,0.720307,-0.83894986,0.31504595,0.4437445,,-0.069785744,0.4254199,-0.3415541,-0.4413344,0.0696133,-0.8946384,0.638518,-0.67614025,-0.36759913,-0.63049084,-0.7334769,0.25395462,,1.0427156699449192,0.3545583889885215,0.19179777211000001,2.330703721830488,-1.1939297349504188,-0.379847081629786,-0.4135871754519951,,-1.276861207958532,0.18699053108359806,0.18967963425,-1.74357188007382,-0.7748655901698127,0.626378456272988,0.8750341622813339,,-0.07621634677302738,-0.033641221332190704,0.09367612488,-0.1102278800231344,,5.9392303e-05,1.1205673e-05,-4.529953e-06,0.99999994,-4.6521425e-05,-4.2960048e-05,4.6521425e-05,1.0000001,-8.165836e-06,4.297495e-05,8.195639e-06,1.0,99,0.299,0,0,0.0,False,-0.25397984149008224,1.0496115477602863
0.3241941640153527,16:56:54.203746,16:55:36.429498,0,,0.11187281,-0.0010092407,0.02810736,-0.035919435,0.83163977,-0.5541525,-0.18336567,0.53961164,0.8217033,0.9823883,0.13112766,0.13311163,,0.062248636,0.018257286,0.023661733,0.3249638,0.068489574,0.9432431,-0.048427463,-0.99486077,0.08892158,0.9444858,-0.074575216,-0.319977,,0.08281867,1.2879161,0.4254345,0.9915214,0.10179569,-0.0807644,0.019822462,-0.73275155,-0.68020755,-0.12842242,0.6728394,-0.7285567,,-0.10799094,0.23332047,-0.13144578,-0.0307367,-0.8482638,0.52868116,0.54172754,0.43037012,0.72202,-0.839992,0.30859363,0.4462997,,-0.069782645,0.42542565,-0.34154508,-0.44135135,0.06959381,-0.89463156,0.6384879,-0.6761752,-0.36758718,-0.6305095,-0.73344654,0.253996,,1.040684591198998,0.3535235427833754,0.19194684546000002,2.319380464882324,-1.1967991014454928,-0.3635402410881249,-0.41375051951812925,,-1.2768534852256577,0.18704459021371764,0.18968481941,-1.74357188007382,-0.7748655901698127,0.626378456272988,0.8750341622813339,,-0.07621634677302738,-0.033641221332190704,0.09367612488,-0.1102278800231344,,5.9392303e-05,1.1205673e-05,-4.529953e-06,0.99999994,-4.6521425e-05,-4.2960048e-05,4.6521425e-05,1.0000001,-8.165836e-06,4.297495e-05,8.195639e-06,1.0,122,0.368,0,0,0.0,False,-0.25320533114930877,1.049804668563404
0.3530308830086142,16:56:54.259075,16:55:36.429498,0,,0.11218721,-0.0012746677,0.027350321,-0.04358022,0.8339225,-0.5501581,-0.18193471,0.5348486,0.82512844,0.9823444,0.13605216,0.12841064,,0.06224384,0.018263455,0.0236606,0.3249884,0.06850861,0.9432333,-0.048444986,-0.9948573,0.08894967,0.9444764,-0.074602574,-0.31999823,,0.08281867,1.2879161,0.4254345,0.9915214,0.10179569,-0.0807644,0.019822462,-0.73275155,-0.68020755,-0.12842242,0.6728394,-0.7285567,,-0.10824603,0.23258999,-0.13106668,-0.023118656,-0.8508061,0.52497095,0.5432089,0.4301425,0.721042,-0.83927923,0.3018384,0.45222113,,-0.06977857,0.42542943,-0.34153944,-0.44137198,0.06957838,-0.8946226,0.63846546,-0.67619777,-0.36758462,-0.6305178,-0.73342717,0.25403136,,1.0363907517209292,0.35224929185912834,0.19241869502000003,2.3055409286123454,-1.1974822839443202,-0.34550390117956253,-0.41293379918745776,,-1.2768380397599093,0.18708320387808874,0.18968741199000003,-1.74357188007382,-0.7748655901698127,0.626378456272988,0.8750341622813339,,-0.07621634677302738,-0.033641221332190704,0.09367612488,-0.1102278800231344,,5.9392303e-05,1.1205673e-05,-4.529953e-06,0.99999994,-4.6521425e-05,-4.2960048e-05,4.6521425e-05,1.0000001,-8.165836e-06,4.297495e-05,8.195639e-06,1.0,130,0.393,0,0,0.0,False,-0.2544564632382502,1.0499012289649627
0.4083335930481553,16:56:54.287310,16:55:36.429498,0,,0.11241613,-0.001328148,0.02709584,-0.044695716,0.8359448,-0.5469905,-0.17995879,0.5318433,0.82750076,0.98265815,0.13542154,0.12666449,,0.062246542,0.01826572,0.023663163,0.3249709,0.06850957,0.9432392,-0.048460156,-0.99485624,0.08895435,0.9444816,-0.07461718,-0.31997937,,0.08281867,1.2879161,0.4254345,0.9915214,0.10179569,-0.0807644,0.019822462,-0.73275155,-0.68020755,-0.12842242,0.6728394,-0.7285567,,-0.10845531,0.23236279,-0.13090982,-0.022063375,-0.85272497,0.521894,0.5449274,0.42740363,0.72137386,-0.8381929,0.30031025,0.45524323,,-0.06978186,0.4254323,-0.3415393,-0.44135356,0.06957929,-0.8946316,0.6384635,-0.6762085,-0.3675683,-0.6305326,-0.7334172,0.2540232,,1.034730364152971,0.35215661906463763,0.19257424982000002,2.3072184481602216,-1.196525828445962,-0.3430983556399557,-0.4135871754519951,,-1.276861207958532,0.18709092661096297,0.18968741199000003,-1.74357188007382,-0.7748655901698127,0.626378456272988,0.8750341622813339,,-0.07621634677302738,-0.033641221332190704,0.09367612488,-0.1102278800231344,,5.9392303e-05,1.1205673e-05,-4.529953e-06,0.99999994,-4.6521425e-05,-4.2960048e-05,4.6521425e-05,1.0000001,-8.165836e-06,4.297495e-05,8.195639e-06,1.0,138,0.417,0,0,0.0,False,-0.25332448658635043,1.049804668563404
0.4365955169778317,16:56:54.316767,16:55:36.618035,0,,0.11296442,-0.0014379546,0.026638106,-0.045434132,0.8397647,-0.54104614,-0.17081445,0.5270983,0.83246017,0.9842551,0.13024063,0.11949566,,0.0622556,0.01825362,0.023658931,0.32634914,0.06600657,0.9429419,-0.050167084,-0.9949436,0.087009296,0.94391716,-0.075700015,-0.32138765,,0.08281867,1.2879161,0.4254345,0.9915214,0.10179569,-0.0807644,0.019822462,-0.73275155,-0.68020755,-0.12842242,0.6728394,-0.7285567,,-0.10896766,0.23193581,-0.13063163,-0.021602059,-0.8560827,0.5163873,0.5527069,0.42017484,0.7197001,-0.83309567,0.30095783,0.46408615,,-0.06978864,0.42541996,-0.34154627,-0.44241357,0.07219668,-0.8939004,0.6367328,-0.6766323,-0.36978376,-0.63153905,-0.73277307,0.2533813,,1.0313014707568153,0.35215661906463763,0.19280758202,2.3177029453344478,-1.1896940034576902,-0.3458921736599976,-0.41326048731972653,,-1.2768534852256577,0.18711409480958566,0.18968741199000003,-1.740426530921552,-0.7748655901698127,0.6262150987927069,0.8756875385458711,,-0.07621634677302738,-0.033641221332190704,0.09367612488,-0.1102278800231344,,5.9392303e-05,1.1205673e-05,-4.529953e-06,0.99999994,-4.6521425e-05,-4.2960048e-05,4.6521425e-05,1.0000001,-8.165836e-06,4.297495e-05,8.195639e-06,1.0,150,0.453,0,0,0.0,False,-0.2538011083345184,1.050046069567301
0.46605232497677207,16:56:54.347367,16:55:36.618035,0,,0.11320089,-0.0014982,0.026398316,-0.047182973,0.8393122,-0.54159826,-0.16966337,0.5275898,0.8323842,0.9843719,0.13116378,0.11750728,,0.06226445,0.01824319,0.02365613,0.32781053,0.064798206,0.9425186,-0.05241099,-0.9948615,0.086625345,0.9432886,-0.07779509,-0.32272995,,0.08281867,1.2879161,0.4254345,0.9915214,0.10179569,-0.0807644,0.019822462,-0.73275155,-0.68020755,-0.12842242,0.6728394,-0.7285567,,-0.109185405,0.2317133,-0.13048978,-0.019886563,-0.8557057,0.51708055,0.5537306,0.42119175,0.71831745,-0.8324584,0.3006082,0.46545437,,-0.06979562,0.4254098,-0.34155285,-0.44347817,0.07365791,-0.8932534,0.63461024,-0.6779735,-0.37097412,-0.6329273,-0.73138666,0.25392237,,1.029502073997121,0.35214889633176344,0.19295924795000002,2.317283565447479,-1.1894207304581592,-0.3461150094673905,-0.41326048731972653,,-1.2768380397599093,0.1871681539397052,0.18968870828,-1.7366521119388307,-0.7751388631693437,0.6240692511360235,0.8755241944797367,,-0.07621634677302738,-0.033641221332190704,0.09367612488,-0.1102278800231344,,5.9392303e-05,1.1205673e-05,-4.529953e-06,0.99999994,-4.6521425e-05,-4.2960048e-05,4.6521425e-05,1.0000001,-8.165836e-06,4.297495e-05,8.195639e-06,1.0,165,0.499,0,0,0.0,False,-0.25427773008268684,1.0499012289649627
0.49663186888210475,16:56:54.396692,16:55:36.618035,0,,0.11384839,-0.0016427189,0.025894776,-0.046733983,0.8439463,-0.53438795,-0.16192326,0.5214968,0.8377483,0.9856961,0.12568112,0.1122829,,0.06228467,0.01822358,0.023670971,0.32867265,0.06207536,0.94240165,-0.057137817,-0.99470294,0.08544777,0.9427139,-0.081931114,-0.32338488,,0.08281867,1.2879161,0.4254345,0.9915214,0.10179569,-0.0807644,0.019822462,-0.73275155,-0.68020755,-0.12842242,0.6728394,-0.7285567,,-0.10979283,0.23122363,-0.13019828,-0.020565264,-0.85983,0.510166,0.5602304,0.41272724,0.7181909,-0.8280815,0.3005803,0.47321507,,-0.069815,0.42540553,-0.34157774,-0.44364494,0.07687452,-0.89289945,0.6311281,-0.680561,-0.37217468,-0.63628334,-0.72864735,0.2534098,,1.0254939756353985,0.35209483720164386,0.19322757998,2.330703721830488,-1.1846384529663687,-0.3500146360967652,-0.41326048731972653,,-1.276822594294161,0.18724538126844747,0.18968741199000003,-1.730780793521264,-0.7774616836653562,0.6212259885707101,0.8755241944797367,,-0.07621634677302738,-0.033641221332190704,0.09367612488,-0.1102278800231344,,5.9392303e-05,1.1205673e-05,-4.529953e-06,0.99999994,-4.6521425e-05,-4.2960048e-05,4.6521425e-05,1.0000001,-8.165836e-06,4.297495e-05,8.195639e-06,1.0,173,0.524,0,0,0.0,False,-0.254218152364166,1.049080465551712
0.5459080750588328,16:56:54.419560,16:55:36.618035,0,,0.114135936,-0.0017330498,0.025616422,-0.04822237,0.84503514,-0.53253186,-0.16108501,0.5195937,0.83909124,0.9857617,0.12624589,0.11106649,,0.062290292,0.018227693,0.023703456,0.326292,0.0641849,0.9430873,-0.05908996,-0.9943559,0.08811816,0.9434204,-0.0844793,-0.32065776,,0.08281867,1.2879161,0.4254345,0.9915214,0.10179569,-0.0807644,0.019822462,-0.73275155,-0.68020755,-0.12842242,0.6728394,-0.7285567,,-0.11005823,0.23094971,-0.13004711,-0.019100353,-0.86092246,0.50837755,0.5609758,0.4116648,0.7182188,-0.8276118,0.29890573,0.4750937,,-0.06982546,0.42543206,-0.34159485,-0.44115308,0.075103655,-0.8942837,0.6309255,-0.68270594,-0.36857253,-0.63821393,-0.7268233,0.253793,,1.023277551300496,0.3519944416742789,0.19340387542,2.331332791660942,-1.185048362465665,-0.34821016506314584,-0.41440389578266634,,-1.276830317027035,0.18728399493281858,0.18968481941,-1.7309904834647487,-0.7806043231599613,0.6185611609867316,0.8748708182151996,,-0.07621634677302738,-0.033641221332190704,0.09367612488,-0.1102278800231344,,5.9392303e-05,1.1205673e-05,-4.529953e-06,0.99999994,-4.6521425e-05,-4.2960048e-05,4.6521425e-05,1.0000001,-8.165836e-06,4.297495e-05,8.195639e-06,1.0,181,0.549,0,0,0.0,False,-0.25451604095677105,1.0496115477602863
0.5688365749083459,16:56:54.438693,16:55:36.750334,0,,0.11437662,-0.0017819479,0.02545096,-0.046475478,0.8488005,-0.5266666,-0.15812916,0.51433694,0.8428836,0.9863241,0.12245478,0.11031601,,0.062290095,0.01822817,0.023712277,0.32570553,0.06463702,0.94325924,-0.059424818,-0.99428844,0.088653,0.94360197,-0.08492774,-0.32000422,,0.08281867,1.2879161,0.4254345,0.9915214,0.10179569,-0.0807644,0.019822462,-0.73275155,-0.68020755,-0.12842242,0.6728394,-0.7285567,,-0.11028565,0.23078606,-0.12995121,-0.020934766,-0.8643154,0.5025143,0.5633997,0.40501943,0.7200973,-0.8259192,0.29819143,0.47847602,,-0.06982653,0.42543915,-0.3415999,-0.44055888,0.07471172,-0.89460945,0.63097036,-0.6830945,-0.36777475,-0.6385799,-0.7264985,0.25380248,,1.0220187458419974,0.3519172143455367,0.19348683798000002,2.3399300793438074,-1.1834087244684797,-0.3493021436870811,-0.413750519518129,,-1.276830317027035,0.1872917176656928,0.18968222683000002,-1.7312001734082332,-0.7812875056587885,0.6181381056235271,0.8755241944797367,,-0.07621634677302738,-0.033641221332190704,0.09367612488,-0.1102278800231344,,5.9392303e-05,1.1205673e-05,-4.529953e-06,0.99999994,-4.6521425e-05,-4.2960048e-05,4.6521425e-05,1.0000001,-8.165836e-06,4.297495e-05,8.195639e-06,1.0,189,0.573,0,0,0.0,False,-0.2545756186752919,1.0495632675595068
0.5879546198993921,16:56:54.469402,16:55:36.750334,0,,0.114689596,-0.0018443838,0.02525559,-0.044619873,0.8514302,-0.52256644,-0.15134853,0.5112883,0.8459774,0.9874729,0.116836995,0.10604897,,0.062295098,0.018246397,0.023717284,0.3256933,0.064662285,0.9432616,-0.059452564,-0.9942837,0.08868793,0.94360447,-0.084964335,-0.31998718,,0.082772896,1.2879199,0.42542955,0.9915205,0.10182894,-0.08073352,0.019867461,-0.7327469,-0.6802112,-0.12842242,0.6728394,-0.7285567,,-0.11054179,0.23059556,-0.12984672,-0.022980595,-0.86650735,0.49863508,0.56899995,0.39876637,0.71918315,-0.8220164,0.3002506,0.48387873,,-0.0697934,0.42546368,-0.34159312,-0.440545,0.074736,-0.8946142,0.6309468,-0.68311787,-0.36777186,-0.63861275,-0.72647405,0.2537897,,1.0205668720616432,0.35185543248254286,0.19356461538000003,2.351043646348487,-1.1780799009776277,-0.3548726230333499,-0.41391386358426385,,-1.2768457624927836,0.1872917176656928,0.18967704167000002,-1.7312001734082332,-0.7812875056587885,0.6181381056235271,0.8755241944797367,,-0.07621634677302738,-0.033641221332190704,0.09367612488,-0.1102278800231344,,1.4729798e-05,4.172325e-07,1.1920929e-07,0.99999994,-1.3463199e-05,-1.2427568e-05,1.3448298e-05,1.0,-2.3841858e-06,1.2427568e-05,2.3543835e-06,1.0,197,0.597,0,0,0.0,False,-0.2529074425567037,1.0498529487641832
0.6186434859409928,16:56:54.488337,16:55:36.750334,0,,0.114819385,-0.0018770844,0.025157869,-0.044365387,0.8522639,-0.52122736,-0.15167734,0.5099462,0.84672827,0.9874339,0.11662376,0.10664499,,0.062295496,0.018244758,0.023722291,0.32558677,0.06453062,0.94330746,-0.059544623,-0.9942886,0.08857026,0.94363534,-0.08500612,-0.31988478,,0.082772896,1.2879199,0.42542955,0.9915205,0.10182894,-0.08073352,0.019867461,-0.7327469,-0.6802112,-0.12842242,0.6728394,-0.7285567,,-0.11066371,0.2304969,-0.1297932,-0.023225801,-0.86729985,0.49724397,0.5687188,0.39759436,0.7200539,-0.82220405,0.2995158,0.48401526,,-0.06979427,0.42546648,-0.34159756,-0.4404328,0.07487167,-0.89465815,0.63093436,-0.68312865,-0.3677731,-0.6387024,-0.7264499,0.25363317,,1.0197173714454786,0.3518322642839202,0.19363072617000002,2.3531405457833325,-1.1790363564759856,-0.3551545213293025,-0.4127704551213238,,-1.2768534852256577,0.1872917176656928,0.18967315280000002,-1.7312001734082332,-0.7814241421585539,0.6182495235272236,0.8755241944797367,,-0.07621634677302738,-0.033641221332190704,0.09367612488,-0.1102278800231344,,1.4729798e-05,4.172325e-07,1.1920929e-07,0.99999994,-1.3463199e-05,-1.2427568e-05,1.3448298e-05,1.0,-2.3841858e-06,1.2427568e-05,2.3543835e-06,1.0,212,0.643,0,0,0.0,False,-0.2537415306159976,1.049418426957168
0.637611425947398,16:56:54.537957,16:55:36.750334,0,,0.11506094,-0.0018731877,0.02492112,-0.044173766,0.85380125,-0.5187216,-0.14938712,0.5077454,0.84845626,0.9877916,0.11496976,0.10511777,,0.062299352,0.01824148,0.023723304,0.32556662,0.064518735,0.9433152,-0.059536874,-0.9942906,0.08855318,0.9436428,-0.08499196,-0.3198666,,0.082772896,1.2879199,0.42542955,0.9915205,0.10182894,-0.08073352,0.019867461,-0.7327469,-0.6802112,-0.12842242,0.6728394,-0.7285567,,-0.110887855,0.2303227,-0.12960924,-0.023482911,-0.86867654,0.49482283,0.570615,0.3947688,0.72010845,-0.8208819,0.29926357,0.48640952,,-0.06979777,0.42546454,-0.3416008,-0.440415,0.07488167,-0.8946661,0.6309486,-0.68311673,-0.3677709,-0.63870066,-0.7264601,0.25360838,,1.018288665863747,0.3519403825441594,0.19380961419,2.3577537245399918,-1.177669991478331,-0.3565137365866883,-0.41326048731972653,,-1.2768689306914063,0.18726854946707014,0.18967185651000001,-1.7312001734082332,-0.7814241421585539,0.6182495235272236,0.8755241944797367,,-0.07621634677302738,-0.033641221332190704,0.09367612488,-0.1102278800231344,,1.4729798e-05,4.172325e-07,1.1920929e-07,0.99999994,-1.3463199e-05,-1.2427568e-05,1.3448298e-05,1.0,-2.3841858e-06,1.2427568e-05,2.3543835e-06,1.0,220,0.667,0,0,0.0,False,-0.2536223751789555,1.049514987358727
0.6872432238887995,16:56:54.558594,16:55:36.750334,0,,0.11519531,-0.00185664,0.024812996,-0.044461176,0.85409343,-0.5182158,-0.14664352,0.50753015,0.84906346,0.9881897,0.113743305,0.1026817,,0.062301867,0.018240437,0.023725271,0.32555112,0.06451374,0.94332093,-0.05953884,-0.994291,0.088547125,0.943648,-0.08499077,-0.31985146,,0.082772896,1.2879199,0.42542955,0.9915205,0.10182894,-0.08073352,0.019867461,-0.7327469,-0.6802112,-0.12842242,0.6728394,-0.7285567,,-0.11101448,0.23025239,-0.12951414,-0.023273183,-0.868877,0.49448067,0.5728977,0.39375466,0.71885014,-0.8192964,0.30001676,0.4886137,,-0.069800384,0.42546496,-0.3416029,-0.4404002,0.07488648,-0.89467293,0.63095427,-0.6831152,-0.367764,-0.6387052,-0.72646105,0.25359413,,1.0175936199050668,0.3521411735988892,0.19388350272000002,2.3600603139183214,-1.1752105344825532,-0.35819254389266164,-0.41391386358426363,,-1.2768843761571547,0.18726082673419592,0.18967056022,-1.7312001734082332,-0.7814241421585539,0.6182495235272236,0.8755241944797367,,-0.07621634677302738,-0.033641221332190704,0.09367612488,-0.1102278800231344,,1.4729798e-05,4.172325e-07,1.1920929e-07,0.99999994,-1.3463199e-05,-1.2427568e-05,1.3448298e-05,1.0,-2.3841858e-06,1.2427568e-05,2.3543835e-06,1.0,224,0.68,0,0,0.0,False,-0.25493308498641865,1.049804668563404
0.7078678659163415,16:56:54.583975,16:55:36.750334,0,,0.11546409,-0.001792714,0.024636745,-0.04369864,0.8568573,-0.5136983,-0.13969931,0.5038967,0.85239196,0.9892292,0.10901162,0.097682685,,0.06230417,0.018242761,0.023726583,0.3256335,0.06464575,0.9432834,-0.05946541,-0.9942846,0.08866921,0.94362426,-0.0849663,-0.31992823,,0.082772896,1.2879199,0.42542955,0.9915205,0.10182894,-0.08073352,0.019867461,-0.7327469,-0.6802112,-0.12842242,0.6728394,-0.7285567,,-0.11127115,0.23016158,-0.1293318,-0.02423061,-0.87123287,0.4902715,0.5786052,0.38770574,0.71756554,-0.8152478,0.30106068,0.49470547,,-0.069803126,0.425467,-0.34160194,-0.44048733,0.07475263,-0.8946412,0.63096535,-0.68311685,-0.36774185,-0.6386342,-0.7264733,0.25373802,,1.0165124373026753,0.3526585967014622,0.19400276140000003,2.3682382217142184,-1.1687886189935777,-0.3608154656818955,-0.41391386358426363,,-1.2769075443557774,0.18726854946707014,0.18967056022,-1.7312001734082332,-0.7812875056587885,0.6181381056235271,0.8755241944797367,,-0.07621634677302738,-0.033641221332190704,0.09367612488,-0.1102278800231344,,1.4729798e-05,4.172325e-07,1.1920929e-07,0.99999994,-1.3463199e-05,-1.2427568e-05,1.3448298e-05,1.0,-2.3841858e-06,1.2427568e-05,2.3543835e-06,1.0,236,0.716,0,0,0.0,False,-0.25308617571226666,1.049708108161845
0.7332589090801775,16:56:54.611713,16:55:36.750334,0,,0.115743265,-0.0017006993,0.024510533,-0.04263316,0.8608795,-0.5070196,-0.13379633,0.49799025,0.85679877,0.9900913,0.10436536,0.09395149,,0.06231136,0.018246546,0.023731947,0.32558966,0.0646438,0.9432987,-0.059494346,-0.9942824,0.08867277,0.94363755,-0.08499181,-0.31988215,,0.082772896,1.2879199,0.42542955,0.9915205,0.10182894,-0.08073352,0.019867461,-0.7327469,-0.6802112,-0.12842242,0.6728394,-0.7285567,,-0.11154223,0.23012473,-0.12916598,-0.0254591,-0.87480944,0.48379776,0.5834164,0.379987,0.7177988,-0.8117741,0.30053005,0.50070405,,-0.06981139,0.42547208,-0.3416024,-0.44044232,0.07475775,-0.894663,0.6309661,-0.6831349,-0.36770698,-0.6386644,-0.72645575,0.2537119,,1.0155470956933972,0.35341542452313623,0.19410257573000003,2.376625819453599,-1.1631865225031945,-0.3611363052461395,-0.4142405517165322,,-1.2769616034858968,0.18727627219994436,0.18967056022,-1.7312001734082332,-0.7812875056587885,0.6181381056235271,0.8755241944797367,,-0.07621634677302738,-0.033641221332190704,0.09367612488,-0.1102278800231344,,1.4729798e-05,4.172325e-07,1.1920929e-07,0.99999994,-1.3463199e-05,-1.2427568e-05,1.3448298e-05,1.0,-2.3841858e-06,1.2427568e-05,2.3543835e-06,1.0,244,0.74,0,0,0.0,False,-0.254218152364166,1.0499495091657423
0.7609418688807636,16:56:54.638089,16:55:36.932964,0,,0.11592137,-0.0016123429,0.0243963,-0.04267122,0.8610768,-0.50668126,-0.1280703,0.49824488,0.85752547,0.9908467,0.10148245,0.08901757,,0.062313966,0.018247947,0.023732305,0.32557645,0.06464225,0.94330335,-0.05950117,-0.9942821,0.08867221,0.94364166,-0.08499718,-0.31986856,,0.082772896,1.2879199,0.42542955,0.9915205,0.10182894,-0.08073352,0.019867461,-0.7327469,-0.6802112,-0.12842242,0.6728394,-0.7285567,,-0.11171331,0.2300997,-0.12901537,-0.025576299,-0.87480587,0.483798,0.58809406,0.37818572,0.71492726,-0.80838805,0.3028039,0.50479555,,-0.06981418,0.4254727,-0.34160155,-0.44042903,0.07475995,-0.89466935,0.6309676,-0.68313855,-0.36769772,-0.6386722,-0.7264521,0.25370294,,1.014952445262082,0.3540023522215773,0.19419331603,2.3810293082667737,-1.1574477895130462,-0.3651624272802645,-0.41391386358426363,,-1.2769770489516454,0.18727627219994436,0.18967185651000001,-1.7312001734082332,-0.7812875056587885,0.6181381056235271,0.8755241944797367,,-0.07621634677302738,-0.033641221332190704,0.09367612488,-0.1102278800231344,,1.4729798e-05,4.172325e-07,1.1920929e-07,0.99999994,-1.3463199e-05,-1.2427568e-05,1.3448298e-05,1.0,-2.3841858e-06,1.2427568e-05,2.3543835e-06,1.0,255,0.774,0,0,0.0,False,-0.2533840643048717,1.0499977893665218
0.7873574739787728,16:56:54.670630,16:55:36.932964,0,,0.11620291,-0.0014138892,0.024220824,-0.041576788,0.86440843,-0.5010683,-0.12403679,0.49315688,0.8610523,0.9914062,0.09795065,0.08671442,,0.062315095,0.018248305,0.0237329,0.32556984,0.064641476,0.94330573,-0.059504658,-0.9942819,0.088671945,0.9436438,-0.08499992,-0.31986177,,0.082772896,1.2879199,0.42542955,0.9915205,0.10182894,-0.08073352,0.019867461,-0.7327469,-0.6802112,-0.12842242,0.6728394,-0.7285567,,-0.111985154,0.23010631,-0.1287406,-0.026779024,-0.8777874,0.4783013,0.5913387,0.37186706,0.7155651,-0.80597854,0.3020002,0.50911146,,-0.06981543,0.42547324,-0.3416017,-0.4404224,0.07476106,-0.8946725,0.63096833,-0.6831404,-0.36769307,-0.63867605,-0.72645026,0.25369847,,1.014133835577414,0.3550835348239687,0.19440590759,2.388578146232217,-1.1533486945200828,-0.3659729234467999,-0.41309714325359237,,-1.2769847716845195,0.18727627219994436,0.18967185651000001,-1.7312001734082332,-0.7812875056587885,0.6181381056235271,0.8755241944797367,,-0.07621634677302738,-0.033641221332190704,0.09367612488,-0.1102278800231344,,1.4729798e-05,4.172325e-07,1.1920929e-07,0.99999994,-1.3463199e-05,-1.2427568e-05,1.3448298e-05,1.0,-2.3841858e-06,1.2427568e-05,2.3543835e-06,1.0,263,0.798,0,0,0.0,False,-0.2552905512975445,1.0495632675595068
0.819916496053338,16:56:54.689431,16:55:36.932964,0,,0.116360635,-0.0012807325,0.024129957,-0.043567304,0.865434,-0.499125,-0.12174392,0.491277,0.8624531,0.991605,0.098340124,0.08395755,,0.062336728,0.018215671,0.023720324,0.3284354,0.059691668,0.9426383,-0.06312147,-0.9943829,0.084961176,0.94241494,-0.08740485,-0.32282275,,0.082772896,1.2879199,0.42542955,0.9915205,0.10182894,-0.08073352,0.019867461,-0.7327469,-0.6802112,-0.12842242,0.6728394,-0.7285567,,-0.112138346,0.23013103,-0.12857695,-0.02484862,-0.8788046,0.4765343,0.5932627,0.37070534,0.7145747,-0.8046254,0.30046618,0.51215047,,-0.069830805,0.4254396,-0.34161976,-0.44260997,0.0799637,-0.89314175,0.6272861,-0.6841377,-0.37211254,-0.6407875,-0.72495615,0.25264606,,1.0135546306118473,0.35597937183737877,0.19452646256000003,2.387110316627825,-1.1504793280250085,-0.3627585450948664,-0.41440389578266634,,-1.2769616034858968,0.18728399493281858,0.18967185651000001,-1.7244900952167281,-0.7812875056587885,0.6173213182221216,0.875034162281334,,-0.07621634677302738,-0.033641221332190704,0.09367612488,-0.1102278800231344,,1.4729798e-05,4.172325e-07,1.1920929e-07,0.99999994,-1.3463199e-05,-1.2427568e-05,1.3448298e-05,1.0,-2.3841858e-06,1.2427568e-05,2.3543835e-06,1.0,271,0.823,0,0,0.0,False,-0.2541585746456452,1.0496115477602863
0.8386891710106283,16:56:54.719097,16:55:36.932964,0,,0.116633974,-0.0010395125,0.023945361,-0.046051245,0.86657906,-0.49691045,-0.11279678,0.4897459,0.86453784,0.99255025,0.095862925,0.07519382,,0.06233654,0.01821436,0.02371943,0.32862127,0.061108377,0.9424827,-0.063349694,-0.99423116,0.08655212,0.94233483,-0.08814874,-0.32285428,,0.082772896,1.2879199,0.42542955,0.9915205,0.10182894,-0.08073352,0.019867461,-0.7327469,-0.6802112,-0.12842242,0.6728394,-0.7285567,,-0.11240212,0.23016295,-0.12826648,-0.022597084,-0.87974346,0.47491142,0.6005604,0.3678266,0.7099512,-0.79925996,0.30125585,0.5200273,,-0.069830336,0.42543814,-0.3416202,-0.4427526,0.07865344,-0.8931874,0.6270508,-0.6848818,-0.371139,-0.6409192,-0.72439665,0.2539135,,1.0127437436600537,0.35746213654922987,0.19472479493000003,2.3883684562887324,-1.140641500041897,-0.36220436644624965,-0.41391386358426385,,-1.2769538807530227,0.1872917176656928,0.18967185651000001,-1.7240707153297594,-0.7812875056587885,0.6154427071988886,0.8756875385458711,,-0.07621634677302738,-0.033641221332190704,0.09367612488,-0.1102278800231344,,1.4729798e-05,4.172325e-07,1.1920929e-07,0.99999994,-1.3463199e-05,-1.2427568e-05,1.3448298e-05,1.0,-2.3841858e-06,1.2427568e-05,2.3543835e-06,1.0,279,0.848,0,0,0.0,False,-0.25260955396409823,1.049514987358727
0.8683840630110353,16:56:54.749711,16:55:37.047092,0,,0.11691573,-0.0007927194,0.02375868,-0.047873095,0.8687734,-0.4928904,-0.1075252,0.4861064,0.8672594,0.9930491,0.09451644,0.07014343,,0.06233764,0.018220618,0.02373457,0.32753438,0.061303876,0.9428483,-0.06414488,-0.9941479,0.08692252,0.9426593,-0.088948965,-0.32168525,,0.082772896,1.2879199,0.42542955,0.9915205,0.10182894,-0.08073352,0.019867461,-0.7327469,-0.6802112,-0.12842242,0.6728394,-0.7285567,,-0.11267422,0.23019695,-0.12795036,-0.020908998,-0.8817717,0.47121277,0.6048425,0.36412635,0.7082214,-0.7960706,0.2998177,0.52571946,,-0.06983426,0.4254534,-0.34162474,-0.44162744,0.07855941,-0.8937526,0.6270184,-0.6854844,-0.37007982,-0.6417267,-0.7238367,0.2534705,,1.011855629379518,0.35892173306245834,0.19495942342000003,2.389836285893124,-1.1346294940522175,-0.3595923101159605,-0.4135871754519951,,-1.2769616034858968,0.18733033133006394,0.18967185651000001,-1.7242804052732437,-0.7826538706564429,0.6151683476534633,0.8751975063474682,,-0.07621634677302738,-0.033641221332190704,0.09367612488,-0.1102278800231344,,1.4729798e-05,4.172325e-07,1.1920929e-07,0.99999994,-1.3463199e-05,-1.2427568e-05,1.3448298e-05,1.0,-2.3841858e-06,1.2427568e-05,2.3543835e-06,1.0,287,0.871,0,0,0.0,False,-0.2543373078012081,1.0496598279610654
0.898992985021323,16:56:54.770197,16:55:37.047092,0,,0.11711628,-0.0006420538,0.023636907,-0.048256278,0.86886615,-0.4926895,-0.1023809,0.4863634,0.8677377,0.993574,0.0923157,0.06548509,,0.062333874,0.01822476,0.023735762,0.3275503,0.061857436,0.9428066,-0.06416094,-0.9940951,0.087513246,0.9426527,-0.08915627,-0.3216473,,0.082772896,1.2879199,0.42542955,0.9915205,0.10182894,-0.08073352,0.019867461,-0.7327469,-0.6802112,-0.12842242,0.6728394,-0.7285567,,-0.11286825,0.2302106,-0.12775056,-0.020655314,-0.88171244,0.47133484,0.6089613,0.36280036,0.7053666,-0.79293096,0.30159426,0.529435,,-0.06983126,0.42545757,-0.34162217,-0.44164014,0.07803694,-0.89379203,0.6270006,-0.6857148,-0.369683,-0.6417353,-0.723675,0.25390995,,1.0112764244139512,0.3598330155416168,0.19509423758000002,2.3931913249888765,-1.1291640340615998,-0.3629055239018496,-0.4135871754519951,,-1.2769538807530227,0.18736122226156082,0.18967185651000001,-1.7242804052732437,-0.7826538706564429,0.6145965964724793,0.8750341622813339,,-0.07621634677302738,-0.033641221332190704,0.09367612488,-0.1102278800231344,,1.4729798e-05,4.172325e-07,1.1920929e-07,0.99999994,-1.3463199e-05,-1.2427568e-05,1.3448298e-05,1.0,-2.3841858e-06,1.2427568e-05,2.3543835e-06,1.0,302,0.917,0,0,0.0,False,-0.254218152364166,1.0493218665556094
0.9194817710667849,16:56:54.809685,16:55:37.047092,0,,0.11746066,-0.00041713566,0.023457289,-0.0479578,0.870739,-0.48940134,-0.09558904,0.48371544,0.86998963,0.99426496,0.08850412,0.06003502,,0.062330753,0.01822938,0.023736954,0.32737514,0.062070858,0.94285345,-0.064146906,-0.9940781,0.087716036,0.9427146,-0.08919713,-0.3214548,,0.082772896,1.2879199,0.42542955,0.9915205,0.10182894,-0.08073352,0.019867461,-0.7327469,-0.6802112,-0.12842242,0.6728394,-0.7285567,,-0.11320293,0.23022969,-0.12745209,-0.02112245,-0.88326246,0.4684029,0.61434805,0.358152,0.7030673,-0.7887524,0.3026129,0.53506553,,-0.06982894,0.4254619,-0.34161925,-0.44147825,0.077830635,-0.89389,0.62708926,-0.6857756,-0.36941975,-0.6417601,-0.7236396,0.25394824,,1.0102493009416793,0.3612617211233483,0.19530164398000002,2.400111093123866,-1.122058936073797,-0.36608553520956544,-0.4142405517165324,,-1.2769461580201484,0.18738439046018351,0.18967315280000002,-1.7244900952167281,-0.7827905071562083,0.6145446568958945,0.8756875385458711,,-0.07621634677302738,-0.033641221332190704,0.09367612488,-0.1102278800231344,,1.4729798e-05,4.172325e-07,1.1920929e-07,0.99999994,-1.3463199e-05,-1.2427568e-05,1.3448298e-05,1.0,-2.3841858e-06,1.2427568e-05,2.3543835e-06,1.0,310,0.942,0,0,0.0,False,-0.25386068605304013,1.049080465551712
0.9589685800019652,16:56:54.835606,16:55:37.047092,0,,0.11770586,-0.00029991567,0.023260474,-0.04635977,0.87198347,-0.48733515,-0.088036984,0.4823948,0.8715186,0.9950378,0.083306864,0.054402947,,0.06233444,0.01822798,0.023741841,0.32725266,0.062165394,0.94288975,-0.064240456,-0.99406147,0.08783537,0.9427507,-0.08931595,-0.3213157,,0.082772896,1.2879199,0.42542955,0.9915205,0.10182894,-0.08073352,0.019867461,-0.7327469,-0.6802112,-0.12842242,0.6728394,-0.7285567,,-0.11343557,0.23016495,-0.12721911,-0.022904946,-0.8841109,0.46671534,0.6202628,0.35355747,0.70019364,-0.7840596,0.30552405,0.5402829,,-0.06983305,0.42546412,-0.34162343,-0.44135088,0.07775178,-0.89395976,0.6270829,-0.68587464,-0.36924654,-0.6418539,-0.7235542,0.25395456,,1.0094384139898858,0.36188726248616054,0.19546627281,2.408498690863247,-1.1148172015862285,-0.37174564788505415,-0.414077207650398,,-1.2769693262187711,0.18737666772730927,0.18967056022,-1.7244900952167281,-0.7829271436559737,0.6144110385791692,0.8751975063474682,,-0.07621634677302738,-0.033641221332190704,0.09367612488,-0.1102278800231344,,1.4729798e-05,4.172325e-07,1.1920929e-07,0.99999994,-1.3463199e-05,-1.2427568e-05,1.3448298e-05,1.0,-2.3841858e-06,1.2427568e-05,2.3543835e-06,1.0,322,0.979,0,0,0.0,False,-0.2539202637715605,1.0493218665556094
0.9848916260525584,16:56:54.874339,16:55:37.047092,0,,0.11784434,-0.0002424568,0.023025155,-0.046857417,0.8716503,-0.48788342,-0.080346316,0.48354852,0.8716222,0.9956651,0.08004154,0.047375947,,0.062333927,0.018227234,0.023742735,0.32716197,0.062341146,0.9429096,-0.06412244,-0.99405706,0.08797139,0.94279015,-0.0892424,-0.32122022,,0.082772896,1.2879199,0.42542955,0.9915205,0.10182894,-0.08073352,0.019867461,-0.7327469,-0.6802112,-0.12842242,0.6728394,-0.7285567,,-0.11355798,0.23003699,-0.12700346,-0.022589508,-0.88356704,0.46775958,0.6263078,0.35218,0.6954911,-0.77924854,0.30867228,0.54542935,,-0.06983257,0.42546445,-0.3416246,-0.44128218,0.077568546,-0.8940096,0.6272021,-0.6858479,-0.36909375,-0.64178467,-0.7235992,0.25400132,,1.0087201998325828,0.362041717143645,0.19563219793000003,2.411224660128546,-1.107438830598895,-0.37523017374030343,-0.4142405517165322,,-1.2769693262187711,0.18736894499443504,0.18966926393000003,-1.7246997851602128,-0.7829271436559737,0.6144110385791692,0.8751975063474682,,-0.07621634677302738,-0.033641221332190704,0.09367612488,-0.1102278800231344,,1.4729798e-05,4.172325e-07,1.1920929e-07,0.99999994,-1.3463199e-05,-1.2427568e-05,1.3448298e-05,1.0,-2.3841858e-06,1.2427568e-05,2.3543835e-06,1.0,330,1.002,0,0,0.0,False,-0.25403941920860307,1.049080465551712
1.0235993929672986,16:56:54.900601,16:55:37.206161,0,,0.11785812,-0.00020137429,0.022909403,-0.04731713,0.87198436,-0.48724154,-0.076768845,0.48317063,0.872154,0.9959255,0.07867278,0.044078916,,0.0623328,0.018226877,0.02374208,0.32716855,0.062341884,0.9429072,-0.06411898,-0.99405724,0.08797167,0.9427882,-0.08923972,-0.32122698,,0.082772896,1.2879199,0.42542955,0.9915205,0.10182894,-0.08073352,0.019867461,-0.7327469,-0.6802112,-0.12842242,0.6728394,-0.7285567,,-0.113564216,0.22998671,-0.12689072,-0.022212936,-0.8837963,0.46734428,0.62911236,0.3509477,0.6935801,-0.7769969,0.30941853,0.5482116,,-0.06983133,0.4254639,-0.34162444,-0.44128883,0.07756747,-0.89400643,0.6272014,-0.68584603,-0.36909837,-0.6417808,-0.72360104,0.2540058,,1.008627527038092,0.3620339944107708,0.19572293823000003,2.41143435007203,-1.1038862816049935,-0.37485988963078787,-0.41391386358426363,,-1.2769616034858968,0.18736894499443504,0.18966926393000003,-1.7246997851602128,-0.7829271436559737,0.6144110385791692,0.8751975063474682,,-0.07621634677302738,-0.033641221332190704,0.09367612488,-0.1102278800231344,,1.4729798e-05,4.172325e-07,1.1920929e-07,0.99999994,-1.3463199e-05,-1.2427568e-05,1.3448298e-05,1.0,-2.3841858e-06,1.2427568e-05,2.3543835e-06,1.0,338,1.028,0,0,0.0,False,-0.25427773008268684,1.0493218665556094
1.0498118039686233,16:56:54.921866,16:55:37.206161,0,,0.117834635,-0.00015868247,0.022823602,-0.048454076,0.87236065,-0.4864556,-0.07595533,0.48239928,0.87265205,0.9959332,0.079232395,0.04288608,,0.0623328,0.018226877,0.02374208,0.32716855,0.062341884,0.9429072,-0.06411898,-0.99405724,0.08797167,0.9427882,-0.08923972,-0.32122698,,0.082772896,1.2879199,0.42542955,0.9915205,0.10182894,-0.08073352,0.019867461,-0.7327469,-0.6802112,-0.12842242,0.6728394,-0.7285567,,-0.113535464,0.22996043,-0.12680009,-0.021094006,-0.8841977,0.46663636,0.62977856,0.35074756,0.69307655,-0.77648824,0.30849734,0.5494501,,-0.06983133,0.4254639,-0.34162444,-0.44128883,0.07756747,-0.89400643,0.6272014,-0.68584603,-0.36909837,-0.6417808,-0.72360104,0.2540058,,1.0086429725038406,0.36201854894502233,0.19581108595000002,2.4091277606937003,-1.1029298261066351,-0.37196427165033763,-0.41326048731972653,,-1.2769616034858968,0.18736894499443504,0.18966926393000003,-1.7246997851602128,-0.7829271436559737,0.6144110385791692,0.8751975063474682,,-0.07621634677302738,-0.033641221332190704,0.09367612488,-0.1102278800231344,,1.4729798e-05,4.172325e-07,1.1920929e-07,0.99999994,-1.3463199e-05,-1.2427568e-05,1.3448298e-05,1.0,-2.3841858e-06,1.2427568e-05,2.3543835e-06,1.0,346,1.052,0,0,0.0,False,-0.2537415306159976,1.0488390645478147
1.0711524889338762,16:56:54.950565,16:55:37.206161,0,,0.11783314,-8.377433e-05,0.022713095,-0.04763838,0.87298006,-0.4854239,-0.07266024,0.48165953,0.87334096,0.9962183,0.07687552,0.040485322,,0.0623328,0.018226877,0.02374208,0.32716855,0.062341884,0.9429072,-0.06411898,-0.99405724,0.08797167,0.9427882,-0.08923972,-0.32122698,,0.082772896,1.2879199,0.42542955,0.9915205,0.10182894,-0.08073352,0.019867461,-0.7327469,-0.6802112,-0.12842242,0.6728394,-0.7285567,,-0.11352744,0.22993924,-0.12666853,-0.021986175,-0.88463485,0.4657658,0.6323163,0.34855834,0.6918693,-0.77439827,0.30972287,0.5517056,,-0.06983133,0.4254639,-0.34162444,-0.44128883,0.07756747,-0.89400643,0.6272014,-0.68584603,-0.36909837,-0.6417808,-0.72360104,0.2540058,,1.0088051498941992,0.3620339944107708,0.19591867802000001,2.4116440400155144,-1.0996505501122646,-0.3731680840165216,-0.414077207650398,,-1.2769616034858968,0.18736894499443504,0.18966926393000003,-1.7246997851602128,-0.7829271436559737,0.6144110385791692,0.8751975063474682,,-0.07621634677302738,-0.033641221332190704,0.09367612488,-0.1102278800231344,,1.4729798e-05,4.172325e-07,1.1920929e-07,0.99999994,-1.3463199e-05,-1.2427568e-05,1.3448298e-05,1.0,-2.3841858e-06,1.2427568e-05,2.3543835e-06,1.0,354,1.077,0,0,0.0,False,-0.2543373078012081,1.0496598279610654
1.0998507319018245,16:56:54.974133,16:55:37.206161,0,,0.117823616,3.0882657e-05,0.022615165,-0.047571756,0.8731718,-0.48508543,-0.07130313,0.48142782,0.8735806,0.99631965,0.07614581,0.039357424,,0.062333465,0.018225715,0.023741603,0.3271662,0.062261447,0.94291335,-0.064114064,-0.9940653,0.08788493,0.9427893,-0.089206934,-0.32123274,,0.082772896,1.2879199,0.42542955,0.9915205,0.10182894,-0.08073352,0.019867461,-0.7327469,-0.6802112,-0.12842242,0.6728394,-0.7285567,,-0.113513015,0.22995603,-0.12651907,-0.022083867,-0.88477015,0.46550414,0.63336706,0.34787858,0.6912501,-0.7735364,0.31010047,0.5527017,,-0.069831766,0.42546272,-0.34162503,-0.4412873,0.07764309,-0.8940006,0.62720567,-0.68581074,-0.36915678,-0.64177763,-0.72362643,0.2539414,,1.009036831880426,0.36224250819837484,0.19605089960000002,2.4120634199024837,-1.0980109121150794,-0.37327991775877023,-0.41440389578266634,,-1.2769616034858968,0.18736122226156082,0.18966926393000003,-1.7246997851602128,-0.7829271436559737,0.6144927173193099,0.8750341622813339,,-0.07621634677302738,-0.033641221332190704,0.09367612488,-0.1102278800231344,,1.4729798e-05,4.172325e-07,1.1920929e-07,0.99999994,-1.3463199e-05,-1.2427568e-05,1.3448298e-05,1.0,-2.3841858e-06,1.2427568e-05,2.3543835e-06,1.0,391,1.191,0,0,0.0,False,-0.2537415306159976,1.0496115477602863
1.1234186009969562,16:56:55.082047,16:55:37.356138,0,,0.11793362,0.0003156811,0.022230893,-0.04841935,0.87443787,-0.48271504,-0.050741255,0.48050445,0.8755231,0.9975374,0.066885784,0.021104276,,0.062327743,0.018227354,0.02374196,0.32719302,0.062351003,0.9428982,-0.064118415,-0.9940563,0.08798351,0.94277966,-0.089244634,-0.3212504,,0.082772896,1.2879199,0.42542955,0.9915205,0.10182894,-0.08073352,0.019867461,-0.7327469,-0.6802112,-0.12842242,0.6728394,-0.7285567,,-0.11360048,0.22989292,-0.12604026,-0.021689491,-0.8853585,0.46440268,0.6491848,0.34078932,0.680016,-0.7603214,0.31623235,0.56736976,,-0.06982641,0.42546508,-0.34162393,-0.4413118,0.07755906,-0.8939958,0.62719065,-0.6858509,-0.36910754,-0.6417755,-0.72359735,0.25402978,,1.0091295046749167,0.36303022695154574,0.19635941662000003,2.416886288602628,-1.0768322546514362,-0.376092555826836,-0.4147305839149349,,-1.2769384352872741,0.18738439046018351,0.18966796764000002,-1.7246997851602128,-0.7829271436559737,0.6144110385791692,0.8751975063474682,,-0.07621634677302738,-0.033641221332190704,0.09367612488,-0.1102278800231344,,1.4729798e-05,4.172325e-07,1.1920929e-07,0.99999994,-1.3463199e-05,-1.2427568e-05,1.3448298e-05,1.0,-2.3841858e-06,1.2427568e-05,2.3543835e-06,1.0,395,1.203,0,0,0.0,False,-0.2529670202752241,1.0489356249493738
1.2313323020935059,16:56:55.102987,16:55:37.356138,0,,0.1179515,0.00036784261,0.022140533,-0.04867193,0.8743565,-0.4828371,-0.04698652,0.48087057,0.8755317,0.9977089,0.065300584,0.017677903,,0.062327743,0.018227354,0.02374196,0.32719302,0.062351003,0.9428982,-0.064118415,-0.9940563,0.08798351,0.94277966,-0.089244634,-0.3212504,,0.082772896,1.2879199,0.42542955,0.9915205,0.10182894,-0.08073352,0.019867461,-0.7327469,-0.6802112,-0.12842242,0.6728394,-0.7285567,,-0.1136128,0.22986783,-0.12593816,-0.021516321,-0.8851712,0.46476772,0.65204453,0.33997476,0.6776836,-0.75787526,0.31763053,0.56985605,,-0.06982641,0.42546508,-0.34162393,-0.4413118,0.07755906,-0.8939958,0.62719065,-0.6858509,-0.36910754,-0.6417755,-0.72359735,0.25402978,,1.0091140592091683,0.36313062247891065,0.19643330515000001,2.4175153584330813,-1.0730064326580038,-0.3770069311465406,-0.41326048731972653,,-1.2769384352872741,0.18738439046018351,0.18966796764000002,-1.7246997851602128,-0.7829271436559737,0.6144110385791692,0.8751975063474682,,-0.07621634677302738,-0.033641221332190704,0.09367612488,-0.1102278800231344,,1.4729798e-05,4.172325e-07,1.1920929e-07,0.99999994,-1.3463199e-05,-1.2427568e-05,1.3448298e-05,1.0,-2.3841858e-06,1.2427568e-05,2.3543835e-06,1.0,407,1.24,0,0,0.0,False,-0.25320533114930877,1.0495632675595068
1.2522670340258628,16:56:55.135275,16:55:37.356138,0,,0.118017495,0.00043647736,0.021987587,-0.047533385,0.8743294,-0.48299962,-0.03956881,0.48151845,0.8755422,0.99808556,0.060729176,0.011707842,,0.06233283,0.018226132,0.023744285,0.3270682,0.062211078,0.9429507,-0.06420711,-0.99406195,0.08785374,0.942817,-0.08927819,-0.32113168,,0.082772896,1.2879199,0.42542955,0.9915205,0.10182894,-0.08073352,0.019867461,-0.7327469,-0.6802112,-0.12842242,0.6728394,-0.7285567,,-0.11366898,0.22980888,-0.12577745,-0.02281003,-0.88483083,0.46535376,0.6576187,0.33731672,0.6736134,-0.7530055,0.32139048,0.5741871,,-0.069831565,0.42546517,-0.34162638,-0.4411829,0.07770184,-0.894047,0.62718856,-0.6858543,-0.36910477,-0.64186615,-0.72357875,0.2538535,,1.0089982182160548,0.36324646347202405,0.19654089722,2.422128537189741,-1.0657646981704354,-0.38160522020020204,-0.41326048731972653,,-1.2769616034858968,0.18736894499443504,0.18966796764000002,-1.7246997851602128,-0.7830637801557392,0.6145224564828656,0.8751975063474682,,-0.07621634677302738,-0.033641221332190704,0.09367612488,-0.1102278800231344,,1.4729798e-05,4.172325e-07,1.1920929e-07,0.99999994,-1.3463199e-05,-1.2427568e-05,1.3448298e-05,1.0,-2.3841858e-06,1.2427568e-05,2.3543835e-06,1.0,415,1.265,0,0,0.0,False,-0.25278828711966117,1.0490321853509326
1.2845396120101213,16:56:55.153950,16:55:37.356138,0,,0.11804287,0.0004517883,0.021944046,-0.046949908,0.87462246,-0.48252586,-0.037281334,0.4811877,0.8758244,0.99820125,0.059109017,0.010015249,,0.062333293,0.018227682,0.023745418,0.32706392,0.062213764,0.9429521,-0.06421536,-0.994061,0.08785898,0.9428179,-0.08928743,-0.32112643,,0.082772896,1.2879199,0.42542955,0.9915205,0.10182894,-0.08073352,0.019867461,-0.7327469,-0.6802112,-0.12842242,0.6728394,-0.7285567,,-0.11369146,0.22978863,-0.12573436,-0.023440707,-0.88500214,0.46499652,0.6593231,0.3359491,0.67263013,-0.7514942,0.32234988,0.57562745,,-0.06983237,0.4254669,-0.34162593,-0.4411778,0.07770032,-0.8940497,0.627185,-0.68586135,-0.36909777,-0.6418731,-0.7235723,0.2538543,,1.0089441590859354,0.3632696316706467,0.19656811931,2.4240157466811016,-1.0635785141741885,-0.3828161554783609,-0.414077207650398,,-1.2769693262187711,0.18737666772730927,0.18966796764000002,-1.7246997851602128,-0.7830637801557392,0.6145224564828656,0.8751975063474682,,-0.07621634677302738,-0.033641221332190704,0.09367612488,-0.1102278800231344,,1.4729798e-05,4.172325e-07,1.1920929e-07,0.99999994,-1.3463199e-05,-1.2427568e-05,1.3448298e-05,1.0,-2.3841858e-06,1.2427568e-05,2.3543835e-06,1.0,419,1.278,0,0,0.0,False,-0.2539202637715605,1.049514987358727
1.3032365920953453,16:56:55.183059,16:55:37.356138,0,,0.118067734,0.0004921928,0.021828711,-0.047983713,0.87664604,-0.47873718,-0.033628553,0.47759977,0.87793374,0.99828184,0.05822572,0.0065631866,,0.062329993,0.018233314,0.023747802,0.3270756,0.062230956,0.9429469,-0.06423968,-0.994057,0.08788656,0.9428122,-0.08932009,-0.3211341,,0.082772896,1.2879199,0.42542955,0.9915205,0.10182894,-0.08073352,0.019867461,-0.7327469,-0.6802112,-0.12842242,0.6728394,-0.7285567,,-0.11370878,0.22973745,-0.12562193,-0.02248014,-0.88689387,0.46142596,0.6620946,0.33261395,0.6715644,-0.74908304,0.3206045,0.57973045,,-0.069830164,0.4254728,-0.34162292,-0.44118536,0.07768735,-0.8940471,0.62716365,-0.6858873,-0.3690859,-0.6418888,-0.7235491,0.25388074,,1.0087665362298281,0.3633314135336405,0.19665756332,2.4231769869071633,-1.0598893286805218,-0.37798327982467006,-0.4127704551213236,,-1.2769693262187711,0.1874152813916804,0.18966796764000002,-1.7246997851602128,-0.7830637801557392,0.6145224564828656,0.8751975063474682,,-0.07621634677302738,-0.033641221332190704,0.09367612488,-0.1102278800231344,,1.4729798e-05,4.172325e-07,1.1920929e-07,0.99999994,-1.3463199e-05,-1.2427568e-05,1.3448298e-05,1.0,-2.3841858e-06,1.2427568e-05,2.3543835e-06,1.0,431,1.314,0,0,0.0,False,-0.2529074425567037,1.0491770259532711
1.3323427808936685,16:56:55.214163,16:55:37.503823,0,,0.118128814,0.0005348027,0.02162236,-0.050277226,0.88035893,-0.4716357,-0.024087578,0.47102672,0.8817899,0.9984448,0.05569446,-0.0024763346,,0.062328197,0.01823406,0.023747623,0.3270845,0.062235143,0.9429435,-0.06424114,-0.9940564,0.08789235,0.942809,-0.08932394,-0.32114238,,0.082772896,1.2879199,0.42542955,0.9915205,0.10182894,-0.08073352,0.019867461,-0.7327469,-0.6802112,-0.12842242,0.6728394,-0.7285567,,-0.11375579,0.22962333,-0.12544058,-0.020373456,-0.8903005,0.45491746,0.6692761,0.32587847,0.667737,-0.74273443,0.31806952,0.5892176,,-0.06982848,0.42547342,-0.34162217,-0.44119352,0.07768368,-0.8940434,0.62715864,-0.6858906,-0.36908817,-0.6418881,-0.7235463,0.2538905,,1.0083417859217458,0.3634318090610054,0.19677811829000003,2.4217091573027716,-1.0503247736969408,-0.36920174883488555,-0.41293379918745776,,-1.2769616034858968,0.18742300412455462,0.18966796764000002,-1.7246997851602128,-0.7830637801557392,0.6145224564828656,0.8751975063474682,,-0.07621634677302738,-0.033641221332190704,0.09367612488,-0.1102278800231344,,1.4729798e-05,4.172325e-07,1.1920929e-07,0.99999994,-1.3463199e-05,-1.2427568e-05,1.3448298e-05,1.0,-2.3841858e-06,1.2427568e-05,2.3543835e-06,1.0,439,1.339,0,0,0.0,False,-0.2540989969271239,1.0492253061540504
1.3634486589580774,16:56:55.235524,16:55:37.503823,0,,0.1182596,0.00055111945,0.021400005,-0.050683375,0.88690746,-0.45915818,-0.014374465,0.45905364,0.8882922,0.99861133,0.051621735,-0.010517687,,0.0623253,0.018234417,0.02374667,0.32710007,0.062240057,0.9429378,-0.064239144,-0.994056,0.0878984,0.94280374,-0.08932498,-0.32115752,,0.082772896,1.2879199,0.42542955,0.9915205,0.10182894,-0.08073352,0.019867461,-0.7327469,-0.6802112,-0.12842242,0.6728394,-0.7285567,,-0.11387072,0.22947486,-0.12526292,-0.020152373,-0.8963299,0.44292954,0.6764687,0.31399116,0.66618294,-0.7361956,0.31305313,0.6000114,,-0.06982555,0.42547348,-0.34162125,-0.44120833,0.07767894,-0.8940365,0.6271529,-0.6858921,-0.3690951,-0.6418835,-0.72354543,0.25390473,,1.0076235717644428,0.363485868191125,0.19689867326000002,2.4244351265680706,-1.0410334917128907,-0.35799205605391293,-0.41260711105518943,,-1.2769461580201484,0.18743072685742884,0.18966796764000002,-1.7246997851602128,-0.7830637801557392,0.6145224564828656,0.8751975063474682,,-0.07621634677302738,-0.033641221332190704,0.09367612488,-0.1102278800231344,,1.4729798e-05,4.172325e-07,1.1920929e-07,0.99999994,-1.3463199e-05,-1.2427568e-05,1.3448298e-05,1.0,-2.3841858e-06,1.2427568e-05,2.3543835e-06,1.0,472,1.44,0,0,0.0,False,-0.25386068605304013,1.0494667071579475
1.384776805061847,16:56:55.334802,16:55:37.628879,0,,0.1188805,0.00038941205,0.020853609,-0.047684826,0.8906073,-0.4522663,-0.00613752,0.45251158,0.89173734,0.99884355,0.0452981,-0.01611194,,0.06232472,0.018236443,0.023749352,0.3270981,0.062246192,0.942938,-0.06425232,-0.99405414,0.08790917,0.9428035,-0.089340776,-0.32115376,,0.082772896,1.2879199,0.42542955,0.9915205,0.10182894,-0.08073352,0.019867461,-0.7327469,-0.6802112,-0.12842242,0.6728394,-0.7285567,,-0.11444825,0.22894499,-0.12495325,-0.023305362,-0.8994545,0.4363926,0.68242425,0.3046822,0.664429,-0.73058474,0.31328964,0.60670877,,-0.069825605,0.42547688,-0.34162137,-0.4412047,0.07767483,-0.8940386,0.6271451,-0.6859043,-0.3690857,-0.6418936,-0.7235343,0.25391084,,1.0037930962588275,0.36324646347202405,0.19721367173,2.4378552829510802,-1.0357046682220388,-0.36225567555793264,-0.41375051951812947,,-1.2769538807530227,0.1874461723231773,0.18966667135,-1.7246997851602128,-0.7830637801557392,0.6145224564828656,0.8751975063474682,,-0.07621634677302738,-0.033641221332190704,0.09367612488,-0.1102278800231344,,1.4729798e-05,4.172325e-07,1.1920929e-07,0.99999994,-1.3463199e-05,-1.2427568e-05,1.3448298e-05,1.0,-2.3841858e-06,1.2427568e-05,2.3543835e-06,1.0,480,1.465,0,0,0.0,False,-0.2531457534307875,1.0494667071579475
1.4840879400726408,16:56:55.357343,16:55:37.628879,0,,0.119067445,0.00027363002,0.02069959,-0.04700327,0.89220804,-0.44917184,-0.004992038,0.4494534,0.89328974,0.99888223,0.04422976,-0.016671956,,0.062325135,0.018238679,0.02375263,0.3269989,0.062427346,0.94296044,-0.06415084,-0.99404776,0.08805567,0.94284487,-0.08928576,-0.32104772,,0.082772896,1.2879199,0.42542955,0.9915205,0.10182894,-0.08073352,0.019867461,-0.7327469,-0.6802112,-0.12842242,0.6728394,-0.7285567,,-0.11462171,0.22874393,-0.12491372,-0.024008134,-0.90092087,0.43331876,0.68324053,0.30163118,0.66498196,-0.7297986,0.3120259,0.608304,,-0.06982674,0.4254807,-0.34162164,-0.44112575,0.07748856,-0.89409375,0.62725717,-0.6858916,-0.36891887,-0.6418384,-0.7235663,0.2539592,,1.0024261725400898,0.36292983142418084,0.19727589365,2.4412103220468326,-1.0357046682220388,-0.36168392437694885,-0.4122804229229209,,-1.2769693262187711,0.18745389505605153,0.18966537506000003,-1.7249094751036973,-0.7830637801557392,0.6145224564828656,0.8751975063474682,,-0.07621634677302738,-0.033641221332190704,0.09367612488,-0.1102278800231344,,1.4729798e-05,4.172325e-07,1.1920929e-07,0.99999994,-1.3463199e-05,-1.2427568e-05,1.3448298e-05,1.0,-2.3841858e-06,1.2427568e-05,2.3543835e-06,1.0,488,1.49,0,0,0.0,False,-0.2529670202752241,1.0488873447485942
1.506552810082212,16:56:55.383297,16:55:37.628879,0,,0.119152874,0.00019477308,0.020628482,-0.047486894,0.8930472,-0.44745025,-0.0061734617,0.44768468,0.8941701,0.9988527,0.04522361,-0.015746087,,0.06232401,0.018238321,0.023751974,0.32700548,0.06242809,0.9429581,-0.06414738,-0.994048,0.088055946,0.94284284,-0.08928302,-0.32105452,,0.082772896,1.2879199,0.42542955,0.9915205,0.10182894,-0.08073352,0.019867461,-0.7327469,-0.6802112,-0.12842242,0.6728394,-0.7285567,,-0.11470045,0.2286327,-0.124912985,-0.023502776,-0.901797,0.4315204,0.68239224,0.3009755,0.6661491,-0.7306083,0.31012252,0.60830545,,-0.06982549,0.42548016,-0.3416215,-0.4411324,0.07748748,-0.89409053,0.62725645,-0.6858898,-0.3689235,-0.6418345,-0.7235682,0.25396368,,1.0016152855882963,0.3626904267050799,0.19730441203000001,2.441000632103348,-1.0374809427189895,-0.3595003829676302,-0.41309714325359215,,-1.2769616034858968,0.18745389505605153,0.18966537506000003,-1.7249094751036973,-0.7830637801557392,0.6145224564828656,0.8751975063474682,,-0.07621634677302738,-0.033641221332190704,0.09367612488,-0.1102278800231344,,1.4729798e-05,4.172325e-07,1.1920929e-07,0.99999994,-1.3463199e-05,-1.2427568e-05,1.3448298e-05,1.0,-2.3841858e-06,1.2427568e-05,2.3543835e-06,1.0,496,1.515,0,0,0.0,False,-0.252847864838182,1.048742504146256
1.5325807461049408,16:56:55.414446,16:55:37.628879,0,,0.119240396,8.144975e-05,0.020537734,-0.04812835,0.8932935,-0.44688964,-0.0059520304,0.4471437,0.8944423,0.9988234,0.045707896,-0.016203523,,0.06232532,0.018236086,0.02375102,0.32700083,0.062421214,0.9429602,-0.06413767,-0.99404955,0.08804492,0.9428451,-0.089269996,-0.32105145,,0.082772896,1.2879199,0.42542955,0.9915205,0.10182894,-0.08073352,0.019867461,-0.7327469,-0.6802112,-0.12842242,0.6728394,-0.7285567,,-0.114779286,0.22848287,-0.12492159,-0.022864878,-0.9020675,0.43098897,0.6825725,0.30089906,0.66599894,-0.7304601,0.3094092,0.6088464,,-0.06982637,0.4254778,-0.34162268,-0.44112936,0.07749267,-0.8940916,0.62726504,-0.6858794,-0.36892822,-0.64182824,-0.72357744,0.2539531,,1.0007348940406346,0.3623197355271171,0.1973212638,2.4407909421598637,-1.038027488718051,-0.3586463176521417,-0.4122804229229209,,-1.2769616034858968,0.18743844959030306,0.18966537506000003,-1.7249094751036973,-0.7830637801557392,0.6145224564828657,0.8748708182151996,,-0.07621634677302738,-0.033641221332190704,0.09367612488,-0.1102278800231344,,1.4729798e-05,4.172325e-07,1.1920929e-07,0.99999994,-1.3463199e-05,-1.2427568e-05,1.3448298e-05,1.0,-2.3841858e-06,1.2427568e-05,2.3543835e-06,1.0,504,1.54,0,0,0.0,False,-0.252847864838182,1.048742504146256
1.5637314589694142,16:56:55.435946,16:55:37.628879,0,,0.11925296,1.193583e-05,0.020496309,-0.04953032,0.89300686,-0.44730914,-0.0065977573,0.44755653,0.89423126,0.9987508,0.047242776,-0.016275853,,0.06232758,0.01823683,0.023752391,0.3269876,0.062419735,0.9429649,-0.06414455,-0.9940492,0.088044375,0.9428492,-0.08927548,-0.3210379,,0.082772896,1.2879199,0.42542955,0.9915205,0.10182894,-0.08073352,0.019867461,-0.7327469,-0.6802112,-0.12842242,0.6728394,-0.7285567,,-0.11478764,0.22840326,-0.12493883,-0.021450073,-0.90189797,0.4314162,0.68214035,0.3022675,0.665822,-0.7309066,0.30856833,0.6087373,,-0.06982886,0.4254789,-0.34162298,-0.44111606,0.077494815,-0.894098,0.62726647,-0.6858831,-0.36891896,-0.641836,-0.72357374,0.25394416,,1.0003101437325523,0.3620494398765192,0.19732515267000003,2.438274662838049,-1.0389839442164093,-0.3568862474445801,-0.41195373479065245,,-1.2769770489516454,0.18743844959030306,0.18966537506000003,-1.7249094751036973,-0.7830637801557392,0.6145224564828657,0.8745441300829311,,-0.07621634677302738,-0.033641221332190704,0.09367612488,-0.1102278800231344,,1.4729798e-05,4.172325e-07,1.1920929e-07,0.99999994,-1.3463199e-05,-1.2427568e-05,1.3448298e-05,1.0,-2.3841858e-06,1.2427568e-05,2.3543835e-06,1.0,512,1.564,0,0,0.0,False,-0.2532649088678296,1.048983905150153
1.5852278650272638,16:56:55.464621,16:55:37.753056,0,,0.119272545,-7.414073e-05,0.020441532,-0.051079214,0.89347476,-0.4461992,-0.006207168,0.4464898,0.8947671,0.99867535,0.04847358,-0.017260522,,0.06232645,0.018236443,0.023751676,0.32699418,0.062420473,0.9429625,-0.064141124,-0.99404943,0.088044636,0.94284713,-0.08927271,-0.32104468,,0.082772896,1.2879199,0.42542955,0.9915205,0.10182894,-0.08073352,0.019867461,-0.7327469,-0.6802112,-0.12842242,0.6728394,-0.7285567,,-0.11480176,0.22830203,-0.12495746,-0.019906895,-0.90243316,0.43036973,0.6824678,0.3023068,0.66546845,-0.7306445,0.3069609,0.6098636,,-0.069827616,0.42547834,-0.34162283,-0.4411227,0.07749374,-0.89409477,0.62726575,-0.68588126,-0.3689236,-0.6418321,-0.7235756,0.25394863,,0.9998004433628535,0.3617250850958018,0.19732385638000002,2.4357583835162346,-1.0389839442164093,-0.3534557403586765,-0.4126071110551893,,-1.2769693262187711,0.18743844959030306,0.18966537506000003,-1.7249094751036973,-0.7830637801557392,0.6145224564828657,0.8745441300829311,,-0.07621634677302738,-0.033641221332190704,0.09367612488,-0.1102278800231344,,1.4729798e-05,4.172325e-07,1.1920929e-07,0.99999994,-1.3463199e-05,-1.2427568e-05,1.3448298e-05,1.0,-2.3841858e-06,1.2427568e-05,2.3543835e-06,1.0,545,1.666,0,0,0.0,False,-0.2529670202752241,1.0491770259532711
1.6138860499486327,16:56:55.554207,16:55:37.753056,0,,0.11947331,-0.00028896332,0.020379245,-0.052102383,0.8948002,-0.4434163,-0.006100863,0.44372588,0.89614177,0.99862313,0.04939626,-0.01766026,,0.062325135,0.018238679,0.02375263,0.3269989,0.0625814,0.9429503,-0.06415084,-0.99403334,0.08821806,0.94284487,-0.08933821,-0.32103315,,0.082772896,1.2879199,0.42542955,0.9915205,0.10182894,-0.08073352,0.019867461,-0.7327469,-0.6802112,-0.12842242,0.6728394,-0.7285567,,-0.11499374,0.228091,-0.12505202,-0.01888465,-0.9037716,0.42759833,0.6825724,0.30084974,0.6660213,-0.73057395,0.3044444,0.6112081,,-0.06982674,0.4254807,-0.34162164,-0.44112575,0.077342495,-0.8941064,0.62725717,-0.6859519,-0.3688068,-0.6418384,-0.7235248,0.2540774,,0.9981246103291468,0.3613389484520906,0.19726422704000002,2.4359680734597196,-1.0400770362145326,-0.3505224286255912,-0.4121170788567866,,-1.2769693262187711,0.18745389505605153,0.18966537506000003,-1.7249094751036973,-0.7830637801557392,0.6143590990025846,0.8748708182151996,,-0.07621634677302738,-0.033641221332190704,0.09367612488,-0.1102278800231344,,1.4729798e-05,4.172325e-07,1.1920929e-07,0.99999994,-1.3463199e-05,-1.2427568e-05,1.3448298e-05,1.0,-2.3841858e-06,1.2427568e-05,2.3543835e-06,1.0,549,1.678,0,0,0.0,False,-0.2527287094011399,1.0486459437446969
1.703479740070179,16:56:55.578264,16:55:37.888650,0,,0.11960726,-0.00040446967,0.020369947,-0.05291023,0.8953688,-0.44217092,-0.0055437386,0.44252095,0.896741,0.99858385,0.04989797,-0.01845035,,0.06232401,0.018238321,0.023751974,0.32700548,0.062582135,0.94294786,-0.06414738,-0.9940335,0.08821831,0.94284284,-0.08933544,-0.32103997,,0.082772896,1.2879199,0.42542955,0.9915205,0.10182894,-0.08073352,0.019867461,-0.7327469,-0.6802112,-0.12842242,0.6728394,-0.7285567,,-0.11512463,0.22799248,-0.12511936,-0.018086057,-0.904353,0.4264018,0.68299997,0.30028316,0.6658386,-0.73019445,0.3032748,0.61224216,,-0.06982549,0.42548016,-0.3416215,-0.4411324,0.07734142,-0.89410317,0.62725645,-0.68595004,-0.36881146,-0.6418345,-0.72352666,0.25408188,,0.9971438232541202,0.3612771665890968,0.19720719028000003,2.4359680734597196,-1.0400770362145326,-0.3492155687833421,-0.41179039072451784,,-1.2769616034858968,0.18745389505605153,0.18966537506000003,-1.7249094751036973,-0.7830637801557392,0.6143590990025846,0.8748708182151996,,-0.07621634677302738,-0.033641221332190704,0.09367612488,-0.1102278800231344,,1.4729798e-05,4.172325e-07,1.1920929e-07,0.99999994,-1.3463199e-05,-1.2427568e-05,1.3448298e-05,1.0,-2.3841858e-06,1.2427568e-05,2.3543835e-06,1.0,561,1.715,0,0,0.0,False,-0.2531457534307875,1.048983905150153
1.7274800878949463,16:56:55.606275,16:55:37.888650,0,,0.119756036,-0.00051195174,0.02035144,-0.05309297,0.89576316,-0.44134974,-0.005222827,0.44171798,0.8971388,0.99857587,0.049936876,-0.018773705,,0.062350277,0.018226616,0.023746014,0.32701284,0.062603354,0.942944,-0.0641346,-0.99403286,0.088237,0.9428412,-0.08932999,-0.3210465,,0.08278956,1.2879183,0.42542726,0.9915207,0.10182223,-0.08073976,0.01985837,-0.73274785,-0.6802105,-0.12842242,0.6728394,-0.7285567,,-0.11528582,0.22789192,-0.1251748,-0.017908871,-0.9047309,0.42560697,0.683238,0.29970872,0.6658532,-0.72997606,0.30271554,0.6127791,,-0.06986506,0.42546237,-0.34162876,-0.44114083,0.077310696,-0.8941017,0.6272638,-0.6859505,-0.36879808,-0.64182156,-0.7235295,0.25410658,,0.9963947181653204,0.3612308301918514,0.19717089416000003,2.4368068332336574,-1.040213672714298,-0.34902247213950516,-0.4119537347906522,,-1.2769616034858968,0.18745389505605153,0.18966537506000003,-1.7249094751036973,-0.7830637801557392,0.6143590990025846,0.8748708182151996,,-0.07621634677302738,-0.033641221332190704,0.09367612488,-0.1102278800231344,,3.151223e-05,1.66893e-06,1.4305115e-06,0.99999994,-2.0131469e-05,-1.859665e-05,2.013892e-05,1.0000001,-3.516674e-06,1.859665e-05,3.5464764e-06,1.0,565,1.727,0,0,0.0,False,-0.25254997624557696,1.0490321853509326
1.755544289946556,16:56:55.629660,16:55:37.888650,0,,0.1198924,-0.000643149,0.020341903,-0.053796876,0.89645153,-0.43986428,-0.005785078,0.440215,0.8978739,0.99853516,0.05084744,-0.018496156,,0.062349025,0.018231325,0.02374965,0.32682452,0.06266131,0.94300544,-0.064127594,-0.99402976,0.08827693,0.9429069,-0.08932382,-0.32085502,,0.08278956,1.2879183,0.42542726,0.9915207,0.10182223,-0.08073976,0.01985837,-0.73274785,-0.6802105,-0.12842242,0.6728394,-0.7285567,,-0.115418814,0.22778171,-0.12525268,-0.017194001,-0.9054555,0.42409277,0.68284523,0.29919833,0.66648537,-0.7303607,0.30104926,0.6131416,,-0.06986492,0.42546827,-0.3416273,-0.44096562,0.07725252,-0.8941932,0.6273537,-0.68595463,-0.3686375,-0.6418541,-0.72353184,0.25401774,,0.9953367037615517,0.3610918210001154,0.19711515369000002,2.4368068332336574,-1.0414434012121871,-0.34736628108511286,-0.41195373479065245,,-1.2769693262187711,0.1874770632546742,0.18966537506000003,-1.725119165047182,-0.7832004166555047,0.6144705169062811,0.8748708182151996,,-0.07621634677302738,-0.033641221332190704,0.09367612488,-0.1102278800231344,,3.151223e-05,1.66893e-06,1.4305115e-06,0.99999994,-2.0131469e-05,-1.859665e-05,2.013892e-05,1.0000001,-3.516674e-06,1.859665e-05,3.5464764e-06,1.0,577,1.765,0,0,0.0,False,-0.2529074425567037,1.0494667071579475
1.7789385179057717,16:56:55.662484,16:55:37.888650,0,,0.12004091,-0.00075989217,0.020323753,-0.050897554,0.8993704,-0.43421465,-0.0050621927,0.43454027,0.9006382,0.99869096,0.048038334,-0.017564297,,0.062343914,0.018241666,0.023754358,0.3266574,0.06296599,0.94304305,-0.063938856,-0.99402046,0.08851718,0.94297767,-0.08921197,-0.32067823,,0.08278956,1.2879183,0.42542726,0.9915207,0.10182223,-0.08073976,0.01985837,-0.73274785,-0.6802105,-0.12842242,0.6728394,-0.7285567,,-0.11556357,0.22767536,-0.1253139,-0.02010942,-0.90806645,0.41834313,0.6832981,0.29297394,0.6687824,-0.7298625,0.2993019,0.61458856,,-0.06986186,0.42547914,-0.34162205,-0.44083506,0.07693681,-0.8942847,0.62755424,-0.6859193,-0.36836183,-0.6417477,-0.72359896,0.25409526,,0.9944794804125128,0.3608446935481402,0.19706589467000002,2.443936291312131,-1.0415800377119524,-0.347173184441276,-0.4119537347906521,,-1.2769770489516454,0.18753112238479377,0.18966537506000003,-1.7255385449341507,-0.7832004166555047,0.6145521956464216,0.875034162281334,,-0.07621634677302738,-0.033641221332190704,0.09367612488,-0.1102278800231344,,3.151223e-05,1.66893e-06,1.4305115e-06,0.99999994,-2.0131469e-05,-1.859665e-05,2.013892e-05,1.0000001,-3.516674e-06,1.859665e-05,3.5464764e-06,1.0,585,1.79,0,0,0.0,False,-0.25225208765297147,1.048742504146256
1.8117690910585225,16:56:55.685665,16:55:37.888650,0,,0.12012898,-0.0008247569,0.020298421,-0.04764744,0.9008207,-0.43156907,-0.003244102,0.43191803,0.9019071,0.9988589,0.044373617,-0.017657459,,0.062341932,0.018245094,0.023755789,0.32666442,0.06289928,0.9430451,-0.0639534,-0.99402535,0.088452525,0.9429742,-0.089205325,-0.32069007,,0.08278956,1.2879183,0.42542726,0.9915207,0.10182223,-0.08073976,0.01985837,-0.73274785,-0.6802105,-0.12842242,0.6728394,-0.7285567,,-0.11564845,0.22760546,-0.12533662,-0.023394948,-0.909206,0.4156888,0.6845329,0.2884709,0.66947687,-0.72860646,0.30021504,0.6156326,,-0.06986054,0.4254827,-0.34162024,-0.44083962,0.07700208,-0.89427686,0.6275414,-0.68590474,-0.36841074,-0.64175713,-0.7236058,0.25405198,,0.9941242347002984,0.36063617976053614,0.19704385774000002,2.4508560594471205,-1.0406235822135945,-0.3501584357509459,-0.4122804229229208,,-1.2769770489516454,0.18755429058341644,0.18966537506000003,-1.7255385449341507,-0.7832004166555047,0.6146338743865621,0.8751975063474682,,-0.07621634677302738,-0.033641221332190704,0.09367612488,-0.1102278800231344,,3.151223e-05,1.66893e-06,1.4305115e-06,0.99999994,-2.0131469e-05,-1.859665e-05,2.013892e-05,1.0000001,-3.516674e-06,1.859665e-05,3.5464764e-06,1.0,593,1.814,0,0,0.0,False,-0.25266913168261906,1.0493218665556094
1.834939009975642,16:56:55.705418,16:55:37.888650,0,,0.120179966,-0.0008884445,0.02027449,-0.045032475,0.9016391,-0.43013823,-0.002206713,0.4304842,0.90259546,0.998983,0.04159528,-0.017396152,,0.062340148,0.018245839,0.02375555,0.32667333,0.06290345,0.9430417,-0.06395486,-0.99402463,0.08845833,0.9429711,-0.08920917,-0.3206984,,0.08278956,1.2879183,0.42542726,0.9915207,0.10182223,-0.08073976,0.01985837,-0.73274785,-0.6802105,-0.12842242,0.6728394,-0.7285567,,-0.11569648,0.2275397,-0.12536103,-0.026030084,-0.90979946,0.414231,0.6852099,0.2854768,0.6700674,-0.72788036,0.3012771,0.61597264,,-0.06985886,0.42548332,-0.3416195,-0.44084778,0.076998405,-0.89427316,0.6275364,-0.6859081,-0.368413,-0.6417564,-0.723603,0.25406176,,0.9938616617825748,0.36035043864418986,0.19702570968000002,2.456307997977718,-1.040213672714298,-0.3531880878866737,-0.4121170788567866,,-1.2769693262187711,0.18756201331629066,0.18966537506000003,-1.7255385449341507,-0.7832004166555047,0.6146338743865621,0.8751975063474682,,-0.07621634677302738,-0.033641221332190704,0.09367612488,-0.1102278800231344,,3.151223e-05,1.66893e-06,1.4305115e-06,0.99999994,-2.0131469e-05,-1.859665e-05,2.013892e-05,1.0000001,-3.516674e-06,1.859665e-05,3.5464764e-06,1.0,597,1.826,0,0,0.0,False,-0.2524903985270561,1.04927358635483
1.8546852029394358,16:56:55.737715,16:55:38.025985,0,,0.1202284,-0.000965558,0.020231575,-0.040074285,0.9036418,-0.4264099,-0.0014045835,0.42670137,0.9043915,0.9991957,0.036841735,-0.015830576,,0.062340148,0.018245839,0.02375555,0.32667333,0.06290345,0.9430417,-0.06395486,-0.99402463,0.08845833,0.9429711,-0.08920917,-0.3206984,,0.08278956,1.2879183,0.42542726,0.9915207,0.10182223,-0.08073976,0.01985837,-0.73274785,-0.6802105,-0.12842242,0.6728394,-0.7285567,,-0.11574036,0.22745132,-0.12538098,-0.031004282,-0.91139203,0.41036966,0.68563217,0.27935135,0.67221373,-0.7272876,0.30220416,0.6162186,,-0.06985886,0.42548332,-0.3416195,-0.44084778,0.076998405,-0.89427316,0.6275364,-0.6859081,-0.368413,-0.6417564,-0.723603,0.25406176,,0.9936840389264676,0.35984073827449103,0.19702052452000002,2.4659537353780063,-1.0403503092140636,-0.3571606069900054,-0.4121170788567865,,-1.2769693262187711,0.18756201331629066,0.18966537506000003,-1.7255385449341507,-0.7832004166555047,0.6146338743865621,0.8751975063474682,,-0.07621634677302738,-0.033641221332190704,0.09367612488,-0.1102278800231344,,3.151223e-05,1.66893e-06,1.4305115e-06,0.99999994,-2.0131469e-05,-1.859665e-05,2.013892e-05,1.0000001,-3.516674e-06,1.859665e-05,3.5464764e-06,1.0,622,1.903,0,0,0.0,False,-0.25344364202339253,1.049418426957168
1.8870016469154507,16:56:55.799015,16:55:38.025985,0,,0.12013309,-0.0011060312,0.02006635,-0.038195368,0.900979,-0.43217817,0.0028789937,0.4325912,0.9015856,0.9992661,0.033192143,-0.019116908,,0.062339492,0.018246971,0.023756027,0.32667562,0.06282987,0.9430458,-0.06395975,-0.99403113,0.08838264,0.9429699,-0.0891895,-0.3207072,,0.08278956,1.2879183,0.42542726,0.9915207,0.10182223,-0.08073976,0.01985837,-0.73274785,-0.6802105,-0.12842242,0.6728394,-0.7285567,,-0.11563108,0.22724205,-0.12536144,-0.03295904,-0.9085813,0.41640565,0.68867517,0.2812937,0.6682817,-0.72432053,0.30879414,0.6164462,,-0.06985842,0.42548448,-0.34161887,-0.44084927,0.07706886,-0.89426637,0.6275321,-0.68588316,-0.36846665,-0.6417596,-0.7236191,0.25400794,,0.9936531479949707,0.35862054648036357,0.19706070951000002,2.4690990845302743,-1.0372076697194585,-0.36601248176584633,-0.4132604873197263,,-1.2769693262187711,0.18756973604916488,0.18966537506000003,-1.7255385449341507,-0.7832004166555047,0.6147155531267028,0.8750341622813339,,-0.07621634677302738,-0.033641221332190704,0.09367612488,-0.1102278800231344,,3.151223e-05,1.66893e-06,1.4305115e-06,0.99999994,-2.0131469e-05,-1.859665e-05,2.013892e-05,1.0000001,-3.516674e-06,1.859665e-05,3.5464764e-06,1.0,630,1.928,0,0,0.0,False,-0.25225208765297147,1.0490321853509326
1.9482333329506218,16:56:55.827251,16:55:38.025985,0,,0.12007969,-0.0011266321,0.020009011,-0.040513963,0.9000491,-0.4339012,0.0021071732,0.43433374,0.9007497,0.99917674,0.035578594,-0.019493222,,0.062337797,0.01824858,0.023758054,0.32668033,0.06275971,0.94304883,-0.06396949,-0.9940368,0.08831247,0.94296765,-0.08917639,-0.32071757,,0.08278956,1.2879183,0.42542726,0.9915207,0.10182223,-0.08073976,0.01985837,-0.73274785,-0.6802105,-0.12842242,0.6728394,-0.7285567,,-0.115573384,0.22719112,-0.12533613,-0.030626649,-0.9078544,0.4181656,0.6881965,0.28425053,0.6675232,-0.72487766,0.3082241,0.6160766,,-0.069857225,0.4254873,-0.34161884,-0.4408523,0.07713671,-0.894259,0.6275236,-0.68586344,-0.36851794,-0.64176583,-0.7236306,0.2539594,,0.9935759206662286,0.3583656962955141,0.19710478337,2.46427621583013,-1.038027488718051,-0.3637103995408567,-0.41293379918745776,,-1.2769693262187711,0.18758518151491335,0.18966407877000002,-1.7255385449341507,-0.7832004166555047,0.6147972318668433,0.8748708182151996,,-0.07621634677302738,-0.033641221332190704,0.09367612488,-0.1102278800231344,,3.151223e-05,1.66893e-06,1.4305115e-06,0.99999994,-2.0131469e-05,-1.859665e-05,2.013892e-05,1.0000001,-3.516674e-06,1.859665e-05,3.5464764e-06,1.0,638,1.952,0,0,0.0,False,-0.25302659799374494,1.0488873447485942
1.9765340848825872,16:56:55.848302,16:55:38.025985,0,,0.120066576,-0.0011423677,0.019939125,-0.04127947,0.89998174,-0.43396887,0.0022965372,0.43442342,0.90070593,0.999145,0.036184028,-0.019999564,,0.062338263,0.01825007,0.023759186,0.32667607,0.06276241,0.94305015,-0.06397775,-0.9940358,0.0883177,0.9429685,-0.089185596,-0.3207123,,0.08278956,1.2879183,0.42542726,0.9915207,0.10182223,-0.08073976,0.01985837,-0.73274785,-0.6802105,-0.12842242,0.6728394,-0.7285567,,-0.11555506,0.22713265,-0.12529676,-0.02986429,-0.9078317,0.41826984,0.68835944,0.28473437,0.6671489,-0.7247547,0.30784392,0.61641115,,-0.06985803,0.42548904,-0.3416184,-0.4408472,0.07713519,-0.89426166,0.62752,-0.68587047,-0.36851093,-0.6417728,-0.7236241,0.2539602,,0.9934291887416182,0.35814945977503587,0.19715533868000001,2.4628083862257384,-1.038027488718051,-0.36248521843874826,-0.4127704551213236,,-1.2769770489516454,0.18759290424778757,0.18966407877000002,-1.7255385449341507,-0.7832004166555047,0.6147972318668433,0.8748708182151996,,-0.07621634677302738,-0.033641221332190704,0.09367612488,-0.1102278800231344,,3.151223e-05,1.66893e-06,1.4305115e-06,0.99999994,-2.0131469e-05,-1.859665e-05,2.013892e-05,1.0000001,-3.516674e-06,1.859665e-05,3.5464764e-06,1.0,646,1.978,0,0,0.0,False,-0.2543373078012081,1.0492253061540504
1.997576009016484,16:56:55.878666,16:55:38.175987,0,,0.12007112,-0.0011568442,0.019781023,-0.04317265,0.8980043,-0.4378635,0.0049001575,0.4384572,0.89873874,0.99905556,0.036655366,-0.023329705,,0.062337965,0.018251859,0.02375865,0.32667843,0.06276584,0.94304913,-0.063982666,-0.9940349,0.08832322,0.9429674,-0.08919218,-0.32071382,,0.08278956,1.2879183,0.42542726,0.9915207,0.10182223,-0.08073976,0.01985837,-0.73274785,-0.6802105,-0.12842242,0.6728394,-0.7285567,,-0.115548104,0.22701362,-0.12519185,-0.028015964,-0.9059646,0.42242548,0.6903057,0.28810832,0.6636804,-0.7229752,0.31019634,0.6173209,,-0.069857895,0.42548975,-0.34161663,-0.4408487,0.0771326,-0.8942611,0.62751573,-0.68587565,-0.36850855,-0.64177597,-0.72361946,0.25396547,,0.993043052097907,0.357879164124438,0.19726293075,2.4598727270169554,-1.0357046682220388,-0.36437932280158736,-0.4127704551213236,,-1.2769770489516454,0.1876006269806618,0.18966537506000003,-1.7255385449341507,-0.7832004166555047,0.6147972318668433,0.8748708182151996,,-0.07621634677302738,-0.033641221332190704,0.09367612488,-0.1102278800231344,,3.151223e-05,1.66893e-06,1.4305115e-06,0.99999994,-2.0131469e-05,-1.859665e-05,2.013892e-05,1.0000001,-3.516674e-06,1.859665e-05,3.5464764e-06,1.0,654,2.003,0,0,0.0,False,-0.25260955396409823,1.0491770259532711
2.0279400979634374,16:56:55.898161,16:55:38.175987,0,,0.12007042,-0.0011763126,0.019698054,-0.04541473,0.8958254,-0.44207966,0.006480843,0.44279113,0.89660144,0.99894714,0.03785391,-0.025914878,,0.06233954,0.018253766,0.023760438,0.32666752,0.0627678,0.94305277,-0.06399435,-0.99403375,0.08832819,0.9429704,-0.08920413,-0.32070178,,0.08278956,1.2879183,0.42542726,0.9915207,0.10182223,-0.08073976,0.01985837,-0.73274785,-0.6802105,-0.12842242,0.6728394,-0.7285567,,-0.11554117,0.2269427,-0.1251451,-0.025800198,-0.9039535,0.42685184,0.6915176,0.2922106,0.6606182,-0.72189873,0.31221962,0.6175606,,-0.06985994,0.42549202,-0.34161633,-0.44083694,0.07713215,-0.89426696,0.62751293,-0.68588454,-0.3684969,-0.6417868,-0.7236111,0.2539618,,0.9927495882486865,0.3577478776655762,0.19731089348000003,2.4560983080342336,-1.0342016667246188,-0.3659316347028102,-0.4134238313858605,,-1.2769924944173938,0.18760834971353602,0.18966537506000003,-1.7255385449341507,-0.7832004166555047,0.6147972318668433,0.8748708182151996,,-0.07621634677302738,-0.033641221332190704,0.09367612488,-0.1102278800231344,,3.151223e-05,1.66893e-06,1.4305115e-06,0.99999994,-2.0131469e-05,-1.859665e-05,2.013892e-05,1.0000001,-3.516674e-06,1.859665e-05,3.5464764e-06,1.0,662,2.027,0,0,0.0,False,-0.252847864838182,1.0489356249493738
2.047443435061723,16:56:55.919059,16:55:38.175987,0,,0.12009801,-0.0011992902,0.019641072,-0.045243215,0.89536464,-0.44302946,0.007976115,0.44379327,0.8960937,0.99894416,0.03700848,-0.02722025,,0.06233842,0.018253379,0.023759782,0.3266741,0.06276855,0.94305044,-0.06399095,-0.99403393,0.08832846,0.94296837,-0.08920142,-0.32070854,,0.08278956,1.2879183,0.42542726,0.9915207,0.10182223,-0.08073976,0.01985837,-0.73274785,-0.6802105,-0.12842242,0.6728394,-0.7285567,,-0.11556423,0.2268853,-0.12511846,-0.025997525,-0.9034517,0.42790088,0.69259083,0.29238787,0.6594143,-0.72086203,0.31350338,0.618121,,-0.06985869,0.42549148,-0.34161618,-0.44084358,0.07713108,-0.8942638,0.6275122,-0.6858827,-0.36850154,-0.641783,-0.72361296,0.25396627,,0.9925101835295855,0.35761659120671435,0.19733681928000002,2.456937067808172,-1.03297193822673,-0.36775118323748357,-0.4121170788567867,,-1.2769847716845195,0.18760834971353602,0.18966537506000003,-1.7255385449341507,-0.7832004166555047,0.6147972318668433,0.8748708182151996,,-0.07621634677302738,-0.033641221332190704,0.09367612488,-0.1102278800231344,,3.151223e-05,1.66893e-06,1.4305115e-06,0.99999994,-2.0131469e-05,-1.859665e-05,2.013892e-05,1.0000001,-3.516674e-06,1.859665e-05,3.5464764e-06,1.0,691,2.116,0,0,0.0,False,-0.25320533114930877,1.0490321853509326
2.068345454055816,16:56:56.006941,16:55:38.175987,0,,0.11997331,-0.00117933,0.019355536,-0.046387233,0.89209443,-0.44946155,0.01369518,0.45047158,0.8926858,0.9988296,0.035253733,-0.03311354,,0.062343653,0.01825621,0.023760438,0.3266477,0.06276557,0.9430598,-0.06400469,-0.99403316,0.08832738,0.94297653,-0.08921221,-0.32068133,,0.08278956,1.2879183,0.42542726,0.9915207,0.10182223,-0.08073976,0.01985837,-0.73274785,-0.6802105,-0.12842242,0.6728394,-0.7285567,,-0.115419924,0.22671197,-0.124902554,-0.024949746,-0.90018386,0.43479478,0.69673604,0.29623774,0.6533009,-0.71689355,0.3192369,0.6197995,,-0.06986428,0.4254927,-0.34161445,-0.440817,0.07713537,-0.89427656,0.6275151,-0.68589,-0.36848298,-0.64179844,-0.7236056,0.25394836,,0.9927109745843153,0.35685204065216614,0.19754941084000002,2.454630478429842,-1.0276431147358778,-0.3729949476231902,-0.41228042292292066,,-1.2770156626160165,0.18760834971353602,0.18966796764000002,-1.7255385449341507,-0.7832004166555047,0.6147972318668433,0.8748708182151996,,-0.07621634677302738,-0.033641221332190704,0.09367612488,-0.1102278800231344,,3.151223e-05,1.66893e-06,1.4305115e-06,0.99999994,-2.0131469e-05,-1.859665e-05,2.013892e-05,1.0000001,-3.516674e-06,1.859665e-05,3.5464764e-06,1.0,695,2.129,0,0,0.0,False,-0.25302659799374494,1.0491770259532711
2.1562182519119233,16:56:56.028218,16:55:38.175987,0,,0.11996805,-0.0011450797,0.019280702,-0.044084407,0.89236706,-0.44915208,0.018629342,0.45024532,0.89271057,0.99885404,0.030987233,-0.036472946,,0.06234254,0.018255852,0.023759723,0.3266543,0.062766306,0.9430575,-0.06400123,-0.99403334,0.088327624,0.94297445,-0.08920953,-0.3206882,,0.08278956,1.2879183,0.42542726,0.9915207,0.10182223,-0.08073976,0.01985837,-0.73274785,-0.6802105,-0.12842242,0.6728394,-0.7285567,,-0.11540997,0.22668593,-0.12482495,-0.027335532,-0.9001486,0.43472442,0.7001938,0.2931352,0.65099955,-0.71342933,0.32218677,0.62226546,,-0.069863044,0.42549217,-0.3416143,-0.44082364,0.0771343,-0.89427334,0.62751436,-0.6858882,-0.36848763,-0.64179456,-0.7236074,0.25395283,,0.9929581020362905,0.3567670905905497,0.19759478099000002,2.459453347129986,-1.0228608372440873,-0.376894574252565,-0.41228042292292066,,-1.2770079398831422,0.18760834971353602,0.18966796764000002,-1.7255385449341507,-0.7832004166555047,0.6147972318668433,0.8748708182151996,,-0.07621634677302738,-0.033641221332190704,0.09367612488,-0.1102278800231344,,3.151223e-05,1.66893e-06,1.4305115e-06,0.99999994,-2.0131469e-05,-1.859665e-05,2.013892e-05,1.0000001,-3.516674e-06,1.859665e-05,3.5464764e-06,1.0,703,2.153,0,0,0.0,False,-0.2540989969271239,1.0491287457524916
2.1775010770652443,16:56:56.055601,16:55:38.347148,0,,0.11998295,-0.0010704994,0.019162327,-0.039649203,0.89398444,-0.4463404,0.024340004,0.44742322,0.8939911,0.99891716,0.024582103,-0.03949955,,0.06234224,0.018256031,0.023763001,0.32665,0.06276902,0.9430588,-0.06400955,-0.9940324,0.08833286,0.9429754,-0.089218736,-0.32068294,,0.08278956,1.2879183,0.42542726,0.9915207,0.10182223,-0.08073976,0.01985837,-0.73274785,-0.6802105,-0.12842242,0.6728394,-0.7285567,,-0.11541774,0.22665812,-0.12468725,-0.031864468,-0.9012565,0.43211263,0.70411044,0.2866003,0.6496836,-0.7093752,0.32495683,0.62545174,,-0.06986322,0.42549488,-0.34161618,-0.4408185,0.07713278,-0.894276,0.6275108,-0.6858952,-0.36848062,-0.64180154,-0.7236009,0.25395364,,0.9932979022827564,0.3567130314604301,0.19769329903000002,2.4682603247563364,-1.0173953772534696,-0.3813512904004218,-0.41228042292292066,,-1.2770156626160165,0.18761607244641024,0.18966537506000003,-1.7255385449341507,-0.7832004166555047,0.6147972318668433,0.8748708182151996,,-0.07621634677302738,-0.033641221332190704,0.09367612488,-0.1102278800231344,,3.151223e-05,1.66893e-06,1.4305115e-06,0.99999994,-2.0131469e-05,-1.859665e-05,2.013892e-05,1.0000001,-3.516674e-06,1.859665e-05,3.5464764e-06,1.0,711,2.178,0,0,0.0,False,-0.2537415306159976,1.049514987358727
2.204879113007337,16:56:56.073020,16:55:38.347148,0,,0.11994382,-0.0010179281,0.01909545,-0.040323995,0.8931431,-0.44796136,0.025003284,0.44908756,0.8931378,0.9988737,0.024814367,-0.04044056,,0.062339142,0.01825907,0.023763716,0.32666364,0.062857084,0.9430482,-0.06402075,-0.99402297,0.08843086,0.9429699,-0.0892618,-0.320687,,0.08278956,1.2879183,0.42542726,0.9915207,0.10182223,-0.08073976,0.01985837,-0.73274785,-0.6802105,-0.12842242,0.6728394,-0.7285567,,-0.11537489,0.22665289,-0.124604136,-0.031200154,-0.90046346,0.4338112,0.704604,0.28801984,0.64851964,-0.70891446,0.325899,0.6254839,,-0.06986066,0.42549786,-0.34161422,-0.4408297,0.07705088,-0.8942776,0.62749726,-0.685939,-0.36842212,-0.64180714,-0.72356814,0.25403306,,0.9934832478717378,0.3567053087275559,0.19777237272,2.4667924951519447,-1.016575558254877,-0.3819381190824599,-0.4124437669890548,,-1.2770079398831422,0.1876392406450329,0.18966537506000003,-1.7255385449341507,-0.7832004166555047,0.6147155531267028,0.8747074741490654,,-0.07621634677302738,-0.033641221332190704,0.09367612488,-0.1102278800231344,,3.151223e-05,1.66893e-06,1.4305115e-06,0.99999994,-2.0131469e-05,-1.859665e-05,2.013892e-05,1.0000001,-3.516674e-06,1.859665e-05,3.5464764e-06,1.0,719,2.203,0,0,0.0,False,-0.2533840643048717,1.049080465551712
2.2222873910795897,16:56:56.100722,16:55:38.347148,0,,0.11988067,-0.0009146109,0.01893264,-0.04325659,0.89101475,-0.45190883,0.026949644,0.4532083,0.8909972,0.9987004,0.026362732,-0.043616742,,0.062339112,0.018264972,0.023765922,0.3266597,0.06286936,0.94304866,-0.06404704,-0.99401927,0.08845238,0.94296944,-0.08929342,-0.3206795,,0.08278956,1.2879183,0.42542726,0.9915207,0.10182223,-0.08073976,0.01985837,-0.73274785,-0.6802105,-0.12842242,0.6728394,-0.7285567,,-0.115302175,0.22662035,-0.124417536,-0.028297594,-0.8985238,0.4380117,0.7060796,0.29220372,0.6450338,-0.70756686,0.32752404,0.6261606,,-0.06986169,0.42550316,-0.34161094,-0.44082245,0.07704265,-0.8942818,0.6274816,-0.6859634,-0.36840335,-0.6418274,-0.72354585,0.25404525,,0.9936531479949707,0.356743922391927,0.19794866816,2.461340556621347,-1.0142527377588644,-0.3818719336819254,-0.4121170788567865,,-1.2770233853488906,0.18767013157652981,0.18966667135,-1.7255385449341507,-0.7832004166555047,0.6147155531267028,0.8747074741490654,,-0.07621634677302738,-0.033641221332190704,0.09367612488,-0.1102278800231344,,3.151223e-05,1.66893e-06,1.4305115e-06,0.99999994,-2.0131469e-05,-1.859665e-05,2.013892e-05,1.0000001,-3.516674e-06,1.859665e-05,3.5464764e-06,1.0,727,2.228,0,0,0.0,False,-0.2536223751789555,1.0490321853509326
2.2499912360217422,16:56:56.123083,16:55:38.347148,0,,0.11984875,-0.00082345307,0.018758863,-0.045685448,0.8900012,-0.45366356,0.029164255,0.45513248,0.88994604,0.99853003,0.027426824,-0.046749145,,0.062336467,0.018269502,0.023767829,0.32666904,0.06288312,0.94304454,-0.06406647,-0.99401605,0.08847442,0.942965,-0.0893195,-0.32068563,,0.08278956,1.2879183,0.42542726,0.9915207,0.10182223,-0.08073976,0.01985837,-0.73274785,-0.6802105,-0.12842242,0.6728394,-0.7285567,,-0.11525961,0.22656952,-0.12423012,-0.025902377,-0.8976227,0.4400029,0.70772094,0.29439217,0.64223385,-0.7060171,0.32803467,0.62764096,,-0.06985993,0.42550787,-0.34160852,-0.44082853,0.07703227,-0.8942797,0.62746453,-0.68598413,-0.36839387,-0.6418399,-0.7235273,0.25406638,,0.9936685934607192,0.3567748133234239,0.19812625989000002,2.4571467577516564,-1.0117932807630865,-0.3804469488625576,-0.41375051951812947,,-1.2770233853488906,0.1877010225080267,0.18966667135,-1.7255385449341507,-0.7832004166555047,0.6147155531267028,0.8747074741490654,,-0.07621634677302738,-0.033641221332190704,0.09367612488,-0.1102278800231344,,3.151223e-05,1.66893e-06,1.4305115e-06,0.99999994,-2.0131469e-05,-1.859665e-05,2.013892e-05,1.0000001,-3.516674e-06,1.859665e-05,3.5464764e-06,1.0,735,2.252,0,0,0.0,False,-0.25278828711966117,1.0488873447485942
2.272365751909092,16:56:56.150885,16:55:38.347148,0,,0.11980052,-0.0007465184,0.018598288,-0.04955755,0.88806874,-0.4570316,0.02951184,0.45869613,0.888103,0.9983351,0.030524358,-0.04894039,,0.062335152,0.018271796,0.023768783,0.32667372,0.06288999,0.94304246,-0.064076304,-0.9940145,0.08848545,0.9429627,-0.08933255,-0.32068866,,0.08278956,1.2879183,0.42542726,0.9915207,0.10182223,-0.08073976,0.01985837,-0.73274785,-0.6802105,-0.12842242,0.6728394,-0.7285567,,-0.115201466,0.22651842,-0.124062665,-0.022032976,-0.8959786,0.44355023,0.70807874,0.29922017,0.6396028,-0.7057896,0.32816085,0.62783074,,-0.06985904,0.42551023,-0.34160733,-0.44083154,0.07702708,-0.8942787,0.62745595,-0.6859945,-0.36838913,-0.64184624,-0.723518,0.25407693,,0.9936145343305997,0.3567748133234239,0.19829866646000002,2.4500172996731826,-1.0111100982642593,-0.378308639956401,-0.412280422922921,,-1.2770233853488906,0.18771646797377517,0.18966667135,-1.7255385449341507,-0.7832004166555047,0.6147155531267028,0.8747074741490654,,-0.07621634677302738,-0.033641221332190704,0.09367612488,-0.1102278800231344,,3.151223e-05,1.66893e-06,1.4305115e-06,0.99999994,-2.0131469e-05,-1.859665e-05,2.013892e-05,1.0000001,-3.516674e-06,1.859665e-05,3.5464764e-06,1.0,756,2.317,0,0,0.0,False,-0.2524308208085344,1.049418426957168
2.3001716390717775,16:56:56.209492,16:55:38.347148,0,,0.11981024,-0.0005212575,0.018063992,-0.052187856,0.8878023,-0.45725638,0.039675504,0.45936215,0.8873626,0.9978488,0.02816768,-0.059197128,,0.0623339,0.018274926,0.023771942,0.3266741,0.06274553,0.9430519,-0.064094245,-0.9940263,0.088339314,0.9429613,-0.08930245,-0.32070106,,0.08278956,1.2879183,0.42542726,0.9915207,0.10182223,-0.08073976,0.01985837,-0.73274785,-0.6802105,-0.12842242,0.6728394,-0.7285567,,-0.11517718,0.22631553,-0.12351991,-0.019555215,-0.8955573,0.4445163,0.71528864,0.29810658,0.6320559,-0.69855547,0.33031747,0.63475245,,-0.069858655,0.42551482,-0.34160683,-0.44082946,0.07716645,-0.8942677,0.62744385,-0.6859517,-0.36848944,-0.6418595,-0.72354376,0.2539701,,0.9933982978101213,0.3567670905905497,0.19879384924000001,2.447291330407884,-1.0008623607818512,-0.3768635339167652,-0.41260711105518943,,-1.277031108081765,0.18773963617239783,0.18966537506000003,-1.7255385449341507,-0.7832004166555047,0.614878910606984,0.8753608504136025,,-0.07621634677302738,-0.033641221332190704,0.09367612488,-0.1102278800231344,,3.151223e-05,1.66893e-06,1.4305115e-06,0.99999994,-2.0131469e-05,-1.859665e-05,2.013892e-05,1.0000001,-3.516674e-06,1.859665e-05,3.5464764e-06,1.0,760,2.329,0,0,0.0,False,-0.25356279746043464,1.0486459437446969
2.3587774538900703,16:56:56.230793,16:55:38.347148,0,,0.119829394,-0.00044237077,0.017904818,-0.05107821,0.88852394,-0.4559783,0.04226631,0.4580885,0.8879012,0.9977999,0.026079863,-0.06095299,,0.062330544,0.018275402,0.023778498,0.32639918,0.062668346,0.9431523,-0.06396121,-0.9940486,0.08818534,0.9430655,-0.089108914,-0.3204483,,0.08278956,1.2879183,0.42542726,0.9915207,0.10182223,-0.08073976,0.01985837,-0.73274785,-0.6802105,-0.12842242,0.6728394,-0.7285567,,-0.11518638,0.22626266,-0.123349495,-0.020704297,-0.896106,0.44335687,0.7170681,0.29570758,0.63116586,-0.69669557,0.33098492,0.6364466,,-0.06985631,0.4255208,-0.3416105,-0.44059047,0.07721883,-0.894381,0.6276563,-0.6858017,-0.36840695,-0.6418159,-0.72368044,0.25369078,,0.9933905750772472,0.3567593678576754,0.19895199662000002,2.449807609729698,-0.9984029037860733,-0.37764387508119235,-0.4127704551213236,,-1.277031108081765,0.18774735890527205,0.18966018990000003,-1.7259579248211199,-0.7833370531552701,0.6153170434712426,0.8747074741490654,,-0.07621634677302738,-0.033641221332190704,0.09367612488,-0.1102278800231344,,3.151223e-05,1.66893e-06,1.4305115e-06,0.99999994,-2.0131469e-05,-1.859665e-05,2.013892e-05,1.0000001,-3.516674e-06,1.859665e-05,3.5464764e-06,1.0,768,2.354,0,0,0.0,False,-0.254218152364166,1.0491770259532711
2.3800564350094646,16:56:56.251510,16:55:38.347148,0,,0.11982708,-0.00039991736,0.017825484,-0.050927415,0.8882707,-0.45648828,0.043365836,0.4586172,0.8875752,0.99776036,0.025405899,-0.061876744,,0.062325124,0.01826977,0.02379328,0.32630354,0.06246736,0.9431987,-0.0640592,-0.99405897,0.08799728,0.943092,-0.089134485,-0.32036337,,0.08278956,1.2879183,0.42542726,0.9915207,0.10182223,-0.08073976,0.01985837,-0.73274785,-0.6802105,-0.12842242,0.6728394,-0.7285567,,-0.11517917,0.22623931,-0.123262875,-0.02087136,-0.89581496,0.4439369,0.7178302,0.29564565,0.63032806,-0.6959053,0.33182713,0.6368725,,-0.06985227,0.42552978,-0.341624,-0.4404876,0.0774211,-0.8944141,0.62763476,-0.6857904,-0.36846462,-0.6419076,-0.72366947,0.25349,,0.993421466008744,0.35675164512480123,0.19903366289000002,2.450226989616667,-0.9973098117879499,-0.3786168970509044,-0.41375051951812936,,-1.277031108081765,0.1877628043710205,0.18964463442,-1.7259579248211199,-0.7834736896550355,0.6155101401150795,0.8742174419506625,,-0.07621634677302738,-0.033641221332190704,0.09367612488,-0.1102278800231344,,3.151223e-05,1.66893e-06,1.4305115e-06,0.99999994,-2.0131469e-05,-1.859665e-05,2.013892e-05,1.0000001,-3.516674e-06,1.859665e-05,3.5464764e-06,1.0,776,2.379,0,0,0.0,False,-0.25397984149008224,1.0486459437446969
2.4007900119759142,16:56:56.272068,16:55:38.347148,0,,0.11988526,-0.0003553927,0.017731875,-0.046291173,0.8899921,-0.45362005,0.047086537,0.4555462,0.88896596,0.9978175,0.019791886,-0.06299433,,0.062316146,0.018267535,0.023806214,0.3260493,0.062858336,0.94326067,-0.063726485,-0.99405605,0.08827107,0.94320244,-0.088891536,-0.32010555,,0.08278956,1.2879183,0.42542726,0.9915207,0.10182223,-0.08073976,0.01985837,-0.73274785,-0.6802105,-0.12842242,0.6728394,-0.7285567,,-0.11523134,0.22620396,-0.12316208,-0.02556513,-0.89707845,0.44113114,0.7202853,0.28946528,0.6303959,-0.69320667,0.33385643,0.63875216,,-0.06984492,0.42554006,-0.34163362,-0.4402952,0.07700359,-0.8945449,0.62796974,-0.68567383,-0.36811054,-0.6417119,-0.72382444,0.25354296,,0.9934755251388636,0.35672075419330435,0.19911144029000002,2.4592436571865015,-0.9940305357935793,-0.3830061802825702,-0.4134238313858608,,-1.2770233853488906,0.1877859725696432,0.18962519007000003,-1.7267966845950582,-0.7834736896550355,0.6155918188552201,0.8747074741490654,,-0.07621634677302738,-0.033641221332190704,0.09367612488,-0.1102278800231344,,3.151223e-05,1.66893e-06,1.4305115e-06,0.99999994,-2.0131469e-05,-1.859665e-05,2.013892e-05,1.0000001,-3.516674e-06,1.859665e-05,3.5464764e-06,1.0,784,2.404,0,0,0.0,False,-0.254218152364166,1.0490321853509326
2.4213442949112505,16:56:56.301471,16:55:38.347148,0,,0.119860955,-0.00032554567,0.017685235,-0.046650007,0.88949805,-0.45455146,0.0470289,0.45649803,0.88848066,0.99780357,0.020070553,-0.063127756,,0.062309228,0.018264823,0.023819566,0.32596773,0.063047774,0.9432762,-0.06362814,-0.99404824,0.088429235,0.94323725,-0.08884403,-0.32001606,,0.08278956,1.2879183,0.42542726,0.9915207,0.10182223,-0.08073976,0.01985837,-0.73274785,-0.6802105,-0.12842242,0.6728394,-0.7285567,,-0.11520431,0.22619519,-0.1231087,-0.025205249,-0.89662236,0.4420781,0.72025603,0.29037777,0.63000953,-0.6932503,0.33428898,0.6384786,,-0.06983959,0.42554998,-0.341644,-0.4402323,0.07681003,-0.8945925,0.62807167,-0.6856677,-0.36794809,-0.64165527,-0.72385085,0.25361085,,0.9935681979333543,0.3566821405289332,0.19916718076,2.4584048974125636,-0.9940305357935793,-0.3833328952431326,-0.4140772076503979,,-1.2770233853488906,0.18780141803539163,0.18961611604000003,-1.7267966845950582,-0.7834736896550355,0.6156734975953606,0.8748708182151996,,-0.07621634677302738,-0.033641221332190704,0.09367612488,-0.1102278800231344,,3.151223e-05,1.66893e-06,1.4305115e-06,0.99999994,-2.0131469e-05,-1.859665e-05,2.013892e-05,1.0000001,-3.516674e-06,1.859665e-05,3.5464764e-06,1.0,792,2.429,0,0,0.0,False,-0.25451604095677105,1.049080465551712
2.450740250060335,16:56:56.320975,16:55:38.616377,0,,0.11983679,-0.0003253892,0.017659962,-0.046540115,0.8893961,-0.45476234,0.04722628,0.45670563,0.8883635,0.9977994,0.019867823,-0.06325796,,0.062308565,0.018269531,0.023828387,0.3258593,0.06293193,0.9433214,-0.0637511,-0.99404854,0.08833808,0.94326645,-0.08892366,-0.31990802,,0.08278956,1.2879183,0.42542726,0.9915207,0.10182223,-0.08073976,0.01985837,-0.73274785,-0.6802105,-0.12842242,0.6728394,-0.7285567,,-0.11517843,0.22617948,-0.1230912,-0.025318036,-0.8965099,0.44229975,0.72038966,0.290396,0.6298483,-0.69310725,0.3345747,0.6384842,,-0.06984073,0.42555976,-0.34164572,-0.44011408,0.076934695,-0.89463997,0.62803936,-0.6857077,-0.36792868,-0.641768,-0.7237997,0.25347158,,0.9936454252620965,0.3565585768029456,0.19918792140000002,2.4584048974125636,-0.9938938992938139,-0.3835259918869695,-0.41424055171653207,,-1.2770465535475133,0.18784003169976274,0.18961222717,-1.7267966845950582,-0.783610326154801,0.6157849154990571,0.8748708182151996,,-0.07621634677302738,-0.033641221332190704,0.09367612488,-0.1102278800231344,,3.151223e-05,1.66893e-06,1.4305115e-06,0.99999994,-2.0131469e-05,-1.859665e-05,2.013892e-05,1.0000001,-3.516674e-06,1.859665e-05,3.5464764e-06,1.0,821,2.518,0,0,0.0,False,-0.2540989969271239,1.049418426957168
