AlexandreBanks6/ExpertPlaybackApp/resources/Motions/P_19/PC1/Data_PC1_4.csv
Task Time,PC1 Time,PC2 Time,Gaze Calib,s_T_psm1,Tx,Ty,Tz,R00,R01,R02,R10,R11,R12,R20,R21,R22,s_T_psm3,Tx,Ty,Tz,R00,R01,R02,R10,R11,R12,R20,R21,R22,cart_T_ecm,Tx,Ty,Tz,R00,R01,R02,R10,R11,R12,R20,R21,R22,ecm_T_psm1,Tx,Ty,Tz,R00,R01,R02,R10,R11,R12,R20,R21,R22,ecm_T_psm3,Tx,Ty,Tz,R00,R01,R02,R10,R11,R12,R20,R21,R22,psm1_joints,q1,q2,q3,q4,q5,q6,jaw,psm3_joints,q1,q2,q3,q4,q5,q6,jaw,ecm_joints,q1,q2,q3,q4,ecmi_T_ecm,Tx,Ty,Tz,R00,R01,R02,R10,R11,R12,R20,R21,R22,Sample #,Task Duration (s),Collisions (binary),Collisions (increments),Cumulative Collision Time (s),Clutch Press,MTMR Angle,MTML Angle
""
lci_T_si,,,,,-0.050445605,0.031140205,0.20799266,0.9865919,-0.013161347,0.16267522,0.100886725,-0.734317,-0.67126775,0.12828997,0.67867905,-0.7231434
rci_T_si,,,,,-0.059559833,0.035046782,0.21627636,0.9849687,-0.028336054,0.17039265,0.097400196,-0.72355855,-0.6833566,0.14265269,0.6896812,-0.7099226
ecm_T_lc,,,,,-4.4061628e-05,-0.00034663224,-0.01840835,-0.99912,0.030754527,0.028518902,-0.031987965,-0.99852574,-0.043852776,0.027128186,-0.04472645,0.9986309
ecm_T_rc,,,,,-0.0043358393,0.01870579,-0.007592615,-0.99555075,-0.052743673,-0.078081585,0.04863213,-0.9973746,0.053654674,-0.08070653,0.04961868,0.9955021
cart_T_ecmi,,,,,0.08296387,1.2897631,0.42729735,0.9916556,0.10047608,-0.08076963,0.018945528,-0.7333144,-0.6796257,-0.12751566,0.6724244,-0.7290989
ecmac_T_ecmrep_psm1,,,,,0.022898523,-0.26913688,-0.29720387,0.9902475,0.13300471,0.041468147,-0.1315095,0.99062705,-0.036922794,-0.045990374,0.031109251,0.9984574
ecmac_T_ecmrep_psm3,,,,,0.02078248,-0.4666591,-0.5231304,0.997355,0.0035024614,0.07259993,-0.011652398,0.993624,0.11214125,-0.07174426,-0.1126906,0.99103665
""
0,16:09:33.635473,16:08:15.855863,0,,0.122560844,-0.004852943,0.029202506,0.6571899,0.5461484,-0.51944506,0.2192504,0.5208475,0.8250134,0.7211315,-0.6560791,0.22255246,,0.0706618,-0.015792117,0.032191753,0.048952878,-0.3332644,0.9415616,-0.107836455,0.935418,0.33669645,-0.9929627,-0.11801687,0.009853333,,0.082985125,1.2897636,0.42730233,0.99165624,0.10045084,-0.08079301,0.018911408,-0.73331785,-0.6796229,-0.12751566,0.6724244,-0.7290989,,-0.12017903,0.25937933,-0.10451805,-0.69594616,-0.44711587,0.5619131,0.65568894,-0.07660586,0.7511349,-0.2927985,0.89118963,0.3464825,,-0.081582114,0.4306952,-0.34428918,0.1029982,0.31698695,-0.94282055,-0.8419668,0.5324623,0.087039396,0.52960676,0.7848587,0.32173514,,1.1195954757078241,0.5304436301989847,0.20828787720000003,3.252920093275426,-0.34309425091102097,-1.1838309883970206,-0.41505727204720366,,-1.3619116651023666,0.1599764114895607,0.18746297835000003,0.9069090055705677,0.8263775505813838,-0.6130048201512378,0.8328913932186899,,-0.07627525163528219,-0.034472434388453,0.0910472212,-0.1089195372335423,,2.0448118e-05,5.185604e-06,-5.6028366e-06,1.0,-2.5093555e-05,-2.3126602e-05,2.5093555e-05,1.0,-4.4107437e-06,2.3141503e-05,4.3809414e-06,1.0,38,0.114,0,0,0.0,False,-0.2617249448978165,1.0068835700704653
0.1328167379833758,16:09:33.667602,16:08:15.919454,0,,0.122471526,-0.0048296824,0.029215291,0.63342667,0.5691966,-0.52420014,0.21553127,0.5208449,0.8259945,0.7431802,-0.6361885,0.2072374,,0.07066558,-0.015795037,0.032193244,0.04904851,-0.33337718,0.94151676,-0.10773966,0.9353851,0.3368188,-0.99296856,-0.11795917,0.009961262,,0.082985125,1.2897636,0.42730233,0.99165624,0.10045084,-0.08079301,0.018911408,-0.73331785,-0.6796229,-0.12751566,0.6724244,-0.7290989,,-0.12008954,0.25940508,-0.104521506,-0.67446965,-0.4716734,0.567992,0.6682435,-0.06290326,0.74127847,-0.31391278,0.8795268,0.35761905,,-0.08158597,0.430694,-0.34429213,0.102901444,0.31709087,-0.9427962,-0.84192455,0.53250206,0.08720473,0.5296927,0.78478974,0.32176182,,1.119726762166686,0.5292466066034799,0.20835658057000003,3.226918540283345,-0.3660491828716149,-1.1670730703393954,-0.4158739923778749,,-1.361927110568115,0.15995324329093805,0.18746297835000003,0.9069090055705677,0.8265141870811493,-0.6128712018345125,0.832401361020287,,-0.07627525163528219,-0.034472434388453,0.0910472212,-0.1089195372335423,,2.0448118e-05,5.185604e-06,-5.6028366e-06,1.0,-2.5093555e-05,-2.3126602e-05,2.5093555e-05,1.0,-4.4107437e-06,2.3141503e-05,4.3809414e-06,1.0,46,0.137,0,0,0.0,False,-0.261427056305211,1.006738729468127
0.16493493295274675,16:09:33.695415,16:08:15.919454,0,,0.12240088,-0.0048222393,0.029191867,0.62065077,0.5768416,-0.5310803,0.2148555,0.5262793,0.82271934,0.7540754,-0.624727,0.20269802,,0.07066451,-0.015795246,0.03219247,0.049041536,-0.33337933,0.94151634,-0.1077421,0.9353843,0.33682016,-0.99296856,-0.11795911,0.009953678,,0.082985125,1.2897636,0.42730233,0.99165624,0.10045084,-0.08079301,0.018911408,-0.73331785,-0.6796229,-0.12751566,0.6724244,-0.7290989,,-0.12001683,0.25939438,-0.10450763,-0.66273975,-0.47980043,0.57495004,0.67528915,-0.051068146,0.735783,-0.32366738,0.87589014,0.35784894,,-0.08158479,0.43069342,-0.3442919,0.10290842,0.317093,-0.94279474,-0.84192514,0.5325019,0.08719973,0.5296904,0.78478897,0.3217675,,1.1197730985639311,0.5285052242475543,0.20840713588,3.212449934182913,-0.3768434663530848,-1.1646419976783418,-0.415383960179472,,-1.3619193878352407,0.15995324329093805,0.18746297835000003,0.9069090055705677,0.8265141870811493,-0.6128712018345125,0.832401361020287,,-0.07627525163528219,-0.034472434388453,0.0910472212,-0.1089195372335423,,2.0448118e-05,5.185604e-06,-5.6028366e-06,1.0,-2.5093555e-05,-2.3126602e-05,2.5093555e-05,1.0,-4.4107437e-06,2.3141503e-05,4.3809414e-06,1.0,57,0.171,0,0,0.0,False,-0.26243987752006825,1.0071732512751421
0.1927291378378868,16:09:33.726887,16:08:15.919454,0,,0.12231071,-0.0047908947,0.029199198,0.5964008,0.5950409,-0.538732,0.2093006,0.5326606,0.8200402,0.77491885,-0.6018297,0.19313684,,0.07066128,-0.015795901,0.032190084,0.049020644,-0.33346272,0.9414879,-0.10774943,0.93535453,0.33690053,-0.9929688,-0.11795986,0.009921238,,0.082985125,1.2897636,0.42730233,0.99165624,0.10045084,-0.08079301,0.018911408,-0.73331785,-0.6796229,-0.12751566,0.6724244,-0.7290989,,-0.11992541,0.2594222,-0.10450171,-0.6408226,-0.49929318,0.5831404,0.685684,-0.030665698,0.7272531,-0.3452301,0.86589026,0.36200863,,-0.08158122,0.43069163,-0.34429118,0.10292934,0.31717646,-0.94276434,-0.841927,0.5324943,0.08722822,0.5296834,0.7847604,0.3218487,,1.1198426031597992,0.5273082006520495,0.20849398731000002,3.1870774510212856,-0.40048158081250596,-1.1550864704155877,-0.41652736864241224,,-1.361896219636618,0.15995324329093805,0.18746297835000003,0.9069090055705677,0.8265141870811493,-0.612789523094372,0.8322380169541528,,-0.07627525163528219,-0.034472434388453,0.0910472212,-0.1089195372335423,,2.0448118e-05,5.185604e-06,-5.6028366e-06,1.0,-2.5093555e-05,-2.3126602e-05,2.5093555e-05,1.0,-4.4107437e-06,2.3141503e-05,4.3809414e-06,1.0,65,0.196,0,0,0.0,False,-0.26136747858668974,1.00736637207826
0.22423366596922278,16:09:33.757978,16:08:15.919454,0,,0.12216835,-0.004767753,0.029165432,0.5695975,0.61518395,-0.54507554,0.20310614,0.53725404,0.81859994,0.7964337,-0.5769807,0.18107092,,0.070660725,-0.015796557,0.032191098,0.049020644,-0.3333858,0.9415151,-0.10774943,0.935382,0.33682418,-0.9929688,-0.11795908,0.009930864,,0.082985125,1.2897636,0.42730233,0.99165624,0.10045084,-0.08079301,0.018911408,-0.73331785,-0.6796229,-0.12751566,0.6724244,-0.7290989,,-0.119779356,0.2594158,-0.10447785,-0.6164747,-0.52101946,0.5903369,0.69608235,-0.010211872,0.7178893,-0.36800584,0.85348374,0.3689678,,-0.0815808,0.43069208,-0.3442923,0.10292934,0.31709945,-0.94279027,-0.841927,0.5325014,0.087184735,0.5296834,0.7847867,0.32178462,,1.1199198304885416,0.5257327631457077,0.20861454228,3.1585596187073905,-0.4264425157679396,-1.1410231191054967,-0.41652736864241224,,-1.361896219636618,0.15995324329093805,0.18746168206000002,0.9069090055705677,0.8265141870811493,-0.6128712018345125,0.8320746728880186,,-0.07627525163528219,-0.034472434388453,0.0910472212,-0.1089195372335423,,2.0448118e-05,5.185604e-06,-5.6028366e-06,1.0,-2.5093555e-05,-2.3126602e-05,2.5093555e-05,1.0,-4.4107437e-06,2.3141503e-05,4.3809414e-06,1.0,77,0.232,0,0,0.0,False,-0.26160578946077395,1.0069318502712448
0.2553162700496614,16:09:33.791873,16:08:15.919454,0,,0.122062564,-0.0047205836,0.029169694,0.5443152,0.6307307,-0.55308187,0.19859177,0.54368335,0.8154567,0.81503505,-0.5537031,0.17067727,,0.0706635,-0.015801653,0.032191098,0.049031172,-0.3333669,0.94152117,-0.10777265,0.9353856,0.33680683,-0.9929658,-0.117984325,0.0099352,,0.082985125,1.2897636,0.42730233,0.99165624,0.10045084,-0.08079301,0.018911408,-0.73331785,-0.6796229,-0.12751566,0.6724244,-0.7290989,,-0.11967093,0.259453,-0.10446065,-0.5932636,-0.5379049,0.5989128,0.7056836,0.010490723,0.7084494,-0.38736147,0.8429402,0.37336692,,-0.08158338,0.43068856,-0.34429613,0.10291923,0.3170844,-0.9427964,-0.84194046,0.5324815,0.08717651,0.5296639,0.7848063,0.32176876,,1.11993527595429,0.524674748741939,0.20871176403000002,3.1323483757718247,-0.447347900232052,-1.1308371940117514,-0.4173440889730833,,-1.3619039423694923,0.15992235235944113,0.18746038577000002,0.9069090055705677,0.8265141870811493,-0.6128712018345125,0.8320746728880186,,-0.07627525163528219,-0.034472434388453,0.0910472212,-0.1089195372335423,,2.0448118e-05,5.185604e-06,-5.6028366e-06,1.0,-2.5093555e-05,-2.3126602e-05,2.5093555e-05,1.0,-4.4107437e-06,2.3141503e-05,4.3809414e-06,1.0,92,0.278,0,0,0.0,False,-0.26243987752006825,1.0066904492673474
0.28921150392852724,16:09:33.828983,16:08:15.919454,0,,0.12195888,-0.0046514645,0.02918987,0.51530135,0.6502277,-0.55827254,0.18929785,0.54897213,0.81412274,0.8358413,-0.52519846,0.1597994,,0.07066465,-0.015802965,0.03218746,0.049025986,-0.33328375,0.94155097,-0.10778788,0.9354137,0.33672377,-0.9929644,-0.11799607,0.009935573,,0.082985125,1.2897636,0.42730233,0.99165624,0.10045084,-0.08079301,0.018911408,-0.73331785,-0.6796229,-0.12751566,0.6724244,-0.7290989,,-0.11956421,0.25951704,-0.10443961,-0.56690264,-0.55924034,0.60487324,0.7133527,0.03397181,0.69998133,-0.4120064,0.82830924,0.37967688,,-0.08158393,0.43068475,-0.34429485,0.10292463,0.31700307,-0.9428232,-0.8419481,0.5324784,0.08712141,0.52965075,0.78484124,0.32170528,,1.11993527595429,0.5234854478793084,0.20884268932000002,3.1034111635709607,-0.47481183668490556,-1.1161199969419835,-0.4170174008408152,,-1.361896219636618,0.1599069068936927,0.18746297835000003,0.9069090055705677,0.8265141870811493,-0.612952880574653,0.8322380169541528,,-0.07627525163528219,-0.034472434388453,0.0910472212,-0.1089195372335423,,2.0448118e-05,5.185604e-06,-5.6028366e-06,1.0,-2.5093555e-05,-2.3126602e-05,2.5093555e-05,1.0,-4.4107437e-06,2.3141503e-05,4.3809414e-06,1.0,100,0.301,0,0,0.0,False,-0.2622611443645053,1.0069318502712448
0.32631149305962026,16:09:33.864270,16:08:15.919454,0,,0.12189853,-0.004591115,0.02923955,0.49401215,0.6677611,-0.55681866,0.17985886,0.54808336,0.816857,0.8506484,-0.50368613,0.15065706,,0.07066521,-0.015802369,0.03218639,0.049025986,-0.33328375,0.94155097,-0.10778788,0.9354137,0.33672377,-0.9929644,-0.11799607,0.009935573,,0.082985125,1.2897636,0.42730233,0.99165624,0.10045084,-0.08079301,0.018911408,-0.73331785,-0.6796229,-0.12751566,0.6724244,-0.7290989,,-0.119503684,0.25959507,-0.10444081,-0.54772633,-0.57852376,0.6044056,0.71676725,0.048158586,0.6956475,-0.43155593,0.8142426,0.38828918,,-0.08158436,0.43068427,-0.3442937,0.10292463,0.31700307,-0.9428232,-0.8419481,0.5324784,0.08712141,0.52965075,0.78484124,0.32170528,,1.1199507214200384,0.5227363427905086,0.20893213333000002,3.083280928996446,-0.496673676647376,-1.0995183134526647,-0.4158739923778749,,-1.361896219636618,0.1599069068936927,0.18746427464,0.9069090055705677,0.8265141870811493,-0.612952880574653,0.8322380169541528,,-0.07627525163528219,-0.034472434388453,0.0910472212,-0.1089195372335423,,2.0448118e-05,5.185604e-06,-5.6028366e-06,1.0,-2.5093555e-05,-2.3126602e-05,2.5093555e-05,1.0,-4.4107437e-06,2.3141503e-05,4.3809414e-06,1.0,112,0.338,0,0,0.0,False,-0.2623802998015474,1.0069318502712448
0.36159300804138184,16:09:33.894623,16:08:15.919454,0,,0.12183137,-0.004505247,0.02932088,0.46727672,0.6842694,-0.5598461,0.17072737,0.5514739,0.8165345,0.86747026,-0.47712868,0.14086738,,0.070667446,-0.01580526,0.032184064,0.049028665,-0.33334804,0.94152814,-0.10780722,0.9353883,0.33678818,-0.9929621,-0.118015885,0.009923488,,0.082985125,1.2897636,0.42730233,0.99165624,0.10045084,-0.08079301,0.018911408,-0.73331785,-0.6796229,-0.12751566,0.6724244,-0.7290989,,-0.119437054,0.25971344,-0.10444807,-0.5232837,-0.5968758,0.6082051,0.721801,0.06892534,0.68866,-0.45296526,0.7993676,0.39475805,,-0.08158613,0.43068036,-0.3442944,0.102922276,0.3170704,-0.9428008,-0.8419587,0.53245616,0.08715499,0.5296344,0.78482914,0.3217618,,1.1199275532214157,0.5220721877633253,0.20902805879000003,3.0566503061739114,-0.5205850641063281,-1.083940759832538,-0.4158739923778749,,-1.361896219636618,0.15988373869507003,0.18746557093000002,0.9069090055705677,0.8265141870811493,-0.6128712018345125,0.8320746728880186,,-0.07627525163528219,-0.034472434388453,0.0910472212,-0.1089195372335423,,2.0448118e-05,5.185604e-06,-5.6028366e-06,1.0,-2.5093555e-05,-2.3126602e-05,2.5093555e-05,1.0,-4.4107437e-06,2.3141503e-05,4.3809414e-06,1.0,123,0.372,0,0,0.0,False,-0.26249945523859,1.006738729468127
0.39195110090076923,16:09:33.927111,16:08:15.919454,0,,0.12174936,-0.0044281557,0.02941309,0.44057953,0.7001576,-0.5618443,0.1616286,0.5537663,0.8168347,0.88304347,-0.45069084,0.13081262,,0.07066907,-0.015805975,0.032182813,0.049153075,-0.33363086,0.94142145,-0.10789883,0.9352709,0.33708474,-0.992946,-0.118147016,0.009973049,,0.082985125,1.2897636,0.42730233,0.99165624,0.10045084,-0.08079301,0.018911408,-0.73331785,-0.6796229,-0.12751566,0.6724244,-0.7290989,,-0.11935726,0.25983295,-0.10447086,-0.49877223,-0.61468744,0.6110529,0.72599655,0.088815674,0.681939,-0.4734504,0.7837545,0.40196213,,-0.081587516,0.43067873,-0.34429407,0.10279985,0.3173732,-0.9427123,-0.84201986,0.53232074,0.08739126,0.5295609,0.7847986,0.32195702,,1.1199121077556673,0.5214312009347647,0.20910972506000003,3.0298099934078926,-0.5436766325666875,-1.0668263876507944,-0.41701740084081473,,-1.3619039423694923,0.15986829322932158,0.18746686722000003,0.9066993156270834,0.8265141870811493,-0.6127078443542313,0.8320746728880184,,-0.07627525163528219,-0.034472434388453,0.0910472212,-0.1089195372335423,,2.0448118e-05,5.185604e-06,-5.6028366e-06,1.0,-2.5093555e-05,-2.3126602e-05,2.5093555e-05,1.0,-4.4107437e-06,2.3141503e-05,4.3809414e-06,1.0,131,0.396,0,0,0.0,False,-0.2623802998015474,1.006545608665009
0.42445856099948287,16:09:33.949057,16:08:15.919454,0,,0.12165509,-0.0043622926,0.029442742,0.41974846,0.7113419,-0.56374085,0.15597948,0.55533195,0.8168701,0.8941374,-0.43081206,0.12214497,,0.07067245,-0.015807882,0.03218007,0.049039185,-0.3336367,0.9414252,-0.107830554,0.93528175,0.33707646,-0.99295914,-0.11804438,0.009889215,,0.082985125,1.2897636,0.42730233,0.99165624,0.10045084,-0.08079301,0.018911408,-0.73331785,-0.6796229,-0.12751566,0.6724244,-0.7290989,,-0.119260944,0.25990117,-0.10445776,-0.47944507,-0.6273355,0.6136633,0.72958964,0.1036578,0.6759837,-0.48767954,0.7718195,0.40799925,,-0.081590384,0.43067494,-0.34429365,0.102912165,0.31736338,-0.9427033,-0.8419722,0.5324077,0.08732072,0.5296149,0.7847436,0.32200235,,1.119904385022793,0.5208288277705752,0.20920046536000003,3.008002239285502,-0.559936376038775,-1.052832548449655,-0.41718074490694934,,-1.3619039423694923,0.1598528477635731,0.18746945980000002,0.9069090055705677,0.8265141870811493,-0.6125444868739502,0.832401361020287,,-0.07627525163528219,-0.034472434388453,0.0910472212,-0.1089195372335423,,2.0448118e-05,5.185604e-06,-5.6028366e-06,1.0,-2.5093555e-05,-2.3126602e-05,2.5093555e-05,1.0,-4.4107437e-06,2.3141503e-05,4.3809414e-06,1.0,139,0.421,0,0,0.0,False,-0.2623802998015474,1.006545608665009
0.4463995979167521,16:09:33.976462,16:08:15.919454,0,,0.12161052,-0.0043251514,0.029463187,0.40825948,0.7200217,-0.56115305,0.14922687,0.55380684,0.8191637,0.9005862,-0.41817057,0.11865032,,0.07067295,-0.015808925,0.032180846,0.04911911,-0.33360842,0.9414311,-0.10772577,0.93530095,0.3370567,-0.99296653,-0.117972344,0.010002911,,0.082985125,1.2897636,0.42730233,0.99165624,0.10045084,-0.08079301,0.018911408,-0.73331785,-0.6796229,-0.12751566,0.6724244,-0.7290989,,-0.119215466,0.2599422,-0.10445207,-0.4690972,-0.63713264,0.6115634,0.7291678,0.11127079,0.6752282,-0.49825907,0.76268,0.4123798,,-0.081590965,0.43067485,-0.34429494,0.102830924,0.31732404,-0.9427254,-0.8419241,0.5324714,0.087395705,0.52970713,0.78471625,0.32191727,,1.1198889395570446,0.520411800195367,0.20926527986000001,2.9975177421112758,-0.5722336610176646,-1.0425599008965556,-0.4173440889730837,,-1.3619039423694923,0.1598451250306989,0.18746945980000002,0.9069090055705677,0.8266508235809147,-0.6125742260375062,0.8322380169541528,,-0.07627525163528219,-0.034472434388453,0.0910472212,-0.1089195372335423,,2.0448118e-05,5.185604e-06,-5.6028366e-06,1.0,-2.5093555e-05,-2.3126602e-05,2.5093555e-05,1.0,-4.4107437e-06,2.3141503e-05,4.3809414e-06,1.0,147,0.445,0,0,0.0,False,-0.2630356547052788,1.0070284106728038
0.47380786295980215,16:09:33.999599,16:08:16.280594,0,,0.121507734,-0.0042310357,0.0294822,0.38271874,0.7308688,-0.56511676,0.14133069,0.55817103,0.8176005,0.9129907,-0.39277947,0.11032829,,0.07067406,-0.015809491,0.032179415,0.049119998,-0.33360422,0.94143254,-0.10773224,0.93530166,0.3370527,-0.9929658,-0.11797866,0.010002077,,0.082985125,1.2897636,0.42730233,0.99165624,0.10045084,-0.08079301,0.018911408,-0.73331785,-0.6796229,-0.12751566,0.6724244,-0.7290989,,-0.11910759,0.26002353,-0.104412936,-0.4453762,-0.6496871,0.6160736,0.73204494,0.13194317,0.6683571,-0.5155097,0.7486639,0.4168358,,-0.08159184,0.43067324,-0.3442944,0.102830134,0.3173208,-0.9427266,-0.8419276,0.5324664,0.0873924,0.5297017,0.78472096,0.32191473,,1.119765375831057,0.5197476451681837,0.20940398289000003,2.9708871192887414,-0.5921825899834189,-1.0282531767202516,-0.4176707771053523,,-1.3619039423694923,0.15983740229782467,0.18747075609000002,0.9069090055705677,0.8266508235809147,-0.6125742260375062,0.8322380169541528,,-0.07627525163528219,-0.034472434388453,0.0910472212,-0.1089195372335423,,2.0448118e-05,5.185604e-06,-5.6028366e-06,1.0,-2.5093555e-05,-2.3126602e-05,2.5093555e-05,1.0,-4.4107437e-06,2.3141503e-05,4.3809414e-06,1.0,155,0.469,0,0,0.0,False,-0.2621419889274632,1.007269811676701
0.49691749596968293,16:09:34.029814,16:08:16.280594,0,,0.12143025,-0.0041574314,0.0295095,0.35855976,0.74236435,-0.56597704,0.13142985,0.5601065,0.8179283,0.9242084,-0.36766255,0.10326278,,0.07067299,-0.01580973,0.03217864,0.049113024,-0.33360633,0.9414322,-0.10773462,0.935301,0.33705404,-0.9929658,-0.11797866,0.009994477,,0.082985125,1.2897636,0.42730233,0.99165624,0.10045084,-0.08079301,0.018911408,-0.73331785,-0.6796229,-0.12751566,0.6724244,-0.7290989,,-0.11902712,0.26009572,-0.10439094,-0.42308542,-0.66305256,0.6175435,0.7326508,0.15066826,0.66371816,-0.53312427,0.73325324,0.4220405,,-0.081590645,0.43067262,-0.34429416,0.102837116,0.31732294,-0.9427251,-0.8419282,0.5324663,0.0873874,0.5296994,0.78472024,0.32192042,,1.1195105256462077,0.5191298265382458,0.20953101931,2.946563085844536,-0.6128147014480004,-1.0122458606634974,-0.4176707771053523,,-1.361896219636618,0.15983740229782467,0.18747075609000002,0.9069090055705677,0.8266508235809147,-0.6125742260375062,0.8322380169541528,,-0.07627525163528219,-0.034472434388453,0.0910472212,-0.1089195372335423,,2.0448118e-05,5.185604e-06,-5.6028366e-06,1.0,-2.5093555e-05,-2.3126602e-05,2.5093555e-05,1.0,-4.4107437e-06,2.3141503e-05,4.3809414e-06,1.0,170,0.515,0,0,0.0,False,-0.2621419889274632,1.006642169066568
0.5270671430043876,16:09:34.068543,16:08:16.280594,0,,0.121395454,-0.0040816963,0.02947931,0.34027857,0.7510481,-0.56580657,0.12391722,0.56065035,0.81872797,0.9321239,-0.3487089,0.09770951,,0.07067354,-0.015809104,0.032177627,0.049113024,-0.33360633,0.9414322,-0.10773462,0.935301,0.33705404,-0.9929658,-0.11797866,0.009994477,,0.082985125,1.2897636,0.42730233,0.99165624,0.10045084,-0.08079301,0.018911408,-0.73331785,-0.6796229,-0.12751566,0.6724244,-0.7290989,,-0.118984126,0.26012972,-0.10432128,-0.4061717,-0.67321897,0.6179003,0.7326989,0.16413526,0.6604634,-0.5460557,0.72099644,0.4265997,,-0.08159107,0.43067217,-0.34429303,0.102837116,0.31732294,-0.9427251,-0.8419282,0.5324663,0.0873874,0.5296994,0.78472024,0.32192042,,1.1191321117353705,0.518689630764415,0.20968009266,2.928110370817898,-0.6281179894217297,-0.9990319467882335,-0.41750743303921767,,-1.361896219636618,0.15983740229782467,0.18747205238000003,0.9069090055705677,0.8266508235809147,-0.6125742260375062,0.8322380169541528,,-0.07627525163528219,-0.034472434388453,0.0910472212,-0.1089195372335423,,2.0448118e-05,5.185604e-06,-5.6028366e-06,1.0,-2.5093555e-05,-2.3126602e-05,2.5093555e-05,1.0,-4.4107437e-06,2.3141503e-05,4.3809414e-06,1.0,178,0.54,0,0,0.0,False,-0.2617249448978165,1.0063524878618912
0.565875822911039,16:09:34.097558,16:08:16.280594,0,,0.12137431,-0.0039835647,0.02939035,0.32320946,0.7564465,-0.56861603,0.11914089,0.5635584,0.81743944,0.9387977,-0.33194965,0.09202376,,0.07067523,-0.01581265,0.032176316,0.049115717,-0.33374757,0.941382,-0.10775393,0.9352479,0.33719486,-0.9929637,-0.117999196,0.009972736,,0.082985125,1.2897636,0.42730233,0.99165624,0.10045084,-0.08079301,0.018911408,-0.73331785,-0.6796229,-0.12751566,0.6724244,-0.7290989,,-0.11894803,0.26013935,-0.104192466,-0.3901447,-0.67975366,0.62106526,0.7338684,0.17780171,0.6556094,-0.5560794,0.7115627,0.42948133,,-0.081592426,0.4306687,-0.34429488,0.10283475,0.31746727,-0.9426768,-0.8419388,0.5324369,0.08746447,0.52968305,0.78468174,0.32204103,,1.1186455795642944,0.5183343850522006,0.20987194358000003,2.9098673457347446,-0.640005364901323,-0.9892569104265041,-0.4176707771053523,,-1.361896219636618,0.159814234099202,0.18747205238000003,0.9069090055705677,0.8266508235809147,-0.6124108685572252,0.8319113288218842,,-0.07627525163528219,-0.034472434388453,0.0910472212,-0.1089195372335423,,2.0448118e-05,5.185604e-06,-5.6028366e-06,1.0,-2.5093555e-05,-2.3126602e-05,2.5093555e-05,1.0,-4.4107437e-06,2.3141503e-05,4.3809414e-06,1.0,186,0.563,0,0,0.0,False,-0.2623802998015474,1.006545608665009
0.5949036919046193,16:09:34.120628,16:08:16.280594,0,,0.12137249,-0.003827922,0.029304937,0.30050352,0.7636483,-0.57143575,0.11125049,0.5669735,0.8161889,0.9472703,-0.30884022,0.085421264,,0.0706764,-0.01581575,0.032173157,0.04911141,-0.33381402,0.9413586,-0.10777572,0.9352218,0.33726057,-0.9929614,-0.118018895,0.009953007,,0.082985125,1.2897636,0.42730233,0.99165624,0.10045084,-0.08079301,0.018911408,-0.73331785,-0.6796229,-0.12751566,0.6724244,-0.7290989,,-0.118926935,0.260193,-0.10402454,-0.3689112,-0.6885704,0.6243199,0.7340326,0.1962165,0.6501502,-0.57017606,0.6981188,0.43304664,,-0.081593014,0.4306642,-0.34429532,0.10283937,0.3175367,-0.9426529,-0.84194994,0.53241456,0.08749303,0.52966434,0.78466886,0.3221032,,1.1180123154686081,0.5180949803330996,0.21012860900000002,2.885962692177509,-0.6566750178727068,-0.9757456049156813,-0.4171807449069491,,-1.361888496903744,0.15979106590057934,0.18747334867,0.9069090055705677,0.8266508235809147,-0.6123291898170845,0.8320746728880186,,-0.07627525163528219,-0.034472434388453,0.0910472212,-0.1089195372335423,,2.0448118e-05,5.185604e-06,-5.6028366e-06,1.0,-2.5093555e-05,-2.3126602e-05,2.5093555e-05,1.0,-4.4107437e-06,2.3141503e-05,4.3809414e-06,1.0,194,0.588,0,0,0.0,False,-0.2618441003348577,1.0076077730821573
0.6178924760315567,16:09:34.148191,16:08:16.415166,0,,0.121405646,-0.0037476271,0.029236779,0.29263043,0.76634234,-0.571915,0.107994854,0.5677832,0.81606334,0.9501077,-0.3005689,0.08338958,,0.07067861,-0.01581873,0.032173634,0.049076613,-0.33402643,0.94128513,-0.10759622,0.9351684,0.3374657,-0.99298275,-0.11784038,0.009954914,,0.082985125,1.2897636,0.42730233,0.99165624,0.10045084,-0.08079301,0.018911408,-0.73331785,-0.6796229,-0.12751566,0.6724244,-0.7290989,,-0.11894791,0.26020402,-0.10391669,-0.3615809,-0.69187397,0.6249557,0.7336441,0.20250872,0.6486575,-0.5753482,0.6930373,0.434366,,-0.08159517,0.43066242,-0.34429783,0.10287118,0.31772175,-0.9425871,-0.84185064,0.5325488,0.08763134,0.52981603,0.7845028,0.32225817,,1.117633901557771,0.5180795348673513,0.21026860832000002,2.8779944743250967,-0.6628236603621516,-0.9708134779894828,-0.41701740084081496,,-1.361888496903744,0.15977562043483087,0.18747334867,0.9071186955140523,0.8267874600806802,-0.6119505352799376,0.8330547372848243,,-0.07627525163528219,-0.034472434388453,0.0910472212,-0.1089195372335423,,2.0448118e-05,5.185604e-06,-5.6028366e-06,1.0,-2.5093555e-05,-2.3126602e-05,2.5093555e-05,1.0,-4.4107437e-06,2.3141503e-05,4.3809414e-06,1.0,202,0.613,0,0,0.0,False,-0.2621419889274632,1.0080422948891723
0.6455231909640133,16:09:34.172247,16:08:16.415166,0,,0.121467516,-0.0035984889,0.02916582,0.27756482,0.7733293,-0.570017,0.098695666,0.5672382,0.8176185,0.95562387,-0.2832004,0.08112109,,0.07067917,-0.015819952,0.032173216,0.049077496,-0.33402222,0.94128656,-0.1076026,0.93516916,0.33746168,-0.9929819,-0.11784667,0.009954095,,0.082985125,1.2897636,0.42730233,0.99165624,0.10045084,-0.08079301,0.018911408,-0.73331785,-0.6796229,-0.12751566,0.6724244,-0.7290989,,-0.11899181,0.26026288,-0.10375633,-0.34780097,-0.7003075,0.623381,0.73073983,0.21409558,0.64821476,-0.5874128,0.6809791,0.43727994,,-0.08159562,0.43066126,-0.34429845,0.1028704,0.31771854,-0.94258827,-0.84185416,0.5325438,0.08762803,0.52981055,0.7845075,0.32225564,,1.1170315283935814,0.518102703065974,0.21050582939,2.863735558168149,-0.6773071293372883,-0.9591665376779432,-0.4173440889730835,,-1.361888496903744,0.15976789770195665,0.18747334867,0.9071186955140523,0.8267874600806802,-0.6119505352799376,0.8330547372848243,,-0.07627525163528219,-0.034472434388453,0.0910472212,-0.1089195372335423,,2.0448118e-05,5.185604e-06,-5.6028366e-06,1.0,-2.5093555e-05,-2.3126602e-05,2.5093555e-05,1.0,-4.4107437e-06,2.3141503e-05,4.3809414e-06,1.0,213,0.646,0,0,0.0,False,-0.26243987752006825,1.0077526136844954
0.6695641649421304,16:09:34.203341,16:08:16.415166,0,,0.12152447,-0.0034862086,0.029112145,0.2675991,0.7750228,-0.5724773,0.09088054,0.5711948,0.81576777,0.9592348,-0.2703258,0.08241677,,0.07068413,-0.01582782,0.032172084,0.049169775,-0.3338897,0.9413287,-0.10753405,0.93522084,0.33734024,-0.9929848,-0.11781183,0.010080054,,0.082985125,1.2897636,0.42730233,0.99165624,0.10045084,-0.08079301,0.018911408,-0.73331785,-0.6796229,-0.12751566,0.6724244,-0.7290989,,-0.11903513,0.26030698,-0.10363423,-0.3388125,-0.7027554,0.6255725,0.7275886,0.22584344,0.6477728,-0.59650725,0.6746329,0.43479824,,-0.08160011,0.43065488,-0.3443036,0.10277744,0.3175807,-0.94264483,-0.8418266,0.5325846,0.08764469,0.5298724,0.7845356,0.3220856,,1.1165836098868764,0.518141316730345,0.21068730999000002,2.854928580541799,-0.688374685818289,-0.957084380390481,-0.41750743303921767,,-1.361896219636618,0.15971383857183707,0.18747334867,0.9071186955140523,0.8269240965804455,-0.612061953183634,0.8330547372848243,,-0.07627525163528219,-0.034472434388453,0.0910472212,-0.1089195372335423,,2.0448118e-05,5.185604e-06,-5.6028366e-06,1.0,-2.5093555e-05,-2.3126602e-05,2.5093555e-05,1.0,-4.4107437e-06,2.3141503e-05,4.3809414e-06,1.0,221,0.671,0,0,0.0,False,-0.26255903295711036,1.0076077730821573
0.7006569269578904,16:09:34.229876,16:08:16.415166,0,,0.121519044,-0.0034038872,0.029128656,0.25663972,0.77798504,-0.57347643,0.08611187,0.57258415,0.81531096,0.9626634,-0.25862443,0.07995406,,0.070686385,-0.015832469,0.032170296,0.049173336,-0.33394983,0.94130725,-0.10755977,0.93519616,0.33740062,-0.9929818,-0.117837906,0.01006712,,0.082985125,1.2897636,0.42730233,0.99165624,0.10045084,-0.08079301,0.018911408,-0.73331785,-0.6796229,-0.12751566,0.6724244,-0.7290989,,-0.11902469,0.26037797,-0.10359026,-0.32858372,-0.7065664,0.6267349,0.7265169,0.23492251,0.6457434,-0.60349476,0.6675143,0.43614072,,-0.08160192,0.4306503,-0.34430602,0.10277429,0.3176448,-0.9426236,-0.8418407,0.53255737,0.08767496,0.5298506,0.7845282,0.32213953,,1.1164137097636435,0.5182108213262131,0.21077805029000002,2.8431859437066658,-0.6967095123039809,-0.9500428520445774,-0.4166907127085462,,-1.361896219636618,0.1596829476403402,0.18747334867,0.9071186955140523,0.8269240965804455,-0.6119802744434935,0.8328913932186899,,-0.07627525163528219,-0.034472434388453,0.0910472212,-0.1089195372335423,,2.0448118e-05,5.185604e-06,-5.6028366e-06,1.0,-2.5093555e-05,-2.3126602e-05,2.5093555e-05,1.0,-4.4107437e-06,2.3141503e-05,4.3809414e-06,1.0,233,0.707,0,0,0.0,False,-0.2626781883941529,1.0078974542868337
0.7271866430528462,16:09:34.263444,16:08:16.415166,0,,0.121501446,-0.003242232,0.029221877,0.23536173,0.78695565,-0.5703557,0.07145691,0.57124174,0.81766534,0.96927744,-0.23320305,0.07821503,,0.07069482,-0.015848294,0.032163024,0.04918582,-0.33419865,0.9412182,-0.1076498,0.93509567,0.3376502,-0.9929714,-0.11792952,0.0100170225,,0.082985125,1.2897636,0.42730233,0.99165624,0.10045084,-0.08079301,0.018911408,-0.73331785,-0.6796229,-0.12751566,0.6724244,-0.7290989,,-0.11900236,0.26055932,-0.1035484,-0.30914214,-0.71770495,0.6239638,0.720502,0.2514888,0.64624316,-0.6207318,0.64934814,0.43936208,,-0.08160867,0.43063375,-0.3443134,0.102763295,0.3179076,-0.9425362,-0.84189004,0.53245836,0.08780263,0.52977437,0.7844889,0.3223604,,1.1162360869075365,0.5183421077850748,0.21094008654000002,2.822007259414729,-0.7177515332678587,-0.9321493862140635,-0.4178341211714862,,-1.361896219636618,0.15957482938010104,0.18747464496000002,0.9071186955140523,0.8269240965804455,-0.6116535594829311,0.8328913932186899,,-0.07627525163528219,-0.034472434388453,0.0910472212,-0.1089195372335423,,2.0448118e-05,5.185604e-06,-5.6028366e-06,1.0,-2.5093555e-05,-2.3126602e-05,2.5093555e-05,1.0,-4.4107437e-06,2.3141503e-05,4.3809414e-06,1.0,245,0.744,0,0,0.0,False,-0.26351227645344677,1.0076077730821573
0.7607128259260207,16:09:34.299607,16:08:16.415166,0,,0.12144469,-0.0031025708,0.029320344,0.21730332,0.7931817,-0.56889534,0.058967084,0.5710906,0.81876636,0.97432137,-0.21146679,0.077328265,,0.07070497,-0.015867874,0.03215611,0.049084496,-0.33445334,0.9411331,-0.10767144,0.935006,0.3378915,-0.99297416,-0.1179184,0.009883225,,0.082985125,1.2897636,0.42730233,0.99165624,0.10045084,-0.08079301,0.018911408,-0.73331785,-0.6796229,-0.12751566,0.6724244,-0.7290989,,-0.11894328,0.2607284,-0.10352988,-0.29259884,-0.7257164,0.622673,0.7149664,0.26637635,0.6464261,-0.63498735,0.6343338,0.44092146,,-0.08161703,0.43061486,-0.3443238,0.102864526,0.3181605,-0.9424398,-0.84189165,0.5324464,0.087859854,0.5297522,0.7843945,0.3226265,,1.1162824233047817,0.5184193351138171,0.21106323409000002,2.8033448544446062,-0.7353776417376005,-0.9177764766372251,-0.41750743303921767,,-1.361896219636618,0.15945126565411344,0.18747464496000002,0.9073283854575369,0.8269240965804455,-0.6111634870420877,0.8328913932186899,,-0.07627525163528219,-0.034472434388453,0.0910472212,-0.1089195372335423,,2.0448118e-05,5.185604e-06,-5.6028366e-06,1.0,-2.5093555e-05,-2.3126602e-05,2.5093555e-05,1.0,-4.4107437e-06,2.3141503e-05,4.3809414e-06,1.0,260,0.79,0,0,0.0,False,-0.2621419889274632,1.0074146522790395
0.7969459758605808,16:09:34.342358,16:08:16.415166,0,,0.121301904,-0.0028565675,0.029481307,0.18456508,0.799501,-0.57160634,0.042905003,0.57448924,0.81738687,0.98188335,-0.17538589,0.07172808,,0.070727855,-0.015902326,0.032145023,0.049023528,-0.33464074,0.9410697,-0.107773334,0.93492925,0.33807147,-0.9929662,-0.11799568,0.009768173,,0.082985125,1.2897636,0.42730233,0.99165624,0.10045084,-0.08079301,0.018911408,-0.73331785,-0.6796229,-0.12751566,0.6724244,-0.7290989,,-0.11879565,0.26101765,-0.103493184,-0.26196125,-0.73474044,0.62572587,0.70860034,0.29373384,0.64156526,-0.65518075,0.6114548,0.44369042,,-0.08163689,0.43058184,-0.34434253,0.10292685,0.31835967,-0.94236577,-0.84194005,0.5323647,0.08789072,0.52966315,0.7843692,0.32283437,,1.1164214324965178,0.5186973534972892,0.21125638130000002,2.7653909746739074,-0.7603821211946761,-0.894038171915017,-0.41636402457627786,,-1.361927110568115,0.15921958366788672,0.18747594125000003,0.9075380754010215,0.8269240965804455,-0.6106734146012445,0.8332180813509584,,-0.07627525163528219,-0.034472434388453,0.0910472212,-0.1089195372335423,,2.0448118e-05,5.185604e-06,-5.6028366e-06,1.0,-2.5093555e-05,-2.3126602e-05,2.5093555e-05,1.0,-4.4107437e-06,2.3141503e-05,4.3809414e-06,1.0,272,0.827,0,0,0.0,False,-0.2632143878608417,1.008428536495408
0.8397041680291295,16:09:34.380085,16:08:16.640304,0,,0.12122582,-0.0027161762,0.029518887,0.16831559,0.80111897,-0.57435024,0.036625534,0.5771781,0.8157965,0.9850525,-0.15834719,0.06780666,,0.07074498,-0.015917048,0.03213966,0.04903532,-0.3348646,0.9409894,-0.10766521,0.93486106,0.33829427,-0.99297726,-0.11790022,0.009787917,,0.082985125,1.2897636,0.42730233,0.99165624,0.10045084,-0.08079301,0.018911408,-0.73331785,-0.6796229,-0.12751566,0.6724244,-0.7290989,,-0.11871224,0.26114526,-0.1034326,-0.24657336,-0.7375599,0.6286549,0.70626223,0.30743882,0.63771075,-0.6636228,0.6012377,0.44510448,,-0.081652544,0.43056625,-0.34434962,0.102913395,0.31856892,-0.9422965,-0.8418835,0.5324271,0.0880547,0.52975565,0.78424186,0.3229918,,1.1164368779622662,0.5188440854218994,0.21138082514000003,2.746099499873331,-0.7706298586770841,-0.8829864307131469,-0.417834121171486,,-1.361965724232486,0.15910374267477334,0.18748112641000003,0.907747765344506,0.827060733080211,-0.6102130813239568,0.8340348016816299,,-0.07627525163528219,-0.034472434388453,0.0910472212,-0.1089195372335423,,2.0448118e-05,5.185604e-06,-5.6028366e-06,1.0,-2.5093555e-05,-2.3126602e-05,2.5093555e-05,1.0,-4.4107437e-06,2.3141503e-05,4.3809414e-06,1.0,280,0.85,0,0,0.0,False,-0.2634526987349264,1.009345860310218
0.8774059128481895,16:09:34.406373,16:08:16.640304,0,,0.121135324,-0.002533123,0.029608086,0.14558677,0.80534697,-0.57464826,0.02124381,0.57815814,0.81564796,0.9891174,-0.13095534,0.06706351,,0.0708031,-0.015928969,0.03211981,0.04907777,-0.3354441,0.9407808,-0.107732505,0.9346427,0.33887562,-0.99296784,-0.11798397,0.009731919,,0.082985125,1.2897636,0.42730233,0.99165624,0.10045084,-0.08079301,0.018911408,-0.73331785,-0.6796229,-0.12751566,0.6724244,-0.7290989,,-0.11861548,0.26133937,-0.10338151,-0.2255345,-0.74397004,0.62900144,0.69796354,0.32705095,0.6370907,-0.6796919,0.582706,0.44550267,,-0.08170666,0.43053558,-0.3443429,0.102872185,0.31916112,-0.9421006,-0.8419236,0.5323065,0.08839927,0.52969986,0.7840829,0.3234688,,1.1163982642978951,0.5190062628122581,0.21156360203000002,2.7203076368247343,-0.7912619701416657,-0.8651005036331599,-0.41701740084081496,,-1.3619888924311088,0.15899562441453421,0.18748760786000002,0.907747765344506,0.827060733080211,-0.6095596514028323,0.8350148660784356,,-0.07627525163528219,-0.034472434388453,0.0910472212,-0.1089195372335423,,2.0448118e-05,5.185604e-06,-5.6028366e-06,1.0,-2.5093555e-05,-2.3126602e-05,2.5093555e-05,1.0,-4.4107437e-06,2.3141503e-05,4.3809414e-06,1.0,288,0.875,0,0,0.0,False,-0.2632143878608417,1.0091527395071
0.9037041920237243,16:09:34.433037,16:08:16.640304,0,,0.12104159,-0.0023422241,0.029674932,0.12040286,0.8068546,-0.57835007,0.007686734,0.58181316,0.8132862,0.99269533,-0.10236764,0.063849896,,0.070817634,-0.015936686,0.03211248,0.04903442,-0.335331,0.9408233,-0.10739982,0.93472475,0.33875486,-0.9930059,-0.11765504,0.009819165,,0.082979865,1.2897632,0.42729858,0.9916557,0.10047161,-0.08077377,0.018939486,-0.733315,-0.6796252,-0.12751566,0.6724244,-0.7290989,,-0.11851172,0.26152447,-0.103314124,-0.20187448,-0.7475864,0.63274103,0.69065,0.3494094,0.633179,-0.6944417,0.5648253,0.44578373,,-0.08171729,0.43052557,-0.3443469,0.10291736,0.31897175,-0.9421598,-0.8417414,0.53260016,0.0883657,0.5299806,0.7839605,0.32330555,,1.1163364824349014,0.5191916084012396,0.21175415666000003,2.6894832151325097,-0.8102544436090618,-0.8469996953348593,-0.4173440889730835,,-1.3620043378968572,0.1589261198186662,0.18749279302000002,0.9081671452314749,0.827334006079742,-0.6093740935095224,0.8348515220123013,,-0.07627525163528219,-0.034472434388453,0.0910472212,-0.1089195372335423,,1.5705824e-05,2.3841858e-06,-2.1457672e-06,1.0,-4.440546e-06,-4.0903687e-06,4.4479966e-06,1.0,-7.4505806e-07,4.10527e-06,7.748604e-07,1.0,296,0.899,0,0,0.0,False,-0.262797343831195,1.0089596187039818
0.9303541840054095,16:09:34.452574,16:08:16.640304,0,,0.12101181,-0.0022134557,0.029688045,0.10955893,0.8085717,-0.57810783,-0.0010508001,0.5817028,0.81340075,0.9939797,-0.08850786,0.06458035,,0.07082698,-0.015950305,0.03211081,0.049174283,-0.33514345,0.94088274,-0.107060164,0.9348265,0.33858156,-0.99303573,-0.11738062,0.010088891,,0.082979865,1.2897632,0.42729858,0.9916557,0.10047161,-0.08077377,0.018939486,-0.733315,-0.6796252,-0.12751566,0.6724244,-0.7290989,,-0.11847317,0.26162672,-0.103238635,-0.19189116,-0.75045776,0.6324484,0.6852266,0.3588946,0.6337658,-0.7025968,0.5549845,0.44536495,,-0.08172583,0.43051454,-0.34435594,0.102772675,0.31874228,-0.94225323,-0.8415736,0.5328498,0.088459216,0.5302751,0.7838842,0.32300746,,1.1162747005719076,0.5193615085244725,0.21190063743,2.676901818523438,-0.8210487270905317,-0.8377076085019987,-0.4173440889730837,,-1.3620120606297315,0.15883344702417548,0.18749408931000003,0.9083768351749595,0.8277439155790383,-0.6093816322600494,0.8345248338800326,,-0.07627525163528219,-0.034472434388453,0.0910472212,-0.1089195372335423,,1.5705824e-05,2.3841858e-06,-2.1457672e-06,1.0,-4.440546e-06,-4.0903687e-06,4.4479966e-06,1.0,-7.4505806e-07,4.10527e-06,7.748604e-07,1.0,307,0.933,0,0,0.0,False,-0.2621419889274632,1.0081871354915106
0.9499084178823978,16:09:34.482590,16:08:16.640304,0,,0.120979756,-0.002092868,0.029709592,0.09799161,0.80986947,-0.5783675,-0.009049386,0.58186567,0.81323457,0.9951461,-0.074456275,0.06434679,,0.07084209,-0.015974117,0.03209883,0.049200904,-0.33589435,0.94061357,-0.1071991,0.93453836,0.33933216,-0.99301934,-0.1175285,0.009972513,,0.082979865,1.2897632,0.42729858,0.9916557,0.10047161,-0.08077377,0.018939486,-0.733315,-0.6796252,-0.12751566,0.6724244,-0.7290989,,-0.11843372,0.26172888,-0.10317507,-0.18112165,-0.7529072,0.6327129,0.68025726,0.36871028,0.63348466,-0.7102429,0.54514533,0.44538918,,-0.08173822,0.4304885,-0.34436622,0.10274839,0.31951568,-0.9419939,-0.8416505,0.5326599,0.08886995,0.5301577,0.7836984,0.32365048,,1.1161743050445425,0.5195777450449508,0.21203156272,2.662852592309975,-0.8311598280731742,-0.8277474300855118,-0.4178341211714862,,-1.3620197833626058,0.15866354690094256,0.18749797818000002,0.9083768351749595,0.8277439155790383,-0.6084831661185032,0.8333814254170928,,-0.07627525163528219,-0.034472434388453,0.0910472212,-0.1089195372335423,,1.5705824e-05,2.3841858e-06,-2.1457672e-06,1.0,-4.440546e-06,-4.0903687e-06,4.4479966e-06,1.0,-7.4505806e-07,4.10527e-06,7.748604e-07,1.0,315,0.958,0,0,0.0,False,-0.2617249448978165,1.0091527395071
0.9799183518625796,16:09:34.511197,16:08:16.640304,0,,0.12094531,-0.00191544,0.029798701,0.08039173,0.8127173,-0.5770854,-0.023562223,0.580347,0.8140284,0.99648476,-0.051843733,0.06580454,,0.07086937,-0.016001118,0.032081425,0.049145382,-0.33677906,0.9403001,-0.10728574,0.93421084,0.3402055,-0.9930128,-0.11760032,0.009780556,,0.082979865,1.2897632,0.42729858,0.9916557,0.10047161,-0.08077377,0.018939486,-0.733315,-0.6796252,-0.12751566,0.6724244,-0.7290989,,-0.11839308,0.2619188,-0.103121385,-0.1648822,-0.7577425,0.63137954,0.6707002,0.38321692,0.6350638,-0.72317016,0.5281771,0.44503242,,-0.081761725,0.4304546,-0.34437492,0.102805056,0.32041126,-0.9416835,-0.8416913,0.5325228,0.08930409,0.5300819,0.78342587,0.32443342,,1.1160352958528066,0.5200565544831527,0.21220137671000003,2.641673908018038,-0.8485126635433852,-0.8107386004111464,-0.41767077710535183,,-1.3620583970269768,0.15844731038046428,0.18750964479,0.9085865251184441,0.8277439155790383,-0.6072579850163947,0.8345248338800326,,-0.07627525163528219,-0.034472434388453,0.0910472212,-0.1089195372335423,,1.5705824e-05,2.3841858e-06,-2.1457672e-06,1.0,-4.440546e-06,-4.0903687e-06,4.4479966e-06,1.0,-7.4505806e-07,4.10527e-06,7.748604e-07,1.0,323,0.982,0,0,0.0,False,-0.26232072208302704,1.0089113385032027
1.0085383418481797,16:09:34.541215,16:08:16.640304,0,,0.12091645,-0.001757808,0.029904112,0.063309304,0.8137797,-0.5777148,-0.035306543,0.5803401,0.8136085,0.9973692,-0.031111866,0.06547266,,0.070904255,-0.01603098,0.032060504,0.049253304,-0.33632347,0.9404575,-0.106689185,0.93444145,0.3397595,-0.9930717,-0.117071,0.010142222,,0.082979865,1.2897632,0.42729858,0.9916557,0.10047161,-0.08077377,0.018939486,-0.733315,-0.6796252,-0.12751566,0.6724244,-0.7290989,,-0.118360884,0.26210564,-0.10309232,-0.1489027,-0.760529,0.63199973,0.66283214,0.3975212,0.6345317,-0.733813,0.5133932,0.44491106,,-0.08179212,0.43041518,-0.34438312,0.102688044,0.31987473,-0.9418786,-0.8413829,0.53301275,0.08928683,0.53059393,0.7833119,0.3238712,,1.1158731184624477,0.5206666503802164,0.21232711684000002,2.6198661538956474,-0.862722859518991,-0.7952305588999717,-0.4173440889730835,,-1.3620892879584736,0.15819246019561486,0.18753038543000003,0.9092155949488976,0.8284270980778654,-0.6071616446137523,0.8338714576154955,,-0.07627525163528219,-0.034472434388453,0.0910472212,-0.1089195372335423,,1.5705824e-05,2.3841858e-06,-2.1457672e-06,1.0,-4.440546e-06,-4.0903687e-06,4.4479966e-06,1.0,-7.4505806e-07,4.10527e-06,7.748604e-07,1.0,331,1.006,0,0,0.0,False,-0.26255903295711036,1.0089596187039818
1.0385575799737126,16:09:34.564846,16:08:16.825922,0,,0.12089531,-0.0015983284,0.030050859,0.046374746,0.8157229,-0.57658094,-0.0486857,0.57836175,0.8143264,0.99773693,-0.009692907,0.06653541,,0.07093658,-0.016058965,0.0320282,0.049420733,-0.33707803,0.9401786,-0.10698822,0.934126,0.34053192,-0.9930312,-0.117417485,0.010101795,,0.082979865,1.2897632,0.42729858,0.9916557,0.10047161,-0.08077377,0.018939486,-0.733315,-0.6796252,-0.12751566,0.6724244,-0.7290989,,-0.11833969,0.26232237,-0.10309083,-0.13315463,-0.76440173,0.6308406,0.6534244,0.4108723,0.6357834,-0.74518883,0.49686414,0.44476917,,-0.08181836,0.43036842,-0.34438306,0.10252613,0.3206822,-0.94162166,-0.84155935,0.5326528,0.08977115,0.53034544,0.7832266,0.32448393,,1.1157495547364602,0.5214157554690162,0.21243470891000002,2.5980583997732567,-0.8781627839924858,-0.7774945751534206,-0.4171807449069491,,-1.3621124561570963,0.157922164545017,0.18755501494000001,0.909005905005413,0.8284270980778654,-0.6063448572123467,0.8348515220123012,,-0.07627525163528219,-0.034472434388453,0.0910472212,-0.1089195372335423,,1.5705824e-05,2.3841858e-06,-2.1457672e-06,1.0,-4.440546e-06,-4.0903687e-06,4.4479966e-06,1.0,-7.4505806e-07,4.10527e-06,7.748604e-07,1.0,343,1.044,0,0,0.0,False,-0.26255903295711036,1.0091527395071
1.0621876129880548,16:09:34.602226,16:08:16.825922,0,,0.120820016,-0.0014327466,0.030213133,0.024857841,0.81414557,-0.5801284,-0.06116134,0.5804591,0.8119892,0.99781835,0.015297115,0.06422323,,0.07097614,-0.01607616,0.031988382,0.04923107,-0.3367078,0.9403211,-0.10651407,0.934324,0.340137,-0.9930916,-0.11690283,0.010133639,,0.082979865,1.2897632,0.42729858,0.9916557,0.10047161,-0.08077377,0.018939486,-0.733315,-0.6796252,-0.12751566,0.6724244,-0.7290989,,-0.1182655,0.2625543,-0.1031025,-0.11275981,-0.764757,0.6343753,0.64447784,0.42964146,0.63250023,-0.7562629,0.4801614,0.44442263,,-0.081850976,0.43032157,-0.34436938,0.10270736,0.3202333,-0.94175464,-0.841287,0.53312296,0.089532174,0.5307422,0.78309035,0.32416376,,1.115641436476221,0.5222498106194324,0.21252933808000002,2.56807273785497,-0.8930561624669188,-0.7588157244392658,-0.418160809303755,,-1.3621201788899706,0.15769820529166448,0.18759649622000002,0.9098446647793511,0.8288370075771617,-0.6060256810023115,0.8345248338800326,,-0.07627525163528219,-0.034472434388453,0.0910472212,-0.1089195372335423,,1.5705824e-05,2.3841858e-06,-2.1457672e-06,1.0,-4.440546e-06,-4.0903687e-06,4.4479966e-06,1.0,-7.4505806e-07,4.10527e-06,7.748604e-07,1.0,380,1.157,0,0,0.0,False,-0.26196325577190027,1.0092492999086586
1.099553702864796,16:09:34.706507,16:08:16.970148,0,,0.12048004,-0.0008142814,0.030702189,-0.04729692,0.8097739,-0.58483243,-0.11109471,0.5775908,0.80873156,0.9926837,0.10322228,0.06264332,,0.07111715,-0.016039325,0.031787872,0.04752991,-0.33847937,0.9397724,-0.10561985,0.9338584,0.34169114,-0.9932699,-0.11549929,0.0086360425,,0.082979865,1.2897632,0.42729858,0.9916557,0.10047161,-0.08077377,0.018939486,-0.733315,-0.6796252,-0.12751566,0.6724244,-0.7290989,,-0.11792028,0.26333973,-0.10306871,-0.044548787,-0.7679772,0.638926,0.60488486,0.48826265,0.6290579,-0.7950658,0.41450045,0.44278628,,-0.08196165,0.43016988,-0.34420764,0.10438656,0.32179,-0.94103914,-0.8406397,0.5341638,0.089408696,0.53143984,0.7817418,0.326269,,1.11540203175712,0.5251998945773863,0.21297007668,2.46008241696044,-0.9478473988728604,-0.6796687167176835,-0.41718074490694934,,-1.362097010691348,0.15731206864795327,0.18782723584000002,0.912990013931619,0.8288370075771617,-0.6016967077748617,0.8340348016816298,,-0.07627525163528219,-0.034472434388453,0.0910472212,-0.1089195372335423,,1.5705824e-05,2.3841858e-06,-2.1457672e-06,1.0,-4.440546e-06,-4.0903687e-06,4.4479966e-06,1.0,-7.4505806e-07,4.10527e-06,7.748604e-07,1.0,388,1.182,0,0,0.0,False,-0.2629164992682367,1.0081871354915106
1.203852976905182,16:09:34.735625,16:08:16.970148,0,,0.120387465,-0.00069183856,0.030715898,-0.06424828,0.8094791,-0.58362293,-0.12027782,0.5742866,0.80977046,0.99065906,0.12222326,0.060465455,,0.07115851,-0.016032113,0.03173101,0.04569678,-0.3396514,0.9394405,-0.10505965,0.9335736,0.34264064,-0.9934154,-0.11435494,0.0069776177,,0.082979865,1.2897632,0.42729858,0.9916557,0.10047161,-0.08077377,0.018939486,-0.733315,-0.6796252,-0.12751566,0.6724244,-0.7290989,,-0.1178199,0.2634379,-0.10300517,-0.028256666,-0.76952827,0.6379873,0.59686184,0.49898785,0.62830496,-0.8018463,0.39854407,0.44520232,,-0.081994295,0.43012467,-0.3441642,0.10620199,0.32278702,-0.94049436,-0.84015536,0.53503376,0.08875734,0.531846,0.7807352,0.32801288,,1.1151008451750255,0.5257250404128335,0.213110076,2.4324033444204827,-0.9576852268559721,-0.6559643095445532,-0.41816080930375477,,-1.362066119759851,0.15725028678495948,0.18788816147,0.9157159831969178,0.8282904615780999,-0.5984739589952969,0.8337081135493614,,-0.07627525163528219,-0.034472434388453,0.0910472212,-0.1089195372335423,,1.5705824e-05,2.3841858e-06,-2.1457672e-06,1.0,-4.440546e-06,-4.0903687e-06,4.4479966e-06,1.0,-7.4505806e-07,4.10527e-06,7.748604e-07,1.0,396,1.206,0,0,0.0,False,-0.2621419889274632,1.0078974542868337
1.2329637438524514,16:09:34.762353,16:08:16.970148,0,,0.1203394,-0.0006302297,0.030695543,-0.074337944,0.80935144,-0.582601,-0.12447035,0.5721184,0.8106711,0.98943466,0.13278016,0.058210135,,0.07117917,-0.016018791,0.031689823,0.045793194,-0.34011024,0.9392697,-0.10470328,0.9334432,0.34310508,-0.9934486,-0.1140565,0.007134691,,0.082979865,1.2897632,0.42729858,0.9916557,0.10047161,-0.08077377,0.018939486,-0.733315,-0.6796252,-0.12751566,0.6724244,-0.7290989,,-0.117765635,0.26346847,-0.10295378,-0.018458335,-0.770452,0.6372307,0.59299445,0.5047063,0.62739867,-0.80499494,0.389455,0.44755775,,-0.08200899,0.43009818,-0.34412697,0.10610022,0.3232002,-0.94036394,-0.83997387,0.53524685,0.08918937,0.53215283,0.78041816,0.3282695,,1.1148151040586791,0.5260030587963056,0.21319692743000002,2.4156281489417206,-0.9621942313482317,-0.6412608888035954,-0.4155473042456064,,-1.3620275060954798,0.1571962276548399,0.18793742049,0.9159256731404024,0.8287003710773962,-0.5978280678246993,0.8340348016816299,,-0.07627525163528219,-0.034472434388453,0.0910472212,-0.1089195372335423,,1.5705824e-05,2.3841858e-06,-2.1457672e-06,1.0,-4.440546e-06,-4.0903687e-06,4.4479966e-06,1.0,-7.4505806e-07,4.10527e-06,7.748604e-07,1.0,404,1.231,0,0,0.0,False,-0.26196325577190027,1.0080422948891723
1.2596696538385004,16:09:34.793580,16:08:16.970148,0,,0.1202498,-0.0005700737,0.030680016,-0.09118606,0.8088093,-0.58095837,-0.13534391,0.5679101,0.8118868,0.98659366,0.15266195,0.057681948,,0.07120969,-0.016006244,0.03162211,0.045349307,-0.3400324,0.9393195,-0.104374886,0.9335277,0.3429749,-0.9935036,-0.11359513,0.006843969,,0.082979865,1.2897632,0.42729858,0.9916557,0.10047161,-0.08077377,0.018939486,-0.733315,-0.6796252,-0.12751566,0.6724244,-0.7290989,,-0.11767062,0.26350138,-0.102911584,-0.0023326452,-0.77190155,0.63573784,0.58318466,0.5153856,0.62791187,-0.81233627,0.37221724,0.4489589,,-0.08202948,0.43004936,-0.3440734,0.106536575,0.32305184,-0.9403656,-0.83975273,0.5356456,0.08887705,0.5324146,0.7802059,0.3283495,,1.1142127308944896,0.5263428590427714,0.21332655643,2.387110316627825,-0.9735350608287632,-0.6159224909891018,-0.41587399237787515,,-1.3619425560338634,0.15709583212747497,0.18800871644000003,0.9167644329143405,0.8288370075771617,-0.5972860558072715,0.8337081135493614,,-0.07627525163528219,-0.034472434388453,0.0910472212,-0.1089195372335423,,1.5705824e-05,2.3841858e-06,-2.1457672e-06,1.0,-4.440546e-06,-4.0903687e-06,4.4479966e-06,1.0,-7.4505806e-07,4.10527e-06,7.748604e-07,1.0,412,1.256,0,0,0.0,False,-0.26243987752006825,1.0092492999086586
1.290919526014477,16:09:34.813702,16:08:16.970148,0,,0.12018966,-0.00054930896,0.030642018,-0.10234445,0.80721056,-0.58132315,-0.13995144,0.56689507,0.811815,0.98485494,0.16444173,0.054951668,,0.071243465,-0.015995784,0.03155297,0.04374342,-0.3412367,0.9389588,-0.104678154,0.9331197,0.34399128,-0.9935436,-0.11333594,0.0050977618,,0.082979865,1.2897632,0.42729858,0.9916557,0.10047161,-0.08077377,0.018939486,-0.733315,-0.6796252,-0.12751566,0.6724244,-0.7290989,,-0.11760608,0.26349026,-0.102876924,0.008537931,-0.77137583,0.63632256,0.5786632,0.5227842,0.6259757,-0.81552196,0.36287192,0.4508303,,-0.082052894,0.42999768,-0.34402037,0.108139396,0.3242165,-0.9397816,-0.83975166,0.5357587,0.08820302,0.53209305,0.77964497,0.330198,,1.1137493669220362,0.5265204818988786,0.21339914867,2.367818841827249,-0.9783173383205537,-0.6007511982203293,-0.4178341211714862,,-1.3618807741708696,0.15702632753160695,0.18807353094,0.9184419524622166,0.8277439155790383,-0.5947611377748887,0.834688177946167,,-0.07627525163528219,-0.034472434388453,0.0910472212,-0.1089195372335423,,1.5705824e-05,2.3841858e-06,-2.1457672e-06,1.0,-4.440546e-06,-4.0903687e-06,4.4479966e-06,1.0,-7.4505806e-07,4.10527e-06,7.748604e-07,1.0,420,1.281,0,0,0.0,False,-0.26196325577190027,1.0098286623180122
1.311036251951009,16:09:34.836644,16:08:16.970148,0,,0.120083,-0.00054076314,0.03058754,-0.11961908,0.80527276,-0.5807125,-0.14851278,0.5638179,0.8124367,0.9816493,0.18342614,0.05214989,,0.07127767,-0.015982522,0.031465948,0.042828653,-0.34153646,0.938892,-0.1042417,0.9330976,0.34418374,-0.99362934,-0.112612724,0.004360944,,0.082979865,1.2897632,0.42729858,0.9916557,0.10047161,-0.08077377,0.018939486,-0.733315,-0.6796252,-0.12751566,0.6724244,-0.7290989,,-0.11749491,0.26345894,-0.102844104,0.025298348,-0.77127564,0.63599837,0.5702751,0.53366417,0.62449086,-0.8210641,0.34689546,0.45334014,,-0.08207416,0.42993388,-0.34395412,0.10904226,0.32440576,-0.939612,-0.8394231,0.53634584,0.08776078,0.5324271,0.7791624,0.33079806,,1.1130002618332364,0.5267289956864827,0.21350025929000002,2.3372041100785084,-0.9869254378057764,-0.5749457600551255,-0.41685405677468057,,-1.3617417649791335,0.1569104865384936,0.18816038237000002,0.9199097820666083,0.8277439155790383,-0.5933725991924992,0.8355048982768385,,-0.07627525163528219,-0.034472434388453,0.0910472212,-0.1089195372335423,,1.5705824e-05,2.3841858e-06,-2.1457672e-06,1.0,-4.440546e-06,-4.0903687e-06,4.4479966e-06,1.0,-7.4505806e-07,4.10527e-06,7.748604e-07,1.0,428,1.306,0,0,0.0,False,-0.2622611443645053,1.0103114643258069
1.333989481907338,16:09:34.866787,16:08:17.136524,0,,0.11998422,-0.0005640462,0.03054361,-0.1353421,0.805233,-0.57730603,-0.15600455,0.5580803,0.81499016,0.9784401,0.20036481,0.050088257,,0.071314946,-0.015986187,0.03135413,0.03906914,-0.34430623,0.93804395,-0.105011314,0.93214774,0.34651572,-0.99370325,-0.11204338,0.00026212633,,0.082979865,1.2897632,0.42729858,0.9916557,0.10047161,-0.08077377,0.018939486,-0.733315,-0.6796252,-0.12751566,0.6724244,-0.7290989,,-0.11739493,0.26341188,-0.10283979,0.040601138,-0.7730982,0.63298565,0.5626569,0.5412049,0.62491155,-0.8256929,0.3307816,0.45696253,,-0.08209423,0.42983997,-0.34388566,0.11279355,0.3270888,-0.93823797,-0.839442,0.5365781,0.086145565,0.5316152,0.7778797,0.33509463,,1.1122588794773107,0.5269066185425898,0.21356248121000002,2.3086862777646133,-0.9941671722933447,-0.5473140662818257,-0.4162006805101437,,-1.3615409739244038,0.156786922812506,0.18824204864000002,0.9236842010493298,0.8251478220834948,-0.5876617944560825,0.8355048982768384,,-0.07627525163528219,-0.034472434388453,0.0910472212,-0.1089195372335423,,1.5705824e-05,2.3841858e-06,-2.1457672e-06,1.0,-4.440546e-06,-4.0903687e-06,4.4479966e-06,1.0,-7.4505806e-07,4.10527e-06,7.748604e-07,1.0,457,1.395,0,0,0.0,False,-0.2626781883941529,1.0095872613141148
1.364063928835094,16:09:34.944500,16:08:17.136524,0,,0.11969005,-0.00061121583,0.030413166,-0.17563652,0.8002967,-0.57330346,-0.17616332,0.54740644,0.81811535,0.9685651,0.24468598,0.0448384,,0.07136047,-0.015959067,0.031087875,0.03597983,-0.34609988,0.93750733,-0.10383257,0.9317429,0.34795675,-0.99394375,-0.10986331,-0.0024125278,,0.082979865,1.2897632,0.42729858,0.9916557,0.10047161,-0.08077377,0.018939486,-0.733315,-0.6796252,-0.12751566,0.6724244,-0.7290989,,-0.117095485,0.26328805,-0.10281201,0.079881474,-0.7727273,0.62969154,0.54129964,0.56408066,0.6235445,-0.8370267,0.29104212,0.4633366,,-0.08210042,0.4296444,-0.3436975,0.11584481,0.3285497,-0.93735534,-0.8384771,0.5382606,0.08503942,0.53248113,0.7760996,0.33783612,,1.1105521555121072,0.5274703780424083,0.21373618407000003,2.2319397584492773,-1.011929917262852,-0.47884009156837926,-0.4176707771053523,,-1.3608382052328494,0.1565011816961597,0.18847408455000003,0.9280876898625048,0.8250111855837294,-0.5826496521439524,0.8358315864091069,,-0.07627525163528219,-0.034472434388453,0.0910472212,-0.1089195372335423,,1.5705824e-05,2.3841858e-06,-2.1457672e-06,1.0,-4.440546e-06,-4.0903687e-06,4.4479966e-06,1.0,-7.4505806e-07,4.10527e-06,7.748604e-07,1.0,465,1.419,0,0,0.0,False,-0.26255903295711036,1.0116150297468522
1.4418453560210764,16:09:34.975351,16:08:17.239498,0,,0.11958061,-0.0006246641,0.030386075,-0.18712413,0.7978979,-0.5730126,-0.18151692,0.5451864,0.81842744,0.9654202,0.257159,0.042814434,,0.07135669,-0.015964909,0.03102398,0.034565095,-0.34703317,0.9372155,-0.10392979,0.9314434,0.3487288,-0.9939838,-0.10945848,-0.0038716793,,0.082979865,1.2897632,0.42729858,0.9916557,0.10047161,-0.08077377,0.018939486,-0.733315,-0.6796252,-0.12751566,0.6724244,-0.7290989,,-0.11698555,0.26325974,-0.10281426,0.09113823,-0.77155864,0.629596,0.53526807,0.5710867,0.6223729,-0.83975106,0.28028068,0.46503854,,-0.08208699,0.42959183,-0.34366304,0.117252104,0.32942137,-0.93687433,-0.83837473,0.5385164,0.08442711,0.53233427,0.7755525,0.33932072,,1.1102123552656413,0.5276634463642639,0.21377118390000002,2.2084544847790104,-1.0161656487555806,-0.4588053523052559,-0.41718074490694934,,-1.3605988005137484,0.15643167710029166,0.18851297325000002,0.9295555194668965,0.8243280030849022,-0.58062234530294,0.8364849626736439,,-0.07627525163528219,-0.034472434388453,0.0910472212,-0.1089195372335423,,1.5705824e-05,2.3841858e-06,-2.1457672e-06,1.0,-4.440546e-06,-4.0903687e-06,4.4479966e-06,1.0,-7.4505806e-07,4.10527e-06,7.748604e-07,1.0,473,1.444,0,0,0.0,False,-0.2620824112089424,1.0113253485421754
1.4726933259516954,16:09:35.002183,16:08:17.239498,0,,0.11949024,-0.0006394461,0.030322418,-0.19980252,0.79737425,-0.5694499,-0.18420285,0.54023945,0.82110333,0.962366,0.26895276,0.03893739,,0.0713577,-0.015980406,0.03093499,0.030572347,-0.34858072,0.93677986,-0.10455838,0.93096083,0.3498277,-0.9940487,-0.10864335,-0.007985428,,0.082979865,1.2897632,0.42729858,0.9916557,0.10047161,-0.08077377,0.018939486,-0.733315,-0.6796252,-0.12751566,0.6724244,-0.7290989,,-0.11689162,0.2632052,-0.10278899,0.103778705,-0.7724092,0.6265892,0.5312306,0.5756487,0.62162894,-0.8408472,0.26835153,0.47006753,,-0.082074225,0.42951325,-0.34362036,0.12122805,0.33084488,-0.9358661,-0.8382676,0.53906065,0.08198171,0.53161186,0.7745678,0.34268582,,1.1097798822246847,0.5279028510833648,0.21380748002000002,2.1847595211652595,-1.0171221042539387,-0.4356454521808669,-0.4171807449069491,,-1.3602898911987793,0.1563776179701721,0.18855575082,0.9335396283931023,0.8217319095893589,-0.5761367216686317,0.8369749948720469,,-0.07627525163528219,-0.034472434388453,0.0910472212,-0.1089195372335423,,1.5705824e-05,2.3841858e-06,-2.1457672e-06,1.0,-4.440546e-06,-4.0903687e-06,4.4479966e-06,1.0,-7.4505806e-07,4.10527e-06,7.748604e-07,1.0,481,1.469,0,0,0.0,False,-0.26255903295711036,1.0106977059320426
1.4994892310351133,16:09:35.026250,16:08:17.239498,0,,0.119381584,-0.0006599352,0.030274794,-0.21049663,0.7940115,-0.5702954,-0.18834436,0.5394981,0.8206511,0.9592797,0.2801562,0.035985053,,0.07134546,-0.015979601,0.03090638,0.030244675,-0.3488839,0.9366776,-0.10463664,0.93085235,0.35009283,-0.99405044,-0.108599365,-0.008352742,,0.082979865,1.2897632,0.42729858,0.9916557,0.10047161,-0.08077377,0.018939486,-0.733315,-0.6796252,-0.12751566,0.6724244,-0.7290989,,-0.116781294,0.26315764,-0.10278123,0.114336915,-0.77006155,0.62764025,0.52611566,0.5828494,0.6192648,-0.8426917,0.25940654,0.47178265,,-0.08205789,0.42949328,-0.34360293,0.121554665,0.33114147,-0.93571883,-0.8382726,0.5390691,0.08187523,0.5315294,0.77443516,0.34311318,,1.1094864183754642,0.5280264148093524,0.21383988727000003,2.1631614569863533,-1.019718197749482,-0.4189896962656149,-0.41750743303921767,,-1.360143159274169,0.15636989523729788,0.18857130630000002,0.9337493183365869,0.8215952730895935,-0.5756985888043732,0.8366483067397783,,-0.07627525163528219,-0.034472434388453,0.0910472212,-0.1089195372335423,,1.5705824e-05,2.3841858e-06,-2.1457672e-06,1.0,-4.440546e-06,-4.0903687e-06,4.4479966e-06,1.0,-7.4505806e-07,4.10527e-06,7.748604e-07,1.0,493,1.505,0,0,0.0,False,-0.26243987752006825,1.0097803821172329
1.5235950008500367,16:09:35.058343,16:08:17.239498,0,,0.119169794,-0.00071466714,0.030166045,-0.23007263,0.7857224,-0.5742009,-0.19787174,0.53993523,0.81811786,0.95284486,0.30184466,0.031247944,,0.07133197,-0.015976025,0.030884027,0.030287918,-0.34937397,0.9364935,-0.10495162,0.9306328,0.35058185,-0.99401593,-0.10890496,-0.008480445,,0.082979865,1.2897632,0.42729858,0.9916557,0.10047161,-0.08077377,0.018939486,-0.733315,-0.6796252,-0.12751566,0.6724244,-0.7290989,,-0.11656609,0.2630432,-0.10276481,0.13357772,-0.76360303,0.6317178,0.5148023,0.5981458,0.6141663,-0.8468386,0.24317081,0.4730035,,-0.08204134,0.42948002,-0.34358728,0.12151688,0.3316784,-0.9355336,-0.83844644,0.5387639,0.08210387,0.53126377,0.7744178,0.34356347,,1.1088763224784004,0.5281731467339627,0.2139137758,2.1220622280633865,-1.0260034767386923,-0.389687565613973,-0.4184874974360233,,-1.3600273182810558,0.15636989523729788,0.18858297291,0.933329938449618,0.821458636589828,-0.575505492160536,0.8355048982768384,,-0.07627525163528219,-0.034472434388453,0.0910472212,-0.1089195372335423,,1.5705824e-05,2.3841858e-06,-2.1457672e-06,1.0,-4.440546e-06,-4.0903687e-06,4.4479966e-06,1.0,-7.4505806e-07,4.10527e-06,7.748604e-07,1.0,501,1.531,0,0,0.0,False,-0.2626781883941529,1.0101666237234685
1.555594485020265,16:09:35.086064,16:08:17.239498,0,,0.11903016,-0.00075389445,0.030025288,-0.24390411,0.7831268,-0.5720342,-0.20180717,0.5359509,0.8197746,0.9485698,0.315387,0.027319938,,0.071329266,-0.015973104,0.030875683,0.030374683,-0.3495224,0.93643534,-0.105045676,0.93056333,0.35073802,-0.9940034,-0.10902214,-0.00845027,,0.082979865,1.2897632,0.42729858,0.9916557,0.10047161,-0.08077377,0.018939486,-0.733315,-0.6796252,-0.12751566,0.6724244,-0.7290989,,-0.11641868,0.26291782,-0.1027065,0.14736806,-0.76246595,0.63002247,0.5090193,0.60461366,0.61265135,-0.848046,0.23040837,0.47721064,,-0.08203753,0.42947578,-0.34358004,0.121432275,0.33184478,-0.93548554,-0.83850676,0.5386505,0.082231715,0.53118795,0.7744254,0.34366363,,1.10838206757445,0.5281731467339627,0.21398896062000003,2.093754085692976,-1.0273698417363468,-0.3639880857946996,-0.4179974652376205,,-1.3599964273495588,0.15636989523729788,0.18858945436000002,0.9331202485061334,0.821458636589828,-0.575505492160536,0.8351782101445697,,-0.07627525163528219,-0.034472434388453,0.0910472212,-0.1089195372335423,,1.5705824e-05,2.3841858e-06,-2.1457672e-06,1.0,-4.440546e-06,-4.0903687e-06,4.4479966e-06,1.0,-7.4505806e-07,4.10527e-06,7.748604e-07,1.0,509,1.556,0,0,0.0,False,-0.2618441003348577,1.0101666237234685
1.5834075268357992,16:09:35.111746,16:08:17.374933,0,,0.11887393,-0.0007949248,0.029880092,-0.25804326,0.77753246,-0.5734604,-0.20469841,0.53608686,0.81896853,0.9441992,0.3287157,0.020826042,,0.07134469,-0.015982134,0.030863702,0.028428208,-0.34974608,0.93641293,-0.10529646,0.9305319,0.3507462,-0.9940344,-0.108572185,-0.010373697,,0.082979865,1.2897632,0.42729858,0.9916557,0.10047161,-0.08077377,0.018939486,-0.733315,-0.6796252,-0.12751566,0.6724244,-0.7290989,,-0.11625456,0.26278806,-0.10264814,0.16155358,-0.75801027,0.63191843,0.50392634,0.6139186,0.60758716,-0.84850377,0.22028248,0.4811621,,-0.08205069,0.42945877,-0.34357873,0.12336868,0.3319998,-0.93517715,-0.8384196,0.53901,0.080750994,0.53087914,0.77410877,0.3448521,,1.108003653663613,0.52814997853534,0.21405377512,2.0650265634355955,-1.0272332052365811,-0.34294471000199045,-0.41816080930375477,,-1.3600118728153072,0.15636217250442364,0.18859204694,0.9352171479409787,0.8200922715921736,-0.5737378832024473,0.8364849626736439,,-0.07627525163528219,-0.034472434388453,0.0910472212,-0.1089195372335423,,1.5705824e-05,2.3841858e-06,-2.1457672e-06,1.0,-4.440546e-06,-4.0903687e-06,4.4479966e-06,1.0,-7.4505806e-07,4.10527e-06,7.748604e-07,1.0,534,1.632,0,0,0.0,False,-0.2630356547052788,1.0105045851289247
1.6090911629144102,16:09:35.185798,16:08:17.374933,0,,0.118478924,-0.0009245351,0.029319301,-0.30106178,0.76478446,-0.5696195,-0.21493119,0.5275433,0.82188976,0.92906743,0.36986858,0.0055529475,,0.07134922,-0.015982075,0.030860066,0.027885612,-0.3499512,0.9363526,-0.10555294,0.9304493,0.3508884,-0.9940226,-0.1086196,-0.010992274,,0.082979865,1.2897632,0.42729858,0.9916557,0.10047161,-0.08077377,0.018939486,-0.733315,-0.6796252,-0.12751566,0.6724244,-0.7290989,,-0.11582546,0.26230764,-0.102379136,0.2047541,-0.74944806,0.6296057,0.48612562,0.6361575,0.599154,-0.8495632,0.18338825,0.49458176,,-0.08205462,0.42945534,-0.3435761,0.1239114,0.33221227,-0.9350299,-0.83849484,0.5389502,0.08036834,0.5306339,0.77405924,0.34534034,,1.106420493424397,0.5281345330695916,0.21433636634000003,1.9765374072851267,-1.0264133862379887,-0.26765198909344606,-0.41881418556829186,,-1.3600273182810558,0.15636989523729788,0.18859334323000002,0.9356365278279476,0.8195457255931118,-0.5732105328475211,0.8363216186075098,,-0.07627525163528219,-0.034472434388453,0.0910472212,-0.1089195372335423,,1.5705824e-05,2.3841858e-06,-2.1457672e-06,1.0,-4.440546e-06,-4.0903687e-06,4.4479966e-06,1.0,-7.4505806e-07,4.10527e-06,7.748604e-07,1.0,542,1.657,0,0,0.0,False,-0.2629164992682367,1.0113736287429549
1.68309685587883,16:09:35.210958,16:08:17.487152,0,,0.11832781,-0.0009817183,0.029036358,-0.31921196,0.7555425,-0.57206565,-0.22028059,0.5279584,0.82020515,0.92172676,0.3878342,-0.0020992756,,0.07134597,-0.01598273,0.030857682,0.027864683,-0.35003394,0.93632233,-0.10556036,0.93041825,0.35096824,-0.99402237,-0.1086182,-0.011023909,,0.082979865,1.2897632,0.42729858,0.9916557,0.10047161,-0.08077377,0.018939486,-0.733315,-0.6796252,-0.12751566,0.6724244,-0.7290989,,-0.11565618,0.26207113,-0.10223226,0.2229803,-0.74173385,0.632543,0.47720832,0.6488693,0.5926558,-0.8500306,0.16970424,0.49864665,,-0.08205103,0.42945352,-0.3435754,0.123932295,0.3322948,-0.93499786,-0.8384964,0.53894347,0.08039732,0.5306266,0.7740285,0.34542048,,1.105655942869849,0.5281190876038431,0.21448932856000003,1.9381641476274587,-1.0261401132384578,-0.24026741073332897,-0.4184874974360234,,-1.3600041500824331,0.15636989523729788,0.18859334323000002,0.9356365278279476,0.8195457255931118,-0.5731288541073805,0.836484962673644,,-0.07627525163528219,-0.034472434388453,0.0910472212,-0.1089195372335423,,1.5705824e-05,2.3841858e-06,-2.1457672e-06,1.0,-4.440546e-06,-4.0903687e-06,4.4479966e-06,1.0,-7.4505806e-07,4.10527e-06,7.748604e-07,1.0,550,1.682,0,0,0.0,False,-0.26196325577190027,1.011711590148411
1.7083056098781526,16:09:35.239565,16:08:17.487152,0,,0.1182572,-0.0010239258,0.028849736,-0.32918125,0.752927,-0.5698601,-0.22352466,0.52420944,0.8217306,0.9174292,0.39787608,-0.004262179,,0.071345404,-0.015981538,0.0308581,0.027863778,-0.35003808,0.9363208,-0.105554014,0.9304175,0.35097232,-0.9940231,-0.10861191,-0.011023015,,0.082979865,1.2897632,0.42729858,0.9916557,0.10047161,-0.08077377,0.018939486,-0.733315,-0.6796252,-0.12751566,0.6724244,-0.7290989,,-0.11557376,0.26191184,-0.10213514,0.23298962,-0.74026644,0.6306516,0.4719058,0.6530912,0.5922641,-0.8503063,0.15961677,0.5014995,,-0.08205058,0.42945468,-0.34357476,0.12393309,0.33229798,-0.9349966,-0.8384929,0.5389484,0.08040077,0.53063196,0.7740237,0.34542304,,1.1050999061029048,0.5280573057408493,0.21459043918,1.9167757733920372,-1.0261401132384578,-0.22017444065875058,-0.4178341211714862,,-1.3600041500824331,0.1563776179701721,0.18859334323000002,0.9356365278279476,0.8195457255931118,-0.5731288541073805,0.836484962673644,,-0.07627525163528219,-0.034472434388453,0.0910472212,-0.1089195372335423,,1.5705824e-05,2.3841858e-06,-2.1457672e-06,1.0,-4.440546e-06,-4.0903687e-06,4.4479966e-06,1.0,-7.4505806e-07,4.10527e-06,7.748604e-07,1.0,558,1.706,0,0,0.0,False,-0.2620824112089424,1.0107942663336016
1.7369032208807766,16:09:35.268887,16:08:17.487152,0,,0.11812334,-0.0010874569,0.028520241,-0.34622028,0.7441247,-0.57132286,-0.22776783,0.52409434,0.8206382,0.91008425,0.41425052,-0.011964381,,0.07134488,-0.015982969,0.030856848,0.02785771,-0.3501125,0.9362932,-0.105562806,0.9303889,0.3510455,-0.99402237,-0.10861716,-0.01104039,,0.082979865,1.2897632,0.42729858,0.9916557,0.10047161,-0.08077377,0.018939486,-0.733315,-0.6796252,-0.12751566,0.6724244,-0.7290989,,-0.115418226,0.26163858,-0.1019572,0.25019872,-0.73289764,0.63266236,0.46378472,0.66432047,0.58615875,-0.8498849,0.14676297,0.50611883,,-0.08204983,0.42945293,-0.34357515,0.12393926,0.3323732,-0.93496907,-0.8384969,0.53893685,0.08043633,0.53062415,0.77399945,0.34548935,,1.1043121873497337,0.5279028510833648,0.21476284575000001,1.8809187930561835,-1.024363838741507,-0.19401545923929409,-0.4181608093037549,,-1.3599964273495588,0.15636989523729788,0.18859334323000002,0.9356365278279476,0.8195457255931118,-0.5730471753672399,0.8369749948720469,,-0.07627525163528219,-0.034472434388453,0.0910472212,-0.1089195372335423,,1.5705824e-05,2.3841858e-06,-2.1457672e-06,1.0,-4.440546e-06,-4.0903687e-06,4.4479966e-06,1.0,-7.4505806e-07,4.10527e-06,7.748604e-07,1.0,566,1.731,0,0,0.0,False,-0.26112916771260597,1.011180507939837
1.7662330670282245,16:09:35.287643,16:08:17.487152,0,,0.11799619,-0.0011342615,0.028181031,-0.3612404,0.7356491,-0.57299715,-0.2324925,0.52402925,0.8193537,0.9030242,0.42920122,-0.018267632,,0.07136104,-0.015990807,0.030856073,0.026488423,-0.34873325,0.9368475,-0.10454318,0.9310709,0.34953892,-0.9941675,-0.10719982,-0.011795089,,0.082979865,1.2897632,0.42729858,0.9916557,0.10047161,-0.08077377,0.018939486,-0.733315,-0.6796252,-0.12751566,0.6724244,-0.7290989,,-0.115267254,0.26137072,-0.10176003,0.26534072,-0.7257306,0.63475144,0.45550963,0.6746028,0.58088034,-0.8497678,0.1350042,0.50957686,,-0.08206543,0.42944524,-0.34357974,0.12528148,0.3307771,-0.93535614,-0.83779174,0.540267,0.07884502,0.5314222,0.7737558,0.34480777,,1.1036016959253052,0.5276788918300123,0.21495988183000003,1.8482071618725975,-1.0232707467433835,-0.17032150168655624,-0.41897752963442625,,-1.3600041500824331,0.15636989523729788,0.1885972321,0.938152807149762,0.8195457255931118,-0.5727204604066778,0.8361582745413755,,-0.07627525163528219,-0.034472434388453,0.0910472212,-0.1089195372335423,,1.5705824e-05,2.3841858e-06,-2.1457672e-06,1.0,-4.440546e-06,-4.0903687e-06,4.4479966e-06,1.0,-7.4505806e-07,4.10527e-06,7.748604e-07,1.0,578,1.769,0,0,0.0,False,-0.2626186106756321,1.0113253485421754
1.7849372709169984,16:09:35.319097,16:08:17.487152,0,,0.117855586,-0.0011923537,0.027940586,-0.3739924,0.72609013,-0.57699454,-0.23813295,0.526103,0.81639963,0.8963383,0.44272873,-0.023852468,,0.071425505,-0.016026003,0.030856133,0.020602167,-0.34696564,0.9376514,-0.09978488,0.93245417,0.34723496,-0.9947957,-0.10071728,-0.015411332,,0.082979865,1.2897632,0.42729858,0.9916557,0.10047161,-0.08077377,0.018939486,-0.733315,-0.6796252,-0.12751566,0.6724244,-0.7290989,,-0.11511203,0.26116288,-0.101643145,0.27812678,-0.7172015,0.63895816,0.4468277,0.68545157,0.57489234,-0.85028845,0.12561125,0.5111079,,-0.082128026,0.42941472,-0.34360307,0.13104,0.32802,-0.93553805,-0.83453166,0.5458982,0.07451167,0.5351499,0.77097213,0.34527758,,1.103184668350097,0.527532159905402,0.21508562196000003,1.8186408798412796,-1.0232707467433835,-0.15178042767464855,-0.4168540567746807,,-1.3600118728153072,0.15638534070304633,0.188610195,0.9492663741544418,0.8198189985926427,-0.5666540332232473,0.8371383389381811,,-0.07627525163528219,-0.034472434388453,0.0910472212,-0.1089195372335423,,1.5705824e-05,2.3841858e-06,-2.1457672e-06,1.0,-4.440546e-06,-4.0903687e-06,4.4479966e-06,1.0,-7.4505806e-07,4.10527e-06,7.748604e-07,1.0,586,1.793,0,0,0.0,False,-0.26232072208302704,1.0115184693452932
1.8164422549307346,16:09:35.347728,16:08:17.629270,0,,0.11759584,-0.0012803823,0.02746658,-0.3986854,0.7113224,-0.5788525,-0.24647272,0.5248549,0.81472605,0.88334656,0.4674907,-0.03393042,,0.071429,-0.016028715,0.030874133,0.02138716,-0.35358676,0.93515706,-0.09634125,0.93028915,0.3539495,-0.9951185,-0.09766421,-0.014168754,,0.082979865,1.2897632,0.42729858,0.9916557,0.10047161,-0.08077377,0.018939486,-0.733315,-0.6796252,-0.12751566,0.6724244,-0.7290989,,-0.1148213,0.2607723,-0.10139252,0.30309108,-0.704695,0.6415144,0.43185338,0.7016574,0.56672704,-0.8494931,0.10527025,0.516991,,-0.082134075,0.42942655,-0.34361607,0.13020186,0.33417836,-0.9334732,-0.83276016,0.5478285,0.07996533,0.5381059,0.7669477,0.3496187,,1.1025977406516558,0.5272850324534268,0.2153267319,1.7634924247048498,-1.019718197749482,-0.11122420341597633,-0.417180744906949,,-1.3599423682194394,0.15639306343592055,0.18861797274000003,0.9513632735892871,0.8230982745870132,-0.5581380755127043,0.8366483067397783,,-0.07627525163528219,-0.034472434388453,0.0910472212,-0.1089195372335423,,1.5705824e-05,2.3841858e-06,-2.1457672e-06,1.0,-4.440546e-06,-4.0903687e-06,4.4479966e-06,1.0,-7.4505806e-07,4.10527e-06,7.748604e-07,1.0,615,1.882,0,0,0.0,False,-0.26196325577190027,1.0103597445265864
1.845063173910603,16:09:35.428484,16:08:17.629270,0,,0.11707245,-0.001378879,0.026596561,-0.43822193,0.6885223,-0.57783943,-0.26123196,0.5175515,0.81479955,0.8600694,0.5080132,-0.04693836,,0.07141273,-0.01603557,0.030862391,0.02132237,-0.3526546,0.93551046,-0.096093565,0.9306681,0.35301942,-0.9951439,-0.09742385,-0.014043808,,0.082979865,1.2897632,0.42729858,0.9916557,0.10047161,-0.08077377,0.018939486,-0.733315,-0.6796252,-0.12751566,0.6724244,-0.7290989,,-0.114236414,0.26010105,-0.1008946,0.34315884,-0.68599707,0.64159954,0.4051511,0.72436976,0.5578002,-0.8474046,0.0685307,0.52650636,,-0.08211602,0.4294154,-0.3436153,0.13026173,0.33320916,-0.9338113,-0.8326178,0.54812133,0.07943876,0.53831166,0.7671601,0.3488351,,1.1023428904668064,0.526497313700256,0.21580247033000002,1.6722772992890815,-1.0117932807630865,-0.038784778854585644,-0.4181608093037549,,-1.3598110817605775,0.1563776179701721,0.18861797274000003,0.9515729635327714,0.8233715475865442,-0.5590143412412216,0.8353415542107041,,-0.07627525163528219,-0.034472434388453,0.0910472212,-0.1089195372335423,,1.5705824e-05,2.3841858e-06,-2.1457672e-06,1.0,-4.440546e-06,-4.0903687e-06,4.4479966e-06,1.0,-7.4505806e-07,4.10527e-06,7.748604e-07,1.0,619,1.895,0,0,0.0,False,-0.2617249448978165,1.0096838217156738
1.9258296459447592,16:09:35.449217,16:08:17.629270,0,,0.116882406,-0.0014108494,0.02626212,-0.45181793,0.6780075,-0.5797986,-0.26530075,0.51839685,0.81294537,0.8517489,0.5211243,-0.05434507,,0.07141058,-0.016036136,0.03085959,0.021225575,-0.3527613,0.9354724,-0.0962069,0.9306203,0.35311452,-0.99513495,-0.097494006,-0.0141851455,,0.082979865,1.2897632,0.42729858,0.9916557,0.10047161,-0.08077377,0.018939486,-0.733315,-0.6796252,-0.12751566,0.6724244,-0.7290989,,-0.114022195,0.25984728,-0.100697845,0.35704252,-0.6765795,0.6440193,0.39647895,0.73404336,0.55134815,-0.8457689,0.058485366,0.5303342,,-0.08211347,0.42941317,-0.34361416,0.13035971,0.33332658,-0.9337557,-0.83266777,0.5480521,0.07939335,0.5382107,0.76715857,0.3489942,,1.1023660586654291,0.5260725633921736,0.21598006206000003,1.6418722574838258,-1.007284276270827,-0.01893809251608558,-0.41718074490694934,,-1.359795636294829,0.1563776179701721,0.18861797274000003,0.9515729635327714,0.8232349110867787,-0.5589029233375253,0.8350148660784356,,-0.07627525163528219,-0.034472434388453,0.0910472212,-0.1089195372335423,,1.5705824e-05,2.3841858e-06,-2.1457672e-06,1.0,-4.440546e-06,-4.0903687e-06,4.4479966e-06,1.0,-7.4505806e-07,4.10527e-06,7.748604e-07,1.0,627,1.919,0,0,0.0,False,-0.26243987752006825,1.0092010197078791
1.9465332480613142,16:09:35.476221,16:08:17.629270,0,,0.116631694,-0.0014443025,0.025806978,-0.4657688,0.6696686,-0.578449,-0.2695435,0.5152553,0.8135468,0.84285563,0.53484184,-0.05948499,,0.07140946,-0.016033782,0.030860484,0.021223664,-0.35276958,0.9354694,-0.09619424,0.9306185,0.3531227,-0.99513626,-0.09748143,-0.014183253,,0.082979865,1.2897632,0.42729858,0.9916557,0.10047161,-0.08077377,0.018939486,-0.733315,-0.6796252,-0.12751566,0.6724244,-0.7290989,,-0.11373775,0.2595092,-0.100422345,0.37131298,-0.66968566,0.64315456,0.38728604,0.74124837,0.54823387,-0.8438816,0.045518443,0.5345951,,-0.08211256,0.42941546,-0.3436129,0.13036138,0.33333293,-0.93375325,-0.8326607,0.54806185,0.079400286,0.5382213,0.76714885,0.3489993,,1.1024432859941715,0.5251844491116378,0.21623802377,1.6099993860741781,-1.0022287257795057,0.0069155426787329555,-0.41963090589896346,,-1.359795636294829,0.15639306343592055,0.18861797274000003,0.9515729635327714,0.8232349110867787,-0.5589029233375253,0.8350148660784356,,-0.07627525163528219,-0.034472434388453,0.0910472212,-0.1089195372335423,,1.5705824e-05,2.3841858e-06,-2.1457672e-06,1.0,-4.440546e-06,-4.0903687e-06,4.4479966e-06,1.0,-7.4505806e-07,4.10527e-06,7.748604e-07,1.0,635,1.944,0,0,0.0,False,-0.26196325577190027,1.0083802562946285
1.9735655409749597,16:09:35.502906,16:08:17.629270,0,,0.11631564,-0.0015308559,0.025275186,-0.48157972,0.65596145,-0.58120173,-0.27566144,0.51613426,0.8109355,0.8319205,0.55074495,-0.06773651,,0.07140837,-0.01603399,0.030859709,0.02121668,-0.35277158,0.9354687,-0.09619668,0.9306178,0.35312396,-0.99513614,-0.09748122,-0.014190882,,0.082979865,1.2897632,0.42729858,0.9916557,0.10047161,-0.08077377,0.018939486,-0.733315,-0.6796252,-0.12751566,0.6724244,-0.7290989,,-0.11338613,0.25907984,-0.100135624,0.38745522,-0.6573271,0.6463741,0.375329,0.75287706,0.5406518,-0.8420253,0.033124585,0.5384201,,-0.08211136,0.42941487,-0.34361267,0.13036835,0.3333349,-0.9337515,-0.83266115,0.54806185,0.07939527,0.5382188,0.767148,0.34900492,,1.102535958788662,0.5239719800503845,0.21651154096000003,1.572045506303479,-0.9968999022886535,0.031811233404893946,-0.42028428216350056,,-1.3597879135619548,0.15639306343592055,0.18861797274000003,0.9515729635327714,0.8232349110867787,-0.5589029233375253,0.8350148660784356,,-0.07627525163528219,-0.034472434388453,0.0910472212,-0.1089195372335423,,1.5705824e-05,2.3841858e-06,-2.1457672e-06,1.0,-4.440546e-06,-4.0903687e-06,4.4479966e-06,1.0,-7.4505806e-07,4.10527e-06,7.748604e-07,1.0,643,1.968,0,0,0.0,False,-0.26196325577190027,1.0082836958930697
2.0002515229862183,16:09:35.530634,16:08:17.802279,0,,0.116029434,-0.0016610324,0.024728104,-0.49618262,0.6465123,-0.5795038,-0.2789857,0.5133404,0.8115717,0.82217383,0.5643611,-0.07434291,,0.07145032,-0.016030502,0.030860782,0.021229807,-0.3527356,0.9354821,-0.09620273,0.9306303,0.35308942,-0.9951353,-0.09749207,-0.014177084,,0.082934245,1.2897602,0.42729875,0.99165475,0.10050774,-0.08074028,0.018988347,-0.73331004,-0.67962915,-0.12751566,0.6724244,-0.7290989,,-0.11302697,0.25860724,-0.099872045,0.40253106,-0.6493226,0.64525104,0.3662319,0.76024145,0.53656983,-0.8389535,0.020325476,0.5438234,,-0.08211181,0.4294137,-0.3436133,0.13036752,0.33325544,-0.93378,-0.8326647,0.5480634,0.07934704,0.5382135,0.7671814,0.34893972,,1.102736749843392,0.5224814926056592,0.21677468783000003,1.5397532550068622,-0.9895215313013198,0.05740433903968484,-0.418814185568292,,-1.3597879135619548,0.15638534070304633,0.18861797274000003,0.9515729635327714,0.8232349110867787,-0.5589846020776659,0.8345248338800327,,-0.07627525163528219,-0.034472434388453,0.0910472212,-0.1089195372335423,,-2.9608607e-05,5.9604645e-08,3.33786e-06,1.0,3.1486154e-05,2.9049814e-05,-3.1478703e-05,1.0,5.4836273e-06,-2.9034913e-05,-5.5134296e-06,1.0,655,2.006,0,0,0.0,False,-0.26154621174225356,1.0078974542868337
2.027926252922043,16:09:35.561733,16:08:17.802279,0,,0.11581174,-0.0016936064,0.024389073,-0.5041657,0.6439381,-0.57546544,-0.27978683,0.50862175,0.81426245,0.8170289,0.5715309,-0.07626426,,0.07127849,-0.01609714,0.030866742,0.021215703,-0.3525535,0.93555105,-0.09621546,0.9306983,0.35290664,-0.99513435,-0.097501725,-0.014175698,,0.082934245,1.2897602,0.42729875,0.99165475,0.10050774,-0.08074028,0.018988347,-0.73331004,-0.67962915,-0.12751566,0.6724244,-0.7290989,,-0.112784944,0.2583499,-0.09967557,0.4108288,-0.6477321,0.64160955,0.36211014,0.76177925,0.53718585,-0.83671737,0.011641892,0.5475112,,-0.08194074,0.42940062,-0.3436809,0.13038172,0.3330747,-0.93384254,-0.8326699,0.54807305,0.0792257,0.538202,0.767253,0.34879997,,1.1030302136926124,0.5214234782018905,0.21695227956000002,1.5231877494715849,-0.984329344310233,0.07457028861604803,-0.4171807449069491,,-1.3597879135619548,0.15638534070304633,0.18861797274000003,0.9515729635327714,0.8232349110867787,-0.5589846020776659,0.8345248338800327,,-0.07627525163528219,-0.034472434388453,0.0910472212,-0.1089195372335423,,-2.9608607e-05,5.9604645e-08,3.33786e-06,1.0,3.1486154e-05,2.9049814e-05,-3.1478703e-05,1.0,5.4836273e-06,-2.9034913e-05,-5.5134296e-06,1.0,680,2.083,0,0,0.0,False,-0.2608312791200009,1.0082354156922901
2.059073038864881,16:09:35.632478,16:08:17.802279,0,,0.11475668,-0.0018291175,0.023358539,-0.53551364,0.6135142,-0.5803666,-0.29384756,0.5089094,0.8091136,0.79175675,0.6038307,-0.09224826,,0.07132589,-0.016064893,0.030824304,0.020966746,-0.35298988,0.935392,-0.09642124,0.9305227,0.35331357,-0.99511975,-0.097599536,-0.014525726,,0.082934245,1.2897602,0.42729875,0.99165475,0.10050774,-0.08074028,0.018988347,-0.73331004,-0.67962915,-0.12751566,0.6724244,-0.7290989,,-0.11166135,0.25754172,-0.09914839,0.4429835,-0.620181,0.64741105,0.33452815,0.7843181,0.5224328,-0.8317791,-0.014851905,0.554908,,-0.08198229,0.4293812,-0.34362623,0.1306322,0.33352622,-0.9336463,-0.83275175,0.5479484,0.079228036,0.53801465,0.7671459,0.34932426,,1.1056868338013457,0.5178787438126214,0.21745653637,1.444344330721404,-0.9687527833369728,0.12557806490429452,-0.4168540567746807,,-1.3599114772879424,0.1563776179701721,0.18868408353000002,0.951782653476256,0.8228250015874824,-0.5583236334060144,0.8338714576154955,,-0.07627525163528219,-0.034472434388453,0.0910472212,-0.1089195372335423,,-2.9608607e-05,5.9604645e-08,3.33786e-06,1.0,3.1486154e-05,2.9049814e-05,-3.1478703e-05,1.0,5.4836273e-06,-2.9034913e-05,-5.5134296e-06,1.0,688,2.108,0,0,0.0,False,-0.26190367805337944,1.0084768166961875
2.1297938488423824,16:09:35.665594,16:08:17.925666,0,,0.114373915,-0.0017927662,0.023175493,-0.5450835,0.6053355,-0.5800456,-0.29925987,0.50580287,0.80907786,0.7831523,0.61459935,-0.09455222,,0.07133462,-0.016061109,0.030825019,0.021008719,-0.3529779,0.9353956,-0.09640631,0.9305271,0.353306,-0.9951203,-0.09760064,-0.014480174,,0.082934245,1.2897602,0.42729875,0.99165475,0.10050774,-0.08074028,0.018988347,-0.73331004,-0.67962915,-0.12751566,0.6724244,-0.7290989,,-0.11126298,0.25744212,-0.09903564,0.4527865,-0.61319727,0.64728165,0.32468376,0.78951305,0.52081627,-0.8304004,-0.025656749,0.5565761,,-0.08199116,0.42938292,-0.34362313,0.13059032,0.33351442,-0.9336564,-0.8327487,0.54794866,0.07925812,0.5380295,0.7671508,0.3492905,,1.1073240531706814,0.5171682523881928,0.21756153586000002,1.4191815375032608,-0.9634239598461206,0.1446745650804755,-0.4176707771053521,,-1.3599655364180618,0.1563776179701721,0.18868926869000002,0.951782653476256,0.8228250015874824,-0.5583236334060144,0.8338714576154955,,-0.07627525163528219,-0.034472434388453,0.0910472212,-0.1089195372335423,,-2.9608607e-05,5.9604645e-08,3.33786e-06,1.0,3.1486154e-05,2.9049814e-05,-3.1478703e-05,1.0,5.4836273e-06,-2.9034913e-05,-5.5134296e-06,1.0,700,2.144,0,0,0.0,False,-0.2612483231496481,1.0078974542868337
2.1628930368460715,16:09:35.701601,16:08:17.925666,0,,0.11401451,-0.00170964,0.023061559,-0.5543257,0.5964056,-0.580537,-0.3045294,0.5038061,0.8083571,0.7745869,0.6248838,-0.097649604,,0.07133951,-0.0160578,0.030826628,0.021035753,-0.35305044,0.9353677,-0.09639013,0.9305002,0.353381,-0.99512136,-0.0975939,-0.014456838,,0.082934245,1.2897602,0.42729875,0.99165475,0.10050774,-0.08074028,0.018988347,-0.73331004,-0.67962915,-0.12751566,0.6724244,-0.7290989,,-0.11088992,0.25742403,-0.09893781,0.46227193,-0.6053402,0.64797217,0.31496924,0.7951776,0.5181573,-0.8289144,-0.03543828,0.5582518,,-0.08199634,0.42938554,-0.3436212,0.13056323,0.33358598,-0.93363464,-0.83274317,0.5479472,0.079326406,0.5380447,0.7671207,0.3493332,,1.1091620635947468,0.5167743930116073,0.21764709100000001,1.395276883946025,-0.9578218633557376,0.16101618850490623,-0.41767077710535205,,-1.3599887046166845,0.15638534070304633,0.18869186127,0.951782653476256,0.8228250015874824,-0.5582419546658739,0.8340348016816299,,-0.07627525163528219,-0.034472434388453,0.0910472212,-0.1089195372335423,,-2.9608607e-05,5.9604645e-08,3.33786e-06,1.0,3.1486154e-05,2.9049814e-05,-3.1478703e-05,1.0,5.4836273e-06,-2.9034913e-05,-5.5134296e-06,1.0,708,2.169,0,0,0.0,False,-0.26148663402373185,1.007704333483716
2.1988927838392556,16:09:35.723626,16:08:17.925666,0,,0.11366984,-0.0016533136,0.023015425,-0.5599316,0.5885179,-0.5832008,-0.3131279,0.5013758,0.80658114,0.76709026,0.6342468,-0.09645471,,0.071339525,-0.016056817,0.030823827,0.02102876,-0.35297605,0.9353959,-0.09639263,0.9305284,0.3533063,-0.99512124,-0.09759489,-0.014456451,,0.082934245,1.2897602,0.42729875,0.99165475,0.10050774,-0.08074028,0.018988347,-0.73331004,-0.67962915,-0.12751566,0.6724244,-0.7290989,,-0.11053927,0.25743333,-0.0989054,0.46779576,-0.5984754,0.6503802,0.30357957,0.79989123,0.5177002,-0.8300642,-0.044735823,0.5558706,,-0.08199597,0.429384,-0.3436187,0.1305702,0.33351168,-0.9336602,-0.83274364,0.54795367,0.079276636,0.5380422,0.76714844,0.34927616,,1.1108765102928246,0.5165118200938836,0.21770153518000002,1.3724206801062118,-0.9571386808569103,0.17728491945537989,-0.41799746523762066,,-1.3599809818838104,0.15638534070304633,0.18869445385000003,0.951782653476256,0.8228250015874824,-0.5583236334060144,0.8341981457477641,,-0.07627525163528219,-0.034472434388453,0.0910472212,-0.1089195372335423,,-2.9608607e-05,5.9604645e-08,3.33786e-06,1.0,3.1486154e-05,2.9049814e-05,-3.1478703e-05,1.0,5.4836273e-06,-2.9034913e-05,-5.5134296e-06,1.0,716,2.195,0,0,0.0,False,-0.26255903295711036,1.007511212680598
2.220960889942944,16:09:35.750858,16:08:17.925666,0,,0.11348695,-0.001591824,0.022979245,-0.5638686,0.5865888,-0.58134824,-0.3139797,0.49880642,0.80784214,0.76385134,0.6380483,-0.09708437,,0.071337916,-0.016056638,0.030821204,0.021014769,-0.35305646,0.93536586,-0.09639755,0.930498,0.35338482,-0.995121,-0.09759334,-0.014479607,,0.082934245,1.2897602,0.42729875,0.99165475,0.10050774,-0.08074028,0.018988347,-0.73331004,-0.67962915,-0.12751566,0.6724244,-0.7290989,,-0.11034976,0.25745308,-0.09885815,0.47191086,-0.5970767,0.64869064,0.30073214,0.8006585,0.5181758,-0.82877034,-0.04945067,0.55739963,,-0.081994,0.4293823,-0.34361708,0.13058417,0.33359188,-0.9336296,-0.83274466,0.5479471,0.07931136,0.53803724,0.7671183,0.34935006,,1.1119190792308449,0.5162646926419084,0.21773653501,1.3642427723103154,-0.9534494953632434,0.1848948722738495,-0.4166907127085463,,-1.3599655364180618,0.15638534070304633,0.18869575014,0.951782653476256,0.8228250015874824,-0.5582419546658739,0.8337081135493614,,-0.07627525163528219,-0.034472434388453,0.0910472212,-0.1089195372335423,,-2.9608607e-05,5.9604645e-08,3.33786e-06,1.0,3.1486154e-05,2.9049814e-05,-3.1478703e-05,1.0,5.4836273e-06,-2.9034913e-05,-5.5134296e-06,1.0,724,2.219,0,0,0.0,False,-0.2608312791200009,1.00736637207826
2.2481973010580987,16:09:35.772517,16:08:17.925666,0,,0.11329391,-0.0015783086,0.022906527,-0.56825835,0.5819487,-0.5817371,-0.31690806,0.49765962,0.8074058,0.75937593,0.64317226,-0.09837502,,0.071338475,-0.01605783,0.030820787,0.02101573,-0.35305232,0.9353674,-0.09640387,0.93049896,0.3533807,-0.9951204,-0.097599655,-0.014480561,,0.082934245,1.2897602,0.42729875,0.99165475,0.10050774,-0.08074028,0.018988347,-0.73331004,-0.67962915,-0.12751566,0.6724244,-0.7290989,,-0.11015086,0.25741288,-0.09881865,0.47641686,-0.59298426,0.6491507,0.2955291,0.80337095,0.5169697,-0.8280637,-0.05445014,0.5579836,,-0.081994444,0.42938116,-0.3436177,0.13058333,0.33358872,-0.9336308,-0.83274823,0.5479422,0.07930789,0.538032,0.76712316,0.34934753,,1.1128380844428776,0.5158862787310715,0.21777542371000003,1.351241995814275,-0.9505801288681692,0.19366340495534123,-0.4179974652376205,,-1.3599655364180618,0.1563776179701721,0.18869575014,0.951782653476256,0.8228250015874824,-0.5582419546658739,0.8337081135493614,,-0.07627525163528219,-0.034472434388453,0.0910472212,-0.1089195372335423,,-2.9608607e-05,5.9604645e-08,3.33786e-06,1.0,3.1486154e-05,2.9049814e-05,-3.1478703e-05,1.0,5.4836273e-06,-2.9034913e-05,-5.5134296e-06,1.0,749,2.296,0,0,0.0,False,-0.26148663402373185,1.007511212680598
2.2698106600437313,16:09:35.844465,16:08:18.090656,0,,0.11264698,-0.0016877353,0.022447571,-0.58464754,0.57283926,-0.574493,-0.3190614,0.4887145,0.8120086,0.7459136,0.6580374,-0.102954865,,0.07135598,-0.016065013,0.030802488,0.018346425,-0.35330993,0.9353263,-0.0970822,0.930434,0.35336614,-0.99510723,-0.09728658,-0.017229974,,0.082934245,1.2897602,0.42729875,0.99165475,0.10050774,-0.08074028,0.018988347,-0.73331004,-0.67962915,-0.12751566,0.6724244,-0.7290989,,-0.10947839,0.25701764,-0.09863777,0.4936544,-0.5858734,0.6426956,0.2846974,0.80717015,0.5171303,-0.82173765,-0.072309874,0.56525975,,-0.082008794,0.42936018,-0.3436109,0.13324127,0.33379874,-0.93318015,-0.8327922,0.5481796,0.077176265,0.5373117,0.76686215,0.35102513,,1.1149772814490377,0.5134304496770681,0.21790634900000003,1.3193691244046273,-0.9354134773942053,0.223523926297709,-0.4175074330392177,,-1.3599887046166845,0.15639306343592055,0.18869963901000003,0.9542989327980704,0.8206388175912352,-0.5561325532461687,0.8330547372848243,,-0.07627525163528219,-0.034472434388453,0.0910472212,-0.1089195372335423,,-2.9608607e-05,5.9604645e-08,3.33786e-06,1.0,3.1486154e-05,2.9049814e-05,-3.1478703e-05,1.0,5.4836273e-06,-2.9034913e-05,-5.5134296e-06,1.0,757,2.321,0,0,0.0,False,-0.26160578946077395,1.007269811676701
2.3418116059619933,16:09:35.873471,16:08:18.090656,0,,0.11234313,-0.0017984211,0.022134706,-0.5912125,0.56380075,-0.5767117,-0.32271653,0.48995277,0.809815,0.73913586,0.6648871,-0.10771838,,0.07135487,-0.01606096,0.030801594,0.018260535,-0.35350156,0.9352556,-0.097171366,0.930356,0.35354692,-0.99510014,-0.09733611,-0.017361462,,0.082934245,1.2897602,0.42729875,0.99165475,0.10050774,-0.08074028,0.018988347,-0.73331004,-0.67962915,-0.12751566,0.6724244,-0.7290989,,-0.10915905,0.25672194,-0.09852353,0.5004568,-0.5773692,0.64512616,0.2773819,0.8128047,0.5122576,-0.8201233,-0.07741646,0.5669254,,-0.08200769,0.42936212,-0.34360725,0.13332796,0.33399802,-0.93309647,-0.83283013,0.5481193,0.07719592,0.53723145,0.76681846,0.35124326,,1.1155873773461016,0.5119554076980912,0.21802042252000003,1.3015454792084427,-0.9307678364021804,0.23288599473466132,-0.4168540567746806,,-1.3599887046166845,0.1564162316345432,0.1887009353,0.9542989327980704,0.8205021810914699,-0.5559394566023319,0.8328913932186899,,-0.07627525163528219,-0.034472434388453,0.0910472212,-0.1089195372335423,,-2.9608607e-05,5.9604645e-08,3.33786e-06,1.0,3.1486154e-05,2.9049814e-05,-3.1478703e-05,1.0,5.4836273e-06,-2.9034913e-05,-5.5134296e-06,1.0,765,2.345,0,0,0.0,False,-0.261427056305211,1.007511212680598
2.370775411836803,16:09:35.901411,16:08:18.090656,0,,0.112056196,-0.0018565357,0.021804199,-0.5966195,0.55664355,-0.5780943,-0.32432202,0.4916637,0.8081349,0.7340712,0.6696377,-0.11280435,,0.0713554,-0.01605926,0.030801296,0.01838103,-0.35356444,0.9352294,-0.09725514,0.93031955,0.35361966,-0.9950897,-0.09745583,-0.017285764,,0.082934245,1.2897602,0.42729875,0.99165475,0.10050774,-0.08074028,0.018988347,-0.73331004,-0.67962915,-0.12751566,0.6724244,-0.7290989,,-0.10885094,0.25645208,-0.09835862,0.5061258,-0.57052195,0.6467931,0.27273053,0.81733006,0.5075329,-0.81820214,-0.08047528,0.5692706,,-0.08200822,0.42936283,-0.3436057,0.13321,0.33407918,-0.93308425,-0.83289033,0.5480127,0.07730308,0.5371674,0.7668593,0.35125208,,1.1161974732431652,0.5104494747876174,0.21818245877000003,1.2887543926558869,-0.9258489224106246,0.2386763990184576,-0.4183241533698892,,-1.3599964273495588,0.1564162316345432,0.18870223159000002,0.9540892428545859,0.8205021810914699,-0.5560211353424724,0.8330547372848243,,-0.07627525163528219,-0.034472434388453,0.0910472212,-0.1089195372335423,,-2.9608607e-05,5.9604645e-08,3.33786e-06,1.0,3.1486154e-05,2.9049814e-05,-3.1478703e-05,1.0,5.4836273e-06,-2.9034913e-05,-5.5134296e-06,1.0,773,2.37,0,0,0.0,False,-0.26148663402373185,1.007269811676701
2.3987499868962914,16:09:35.923755,16:08:18.090656,0,,0.11187987,-0.0018622726,0.021556988,-0.60002565,0.5525304,-0.5785149,-0.3246041,0.49279356,0.8073331,0.73116446,0.6722088,-0.11633518,,0.071353756,-0.016058307,0.030800939,0.018373094,-0.35357055,0.93522733,-0.097251356,0.9303179,0.35362506,-0.99509025,-0.09744939,-0.017292425,,0.082934245,1.2897602,0.42729875,0.99165475,0.10050774,-0.08074028,0.018988347,-0.73331004,-0.67962915,-0.12751566,0.6724244,-0.7290989,,-0.108655594,0.2562775,-0.09820504,0.5097303,-0.5665621,0.647443,0.27052394,0.81992704,0.504516,-0.8166957,-0.08201826,0.57121027,,-0.08200657,0.4293634,-0.34360483,0.13321781,0.3340843,-0.93308127,-0.8328873,0.5480175,0.077301554,0.5371701,0.76685363,0.35126027,,1.116568164421128,0.5094532422468424,0.21833153212000003,1.2818346245208974,-0.922296373416723,0.24157872407233055,-0.41718074490694906,,-1.3599887046166845,0.15642395436741743,0.18870223159000002,0.9540892428545859,0.8205021810914699,-0.5560211353424724,0.8330547372848243,,-0.07627525163528219,-0.034472434388453,0.0910472212,-0.1089195372335423,,-2.9608607e-05,5.9604645e-08,3.33786e-06,1.0,3.1486154e-05,2.9049814e-05,-3.1478703e-05,1.0,5.4836273e-06,-2.9034913e-05,-5.5134296e-06,1.0,781,2.395,0,0,0.0,False,-0.26112916771260597,1.0076560532829368
2.4210525900125504,16:09:35.953788,16:08:18.090656,0,,0.11168584,-0.0018009022,0.021205857,-0.60422957,0.5509059,-0.57568145,-0.32275793,0.49133977,0.80895764,0.7285148,0.6746019,-0.119072795,,0.071352676,-0.016058546,0.030800164,0.018366098,-0.3536489,0.93519783,-0.09725383,0.9302882,0.3537023,-0.9950901,-0.09744775,-0.017307982,,0.082934245,1.2897602,0.42729875,0.99165475,0.10050774,-0.08074028,0.018988347,-0.73331004,-0.67962915,-0.12751566,0.6724244,-0.7290989,,-0.10842874,0.25607976,-0.09793274,0.51427203,-0.5652615,0.6449835,0.2700356,0.820529,0.5037985,-0.81400555,-0.08492098,0.57461584,,-0.082005374,0.42936277,-0.34360462,0.13322479,0.33416247,-0.9330523,-0.83288777,0.5480112,0.0773413,0.53716767,0.76682407,0.35132852,,1.117016082927833,0.5082330504527149,0.21858819754000003,1.2768020658772687,-0.91669427692634,0.24656700261722303,-0.41669071270854646,,-1.3599809818838104,0.15642395436741743,0.18870223159000002,0.9540892428545859,0.8205021810914699,-0.5559394566023319,0.8332180813509584,,-0.07627525163528219,-0.034472434388453,0.0910472212,-0.1089195372335423,,-2.9608607e-05,5.9604645e-08,3.33786e-06,1.0,3.1486154e-05,2.9049814e-05,-3.1478703e-05,1.0,5.4836273e-06,-2.9034913e-05,-5.5134296e-06,1.0,810,2.484,0,0,0.0,False,-0.26148663402373185,1.0074146522790395
2.4511339659802616,16:09:36.034952,16:08:18.242245,0,,0.111189276,-0.0016620904,0.0202844,-0.61145204,0.54581124,-0.57290184,-0.31863576,0.4928831,0.80965275,0.72429115,0.67761075,-0.12745938,,0.0713532,-0.016056877,0.030799866,0.018486626,-0.35371178,0.9351717,-0.097337574,0.9302518,0.3537751,-0.9950797,-0.09756756,-0.017232299,,0.082934245,1.2897602,0.42729875,0.99165475,0.10050774,-0.08074028,0.018988347,-0.73331004,-0.67962915,-0.12751566,0.6724244,-0.7290989,,-0.107847676,0.25554472,-0.09723202,0.52212137,-0.56033087,0.64297634,0.27011114,0.82372844,0.49850923,-0.808968,-0.08660723,0.5814378,,-0.0820059,0.42936352,-0.34360307,0.13310681,0.3342436,-0.9330401,-0.832948,0.5479045,0.077448465,0.53710353,0.76686496,0.35133737,,1.117904197208369,0.5049045525839242,0.21927782382000002,1.2682047781944032,-0.9060366299446356,0.2510266832915327,-0.41718074490694923,,-1.3599887046166845,0.15642395436741743,0.18870352788000003,0.9538795529111013,0.8205021810914699,-0.5560211353424724,0.8333814254170928,,-0.07627525163528219,-0.034472434388453,0.0910472212,-0.1089195372335423,,-2.9608607e-05,5.9604645e-08,3.33786e-06,1.0,3.1486154e-05,2.9049814e-05,-3.1478703e-05,1.0,5.4836273e-06,-2.9034913e-05,-5.5134296e-06,1.0,818,2.509,0,0,0.0,False,-0.2618441003348577,1.0068835700704653
2.5322735169902444,16:09:36.065116,16:08:18.242245,0,,0.110971056,-0.0016513839,0.019897029,-0.6142936,0.5444126,-0.5711901,-0.31598732,0.49357527,0.81026876,0.7230459,0.67823184,-0.13117257,,0.071363986,-0.016063314,0.030784428,0.016108304,-0.35408354,0.935075,-0.09807265,0.93012726,0.3538995,-0.9950489,-0.097406,-0.01974316,,0.082934245,1.2897602,0.42729875,0.99165475,0.10050774,-0.08074028,0.018988347,-0.73331004,-0.67962915,-0.12751566,0.6724244,-0.7290989,,-0.107597716,0.25528532,-0.0969712,0.52525496,-0.5589393,0.6416339,0.27117112,0.8246595,0.49638987,-0.8065813,-0.08673864,0.58472466,,-0.08201406,0.4293461,-0.34359792,0.13547635,0.33459097,-0.93257445,-0.83305323,0.54800344,0.07559502,0.5363474,0.76664275,0.35297358,,1.1181744928589668,0.5033059468789598,0.21953448924000002,1.2661078787595579,-0.9012543524528451,0.25219113855087266,-0.4178341211714864,,-1.3599964273495588,0.15644712256604013,0.18870352788000003,0.9559764523459465,0.8184526335949883,-0.5541048305666044,0.8328913932186899,,-0.07627525163528219,-0.034472434388453,0.0910472212,-0.1089195372335423,,-2.9608607e-05,5.9604645e-08,3.33786e-06,1.0,3.1486154e-05,2.9049814e-05,-3.1478703e-05,1.0,5.4836273e-06,-2.9034913e-05,-5.5134296e-06,1.0,826,2.534,0,0,0.0,False,-0.2616653671792948,1.0076077730821573
2.5624584259931,16:09:36.088200,16:08:18.242245,0,,0.11072947,-0.0016744435,0.01952453,-0.617324,0.5429311,-0.5693301,-0.3130653,0.4943797,0.8109124,0.7217348,0.6788332,-0.1352196,,0.07136288,-0.016057622,0.030781746,0.015938163,-0.35438246,0.9349646,-0.09826335,0.93000174,0.35417646,-0.99503285,-0.09751779,-0.020000339,,0.082934245,1.2897602,0.42729875,0.99165475,0.10050774,-0.08074028,0.018988347,-0.73331004,-0.67962915,-0.12751566,0.6724244,-0.7290989,,-0.10732842,0.2550118,-0.09674688,0.528603,-0.5574549,0.6401741,0.27238393,0.82565844,0.4940599,-0.80398124,-0.086788416,0.5882873,,-0.08201275,0.4293477,-0.34359187,0.13564824,0.33490708,-0.9324359,-0.8331354,0.5478802,0.075582266,0.5361762,0.7665928,0.35334194,,1.11849112490681,0.5015837774480076,0.21975485854000001,1.264010979324713,-0.8960621654617585,0.2532663763195454,-0.41799746523762066,,-1.3599964273495588,0.156478013497537,0.18870612046000002,0.9559764523459465,0.8181793605954574,-0.553800316019071,0.8327280491525557,,-0.07627525163528219,-0.034472434388453,0.0910472212,-0.1089195372335423,,-2.9608607e-05,5.9604645e-08,3.33786e-06,1.0,3.1486154e-05,2.9049814e-05,-3.1478703e-05,1.0,5.4836273e-06,-2.9034913e-05,-5.5134296e-06,1.0,834,2.558,0,0,0.0,False,-0.2622015666459845,1.0076560532829368
2.585516502847895,16:09:36.114561,16:08:18.242245,0,,0.110573605,-0.0016792119,0.01930432,-0.61988556,0.54140383,-0.5679998,-0.309714,0.49627388,0.8110422,0.7209849,0.6786708,-0.13995266,,0.07136112,-0.016049575,0.030785441,0.0160227,-0.35422584,0.9350226,-0.09811503,0.9300724,0.35403192,-0.99504614,-0.09741247,-0.019852653,,0.082934245,1.2897602,0.42729875,0.99165475,0.10050774,-0.08074028,0.018988347,-0.73331004,-0.67962915,-0.12751566,0.6724244,-0.7290989,,-0.10715557,0.25485653,-0.09660972,0.5314719,-0.55577624,0.6392577,0.27429405,0.82691866,0.49088523,-0.8014365,-0.08554713,0.59193015,,-0.08201182,0.42935577,-0.3435879,0.1355619,0.33473435,-0.93251055,-0.83306557,0.547984,0.0755993,0.53630656,0.76659405,0.35314143,,1.1187923114889047,0.500494872112742,0.21987930238000003,1.264010979324713,-0.891279887969968,0.251327039453544,-0.41734408897308345,,-1.3600041500824331,0.15652434989478237,0.18870741675000002,0.9559764523459465,0.8183159970952228,-0.5539934126629079,0.8328913932186899,,-0.07627525163528219,-0.034472434388453,0.0910472212,-0.1089195372335423,,-2.9608607e-05,5.9604645e-08,3.33786e-06,1.0,3.1486154e-05,2.9049814e-05,-3.1478703e-05,1.0,5.4836273e-06,-2.9034913e-05,-5.5134296e-06,1.0,846,2.596,0,0,0.0,False,-0.2622611443645053,1.0071249710743626
2.6118600729387254,16:09:36.149110,16:08:18.242245,0,,0.110304706,-0.0016823187,0.018984035,-0.6236652,0.5390052,-0.5661404,-0.30479628,0.49924463,0.811082,0.7198201,0.6784012,-0.14707476,,0.071357206,-0.016042065,0.030786276,0.016010068,-0.3542527,0.9350125,-0.09807962,0.9300662,0.354058,-0.9950498,-0.09737432,-0.01985462,,0.082934245,1.2897602,0.42729875,0.99165475,0.10050774,-0.08074028,0.018988347,-0.73331004,-0.67962915,-0.12751566,0.6724244,-0.7290989,,-0.106861934,0.25463352,-0.09641236,0.53570783,-0.553139,0.6380081,0.27705264,0.8288848,0.48599574,-0.7976584,-0.0835899,0.5972887,,-0.08200832,0.4293616,-0.34358284,0.1355738,0.33475536,-0.93250126,-0.8330448,0.5480133,0.07561528,0.53633577,0.7665639,0.35316247,,1.1194255755845912,0.4987958708804126,0.22006078298,1.2638012893812283,-0.8840381534823997,0.24836232520269397,-0.41767077710535205,,-1.3599964273495588,0.15657068629202772,0.18870871304000003,0.9559764523459465,0.8183159970952228,-0.5539934126629079,0.8328913932186899,,-0.07627525163528219,-0.034472434388453,0.0910472212,-0.1089195372335423,,-2.9608607e-05,5.9604645e-08,3.33786e-06,1.0,3.1486154e-05,2.9049814e-05,-3.1478703e-05,1.0,5.4836273e-06,-2.9034913e-05,-5.5134296e-06,1.0,875,2.685,0,0,0.0,False,-0.2618441003348577,1.007800893885275
