AlexandreBanks6/ExpertPlaybackApp/resources/Motions/P_19/PC1/Data_PC1_6.csv
Task Time,PC1 Time,PC2 Time,Gaze Calib,s_T_psm1,Tx,Ty,Tz,R00,R01,R02,R10,R11,R12,R20,R21,R22,s_T_psm3,Tx,Ty,Tz,R00,R01,R02,R10,R11,R12,R20,R21,R22,cart_T_ecm,Tx,Ty,Tz,R00,R01,R02,R10,R11,R12,R20,R21,R22,ecm_T_psm1,Tx,Ty,Tz,R00,R01,R02,R10,R11,R12,R20,R21,R22,ecm_T_psm3,Tx,Ty,Tz,R00,R01,R02,R10,R11,R12,R20,R21,R22,psm1_joints,q1,q2,q3,q4,q5,q6,jaw,psm3_joints,q1,q2,q3,q4,q5,q6,jaw,ecm_joints,q1,q2,q3,q4,ecmi_T_ecm,Tx,Ty,Tz,R00,R01,R02,R10,R11,R12,R20,R21,R22,Sample #,Task Duration (s),Collisions (binary),Collisions (increments),Cumulative Collision Time (s),Clutch Press,MTMR Angle,MTML Angle
""
lci_T_si,,,,,-0.05352222,0.052262206,0.18758368,0.9852688,0.08240888,0.14984752,0.16226129,-0.7272103,-0.6669606,0.054007176,0.6814499,-0.72986937
rci_T_si,,,,,-0.062090434,0.054590147,0.19598114,0.98279583,0.06324867,0.17352791,0.16653219,-0.70975983,-0.68447644,0.079870924,0.7015986,-0.70808196
ecm_T_lc,,,,,-4.4061628e-05,-0.00034663224,-0.01840835,-0.99912,0.030754527,0.028518902,-0.031987965,-0.99852574,-0.043852776,0.027128186,-0.04472645,0.9986309
ecm_T_rc,,,,,-0.0043358393,0.01870579,-0.007592615,-0.99555075,-0.052743673,-0.078081585,0.04863213,-0.9973746,0.053654674,-0.08070653,0.04961868,0.9955021
cart_T_ecmi,,,,,0.08275826,1.28792,0.42543122,0.99152017,0.10184248,-0.08072096,0.019885775,-0.73274505,-0.6802127,-0.12842242,0.6728394,-0.7285567
ecmac_T_ecmrep_psm1,,,,,0.022898523,-0.26913688,-0.29720387,0.9902475,0.13300471,0.041468147,-0.1315095,0.99062705,-0.036922794,-0.045990374,0.031109251,0.9984574
ecmac_T_ecmrep_psm3,,,,,0.02078248,-0.4666591,-0.5231304,0.997355,0.0035024614,0.07259993,-0.011652398,0.993624,0.11214125,-0.07174426,-0.1126906,0.99103665
""
0,16:47:57.323048,16:46:39.562911,0,,0.10609101,0.004195571,0.027539358,-0.28294876,0.8746337,-0.39364418,0.22580096,0.459624,0.8589294,0.93217695,0.15414771,-0.32754332,,0.048320226,0.017506672,0.026795328,0.6149987,0.32432148,0.7187435,-0.24481851,-0.78792083,0.5650176,0.74956024,-0.5234467,-0.4051704,,0.08278762,1.2879165,0.42543745,0.9915207,0.10182191,-0.08074005,0.019857945,-0.73274785,-0.6802104,-0.12842242,0.6728394,-0.7285567,,-0.10224829,0.23706718,-0.12768635,0.21195547,-0.8913798,0.40064573,0.81971544,0.38537177,0.42373955,-0.53211045,0.23860157,0.8123594,,-0.056399435,0.42997083,-0.3438648,-0.67481637,-0.14715247,-0.723166,0.3147324,-0.9437209,-0.10165815,-0.6675076,-0.29620436,0.68315196,,1.0885732577520641,0.3702587049218199,0.19213221493000002,2.0838986583492027,-0.6777170388365846,-0.07866218021215537,-0.4121170788567866,,-1.2224700003253688,0.2413508477852644,0.18221300385000003,-1.3172722249697821,-0.6543521973766943,-0.10400390473506665,0.8190071475972761,,-0.07622289175772236,-0.03365431130158066,0.09367255299999999,-0.10990079432573638,,2.8245151e-05,9.655952e-06,-4.529953e-06,0.99999994,-2.0451844e-05,-1.8879771e-05,2.0444393e-05,1.0,-3.606081e-06,1.8887222e-05,3.5762787e-06,1.0,38,0.114,0,0,0.0,False,-0.25683957197909146,0.9950066406787184
0.12005941988900304,16:47:57.354369,16:46:39.630727,0,,0.106619835,0.004142143,0.027301058,-0.2865076,0.8735046,-0.39357716,0.23456621,0.4622501,0.8551628,0.9289197,0.15269071,-0.33733302,,0.04831318,0.017511142,0.026797712,0.6149868,0.32451415,0.7186667,-0.2446832,-0.78787035,0.56514657,0.7496141,-0.5234033,-0.40512672,,0.08278762,1.2879165,0.42543745,0.9915207,0.10182191,-0.08074005,0.019857945,-0.73274785,-0.6802104,-0.12842242,0.6728394,-0.7285567,,-0.10275782,0.23683259,-0.12752937,0.21558094,-0.8901967,0.4013412,0.82406986,0.38635078,0.41429693,-0.5238642,0.24141867,0.8168741,,-0.056393396,0.42997667,-0.34386268,-0.67482924,-0.14735408,-0.7231129,0.31485856,-0.94369245,-0.10153163,-0.66743505,-0.2961948,0.683227,,1.0857235693214753,0.3713012738598402,0.19220480717000002,2.086205247727533,-0.6695188488506583,-0.0843671095522539,-0.4127704551213237,,-1.222446832126746,0.2413894614496355,0.18221170756000002,-1.3174819149132664,-0.6543521973766943,-0.10400390473506672,0.8193338357295447,,-0.07622289175772236,-0.03365431130158066,0.09367255299999999,-0.10990079432573638,,2.8245151e-05,9.655952e-06,-4.529953e-06,0.99999994,-2.0451844e-05,-1.8879771e-05,2.0444393e-05,1.0,-3.606081e-06,1.8887222e-05,3.5762787e-06,1.0,46,0.138,0,0,0.0,False,-0.25767366003838577,0.9958756842927488
0.15137881180271506,16:47:57.382837,16:46:39.630727,0,,0.10714839,0.0040508956,0.02702792,-0.2856573,0.87685704,-0.3866801,0.24514943,0.45692876,0.85505426,0.9264456,0.149458,-0.3454862,,0.04831085,0.01751454,0.026798308,0.6150529,0.3248403,0.7184627,-0.24448326,-0.787717,0.56544673,0.7496252,-0.52343166,-0.4050697,,0.08278762,1.2879165,0.42543745,0.9915207,0.10182191,-0.08074005,0.019857945,-0.73274785,-0.6802104,-0.12842242,0.6728394,-0.7285567,,-0.10326392,0.2365467,-0.12737311,0.21472122,-0.8932162,0.3950439,0.8300086,0.38006625,0.40820995,-0.5147626,0.2402385,0.8229854,,-0.05639163,0.42997968,-0.34386036,-0.6749212,-0.14769027,-0.72295845,0.31497657,-0.9436815,-0.10126694,-0.6672864,-0.29606217,0.68342966,,1.08278893082927,0.3719577061541493,0.19228776973000003,2.0943831555234294,-0.6615939318642626,-0.08552022985750984,-0.412933799187458,,-1.222446832126746,0.24140490691538394,0.18221170756000002,-1.317691604856751,-0.6542155608769288,-0.10411532263876318,0.8198238679279477,,-0.07622289175772236,-0.03365431130158066,0.09367255299999999,-0.10990079432573638,,2.8245151e-05,9.655952e-06,-4.529953e-06,0.99999994,-2.0451844e-05,-1.8879771e-05,2.0444393e-05,1.0,-3.606081e-06,1.8887222e-05,3.5762787e-06,1.0,54,0.163,0,0,0.0,False,-0.25773323775690704,0.995392882284954
0.17977535794489086,16:47:57.405828,16:46:39.630727,0,,0.107629865,0.003960222,0.026766047,-0.28184795,0.88201344,-0.3776424,0.25312027,0.4480093,0.85744834,0.9254683,0.14608108,-0.3495261,,0.048306733,0.017517013,0.026798666,0.6150716,0.32472196,0.71850014,-0.24448553,-0.7877982,0.56533253,0.749609,-0.52338284,-0.40516263,,0.08278762,1.2879165,0.42543745,0.9915207,0.10182191,-0.08074005,0.019857945,-0.73274785,-0.6802104,-0.12842242,0.6728394,-0.7285567,,-0.1037239,0.23627186,-0.12722649,0.21085034,-0.89796084,0.3862751,0.83489275,0.37095878,0.40662476,-0.50842524,0.2367613,0.82791775,,-0.056387946,0.4299822,-0.3438586,-0.6749371,-0.14757024,-0.7229681,0.31495926,-0.94367135,-0.10141513,-0.6672784,-0.29615435,0.6833975,,1.0800087469945492,0.37236701099648317,0.19238758406,2.104657962754171,-0.6573582003715339,-0.08407346046366498,-0.41293379918745793,,-1.2224313866609977,0.24142807511400663,0.18221170756000002,-1.317691604856751,-0.6542155608769288,-0.10403364389862248,0.8204772441924847,,-0.07622289175772236,-0.03365431130158066,0.09367255299999999,-0.10990079432573638,,2.8245151e-05,9.655952e-06,-4.529953e-06,0.99999994,-2.0451844e-05,-1.8879771e-05,2.0444393e-05,1.0,-3.606081e-06,1.8887222e-05,3.5762787e-06,1.0,61,0.184,0,0,0.0,False,-0.25731619372725945,0.9950549208794979
0.20282445289194584,16:47:57.434191,16:46:39.630727,0,,0.10791565,0.0039032847,0.026593551,-0.2801533,0.88365173,-0.37506482,0.2563882,0.4453944,0.8578396,0.92508316,0.14416435,-0.35133675,,0.048301652,0.017522437,0.02680391,0.61496335,0.32536387,0.7183024,-0.24407354,-0.78764004,0.5657309,0.74983215,-0.5232223,-0.40495712,,0.08278762,1.2879165,0.42543745,0.9915207,0.10182191,-0.08074005,0.019857945,-0.73274785,-0.6802104,-0.12842242,0.6728394,-0.7285567,,-0.10399564,0.23609476,-0.1271292,0.20912974,-0.89941216,0.38382617,0.8368977,0.36764634,0.40551013,-0.505833,0.236419,0.8296017,,-0.056384355,0.42999047,-0.3438575,-0.6749135,-0.14824289,-0.7228525,0.31540233,-0.9435703,-0.10097733,-0.667093,-0.29614034,0.6835846,,1.078247963899226,0.37256780205121304,0.19246665775000002,2.109480831454315,-0.656128471873645,-0.08523957907721402,-0.4127704551213237,,-1.2224236639281234,0.24145896604550351,0.18220911498000003,-1.3183206746872045,-0.6542155608769288,-0.10411532263876312,0.8206405882586189,,-0.07622289175772236,-0.03365431130158066,0.09367255299999999,-0.10990079432573638,,2.8245151e-05,9.655952e-06,-4.529953e-06,0.99999994,-2.0451844e-05,-1.8879771e-05,2.0444393e-05,1.0,-3.606081e-06,1.8887222e-05,3.5762787e-06,1.0,73,0.22,0,0,0.0,False,-0.25779281547542787,0.9965033269028816
0.23119833879172802,16:47:57.470551,16:46:39.749491,0,,0.108463176,0.0037768856,0.026274577,-0.2828816,0.8832583,-0.37394196,0.25767672,0.44551647,0.85739005,0.9238943,0.1461837,-0.35362366,,0.048293665,0.017530603,0.026806831,0.61487097,0.32600328,0.7180916,-0.24366093,-0.7874748,0.5661386,0.7500421,-0.523073,-0.40476117,,0.08278762,1.2879165,0.42543745,0.9915207,0.10182191,-0.08074005,0.019857945,-0.73274785,-0.6802104,-0.12842242,0.6728394,-0.7285567,,-0.104516804,0.23575078,-0.12696311,0.21191235,-0.89916545,0.38287675,0.83718747,0.36914197,0.4035485,-0.50419277,0.2350227,0.8309958,,-0.056377944,0.42999917,-0.34385282,-0.67490387,-0.14891246,-0.72272396,0.31583267,-0.9434732,-0.10053878,-0.6668992,-0.29611385,0.6837851,,1.0746105567154662,0.3730929478866603,0.19261443481,2.1096905213977997,-0.6564017448731759,-0.0858335306712269,-0.41326048731972653,,-1.2224004957295007,0.24150530244274887,0.18220911498000003,-1.3189497445176583,-0.6542155608769288,-0.10419700137890368,0.8204772441924846,,-0.07622289175772236,-0.03365431130158066,0.09367255299999999,-0.10990079432573638,,2.8245151e-05,9.655952e-06,-4.529953e-06,0.99999994,-2.0451844e-05,-1.8879771e-05,2.0444393e-05,1.0,-3.606081e-06,1.8887222e-05,3.5762787e-06,1.0,81,0.245,0,0,0.0,False,-0.2571374605716965,0.9961170852966461
0.26755701284855604,16:47:57.492613,16:46:39.749491,0,,0.108721584,0.0037171692,0.026184693,-0.2847484,0.883333,-0.3723452,0.25600386,0.44439134,0.8584744,0.9237858,0.14912735,-0.35267657,,0.04828956,0.017531378,0.026807666,0.6149312,0.32586756,0.71810156,-0.24380332,-0.78744936,0.5661127,0.74994636,-0.52319586,-0.40477964,,0.08278762,1.2879165,0.42543745,0.9915207,0.10182191,-0.08074005,0.019857945,-0.73274785,-0.6802104,-0.12842242,0.6728394,-0.7285567,,-0.10476708,0.23562995,-0.12692878,0.2138115,-0.8994292,0.3811978,0.83601356,0.37033594,0.40488592,-0.5053375,0.23211728,0.8311171,,-0.056374125,0.43000105,-0.34385267,-0.6749319,-0.14876564,-0.72272795,0.31566098,-0.9435273,-0.10057067,-0.6669521,-0.29601538,0.68377614,,1.0729270009488854,0.3734790845303715,0.19264554577,2.108222691793408,-0.6584512923696575,-0.0834271534545154,-0.41244376698905505,,-1.2223850502637523,0.24152847064137153,0.18220781869000002,-1.3187400545741736,-0.6542155608769288,-0.10427868011904422,0.820640588258619,,-0.07622289175772236,-0.03365431130158066,0.09367255299999999,-0.10990079432573638,,2.8245151e-05,9.655952e-06,-4.529953e-06,0.99999994,-2.0451844e-05,-1.8879771e-05,2.0444393e-05,1.0,-3.606081e-06,1.8887222e-05,3.5762787e-06,1.0,92,0.277,0,0,0.0,False,-0.25826943722359585,0.9957308436904104
0.28962106187827885,16:47:57.523352,16:46:39.749491,0,,0.10919128,0.0036257356,0.026058927,-0.28895822,0.88442516,-0.36646283,0.25701,0.4404058,0.86022586,0.92219776,0.15438466,-0.35456514,,0.048287414,0.017536445,0.026810408,0.6148118,0.32639176,0.71796584,-0.2433888,-0.78739077,0.5663725,0.75017893,-0.52295727,-0.404657,,0.08278762,1.2879165,0.42543745,0.9915207,0.10182191,-0.08074005,0.019857945,-0.73274785,-0.6802104,-0.12842242,0.6728394,-0.7285567,,-0.10522496,0.23544843,-0.12688184,0.21810502,-0.9008214,0.3754344,0.8359165,0.37097418,0.4045018,-0.5036603,0.22560796,0.83392286,,-0.056373026,0.43000662,-0.34385034,-0.6748989,-0.14932054,-0.7226443,0.31611496,-0.94340485,-0.100292675,-0.6667704,-0.2961261,0.68390536,,1.0701699853127873,0.37440581247527843,0.19265721238000003,2.106125792358563,-0.6574948368712994,-0.07750942208886424,-0.4127704551213237,,-1.2223850502637523,0.24154391610711998,0.18220781869000002,-1.3193691244046273,-0.6542155608769288,-0.10419700137890363,0.8211306204570219,,-0.07622289175772236,-0.03365431130158066,0.09367255299999999,-0.10990079432573638,,2.8245151e-05,9.655952e-06,-4.529953e-06,0.99999994,-2.0451844e-05,-1.8879771e-05,2.0444393e-05,1.0,-3.606081e-06,1.8887222e-05,3.5762787e-06,1.0,104,0.314,0,0,0.0,False,-0.25761408231986493,0.9945238386709241
0.3203604950103909,16:47:57.555997,16:46:39.749491,0,,0.10967023,0.0035507157,0.025959775,-0.2915386,0.8860336,-0.3604851,0.2616122,0.4363432,0.86090857,0.9200892,0.15668076,-0.35900825,,0.048283827,0.017541243,0.026812375,0.61474174,0.3267213,0.71787584,-0.24311408,-0.78736067,0.5665324,0.7503254,-0.52279675,-0.40459293,,0.08278762,1.2879165,0.42543745,0.9915207,0.10182191,-0.08074005,0.019857945,-0.73274785,-0.6802104,-0.12842242,0.6728394,-0.7285567,,-0.10569424,0.23529655,-0.1268426,0.22074679,-0.90251666,0.36977628,0.8379739,0.369497,0.40158653,-0.49906975,0.22121392,0.8378507,,-0.05637038,0.43001175,-0.3438478,-0.67488503,-0.14966999,-0.72258496,0.3164082,-0.9433239,-0.10012921,-0.66664535,-0.29620752,0.683992,,1.0676369289300416,0.375456104146173,0.19264036061,2.1073839320194696,-0.6533957418783363,-0.07448101746879293,-0.41309714325359215,,-1.222377327530878,0.24156708430574267,0.18220781869000002,-1.3197885042915962,-0.6542155608769288,-0.10411532263876318,0.819987211994082,,-0.07622289175772236,-0.03365431130158066,0.09367255299999999,-0.10990079432573638,,2.8245151e-05,9.655952e-06,-4.529953e-06,0.99999994,-2.0451844e-05,-1.8879771e-05,2.0444393e-05,1.0,-3.606081e-06,1.8887222e-05,3.5762787e-06,1.0,111,0.335,0,0,0.0,False,-0.2571374605716965,0.9947169594740419
0.353007007855922,16:47:57.577964,16:46:39.749491,0,,0.11015248,0.00350219,0.025964454,-0.29152194,0.8887733,-0.3536903,0.2635485,0.4300669,0.86347234,0.9195417,0.15850654,-0.35960895,,0.048282202,0.017543448,0.026813328,0.61479115,0.3264734,0.71794635,-0.24326295,-0.78742546,0.5663784,0.7502367,-0.52285415,-0.40468332,,0.08278762,1.2879165,0.42543745,0.9915207,0.10182191,-0.08074005,0.019857945,-0.73274785,-0.6802104,-0.12842242,0.6728394,-0.7285567,,-0.10617468,0.23523477,-0.1268603,0.22073476,-0.90526754,0.36299703,0.8390041,0.36602047,0.4026179,-0.49734125,0.2156842,0.8403166,,-0.056369204,0.43001416,-0.34384665,-0.67490256,-0.14941037,-0.7226224,0.31623998,-0.9433616,-0.100305736,-0.66670746,-0.2962187,0.68392664,,1.0652814954034031,0.37673035507042,0.19257295353,2.110738971115222,-0.652712559379509,-0.07070913375982535,-0.4129337991874578,,-1.2223850502637523,0.24159025250436533,0.18220781869000002,-1.3195788143481118,-0.6542155608769288,-0.10403364389862253,0.8198238679279476,,-0.07622289175772236,-0.03365431130158066,0.09367255299999999,-0.10990079432573638,,2.8245151e-05,9.655952e-06,-4.529953e-06,0.99999994,-2.0451844e-05,-1.8879771e-05,2.0444393e-05,1.0,-3.606081e-06,1.8887222e-05,3.5762787e-06,1.0,122,0.367,0,0,0.0,False,-0.25672041654204936,0.9943789980685855
0.3749078989494592,16:47:57.614321,16:46:39.892106,0,,0.11067167,0.0034649596,0.026052013,-0.287543,0.892387,-0.3477994,0.2675087,0.4235132,0.8654915,0.91965103,0.15582663,-0.36049968,,0.048280355,0.017545892,0.02681595,0.6147546,0.32666948,0.71788836,-0.2431286,-0.78738433,0.56649315,0.7503101,-0.5227935,-0.40462554,,0.08278762,1.2879165,0.42543745,0.9915207,0.10182191,-0.08074005,0.019857945,-0.73274785,-0.6802104,-0.12842242,0.6728394,-0.7285567,,-0.10669803,0.23523565,-0.1269289,0.21668856,-0.908565,0.35714942,0.8417093,0.35920337,0.4031109,-0.49454173,0.21326646,0.8425829,,-0.056368053,0.430018,-0.34384635,-0.6748938,-0.14961646,-0.72258794,0.31638515,-0.9433262,-0.10018053,-0.66664743,-0.2962273,0.6839814,,1.0630650710685006,0.3782208425151454,0.19243943566000002,2.119755638685057,-0.6513461943818546,-0.0715782765763679,-0.4127704551213237,,-1.222377327530878,0.24160569797011378,0.18220652240000001,-1.3197885042915962,-0.6542155608769288,-0.10403364389862253,0.8198238679279476,,-0.07622289175772236,-0.03365431130158066,0.09367255299999999,-0.10990079432573638,,2.8245151e-05,9.655952e-06,-4.529953e-06,0.99999994,-2.0451844e-05,-1.8879771e-05,2.0444393e-05,1.0,-3.606081e-06,1.8887222e-05,3.5762787e-06,1.0,133,0.4,0,0,0.0,False,-0.2566608388235285,0.9936065148561142
0.4113196018151939,16:47:57.645446,16:46:39.892106,0,,0.11115132,0.0034195632,0.026146218,-0.28072152,0.8965587,-0.34260437,0.27386504,0.41694173,0.8666934,0.91988754,0.14947207,-0.36258078,,0.048277225,0.017547144,0.026815832,0.6147265,0.327035,0.71774596,-0.24298501,-0.7872113,0.5667952,0.75037956,-0.52282554,-0.40445513,,0.08278762,1.2879165,0.42543745,0.9915207,0.10182191,-0.08074005,0.019857945,-0.73274785,-0.6802104,-0.12842242,0.6728394,-0.7285567,,-0.10718228,0.23523761,-0.1270095,0.209756,-0.91215765,0.35209495,0.8460664,0.34982282,0.40223822,-0.4900755,0.21352382,0.8451234,,-0.056365125,0.43001926,-0.34384522,-0.6748939,-0.14999329,-0.7225096,0.31653145,-0.94331336,-0.0998388,-0.6665778,-0.29607764,0.68411404,,1.061149833315693,0.3795028161722666,0.19229165860000003,2.132756415181097,-0.6484768278867804,-0.07579666357722564,-0.4126071110551893,,-1.2223618820651296,0.241613420702988,0.18220652240000001,-1.319998194235081,-0.6542155608769288,-0.1042786801190443,0.8196605238618134,,-0.07622289175772236,-0.03365431130158066,0.09367255299999999,-0.10990079432573638,,2.8245151e-05,9.655952e-06,-4.529953e-06,0.99999994,-2.0451844e-05,-1.8879771e-05,2.0444393e-05,1.0,-3.606081e-06,1.8887222e-05,3.5762787e-06,1.0,144,0.433,0,0,0.0,False,-0.2579715486309908,0.9939927564623499
0.4424488749355078,16:47:57.684450,16:46:39.892106,0,,0.11170141,0.003320597,0.026282653,-0.2753275,0.89967453,-0.3387924,0.277583,0.41180116,0.86796737,0.92040336,0.14493227,-0.3631147,,0.048272718,0.017547322,0.02681619,0.61470395,0.32728067,0.71765333,-0.2428382,-0.787132,0.5669682,0.75044566,-0.52279115,-0.40437698,,0.08278762,1.2879165,0.42543745,0.9915207,0.10182191,-0.08074005,0.019857945,-0.73274785,-0.6802104,-0.12842242,0.6728394,-0.7285567,,-0.10773884,0.23522522,-0.12715475,0.20427398,-0.9148515,0.3483086,0.8487868,0.34278908,0.40256268,-0.48768145,0.21340665,0.8465367,,-0.05636077,0.43002048,-0.34384522,-0.67489946,-0.15024944,-0.72245127,0.316676,-0.94328415,-0.09965591,-0.6665036,-0.2960407,0.6842023,,1.058709449727438,0.3809160762882497,0.19208814107000002,2.143450602298808,-0.6479302818877185,-0.07975452101805558,-0.4127704551213237,,-1.222338713866507,0.24162114343586225,0.18220522611,-1.3202078841785652,-0.6542155608769288,-0.10436035885918482,0.8188438035311417,,-0.07622289175772236,-0.03365431130158066,0.09367255299999999,-0.10990079432573638,,2.8245151e-05,9.655952e-06,-4.529953e-06,0.99999994,-2.0451844e-05,-1.8879771e-05,2.0444393e-05,1.0,-3.606081e-06,1.8887222e-05,3.5762787e-06,1.0,155,0.466,0,0,0.0,False,-0.25731619372725945,0.9931237128483195
0.48142024385742843,16:47:57.713168,16:46:39.892106,0,,0.112039305,0.0032125562,0.026329443,-0.2748299,0.90043,-0.33718553,0.27786106,0.4101054,0.8686811,0.92046815,0.14504875,-0.36290383,,0.04826658,0.017551405,0.026817024,0.61468905,0.3274718,0.71757895,-0.24270004,-0.7870854,0.56709206,0.7505026,-0.52274173,-0.4043354,,0.08278762,1.2879165,0.42543745,0.9915207,0.10182191,-0.08074005,0.019857945,-0.73274785,-0.6802104,-0.12842242,0.6728394,-0.7285567,,-0.108077236,0.23515797,-0.12724961,0.2037682,-0.9155832,0.34667844,0.84900236,0.34159082,0.40312618,-0.4875177,0.21218652,0.84693766,,-0.056355372,0.43002474,-0.34384242,-0.6749101,-0.15044986,-0.7223996,0.31680673,-0.94325304,-0.09953464,-0.66643065,-0.29603797,0.68427455,,1.056886884769121,0.38159567678118145,0.19197406755000002,2.1459668816206223,-0.6488867373860767,-0.0802814555344295,-0.4134238313858607,,-1.2223155456678843,0.24165203436735913,0.18220522611,-1.3206272640655343,-0.6542155608769288,-0.10436035885918482,0.8188438035311417,,-0.07622289175772236,-0.03365431130158066,0.09367255299999999,-0.10990079432573638,,2.8245151e-05,9.655952e-06,-4.529953e-06,0.99999994,-2.0451844e-05,-1.8879771e-05,2.0444393e-05,1.0,-3.606081e-06,1.8887222e-05,3.5762787e-06,1.0,166,0.499,0,0,0.0,False,-0.25731619372725945,0.9933168336514373
0.5101710779126734,16:47:57.738731,16:46:40.033179,0,,0.112394996,0.003082022,0.026292905,-0.27071625,0.90290916,-0.33386746,0.2799395,0.4056676,0.8700963,0.9210572,0.14208648,-0.36258096,,0.048260625,0.017553015,0.02681619,0.6146745,0.32765764,0.7175066,-0.24255297,-0.787049,0.56720555,0.7505621,-0.5226801,-0.40430468,,0.08278762,1.2879165,0.42543745,0.9915207,0.10182191,-0.08074005,0.019857945,-0.73274785,-0.6802104,-0.12842242,0.6728394,-0.7285567,,-0.10842706,0.23501623,-0.12729879,0.19958691,-0.91776663,0.3433212,0.85066134,0.3361869,0.40417033,-0.48635414,0.21138297,0.8478071,,-0.056349605,0.43002617,-0.3438406,-0.67492265,-0.15064546,-0.72234714,0.31694493,-0.9432179,-0.099428385,-0.6663523,-0.29605073,0.6843454,,1.0548403605574515,0.3819277542947731,0.19191443821,2.153515719586065,-0.6497065563846693,-0.0818182740960462,-0.4132604873197265,,-1.2222846547363875,0.24166747983310757,0.18220522611,-1.3206272640655343,-0.6542155608769288,-0.10436035885918482,0.8188438035311417,,-0.07622289175772236,-0.03365431130158066,0.09367255299999999,-0.10990079432573638,,2.8245151e-05,9.655952e-06,-4.529953e-06,0.99999994,-2.0451844e-05,-1.8879771e-05,2.0444393e-05,1.0,-3.606081e-06,1.8887222e-05,3.5762787e-06,1.0,177,0.531,0,0,0.0,False,-0.25815028178655464,0.993703075257673
0.5357352308928967,16:47:57.776016,16:46:40.033179,0,,0.11266985,0.0029261783,0.026213542,-0.27119875,0.9035978,-0.33160537,0.27780125,0.40333652,0.87186354,0.92156243,0.14432788,-0.36040515,,0.048257206,0.01755525,0.026816607,0.6146045,0.32804045,0.7173916,-0.24226928,-0.78698236,0.5674192,0.75071096,-0.5225403,-0.40420878,,0.08278762,1.2879165,0.42543745,0.9915207,0.10182191,-0.08074005,0.019857945,-0.73274785,-0.6802104,-0.12842242,0.6728394,-0.7285567,,-0.10869278,0.23483175,-0.12733749,0.2000701,-0.9185713,0.34087932,0.8494843,0.3359864,0.406804,-0.48820928,0.20818232,0.8475328,,-0.05634659,0.4300285,-0.34383905,-0.67491025,-0.15104906,-0.7222744,0.31724554,-0.9431405,-0.09920298,-0.6662218,-0.29609147,0.6844548,,1.0528015590786564,0.38193547702764735,0.19189499386000003,2.1537254095295495,-0.6532591053785708,-0.07924812356050143,-0.41293379918745793,,-1.2222692092706389,0.2416752025659818,0.18220522611,-1.3210466439525035,-0.6542155608769288,-0.10436035885918482,0.8188438035311417,,-0.07622289175772236,-0.03365431130158066,0.09367255299999999,-0.10990079432573638,,2.8245151e-05,9.655952e-06,-4.529953e-06,0.99999994,-2.0451844e-05,-1.8879771e-05,2.0444393e-05,1.0,-3.606081e-06,1.8887222e-05,3.5762787e-06,1.0,188,0.564,0,0,0.0,False,-0.2568991496976123,0.993799635659232
0.5730092849116772,16:47:57.806589,16:46:40.033179,0,,0.112975344,0.0027810484,0.026093408,-0.2675721,0.9061562,-0.32754537,0.28116682,0.39857474,0.8729738,0.9216019,0.14148849,-0.3614287,,0.048256908,0.01756115,0.02682048,0.6145174,0.32849464,0.7172584,-0.2420043,-0.78685534,0.5677084,0.7508677,-0.5224462,-0.40403923,,0.08278762,1.2879165,0.42543745,0.9915207,0.10182191,-0.08074005,0.019857945,-0.73274785,-0.6802104,-0.12842242,0.6728394,-0.7285567,,-0.10898635,0.23462527,-0.12733804,0.19639075,-0.92083675,0.33688328,0.85173166,0.33042645,0.40665895,-0.48578167,0.2070701,0.8491985,,-0.05634757,0.4300351,-0.34383678,-0.6748797,-0.15152428,-0.72220343,0.31754395,-0.9430749,-0.098871365,-0.6661105,-0.2960576,0.68457776,,1.050762757599861,0.3818968633632762,0.19189240128,2.161064557551508,-0.652712559379509,-0.07993883139570884,-0.4130971432535922,,-1.2222846547363875,0.2416983707646045,0.18220522611,-1.3214660238394724,-0.6542155608769288,-0.10444203759932535,0.8190071475972761,,-0.07622289175772236,-0.03365431130158066,0.09367255299999999,-0.10990079432573638,,2.8245151e-05,9.655952e-06,-4.529953e-06,0.99999994,-2.0451844e-05,-1.8879771e-05,2.0444393e-05,1.0,-3.606081e-06,1.8887222e-05,3.5762787e-06,1.0,196,0.589,0,0,0.0,False,-0.2566012611050077,0.993799635659232
0.6035666198004037,16:47:57.838796,16:46:40.033179,0,,0.11328857,0.002587907,0.025931403,-0.27363494,0.90570575,-0.3237605,0.2808981,0.39718336,0.8736942,0.9199022,0.14812951,-0.36309442,,0.04825154,0.017563296,0.026822686,0.6144421,0.3284799,0.7173297,-0.24207222,-0.7868612,0.56767124,0.7509074,-0.52244663,-0.40396482,,0.08278762,1.2879165,0.42543745,0.9915207,0.10182191,-0.08074005,0.019857945,-0.73274785,-0.6802104,-0.12842242,0.6728394,-0.7285567,,-0.1092838,0.23435476,-0.12734093,0.20256285,-0.9208347,0.33321416,0.8507466,0.33399114,0.40580806,-0.48497275,0.20127916,0.8510512,,-0.056342874,0.43003914,-0.34383646,-0.6748025,-0.15150896,-0.72227883,0.3175472,-0.9430761,-0.09884985,-0.6661872,-0.29606172,0.6845013,,1.0483609876759772,0.38191230882902466,0.19190017902,2.1551932391339412,-0.652712559379509,-0.07348621092460439,-0.41260711105518943,,-1.2222614865377648,0.24172926169610137,0.18220392982000003,-1.3214660238394724,-0.6543521973766943,-0.1044122984357696,0.8191704916634105,,-0.07622289175772236,-0.03365431130158066,0.09367255299999999,-0.10990079432573638,,2.8245151e-05,9.655952e-06,-4.529953e-06,0.99999994,-2.0451844e-05,-1.8879771e-05,2.0444393e-05,1.0,-3.606081e-06,1.8887222e-05,3.5762787e-06,1.0,207,0.621,0,0,0.0,False,-0.25767366003838577,0.9940893168639089
0.6357960188761353,16:47:57.867371,16:46:40.033179,0,,0.113435976,0.0025298148,0.025850669,-0.2757847,0.90573627,-0.3218455,0.28375584,0.39662194,0.87302554,0.9183818,0.1494415,-0.3663904,,0.048248064,0.017564667,0.026822507,0.6144583,0.32841894,0.7173437,-0.24207163,-0.786901,0.5676164,0.7508944,-0.52242506,-0.40401694,,0.08278762,1.2879165,0.42543745,0.9915207,0.10182191,-0.08074005,0.019857945,-0.73274785,-0.6802104,-0.12842242,0.6728394,-0.7285567,,-0.10942404,0.2342482,-0.12731646,0.20476425,-0.92094845,0.33155033,0.8519134,0.33447996,0.40294752,-0.4819908,0.19994293,0.85305786,,-0.056339614,0.43004048,-0.3438352,-0.67481667,-0.15144694,-0.72227854,0.3175345,-0.9430724,-0.09892604,-0.6661789,-0.2961053,0.68449056,,1.0474188142653218,0.3820513180207607,0.19191054934000001,2.1543544793600033,-0.6497065563846693,-0.07226186149960045,-0.4127704551213237,,-1.2222460410720162,0.24174470716184981,0.18220392982000003,-1.3214660238394724,-0.6543521973766943,-0.10433061969562904,0.8193338357295448,,-0.07622289175772236,-0.03365431130158066,0.09367255299999999,-0.10990079432573638,,2.8245151e-05,9.655952e-06,-4.529953e-06,0.99999994,-2.0451844e-05,-1.8879771e-05,2.0444393e-05,1.0,-3.606081e-06,1.8887222e-05,3.5762787e-06,1.0,214,0.642,0,0,0.0,False,-0.25791197091247,0.993799635659232
0.664376885863021,16:47:57.888729,16:46:40.033179,0,,0.11359258,0.002510585,0.025796667,-0.27390033,0.9075564,-0.3183077,0.28640327,0.3929173,0.8738358,0.91812396,0.14817952,-0.36754748,,0.048243955,0.017567081,0.026822865,0.614477,0.32841793,0.7173281,-0.24207392,-0.7868898,0.5676308,0.75087833,-0.5224425,-0.40402433,,0.08278762,1.2879165,0.42543745,0.9915207,0.10182191,-0.08074005,0.019857945,-0.73274785,-0.6802104,-0.12842242,0.6728394,-0.7285567,,-0.109576054,0.23418759,-0.12728432,0.20285635,-0.92260844,0.3280899,0.8535431,0.33081332,0.40252542,-0.47990987,0.19838402,0.85459363,,-0.05633593,0.43004298,-0.34383345,-0.6748326,-0.151445,-0.72226405,0.31751722,-0.9430788,-0.09892005,-0.66617095,-0.29608575,0.6845067,,1.0466233727792766,0.38227527727411326,0.19192869740000001,2.158338588286209,-0.6482035548872495,-0.07160884741702805,-0.41293379918745793,,-1.2222305956062678,0.2417678753604725,0.18220392982000003,-1.3214660238394724,-0.6543521973766943,-0.10433061969562904,0.8193338357295448,,-0.07622289175772236,-0.03365431130158066,0.09367255299999999,-0.10990079432573638,,2.8245151e-05,9.655952e-06,-4.529953e-06,0.99999994,-2.0451844e-05,-1.8879771e-05,2.0444393e-05,1.0,-3.606081e-06,1.8887222e-05,3.5762787e-06,1.0,229,0.687,0,0,0.0,False,-0.2570183051346544,0.9935099544545551
0.6857346259057522,16:47:57.936237,16:46:40.199868,0,,0.113961786,0.0025626272,0.025697753,-0.2751241,0.90770644,-0.316821,0.28780368,0.39218584,0.8737043,0.9173197,0.14919478,-0.36914125,,0.048227865,0.0175734,0.02682048,0.6145109,0.32859665,0.71721727,-0.241925,-0.7868333,0.5677726,0.7508986,-0.52241516,-0.40402192,,0.08278762,1.2879165,0.42543745,0.9915207,0.10182191,-0.08074005,0.019857945,-0.73274785,-0.6802104,-0.12842242,0.6728394,-0.7285567,,-0.10993815,0.23413488,-0.12716222,0.20410918,-0.92281723,0.32672277,0.8540849,0.33096808,0.4012469,-0.4784124,0.19715081,0.8557179,,-0.056320608,0.430048,-0.34382677,-0.6748876,-0.1516315,-0.7221736,0.3176173,-0.9430565,-0.09881128,-0.66606754,-0.29606134,0.68461794,,1.0448316987524566,0.38339507354087576,0.19201684512000003,2.159387038003632,-0.647110462889126,-0.0722551544261778,-0.4124437669890551,,-1.2221533682775256,0.2418296572234663,0.18220522611,-1.3216757137829571,-0.6543521973766943,-0.10433061969562904,0.8193338357295448,,-0.07622289175772236,-0.03365431130158066,0.09367255299999999,-0.10990079432573638,,2.8245151e-05,9.655952e-06,-4.529953e-06,0.99999994,-2.0451844e-05,-1.8879771e-05,2.0444393e-05,1.0,-3.606081e-06,1.8887222e-05,3.5762787e-06,1.0,236,0.707,0,0,0.0,False,-0.25767366003838577,0.9940410366631294
0.7332385389599949,16:47:57.956854,16:46:40.199868,0,,0.114126444,0.0026131347,0.025676593,-0.2730108,0.9089718,-0.31501627,0.29079407,0.39011276,0.8736422,0.917008,0.14690883,-0.37082878,,0.048216358,0.017577095,0.026819408,0.61456496,0.32858703,0.71717536,-0.24192,-0.7868147,0.5678006,0.75085604,-0.5224493,-0.40405697,,0.08278762,1.2879165,0.42543745,0.9915207,0.10182191,-0.08074005,0.019857945,-0.73274785,-0.6802104,-0.12842242,0.6728394,-0.7285567,,-0.11010176,0.2341469,-0.12710567,0.20197073,-0.92388004,0.3250439,0.8559126,0.32781932,0.39993504,-0.47604766,0.19743401,0.8569705,,-0.056309614,0.4300515,-0.34382302,-0.6749356,-0.15161979,-0.7221312,0.31757748,-0.9430697,-0.09881349,-0.6660379,-0.29602534,0.6846623,,1.0442833847183866,0.38398972397219105,0.19204406721000003,2.1637905268168067,-0.6449242788928788,-0.07403784088532062,-0.4124437669890551,,-1.222099309147406,0.24187599362071163,0.18220522611,-1.3216757137829571,-0.6543521973766943,-0.10433061969562904,0.8193338357295448,,-0.07622289175772236,-0.03365431130158066,0.09367255299999999,-0.10990079432573638,,2.8245151e-05,9.655952e-06,-4.529953e-06,0.99999994,-2.0451844e-05,-1.8879771e-05,2.0444393e-05,1.0,-3.606081e-06,1.8887222e-05,3.5762787e-06,1.0,247,0.74,0,0,0.0,False,-0.25672041654204936,0.9939927564623499
0.7538465419784188,16:47:57.979892,16:46:40.199868,0,,0.11439345,0.0026927069,0.025641486,-0.27003884,0.91062486,-0.31279573,0.2975311,0.38788426,0.8723651,0.91572595,0.14250597,-0.3756832,,0.04819768,0.017582072,0.026820123,0.6146068,0.32876453,0.7170581,-0.24177077,-0.78675485,0.56794703,0.75086975,-0.5224277,-0.4040593,,0.08278762,1.2879165,0.42543745,0.9915207,0.10182191,-0.08074005,0.019857945,-0.73274785,-0.6802104,-0.12842242,0.6728394,-0.7285567,,-0.11036697,0.23416421,-0.12701501,0.19897851,-0.9251764,0.32319683,0.8597438,0.3230843,0.3955467,-0.4703703,0.19916117,0.85970145,,-0.056291994,0.43005857,-0.3438193,-0.67499757,-0.15180476,-0.72203434,0.3176712,-0.94304955,-0.0987043,-0.6659304,-0.2959947,0.6847802,,1.043464775033719,0.38499367924584027,0.19207647446,2.1709199848952805,-0.6391855459027305,-0.07830899913986739,-0.41293379918745793,,-1.2220143590857895,0.24194549821657965,0.18220263353000002,-1.3218854037264416,-0.6543521973766943,-0.10433061969562896,0.8190071475972761,,-0.07622289175772236,-0.03365431130158066,0.09367255299999999,-0.10990079432573638,,2.8245151e-05,9.655952e-06,-4.529953e-06,0.99999994,-2.0451844e-05,-1.8879771e-05,2.0444393e-05,1.0,-3.606081e-06,1.8887222e-05,3.5762787e-06,1.0,258,0.773,0,0,0.0,False,-0.25779281547542787,0.9949100802771598
0.7769023918081075,16:47:58.019599,16:46:40.199868,0,,0.114655994,0.0027872995,0.025650695,-0.26315352,0.91470206,-0.3067086,0.30159777,0.37997788,0.8744458,0.91639996,0.13761084,-0.3758648,,0.04816927,0.01758678,0.026816726,0.6147945,0.32917377,0.7167093,-0.24153888,-0.7864884,0.56841457,0.7507908,-0.52257127,-0.40402055,,0.08278762,1.2879165,0.42543745,0.9915207,0.10182191,-0.08074005,0.019857945,-0.73274785,-0.6802104,-0.12842242,0.6728394,-0.7285567,,-0.11063114,0.234223,-0.12694629,0.19199175,-0.92875475,0.3171021,0.86273366,0.3137395,0.39655787,-0.46779248,0.19743882,0.8615034,,-0.056264225,0.4300641,-0.3438131,-0.6752008,-0.15222129,-0.7217565,0.31771672,-0.94307387,-0.09832493,-0.6657026,-0.29570317,0.6851275,,1.0427233926777932,0.38596674358799254,0.19210240026000003,2.1818238619564756,-0.6374092714057796,-0.07926735944707752,-0.41195373479065217,,-1.2218753498940536,0.24203044827819614,0.18220004095000003,-1.322095093669926,-0.6542155608769288,-0.10468707381974704,0.8198238679279475,,-0.07622289175772236,-0.03365431130158066,0.09367255299999999,-0.10990079432573638,,2.8245151e-05,9.655952e-06,-4.529953e-06,0.99999994,-2.0451844e-05,-1.8879771e-05,2.0444393e-05,1.0,-3.606081e-06,1.8887222e-05,3.5762787e-06,1.0,269,0.806,0,0,0.0,False,-0.25773323775690704,0.994765239674821
0.816580805927515,16:47:58.050065,16:46:40.352948,0,,0.11492111,0.002844356,0.025623247,-0.25626436,0.9181906,-0.30208343,0.3072389,0.37368673,0.87519276,0.9164784,0.1314689,-0.37786663,,0.048142582,0.017586632,0.026814163,0.61482036,0.3291252,0.7167095,-0.24156988,-0.78649104,0.5683978,0.7507596,-0.5225979,-0.404044,,0.08278762,1.2879165,0.42543745,0.9915207,0.10182191,-0.08074005,0.019857945,-0.73274785,-0.6802104,-0.12842242,0.6728394,-0.7285567,,-0.110894606,0.2342293,-0.12687671,0.18501557,-0.9316861,0.31261835,0.86645895,0.3047502,0.39544427,-0.46370044,0.19770762,0.86365134,,-0.056237638,0.430067,-0.34381115,-0.67521805,-0.15216963,-0.72175133,0.31766894,-0.943087,-0.09835327,-0.6657079,-0.29568788,0.6851289,,1.0418584465958802,0.3867467396082892,0.19212962235000003,2.19314711890464,-0.6341299954114091,-0.08243146157663506,-0.41293379918745793,,-1.221728617969443,0.24210767560693838,0.18219615208,-1.322095093669926,-0.6543521973766943,-0.10465733465619118,0.8199872119940819,,-0.07622289175772236,-0.03365431130158066,0.09367255299999999,-0.10990079432573638,,2.8245151e-05,9.655952e-06,-4.529953e-06,0.99999994,-2.0451844e-05,-1.8879771e-05,2.0444393e-05,1.0,-3.606081e-06,1.8887222e-05,3.5762787e-06,1.0,280,0.839,0,0,0.0,False,-0.25719703829021734,0.9955377228872926
0.8470252240076661,16:47:58.087796,16:46:40.352948,0,,0.11519002,0.0028391108,0.025550142,-0.25330696,0.9195905,-0.3003146,0.3102855,0.3712704,0.8751464,0.9162741,0.12849738,-0.37938112,,0.048111197,0.017586721,0.026809394,0.61496747,0.32902434,0.7166297,-0.24152821,-0.7865189,0.568377,0.75065255,-0.5226196,-0.40421477,,0.08278762,1.2879165,0.42543745,0.9915207,0.10182191,-0.08074005,0.019857945,-0.73274785,-0.6802104,-0.12842242,0.6728394,-0.7285567,,-0.11115751,0.23415881,-0.12681668,0.18202668,-0.93282825,0.31096268,0.8683491,0.3008745,0.39426443,-0.4613417,0.1982575,0.8647877,,-0.056206167,0.4300692,-0.34380764,-0.67535335,-0.15206407,-0.721647,0.31758448,-0.94310194,-0.098482795,-0.66561097,-0.2956946,0.6852202,,1.0405533047401363,0.3872873309094849,0.19216851105000002,2.199018437322207,-0.6326269939139892,-0.08512727583982588,-0.4132604873197266,,-1.2215587178462102,0.2421771802028064,0.18219226321,-1.322095093669926,-0.6543521973766943,-0.10457565591605061,0.8201505560602161,,-0.07622289175772236,-0.03365431130158066,0.09367255299999999,-0.10990079432573638,,2.8245151e-05,9.655952e-06,-4.529953e-06,0.99999994,-2.0451844e-05,-1.8879771e-05,2.0444393e-05,1.0,-3.606081e-06,1.8887222e-05,3.5762787e-06,1.0,291,0.871,0,0,0.0,False,-0.2571374605716965,0.9955377228872926
0.8847844309639186,16:47:58.119067,16:46:40.352948,0,,0.11531534,0.0027593076,0.025475815,-0.25878713,0.9170684,-0.30333903,0.30943808,0.37619558,0.8733412,0.9150285,0.13214475,-0.38113064,,0.0480887,0.01758988,0.026806116,0.61507326,0.32864726,0.7167118,-0.24150622,-0.78677475,0.5680321,0.7505729,-0.52247167,-0.4045538,,0.08278762,1.2879165,0.42543745,0.9915207,0.10182191,-0.08074005,0.019857945,-0.73274785,-0.6802104,-0.12842242,0.6728394,-0.7285567,,-0.11127579,0.23404224,-0.12681267,0.18759562,-0.9306594,0.3141353,0.8672188,0.3071041,0.39194217,-0.4612369,0.19889739,0.8646967,,-0.05618402,0.43007278,-0.3438028,-0.6754493,-0.15168104,-0.7216378,0.31751686,-0.94307375,-0.098969534,-0.6655458,-0.29598105,0.6851598,,1.0394721221377448,0.38734911277247874,0.19217888137000003,2.1929374289611556,-0.6324903574142238,-0.08548372996394399,-0.41277045512132376,,-1.221442876853097,0.24224668479867442,0.18219096692000003,-1.322095093669926,-0.6543521973766943,-0.10408558347520726,0.8208039323247532,,-0.07622289175772236,-0.03365431130158066,0.09367255299999999,-0.10990079432573638,,2.8245151e-05,9.655952e-06,-4.529953e-06,0.99999994,-2.0451844e-05,-1.8879771e-05,2.0444393e-05,1.0,-3.606081e-06,1.8887222e-05,3.5762787e-06,1.0,302,0.904,0,0,0.0,False,-0.2575545046013441,0.9955377228872926
0.9160711488220841,16:47:58.150402,16:46:40.352948,0,,0.11545896,0.0026555136,0.025377288,-0.25961548,0.91728455,-0.30197465,0.31013408,0.3753262,0.87346834,0.91455805,0.13311322,-0.38192183,,0.048063487,0.017591728,0.026804447,0.6151036,0.32900146,0.7165233,-0.24119478,-0.78669393,0.5682762,0.75064826,-0.52237034,-0.40454483,,0.08278762,1.2879165,0.42543745,0.9915207,0.10182191,-0.08074005,0.019857945,-0.73274785,-0.6802104,-0.12842242,0.6728394,-0.7285567,,-0.11141019,0.23389056,-0.12680687,0.18844287,-0.93092835,0.31282854,0.8674532,0.3071226,0.39140856,-0.46045002,0.19760595,0.8654118,,-0.056159258,0.43007725,-0.34379992,-0.675529,-0.15205309,-0.7214849,0.317759,-0.9430122,-0.098778956,-0.66534936,-0.29598638,0.6853483,,1.0382982667408627,0.38717148991637157,0.19219573314000002,2.1929374289611556,-0.6324903574142238,-0.0844219063421166,-0.4126071110551894,,-1.221280699462738,0.24233163486029088,0.18218707805,-1.322514473556895,-0.6543521973766943,-0.10408558347520726,0.8208039323247532,,-0.07622289175772236,-0.03365431130158066,0.09367255299999999,-0.10990079432573638,,2.8245151e-05,9.655952e-06,-4.529953e-06,0.99999994,-2.0451844e-05,-1.8879771e-05,2.0444393e-05,1.0,-3.606081e-06,1.8887222e-05,3.5762787e-06,1.0,313,0.937,0,0,0.0,False,-0.25731619372725945,0.9956342832888514
0.9473986809607595,16:47:58.189338,16:46:40.352948,0,,0.11564609,0.0025242567,0.025266275,-0.26078555,0.91769683,-0.2997054,0.31069198,0.3737128,0.8739617,0.91403556,0.1348005,-0.38258016,,0.04804007,0.017596854,0.026802242,0.6151699,0.32917014,0.7163888,-0.24103564,-0.7866342,0.56842643,0.750645,-0.522354,-0.404572,,0.08278762,1.2879165,0.42543745,0.9915207,0.10182191,-0.08074005,0.019857945,-0.73274785,-0.6802104,-0.12842242,0.6728394,-0.7285567,,-0.11158659,0.23370768,-0.12680918,0.18963704,-0.9314308,0.3106034,0.8675728,0.30708086,0.39117613,-0.45973384,0.1952896,0.8663179,,-0.056136604,0.43008307,-0.34379417,-0.675614,-0.15222865,-0.72136825,0.3178411,-0.9429945,-0.09868348,-0.66522384,-0.2959524,0.6854848,,1.0368000565632631,0.3869938670602644,0.19220739975,2.192727739017671,-0.6327636304137547,-0.08232045951149086,-0.4127704551213237,,-1.2211957494011216,0.24238569399041046,0.18218578176000003,-1.3227241635003797,-0.6543521973766943,-0.10408558347520726,0.8208039323247532,,-0.07622289175772236,-0.03365431130158066,0.09367255299999999,-0.10990079432573638,,2.8245151e-05,9.655952e-06,-4.529953e-06,0.99999994,-2.0451844e-05,-1.8879771e-05,2.0444393e-05,1.0,-3.606081e-06,1.8887222e-05,3.5762787e-06,1.0,324,0.97,0,0,0.0,False,-0.2566012611050077,0.99486180007638
0.9862863710150123,16:47:58.218487,16:46:40.352948,0,,0.11577828,0.0024398789,0.025201902,-0.2627971,0.9174786,-0.29861435,0.31068522,0.3734754,0.87406564,0.9134616,0.1369268,-0.38319546,,0.048032187,0.017601622,0.026802957,0.61516273,0.32941845,0.7162809,-0.24089733,-0.7865373,0.5686191,0.7506952,-0.52234334,-0.40449244,,0.08278762,1.2879165,0.42543745,0.9915207,0.10182191,-0.08074005,0.019857945,-0.73274785,-0.6802104,-0.12842242,0.6728394,-0.7285567,,-0.111712374,0.23359418,-0.12681526,0.1916841,-0.93136007,0.30955714,0.8672989,0.3083779,0.39076293,-0.45940155,0.19357555,0.86687875,,-0.05612957,0.43008798,-0.34379077,-0.6756314,-0.15248643,-0.7212975,0.31796545,-0.9429733,-0.09848475,-0.6651467,-0.29588708,0.6855878,,1.035765210358117,0.3869706988616417,0.19220869604000002,2.191050219469795,-0.6329002669135202,-0.08057546680498318,-0.41277045512132365,,-1.2211648584696249,0.2424243076547816,0.18218578176000003,-1.3229338534438642,-0.6543521973766943,-0.10416726221534779,0.8209672763908876,,-0.07622289175772236,-0.03365431130158066,0.09367255299999999,-0.10990079432573638,,2.8245151e-05,9.655952e-06,-4.529953e-06,0.99999994,-2.0451844e-05,-1.8879771e-05,2.0444393e-05,1.0,-3.606081e-06,1.8887222e-05,3.5762787e-06,1.0,332,0.994,0,0,0.0,False,-0.25672041654204936,0.9949583604779393
1.0154923959635198,16:47:58.247498,16:46:40.533357,0,,0.11590699,0.0023729056,0.025145516,-0.26376808,0.9180512,-0.29598695,0.31154975,0.3714913,0.8746033,0.9128871,0.13847774,-0.38400638,,0.048031602,0.017606838,0.026807845,0.6150751,0.32987246,0.7161472,-0.24063256,-0.7864094,0.568908,0.750852,-0.52224946,-0.4043228,,0.08278762,1.2879165,0.42543745,0.9915207,0.10182191,-0.08074005,0.019857945,-0.73274785,-0.6802104,-0.12842242,0.6728394,-0.7285567,,-0.11183555,0.233499,-0.12681532,0.19267799,-0.9320061,0.30698493,0.8675932,0.30796376,0.39043608,-0.45842904,0.1911096,0.86794007,,-0.056130324,0.43009505,-0.3437897,-0.67560035,-0.15296154,-0.72122604,0.31826383,-0.9429073,-0.09815314,-0.6650356,-0.29585245,0.68571055,,1.0348616506118327,0.38700158979313865,0.19220999233000002,2.1908405295263105,-0.6323537209144584,-0.0781623825148492,-0.4127704551213237,,-1.2211803039353732,0.24244747585340426,0.18218448547000002,-1.323353233330833,-0.6543521973766943,-0.10424894095548838,0.8204772441924847,,-0.07622289175772236,-0.03365431130158066,0.09367255299999999,-0.10990079432573638,,2.8245151e-05,9.655952e-06,-4.529953e-06,0.99999994,-2.0451844e-05,-1.8879771e-05,2.0444393e-05,1.0,-3.606081e-06,1.8887222e-05,3.5762787e-06,1.0,344,1.03,0,0,0.0,False,-0.2571374605716965,0.9945721188717032
1.044464622857049,16:47:58.271029,16:46:40.533357,0,,0.116078325,0.0023067072,0.025097027,-0.26056656,0.91985136,-0.29322112,0.31474552,0.36805397,0.87491226,0.91271037,0.13568284,-0.3854217,,0.0480417,0.017602999,0.026820183,0.6151035,0.32985434,0.71613103,-0.24063024,-0.78640974,0.5689086,0.7508294,-0.5222603,-0.4043504,,0.08276514,1.2879177,0.42542812,0.99152017,0.10184183,-0.080721565,0.0198849,-0.7327451,-0.6802126,-0.12842242,0.6728394,-0.7285567,,-0.11198302,0.2334148,-0.12682785,0.1894321,-0.93355143,0.30429795,0.8696007,0.30342364,0.3895237,-0.4559716,0.19082943,0.8692951,,-0.056122586,0.43010992,-0.34380788,-0.6756196,-0.15291815,-0.72121716,0.31823155,-0.94291455,-0.09818781,-0.66503143,-0.29585168,0.6857149,,1.0341666046531526,0.3870556489232582,0.19220999233000002,2.196292468056908,-0.6305774464175076,-0.07903906408191874,-0.4134238313858607,,-1.221172581202499,0.24249381225064962,0.18218448547000002,-1.323353233330833,-0.6543521973766943,-0.10424894095548841,0.820150556060216,,-0.07622289175772236,-0.03365431130158066,0.09367255299999999,-0.10990079432573638,,7.171184e-06,2.3841858e-07,3.2186508e-06,0.99999994,-6.482005e-07,-5.9604645e-07,6.4074993e-07,1.0,-1.1920929e-07,5.9604645e-07,8.940697e-08,1.0,352,1.056,0,0,0.0,False,-0.2580311263495121,0.9941858772654677
1.0680201689247042,16:47:58.303099,16:46:40.533357,0,,0.116209306,0.0022887737,0.02507861,-0.25828317,0.92124134,-0.29086792,0.31595036,0.3650779,0.8757245,0.912943,0.13428508,-0.38536012,,0.04803539,0.017607916,0.026823163,0.6151299,0.32985735,0.71610695,-0.2406413,-0.78638494,0.568938,0.7508042,-0.5222956,-0.40435165,,0.08276514,1.2879177,0.42542812,0.99152017,0.10184183,-0.080721565,0.0198849,-0.7327451,-0.6802126,-0.12842242,0.6728394,-0.7285567,,-0.11211202,0.23338108,-0.12682164,0.18711695,-0.9347856,0.3019323,0.87049407,0.30021963,0.39001054,-0.45522222,0.18985271,0.86990154,,-0.05611742,0.43011636,-0.34380573,-0.6756407,-0.15291946,-0.72119707,0.31820047,-0.94292724,-0.09816634,-0.6650249,-0.29581043,0.6857391,,1.0335178950917177,0.3872641627108623,0.19220999233000002,2.2000668870396294,-0.6304408099177423,-0.07906880324547455,-0.4132604873197264,,-1.2211571357367506,0.24254014864789494,0.18218318918,-1.323353233330833,-0.6543521973766943,-0.10424894095548841,0.820150556060216,,-0.07622289175772236,-0.03365431130158066,0.09367255299999999,-0.10990079432573638,,7.171184e-06,2.3841858e-07,3.2186508e-06,0.99999994,-6.482005e-07,-5.9604645e-07,6.4074993e-07,1.0,-1.1920929e-07,5.9604645e-07,8.940697e-08,1.0,360,1.08,0,0,0.0,False,-0.25672041654204936,0.9941375970646882
1.1000963128171861,16:47:58.322978,16:46:40.533357,0,,0.11628954,0.0022806674,0.025063053,-0.2597116,0.9206071,-0.2916035,0.31673864,0.3664676,0.87485886,0.91226447,0.13484888,-0.38676783,,0.048034802,0.017609883,0.026824236,0.6150454,0.33030215,0.71597445,-0.24036139,-0.7862729,0.5692113,0.7509631,-0.52218336,-0.4042017,,0.08276514,1.2879177,0.42542812,0.99152017,0.10184183,-0.080721565,0.0198849,-0.7327451,-0.6802126,-0.12842242,0.6728394,-0.7285567,,-0.11219078,0.23335958,-0.12681276,0.18857576,-0.9342177,0.30278128,0.87069,0.30165398,0.3884634,-0.45424455,0.19037384,0.8702986,,-0.056117237,0.4301185,-0.34380487,-0.675615,-0.15338603,-0.7211221,0.31850913,-0.94285494,-0.09785967,-0.6649032,-0.29579943,0.6858618,,1.0330931447836353,0.387495844697089,0.19220999233000002,2.199018437322207,-0.6293477179196186,-0.07987846773490548,-0.41309714325359226,,-1.2211571357367506,0.24254014864789494,0.18218318918,-1.3237726132178023,-0.6543521973766943,-0.10433061969562897,0.8199872119940818,,-0.07622289175772236,-0.03365431130158066,0.09367255299999999,-0.10990079432573638,,7.171184e-06,2.3841858e-07,3.2186508e-06,0.99999994,-6.482005e-07,-5.9604645e-07,6.4074993e-07,1.0,-1.1920929e-07,5.9604645e-07,8.940697e-08,1.0,368,1.105,0,0,0.0,False,-0.25683957197909146,0.9943789980685855
1.1199178299866617,16:47:58.351488,16:46:40.533357,0,,0.11638774,0.002287209,0.025057271,-0.26055032,0.9213147,-0.2886048,0.3168931,0.36397845,0.8758415,0.9119716,0.1367439,-0.38679302,,0.048034802,0.017609883,0.026824236,0.6150454,0.33030215,0.71597445,-0.24036139,-0.7862729,0.5692113,0.7509631,-0.52218336,-0.4042017,,0.08276514,1.2879177,0.42542812,0.99152017,0.10184183,-0.080721565,0.0198849,-0.7327451,-0.6802126,-0.12842242,0.6728394,-0.7285567,,-0.11228843,0.23335432,-0.1268002,0.18943031,-0.93501395,0.299775,0.8706534,0.30110034,0.38897467,-0.4539591,0.18731652,0.87111056,,-0.056117237,0.4301185,-0.34380487,-0.675615,-0.15338603,-0.7211221,0.31850913,-0.94285494,-0.09785967,-0.6649032,-0.29579943,0.6858618,,1.0326220580783076,0.38782792221068063,0.19221388120000002,2.1985990574352376,-0.6290744449200878,-0.0768341539366757,-0.41277045512132365,,-1.2211571357367506,0.24254014864789494,0.18218318918,-1.3237726132178023,-0.6543521973766943,-0.10433061969562897,0.8199872119940818,,-0.07622289175772236,-0.03365431130158066,0.09367255299999999,-0.10990079432573638,,7.171184e-06,2.3841858e-07,3.2186508e-06,0.99999994,-6.482005e-07,-5.9604645e-07,6.4074993e-07,1.0,-1.1920929e-07,5.9604645e-07,8.940697e-08,1.0,376,1.129,0,0,0.0,False,-0.25725661600873906,0.994765239674821
1.1484988119918853,16:47:58.380942,16:46:40.672787,0,,0.11660104,0.0023182705,0.02504082,-0.2602603,0.92218095,-0.2860891,0.31981966,0.36190954,0.875635,0.9110323,0.13639614,-0.38912237,,0.048031967,0.017610181,0.02682358,0.6150591,0.33029845,0.7159645,-0.24035788,-0.78627074,0.5692157,0.7509531,-0.5221888,-0.40421313,,0.08276514,1.2879177,0.42542812,0.99152017,0.10184183,-0.080721565,0.0198849,-0.7327451,-0.6802126,-0.12842242,0.6728394,-0.7285567,,-0.11250055,0.23335245,-0.12675852,0.1891559,-0.9358164,0.29743525,0.8721175,0.29930636,0.3870746,-0.45125502,0.18618105,0.87275743,,-0.056114398,0.43011868,-0.34380418,-0.67562747,-0.1533819,-0.7211113,0.31850103,-0.9428572,-0.09786397,-0.66489446,-0.29579428,0.68587255,,1.031772557462143,0.3885770272994804,0.19222425152000003,2.2009056468135677,-0.626341714924779,-0.07693886476694956,-0.41309714325359226,,-1.2211416902710022,0.24254787138076916,0.18218318918,-1.3237726132178023,-0.6543521973766943,-0.10433061969562897,0.8199872119940818,,-0.07622289175772236,-0.03365431130158066,0.09367255299999999,-0.10990079432573638,,7.171184e-06,2.3841858e-07,3.2186508e-06,0.99999994,-6.482005e-07,-5.9604645e-07,6.4074993e-07,1.0,-1.1920929e-07,5.9604645e-07,8.940697e-08,1.0,384,1.154,0,0,0.0,False,-0.25791197091247,0.9947169594740419
1.1779501580167562,16:47:58.405159,16:46:40.672787,0,,0.116871774,0.0023756698,0.025040403,-0.25719416,0.924187,-0.2823645,0.32100606,0.35730845,0.8770894,0.91148573,0.13494152,-0.38856733,,0.048020337,0.017612327,0.026821434,0.6150712,0.33053517,0.71584487,-0.24020374,-0.7861828,0.569402,0.75099236,-0.5221713,-0.40416265,,0.08276514,1.2879177,0.42542812,0.99152017,0.10184183,-0.080721565,0.0198849,-0.7327451,-0.6802126,-0.12842242,0.6728394,-0.7285567,,-0.11277154,0.23337714,-0.12670809,0.18604471,-0.9376321,0.29365537,0.87310034,0.29484534,0.3882809,-0.45064753,0.184153,0.8735013,,-0.056102954,0.4301205,-0.343801,-0.67566437,-0.15362807,-0.72102433,0.31862295,-0.94283414,-0.097689345,-0.6647985,-0.2957401,0.68598884,,1.0307068203254999,0.38950375524438735,0.19224888103,2.2063575853441653,-0.626341714924779,-0.07693886476694956,-0.41309714325359226,,-1.2210799084080084,0.24257876231226608,0.18218318918,-1.3239823031612867,-0.6543521973766943,-0.10441229843576955,0.8198238679279474,,-0.07622289175772236,-0.03365431130158066,0.09367255299999999,-0.10990079432573638,,7.171184e-06,2.3841858e-07,3.2186508e-06,0.99999994,-6.482005e-07,-5.9604645e-07,6.4074993e-07,1.0,-1.1920929e-07,5.9604645e-07,8.940697e-08,1.0,396,1.191,0,0,0.0,False,-0.25761408231986493,0.9940893168639089
1.2021469799801707,16:47:58.434313,16:46:40.672787,0,,0.117140785,0.0024058595,0.025009826,-0.25924122,0.9235051,-0.282723,0.32308635,0.35878903,0.87572,0.91016984,0.13567875,-0.3913849,,0.048011716,0.017611641,0.026818275,0.6150701,0.33071193,0.71576416,-0.2400442,-0.7861538,0.56950945,0.7510443,-0.52210313,-0.40415424,,0.08276514,1.2879177,0.42542812,0.99152017,0.10184183,-0.080721565,0.0198849,-0.7327451,-0.6802126,-0.12842242,0.6728394,-0.7285567,,-0.11303819,0.23336153,-0.12665454,0.18814285,-0.93703073,0.2942374,0.8738363,0.2964674,0.38537934,-0.44834408,0.18460895,0.8745897,,-0.05609398,0.4301193,-0.34379944,-0.6756907,-0.15381467,-0.7209599,0.3187604,-0.94279665,-0.097602464,-0.6647059,-0.29576254,0.68606895,,1.0294943512642467,0.39044592865504274,0.19227091796,2.2059382054571963,-0.6238822579290011,-0.07878102955320404,-0.4130971432535922,,-1.2210258492778887,0.2425864850451403,0.18218318918,-1.3241919931047712,-0.6543521973766943,-0.10441229843576955,0.8198238679279474,,-0.07622289175772236,-0.03365431130158066,0.09367255299999999,-0.10990079432573638,,7.171184e-06,2.3841858e-07,3.2186508e-06,0.99999994,-6.482005e-07,-5.9604645e-07,6.4074993e-07,1.0,-1.1920929e-07,5.9604645e-07,8.940697e-08,1.0,425,1.28,0,0,0.0,False,-0.25815028178655464,0.994765239674821
1.2313145159278065,16:47:58.524071,16:46:40.794046,0,,0.11783559,0.0023252368,0.024836853,-0.24986535,0.9282079,-0.27567637,0.33705208,0.35027844,0.87389976,0.90772414,0.12543993,-0.40037698,,0.04798153,0.017613698,0.026810467,0.6151722,0.33086142,0.7156073,-0.23985967,-0.7861066,0.5696523,0.7510196,-0.5220796,-0.40423065,,0.08276514,1.2879177,0.42542812,0.99152017,0.10184183,-0.080721565,0.0198849,-0.7327451,-0.6802126,-0.12842242,0.6728394,-0.7285567,,-0.11371741,0.23314166,-0.12655708,0.1787182,-0.9408424,0.28788096,0.8817248,0.2829862,0.37746558,-0.43660194,0.1863718,0.8801388,,-0.056063507,0.43012008,-0.34379247,-0.6758112,-0.1539708,-0.7208136,0.31883478,-0.94277745,-0.09754524,-0.6645477,-0.2957426,0.6862308,,1.0262430807241982,0.3916892886477929,0.19229943634000002,2.224390920483834,-0.6139077934461239,-0.08634278534205891,-0.4132604873197266,,-1.2208173354902847,0.24266371237388254,0.18218189289000003,-1.3246113729917404,-0.6543521973766943,-0.1044122984357695,0.8201505560602161,,-0.07622289175772236,-0.03365431130158066,0.09367255299999999,-0.10990079432573638,,7.171184e-06,2.3841858e-07,3.2186508e-06,0.99999994,-6.482005e-07,-5.9604645e-07,6.4074993e-07,1.0,-1.1920929e-07,5.9604645e-07,8.940697e-08,1.0,433,1.305,0,0,0.0,False,-0.25731619372725945,0.9955860030880721
1.321061174850911,16:47:58.552616,16:46:40.794046,0,,0.11794831,0.0022411346,0.024751559,-0.25172538,0.9277897,-0.27539176,0.33577043,0.3506039,0.8742626,0.90768516,0.12760563,-0.3997804,,0.047964223,0.01761337,0.026808143,0.6150794,0.33154517,0.71537054,-0.2392638,-0.78602743,0.5700121,0.75128555,-0.521765,-0.40414256,,0.08276514,1.2879177,0.42542812,0.99152017,0.10184183,-0.080721565,0.0198849,-0.7327451,-0.6802126,-0.12842242,0.6728394,-0.7285567,,-0.11382227,0.23301524,-0.12654856,0.18059874,-0.94058496,0.28754827,0.88088214,0.28473127,0.37811998,-0.43752795,0.18500815,0.8799666,,-0.056046143,0.43012127,-0.34379104,-0.67583215,-0.15469539,-0.7206388,0.31942,-0.94261354,-0.09721423,-0.66424525,-0.29588693,0.6864613,,1.025208234519052,0.39151938852456,0.19232795472000003,2.222503710992474,-0.6155474314433093,-0.08492409175756122,-0.4130971432535923,,-1.220755553627291,0.24267143510675676,0.18218059660000002,-1.325240442822194,-0.6543521973766943,-0.10433061969562894,0.8203139001263504,,-0.07622289175772236,-0.03365431130158066,0.09367255299999999,-0.10990079432573638,,7.171184e-06,2.3841858e-07,3.2186508e-06,0.99999994,-6.482005e-07,-5.9604645e-07,6.4074993e-07,1.0,-1.1920929e-07,5.9604645e-07,8.940697e-08,1.0,441,1.33,0,0,0.0,False,-0.25767366003838577,0.9952480416826157
1.3495989309158176,16:47:58.575662,16:46:40.794046,0,,0.1180298,0.0021644384,0.024666533,-0.25193396,0.9279969,-0.27450147,0.33576256,0.3498504,0.8745674,0.90763026,0.1281659,-0.39972588,,0.04795462,0.017613847,0.02680552,0.6151257,0.33147302,0.7153641,-0.2392501,-0.7860688,0.56996083,0.75125206,-0.52174836,-0.40422624,,0.08276514,1.2879177,0.42542812,0.99152017,0.10184183,-0.080721565,0.0198849,-0.7327451,-0.6802126,-0.12842242,0.6728394,-0.7285567,,-0.11389615,0.23289628,-0.12653638,0.1808108,-0.9408181,0.28665107,0.8808517,0.2845549,0.37832373,-0.43750176,0.18409207,0.8801718,,-0.056036416,0.43012136,-0.34378886,-0.6758748,-0.1546215,-0.7206146,0.31939396,-0.9426126,-0.09730882,-0.6642144,-0.29592854,0.6864733,,1.0244205157658812,0.39125681560683634,0.1923564731,2.222713400935958,-0.6162306139421364,-0.0841219660186574,-0.4135871754519951,,-1.2207014944971712,0.24269460330537945,0.18218059660000002,-1.325240442822194,-0.6543521973766943,-0.10424894095548838,0.8204772441924847,,-0.07622289175772236,-0.03365431130158066,0.09367255299999999,-0.10990079432573638,,7.171184e-06,2.3841858e-07,3.2186508e-06,0.99999994,-6.482005e-07,-5.9604645e-07,6.4074993e-07,1.0,-1.1920929e-07,5.9604645e-07,8.940697e-08,1.0,449,1.355,0,0,0.0,False,-0.25791197091247,0.9951032010802774
1.3726516109891236,16:47:58.603033,16:46:40.794046,0,,0.11806494,0.002119191,0.024613634,-0.2530951,0.92784816,-0.27393553,0.33543536,0.3497525,0.8747321,0.90742815,0.12950273,-0.39975384,,0.047949128,0.017615188,0.026806355,0.61515003,0.33146948,0.7153449,-0.2392492,-0.78605884,0.5699749,0.7512325,-0.5217657,-0.40424034,,0.08276514,1.2879177,0.42542812,0.99152017,0.10184183,-0.080721565,0.0198849,-0.7327451,-0.6802126,-0.12842242,0.6728394,-0.7285567,,-0.11392663,0.23282504,-0.12652774,0.18198895,-0.940763,0.2860857,0.88054734,0.28540838,0.3783893,-0.43762589,0.1830493,0.8803275,,-0.056031305,0.43012384,-0.34378824,-0.6758961,-0.15461692,-0.7205956,0.31937492,-0.9426192,-0.097307526,-0.66420186,-0.29590994,0.6864934,,1.0239880427249246,0.3910869154836034,0.19237591745000002,2.221455261275051,-0.6166405234414327,-0.08280756742588141,-0.413587175451995,,-1.2206783262985488,0.24271777150400212,0.18217930031000001,-1.325240442822194,-0.6543521973766943,-0.10424894095548838,0.8204772441924847,,-0.07622289175772236,-0.03365431130158066,0.09367255299999999,-0.10990079432573638,,7.171184e-06,2.3841858e-07,3.2186508e-06,0.99999994,-6.482005e-07,-5.9604645e-07,6.4074993e-07,1.0,-1.1920929e-07,5.9604645e-07,8.940697e-08,1.0,457,1.379,0,0,0.0,False,-0.25767366003838577,0.9948135198756005
1.4000396989285946,16:47:58.624023,16:46:40.794046,0,,0.11809108,0.0020872578,0.02456586,-0.2550353,0.92727715,-0.27406943,0.33567363,0.3507201,0.8742531,0.9067966,0.13096753,-0.40070862,,0.04794676,0.017616916,0.026806772,0.61516064,0.33146966,0.71533567,-0.23925185,-0.786051,0.5699846,0.75122297,-0.52177733,-0.404243,,0.08276514,1.2879177,0.42542812,0.99152017,0.10184183,-0.080721565,0.0198849,-0.7327451,-0.6802126,-0.12842242,0.6728394,-0.7285567,,-0.11394873,0.23276754,-0.12651399,0.18396463,-0.94031477,0.2862956,0.88040763,0.28714925,0.37739593,-0.43708053,0.18262933,0.8806856,,-0.056029256,0.43012565,-0.3437871,-0.6759049,-0.15461649,-0.72058743,0.31936395,-0.94262344,-0.09730194,-0.66419816,-0.29589653,0.6865028,,1.0236636879442071,0.3909942426891127,0.19239406551000002,2.219358361840206,-0.616093977442371,-0.08202805793855872,-0.4140772076503979,,-1.2206706035656745,0.24273321696975056,0.18217930031000001,-1.325240442822194,-0.6543521973766943,-0.10424894095548838,0.8204772441924847,,-0.07622289175772236,-0.03365431130158066,0.09367255299999999,-0.10990079432573638,,7.171184e-06,2.3841858e-07,3.2186508e-06,0.99999994,-6.482005e-07,-5.9604645e-07,6.4074993e-07,1.0,-1.1920929e-07,5.9604645e-07,8.940697e-08,1.0,465,1.404,0,0,0.0,False,-0.25695872741613357,0.994765239674821
1.4210308368783444,16:47:58.646102,16:46:40.794046,0,,0.11813124,0.0020665228,0.024527267,-0.25491288,0.92753863,-0.27329746,0.33759797,0.35021895,0.8737129,0.9061164,0.130456,-0.40241054,,0.047944102,0.01761799,0.026808262,0.61517125,0.33146977,0.7153265,-0.23925444,-0.7860431,0.56999433,0.75121343,-0.52178913,-0.40424562,,0.08276514,1.2879177,0.42542812,0.99152017,0.10184183,-0.080721565,0.0198849,-0.7327451,-0.6802126,-0.12842242,0.6728394,-0.7285567,,-0.11398567,0.23272355,-0.12649865,0.18385673,-0.9405303,0.28565618,0.88133174,0.28641894,0.37579063,-0.43525982,0.18266623,0.8815792,,-0.056026984,0.43012795,-0.34378716,-0.67591375,-0.15461604,-0.72057927,0.319353,-0.9426277,-0.09729635,-0.6641944,-0.2958831,0.6865122,,1.0233238876977413,0.39098651995623845,0.19241091728,2.2231327808229273,-0.6137711569463585,-0.08261530245914878,-0.4134238313858608,,-1.2206628808328002,0.242748662435499,0.18217800402,-1.325240442822194,-0.6543521973766943,-0.10424894095548838,0.8204772441924848,,-0.07622289175772236,-0.03365431130158066,0.09367255299999999,-0.10990079432573638,,7.171184e-06,2.3841858e-07,3.2186508e-06,0.99999994,-6.482005e-07,-5.9604645e-07,6.4074993e-07,1.0,-1.1920929e-07,5.9604645e-07,8.940697e-08,1.0,473,1.428,0,0,0.0,False,-0.25636295023092304,0.9943789980685855
1.4430984728969634,16:47:58.673657,16:46:40.948836,0,,0.118208,0.0020711347,0.02449803,-0.2503466,0.9296258,-0.27041137,0.34036052,0.34598473,0.87432784,0.906356,0.12684762,-0.4030242,,0.04794119,0.01762094,0.026810884,0.6150518,0.33210623,0.71513397,-0.23883438,-0.78589356,0.5703766,0.7514449,-0.5216096,-0.40404698,,0.08276514,1.2879177,0.42542812,0.99152017,0.10184183,-0.080721565,0.0198849,-0.7327451,-0.6802126,-0.12842242,0.6728394,-0.7285567,,-0.11406023,0.23270217,-0.12647128,0.17923668,-0.9422804,0.28281057,0.88322014,0.28074458,0.37563896,-0.43335477,0.18245572,0.8825608,,-0.056024857,0.4301323,-0.34378645,-0.6758814,-0.15528478,-0.72046584,0.31980953,-0.9425164,-0.09687464,-0.6640077,-0.2958876,0.68669087,,1.0231694330402568,0.39104057908635803,0.19242258389000003,2.226697509862164,-0.6129513379477659,-0.08328380988132739,-0.4134238313858608,,-1.220655158099926,0.24275638516837325,0.18217670773000003,-1.3258695126526474,-0.6543521973766943,-0.10433061969562894,0.8203139001263504,,-0.07622289175772236,-0.03365431130158066,0.09367255299999999,-0.10990079432573638,,7.171184e-06,2.3841858e-07,3.2186508e-06,0.99999994,-6.482005e-07,-5.9604645e-07,6.4074993e-07,1.0,-1.1920929e-07,5.9604645e-07,8.940697e-08,1.0,498,1.505,0,0,0.0,False,-0.25672041654204936,0.994765239674821
1.4706556198652834,16:47:58.743581,16:46:40.948836,0,,0.11832449,0.0020789728,0.024426088,-0.24638605,0.93093586,-0.2695409,0.3480783,0.34455732,0.87184954,0.90450823,0.1209902,-0.40893286,,0.047923226,0.017625649,0.026816547,0.6150846,0.33234832,0.71499336,-0.23869473,-0.78577924,0.57059246,0.75146246,-0.52162766,-0.40399095,,0.08276514,1.2879177,0.42542812,0.99152017,0.10184183,-0.080721565,0.0198849,-0.7327451,-0.6802126,-0.12842242,0.6728394,-0.7285567,,-0.11417144,0.23265141,-0.1264091,0.17528112,-0.9431454,0.2824062,0.8873151,0.27561644,0.3697397,-0.4265541,0.18577491,0.88517755,,-0.056008574,0.43014285,-0.343786,-0.6759337,-0.15553476,-0.7203628,0.3199021,-0.9425056,-0.09667384,-0.66390985,-0.29579067,0.6868272,,1.022860523725288,0.39126453833971053,0.19244980598000003,2.233826967940638,-0.6061195129594938,-0.08836463262530508,-0.41309714325359226,,-1.220585653504058,0.2428336124971155,0.18217022628,-1.3260792025961319,-0.6543521973766943,-0.1044122984357695,0.8201505560602161,,-0.07622289175772236,-0.03365431130158066,0.09367255299999999,-0.10990079432573638,,7.171184e-06,2.3841858e-07,3.2186508e-06,0.99999994,-6.482005e-07,-5.9604645e-07,6.4074993e-07,1.0,-1.1920929e-07,5.9604645e-07,8.940697e-08,1.0,502,1.517,0,0,0.0,False,-0.25677999426057063,0.9949100802771598
1.5405917088501155,16:47:58.766986,16:46:40.948836,0,,0.11838105,0.002074413,0.02440007,-0.24867836,0.93072146,-0.26817274,0.34848547,0.34430322,0.8717873,0.90372384,0.12334028,-0.40996382,,0.04790318,0.017621268,0.026810706,0.6151805,0.33225346,0.71495485,-0.23865193,-0.7858315,0.57053846,0.7513975,-0.5216093,-0.40413538,,0.08276514,1.2879177,0.42542812,0.99152017,0.10184183,-0.080721565,0.0198849,-0.7327451,-0.6802126,-0.12842242,0.6728394,-0.7285567,,-0.114225924,0.2326268,-0.12639114,0.17761578,-0.943094,0.2811161,0.8872151,0.27705434,0.36890417,-0.42579576,0.18388724,0.8859365,,-0.05598753,0.43013942,-0.3437855,-0.6760246,-0.15543738,-0.72029847,0.31986025,-0.9425057,-0.096810944,-0.66383743,-0.29584143,0.68687534,,1.0225130007459478,0.3914344384629435,0.19246276888000002,2.2315203785623083,-0.6051630574611357,-0.08612244456597917,-0.41326048731972653,,-1.2204620897780705,0.24285678069573816,0.18216763370000003,-1.3260792025961319,-0.6543521973766943,-0.1043306196956289,0.8196605238618132,,-0.07622289175772236,-0.03365431130158066,0.09367255299999999,-0.10990079432573638,,7.171184e-06,2.3841858e-07,3.2186508e-06,0.99999994,-6.482005e-07,-5.9604645e-07,6.4074993e-07,1.0,-1.1920929e-07,5.9604645e-07,8.940697e-08,1.0,514,1.555,0,0,0.0,False,-0.25672041654204936,0.994765239674821
1.5639756659511477,16:47:58.807122,16:46:41.095149,0,,0.118493564,0.0020534098,0.024331078,-0.2490323,0.93129367,-0.2658477,0.35219824,0.34278518,0.870893,0.90218586,0.1232494,-0.41336465,,0.04787425,0.01761638,0.026807547,0.61517274,0.33232802,0.71492684,-0.238525,-0.7858644,0.57054627,0.7514441,-0.5215124,-0.4041739,,0.08276514,1.2879177,0.42542812,0.99152017,0.10184183,-0.080721565,0.0198849,-0.7327451,-0.6802126,-0.12842242,0.6728394,-0.7285567,,-0.114332855,0.23255736,-0.12635109,0.1780122,-0.94363135,0.2790548,0.8888799,0.2758544,0.36578262,-0.42214245,0.1829324,0.8878803,,-0.05595806,0.4301394,-0.3437869,-0.6760395,-0.15551959,-0.72026676,0.3199749,-0.94246477,-0.09683071,-0.663767,-0.29592866,0.68690586,,1.0219260730475066,0.39160433858617644,0.19248739839,2.232568828279731,-0.6014738719674688,-0.08553686339959793,-0.41391386358426363,,-1.2202921896548375,0.2429031170929835,0.18216115225,-1.3262888925396166,-0.6544888338764597,-0.10421920179193257,0.8199872119940818,,-0.07622289175772236,-0.03365431130158066,0.09367255299999999,-0.10990079432573638,,7.171184e-06,2.3841858e-07,3.2186508e-06,0.99999994,-6.482005e-07,-5.9604645e-07,6.4074993e-07,1.0,-1.1920929e-07,5.9604645e-07,8.940697e-08,1.0,530,1.604,0,0,0.0,False,-0.2564821056679656,0.9958756842927488
1.6041330138687044,16:47:58.845459,16:46:41.095149,0,,0.11866841,0.002030775,0.024257734,-0.24598989,0.93299615,-0.26269215,0.35535005,0.33895797,0.8711107,0.9017845,0.12093672,-0.41492057,,0.04782919,0.017612178,0.026803136,0.6151959,0.33251607,0.7148195,-0.23823747,-0.78590095,0.570616,0.75151634,-0.52133733,-0.40426534,,0.08276514,1.2879177,0.42542812,0.99152017,0.10184183,-0.080721565,0.0198849,-0.7327451,-0.6802126,-0.12842242,0.6728394,-0.7285567,,-0.11450162,0.2324799,-0.12630653,0.17495057,-0.945097,0.27601442,0.8907061,0.27138656,0.36468056,-0.4195651,0.18204665,0.88928294,,-0.055912655,0.4301418,-0.34378675,-0.6761087,-0.15572348,-0.72015774,0.32020146,-0.942387,-0.096838795,-0.6635872,-0.29606912,0.687019,,1.021037958766971,0.3918128523737805,0.19252239822000003,2.2378110768668438,-0.5995609609707527,-0.08603489042952045,-0.41309714325359215,,-1.220037339469988,0.24298806715459997,0.18215207822,-1.3267082724265857,-0.6546254703762252,-0.10402610514809547,0.8204772441924847,,-0.07622289175772236,-0.03365431130158066,0.09367255299999999,-0.10990079432573638,,7.171184e-06,2.3841858e-07,3.2186508e-06,0.99999994,-6.482005e-07,-5.9604645e-07,6.4074993e-07,1.0,-1.1920929e-07,5.9604645e-07,8.940697e-08,1.0,538,1.629,0,0,0.0,False,-0.2557075953271921,0.995392882284954
1.6424177659209818,16:47:58.874312,16:46:41.095149,0,,0.1187792,0.002006419,0.024191096,-0.24131837,0.93389654,-0.2638231,0.35905722,0.33848834,0.86977214,0.9015782,0.115164354,-0.41700587,,0.047791477,0.017604996,0.02679491,0.61537385,0.33251053,0.714669,-0.23816457,-0.78585744,0.57070637,0.7513938,-0.52140653,-0.40440392,,0.08276514,1.2879177,0.42542812,0.99152017,0.10184183,-0.080721565,0.0198849,-0.7327451,-0.6802126,-0.12842242,0.6728394,-0.7285567,,-0.11460694,0.23240976,-0.12627059,0.17024048,-0.94557655,0.27731425,0.8929687,0.26703745,0.36235046,-0.41668338,0.18594624,0.8898309,,-0.055873558,0.43013805,-0.34378666,-0.6762762,-0.15571418,-0.72000253,0.32011837,-0.9424128,-0.0968627,-0.6634567,-0.29599196,0.6871783,,1.0205128129315235,0.3918051296409063,0.1925509166,2.244730845001833,-0.5973747769745056,-0.09181983515555081,-0.4122804229229208,,-1.2198133802166355,0.24304212628471955,0.18214559677000003,-1.3267082724265857,-0.6546254703762252,-0.10410778388823601,0.8206405882586191,,-0.07622289175772236,-0.03365431130158066,0.09367255299999999,-0.10990079432573638,,7.171184e-06,2.3841858e-07,3.2186508e-06,0.99999994,-6.482005e-07,-5.9604645e-07,6.4074993e-07,1.0,-1.1920929e-07,5.9604645e-07,8.940697e-08,1.0,546,1.654,0,0,0.0,False,-0.25624379479388093,0.9956342832888514
1.6713201608508825,16:47:58.904912,16:46:41.095149,0,,0.11883693,0.0019959137,0.024139538,-0.23637603,0.9359757,-0.2609136,0.36076653,0.3338688,0.8708496,0.9022049,0.11171904,-0.41658744,,0.04775352,0.017600317,0.026787579,0.615455,0.33237833,0.7146605,-0.23816389,-0.7859185,0.5706226,0.7513275,-0.5213988,-0.40453702,,0.08276514,1.2879177,0.42542812,0.99152017,0.10184183,-0.080721565,0.0198849,-0.7327451,-0.6802126,-0.12842242,0.6728394,-0.7285567,,-0.11466067,0.23236325,-0.12623814,0.16523655,-0.9473233,0.2743637,0.8943342,0.26119545,0.3632399,-0.41576818,0.18535233,0.8903827,,-0.055834677,0.4301366,-0.34378517,-0.676347,-0.15557757,-0.71996546,0.3200526,-0.94241947,-0.09701477,-0.66341615,-0.29604247,0.68719566,,1.0202347945480514,0.3916815659149187,0.19258591643000003,2.2512312332498534,-0.5972381404747401,-0.09233964675994999,-0.4127704551213236,,-1.219589420963283,0.24311163088058757,0.18214041161000002,-1.3267082724265857,-0.6547621068759906,-0.10399636598453972,0.8206405882586191,,-0.07622289175772236,-0.03365431130158066,0.09367255299999999,-0.10990079432573638,,7.171184e-06,2.3841858e-07,3.2186508e-06,0.99999994,-6.482005e-07,-5.9604645e-07,6.4074993e-07,1.0,-1.1920929e-07,5.9604645e-07,8.940697e-08,1.0,575,1.743,0,0,0.0,False,-0.25540970673458663,0.9958756842927488
1.7019105849321932,16:47:58.986639,16:46:41.226868,0,,0.118765265,0.001979217,0.024090365,-0.23907217,0.9347026,-0.2630127,0.36162612,0.3370899,0.8692508,0.90114987,0.11270143,-0.41860175,,0.047682535,0.017602373,0.02678901,0.6155031,0.33293456,0.7143601,-0.2375899,-0.7858457,0.570962,0.75146985,-0.52115357,-0.40458864,,0.08276514,1.2879177,0.42542812,0.99152017,0.10184183,-0.080721565,0.0198849,-0.7327451,-0.6802126,-0.12842242,0.6728394,-0.7285567,,-0.1145854,0.23232189,-0.12621677,0.16798519,-0.9461805,0.27662867,0.89440227,0.26428574,0.36082914,-0.41451854,0.18680336,0.8906621,,-0.05576539,0.43015215,-0.34378338,-0.6764868,-0.15616666,-0.7197066,0.32050306,-0.9422893,-0.09679211,-0.66305614,-0.29614675,0.68749815,,1.0204510310685297,0.39138810206569813,0.19261054594000002,2.247876194154101,-0.595598502477555,-0.09294155294304202,-0.4119537347906522,,-1.2192264525181944,0.24329697646956897,0.18212355984,-1.3275470322005238,-0.654898743375756,-0.1038032693407027,0.8214573085892902,,-0.07622289175772236,-0.03365431130158066,0.09367255299999999,-0.10990079432573638,,7.171184e-06,2.3841858e-07,3.2186508e-06,0.99999994,-6.482005e-07,-5.9604645e-07,6.4074993e-07,1.0,-1.1920929e-07,5.9604645e-07,8.940697e-08,1.0,583,1.768,0,0,0.0,False,-0.25451604095677105,0.9965516071036611
1.7836109609343112,16:47:59.016392,16:46:41.226868,0,,0.118746676,0.0019697547,0.02410163,-0.24000922,0.93448544,-0.2629307,0.36135614,0.33738458,0.8692487,0.90100896,0.11361608,-0.4186576,,0.047665745,0.017601717,0.026793122,0.6155308,0.33311033,0.71425426,-0.23743546,-0.78579694,0.5710934,0.75149596,-0.5211147,-0.4045901,,0.08276514,1.2879177,0.42542812,0.99152017,0.10184183,-0.080721565,0.0198849,-0.7327451,-0.6802126,-0.12842242,0.6728394,-0.7285567,,-0.114567496,0.23232387,-0.12623216,0.16893451,-0.94603425,0.27655086,0.89416766,0.26513943,0.36078432,-0.41463885,0.1863339,0.8907044,,-0.055749375,0.43015802,-0.34378615,-0.6765373,-0.15635084,-0.71961915,0.3206121,-0.9422623,-0.09669356,-0.6629519,-0.2961354,0.68760353,,1.0205050901986494,0.39135721113420124,0.19259628675,2.246618054493194,-0.595598502477555,-0.09212476554163634,-0.41146370259224946,,-1.2191492251894522,0.2433433128668143,0.1821157821,-1.3277567221440083,-0.654898743375756,-0.1038032693407027,0.8214573085892902,,-0.07622289175772236,-0.03365431130158066,0.09367255299999999,-0.10990079432573638,,7.171184e-06,2.3841858e-07,3.2186508e-06,0.99999994,-6.482005e-07,-5.9604645e-07,6.4074993e-07,1.0,-1.1920929e-07,5.9604645e-07,8.940697e-08,1.0,595,1.805,0,0,0.0,False,-0.25439688551972894,0.9967447279067789
1.8133728788234293,16:47:59.055399,16:46:41.226868,0,,0.11874791,0.0019470751,0.02410473,-0.24058858,0.93433243,-0.26294515,0.3625238,0.3377962,0.8686024,0.90038514,0.1136519,-0.41998777,,0.04765422,0.017606515,0.02680552,0.6154394,0.33375078,0.7140341,-0.23702979,-0.7856165,0.57150996,0.7516989,-0.52097696,-0.40439048,,0.08276514,1.2879177,0.42542812,0.99152017,0.10184183,-0.080721565,0.0198849,-0.7327451,-0.6802126,-0.12842242,0.6728394,-0.7285567,,-0.11456855,0.23230946,-0.12624997,0.16953592,-0.94589144,0.2766713,0.8946242,0.26547232,0.35940507,-0.41340673,0.18658477,0.89122444,,-0.055740353,0.43017268,-0.34378996,-0.67652667,-0.1570218,-0.719483,0.32103264,-0.942165,-0.09624506,-0.6627592,-0.2960899,0.6878089,,1.0204819220000267,0.39132632020270436,0.19257424982000002,2.246198674606225,-0.5942321374799004,-0.0922587996969138,-0.4113003585261152,,-1.2191260569908295,0.2434050947298081,0.18210541178000003,-1.3283857919744617,-0.654898743375756,-0.10388494808084324,0.8216206526554246,,-0.07622289175772236,-0.03365431130158066,0.09367255299999999,-0.10990079432573638,,7.171184e-06,2.3841858e-07,3.2186508e-06,0.99999994,-6.482005e-07,-5.9604645e-07,6.4074993e-07,1.0,-1.1920929e-07,5.9604645e-07,8.940697e-08,1.0,603,1.83,0,0,0.0,False,-0.2543373078012081,0.9976137715208093
1.852372377878055,16:47:59.075369,16:46:41.226868,0,,0.11874909,0.001936011,0.024109736,-0.24043034,0.93444467,-0.26269093,0.36260033,0.33750087,0.8686853,0.9003967,0.11360642,-0.4199755,,0.04765129,0.017606873,0.026808143,0.61545,0.33375093,0.71402484,-0.23703241,-0.78560865,0.5715197,0.7516894,-0.5209887,-0.4043931,,0.08276514,1.2879177,0.42542812,0.99152017,0.10184183,-0.080721565,0.0198849,-0.7327451,-0.6802126,-0.12842242,0.6728394,-0.7285567,,-0.11456988,0.23230477,-0.12626114,0.16937591,-0.9459949,0.2764154,0.8946778,0.2652198,0.359458,-0.41335627,0.1864192,0.8912825,,-0.055737864,0.43017542,-0.34379122,-0.6765355,-0.15702134,-0.71947485,0.3210217,-0.9421693,-0.096239455,-0.6627555,-0.29607645,0.6878182,,1.020458753801404,0.3912954292712075,0.1925638795,2.2464083645497093,-0.5942321374799004,-0.09209544221663268,-0.41162704665838373,,-1.2191183342579552,0.24342054019555653,0.18210281920000002,-1.3283857919744617,-0.654898743375756,-0.10388494808084324,0.8216206526554246,,-0.07622289175772236,-0.03365431130158066,0.09367255299999999,-0.10990079432573638,,7.171184e-06,2.3841858e-07,3.2186508e-06,0.99999994,-6.482005e-07,-5.9604645e-07,6.4074993e-07,1.0,-1.1920929e-07,5.9604645e-07,8.940697e-08,1.0,611,1.854,0,0,0.0,False,-0.25481392954937654,0.9976620517215888
1.872380144894123,16:47:59.105815,16:46:41.226868,0,,0.1187506,0.0019202679,0.024098769,-0.24067295,0.934221,-0.2632635,0.36386654,0.33829775,0.8678454,0.8998208,0.113074124,-0.42135102,,0.04764796,0.017608274,0.02681446,0.61541474,0.333773,0.7140449,-0.2369014,-0.78570133,0.57144654,0.7517595,-0.52083486,-0.40446097,,0.08276514,1.2879177,0.42542812,0.99152017,0.10184183,-0.080721565,0.0198849,-0.7327451,-0.6802126,-0.12842242,0.6728394,-0.7285567,,-0.114570335,0.23228575,-0.12626398,0.16963634,-0.9457482,0.27709904,0.895218,0.2654478,0.35794154,-0.41207787,0.18734418,0.8916804,,-0.055735633,0.4301818,-0.34379402,-0.6765271,-0.15705207,-0.71947604,0.3211621,-0.9421112,-0.09634003,-0.662696,-0.29624507,0.6878029,,1.0204355856027814,0.3912490928739621,0.19255739805000002,2.2464083645497093,-0.592865772482246,-0.09304626377331576,-0.4116270466583838,,-1.2191183342579552,0.24344370839417923,0.18209763404,-1.3285954819179464,-0.654898743375756,-0.10363991186042151,0.8224373729860961,,-0.07622289175772236,-0.03365431130158066,0.09367255299999999,-0.10990079432573638,,7.171184e-06,2.3841858e-07,3.2186508e-06,0.99999994,-6.482005e-07,-5.9604645e-07,6.4074993e-07,1.0,-1.1920929e-07,5.9604645e-07,8.940697e-08,1.0,619,1.879,0,0,0.0,False,-0.25588632848275505,0.9966964477059994
1.902770662913099,16:47:59.127345,16:46:41.226868,0,,0.11876927,0.0019128099,0.02408193,-0.2381315,0.93497556,-0.26289555,0.36711553,0.3372513,0.8668838,0.8991771,0.10991928,-0.42355436,,0.047647443,0.017611135,0.026820958,0.6153229,0.33416662,0.71393996,-0.23663414,-0.78562224,0.571666,0.75191885,-0.52070165,-0.40433615,,0.08276514,1.2879177,0.42542812,0.99152017,0.10184183,-0.080721565,0.0198849,-0.7327451,-0.6802126,-0.12842242,0.6728394,-0.7285567,,-0.11458763,0.23226763,-0.12625614,0.1670898,-0.946258,0.27690572,0.89697975,0.2624811,0.3557119,-0.40927777,0.188943,0.8926322,,-0.055736363,0.4301886,-0.34379584,-0.6764925,-0.15746702,-0.7194178,0.3214648,-0.9420334,-0.096090674,-0.6625845,-0.29627213,0.6878987,,1.020458753801404,0.39122592467533945,0.19255350918000003,2.2501827835324306,-0.5901330424869373,-0.0953563005873847,-0.41146370259224946,,-1.2191337797237038,0.24345915385992767,0.18209374517000002,-1.3290148618049153,-0.654898743375756,-0.1036399118604216,0.8227640611183645,,-0.07622289175772236,-0.03365431130158066,0.09367255299999999,-0.10990079432573638,,7.171184e-06,2.3841858e-07,3.2186508e-06,0.99999994,-6.482005e-07,-5.9604645e-07,6.4074993e-07,1.0,-1.1920929e-07,5.9604645e-07,8.940697e-08,1.0,648,1.968,0,0,0.0,False,-0.256541683386486,0.9958274040919692
1.9243520919699222,16:47:59.208735,16:46:41.453189,0,,0.11872587,0.0018551201,0.024020627,-0.24055994,0.93350065,-0.26590878,0.37062034,0.3415362,0.8637091,0.8970905,0.109222576,-0.42813438,,0.047632582,0.017613787,0.02683103,0.61533606,0.33441475,0.7138125,-0.23650151,-0.7855081,0.57187766,0.7519499,-0.5207145,-0.40426192,,0.08276514,1.2879177,0.42542812,0.99152017,0.10184183,-0.080721565,0.0198849,-0.7327451,-0.6802126,-0.12842242,0.6728394,-0.7285567,,-0.11453896,0.23218645,-0.12625302,0.1695978,-0.94481355,0.2802926,0.89824593,0.26520666,0.35045633,-0.40545136,0.19233507,0.8936534,,-0.055723485,0.43020082,-0.34379977,-0.67652655,-0.15772359,-0.7193296,0.3215671,-0.9420199,-0.09588082,-0.66250014,-0.29617867,0.68802017,,1.0205050901986494,0.39088612442887355,0.19255221289000002,2.247876194154101,-0.5858973109942087,-0.09823850442098986,-0.41260711105518943,,-1.2190874433264585,0.2435286584557957,0.18208337485,-1.3292245517483998,-0.654898743375756,-0.10372159060056212,0.8219473407876932,,-0.07622289175772236,-0.03365431130158066,0.09367255299999999,-0.10990079432573638,,7.171184e-06,2.3841858e-07,3.2186508e-06,0.99999994,-6.482005e-07,-5.9604645e-07,6.4074993e-07,1.0,-1.1920929e-07,5.9604645e-07,8.940697e-08,1.0,652,1.981,0,0,0.0,False,-0.25636295023092304,0.9972758101153532
2.005744604859501,16:47:59.236141,16:46:41.453189,0,,0.1187239,0.0018257797,0.02397938,-0.24130231,0.9327138,-0.26798916,0.37372136,0.34416354,0.8613267,0.89560336,0.10768682,-0.43162265,,0.04762192,0.017610807,0.026833892,0.6153368,0.3345927,0.7137285,-0.23634505,-0.78547347,0.57198995,0.7519985,-0.5206525,-0.4042514,,0.08276514,1.2879177,0.42542812,0.99152017,0.10184183,-0.080721565,0.0198849,-0.7327451,-0.6802126,-0.12842242,0.6728394,-0.7285567,,-0.11453354,0.23213702,-0.12624335,0.17038883,-0.9439663,0.2826575,0.8995254,0.26611152,0.34646606,-0.4022707,0.19522364,0.8944641,,-0.055712998,0.43020308,-0.3438037,-0.6765538,-0.15791127,-0.71926284,0.32169977,-0.94198394,-0.09578878,-0.66240793,-0.29619294,0.68810284,,1.0204741992671524,0.39076256070288595,0.19255350918000003,2.2476665042106165,-0.5824813985000726,-0.1011873094936816,-0.41195373479065217,,-1.2190333841963388,0.24354410392154413,0.18207689340000002,-1.3294342416918845,-0.654898743375756,-0.10372159060056209,0.8222740289199618,,-0.07622289175772236,-0.03365431130158066,0.09367255299999999,-0.10990079432573638,,7.171184e-06,2.3841858e-07,3.2186508e-06,0.99999994,-6.482005e-07,-5.9604645e-07,6.4074993e-07,1.0,-1.1920929e-07,5.9604645e-07,8.940697e-08,1.0,664,2.018,0,0,0.0,False,-0.25540970673458663,0.9975654913200298
2.033127776812762,16:47:59.267519,16:46:41.453189,0,,0.118721105,0.0017973483,0.023938075,-0.24188745,0.9315947,-0.2713333,0.37697664,0.3478973,0.8584032,0.89408004,0.10535064,-0.43534148,,0.04760189,0.017604876,0.026837587,0.61532503,0.3344932,0.7137852,-0.23638117,-0.7855346,0.571891,0.75199664,-0.5206241,-0.4042913,,0.08276514,1.2879177,0.42542812,0.99152017,0.10184183,-0.080721565,0.0198849,-0.7327451,-0.6802126,-0.12842242,0.6728394,-0.7285567,,-0.11452732,0.23208828,-0.12623306,0.1710229,-0.94275045,0.28630877,0.90088224,0.26729232,0.34200302,-0.39895162,0.19944012,0.89502025,,-0.055693075,0.4302061,-0.34381032,-0.67653745,-0.15780957,-0.7193005,0.3216785,-0.9419809,-0.09589031,-0.66243494,-0.2962569,0.6880493,,1.020458753801404,0.39063899697689836,0.19255480547,2.2476665042106165,-0.5789288495061712,-0.10563607105245915,-0.4130971432535922,,-1.2189252659360996,0.24358271758591526,0.18206652308000001,-1.3294342416918845,-0.6550353798755215,-0.10361017269686569,0.8222740289199618,,-0.07622289175772236,-0.03365431130158066,0.09367255299999999,-0.10990079432573638,,7.171184e-06,2.3841858e-07,3.2186508e-06,0.99999994,-6.482005e-07,-5.9604645e-07,6.4074993e-07,1.0,-1.1920929e-07,5.9604645e-07,8.940697e-08,1.0,672,2.043,0,0,0.0,False,-0.2555288621716292,0.9978551725247067
2.0645290119573474,16:47:59.290047,16:46:41.579289,0,,0.118712425,0.0017750561,0.023907498,-0.24363601,0.93029,-0.27422976,0.37985167,0.35168898,0.85558605,0.8923867,0.10428491,-0.43905646,,0.04757406,0.017593253,0.026845634,0.61520165,0.33432573,0.71396995,-0.23632488,-0.7857761,0.57158244,0.7521153,-0.52036726,-0.40440133,,0.08276514,1.2879177,0.42542812,0.99152017,0.10184183,-0.080721565,0.0198849,-0.7327451,-0.6802126,-0.12842242,0.6728394,-0.7285567,,-0.114516094,0.23205167,-0.12622653,0.17283608,-0.9414408,0.2895114,0.90191853,0.26939648,0.3375922,-0.39581645,0.20276758,0.89566433,,-0.05566534,0.43021038,-0.34382403,-0.6764395,-0.15764913,-0.71942776,0.32182714,-0.9418988,-0.09619738,-0.6624627,-0.29660308,0.68787336,,1.0204819220000267,0.3905772151139046,0.1925509166,2.246198674606225,-0.5753763005122697,-0.10885965150912841,-0.4121170788567866,,-1.2187708112786153,0.24362133125028637,0.18204837502000001,-1.329643931635369,-0.6553086528750525,-0.1031423006690511,0.8227640611183646,,-0.07622289175772236,-0.03365431130158066,0.09367255299999999,-0.10990079432573638,,7.171184e-06,2.3841858e-07,3.2186508e-06,0.99999994,-6.482005e-07,-5.9604645e-07,6.4074993e-07,1.0,-1.1920929e-07,5.9604645e-07,8.940697e-08,1.0,684,2.08,0,0,0.0,False,-0.25624379479388093,0.9989656171426342
2.0870409519411623,16:47:59.319330,16:46:41.579289,0,,0.11870929,0.0017733574,0.023904845,-0.24366702,0.9301912,-0.27453706,0.38009736,0.35201424,0.8553431,0.89227366,0.10406807,-0.43933767,,0.047548644,0.017589558,0.026851535,0.6152217,0.33462232,0.7138138,-0.23601452,-0.7857422,0.5717572,0.7521964,-0.5202277,-0.40443,,0.08276514,1.2879177,0.42542812,0.99152017,0.10184183,-0.080721565,0.0198849,-0.7327451,-0.6802126,-0.12842242,0.6728394,-0.7285567,,-0.11451274,0.23204881,-0.1262259,0.17287068,-0.9413327,0.28984213,0.9020214,0.26949033,0.3372422,-0.39556676,0.20314454,0.89568925,,-0.055640697,0.4302174,-0.34383017,-0.67650974,-0.15796381,-0.7192927,0.32207504,-0.9418256,-0.09608405,-0.6622705,-0.29666802,0.6880304,,1.0204973674657751,0.39056176964815614,0.1925509166,2.246198674606225,-0.5751030275127388,-0.10924584479680233,-0.41211707885678656,,-1.2186472475526275,0.24367539038040595,0.18203541212000002,-1.330063311522338,-0.6553086528750525,-0.10306062192891062,0.8232540933167674,,-0.07622289175772236,-0.03365431130158066,0.09367255299999999,-0.10990079432573638,,7.171184e-06,2.3841858e-07,3.2186508e-06,0.99999994,-6.482005e-07,-5.9604645e-07,6.4074993e-07,1.0,-1.1920929e-07,5.9604645e-07,8.940697e-08,1.0,688,2.092,0,0,0.0,False,-0.25677999426057063,0.9994966993512082
2.116331970784813,16:47:59.341767,16:46:41.579289,0,,0.11869506,0.001756452,0.023878112,-0.24642283,0.92854846,-0.27762127,0.38167265,0.3562848,0.85286987,0.8908433,0.104206145,-0.4421984,,0.047503844,0.017582227,0.02686441,0.61522394,0.33476883,0.7137431,-0.23575267,-0.7858047,0.57177943,0.7522766,-0.5200392,-0.4045233,,0.08276514,1.2879177,0.42542812,0.99152017,0.10184183,-0.080721565,0.0198849,-0.7327451,-0.6802126,-0.12842242,0.6728394,-0.7285567,,-0.11449635,0.23201913,-0.12621869,0.17569278,-0.9397799,0.29316524,0.9023559,0.27278742,0.33367768,-0.39355534,0.20591462,0.89594275,,-0.0555975,0.43023118,-0.34384325,-0.6765563,-0.1581254,-0.7192134,0.32229593,-0.94174546,-0.09612929,-0.66211545,-0.29683644,0.688107,,1.0205050901986494,0.39051543325091076,0.19255221289000002,2.2432630153974413,-0.5726435705169609,-0.11165976076404077,-0.41293379918745793,,-1.2184310110321492,0.2437835086406451,0.18201078261,-1.330482691409307,-0.6554452893748178,-0.10278584654493318,0.8239074695813043,,-0.07622289175772236,-0.03365431130158066,0.09367255299999999,-0.10990079432573638,,7.171184e-06,2.3841858e-07,3.2186508e-06,0.99999994,-6.482005e-07,-5.9604645e-07,6.4074993e-07,1.0,-1.1920929e-07,5.9604645e-07,8.940697e-08,1.0,717,2.181,0,0,0.0,False,-0.2555288621716292,0.9997381003551054
2.138773021986708,16:47:59.425480,16:46:41.693436,0,,0.11862159,0.0017448887,0.023678005,-0.25509822,0.92541313,-0.28024182,0.38688865,0.3633088,0.8475398,0.8861388,0.10778348,-0.45071134,,0.04741346,0.017599896,0.026896477,0.6153911,0.33542904,0.713289,-0.23502126,-0.78568834,0.57224023,0.75236887,-0.5197896,-0.40467268,,0.08278124,1.2879223,0.42542833,0.9915207,0.10182192,-0.08074004,0.019857958,-0.73274785,-0.6802104,-0.12842242,0.6728394,-0.7285567,,-0.1144224,0.23188162,-0.12607871,0.18459739,-0.9370224,0.296501,0.9034527,0.28055033,0.32413697,-0.38690707,0.20803979,0.8983442,,-0.055529095,0.43028486,-0.343844,-0.6768319,-0.15884683,-0.718795,0.32279262,-0.94160247,-0.09586289,-0.66159165,-0.29690477,0.68858117,,1.0205050901986494,0.390144742072948,0.19265850867,2.2340366578841224,-0.5647186535305654,-0.11175105744746933,-0.4109736703938465,,-1.2179522015939475,0.24410786342136254,0.18194985698000002,-1.3315311411267297,-0.6555819258745833,-0.102429392420815,0.825377566176513,,-0.07622289175772236,-0.03365431130158066,0.09367255299999999,-0.10990079432573638,,2.3201108e-05,-1.3113022e-06,-1.1920929e-06,0.99999994,-2.0436943e-05,-1.887232e-05,2.0436943e-05,1.0,-3.606081e-06,1.8879771e-05,3.5762787e-06,1.0,725,2.207,0,0,0.0,False,-0.25588632848275505,1.0003657429652384
2.22248794301413,16:47:59.453013,16:46:41.693436,0,,0.1185763,0.0017454177,0.023535281,-0.25897342,0.92358714,-0.28270027,0.39011592,0.36776775,0.8441305,0.88359606,0.10832146,-0.4555483,,0.04739005,0.017598584,0.026904643,0.61548835,0.33546782,0.71318686,-0.23500884,-0.7856119,0.5723503,0.75229317,-0.5198801,-0.4046971,,0.08278124,1.2879223,0.42542833,0.9915207,0.10182192,-0.08074004,0.019857958,-0.73274785,-0.6802104,-0.12842242,0.6728394,-0.7285567,,-0.11436713,0.23178709,-0.12597662,0.18858571,-0.9353186,0.29935694,0.90429425,0.28426936,0.31850085,-0.38299778,0.21064205,0.8994124,,-0.05550703,0.43029466,-0.3438497,-0.6769188,-0.1588824,-0.71870536,0.32272378,-0.9416329,-0.09579572,-0.66153634,-0.29678923,0.6886841,,1.020559149328769,0.38986672368947595,0.19275702671000003,2.2300525489579166,-0.5602096490383058,-0.1134675585060777,-0.41326048731972653,,-1.2178518060665826,0.24418509075010478,0.18193689408000002,-1.3315311411267297,-0.6555819258745833,-0.10251107116095556,0.8252142221103786,,-0.07622289175772236,-0.03365431130158066,0.09367255299999999,-0.10990079432573638,,2.3201108e-05,-1.3113022e-06,-1.1920929e-06,0.99999994,-2.0436943e-05,-1.887232e-05,2.0436943e-05,1.0,-3.606081e-06,1.8879771e-05,3.5762787e-06,1.0,733,2.231,0,0,0.0,False,-0.2545756186752919,1.0008968251738122
2.2499717120081186,16:47:59.472427,16:46:41.693436,0,,0.11855723,0.001745984,0.023473978,-0.26086953,0.92278445,-0.28357697,0.39189366,0.36968312,0.84246874,0.8822507,0.1086424,-0.45807254,,0.047385663,0.017600372,0.026906013,0.615507,0.3354668,0.7131712,-0.23501122,-0.7856007,0.5723647,0.75227714,-0.5198977,-0.4047044,,0.08278124,1.2879223,0.42542833,0.9915207,0.10182192,-0.08074004,0.019857958,-0.73274785,-0.6802104,-0.12842242,0.6728394,-0.7285567,,-0.11434375,0.23174667,-0.1259325,0.19054082,-0.9345748,0.30044004,0.9047809,0.2859295,0.31561974,-0.38087493,0.21169396,0.9000666,,-0.055503137,0.43029764,-0.34384912,-0.67693466,-0.1588804,-0.7186908,0.3227065,-0.9416395,-0.09578967,-0.6615285,-0.29676953,0.68870014,,1.02059776299314,0.389766328162111,0.19279721170000003,2.2281653394665555,-0.5577501920425278,-0.11408454219022385,-0.41244376698905516,,-1.217836360600834,0.24420825894872744,0.18193559779000001,-1.3315311411267297,-0.6555819258745833,-0.10251107116095556,0.8252142221103786,,-0.07622289175772236,-0.03365431130158066,0.09367255299999999,-0.10990079432573638,,2.3201108e-05,-1.3113022e-06,-1.1920929e-06,0.99999994,-2.0436943e-05,-1.887232e-05,2.0436943e-05,1.0,-3.606081e-06,1.8879771e-05,3.5762787e-06,1.0,741,2.256,0,0,0.0,False,-0.2551713958605024,1.0007037043706946
2.2694351368118078,16:47:59.510069,16:46:41.796152,0,,0.11848903,0.0017530546,0.02326724,-0.26467073,0.9223879,-0.28133604,0.3960591,0.369972,0.8403914,0.87925327,0.1110013,-0.46324104,,0.047374953,0.017598286,0.02691263,0.6154151,0.3359748,0.71301126,-0.23457885,-0.7855425,0.5726219,0.7524873,-0.5196575,-0.40462214,,0.08278124,1.2879223,0.42542833,0.9915207,0.10182192,-0.08074004,0.019857958,-0.73274785,-0.6802104,-0.12842242,0.6728394,-0.7285567,,-0.114261165,0.23161447,-0.12578039,0.19447102,-0.934352,0.29860917,0.90598786,0.28777894,0.31043398,-0.37598804,0.21016587,0.9024762,,-0.055493243,0.43030342,-0.3438547,-0.676928,-0.15941961,-0.7185777,0.3231489,-0.94151306,-0.095539965,-0.6613194,-0.29688126,0.6888528,,1.0207058812533791,0.38931068692253173,0.19294887763000002,2.224390920483834,-0.5522847320519103,-0.11102681424514887,-0.41211707885678656,,-1.2177900242035886,0.24422370441447588,0.18192652376000001,-1.3321602109571833,-0.6555819258745833,-0.10242939242081492,0.8250508780442445,,-0.07622289175772236,-0.03365431130158066,0.09367255299999999,-0.10990079432573638,,2.3201108e-05,-1.3113022e-06,-1.1920929e-06,0.99999994,-2.0436943e-05,-1.887232e-05,2.0436943e-05,1.0,-3.606081e-06,1.8879771e-05,3.5762787e-06,1.0,753,2.293,0,0,0.0,False,-0.2552309735790237,1.000751984571474
2.307076932862401,16:47:59.538317,16:46:41.796152,0,,0.118448585,0.0017599463,0.023142964,-0.26567027,0.9217939,-0.28233904,0.39830244,0.37164885,0.8385894,0.87793744,0.11033192,-0.46588898,,0.047371924,0.017595425,0.026914656,0.6154261,0.33596984,0.7130042,-0.23457241,-0.78554493,0.5726213,0.75248027,-0.5196572,-0.40463567,,0.08278124,1.2879223,0.42542833,0.9915207,0.10182192,-0.08074004,0.019857958,-0.73274785,-0.6802104,-0.12842242,0.6728394,-0.7285567,,-0.11421213,0.23153687,-0.1256871,0.19552164,-0.9337417,0.2998295,0.9067776,0.28857496,0.3073741,-0.37353128,0.21178041,0.9031187,,-0.055490177,0.4303038,-0.34385812,-0.6769387,-0.15941441,-0.71856874,0.3231454,-0.94151336,-0.095549405,-0.66131014,-0.29688326,0.68886083,,1.0207753858492472,0.38900177760756277,0.19304480309000002,2.2235521607098963,-0.549688638556367,-0.11224528827383484,-0.41162704665838373,,-1.2177745787378402,0.24422370441447588,0.18192263489000002,-1.3321602109571833,-0.6555819258745833,-0.10242939242081492,0.8250508780442445,,-0.07622289175772236,-0.03365431130158066,0.09367255299999999,-0.10990079432573638,,2.3201108e-05,-1.3113022e-06,-1.1920929e-06,0.99999994,-2.0436943e-05,-1.887232e-05,2.0436943e-05,1.0,-3.606081e-06,1.8879771e-05,3.5762787e-06,1.0,782,2.382,0,0,0.0,False,-0.2551713958605024,1.00200726979174
2.3353069159202278,16:47:59.622918,16:46:41.910974,0,,0.11841728,0.001789026,0.022795618,-0.2633571,0.9212744,-0.28617546,0.40791658,0.37516916,0.8323774,0.8742122,0.102476746,-0.47460672,,0.047352225,0.017591164,0.026913881,0.61533755,0.3369378,0.7126238,-0.2339685,-0.785233,0.57329583,0.75274074,-0.5195019,-0.40435052,,0.08278124,1.2879223,0.42542833,0.9915207,0.10182192,-0.08074004,0.019857958,-0.73274785,-0.6802104,-0.12842242,0.6728394,-0.7285567,,-0.114156745,0.2313221,-0.12541643,0.19330908,-0.9327279,0.30438516,0.9110657,0.2857847,0.29713038,-0.3641304,0.21987687,0.90502113,,-0.05547017,0.4303043,-0.3438607,-0.6769639,-0.16042627,-0.7183197,0.3237305,-0.94138324,-0.094848104,-0.66099805,-0.29675075,0.6892174,,1.0207908313149956,0.38833762258037946,0.19330794996000003,2.2281653394665555,-0.5403973565723169,-0.12096520808715927,-0.4119537347906523,,-1.2176355695461043,0.2442314271473501,0.18191356086000002,-1.3329989707311214,-0.6555819258745833,-0.1027561073813772,0.8266843187055872,,-0.07622289175772236,-0.03365431130158066,0.09367255299999999,-0.10990079432573638,,2.3201108e-05,-1.3113022e-06,-1.1920929e-06,0.99999994,-2.0436943e-05,-1.887232e-05,2.0436943e-05,1.0,-3.606081e-06,1.8879771e-05,3.5762787e-06,1.0,790,2.407,0,0,0.0,False,-0.2552309735790237,1.0023452311971963
2.4199242778122425,16:47:59.653763,16:46:41.910974,0,,0.118394285,0.001799807,0.022721887,-0.26453096,0.92104125,-0.28584337,0.4087736,0.37554663,0.83178645,0.8734571,0.10318802,-0.4758411,,0.04734075,0.017588392,0.026915014,0.61534315,0.33711314,0.7125359,-0.233809,-0.78519875,0.5734077,0.75278556,-0.5194398,-0.40434667,,0.08278124,1.2879223,0.42542833,0.9915207,0.10182192,-0.08074004,0.019857958,-0.73274785,-0.6802104,-0.12842242,0.6728394,-0.7285567,,-0.11412876,0.23128083,-0.12535642,0.19451822,-0.9325525,0.3041521,0.91124344,0.28656024,0.29583555,-0.3630401,0.2196112,0.9055235,,-0.055458702,0.4303056,-0.34386337,-0.67699593,-0.16061135,-0.7182482,0.32386124,-0.94134706,-0.094760716,-0.6609012,-0.29676536,0.68930393,,1.0208217222464926,0.3881908906557692,0.19337017188000002,2.2269071998056487,-0.539167628074428,-0.12025271567747525,-0.411790390724518,,-1.217596955881733,0.24424687261309858,0.18191096828000003,-1.3332086606746059,-0.6555819258745833,-0.1027561073813772,0.8266843187055872,,-0.07622289175772236,-0.03365431130158066,0.09367255299999999,-0.10990079432573638,,2.3201108e-05,-1.3113022e-06,-1.1920929e-06,0.99999994,-2.0436943e-05,-1.887232e-05,2.0436943e-05,1.0,-3.606081e-06,1.8879771e-05,3.5762787e-06,1.0,798,2.432,0,0,0.0,False,-0.2552309735790237,1.0015244677839454
2.4507682339753956,16:47:59.680373,16:46:41.910974,0,,0.11835876,0.0017974004,0.022645682,-0.26523137,0.9213214,-0.28428727,0.40932184,0.37455148,0.83196557,0.87298775,0.10429835,-0.47645995,,0.047332153,0.017586067,0.02691245,0.61538434,0.33703864,0.71253556,-0.23378932,-0.7852494,0.5733464,0.752758,-0.5194116,-0.40443423,,0.08278124,1.2879223,0.42542833,0.9915207,0.10182192,-0.08074004,0.019857958,-0.73274785,-0.6802104,-0.12842242,0.6728394,-0.7285567,,-0.11408787,0.2312291,-0.1253042,0.19524042,-0.93289316,0.302641,0.9113634,0.28658056,0.2954459,-0.36235046,0.21813296,0.9061568,,-0.055449616,0.4303038,-0.3438635,-0.67703515,-0.16053554,-0.71822816,0.32384428,-0.94134235,-0.09486548,-0.6608693,-0.29682136,0.68931043,,1.0208603359108637,0.3879283177380456,0.19342980122000003,2.226068440031711,-0.5384844455756008,-0.11819608551145933,-0.41244376698905505,,-1.2175428967516135,0.2442545953459728,0.18190967199000002,-1.3332086606746059,-0.6555819258745833,-0.10267442864123665,0.8268476627717214,,-0.07622289175772236,-0.03365431130158066,0.09367255299999999,-0.10990079432573638,,2.3201108e-05,-1.3113022e-06,-1.1920929e-06,0.99999994,-2.0436943e-05,-1.887232e-05,2.0436943e-05,1.0,-3.606081e-06,1.8879771e-05,3.5762787e-06,1.0,806,2.456,0,0,0.0,False,-0.25540970673458663,1.0015727479847247
2.4773820110131055,16:47:59.710729,16:46:41.910974,0,,0.118325055,0.0017907023,0.022584826,-0.2662572,0.92133504,-0.28328207,0.4105985,0.37430364,0.83144784,0.87207556,0.10506374,-0.47796,,0.047320172,0.017585203,0.026911497,0.6153058,0.337654,0.71231216,-0.23334444,-0.78510463,0.57372576,0.7529603,-0.5192307,-0.40428966,,0.08278124,1.2879223,0.42542833,0.9915207,0.10182192,-0.08074004,0.019857958,-0.73274785,-0.6802104,-0.12842242,0.6728394,-0.7285567,,-0.11404981,0.23118465,-0.12526602,0.19630566,-0.9329568,0.30175424,0.91172916,0.28692383,0.2939808,-0.36085188,0.21740803,0.9069287,,-0.055437595,0.43030477,-0.34386337,-0.67704207,-0.16118312,-0.71807665,0.32428586,-0.9412289,-0.094481505,-0.66064566,-0.29683006,0.68952096,,1.020937563239606,0.38771980395044153,0.19346998621000003,2.225019990314288,-0.5368448075784156,-0.11691938067131846,-0.41244376698905516,,-1.2174733921557455,0.24426231807884702,0.18190707941,-1.3338377305050595,-0.6555819258745833,-0.10275610738137718,0.8270110068378558,,-0.07622289175772236,-0.03365431130158066,0.09367255299999999,-0.10990079432573638,,2.3201108e-05,-1.3113022e-06,-1.1920929e-06,0.99999994,-2.0436943e-05,-1.887232e-05,2.0436943e-05,1.0,-3.606081e-06,1.8879771e-05,3.5762787e-06,1.0,818,2.493,0,0,0.0,False,-0.2555288621716292,1.0021521103940785
2.507737602805719,16:47:59.734483,16:46:42.043041,0,,0.11830953,0.0017967001,0.022565186,-0.26556307,0.9217032,-0.28273538,0.41116226,0.37353477,0.8315151,0.87202156,0.10456954,-0.4781668,,0.04730663,0.017579898,0.026908755,0.61536896,0.33756948,0.7122976,-0.23331192,-0.78516,0.5736633,0.7529187,-0.519202,-0.40440416,,0.08278124,1.2879223,0.42542833,0.9915207,0.10182192,-0.08074004,0.019857958,-0.73274785,-0.6802104,-0.12842242,0.6728394,-0.7285567,,-0.11403303,0.23117653,-0.12524827,0.19560727,-0.9332753,0.3012225,0.9120588,0.2860044,0.2938543,-0.3603979,0.21725257,0.90714645,,-0.05542325,0.43030193,-0.34386557,-0.67710274,-0.16109693,-0.7180388,0.32426187,-0.9412248,-0.09460513,-0.6605953,-0.29689,0.6895435,,1.0210225133012225,0.38764257662169926,0.19348813427000003,2.225858750088226,-0.5364348980791193,-0.11676356194156429,-0.4121170788567866,,-1.217388442094129,0.24427004081172124,0.18190319054,-1.3338377305050595,-0.6555819258745833,-0.10267442864123665,0.8268476627717214,,-0.07622289175772236,-0.03365431130158066,0.09367255299999999,-0.10990079432573638,,2.3201108e-05,-1.3113022e-06,-1.1920929e-06,0.99999994,-2.0436943e-05,-1.887232e-05,2.0436943e-05,1.0,-3.606081e-06,1.8879771e-05,3.5762787e-06,1.0,847,2.582,0,0,0.0,False,-0.25558843989015,1.0008002647722536
2.5314763030037284,16:47:59.825974,16:46:42.043041,0,,0.11829151,0.0018154532,0.022566587,-0.2658387,0.9215534,-0.28296515,0.411097,0.3738706,0.83139634,0.8719684,0.10469118,-0.4782372,,0.04728203,0.01757671,0.026907206,0.6153474,0.33839867,0.7119227,-0.23284689,-0.7848243,0.5743112,0.75308037,-0.51916975,-0.40414453,,0.08278124,1.2879223,0.42542833,0.9915207,0.10182192,-0.08074004,0.019857958,-0.73274785,-0.6802104,-0.12842242,0.6728394,-0.7285567,,-0.1140155,0.2311922,-0.12523709,0.1958871,-0.93314034,0.30145878,0.9119919,0.2863408,0.293734,-0.360415,0.21738926,0.9071069,,-0.055398453,0.43030336,-0.34386677,-0.6771627,-0.16195878,-0.7177883,0.32467374,-0.94114935,-0.09394072,-0.6603315,-0.29666016,0.689895,,1.0211615224929584,0.38767346755319615,0.19349720830000003,2.225439370201257,-0.5362982615793538,-0.11679330110512015,-0.41228042292292083,,-1.217249432902393,0.24430093174321815,0.18189670909000002,-1.334466800335513,-0.6555819258745833,-0.10308282234193944,0.8260309424410501,,-0.07622289175772236,-0.03365431130158066,0.09367255299999999,-0.10990079432573638,,2.3201108e-05,-1.3113022e-06,-1.1920929e-06,0.99999994,-2.0436943e-05,-1.887232e-05,2.0436943e-05,1.0,-3.606081e-06,1.8879771e-05,3.5762787e-06,1.0,855,2.608,0,0,0.0,False,-0.2557075953271921,1.0019107093901811
2.6229388539213687,16:47:59.855925,16:46:42.043041,0,,0.11829047,0.0018102676,0.02256313,-0.26584107,0.92155033,-0.28297254,0.4111241,0.3738817,0.831378,0.8719549,0.10467751,-0.4782648,,0.04727619,0.01757501,0.026909113,0.6152818,0.3387159,0.7118285,-0.23255476,-0.784806,0.5744544,0.75322413,-0.5189904,-0.40410691,,0.08278124,1.2879223,0.42542833,0.9915207,0.10182192,-0.08074004,0.019857958,-0.73274785,-0.6802104,-0.12842242,0.6728394,-0.7285567,,-0.11401413,0.23118612,-0.1252382,0.19588992,-0.9331366,0.30146843,0.9120025,0.2863397,0.2937023,-0.36038676,0.21740665,0.90711397,,-0.055392772,0.4303049,-0.34386918,-0.6771551,-0.16229717,-0.7177191,0.32497466,-0.9410588,-0.09380697,-0.66019124,-0.29676238,0.6899852,,1.02114607702721,0.38764257662169926,0.19349720830000003,2.225439370201257,-0.5362982615793538,-0.11679330110512015,-0.41228042292292083,,-1.217218541970896,0.24430093174321815,0.18189282022000003,-1.334886180222482,-0.6555819258745833,-0.10300114360179885,0.8265209746394531,,-0.07622289175772236,-0.03365431130158066,0.09367255299999999,-0.10990079432573638,,2.3201108e-05,-1.3113022e-06,-1.1920929e-06,0.99999994,-2.0436943e-05,-1.887232e-05,2.0436943e-05,1.0,-3.606081e-06,1.8879771e-05,3.5762787e-06,1.0,863,2.633,0,0,0.0,False,-0.2548735072678969,1.0017658687878426
