AlexandreBanks6/ExpertPlaybackApp/resources/Motions/P_19/PC1/Data_PC1_3.csv
Task Time,PC1 Time,PC2 Time,Gaze Calib,s_T_psm1,Tx,Ty,Tz,R00,R01,R02,R10,R11,R12,R20,R21,R22,s_T_psm3,Tx,Ty,Tz,R00,R01,R02,R10,R11,R12,R20,R21,R22,cart_T_ecm,Tx,Ty,Tz,R00,R01,R02,R10,R11,R12,R20,R21,R22,ecm_T_psm1,Tx,Ty,Tz,R00,R01,R02,R10,R11,R12,R20,R21,R22,ecm_T_psm3,Tx,Ty,Tz,R00,R01,R02,R10,R11,R12,R20,R21,R22,psm1_joints,q1,q2,q3,q4,q5,q6,jaw,psm3_joints,q1,q2,q3,q4,q5,q6,jaw,ecm_joints,q1,q2,q3,q4,ecmi_T_ecm,Tx,Ty,Tz,R00,R01,R02,R10,R11,R12,R20,R21,R22,Sample #,Task Duration (s),Collisions (binary),Collisions (increments),Cumulative Collision Time (s),Clutch Press,MTMR Angle,MTML Angle
""
lci_T_si,,,,,-0.050445605,0.031140205,0.20799266,0.9865919,-0.013161347,0.16267522,0.100886725,-0.734317,-0.67126775,0.12828997,0.67867905,-0.7231434
rci_T_si,,,,,-0.059559833,0.035046782,0.21627636,0.9849687,-0.028336054,0.17039265,0.097400196,-0.72355855,-0.6833566,0.14265269,0.6896812,-0.7099226
ecm_T_lc,,,,,-4.4061628e-05,-0.00034663224,-0.01840835,-0.99912,0.030754527,0.028518902,-0.031987965,-0.99852574,-0.043852776,0.027128186,-0.04472645,0.9986309
ecm_T_rc,,,,,-0.0043358393,0.01870579,-0.007592615,-0.99555075,-0.052743673,-0.078081585,0.04863213,-0.9973746,0.053654674,-0.08070653,0.04961868,0.9955021
cart_T_ecmi,,,,,0.08296387,1.2897631,0.42729735,0.9916556,0.10047608,-0.08076963,0.018945528,-0.7333144,-0.6796257,-0.12751566,0.6724244,-0.7290989
ecmac_T_ecmrep_psm1,,,,,0.022898523,-0.26913688,-0.29720387,0.9902475,0.13300471,0.041468147,-0.1315095,0.99062705,-0.036922794,-0.045990374,0.031109251,0.9984574
ecmac_T_ecmrep_psm3,,,,,0.02078248,-0.4666591,-0.5231304,0.997355,0.0035024614,0.07259993,-0.011652398,0.993624,0.11214125,-0.07174426,-0.1126906,0.99103665
""
0,16:05:39.649504,16:04:21.868864,0,,0.12947237,-0.00354968,0.014229625,0.9977102,-0.039765693,-0.05470718,0.06475459,0.3281959,0.94238746,-0.019520044,-0.94377226,0.3300194,,0.04217335,-0.0325712,0.030154884,0.2113842,-0.15598987,0.9648749,-0.7894428,0.5547958,0.26264364,-0.5762784,-0.8172324,-0.0058700144,,0.0829804,1.2897646,0.42730394,0.99165547,0.10048147,-0.08076462,0.018952828,-0.7333136,-0.6796263,-0.12751566,0.6724244,-0.7290989,,-0.12569381,0.24997638,-0.09207336,-0.98448664,0.14390793,0.10038219,0.032251887,-0.4139408,0.9097323,0.17246999,0.8988568,0.40287787,,-0.052583303,0.42264143,-0.3581286,-0.09773875,0.2581226,-0.9611555,-0.96298885,-0.2682966,0.02587293,-0.25119635,0.9281108,0.27479216,,1.0540680872700292,0.5341968783758578,0.22054170657000002,4.005916680328354,0.1736649912018748,-1.20335409868532,-0.4153839601794722,,-1.2207092172300456,0.14952755391073497,0.16770233359000003,0.25141824223794473,0.21083011913807462,-1.1238835417418311,0.6751010253329761,,-0.07627525163528219,-0.034472434388453,0.0910472212,-0.1089195372335423,,1.5586615e-05,4.9471855e-06,-7.1525574e-06,1.0,5.364418e-06,4.9620867e-06,-5.364418e-06,1.0,9.536743e-07,-4.9471855e-06,-9.536743e-07,1.0,37,0.111,0,0,0.0,False,-0.26148663402373185,0.8468347044865605
0.12395250191912055,16:05:39.679288,16:04:21.939423,0,,0.12985167,-0.0036164,0.014397085,0.99789566,-0.037191562,-0.05311196,0.06243009,0.32992288,0.94194126,-0.017509446,-0.943275,0.33155045,,0.042204197,-0.032553915,0.030180871,0.20945497,-0.15474814,0.96549547,-0.7883178,0.55746204,0.26036716,-0.5785184,-0.8156526,-0.005227551,,0.0829804,1.2897646,0.42730394,0.99165547,0.10048147,-0.08076462,0.018952828,-0.7333136,-0.6796263,-0.12751566,0.6724244,-0.7290989,,-0.1260898,0.25004327,-0.09219612,-0.98502016,0.141444,0.09863478,0.03195762,-0.41235086,0.9104644,0.16945188,0.899978,0.40165374,,-0.052618235,0.4226681,-0.358129,-0.09553443,0.25657448,-0.9617914,-0.96376354,-0.2655954,0.024878154,-0.2490643,0.9293162,0.27265063,,1.0526162134896748,0.5355251884302245,0.22041207757000003,4.0071748199892605,0.17243526270398585,-1.2047200210161286,-0.4139138635842635,,-1.2209177310176496,0.1495121084449865,0.16770103730000002,0.2541442115032435,0.21260639363502531,-1.1250052595293223,0.6737942728039021,,-0.07627525163528219,-0.034472434388453,0.0910472212,-0.1089195372335423,,1.5586615e-05,4.9471855e-06,-7.1525574e-06,1.0,5.364418e-06,4.9620867e-06,-5.364418e-06,1.0,9.536743e-07,-4.9471855e-06,-9.536743e-07,1.0,48,0.143,0,0,0.0,False,-0.2604738128088746,0.8450483370577202
0.15368489804677665,16:05:39.703957,16:04:21.939423,0,,0.13009958,-0.0036520958,0.014494419,0.9980007,-0.034123227,-0.05319742,0.061473243,0.3286417,0.94245195,-0.014676638,-0.943838,0.3300823,,0.042216223,-0.03254131,0.030200183,0.20837525,-0.15473929,0.9657304,-0.78648734,0.5604438,0.2595001,-0.5813925,-0.8136084,-0.0049179047,,0.0829804,1.2897646,0.42730394,0.99165547,0.10048147,-0.08076462,0.018952828,-0.7333136,-0.6796263,-0.12751566,0.6724244,-0.7290989,,-0.12634699,0.25008434,-0.09226223,-0.9854357,0.13834274,0.098882094,0.03322056,-0.41366997,0.9098206,0.16677164,0.89985466,0.40304935,,-0.052633397,0.42268917,-0.35813016,-0.094097815,0.25616553,-0.962042,-0.9647091,-0.26217097,0.024549708,-0.2459307,0.9304008,0.27179495,,1.0517049310105164,0.5363669663135149,0.22034078162,4.006545750158807,0.17079562470680054,-1.2032196486914906,-0.4142405517165322,,-1.2209872356135176,0.14943488111624426,0.16769974101000001,0.25624111093808877,0.21561239662986503,-1.1252511274268484,0.6719974880764249,,-0.07627525163528219,-0.034472434388453,0.0910472212,-0.1089195372335423,,1.5586615e-05,4.9471855e-06,-7.1525574e-06,1.0,5.364418e-06,4.9620867e-06,-5.364418e-06,1.0,9.536743e-07,-4.9471855e-06,-9.536743e-07,1.0,56,0.168,0,0,0.0,False,-0.26136747858668974,0.8450966172584997
0.178408243926242,16:05:39.731652,16:04:21.939423,0,,0.1303953,-0.003700383,0.014695734,0.9981907,-0.027155578,-0.053644244,0.059569903,0.3255982,0.9436298,-0.0081583485,-0.9451182,0.32662675,,0.042224474,-0.032549623,0.030204237,0.20824651,-0.16049717,0.96481806,-0.7850709,0.5609119,0.26275736,-0.58334976,-0.8121691,-0.009193718,,0.0829804,1.2897646,0.42730394,0.99165547,0.10048147,-0.08076462,0.018952828,-0.7333136,-0.6796263,-0.12751566,0.6724244,-0.7290989,,-0.12666136,0.25018802,-0.09240624,-0.98631716,0.13128996,0.0997064,0.03634252,-0.41676366,0.9082881,0.16080311,0.89948374,0.40628976,,-0.05264189,0.42268604,-0.35813865,-0.093724445,0.26162672,-0.9606077,-0.9653309,-0.25998014,0.023378285,-0.24362254,0.92949545,0.27692285,,1.0508708758601002,0.5375099307789001,0.22018393053000002,4.004239160780477,0.1658767107152447,-1.1996169978591222,-0.414077207650398,,-1.2209872356135176,0.14924953552726286,0.16769974101000001,0.25707987071202687,0.21807185362564296,-1.1195788481201712,0.6716707999441563,,-0.07627525163528219,-0.034472434388453,0.0910472212,-0.1089195372335423,,1.5586615e-05,4.9471855e-06,-7.1525574e-06,1.0,5.364418e-06,4.9620867e-06,-5.364418e-06,1.0,9.536743e-07,-4.9471855e-06,-9.536743e-07,1.0,64,0.192,0,0,0.0,False,-0.2611887454311268,0.8449034964553821
0.20610129204578698,16:05:39.762577,16:04:21.939423,0,,0.13057013,-0.0038797855,0.01484786,0.9981517,-0.019571856,-0.057532143,0.060769547,0.32558683,0.94355726,0.00026453286,-0.9453095,0.32617444,,0.04222902,-0.032564823,0.0302006,0.20833202,-0.16192664,0.9645607,-0.78400785,0.5619668,0.2636758,-0.5847472,-0.81115544,-0.009876102,,0.0829804,1.2897646,0.42730394,0.99165547,0.10048147,-0.08076462,0.018952828,-0.7333136,-0.6796263,-0.12751566,0.6724244,-0.7290989,,-0.12686175,0.25016302,-0.09261864,-0.9868878,0.12377103,0.10360091,0.043024596,-0.41691256,0.90792775,0.15556768,0.9004802,0.40612072,,-0.052645348,0.4226732,-0.358148,-0.093634844,0.26285467,-0.9602812,-0.9657672,-0.25834796,0.023453018,-0.24192195,0.92960405,0.2780468,,1.0500986025726777,0.5378574537582402,0.21996615381,3.998158152419426,0.16095779672368885,-1.2003433202542035,-0.41440389578266623,,-1.2209486219491466,0.14904874447253302,0.16770103730000002,0.2574992505989959,0.21998476462235914,-1.118361621607142,0.6706907355473507,,-0.07627525163528219,-0.034472434388453,0.0910472212,-0.1089195372335423,,1.5586615e-05,4.9471855e-06,-7.1525574e-06,1.0,5.364418e-06,4.9620867e-06,-5.364418e-06,1.0,9.536743e-07,-4.9471855e-06,-9.536743e-07,1.0,71,0.214,0,0,0.0,False,-0.26112916771260597,0.8450483370577202
0.2370237798895687,16:05:39.782884,16:04:22.041278,0,,0.1306163,-0.003999926,0.015034467,0.9981644,-0.009859994,-0.05975389,0.05971181,0.3249673,0.94383836,0.010111801,-0.9456738,0.32495955,,0.042225607,-0.03258652,0.030185938,0.20842402,-0.16252331,0.9644405,-0.78418624,0.5615211,0.2640946,-0.5844752,-0.81134474,-0.010414064,,0.0829804,1.2897646,0.42730394,0.99165547,0.10048147,-0.08076462,0.018952828,-0.7333136,-0.6796263,-0.12751566,0.6724244,-0.7290989,,-0.12693258,0.25020486,-0.09282986,-0.98780495,0.11410485,0.10593145,0.04905649,-0.41762325,0.90729505,0.1477662,0.90142715,0.40693274,,-0.052639093,0.42264888,-0.35815626,-0.093760595,0.26348686,-0.96009564,-0.96567947,-0.25868845,0.023311926,-0.24222326,0.9293304,0.27869862,,1.0502221662986653,0.5379810174842278,0.21974189564000002,3.9924965239453436,0.15275960673776243,-1.1997841515429606,-0.41489392798106917,,-1.22086367188753,0.14891745801367123,0.16770233359000003,0.2572895606555114,0.2198481281225937,-1.1177601312626022,0.6716707999441563,,-0.07627525163528219,-0.034472434388453,0.0910472212,-0.1089195372335423,,1.5586615e-05,4.9471855e-06,-7.1525574e-06,1.0,5.364418e-06,4.9620867e-06,-5.364418e-06,1.0,9.536743e-07,-4.9471855e-06,-9.536743e-07,1.0,79,0.237,0,0,0.0,False,-0.2607717014014801,0.8443241340460288
0.2573264860548079,16:05:39.804666,16:04:22.041278,0,,0.13067476,-0.0040893406,0.015176505,0.9979992,0.0011347011,-0.06321532,0.059402227,0.3255857,0.9436447,0.021652758,-0.9455118,0.32486686,,0.04222742,-0.03260908,0.03017497,0.20745838,-0.16337642,0.9645046,-0.7845959,0.56108576,0.263803,-0.58426905,-0.8114746,-0.011782572,,0.0829804,1.2897646,0.42730394,0.99165547,0.10048147,-0.08076462,0.018952828,-0.7333136,-0.6796263,-0.12751566,0.6724244,-0.7290989,,-0.1270095,0.25023815,-0.092986606,-0.9886284,0.10321696,0.10936282,0.05679899,-0.4170764,0.9070949,0.13924024,0.9029914,0.40647095,,-0.05263853,0.4226262,-0.3581671,-0.09282381,0.26436332,-0.95994574,-0.965641,-0.2589414,0.022063607,-0.24273689,0.929011,0.279316,,1.0503380072917787,0.5380814130115927,0.21957208165000003,3.985157375923386,0.14374159775324336,-1.2006801226531933,-0.41375051951812936,,-1.2208096127574104,0.14880161702055786,0.16770103730000002,0.25812832042944944,0.21930158212353193,-1.116661029726692,0.6713441118118877,,-0.07627525163528219,-0.034472434388453,0.0910472212,-0.1089195372335423,,1.5586615e-05,4.9471855e-06,-7.1525574e-06,1.0,5.364418e-06,4.9620867e-06,-5.364418e-06,1.0,9.536743e-07,-4.9471855e-06,-9.536743e-07,1.0,87,0.262,0,0,0.0,False,-0.26112916771260597,0.8437930518374546
0.2791167248506099,16:05:39.824748,16:04:22.041278,0,,0.13070132,-0.0041433573,0.0153927505,0.99791133,0.009900212,-0.06383399,0.057052147,0.32838076,0.94282085,0.030295976,-0.9444935,0.32713008,,0.042234626,-0.032623444,0.030171633,0.20724781,-0.16361687,0.96450907,-0.78465307,0.56102055,0.26377156,-0.58426696,-0.8114712,-0.012112215,,0.0829804,1.2897646,0.42730394,0.99165547,0.10048147,-0.08076462,0.018952828,-0.7333136,-0.6796263,-0.12751566,0.6724244,-0.7290989,,-0.12705813,0.2503483,-0.093176045,-0.98944604,0.09464213,0.109724194,0.0610648,-0.414361,0.9080617,0.13140632,0.9051783,0.40420857,,-0.05264469,0.42261374,-0.3581758,-0.09261418,0.26460254,-0.9599001,-0.96564597,-0.2589462,0.021788407,-0.2427972,0.92894155,0.27949446,,1.0507782030656094,0.5383825995936875,0.21936726783000002,3.9811732669971795,0.1355434077673169,-1.203143067327151,-0.41440389578266623,,-1.2208173354902847,0.14870122149319293,0.16769974101000001,0.25833801037293397,0.21930158212353193,-1.1163343147661298,0.6703640474150822,,-0.07627525163528219,-0.034472434388453,0.0910472212,-0.1089195372335423,,1.5586615e-05,4.9471855e-06,-7.1525574e-06,1.0,5.364418e-06,4.9620867e-06,-5.364418e-06,1.0,9.536743e-07,-4.9471855e-06,-9.536743e-07,1.0,91,0.274,0,0,0.0,False,-0.260652545964438,0.843648211235116
0.29919528984464705,16:05:39.850808,16:04:22.041278,0,,0.13056964,-0.0041416064,0.01574704,0.99704057,0.019784786,-0.074286565,0.06373492,0.32758912,0.9426681,0.04298596,-0.9446131,0.3253587,,0.042252205,-0.032635365,0.030172765,0.20678625,-0.16326118,0.9646684,-0.7844565,0.5615656,0.2631958,-0.58469427,-0.8111658,-0.011947274,,0.0829804,1.2897646,0.42730394,0.99165547,0.10048147,-0.08076462,0.018952828,-0.7333136,-0.6796263,-0.12751566,0.6724244,-0.7290989,,-0.12695676,0.25059426,-0.09344451,-0.98911846,0.0847705,0.120244205,0.07466059,-0.41502756,0.90674025,0.12676948,0.905851,0.40418237,,-0.052661855,0.42260486,-0.3581847,-0.09210065,0.26418802,-0.96006364,-0.9657921,-0.25842154,0.021538373,-0.24241093,0.9292056,0.2789515,,1.052268690510335,0.5388382408332667,0.21907949145000002,3.9671240407837165,0.12953140177763753,-1.2022429378313961,-0.4142405517165323,,-1.2208868400861528,0.14857765776720533,0.16769974101000001,0.2589670802033876,0.21971149162282821,-1.1165868897370783,0.6702007033489475,,-0.07627525163528219,-0.034472434388453,0.0910472212,-0.1089195372335423,,1.5586615e-05,4.9471855e-06,-7.1525574e-06,1.0,5.364418e-06,4.9620867e-06,-5.364418e-06,1.0,9.536743e-07,-4.9471855e-06,-9.536743e-07,1.0,102,0.308,0,0,0.0,False,-0.2612483231496481,0.8431171290265418
0.3252524668350816,16:05:39.874845,16:04:22.041278,0,,0.13042602,-0.004032269,0.015958816,0.99684846,0.023447394,-0.07578446,0.06395945,0.32757846,0.94265664,0.046928175,-0.944533,0.32504636,,0.042257838,-0.032626692,0.03018099,0.20486237,-0.16392279,0.96496665,-0.78358835,0.5633118,0.26204783,-0.5865327,-0.80982053,-0.013046637,,0.0829804,1.2897646,0.42730394,0.99165547,0.10048147,-0.08076462,0.018952828,-0.7333136,-0.6796263,-0.12751566,0.6724244,-0.7290989,,-0.12682322,0.2508197,-0.093538165,-0.9892391,0.08112439,0.121757455,0.07754446,-0.4149841,0.9065181,0.12406813,0.90620476,0.40422773,,-0.052668918,0.4226158,-0.35818258,-0.089953184,0.26458547,-0.96015775,-0.96641546,-0.25621024,0.019936971,-0.24072722,0.9297047,0.27874643,,1.0537282870235631,0.5391780410797326,0.21897060309000002,3.963769001687964,0.12597885278373608,-1.201224683358522,-0.41309714325359226,,-1.2209022855519012,0.1485622123014569,0.16770103730000002,0.26148335952520185,0.22107785662048265,-1.1158224577508098,0.670364047415082,,-0.07627525163528219,-0.034472434388453,0.0910472212,-0.1089195372335423,,1.5586615e-05,4.9471855e-06,-7.1525574e-06,1.0,5.364418e-06,4.9620867e-06,-5.364418e-06,1.0,9.536743e-07,-4.9471855e-06,-9.536743e-07,1.0,110,0.332,0,0,0.0,False,-0.26041423509035333,0.8428757280226447
0.34929489390924573,16:05:39.896731,16:04:22.041278,0,,0.13033807,-0.003746383,0.016361654,0.99597275,0.041746266,-0.07934302,0.061410576,0.32712016,0.9429852,0.06532081,-0.94406015,0.32323903,,0.042249363,-0.032610986,0.030189216,0.20521037,-0.1698947,0.963859,-0.78190404,0.56386507,0.26586097,-0.58865494,-0.80820286,-0.01713042,,0.0829804,1.2897646,0.42730394,0.99165547,0.10048147,-0.08076462,0.018952828,-0.7333136,-0.6796263,-0.12751566,0.6724244,-0.7290989,,-0.12674716,0.25130475,-0.09364166,-0.9901034,0.062870175,0.12546921,0.08839699,-0.41501004,0.90551233,0.1090007,0.907642,0.40534532,,-0.05266228,0.42263305,-0.3581759,-0.09003498,0.2702289,-0.9585771,-0.9670646,-0.25379944,0.019284511,-0.23807509,0.92874223,0.28417963,,1.0563771843994223,0.540328728277992,0.21882152974000002,3.9524457447397996,0.10889929031305604,-1.198405754055586,-0.41375051951812947,,-1.2208559491546558,0.14853904410283422,0.16770362988,0.2619027394121709,0.22381058661579145,-1.1101279780311037,0.6698740152166791,,-0.07627525163528219,-0.034472434388453,0.0910472212,-0.1089195372335423,,1.5586615e-05,4.9471855e-06,-7.1525574e-06,1.0,5.364418e-06,4.9620867e-06,-5.364418e-06,1.0,9.536743e-07,-4.9471855e-06,-9.536743e-07,1.0,118,0.356,0,0,0.0,False,-0.26148663402373185,0.8432619696288803
0.37114786682650447,16:05:39.917410,16:04:22.041278,0,,0.1303471,-0.0035943016,0.016709685,0.9953901,0.05445274,-0.07895081,0.056512445,0.33210534,0.9415479,0.077489845,-0.9416692,0.32749707,,0.042247728,-0.03260896,0.030193985,0.20552081,-0.17256036,0.96331924,-0.7807581,0.56457984,0.2677058,-0.5900661,-0.80713856,-0.018695012,,0.0829804,1.2897646,0.42730394,0.99165547,0.10048147,-0.08076462,0.018952828,-0.7333136,-0.6796263,-0.12751566,0.6724244,-0.7290989,,-0.1267733,0.251655,-0.09378647,-0.9909228,0.050436627,0.12461192,0.093253456,-0.40976694,0.90741104,0.0968286,0.9107948,0.40134403,,-0.052661438,0.42263824,-0.3581774,-0.090168335,0.27268192,-0.95786965,-0.9674909,-0.25216922,0.019287659,-0.23628584,0.9284693,0.28655496,,1.0578367809126508,0.5412786244215216,0.21865430833000002,3.94783256598314,0.09673864183393184,-1.201639837789235,-0.4152206161133377,,-1.220832780956033,0.14846181677409198,0.16770362988,0.26211242935565543,0.22572349761250762,-1.107685570415966,0.669710671150545,,-0.07627525163528219,-0.034472434388453,0.0910472212,-0.1089195372335423,,1.5586615e-05,4.9471855e-06,-7.1525574e-06,1.0,5.364418e-06,4.9620867e-06,-5.364418e-06,1.0,9.536743e-07,-4.9471855e-06,-9.536743e-07,1.0,126,0.381,0,0,0.0,False,-0.26101001227556386,0.8416204428023786
0.39185712998732924,16:05:39.951074,16:04:22.212701,0,,0.13023876,-0.0033615306,0.017231107,0.9943613,0.06767854,-0.08164019,0.054437052,0.3349171,0.94067377,0.091006115,-0.93981385,0.3293443,,0.042260684,-0.032617573,0.030196488,0.20502456,-0.17451586,0.9630727,-0.7806223,0.5644101,0.2684587,-0.5904182,-0.8068367,-0.020513058,,0.0829804,1.2897646,0.42730394,0.99165547,0.10048147,-0.08076462,0.018952828,-0.7333136,-0.6796263,-0.12751566,0.6724244,-0.7290989,,-0.12669101,0.25218347,-0.094013974,-0.99119097,0.037362166,0.12706125,0.10108278,-0.40646675,0.90805674,0.08557314,0.91290134,0.3991095,,-0.05267434,0.42263305,-0.35818478,-0.08962976,0.27457505,-0.9573793,-0.96761173,-0.25177315,0.018379528,-0.23599584,0.92801875,0.28824842,,1.0604161736926416,0.5426146572087625,0.21839375404000003,3.939444968243759,0.0844413568550422,-1.2019854264544083,-0.4134238313858609,,-1.2208868400861528,0.1483768667124755,0.16770233359000003,0.262741499186109,0.22599677061203852,-1.1055397227592825,0.6682405745553364,,-0.07627525163528219,-0.034472434388453,0.0910472212,-0.1089195372335423,,1.5586615e-05,4.9471855e-06,-7.1525574e-06,1.0,5.364418e-06,4.9620867e-06,-5.364418e-06,1.0,9.536743e-07,-4.9471855e-06,-9.536743e-07,1.0,134,0.405,0,0,0.0,False,-0.2620824112089424,0.8405099981844515
0.4255027079489082,16:05:39.968539,16:04:22.212701,0,,0.13012204,-0.003206402,0.017497092,0.99371874,0.07207458,-0.08560434,0.056847084,0.3337907,0.94093156,0.09639117,-0.93988776,0.32759678,,0.04226601,-0.03262708,0.030193448,0.20501298,-0.17471567,0.96303886,-0.7806631,0.56430304,0.2685651,-0.59036833,-0.80686843,-0.020704642,,0.0829804,1.2897646,0.42730394,0.99165547,0.10048147,-0.08076462,0.018952828,-0.7333136,-0.6796263,-0.12751566,0.6724244,-0.7290989,,-0.12658514,0.25247943,-0.09411208,-0.990814,0.03291316,0.1311654,0.106544405,-0.40733775,0.9070415,0.08328222,0.9126843,0.40008923,,-0.052678853,0.42262414,-0.35819,-0.089624435,0.2747807,-0.95732075,-0.9675967,-0.25183648,0.018301608,-0.23605937,0.9279407,0.2884476,,1.0619916111989836,0.5433097031674428,0.21828097681000003,3.9333639598827084,0.08143535386020251,-1.199534232573087,-0.4134238313858609,,-1.2208945628190269,0.14830736211660747,0.16770233359000003,0.262741499186109,0.22599677061203852,-1.1052946865388606,0.6677505423569334,,-0.07627525163528219,-0.034472434388453,0.0910472212,-0.1089195372335423,,1.5586615e-05,4.9471855e-06,-7.1525574e-06,1.0,5.364418e-06,4.9620867e-06,-5.364418e-06,1.0,9.536743e-07,-4.9471855e-06,-9.536743e-07,1.0,145,0.439,0,0,0.0,False,-0.26101001227556386,0.8379028673423603
0.44298833585344255,16:05:40.003662,16:04:22.212701,0,,0.12996462,-0.0030946955,0.017867506,0.99219435,0.08197473,-0.093970075,0.06193195,0.33012766,0.9419024,0.10823431,-0.9403701,0.32247388,,0.042267904,-0.032639716,0.030185878,0.20421161,-0.17578635,0.9630143,-0.7807092,0.5642468,0.26854926,-0.590585,-0.80667514,-0.022012323,,0.0829804,1.2897646,0.42730394,0.99165547,0.10048147,-0.08076462,0.018952828,-0.7333136,-0.6796263,-0.12751566,0.6724244,-0.7290989,,-0.12645096,0.25281614,-0.094319694,-0.9898911,0.022832142,0.13997974,0.11840022,-0.41033226,0.90421724,0.07808342,0.91165024,0.40348092,,-0.052679185,0.42261016,-0.35819516,-0.08879869,0.27581188,-0.95710117,-0.9676834,-0.25157532,0.017282968,-0.23601618,0.9277056,0.28923815,,1.0639531853490365,0.5439661354617518,0.21805542235000003,3.9207825632736366,0.07501343837122681,-1.1942975910993554,-0.41375051951812925,,-1.2208559491546558,0.148222412054991,0.16770362988,0.2635802589600471,0.22599677061203852,-1.1040695054367524,0.6646470051003823,,-0.07627525163528219,-0.034472434388453,0.0910472212,-0.1089195372335423,,1.5586615e-05,4.9471855e-06,-7.1525574e-06,1.0,5.364418e-06,4.9620867e-06,-5.364418e-06,1.0,9.536743e-07,-4.9471855e-06,-9.536743e-07,1.0,153,0.463,0,0,0.0,False,-0.2618441003348577,0.8338956106776654
0.4781128929462284,16:05:40.025921,16:04:22.212701,0,,0.12981567,-0.0030447543,0.01804313,0.9912965,0.086314425,-0.09940227,0.06575721,0.32948205,0.9418692,0.11404817,-0.9402081,0.3209386,,0.042272583,-0.03264204,0.030184567,0.20321405,-0.17729643,0.96294856,-0.7807878,0.5640982,0.2686329,-0.5908251,-0.80644864,-0.023798242,,0.0829804,1.2897646,0.42730394,0.99165547,0.10048147,-0.08076462,0.018952828,-0.7333136,-0.6796263,-0.12751566,0.6724244,-0.7290989,,-0.12631375,0.25297368,-0.09442871,-0.9891858,0.018456956,0.1455019,0.12518214,-0.41069248,0.9031396,0.07642574,0.91158706,0.4039407,,-0.052683536,0.42260706,-0.35819584,-0.08777448,0.27727532,-0.95677274,-0.9677814,-0.2512853,0.01596125,-0.23599729,0.9273479,0.29039836,,1.0651810998760383,0.5440665309891167,0.21793875625000003,3.913443415251678,0.07241734487568344,-1.1929974383305288,-0.4147305839149349,,-1.22086367188753,0.14820696658924257,0.16770492617000002,0.26462870867746974,0.22586013411227307,-1.1023245127302446,0.661053435645428,,-0.07627525163528219,-0.034472434388453,0.0910472212,-0.1089195372335423,,1.5586615e-05,4.9471855e-06,-7.1525574e-06,1.0,5.364418e-06,4.9620867e-06,-5.364418e-06,1.0,9.536743e-07,-4.9471855e-06,-9.536743e-07,1.0,161,0.487,0,0,0.0,False,-0.26106958999408425,0.8313367600363541
0.5003570369444788,16:05:40.053794,16:04:22.212701,0,,0.12951995,-0.002935715,0.018209249,0.99068564,0.0908375,-0.10144146,0.06619958,0.32971275,0.94175744,0.118993424,-0.93970096,0.32062826,,0.042277887,-0.032639686,0.030192375,0.20323935,-0.17820078,0.96277624,-0.78077006,0.5638602,0.26918355,-0.5908399,-0.8064157,-0.024535283,,0.0829804,1.2897646,0.42730394,0.99165547,0.10048147,-0.08076462,0.018952828,-0.7333136,-0.6796263,-0.12751566,0.6724244,-0.7290989,,-0.12602532,0.25316757,-0.09450711,-0.9889571,0.013939214,0.14754489,0.12891644,-0.41018063,0.9028468,0.07310503,0.9118978,0.40385407,,-0.05269002,0.4226139,-0.35819846,-0.08779786,0.27817187,-0.9565103,-0.96778536,-0.2512833,0.015754705,-0.23597254,0.9270799,0.2912728,,1.0672662377520787,0.5437807898727705,0.21785060853000002,3.9088302364950187,0.06749843088412759,-1.1920901859227988,-0.41505727204720366,,-1.2209177310176496,0.148222412054991,0.16770103730000002,0.26462870867746974,0.22586013411227307,-1.101344367848558,0.6584399305872796,,-0.07627525163528219,-0.034472434388453,0.0910472212,-0.1089195372335423,,1.5586615e-05,4.9471855e-06,-7.1525574e-06,1.0,5.364418e-06,4.9620867e-06,-5.364418e-06,1.0,9.536743e-07,-4.9471855e-06,-9.536743e-07,1.0,169,0.512,0,0,0.0,False,-0.2617249448978165,0.8304194362215442
0.5282333639916033,16:05:40.084624,16:04:22.340683,0,,0.12927948,-0.0028580204,0.018336743,0.98890036,0.101593256,-0.108419724,0.06937144,0.32958603,0.94157344,0.13139114,-0.93864363,0.31888008,,0.04228034,-0.032641742,0.030193508,0.20320621,-0.17944634,0.96255183,-0.78085756,0.56340456,0.26988262,-0.59073555,-0.80645794,-0.02563475,,0.0829804,1.2897646,0.42730394,0.99165547,0.10048147,-0.08076462,0.018952828,-0.7333136,-0.6796263,-0.12751566,0.6724244,-0.7290989,,-0.125791,0.25331205,-0.094572924,-0.9879707,0.0031557838,0.154609,0.1397712,-0.4095546,0.9015149,0.06616581,0.91228014,0.40418684,,-0.052692536,0.42261308,-0.35820058,-0.08777784,0.27942377,-0.9561472,-0.9677542,-0.25142732,0.015366461,-0.23610777,0.9266643,0.29248327,,1.06909652544327,0.5433637622975622,0.21777542371000003,3.8972972896033697,0.0587536948991394,-1.1910036668566297,-0.4140772076503978,,-1.2209331764833982,0.1482146893221168,0.16769974101000001,0.26462870867746974,0.22572349761250762,-1.1000077688427532,0.6566431458598027,,-0.07627525163528219,-0.034472434388453,0.0910472212,-0.1089195372335423,,1.5586615e-05,4.9471855e-06,-7.1525574e-06,1.0,5.364418e-06,4.9620867e-06,-5.364418e-06,1.0,9.536743e-07,-4.9471855e-06,-9.536743e-07,1.0,177,0.536,0,0,0.0,False,-0.2620824112089424,0.82993663421375
0.5590694779530168,16:05:40.104302,16:04:22.340683,0,,0.12909302,-0.0027969405,0.01845643,0.98796475,0.10836597,-0.110373884,0.068828054,0.33104038,0.9411031,0.13852176,-0.9373735,0.3195976,,0.042281635,-0.032647435,0.030190885,0.20319489,-0.18014401,0.9624239,-0.7808821,0.5631797,0.27028078,-0.590707,-0.8064595,-0.026236027,,0.0829804,1.2897646,0.42730394,0.99165547,0.10048147,-0.08076462,0.018952828,-0.7333136,-0.6796263,-0.12751566,0.6724244,-0.7290989,,-0.12561098,0.25343907,-0.09463837,-0.9876789,-0.0035650115,0.15645371,0.1443011,-0.40763322,0.901672,0.06056126,0.9131388,0.40312514,,-0.052693263,0.42260745,-0.3582034,-0.0877701,0.28012073,-0.95594394,-0.9677457,-0.25147215,0.015164671,-0.23614533,0.92644167,0.29315737,,1.0705870128879953,0.543078021181216,0.21770023889,3.8920550410162567,0.05192186991086737,-1.1918037134027726,-0.41587399237787503,,-1.2209254537505239,0.14817607565774565,0.16769974101000001,0.26462870867746974,0.22572349761250762,-1.0992726601814882,0.6561531136613998,,-0.07627525163528219,-0.034472434388453,0.0910472212,-0.1089195372335423,,1.5586615e-05,4.9471855e-06,-7.1525574e-06,1.0,5.364418e-06,4.9620867e-06,-5.364418e-06,1.0,9.536743e-07,-4.9471855e-06,-9.536743e-07,1.0,192,0.583,0,0,0.0,False,-0.26101001227556386,0.8303228758199857
0.5787526099011302,16:05:40.140687,16:04:22.340683,0,,0.12870304,-0.0026117861,0.018684685,0.98671997,0.113866664,-0.115835726,0.072192095,0.3314044,0.9407228,0.14550543,-0.93659246,0.3187831,,0.042291123,-0.032647405,0.030194461,0.20321676,-0.18047795,0.96235675,-0.78088176,0.56307787,0.2704937,-0.5906999,-0.80645585,-0.026505113,,0.0829804,1.2897646,0.42730394,0.99165547,0.10048147,-0.08076462,0.018952828,-0.7333136,-0.6796263,-0.12751566,0.6724244,-0.7290989,,-0.12522815,0.25373104,-0.094720006,-0.9867626,-0.0090664355,0.16191806,0.15155718,-0.40683693,0.9008408,0.05770683,0.9134558,0.40282553,,-0.052703165,0.42260888,-0.35820493,-0.0877928,0.2804535,-0.9558443,-0.96774304,-0.2514866,0.015097193,-0.23614797,0.92633706,0.29348564,,1.0733826421884647,0.5428772301264861,0.21761079488,3.883667443276875,0.047002955919311515,-1.1902430310739183,-0.4150572720472038,,-1.2209872356135176,0.1481606301919972,0.16769974101000001,0.26462870867746974,0.22572349761250762,-1.0988642664807853,0.6566431458598027,,-0.07627525163528219,-0.034472434388453,0.0910472212,-0.1089195372335423,,1.5586615e-05,4.9471855e-06,-7.1525574e-06,1.0,5.364418e-06,4.9620867e-06,-5.364418e-06,1.0,9.536743e-07,-4.9471855e-06,-9.536743e-07,1.0,200,0.606,0,0,0.0,False,-0.2612483231496481,0.8295021124067348
0.6150841659400612,16:05:40.170545,16:04:22.340683,0,,0.12843217,-0.0024060756,0.018880278,0.98480403,0.12415519,-0.12143499,0.074837565,0.32759836,0.9418485,0.1567173,-0.93662417,0.3133287,,0.042300977,-0.032663886,0.030187905,0.20280978,-0.18060206,0.9624193,-0.780949,0.5631074,0.2702382,-0.59075105,-0.80640745,-0.026837304,,0.0829804,1.2897646,0.42730394,0.99165547,0.10048147,-0.08076462,0.018952828,-0.7333136,-0.6796263,-0.12751566,0.6724244,-0.7290989,,-0.12495933,0.2540152,-0.094750464,-0.98558843,-0.019582065,0.16802381,0.16121264,-0.4096243,0.89789665,0.051243965,0.9120441,0.40687785,,-0.052711394,0.42259228,-0.35821313,-0.08738081,0.280568,-0.9558484,-0.96776843,-0.25141388,0.014673566,-0.23619664,0.9263221,0.2934936,,1.0758153030438453,0.5428772301264861,0.2175693136,3.8729732561591645,0.03880476593338509,-1.184293065513398,-0.41456723984880073,,-1.220994958346392,0.14803706646600961,0.16770103730000002,0.2650480885644388,0.22572349761250762,-1.0986192302603635,0.6561531136613997,,-0.07627525163528219,-0.034472434388453,0.0910472212,-0.1089195372335423,,1.5586615e-05,4.9471855e-06,-7.1525574e-06,1.0,5.364418e-06,4.9620867e-06,-5.364418e-06,1.0,9.536743e-07,-4.9471855e-06,-9.536743e-07,1.0,208,0.631,0,0,0.0,False,-0.261427056305211,0.8282951073872482
0.6449456568807364,16:05:40.191272,16:04:22.465750,0,,0.12809142,-0.0022022128,0.019101828,0.9832594,0.12776431,-0.12991226,0.08140592,0.32984123,0.94052,0.16301532,-0.9353507,0.31391868,,0.042320438,-0.03268415,0.03018409,0.1995029,-0.18138438,0.96296316,-0.7814642,0.563447,0.2680319,-0.5911956,-0.8059946,-0.029336095,,0.0829804,1.2897646,0.42730394,0.99165547,0.10048147,-0.08076462,0.018952828,-0.7333136,-0.6796263,-0.12751566,0.6724244,-0.7290989,,-0.12462338,0.25431603,-0.09480883,-0.9840668,-0.023098702,0.17629255,0.17031427,-0.40712655,0.8973522,0.05104571,0.9130796,0.40457374,,-0.052729413,0.42257413,-0.3582254,-0.0840298,0.28126878,-0.9559429,-0.96797884,-0.2507774,0.0113011105,-0.23655024,0.9262821,0.293335,,1.0783792503580878,0.5429312892566057,0.21750320281000002,3.862488758984939,0.036891854936668925,-1.185020219585584,-0.4148939279810693,,-1.221033572010763,0.1479289482057705,0.16769974101000001,0.2684031276601912,0.22490367861391497,-1.0971339354367793,0.654519673000057,,-0.07627525163528219,-0.034472434388453,0.0910472212,-0.1089195372335423,,1.5586615e-05,4.9471855e-06,-7.1525574e-06,1.0,5.364418e-06,4.9620867e-06,-5.364418e-06,1.0,9.536743e-07,-4.9471855e-06,-9.536743e-07,1.0,216,0.655,0,0,0.0,False,-0.26136747858668974,0.8269432617654235
0.6656514259520918,16:05:40.219606,16:04:22.465750,0,,0.12797476,-0.002128698,0.019180685,0.9829196,0.12831295,-0.13192704,0.08308572,0.3302488,0.94023,0.16421244,-0.9351318,0.313947,,0.04232722,-0.032686863,0.030184567,0.19943942,-0.18229753,0.9628039,-0.78163785,0.5629799,0.26850665,-0.5909874,-0.806115,-0.030210271,,0.0829804,1.2897646,0.42730394,0.99165547,0.10048147,-0.08076462,0.018952828,-0.7333136,-0.6796263,-0.12751566,0.6724244,-0.7290989,,-0.124508336,0.25442377,-0.09482841,-0.983698,-0.0236302,0.17826913,0.17235641,-0.40668118,0.8971642,0.051298533,0.9132645,0.4041243,,-0.052736092,0.42257187,-0.35822737,-0.08399251,0.28220418,-0.9556705,-0.9679163,-0.25103444,0.0109397005,-0.23681898,0.92592794,0.29423505,,1.0792596419057494,0.5429776256538511,0.21748116588000002,3.8599724796631243,0.036618581937138045,-1.1848790625183314,-0.414730583914935,,-1.221072185675134,0.14791350274002205,0.16769974101000001,0.2684031276601912,0.2246304056143841,-1.096094312227981,0.6548463611323257,,-0.07627525163528219,-0.034472434388453,0.0910472212,-0.1089195372335423,,1.5586615e-05,4.9471855e-06,-7.1525574e-06,1.0,5.364418e-06,4.9620867e-06,-5.364418e-06,1.0,9.536743e-07,-4.9471855e-06,-9.536743e-07,1.0,224,0.68,0,0,0.0,False,-0.2611887454311268,0.8263156191552907
0.694055441999808,16:05:40.247148,16:04:22.465750,0,,0.12766996,-0.0018981844,0.019394785,0.9813928,0.13508269,-0.13645753,0.085691735,0.32784992,0.9408355,0.17182818,-0.9350225,0.3101741,,0.04234106,-0.032686327,0.030188441,0.1998564,-0.18359819,0.9624703,-0.78164476,0.56244797,0.26959914,-0.59083736,-0.8061911,-0.031099752,,0.0829804,1.2897646,0.42730394,0.99165547,0.10048147,-0.08076462,0.018952828,-0.7333136,-0.6796263,-0.12751566,0.6724244,-0.7290989,,-0.124205396,0.2547387,-0.09485901,-0.98261344,-0.030552004,0.18313213,0.17950061,-0.40834907,0.89500314,0.047437698,0.9123144,0.4067334,,-0.052750375,0.42257336,-0.35822842,-0.08442676,0.28351805,-0.95524323,-0.9678615,-0.25124437,0.010972177,-0.23688868,0.9254695,0.29561797,,1.0818467574186146,0.5430625757154676,0.21744227718000003,3.8515848819237437,0.031153121946520423,-1.1802589888901935,-0.41505727204720366,,-1.2211648584696249,0.14789033454139935,0.16770103730000002,0.26798374777322215,0.2246304056143841,-1.0947057736455912,0.6523962001403112,,-0.07627525163528219,-0.034472434388453,0.0910472212,-0.1089195372335423,,1.5586615e-05,4.9471855e-06,-7.1525574e-06,1.0,5.364418e-06,4.9620867e-06,-5.364418e-06,1.0,9.536743e-07,-4.9471855e-06,-9.536743e-07,1.0,239,0.726,0,0,0.0,False,-0.26249945523859,0.8235153675100819
0.7215928758960217,16:05:40.287794,16:04:22.465750,0,,0.1273129,-0.0016222522,0.01964289,0.97767603,0.14902222,-0.1481278,0.09272839,0.3266023,0.9406022,0.18854949,-0.93333983,0.30549264,,0.042360827,-0.03268421,0.030197918,0.20001565,-0.18385026,0.96238905,-0.7813918,0.56266147,0.26988676,-0.591118,-0.8059846,-0.03111802,,0.0829804,1.2897646,0.42730394,0.99165547,0.10048147,-0.08076462,0.018952828,-0.7333136,-0.6796263,-0.12751566,0.6724244,-0.7290989,,-0.12384983,0.25511003,-0.09488892,-0.9797673,-0.044638038,0.19509846,0.19613837,-0.40810606,0.89161605,0.039820872,0.9118426,0.40860423,,-0.052771386,0.4225793,-0.35823125,-0.08455043,0.28372958,-0.9551695,-0.96794415,-0.25091812,0.011146924,-0.23650661,0.9254932,0.29584962,,1.0850053551641725,0.5430548529825933,0.21740338848000001,3.83334185684059,0.02131529396340871,-1.1759941218705172,-0.41505727204720366,,-1.2212961449284867,0.14785172087702825,0.16770103730000002,0.26798374777322215,0.22504031511368042,-1.0943865974355562,0.6497826950821629,,-0.07627525163528219,-0.034472434388453,0.0910472212,-0.1089195372335423,,1.5586615e-05,4.9471855e-06,-7.1525574e-06,1.0,5.364418e-06,4.9620867e-06,-5.364418e-06,1.0,9.536743e-07,-4.9471855e-06,-9.536743e-07,1.0,243,0.737,0,0,0.0,False,-0.26160578946077395,0.8226463238960515
0.7622439358383417,16:05:40.311454,16:04:22.465750,0,,0.1270736,-0.0014005601,0.019818664,0.97553855,0.15910462,-0.1516911,0.092472985,0.32900763,0.9397886,0.19943222,-0.9308274,0.30624673,,0.04238732,-0.03267822,0.030209482,0.20008957,-0.18392539,0.9623593,-0.7813674,0.56264544,0.26999086,-0.5911253,-0.80597866,-0.031133845,,0.0829804,1.2897646,0.42730394,0.99165547,0.10048147,-0.08076462,0.018952828,-0.7333136,-0.6796263,-0.12751566,0.6724244,-0.7290989,,-0.123609476,0.25539201,-0.094890565,-0.9785722,-0.054676272,0.19851196,0.20346797,-0.40464285,0.891552,0.031579707,0.9128388,0.4070971,,-0.052799482,0.4225883,-0.35823187,-0.08462319,0.28380346,-0.95514107,-0.9679448,-0.25091314,0.011203109,-0.23647799,0.92547184,0.29593915,,1.0873376204921883,0.5430548529825933,0.21739561074000002,3.824954259101209,0.011614102480062437,-1.176087967241846,-0.41375051951812936,,-1.221481490517468,0.14784399814415403,0.16770233359000003,0.26798374777322215,0.22504031511368042,-1.0941415612151344,0.6492926628837602,,-0.07627525163528219,-0.034472434388453,0.0910472212,-0.1089195372335423,,1.5586615e-05,4.9471855e-06,-7.1525574e-06,1.0,5.364418e-06,4.9620867e-06,-5.364418e-06,1.0,9.536743e-07,-4.9471855e-06,-9.536743e-07,1.0,255,0.774,0,0,0.0,False,-0.26148663402373185,0.8227911644983901
0.7858787740115076,16:05:40.347135,16:04:22.465750,0,,0.1268684,-0.0011980459,0.019988924,0.97322285,0.17035405,-0.15432656,0.091981724,0.32666695,0.94065297,0.21065745,-0.9296602,0.30225024,,0.042420924,-0.032668892,0.030222714,0.1996412,-0.18372731,0.96249026,-0.7812402,0.5630455,0.26952434,-0.5914448,-0.8057445,-0.031128094,,0.0829804,1.2897646,0.42730394,0.99165547,0.10048147,-0.08076462,0.018952828,-0.7333136,-0.6796263,-0.12751566,0.6724244,-0.7290989,,-0.12340401,0.2556563,-0.094897486,-0.977247,-0.06613219,0.20153122,0.21086352,-0.40554354,0.88942176,0.022910276,0.9116803,0.41026106,,-0.052834965,0.42259973,-0.3582304,-0.08413653,0.28355995,-0.9552564,-0.9680522,-0.25051162,0.010901254,-0.23621167,0.9256553,0.295578,,1.0894613720326,0.543078021181216,0.21738394413000003,3.816566661361828,0.0016396379971852853,-1.1711399311374893,-0.41489392798106917,,-1.2217054497708206,0.14783627541127978,0.16770622246000003,0.26861281760367567,0.22517695161344586,-1.0940896216385496,0.6486392866192229,,-0.07627525163528219,-0.034472434388453,0.0910472212,-0.1089195372335423,,1.5586615e-05,4.9471855e-06,-7.1525574e-06,1.0,5.364418e-06,4.9620867e-06,-5.364418e-06,1.0,9.536743e-07,-4.9471855e-06,-9.536743e-07,1.0,263,0.799,0,0,0.0,False,-0.260652545964438,0.8178183038181057
0.8215797620359808,16:05:40.362113,16:04:22.465750,0,,0.12675257,-0.0010967553,0.020086199,0.9714889,0.17671844,-0.15805,0.09353494,0.32688183,0.9404251,0.21785414,-0.92839587,0.3010327,,0.04245269,-0.03266916,0.030225158,0.19624017,-0.184897,0.96296555,-0.78158593,0.56353974,0.2674814,-0.59212595,-0.8051311,-0.03392376,,0.0829804,1.2897646,0.42730394,0.99165547,0.10048147,-0.08076462,0.018952828,-0.7333136,-0.6796263,-0.12751566,0.6724244,-0.7290989,,-0.12328916,0.25579688,-0.09491118,-0.9760039,-0.07254362,0.20531411,0.21695694,-0.40452248,0.88842064,0.018604921,0.9116463,0.41055435,,-0.05286672,0.4225971,-0.35823002,-0.08066267,0.28460875,-0.9552442,-0.96832806,-0.24957134,0.007409348,-0.2362928,0.92558736,0.29572573,,1.0906043364979852,0.543078021181216,0.21736838865000002,3.809856583170323,-0.0034159124941360113,-1.169957903345782,-0.4135871754519952,,-1.2218521816954309,0.1478131072126571,0.16771270391,0.2721775466429126,0.22449376911461866,-1.092143993537678,0.6461891256272086,,-0.07627525163528219,-0.034472434388453,0.0910472212,-0.1089195372335423,,1.5586615e-05,4.9471855e-06,-7.1525574e-06,1.0,5.364418e-06,4.9620867e-06,-5.364418e-06,1.0,9.536743e-07,-4.9471855e-06,-9.536743e-07,1.0,271,0.823,0,0,0.0,False,-0.26148663402373185,0.8151628927752355
0.8365078410133719,16:05:40.387199,16:04:22.465750,0,,0.12669647,-0.0010139719,0.020186007,0.9694922,0.18544005,-0.16030204,0.09267394,0.32813394,0.9400743,0.22692795,-0.9262506,0.3009378,,0.042471576,-0.032671187,0.03023082,0.19662851,-0.18672058,0.9625345,-0.7816838,0.56275153,0.2688513,-0.5918678,-0.80526155,-0.035303473,,0.0829804,1.2897646,0.42730394,0.99165547,0.10048147,-0.08076462,0.018952828,-0.7333136,-0.6796263,-0.12751566,0.6724244,-0.7290989,,-0.123235285,0.25592571,-0.094932556,-0.9748449,-0.08128938,0.20753191,0.22259957,-0.40214553,0.88810384,0.011264624,0.91196,0.4101245,,-0.052886166,0.42259768,-0.35823384,-0.08108178,0.28645575,-0.9546564,-0.9682419,-0.2499102,0.0072471723,-0.23650238,0.9249259,0.29762164,,1.0915310644428922,0.5431166348455871,0.21734505543000002,3.8037755748092716,-0.011340829480531557,-1.1697032491820722,-0.4148939279810695,,-1.2219757454214184,0.147774493548286,0.16771270391,0.27175816675594355,0.2243571326148532,-1.0901539646107488,0.642758900238389,,-0.07627525163528219,-0.034472434388453,0.0910472212,-0.1089195372335423,,1.5586615e-05,4.9471855e-06,-7.1525574e-06,1.0,5.364418e-06,4.9620867e-06,-5.364418e-06,1.0,9.536743e-07,-4.9471855e-06,-9.536743e-07,1.0,282,0.857,0,0,0.0,False,-0.2620824112089424,0.813183404543278
0.8616486960090697,16:05:40.421139,16:04:22.668061,0,,0.12669575,-0.00092547387,0.020394623,0.9662434,0.20134622,-0.16072762,0.08704011,0.33205947,0.939234,0.24248235,-0.92151845,0.303325,,0.042525746,-0.03267092,0.030251622,0.19466761,-0.18619217,0.9630352,-0.781547,0.5638261,0.2669912,-0.5926961,-0.804632,-0.03575927,,0.0829804,1.2897646,0.42730394,0.99165547,0.10048147,-0.08076462,0.018952828,-0.7333136,-0.6796263,-0.12751566,0.6724244,-0.7290989,,-0.12324509,0.25613376,-0.095021866,-0.97335553,-0.097179815,0.20768982,0.22926351,-0.39605674,0.8891441,-0.004149915,0.91306907,0.4077838,,-0.052942812,0.42260656,-0.35824275,-0.07902478,0.28580526,-0.95502377,-0.9685303,-0.2488309,0.005675999,-0.2360172,0.925418,0.29647487,,1.0927049198397742,0.5433483168318138,0.21725301884000003,3.7966461167307974,-0.02732729995308809,-1.171206170194611,-0.4152206161133377,,-1.22230782293501,0.1476818207537953,0.16771270391,0.27406475613427334,0.22449376911461866,-1.090102025034164,0.6385119545188975,,-0.07627525163528219,-0.034472434388453,0.0910472212,-0.1089195372335423,,1.5586615e-05,4.9471855e-06,-7.1525574e-06,1.0,5.364418e-06,4.9620867e-06,-5.364418e-06,1.0,9.536743e-07,-4.9471855e-06,-9.536743e-07,1.0,290,0.881,0,0,0.0,False,-0.2617249448978165,0.8107693945043049
0.895577689865604,16:05:40.450112,16:04:22.668061,0,,0.12672293,-0.00094046444,0.02048178,0.9649589,0.20734611,-0.16081601,0.085652575,0.33040032,0.9399464,0.24802789,-0.92078406,0.30106303,,0.042531084,-0.03266508,0.030236244,0.19455326,-0.18595102,0.9631049,-0.7814398,0.56408155,0.26676553,-0.59287506,-0.8045087,-0.03556566,,0.082988605,1.289765,0.4272922,0.9916561,0.1004554,-0.080788784,0.018917577,-0.7333172,-0.6796234,-0.12751566,0.6724244,-0.7290989,,-0.1232858,0.25619307,-0.095097505,-0.9726449,-0.103319705,0.20805489,0.23211406,-0.39675027,0.8880947,-0.009211853,0.91209334,0.40987912,,-0.05295323,0.42260453,-0.35823667,-0.07891926,0.28555605,-0.95510703,-0.9685859,-0.24861372,0.005702956,-0.2358242,0.9255533,0.296206,,1.0929597700246236,0.5434409896263045,0.21717653773,3.793710457522015,-0.03251948694417483,-1.1686058646569584,-0.4145672398488006,,-1.2224313866609977,0.14765865255517263,0.16771270391,0.27427444607775786,0.2246304056143841,-1.0902134429378605,0.6381852663866291,,-0.07627525163528219,-0.034472434388453,0.0910472212,-0.1089195372335423,,2.5220215e-05,-2.3245811e-06,4.7683716e-07,1.0,-2.0556152e-05,-1.8946826e-05,2.0548701e-05,1.0,-3.5762787e-06,1.8961728e-05,3.5762787e-06,1.0,298,0.905,0,0,0.0,False,-0.26154621174225356,0.8093692686817007
0.9245193768292665,16:05:40.470661,16:04:22.668061,0,,0.12672965,-0.0009762794,0.020573959,0.96349305,0.21095979,-0.16485453,0.08848831,0.33022216,0.9397464,0.2526873,-0.9200268,0.29949933,,0.04254354,-0.032670863,0.030236602,0.19442181,-0.18684316,0.96295875,-0.78178793,0.5634109,0.26716214,-0.59245884,-0.8047719,-0.036532372,,0.082988605,1.289765,0.4272922,0.9916561,0.1004554,-0.080788784,0.018917577,-0.7333172,-0.6796234,-0.12751566,0.6724244,-0.7290989,,-0.12330296,0.25623077,-0.09518755,-0.9713561,-0.1069868,0.21218184,0.23738371,-0.3963605,0.88687503,-0.010783418,0.91184,0.41040412,,-0.052965414,0.42259955,-0.3582406,-0.0788402,0.2864985,-0.9548313,-0.9684611,-0.24911003,0.005219798,-0.23636259,0.9251285,0.2971025,,1.0930601655519887,0.5435568306194178,0.21708579743000003,3.7882585189914173,-0.034159124941360114,-1.1677589222534446,-0.41554730424560626,,-1.2225008912568656,0.14762776162367572,0.16771270391,0.27427444607775786,0.22408385961532232,-1.0891143414019502,0.6372052019898233,,-0.07627525163528219,-0.034472434388453,0.0910472212,-0.1089195372335423,,2.5220215e-05,-2.3245811e-06,4.7683716e-07,1.0,-2.0556152e-05,-1.8946826e-05,2.0548701e-05,1.0,-3.5762787e-06,1.8961728e-05,3.5762787e-06,1.0,306,0.93,0,0,0.0,False,-0.260652545964438,0.8077277418551989
0.9451093769166619,16:05:40.501128,16:04:22.668061,0,,0.12680243,-0.0010538921,0.020785555,0.96129495,0.21996626,-0.1659118,0.08736147,0.32775697,0.94071424,0.26130414,-0.9187983,0.29585457,,0.042549096,-0.03267757,0.030234218,0.19392212,-0.18968907,0.962503,-0.7820494,0.5624529,0.26841253,-0.5922775,-0.8047762,-0.039274186,,0.082988605,1.289765,0.4272922,0.9916561,0.1004554,-0.080788784,0.018917577,-0.7333172,-0.6796234,-0.12751566,0.6724244,-0.7290989,,-0.12339899,0.2563206,-0.095384546,-0.9699797,-0.11622934,0.213612,0.24251871,-0.3973061,0.8850607,-0.01800067,0.9102959,0.41356668,,-0.052970324,0.42259276,-0.358244,-0.07836499,0.2893425,-0.9540125,-0.96841407,-0.2493165,0.003932759,-0.23671314,0.9241873,0.29974103,,1.0931682838122279,0.5438966308658838,0.21688746506000003,3.783016270404304,-0.04126422292916302,-1.1638438022844637,-0.4127704551213238,,-1.2225163367226142,0.14759687069217883,0.16771270391,0.2746938259647269,0.223673950116026,-1.0860030105260816,0.6339383206671375,,-0.07627525163528219,-0.034472434388453,0.0910472212,-0.1089195372335423,,2.5220215e-05,-2.3245811e-06,4.7683716e-07,1.0,-2.0556152e-05,-1.8946826e-05,2.0548701e-05,1.0,-3.5762787e-06,1.8961728e-05,3.5762787e-06,1.0,314,0.954,0,0,0.0,False,-0.26095043455704303,0.8057965338240205
0.9755551258567721,16:05:40.520282,16:04:22.668061,0,,0.12688518,-0.0011180192,0.020984516,0.9590868,0.22765505,-0.16830254,0.08698724,0.3287578,0.9403997,0.26941752,-0.91656506,0.2955042,,0.042554535,-0.032682158,0.03023231,0.19314821,-0.19097595,0.9624042,-0.78205097,0.56238514,0.26855013,-0.5925284,-0.80451924,-0.040729254,,0.082988605,1.289765,0.4272922,0.9916561,0.1004554,-0.080788784,0.018917577,-0.7333172,-0.6796234,-0.12751566,0.6724244,-0.7290989,,-0.123502806,0.25641143,-0.09556206,-0.9684924,-0.12397597,0.21599175,0.24785075,-0.39504895,0.8845939,-0.024341071,0.91025615,0.41332942,,-0.05297526,0.42258766,-0.35824606,-0.07756269,0.29057822,-0.95370245,-0.96850336,-0.24898355,0.0029050296,-0.23661207,0.92388934,0.3007378,,1.0932146202094732,0.5442982129753434,0.21670857704000002,3.777564331873706,-0.04741286541860784,-1.1636490422864179,-0.4155473042456064,,-1.2225240594554883,0.1475582570278077,0.16771400020000002,0.275532585738665,0.223673950116026,-1.0844511144634112,0.6326315681380635,,-0.07627525163528219,-0.034472434388453,0.0910472212,-0.1089195372335423,,2.5220215e-05,-2.3245811e-06,4.7683716e-07,1.0,-2.0556152e-05,-1.8946826e-05,2.0548701e-05,1.0,-3.5762787e-06,1.8961728e-05,3.5762787e-06,1.0,338,1.028,0,0,0.0,False,-0.2617249448978165,0.8065207368357123
0.9947317328769714,16:05:40.593680,16:04:22.816556,0,,0.1272626,-0.0012240037,0.02206929,0.94790316,0.26422948,-0.17793879,0.082778126,0.33508047,0.9385461,0.3076154,-0.90438044,0.29575148,,0.0425793,-0.032715686,0.030222893,0.19185212,-0.19846812,0.9611467,-0.7824048,0.5602943,0.2718696,-0.5924824,-0.80416465,-0.047788814,,0.082988605,1.289765,0.4272922,0.9916561,0.1004554,-0.080788784,0.018917577,-0.7333172,-0.6796234,-0.12751566,0.6724244,-0.7290989,,-0.12397659,0.25708312,-0.09637126,-0.96089935,-0.16083378,0.2253994,0.2711842,-0.3821039,0.88343406,-0.055960055,0.910016,0.41077894,,-0.052997272,0.4225563,-0.35826492,-0.07627725,0.29799712,-0.9515143,-0.96850926,-0.2489773,-0.00033556615,-0.23700547,0.9215248,0.30760425,,1.0943730301406067,0.5469857240155735,0.21589450692000003,3.7528209185425325,-0.07788280486630106,-1.1629797568437223,-0.415383960179472,,-1.222578118585608,0.14732657504158098,0.16771400020000002,0.27679072539957217,0.2232640406167297,-1.0763573804389686,0.6326315681380635,,-0.07627525163528219,-0.034472434388453,0.0910472212,-0.1089195372335423,,2.5220215e-05,-2.3245811e-06,4.7683716e-07,1.0,-2.0556152e-05,-1.8946826e-05,2.0548701e-05,1.0,-3.5762787e-06,1.8961728e-05,3.5762787e-06,1.0,346,1.053,0,0,0.0,False,-0.26011634649774784,0.8059896546271386
1.0680381988640875,16:05:40.619078,16:04:22.816556,0,,0.12735164,-0.0012117922,0.022435352,0.9441747,0.27514946,-0.18118191,0.08212748,0.3360161,0.93826866,0.31904423,-0.90076965,0.29466063,,0.042596288,-0.032731898,0.030220628,0.19165702,-0.20084578,0.96069163,-0.7824683,0.5596089,0.2730956,-0.5924617,-0.8040516,-0.049902484,,0.082988605,1.289765,0.4272922,0.9916561,0.1004554,-0.080788784,0.018917577,-0.7333172,-0.6796234,-0.12751566,0.6724244,-0.7290989,,-0.12409464,0.25734454,-0.096615806,-0.9582001,-0.17191046,0.22869064,0.27860644,-0.37894657,0.88248396,-0.0650467,0.9093109,0.41100198,,-0.053013206,0.42254224,-0.35827515,-0.07608549,0.30035207,-0.950789,-0.9685058,-0.24898833,-0.0011515896,-0.23708124,0.920757,0.30983713,,1.0950140169691676,0.5479510656248516,0.21564950811000003,3.744643010746636,-0.08662754085128925,-1.161321486596569,-0.4134238313858609,,-1.2226399004486017,0.14719528858271916,0.16771400020000002,0.2770004153430567,0.2232640406167297,-1.0737436607544706,0.6323048800057949,,-0.07627525163528219,-0.034472434388453,0.0910472212,-0.1089195372335423,,2.5220215e-05,-2.3245811e-06,4.7683716e-07,1.0,-2.0556152e-05,-1.8946826e-05,2.0548701e-05,1.0,-3.5762787e-06,1.8961728e-05,3.5762787e-06,1.0,354,1.077,0,0,0.0,False,-0.26112916771260597,0.8060862150286972
1.0935249219182879,16:05:40.644136,16:04:22.816556,0,,0.12749188,-0.0011448935,0.023019776,0.9381063,0.2936128,-0.1837062,0.07797116,0.33776,0.93799716,0.3374566,-0.89426494,0.29396147,,0.04264886,-0.0327586,0.030225992,0.19070849,-0.203618,0.9602967,-0.78263307,0.55896235,0.27394614,-0.59255004,-0.803804,-0.05275938,,0.082988605,1.289765,0.4272922,0.9916561,0.1004554,-0.080788784,0.018917577,-0.7333172,-0.6796234,-0.12751566,0.6724244,-0.7290989,,-0.1242775,0.2577962,-0.09697393,-0.9540331,-0.19065951,0.23123552,0.28831524,-0.37321517,0.8818077,-0.081824414,0.9079424,0.41102967,,-0.053065103,0.42252266,-0.35829586,-0.07512956,0.3030758,-0.95000035,-0.96854645,-0.24881735,-0.002783211,-0.2372201,0.9199103,0.31223652,,1.0962496542290434,0.5495265031311934,0.21529432465000004,3.7335294437419564,-0.10288728432337665,-1.1587626710151084,-0.41195373479065234,,-1.222894750633451,0.14694816113074397,0.16771400020000002,0.27804886506047927,0.22312740411696425,-1.0703650932451516,0.6321415359396607,,-0.07627525163528219,-0.034472434388453,0.0910472212,-0.1089195372335423,,2.5220215e-05,-2.3245811e-06,4.7683716e-07,1.0,-2.0556152e-05,-1.8946826e-05,2.0548701e-05,1.0,-3.5762787e-06,1.8961728e-05,3.5762787e-06,1.0,362,1.102,0,0,0.0,False,-0.2616653671792948,0.8063276160325947
1.118578169029206,16:05:40.670786,16:04:22.816556,0,,0.1275417,-0.0011140332,0.023402378,0.9345548,0.3019093,-0.18830243,0.07839935,0.34148577,0.9366114,0.34707433,-0.8900777,0.29546773,,0.04269263,-0.032775857,0.030231774,0.19076343,-0.20459825,0.9600774,-0.78270745,0.55856025,0.2745533,-0.5924342,-0.80383456,-0.053587705,,0.082988605,1.289765,0.4272922,0.9916561,0.1004554,-0.080788784,0.018917577,-0.7333172,-0.6796234,-0.12751566,0.6724244,-0.7290989,,-0.124356546,0.25808257,-0.097222075,-0.9512743,-0.19896007,0.23556764,0.29526773,-0.36763817,0.8818498,-0.08884925,0.9084366,0.40847123,,-0.053108674,0.4225105,-0.35831004,-0.07519876,0.304062,-0.9496797,-0.9685102,-0.24895558,-0.0030190805,-0.23734604,0.9195474,0.3132083,,1.0970837093794596,0.5505381811377168,0.21504673326,3.725561225889544,-0.10958247281188324,-1.16000085042551,-0.4152206161133378,,-1.2231264326196778,0.14676281554176257,0.16771529649000003,0.27804886506047927,0.22312740411696425,-1.0690582334029024,0.6323048800057949,,-0.07627525163528219,-0.034472434388453,0.0910472212,-0.1089195372335423,,2.5220215e-05,-2.3245811e-06,4.7683716e-07,1.0,-2.0556152e-05,-1.8946826e-05,2.0548701e-05,1.0,-3.5762787e-06,1.8961728e-05,3.5762787e-06,1.0,370,1.126,0,0,0.0,False,-0.26196325577190027,0.8066172972372714
1.1452322190161794,16:05:40.692244,16:04:22.816556,0,,0.12762195,-0.0010786653,0.02378501,0.93145764,0.3113102,-0.18834166,0.074950844,0.34236613,0.9365723,0.35604638,-0.8864938,0.2955666,,0.042737864,-0.032792874,0.03023827,0.19062926,-0.20484021,0.96005255,-0.78277475,0.55845183,0.27458203,-0.59238845,-0.8038483,-0.053886518,,0.082988605,1.289765,0.4272922,0.9916561,0.1004554,-0.080788784,0.018917577,-0.7333172,-0.6796234,-0.12751566,0.6724244,-0.7290989,,-0.124465436,0.2583722,-0.097463645,-0.9492156,-0.20852971,0.23559532,0.29896906,-0.3645378,0.8818898,-0.098016836,0.90753925,0.4083689,,-0.0531538,0.4224988,-0.35832438,-0.075070806,0.3043067,-0.9496114,-0.96849805,-0.24900019,-0.0032292122,-0.2374361,0.9194544,0.31341308,,1.0978714281326305,0.5515884728086113,0.21480821590000002,3.7209480471328846,-0.11832720879687143,-1.1585059376586377,-0.4121170788567865,,-1.2233658373387788,0.1465774699527812,0.16771659278,0.27825855500396385,0.22312740411696425,-1.0684864822219187,0.6324682240719293,,-0.07627525163528219,-0.034472434388453,0.0910472212,-0.1089195372335423,,2.5220215e-05,-2.3245811e-06,4.7683716e-07,1.0,-2.0556152e-05,-1.8946826e-05,2.0548701e-05,1.0,-3.5762787e-06,1.8961728e-05,3.5762787e-06,1.0,378,1.151,0,0,0.0,False,-0.26041423509035333,0.8070518190442866
1.1666870948392898,16:05:40.720409,16:04:22.976009,0,,0.12777662,-0.001018256,0.02427341,0.9259314,0.32561418,-0.19138032,0.07164996,0.34607524,0.9354669,0.37083325,-0.8798905,0.2971117,,0.04280415,-0.032813527,0.030247092,0.18949065,-0.20689252,0.9598378,-0.7829928,0.55801076,0.27485693,-0.5924657,-0.8036289,-0.056257546,,0.082988605,1.289765,0.4272922,0.9916561,0.1004554,-0.080788784,0.018917577,-0.7333172,-0.6796234,-0.12751566,0.6724244,-0.7290989,,-0.12465515,0.25875285,-0.09775557,-0.94521767,-0.22300138,0.23839873,0.30679366,-0.35731182,0.8821598,-0.11154017,0.9069722,0.40615284,,-0.053219967,0.42248383,-0.35834154,-0.07392701,0.30631647,-0.9490548,-0.9685369,-0.24882244,-0.004865236,-0.23763643,0.9188349,0.3150735,,1.0987209287487951,0.553055792054714,0.2145230321,3.7117216896195657,-0.1311710397748228,-1.158732569669588,-0.4148939279810695,,-1.223713360318119,0.14634578796655445,0.16772048165,0.27951669466487095,0.22285413111743338,-1.0657316054701684,0.6319781918735263,,-0.07627525163528219,-0.034472434388453,0.0910472212,-0.1089195372335423,,2.5220215e-05,-2.3245811e-06,4.7683716e-07,1.0,-2.0556152e-05,-1.8946826e-05,2.0548701e-05,1.0,-3.5762787e-06,1.8961728e-05,3.5762787e-06,1.0,386,1.175,0,0,0.0,False,-0.2602355019347904,0.8061827754302562
1.1948578809387982,16:05:40.745093,16:04:22.976009,0,,0.12803331,-0.00096713006,0.024772212,0.91746706,0.34980708,-0.18944404,0.061221883,0.3463854,0.9360924,0.39307243,-0.8704322,0.2963814,,0.04285404,-0.032823183,0.03025806,0.18846606,-0.21268779,0.95877224,-0.78332543,0.5562915,0.27738252,-0.5923528,-0.80330795,-0.061761707,,0.082988605,1.289765,0.4272922,0.9916561,0.1004554,-0.080788784,0.018917577,-0.7333172,-0.6796234,-0.12751566,0.6724244,-0.7290989,,-0.12494779,0.25913388,-0.09804968,-0.93947977,-0.24780093,0.23658496,0.3146086,-0.35058534,0.8821062,-0.13564353,0.9031526,0.40732813,,-0.0532706,0.42247954,-0.3583525,-0.072920546,0.31205133,-0.94726264,-0.96851504,-0.24884444,-0.007418842,-0.23803611,0.9168972,0.32037228,,1.099400529241727,0.5544458839720744,0.21425081120000003,3.702075952219278,-0.1546725177344786,-1.1546792571598075,-0.414077207650398,,-1.223999101434465,0.14622994697344108,0.16772177794,0.2805651443822936,0.22230758511837162,-1.0591600283448406,0.6321415359396607,,-0.07627525163528219,-0.034472434388453,0.0910472212,-0.1089195372335423,,2.5220215e-05,-2.3245811e-06,4.7683716e-07,1.0,-2.0556152e-05,-1.8946826e-05,2.0548701e-05,1.0,-3.5762787e-06,1.8961728e-05,3.5762787e-06,1.0,394,1.2,0,0,0.0,False,-0.2608908568385213,0.8067621378396099
1.2195353058632463,16:05:40.766283,16:04:22.976009,0,,0.12817031,-0.0009369999,0.024999306,0.9143026,0.35782042,-0.18977676,0.056672566,0.35092008,0.9346889,0.40104726,-0.8653437,0.30056858,,0.042879,-0.032821216,0.030268908,0.1875999,-0.21546423,0.95832205,-0.78320265,0.55599326,0.2783254,-0.59278977,-0.8027744,-0.06444791,,0.082988605,1.289765,0.4272922,0.9916561,0.1004554,-0.080788784,0.018917577,-0.7333172,-0.6796234,-0.12751566,0.6724244,-0.7290989,,-0.1251005,0.25931227,-0.09817654,-0.93735707,-0.25583225,0.23645636,0.31682515,-0.3438007,0.8839813,-0.14485706,0.9035214,0.40331808,,-0.053296946,0.4224857,-0.35835594,-0.07200333,0.31472543,-0.9464478,-0.96865904,-0.24823624,-0.008853714,-0.23772913,0.91614777,0.32273546,,1.0995935975635827,0.5552336027252454,0.21413284881000003,3.6991402930104944,-0.16341725371946678,-1.1579217113210878,-0.4122804229229209,,-1.2241535560919496,0.1461990560419442,0.16772177794,0.2816135940997162,0.22244422161813707,-1.0560042966429144,0.6324682240719293,,-0.07627525163528219,-0.034472434388453,0.0910472212,-0.1089195372335423,,2.5220215e-05,-2.3245811e-06,4.7683716e-07,1.0,-2.0556152e-05,-1.8946826e-05,2.0548701e-05,1.0,-3.5762787e-06,1.8961728e-05,3.5762787e-06,1.0,423,1.29,0,0,0.0,False,-0.26101001227556386,0.8074380606505223
1.2406649950426072,16:05:40.852565,16:04:22.976009,0,,0.12885207,-0.0008767992,0.025596961,0.9035056,0.38103774,-0.19618312,0.053044878,0.354813,0.93343127,0.42528087,-0.853767,0.3003635,,0.042935148,-0.032824494,0.030287445,0.18644086,-0.22315393,0.9567873,-0.78300774,0.5544661,0.2818975,-0.59341264,-0.8017292,-0.07135616,,0.082988605,1.289765,0.4272922,0.9916561,0.1004554,-0.080788784,0.018917577,-0.7333172,-0.6796234,-0.12751566,0.6724244,-0.7290989,,-0.12582296,0.25976762,-0.09848689,-0.928937,-0.27955955,0.2427396,0.33093983,-0.33301857,0.88293684,-0.16599663,0.9005249,0.40187067,,-0.053355094,0.42249036,-0.3583662,-0.07077128,0.32221854,-0.9440162,-0.96886224,-0.24731988,-0.011783092,-0.23727071,0.9137878,0.32968852,,1.098435187632449,0.5583767550050547,0.21384118356,3.6834135472491547,-0.1817265446880358,-1.1569587767898035,-0.41309714325359215,,-1.2244856336055414,0.1460754923159566,0.16772307423000002,0.2830814237041079,0.22271749461766793,-1.0474875072552672,0.6332849444026005,,-0.07627525163528219,-0.034472434388453,0.0910472212,-0.1089195372335423,,2.5220215e-05,-2.3245811e-06,4.7683716e-07,1.0,-2.0556152e-05,-1.8946826e-05,2.0548701e-05,1.0,-3.5762787e-06,1.8961728e-05,3.5762787e-06,1.0,431,1.315,0,0,0.0,False,-0.261427056305211,0.8074863408513013
1.3269894018303603,16:05:40.875685,16:04:22.976009,0,,0.12904105,-0.00086002797,0.025676802,0.90027046,0.3873302,-0.19871679,0.051963307,0.3575974,0.93242896,0.43221855,-0.8497643,0.3018075,,0.042956404,-0.03283412,0.030288577,0.18642619,-0.22529581,0.95628804,-0.7831307,0.5536732,0.2831117,-0.593255,-0.8016782,-0.0732169,,0.082988605,1.289765,0.4272922,0.9916561,0.1004554,-0.080788784,0.018917577,-0.7333172,-0.6796234,-0.12751566,0.6724244,-0.7290989,,-0.12601607,0.25983465,-0.09851115,-0.92638665,-0.28592739,0.24505785,0.33494967,-0.32824793,0.8832112,-0.17209452,0.9002771,0.39985576,,-0.053375956,0.42248237,-0.358373,-0.07077636,0.3243532,-0.9432845,-0.9688142,-0.24747773,-0.012404581,-0.23746537,0.9129895,0.33175355,,1.0979332099956243,0.5589945736349927,0.21382433179000002,3.6790100584359795,-0.18719200467865343,-1.1587096448926293,-0.41440389578266634,,-1.2245937518657806,0.1459828195214659,0.16772437052000003,0.2830814237041079,0.22258085811790249,-1.045089084627635,0.6329582562703322,,-0.07627525163528219,-0.034472434388453,0.0910472212,-0.1089195372335423,,2.5220215e-05,-2.3245811e-06,4.7683716e-07,1.0,-2.0556152e-05,-1.8946826e-05,2.0548701e-05,1.0,-3.5762787e-06,1.8961728e-05,3.5762787e-06,1.0,439,1.339,0,0,0.0,False,-0.2599376133421849,0.8070518190442866
1.350130510982126,16:05:40.906519,16:04:23.156311,0,,0.12925005,-0.00084834546,0.025801614,0.89748245,0.3929748,-0.20023967,0.051818527,0.35691163,0.9326998,0.4379954,-0.8474579,0.29995865,,0.043007217,-0.03285212,0.030295491,0.18595083,-0.22591998,0.9562333,-0.7831082,0.553709,0.28310406,-0.59343386,-0.8014777,-0.07395716,,0.082988605,1.289765,0.4272922,0.9916561,0.1004554,-0.080788784,0.018917577,-0.7333172,-0.6796234,-0.12751566,0.6724244,-0.7290989,,-0.1262332,0.25992903,-0.098568946,-0.9241105,-0.29178104,0.24674621,0.33883554,-0.32715833,0.8821326,-0.17666449,0.89879435,0.4011962,,-0.053426635,0.42246968,-0.35838798,-0.0702806,0.32493907,-0.94311994,-0.96887374,-0.2472151,-0.012974831,-0.23736952,0.9128523,0.33219936,,1.0973771732286801,0.5598517969840316,0.21377118390000002,3.674816259566289,-0.1908811901723203,-1.1567631851146534,-0.41260711105518943,,-1.224856324783504,0.14577430573386185,0.16772696310000001,0.28371049353456146,0.22271749461766793,-1.0440570001693634,0.6329582562703321,,-0.07627525163528219,-0.034472434388453,0.0910472212,-0.1089195372335423,,2.5220215e-05,-2.3245811e-06,4.7683716e-07,1.0,-2.0556152e-05,-1.8946826e-05,2.0548701e-05,1.0,-3.5762787e-06,1.8961728e-05,3.5762787e-06,1.0,447,1.364,0,0,0.0,False,-0.26011634649774784,0.8076794616544194
1.3809694019146264,16:05:40.931615,16:04:23.156311,0,,0.12940021,-0.0008370429,0.02591081,0.8918894,0.4034019,-0.204451,0.05364792,0.35450882,0.93351245,0.44906038,-0.8435582,0.29454106,,0.043070015,-0.032878406,0.030305445,0.18583614,-0.22792163,0.9557806,-0.7832098,0.55302393,0.28416017,-0.59333575,-0.80138403,-0.07573864,,0.082988605,1.289765,0.4272922,0.9916561,0.1004554,-0.080788784,0.018917577,-0.7333172,-0.6796234,-0.12751566,0.6724244,-0.7290989,,-0.1263906,0.26001242,-0.09862251,-0.9193347,-0.30265298,0.25144562,0.34780315,-0.32621658,0.87898564,-0.18400191,0.8955355,0.40516588,,-0.05348934,0.42245254,-0.3584105,-0.0701786,0.32692534,-0.94244087,-0.9688449,-0.2472924,-0.013639028,-0.23751742,0.9121219,0.33409458,,1.0970759866465853,0.5603383291551077,0.21372840633,3.664751142279032,-0.19784965166035778,-1.1515709444669793,-0.41375051951812947,,-1.2251884022970958,0.145504010083264,0.16772696310000001,0.283920183478046,0.22271749461766793,-1.041524959225006,0.6331216003364664,,-0.07627525163528219,-0.034472434388453,0.0910472212,-0.1089195372335423,,2.5220215e-05,-2.3245811e-06,4.7683716e-07,1.0,-2.0556152e-05,-1.8946826e-05,2.0548701e-05,1.0,-3.5762787e-06,1.8961728e-05,3.5762787e-06,1.0,455,1.388,0,0,0.0,False,-0.26101001227556386,0.8078243022567579
1.4060632928740233,16:05:40.953283,16:04:23.156311,0,,0.12954272,-0.00081178546,0.026090756,0.8830396,0.41677687,-0.2157266,0.05837901,0.35855514,0.9316813,0.46565312,-0.83530545,0.29228747,,0.0431192,-0.03289462,0.03030932,0.18512653,-0.22979529,0.95546955,-0.7832575,0.5526869,0.28468367,-0.59349453,-0.8010813,-0.07767193,,0.082988605,1.289765,0.4272922,0.9916561,0.1004554,-0.080788784,0.018917577,-0.7333172,-0.6796234,-0.12751566,0.6724244,-0.7290989,,-0.12654522,0.26015475,-0.098718256,-0.9115584,-0.31631306,0.2626924,0.36268952,-0.31760705,0.8761176,-0.19369449,0.89390814,0.4042408,,-0.05353801,0.4224388,-0.35842234,-0.069452085,0.32874286,-0.9418623,-0.9689003,-0.24701023,-0.014769359,-0.23750494,0.91154486,0.33567443,,1.0969910365849689,0.5609098113878004,0.21364803635000001,3.6477662568567855,-0.20727757014417317,-1.1513158744647174,-0.4121170788567865,,-1.2254355297490709,0.14531094176140838,0.16773214826000002,0.2847589432519841,0.22271749461766793,-1.0391562757609298,0.6332849444026006,,-0.07627525163528219,-0.034472434388453,0.0910472212,-0.1089195372335423,,2.5220215e-05,-2.3245811e-06,4.7683716e-07,1.0,-2.0556152e-05,-1.8946826e-05,2.0548701e-05,1.0,-3.5762787e-06,1.8961728e-05,3.5762787e-06,1.0,463,1.413,0,0,0.0,False,-0.2604738128088746,0.8082105438629936
1.4276946049649268,16:05:40.981479,16:04:23.156311,0,,0.12965493,-0.0007978827,0.026272729,0.8754979,0.4306747,-0.21914056,0.056835026,0.35857558,0.9317689,0.47986782,-0.8282167,0.28945476,,0.04319523,-0.032919504,0.030323267,0.18481337,-0.23310617,0.9547279,-0.78342724,0.5515944,0.2863307,-0.59336805,-0.80087775,-0.08067973,,0.082988605,1.289765,0.4272922,0.9916561,0.1004554,-0.080788784,0.018917577,-0.7333172,-0.6796234,-0.12751566,0.6724244,-0.7290989,,-0.12667081,0.2602903,-0.098826654,-0.9053733,-0.3307099,0.26632723,0.37139258,-0.31271446,0.8742295,-0.20583199,0.89041597,0.4059465,,-0.05361443,0.4224238,-0.35844532,-0.069156006,0.33201972,-0.94073397,-0.9688645,-0.24707536,-0.015978048,-0.23773721,0.91033876,0.33876887,,1.0971223230438307,0.5612882252986373,0.21356118492,3.637072069739075,-0.21943821862329735,-1.1478523015068403,-0.41391386358426363,,-1.2258525573242791,0.1450329233779363,0.16773344455000003,0.2851783231389531,0.22258085811790249,-1.0351242783304864,0.6339383206671377,,-0.07627525163528219,-0.034472434388453,0.0910472212,-0.1089195372335423,,2.5220215e-05,-2.3245811e-06,4.7683716e-07,1.0,-2.0556152e-05,-1.8946826e-05,2.0548701e-05,1.0,-3.5762787e-06,1.8961728e-05,3.5762787e-06,1.0,471,1.438,0,0,0.0,False,-0.2607717014014801,0.8071483794458456
1.4559204659890383,16:05:41.005606,16:04:23.156311,0,,0.12974022,-0.0007435903,0.026567832,0.86492187,0.44783974,-0.22660479,0.05696982,0.36097127,0.9308351,0.49866286,-0.8180094,0.28669858,,0.043235607,-0.03292752,0.030334711,0.18492378,-0.23346968,0.9546177,-0.7833779,0.55150723,0.28663352,-0.5933987,-0.8008319,-0.08090821,,0.082988605,1.289765,0.4272922,0.9916561,0.1004554,-0.080788784,0.018917577,-0.7333172,-0.6796234,-0.12751566,0.6724244,-0.7290989,,-0.12677592,0.26053318,-0.098991774,-0.89642483,-0.34842727,0.27389964,0.38447532,-0.30395424,0.87165964,-0.22045703,0.886685,0.4064338,,-0.05365579,0.4224222,-0.35845596,-0.06926213,0.33237496,-0.9406007,-0.9688729,-0.24704412,-0.015952652,-0.23767214,0.9102176,0.33913988,,1.0977246962080203,0.5618751529970785,0.21342377818000002,3.620716254147282,-0.23419496059796494,-1.1448855080632292,-0.41505727204720344,,-1.2260919620433801,0.1449093596519487,0.16773344455000003,0.2851783231389531,0.22271749461766793,-1.0345005875729179,0.6337749766010036,,-0.07627525163528219,-0.034472434388453,0.0910472212,-0.1089195372335423,,2.5220215e-05,-2.3245811e-06,4.7683716e-07,1.0,-2.0556152e-05,-1.8946826e-05,2.0548701e-05,1.0,-3.5762787e-06,1.8961728e-05,3.5762787e-06,1.0,496,1.515,0,0,0.0,False,-0.26053339052739544,0.8066655774380509
1.4800552499946207,16:05:41.082171,16:04:23.270343,0,,0.12969768,-0.00052119046,0.027495667,0.8312486,0.49613675,-0.25074676,0.06291328,0.36420444,0.9291916,0.5523292,-0.7881647,0.27153087,,0.043343842,-0.032953836,0.030337334,0.18199612,-0.24335131,0.9527105,-0.7842159,0.5485835,0.2899336,-0.59319705,-0.7998977,-0.09099996,,0.082988605,1.289765,0.4272922,0.9916561,0.1004554,-0.080788784,0.018917577,-0.7333172,-0.6796234,-0.12751566,0.6724244,-0.7290989,,-0.12679374,0.2613346,-0.09951096,-0.86698765,-0.39864627,0.299021,0.42585692,-0.28106743,0.8600273,-0.2588016,0.87297326,0.41344824,,-0.053762298,0.42239314,-0.35847095,-0.06637184,0.3420957,-0.93731815,-0.9688345,-0.24677727,-0.021463491,-0.23865138,0.9066816,0.3478132,,1.1008292348234585,0.5631262357227028,0.21298952103000002,3.566825938671759,-0.27381954552994264,-1.1287467065390984,-0.4153839601794722,,-1.22664027607745,0.1446004503369797,0.16775159261000003,0.28811398234773644,0.22135112962001352,-1.0229315297979615,0.631814847807392,,-0.07627525163528219,-0.034472434388453,0.0910472212,-0.1089195372335423,,2.5220215e-05,-2.3245811e-06,4.7683716e-07,1.0,-2.0556152e-05,-1.8946826e-05,2.0548701e-05,1.0,-3.5762787e-06,1.8961728e-05,3.5762787e-06,1.0,504,1.54,0,0,0.0,False,-0.2613079008681689,0.8062793358318152
1.5566171950194985,16:05:41.108476,16:04:23.270343,0,,0.12960945,-0.00034973025,0.028043315,0.81384975,0.51868045,-0.26195234,0.06120953,0.37177402,0.9263031,0.5778425,-0.7699056,0.27082005,,0.04337755,-0.032953866,0.030339658,0.18170016,-0.25081798,0.95082873,-0.78372604,0.5470747,0.2940796,-0.59393466,-0.7986236,-0.097169064,,0.082988605,1.289765,0.4272922,0.9916561,0.1004554,-0.080788784,0.018917577,-0.7333172,-0.6796234,-0.12751566,0.6724244,-0.7290989,,-0.1267384,0.26183677,-0.09979706,-0.85196555,-0.42197496,0.30998686,0.44225428,-0.26301172,0.857459,-0.2802961,0.86761856,0.41069716,,-0.053795956,0.4223903,-0.35847014,-0.06598515,0.34933373,-0.9346721,-0.9690622,-0.24570303,-0.02341852,-0.23783264,0.90421015,0.35473886,,1.1030611046241094,0.5638367271471314,0.21275878141000001,3.5427115951710393,-0.2962279314914749,-1.1265648821405758,-0.41228042292292066,,-1.226810176200683,0.14448460934386634,0.16776196293,0.28874305217819,0.22217094861860617,-1.0149420907652404,0.6318148478073922,,-0.07627525163528219,-0.034472434388453,0.0910472212,-0.1089195372335423,,2.5220215e-05,-2.3245811e-06,4.7683716e-07,1.0,-2.0556152e-05,-1.8946826e-05,2.0548701e-05,1.0,-3.5762787e-06,1.8961728e-05,3.5762787e-06,1.0,512,1.565,0,0,0.0,False,-0.2604738128088746,0.8064724566349328
1.5829138769768178,16:05:41.133838,16:04:23.270343,0,,0.12946424,-0.00017085671,0.028599754,0.795976,0.53993356,-0.27366716,0.059148982,0.38055837,0.92286325,0.6024313,-0.75076425,0.2709788,,0.043408222,-0.03296078,0.030337214,0.18042229,-0.25374264,0.95029587,-0.78363264,0.54682595,0.29479015,-0.5944473,-0.79786974,-0.10018148,,0.082988605,1.289765,0.4272922,0.9916561,0.1004554,-0.080788784,0.018917577,-0.7333172,-0.6796234,-0.12751566,0.6724244,-0.7290989,,-0.12662663,0.26235044,-0.10009091,-0.8364224,-0.4440003,0.32134292,0.45775586,-0.24346663,0.8550927,-0.30142516,0.8623153,0.4068847,,-0.053825688,0.42237997,-0.358472,-0.064648844,0.3521199,-0.9337195,-0.96922654,-0.24487333,-0.025238194,-0.23752987,0.9033541,0.35711473,,1.1055401018767355,0.5644159321126982,0.21252544921000002,3.5185972516703186,-0.31849968095324166,-1.125229584307015,-0.4122804229229209,,-1.2269414626595447,0.144368768350753,0.16777103696,0.2902108817825817,0.22230758511837162,-1.0115413228428929,0.6323048800057949,,-0.07627525163528219,-0.034472434388453,0.0910472212,-0.1089195372335423,,2.5220215e-05,-2.3245811e-06,4.7683716e-07,1.0,-2.0556152e-05,-1.8946826e-05,2.0548701e-05,1.0,-3.5762787e-06,1.8961728e-05,3.5762787e-06,1.0,520,1.589,0,0,0.0,False,-0.2611887454311268,0.8062793358318152
1.6082446440123022,16:05:41.165206,16:04:23.418181,0,,0.12923124,-1.3411045e-06,0.029098317,0.785438,0.5511311,-0.2816764,0.061477154,0.38337642,0.92154384,0.61587965,-0.74113226,0.26723647,,0.043470938,-0.03298802,0.030333519,0.1797866,-0.25891495,0.9490204,-0.78398013,0.5450133,0.297213,-0.59418166,-0.79744816,-0.104998104,,0.082988605,1.289765,0.4272922,0.9916561,0.1004554,-0.080788784,0.018917577,-0.7333172,-0.6796234,-0.12751566,0.6724244,-0.7290989,,-0.12642354,0.2628175,-0.10035963,-0.8268941,-0.45570827,0.32950893,0.46873495,-0.23479135,0.8515636,-0.31069872,0.85860527,0.40775397,,-0.05388625,0.4223517,-0.3584869,-0.064049,0.35722706,-0.93181896,-0.9691488,-0.24496037,-0.027294416,-0.238009,0.9013231,0.36189562,,1.108104049190978,0.565056918941259,0.21228693185000003,3.5014026763045876,-0.3283375089363534,-1.120147929885933,-0.4142405517165322,,-1.2272349265087652,0.1440907499672809,0.16778140728000002,0.2908399516130353,0.22189767561907528,-1.0055712360621047,0.6321415359396607,,-0.07627525163528219,-0.034472434388453,0.0910472212,-0.1089195372335423,,2.5220215e-05,-2.3245811e-06,4.7683716e-07,1.0,-2.0556152e-05,-1.8946826e-05,2.0548701e-05,1.0,-3.5762787e-06,1.8961728e-05,3.5762787e-06,1.0,532,1.626,0,0,0.0,False,-0.26053339052739544,0.8070035388435071
1.6396323598455638,16:05:41.189598,16:04:23.418181,0,,0.12901844,0.00018771738,0.029545829,0.77447927,0.5632031,-0.2880695,0.06270012,0.3847904,0.92087185,0.62948436,-0.7312582,0.2626993,,0.04356506,-0.033018447,0.030334294,0.17808416,-0.26693207,0.9471183,-0.78421485,0.54289114,0.30046013,-0.5943846,-0.79625154,-0.11265181,,0.082988605,1.289765,0.4272922,0.9916561,0.1004554,-0.080788784,0.018917577,-0.7333172,-0.6796234,-0.12751566,0.6724244,-0.7290989,,-0.12623471,0.26326343,-0.10057594,-0.8170473,-0.46841484,0.33618632,0.4790228,-0.22696592,0.8479526,-0.32089078,0.8538583,0.40982327,,-0.053978413,0.4223206,-0.35850495,-0.062328696,0.3650403,-0.928903,-0.96921825,-0.24424991,-0.030951513,-0.23818302,0.8983805,0.3690275,,1.1105367100463588,0.5656284011739515,0.21210545125000002,3.484627480825826,-0.33913179241782315,-1.1135512414777107,-0.41244376698905505,,-1.2276905677483445,0.14372778152219234,0.16779696276000003,0.292727161104396,0.22162440261954441,-0.9962820600991094,0.6323048800057949,,-0.07627525163528219,-0.034472434388453,0.0910472212,-0.1089195372335423,,2.5220215e-05,-2.3245811e-06,4.7683716e-07,1.0,-2.0556152e-05,-1.8946826e-05,2.0548701e-05,1.0,-3.5762787e-06,1.8961728e-05,3.5762787e-06,1.0,540,1.651,0,0,0.0,False,-0.26148663402373185,0.8085967854692293
1.6640363289043307,16:05:41.219120,16:04:23.418181,0,,0.12887852,0.0003207177,0.029788777,0.7664346,0.57055503,-0.29503348,0.06423913,0.38893306,0.91902363,0.6391019,-0.7233243,0.2614398,,0.04368774,-0.033056356,0.030341566,0.17634647,-0.27247065,0.9458655,-0.7842266,0.5418521,0.30229926,-0.59488684,-0.79508245,-0.1181251,,0.082988605,1.289765,0.4272922,0.9916561,0.1004554,-0.080788784,0.018917577,-0.7333172,-0.6796234,-0.12751566,0.6724244,-0.7290989,,-0.12610559,0.2635275,-0.10067531,-0.809738,-0.47605723,0.34306547,0.4867839,-0.21850008,0.8457536,-0.3276673,0.8518376,0.40866482,,-0.054099526,0.42228603,-0.35853094,-0.060536083,0.37037334,-0.9269083,-0.96937674,-0.24322997,-0.033879973,-0.23800012,0.8964724,0.3737555,,1.1120194747582097,0.5658678058930525,0.21203026643000003,3.4722557741602387,-0.3463735269053915,-1.112220102029672,-0.41440389578266656,,-1.2283006636454084,0.14324897208399043,0.16781381453000002,0.29482406053924126,0.22176103911930983,-0.989450785090858,0.6337749766010035,,-0.07627525163528219,-0.034472434388453,0.0910472212,-0.1089195372335423,,2.5220215e-05,-2.3245811e-06,4.7683716e-07,1.0,-2.0556152e-05,-1.8946826e-05,2.0548701e-05,1.0,-3.5762787e-06,1.8961728e-05,3.5762787e-06,1.0,573,1.753,0,0,0.0,False,-0.26106958999408425,0.8106728341027458
1.6935530928894877,16:05:41.317761,16:04:23.418181,0,,0.12857594,0.0005720481,0.030451313,0.7341633,0.60155076,-0.31486627,0.062817946,0.4015713,0.9136708,0.67606074,-0.6905629,0.25703079,,0.04400879,-0.033154406,0.03039819,0.17681055,-0.2749118,0.94507205,-0.78423023,0.54086566,0.30405143,-0.5947443,-0.79491377,-0.11996343,,0.082988605,1.289765,0.4272922,0.9916561,0.1004554,-0.080788784,0.018917577,-0.7333172,-0.6796234,-0.12751566,0.6724244,-0.7290989,,-0.12584065,0.26416704,-0.10101372,-0.7808742,-0.50859714,0.3627181,0.5113026,-0.18677577,0.838859,-0.35889438,0.8405021,0.4058954,,-0.05442213,0.42222536,-0.35862118,-0.061015878,0.37279242,-0.9259065,-0.9693321,-0.24337552,-0.03411133,-0.23805942,0.8954296,0.37620947,,1.1153865862913717,0.5658986968245494,0.21180471197000003,3.430317785463334,-0.3801227423474553,-1.1059363522532022,-0.41375051951812947,,-1.2300614467407314,0.14203650302273718,0.16782807372000003,0.2950337504827258,0.22244422161813707,-0.9848621139804847,0.6368785138575548,,-0.07627525163528219,-0.034472434388453,0.0910472212,-0.1089195372335423,,2.5220215e-05,-2.3245811e-06,4.7683716e-07,1.0,-2.0556152e-05,-1.8946826e-05,2.0548701e-05,1.0,-3.5762787e-06,1.8961728e-05,3.5762787e-06,1.0,581,1.778,0,0,0.0,False,-0.2617249448978165,0.8168526998025163
1.7921997390221804,16:05:41.339611,16:04:23.418181,0,,0.12856972,0.0005685091,0.030504689,0.7298182,0.6063365,-0.3157867,0.06224674,0.40106302,0.91393316,0.6808015,-0.68666184,0.25496063,,0.044057302,-0.033149518,0.030412436,0.1746797,-0.27451444,0.9455837,-0.78353006,0.5428385,0.3023358,-0.5962948,-0.79370534,-0.120267525,,0.082988605,1.289765,0.4272922,0.9916561,0.1004554,-0.080788784,0.018917577,-0.7333172,-0.6796234,-0.12751566,0.6724244,-0.7290989,,-0.12583922,0.2642013,-0.101055235,-0.7769979,-0.5137168,0.3638258,0.5141665,-0.18445605,0.8376209,-0.3631901,0.83789676,0.40745795,,-0.054472353,0.4222328,-0.35862285,-0.05870135,0.3721565,-0.92631185,-0.9698081,-0.2412749,-0.03547723,-0.23669888,0.8962622,0.37508357,,1.1154947045516108,0.565813746762933,0.21177878617,3.425285226819705,-0.38463174683971485,-1.1031580275727662,-0.41424055171653196,,-1.230324019658455,0.14193610749537228,0.16783585146000002,0.29775971974802456,0.22340067711649514,-0.9848252519049541,0.6398187070479717,,-0.07627525163528219,-0.034472434388453,0.0910472212,-0.1089195372335423,,2.5220215e-05,-2.3245811e-06,4.7683716e-07,1.0,-2.0556152e-05,-1.8946826e-05,2.0548701e-05,1.0,-3.5762787e-06,1.8961728e-05,3.5762787e-06,1.0,589,1.802,0,0,0.0,False,-0.2622015666459845,0.8258810973482755
1.8140611529815942,16:05:41.370206,16:04:23.418181,0,,0.12854894,0.0006014034,0.030642405,0.7159892,0.6163433,-0.32784206,0.06621608,0.40753815,0.9107843,0.69496393,-0.6738202,0.25098103,,0.04405991,-0.033139355,0.030419767,0.17443614,-0.27621272,0.94513404,-0.7828143,0.5433496,0.30327037,-0.59730536,-0.79276586,-0.12144349,,0.082988605,1.289765,0.4272922,0.9916561,0.1004554,-0.080788784,0.018917577,-0.7333172,-0.6796234,-0.12751566,0.6724244,-0.7290989,,-0.1258275,0.2643202,-0.10113401,-0.7641316,-0.5242241,0.3758883,0.52682966,-0.17091784,0.8326089,-0.37222764,0.8342519,0.40678054,,-0.054476343,0.4222444,-0.35861918,-0.058333036,0.3736786,-0.9257222,-0.9701146,-0.23999955,-0.03574827,-0.23553127,0.8959713,0.37651095,,1.1157495547364602,0.5657519648999392,0.21173341602,3.4057840620756443,-0.39419630182329574,-1.1015663585646995,-0.41391386358426363,,-1.2303471878570778,0.1419438302282465,0.16783714775000003,0.29838878957847814,0.22449376911461866,-0.9831028754500275,0.6494560069498944,,-0.07627525163528219,-0.034472434388453,0.0910472212,-0.1089195372335423,,2.5220215e-05,-2.3245811e-06,4.7683716e-07,1.0,-2.0556152e-05,-1.8946826e-05,2.0548701e-05,1.0,-3.5762787e-06,1.8961728e-05,3.5762787e-06,1.0,597,1.827,0,0,0.0,False,-0.2626781883941529,0.832930006662076
1.8446396759245545,16:05:41.393089,16:04:23.418181,0,,0.12852694,0.00065146387,0.03084378,0.7014066,0.62944496,-0.33440688,0.064549655,0.41114682,0.9092809,0.70983255,-0.6593614,0.24775058,,0.04404992,-0.033127435,0.030423164,0.17243071,-0.27747855,0.94513124,-0.78199816,0.54487574,0.30263716,-0.59895444,-0.791275,-0.12303443,,0.082988605,1.289765,0.4272922,0.9916561,0.1004554,-0.080788784,0.018917577,-0.7333172,-0.6796234,-0.12751566,0.6724244,-0.7290989,,-0.12581855,0.26449546,-0.10124695,-0.75101584,-0.5381648,0.38256228,0.5359032,-0.15834087,0.82929844,-0.38572398,0.82783264,0.40732074,,-0.054467358,0.42225575,-0.3586126,-0.0561315,0.37465864,-0.9254621,-0.97061235,-0.23772901,-0.037370842,-0.2340105,0.8961673,0.37699237,,1.1162978687705303,0.5657287967013165,0.21167249039000002,3.3887991766533982,-0.4086797707984324,-1.0971888261256701,-0.415383960179472,,-1.2302699605283356,0.14199016662549183,0.16783844404,0.30090506890029245,0.22558686111274218,-0.9817072139556631,0.6541929848677883,,-0.07627525163528219,-0.034472434388453,0.0910472212,-0.1089195372335423,,2.5220215e-05,-2.3245811e-06,4.7683716e-07,1.0,-2.0556152e-05,-1.8946826e-05,2.0548701e-05,1.0,-3.5762787e-06,1.8961728e-05,3.5762787e-06,1.0,605,1.851,0,0,0.0,False,-0.26202283349042155,0.8371786643306685
1.8675161758437753,16:05:41.421441,16:04:23.671750,0,,0.12843789,0.00071608275,0.031097814,0.68435204,0.6423792,-0.34497988,0.064583,0.41786405,0.90621114,0.72628593,-0.64244735,0.24447933,,0.044035316,-0.033124395,0.03041786,0.17301877,-0.27816808,0.9448211,-0.78194,0.5444823,0.30349436,-0.59886086,-0.79130363,-0.1233051,,0.082988605,1.289765,0.4272922,0.9916561,0.1004554,-0.080788784,0.018917577,-0.7333172,-0.6796234,-0.12751566,0.6724244,-0.7290989,,-0.12574624,0.26471767,-0.10139538,-0.73544395,-0.5519014,0.39309925,0.5473034,-0.14181969,0.824831,-0.3994762,0.82176155,0.40635794,,-0.05445223,0.4222555,-0.35860795,-0.056728497,0.375357,-0.9251427,-0.97058433,-0.23790017,-0.037008017,-0.23398282,0.89582956,0.3778113,,1.1172014285168144,0.5656515693725742,0.2115804538,3.3676204923614614,-0.42357314927286543,-1.094028936038222,-0.4147305839149349,,-1.2301850104667191,0.14202105755698874,0.16783974033000001,0.3002759990698389,0.22572349761250762,-0.9811652019382351,0.6589299627856824,,-0.07627525163528219,-0.034472434388453,0.0910472212,-0.1089195372335423,,2.5220215e-05,-2.3245811e-06,4.7683716e-07,1.0,-2.0556152e-05,-1.8946826e-05,2.0548701e-05,1.0,-3.5762787e-06,1.8961728e-05,3.5762787e-06,1.0,617,1.888,0,0,0.0,False,-0.2626186106756321,0.8440344528413517
1.8958873020019382,16:05:41.450584,16:04:23.671750,0,,0.12834969,0.0007553771,0.031284466,0.67482525,0.65000665,-0.34943125,0.062761694,0.42123353,0.90477806,0.73530394,-0.632498,0.24346349,,0.04403377,-0.033120878,0.030406415,0.17315954,-0.28015873,0.9442069,-0.78203565,0.5436551,0.3047284,-0.59869516,-0.7911702,-0.124955066,,0.082988605,1.289765,0.4272922,0.9916561,0.1004554,-0.080788784,0.018917577,-0.7333172,-0.6796234,-0.12751566,0.6724244,-0.7290989,,-0.12567113,0.26487502,-0.10151267,-0.7268746,-0.56004614,0.3974943,0.5522209,-0.13252239,0.82309777,-0.4082958,0.8177935,0.40559632,,-0.05444911,0.42224902,-0.35859823,-0.056889255,0.37733102,-0.92432946,-0.9705345,-0.23803604,-0.037438378,-0.23415038,0.8949638,0.37975445,,1.1180123154686081,0.565574342043832,0.21150138011000003,3.356716615300266,-0.43327434075621163,-1.0919174554257558,-0.4148939279810695,,-1.2301541195352221,0.14202878028986296,0.16785011065000002,0.30006630912635435,0.22558686111274218,-0.979093494271165,0.6646470051003823,,-0.07627525163528219,-0.034472434388453,0.0910472212,-0.1089195372335423,,2.5220215e-05,-2.3245811e-06,4.7683716e-07,1.0,-2.0556152e-05,-1.8946826e-05,2.0548701e-05,1.0,-3.5762787e-06,1.8961728e-05,3.5762787e-06,1.0,621,1.9,0,0,0.0,False,-0.26101001227556386,0.8477037481005909
1.925033934880048,16:05:41.469283,16:04:23.671750,0,,0.12823085,0.00081998855,0.031506225,0.6622446,0.6597147,-0.35525846,0.061965317,0.42428434,0.9034064,0.746721,-0.6202898,0.24010059,,0.044035923,-0.03311438,0.030394256,0.17342392,-0.2814868,0.94376326,-0.7818832,0.54331404,0.30572602,-0.5988177,-0.790933,-0.1258662,,0.082988605,1.289765,0.4272922,0.9916561,0.1004554,-0.080788784,0.018917577,-0.7333172,-0.6796234,-0.12751566,0.6724244,-0.7290989,,-0.12556653,0.26507497,-0.10164131,-0.71539164,-0.5704712,0.40345684,0.5595394,-0.121898785,0.8197904,-0.41848594,0.8122212,0.4064065,,-0.054449633,0.42224333,-0.3585855,-0.05713717,0.37861916,-0.92378724,-0.9705713,-0.2378817,-0.03746629,-0.23393755,0.8944606,0.38106877,,1.1190239934751314,0.5654893919822155,0.21141841755000002,3.341409249425896,-0.44447853373697777,-1.0871918392902395,-0.4147305839149349,,-1.2301386740694737,0.14202105755698874,0.16786436984000003,0.2998566191828698,0.22586013411227307,-0.9777644340158872,0.6713441118118877,,-0.07627525163528219,-0.034472434388453,0.0910472212,-0.1089195372335423,,2.5220215e-05,-2.3245811e-06,4.7683716e-07,1.0,-2.0556152e-05,-1.8946826e-05,2.0548701e-05,1.0,-3.5762787e-06,1.8961728e-05,3.5762787e-06,1.0,650,1.991,0,0,0.0,False,-0.2604738128088746,0.8485727917146209
1.943731889827177,16:05:41.553251,16:04:23.805878,0,,0.12759241,0.0009842142,0.03234969,0.61493266,0.6917715,-0.37856305,0.06417519,0.43456438,0.89835143,0.7859639,-0.5767201,0.2228333,,0.044010576,-0.03307397,0.03040278,0.17669678,-0.28393105,0.942423,-0.7807642,0.5425836,0.30985534,-0.5993207,-0.7905608,-0.12581047,,0.082988605,1.289765,0.4272922,0.9916561,0.1004554,-0.080788784,0.018917577,-0.7333172,-0.6796234,-0.12751566,0.6724244,-0.7290989,,-0.12498985,0.26577672,-0.10220789,-0.6714929,-0.6051516,0.42765507,0.58827853,-0.08442134,0.80423963,-0.45058367,0.7916215,0.41268602,,-0.05442715,0.42227837,-0.35856074,-0.060332723,0.38100284,-0.92260325,-0.97071636,-0.23771098,-0.034687273,-0.23252888,0.89349335,0.38418743,,1.1232097146929612,0.5646630595646734,0.21101008620000003,3.2805991658153837,-0.48041393317528863,-1.0656484109314344,-0.4147305839149351,,-1.2301618422680964,0.14214462128297634,0.16789807338,0.29692095997408646,0.2277730451089892,-0.975812098841593,0.6734675846716334,,-0.07627525163528219,-0.034472434388453,0.0910472212,-0.1089195372335423,,2.5220215e-05,-2.3245811e-06,4.7683716e-07,1.0,-2.0556152e-05,-1.8946826e-05,2.0548701e-05,1.0,-3.5762787e-06,1.8961728e-05,3.5762787e-06,1.0,658,2.015,0,0,0.0,False,-0.2626186106756321,0.8488624729192975
2.027700874954462,16:05:41.580289,16:04:23.805878,0,,0.12742974,0.00097204745,0.032643244,0.5971849,0.7029177,-0.3863637,0.06331551,0.43887427,0.8963149,0.7996007,-0.55972856,0.21758348,,0.044018533,-0.03306467,0.030389845,0.17627098,-0.28537008,0.9420681,-0.7808273,0.54221165,0.31034717,-0.59936404,-0.7902977,-0.12724856,,0.08298462,1.2897626,0.4272954,0.99165606,0.10045786,-0.08078651,0.018920895,-0.7333169,-0.67962366,-0.12751566,0.6724244,-0.7290989,,-0.12484971,0.265967,-0.10244565,-0.65506727,-0.61730796,0.4356808,0.59708774,-0.06958841,0.79915184,-0.46300447,0.7836379,0.41417208,,-0.05442922,0.4222696,-0.35854456,-0.05990054,0.38239634,-0.92205477,-0.97073066,-0.23753993,-0.03545029,-0.23258089,0.8929433,0.38543263,,1.1244994110829567,0.5642769229209622,0.21086101285000003,3.259210791579962,-0.494487492651129,-1.0583379825978718,-0.41195373479065234,,-1.2301463968023478,0.14215234401585056,0.16791622144,0.2973403398610555,0.22763640860922377,-0.9742304636153665,0.6737942728039018,,-0.07627525163528219,-0.034472434388453,0.0910472212,-0.1089195372335423,,2.0813197e-05,1.1324883e-06,1.1920929e-07,1.0,-1.8112361e-05,-1.6696751e-05,1.8112361e-05,1.0,-3.1590462e-06,1.6704202e-05,3.1590462e-06,1.0,666,2.04,0,0,0.0,False,-0.261427056305211,0.8482831105099442
2.054712885990739,16:05:41.603732,16:04:23.805878,0,,0.12729137,0.0009850711,0.032775387,0.5874246,0.7077986,-0.392369,0.064552635,0.4423122,0.89453506,0.8067003,-0.55080026,0.21413475,,0.044031866,-0.03305573,0.03035605,0.1762193,-0.28583023,0.9419382,-0.7809367,0.5419381,0.31054944,-0.5992366,-0.790319,-0.1277154,,0.08298462,1.2897626,0.4272954,0.99165606,0.10045786,-0.08078651,0.018920895,-0.7333169,-0.67962366,-0.12751566,0.6724244,-0.7290989,,-0.12472226,0.2660678,-0.102547504,-0.6458669,-0.62263364,0.4417956,0.60289425,-0.06094337,0.7954901,-0.46837437,0.7801367,0.41474354,,-0.054437645,0.42224717,-0.35851583,-0.05986493,0.38286307,-0.9218634,-0.97069263,-0.23766266,-0.03566885,-0.23274878,0.8927107,0.38587,,1.1251790115758884,0.5639757363388674,0.21078842061000003,3.2464197050274057,-0.5006361351405738,-1.0550394304744843,-0.4147305839149349,,-1.2301386740694737,0.14211373035147942,0.16795251756000001,0.2973403398610555,0.22749977210945835,-0.9737106520109672,0.6739576168700361,,-0.07627525163528219,-0.034472434388453,0.0910472212,-0.1089195372335423,,2.0813197e-05,1.1324883e-06,1.1920929e-07,1.0,-1.8112361e-05,-1.6696751e-05,1.8112361e-05,1.0,-3.1590462e-06,1.6704202e-05,3.1590462e-06,1.0,674,2.064,0,0,0.0,False,-0.2621419889274632,0.8486693521161799
2.0781823529396206,16:05:41.629747,16:04:23.805878,0,,0.12709337,0.0010179728,0.03292735,0.5720187,0.7165051,-0.399268,0.06530878,0.4454391,0.89292705,0.8176364,-0.53684676,0.20800549,,0.0440403,-0.03305275,0.030333877,0.17612922,-0.2876091,0.94141346,-0.7811266,0.5411393,0.31146336,-0.5990155,-0.790221,-0.12934871,,0.08298462,1.2897626,0.4272954,0.99165606,0.10045786,-0.08078651,0.018920895,-0.7333169,-0.67962366,-0.12751566,0.6724244,-0.7290989,,-0.12453567,0.26619673,-0.10265679,-0.63141584,-0.63220346,0.4490354,0.6110072,-0.04905892,0.79010344,-0.47747695,0.7732477,0.41725743,,-0.054442775,0.4222307,-0.3584993,-0.05980275,0.38463217,-0.92113066,-0.9706266,-0.23783733,-0.036296424,-0.23304003,0.8919033,0.38755754,,1.1260748485892984,0.5634119768390491,0.21072879127000002,3.2271282302268296,-0.5111571456225127,-1.0476037542518277,-0.414077207650398,,-1.2301309513365994,0.14208283941998254,0.16797455449,0.2973403398610555,0.22722649910992745,-0.9717725626606226,0.6741209609361705,,-0.07627525163528219,-0.034472434388453,0.0910472212,-0.1089195372335423,,2.0813197e-05,1.1324883e-06,1.1920929e-07,1.0,-1.8112361e-05,-1.6696751e-05,1.8112361e-05,1.0,-3.1590462e-06,1.6704202e-05,3.1590462e-06,1.0,682,2.089,0,0,0.0,False,-0.2621419889274632,0.8487659125177389
2.104183682007715,16:05:41.656927,16:04:23.805878,0,,0.12696825,0.001036562,0.032980725,0.5625787,0.72085,-0.4048214,0.06726828,0.4481228,0.89143753,0.8240025,-0.5287354,0.203614,,0.04404737,-0.03304977,0.030318916,0.17450494,-0.29174572,0.9404426,-0.78122437,0.54034865,0.31258893,-0.5993634,-0.78924507,-0.13362542,,0.08298462,1.2897626,0.4272954,0.99165606,0.10045786,-0.08078651,0.018920895,-0.7333169,-0.67962366,-0.12751566,0.6724244,-0.7290989,,-0.12441437,0.26624715,-0.102696694,-0.622416,-0.6369873,0.45480263,0.61682975,-0.04152294,0.78600055,-0.48178768,0.7697551,0.41875732,,-0.054447636,0.42222,-0.3584873,-0.058142487,0.38860044,-0.9195701,-0.9707342,-0.2370051,-0.038778327,-0.23301208,0.89040345,0.3910078,,1.126507321630255,0.562994949263841,0.21071323579,3.2145468336177587,-0.516212696113834,-1.0435629705552008,-0.41391386358426363,,-1.230115505870851,0.14207511668710832,0.16799010997000002,0.2990178594089317,0.2269532261103966,-0.9671390748856394,0.6747743372007076,,-0.07627525163528219,-0.034472434388453,0.0910472212,-0.1089195372335423,,2.0813197e-05,1.1324883e-06,1.1920929e-07,1.0,-1.8112361e-05,-1.6696751e-05,1.8112361e-05,1.0,-3.1590462e-06,1.6704202e-05,3.1590462e-06,1.0,690,2.113,0,0,0.0,False,-0.26243987752006825,0.848814192718518
2.1313763938378543,16:05:41.680283,16:04:23.935871,0,,0.12678406,0.0010695606,0.033056155,0.5421744,0.73125184,-0.41390517,0.06959367,0.45181707,0.8893919,0.8373789,-0.5110108,0.19407314,,0.04404757,-0.0330484,0.030315101,0.17450172,-0.29282737,0.9401069,-0.7812256,0.53998846,0.31320757,-0.5993627,-0.789091,-0.13453536,,0.08298462,1.2897626,0.4272954,0.99165606,0.10045786,-0.08078651,0.018920895,-0.7333169,-0.67962366,-0.12751566,0.6724244,-0.7290989,,-0.12423511,0.26632333,-0.10274935,-0.6030804,-0.64851195,0.46446344,0.62776816,-0.026626786,0.7779448,-0.4921393,0.7607387,0.42317325,,-0.05444731,0.42221788,-0.35848385,-0.058139384,0.38965803,-0.91912264,-0.97073394,-0.23696063,-0.039054353,-0.23301373,0.88995296,0.392031,,1.1269629628698343,0.5622072305106701,0.21071712466000003,3.1889646605126463,-0.5282367080931928,-1.0331864438489315,-0.4147305839149349,,-1.2301077831379768,0.14207511668710832,0.16799399884000002,0.2990178594089317,0.2269532261103966,-0.9659955725236715,0.6747743372007075,,-0.07627525163528219,-0.034472434388453,0.0910472212,-0.1089195372335423,,2.0813197e-05,1.1324883e-06,1.1920929e-07,1.0,-1.8112361e-05,-1.6696751e-05,1.8112361e-05,1.0,-3.1590462e-06,1.6704202e-05,3.1590462e-06,1.0,719,2.204,0,0,0.0,False,-0.2621419889274632,0.8491521541239746
2.1547271928284317,16:05:41.769016,16:04:23.935871,0,,0.12634547,0.0010990873,0.032977358,0.48564374,0.7576842,-0.4359641,0.07413769,0.46122864,0.8841785,0.8710073,-0.46171725,0.16781983,,0.044062793,-0.033041485,0.030288756,0.17407551,-0.29590568,0.9392216,-0.781311,0.53903514,0.31463358,-0.59937537,-0.78859425,-0.13736157,,0.08298462,1.2897626,0.4272954,0.99165606,0.10045786,-0.08078651,0.018920895,-0.7333169,-0.67962366,-0.12751566,0.6724244,-0.7290989,,-0.12379052,0.26629075,-0.10272259,-0.5493724,-0.67815036,0.48816192,0.654331,0.01417939,0.75607526,-0.5196546,0.7347864,0.43594506,,-0.054458644,0.42219967,-0.35846114,-0.05771352,0.39265695,-0.91787237,-0.9707383,-0.23674455,-0.040239442,-0.23310158,0.8886915,0.3948305,,1.1269475174040857,0.5593884330115781,0.21089860526,3.1203960489932068,-0.5611661045366639,-1.0037210093735962,-0.4148939279810695,,-1.2301232286037254,0.14203650302273718,0.16802381351,0.29943723929590077,0.22681658961063117,-0.9626170050143525,0.6767344659943189,,-0.07627525163528219,-0.034472434388453,0.0910472212,-0.1089195372335423,,2.0813197e-05,1.1324883e-06,1.1920929e-07,1.0,-1.8112361e-05,-1.6696751e-05,1.8112361e-05,1.0,-3.1590462e-06,1.6704202e-05,3.1590462e-06,1.0,727,2.228,0,0,0.0,False,-0.26101001227556386,0.8505522799465788
2.2434648119378835,16:05:41.799959,16:04:23.935871,0,,0.12609422,0.0011215359,0.03289421,0.450745,0.77177936,-0.44853702,0.075896025,0.46752274,0.88071686,0.8894204,-0.43102095,0.15215859,,0.0440713,-0.033037134,0.030277014,0.17403716,-0.29582247,0.939255,-0.7809871,0.53950584,0.314631,-0.59980845,-0.78830355,-0.13713947,,0.08298462,1.2897626,0.4272954,0.99165606,0.10045786,-0.08078651,0.018920895,-0.7333169,-0.67962366,-0.12751566,0.6724244,-0.7290989,,-0.12353221,0.2662499,-0.10267617,-0.516102,-0.69422376,0.50168926,0.6683518,0.03990651,0.74277407,-0.53567207,0.7186521,0.44338986,,-0.05446544,0.42219207,-0.35844994,-0.057621464,0.39251631,-0.9179383,-0.97086805,-0.23623994,-0.040073708,-0.23258327,0.8888879,0.39469403,,1.1267003899521106,0.5577280454436199,0.21103990087000002,3.0786677502397866,-0.5805684875033564,-0.9854493048444876,-0.4160373364440091,,-1.2301309513365994,0.14199016662549183,0.16803936899000002,0.2996469292393853,0.2273631356096929,-0.962735961668576,0.6767344659943189,,-0.07627525163528219,-0.034472434388453,0.0910472212,-0.1089195372335423,,2.0813197e-05,1.1324883e-06,1.1920929e-07,1.0,-1.8112361e-05,-1.6696751e-05,1.8112361e-05,1.0,-3.1590462e-06,1.6704202e-05,3.1590462e-06,1.0,735,2.253,0,0,0.0,False,-0.2616653671792948,0.8510833621551526
2.274406444048509,16:05:41.821193,16:04:24.082787,0,,0.12596112,0.0011416003,0.032877162,0.43032664,0.77906406,-0.45593643,0.07652217,0.47179306,0.8783823,0.89942384,-0.4128807,0.14340946,,0.044081517,-0.033029832,0.030247986,0.17425278,-0.29575512,0.9392362,-0.78094244,0.53949213,0.31476524,-0.5998039,-0.78833824,-0.13695975,,0.08298462,1.2897626,0.4272954,0.99165606,0.10045786,-0.08078651,0.018920895,-0.7333169,-0.67962366,-0.12751566,0.6724244,-0.7290989,,-0.12339701,0.2662528,-0.10266534,-0.49660364,-0.7026413,0.5095881,0.6757325,0.055509858,0.7350539,-0.5447664,0.7093757,0.44723114,,-0.054471444,0.42217273,-0.35842562,-0.057836663,0.39245534,-0.9179508,-0.97086644,-0.23628448,-0.039849002,-0.23253648,0.88890296,0.39468762,,1.1265613807603745,0.5569480494233232,0.21110601166,3.054343716795582,-0.5914994074845917,-0.9751473339663843,-0.41522061611333805,,-1.230115505870851,0.1419438302282465,0.16807047995000002,0.29943723929590077,0.22749977210945835,-0.9628473795722725,0.6767344659943189,,-0.07627525163528219,-0.034472434388453,0.0910472212,-0.1089195372335423,,2.0813197e-05,1.1324883e-06,1.1920929e-07,1.0,-1.8112361e-05,-1.6696751e-05,1.8112361e-05,1.0,-3.1590462e-06,1.6704202e-05,3.1590462e-06,1.0,743,2.277,1,1,0.0,False,-0.26196325577190027,0.8510833621551526
2.295642453012988,16:05:41.844779,16:04:24.082787,0,,0.12585148,0.0011670515,0.03289567,0.41065532,0.78611857,-0.46193042,0.07663289,0.4750693,0.87660503,0.90856457,-0.3953816,0.13484716,,0.04410109,-0.033022262,0.030197203,0.17418279,-0.29750836,0.9386953,-0.78108674,0.5387447,0.31568593,-0.5996364,-0.78818953,-0.1385398,,0.08298462,1.2897626,0.4272954,0.99165606,0.10045786,-0.08078651,0.018920895,-0.7333169,-0.67962366,-0.12751566,0.6724244,-0.7290989,,-0.12328763,0.2662841,-0.10267375,-0.47781557,-0.7108543,0.51611865,0.68214387,0.069951594,0.7278643,-0.5535088,0.69985205,0.45148095,,-0.054483473,0.42213544,-0.35838717,-0.057787836,0.39418992,-0.91721034,-0.9708164,-0.23639174,-0.040428966,-0.23275764,0.8881065,0.3963466,,1.1264300943015129,0.556392012656379,0.21115138181,3.0310681330687994,-0.6018837814667652,-0.9641475323410988,-0.41407720765039757,,-1.2300923376722284,0.1418511574337558,0.16812233155,0.29943723929590077,0.2273631356096929,-0.9609390293854836,0.6770611541265875,,-0.07627525163528219,-0.034472434388453,0.0910472212,-0.1089195372335423,,2.0813197e-05,1.1324883e-06,1.1920929e-07,1.0,-1.8112361e-05,-1.6696751e-05,1.8112361e-05,1.0,-3.1590462e-06,1.6704202e-05,3.1590462e-06,1.0,756,2.318,1,1,0.041,False,-0.26136747858668974,0.850938521552814
2.319208647822961,16:05:41.884454,16:04:24.082787,0,,0.12565224,0.0012193322,0.03294067,0.37164474,0.79936516,-0.472118,0.0750297,0.48101696,0.87349474,0.92533815,-0.36005265,0.11879131,,0.04411968,-0.033025987,0.030167103,0.17246725,-0.3053577,0.936489,-0.78139496,0.5364463,0.31882176,-0.5997307,-0.78675413,-0.14608558,,0.08298462,1.2897626,0.4272954,0.99165606,0.10045786,-0.08078651,0.018920895,-0.7333169,-0.67962366,-0.12751566,0.6724244,-0.7290989,,-0.12308937,0.26635322,-0.10269301,-0.44058606,-0.7264984,0.52733666,0.69260526,0.098626725,0.7145423,-0.57112336,0.68005353,0.45972306,,-0.054497235,0.42210728,-0.3583703,-0.0560684,0.40180743,-0.9140061,-0.97084534,-0.23562823,-0.04402971,-0.2330571,0.8848899,0.40330416,,1.1260748485892984,0.5554112255813525,0.21124341840000002,2.985565415332658,-0.622925802430643,-0.9415166995824321,-0.4148939279810693,,-1.2300923376722284,0.14176620737213932,0.16815084993,0.301114758843777,0.22681658961063117,-0.9522438050165012,0.6765711219281847,,-0.07627525163528219,-0.034472434388453,0.0910472212,-0.1089195372335423,,2.0813197e-05,1.1324883e-06,1.1920929e-07,1.0,-1.8112361e-05,-1.6696751e-05,1.8112361e-05,1.0,-3.1590462e-06,1.6704202e-05,3.1590462e-06,1.0,764,2.343,1,1,0.066,False,-0.2623802998015474,0.8518558453676239
2.358898395905271,16:05:41.911932,16:04:24.082787,0,,0.12555721,0.0012480468,0.032956555,0.34795046,0.8082776,-0.4749923,0.07219291,0.48204678,0.8731661,0.93472916,-0.3381096,0.10937649,,0.044136755,-0.03301487,0.030146778,0.17166643,-0.30914363,0.9353933,-0.7806096,0.5365394,0.32058406,-0.60098183,-0.7852106,-0.14921474,,0.08298462,1.2897626,0.4272954,0.99165606,0.10045786,-0.08078651,0.018920895,-0.7333169,-0.67962366,-0.12751566,0.6724244,-0.7290989,,-0.12299404,0.26638505,-0.10269558,-0.41805255,-0.7371036,0.53095233,0.6970612,0.11450848,0.707809,-0.58252704,0.6660076,0.46593574,,-0.054511447,0.4220961,-0.35834792,-0.05511571,0.4053162,-0.91251355,-0.9712189,-0.23385833,-0.045212645,-0.23172432,0.8837585,0.40654,,1.1256887119455872,0.5548551888144083,0.21131471435000002,2.9587251025666386,-0.6367260889069526,-0.9249543731999571,-0.4153839601794722,,-1.2301077831379768,0.14168898004339708,0.16818066460000003,0.30237289850468413,0.2280463181085201,-0.9481824842610542,0.6775511863249903,,-0.07627525163528219,-0.034472434388453,0.0910472212,-0.1089195372335423,,2.0813197e-05,1.1324883e-06,1.1920929e-07,1.0,-1.8112361e-05,-1.6696751e-05,1.8112361e-05,1.0,-3.1590462e-06,1.6704202e-05,3.1590462e-06,1.0,773,2.372,1,1,0.095,False,-0.26136747858668974,0.8571666674533645
2.386360399890691,16:05:41.936397,16:04:24.082787,0,,0.12546173,0.0012751743,0.032979146,0.32699093,0.81495774,-0.47845662,0.07124862,0.4835879,0.87239116,0.94233775,-0.3193534,0.10006425,,0.04415693,-0.033003516,0.030092776,0.17148155,-0.31131324,0.9347074,-0.7805743,0.53592324,0.3216986,-0.60108054,-0.78477407,-0.15110216,,0.08298462,1.2897626,0.4272954,0.99165606,0.10045786,-0.08078651,0.018920895,-0.7333169,-0.67962366,-0.12751566,0.6724244,-0.7290989,,-0.12289896,0.2664204,-0.102704145,-0.3979393,-0.7451851,0.5351107,0.70165306,0.12856294,0.7008242,-0.5910391,0.65434754,0.47170117,,-0.054523703,0.42205855,-0.35830438,-0.05491944,0.40741515,-0.9115902,-0.9712481,-0.23360464,-0.04589087,-0.23164834,0.88286,0.40853062,,1.1253875253634924,0.5544536067049487,0.21136267708000003,2.933981689235465,-0.6469738263893605,-0.9103087674319021,-0.4155473042456064,,-1.23007689220648,0.14159630724890637,0.16823770136000002,0.30258258844816865,0.22818295460828555,-0.9458435399605336,0.6821248201767502,,-0.07627525163528219,-0.034472434388453,0.0910472212,-0.1089195372335423,,2.0813197e-05,1.1324883e-06,1.1920929e-07,1.0,-1.8112361e-05,-1.6696751e-05,1.8112361e-05,1.0,-3.1590462e-06,1.6704202e-05,3.1590462e-06,1.0,786,2.412,1,1,0.135,False,-0.26202283349042155,0.858373672472851
2.410842631943524,16:05:41.974273,16:04:24.082787,0,,0.1252823,0.0012895763,0.03298463,0.28572878,0.8253229,-0.4870329,0.06815851,0.48943138,0.86937416,0.9558836,-0.28160065,0.08359185,,0.044183284,-0.03298489,0.030056238,0.16674647,-0.31328547,0.9349052,-0.7793083,0.5390039,0.31961423,-0.6040481,-0.78187406,-0.15426901,,0.08298462,1.2897626,0.4272954,0.99165606,0.10045786,-0.08078651,0.018920895,-0.7333169,-0.67962366,-0.12751566,0.6724244,-0.7290989,,-0.12272005,0.2664348,-0.102718696,-0.3583197,-0.75817716,0.54477006,0.7088131,0.15883894,0.68728036,-0.60761094,0.6324062,0.48049074,,-0.0545449,0.42203817,-0.3582655,-0.04983812,0.40883362,-0.9112471,-0.9721152,-0.2291858,-0.049657736,-0.22914664,0.8833623,0.40885556,,1.1245071338158308,0.5535423242257902,0.21146119512000003,2.88554331229054,-0.6673326648544111,-0.8843961234051113,-0.4162006805101437,,-1.230046001274983,0.1415036344544157,0.16828825667000002,0.3082442169222508,0.22982259260547083,-0.9432599752781436,0.6834315727058243,,-0.07627525163528219,-0.034472434388453,0.0910472212,-0.1089195372335423,,2.0813197e-05,1.1324883e-06,1.1920929e-07,1.0,-1.8112361e-05,-1.6696751e-05,1.8112361e-05,1.0,-3.1590462e-06,1.6704202e-05,3.1590462e-06,1.0,795,2.441,1,1,0.164,False,-0.26202283349042155,0.8590013150829838
