AlexandreBanks6/ExpertPlaybackApp/resources/Motions/P_19/PC1/Data_PC1_2.csv
Task Time,PC1 Time,PC2 Time,Gaze Calib,s_T_psm1,Tx,Ty,Tz,R00,R01,R02,R10,R11,R12,R20,R21,R22,s_T_psm3,Tx,Ty,Tz,R00,R01,R02,R10,R11,R12,R20,R21,R22,cart_T_ecm,Tx,Ty,Tz,R00,R01,R02,R10,R11,R12,R20,R21,R22,ecm_T_psm1,Tx,Ty,Tz,R00,R01,R02,R10,R11,R12,R20,R21,R22,ecm_T_psm3,Tx,Ty,Tz,R00,R01,R02,R10,R11,R12,R20,R21,R22,psm1_joints,q1,q2,q3,q4,q5,q6,jaw,psm3_joints,q1,q2,q3,q4,q5,q6,jaw,ecm_joints,q1,q2,q3,q4,ecmi_T_ecm,Tx,Ty,Tz,R00,R01,R02,R10,R11,R12,R20,R21,R22,Sample #,Task Duration (s),Collisions (binary),Collisions (increments),Cumulative Collision Time (s),Clutch Press,MTMR Angle,MTML Angle
""
lci_T_si,,,,,-0.050445605,0.031140205,0.20799266,0.9865919,-0.013161347,0.16267522,0.100886725,-0.734317,-0.67126775,0.12828997,0.67867905,-0.7231434
rci_T_si,,,,,-0.059559833,0.035046782,0.21627636,0.9849687,-0.028336054,0.17039265,0.097400196,-0.72355855,-0.6833566,0.14265269,0.6896812,-0.7099226
ecm_T_lc,,,,,-4.4061628e-05,-0.00034663224,-0.01840835,-0.99912,0.030754527,0.028518902,-0.031987965,-0.99852574,-0.043852776,0.027128186,-0.04472645,0.9986309
ecm_T_rc,,,,,-0.0043358393,0.01870579,-0.007592615,-0.99555075,-0.052743673,-0.078081585,0.04863213,-0.9973746,0.053654674,-0.08070653,0.04961868,0.9955021
cart_T_ecmi,,,,,0.08296387,1.2897631,0.42729735,0.9916556,0.10047608,-0.08076963,0.018945528,-0.7333144,-0.6796257,-0.12751566,0.6724244,-0.7290989
ecmac_T_ecmrep_psm1,,,,,0.022898523,-0.26913688,-0.29720387,0.9902475,0.13300471,0.041468147,-0.1315095,0.99062705,-0.036922794,-0.045990374,0.031109251,0.9984574
ecmac_T_ecmrep_psm3,,,,,0.02078248,-0.4666591,-0.5231304,0.997355,0.0035024614,0.07259993,-0.011652398,0.993624,0.11214125,-0.07174426,-0.1126906,0.99103665
""
0,16:04:34.903870,16:03:17.143860,0,,0.12799285,-0.002905406,0.012302637,0.97099805,0.23858525,-0.015484583,-0.03253196,0.19600692,0.9800627,0.23686358,-0.9511353,0.19808397,,0.07324946,-0.012648477,0.028549552,-0.73210883,-0.20395184,0.6499384,-0.017563403,0.95946014,0.28129646,-0.680961,0.19452447,-0.70601153,,0.08298951,1.2897635,0.42729357,0.99165606,0.100458026,-0.08078636,0.018921115,-0.73331684,-0.6796237,-0.12751566,0.6724244,-0.7290989,,-0.12401928,0.24912174,-0.09042158,-0.9869447,-0.14231929,0.07540213,0.13888538,-0.5149771,0.8458779,-0.081554376,0.84530693,0.52801996,,-0.08370398,0.4294707,-0.33941096,0.8255679,0.14184436,-0.5461848,-0.4378664,0.7715716,-0.46146536,0.3559644,0.62012696,0.69909364,,1.0687567251968042,0.5185274533740563,0.22217243939000003,3.9054751973992663,-0.10671310631680898,-1.0672665728795203,-0.41685405677468046,,-1.3855200594988708,0.18600202127569732,0.19024481669,1.6393559781620113,0.18336618268522106,-0.25006935587362966,0.8345248338800327,,-0.07627525163528219,-0.034472434388453,0.0910472212,-0.1089195372335423,,2.5909394e-05,-1.7881393e-07,4.7683716e-07,1.0,-1.7948449e-05,-1.655519e-05,1.7948449e-05,1.0,-3.1292439e-06,1.655519e-05,3.1292439e-06,1.0,36,0.108,0,0,0.0,False,-0.2617249448978165,1.0086216572985258
0.12150769890286028,16:04:34.931929,16:03:17.143860,0,,0.12807603,-0.002821654,0.0129476935,0.9677341,0.25117928,-0.01998591,-0.030762669,0.19650006,0.98002106,0.2500882,-0.94778514,0.1978868,,0.07324495,-0.012649371,0.028546214,-0.73242444,-0.20316496,0.64982927,-0.016864121,0.9595615,0.2809932,-0.6806393,0.19484746,-0.7062327,,0.08298951,1.2897635,0.42729357,0.99165606,0.100458026,-0.08078636,0.018921115,-0.73331684,-0.6796237,-0.12751566,0.6724244,-0.7290989,,-0.12414921,0.24962749,-0.09081825,-0.98466784,-0.15507187,0.07988717,0.14929765,-0.5123217,0.84571666,-0.090218924,0.844677,0.5276186,,-0.083698995,0.42946815,-0.33940995,0.8258094,0.14101532,-0.5460343,-0.43714195,0.7717767,-0.4618091,0.3562944,0.6200608,0.6989842,,1.0701004807169192,0.5203345728666248,0.22175503401000002,3.8943616303945863,-0.11545784230179718,-1.0649548727112426,-0.41701740084081473,,-1.385489168567374,0.18600974400857154,0.19024481669,1.6401947379359496,0.18336618268522106,-0.2502327133539108,0.8341981457477642,,-0.07627525163528219,-0.034472434388453,0.0910472212,-0.1089195372335423,,2.5909394e-05,-1.7881393e-07,4.7683716e-07,1.0,-1.7948449e-05,-1.655519e-05,1.7948449e-05,1.0,-3.1292439e-06,1.655519e-05,3.1292439e-06,1.0,44,0.133,0,0,0.0,False,-0.26160578946077395,1.0080905750899518
0.14954178384505212,16:04:34.963068,16:03:17.143860,0,,0.12816052,-0.0027211383,0.013564572,0.9642618,0.2640944,-0.021286607,-0.03241878,0.19734159,0.97979856,0.26296005,-0.9440924,0.19885057,,0.073247746,-0.012650146,0.028547466,-0.7324139,-0.20300181,0.64989215,-0.016859591,0.9596321,0.2807525,-0.6806508,0.19467017,-0.7062706,,0.08298951,1.2897635,0.42729357,0.99165606,0.100458026,-0.08078636,0.018921115,-0.73331684,-0.6796237,-0.12751566,0.6724244,-0.7290989,,-0.124276794,0.25012594,-0.09118304,-0.98242205,-0.16814484,0.08108151,0.15698819,-0.50917816,0.8462224,-0.10100299,0.8440764,0.5266246,,-0.083701916,0.42946824,-0.33941108,0.8258006,0.14087823,-0.54608303,-0.43714944,0.77166075,-0.46199575,0.35630572,0.6202363,0.69882274,,1.0715137408329023,0.5220644650304511,0.22137392475000003,3.885974032655205,-0.12625212578326697,-1.0632589087114541,-0.4152206161133377,,-1.3855046140331224,0.18600202127569732,0.19024481669,1.6401947379359496,0.18336618268522106,-0.25047774957433244,0.8337081135493614,,-0.07627525163528219,-0.034472434388453,0.0910472212,-0.1089195372335423,,2.5909394e-05,-1.7881393e-07,4.7683716e-07,1.0,-1.7948449e-05,-1.655519e-05,1.7948449e-05,1.0,-3.1292439e-06,1.655519e-05,3.1292439e-06,1.0,52,0.157,0,0,0.0,False,-0.261427056305211,1.0082836958930697
0.18066626298241317,16:04:34.983014,16:03:17.143860,0,,0.1281978,-0.002674669,0.013979197,0.9618901,0.27232048,-0.02467522,-0.03135261,0.19948795,0.9793986,0.2716327,-0.94130015,0.20042351,,0.073247865,-0.012650444,0.028547287,-0.7324877,-0.20261835,0.64992875,-0.016682237,0.95973784,0.28040144,-0.6805757,0.19454834,-0.70637643,,0.08298951,1.2897635,0.42729357,0.99165606,0.100458026,-0.08078636,0.018921115,-0.73331684,-0.6796237,-0.12751566,0.6724244,-0.7290989,,-0.12434481,0.25044572,-0.0914449,-0.9807065,-0.17638242,0.08428537,0.16374868,-0.50570685,0.8470224,-0.10677617,0.84448195,0.5248324,,-0.083702005,0.42946795,-0.33941123,0.8258566,0.14051399,-0.54609215,-0.43697166,0.7715794,-0.4622997,0.35639387,0.6204201,0.6986146,,1.072432746044935,0.5231533703657167,0.22110170385000003,3.878634884633247,-0.1321274952731809,-1.0635320207412229,-0.4168540567746807,,-1.3855046140331224,0.18600202127569732,0.19024481669,1.6404044278794339,0.18336618268522106,-0.2508044645348947,0.8337081135493614,,-0.07627525163528219,-0.034472434388453,0.0910472212,-0.1089195372335423,,2.5909394e-05,-1.7881393e-07,4.7683716e-07,1.0,-1.7948449e-05,-1.655519e-05,1.7948449e-05,1.0,-3.1292439e-06,1.655519e-05,3.1292439e-06,1.0,59,0.178,0,0,0.0,False,-0.2618441003348577,1.0080905750899518
0.2006323419045657,16:04:35.016961,16:03:17.272577,0,,0.12836537,-0.0025990605,0.014860436,0.9561325,0.29163653,-0.027545497,-0.034600303,0.20580915,0.97798026,0.29088387,-0.93412566,0.20687151,,0.07324628,-0.012652381,0.028545022,-0.7328655,-0.2018154,0.6497525,-0.015800983,0.9597851,0.2802904,-0.68018985,0.19514853,-0.70658255,,0.08298951,1.2897635,0.42729357,0.99165606,0.100458026,-0.08078636,0.018921115,-0.73331684,-0.6796237,-0.12751566,0.6724244,-0.7290989,,-0.12457892,0.25110853,-0.092007264,-0.9768472,-0.19567692,0.08648782,0.17469355,-0.49620217,0.8504502,-0.12349803,0.84586877,0.5188972,,-0.08370003,0.42946517,-0.33941147,0.82614434,0.1396295,-0.5458838,-0.43607655,0.7719634,-0.4625038,0.35682312,0.620142,0.6986424,,1.0741008563457675,0.5255551402896006,0.22052485480000003,3.8666825578546296,-0.14866051174479922,-1.066467881162209,-0.41767077710535205,,-1.385489168567374,0.18600202127569732,0.19024481669,1.6414528775968567,0.18336618268522106,-0.25072278579475415,0.8338714576154956,,-0.07627525163528219,-0.034472434388453,0.0910472212,-0.1089195372335423,,2.5909394e-05,-1.7881393e-07,4.7683716e-07,1.0,-1.7948449e-05,-1.655519e-05,1.7948449e-05,1.0,-3.1292439e-06,1.655519e-05,3.1292439e-06,1.0,71,0.214,0,0,0.0,False,-0.2607717014014801,1.007800893885275
0.23458698787726462,16:04:35.042273,16:03:17.272577,0,,0.1285848,-0.00255391,0.01524432,0.9529124,0.3021617,-0.025614362,-0.040743083,0.2112743,0.9765772,0.30049592,-0.9295491,0.2136369,,0.07324739,-0.012652143,0.028545856,-0.73286074,-0.20181546,0.649758,-0.01579827,0.95978487,0.28029135,-0.6801952,0.19514948,-0.7065771,,0.08298951,1.2897635,0.42729357,0.99165606,0.100458026,-0.08078636,0.018921115,-0.73331684,-0.6796237,-0.12751566,0.6724244,-0.7290989,,-0.12482543,0.25140592,-0.09222712,-0.9749304,-0.20608824,0.08389504,0.17688733,-0.4891004,0.85410285,-0.13498746,0.8475308,0.51329327,,-0.08370125,0.4294658,-0.33941174,0.8261403,0.13962942,-0.54589,-0.43607962,0.771964,-0.46249983,0.35682887,0.6201412,0.6986401,,1.0743788747292395,0.5269606776727094,0.22030318921000003,3.864375968476299,-0.159454795226269,-1.0710611801532437,-0.41587399237787503,,-1.3854968913002481,0.18600202127569732,0.19024481669,1.6414528775968567,0.18336618268522106,-0.25072278579475415,0.8338714576154956,,-0.07627525163528219,-0.034472434388453,0.0910472212,-0.1089195372335423,,2.5909394e-05,-1.7881393e-07,4.7683716e-07,1.0,-1.7948449e-05,-1.655519e-05,1.7948449e-05,1.0,-3.1292439e-06,1.655519e-05,3.1292439e-06,1.0,79,0.239,0,0,0.0,False,-0.26148663402373185,1.0076560532829368
0.25988542987033725,16:04:35.059088,16:03:17.272577,0,,0.12880506,-0.0025133044,0.01555945,0.9499095,0.31138533,-0.026661754,-0.042411424,0.2129601,0.97614,0.30963358,-0.926114,0.2154991,,0.07324218,-0.012653395,0.028543651,-0.7331014,-0.20114632,0.6496939,-0.015276164,0.95989376,0.27994737,-0.6799477,0.19530502,-0.7067723,,0.08298951,1.2897635,0.42729357,0.99165606,0.100458026,-0.08078636,0.018921115,-0.73331684,-0.6796237,-0.12751566,0.6724244,-0.7290989,,-0.12506738,0.2516526,-0.09240057,-0.97284025,-0.21540646,0.08474597,0.18199092,-0.4855198,0.855073,-0.1430424,0.84727246,0.5115352,,-0.08369574,0.42946404,-0.3394117,0.8263246,0.13894144,-0.5457866,-0.4355324,0.7720602,-0.4628548,0.35707042,0.620176,0.6984858,,1.0743788747292395,0.5282735422613276,0.22012689377000003,3.8591337198891864,-0.16683316621360278,-1.0714972338247415,-0.41718074490694934,,-1.3854660003687513,0.18600974400857154,0.19024352040000003,1.64208194742731,0.18336618268522106,-0.25096782201517587,0.8333814254170928,,-0.07627525163528219,-0.034472434388453,0.0910472212,-0.1089195372335423,,2.5909394e-05,-1.7881393e-07,4.7683716e-07,1.0,-1.7948449e-05,-1.655519e-05,1.7948449e-05,1.0,-3.1292439e-06,1.655519e-05,3.1292439e-06,1.0,90,0.272,0,0,0.0,False,-0.2621419889274632,1.0076077730821573
0.2767102688085288,16:04:35.096827,16:03:17.272577,0,,0.12904954,-0.002498664,0.016149804,0.94727397,0.31908646,-0.029250681,-0.041295238,0.21209794,0.97637546,0.3177522,-0.9236872,0.21409175,,0.07324139,-0.0126568815,0.02854085,-0.7332562,-0.2006895,0.64966047,-0.014928728,0.95997155,0.27969936,-0.67978835,0.19539273,-0.7069014,,0.08298951,1.2897635,0.42729357,0.99165606,0.100458026,-0.08078636,0.018921115,-0.73331684,-0.6796237,-0.12751566,0.6724244,-0.7290989,,-0.1253584,0.25207043,-0.09278691,-0.9708125,-0.22332698,0.08745381,0.18840547,-0.484477,0.8542748,-0.14841324,0.8458174,0.51241237,,-0.08369443,0.42945984,-0.33941275,0.8264427,0.13847439,-0.54572636,-0.43517312,0.77211374,-0.46310338,0.35723484,0.62021387,0.69836813,,1.0746182794483405,0.5304050165346136,0.21972634016000003,3.8522139517541967,-0.17106889770633144,-1.0682883150305742,-0.41701740084081496,,-1.3854505549030027,0.1859942985428231,0.19024352040000003,1.6425013273142792,0.18336618268522106,-0.25113117949545694,0.8333814254170927,,-0.07627525163528219,-0.034472434388453,0.0910472212,-0.1089195372335423,,2.5909394e-05,-1.7881393e-07,4.7683716e-07,1.0,-1.7948449e-05,-1.655519e-05,1.7948449e-05,1.0,-3.1292439e-06,1.655519e-05,3.1292439e-06,1.0,98,0.296,0,0,0.0,False,-0.2608908568385213,1.006738729468127
0.31443859194405377,16:04:35.124479,16:03:17.384832,0,,0.12920754,-0.0025177822,0.016472653,0.9464174,0.3216528,-0.02886891,-0.042289376,0.21205887,0.97634137,0.32016486,-0.9228057,0.21429875,,0.07323859,-0.012656166,0.028539658,-0.7332668,-0.20048112,0.6497129,-0.014933318,0.9600612,0.27939117,-0.6797769,0.19516593,-0.706975,,0.08298951,1.2897635,0.42729357,0.99165606,0.100458026,-0.08078636,0.018921115,-0.73331684,-0.6796237,-0.12751566,0.6724244,-0.7290989,,-0.1255438,0.25227925,-0.09301399,-0.97024053,-0.22595313,0.08705459,0.18935247,-0.48389965,0.85439265,-0.150927,0.84545034,0.5122838,,-0.08369151,0.42945975,-0.33941165,0.8264516,0.13829936,-0.54575735,-0.43516564,0.77196515,-0.46335804,0.3572235,0.6204378,0.69817495,,1.0745642203182209,0.5316097628629926,0.21949171167000003,3.8511655020367743,-0.1727085357035167,-1.0674413726270604,-0.41636402457627786,,-1.3854351094372543,0.18600202127569732,0.19024352040000003,1.6425013273142792,0.18336618268522106,-0.2514578944560192,0.8330547372848243,,-0.07627525163528219,-0.034472434388453,0.0910472212,-0.1089195372335423,,2.5909394e-05,-1.7881393e-07,4.7683716e-07,1.0,-1.7948449e-05,-1.655519e-05,1.7948449e-05,1.0,-3.1292439e-06,1.655519e-05,3.1292439e-06,1.0,106,0.321,0,0,0.0,False,-0.2613079008681689,1.007076690873583
0.3420850688125938,16:04:35.152919,16:03:17.384832,0,,0.1293085,-0.002627641,0.016830519,0.94443417,0.32709697,-0.032426413,-0.04055687,0.21385774,0.97602254,0.32618865,-0.920474,0.21524054,,0.073237486,-0.012660875,0.028539598,-0.73363596,-0.19935179,0.64964354,-0.013805717,0.9601766,0.27905238,-0.67940223,0.19575405,-0.7071725,,0.08298951,1.2897635,0.42729357,0.99165606,0.100458026,-0.08078636,0.018921115,-0.73331684,-0.6796237,-0.12751566,0.6724244,-0.7290989,,-0.12568256,0.25244668,-0.09333501,-0.96863776,-0.23141575,0.090485245,0.19476625,-0.48099455,0.85481596,-0.15429497,0.8456305,0.5109815,,-0.083690256,0.42945695,-0.3394154,0.8267245,0.1370919,-0.5456485,-0.4341281,0.7723373,-0.4637109,0.3578537,0.62024254,0.6980257,,1.0745719430510952,0.5324438180134088,0.21916763917,3.8455038735626923,-0.17571453869835643,-1.0680122921309398,-0.41685405677468035,,-1.385419663971506,0.1859942985428231,0.19024092782000002,1.6437594669751863,0.1835028191849865,-0.2515693123597156,0.8330547372848243,,-0.07627525163528219,-0.034472434388453,0.0910472212,-0.1089195372335423,,2.5909394e-05,-1.7881393e-07,4.7683716e-07,1.0,-1.7948449e-05,-1.655519e-05,1.7948449e-05,1.0,-3.1292439e-06,1.655519e-05,3.1292439e-06,1.0,118,0.358,0,0,0.0,False,-0.262797343831195,1.0063524878618912
0.3705597559455782,16:04:35.176846,16:03:17.384832,0,,0.12932079,-0.002690427,0.016991839,0.94331753,0.33027443,-0.032722495,-0.04166741,0.21566597,0.9755778,0.3292655,-0.9189162,0.21720311,,0.07323095,-0.0126601895,0.028533876,-0.73441136,-0.19979113,0.6486318,-0.014003873,0.9599483,0.27982688,-0.67856,0.19642466,-0.7077949,,0.08298951,1.2897635,0.42729357,0.99165606,0.100458026,-0.08078636,0.018921115,-0.73331684,-0.6796237,-0.12751566,0.6724244,-0.7290989,,-0.12571314,0.2525126,-0.09349261,-0.96787196,-0.23456116,0.090580836,0.19608779,-0.47861442,0.85584915,-0.15739568,0.8461142,0.5092321,,-0.08368297,0.42945382,-0.33941177,0.8273717,0.13743353,-0.54458064,-0.43349266,0.77277535,-0.4635756,0.35712767,0.61962104,0.6989489,,1.074741843174328,0.5326368863352644,0.21901208437000003,3.844036043958301,-0.17885717819296154,-1.0695336173529504,-0.41620068051014325,,-1.38542738670438,0.18600202127569732,0.19024092782000002,1.6441788468621554,0.182409727186863,-0.25067796913014423,0.8327280491525555,,-0.07627525163528219,-0.034472434388453,0.0910472212,-0.1089195372335423,,2.5909394e-05,-1.7881393e-07,4.7683716e-07,1.0,-1.7948449e-05,-1.655519e-05,1.7948449e-05,1.0,-3.1292439e-06,1.655519e-05,3.1292439e-06,1.0,122,0.369,0,0,0.0,False,-0.2616653671792948,1.005483444247861
0.39447602280415595,16:04:35.203832,16:03:17.384832,0,,0.12936088,-0.0027524456,0.017260745,0.94021356,0.33826604,-0.039677963,-0.037084386,0.21748424,0.97535896,0.3385602,-0.91557455,0.21702603,,0.0732287,-0.012663021,0.028533518,-0.7346417,-0.19928037,0.64852804,-0.013966501,0.9601289,0.27920845,-0.67831135,0.19606057,-0.7081341,,0.08298951,1.2897635,0.42729357,0.99165606,0.100458026,-0.08078636,0.018921115,-0.73331684,-0.6796237,-0.12751566,0.6724244,-0.7290989,,-0.12578027,0.2526533,-0.09372381,-0.96520627,-0.24263729,0.097488396,0.20582308,-0.475001,0.85557634,-0.16128764,0.84587306,0.50841427,,-0.08368061,0.42945212,-0.33941394,0.82756114,0.13697718,-0.5444077,-0.43324557,0.7725353,-0.46420628,0.35698852,0.62002134,0.69866496,,1.0749735251605548,0.5331234185063406,0.21878134475000002,3.833761236727559,-0.18295627318592475,-1.06945822984768,-0.4171807449069491,,-1.38542738670438,0.1859942985428231,0.19023833524000003,1.6443885368056401,0.1821364541873321,-0.25127192072415705,0.8307679203589443,,-0.07627525163528219,-0.034472434388453,0.0910472212,-0.1089195372335423,,2.5909394e-05,-1.7881393e-07,4.7683716e-07,1.0,-1.7948449e-05,-1.655519e-05,1.7948449e-05,1.0,-3.1292439e-06,1.655519e-05,3.1292439e-06,1.0,133,0.403,0,0,0.0,False,-0.26196325577190027,1.0057248452517584
0.4214681580197066,16:04:35.223500,16:03:17.384832,0,,0.1293806,-0.0027849227,0.01748912,0.939528,0.33982423,-0.042502392,-0.03545598,0.21995491,0.9748654,0.3406315,-0.91440654,0.21870267,,0.07322921,-0.012666031,0.028531551,-0.7348651,-0.19897377,0.64836895,-0.013682902,0.9601511,0.2791463,-0.6780751,0.19626337,-0.7083043,,0.08298951,1.2897635,0.42729357,0.99165606,0.100458026,-0.08078636,0.018921115,-0.73331684,-0.6796237,-0.12751566,0.6724244,-0.7290989,,-0.12582144,0.2527874,-0.09390798,-0.9645709,-0.24408975,0.10011581,0.20843185,-0.47240883,0.8563796,-0.1617379,0.8469062,0.50654787,,-0.083680704,0.42944863,-0.33941504,0.8277377,0.13664326,-0.5442232,-0.4328568,0.77266407,-0.4643546,0.35705078,0.61993456,0.69871014,,1.0752283753454042,0.5336794552732848,0.21859208641000002,3.8308255775187754,-0.18322954618545564,-1.0710323263233799,-0.4188141855682921,,-1.38542738670438,0.18597885307707465,0.19023833524000003,1.6448079166926088,0.18199981768756668,-0.25124218156060113,0.83060457629281,,-0.07627525163528219,-0.034472434388453,0.0910472212,-0.1089195372335423,,2.5909394e-05,-1.7881393e-07,4.7683716e-07,1.0,-1.7948449e-05,-1.655519e-05,1.7948449e-05,1.0,-3.1292439e-06,1.655519e-05,3.1292439e-06,1.0,141,0.427,0,0,0.0,False,-0.26136747858668974,1.005483444247861
0.44112524786032736,16:04:35.254497,16:03:17.384832,0,,0.12935726,-0.0027937368,0.01770465,0.93853176,0.34249866,-0.04304239,-0.03525173,0.21913567,0.9750573,0.34338796,-0.913605,0.21773952,,0.07323072,-0.012670382,0.028530955,-0.7350099,-0.19883464,0.6482476,-0.013574988,0.9601617,0.27911508,-0.67792034,0.19635236,-0.70842767,,0.08298951,1.2897635,0.42729357,0.99165606,0.100458026,-0.08078636,0.018921115,-0.73331684,-0.6796237,-0.12751566,0.6724244,-0.7290989,,-0.12581694,0.25292984,-0.0940716,-0.9637953,-0.24687754,0.10074765,0.2104834,-0.47245133,0.8558543,-0.16369282,0.846074,0.50731,,-0.08368198,0.4294453,-0.339418,0.8278542,0.13649213,-0.5440839,-0.43265057,0.7727205,-0.46445286,0.35703063,0.6198975,0.69875336,,1.0757689666466,0.5340810373827444,0.21842616129000003,3.8283092981969613,-0.18527909368193726,-1.069279379027793,-0.41750743303921767,,-1.3854351094372543,0.18595568487845196,0.19023703895000002,1.6450176066360935,0.18186318118780123,-0.2512124423970454,0.8310946084912129,,-0.07627525163528219,-0.034472434388453,0.0910472212,-0.1089195372335423,,2.5909394e-05,-1.7881393e-07,4.7683716e-07,1.0,-1.7948449e-05,-1.655519e-05,1.7948449e-05,1.0,-3.1292439e-06,1.655519e-05,3.1292439e-06,1.0,153,0.464,0,0,0.0,False,-0.26255903295711036,1.0057731254525375
0.4720949709881097,16:04:35.289549,16:03:17.524178,0,,0.12929027,-0.002734907,0.017864063,0.93706524,0.34631008,-0.044472698,-0.034308523,0.21808422,0.97532666,0.34746423,-0.9124191,0.21624056,,0.07321845,-0.012669786,0.02852583,-0.735421,-0.19799283,0.64803886,-0.012708396,0.9602213,0.27895072,-0.6774911,0.19691065,-0.70868325,,0.08298951,1.2897635,0.42729357,0.99165606,0.100458026,-0.08078636,0.018921115,-0.73331684,-0.6796237,-0.12751566,0.6724244,-0.7290989,,-0.1257591,0.2530825,-0.0941535,-0.962605,-0.2508451,0.10231475,0.21398121,-0.4723977,0.85501605,-0.16614333,0.8449362,0.50840855,,-0.0836691,0.42944336,-0.3394152,0.82816887,0.13557509,-0.54383427,-0.4317264,0.77307445,-0.4647238,0.35741943,0.6196574,0.69876754,,1.076595299064142,0.5343436103004681,0.21834319873000002,3.8241154993272706,-0.18814846017701148,-1.066939603050168,-0.41767077710535205,,-1.3853656048413863,0.18598657580994887,0.19023574266,1.6460660563535163,0.18186318118780123,-0.2512124423970454,0.8310946084912129,,-0.07627525163528219,-0.034472434388453,0.0910472212,-0.1089195372335423,,2.5909394e-05,-1.7881393e-07,4.7683716e-07,1.0,-1.7948449e-05,-1.655519e-05,1.7948449e-05,1.0,-3.1292439e-06,1.655519e-05,3.1292439e-06,1.0,165,0.5,0,0,0.0,False,-0.2622611443645053,1.0056282848501994
0.5070961439050734,16:04:35.320906,16:03:17.524178,0,,0.1292511,-0.0027534813,0.017983928,0.9374188,0.34541902,-0.043948945,-0.035038814,0.21915123,0.97506154,0.3464363,-0.9125012,0.21753955,,0.07321152,-0.012676074,0.028520644,-0.73552656,-0.19802459,0.64790934,-0.012797028,0.96022016,0.27895048,-0.67737484,0.19688419,-0.70880175,,0.08298951,1.2897635,0.42729357,0.99165606,0.100458026,-0.08078636,0.018921115,-0.73331684,-0.6796237,-0.12751566,0.6724244,-0.7290989,,-0.12573163,0.25315186,-0.094256856,-0.96292746,-0.2498697,0.10166529,0.21274285,-0.47168136,0.8557203,-0.16586496,0.8456251,0.50735295,,-0.08366129,0.42943642,-0.33941743,0.8282587,0.13561043,-0.5436886,-0.43167675,0.7730576,-0.46479794,0.35727116,0.6196707,0.69883156,,1.076942822043482,0.534513510423701,0.21823690295000003,3.8251639490446934,-0.1878751871774806,-1.067897547518826,-0.41685405677468057,,-1.385319268444141,0.18596340761132618,0.19023315008000002,1.6460660563535163,0.1817265446880358,-0.2511827032334895,0.8312579525573471,,-0.07627525163528219,-0.034472434388453,0.0910472212,-0.1089195372335423,,2.5909394e-05,-1.7881393e-07,4.7683716e-07,1.0,-1.7948449e-05,-1.655519e-05,1.7948449e-05,1.0,-3.1292439e-06,1.655519e-05,3.1292439e-06,1.0,176,0.534,0,0,0.0,False,-0.2618441003348577,1.0047109610353895
0.5385176779236645,16:04:35.356287,16:03:17.524178,0,,0.12920769,-0.0028205141,0.017978117,0.93778926,0.34438407,-0.044167396,-0.035114378,0.22062865,0.9747256,0.3454246,-0.9125363,0.21899608,,0.07321114,-0.012681021,0.028522372,-0.73596174,-0.19667393,0.6478266,-0.011732727,0.9604368,0.27825046,-0.6769213,0.19718096,-0.70915246,,0.08298951,1.2897635,0.42729357,0.99165606,0.100458026,-0.08078636,0.018921115,-0.73331684,-0.6796237,-0.12751566,0.6724244,-0.7290989,,-0.12569326,0.25309938,-0.094303615,-0.96321696,-0.24872321,0.10173448,0.21198942,-0.47063544,0.8564828,-0.16514729,0.84654534,0.5060507,,-0.08366101,0.42943475,-0.33942237,0.8285871,0.13422443,-0.54353213,-0.43060827,0.7732366,-0.46549085,0.3577987,0.6197491,0.698492,,1.0769119311119852,0.5342200465744804,0.21819153280000003,3.8260027088186317,-0.18732864117841885,-1.0697317577160013,-0.41832415336988915,,-1.385319268444141,0.18595568487845196,0.19022926121000003,1.6473241960144234,0.1817265446880358,-0.2516727756743329,0.8302778881605415,,-0.07627525163528219,-0.034472434388453,0.0910472212,-0.1089195372335423,,2.5909394e-05,-1.7881393e-07,4.7683716e-07,1.0,-1.7948449e-05,-1.655519e-05,1.7948449e-05,1.0,-3.1292439e-06,1.655519e-05,3.1292439e-06,1.0,184,0.559,0,0,0.0,False,-0.2618441003348577,1.0051454828424047
0.5738867649342865,16:04:35.386760,16:03:17.641209,0,,0.1292095,-0.0029313043,0.01793833,0.9358227,0.34998658,-0.041773327,-0.036902495,0.2151514,0.97588325,0.3505336,-0.9117123,0.21425894,,0.07319278,-0.012712612,0.02851057,-0.73670316,-0.19747627,0.64673895,-0.0121233165,0.9601121,0.27935237,-0.6761075,0.19795913,-0.7097118,,0.08298951,1.2897635,0.42729357,0.99165606,0.100458026,-0.08078636,0.018921115,-0.73331684,-0.6796237,-0.12751566,0.6724244,-0.7290989,,-0.1257004,0.25299177,-0.09435079,-0.9618294,-0.2547856,0.09984194,0.21422438,-0.47403595,0.8540479,-0.17027043,0.84283704,0.510523,,-0.08364009,0.42940855,-0.33944115,0.8292111,0.13491186,-0.5424092,-0.43011844,0.77374786,-0.4650939,0.35694128,0.6189613,0.6996284,,1.07666480366001,0.5336408416089137,0.21815782926000002,3.823905809383786,-0.1929307376688019,-1.064428515003183,-0.41718074490694934,,-1.385249763848273,0.18597113034420043,0.19022407605000002,1.6475338859579076,0.18063345268991227,-0.25045471748419923,0.8309312644250786,,-0.07627525163528219,-0.034472434388453,0.0910472212,-0.1089195372335423,,2.5909394e-05,-1.7881393e-07,4.7683716e-07,1.0,-1.7948449e-05,-1.655519e-05,1.7948449e-05,1.0,-3.1292439e-06,1.655519e-05,3.1292439e-06,1.0,196,0.595,0,0,0.0,False,-0.26112916771260597,1.0043247194291538
0.6043992119375616,16:04:35.416845,16:03:17.641209,0,,0.1291254,-0.0030817464,0.01787971,0.9349459,0.35232165,-0.04178081,-0.036277056,0.21207717,0.9765793,0.3529308,-0.9115332,0.21106187,,0.07316747,-0.01271321,0.028499305,-0.7373149,-0.19847795,0.64573455,-0.012640506,0.9597522,0.2805636,-0.6754309,0.19870126,-0.71014845,,0.08299335,1.2897625,0.42729613,0.99165606,0.10045778,-0.080786586,0.018920787,-0.7333169,-0.67962366,-0.12751566,0.6724244,-0.7290989,,-0.12562713,0.2528397,-0.09442,-0.96110946,-0.25736037,0.10017093,0.21633282,-0.47613922,0.85234475,-0.17166445,0.84086686,0.5132974,,-0.08361682,0.42940015,-0.339435,0.8297314,0.13580315,-0.5413902,-0.42983097,0.7742368,-0.4645457,0.35607743,0.6181544,0.700781,,1.076325003413544,0.5328454001228685,0.21808782960000003,3.8220185998924254,-0.19484364866551807,-1.061725161989465,-0.41816080930375477,,-1.3851570910537823,0.18598657580994887,0.19022277976000002,1.6475338859579076,0.1796769971915542,-0.24918471971748085,0.8306045762928099,,-0.07627525163528219,-0.034472434388453,0.0910472212,-0.1089195372335423,,2.9373914e-05,2.682209e-06,-9.536743e-07,1.0,-1.8186867e-05,-1.6771257e-05,1.8186867e-05,1.0,-3.1590462e-06,1.6778708e-05,3.1590462e-06,1.0,204,0.62,0,0,0.0,False,-0.26154621174225356,1.0040350382244774
0.6344738269690424,16:04:35.445662,16:03:17.641209,0,,0.12900811,-0.0032374933,0.017825976,0.934525,0.35328856,-0.043013867,-0.034533948,0.2103054,0.9770256,0.35421807,-0.91156936,0.20873606,,0.07316484,-0.012712018,0.028501451,-0.73694783,-0.19816437,0.6462496,-0.012549281,0.95990825,0.28003335,-0.675833,0.19825992,-0.70988923,,0.08299335,1.2897625,0.42729613,0.99165606,0.10045778,-0.080786586,0.018920787,-0.7333169,-0.67962366,-0.12751566,0.6724244,-0.7290989,,-0.12551829,0.25269005,-0.09450161,-0.96066266,-0.25845632,0.10162489,0.21848306,-0.4774473,0.8510636,-0.17144224,0.8397883,0.5151341,,-0.08361458,0.4294029,-0.33943555,0.8294257,0.13555394,-0.54192084,-0.430136,0.7739488,-0.46474323,0.3564212,0.6185696,0.70023966,,1.0762709442834246,0.5319263949108358,0.21801394107000002,3.8199217004575803,-0.19539019466457985,-1.0601359880127115,-0.41652736864241224,,-1.3851262001222855,0.18600202127569732,0.19022148347,1.6473241960144234,0.18022354319061595,-0.24979374881254773,0.83060457629281,,-0.07627525163528219,-0.034472434388453,0.0910472212,-0.1089195372335423,,2.9373914e-05,2.682209e-06,-9.536743e-07,1.0,-1.8186867e-05,-1.6771257e-05,1.8186867e-05,1.0,-3.1590462e-06,1.6778708e-05,3.1590462e-06,1.0,212,0.644,0,0,0.0,False,-0.2622611443645053,1.0033591154135648
0.6633019698783755,16:04:35.469686,16:03:17.641209,0,,0.12885527,-0.0034149066,0.017732576,0.9328603,0.35705647,-0.04777287,-0.029193886,0.20711026,0.9778819,0.3590533,-0.9108326,0.20362875,,0.07315703,-0.012717293,0.028496742,-0.73727083,-0.1973677,0.646125,-0.0118588805,0.96000946,0.2797162,-0.6754931,0.19856429,-0.7101276,,0.08299335,1.2897625,0.42729613,0.99165606,0.10045778,-0.080786586,0.018920787,-0.7333169,-0.67962366,-0.12751566,0.6724244,-0.7290989,,-0.12537251,0.25249738,-0.09457361,-0.9589954,-0.2625106,0.10684589,0.22568636,-0.4792547,0.84816307,-0.1714454,0.8374981,0.5188481,,-0.08360599,0.42939705,-0.33943734,0.8296721,0.13471799,-0.54175204,-0.429402,0.77413803,-0.46510673,0.3567326,0.6185155,0.70012885,,1.0762091624204309,0.5306675894523372,0.21795042286000002,3.812372862492137,-0.19661992316246882,-1.0563561497146647,-0.4178341211714862,,-1.3850721409921658,0.1859942985428231,0.19021889089000002,1.6481629557883615,0.18022354319061595,-0.24995710629282883,0.8296245118960044,,-0.07627525163528219,-0.034472434388453,0.0910472212,-0.1089195372335423,,2.9373914e-05,2.682209e-06,-9.536743e-07,1.0,-1.8186867e-05,-1.6771257e-05,1.8186867e-05,1.0,-3.1590462e-06,1.6778708e-05,3.1590462e-06,1.0,223,0.677,0,0,0.0,False,-0.26190367805337944,1.0034073956143443
0.6873246419709176,16:04:35.500965,16:03:17.641209,0,,0.12870502,-0.0035963506,0.017682388,0.93244714,0.35822427,-0.047091227,-0.02899579,0.20410874,0.9785187,0.3601409,-0.9110516,0.20070755,,0.0731414,-0.012721525,0.028485835,-0.73793423,-0.19808492,0.64514744,-0.012434661,0.95978314,0.28046706,-0.67475796,0.19894397,-0.71071994,,0.08299335,1.2897625,0.42729613,0.99165606,0.10045778,-0.080786586,0.018920787,-0.7333169,-0.67962366,-0.12751566,0.6724244,-0.7290989,,-0.12523323,0.2523316,-0.09467915,-0.95866024,-0.2638869,0.10646229,0.22658086,-0.48157895,0.8466067,-0.17213842,0.8357305,0.5214623,,-0.08358878,0.4293881,-0.33943498,0.8302367,0.13537753,-0.5407217,-0.42909816,0.7743901,-0.4649675,0.35578337,0.61805576,0.7010173,,1.0762709442834246,0.5295864068499457,0.21785838627,3.811743792661684,-0.1982595611596541,-1.053793953768199,-0.41767077710535183,,-1.3850180818620463,0.18598657580994887,0.19021629831000003,1.6481629557883615,0.17913045119249243,-0.249147441803398,0.8294611678298701,,-0.07627525163528219,-0.034472434388453,0.0910472212,-0.1089195372335423,,2.9373914e-05,2.682209e-06,-9.536743e-07,1.0,-1.8186867e-05,-1.6771257e-05,1.8186867e-05,1.0,-3.1590462e-06,1.6778708e-05,3.1590462e-06,1.0,231,0.702,0,0,0.0,False,-0.262797343831195,1.0025383520003142
0.7185811589006335,16:04:35.527885,16:03:17.775049,0,,0.12850475,-0.0037636012,0.017687395,0.93133384,0.3602721,-0.053114325,-0.023375541,0.20469335,0.97854704,0.36341536,-0.91011244,0.1990594,,0.07312304,-0.012721852,0.028472185,-0.7394196,-0.19848675,0.6433206,-0.012772322,0.95951617,0.28136387,-0.6731236,0.19982913,-0.7120203,,0.08299335,1.2897625,0.42729613,0.99165606,0.10045778,-0.080786586,0.018920787,-0.7333169,-0.67962366,-0.12751566,0.6724244,-0.7290989,,-0.12504774,0.25221425,-0.09482036,-0.9573886,-0.26595405,0.11258569,0.2329089,-0.4805099,0.8454961,-0.17076458,0.83569056,0.5219778,,-0.08356859,0.42937988,-0.3394281,0.83147204,0.13565136,-0.53875124,-0.4278387,0.77496517,-0.46516985,0.35441253,0.6172744,0.70239884,,1.076595299064142,0.5285438379119255,0.21772357211,3.805033714470179,-0.19812292465988865,-1.0535786567113332,-0.4176707771053523,,-1.3849949136634236,0.18600202127569732,0.19021500202000002,1.6490017155622994,0.17708090369601082,-0.24804792442893564,0.8279910712346614,,-0.07627525163528219,-0.034472434388453,0.0910472212,-0.1089195372335423,,2.9373914e-05,2.682209e-06,-9.536743e-07,1.0,-1.8186867e-05,-1.6771257e-05,1.8186867e-05,1.0,-3.1590462e-06,1.6778708e-05,3.1590462e-06,1.0,239,0.726,0,0,0.0,False,-0.2626186106756321,1.0028280332049906
0.7455246530007571,16:04:35.553977,16:03:17.775049,0,,0.12834144,-0.003851682,0.017696396,0.93127966,0.36023667,-0.054290973,-0.021924771,0.20417705,0.9786885,0.36364442,-0.91024244,0.19804406,,0.07312372,-0.012721286,0.028475285,-0.73926324,-0.19792977,0.6436718,-0.012632519,0.95973814,0.28061196,-0.6732979,0.19931489,-0.71199965,,0.08299335,1.2897625,0.42729613,0.99165606,0.10045778,-0.080786586,0.018920787,-0.7333169,-0.67962366,-0.12751566,0.6724244,-0.7290989,,-0.12489315,0.25215694,-0.09490592,-0.9572406,-0.26594833,0.11385042,0.2341168,-0.48097318,0.8448989,-0.16994044,0.8354258,0.52267003,,-0.08356975,0.42938253,-0.3394295,0.83133906,0.1351704,-0.5390773,-0.42790857,0.77462816,-0.46566668,0.3546401,0.6178027,0.70181924,,1.077043217570847,0.5278487919532452,0.21764190584,3.803565884865787,-0.19812292465988865,-1.052925226790209,-0.4179974652376204,,-1.3849949136634236,0.18600974400857154,0.19021370573000002,1.6490017155622994,0.1773541766955417,-0.24884251141731245,0.8284811034330644,,-0.07627525163528219,-0.034472434388453,0.0910472212,-0.1089195372335423,,2.9373914e-05,2.682209e-06,-9.536743e-07,1.0,-1.8186867e-05,-1.6771257e-05,1.8186867e-05,1.0,-3.1590462e-06,1.6778708e-05,3.1590462e-06,1.0,247,0.751,0,0,0.0,False,-0.26178452261633733,1.002103830193299
0.7716149059124291,16:04:35.578466,16:03:17.775049,0,,0.12815696,-0.0038982853,0.017735884,0.9305752,0.3613232,-0.058950488,-0.01744277,0.20459834,0.97869056,0.36568484,-0.9097171,0.19669658,,0.07312653,-0.012722031,0.028476417,-0.7392528,-0.19797853,0.6436688,-0.0126279,0.9597169,0.2806849,-0.67330945,0.19936883,-0.7119736,,0.08299335,1.2897625,0.42729613,0.99165606,0.10045778,-0.080786586,0.018920787,-0.7333169,-0.67962366,-0.12751566,0.6724244,-0.7290989,,-0.12471681,0.25215068,-0.09498734,-0.95636094,-0.2670387,0.11859204,0.23876897,-0.48030692,0.8439755,-0.16841355,0.8354613,0.52310735,,-0.08357267,0.4293826,-0.33943063,0.8313303,0.13521121,-0.5390805,-0.4279161,0.77466345,-0.46560106,0.3546515,0.6177495,0.7018603,,1.0777150953309045,0.5272773097205526,0.21756153586000002,3.798323636278674,-0.19757637866082686,-1.0523090747831674,-0.41783412117148644,,-1.385010359129172,0.18600202127569732,0.19021370573000002,1.6490017155622994,0.1773541766955417,-0.24876083267717186,0.8286444474991987,,-0.07627525163528219,-0.034472434388453,0.0910472212,-0.1089195372335423,,2.9373914e-05,2.682209e-06,-9.536743e-07,1.0,-1.8186867e-05,-1.6771257e-05,1.8186867e-05,1.0,-3.1590462e-06,1.6778708e-05,3.1590462e-06,1.0,255,0.776,0,0,0.0,False,-0.26190367805337944,1.00287631340577
0.7960615558549762,16:04:35.605043,16:03:17.775049,0,,0.12782583,-0.003913939,0.017867431,0.9297553,0.3624871,-0.06448375,-0.012009062,0.20490727,0.9787077,0.3679821,-0.9091843,0.19486675,,0.073127344,-0.012723819,0.028475761,-0.73939663,-0.19768366,0.6435943,-0.012273371,0.9597218,0.28068373,-0.6731581,0.19963753,-0.7120414,,0.08299335,1.2897625,0.42729613,0.99165606,0.10045778,-0.080786586,0.018920787,-0.7333169,-0.67962366,-0.12751566,0.6724244,-0.7290989,,-0.12440006,0.25223053,-0.09513049,-0.9553137,-0.26821527,0.12424309,0.2442872,-0.47971693,0.84273094,-0.16643178,0.8354234,0.5238017,,-0.08357332,0.42938083,-0.33943152,0.8314385,0.1348796,-0.5389968,-0.42756015,0.77483416,-0.46564403,0.35482723,0.6176079,0.7018961,,1.0792750873714978,0.5265822637618724,0.21741764767000002,3.7916135580871697,-0.19716646916153055,-1.050846396211164,-0.4178341211714862,,-1.385010359129172,0.1859942985428231,0.19021370573000002,1.6494210954492685,0.1773541766955417,-0.24867915393703122,0.8284811034330644,,-0.07627525163528219,-0.034472434388453,0.0910472212,-0.1089195372335423,,2.9373914e-05,2.682209e-06,-9.536743e-07,1.0,-1.8186867e-05,-1.6771257e-05,1.8186867e-05,1.0,-3.1590462e-06,1.6778708e-05,3.1590462e-06,1.0,270,0.821,0,0,0.0,False,-0.26196325577190027,1.0022486707956373
0.8226673838216811,16:04:35.641522,16:03:17.775049,0,,0.12728328,-0.003832817,0.018103555,0.9283061,0.36412287,-0.07524814,-0.0019706786,0.20719513,0.9782976,0.37181157,-0.9080114,0.19305807,,0.073119566,-0.01272379,0.028469145,-0.7401685,-0.1979003,0.6426397,-0.012228042,0.9595134,0.28139746,-0.67231005,0.2004233,-0.7126217,,0.08299335,1.2897625,0.42729613,0.99165606,0.10045778,-0.080786586,0.018920787,-0.7333169,-0.67962366,-0.12751566,0.6724244,-0.7290989,,-0.12387444,0.25245282,-0.09530658,-0.95340955,-0.2697595,0.13505585,0.25419548,-0.47725374,0.84119767,-0.16246514,0.83633643,0.5235899,,-0.08356465,0.4293768,-0.339428,0.8320736,0.13498333,-0.53798974,-0.42677012,0.7753432,-0.46552148,0.35428903,0.6169461,0.7027495,,1.0821479440007093,0.5257945450087015,0.21723616707,3.7794515413650673,-0.19566346766411072,-1.0496216309476079,-0.41816080930375477,,-1.3850026363962977,0.18600202127569732,0.19021370573000002,1.6500501652797221,0.1763977211971836,-0.24781754987101579,0.8283177593669302,,-0.07627525163528219,-0.034472434388453,0.0910472212,-0.1089195372335423,,2.9373914e-05,2.682209e-06,-9.536743e-07,1.0,-1.8186867e-05,-1.6771257e-05,1.8186867e-05,1.0,-3.1590462e-06,1.6778708e-05,3.1590462e-06,1.0,278,0.845,0,0,0.0,False,-0.26255903295711036,1.0012347865792688
0.8591498448513448,16:04:35.672814,16:03:17.933309,0,,0.12677193,-0.0036819428,0.018260375,0.9274652,0.36453098,-0.083219126,0.005377233,0.20953852,0.9777855,0.37387076,-0.90730965,0.1923795,,0.07311281,-0.012727247,0.02846235,-0.7411556,-0.19738854,0.6416587,-0.01189521,0.959509,0.2814267,-0.6712278,0.20094827,-0.7134935,,0.08299335,1.2897625,0.42729613,0.99165606,0.10045778,-0.080786586,0.018920787,-0.7333169,-0.67962366,-0.12751566,0.6724244,-0.7290989,,-0.12336775,0.2526708,-0.09537427,-0.95217204,-0.27004048,0.14299123,0.2609344,-0.4750742,0.8403676,-0.15900184,0.8374859,0.5228152,,-0.083556846,0.42937037,-0.33942696,0.8328773,0.13439949,-0.5368913,-0.42559168,0.77567685,-0.4660442,0.35381803,0.6166541,0.7032429,,1.0849667414998014,0.5250763308513986,0.21716487112000002,3.770644563738717,-0.19443373916622175,-1.049072496018205,-0.41832415336988904,,-1.3850026363962977,0.1859942985428231,0.19021240944,1.6510986149971447,0.1753046291990601,-0.24757963656256887,0.8266843187055872,,-0.07627525163528219,-0.034472434388453,0.0910472212,-0.1089195372335423,,2.9373914e-05,2.682209e-06,-9.536743e-07,1.0,-1.8186867e-05,-1.6771257e-05,1.8186867e-05,1.0,-3.1590462e-06,1.6778708e-05,3.1590462e-06,1.0,286,0.87,0,0,0.0,False,-0.26243987752006825,1.0014279073823864
0.8904485260136425,16:04:35.701814,16:03:17.933309,0,,0.1264179,-0.0035685971,0.018360332,0.92655987,0.36560547,-0.08842724,0.010284476,0.21037522,0.97756654,0.3760066,-0.90668344,0.19116515,,0.073108256,-0.012726978,0.028456151,-0.7418431,-0.19771858,0.640762,-0.0120226145,0.95931154,0.28209358,-0.6704656,0.2015655,-0.71403587,,0.08299335,1.2897625,0.42729613,0.99165606,0.10045778,-0.080786586,0.018920787,-0.7333169,-0.67962366,-0.12751566,0.6724244,-0.7290989,,-0.12301554,0.2528222,-0.09540883,-0.9510677,-0.27109483,0.14824945,0.2659604,-0.47403777,0.8393767,-0.15727486,0.83773255,0.5229425,,-0.08355142,0.4293663,-0.33942327,0.8334473,0.13464004,-0.5359456,-0.42498645,0.7760777,-0.46592915,0.3532027,0.616097,0.70404005,,1.0869437611156028,0.5245511850159513,0.21712987129000003,3.7641441754906966,-0.19429710266645633,-1.0477953753395117,-0.4184874974360233,,-1.385010359129172,0.1859942985428231,0.19021370573000002,1.6515179948841139,0.17434817370070202,-0.24679971123669392,0.8266843187055872,,-0.07627525163528219,-0.034472434388453,0.0910472212,-0.1089195372335423,,2.9373914e-05,2.682209e-06,-9.536743e-07,1.0,-1.8186867e-05,-1.6771257e-05,1.8186867e-05,1.0,-3.1590462e-06,1.6778708e-05,3.1590462e-06,1.0,298,0.907,0,0,0.0,False,-0.2622015666459845,1.0012347865792688
0.9194522849284112,16:04:35.727862,16:03:17.933309,0,,0.12590525,-0.003403008,0.018540129,0.9217985,0.37509906,-0.09791847,0.018718123,0.2092233,0.97768867,0.38721693,-0.90306497,0.18584055,,0.07309705,-0.012727127,0.028444111,-0.74300367,-0.19851857,0.63916796,-0.012568921,0.95896834,0.2832343,-0.6691692,0.20241046,-0.7150122,,0.08299335,1.2897625,0.42729613,0.99165606,0.10045778,-0.080786586,0.018920787,-0.7333169,-0.67962366,-0.12751566,0.6724244,-0.7290989,,-0.12250831,0.2530667,-0.095483094,-0.94661456,-0.2809182,0.15813245,0.27980596,-0.47238404,0.8358002,-0.16009223,0.835427,0.52576816,,-0.083538555,0.42935842,-0.3394167,0.83441865,0.13531582,-0.5342613,-0.42416203,0.7766289,-0.4657618,0.35189784,0.6152537,0.7054295,,1.0899865178680472,0.5236476252696671,0.21706505679000002,3.7475786699554194,-0.19989919915683937,-1.0419203814457096,-0.4188141855682921,,-1.385010359129172,0.18598657580994887,0.19021500202000002,1.652776134545021,0.17243526270398585,-0.24564825428564693,0.8271743509039902,,-0.07627525163528219,-0.034472434388453,0.0910472212,-0.1089195372335423,,2.9373914e-05,2.682209e-06,-9.536743e-07,1.0,-1.8186867e-05,-1.6771257e-05,1.8186867e-05,1.0,-3.1590462e-06,1.6778708e-05,3.1590462e-06,1.0,306,0.93,0,0,0.0,False,-0.26351227645344677,1.0013313469808274
0.9454860240221024,16:04:35.753591,16:03:17.933309,0,,0.12543559,-0.0032958463,0.01874195,0.91661793,0.38610944,-0.10359,0.023517944,0.20659664,0.97814345,0.3990718,-0.8990202,0.18028966,,0.07309675,-0.0127311805,0.028440893,-0.7434437,-0.19738135,0.63900834,-0.011752874,0.9591658,0.2826001,-0.668695,0.20258701,-0.71540576,,0.08299335,1.2897625,0.42729613,0.99165606,0.10045778,-0.080786586,0.018920787,-0.7333169,-0.67962366,-0.12751566,0.6724244,-0.7290989,,-0.1220502,0.25328404,-0.09560834,-0.9420825,-0.2923992,0.16426565,0.29146764,-0.47150478,0.83230394,-0.16591297,0.8319771,0.5294213,,-0.08353766,0.4293535,-0.33941796,0.83475685,0.13415922,-0.5340246,-0.42323032,0.7767322,-0.46643665,0.35221732,0.6153766,0.7051628,,1.0928130381000134,0.522682283660389,0.21695616843,3.733319753798472,-0.2083706621422967,-1.0349307926763909,-0.41897752963442636,,-1.3850026363962977,0.18597885307707465,0.19021500202000002,1.6529858244885056,0.17243526270398585,-0.24597496924620918,0.8265209746394531,,-0.07627525163528219,-0.034472434388453,0.0910472212,-0.1089195372335423,,2.9373914e-05,2.682209e-06,-9.536743e-07,1.0,-1.8186867e-05,-1.6771257e-05,1.8186867e-05,1.0,-3.1590462e-06,1.6778708e-05,3.1590462e-06,1.0,317,0.964,0,0,0.0,False,-0.2622015666459845,1.000414023166018
0.971230334835127,16:04:35.786763,16:03:17.933309,0,,0.1249917,-0.0032557696,0.018991873,0.9124238,0.39454275,-0.10871456,0.02735509,0.20625404,0.97811604,0.4083314,-0.8954302,0.17739835,,0.073089615,-0.0127337435,0.028432488,-0.7441447,-0.19813162,0.63795954,-0.012378782,0.95892894,0.28337622,-0.66790366,0.20297572,-0.71603453,,0.08299335,1.2897625,0.42729613,0.99165606,0.10045778,-0.080786586,0.018920787,-0.7333169,-0.67962366,-0.12751566,0.6724244,-0.7290989,,-0.12162695,0.25348604,-0.095811225,-0.938389,-0.30110362,0.16959582,0.30064023,-0.46928394,0.83029395,-0.17041591,0.830126,0.53089476,,-0.083529264,0.42934638,-0.33941528,0.8353517,0.13485044,-0.5329192,-0.42290887,0.7769892,-0.4663002,0.35119167,0.61490095,0.7060887,,1.0954078763457529,0.5218096148456016,0.21676820638000002,3.721786806906823,-0.21520248713056872,-1.0308301148141,-0.4179974652376206,,-1.3850026363962977,0.18596340761132618,0.19021500202000002,1.6529858244885056,0.17120553420609688,-0.24513556559322244,0.8268476627717216,,-0.07627525163528219,-0.034472434388453,0.0910472212,-0.1089195372335423,,2.9373914e-05,2.682209e-06,-9.536743e-07,1.0,-1.8186867e-05,-1.6771257e-05,1.8186867e-05,1.0,-3.1590462e-06,1.6778708e-05,3.1590462e-06,1.0,325,0.989,0,0,0.0,False,-0.26255903295711036,0.9993035785480904
1.004402763908729,16:04:35.818129,16:03:18.059443,0,,0.12464217,-0.0032104477,0.019264057,0.90686804,0.40480402,-0.11714944,0.03383041,0.20716158,0.97772163,0.4200545,-0.89062774,0.1741735,,0.073081315,-0.012736724,0.02842313,-0.74520814,-0.1976083,0.63687956,-0.012116253,0.95893764,0.28335798,-0.6667217,0.20344403,-0.7170025,,0.08299335,1.2897625,0.42729613,0.99165606,0.10045778,-0.080786586,0.018920787,-0.7333169,-0.67962366,-0.12751566,0.6724244,-0.7290989,,-0.121298894,0.2537071,-0.09601573,-0.93334246,-0.3116276,0.17821376,0.31342366,-0.4653237,0.8277919,-0.1750357,0.82846975,0.53197783,,-0.08351958,0.42933846,-0.33941242,0.8362183,0.13426319,-0.53170705,-0.42168632,0.7772856,-0.46691304,0.350599,0.6146548,0.7065973,,1.0976165779477811,0.5212767462772802,0.21657635546,3.7064794410324526,-0.22176103911930983,-1.0270339514993423,-0.4178341211714862,,-1.3849949136634236,0.18595568487845196,0.19021500202000002,1.6540342742059282,0.16997580570820792,-0.24494959186136028,0.8252142221103788,,-0.07627525163528219,-0.034472434388453,0.0910472212,-0.1089195372335423,,2.9373914e-05,2.682209e-06,-9.536743e-07,1.0,-1.8186867e-05,-1.6771257e-05,1.8186867e-05,1.0,-3.1590462e-06,1.6778708e-05,3.1590462e-06,1.0,333,1.013,0,0,0.0,False,-0.2623802998015474,0.9992070181465313
1.0357490819878876,16:04:35.838196,16:03:18.059443,0,,0.12448516,-0.0031697378,0.019443527,0.90336186,0.41243857,-0.117608026,0.033028983,0.2065044,0.97788805,0.42760533,-0.8872713,0.17292571,,0.07308091,-0.0127384225,0.02842182,-0.7452836,-0.19727612,0.6368942,-0.011941731,0.95902187,0.2830802,-0.6666405,0.20336935,-0.7170992,,0.08299335,1.2897625,0.42729613,0.99165606,0.10045778,-0.080786586,0.018920787,-0.7333169,-0.67962366,-0.12751566,0.6724244,-0.7290989,,-0.12115471,0.25386062,-0.096134745,-0.9305521,-0.31954363,0.17878649,0.31805977,-0.4634908,0.8270515,-0.18141316,0.8264794,0.53293633,,-0.083518915,0.42933637,-0.33941296,0.83627516,0.1339433,-0.5316983,-0.42150524,0.77723444,-0.4671616,0.35068104,0.61478925,0.7064397,,1.0989062743377767,0.5210836779554245,0.21647005968000002,3.7003984326714012,-0.22913941010664365,-1.0240394980849366,-0.4186508415021579,,-1.3849871909305493,0.18594796214557774,0.19021500202000002,1.6542439641494127,0.16997580570820792,-0.24519462808178197,0.8243975017797074,,-0.07627525163528219,-0.034472434388453,0.0910472212,-0.1089195372335423,,2.9373914e-05,2.682209e-06,-9.536743e-07,1.0,-1.8186867e-05,-1.6771257e-05,1.8186867e-05,1.0,-3.1590462e-06,1.6778708e-05,3.1590462e-06,1.0,362,1.102,0,0,0.0,False,-0.2639888982016152,0.9991104577449725
1.0557988078799099,16:04:35.923803,16:03:18.059443,0,,0.12411424,-0.0029850379,0.020598039,0.87456566,0.464235,-0.14007369,0.038144216,0.22210896,0.97427547,0.48340437,-0.8574109,0.17654094,,0.07306464,-0.012747959,0.02840215,-0.7471241,-0.19785112,0.6345552,-0.012622982,0.95872265,0.2840626,-0.6645646,0.20421997,-0.7187823,,0.08299335,1.2897625,0.42729613,0.99165606,0.10045778,-0.080786586,0.018920787,-0.7333169,-0.67962366,-0.12751566,0.6724244,-0.7290989,,-0.12086816,0.2547916,-0.09688025,-0.90620273,-0.37227404,0.20052093,0.3603089,-0.4316458,0.82695794,-0.22130094,0.821641,0.5252923,,-0.08349961,0.42931753,-0.33940944,0.8378067,0.13439447,-0.5291673,-0.42006788,0.7777865,-0.46753737,0.34874472,0.61399215,0.70808953,,1.1039492189046451,0.5216011010579976,0.21579598888,3.648185636743755,-0.2727264535318191,-1.0215770765627057,-0.4162006805101437,,-1.384979468197675,0.1859016257483324,0.19021370573000002,1.6550827239233505,0.1672430757128991,-0.24394641488954025,0.8243975017797074,,-0.07627525163528219,-0.034472434388453,0.0910472212,-0.1089195372335423,,2.9373914e-05,2.682209e-06,-9.536743e-07,1.0,-1.8186867e-05,-1.6771257e-05,1.8186867e-05,1.0,-3.1590462e-06,1.6778708e-05,3.1590462e-06,1.0,370,1.127,0,0,0.0,False,-0.2630356547052788,0.9996415399535463
1.1413971679285169,16:04:35.949635,16:03:18.059443,0,,0.12403381,-0.002955988,0.020884827,0.86929566,0.47289014,-0.1438744,0.036790073,0.22836411,0.9728805,0.49292135,-0.8510139,0.18111828,,0.07306423,-0.012749658,0.028400779,-0.7471994,-0.19757128,0.6345538,-0.012448281,0.95878386,0.2838637,-0.6644832,0.20420355,-0.7188622,,0.08299335,1.2897625,0.42729613,0.99165606,0.10045778,-0.080786586,0.018920787,-0.7333169,-0.67962366,-0.12751566,0.6724244,-0.7290989,,-0.120809935,0.25501066,-0.097075656,-0.9018674,-0.38091785,0.2038057,0.36590415,-0.42271376,0.82911235,-0.22967221,0.8223227,0.52061117,,-0.08349894,0.42931545,-0.33940995,0.83786345,0.13411836,-0.52914757,-0.4198866,0.7777734,-0.46772194,0.3488268,0.6140691,0.70798236,,1.1050999061029048,0.5218096148456016,0.21561710086000002,3.6404271088348272,-0.2817444625163382,-1.0246783736567338,-0.41914087370056063,,-1.384971745464801,0.18589390301545816,0.19021370573000002,1.6552924138668352,0.1672430757128991,-0.24410977236982137,0.8247241899119759,,-0.07627525163528219,-0.034472434388453,0.0910472212,-0.1089195372335423,,2.9373914e-05,2.682209e-06,-9.536743e-07,1.0,-1.8186867e-05,-1.6771257e-05,1.8186867e-05,1.0,-3.1590462e-06,1.6778708e-05,3.1590462e-06,1.0,378,1.152,0,0,0.0,False,-0.2636314318904893,0.9992070181465313
1.167272643884644,16:04:35.980506,16:03:18.059443,0,,0.12394047,-0.002919294,0.021337703,0.86088866,0.48666292,-0.14842443,0.03418185,0.2357387,0.9712151,0.5076438,-0.84118164,0.18630975,,0.073064566,-0.012750492,0.028400421,-0.7474132,-0.19705501,0.63446236,-0.011913747,0.9588209,0.28376144,-0.6642524,0.20452821,-0.7189832,,0.08299335,1.2897625,0.42729613,0.99165606,0.10045778,-0.080786586,0.018920787,-0.7333169,-0.67962366,-0.12751566,0.6724244,-0.7290989,,-0.12075213,0.2553499,-0.09738662,-0.8949481,-0.39484498,0.20776248,0.37418863,-0.41060615,0.83149594,-0.24300344,0.8218881,0.5152177,,-0.083499186,0.4293146,-0.33941036,0.8380233,0.1335586,-0.5290359,-0.41934827,0.77797693,-0.46786633,0.34909022,0.6139332,0.7079704,,1.1067448482051145,0.5222189196879355,0.21533321335000002,3.628684471999694,-0.295954658491944,-1.0271396549764829,-0.41881418556829186,,-1.384971745464801,0.18589390301545816,0.19021370573000002,1.6559214836972889,0.1672430757128991,-0.24410977236982137,0.8247241899119759,,-0.07627525163528219,-0.034472434388453,0.0910472212,-0.1089195372335423,,2.9373914e-05,2.682209e-06,-9.536743e-07,1.0,-1.8186867e-05,-1.6771257e-05,1.8186867e-05,1.0,-3.1590462e-06,1.6778708e-05,3.1590462e-06,1.0,386,1.177,0,0,0.0,False,-0.2632143878608417,0.9981931339301626
1.1980865758378059,16:04:36.004000,16:03:18.256626,0,,0.12389472,-0.002899222,0.02166386,0.8559155,0.49520874,-0.14891914,0.03141679,0.23765111,0.97084236,0.5161604,-0.83563757,0.18785137,,0.073062986,-0.012751655,0.02840048,-0.7474892,-0.1966755,0.63449067,-0.0117383,0.958926,0.28341323,-0.66417,0.20440042,-0.7190956,,0.08299335,1.2897625,0.42729613,0.99165606,0.10045778,-0.080786586,0.018920787,-0.7333169,-0.67962366,-0.12751566,0.6724244,-0.7290989,,-0.12073235,0.2555896,-0.09761252,-0.89093447,-0.40364814,0.20809615,0.3780722,-0.4054051,0.8322909,-0.25158942,0.820192,0.5137975,,-0.083497606,0.42931417,-0.3394114,0.83808047,0.13319917,-0.529036,-0.41916564,0.77789116,-0.4681725,0.34917223,0.61411995,0.70776796,,1.1083280084443305,0.5228444610507478,0.21503506665000002,3.6196678044298594,-0.3082519434708336,-1.0247898452170174,-0.4168540567746808,,-1.3849640227319266,0.18589390301545816,0.19021111315000003,1.6561311736407731,0.1672430757128991,-0.2448448810310864,0.8235807814490359,,-0.07627525163528219,-0.034472434388453,0.0910472212,-0.1089195372335423,,2.9373914e-05,2.682209e-06,-9.536743e-07,1.0,-1.8186867e-05,-1.6771257e-05,1.8186867e-05,1.0,-3.1590462e-06,1.6778708e-05,3.1590462e-06,1.0,398,1.214,0,0,0.0,False,-0.2634526987349264,0.9983379745325012
1.2216380648314953,16:04:36.040226,16:03:18.256626,0,,0.1237968,-0.0028379336,0.022254184,0.84742844,0.50828815,-0.15332367,0.030780554,0.24127066,0.96996963,0.53001654,-0.82669926,0.1888142,,0.073063314,-0.012758479,0.028401494,-0.7476984,-0.19530927,0.6346661,-0.010961235,0.9592674,0.28228715,-0.6639478,0.20410895,-0.7193836,,0.08299335,1.2897625,0.42729613,0.99165606,0.10045778,-0.080786586,0.018920787,-0.7333169,-0.67962366,-0.12751566,0.6724244,-0.7290989,,-0.12067955,0.25604156,-0.09800596,-0.8837093,-0.41710517,0.21232328,0.38718563,-0.3966308,0.83232886,-0.2629547,0.81774527,0.5120034,,-0.08349787,0.4293107,-0.33941743,0.83822924,0.13188137,-0.52913046,-0.41848466,0.7776897,-0.4691155,0.3496317,0.6146593,0.70707256,,1.1097644367589363,0.5235163388108053,0.21475247543000003,3.609392997199118,-0.31686004295605635,-1.0238147440545449,-0.41750743303921767,,-1.3849562999990523,0.1858707348168355,0.19020852057,1.6569699334147114,0.16737971221266457,-0.24544637137562625,0.8237441255151703,,-0.07627525163528219,-0.034472434388453,0.0910472212,-0.1089195372335423,,2.9373914e-05,2.682209e-06,-9.536743e-07,1.0,-1.8186867e-05,-1.6771257e-05,1.8186867e-05,1.0,-3.1590462e-06,1.6778708e-05,3.1590462e-06,1.0,406,1.238,0,0,0.0,False,-0.2635718541719685,0.9979517329262653
1.2578659348655492,16:04:36.063814,16:03:18.256626,0,,0.1237864,-0.00281813,0.022549316,0.84249395,0.51602054,-0.15468246,0.028895482,0.24343652,0.96948624,0.5379302,-0.821256,0.19018313,,0.07305748,-0.012764559,0.028397143,-0.74779737,-0.19544396,0.63450813,-0.01104638,0.95922005,0.28244448,-0.66383505,0.2042022,-0.7194612,,0.08299335,1.2897625,0.42729613,0.99165606,0.10045778,-0.080786586,0.018920787,-0.7333169,-0.67962366,-0.12751566,0.6724244,-0.7290989,,-0.12069231,0.25625962,-0.09820569,-0.879615,-0.425072,0.21352112,0.39128965,-0.39131492,0.83292556,-0.27049935,0.8162024,0.51053274,,-0.08349126,0.4293044,-0.33941993,0.8383129,0.13200212,-0.5289678,-0.41843647,0.7777511,-0.4690567,0.3494888,0.6145557,0.70723325,,1.1105830464436042,0.523987425516133,0.21456840225,3.6031022988945822,-0.3246483234426865,-1.0230997566135476,-0.4193042177666948,,-1.3849176863346813,0.18584756661821283,0.19020592799000002,1.6569699334147114,0.1672430757128991,-0.24525327473178923,0.8243975017797074,,-0.07627525163528219,-0.034472434388453,0.0910472212,-0.1089195372335423,,2.9373914e-05,2.682209e-06,-9.536743e-07,1.0,-1.8186867e-05,-1.6771257e-05,1.8186867e-05,1.0,-3.1590462e-06,1.6778708e-05,3.1590462e-06,1.0,414,1.263,0,0,0.0,False,-0.2631548101423209,0.9969378487098968
1.281449694884941,16:04:36.095689,16:03:18.256626,0,,0.12389607,-0.0027613342,0.023059055,0.82851493,0.5372664,-0.15782163,0.024066731,0.24741557,0.9686105,0.5594494,-0.80630666,0.19205719,,0.07304354,-0.012770073,0.028386652,-0.74851567,-0.19633675,0.63338447,-0.011439979,0.9588438,0.28370333,-0.6630183,0.2051104,-0.7199558,,0.08299335,1.2897625,0.42729613,0.99165606,0.10045778,-0.080786586,0.018920787,-0.7333169,-0.67962366,-0.12751566,0.6724244,-0.7290989,,-0.12083937,0.25665244,-0.09852058,-0.867901,-0.44711563,0.21641488,0.40266517,-0.37814033,0.833589,-0.29087546,0.81061554,0.5082263,,-0.08347573,0.42929474,-0.33941868,0.8389138,0.13276124,-0.5278239,-0.41794935,0.7783436,-0.46850777,0.34862873,0.6136413,0.7084507,,1.1115715562515047,0.5249373216596626,0.21430007022000003,3.58632710341582,-0.3455537079067989,-1.0200198819120312,-0.4188141855682921,,-1.3848713499374359,0.18583212115246436,0.19020333541,1.657179623358196,0.16614998371477557,-0.24387185906137443,0.8230907492506332,,-0.07627525163528219,-0.034472434388453,0.0910472212,-0.1089195372335423,,2.9373914e-05,2.682209e-06,-9.536743e-07,1.0,-1.8186867e-05,-1.6771257e-05,1.8186867e-05,1.0,-3.1590462e-06,1.6778708e-05,3.1590462e-06,1.0,443,1.352,0,0,0.0,False,-0.26255903295711036,0.996455046702102
1.3132781099993736,16:04:36.171684,16:03:18.407354,0,,0.124122694,-0.002812162,0.023770556,0.81092066,0.5610348,-0.16627574,0.022963539,0.2534258,0.9670822,0.58470535,-0.7880453,0.19262484,,0.073027186,-0.012781934,0.028376877,-0.74974066,-0.19510216,0.63231623,-0.011081874,0.95911586,0.28279686,-0.66163874,0.205017,-0.72125036,,0.08299335,1.2897625,0.42729613,0.99165606,0.10045778,-0.080786586,0.018920787,-0.7333169,-0.67962366,-0.12751566,0.6724244,-0.7290989,,-0.12112787,0.25710654,-0.099040896,-0.8526163,-0.47178307,0.22464682,0.41931975,-0.3612127,0.8328844,-0.31179547,0.80432963,0.50580376,,-0.08345772,0.42928204,-0.33942306,0.8399075,0.13154626,-0.5265462,-0.41649267,0.77827066,-0.4699241,0.34797868,0.61399543,0.70846343,,1.1120426429568324,0.5264818682345075,0.21381914663,3.5624224498585844,-0.367005638369973,-1.0160859418950263,-0.41897752963442625,,-1.3848250135401907,0.18580123022096748,0.19019555767000002,1.6584377630191032,0.16478361871712116,-0.2445546123075027,0.8226007170522303,,-0.07627525163528219,-0.034472434388453,0.0910472212,-0.1089195372335423,,2.9373914e-05,2.682209e-06,-9.536743e-07,1.0,-1.8186867e-05,-1.6771257e-05,1.8186867e-05,1.0,-3.1590462e-06,1.6778708e-05,3.1590462e-06,1.0,451,1.377,0,0,0.0,False,-0.2644655199497832,0.9962619258989842
1.3893234638962895,16:04:36.201518,16:03:18.407354,0,,0.12428965,-0.0027932227,0.024009928,0.80127656,0.57510394,-0.16495803,0.018885449,0.25126433,0.9677342,0.5979959,-0.77853817,0.19047114,,0.07302255,-0.012785868,0.028372705,-0.7502625,-0.1943237,0.6319369,-0.010337472,0.95916045,0.28267348,-0.66105914,0.20554662,-0.72163105,,0.08299335,1.2897625,0.42729613,0.99165606,0.10045778,-0.080786586,0.018920787,-0.7333169,-0.67962366,-0.12751566,0.6724244,-0.7290989,,-0.12131223,0.2572853,-0.09918086,-0.8444634,-0.48672235,0.22356845,0.42555362,-0.3562298,0.83186805,-0.32524702,0.7976225,0.50794953,,-0.0834524,0.42927703,-0.3394239,0.840313,0.13069658,-0.52611065,-0.41551247,0.77860177,-0.47024316,0.34817153,0.613757,0.70857525,,1.1119963065595873,0.527084241398697,0.21372062859000002,3.5529864024017805,-0.3801227423474553,-1.010045511328182,-0.42028428216350044,,-1.384801845341568,0.18579350748809326,0.19019426138,1.659486212736526,0.1645103457175903,-0.24449513398039097,0.8214573085892903,,-0.07627525163528219,-0.034472434388453,0.0910472212,-0.1089195372335423,,2.9373914e-05,2.682209e-06,-9.536743e-07,1.0,-1.8186867e-05,-1.6771257e-05,1.8186867e-05,1.0,-3.1590462e-06,1.6778708e-05,3.1590462e-06,1.0,463,1.415,0,0,0.0,False,-0.2637505873275314,0.9957791238911899
1.4191534358542413,16:04:36.236214,16:03:18.407354,0,,0.12446058,-0.002760835,0.024179444,0.79400253,0.584718,-0.1663268,0.013047308,0.2571485,0.9662838,0.60777426,-0.76940197,0.1965476,,0.07301977,-0.0127869705,0.02837205,-0.75027186,-0.19427182,0.6319416,-0.010342926,0.95918405,0.28259325,-0.6610483,0.20548564,-0.72165823,,0.08299335,1.2897625,0.42729613,0.99165606,0.10045778,-0.080786586,0.018920787,-0.7333169,-0.67962366,-0.12751566,0.6724244,-0.7290989,,-0.12149366,0.25742555,-0.09926093,-0.8385093,-0.4965764,0.22430776,0.42808715,-0.34567657,0.83501446,-0.33711052,0.7961907,0.502431,,-0.08344952,0.42927623,-0.33942455,0.8403209,0.13065362,-0.52610874,-0.41550618,0.77856207,-0.4703145,0.34816,0.61381656,0.70852935,,1.111857297367851,0.5276634463642639,0.21367266586000003,3.5477441538146675,-0.39214675432681406,-1.0137994066662301,-0.4211010024941717,,-1.3847863998758194,0.18579350748809326,0.19019296509000003,1.659486212736526,0.1645103457175903,-0.24457681272053153,0.8219473407876932,,-0.07627525163528219,-0.034472434388453,0.0910472212,-0.1089195372335423,,2.9373914e-05,2.682209e-06,-9.536743e-07,1.0,-1.8186867e-05,-1.6771257e-05,1.8186867e-05,1.0,-3.1590462e-06,1.6778708e-05,3.1590462e-06,1.0,471,1.439,0,0,0.0,False,-0.26386974276457353,0.9959239644935283
1.4538531079888344,16:04:36.257458,16:03:18.528058,0,,0.124659,-0.0027199313,0.024331704,0.78683895,0.5946108,-0.16529495,0.007734254,0.25831088,0.96603084,0.6171099,-0.7613892,0.19865018,,0.07302072,-0.012795852,0.028368354,-0.75041765,-0.19390294,0.63188195,-0.009995997,0.9592208,0.28248087,-0.66088814,0.20566231,-0.72175455,,0.08299335,1.2897625,0.42729613,0.99165606,0.10045778,-0.080786586,0.018920787,-0.7333169,-0.67962366,-0.12751566,0.6724244,-0.7290989,,-0.1217003,0.25756,-0.099319644,-0.8325869,-0.5069823,0.2230874,0.43069482,-0.3393155,0.83628166,-0.348283,0.7923597,0.50086427,,-0.08344963,0.42926776,-0.33942923,0.84042996,0.13026156,-0.52603173,-0.41514787,0.7786711,-0.47045037,0.3483241,0.61376154,0.70849633,,1.1115638335186306,0.5283353241243214,0.21364414748000002,3.5425019052275544,-0.4033509473075802,-1.0127493338370392,-0.41685405677468057,,-1.384770954410071,0.1857471710908479,0.19019166880000002,1.6599055926234947,0.1645103457175903,-0.24457681272053153,0.8219473407876932,,-0.07627525163528219,-0.034472434388453,0.0910472212,-0.1089195372335423,,2.9373914e-05,2.682209e-06,-9.536743e-07,1.0,-1.8186867e-05,-1.6771257e-05,1.8186867e-05,1.0,-3.1590462e-06,1.6778708e-05,3.1590462e-06,1.0,479,1.464,0,0,0.0,False,-0.26339312101640555,0.9956342832888514
1.4750966089777648,16:04:36.287904,16:03:18.528058,0,,0.12484316,-0.0026783198,0.02445279,0.7807489,0.60118747,-0.1703078,0.009488061,0.2611222,0.96525913,0.6247728,-0.7552409,0.19816673,,0.07300438,-0.012804822,0.028346956,-0.752181,-0.19574098,0.629213,-0.011344612,0.958568,0.2846378,-0.6588588,0.20696092,-0.7232373,,0.08299335,1.2897625,0.42729613,0.99165606,0.10045778,-0.080786586,0.018920787,-0.7333169,-0.67962366,-0.12751566,0.6724244,-0.7290989,,-0.121890105,0.2576735,-0.09935707,-0.8270394,-0.51380944,0.22804746,0.43725997,-0.3330447,0.8353951,-0.35328388,0.7906207,0.50010943,,-0.08343001,0.4292479,-0.33942422,0.8419136,0.13190559,-0.52324224,-0.41416958,0.779524,-0.4698998,0.3458975,0.612326,0.71092314,,1.1110695786146803,0.5291075974117438,0.2136156291,3.5336949276012044,-0.4078599517998397,-1.0120946564002582,-0.4186508415021577,,-1.384770954410071,0.18569311196072832,0.19019166880000002,1.6601152825669794,0.16150434272275063,-0.24220729757935083,0.8204772441924846,,-0.07627525163528219,-0.034472434388453,0.0910472212,-0.1089195372335423,,2.9373914e-05,2.682209e-06,-9.536743e-07,1.0,-1.8186867e-05,-1.6771257e-05,1.8186867e-05,1.0,-3.1590462e-06,1.6778708e-05,3.1590462e-06,1.0,487,1.488,0,0,0.0,False,-0.26422720907569985,0.9956825634896309
1.5055422578006983,16:04:36.313381,16:03:18.528058,0,,0.12499042,-0.0026551187,0.024520412,0.7769103,0.6058056,-0.17149314,0.009797215,0.26071426,0.9653663,0.62953496,-0.7516833,0.19661632,,0.07300299,-0.012809739,0.02834189,-0.7524859,-0.19543612,0.6289432,-0.011624157,0.95875025,0.284012,-0.65850574,0.20640397,-0.72371787,,0.08299335,1.2897625,0.42729613,0.99165606,0.10045778,-0.080786586,0.018920787,-0.7333169,-0.67962366,-0.12751566,0.6724244,-0.7290989,,-0.122040235,0.2577368,-0.09937292,-0.82359934,-0.5187261,0.2293628,0.44077507,-0.33088923,0.83440375,-0.35693336,0.78831184,0.5011617,,-0.08342771,0.42924112,-0.33942503,0.84217125,0.13168141,-0.52288395,-0.41402742,0.77916396,-0.47062176,0.34544018,0.6128324,0.71070915,,1.110613937375101,0.5296481887129395,0.21360655507,3.5288720589010607,-0.4111392277942103,-1.0097473416721063,-0.4179974652376206,,-1.384770954410071,0.18566222102923144,0.19019166880000002,1.6601152825669794,0.16095779672368885,-0.24282344958639243,0.8203139001263503,,-0.07627525163528219,-0.034472434388453,0.0910472212,-0.1089195372335423,,2.9373914e-05,2.682209e-06,-9.536743e-07,1.0,-1.8186867e-05,-1.6771257e-05,1.8186867e-05,1.0,-3.1590462e-06,1.6778708e-05,3.1590462e-06,1.0,520,1.59,0,0,0.0,False,-0.2636910096090097,0.994765239674821
1.531020054826513,16:04:36.404839,16:03:18.528058,0,,0.12573688,-0.0025862083,0.024785206,0.7634028,0.6210062,-0.17767152,0.012196571,0.26115847,0.9652189,0.6458074,-0.7390179,0.19179493,,0.07298811,-0.012861476,0.028302372,-0.7557741,-0.19528678,0.6250348,-0.011971295,0.95845675,0.28498635,-0.6547229,0.20790276,-0.72671473,,0.08299335,1.2897625,0.42729613,0.99165606,0.10045778,-0.080786586,0.018920787,-0.7333169,-0.67962366,-0.12751566,0.6724244,-0.7290989,,-0.12279852,0.2579686,-0.09943065,-0.8113513,-0.53484964,0.23589161,0.45375836,-0.3218422,0.8309759,-0.36852732,0.7812512,0.5038196,,-0.08340546,0.42918056,-0.33944234,0.84486866,0.13131994,-0.5186059,-0.41086432,0.7801222,-0.47180483,0.3426186,0.61168975,0.7130555,,1.107965039999242,0.5323974816161635,0.21355988863000003,3.5114677935918452,-0.42056714627802566,-1.0033663661593022,-0.41767077710535205,,-1.3847555089443226,0.18538420264575936,0.19018259477000002,1.662421871945309,0.1564487922314293,-0.24110694852778403,0.812473384951905,,-0.07627525163528219,-0.034472434388453,0.0910472212,-0.1089195372335423,,2.9373914e-05,2.682209e-06,-9.536743e-07,1.0,-1.8186867e-05,-1.6771257e-05,1.8186867e-05,1.0,-3.1590462e-06,1.6778708e-05,3.1590462e-06,1.0,524,1.602,0,0,0.0,False,-0.26309523242380006,0.9838539142986635
1.6224809410050511,16:04:36.427593,16:03:18.528058,0,,0.1258882,-0.0025664866,0.024907604,0.7548772,0.6293297,-0.18467396,0.01504162,0.26488677,0.9641622,0.6556936,-0.7306019,0.19049084,,0.07298206,-0.012879268,0.028290689,-0.7569644,-0.19528358,0.6235937,-0.01233837,0.95840216,0.2851544,-0.6533395,0.20815754,-0.72788584,,0.08299335,1.2897625,0.42729613,0.99165606,0.10045778,-0.080786586,0.018920787,-0.7333169,-0.67962366,-0.12751566,0.6724244,-0.7290989,,-0.122957535,0.25806722,-0.099487804,-0.8034845,-0.5435298,0.24287447,0.46265042,-0.31334448,0.8293189,-0.37465614,0.77871084,0.5032317,,-0.08339717,0.42916134,-0.33944952,0.8458507,0.13128056,-0.51701254,-0.40985766,0.78028524,-0.47241044,0.34139895,0.61149025,0.7138112,,1.1075016760267884,0.5329226274516108,0.21352099993,3.499515466813227,-0.4263058792681742,-1.0022806787702372,-0.4179974652376204,,-1.3847632316771967,0.18529152985126865,0.19017740961000001,1.6630509417757626,0.1546725177344786,-0.2407203394015578,0.8100232239598908,,-0.07627525163528219,-0.034472434388453,0.0910472212,-0.1089195372335423,,2.9373914e-05,2.682209e-06,-9.536743e-07,1.0,-1.8186867e-05,-1.6771257e-05,1.8186867e-05,1.0,-3.1590462e-06,1.6778708e-05,3.1590462e-06,1.0,532,1.628,0,0,0.0,False,-0.26404847592013647,0.9834676726924281
1.645211810944602,16:04:36.454337,16:03:18.701632,0,,0.126075,-0.0025592893,0.025125816,0.74273366,0.64280474,-0.18747996,0.01106751,0.2681697,0.9633081,0.66949546,-0.7175563,0.1920644,,0.07297104,-0.01291375,0.028264463,-0.75870115,-0.19672155,0.6210258,-0.013700247,0.95792186,0.28670222,-0.65129465,0.20901307,-0.72947156,,0.08299335,1.2897625,0.42729613,0.99165606,0.10045778,-0.080786586,0.018920787,-0.7333169,-0.67962366,-0.12751566,0.6724244,-0.7290989,,-0.12316075,0.25822282,-0.09961834,-0.79288304,-0.557749,0.245464,0.46931532,-0.3019791,0.8297902,-0.38868967,0.77312654,0.50119424,,-0.08338127,0.42912126,-0.33946124,0.8473062,0.1325897,-0.514288,-0.40887922,0.78084713,-0.47232994,0.3389542,0.6104898,0.7158298,,1.1071773212460712,0.5334786642185549,0.21343803737000003,3.487563140034609,-0.44092598474307637,-1.0004054481120093,-0.41881418556829186,,-1.3847477862114483,0.18509846152941306,0.19017092816000003,1.6632606317192473,0.1516665147396389,-0.2388408967012205,0.8092065036292194,,-0.07627525163528219,-0.034472434388453,0.0910472212,-0.1089195372335423,,2.9373914e-05,2.682209e-06,-9.536743e-07,1.0,-1.8186867e-05,-1.6771257e-05,1.8186867e-05,1.0,-3.1590462e-06,1.6778708e-05,3.1590462e-06,1.0,544,1.664,0,0,0.0,False,-0.2649421416979525,0.9840470351017814
1.6719733038917184,16:04:36.485095,16:03:18.701632,0,,0.12614238,-0.0025567412,0.025376752,0.7289028,0.65510964,-0.19882664,0.012692541,0.27743918,0.96065927,0.6844995,-0.7027509,0.19391116,,0.072968595,-0.012955085,0.028232455,-0.76055425,-0.19729769,0.61857146,-0.014211208,0.9575425,0.28794166,-0.6491187,0.21020454,-0.73106694,,0.08299335,1.2897625,0.42729613,0.99165606,0.10045778,-0.080786586,0.018920787,-0.7333169,-0.67962366,-0.12751566,0.6724244,-0.7290989,,-0.12324845,0.25839782,-0.09978925,-0.7802683,-0.570485,0.25637525,0.48086315,-0.2850661,0.829161,-0.39993998,0.7702494,0.49675325,,-0.083372764,0.42907128,-0.33947414,0.8488299,0.13299376,-0.5116644,-0.40725744,0.7816137,-0.4724631,0.33708927,0.60941994,0.7176198,,1.107239103109065,0.5338030189992723,0.21330840837,3.469320114951455,-0.4529499967224351,-1.0017906599859812,-0.419304217766695,,-1.3847323407457,0.18485133407743787,0.19016963187000002,1.66430908143667,0.14893378474433008,-0.2371026110681355,0.8095331917614879,,-0.07627525163528219,-0.034472434388453,0.0910472212,-0.1089195372335423,,2.9373914e-05,2.682209e-06,-9.536743e-07,1.0,-1.8186867e-05,-1.6771257e-05,1.8186867e-05,1.0,-3.1590462e-06,1.6778708e-05,3.1590462e-06,1.0,552,1.689,0,0,0.0,False,-0.26476340854238867,0.9846263975111349
1.7027350668795407,16:04:36.515739,16:03:18.701632,0,,0.12612538,-0.0025502667,0.02562593,0.7134592,0.6687374,-0.20920363,0.017689556,0.2812798,0.9594627,0.7004733,-0.6882383,0.18885195,,0.07296881,-0.012993411,0.02819115,-0.7618979,-0.19749904,0.6168513,-0.014507741,0.9573412,0.28859556,-0.64753455,0.21093112,-0.73226154,,0.08299335,1.2897625,0.42729613,0.99165606,0.10045778,-0.080786586,0.018920787,-0.7333169,-0.67962366,-0.12751566,0.6724244,-0.7290989,,-0.12325185,0.25857452,-0.09996585,-0.765869,-0.5849348,0.26701304,0.49552208,-0.27228472,0.82481444,-0.40975907,0.7640107,0.49838254,,-0.083365604,0.42901558,-0.33947885,0.84993136,0.13309096,-0.50980735,-0.40603077,0.7820792,-0.47274843,0.3357912,0.6088012,0.7187527,,1.1075402896911597,0.5338956917937631,0.21317100163000002,3.4466736010551267,-0.4637442802039049,-0.9952756503178997,-0.41963090589896335,,-1.3847168952799516,0.1845192565638462,0.19016833558000001,1.6651478412106078,0.1470208737476139,-0.23595115411708836,0.8103499120921593,,-0.07627525163528219,-0.034472434388453,0.0910472212,-0.1089195372335423,,2.9373914e-05,2.682209e-06,-9.536743e-07,1.0,-1.8186867e-05,-1.6771257e-05,1.8186867e-05,1.0,-3.1590462e-06,1.6778708e-05,3.1590462e-06,1.0,560,1.714,0,0,0.0,False,-0.2632143878608417,0.9843849965072375
1.7333525610156357,16:04:36.538216,16:03:18.701632,0,,0.12615427,-0.0025829375,0.025796846,0.7033489,0.67714185,-0.21628499,0.021716714,0.2836538,0.95868075,0.710513,-0.6789841,0.18480235,,0.07298436,-0.013035859,0.028168201,-0.7627723,-0.19758162,0.61574316,-0.014609009,0.9572017,0.28905252,-0.646502,0.21148583,-0.73301363,,0.08298683,1.2897649,0.4272972,0.99165624,0.10045201,-0.08079193,0.018912986,-0.7333177,-0.679623,-0.12751566,0.6724244,-0.7290989,,-0.123289846,0.2586712,-0.1001055,-0.75634766,-0.5938687,0.2743323,0.50538105,-0.2641842,0.82146007,-0.41536516,0.7599518,0.4999451,,-0.08336894,0.4289713,-0.33949503,0.85064447,0.13310213,-0.50861365,-0.4051791,0.7824335,-0.4728929,0.3350133,0.60834336,0.7195029,,1.1078260308075059,0.5339111372595114,0.21307637246000002,3.4313662351807563,-0.4700295591931152,-0.9903954629682858,-0.4188141855682921,,-1.384701449814203,0.18427212911187102,0.19016833558000001,1.6657769110410614,0.14579114524972495,-0.2351117504641017,0.8103499120921593,,-0.07627525163528219,-0.034472434388453,0.0910472212,-0.1089195372335423,,2.2817403e-05,8.940697e-07,-2.861023e-06,1.0,-2.3923814e-05,-2.206117e-05,2.3931265e-05,1.0,-4.2021275e-06,2.206862e-05,4.172325e-06,1.0,568,1.738,0,0,0.0,False,-0.2644655199497832,0.9840953153025609
1.7558532739058137,16:04:36.560012,16:03:18.701632,0,,0.12607104,-0.0025057718,0.026196674,0.67316186,0.7010705,-0.23527265,0.028988391,0.29289162,0.9557061,0.73892677,-0.65016514,0.1768406,,0.07299928,-0.013091679,0.028135538,-0.76364547,-0.19784416,0.6145755,-0.015219718,0.9571439,0.28921238,-0.6454563,0.21150202,-0.7339299,,0.08298683,1.2897649,0.4272972,0.99165624,0.10045201,-0.08079193,0.018912986,-0.7333177,-0.679623,-0.12751566,0.6724244,-0.7290989,,-0.123234496,0.2590031,-0.10034945,-0.7281622,-0.61932427,0.29362762,0.5302887,-0.23763378,0.81383294,-0.43425065,0.74830985,0.5014566,,-0.083377056,0.42890954,-0.3395178,0.85137117,0.13336106,-0.5073283,-0.40462786,0.7824462,-0.4733437,0.33383146,0.60827035,0.7201137,,1.10858285862918,0.5339111372595114,0.21291433621000003,3.3894282464838517,-0.491071580156993,-0.9792813325694387,-0.4194675618328292,,-1.3846860043484546,0.1839168833996567,0.19016963187000002,1.665986600984546,0.14428814375230511,-0.2345395834445656,0.809043159563085,,-0.07627525163528219,-0.034472434388453,0.0910472212,-0.1089195372335423,,2.2817403e-05,8.940697e-07,-2.861023e-06,1.0,-2.3923814e-05,-2.206117e-05,2.3931265e-05,1.0,-4.2021275e-06,2.206862e-05,4.172325e-06,1.0,597,1.827,0,0,0.0,False,-0.2644059422312628,0.9856402817275036
1.7776416898705065,16:04:36.648377,16:03:18.846053,0,,0.12589142,-0.002337277,0.02699618,0.6118038,0.7456244,-0.2640836,0.031119943,0.3109094,0.94992995,0.7903971,-0.5893891,0.1670118,,0.073029146,-0.013165231,0.028101921,-0.7641167,-0.1964392,0.61444044,-0.01475203,0.95757806,0.28779614,-0.64490914,0.21084562,-0.7345995,,0.08298683,1.2897649,0.4272972,0.99165624,0.10045201,-0.08079193,0.018912986,-0.7333177,-0.679623,-0.12751566,0.6724244,-0.7290989,,-0.123109646,0.25967708,-0.10082906,-0.67133623,-0.6672516,0.3226189,0.5674267,-0.1826944,0.8029008,-0.47679618,0.722079,0.50126576,,-0.08339921,0.42883396,-0.33955285,0.8517404,0.1320564,-0.5070496,-0.4038508,0.78201437,-0.47471896,0.33383042,0.60910976,0.71940434,,1.1101891870670186,0.5338030189992723,0.21263693015000001,3.3137301768859384,-0.5390309915746625,-0.9577345775022158,-0.4199575940312319,,-1.3846628361498319,0.18345351942720323,0.19017092816000003,1.666825360758484,0.14387823425300877,-0.23543051083558472,0.8111666324228307,,-0.07627525163528219,-0.034472434388453,0.0910472212,-0.1089195372335423,,2.2817403e-05,8.940697e-07,-2.861023e-06,1.0,-2.3923814e-05,-2.206117e-05,2.3931265e-05,1.0,-4.2021275e-06,2.206862e-05,4.172325e-06,1.0,601,1.84,0,0,0.0,False,-0.2644655199497832,0.9851091995189294
1.8660174848046154,16:04:36.668877,16:03:18.846053,0,,0.12579814,-0.0022661611,0.027222767,0.59082997,0.7582933,-0.27551985,0.03315097,0.31839284,0.94737905,0.8061148,-0.56887376,0.1629779,,0.07302985,-0.013164247,0.028102994,-0.7642516,-0.19604784,0.61439764,-0.014390171,0.9576223,0.2876672,-0.6447575,0.21100885,-0.73468566,,0.08298683,1.2897649,0.4272972,0.99165624,0.10045201,-0.08079193,0.018912986,-0.7333177,-0.679623,-0.12751566,0.6724244,-0.7290989,,-0.12303033,0.25988504,-0.1009538,-0.6516532,-0.6809652,0.33411756,0.57976866,-0.16313261,0.7982832,-0.48909763,0.7139147,0.50110817,,-0.08340009,0.42883527,-0.3395527,0.85183954,0.13164385,-0.5069904,-0.40349126,0.78211457,-0.4748596,0.3340122,0.60907036,0.71935326,,1.1106988874367174,0.533687178006159,0.21257600452000003,3.2870995540634036,-0.5531045510505029,-0.9507508641292153,-0.41848749743602354,,-1.3846705588827062,0.18346124216007745,0.19017092816000003,1.6672447406454531,0.14387823425300877,-0.23551218957572526,0.8106766002244279,,-0.07627525163528219,-0.034472434388453,0.0910472212,-0.1089195372335423,,2.2817403e-05,8.940697e-07,-2.861023e-06,1.0,-2.3923814e-05,-2.206117e-05,2.3931265e-05,1.0,-4.2021275e-06,2.206862e-05,4.172325e-06,1.0,609,1.865,0,0,0.0,False,-0.26339312101640555,0.9852540401212677
1.8865136348176748,16:04:36.697354,16:03:18.846053,0,,0.1256408,-0.0021816865,0.027454123,0.56744415,0.7721201,-0.28607267,0.036630094,0.32340887,0.9455501,0.8225968,-0.54702574,0.15523374,,0.07302817,-0.013158972,0.02810371,-0.764324,-0.19589107,0.6143576,-0.014208555,0.95762515,0.2876668,-0.6446757,0.21114159,-0.73471934,,0.08298683,1.2897649,0.4272972,0.99165624,0.10045201,-0.08079193,0.018912986,-0.7333177,-0.679623,-0.12751566,0.6724244,-0.7290989,,-0.122886725,0.26010606,-0.101080135,-0.62952465,-0.6961332,0.34510472,0.59368867,-0.14443757,0.7916259,-0.501231,0.70323277,0.5042134,,-0.08339871,0.42883933,-0.33954915,0.8518931,0.13146907,-0.5069457,-0.40330574,0.7821976,-0.47488043,0.33409965,0.6090015,0.71937096,,1.1113939333953977,0.5334246050884354,0.21251637518000002,3.2564848223146634,-0.5671781105263433,-0.9385397113872188,-0.4199575940312319,,-1.3846705588827062,0.18349213309157436,0.19017222445,1.6674544305889376,0.14387823425300877,-0.23551218957572528,0.8103499120921593,,-0.07627525163528219,-0.034472434388453,0.0910472212,-0.1089195372335423,,2.2817403e-05,8.940697e-07,-2.861023e-06,1.0,-2.3923814e-05,-2.206117e-05,2.3931265e-05,1.0,-4.2021275e-06,2.206862e-05,4.172325e-06,1.0,621,1.902,0,0,0.0,False,-0.26381016504605226,0.9849643589165913
1.9149296558462083,16:04:36.726746,16:03:18.971365,0,,0.12544793,-0.0020691305,0.027679965,0.53437877,0.7899571,-0.30067754,0.041783243,0.33060512,0.9428438,0.8442118,-0.516399,0.14366144,,0.07302761,-0.013155366,0.028105855,-0.76439106,-0.19552977,0.6143893,-0.014024794,0.95772374,0.28734726,-0.6446003,0.21102896,-0.73481786,,0.08298683,1.2897649,0.4272972,0.99165624,0.10045201,-0.08079193,0.018912986,-0.7333177,-0.679623,-0.12751566,0.6724244,-0.7290989,,-0.122705184,0.26034358,-0.1011873,-0.5980777,-0.71584755,0.3603684,0.61237377,-0.11810978,0.7816959,-0.51701206,0.68819505,0.50900507,,-0.08339859,0.42884326,-0.33954763,0.85194224,0.1311256,-0.5069522,-0.40312463,0.782122,-0.47515854,0.33419305,0.6091725,0.7191827,,1.1119345246965933,0.5329457956502334,0.21249952341000003,3.213498383900336,-0.5856240379946778,-0.921047932183985,-0.41963090589896335,,-1.3846782816155803,0.18351530129019702,0.19017222445,1.6676641205324223,0.14387823425300877,-0.2358389045362875,0.8106766002244279,,-0.07627525163528219,-0.034472434388453,0.0910472212,-0.1089195372335423,,2.2817403e-05,8.940697e-07,-2.861023e-06,1.0,-2.3923814e-05,-2.206117e-05,2.3931265e-05,1.0,-4.2021275e-06,2.206862e-05,4.172325e-06,1.0,629,1.927,0,0,0.0,False,-0.264167631357179,0.9850609193181499
1.9443712949287146,16:04:36.753359,16:03:18.971365,0,,0.12528136,-0.0020013824,0.027835652,0.5028643,0.8054242,-0.31371844,0.045397103,0.33783582,0.94010955,0.8631725,-0.48698947,0.13332173,,0.073029034,-0.013156618,0.028104067,-0.7645978,-0.1950076,0.614298,-0.013487399,0.95776016,0.28725162,-0.64436644,0.21134666,-0.7349316,,0.08298683,1.2897649,0.4272972,0.99165624,0.10045201,-0.08079193,0.018912986,-0.7333177,-0.679623,-0.12751566,0.6724244,-0.7290989,,-0.12254741,0.26050025,-0.10127176,-0.5680702,-0.7331032,0.37397325,0.6281111,-0.09259459,0.77259475,-0.5317638,0.6737848,0.51307046,,-0.08339969,0.42884094,-0.33954746,0.85209453,0.13056104,-0.5068419,-0.40258315,0.78231907,-0.47529325,0.3344573,0.6090408,0.71917146,,1.1120889793540778,0.5323279770202954,0.21250341228000003,3.1736572946382764,-0.6031135099646542,-0.9048261507474695,-0.4193042177666948,,-1.3846782816155803,0.1835075785573228,0.19017352074000002,1.6682931903628757,0.14387823425300877,-0.23583890453628753,0.8110032883566964,,-0.07627525163528219,-0.034472434388453,0.0910472212,-0.1089195372335423,,2.2817403e-05,8.940697e-07,-2.861023e-06,1.0,-2.3923814e-05,-2.206117e-05,2.3931265e-05,1.0,-4.2021275e-06,2.206862e-05,4.172325e-06,1.0,641,1.963,0,0,0.0,False,-0.26381016504605226,0.9849160787158118
1.970999174984172,16:04:36.786876,16:03:18.971365,0,,0.12513006,-0.0019922554,0.02789016,0.47657964,0.8177106,-0.32283294,0.048594564,0.3421539,0.93838656,0.87778723,-0.46290392,0.123327315,,0.07303079,-0.013160284,0.028102696,-0.7645955,-0.19494545,0.61432064,-0.013489157,0.95779014,0.28715155,-0.6443692,0.21126813,-0.7349518,,0.08298683,1.2897649,0.4272972,0.99165624,0.10045201,-0.08079193,0.018912986,-0.7333177,-0.679623,-0.12751566,0.6724244,-0.7290989,,-0.12240093,0.26054466,-0.10132198,-0.54292804,-0.7469821,0.3837276,0.6405417,-0.07285834,0.7644593,-0.5430797,0.6608399,0.51803005,,-0.08340111,0.4288374,-0.33954936,0.8520927,0.13051036,-0.50685805,-0.40258667,0.7822683,-0.4753738,0.33445778,0.60911685,0.71910685,,1.1119113564979706,0.5314784764041307,0.21252674550000003,3.139477833850299,-0.6174603424400255,-0.8886349401516143,-0.4186508415021575,,-1.3846782816155803,0.18348441035870014,0.19017352074000002,1.6682931903628757,0.14387823425300877,-0.2359205832764281,0.8108399442905622,,-0.07627525163528219,-0.034472434388453,0.0910472212,-0.1089195372335423,,2.2817403e-05,8.940697e-07,-2.861023e-06,1.0,-2.3923814e-05,-2.206117e-05,2.3931265e-05,1.0,-4.2021275e-06,2.206862e-05,4.172325e-06,1.0,666,2.04,0,0,0.0,False,-0.2637505873275314,0.9857368421290624
2.0045097479596734,16:04:36.858984,16:03:19.117722,0,,0.124766156,-0.0020139813,0.027838692,0.41557634,0.84322244,-0.34098706,0.049414665,0.35340852,0.93416303,0.90821505,-0.40506586,0.10520074,,0.0730262,-0.013160492,0.028099656,-0.76489264,-0.19452345,0.61408436,-0.01302737,0.95779026,0.28717256,-0.6440259,0.21165624,-0.73514104,,0.08298683,1.2897649,0.4272972,0.99165624,0.10045201,-0.08079193,0.018912986,-0.7333177,-0.679623,-0.12751566,0.6724244,-0.7290989,,-0.12203683,0.26049381,-0.101341516,-0.4848004,-0.7762752,0.40294585,0.6622054,-0.02481951,0.7489112,-0.5713603,0.6299054,0.52608615,,-0.0833961,0.42883548,-0.33954793,0.8523205,0.13003546,-0.50659704,-0.40199485,0.7825111,-0.475475,0.3345892,0.6089065,0.71922386,,1.1110155194845606,0.528976310952882,0.21269915207,3.0673444932916225,-0.6524392863799782,-0.8547211599560535,-0.41914087370056063,,-1.3846551134169578,0.18349213309157436,0.19017352074000002,1.6689222601933293,0.14374159775324336,-0.23580916537273167,0.8105132561582936,,-0.07627525163528219,-0.034472434388453,0.0910472212,-0.1089195372335423,,2.2817403e-05,8.940697e-07,-2.861023e-06,1.0,-2.3923814e-05,-2.206117e-05,2.3931265e-05,1.0,-4.2021275e-06,2.206862e-05,4.172325e-06,1.0,670,2.053,0,0,0.0,False,-0.2634526987349264,0.9848677985150323
2.07660742290318,16:04:36.885826,16:03:19.117722,0,,0.124577686,-0.0020019114,0.027802214,0.3902138,0.8506661,-0.35227868,0.05133918,0.36191267,0.9307972,0.91929185,-0.38129565,0.09755093,,0.07302682,-0.01315927,0.028100848,-0.7649579,-0.19430467,0.6140724,-0.012844771,0.9578225,0.28707322,-0.64395213,0.21171126,-0.7351898,,0.08298683,1.2897649,0.4272972,0.99165624,0.10045201,-0.08079193,0.018912986,-0.7333177,-0.679623,-0.12751566,0.6724244,-0.7290989,,-0.1218456,0.26047757,-0.101328544,-0.46037838,-0.7849899,0.41453904,0.67127174,-0.0022667719,0.7412079,-0.580901,0.61950445,0.5279851,,-0.08339693,0.42883706,-0.33954766,0.85236806,0.12981,-0.5065748,-0.40181595,0.7825437,-0.47557256,0.33468285,0.6089127,0.71917504,,1.1107375011010885,0.5279723556792328,0.21278211463000002,3.0354716218819746,-0.6645999348591023,-0.8430080342439796,-0.41914087370056063,,-1.3846628361498319,0.18349985582444858,0.19017352074000002,1.669131950136814,0.14374159775324336,-0.2358908441128722,0.8103499120921593,,-0.07627525163528219,-0.034472434388453,0.0910472212,-0.1089195372335423,,2.2817403e-05,8.940697e-07,-2.861023e-06,1.0,-2.3923814e-05,-2.206117e-05,2.3931265e-05,1.0,-4.2021275e-06,2.206862e-05,4.172325e-06,1.0,678,2.078,0,0,0.0,False,-0.26339312101640555,0.9851091995189294
2.10346074285917,16:04:36.907863,16:03:19.117722,0,,0.12445144,-0.0019829795,0.02778913,0.37440336,0.8560375,-0.35640103,0.05144298,0.36458933,0.9297463,0.92583793,-0.36643454,0.09246647,,0.0730286,-0.013160492,0.028101087,-0.76502144,-0.1938773,0.6141283,-0.012663275,0.95795274,0.28664634,-0.6438801,0.21151376,-0.7353097,,0.08298683,1.2897649,0.4272972,0.99165624,0.10045201,-0.08079193,0.018912986,-0.7333177,-0.679623,-0.12751566,0.6724244,-0.7290989,,-0.121717624,0.26048237,-0.10132059,-0.44520992,-0.79135746,0.41897666,0.67588276,0.009922156,0.7369424,-0.587342,0.61127317,0.5304474,,-0.083398685,0.42883626,-0.33954865,0.85241437,0.12941286,-0.5065985,-0.40163937,0.7824129,-0.47593686,0.33477682,0.6091653,0.7189173,,1.110652551039472,0.5273699825150433,0.21283785510000003,3.0159704571379136,-0.6727981248450288,-0.8328924529362908,-0.4191408737005604,,-1.3846705588827062,0.18349213309157436,0.19017352074000002,1.6693416400802985,0.14374159775324336,-0.2362992378135751,0.8108399442905622,,-0.07627525163528219,-0.034472434388453,0.0910472212,-0.1089195372335423,,2.2817403e-05,8.940697e-07,-2.861023e-06,1.0,-2.3923814e-05,-2.206117e-05,2.3931265e-05,1.0,-4.2021275e-06,2.206862e-05,4.172325e-06,1.0,690,2.115,0,0,0.0,False,-0.2632143878608417,0.9847712381134734
2.12549767899327,16:04:36.938356,16:03:19.117722,0,,0.12425933,-0.001923807,0.027825847,0.3492659,0.8632199,-0.36450592,0.050475776,0.37110677,0.92721736,0.9356632,-0.34224415,0.08604333,,0.073029935,-0.013161506,0.028099418,-0.76515853,-0.1933772,0.61411524,-0.0123051405,0.9580474,0.28634554,-0.6437242,0.21154296,-0.73543775,,0.08298683,1.2897649,0.4272972,0.99165624,0.10045201,-0.08079193,0.018912986,-0.7333177,-0.679623,-0.12751566,0.6724244,-0.7290989,,-0.121525206,0.26055074,-0.101328366,-0.42113292,-0.8000028,0.427367,0.68199265,0.031327743,0.7306878,-0.59794074,0.59917784,0.5324029,,-0.08339973,0.42883417,-0.33954835,0.85251516,0.12891123,-0.50655687,-0.40127856,0.78242564,-0.47622016,0.33495292,0.6092553,0.718759,,1.1106757192380947,0.5266903820221116,0.21290785476000001,2.985146035445689,-0.6860518653222765,-0.819062802892537,-0.41963090589896357,,-1.3846705588827062,0.18348441035870014,0.19017481703000003,1.6697610199672674,0.14374159775324336,-0.23654427403399675,0.8106766002244279,,-0.07627525163528219,-0.034472434388453,0.0910472212,-0.1089195372335423,,2.2817403e-05,8.940697e-07,-2.861023e-06,1.0,-2.3923814e-05,-2.206117e-05,2.3931265e-05,1.0,-4.2021275e-06,2.206862e-05,4.172325e-06,1.0,698,2.14,0,0,0.0,False,-0.2636910096090097,0.9855920015267241
2.155996417859569,16:04:36.962043,16:03:19.117722,0,,0.12410054,-0.0018444657,0.027888432,0.32664263,0.8716689,-0.36537346,0.047532648,0.37093875,0.92744005,0.94395196,-0.3203087,0.07973173,,0.07302745,-0.013163443,0.028096437,-0.7653111,-0.19334307,0.6139357,-0.012200445,0.9580054,0.2864903,-0.64354473,0.21176389,-0.7355313,,0.08298683,1.2897649,0.4272972,0.99165624,0.10045201,-0.08079193,0.018912986,-0.7333177,-0.679623,-0.12751566,0.6724244,-0.7290989,,-0.12136649,0.26065153,-0.10133708,-0.39957976,-0.8102405,0.42877305,0.68560946,0.04633816,0.72649324,-0.6085028,0.58426285,0.5369928,,-0.083396755,0.428831,-0.3395482,0.8526359,0.12884593,-0.5063702,-0.40105402,0.7825661,-0.47617853,0.33491445,0.6090887,0.71891814,,1.1107683920325855,0.526257908981155,0.21297655813000002,2.958096032736185,-0.6991689692997588,-0.8002804888637648,-0.4204476262296346,,-1.3846551134169578,0.1834766876258259,0.19017481703000003,1.669970709910752,0.1436049612534779,-0.23635117739015976,0.8105132561582936,,-0.07627525163528219,-0.034472434388453,0.0910472212,-0.1089195372335423,,2.2817403e-05,8.940697e-07,-2.861023e-06,1.0,-2.3923814e-05,-2.206117e-05,2.3931265e-05,1.0,-4.2021275e-06,2.206862e-05,4.172325e-06,1.0,706,2.164,0,0,0.0,False,-0.2641080536386573,0.9852540401212677
2.1796809528023005,16:04:36.991789,16:03:19.245725,0,,0.123962566,-0.0017549396,0.02792497,0.30834827,0.8756895,-0.37160343,0.049532145,0.37532815,0.9255675,0.9499832,-0.30380356,0.07235703,,0.07302319,-0.013161774,0.028094888,-0.76546603,-0.19296989,0.61386,-0.012094021,0.9581207,0.2861091,-0.64336246,0.21158272,-0.7357428,,0.08298683,1.2897649,0.4272972,0.99165624,0.10045201,-0.08079193,0.018912986,-0.7333177,-0.679623,-0.12751566,0.6724244,-0.7290989,,-0.12122546,0.26074168,-0.1013177,-0.38175258,-0.81526953,0.43543148,0.6912395,0.060902618,0.72005475,-0.61355764,0.5758702,0.54029673,,-0.08339237,0.4288314,-0.33954617,0.85275847,0.1285004,-0.5062516,-0.40082595,0.7824461,-0.47656757,0.33487543,0.6093158,0.71874386,,1.1108687875599503,0.5260957315907963,0.21303359489,2.9337719992919804,-0.7051809752894381,-0.7883537294490339,-0.4193042177666948,,-1.3846396679512092,0.18349213309157436,0.19017481703000003,1.6701803998542366,0.14346832475371246,-0.23672983192730673,0.8114933205550993,,-0.07627525163528219,-0.034472434388453,0.0910472212,-0.1089195372335423,,2.2817403e-05,8.940697e-07,-2.861023e-06,1.0,-2.3923814e-05,-2.206117e-05,2.3931265e-05,1.0,-4.2021275e-06,2.206862e-05,4.172325e-06,1.0,735,2.253,0,0,0.0,False,-0.2634526987349264,0.9853988807236063
2.209421796957031,16:04:37.072161,16:03:19.245725,0,,0.12344804,-0.0013990328,0.028079763,0.23113818,0.8903196,-0.39230865,0.04225129,0.39366186,0.9182838,0.9720031,-0.22882605,0.053373247,,0.073011816,-0.013166751,0.028081834,-0.7667217,-0.19322234,0.61221135,-0.012273788,0.9578684,0.28694502,-0.64186215,0.21249285,-0.7367902,,0.08298683,1.2897649,0.4272972,0.99165624,0.10045201,-0.08079193,0.018912986,-0.7333177,-0.679623,-0.12751566,0.6724244,-0.7290989,,-0.120699435,0.2611066,-0.1012437,-0.3074555,-0.83462983,0.45701656,0.7012559,0.12590626,0.7017035,-0.6432039,0.5362282,0.5465785,,-0.08337903,0.4288198,-0.33954287,0.8537817,0.12862241,-0.50449294,-0.39960408,0.7830291,-0.47663614,0.33372656,0.60854065,0.7199339,,1.110930569422944,0.5253852401663677,0.21333433417000003,2.8371049353456144,-0.7416629207268107,-0.7402274326304629,-0.41832415336988915,,-1.384631945218335,0.18346896489295167,0.19017481703000003,1.6710191596281745,0.14169205025676176,-0.23568979287995606,0.8103499120921593,,-0.07627525163528219,-0.034472434388453,0.0910472212,-0.1089195372335423,,2.2817403e-05,8.940697e-07,-2.861023e-06,1.0,-2.3923814e-05,-2.206117e-05,2.3931265e-05,1.0,-4.2021275e-06,2.206862e-05,4.172325e-06,1.0,743,2.279,0,0,0.0,False,-0.26339312101640555,0.9849160787158118
2.289802595973015,16:04:37.105813,16:03:19.359798,0,,0.12328939,-0.001332745,0.028059408,0.21296355,0.8956991,-0.3903453,0.037710845,0.39167723,0.9193295,0.9763322,-0.21050395,0.04963547,,0.073001765,-0.013168062,0.028072596,-0.76789075,-0.19317618,0.610759,-0.012131929,0.9576605,0.2876441,-0.64046574,0.21346962,-0.7377224,,0.08298683,1.2897649,0.4272972,0.99165624,0.10045201,-0.08079193,0.018912986,-0.7333177,-0.679623,-0.12751566,0.6724244,-0.7290989,,-0.12053495,0.2611407,-0.10120174,-0.29011604,-0.84165853,0.45545974,0.7009789,0.13711146,0.6998779,-0.65150696,0.5223135,0.5502066,,-0.08336767,0.4288132,-0.33953887,0.8547245,0.12843794,-0.5029411,-0.3982757,0.78365034,-0.476727,0.33290008,0.60777944,0.7209588,,1.1108996784914473,0.524883262529543,0.21344581511000002,2.814877801336255,-0.7524572042082806,-0.722032363122281,-0.4207743143619036,,-1.384631945218335,0.18346896489295167,0.19017481703000003,1.6720676093455973,0.1401890487593419,-0.23479091089985768,0.8106766002244279,,-0.07627525163528219,-0.034472434388453,0.0910472212,-0.1089195372335423,,2.2817403e-05,8.940697e-07,-2.861023e-06,1.0,-2.3923814e-05,-2.206117e-05,2.3931265e-05,1.0,-4.2021275e-06,2.206862e-05,4.172325e-06,1.0,751,2.303,0,0,0.0,False,-0.26428678679422024,0.9854471609243856
2.32345135579817,16:04:37.129344,16:03:19.359798,0,,0.123111926,-0.0012751073,0.02803196,0.19422765,0.8972808,-0.39643744,0.038909763,0.39676866,0.9170935,0.98018456,-0.19355023,0.042150438,,0.07300015,-0.013167347,0.028072119,-0.7679646,-0.19250812,0.61087704,-0.011954576,0.9579041,0.28683943,-0.64038056,0.21297973,-0.7379379,,0.08298683,1.2897649,0.4272972,0.99165624,0.10045201,-0.08079193,0.018912986,-0.7333177,-0.679623,-0.12751566,0.6724244,-0.7290989,,-0.12035185,0.26116365,-0.10116277,-0.27173087,-0.8442472,0.46196207,0.7045261,0.15249617,0.69310015,-0.65559536,0.51380104,0.55335635,,-0.08336604,0.42881352,-0.33953813,0.8547791,0.12784283,-0.50299984,-0.39809,0.7833304,-0.4774074,0.33298197,0.60831714,0.72046745,,1.1108610648270762,0.5245125713515802,0.21352099993,2.7892956282311427,-0.7575127546996018,-0.7092519542306138,-0.4171807449069489,,-1.3846242224854608,0.1834766876258259,0.19017481703000003,1.6722772992890815,0.1401890487593419,-0.23560769830126327,0.811329976488965,,-0.07627525163528219,-0.034472434388453,0.0910472212,-0.1089195372335423,,2.2817403e-05,8.940697e-07,-2.861023e-06,1.0,-2.3923814e-05,-2.206117e-05,2.3931265e-05,1.0,-4.2021275e-06,2.206862e-05,4.172325e-06,1.0,759,2.328,0,0,0.0,False,-0.2635718541719685,0.986316204538416
2.3469451188575476,16:04:37.158110,16:03:19.359798,0,,0.12297292,-0.0012426376,0.027976736,0.18227331,0.9020582,-0.39123824,0.037115514,0.39130813,0.91951096,0.98254716,-0.1821233,0.037844747,,0.073000066,-0.013167108,0.028072238,-0.7678961,-0.19263116,0.61092436,-0.012134075,0.9579166,0.28678983,-0.6404593,0.21281177,-0.737918,,0.08298683,1.2897649,0.4272972,0.99165624,0.10045201,-0.08079193,0.018912986,-0.7333177,-0.679623,-0.12751566,0.6724244,-0.7290989,,-0.12020661,0.26114917,-0.10111671,-0.2601923,-0.8503736,0.4573452,0.70487183,0.15642753,0.69187146,-0.6598906,0.5023894,0.55870324,,-0.08336598,0.42881376,-0.339538,0.85472894,0.12798905,-0.503048,-0.3982713,0.783225,-0.47742912,0.33289406,0.60842204,0.7204194,,1.1108456193613276,0.5240105937147557,0.21360655507,2.773778572413288,-0.7632514876897504,-0.6919938762937174,-0.4193042177666948,,-1.3846242224854608,0.1834766876258259,0.19017481703000003,1.6720676093455973,0.1401890487593419,-0.23568937704140386,0.8114933205550994,,-0.07627525163528219,-0.034472434388453,0.0910472212,-0.1089195372335423,,2.2817403e-05,8.940697e-07,-2.861023e-06,1.0,-2.3923814e-05,-2.206117e-05,2.3931265e-05,1.0,-4.2021275e-06,2.206862e-05,4.172325e-06,1.0,767,2.353,0,0,0.0,False,-0.2637505873275314,0.9860265233337393
2.375728640006855,16:04:37.180362,16:03:19.359798,0,,0.12285101,-0.0011948422,0.02795671,0.1694785,0.90337527,-0.3939416,0.036038667,0.39377597,0.9184997,0.9848747,-0.1698631,0.034180105,,0.0729921,-0.013168986,0.028062344,-0.768987,-0.19263704,0.6095488,-0.011923581,0.9576725,0.28761297,-0.6391531,0.21390268,-0.7387347,,0.08298683,1.2897649,0.4272972,0.99165624,0.10045201,-0.08079193,0.018912986,-0.7333177,-0.679623,-0.12751566,0.6724244,-0.7290989,,-0.12008009,0.26117006,-0.10108345,-0.24775977,-0.8525127,0.4602577,0.70571345,0.16667448,0.6886132,-0.6637647,0.49542072,0.5603345,,-0.08335657,0.42880604,-0.33953393,0.8556057,0.12784019,-0.50159323,-0.39698094,0.7839192,-0.47736442,0.3321822,0.60755867,0.7214759,,1.1108378966284536,0.523748020797032,0.21367396215,2.756793686991042,-0.7681704016813061,-0.6823469986909476,-0.4183241533698894,,-1.3846242224854608,0.18346896489295167,0.19017611332,1.6731160590630199,0.1388226837616875,-0.23465687674458022,0.811329976488965,,-0.07627525163528219,-0.034472434388453,0.0910472212,-0.1089195372335423,,2.2817403e-05,8.940697e-07,-2.861023e-06,1.0,-2.3923814e-05,-2.206117e-05,2.3931265e-05,1.0,-4.2021275e-06,2.206862e-05,4.172325e-06,1.0,800,2.454,0,0,0.0,False,-0.2630356547052788,0.9856402817275036
2.3979552530217916,16:04:37.271066,16:03:19.359798,0,,0.12263325,-0.0010372251,0.0279821,0.1306546,0.9101887,-0.3930469,0.02494049,0.39330238,0.91907084,0.9911142,-0.12988362,0.028686255,,0.07295871,-0.013175006,0.028034031,-0.7715198,-0.19383697,0.6059573,-0.013033032,0.9570713,0.28955927,-0.6360718,0.21550322,-0.7409258,,0.08298683,1.2897649,0.4272972,0.99165624,0.10045201,-0.08079193,0.018912986,-0.7333177,-0.679623,-0.12751566,0.6724244,-0.7290989,,-0.11985357,0.26130188,-0.101018526,-0.21057822,-0.8626555,0.45987204,0.70203286,0.19392072,0.68523324,-0.6802989,0.4671405,0.5647771,,-0.08331915,0.42878497,-0.3395235,0.8576854,0.12880692,-0.49777967,-0.39493537,0.7849506,-0.47736627,0.32924438,0.60602087,0.7241111,,1.1103590871902516,0.5235472297423022,0.21387747968,2.7079359301591475,-0.7893490591449495,-0.6462094346455324,-0.41848749743602354,,-1.3845778860882154,0.18345351942720323,0.19017481703000003,1.6741645087804424,0.13486022526848973,-0.23240590241907075,0.8119833527535021,,-0.07627525163528219,-0.034472434388453,0.0910472212,-0.1089195372335423,,2.2817403e-05,8.940697e-07,-2.861023e-06,1.0,-2.3923814e-05,-2.206117e-05,2.3931265e-05,1.0,-4.2021275e-06,2.206862e-05,4.172325e-06,1.0,808,2.48,0,0,0.0,False,-0.2641080536386573,0.9858334025306215
2.4887064648792148,16:04:37.304185,16:03:19.554479,0,,0.12259068,-0.0009865165,0.028030649,0.111377425,0.9127347,-0.39307815,0.01784131,0.39363894,0.91909194,0.99361813,-0.10937911,0.027558208,,0.072943486,-0.013175036,0.028021395,-0.77277905,-0.19470374,0.60407174,-0.014196813,0.9568461,0.29024786,-0.6345161,0.21572158,-0.742195,,0.08298683,1.2897649,0.4272972,0.99165624,0.10045201,-0.08079193,0.018912986,-0.7333177,-0.679623,-0.12751566,0.6724244,-0.7290989,,-0.11981137,0.26137212,-0.1010235,-0.19219099,-0.86687005,0.4599989,0.6986458,0.20831494,0.6844699,-0.6891711,0.45292524,0.5655988,,-0.08330223,0.42877725,-0.3395168,0.85873556,0.12963827,-0.49574906,-0.3942785,0.7850989,-0.4776653,0.32728836,0.6056514,0.725306,,1.1098184958890558,0.5236862389340382,0.21394618305000002,2.684031276601912,-0.8008265251252464,-0.6291725291618201,-0.41914087370056063,,-1.3845856088210897,0.18345351942720323,0.19017481703000003,1.6741645087804424,0.13253740477247725,-0.23165530041819946,0.8103499120921593,,-0.07627525163528219,-0.034472434388453,0.0910472212,-0.1089195372335423,,2.2817403e-05,8.940697e-07,-2.861023e-06,1.0,-2.3923814e-05,-2.206117e-05,2.3931265e-05,1.0,-4.2021275e-06,2.206862e-05,4.172325e-06,1.0,816,2.504,0,0,0.0,False,-0.26327396557936344,0.9849160787158118
2.5217771688476205,16:04:37.331517,16:03:19.554479,0,,0.12255113,-0.0009720698,0.0280516,0.10054395,0.9119356,-0.39782435,0.015041053,0.39841172,0.9170834,0.994819,-0.098190874,0.026341498,,0.07294284,-0.013175304,0.028020442,-0.77305937,-0.19385031,0.6039876,-0.013971925,0.95713353,0.28930968,-0.6341797,0.2152147,-0.74262965,,0.08298683,1.2897649,0.4272972,0.99165624,0.10045201,-0.08079193,0.018912986,-0.7333177,-0.679623,-0.12751566,0.6724244,-0.7290989,,-0.119772695,0.26139706,-0.10103316,-0.18174754,-0.8666373,0.46465865,0.6974605,0.21949206,0.6821819,-0.69319314,0.4480659,0.5645531,,-0.08330144,0.42877644,-0.33951643,0.8589552,0.12886108,-0.4955711,-0.3938407,0.78476757,-0.47857013,0.32723907,0.6062464,0.7248309,,1.1095250320398353,0.5237171298655351,0.21397081256000003,2.6699820503884486,-0.8060187121163332,-0.6241218614199504,-0.418160809303755,,-1.3845933315539638,0.18345351942720323,0.19017481703000003,1.6745838886674116,0.13226413177294635,-0.2325759669727744,0.8110032883566964,,-0.07627525163528219,-0.034472434388453,0.0910472212,-0.1089195372335423,,2.2817403e-05,8.940697e-07,-2.861023e-06,1.0,-2.3923814e-05,-2.206117e-05,2.3931265e-05,1.0,-4.2021275e-06,2.206862e-05,4.172325e-06,1.0,828,2.541,0,0,0.0,False,-0.2635718541719685,0.9852057599204886
2.5490989219397306,16:04:37.361060,16:03:19.554479,0,,0.12243074,-0.00095663965,0.028132185,0.07761622,0.9115253,-0.40385294,0.0075549483,0.40452558,0.91449547,0.99695474,-0.07403079,0.024511248,,0.07292509,-0.0131758405,0.028005242,-0.7748097,-0.19505435,0.6013514,-0.014867932,0.9565718,0.29111716,-0.6320195,0.21661952,-0.74406135,,0.08298683,1.2897649,0.4272972,0.99165624,0.10045201,-0.08079193,0.018912986,-0.7333177,-0.679623,-0.12751566,0.6724244,-0.7290989,,-0.11965863,0.261464,-0.10109427,-0.15973322,-0.8677687,0.4705983,0.6935433,0.2405931,0.6790527,-0.7024834,0.4348476,0.5634045,,-0.08328162,0.42876676,-0.3395087,0.86039203,0.12985979,-0.49281028,-0.3924832,0.78567237,-0.4782006,0.32508838,0.60485977,0.72695404,,1.109069390800256,0.5237248525984094,0.21399155320000002,2.639996388470162,-0.8181793605954574,-0.6088148711416919,-0.41914087370056063,,-1.3846087770197124,0.18345351942720323,0.19017481703000003,1.675212958497865,0.1293947652778721,-0.23056290595571188,0.8106766002244279,,-0.07627525163528219,-0.034472434388453,0.0910472212,-0.1089195372335423,,2.2817403e-05,8.940697e-07,-2.861023e-06,1.0,-2.3923814e-05,-2.206117e-05,2.3931265e-05,1.0,-4.2021275e-06,2.206862e-05,4.172325e-06,1.0,836,2.566,0,0,0.0,False,-0.2632143878608417,0.9854954411251651
2.578679370926693,16:04:37.389190,16:03:19.554479,0,,0.12237083,-0.00095968693,0.02814956,0.06340822,0.9141083,-0.40048134,0.004302472,0.4010348,0.9160527,0.9979784,-0.059808344,0.021496028,,0.07292524,-0.013175632,0.028005242,-0.77487904,-0.19480197,0.6013438,-0.014933854,0.956705,0.29067585,-0.6319329,0.2162582,-0.74424,,0.08298683,1.2897649,0.4272972,0.99165624,0.10045201,-0.08079193,0.018912986,-0.7333177,-0.679623,-0.12751566,0.6724244,-0.7290989,,-0.119600795,0.26147386,-0.101115696,-0.14595789,-0.8717946,0.46762216,0.69191223,0.24788173,0.67809445,-0.70707405,0.42252675,0.56702507,,-0.08328178,0.4287669,-0.33950856,0.86044985,0.1296599,-0.49276203,-0.3924474,0.7854405,-0.4786107,0.32497865,0.6052037,0.7267169,,1.108621472293551,0.5237248525984094,0.21401099755000003,2.6209146036130697,-0.8241913665851368,-0.5910072424368404,-0.4197942499650975,,-1.3846164997525865,0.18345351942720323,0.19017481703000003,1.675212958497865,0.12925812877810666,-0.2310232392329993,0.8105132561582937,,-0.07627525163528219,-0.034472434388453,0.0910472212,-0.1089195372335423,,2.2817403e-05,8.940697e-07,-2.861023e-06,1.0,-2.3923814e-05,-2.206117e-05,2.3931265e-05,1.0,-4.2021275e-06,2.206862e-05,4.172325e-06,1.0,861,2.642,0,0,0.0,False,-0.2636314318904893,0.9859782431329598
