AlexandreBanks6/ExpertPlaybackApp/resources/Motions/P_19/PC1/Data_PC1_8.csv
Task Time,PC1 Time,PC2 Time,Gaze Calib,s_T_psm1,Tx,Ty,Tz,R00,R01,R02,R10,R11,R12,R20,R21,R22,s_T_psm3,Tx,Ty,Tz,R00,R01,R02,R10,R11,R12,R20,R21,R22,cart_T_ecm,Tx,Ty,Tz,R00,R01,R02,R10,R11,R12,R20,R21,R22,ecm_T_psm1,Tx,Ty,Tz,R00,R01,R02,R10,R11,R12,R20,R21,R22,ecm_T_psm3,Tx,Ty,Tz,R00,R01,R02,R10,R11,R12,R20,R21,R22,psm1_joints,q1,q2,q3,q4,q5,q6,jaw,psm3_joints,q1,q2,q3,q4,q5,q6,jaw,ecm_joints,q1,q2,q3,q4,ecmi_T_ecm,Tx,Ty,Tz,R00,R01,R02,R10,R11,R12,R20,R21,R22,Sample #,Task Duration (s),Collisions (binary),Collisions (increments),Cumulative Collision Time (s),Clutch Press,MTMR Angle,MTML Angle
""
lci_T_si,,,,,-0.05352222,0.052262206,0.18758368,0.9852688,0.08240888,0.14984752,0.16226129,-0.7272103,-0.6669606,0.054007176,0.6814499,-0.72986937
rci_T_si,,,,,-0.062090434,0.054590147,0.19598114,0.98279583,0.06324867,0.17352791,0.16653219,-0.70975983,-0.68447644,0.079870924,0.7015986,-0.70808196
ecm_T_lc,,,,,-4.4061628e-05,-0.00034663224,-0.01840835,-0.99912,0.030754527,0.028518902,-0.031987965,-0.99852574,-0.043852776,0.027128186,-0.04472645,0.9986309
ecm_T_rc,,,,,-0.0043358393,0.01870579,-0.007592615,-0.99555075,-0.052743673,-0.078081585,0.04863213,-0.9973746,0.053654674,-0.08070653,0.04961868,0.9955021
cart_T_ecmi,,,,,0.08275826,1.28792,0.42543122,0.99152017,0.10184248,-0.08072096,0.019885775,-0.73274505,-0.6802127,-0.12842242,0.6728394,-0.7285567
ecmac_T_ecmrep_psm1,,,,,0.022898523,-0.26913688,-0.29720387,0.9902475,0.13300471,0.041468147,-0.1315095,0.99062705,-0.036922794,-0.045990374,0.031109251,0.9984574
ecmac_T_ecmrep_psm3,,,,,0.02078248,-0.4666591,-0.5231304,0.997355,0.0035024614,0.07259993,-0.011652398,0.993624,0.11214125,-0.07174426,-0.1126906,0.99103665
""
0,16:53:55.981797,16:52:38.195511,0,,0.091120295,0.0019178241,0.024208188,-0.20533808,0.64708596,-0.7342452,-0.20022446,0.70658845,0.6787067,0.9579908,0.2863781,-0.015527189,,0.059300218,0.019668225,0.019724488,0.36500284,0.11695775,0.92363083,-0.216236,-0.9542982,0.20629378,0.9055467,-0.27502,-0.32303107,,0.08281086,1.2879158,0.42542714,0.9915215,0.10179418,-0.08076579,0.019820428,-0.7327517,-0.6802074,-0.12842242,0.6728394,-0.7285567,,-0.08706185,0.2340614,-0.12743151,0.14025834,-0.67818666,0.72138095,0.52322435,0.6693105,0.5275033,-0.84057355,0.30345735,0.44872016,,-0.066523984,0.4238018,-0.3379515,-0.45402205,0.044019043,-0.8899024,0.49882278,-0.8150229,-0.29481107,-0.7382681,-0.5777543,0.34808066,,1.128739191430906,0.31433067344668597,0.19817551891000001,1.7469269191695724,-1.0740995246561273,-0.0968559753763869,-0.4238778516184546,,-1.2517932170487993,0.20167144627749883,0.19319906160000003,-1.5221392997541623,-0.859306947024855,0.355206125552216,0.8667036149084857,,-0.07621634677302738,-0.033641221332190704,0.09367612488,-0.1102278800231344,,5.2589923e-05,5.6028366e-06,1.5497208e-06,1.0,-4.8018992e-05,-4.4345856e-05,4.8018992e-05,1.0,-8.434057e-06,4.4345856e-05,8.434057e-06,1.0,34,0.101,0,0,0.0,False,-0.25791197091247,1.0408245512184247
0.12416017218492925,16:53:56.005867,16:52:38.294429,0,,0.091477744,0.0016591474,0.024798334,-0.18733494,0.6463204,-0.7397132,-0.20920396,0.7095171,0.6729183,0.95975995,0.28081203,0.0022954047,,0.059288632,0.01972339,0.019714892,0.36491504,0.116816245,0.9236834,-0.21634603,-0.9543023,0.2061593,0.90555584,-0.27506575,-0.32296646,,0.08281086,1.2879158,0.42542714,0.9915215,0.10179418,-0.08076579,0.019820428,-0.7327517,-0.6802074,-0.12842242,0.6728394,-0.7285567,,-0.087455705,0.23425563,-0.12802324,0.12233655,-0.6770794,0.7256702,0.516805,0.6676732,0.53584063,-0.84731716,0.3094771,0.4315988,,-0.06651833,0.42383015,-0.3379022,-0.453923,0.044164803,-0.88994575,0.4987791,-0.81503445,-0.29485294,-0.73835856,-0.57772684,0.3479344,,1.1275344451025269,0.31475542375476834,0.19764533630000003,1.765169944252726,-1.0937751806223508,-0.11552526180384132,-0.4246945719491262,,-1.2518009397816734,0.20192629646234825,0.19323406143000002,-1.522348989697647,-0.8594435835246205,0.3556442584164746,0.8673569911730228,,-0.07621634677302738,-0.033641221332190704,0.09367612488,-0.1102278800231344,,5.2589923e-05,5.6028366e-06,1.5497208e-06,1.0,-4.8018992e-05,-4.4345856e-05,4.8018992e-05,1.0,-8.434057e-06,4.4345856e-05,8.434057e-06,1.0,42,0.126,0,0,0.0,False,-0.25826943722359585,1.0408728314192042
0.14823212916962802,16:53:56.029225,16:52:38.294429,0,,0.09180597,0.0014522895,0.025342226,-0.16943187,0.6474097,-0.74307054,-0.21830857,0.71058667,0.66888547,0.9610589,0.27554905,0.020938963,,0.0592732,0.019789848,0.019706786,0.36477026,0.11738971,0.9236679,-0.21607292,-0.9542669,0.20660895,0.90567935,-0.27494434,-0.3227234,,0.08281086,1.2879158,0.42542714,0.9915215,0.10179418,-0.08076579,0.019820428,-0.7327517,-0.6802074,-0.12842242,0.6728394,-0.7285567,,-0.08781805,0.23445758,-0.12854694,0.104550175,-0.67781067,0.7277651,0.509979,0.664779,0.54588485,-0.85380954,0.31407255,0.41517195,,-0.066510536,0.42386726,-0.3378449,-0.45383227,0.043580383,-0.8900208,0.49906754,-0.8150257,-0.29438874,-0.7382194,-0.5777836,0.3481354,,1.1265227670960034,0.31516472859710226,0.19718644964,1.7840420391663332,-1.1131775635890433,-0.13221205805489328,-0.42469457194912597,,-1.251816385247422,0.20220431484582033,0.19326906126,-1.5231877494715849,-0.8594435835246205,0.3559709733770369,0.8673569911730228,,-0.07621634677302738,-0.033641221332190704,0.09367612488,-0.1102278800231344,,5.2589923e-05,5.6028366e-06,1.5497208e-06,1.0,-4.8018992e-05,-4.4345856e-05,4.8018992e-05,1.0,-8.434057e-06,4.4345856e-05,8.434057e-06,1.0,50,0.149,0,0,0.0,False,-0.25815028178655464,1.0408728314192042
0.1715804471168667,16:53:56.055157,16:52:38.294429,0,,0.092259936,0.0010662079,0.026180655,-0.14507844,0.64191216,-0.7529284,-0.238866,0.71574676,0.65623885,0.96015376,0.275055,0.049491465,,0.05924929,0.019871835,0.019703984,0.3647858,0.1173148,0.9236713,-0.2160944,-0.9542762,0.2065441,0.905668,-0.27494445,-0.32275525,,0.08281086,1.2879158,0.42542714,0.9915215,0.10179418,-0.08076579,0.019820428,-0.7327517,-0.6802074,-0.12842242,0.6728394,-0.7285567,,-0.08832354,0.23472333,-0.12940246,0.0806898,-0.672384,0.7357913,0.49292925,0.6685269,0.55685955,-0.8663198,0.3177602,0.38538104,,-0.06649711,0.42391947,-0.33777863,-0.4538433,0.043655157,-0.8900115,0.4990428,-0.81501746,-0.29445344,-0.73822933,-0.5777896,0.34810442,,1.1248778249937936,0.3159447246173989,0.19647737901,1.7993494050407037,-1.145970323532749,-0.15358053911054315,-0.4251846041475288,,-1.2518318307131704,0.20260589695528,0.19330665367000002,-1.5236071293585538,-0.8594435835246205,0.35662440329816136,0.8673569911730228,,-0.07621634677302738,-0.033641221332190704,0.09367612488,-0.1102278800231344,,5.2589923e-05,5.6028366e-06,1.5497208e-06,1.0,-4.8018992e-05,-4.4345856e-05,4.8018992e-05,1.0,-8.434057e-06,4.4345856e-05,8.434057e-06,1.0,57,0.171,0,0,0.0,False,-0.25767366003838577,1.0415004740293372
0.19752185116522014,16:53:56.073357,16:52:38.294429,0,,0.09257144,0.0008460656,0.026657403,-0.13439158,0.6431485,-0.7538561,-0.24818677,0.7146636,0.6539565,0.9593446,0.27498323,0.06357604,,0.059235297,0.019915644,0.019701302,0.3648678,0.1170159,0.92367685,-0.21622807,-0.95429677,0.2063087,0.90560305,-0.27500013,-0.32288998,,0.08281086,1.2879158,0.42542714,0.9915215,0.10179418,-0.08076579,0.019820428,-0.7327517,-0.6802074,-0.12842242,0.6728394,-0.7285567,,-0.08866418,0.23487072,-0.12988727,0.070253864,-0.6735928,0.73575616,0.4849478,0.66761494,0.56490344,-0.87171674,0.31711668,0.3735599,,-0.06648858,0.42394668,-0.33774242,-0.453898,0.043959033,-0.88996863,0.49889606,-0.8150175,-0.29470176,-0.73829484,-0.5777664,0.34800386,,1.1237811969256537,0.3166166023774564,0.19603664041000002,1.807107932949631,-1.160863702007182,-0.1590785954779948,-0.4245312278829918,,-1.2518318307131704,0.20282985620863253,0.19332739431,-1.5236071293585538,-0.8594435835246205,0.35703279699886414,0.86686695897462,,-0.07621634677302738,-0.033641221332190704,0.09367612488,-0.1102278800231344,,5.2589923e-05,5.6028366e-06,1.5497208e-06,1.0,-4.8018992e-05,-4.4345856e-05,4.8018992e-05,1.0,-8.434057e-06,4.4345856e-05,8.434057e-06,1.0,65,0.196,0,0,0.0,False,-0.25672041654204936,1.0425626384464852
0.21569104120135307,16:53:56.102765,16:52:38.294429,0,,0.09306669,0.0005976558,0.027258456,-0.12778375,0.65047723,-0.7486994,-0.25361517,0.70835966,0.65871525,0.9588276,0.2740546,0.07445398,,0.059225135,0.019957308,0.019688427,0.36489812,0.115712024,0.92382914,-0.21652117,-0.95449615,0.20507562,0.9055208,-0.27486017,-0.32323965,,0.08281086,1.2879158,0.42542714,0.9915215,0.10179418,-0.08076579,0.019820428,-0.7327517,-0.6802074,-0.12842242,0.6728394,-0.7285567,,-0.08919642,0.23507132,-0.13047437,0.06379644,-0.68072444,0.7297563,0.48024437,0.66194934,0.5754897,-0.8748116,0.31374714,0.3691441,,-0.06648215,0.423964,-0.33770165,-0.4538793,0.045246482,-0.8899137,0.49864855,-0.81478906,-0.29575068,-0.7384736,-0.5779893,0.34725377,,1.122174868487815,0.31800669429481687,0.19540664347000003,1.8157052206324964,-1.170428256990763,-0.1574869264699279,-0.42485791601526024,,-1.251816385247422,0.20302292453048815,0.19335720898000003,-1.5233974394150696,-0.8595802200243859,0.35828771726452857,0.8688270877682313,,-0.07621634677302738,-0.033641221332190704,0.09367612488,-0.1102278800231344,,5.2589923e-05,5.6028366e-06,1.5497208e-06,1.0,-4.8018992e-05,-4.4345856e-05,4.8018992e-05,1.0,-8.434057e-06,4.4345856e-05,8.434057e-06,1.0,73,0.219,0,0,0.0,False,-0.2575545046013441,1.044011044469869
0.2450765590183437,16:53:56.132383,16:52:38.421670,0,,0.093465,0.000502415,0.027605772,-0.12598588,0.65684766,-0.74342376,-0.25325733,0.70326704,0.66428614,0.95916015,0.27196813,0.0777497,,0.059222706,0.019988451,0.019674182,0.3648605,0.116144195,0.92378974,-0.21617037,-0.9545091,0.20538512,0.90561986,-0.27463278,-0.32315564,,0.08281086,1.2879158,0.42542714,0.9915215,0.10179418,-0.08076579,0.019820428,-0.7327517,-0.6802074,-0.12842242,0.6728394,-0.7285567,,-0.089616664,0.23521544,-0.13077605,0.061973456,-0.68683946,0.72416216,0.48062104,0.65642977,0.5814666,-0.8747358,0.31201208,0.37079072,,-0.06648181,0.4239725,-0.3376684,-0.45390046,0.044792656,-0.88992584,0.4989455,-0.8147018,-0.2954901,-0.73826,-0.5781476,0.34744442,,1.1209623994265618,0.3192423315546928,0.19502034905,1.8238831284283927,-1.1720678949879482,-0.15696669902697646,-0.4250212600813945,,-1.251824107980296,0.20311559732497883,0.19338313478000002,-1.524026509245523,-0.8594435835246205,0.3585030143213943,0.869807152165037,,-0.07621634677302738,-0.033641221332190704,0.09367612488,-0.1102278800231344,,5.2589923e-05,5.6028366e-06,1.5497208e-06,1.0,-4.8018992e-05,-4.4345856e-05,4.8018992e-05,1.0,-8.434057e-06,4.4345856e-05,8.434057e-06,1.0,84,0.253,0,0,0.0,False,-0.25779281547542787,1.0453628900916938
0.2747455360367894,16:53:56.153855,16:52:38.421670,0,,0.09418233,0.0004798025,0.028090566,-0.12010182,0.6690008,-0.7334941,-0.2559105,0.69300973,0.67397857,0.95921075,0.26865482,0.08797249,,0.059224643,0.020003859,0.019657433,0.36487836,0.115701675,0.9238382,-0.21618545,-0.9546015,0.20493887,0.905609,-0.27449796,-0.3233004,,0.08281086,1.2879158,0.42542714,0.9915215,0.10179418,-0.08076579,0.019820428,-0.7327517,-0.6802074,-0.12842242,0.6728394,-0.7285567,,-0.0903661,0.23548675,-0.13111487,0.05614849,-0.6985433,0.7133615,0.47836623,0.6459631,0.5948928,-0.8763636,0.3078457,0.37042937,,-0.06648339,0.42396855,-0.33764592,-0.4539146,0.045220923,-0.8898969,0.4989247,-0.8145721,-0.2958825,-0.73826534,-0.57829696,0.34718436,,1.1187536978245336,0.3217290515401931,0.19455886981,1.8394001842462477,-1.179172992975751,-0.15566529874249357,-0.424041195684589,,-1.251816385247422,0.20314648825647572,0.19340517171000002,-1.524026509245523,-0.8594435835246205,0.3589930867622377,0.8711139046941113,,-0.07621634677302738,-0.033641221332190704,0.09367612488,-0.1102278800231344,,5.2589923e-05,5.6028366e-06,1.5497208e-06,1.0,-4.8018992e-05,-4.4345856e-05,4.8018992e-05,1.0,-8.434057e-06,4.4345856e-05,8.434057e-06,1.0,92,0.277,0,0,0.0,False,-0.2587460589717643,1.0460870931033857
0.2962060810532421,16:53:56.183507,16:52:38.421670,0,,0.09473737,0.0005231425,0.028379261,-0.11757982,0.67526394,-0.72814405,-0.25880376,0.68705595,0.67895114,0.9587469,0.26827726,0.093976825,,0.059224553,0.020012174,0.0196504,0.3649995,0.11575477,0.92378366,-0.21612719,-0.95459926,0.2050109,0.9055741,-0.27448347,-0.3234104,,0.08281086,1.2879158,0.42542714,0.9915215,0.10179418,-0.08076579,0.019820428,-0.7327517,-0.6802074,-0.12842242,0.6728394,-0.7285567,,-0.090940945,0.23568165,-0.13127255,0.053717367,-0.7046576,0.70751125,0.47579208,0.64099485,0.60228527,-0.8779159,0.30427507,0.36970305,,-0.06648341,0.4239682,-0.337635,-0.4540363,0.0451665,-0.8898376,0.49891075,-0.8145694,-0.29591334,-0.7381999,-0.578305,0.34731004,,1.116946578331965,0.3239377531422213,0.19430350068000002,1.8467393322682062,-1.184091906967307,-0.15426797389392044,-0.4246945719491262,,-1.251816385247422,0.2031696564550984,0.19341424574000002,-1.524026509245523,-0.859306947024855,0.35896334759868187,0.8717672809586483,,-0.07621634677302738,-0.033641221332190704,0.09367612488,-0.1102278800231344,,5.2589923e-05,5.6028366e-06,1.5497208e-06,1.0,-4.8018992e-05,-4.4345856e-05,4.8018992e-05,1.0,-8.434057e-06,4.4345856e-05,8.434057e-06,1.0,100,0.302,0,0,0.0,False,-0.259580147031059,1.045797411898709
0.32587068900465965,16:53:56.204199,16:52:38.421670,0,,0.095567346,0.00067029893,0.028652221,-0.11794172,0.6838548,-0.7200226,-0.26422352,0.6773329,0.6865901,0.9572228,0.27122444,0.10080463,,0.05922474,0.020025376,0.01964444,0.3650099,0.11562067,0.9237964,-0.21615818,-0.95461893,0.20488665,0.90556246,-0.27447176,-0.3234529,,0.08281086,1.2879158,0.42542714,0.9915215,0.10179418,-0.08076579,0.019820428,-0.7327517,-0.6802074,-0.12842242,0.6728394,-0.7285567,,-0.091790676,0.23592426,-0.13133663,0.05428239,-0.7132629,0.69879144,0.47083506,0.63542247,0.612007,-0.88054967,0.2957943,0.37032145,,-0.066484466,0.42397162,-0.33762097,-0.454041,0.045299154,-0.8898285,0.49888098,-0.8145474,-0.29602414,-0.7382171,-0.5783256,0.34723902,,1.1139810489082629,0.32767555585334596,0.19408831654000003,1.8484168518160822,-1.1899672764572207,-0.14400452844555667,-0.4251846041475287,,-1.251824107980296,0.20321599285234374,0.19342591235,-1.524026509245523,-0.859306947024855,0.359126705078963,0.8722573131570511,,-0.07621634677302738,-0.033641221332190704,0.09367612488,-0.1102278800231344,,5.2589923e-05,5.6028366e-06,1.5497208e-06,1.0,-4.8018992e-05,-4.4345856e-05,4.8018992e-05,1.0,-8.434057e-06,4.4345856e-05,8.434057e-06,1.0,108,0.326,0,0,0.0,False,-0.259282258438454,1.0459905327018268
0.34655815502628684,16:53:56.233445,16:52:38.421670,0,,0.09615317,0.00080584735,0.02873835,-0.12003417,0.69171876,-0.71212155,-0.2679613,0.66811067,0.694136,0.95592284,0.27414098,0.10515764,,0.05922679,0.020040367,0.019637048,0.36495158,0.115753405,0.92380285,-0.21607557,-0.95461845,0.20497605,0.9056057,-0.2744174,-0.323378,,0.08281086,1.2879158,0.42542714,0.9915215,0.10179418,-0.08076579,0.019820428,-0.7327517,-0.6802074,-0.12842242,0.6728394,-0.7285567,,-0.092383444,0.23604555,-0.1312828,0.05652765,-0.72115,0.6904689,0.4673596,0.63023764,0.6199803,-0.88225824,0.28765124,0.37266222,,-0.066487394,0.4239747,-0.3376047,-0.45400015,0.045161296,-0.88985634,0.4989755,-0.81452984,-0.29591313,-0.7381784,-0.5783611,0.3472623,,1.1116873972446182,0.3303862350921988,0.19403516865,1.8461102624377523,-1.193109915951826,-0.1306603229619847,-0.4258379804120659,,-1.2518395534460445,0.20325460651671487,0.19344017154,-1.5242361991890077,-0.859306947024855,0.3592083838191036,0.8720939690909169,,-0.07621634677302738,-0.033641221332190704,0.09367612488,-0.1102278800231344,,5.2589923e-05,5.6028366e-06,1.5497208e-06,1.0,-4.8018992e-05,-4.4345856e-05,4.8018992e-05,1.0,-8.434057e-06,4.4345856e-05,8.434057e-06,1.0,123,0.372,0,0,0.0,False,-0.2588652144088064,1.0459905327018268
0.3758070240728557,16:53:56.272804,16:52:38.421670,0,,0.09748917,0.0011630282,0.028761134,-0.12847292,0.70512396,-0.6973483,-0.26772907,0.6524061,0.7090045,0.9548905,0.27778834,0.10496569,,0.059215248,0.020088447,0.019621491,0.36495537,0.11581157,0.9237939,-0.21613666,-0.95458674,0.20505914,0.90558964,-0.27450323,-0.32335046,,0.082764,1.2879169,0.4254324,0.99152,0.101847894,-0.08071593,0.019893108,-0.7327443,-0.6802133,-0.12842242,0.6728394,-0.7285567,,-0.09368285,0.2362364,-0.13100275,0.06503155,-0.73454756,0.67543375,0.46735334,0.6204623,0.6297677,-0.88167554,0.27471146,0.38364288,,-0.06643895,0.42399573,-0.33755574,-0.45398414,0.045183804,-0.8898634,0.49890777,-0.8145796,-0.2958904,-0.738234,-0.57828933,0.34726366,,1.106621284479127,0.3361010574191249,0.19401961317000002,1.8467393322682062,-1.190923731955579,-0.11210500312612737,-0.4256746363459315,,-1.251824107980296,0.2034862885029416,0.19346739363,-1.524445889132492,-0.859306947024855,0.35945342003952524,0.871603936892514,,-0.07621634677302738,-0.033641221332190704,0.09367612488,-0.1102278800231344,,5.479902e-06,3.5762787e-06,8.34465e-07,0.99999994,5.379319e-06,4.976988e-06,-5.3942204e-06,1.0000001,9.536743e-07,-4.9695373e-06,-9.834766e-07,1.0,131,0.396,0,0,0.0,False,-0.25922268071993226,1.0446869672807815
0.41517056222073734,16:53:56.302793,16:52:38.570908,0,,0.09862802,0.0014676154,0.028746054,-0.1363821,0.7105806,-0.69027174,-0.26472124,0.6453041,0.7165929,0.95463216,0.28046003,0.100097835,,0.059208464,0.020106507,0.019619346,0.36493367,0.11588329,0.9237935,-0.21607155,-0.954592,0.2051032,0.905614,-0.27445465,-0.32332373,,0.082764,1.2879169,0.4254324,0.99152,0.101847894,-0.08071593,0.019893108,-0.7327443,-0.6802133,-0.12842242,0.6728394,-0.7285567,,-0.09482298,0.23637696,-0.13073754,0.07288445,-0.7400533,0.6685873,0.46984878,0.6167976,0.63150835,-0.8797329,0.2681078,0.3926681,,-0.066434294,0.4240063,-0.33754018,-0.45397443,0.04510741,-0.8898722,0.4989702,-0.8145586,-0.29584286,-0.7381978,-0.5783248,0.34728152,,1.1021266539463281,0.3408350926710245,0.19401572430000003,1.8503040613074428,-1.186551363963085,-0.10758418077049725,-0.42551129227979745,,-1.251816385247422,0.20357123856455808,0.19347646766,-1.5246555790759766,-0.859306947024855,0.3596167775198063,0.8712772487602456,,-0.07621634677302738,-0.033641221332190704,0.09367612488,-0.1102278800231344,,5.479902e-06,3.5762787e-06,8.34465e-07,0.99999994,5.379319e-06,4.976988e-06,-5.3942204e-06,1.0000001,9.536743e-07,-4.9695373e-06,-9.834766e-07,1.0,139,0.421,0,0,0.0,False,-0.259282258438454,1.0452180494893553
0.44515677308663726,16:53:56.325838,16:52:38.570908,0,,0.099809214,0.001749441,0.02875407,-0.14155118,0.716254,-0.6833325,-0.26378933,0.6380327,0.72341514,0.95413756,0.2826562,0.09862587,,0.059202887,0.020140214,0.019615352,0.36495864,0.11621479,0.923742,-0.21586758,-0.95457846,0.2053808,0.9056525,-0.2743615,-0.32329473,,0.082764,1.2879169,0.4254324,0.99152,0.101847894,-0.08071593,0.019893108,-0.7327443,-0.6802133,-0.12842242,0.6728394,-0.7285567,,-0.09600657,0.23651423,-0.1305031,0.07805826,-0.74573845,0.6616503,0.47050577,0.612671,0.63502645,-0.87893754,0.26174122,0.39869827,,-0.06643257,0.42402482,-0.3375112,-0.45403022,0.044767335,-0.8898609,0.49911952,-0.8145401,-0.29564187,-0.7380625,-0.5783773,0.34748158,,1.0973771732286801,0.345530514258553,0.19401183543000003,1.8563850696684943,-1.185731544964492,-0.1049855385870534,-0.4258379804120661,,-1.2518395534460445,0.20371024775629412,0.19349461572,-1.5250749589629458,-0.8591703105250895,0.3597503958365315,0.8714405928263798,,-0.07621634677302738,-0.033641221332190704,0.09367612488,-0.1102278800231344,,5.479902e-06,3.5762787e-06,8.34465e-07,0.99999994,5.379319e-06,4.976988e-06,-5.3942204e-06,1.0000001,9.536743e-07,-4.9695373e-06,-9.834766e-07,1.0,147,0.445,0,0,0.0,False,-0.2588652144088064,1.0449283682846786
0.4681801542174071,16:53:56.349425,16:52:38.570908,0,,0.10059414,0.0019288585,0.028754279,-0.14513822,0.7210513,-0.67750996,-0.2622503,0.63223314,0.7290447,0.9540229,0.28348953,0.09733474,,0.059204847,0.020158721,0.019611835,0.36495787,0.11601512,0.92376745,-0.21592256,-0.9546063,0.20519385,0.90563977,-0.2743494,-0.32334083,,0.082764,1.2879169,0.4254324,0.99152,0.101847894,-0.08071593,0.019893108,-0.7327443,-0.6802133,-0.12842242,0.6728394,-0.7285567,,-0.096792586,0.23659623,-0.13034898,0.08161649,-0.75047916,0.6558352,0.4717662,0.6087341,0.6378711,-0.87793815,0.25734007,0.40373343,,-0.06643639,0.42403305,-0.33749458,-0.4540207,0.044965398,-0.8898558,0.49907634,-0.81451064,-0.295796,-0.73809755,-0.5784035,0.34736353,,1.094210852750248,0.34856554827812325,0.19400665027000003,1.8614176283121227,-1.1843651799668378,-0.10266921053811384,-0.42616466854433466,,-1.2518704443775415,0.20377975235216214,0.19350757862,-1.5250749589629458,-0.8591703105250895,0.3599954320569532,0.8712772487602455,,-0.07621634677302738,-0.033641221332190704,0.09367612488,-0.1102278800231344,,5.479902e-06,3.5762787e-06,8.34465e-07,0.99999994,5.379319e-06,4.976988e-06,-5.3942204e-06,1.0000001,9.536743e-07,-4.9695373e-06,-9.834766e-07,1.0,155,0.469,0,0,0.0,False,-0.25910352528289105,1.0448318078831196
0.4917764400597662,16:53:56.374044,16:52:38.570908,0,,0.10132343,0.0020872205,0.028759852,-0.14901876,0.7272994,-0.6699469,-0.25993896,0.6248715,0.73618424,0.9540572,0.28385067,0.09593588,,0.059208155,0.020183546,0.01960808,0.36489022,0.11594006,0.9238035,-0.21588105,-0.95464003,0.20508026,0.90567684,-0.2742635,-0.32330957,,0.082764,1.2879169,0.4254324,0.99152,0.101847894,-0.08071593,0.019893108,-0.7327443,-0.6802133,-0.12842242,0.6728394,-0.7285567,,-0.09752312,0.23667003,-0.1302154,0.08544315,-0.75660545,0.6482651,0.47370762,0.60324997,0.6416312,-0.87652755,0.25226513,0.40995333,,-0.06644228,0.4240446,-0.3374729,-0.45396456,0.0450318,-0.8898811,0.49914283,-0.81445104,-0.2958478,-0.7380871,-0.57848215,0.3472546,,1.0912762142580428,0.35136117757859253,0.19398720592000002,1.8662404970122668,-1.1820423594708254,-0.09794733694956748,-0.42600132447820027,,-1.2519167807747869,0.2038647024137786,0.19352443039000003,-1.5252846489064302,-0.8591703105250895,0.36032214701751547,0.8711139046941112,,-0.07621634677302738,-0.033641221332190704,0.09367612488,-0.1102278800231344,,5.479902e-06,3.5762787e-06,8.34465e-07,0.99999994,5.379319e-06,4.976988e-06,-5.3942204e-06,1.0000001,9.536743e-07,-4.9695373e-06,-9.834766e-07,1.0,166,0.503,0,0,0.0,False,-0.2593418361569748,1.0442041652729868
0.5164110041223466,16:53:56.405590,16:52:38.570908,0,,0.10268688,0.002350755,0.028817698,-0.15575717,0.7390127,-0.6554386,-0.25396478,0.6112716,0.74956584,0.9545897,0.2832086,0.09247327,,0.059204485,0.02024178,0.019602895,0.36491236,0.11593299,0.92379564,-0.21575722,-0.9546776,0.20503567,0.9056974,-0.2741357,-0.32336032,,0.082764,1.2879169,0.4254324,0.99152,0.101847894,-0.08071593,0.019893108,-0.7327443,-0.6802133,-0.12842242,0.6728394,-0.7285567,,-0.098891705,0.23681688,-0.13002248,0.0920196,-0.76800036,0.63380426,0.4788264,0.5922116,0.6480823,-0.8730737,0.24384592,0.42223394,,-0.066445395,0.4240768,-0.33742398,-0.4540049,0.045026176,-0.88986075,0.49923,-0.8143741,-0.29591262,-0.7380033,-0.578591,0.34725142,,1.0858625785132114,0.35642729034408377,0.19389257675000002,1.878402513734369,-1.1765768994802077,-0.0919491743594324,-0.4256746363459317,,-1.251986285370655,0.20410410713287958,0.19355683764,-1.5257040287933992,-0.859033674025324,0.36086415903494357,0.8702971843634397,,-0.07621634677302738,-0.033641221332190704,0.09367612488,-0.1102278800231344,,5.479902e-06,3.5762787e-06,8.34465e-07,0.99999994,5.379319e-06,4.976988e-06,-5.3942204e-06,1.0000001,9.536743e-07,-4.9695373e-06,-9.834766e-07,1.0,174,0.527,0,0,0.0,False,-0.25910352528289105,1.044735247481561
0.5479540131054819,16:53:56.432813,16:52:38.570908,0,,0.10321487,0.0024169236,0.02885504,-0.15596008,0.7439138,-0.6498219,-0.25386512,0.60558534,0.75420076,0.95458317,0.2825924,0.094406664,,0.0591996,0.02027507,0.019592881,0.36511272,0.115886524,0.9237223,-0.21558532,-0.9547264,0.20498893,0.90565765,-0.27398506,-0.3235994,,0.082764,1.2879169,0.4254324,0.99152,0.101847894,-0.08071593,0.019893108,-0.7327443,-0.6802133,-0.12842242,0.6728394,-0.7285567,,-0.0994221,0.23685792,-0.12998325,0.09222066,-0.7727436,0.62798303,0.47890672,0.587358,0.6524254,-0.87300843,0.24057819,0.42423865,,-0.06644348,0.42409024,-0.33739164,-0.45421827,0.045057613,-0.8897503,0.49926683,-0.8142791,-0.29611182,-0.73784715,-0.5787222,0.34736466,,1.0836538769111832,0.35820351890515545,0.19385368805000003,1.8844835220954204,-1.1778066279780968,-0.09021130456489945,-0.42616466854433444,,-1.2520017308364033,0.2042353935917414,0.19357887457000003,-1.5259137187368836,-0.8587604010257932,0.3612130744085347,0.8707872165618427,,-0.07621634677302738,-0.033641221332190704,0.09367612488,-0.1102278800231344,,5.479902e-06,3.5762787e-06,8.34465e-07,0.99999994,5.379319e-06,4.976988e-06,-5.3942204e-06,1.0000001,9.536743e-07,-4.9695373e-06,-9.834766e-07,1.0,182,0.552,0,0,0.0,False,-0.2585077480976805,1.0446869672807815
0.5751781871076673,16:53:56.455259,16:52:38.570908,0,,0.10396968,0.0024387464,0.028909847,-0.15478039,0.75173986,-0.64103824,-0.25520247,0.59641314,0.76102763,0.95441854,0.2813868,0.09953287,,0.05918715,0.02033819,0.019561768,0.36611384,0.11817792,0.92303556,-0.2143578,-0.9545186,0.20723183,0.9055449,-0.2737303,-0.32413018,,0.082764,1.2879169,0.4254324,0.99152,0.101847894,-0.08071593,0.019893108,-0.7327443,-0.6802133,-0.12842242,0.6728394,-0.7285567,,-0.100179166,0.23686472,-0.12997822,0.09107956,-0.78030014,0.6187376,0.47775006,0.5793889,0.660351,-0.87376165,0.23545745,0.42555892,,-0.06643508,0.42410702,-0.33732268,-0.45534304,0.04274523,-0.8892894,0.49974173,-0.81438136,-0.29502752,-0.73683167,-0.5787537,0.34946132,,1.0802635971793986,0.3604276659729321,0.19377720694000003,1.8937098796087395,-1.1819057229710597,-0.08670540997372589,-0.42616466854433444,,-1.2520171763021517,0.20444390737934545,0.19362294843000002,-1.5269621684543064,-0.8572573995283733,0.36006915620801455,0.870950560627977,,-0.07621634677302738,-0.033641221332190704,0.09367612488,-0.1102278800231344,,5.479902e-06,3.5762787e-06,8.34465e-07,0.99999994,5.379319e-06,4.976988e-06,-5.3942204e-06,1.0000001,9.536743e-07,-4.9695373e-06,-9.834766e-07,1.0,190,0.576,0,0,0.0,False,-0.2584481703791588,1.044880088083899
0.5975841612089425,16:53:56.482892,16:52:38.786069,0,,0.10437868,0.002395369,0.028929487,-0.15551972,0.75452393,-0.63757896,-0.25494477,0.5929088,0.763847,0.95436716,0.28134078,0.10015294,,0.05918133,0.020374818,0.019550562,0.3659953,0.118453,0.92304736,-0.21440518,-0.95445055,0.2074962,0.9055816,-0.27384877,-0.32392752,,0.082764,1.2879169,0.4254324,0.99152,0.101847894,-0.08071593,0.019893108,-0.7327443,-0.6802133,-0.12842242,0.6728394,-0.7285567,,-0.10058769,0.23682143,-0.13000615,0.091815986,-0.7830113,0.61519355,0.47794768,0.57664084,0.6626095,-0.87357646,0.23319218,0.4271833,,-0.0664325,0.42412174,-0.33728695,-0.4552255,0.04248236,-0.88936216,0.49976316,-0.8144823,-0.29471242,-0.7368898,-0.57863104,0.349542,,1.0782556866321003,0.3614779576438266,0.19370202212,1.897064918704492,-1.1827255419696525,-0.08530179389028214,-0.4250212600813946,,-1.2520171763021517,0.2045906393039557,0.19365017052000003,-1.527171858397791,-0.8573940360281388,0.36001721663142994,0.8709505606279768,,-0.07621634677302738,-0.033641221332190704,0.09367612488,-0.1102278800231344,,5.479902e-06,3.5762787e-06,8.34465e-07,0.99999994,5.379319e-06,4.976988e-06,-5.3942204e-06,1.0000001,9.536743e-07,-4.9695373e-06,-9.834766e-07,1.0,198,0.6,0,0,0.0,False,-0.25910352528289105,1.0443007256745458
0.6252534789964557,16:53:56.505602,16:52:38.786069,0,,0.104738906,0.0023085251,0.028952852,-0.15514165,0.7602131,-0.630878,-0.2561942,0.5858009,0.76889646,0.9540942,0.2809152,0.10388011,,0.059172813,0.02041219,0.01954627,0.36615938,0.11901378,0.92291003,-0.21444541,-0.9543009,0.20814176,0.9055057,-0.27412692,-0.32390434,,0.082764,1.2879169,0.4254324,0.99152,0.101847894,-0.08071593,0.019893108,-0.7327443,-0.6802133,-0.12842242,0.6728394,-0.7285567,,-0.10094707,0.23675212,-0.13006857,0.091480516,-0.78852874,0.608156,0.47683007,0.5708368,0.6684149,-0.87422216,0.22884014,0.42821464,,-0.06642831,0.42414278,-0.33725488,-0.4553713,0.041950088,-0.88931274,0.49964973,-0.81470966,-0.29427588,-0.7368766,-0.57834965,0.35003507,,1.076325003413544,0.3622270627326264,0.19362035585,1.8997908879697907,-1.1854582719649613,-0.07858110510862282,-0.4264913566766031,,-1.2520326217679,0.20476826216006289,0.19366961487,-1.527171858397791,-0.8572573995283733,0.3594974050270306,0.8711139046941112,,-0.07621634677302738,-0.033641221332190704,0.09367612488,-0.1102278800231344,,5.479902e-06,3.5762787e-06,8.34465e-07,0.99999994,5.379319e-06,4.976988e-06,-5.3942204e-06,1.0000001,9.536743e-07,-4.9695373e-06,-9.834766e-07,1.0,213,0.646,0,0,0.0,False,-0.25910352528289105,1.0448318078831196
0.6479676750022918,16:53:56.552367,16:52:38.786069,0,,0.10562332,0.0020130053,0.02880691,-0.15776733,0.77529573,-0.6115766,-0.25454882,0.566472,0.78378206,0.954104,0.2793313,0.107979804,,0.059139665,0.020531518,0.019515276,0.3666202,0.12226657,0.9223017,-0.21381682,-0.95372003,0.21142499,0.90546787,-0.27471638,-0.32351044,,0.082764,1.2879169,0.4254324,0.99152,0.101847894,-0.08071593,0.019893108,-0.7327443,-0.6802133,-0.12842242,0.6728394,-0.7285567,,-0.101813495,0.23638304,-0.13013095,0.094069235,-0.80311525,0.58835095,0.4781937,0.5547853,0.6808407,-0.873202,0.21729957,0.4362329,,-0.06640675,0.42419773,-0.3371417,-0.45589903,0.038760208,-0.8891871,0.49991783,-0.81541413,-0.29185948,-0.73636824,-0.57757896,0.3523696,,1.0709963177303292,0.3633854726637601,0.19349850459,1.9050331365569038,-1.1869612734623811,-0.05816100423492998,-0.42600132447820005,,-1.2520171763021517,0.2052779625297617,0.19374220711,-1.5282203081152135,-0.8565742170295462,0.3573067407057372,0.8711139046941113,,-0.07621634677302738,-0.033641221332190704,0.09367612488,-0.1102278800231344,,5.479902e-06,3.5762787e-06,8.34465e-07,0.99999994,5.379319e-06,4.976988e-06,-5.3942204e-06,1.0000001,9.536743e-07,-4.9695373e-06,-9.834766e-07,1.0,221,0.671,0,0,0.0,False,-0.25856732581620134,1.0445421266784427
0.6946532630827278,16:53:56.574565,16:52:38.786069,0,,0.106012784,0.0018593296,0.028709814,-0.15907517,0.78345555,-0.6007431,-0.25405905,0.5555137,0.791744,0.9540174,0.27857107,0.110675514,,0.05912279,0.020594222,0.019498587,0.3664091,0.12412093,0.9221379,-0.2130878,-0.9535291,0.21301605,0.9057251,-0.2745473,-0.3229331,,0.082764,1.2879169,0.4254324,0.99152,0.101847894,-0.08071593,0.019893108,-0.7327443,-0.6802133,-0.12842242,0.6728394,-0.7285567,,-0.10219228,0.23618092,-0.13015077,0.09537102,-0.81100476,0.5772137,0.47857076,0.54580355,0.68779975,-0.8728542,0.21064144,0.440177,,-0.06639589,0.42422616,-0.3370819,-0.4558195,0.03689101,-0.8893074,0.5005995,-0.8155117,-0.29041484,-0.7359543,-0.5775636,0.3532585,,1.0684941522790805,0.3637638865745971,0.19346220847,1.9065009661612955,-1.1879177289607394,-0.045455982848532916,-0.42567463634593194,,-1.2520017308364033,0.20550964451598844,0.1937823921,-1.5296881377196052,-0.8564375805297808,0.3568686078414787,0.8711139046941112,,-0.07621634677302738,-0.033641221332190704,0.09367612488,-0.1102278800231344,,5.479902e-06,3.5762787e-06,8.34465e-07,0.99999994,5.379319e-06,4.976988e-06,-5.3942204e-06,1.0000001,9.536743e-07,-4.9695373e-06,-9.834766e-07,1.0,229,0.695,0,0,0.0,False,-0.2585077480976805,1.0444938464776636
0.7169270261656493,16:53:56.602849,16:52:38.786069,0,,0.10663773,0.0016447306,0.028512761,-0.16251197,0.79046124,-0.5905596,-0.25110215,0.5456794,0.7994884,0.95422095,0.27821723,0.109807104,,0.05910532,0.020667953,0.019487739,0.36635405,0.12431335,0.92213386,-0.21325412,-0.95343804,0.21325709,0.9057083,-0.27477652,-0.32278565,,0.082764,1.2879169,0.4254324,0.99152,0.101847894,-0.08071593,0.019893108,-0.7327443,-0.6802133,-0.12842242,0.6728394,-0.7285567,,-0.10279775,0.23585159,-0.13013068,0.09873165,-0.81779194,0.5669818,0.48106945,0.53798753,0.69220054,-0.8711052,0.20441553,0.44653112,,-0.06638666,0.42426598,-0.33701724,-0.45574194,0.036721453,-0.88935417,0.5004954,-0.81566864,-0.29015356,-0.73607314,-0.57735276,0.3533555,,1.0645323903146033,0.3643971506702835,0.19343628267000001,1.9092269354265943,-1.1868246369626156,-0.03532069615912847,-0.42551129227979756,,-1.2520094535692776,0.20584944476245431,0.19382516967000002,-1.5298978276630897,-0.8565742170295462,0.356980025745175,0.8711139046941112,,-0.07621634677302738,-0.033641221332190704,0.09367612488,-0.1102278800231344,,5.479902e-06,3.5762787e-06,8.34465e-07,0.99999994,5.379319e-06,4.976988e-06,-5.3942204e-06,1.0000001,9.536743e-07,-4.9695373e-06,-9.834766e-07,1.0,237,0.72,0,0,0.0,False,-0.25826943722359585,1.04478352768234
0.7451772540807724,16:53:56.633050,16:52:38.786069,0,,0.10732773,0.0013853833,0.02831076,-0.16350453,0.7952282,-0.5838479,-0.25401846,0.53792226,0.8038123,0.953279,0.2797351,0.11404991,,0.05909198,0.020750446,0.01946646,0.36635846,0.12431847,0.9221314,-0.21354553,-0.95334816,0.2133676,0.90563786,-0.27508605,-0.32271954,,0.082764,1.2879169,0.4254324,0.99152,0.101847894,-0.08071593,0.019893108,-0.7327443,-0.6802133,-0.12842242,0.6728394,-0.7285567,,-0.103466935,0.23548235,-0.13013518,0.09984023,-0.8225162,0.5599099,0.47836798,0.53309965,0.6978315,-0.8724655,0.1981713,0.4466902,,-0.06638118,0.42430228,-0.3369392,-0.45569953,0.036746994,-0.88937485,0.50026274,-0.81585354,-0.29003483,-0.7362575,-0.57708985,0.35340095,,1.059945086987314,0.36513081029333483,0.19344276412000003,1.9092269354265943,-1.1925633699527642,-0.025740419795445058,-0.42551129227979734,,-1.252024899035026,0.20620469047466863,0.19388220643,-1.5298978276630897,-0.8567108535293115,0.3570914436488716,0.8707872165618427,,-0.07621634677302738,-0.033641221332190704,0.09367612488,-0.1102278800231344,,5.479902e-06,3.5762787e-06,8.34465e-07,0.99999994,5.379319e-06,4.976988e-06,-5.3942204e-06,1.0000001,9.536743e-07,-4.9695373e-06,-9.834766e-07,1.0,260,0.789,0,0,0.0,False,-0.259282258438454,1.0441558850722072
0.7754119741730392,16:53:56.689248,16:52:38.786069,0,,0.108518615,0.0010136217,0.027772084,-0.17535186,0.80906135,-0.56095564,-0.2522856,0.513831,0.81995714,0.95163214,0.2853021,0.114013344,,0.05904932,0.020895405,0.019448757,0.36621732,0.12467077,0.92213994,-0.21375737,-0.95321214,0.21376286,0.905645,-0.27539793,-0.3224335,,0.082764,1.2879169,0.4254324,0.99152,0.101847894,-0.08071593,0.019893108,-0.7327443,-0.6802133,-0.12842242,0.6728394,-0.7285567,,-0.10460975,0.23477006,-0.129953,0.11174201,-0.8362802,0.5367952,0.4792297,0.51856345,0.70811784,-0.8705473,0.1781217,0.45871565,,-0.06635533,0.42438477,-0.33681402,-0.45553482,0.036425877,-0.8894724,0.5001654,-0.8160765,-0.2895751,-0.7364256,-0.57679486,0.35353228,,1.051867108400875,0.36682208879279,0.19356720796000002,1.8976939885349453,-1.19119700495511,0.013004626356185156,-0.42567463634593183,,-1.2520094535692776,0.2068920137004746,0.19396128012000002,-1.5305268974935433,-0.8569841265288425,0.357559315676686,0.870950560627977,,-0.07621634677302738,-0.033641221332190704,0.09367612488,-0.1102278800231344,,5.479902e-06,3.5762787e-06,8.34465e-07,0.99999994,5.379319e-06,4.976988e-06,-5.3942204e-06,1.0000001,9.536743e-07,-4.9695373e-06,-9.834766e-07,1.0,268,0.814,0,0,0.0,False,-0.25910352528289105,1.0445421266784427
0.8315780630800873,16:53:56.718046,16:52:39.010072,0,,0.10897254,0.0009634644,0.027471647,-0.1861608,0.81610954,-0.5470915,-0.24310249,0.50125164,0.8304504,0.95196915,0.2875967,0.105084926,,0.059041187,0.020942463,0.01943916,0.3662803,0.12466947,0.9221151,-0.2138885,-0.95316815,0.21382803,0.9055885,-0.27555078,-0.32246137,,0.082764,1.2879169,0.4254324,0.99152,0.101847894,-0.08071593,0.019893108,-0.7327443,-0.6802133,-0.12842242,0.6728394,-0.7285567,,-0.10504022,0.2344999,-0.12975167,0.12233498,-0.84324926,0.52341646,0.48679602,0.51056486,0.7087688,-0.8649068,0.16808985,0.47295034,,-0.06635205,0.4244076,-0.3367711,-0.45557234,0.03644229,-0.8894525,0.50003034,-0.81616735,-0.28955227,-0.73649406,-0.5766653,0.353601,,1.0490560336346575,0.3676793121418289,0.19365665197,1.8928711198348012,-1.1797195389748127,0.031824687794179574,-0.42665470074273737,,-1.252024899035026,0.20710052748807867,0.19399109479,-1.5305268974935433,-0.8569841265288425,0.35764099441682656,0.8707872165618427,,-0.07621634677302738,-0.033641221332190704,0.09367612488,-0.1102278800231344,,5.479902e-06,3.5762787e-06,8.34465e-07,0.99999994,5.379319e-06,4.976988e-06,-5.3942204e-06,1.0000001,9.536743e-07,-4.9695373e-06,-9.834766e-07,1.0,280,0.851,0,0,0.0,False,-0.2580311263495121,1.0452663296901348
0.860412352019921,16:53:56.747020,16:52:39.010072,0,,0.109254636,0.0009883717,0.027310506,-0.1890547,0.8206077,-0.53931546,-0.23889813,0.494282,0.8358306,0.95246315,0.28685927,0.10259533,,0.05903626,0.020979626,0.01942432,0.36614424,0.12521705,0.92209494,-0.21362525,-0.9531306,0.2142576,0.9057057,-0.275432,-0.32223377,,0.082764,1.2879169,0.4254324,0.99152,0.101847894,-0.08071593,0.019893108,-0.7327443,-0.6802133,-0.12842242,0.6728394,-0.7285567,,-0.105310544,0.23439024,-0.12960654,0.1251114,-0.8475592,0.5157427,0.49036595,0.50472116,0.71049124,-0.86248964,0.1640121,0.47876054,,-0.06634993,0.42441973,-0.33673272,-0.45548812,0.035883386,-0.8895184,0.50030625,-0.81615454,-0.2891114,-0.73635876,-0.5767184,0.353796,,1.0475501007241836,0.3682044579772762,0.19374998485000003,1.8958067790435849,-1.175757080481615,0.0375782300024452,-0.4253479482136632,,-1.252024899035026,0.20722409121406626,0.19402090946000003,-1.5311559673239967,-0.8569841265288425,0.3577226731569671,0.8709505606279769,,-0.07621634677302738,-0.033641221332190704,0.09367612488,-0.1102278800231344,,5.479902e-06,3.5762787e-06,8.34465e-07,0.99999994,5.379319e-06,4.976988e-06,-5.3942204e-06,1.0000001,9.536743e-07,-4.9695373e-06,-9.834766e-07,1.0,288,0.874,0,0,0.0,False,-0.2589843698458485,1.0470526971189749
0.8893649692181498,16:53:56.778617,16:52:39.010072,0,,0.109601706,0.0010297447,0.027088448,-0.1902436,0.82256216,-0.53590924,-0.23895836,0.4906633,0.83794296,0.95221126,0.28747332,0.103212595,,0.05903558,0.021005524,0.019408643,0.36617526,0.124568865,0.92217034,-0.21367595,-0.9532634,0.21361536,0.90568113,-0.27526632,-0.3224441,,0.082764,1.2879169,0.4254324,0.99152,0.101847894,-0.08071593,0.019893108,-0.7327443,-0.6802133,-0.12842242,0.6728394,-0.7285567,,-0.10564164,0.23424684,-0.12940335,0.12631609,-0.84948784,0.51226425,0.49022308,0.5023932,0.7122376,-0.8623952,0.1611567,0.4798989,,-0.06635043,0.42442352,-0.33670264,-0.4555088,0.036514666,-0.8894821,0.5002507,-0.8159874,-0.28967878,-0.7363837,-0.5769153,0.35342294,,1.0455267447111367,0.36891494940170483,0.19393924319000003,1.8968552287610074,-1.1767135359799732,0.040808517532537225,-0.4258379804120661,,-1.252024899035026,0.20730904127568273,0.19404683526000002,-1.5311559673239967,-0.8569841265288425,0.3584577818182322,0.8720939690909169,,-0.07621634677302738,-0.033641221332190704,0.09367612488,-0.1102278800231344,,5.479902e-06,3.5762787e-06,8.34465e-07,0.99999994,5.379319e-06,4.976988e-06,-5.3942204e-06,1.0000001,9.536743e-07,-4.9695373e-06,-9.834766e-07,1.0,307,0.933,0,0,0.0,False,-0.259580147031059,1.04748721892599
0.920952414162457,16:53:56.830153,16:52:39.137094,0,,0.11046796,0.0011671409,0.026630625,-0.18965161,0.8425478,-0.5041283,-0.21847636,0.46436125,0.8582754,0.9572358,0.27291343,0.09600991,,0.05903373,0.02102722,0.019401073,0.36613643,0.12471435,0.9221661,-0.21361315,-0.95325154,0.21373118,0.90571165,-0.27524158,-0.32237953,,0.082764,1.2879169,0.4254324,0.99152,0.101847894,-0.08071593,0.019893108,-0.7327443,-0.6802133,-0.12842242,0.6728394,-0.7285567,,-0.10647548,0.23397966,-0.1289427,0.12500514,-0.86791843,0.48071954,0.50850064,0.47209036,0.7201096,-0.85193944,0.15442881,0.50035083,,-0.066350356,0.42443123,-0.33668092,-0.4554828,0.036366846,-0.88950145,0.5003197,-0.81598806,-0.28955764,-0.7363529,-0.57692367,0.35347348,,1.041680823739773,0.369609995360385,0.19422053812,1.9343897286447373,-1.1627766130038983,0.04096059371532135,-0.42616466854433444,,-1.2520326217679,0.207386268604425,0.19406368703000001,-1.5313656572674814,-0.8569841265288425,0.3585394605583727,0.8729106894215883,,-0.07621634677302738,-0.033641221332190704,0.09367612488,-0.1102278800231344,,5.479902e-06,3.5762787e-06,8.34465e-07,0.99999994,5.379319e-06,4.976988e-06,-5.3942204e-06,1.0000001,9.536743e-07,-4.9695373e-06,-9.834766e-07,1.0,315,0.957,0,0,0.0,False,-0.2590439475643693,1.047294098122872
0.9725124950055033,16:53:56.864904,16:52:39.137094,0,,0.11098785,0.0011797994,0.026338145,-0.18644242,0.85120326,-0.49060377,-0.2048015,0.45471692,0.86676913,0.96088266,0.26207894,0.08954924,,0.059026305,0.02103795,0.019398868,0.366052,0.1254918,0.92209417,-0.21340618,-0.9531399,0.21443468,0.9057946,-0.27527487,-0.3221181,,0.082764,1.2879169,0.4254324,0.99152,0.101847894,-0.08071593,0.019893108,-0.7327443,-0.6802133,-0.12842242,0.6728394,-0.7285567,,-0.106973425,0.23375648,-0.12870133,0.121302724,-0.8756097,0.46753967,0.5207301,0.45713407,0.72101915,-0.84505963,0.15600039,0.5114079,,-0.06634412,0.42443743,-0.33667105,-0.4554375,0.035593297,-0.88955593,0.50052536,-0.81609005,-0.2889142,-0.73624116,-0.5768277,0.35386267,,1.0392867765487634,0.3694864316343974,0.19436961147,1.962697871015148,-1.1547150595177373,0.029159498028236586,-0.42616466854433455,,-1.2520094535692776,0.20743260500167032,0.19406887219000002,-1.5317850371544504,-0.8569841265288425,0.35813106685766993,0.872747345355454,,-0.07621634677302738,-0.033641221332190704,0.09367612488,-0.1102278800231344,,5.479902e-06,3.5762787e-06,8.34465e-07,0.99999994,5.379319e-06,4.976988e-06,-5.3942204e-06,1.0000001,9.536743e-07,-4.9695373e-06,-9.834766e-07,1.0,323,0.982,0,0,0.0,False,-0.25791197091247,1.0475837793275489
1.0072376660536975,16:53:56.888633,16:52:39.137094,0,,0.111491546,0.0010892376,0.02601467,-0.18301533,0.856999,-0.48172393,-0.1963236,0.4482711,0.8720722,0.9633081,0.25417644,0.08620864,,0.05902329,0.021046145,0.019400358,0.36617434,0.12615599,0.92195493,-0.21336412,-0.95298934,0.21514471,0.90575504,-0.2754926,-0.32204312,,0.082764,1.2879169,0.4254324,0.99152,0.101847894,-0.08071593,0.019893108,-0.7327443,-0.6802133,-0.12842242,0.6728394,-0.7285567,,-0.10745117,0.23343815,-0.12850907,0.11756204,-0.88071394,0.45882693,0.5283358,0.44668448,0.72203475,-0.84085697,0.15753083,0.51782584,,-0.06634241,0.42444417,-0.3366655,-0.4555577,0.034951087,-0.8895199,0.5004978,-0.8162895,-0.2883981,-0.73618555,-0.5765847,0.35437402,,1.0364293653853003,0.3691234631893089,0.19452905514000002,1.9838765553070847,-1.151572420023132,0.01957251459113052,-0.42681804480887175,,-1.2520171763021517,0.20747894139891568,0.19407016848000003,-1.5317850371544504,-0.856847490029077,0.35744789777298963,0.872747345355454,,-0.07621634677302738,-0.033641221332190704,0.09367612488,-0.1102278800231344,,5.479902e-06,3.5762787e-06,8.34465e-07,0.99999994,5.379319e-06,4.976988e-06,-5.3942204e-06,1.0000001,9.536743e-07,-4.9695373e-06,-9.834766e-07,1.0,335,1.019,0,0,0.0,False,-0.2596993024681016,1.0475837793275489
1.0309614301659167,16:53:56.923678,16:52:39.137094,0,,0.11201842,0.0009401515,0.025513664,-0.18250783,0.86045444,-0.4757193,-0.18692473,0.44465503,0.87598,0.965272,0.24879695,0.07968721,,0.059021067,0.021053357,0.01940149,0.3661037,0.12693709,0.9218758,-0.21296683,-0.95293254,0.21578872,0.9058771,-0.27533007,-0.3218388,,0.082764,1.2879169,0.4254324,0.99152,0.101847894,-0.08071593,0.019893108,-0.7327443,-0.6802133,-0.12842242,0.6728394,-0.7285567,,-0.10793838,0.23295432,-0.12822737,0.11674953,-0.8837137,0.4532324,0.5364745,0.44016182,0.72003657,-0.8358018,0.15908371,0.5254786,,-0.066341296,0.4244498,-0.33666053,-0.45555553,0.03415434,-0.88955194,0.500847,-0.8162745,-0.2878336,-0.73594934,-0.5766536,0.35475227,,1.032907799194654,0.3684515854292514,0.19478960943,1.9996033010684244,-1.1467901425313416,0.01134391473430596,-0.42698138887500603,,-1.252024899035026,0.20749438686466412,0.19407146477,-1.532414106984904,-0.8567108535293115,0.35725480112915264,0.8730740334877225,,-0.07621634677302738,-0.033641221332190704,0.09367612488,-0.1102278800231344,,5.479902e-06,3.5762787e-06,8.34465e-07,0.99999994,5.379319e-06,4.976988e-06,-5.3942204e-06,1.0000001,9.536743e-07,-4.9695373e-06,-9.834766e-07,1.0,343,1.043,0,0,0.0,False,-0.25856732581620134,1.0464733347096211
1.06604196713306,16:53:56.948674,16:52:39.137094,0,,0.112498805,0.0007433593,0.025021657,-0.18192497,0.86188954,-0.4733387,-0.18025488,0.44398323,0.8777169,0.96664953,0.2450003,0.07458821,,0.059018943,0.021055294,0.019406319,0.3658099,0.12769762,0.92188746,-0.21270335,-0.9528552,0.216389,0.9060577,-0.27524585,-0.32140222,,0.082764,1.2879169,0.4254324,0.99152,0.101847894,-0.08071593,0.019893108,-0.7327443,-0.6802133,-0.12842242,0.6728394,-0.7285567,,-0.10837903,0.23244488,-0.1279868,0.115951985,-0.88486326,0.45118967,0.5422253,0.43698576,0.7176595,-0.832194,0.16143242,0.53046465,,-0.06634011,0.4244551,-0.336662,-0.45532495,0.03338584,-0.88969916,0.5012013,-0.8163037,-0.28713349,-0.7358509,-0.57665735,0.3549504,,1.0293939557368819,0.3676098075459609,0.19504108969000003,2.0115556278470423,-1.1444673220353292,0.0029155111602220396,-0.4263280126104688,,-1.252024899035026,0.20749438686466412,0.19406887219000002,-1.5330431768153574,-0.856847490029077,0.3570395040722868,0.8720939690909169,,-0.07621634677302738,-0.033641221332190704,0.09367612488,-0.1102278800231344,,5.479902e-06,3.5762787e-06,8.34465e-07,0.99999994,5.379319e-06,4.976988e-06,-5.3942204e-06,1.0000001,9.536743e-07,-4.9695373e-06,-9.834766e-07,1.0,351,1.068,0,0,0.0,False,-0.25856732581620134,1.0462319337057238
1.091032364172861,16:53:56.970582,16:52:39.137094,0,,0.11274664,0.0005569458,0.024712548,-0.18261096,0.86158264,-0.47363326,-0.17933089,0.4444641,0.8776628,0.9666922,0.24520794,0.07334441,,0.059017017,0.021058096,0.019409537,0.36579663,0.12843326,0.9217905,-0.2124137,-0.9527713,0.2170425,0.90613097,-0.27519438,-0.3212396,,0.082764,1.2879169,0.4254324,0.99152,0.101847894,-0.08071593,0.019893108,-0.7327443,-0.6802133,-0.12842242,0.6728394,-0.7285567,,-0.10860092,0.23208256,-0.12788093,0.1166167,-0.88458043,0.45157278,0.5429678,0.43749607,0.7167867,-0.8316168,0.16160017,0.531318,,-0.06633902,0.4244597,-0.3366618,-0.4553588,0.032645363,-0.8897093,0.50143665,-0.8163494,-0.28659207,-0.7356695,-0.57663506,0.3553623,,1.0271003040732372,0.3669147615872807,0.19518886675000002,2.0126040775644647,-1.1455604140334528,0.002009922106700923,-0.42665470074273737,,-1.2520326217679,0.20750210959753834,0.19406627961000003,-1.5334625567023266,-0.8567108535293115,0.3566830499481687,0.8725840012893198,,-0.07621634677302738,-0.033641221332190704,0.09367612488,-0.1102278800231344,,5.479902e-06,3.5762787e-06,8.34465e-07,0.99999994,5.379319e-06,4.976988e-06,-5.3942204e-06,1.0000001,9.536743e-07,-4.9695373e-06,-9.834766e-07,1.0,384,1.169,0,0,0.0,False,-0.25826943722359585,1.0461353733041652
1.1129181461874396,16:53:57.068588,16:52:39.328702,0,,0.113559164,-0.0004896149,0.023407444,-0.18696451,0.8696386,-0.4569166,-0.17976767,0.4269768,0.88621354,0.96577835,0.24782938,0.076503426,,0.05902386,0.021063162,0.019408345,0.36661065,0.1315564,0.9210263,-0.21155414,-0.9522327,0.22022203,0.9060031,-0.27558267,-0.3212674,,0.082764,1.2879169,0.4254324,0.99152,0.101847894,-0.08071593,0.019893108,-0.7327443,-0.6802133,-0.12842242,0.6728394,-0.7285567,,-0.10929996,0.23037879,-0.12762156,0.12103127,-0.8924907,0.4345248,0.54229355,0.42609504,0.72412753,-0.83142596,0.14799792,0.53556275,,-0.06634623,0.4244606,-0.3366572,-0.4562508,0.029560944,-0.8893601,0.5017105,-0.81690043,-0.28453508,-0.7349298,-0.57602066,0.35788044,,1.0175936199050668,0.36268270397220564,0.19572034565000002,2.0056843094294754,-1.153758604019379,0.03042154120587559,-0.4256746363459316,,-1.2521098490966425,0.2074866641317899,0.19406368703000001,-1.5338819365892957,-0.8554811250314226,0.35388335653180847,0.8719306250247826,,-0.07621634677302738,-0.033641221332190704,0.09367612488,-0.1102278800231344,,5.479902e-06,3.5762787e-06,8.34465e-07,0.99999994,5.379319e-06,4.976988e-06,-5.3942204e-06,1.0000001,9.536743e-07,-4.9695373e-06,-9.834766e-07,1.0,388,1.182,0,0,0.0,False,-0.2593418361569748,1.0455077306940321
1.2109352671541274,16:53:57.086193,16:52:39.328702,0,,0.11367869,-0.00075906515,0.0231532,-0.18825136,0.8720211,-0.45181912,-0.18149486,0.42123204,0.8886074,0.9652052,0.24928448,0.078969866,,0.059033573,0.021065397,0.01941657,0.36655167,0.13163707,0.9210383,-0.21158448,-0.9522085,0.22029763,0.90601987,-0.27562794,-0.32118136,,0.082764,1.2879169,0.4254324,0.99152,0.101847894,-0.08071593,0.019893108,-0.7327443,-0.6802133,-0.12842242,0.6728394,-0.7285567,,-0.10939631,0.23000166,-0.12761761,0.122386016,-0.8948682,0.42922327,0.54072624,0.42277265,0.72724026,-0.83224803,0.14308824,0.53562015,,-0.06635717,0.4244665,-0.3366607,-0.45619127,0.02948476,-0.88939315,0.5017159,-0.81693554,-0.2844249,-0.73496306,-0.5759748,0.3578859,,1.0156629366865106,0.36161696683556266,0.19580330821000003,2.0008614407293313,-1.1567646070142188,0.04161236028223714,-0.42616466854433455,,-1.2521793536925105,0.2074866641317899,0.19406109445000003,-1.5338819365892957,-0.8554811250314226,0.35380167779166793,0.8714405928263798,,-0.07621634677302738,-0.033641221332190704,0.09367612488,-0.1102278800231344,,5.479902e-06,3.5762787e-06,8.34465e-07,0.99999994,5.379319e-06,4.976988e-06,-5.3942204e-06,1.0000001,9.536743e-07,-4.9695373e-06,-9.834766e-07,1.0,396,1.206,0,0,0.0,False,-0.2586269035347226,1.045169769288576
1.2285436152014881,16:53:57.112135,16:52:39.328702,0,,0.11388135,-0.0011682138,0.0227478,-0.19361809,0.8754963,-0.44273928,-0.17684585,0.41274166,0.89351547,0.9650066,0.25129738,0.07491365,,0.059053842,0.021069152,0.019427538,0.36632946,0.13159657,0.9211324,-0.21170253,-0.9521985,0.2202277,0.90608215,-0.27568197,-0.32095906,,0.082764,1.2879169,0.4254324,0.99152,0.101847894,-0.08071593,0.019893108,-0.7327443,-0.6802133,-0.12842242,0.6728394,-0.7285567,,-0.10956237,0.22941446,-0.12759678,0.12766995,-0.89832646,0.42036888,0.5442974,0.417771,0.72746664,-0.82912046,0.13593006,0.54229355,,-0.066379055,0.42447346,-0.3366649,-0.45596635,0.02953061,-0.88950694,0.5017333,-0.8169636,-0.2843136,-0.73509073,-0.5759327,0.3576914,,1.012790080057299,0.3600260838634724,0.19587978932000003,1.9949901223117648,-1.1532120580203176,0.057011532577616264,-0.425837980412066,,-1.252302917418498,0.20747121866604146,0.19406109445000003,-1.5338819365892957,-0.8556177615311881,0.35383141695522385,0.8719306250247826,,-0.07621634677302738,-0.033641221332190704,0.09367612488,-0.1102278800231344,,5.479902e-06,3.5762787e-06,8.34465e-07,0.99999994,5.379319e-06,4.976988e-06,-5.3942204e-06,1.0000001,9.536743e-07,-4.9695373e-06,-9.834766e-07,1.0,408,1.244,0,0,0.0,False,-0.25791197091247,1.0466181753119597
1.2544619941618294,16:53:57.147126,16:52:39.328702,0,,0.114151575,-0.00149367,0.022404954,-0.19590017,0.8790729,-0.4345731,-0.16963762,0.4060994,0.8979455,0.9658396,0.24962771,0.0695689,,0.05907692,0.021071328,0.019438267,0.36635372,0.13240367,0.9210071,-0.21148458,-0.95206976,0.22099246,0.9061233,-0.27574027,-0.320793,,0.082764,1.2879169,0.4254324,0.99152,0.101847894,-0.08071593,0.019893108,-0.7327443,-0.6802133,-0.12842242,0.6728394,-0.7285567,,-0.109801725,0.22892669,-0.12756112,0.12975878,-0.90165687,0.4125258,0.5502431,0.41158357,0.7265201,-0.8248607,0.1327171,0.54953706,,-0.06640346,0.42447877,-0.33667025,-0.45602354,0.028729131,-0.8895039,0.5018932,-0.8170799,-0.28369647,-0.7349461,-0.5758082,0.35818872,,1.0101643508800628,0.3586900510762316,0.19593941866000003,1.9993936111249395,-1.1485664170282923,0.061554555346275075,-0.42551129227979756,,-1.2524496493431083,0.20743260500167032,0.19405850187,-1.5340916265327802,-0.8553444885316571,0.3532001874471281,0.8714405928263798,,-0.07621634677302738,-0.033641221332190704,0.09367612488,-0.1102278800231344,,5.479902e-06,3.5762787e-06,8.34465e-07,0.99999994,5.379319e-06,4.976988e-06,-5.3942204e-06,1.0000001,9.536743e-07,-4.9695373e-06,-9.834766e-07,1.0,416,1.269,0,0,0.0,False,-0.25737577144578117,1.047390658524431
1.2894860540982336,16:53:57.173361,16:52:39.479331,0,,0.11448273,-0.0017106235,0.022207484,-0.19199584,0.8834624,-0.42735416,-0.1645348,0.40031534,0.90148544,0.967505,0.24339613,0.06850141,,0.0591031,0.021074636,0.019450486,0.36625302,0.13309193,0.92094797,-0.21134663,-0.95195365,0.22162342,0.9061961,-0.27580953,-0.3205274,,0.082764,1.2879169,0.4254324,0.99152,0.101847894,-0.08071593,0.019893108,-0.7327443,-0.6802133,-0.12842242,0.6728394,-0.7285567,,-0.11011412,0.2286135,-0.12755395,0.12565604,-0.9054892,0.40533924,0.5548481,0.40284547,0.7279142,-0.82240754,0.13343489,0.55302894,,-0.06643126,0.42448533,-0.33667564,-0.45595208,0.028047532,-0.88956225,0.5020521,-0.81719035,-0.2830964,-0.7348819,-0.575685,0.35851833,,1.0079479265451603,0.35778649132994733,0.19596923333000002,2.015120356886279,-1.1481565075289961,0.055421111085205754,-0.42502126008139474,,-1.252611826733467,0.20739399133729922,0.19405720558000003,-1.5343013164762647,-0.8552078520318918,0.352680375842729,0.8722573131570511,,-0.07621634677302738,-0.033641221332190704,0.09367612488,-0.1102278800231344,,5.479902e-06,3.5762787e-06,8.34465e-07,0.99999994,5.379319e-06,4.976988e-06,-5.3942204e-06,1.0000001,9.536743e-07,-4.9695373e-06,-9.834766e-07,1.0,424,1.293,0,0,0.0,False,-0.25785239319394915,1.0478734605322257
1.3157162251882255,16:53:57.206583,16:52:39.479331,0,,0.11481128,-0.0018752888,0.022070304,-0.18901637,0.8876849,-0.4198668,-0.16326421,0.39321464,0.90483534,0.9683066,0.23957798,0.07060313,,0.059135877,0.021080298,0.019466102,0.3659439,0.13370311,0.9209823,-0.21118194,-0.9518792,0.22209974,0.90635943,-0.2757709,-0.32009873,,0.082764,1.2879169,0.4254324,0.99152,0.101847894,-0.08071593,0.019893108,-0.7327443,-0.6802133,-0.12842242,0.6728394,-0.7285567,,-0.11042911,0.2283797,-0.12755466,0.12260507,-0.909303,0.39766318,0.5561358,0.39481413,0.73132396,-0.8219982,0.1314907,0.5541022,,-0.06646632,0.4244948,-0.33668143,-0.45569155,0.027432289,-0.88971496,0.50233567,-0.8172287,-0.28248212,-0.7348497,-0.5756603,0.35862398,,1.0058318977376228,0.35742352288485874,0.195999048,2.025185474173536,-1.150342691525243,0.05516182904083444,-0.4258379804120661,,-1.2528126177881969,0.20734765494005386,0.19405720558000003,-1.5347206963632338,-0.8552078520318918,0.35243533962230733,0.8734007216199912,,-0.07621634677302738,-0.033641221332190704,0.09367612488,-0.1102278800231344,,5.479902e-06,3.5762787e-06,8.34465e-07,0.99999994,5.379319e-06,4.976988e-06,-5.3942204e-06,1.0000001,9.536743e-07,-4.9695373e-06,-9.834766e-07,1.0,436,1.33,0,0,0.0,False,-0.2580907040680329,1.0480665813353434
1.3489456721581519,16:53:57.231366,16:52:39.479331,0,,0.11499422,-0.0019592345,0.021998689,-0.18952428,0.888224,-0.4184956,-0.16299003,0.391847,0.9054779,0.9682535,0.23982066,0.07050714,,0.059149235,0.021083517,0.019473076,0.36586905,0.13370706,0.9210115,-0.21121445,-0.9518739,0.2220917,0.9063821,-0.2757875,-0.32002035,,0.082764,1.2879169,0.4254324,0.99152,0.101847894,-0.08071593,0.019893108,-0.7327443,-0.6802133,-0.12842242,0.6728394,-0.7285567,,-0.11060498,0.22825842,-0.1275532,0.123110496,-0.9098336,0.3962911,0.55632985,0.39395395,0.7316402,-0.8217913,0.13039598,0.5546675,,-0.0664808,0.42449963,-0.33668345,-0.45561692,0.027429981,-0.8897532,0.50234723,-0.8172389,-0.28243196,-0.7348881,-0.57564586,0.3585685,,1.004596260477747,0.35746213654922987,0.19601071461000003,2.0260242339474743,-1.150889237524305,0.05601589435632304,-0.4251846041475288,,-1.2528975678498133,0.20733993220717964,0.19405720558000003,-1.5347206963632338,-0.8552078520318918,0.35243533962230733,0.8734007216199912,,-0.07621634677302738,-0.033641221332190704,0.09367612488,-0.1102278800231344,,5.479902e-06,3.5762787e-06,8.34465e-07,0.99999994,5.379319e-06,4.976988e-06,-5.3942204e-06,1.0000001,9.536743e-07,-4.9695373e-06,-9.834766e-07,1.0,461,1.407,0,0,0.0,False,-0.25785239319394915,1.0475837793275489
1.3737149550579488,16:53:57.307321,16:52:39.479331,0,,0.11577951,-0.0021547824,0.02176635,-0.19175255,0.89356136,-0.40592954,-0.15811723,0.38007537,0.9113406,0.9686227,0.2389364,0.06840706,,0.05915277,0.021085544,0.019477308,0.3659732,0.13310587,0.92105716,-0.21146649,-0.95193434,0.22159217,0.90628123,-0.27586958,-0.32023507,,0.082764,1.2879169,0.4254324,0.99152,0.101847894,-0.08071593,0.019893108,-0.7327443,-0.6802133,-0.12842242,0.6728394,-0.7285567,,-0.111368194,0.22790888,-0.1274881,0.12522008,-0.9148849,0.38380393,0.5602587,0.38447076,0.7336842,-0.818798,0.1231575,0.5607157,,-0.0664851,0.42450345,-0.33668455,-0.45567346,0.028039498,-0.8897053,0.50209665,-0.8172275,-0.2829103,-0.7350243,-0.57563275,0.3583103,,1.000055293547703,0.35828074623389766,0.19605478847000002,2.034202141743371,-1.1489763265275887,0.06188880905736449,-0.4245312278829917,,-1.2529284587813103,0.2073631004058023,0.19405590929000002,-1.5343013164762647,-0.8552078520318918,0.35268037584272904,0.8732373775538568,,-0.07621634677302738,-0.033641221332190704,0.09367612488,-0.1102278800231344,,5.479902e-06,3.5762787e-06,8.34465e-07,0.99999994,5.379319e-06,4.976988e-06,-5.3942204e-06,1.0000001,9.536743e-07,-4.9695373e-06,-9.834766e-07,1.0,469,1.431,0,0,0.0,False,-0.2584481703791588,1.0478251803314462
1.449664490064606,16:53:57.334104,16:52:39.479331,0,,0.11605753,-0.0022195727,0.02164276,-0.19345798,0.8966999,-0.39812446,-0.15406835,0.37298983,0.9149544,0.968936,0.23834363,0.065995246,,0.059146874,0.021088107,0.019475698,0.36604935,0.13334714,0.92099214,-0.21127981,-0.9519274,0.22179954,0.90629405,-0.27577668,-0.32027888,,0.082764,1.2879169,0.4254324,0.99152,0.101847894,-0.08071593,0.019893108,-0.7327443,-0.6802133,-0.12842242,0.6728394,-0.7285567,,-0.11163553,0.22776003,-0.12743202,0.1268268,-0.91784716,0.37612703,0.56351864,0.37872586,0.7341754,-0.8163098,0.118841484,0.5652566,,-0.06647941,0.42450485,-0.33668146,-0.45577377,0.027788976,-0.8896618,0.5022061,-0.8171964,-0.28280568,-0.7348873,-0.57568896,0.3585009,,0.9984489651098641,0.35849698275437597,0.19608849201000003,2.0375571808391233,-1.1458336870329837,0.06675896262513792,-0.42632801261046893,,-1.2529052905826876,0.20737854587155075,0.19405590929000002,-1.5345110064197494,-0.8550712155321264,0.35265063667917307,0.8730740334877226,,-0.07621634677302738,-0.033641221332190704,0.09367612488,-0.1102278800231344,,5.479902e-06,3.5762787e-06,8.34465e-07,0.99999994,5.379319e-06,4.976988e-06,-5.3942204e-06,1.0000001,9.536743e-07,-4.9695373e-06,-9.834766e-07,1.0,477,1.456,0,0,0.0,False,-0.2580907040680329,1.0481631417369022
1.4763916481751949,16:53:57.362286,16:52:39.479331,0,,0.11630037,-0.0022339001,0.021514073,-0.19394806,0.90025955,-0.3897649,-0.14631853,0.36631873,0.91891325,0.9700388,0.23525131,0.060677856,,0.059142586,0.021087183,0.019471943,0.36607552,0.1332695,0.92099285,-0.21126634,-0.95194834,0.22172277,0.9062866,-0.27574217,-0.32032967,,0.082764,1.2879169,0.4254324,0.99152,0.101847894,-0.08071593,0.019893108,-0.7327443,-0.6802133,-0.12842242,0.6728394,-0.7285567,,-0.111868314,0.22764653,-0.12733895,0.12709966,-0.92105913,0.3680975,0.5699317,0.3715444,0.73289335,-0.8118027,0.11663994,0.57216394,,-0.06647457,0.4245022,-0.33667976,-0.4558002,0.027863229,-0.8896459,0.5022037,-0.8171681,-0.28289175,-0.7348725,-0.57572556,0.35847238,,0.9973368915759758,0.35858193281599243,0.19612997329,2.046783538352442,-1.1395484080437734,0.06620774850297395,-0.4251846041475289,,-1.2528589541854422,0.20737854587155075,0.19405720558000003,-1.5345110064197494,-0.8552078520318918,0.3528437333230101,0.8732373775538569,,-0.07621634677302738,-0.033641221332190704,0.09367612488,-0.1102278800231344,,5.479902e-06,3.5762787e-06,8.34465e-07,0.99999994,5.379319e-06,4.976988e-06,-5.3942204e-06,1.0000001,9.536743e-07,-4.9695373e-06,-9.834766e-07,1.0,489,1.494,0,0,0.0,False,-0.25791197091247,1.047680339729108
1.5046125689987093,16:53:57.400104,16:52:39.669445,0,,0.116652116,-0.0022854656,0.021338537,-0.19206314,0.9043741,-0.38107604,-0.14072129,0.35891354,0.9227018,0.9712411,0.23084247,0.058330506,,0.05907368,0.0210565,0.019479156,0.366004,0.13309696,0.9210462,-0.21132624,-0.9519769,0.22154309,0.9063014,-0.27572685,-0.3203005,,0.08279687,1.2879161,0.42543277,0.9915208,0.10181781,-0.08074386,0.019852398,-0.73274845,-0.68020993,-0.12842242,0.6728394,-0.7285567,,-0.11223496,0.22746575,-0.12722881,0.12502988,-0.92470396,0.35956937,0.57469535,0.36292246,0.7334934,-0.80876005,0.11493426,0.5767992,,-0.06643307,0.42449793,-0.3367051,-0.4557296,0.027993985,-0.88967794,0.50220174,-0.81714565,-0.28296012,-0.73491764,-0.5757511,0.35833883,,0.9953058128300548,0.3586668828776089,0.19621034327000003,2.059784314848483,-1.1369523145482299,0.06327402093133627,-0.4250212600813945,,-1.252851231452568,0.207386268604425,0.19405720558000003,-1.5345110064197494,-0.8552078520318918,0.3528437333230101,0.8732373775538569,,-0.07621634677302738,-0.033641221332190704,0.09367612488,-0.1102278800231344,,3.8001686e-05,7.748604e-06,-1.66893e-06,0.99999994,-2.4527311e-05,-2.2642314e-05,2.4527311e-05,1.0,-4.3213367e-06,2.2657216e-05,4.3213367e-06,1.0,497,1.519,0,0,0.0,False,-0.2585077480976805,1.04748721892599
1.5424667820334435,16:53:57.425640,16:52:39.669445,0,,0.11687715,-0.0023466125,0.021214023,-0.19130091,0.90557283,-0.3786049,-0.13940516,0.35675097,0.9237397,0.9715812,0.2294917,0.057994574,,0.059074633,0.021062132,0.01947987,0.3659993,0.13318148,0.92103595,-0.21134678,-0.95195067,0.22163625,0.9062985,-0.27577668,-0.3202658,,0.08279687,1.2879161,0.42543277,0.9915208,0.10181781,-0.08074386,0.019852398,-0.73274845,-0.68020993,-0.12842242,0.6728394,-0.7285567,,-0.11244947,0.22732218,-0.12717164,0.12422223,-0.9257651,0.35711035,0.57583696,0.3603532,0.73386467,-0.80807215,0.114475034,0.5778537,,-0.06643482,0.42450172,-0.33670118,-0.455722,0.02791435,-0.8896844,0.50218785,-0.81718373,-0.2828747,-0.7349318,-0.57570094,0.35839036,,0.9939388891113171,0.3586437146789862,0.19627775035000003,2.0646071835486266,-1.1372255875477608,0.061618245715496234,-0.4251846041475289,,-1.2528666769183163,0.20740943680304766,0.19405979816000002,-1.5345110064197494,-0.8552078520318918,0.3527620545828696,0.873400721619991,,-0.07621634677302738,-0.033641221332190704,0.09367612488,-0.1102278800231344,,3.8001686e-05,7.748604e-06,-1.66893e-06,0.99999994,-2.4527311e-05,-2.2642314e-05,2.4527311e-05,1.0,-4.3213367e-06,2.2657216e-05,4.3213367e-06,1.0,509,1.555,0,0,0.0,False,-0.2583290149421176,1.0475354991267694
1.5679664241615683,16:53:57.458094,16:52:39.669445,0,,0.11704257,-0.00243707,0.02108948,-0.19312392,0.9043819,-0.3805215,-0.13978809,0.3585054,0.9230022,0.9711655,0.23144618,0.05718568,,0.059077755,0.021065112,0.019481301,0.3659825,0.13303554,0.9210637,-0.2113615,-0.9519825,0.22148532,0.90630186,-0.27573708,-0.32029033,,0.08279687,1.2879161,0.42543277,0.9915208,0.10181781,-0.08074386,0.019852398,-0.73274845,-0.68020993,-0.12842242,0.6728394,-0.7285567,,-0.112603985,0.22716102,-0.12713693,0.12607665,-0.9247472,0.35909232,0.57538664,0.36303896,0.7328935,-0.80810577,0.11421615,0.5778579,,-0.066438474,0.4245041,-0.3366998,-0.45570403,0.02805644,-0.8896891,0.5021846,-0.8171456,-0.28299072,-0.7349452,-0.5757482,0.358287,,0.9926028563240762,0.35862054648036357,0.19633478711000002,2.061881214283328,-1.137908770046588,0.06209365649383769,-0.42567463634593183,,-1.252889845116939,0.20741715953592188,0.19406109445000003,-1.5345110064197494,-0.8552078520318918,0.35292541206315065,0.8734007216199912,,-0.07621634677302738,-0.033641221332190704,0.09367612488,-0.1102278800231344,,3.8001686e-05,7.748604e-06,-1.66893e-06,0.99999994,-2.4527311e-05,-2.2642314e-05,2.4527311e-05,1.0,-4.3213367e-06,2.2657216e-05,4.3213367e-06,1.0,538,1.644,0,0,0.0,False,-0.2575545046013441,1.0475837793275489
1.6004605961497873,16:53:57.541869,16:52:39.815205,0,,0.11758567,-0.0026882961,0.02087994,-0.19683154,0.90454686,-0.37822232,-0.13917825,0.35608387,0.92403114,0.97050846,0.23451877,0.05580452,,0.059089508,0.021061268,0.019482017,0.3659039,0.13390018,0.92096955,-0.21105018,-0.9518747,0.22224429,0.90640616,-0.27569076,-0.32003504,,0.08279687,1.2879161,0.42543277,0.9915208,0.10181781,-0.08074386,0.019852398,-0.73274845,-0.68020993,-0.12842242,0.6728394,-0.7285567,,-0.113126285,0.2268016,-0.12713616,0.12981021,-0.9250873,0.35687926,0.5756083,0.36337423,0.7325532,-0.8073564,0.11032981,0.5796577,,-0.06644962,0.4245001,-0.33670342,-0.4556807,0.027186891,-0.889728,0.50246924,-0.81720465,-0.28231412,-0.7347651,-0.57570606,0.35872382,,0.9888573308800773,0.35890628759670984,0.19636849065000003,2.059784314848483,-1.1387285890451806,0.06651938596248219,-0.4250212600813945,,-1.2529439042470587,0.20735537767292808,0.19406109445000003,-1.5349303863067183,-0.8550712155321264,0.35240560045875136,0.8725840012893198,,-0.07621634677302738,-0.033641221332190704,0.09367612488,-0.1102278800231344,,3.8001686e-05,7.748604e-06,-1.66893e-06,0.99999994,-2.4527311e-05,-2.2642314e-05,2.4527311e-05,1.0,-4.3213367e-06,2.2657216e-05,4.3213367e-06,1.0,542,1.657,0,0,0.0,False,-0.2579715486309908,1.0464733347096211
1.684235978173092,16:53:57.562695,16:52:39.815205,0,,0.11771035,-0.002724871,0.02083604,-0.19755675,0.9044749,-0.3780163,-0.13888171,0.35590267,0.9241456,0.97040355,0.23507078,0.0553039,,0.059093524,0.021059778,0.01948297,0.36599043,0.13401645,0.9209183,-0.21097767,-0.95186234,0.22236606,0.9063881,-0.27567697,-0.32009804,,0.08279687,1.2879161,0.42543277,0.9915208,0.10181781,-0.08074386,0.019852398,-0.73274845,-0.68020993,-0.12842242,0.6728394,-0.7285567,,-0.113246866,0.2267373,-0.12712455,0.13053568,-0.9250515,0.35670733,0.57579654,0.36362508,0.7322808,-0.8071052,0.10980207,0.5801075,,-0.0664535,0.42449918,-0.33670527,-0.4557725,0.0270692,-0.8896846,0.5024834,-0.81720805,-0.282279,-0.7346985,-0.5757068,0.35885912,,0.9880464439282838,0.3590530195213201,0.19638274984,2.059784314848483,-1.1387285890451806,0.06668274344276337,-0.42534794821366306,,-1.2529670724456814,0.20733993220717964,0.19405979816000002,-1.5349303863067183,-0.8549345790323609,0.35229418255505496,0.8725840012893198,,-0.07621634677302738,-0.033641221332190704,0.09367612488,-0.1102278800231344,,3.8001686e-05,7.748604e-06,-1.66893e-06,0.99999994,-2.4527311e-05,-2.2642314e-05,2.4527311e-05,1.0,-4.3213367e-06,2.2657216e-05,4.3213367e-06,1.0,554,1.694,0,0,0.0,False,-0.257435349164302,1.046763015914298
1.7050371221266687,16:53:57.604143,16:52:39.815205,0,,0.11790016,-0.0026762038,0.02076386,-0.19802794,0.90514755,-0.37615526,-0.13814613,0.35415193,0.9249281,0.9704125,0.23512602,0.05491051,,0.059103247,0.021060493,0.019486785,0.3661973,0.1346415,0.9207449,-0.21066153,-0.9517921,0.22296554,0.90637803,-0.27561492,-0.32017994,,0.08279687,1.2879161,0.42543277,0.9915208,0.10181781,-0.08074386,0.019852398,-0.73274845,-0.68020993,-0.12842242,0.6728394,-0.7285567,,-0.11343191,0.22671151,-0.12703125,0.13099194,-0.92569524,0.35486537,0.5763659,0.36235005,0.73246485,-0.8066247,0.1085853,0.58100414,,-0.06646368,0.4245008,-0.33670723,-0.45601466,0.026437704,-0.8895795,0.5026298,-0.8172334,-0.28194484,-0.734448,-0.57570016,0.35938203,,0.9872201115107417,0.3595781653567674,0.19646182353000002,2.0616715243398436,-1.1383186795458844,0.06675688343237685,-0.42485791601526024,,-1.2530365770415495,0.20731676400855698,0.19405720558000003,-1.5351400762502028,-0.8545246695330646,0.3518782501038252,0.8724206572231855,,-0.07621634677302738,-0.033641221332190704,0.09367612488,-0.1102278800231344,,3.8001686e-05,7.748604e-06,-1.66893e-06,0.99999994,-2.4527311e-05,-2.2642314e-05,2.4527311e-05,1.0,-4.3213367e-06,2.2657216e-05,4.3213367e-06,1.0,566,1.732,0,0,0.0,False,-0.2570778828531757,1.0460870931033857
1.7464843371417373,16:53:57.634189,16:52:39.815205,0,,0.11804096,-0.0025327578,0.020730808,-0.19677317,0.9072143,-0.37180975,-0.13403329,0.3507729,0.92681897,0.9712442,0.23220798,0.052574128,,0.05912333,0.021054294,0.019488335,0.3663554,0.13524722,0.92059314,-0.21032196,-0.9517368,0.22352144,0.90639305,-0.27550924,-0.32022846,,0.08279687,1.2879161,0.42543277,0.9915208,0.10181781,-0.08074386,0.019852398,-0.73274845,-0.68020993,-0.12842242,0.6728394,-0.7285567,,-0.11357251,0.22678438,-0.12690315,0.1296086,-0.9274893,0.35066405,0.57984465,0.3577707,0.7319702,-0.8043518,0.108461045,0.5841698,,-0.06648282,0.42449445,-0.33671334,-0.4562153,0.025821181,-0.8894947,0.5028189,-0.81723064,-0.28161553,-0.734194,-0.57573205,0.35984975,,0.9871351614491253,0.36018826125383113,0.19653571206,2.0700591220792246,-1.1349027670517482,0.06299129095827949,-0.42469457194912597,,-1.2531369725689143,0.20723181394694049,0.19405590929000002,-1.5353497661936872,-0.8541147600337682,0.3514623176525952,0.8725840012893197,,-0.07621634677302738,-0.033641221332190704,0.09367612488,-0.1102278800231344,,3.8001686e-05,7.748604e-06,-1.66893e-06,0.99999994,-2.4527311e-05,-2.2642314e-05,2.4527311e-05,1.0,-4.3213367e-06,2.2657216e-05,4.3213367e-06,1.0,574,1.756,0,0,0.0,False,-0.25672041654204936,1.0464733347096211
1.776533022057265,16:53:57.658773,16:52:39.964999,0,,0.11811417,-0.0023804754,0.020707801,-0.19668181,0.90592474,-0.37498856,-0.13220829,0.35446137,0.92567706,0.97151285,0.23164043,0.05005455,,0.059156373,0.021039095,0.019495368,0.36618042,0.13551082,0.920624,-0.21030316,-0.9516914,0.22373231,0.9064681,-0.27553645,-0.31999242,,0.08279687,1.2879161,0.42543277,0.9915208,0.10181781,-0.08074386,0.019852398,-0.73274845,-0.68020993,-0.12842242,0.6728394,-0.7285567,,-0.1136466,0.22687468,-0.1267789,0.1294661,-0.9262282,0.3540336,0.58134824,0.36014014,0.72961175,-0.8032887,0.11135682,0.58508706,,-0.06651431,0.4244845,-0.33673012,-0.45605597,0.025560105,-0.88958395,0.5029207,-0.8172729,-0.2813108,-0.7342232,-0.57568365,0.35986748,,0.9872741706408613,0.3608446935481402,0.19661867462000002,2.073204471231492,-1.1328532195552667,0.056010904293696706,-0.4246945719491261,,-1.2532837044935246,0.20709280475520445,0.19405202042000003,-1.5353497661936872,-0.8541147600337682,0.351135602692033,0.8724206572231854,,-0.07621634677302738,-0.033641221332190704,0.09367612488,-0.1102278800231344,,3.8001686e-05,7.748604e-06,-1.66893e-06,0.99999994,-2.4527311e-05,-2.2642314e-05,2.4527311e-05,1.0,-4.3213367e-06,2.2657216e-05,4.3213367e-06,1.0,582,1.781,0,0,0.0,False,-0.25779281547542787,1.0463284941072828
1.8011111931409687,16:53:57.685254,16:52:39.964999,0,,0.11815637,-0.0022743791,0.020688668,-0.19629906,0.9057322,-0.37565365,-0.13205224,0.3551982,0.9254168,0.9716115,0.23126437,0.049878806,,0.0591764,0.021031048,0.019496799,0.3662944,0.1356527,0.9205578,-0.21014613,-0.9516963,0.22385934,0.9064585,-0.27545008,-0.32009414,,0.08279687,1.2879161,0.42543277,0.9915208,0.10181781,-0.08074386,0.019852398,-0.73274845,-0.68020993,-0.12842242,0.6728394,-0.7285567,,-0.1136892,0.22693603,-0.12669045,0.1290746,-0.9260225,0.35471398,0.5815055,0.36042958,0.7293435,-0.8032379,0.1121284,0.58500946,,-0.06653315,0.42447698,-0.33673763,-0.45618668,0.025409589,-0.88952124,0.50298774,-0.8172355,-0.28129956,-0.73409605,-0.57574344,0.36003125,,0.9873745661682263,0.3612771665890968,0.19668867428000003,2.0748819907793687,-1.132579946555736,0.05358274250250861,-0.4245312278829918,,-1.2533763772880153,0.20700785469358798,0.19405072413000002,-1.5353497661936872,-0.8538414870342373,0.35099444562478077,0.8720939690909169,,-0.07621634677302738,-0.033641221332190704,0.09367612488,-0.1102278800231344,,3.8001686e-05,7.748604e-06,-1.66893e-06,0.99999994,-2.4527311e-05,-2.2642314e-05,2.4527311e-05,1.0,-4.3213367e-06,2.2657216e-05,4.3213367e-06,1.0,590,1.805,0,0,0.0,False,-0.2583290149421176,1.0465216149104006
1.8275946131907403,16:53:57.713689,16:52:39.964999,0,,0.11826841,-0.002122201,0.020635977,-0.19567095,0.9069923,-0.3729312,-0.12760699,0.35350078,0.92668957,0.9723319,0.22891483,0.046568573,,0.059199147,0.02102172,0.019500673,0.36617562,0.1357033,0.9205976,-0.21013469,-0.95169616,0.22387028,0.90650916,-0.27542534,-0.31997195,,0.08279687,1.2879161,0.42543277,0.9915208,0.10181781,-0.08074386,0.019852398,-0.73274845,-0.68020993,-0.12842242,0.6728394,-0.7285567,,-0.113799885,0.22700354,-0.12654324,0.12831827,-0.92708224,0.35221153,0.5851881,0.35751042,0.7278332,-0.8006805,0.112715706,0.5883926,,-0.06655484,0.42447007,-0.3367477,-0.4560783,0.025356524,-0.88957834,0.5030558,-0.8172258,-0.28120607,-0.7341168,-0.57575953,0.35996318,,0.9874054570997232,0.3618563715546636,0.19677941458,2.0818017589143576,-1.1284808515627727,0.04926006050992926,-0.42485791601526046,,-1.2534767728153802,0.2069151818990973,0.19404942784,-1.5353497661936872,-0.8538414870342373,0.3509127668846402,0.8722573131570511,,-0.07621634677302738,-0.033641221332190704,0.09367612488,-0.1102278800231344,,3.8001686e-05,7.748604e-06,-1.66893e-06,0.99999994,-2.4527311e-05,-2.2642314e-05,2.4527311e-05,1.0,-4.3213367e-06,2.2657216e-05,4.3213367e-06,1.0,615,1.882,0,0,0.0,False,-0.2580311263495121,1.0474389387252105
1.8560522850602865,16:53:57.785371,16:52:39.964999,0,,0.118479066,-0.0019399002,0.020486817,-0.19746302,0.9070624,-0.3718145,-0.11992478,0.3540823,0.9274932,0.97294724,0.22773537,0.038861036,,0.059215214,0.021017816,0.01950723,0.3660867,0.13599446,0.92059,-0.21014416,-0.95162904,0.2241467,0.90654284,-0.27551374,-0.3198003,,0.08279687,1.2879161,0.42543277,0.9915208,0.10181781,-0.08074386,0.019852398,-0.73274845,-0.68020993,-0.12842242,0.6728394,-0.7285567,,-0.11400261,0.2270208,-0.12630142,0.12992576,-0.9270786,0.3516312,0.59129864,0.35712075,0.7230703,-0.7959178,0.11397361,0.5945795,,-0.06657102,0.42446977,-0.3367551,-0.4559943,0.02507389,-0.8896294,0.5030925,-0.8173071,-0.28090394,-0.7341438,-0.57565653,0.36007288,,0.9869343703943955,0.36271359490370253,0.19693626567000003,2.0876730773319245,-1.1206925710761426,0.0432359549597956,-0.42551129227979756,,-1.2535617228769966,0.20686884550185194,0.19404683526000002,-1.5353497661936872,-0.8538414870342373,0.35058605192407793,0.8729106894215882,,-0.07621634677302738,-0.033641221332190704,0.09367612488,-0.1102278800231344,,3.8001686e-05,7.748604e-06,-1.66893e-06,0.99999994,-2.4527311e-05,-2.2642314e-05,2.4527311e-05,1.0,-4.3213367e-06,2.2657216e-05,4.3213367e-06,1.0,623,1.907,0,0,0.0,False,-0.25910352528289105,1.046859576315857
1.9277063522022218,16:53:57.814617,16:52:40.099957,0,,0.1185538,-0.0019301102,0.02045931,-0.19707988,0.90896493,-0.36734474,-0.12215671,0.34900618,0.9291245,0.97274727,0.22798532,0.04225388,,0.059212707,0.021019723,0.019507527,0.36609885,0.13599926,0.9205845,-0.21014997,-0.95162517,0.22415756,0.9065366,-0.27552456,-0.31980866,,0.08279687,1.2879161,0.42543277,0.9915208,0.10181781,-0.08074386,0.019852398,-0.73274845,-0.68020993,-0.12842242,0.6728394,-0.7285567,,-0.11407536,0.22700445,-0.12627178,0.12959738,-0.92890394,0.34690347,0.58951735,0.3534884,0.72630244,-0.7972916,0.11037872,0.59341615,,-0.066568844,0.42447165,-0.33675376,-0.45600465,0.02507016,-0.88962424,0.5030819,-0.817314,-0.28090274,-0.7341446,-0.5756468,0.36008668,,0.9864941746205647,0.36290666322555815,0.19698293211,2.0872536974449556,-1.1231520280719205,0.048998699272796986,-0.42551129227979756,,-1.2535540001441223,0.2068842909676004,0.19404683526000002,-1.5353497661936872,-0.8538414870342373,0.35058605192407793,0.8729106894215882,,-0.07621634677302738,-0.033641221332190704,0.09367612488,-0.1102278800231344,,3.8001686e-05,7.748604e-06,-1.66893e-06,0.99999994,-2.4527311e-05,-2.2642314e-05,2.4527311e-05,1.0,-4.3213367e-06,2.2657216e-05,4.3213367e-06,1.0,631,1.931,0,0,0.0,False,-0.25767366003838577,1.0468112961150775
1.956960331182927,16:53:57.841598,16:52:40.099957,0,,0.118655644,-0.001928471,0.020420417,-0.19769822,0.9100755,-0.3642497,-0.12147629,0.34597445,0.9303468,0.9727069,0.22817561,0.042153955,,0.059210874,0.021020498,0.019507408,0.36610824,0.13592619,0.92059153,-0.21015123,-0.9516419,0.22408539,0.9065325,-0.27550292,-0.31983888,,0.08279687,1.2879161,0.42543277,0.9915208,0.10181781,-0.08074386,0.019852398,-0.73274845,-0.68020993,-0.12842242,0.6728394,-0.7285567,,-0.114174195,0.22697274,-0.12623844,0.1302049,-0.92997134,0.3438022,0.59002197,0.35134858,0.72693074,-0.79681915,0.10820091,0.59445083,,-0.06656712,0.42447233,-0.33675304,-0.45601314,0.025141157,-0.88961786,0.50307626,-0.81729394,-0.28097132,-0.7341432,-0.57567227,0.36004886,,0.9859535833193689,0.36313062247891065,0.1970101542,2.0876730773319245,-1.1224688455730933,0.05170875935993735,-0.425184604147529,,-1.2535462774112482,0.2068920137004746,0.19404683526000002,-1.5353497661936872,-0.8538414870342373,0.35066773066421847,0.8724206572231855,,-0.07621634677302738,-0.033641221332190704,0.09367612488,-0.1102278800231344,,3.8001686e-05,7.748604e-06,-1.66893e-06,0.99999994,-2.4527311e-05,-2.2642314e-05,2.4527311e-05,1.0,-4.3213367e-06,2.2657216e-05,4.3213367e-06,1.0,639,1.957,0,0,0.0,False,-0.25672041654204936,1.0470526971189749
1.9839584361761808,16:53:57.865518,16:52:40.099957,0,,0.118778065,-0.0019101426,0.020404086,-0.19679758,0.9117486,-0.36053452,-0.11831197,0.34295458,0.9318715,0.9732795,0.22604558,0.040378004,,0.059213854,0.02102014,0.019508243,0.36609232,0.13584948,0.9206092,-0.2101534,-0.95166105,0.22400182,0.9065385,-0.27547443,-0.3198466,,0.08279687,1.2879161,0.42543277,0.9915208,0.10181781,-0.08074386,0.019852398,-0.73274845,-0.68020993,-0.12842242,0.6728394,-0.7285567,,-0.11429545,0.2269673,-0.12620917,0.12920997,-0.9314351,0.3401962,0.5926563,0.34759393,0.7265927,-0.7950241,0.1077364,0.5969335,,-0.06657012,0.4244722,-0.3367539,-0.45599806,0.02521509,-0.8896235,0.5030825,-0.81726944,-0.28103143,-0.7341483,-0.5757038,0.359988,,0.985575169408532,0.36332369080076626,0.19701274678000003,2.093544395749491,-1.1202826615768462,0.05000775164093518,-0.4253479482136632,,-1.2535617228769966,0.2068842909676004,0.19404683526000002,-1.5353497661936872,-0.8538414870342373,0.35074940940435906,0.8722573131570512,,-0.07621634677302738,-0.033641221332190704,0.09367612488,-0.1102278800231344,,3.8001686e-05,7.748604e-06,-1.66893e-06,0.99999994,-2.4527311e-05,-2.2642314e-05,2.4527311e-05,1.0,-4.3213367e-06,2.2657216e-05,4.3213367e-06,1.0,647,1.981,0,0,0.0,False,-0.256541683386486,1.0461836535049447
2.0078735400456935,16:53:57.893339,16:52:40.099957,0,,0.118956566,-0.0018899739,0.020366296,-0.1964664,0.9121643,-0.35966256,-0.11245057,0.34342992,0.9324219,0.97404087,0.22363383,0.035100818,,0.059214205,0.021018293,0.019508779,0.36608952,0.13592197,0.9205995,-0.21014881,-0.951645,0.22407427,0.90654063,-0.2754941,-0.31982344,,0.08279687,1.2879161,0.42543277,0.9915208,0.10181781,-0.08074386,0.019852398,-0.73274845,-0.68020993,-0.12842242,0.6728394,-0.7285567,,-0.114471145,0.22694507,-0.12616083,0.12872177,-0.93168676,0.3396918,0.5974137,0.34626207,0.72332525,-0.7915349,0.10982884,0.60117394,,-0.0665703,0.42447147,-0.33675566,-0.4559962,0.02514449,-0.88962644,0.5030875,-0.8172883,-0.28096768,-0.73414606,-0.57568014,0.36003044,,0.9849805189772166,0.36361715464998684,0.19701274678000003,2.1010932337149337,-1.1153637475852904,0.04297459372266332,-0.4245312278829917,,-1.2535617228769966,0.20687656823472617,0.19404553897000001,-1.5353497661936872,-0.8538414870342373,0.3506677306642185,0.872093969090917,,-0.07621634677302738,-0.033641221332190704,0.09367612488,-0.1102278800231344,,3.8001686e-05,7.748604e-06,-1.66893e-06,0.99999994,-2.4527311e-05,-2.2642314e-05,2.4527311e-05,1.0,-4.3213367e-06,2.2657216e-05,4.3213367e-06,1.0,659,2.018,0,0,0.0,False,-0.2566012611050077,1.0467147357135185
2.0357011491432786,16:53:57.918621,16:52:40.099957,0,,0.119177885,-0.0018633008,0.020372406,-0.19362994,0.9145769,-0.35504434,-0.109949976,0.33938405,0.93419987,0.97489405,0.21992613,0.03484264,,0.05921434,0.02102166,0.019509435,0.36608857,0.13592798,0.9205991,-0.21016142,-0.95163983,0.22408462,0.90653807,-0.27550915,-0.3198177,,0.08279687,1.2879161,0.42543277,0.9915208,0.10181781,-0.08074386,0.019852398,-0.73274845,-0.68020993,-0.12842242,0.6728394,-0.7285567,,-0.11469278,0.22695497,-0.1261382,0.12578802,-0.9337578,0.33507285,0.5996388,0.3406365,0.7241547,-0.79032314,0.10983271,0.6027654,,-0.066570945,0.42447397,-0.33675343,-0.4559933,0.025139967,-0.88962805,0.50307804,-0.8172978,-0.28095683,-0.73415434,-0.5756668,0.36003497,,0.9842468593541653,0.3640264594923207,0.19701145049000002,2.1111583510021914,-1.1145439285866976,0.038630542994159134,-0.4243678838168575,,-1.253569445609871,0.2068920137004746,0.19404683526000002,-1.5353497661936872,-0.8538414870342373,0.3506677306642185,0.872093969090917,,-0.07621634677302738,-0.033641221332190704,0.09367612488,-0.1102278800231344,,3.8001686e-05,7.748604e-06,-1.66893e-06,0.99999994,-2.4527311e-05,-2.2642314e-05,2.4527311e-05,1.0,-4.3213367e-06,2.2657216e-05,4.3213367e-06,1.0,684,2.095,0,0,0.0,False,-0.2574949268828224,1.0463284941072828
2.0609457660466433,16:53:57.997609,16:52:40.304520,0,,0.11962454,-0.0018284023,0.020355418,-0.19150129,0.9156593,-0.35340506,-0.104463905,0.33900875,0.93496543,0.9759172,0.21596515,0.030732602,,0.059215017,0.021020498,0.019508898,0.36608577,0.13600045,0.9205895,-0.21015674,-0.9516238,0.22415707,0.90654033,-0.2755287,-0.3197945,,0.08279687,1.2879161,0.42543277,0.9915208,0.10181781,-0.08074386,0.019852398,-0.73274845,-0.68020993,-0.12842242,0.6728394,-0.7285567,,-0.115137644,0.22694112,-0.12608425,0.12349524,-0.9345492,0.33371642,0.604192,0.33758497,0.72179526,-0.7872108,0.112490535,0.60633737,,-0.0665714,0.42447275,-0.33675402,-0.45599145,0.025069365,-0.88963103,0.5030831,-0.81731665,-0.2808931,-0.734152,-0.5756432,0.3600774,,0.9825401353889617,0.364999523834473,0.1970101542,2.1245785073852006,-1.1111280160925618,0.027268827686989794,-0.42420453975072325,,-1.253569445609871,0.2068842909676004,0.19404683526000002,-1.5353497661936872,-0.8538414870342373,0.35058605192407793,0.8722573131570512,,-0.07621634677302738,-0.033641221332190704,0.09367612488,-0.1102278800231344,,3.8001686e-05,7.748604e-06,-1.66893e-06,0.99999994,-2.4527311e-05,-2.2642314e-05,2.4527311e-05,1.0,-4.3213367e-06,2.2657216e-05,4.3213367e-06,1.0,692,2.12,0,0,0.0,False,-0.2575545046013441,1.0469078565166363
2.1399691910482943,16:53:58.025305,16:52:40.304520,0,,0.11974307,-0.0018186793,0.0203598,-0.18961307,0.91741514,-0.34985158,-0.10333225,0.33569145,0.9362871,0.9764062,0.21368323,0.031146973,,0.059216168,0.021020915,0.019509614,0.3660792,0.13600105,0.920592,-0.21016014,-0.9516231,0.22415684,0.9065422,-0.27553087,-0.31978744,,0.08279687,1.2879161,0.42543277,0.9915208,0.10181781,-0.08074386,0.019852398,-0.73274845,-0.68020993,-0.12842242,0.6728394,-0.7285567,,-0.11525635,0.2269439,-0.12607609,0.12155732,-0.9360795,0.33011967,0.60523224,0.3335052,0.7228196,-0.78671324,0.11193504,0.60708547,,-0.06657267,0.42447332,-0.33675414,-0.45598483,0.025068969,-0.88963443,0.5030837,-0.8173179,-0.28088823,-0.7341557,-0.57564133,0.3600728,,0.9821462760123763,0.3651848694234544,0.19700885791000003,2.1304498258027675,-1.1109913795927961,0.025768871200903654,-0.425184604147529,,-1.253577168342745,0.2068842909676004,0.19404683526000002,-1.5353497661936872,-0.8538414870342373,0.35058605192407793,0.8722573131570512,,-0.07621634677302738,-0.033641221332190704,0.09367612488,-0.1102278800231344,,3.8001686e-05,7.748604e-06,-1.66893e-06,0.99999994,-2.4527311e-05,-2.2642314e-05,2.4527311e-05,1.0,-4.3213367e-06,2.2657216e-05,4.3213367e-06,1.0,700,2.144,0,0,0.0,False,-0.2580311263495121,1.0468112961150775
2.167638275073841,16:53:58.048138,16:52:40.304520,0,,0.11981004,-0.0017948076,0.020356908,-0.18730691,0.9186171,-0.34793466,-0.10064539,0.3343925,0.9370444,0.9771318,0.2105329,0.029820412,,0.059215494,0.021022078,0.01951009,0.36608204,0.13592859,0.92060155,-0.21016476,-0.9516392,0.2240844,0.90654,-0.2755112,-0.3198106,,0.08279687,1.2879161,0.42543277,0.9915208,0.10181781,-0.08074386,0.019852398,-0.73274845,-0.68020993,-0.12842242,0.6728394,-0.7285567,,-0.11532335,0.22695512,-0.12605494,0.1191582,-0.9370314,0.32828873,0.6075379,0.33033064,0.72234297,-0.78530186,0.11337476,0.6086437,,-0.06657223,0.4244745,-0.33675355,-0.4559867,0.02513957,-0.88963145,0.50307864,-0.8172991,-0.28095198,-0.73415804,-0.575665,0.36003035,,0.9820999396151309,0.3652157603549513,0.1970101542,2.1377889738247258,-1.1093517415956111,0.0209196705305027,-0.4251846041475289,,-1.253577168342745,0.2068920137004746,0.19404683526000002,-1.5353497661936872,-0.8538414870342373,0.35066773066421847,0.8724206572231855,,-0.07621634677302738,-0.033641221332190704,0.09367612488,-0.1102278800231344,,3.8001686e-05,7.748604e-06,-1.66893e-06,0.99999994,-2.4527311e-05,-2.2642314e-05,2.4527311e-05,1.0,-4.3213367e-06,2.2657216e-05,4.3213367e-06,1.0,708,2.17,0,0,0.0,False,-0.25761408231986493,1.0475354991267694
2.190503838006407,16:53:58.075228,16:52:40.304520,0,,0.11977915,-0.0017970726,0.020351127,-0.18764807,0.91774654,-0.350042,-0.10096958,0.3364616,0.9362685,0.9770329,0.21103254,0.029527962,,0.059214678,0.021022346,0.019508362,0.36608857,0.13585278,0.92061013,-0.21016142,-0.9516582,0.22400689,0.90653807,-0.275483,-0.3198402,,0.08279687,1.2879161,0.42543277,0.9915208,0.10181781,-0.08074386,0.019852398,-0.73274845,-0.68020993,-0.12842242,0.6728394,-0.7285567,,-0.11529209,0.22695142,-0.12605351,0.11951122,-0.93623525,0.33042488,0.6072558,0.33222905,0.72170925,-0.7854664,0.114400074,0.6082394,,-0.06657122,0.4244735,-0.33675224,-0.4559933,0.02521263,-0.889626,0.50307804,-0.81727487,-0.2810236,-0.73415434,-0.57569623,0.35998794,,0.9822003351424958,0.36514625575908327,0.19701533936,2.1365308341638185,-1.1094883780953764,0.019805907332090422,-0.42567463634593183,,-1.253569445609871,0.2068920137004746,0.19404813155000003,-1.5353497661936872,-0.8538414870342373,0.35074940940435906,0.8725840012893198,,-0.07621634677302738,-0.033641221332190704,0.09367612488,-0.1102278800231344,,3.8001686e-05,7.748604e-06,-1.66893e-06,0.99999994,-2.4527311e-05,-2.2642314e-05,2.4527311e-05,1.0,-4.3213367e-06,2.2657216e-05,4.3213367e-06,1.0,716,2.194,0,0,0.0,False,-0.2570778828531757,1.046666455512739
2.2175905820913613,16:53:58.099947,16:52:40.304520,0,,0.119736336,-0.0017923564,0.020356432,-0.18720587,0.91798973,-0.34964076,-0.101795495,0.3358879,0.93638504,0.97703207,0.2108886,0.030566901,,0.059212856,0.02102309,0.019508123,0.36609793,0.13593008,0.92059505,-0.21016264,-0.9516382,0.22409019,0.9065341,-0.27551356,-0.3198254,,0.08279687,1.2879161,0.42543277,0.9915208,0.10181781,-0.08074386,0.019852398,-0.73274845,-0.68020993,-0.12842242,0.6728394,-0.7285567,,-0.11524985,0.22696112,-0.12605582,0.11908489,-0.93645746,0.32994884,0.6066282,0.33169886,0.72248054,-0.7860159,0.11411976,0.6075818,,-0.0665695,0.42447415,-0.33675152,-0.4560018,0.0251383,-0.88962376,0.50307244,-0.8173007,-0.28095865,-0.7341529,-0.57566285,0.36004418,,0.9824088489300998,0.36504586023171837,0.19702052452000002,2.136321144220334,-1.110308197093969,0.0206377722345501,-0.4246945719491261,,-1.2535617228769966,0.20689973643334883,0.19404813155000003,-1.5353497661936872,-0.8538414870342373,0.3506677306642185,0.872747345355454,,-0.07621634677302738,-0.033641221332190704,0.09367612488,-0.1102278800231344,,3.8001686e-05,7.748604e-06,-1.66893e-06,0.99999994,-2.4527311e-05,-2.2642314e-05,2.4527311e-05,1.0,-4.3213367e-06,2.2657216e-05,4.3213367e-06,1.0,724,2.219,0,0,0.0,False,-0.25761408231986493,1.0473423783236515
2.2423115780111402,16:53:58.126886,16:52:40.304520,0,,0.11970154,-0.00178276,0.020363256,-0.1868055,0.91848546,-0.34855133,-0.10264474,0.33460653,0.936751,0.9770198,0.21076721,0.031771243,,0.059215162,0.021023896,0.019509554,0.36608484,0.13593127,0.92060006,-0.21016935,-0.9516369,0.22408971,0.9065378,-0.27551773,-0.31981122,,0.08279687,1.2879161,0.42543277,0.9915208,0.10181781,-0.08074386,0.019852398,-0.73274845,-0.68020993,-0.12842242,0.6728394,-0.7285567,,-0.1152158,0.22697489,-0.12605552,0.1187015,-0.9369205,0.32877034,0.6059784,0.33065465,0.72350377,-0.78657496,0.11334674,0.6070028,,-0.06657205,0.42447525,-0.3367518,-0.45598856,0.025137506,-0.88963056,0.50307363,-0.81730324,-0.28094897,-0.7341603,-0.5756592,0.3600349,,0.9825941945190813,0.3649918011015988,0.19702700597000003,2.1361114542768496,-1.1111280160925618,0.022204745798274916,-0.425184604147529,,-1.253577168342745,0.20689973643334883,0.19404813155000003,-1.5353497661936872,-0.8538414870342373,0.3506677306642185,0.872747345355454,,-0.07621634677302738,-0.033641221332190704,0.09367612488,-0.1102278800231344,,3.8001686e-05,7.748604e-06,-1.66893e-06,0.99999994,-2.4527311e-05,-2.2642314e-05,2.4527311e-05,1.0,-4.3213367e-06,2.2657216e-05,4.3213367e-06,1.0,753,2.308,0,0,0.0,False,-0.25737577144578117,1.0470526971189749
2.2692520359996706,16:53:58.212561,16:52:40.435276,0,,0.11957619,-0.001750581,0.020340368,-0.1872173,0.9177293,-0.3503176,-0.10290545,0.3363381,0.93610203,0.9769136,0.21130408,0.031470925,,0.059212856,0.02102309,0.019508123,0.36609793,0.13593008,0.92059505,-0.21016264,-0.9516382,0.22409019,0.9065341,-0.27551356,-0.3198254,,0.08279687,1.2879161,0.42543277,0.9915208,0.10181781,-0.08074386,0.019852398,-0.73274845,-0.68020993,-0.12842242,0.6728394,-0.7285567,,-0.11508974,0.22699033,-0.12602177,0.119124345,-0.9362352,0.33056468,0.60574174,0.33232635,0.7229358,-0.78669333,0.11411757,0.6067049,,-0.0665695,0.42447415,-0.33675152,-0.4560018,0.0251383,-0.88962376,0.50307244,-0.8173007,-0.28095865,-0.7341529,-0.57566285,0.36004418,,0.983204290416145,0.3647755645811205,0.19706330209000003,2.13380486489852,-1.110854743093031,0.022390303691585012,-0.42534794821366306,,-1.2535617228769966,0.20689973643334883,0.19404813155000003,-1.5353497661936872,-0.8538414870342373,0.35066773066421847,0.8724206572231855,,-0.07621634677302738,-0.033641221332190704,0.09367612488,-0.1102278800231344,,3.8001686e-05,7.748604e-06,-1.66893e-06,0.99999994,-2.4527311e-05,-2.2642314e-05,2.4527311e-05,1.0,-4.3213367e-06,2.2657216e-05,4.3213367e-06,1.0,761,2.333,0,0,0.0,False,-0.25785239319394915,1.0465216149104006
2.3548983212094754,16:53:58.231514,16:52:40.435276,0,,0.11955419,-0.0017624572,0.020330325,-0.18835962,0.9165741,-0.3527214,-0.10318464,0.33869272,0.93522197,0.9766645,0.21255347,0.030780196,,0.059212856,0.02102309,0.019508123,0.36609793,0.13593008,0.92059505,-0.21016264,-0.9516382,0.22409019,0.9065341,-0.27551356,-0.3198254,,0.08279687,1.2879161,0.42543277,0.9915208,0.10181781,-0.08074386,0.019852398,-0.73274845,-0.68020993,-0.12842242,0.6728394,-0.7285567,,-0.11506687,0.2269762,-0.12602353,0.12028625,-0.93521357,0.33302668,0.6054389,0.33496296,0.721972,-0.7867496,0.11478401,0.6065061,,-0.0665695,0.42447415,-0.33675152,-0.4560018,0.0251383,-0.88962376,0.50307244,-0.8173007,-0.28095865,-0.7341529,-0.57566285,0.36004418,,0.9831965676832708,0.3647446736496236,0.19706459838,2.131078895633221,-1.1107181065932652,0.022197207047747747,-0.4251846041475287,,-1.2535617228769966,0.20689973643334883,0.19404813155000003,-1.5353497661936872,-0.8538414870342373,0.35066773066421847,0.8724206572231855,,-0.07621634677302738,-0.033641221332190704,0.09367612488,-0.1102278800231344,,3.8001686e-05,7.748604e-06,-1.66893e-06,0.99999994,-2.4527311e-05,-2.2642314e-05,2.4527311e-05,1.0,-4.3213367e-06,2.2657216e-05,4.3213367e-06,1.0,769,2.357,0,0,0.0,False,-0.25737577144578117,1.046763015914298
2.373856413178146,16:53:58.270657,16:52:40.435276,0,,0.119565226,-0.0017647594,0.020325854,-0.18828693,0.91675115,-0.35229984,-0.10296306,0.33831313,0.93538374,0.97670186,0.21239439,0.030691415,,0.05921401,0.021023478,0.019508839,0.3660914,0.13585548,0.92060864,-0.21016598,-0.95165586,0.2240122,0.9065359,-0.27548948,-0.31984085,,0.08279687,1.2879161,0.42543277,0.9915208,0.10181781,-0.08074386,0.019852398,-0.73274845,-0.68020993,-0.12842242,0.6728394,-0.7285567,,-0.11507752,0.22697076,-0.12602141,0.12020717,-0.9353721,0.33260968,0.6056209,0.33456746,0.7220027,-0.7866216,0.114645496,0.6066984,,-0.06657077,0.4244747,-0.33675164,-0.45599517,0.025210567,-0.88962513,0.50307304,-0.817279,-0.28102058,-0.7341566,-0.57569045,0.35999253,,0.9831425085531512,0.3647446736496236,0.19706589467000002,2.1314982755201903,-1.1105814700935,0.022249146624332528,-0.4251846041475289,,-1.253569445609871,0.20689973643334883,0.19404813155000003,-1.5353497661936872,-0.8538414870342373,0.35074940940435906,0.8722573131570512,,-0.07621634677302738,-0.033641221332190704,0.09367612488,-0.1102278800231344,,3.8001686e-05,7.748604e-06,-1.66893e-06,0.99999994,-2.4527311e-05,-2.2642314e-05,2.4527311e-05,1.0,-4.3213367e-06,2.2657216e-05,4.3213367e-06,1.0,781,2.395,0,0,0.0,False,-0.25719703829021734,1.0467147357135185
2.4129928161855787,16:53:58.300024,16:52:40.435276,0,,0.11956876,-0.0017658323,0.020322278,-0.18835735,0.91676533,-0.3522252,-0.10282433,0.33826485,0.93541646,0.9767029,0.21240987,0.030550987,,0.059216507,0.0210216,0.01950854,0.3660792,0.13592587,0.92060304,-0.21016014,-0.9516414,0.22407909,0.9065422,-0.27550474,-0.31980994,,0.08279687,1.2879161,0.42543277,0.9915208,0.10181781,-0.08074386,0.019852398,-0.73274845,-0.68020993,-0.12842242,0.6728394,-0.7285567,,-0.115080774,0.22696732,-0.12601942,0.120274894,-0.93538654,0.33254465,0.6057267,0.33454216,0.7219257,-0.7865298,0.114601664,0.60682565,,-0.06657295,0.42447284,-0.33675298,-0.45598483,0.025141632,-0.88963234,0.5030837,-0.81729496,-0.280955,-0.7341557,-0.5756707,0.36002576,,0.9831193403545285,0.3647446736496236,0.19706719096000003,2.1314982755201903,-1.1104448335937347,0.02230108620091731,-0.425184604147529,,-1.253577168342745,0.2068842909676004,0.19404813155000003,-1.5353497661936872,-0.8538414870342373,0.3506677306642185,0.872093969090917,,-0.07621634677302738,-0.033641221332190704,0.09367612488,-0.1102278800231344,,3.8001686e-05,7.748604e-06,-1.66893e-06,0.99999994,-2.4527311e-05,-2.2642314e-05,2.4527311e-05,1.0,-4.3213367e-06,2.2657216e-05,4.3213367e-06,1.0,789,2.42,0,0,0.0,False,-0.257435349164302,1.0466181753119597
2.4423787691630423,16:53:58.327060,16:52:40.435276,0,,0.11959861,-0.0017488673,0.02030988,-0.1875296,0.9176576,-0.35033846,-0.10046166,0.3368774,0.93617356,0.97710794,0.21075583,0.029014826,,0.05921238,0.021021511,0.01950705,0.36610168,0.13592678,0.9205941,-0.21015462,-0.9516412,0.22408515,0.9065343,-0.27550504,-0.31983182,,0.08279687,1.2879161,0.42543277,0.9915208,0.10181781,-0.08074386,0.019852398,-0.73274845,-0.68020993,-0.12842242,0.6728394,-0.7285567,,-0.11510996,0.22696933,-0.1259976,0.11937872,-0.9361343,0.33075872,0.60766876,0.33234698,0.7213073,-0.7851671,0.11488301,0.6085347,,-0.06656867,0.4244724,-0.336752,-0.45600653,0.02514076,-0.88962126,0.50307685,-0.81729525,-0.2809665,-0.7341469,-0.5756704,0.36004424,,0.983134785820277,0.3647523963824978,0.19707107983000002,2.1352726945029117,-1.1085319225970183,0.020577878068886224,-0.4245312278829918,,-1.2535540001441223,0.2068920137004746,0.19404813155000003,-1.5353497661936872,-0.8538414870342373,0.3506677306642185,0.872093969090917,,-0.07621634677302738,-0.033641221332190704,0.09367612488,-0.1102278800231344,,3.8001686e-05,7.748604e-06,-1.66893e-06,0.99999994,-2.4527311e-05,-2.2642314e-05,2.4527311e-05,1.0,-4.3213367e-06,2.2657216e-05,4.3213367e-06,1.0,822,2.521,0,0,0.0,False,-0.25642252794944387,1.0470044169181953
2.469423736212775,16:53:58.422626,16:52:40.668471,0,,0.119730495,-0.001672633,0.020169929,-0.18167438,0.92012334,-0.34694007,-0.09018254,0.3357348,0.9376296,0.97921467,0.20163117,0.021984518,,0.05921536,0.021021184,0.019507885,0.36608577,0.13592528,0.92060053,-0.21015674,-0.9516421,0.22407933,0.90654033,-0.27550262,-0.31981704,,0.08279687,1.2879161,0.42543277,0.9915208,0.10181781,-0.08074386,0.019852398,-0.73274845,-0.68020993,-0.12842242,0.6728394,-0.7285567,,-0.1152329,0.22692071,-0.1258385,0.11320752,-0.9379248,0.3278432,0.6162147,0.32511726,0.71734107,-0.77939945,0.12081339,0.61476874,,-0.06657167,0.42447227,-0.33675286,-0.45599145,0.025142029,-0.88962895,0.5030831,-0.8172937,-0.28095984,-0.734152,-0.57567257,0.36003038,,0.9831502312860254,0.36445893253327727,0.19716959787000002,2.1556126190209106,-1.1011535516096844,0.004678183712271355,-0.4253479482136632,,-1.253569445609871,0.2068842909676004,0.19404813155000003,-1.5353497661936872,-0.8538414870342373,0.3506677306642185,0.872093969090917,,-0.07621634677302738,-0.033641221332190704,0.09367612488,-0.1102278800231344,,3.8001686e-05,7.748604e-06,-1.66893e-06,0.99999994,-2.4527311e-05,-2.2642314e-05,2.4527311e-05,1.0,-4.3213367e-06,2.2657216e-05,4.3213367e-06,1.0,830,2.546,0,0,0.0,False,-0.25761408231986493,1.0465216149104006
2.5649843430146575,16:53:58.453736,16:52:40.668471,0,,0.11976693,-0.0016423464,0.020083591,-0.1789616,0.9219276,-0.34354356,-0.08588806,0.33320814,0.93893313,0.9800999,0.19753924,0.01955098,,0.059213273,0.021027442,0.019511163,0.36583716,0.13662487,0.9205958,-0.20971468,-0.9516243,0.22456858,0.90674305,-0.27521798,-0.31948733,,0.08279687,1.2879161,0.42543277,0.9915208,0.10181781,-0.08074386,0.019852398,-0.73274845,-0.68020993,-0.12842242,0.6728394,-0.7285567,,-0.11526363,0.22688134,-0.12575361,0.11036307,-0.93938875,0.3246056,0.6197721,0.32036927,0.71641195,-0.77698296,0.12211608,0.61756384,,-0.06657087,0.424479,-0.33674997,-0.45583105,0.024413746,-0.8897314,0.5035548,-0.81719315,-0.2804067,-0.7339282,-0.5758466,0.36020836,,0.983204290416145,0.3642118050813021,0.19723441237000003,2.164209906703776,-1.0981475486148449,0.0001850213274361412,-0.42551129227979756,,-1.253577168342745,0.2068920137004746,0.19404813155000003,-1.5361885259676253,-0.8538414870342373,0.35074940940435906,0.8722573131570512,,-0.07621634677302738,-0.033641221332190704,0.09367612488,-0.1102278800231344,,3.8001686e-05,7.748604e-06,-1.66893e-06,0.99999994,-2.4527311e-05,-2.2642314e-05,2.4527311e-05,1.0,-4.3213367e-06,2.2657216e-05,4.3213367e-06,1.0,838,2.571,0,0,0.0,False,-0.25731619372725945,1.0458456920994883
2.596078259171918,16:53:58.480834,16:52:40.668471,0,,0.11974746,-0.001633592,0.020012632,-0.17929703,0.9210956,-0.3455942,-0.083348036,0.33580175,0.93823785,0.9802579,0.19702783,0.016563088,,0.05919119,0.02106389,0.019528449,0.36387065,0.14211449,0.92054415,-0.20611513,-0.95150673,0.22836721,0.9083583,-0.27283418,-0.31693348,,0.08279687,1.2879161,0.42543277,0.9915208,0.10181781,-0.08074386,0.019852398,-0.73274845,-0.68020993,-0.12842242,0.6728394,-0.7285567,,-0.11523933,0.22684032,-0.1256969,0.110641405,-0.9385686,0.3268754,0.62174547,0.32195386,0.7139876,-0.7753651,0.12423672,0.6191722,,-0.06655616,0.42451864,-0.33673182,-0.45457703,0.01868149,-0.8905115,0.50735766,-0.8163021,-0.2761142,-0.7320847,-0.57732296,0.361594,,0.9832815177448873,0.3640264594923207,0.19727978252000003,2.165048666477714,-1.095688091619067,-0.0032090395214888767,-0.4243678838168575,,-1.253569445609871,0.2068920137004746,0.19404683526000002,-1.5428986041591302,-0.8538414870342373,0.35148451806562414,0.8724206572231855,,-0.07621634677302738,-0.033641221332190704,0.09367612488,-0.1102278800231344,,3.8001686e-05,7.748604e-06,-1.66893e-06,0.99999994,-2.4527311e-05,-2.2642314e-05,2.4527311e-05,1.0,-4.3213367e-06,2.2657216e-05,4.3213367e-06,1.0,846,2.596,0,0,0.0,False,-0.25761408231986493,1.0463284941072828
2.6230881751980633,16:53:58.503642,16:52:40.668471,0,,0.11970892,-0.001605466,0.019885555,-0.18035041,0.9198501,-0.3483523,-0.08090708,0.33908617,0.9372697,0.9802692,0.19722113,0.013267964,,0.05919285,0.021060523,0.019530177,0.36327788,0.14077893,0.9209834,-0.20585734,-0.95195794,0.22671315,0.90865386,-0.27195108,-0.31684497,,0.08279687,1.2879161,0.42543277,0.9915208,0.10181781,-0.08074386,0.019852398,-0.73274845,-0.68020993,-0.12842242,0.6728394,-0.7285567,,-0.115192354,0.2267761,-0.1255869,0.11164793,-0.9373983,0.32987738,0.6235907,0.32454813,0.7111984,-0.77373725,0.12630464,0.62078804,,-0.06655761,0.42451766,-0.3367356,-0.45406762,0.019931277,-0.89074427,0.5078526,-0.8156482,-0.27713493,-0.7320576,-0.57820475,0.3602373,,0.9833741905393779,0.36379477750609396,0.19738218943000002,2.164209906703776,-1.0930919981235236,-0.005897730872704954,-0.42551129227979756,,-1.2535617228769966,0.20684567730322928,0.19404683526000002,-1.5437373639330683,-0.8542513965335337,0.35369738279994634,0.8719306250247827,,-0.07621634677302738,-0.033641221332190704,0.09367612488,-0.1102278800231344,,3.8001686e-05,7.748604e-06,-1.66893e-06,0.99999994,-2.4527311e-05,-2.2642314e-05,2.4527311e-05,1.0,-4.3213367e-06,2.2657216e-05,4.3213367e-06,1.0,858,2.633,0,0,0.0,False,-0.25695872741613357,1.0463284941072828
