AlexandreBanks6/ExpertPlaybackApp/resources/Motions/P_14/PC1/Data_PC1_7.csv
Task Time,PC1 Time,PC2 Time,Gaze Calib,s_T_psm1,Tx,Ty,Tz,R00,R01,R02,R10,R11,R12,R20,R21,R22,s_T_psm3,Tx,Ty,Tz,R00,R01,R02,R10,R11,R12,R20,R21,R22,cart_T_ecm,Tx,Ty,Tz,R00,R01,R02,R10,R11,R12,R20,R21,R22,ecm_T_psm1,Tx,Ty,Tz,R00,R01,R02,R10,R11,R12,R20,R21,R22,ecm_T_psm3,Tx,Ty,Tz,R00,R01,R02,R10,R11,R12,R20,R21,R22,psm1_joints,q1,q2,q3,q4,q5,q6,jaw,psm3_joints,q1,q2,q3,q4,q5,q6,jaw,ecm_joints,q1,q2,q3,q4,ecmi_T_ecm,Tx,Ty,Tz,R00,R01,R02,R10,R11,R12,R20,R21,R22,Sample #,Task Duration (s),Collisions (binary),Collisions (increments),Cumulative Collision Time (s),Clutch Press,MTMR Angle,MTML Angle
""
lci_T_si,,,,,-0.05129452,0.048553377,0.19299848,0.991276,0.046896584,0.12317695,0.11708693,-0.74244076,-0.65960014,0.060518593,0.6682682,-0.7414547
rci_T_si,,,,,-0.059571687,0.0508194,0.20016095,0.98826504,0.02463223,0.15074971,0.12190245,-0.72187847,-0.68119836,0.092043534,0.6915813,-0.71641
ecm_T_lc,,,,,-4.4061628e-05,-0.00034663224,-0.01840835,-0.99912,0.030754527,0.028518902,-0.031987965,-0.99852574,-0.043852776,0.027128186,-0.04472645,0.9986309
ecm_T_rc,,,,,-0.0043358393,0.01870579,-0.007592615,-0.99555075,-0.052743673,-0.078081585,0.04863213,-0.9973746,0.053654674,-0.08070653,0.04961868,0.9955021
cart_T_ecmi,,,,,0.08361981,1.2907763,0.42627257,0.9937988,0.08374649,-0.07314679,0.013490307,-0.743785,-0.66828275,-0.11037182,0.6631518,-0.74030244
ecmac_T_ecmrep_psm1,,,,,0.023195708,-0.2631036,-0.30022871,0.99664557,0.07921609,0.02055357,-0.078295335,0.99603295,-0.04228661,-0.023821812,0.040535513,0.9988941
ecmac_T_ecmrep_psm3,,,,,0.022281613,-0.4507852,-0.5326207,0.99995744,0.002629678,0.008843231,-0.0032003638,0.99787027,0.06515156,-0.008653069,-0.06517708,0.9978362
""
0,14:40:51.396724,14:39:31.489338,0,,0.09483805,0.030365072,0.032033175,0.47368893,-0.18742764,-0.8605171,0.080703676,-0.96374273,0.25433597,-0.87698674,-0.18992296,-0.44138825,,0.047833666,0.006723663,0.011714697,0.49784097,-0.6281126,0.5980206,0.15205503,0.7420796,0.65283763,-0.8538347,-0.2340773,0.46494532,,0.08366135,1.2907679,0.42627734,0.9937993,0.08371726,-0.07317305,0.013451251,-0.74378836,-0.6682799,-0.11037182,0.6631518,-0.74030244,,-0.087398134,0.26065552,-0.110259056,-0.38720503,0.21185273,0.8973242,-0.5576903,-0.8288301,-0.044967685,0.7342028,-0.51784074,0.4390754,,-0.044047225,0.4103806,-0.3436045,-0.36536047,0.6176761,-0.6964108,-0.6000071,0.41571578,0.6834997,0.71169037,0.6675752,0.21872391,,1.2042211825435762,0.44904602570465835,0.21213785850000003,-1.4554578977260835,0.750134383712268,0.6898664328465058,-0.4166907127085464,,-1.2170023054504178,0.12605044597309245,0.19671719266,-0.30572793760043654,1.292034741782005,-1.3945764374402083,0.8606598844615174,,-0.06878124415953153,-0.05048146695237099,0.0911007994,-0.09256525236364105,,4.0646642e-05,1.2814999e-05,-9.536743e-07,0.99999994,-2.9101968e-05,-2.6062131e-05,2.9094517e-05,1.0,-4.3213367e-06,2.6062131e-05,4.351139e-06,1.0,35,0.104,0,0,0.0,False,-0.25636295023092304,1.0351757677272282
0.13030434399843216,14:40:51.421110,14:39:31.561806,0,,0.09496527,0.031059131,0.032400966,0.47067076,-0.19322911,-0.8608899,0.07738984,-0.962922,0.25844154,-0.87890834,-0.188265,-0.43826532,,0.04784768,0.006725749,0.011685967,0.4979031,-0.6282045,0.59787244,0.15203476,0.74195516,0.65298384,-0.8538021,-0.23422527,0.46493077,,0.08366135,1.2907679,0.42627734,0.9937993,0.08371726,-0.07317305,0.013451251,-0.74378836,-0.6682799,-0.11037182,0.6631518,-0.74030244,,-0.08756533,0.2614069,-0.110057436,-0.38399136,0.21746057,0.89736366,-0.5612191,-0.8267092,-0.039812867,0.733201,-0.5189054,0.43949223,,-0.04405666,0.4103588,-0.34358302,-0.36542583,0.6177963,-0.69626987,-0.600006,0.41553867,0.6836084,0.71165776,0.6675742,0.21883291,,1.2062985976867426,0.4521891779844677,0.21229600588000003,-1.4470702999867027,0.7472650172171938,0.6938397836269419,-0.41701740084081496,,-1.217010028183292,0.12599638684297287,0.19674700733000003,-0.305937627543921,1.292034741782005,-1.3945764374402083,0.8606598844615174,,-0.06878124415953153,-0.05048146695237099,0.0911007994,-0.09256525236364105,,4.0646642e-05,1.2814999e-05,-9.536743e-07,0.99999994,-2.9101968e-05,-2.6062131e-05,2.9094517e-05,1.0,-4.3213367e-06,2.6062131e-05,4.351139e-06,1.0,43,0.129,0,0,0.0,False,-0.2550522404234603,1.034644685518654
0.15469268895685673,14:40:51.456554,14:39:31.561806,0,,0.09509835,0.031732462,0.032777816,0.46806943,-0.1978473,-0.8612592,0.077579826,-0.96165204,0.26307175,-0.8802798,-0.1899522,-0.434771,,0.047862746,0.006727418,0.011672378,0.49783105,-0.62811035,0.59803134,0.15208358,0.74209297,0.6528159,-0.85383534,-0.23404127,0.46496224,,0.08366135,1.2907679,0.42627734,0.9937993,0.08371726,-0.07317305,0.013451251,-0.74378836,-0.6682799,-0.11037182,0.6631518,-0.74030244,,-0.08773908,0.26214853,-0.10987603,-0.381271,0.22221103,0.89735985,-0.5618095,-0.8265668,-0.034021366,0.73416793,-0.5171166,0.4399862,,-0.044069484,0.41034767,-0.34357178,-0.36535206,0.6176675,-0.6964228,-0.5999871,0.41575068,0.68349606,0.7117115,0.6675614,0.21869716,,1.2082215581724245,0.4553941121272709,0.21245156068,-1.442037741343074,0.7469917442176629,0.6949610855758809,-0.4165273686424118,,-1.2170409191147888,0.12595005044572752,0.19676515539000003,-0.30572793760043654,1.2921713782817703,-1.394606176603764,0.8604965403953831,,-0.06878124415953153,-0.05048146695237099,0.0911007994,-0.09256525236364105,,4.0646642e-05,1.2814999e-05,-9.536743e-07,0.99999994,-2.9101968e-05,-2.6062131e-05,2.9094517e-05,1.0,-4.3213367e-06,2.6062131e-05,4.351139e-06,1.0,54,0.163,0,0,0.0,False,-0.25546928445310746,1.0349343667233308
0.19015084696002305,14:40:51.481618,14:39:31.561806,0,,0.09523734,0.032385133,0.033106893,0.4649876,-0.20319569,-0.86168325,0.07686007,-0.96036434,0.2679417,-0.88197446,-0.19081864,-0.43093997,,0.047872312,0.006725779,0.011664391,0.49786103,-0.6281368,0.5979786,0.15205216,0.7420465,0.652876,-0.8538235,-0.2341176,0.4649456,,0.08366135,1.2907679,0.42627734,0.9937993,0.08371726,-0.07317305,0.013451251,-0.74378836,-0.6682799,-0.11037182,0.6631518,-0.74030244,,-0.08791394,0.26284257,-0.10967272,-0.37803462,0.22760874,0.89737624,-0.5632569,-0.82581323,-0.027823687,0.7347322,-0.51597166,0.4403882,,-0.044077583,0.4103393,-0.3435671,-0.36538184,0.6177079,-0.6963713,-0.60000384,0.41566792,0.6835317,0.71168214,0.66757554,0.21874963,,1.2099746185348734,0.4583982552153442,0.21262915241000002,-1.4357470430385384,0.7464451982186011,0.6964685808124939,-0.41571064831174076,,-1.2170640873134115,0.1259114367813564,0.19677422942000003,-0.30572793760043654,1.2921713782817703,-1.3945244978636235,0.8603331963292488,,-0.06878124415953153,-0.05048146695237099,0.0911007994,-0.09256525236364105,,4.0646642e-05,1.2814999e-05,-9.536743e-07,0.99999994,-2.9101968e-05,-2.6062131e-05,2.9094517e-05,1.0,-4.3213367e-06,2.6062131e-05,4.351139e-06,1.0,62,0.186,0,0,0.0,False,-0.2552905512975445,1.0345964053178744
0.21513679903000593,14:40:51.507123,14:39:31.561806,0,,0.0953343,0.03279333,0.03329879,0.46259043,-0.20692481,-0.86208594,0.07524446,-0.9597093,0.2707329,-0.8833733,-0.19010565,-0.42838246,,0.047872998,0.00672563,0.011660039,0.49785694,-0.6281362,0.5979826,0.15204296,0.7420459,0.6528788,-0.85382754,-0.23412123,0.4649364,,0.08366135,1.2907679,0.42627734,0.9937993,0.08371726,-0.07317305,0.013451251,-0.74378836,-0.6682799,-0.11037182,0.6631518,-0.74030244,,-0.08803195,0.26326665,-0.109534614,-0.37550178,0.2312466,0.8975096,-0.56522024,-0.8245903,-0.024019223,0.73452336,-0.5163098,0.4403404,,-0.044077568,0.4103359,-0.34356427,-0.36537674,0.6177079,-0.696374,-0.60001224,0.41566476,0.6835262,0.71167773,0.6675775,0.21875808,,1.211024910205768,0.4602285429065354,0.21274711480000003,-1.4302951045079406,0.7454887427202431,0.6986370447207582,-0.4158739923778749,,-1.2170563645805375,0.1259037140484822,0.19677811829000003,-0.30572793760043654,1.2921713782817703,-1.3945244978636235,0.8603331963292488,,-0.06878124415953153,-0.05048146695237099,0.0911007994,-0.09256525236364105,,4.0646642e-05,1.2814999e-05,-9.536743e-07,0.99999994,-2.9101968e-05,-2.6062131e-05,2.9094517e-05,1.0,-4.3213367e-06,2.6062131e-05,4.351139e-06,1.0,70,0.211,0,0,0.0,False,-0.2549926627049395,1.0345964053178744
0.2407196389976889,14:40:51.535954,14:39:31.673230,0,,0.09544578,0.03330893,0.033552885,0.46132472,-0.20945728,-0.8621526,0.07647464,-0.9587298,0.2738408,-0.8839294,-0.19226232,-0.42626765,,0.04787628,0.0067273583,0.011659026,0.4978695,-0.6281314,0.5979773,0.15204656,0.7420484,0.6528752,-0.8538196,-0.23412631,0.4649485,,0.08366135,1.2907679,0.42627734,0.9937993,0.08371726,-0.07317305,0.013451251,-0.74378836,-0.6682799,-0.11037182,0.6631518,-0.74030244,,-0.0881712,0.2638109,-0.10936958,-0.37419713,0.2339687,0.89734894,-0.5645888,-0.8251227,-0.020298257,0.73567384,-0.5142287,0.44085467,,-0.04408074,0.4103358,-0.34356213,-0.36539054,0.6177038,-0.6963704,-0.6000059,0.41566196,0.6835335,0.71167594,0.66758305,0.21874699,,1.2123532202601346,0.46266892649479036,0.21289878073000001,-1.4281982050730955,0.745762015719774,0.6987409238739276,-0.4158739923778749,,-1.2170718100462858,0.1259037140484822,0.19678071087000001,-0.30572793760043654,1.2921713782817703,-1.3945244978636235,0.8603331963292488,,-0.06878124415953153,-0.05048146695237099,0.0911007994,-0.09256525236364105,,4.0646642e-05,1.2814999e-05,-9.536743e-07,0.99999994,-2.9101968e-05,-2.6062131e-05,2.9094517e-05,1.0,-4.3213367e-06,2.6062131e-05,4.351139e-06,1.0,81,0.245,0,0,0.0,False,-0.2546351963938136,1.0349826469241103
0.26952005410566926,14:40:51.559712,14:39:31.673230,0,,0.09551961,0.033681244,0.033714175,0.45897338,-0.21247384,-0.8626692,0.076141834,-0.95800304,0.27646476,-0.8851813,-0.19257519,-0.42351976,,0.04788135,0.006728163,0.011658251,0.49789056,-0.62812114,0.5979705,0.15204456,0.7420527,0.6528707,-0.8538077,-0.23414002,0.46496344,,0.08366135,1.2907679,0.42627734,0.9937993,0.08371726,-0.07317305,0.013451251,-0.74378836,-0.6682799,-0.11037182,0.6631518,-0.74030244,,-0.08826295,0.26418957,-0.109234415,-0.37173337,0.23699605,0.8975785,-0.56550515,-0.8245801,-0.01648313,0.73621887,-0.5137126,0.44054642,,-0.04408566,0.410335,-0.34356064,-0.36541307,0.6176956,-0.69636583,-0.6000017,0.41565326,0.6835425,0.71166795,0.66759604,0.21873328,,1.2133031164036643,0.46427525493262906,0.21302581715000002,-1.424004406203405,0.7458986522195394,0.7000180445526208,-0.4153839601794722,,-1.2170949782449085,0.12589599131560797,0.19678330345000003,-0.30572793760043654,1.2921713782817703,-1.3945244978636235,0.8603331963292488,,-0.06878124415953153,-0.05048146695237099,0.0911007994,-0.09256525236364105,,4.0646642e-05,1.2814999e-05,-9.536743e-07,0.99999994,-2.9101968e-05,-2.6062131e-05,2.9094517e-05,1.0,-4.3213367e-06,2.6062131e-05,4.351139e-06,1.0,89,0.268,0,0,0.0,False,-0.25588632848275505,1.0342584439124183
0.2933080850634724,14:40:51.578943,14:39:31.673230,0,,0.09558854,0.034056626,0.03386706,0.45707238,-0.21498363,-0.8630567,0.07585406,-0.95739126,0.278654,-0.88618904,-0.19283137,-0.42128977,,0.04788179,0.0067286696,0.011657119,0.49789056,-0.62812114,0.5979705,0.15204456,0.7420527,0.6528707,-0.8538077,-0.23414002,0.46496344,,0.08366135,1.2907679,0.42627734,0.9937993,0.08371726,-0.07317305,0.013451251,-0.74378836,-0.6682799,-0.11037182,0.6631518,-0.74030244,,-0.08834906,0.2645653,-0.10909132,-0.3697418,0.2395144,0.8977326,-0.566257,-0.8241207,-0.013344838,0.7366438,-0.5132815,0.44033855,,-0.04408594,0.41033444,-0.3435595,-0.36541307,0.6176956,-0.69636583,-0.6000017,0.41565326,0.6835425,0.71166795,0.66759604,0.21873328,,1.2142684580129424,0.46587386063759356,0.21316063131000001,-1.420439677164168,0.745762015719774,0.7013546435584257,-0.4155473042456064,,-1.2170949782449085,0.12589599131560797,0.19678459974,-0.30572793760043654,1.2921713782817703,-1.3945244978636235,0.8603331963292488,,-0.06878124415953153,-0.05048146695237099,0.0911007994,-0.09256525236364105,,4.0646642e-05,1.2814999e-05,-9.536743e-07,0.99999994,-2.9101968e-05,-2.6062131e-05,2.9094517e-05,1.0,-4.3213367e-06,2.6062131e-05,4.351139e-06,1.0,93,0.28,0,0,0.0,False,-0.25582675076423333,1.0342584439124183
0.3125409430358559,14:40:51.601866,14:39:31.673230,0,,0.09567119,0.034590922,0.0340977,0.45709714,-0.21597548,-0.8627959,0.07641873,-0.9569452,0.28002855,-0.8861277,-0.19393396,-0.42091244,,0.047886055,0.0067291167,0.011658847,0.49786502,-0.62799776,0.5981213,0.15201116,0.74218583,0.6527271,-0.85382843,-0.23404887,0.46497107,,0.08366135,1.2907679,0.42627734,0.9937993,0.08371726,-0.07317305,0.013451251,-0.74378836,-0.6682799,-0.11037182,0.6631518,-0.74030244,,-0.088457465,0.2651098,-0.10889836,-0.36977646,0.24060501,0.89742666,-0.5657987,-0.8244547,-0.012091357,0.7369784,-0.512234,0.44099796,,-0.044090446,0.41033536,-0.34356004,-0.3653829,0.61755276,-0.69650835,-0.60003525,0.41578975,0.68343,0.71165514,0.6676432,0.21863092,,1.2157589454576676,0.4682601850957289,0.21333951933000003,-1.41960091739023,0.7445322872218849,0.7025207621719747,-0.41587399237787515,,-1.217110423710657,0.12588826858273372,0.19678459974,-0.305518247656952,1.2921713782817703,-1.3945244978636233,0.8600065081969803,,-0.06878124415953153,-0.05048146695237099,0.0911007994,-0.09256525236364105,,4.0646642e-05,1.2814999e-05,-9.536743e-07,0.99999994,-2.9101968e-05,-2.6062131e-05,2.9094517e-05,1.0,-4.3213367e-06,2.6062131e-05,4.351139e-06,1.0,101,0.305,0,0,0.0,False,-0.25540970673458663,1.0345481251170952
0.3354625159408897,14:40:51.627558,14:39:31.673230,0,,0.09573928,0.034999683,0.03425467,0.45536676,-0.21995959,-0.8627044,0.07365319,-0.956371,0.28271815,-0.8872522,-0.19228145,-0.41929892,,0.047884706,0.006730458,0.011657536,0.49785653,-0.6279543,0.598174,0.15201682,0.7422373,0.6526673,-0.8538324,-0.23400219,0.46498734,,0.08366135,1.2907679,0.42627734,0.9937993,0.08371726,-0.07317305,0.013451251,-0.74378836,-0.6682799,-0.11037182,0.6631518,-0.74030244,,-0.08854337,0.26551306,-0.10873597,-0.36792555,0.24440636,0.8971602,-0.56847954,-0.8226479,-0.00902599,0.7358409,-0.513338,0.44161317,,-0.044088982,0.4103355,-0.34355822,-0.3653742,0.61749995,-0.6965597,-0.60003316,0.41585153,0.68339425,0.7116614,0.66765356,0.21857902,,1.2169096326559272,0.4699205726636872,0.21348211123000002,-1.4143586688031167,0.742072830226107,0.7046079631786508,-0.4160373364440093,,-1.2171027009777828,0.12589599131560797,0.19678589603000002,-0.305518247656952,1.2921713782817703,-1.3946061766037638,0.859843164130846,,-0.06878124415953153,-0.05048146695237099,0.0911007994,-0.09256525236364105,,4.0646642e-05,1.2814999e-05,-9.536743e-07,0.99999994,-2.9101968e-05,-2.6062131e-05,2.9094517e-05,1.0,-4.3213367e-06,2.6062131e-05,4.351139e-06,1.0,112,0.339,0,0,0.0,False,-0.2551118181419816,1.0343550043139773
0.3611278759781271,14:40:51.658533,14:39:31.673230,0,,0.09585051,0.035818316,0.03463322,0.4540971,-0.22380254,-0.86238515,0.06981313,-0.9560224,0.28486362,-0.8882128,-0.18956155,-0.41850266,,0.04788453,0.006730756,0.011657476,0.49778637,-0.62795466,0.5982321,0.1521323,0.74228954,0.652581,-0.85385275,-0.23383552,0.46503386,,0.08366135,1.2907679,0.42627734,0.9937993,0.08371726,-0.07317305,0.013451251,-0.74378836,-0.6682799,-0.11037182,0.6631518,-0.74030244,,-0.088696584,0.2663652,-0.10845992,-0.3665413,0.24796557,0.89675,-0.57188123,-0.8203072,-0.0069251447,0.7338933,-0.5153728,0.4424833,,-0.04408881,0.4103357,-0.34355798,-0.3653078,0.6174715,-0.6966198,-0.5999608,0.41600838,0.6833623,0.7117564,0.66758215,0.2184876,,1.2194735799701697,0.47344213885433356,0.21372451746,-1.408067970498581,0.7368806432350203,0.7096586309205204,-0.41571064831174076,,-1.2171027009777828,0.12589599131560797,0.19678719232000003,-0.305518247656952,1.2923080147815358,-1.3947175945074604,0.859843164130846,,-0.06878124415953153,-0.05048146695237099,0.0911007994,-0.09256525236364105,,4.0646642e-05,1.2814999e-05,-9.536743e-07,0.99999994,-2.9101968e-05,-2.6062131e-05,2.9094517e-05,1.0,-4.3213367e-06,2.6062131e-05,4.351139e-06,1.0,124,0.376,0,0,0.0,False,-0.2550522404234603,1.0339204825069621
0.39211715501733124,14:40:51.687397,14:39:31.819000,0,,0.09589222,0.03622616,0.034827262,0.45264137,-0.22645634,-0.8624577,0.06913957,-0.95538896,0.28714374,-0.88900816,-0.18960312,-0.41679153,,0.04788497,0.0067312624,0.011656404,0.49778637,-0.62795466,0.5982321,0.1521323,0.74228954,0.652581,-0.85385275,-0.23383552,0.46503386,,0.08366135,1.2907679,0.42627734,0.9937993,0.08371726,-0.07317305,0.013451251,-0.74378836,-0.6682799,-0.11037182,0.6631518,-0.74030244,,-0.088759795,0.26679432,-0.10832733,-0.36501062,0.25060633,0.89664024,-0.57280916,-0.8196786,-0.004087233,0.7339325,-0.5150956,0.442741,,-0.044089094,0.41033512,-0.34355685,-0.3653078,0.6174715,-0.6966198,-0.5999608,0.41600838,0.6833623,0.7117564,0.66758215,0.2184876,,1.2207709990930393,0.4751565855524114,0.21385285017000003,-1.404922621346313,0.7357875512368969,0.7107950103705134,-0.4155473042456064,,-1.2171027009777828,0.12589599131560797,0.19678848861,-0.305518247656952,1.2923080147815358,-1.3947175945074604,0.859843164130846,,-0.06878124415953153,-0.05048146695237099,0.0911007994,-0.09256525236364105,,4.0646642e-05,1.2814999e-05,-9.536743e-07,0.99999994,-2.9101968e-05,-2.6062131e-05,2.9094517e-05,1.0,-4.3213367e-06,2.6062131e-05,4.351139e-06,1.0,132,0.399,0,0,0.0,False,-0.2552309735790237,1.0342101637116388
0.42093211505562067,14:40:51.721201,14:39:31.819000,0,,0.09597652,0.03683675,0.035146832,0.45056722,-0.23014273,-0.8625679,0.066482246,-0.9548674,0.2894966,-0.8902637,-0.18778306,-0.4149316,,0.04788675,0.0067303684,0.011656582,0.4977949,-0.6279492,0.59823066,0.1521267,0.74229145,0.65258014,-0.8538488,-0.23384422,0.46503675,,0.08366135,1.2907679,0.42627734,0.9937993,0.08371726,-0.07317305,0.013451251,-0.74378836,-0.6682799,-0.11037182,0.6631518,-0.74030244,,-0.08887901,0.26745462,-0.10814884,-0.3628057,0.25409552,0.8965531,-0.5754729,-0.81782013,-0.0010935325,0.7329413,-0.51633877,0.4429349,,-0.04409084,0.41033444,-0.34355754,-0.36531654,0.6174674,-0.69661885,-0.5999629,0.41600245,0.6833641,0.7117502,0.66758966,0.21848497,,1.2227557414417152,0.4778286511268931,0.21401488642000002,-1.3990513029287464,0.7326449117422917,0.7145011245174989,-0.4155473042456064,,-1.217110423710657,0.12588826858273372,0.19678848861,-0.305518247656952,1.2923080147815358,-1.3947175945074604,0.859843164130846,,-0.06878124415953153,-0.05048146695237099,0.0911007994,-0.09256525236364105,,4.0646642e-05,1.2814999e-05,-9.536743e-07,0.99999994,-2.9101968e-05,-2.6062131e-05,2.9094517e-05,1.0,-4.3213367e-06,2.6062131e-05,4.351139e-06,1.0,140,0.424,0,0,0.0,False,-0.2546351963938136,1.0343067241131978
0.45479603204876184,14:40:51.742463,14:39:31.819000,0,,0.096037194,0.037407078,0.03538543,0.44775343,-0.23488814,-0.8627539,0.065913975,-0.95358384,0.29382506,-0.89172435,-0.18842867,-0.4114881,,0.04788847,0.006731799,0.011656344,0.49775463,-0.6278336,0.59838545,0.15209714,0.7424215,0.65243906,-0.85387754,-0.23374188,0.46503538,,0.08366135,1.2907679,0.42627734,0.9937993,0.08371726,-0.07317305,0.013451251,-0.74378836,-0.6682799,-0.11037182,0.6631518,-0.74030244,,-0.088966586,0.26803273,-0.10793908,-0.35985976,0.25887176,0.896374,-0.5766707,-0.8169647,0.0044272617,0.73345196,-0.51531947,0.4432765,,-0.044092577,0.41033497,-0.3435562,-0.36527076,0.6173306,-0.69676405,-0.5999975,0.41614625,0.68324614,0.71174455,0.66762656,0.21839078,,1.2244933563384155,0.4801840846535316,0.21423136685000002,-1.3938090543416335,0.7319617292434645,0.7151398927761217,-0.415383960179472,,-1.217110423710657,0.12588826858273372,0.19678978490000001,-0.3053085577134675,1.2923080147815358,-1.3947175945074604,0.859843164130846,,-0.06878124415953153,-0.05048146695237099,0.0911007994,-0.09256525236364105,,4.0646642e-05,1.2814999e-05,-9.536743e-07,0.99999994,-2.9101968e-05,-2.6062131e-05,2.9094517e-05,1.0,-4.3213367e-06,2.6062131e-05,4.351139e-06,1.0,159,0.482,0,0,0.0,False,-0.25540970673458663,1.0344515647155361
0.47603460610844195,14:40:51.802629,14:39:31.819000,0,,0.09617452,0.038366757,0.03574574,0.44402832,-0.24208552,-0.8626897,0.062538326,-0.95208824,0.29936087,-0.8938276,-0.18687579,-0.40761456,,0.047887564,0.0067336466,0.01165396,0.49774608,-0.627839,0.5983869,0.15210274,0.7424196,0.6524399,-0.85388154,-0.23373315,0.46503252,,0.08366135,1.2907679,0.42627734,0.9937993,0.08371726,-0.07317305,0.013451251,-0.74378836,-0.6682799,-0.11037182,0.6631518,-0.74030244,,-0.08914503,0.2689756,-0.10755328,-0.3559245,0.26587424,0.8958955,-0.5803169,-0.8143149,0.0111132935,0.7324958,-0.5159478,0.44412592,,-0.044091396,0.41033456,-0.34355327,-0.36526203,0.6173347,-0.696765,-0.59999543,0.4161522,0.68324435,0.71175075,0.66761905,0.2183934,,1.227157699180023,0.4839759464947758,0.21459692063000002,-1.3850020767152833,0.7282725437497977,0.7184748911364874,-0.4153839601794722,,-1.2171027009777828,0.12589599131560797,0.19679237748000003,-0.3053085577134675,1.2923080147815358,-1.3947175945074604,0.859843164130846,,-0.06878124415953153,-0.05048146695237099,0.0911007994,-0.09256525236364105,,4.0646642e-05,1.2814999e-05,-9.536743e-07,0.99999994,-2.9101968e-05,-2.6062131e-05,2.9094517e-05,1.0,-4.3213367e-06,2.6062131e-05,4.351139e-06,1.0,167,0.507,0,0,0.0,False,-0.25493308498641865,1.034017042908521
0.5362070431001484,14:40:51.826078,14:39:31.968137,0,,0.09623116,0.038634576,0.035802007,0.44417354,-0.24279825,-0.86241454,0.061047673,-0.9521409,0.29950088,-0.89385855,-0.18567872,-0.40809366,,0.047888577,0.006732961,0.01165241,0.49774835,-0.62783605,0.5983882,0.15209538,0.7424202,0.6524409,-0.8538815,-0.23373932,0.46502936,,0.08366135,1.2907679,0.42627734,0.9937993,0.08371726,-0.07317305,0.013451251,-0.74378836,-0.6682799,-0.11037182,0.6631518,-0.74030244,,-0.089208774,0.26920792,-0.10741166,-0.35605535,0.2664682,0.89566696,-0.5814542,-0.81350636,0.010878691,0.7315296,-0.5169159,0.44459236,,-0.044092122,0.4103328,-0.34355274,-0.36526385,0.6173327,-0.6967659,-0.6000006,0.41614765,0.6832425,0.71174544,0.66762376,0.2183963,,1.2277523496113383,0.48503396089854456,0.21472525334000003,-1.3835342471108918,0.726222996253316,0.7202278384320743,-0.4155473042456064,,-1.2171027009777828,0.12588826858273372,0.19679367377,-0.3053085577134675,1.2923080147815358,-1.3947175945074604,0.859843164130846,,-0.06878124415953153,-0.05048146695237099,0.0911007994,-0.09256525236364105,,4.0646642e-05,1.2814999e-05,-9.536743e-07,0.99999994,-2.9101968e-05,-2.6062131e-05,2.9094517e-05,1.0,-4.3213367e-06,2.6062131e-05,4.351139e-06,1.0,175,0.53,0,0,0.0,False,-0.2551713958605024,1.0337756419046236
0.5596694538835436,14:40:51.852834,14:39:31.968137,0,,0.096284956,0.038893797,0.035850167,0.44356883,-0.24440317,-0.86227244,0.059946507,-0.95185447,0.3006319,-0.8942333,-0.18504116,-0.40756184,,0.04788737,0.006732544,0.011651814,0.49774203,-0.6278873,0.59833956,0.15209359,0.7423657,0.6525034,-0.85388553,-0.23377478,0.46500427,,0.08366135,1.2907679,0.42627734,0.9937993,0.08371726,-0.07317305,0.013451251,-0.74378836,-0.6682799,-0.11037182,0.6631518,-0.74030244,,-0.08926884,0.26942867,-0.10726998,-0.35540926,0.2680018,0.89546597,-0.58247894,-0.8127563,0.012062679,0.7310284,-0.5173029,0.4449665,,-0.04409082,0.4103323,-0.3435527,-0.36525694,0.61739165,-0.69671726,-0.6000038,0.41609323,0.6832729,0.71174634,0.6676032,0.21845639,,1.228292940912534,0.4860147479735711,0.21485877121000002,-1.3814373476760464,0.724993267755427,0.7212305995653421,-0.4155473042456064,,-1.2170949782449085,0.12588826858273372,0.19679367377,-0.3053085577134675,1.2923080147815358,-1.3946359157673196,0.8596798200647118,,-0.06878124415953153,-0.05048146695237099,0.0911007994,-0.09256525236364105,,4.0646642e-05,1.2814999e-05,-9.536743e-07,0.99999994,-2.9101968e-05,-2.6062131e-05,2.9094517e-05,1.0,-4.3213367e-06,2.6062131e-05,4.351139e-06,1.0,183,0.555,0,0,0.0,False,-0.25535012901606535,1.0342584439124183
0.5864096449222416,14:40:51.872883,14:39:31.968137,0,,0.09633976,0.03914442,0.035896063,0.44345292,-0.24525541,-0.86209005,0.05946088,-0.9516657,0.301325,-0.89432317,-0.18488401,-0.4074359,,0.047890335,0.0067357924,0.011651516,0.49777588,-0.627772,0.5984324,0.15195769,0.74244404,0.65244585,-0.85388994,-0.23383543,0.46496558,,0.08366135,1.2907679,0.42627734,0.9937993,0.08371726,-0.07317305,0.013451251,-0.74378836,-0.6682799,-0.11037182,0.6631518,-0.74030244,,-0.08932962,0.26964146,-0.10713232,-0.3552817,0.2688335,0.89526725,-0.5828912,-0.8124517,0.012648327,0.7307617,-0.5173497,0.44534993,,-0.04409387,0.41033378,-0.34354994,-0.3652826,0.61728334,-0.69679976,-0.6001023,0.41608337,0.6831924,0.7116501,0.6677094,0.21844517,,1.2287871958164844,0.4869955350485976,0.21498969650000002,-1.3803888979586239,0.7240368122570688,0.7220105248912171,-0.4155473042456064,,-1.2171027009777828,0.12589599131560797,0.19679497006000002,-0.30509886776998296,1.2921713782817703,-1.3945244978636233,0.8596798200647118,,-0.06878124415953153,-0.05048146695237099,0.0911007994,-0.09256525236364105,,4.0646642e-05,1.2814999e-05,-9.536743e-07,0.99999994,-2.9101968e-05,-2.6062131e-05,2.9094517e-05,1.0,-4.3213367e-06,2.6062131e-05,4.351139e-06,1.0,191,0.579,0,0,0.0,False,-0.25535012901606535,1.0342101637116388
0.6064766249619424,14:40:51.903009,14:39:31.968137,0,,0.096432954,0.03949686,0.035946846,0.44221464,-0.24784483,-0.8619855,0.059016824,-0.9509387,0.30369803,-0.89496547,-0.18517143,-0.40589204,,0.047890335,0.0067357924,0.011651516,0.49777588,-0.627772,0.5984324,0.15195769,0.74244404,0.65244585,-0.85388994,-0.23383543,0.46496558,,0.08366135,1.2907679,0.42627734,0.9937993,0.08371726,-0.07317305,0.013451251,-0.74378836,-0.6682799,-0.11037182,0.6631518,-0.74030244,,-0.089429826,0.2699304,-0.106927514,-0.35398397,0.27143323,0.8949968,-0.583562,-0.81192195,0.015431325,0.7308561,-0.5168237,0.44580546,,-0.04409387,0.41033378,-0.34354994,-0.3652826,0.61728334,-0.69679976,-0.6001023,0.41608337,0.6831924,0.7116501,0.6677094,0.21844517,,1.229350955316303,0.48834701330158686,0.21518802887000002,-1.377662928693325,0.7236269027577726,0.7223447786023063,-0.4155473042456064,,-1.2171027009777828,0.12589599131560797,0.19679497006000002,-0.30509886776998296,1.2921713782817703,-1.3945244978636233,0.8596798200647118,,-0.06878124415953153,-0.05048146695237099,0.0911007994,-0.09256525236364105,,4.0646642e-05,1.2814999e-05,-9.536743e-07,0.99999994,-2.9101968e-05,-2.6062131e-05,2.9094517e-05,1.0,-4.3213367e-06,2.6062131e-05,4.351139e-06,1.0,202,0.613,0,0,0.0,False,-0.2551118181419816,1.0334376804991676
0.6365691930986941,14:40:51.926429,14:39:31.968137,0,,0.09651066,0.039861538,0.035962343,0.44086477,-0.25038084,-0.8619441,0.05864501,-0.9502176,0.3060184,-0.89565563,-0.18546137,-0.40423393,,0.047891356,0.0067350175,0.011649966,0.49777812,-0.627769,0.59843373,0.15195036,0.7424447,0.65244687,-0.85388994,-0.2338416,0.46496248,,0.08366135,1.2907679,0.42627734,0.9937993,0.08371726,-0.07317305,0.013451251,-0.74378836,-0.6682799,-0.11037182,0.6631518,-0.74030244,,-0.08951129,0.270206,-0.10668943,-0.352571,0.27398014,0.8947785,-0.5842033,-0.811402,0.018255806,0.7310268,-0.5162961,0.44613695,,-0.044094596,0.41033202,-0.34354943,-0.3652844,0.6172813,-0.69680065,-0.60010755,0.4160788,0.6831906,0.7116447,0.6677142,0.21844807,,1.2299147148161211,0.4895980960272112,0.21542265736000002,-1.3749369594280263,0.7233536297582418,0.7226492931498396,-0.41571064831174054,,-1.2171027009777828,0.12588826858273372,0.19679626635000003,-0.30509886776998296,1.2921713782817703,-1.3945244978636233,0.8596798200647118,,-0.06878124415953153,-0.05048146695237099,0.0911007994,-0.09256525236364105,,4.0646642e-05,1.2814999e-05,-9.536743e-07,0.99999994,-2.9101968e-05,-2.6062131e-05,2.9094517e-05,1.0,-4.3213367e-06,2.6062131e-05,4.351139e-06,1.0,210,0.638,0,0,0.0,False,-0.2549926627049395,1.0335342409007262
0.6600027000531554,14:40:51.959602,14:39:32.091418,0,,0.09656437,0.040190198,0.03596452,0.44121724,-0.25053844,-0.86171794,0.058893055,-0.9500841,0.30638474,-0.89546573,-0.18593135,-0.40443864,,0.047890633,0.0067379978,0.011649728,0.49777368,-0.62782395,0.5983798,0.15196508,0.7423901,0.6525055,-0.85388994,-0.23386724,0.46494955,,0.08366135,1.2907679,0.42627734,0.9937993,0.08371726,-0.07317305,0.013451251,-0.74378836,-0.6682799,-0.11037182,0.6631518,-0.74030244,,-0.089567326,0.27044764,-0.10646724,-0.352942,0.27418151,0.8945705,-0.5839173,-0.8116051,0.018375473,0.73107624,-0.5158698,0.44654888,,-0.044093993,0.41033387,-0.34354705,-0.3652808,0.61734235,-0.69674844,-0.60009706,0.4160321,0.6832282,0.71165544,0.6676868,0.2184968,,1.2304630288501912,0.4907178922939738,0.21564173037000003,-1.3749369594280263,0.7226704472594145,0.7232063826683217,-0.41571064831174054,,-1.2171027009777828,0.1259037140484822,0.19679756264,-0.30509886776998296,1.2921713782817703,-1.3944428191234828,0.8595164759985775,,-0.06878124415953153,-0.05048146695237099,0.0911007994,-0.09256525236364105,,4.0646642e-05,1.2814999e-05,-9.536743e-07,0.99999994,-2.9101968e-05,-2.6062131e-05,2.9094517e-05,1.0,-4.3213367e-06,2.6062131e-05,4.351139e-06,1.0,218,0.661,0,0,0.0,False,-0.25535012901606535,1.0334376804991676
0.6931959760840982,14:40:51.981509,14:39:32.091418,0,,0.09660576,0.04040163,0.035966575,0.44053772,-0.25170025,-0.86172694,0.05892244,-0.94971454,0.3075231,-0.8957984,-0.18625048,-0.40355432,,0.047889866,0.006738117,0.011647999,0.4977674,-0.62782633,0.5983825,0.1519633,0.74238884,0.6525073,-0.8538939,-0.23386472,0.4649436,,0.08366135,1.2907679,0.42627734,0.9937993,0.08371726,-0.07317305,0.013451251,-0.74378836,-0.6682799,-0.11037182,0.6631518,-0.74030244,,-0.089610234,0.27060306,-0.106324315,-0.3522337,0.27536607,0.89448583,-0.5840695,-0.81146187,0.019810403,0.7312963,-0.515464,0.44665715,,-0.04409297,0.4103328,-0.34354585,-0.3652739,0.6173444,-0.6967502,-0.6001002,0.4160335,0.68322456,0.7116563,0.6676841,0.21850234,,1.2307796608980344,0.4914206609855282,0.21578432227000002,-1.373678819767119,0.7226704472594145,0.7233697401486028,-0.41571064831174076,,-1.2170949782449085,0.1259037140484822,0.19679885893000001,-0.30509886776998296,1.2921713782817703,-1.3944428191234828,0.8595164759985775,,-0.06878124415953153,-0.05048146695237099,0.0911007994,-0.09256525236364105,,4.0646642e-05,1.2814999e-05,-9.536743e-07,0.99999994,-2.9101968e-05,-2.6062131e-05,2.9094517e-05,1.0,-4.3213367e-06,2.6062131e-05,4.351139e-06,1.0,226,0.686,0,0,0.0,False,-0.2551713958605024,1.0332445596960498
0.715096608037129,14:40:52.007456,14:39:32.091418,0,,0.09665476,0.040678717,0.035964966,0.44046968,-0.2522355,-0.8616052,0.059518248,-0.9494042,0.3083656,-0.89579237,-0.18710697,-0.40317118,,0.04789458,0.006739041,0.011648536,0.49774188,-0.62765396,0.5985845,0.15192994,0.7425753,0.652303,-0.85391474,-0.23373562,0.46497023,,0.08366135,1.2907679,0.42627734,0.9937993,0.08371726,-0.07317305,0.013451251,-0.74378836,-0.6682799,-0.11037182,0.6631518,-0.74030244,,-0.08966085,0.27080426,-0.1061342,-0.35217085,0.2759794,0.89432156,-0.58361846,-0.8117646,0.02068261,0.73168653,-0.51465875,0.4469465,,-0.044097763,0.41033316,-0.34354526,-0.3652437,0.6171445,-0.6969431,-0.6001338,0.41622576,0.68307805,0.7116435,0.66774905,0.21834542,,1.2311966884732424,0.49235511166330936,0.21597487690000003,-1.3734691298236346,0.7226704472594145,0.7233697401486028,-0.41571064831174076,,-1.217110423710657,0.12589599131560797,0.19680015522000002,-0.3048891778264984,1.2921713782817703,-1.3945244978636235,0.8590264438001745,,-0.06878124415953153,-0.05048146695237099,0.0911007994,-0.09256525236364105,,4.0646642e-05,1.2814999e-05,-9.536743e-07,0.99999994,-2.9101968e-05,-2.6062131e-05,2.9094517e-05,1.0,-4.3213367e-06,2.6062131e-05,4.351139e-06,1.0,238,0.723,0,0,0.0,False,-0.2552905512975445,1.0319409942750042
0.7410485011059791,14:40:52.038778,14:39:32.091418,0,,0.09669325,0.040901773,0.03592992,0.4410342,-0.25181663,-0.861439,0.06030804,-0.94934636,0.3083899,-0.8954618,-0.18796211,-0.4035077,,0.047895454,0.0067400243,0.01164633,0.49774188,-0.6275562,0.598687,0.15192994,0.7426818,0.6521816,-0.85391474,-0.23365964,0.46500844,,0.08366135,1.2907679,0.42627734,0.9937993,0.08371726,-0.07317305,0.013451251,-0.74378836,-0.6682799,-0.11037182,0.6631518,-0.74030244,,-0.08969736,0.27094376,-0.10595626,-0.35277036,0.2756448,0.89418846,-0.58285147,-0.81232095,0.020464737,0.73200905,-0.5139597,0.44722274,,-0.044098325,0.41033202,-0.343543,-0.3652437,0.6170307,-0.6970439,-0.6001338,0.41633734,0.68301004,0.7116435,0.6677847,0.21823633,,1.2314438159252177,0.4930501576219896,0.21615246863,-1.3743078895975727,0.7226704472594145,0.7233697401486028,-0.41571064831174076,,-1.217110423710657,0.12589599131560797,0.1968027478,-0.3048891778264984,1.2921713782817703,-1.3946878553439046,0.8580463794033689,,-0.06878124415953153,-0.05048146695237099,0.0911007994,-0.09256525236364105,,4.0646642e-05,1.2814999e-05,-9.536743e-07,0.99999994,-2.9101968e-05,-2.6062131e-05,2.9094517e-05,1.0,-4.3213367e-06,2.6062131e-05,4.351139e-06,1.0,249,0.757,0,0,0.0,False,-0.25540970673458663,1.0309753902594152
0.7723691728897393,14:40:52.072165,14:39:32.091418,0,,0.09672959,0.041033395,0.035906315,0.44057858,-0.2521733,-0.8615678,0.06283817,-0.9487181,0.3098149,-0.8955121,-0.19063711,-0.40213883,,0.04789791,0.0067475345,0.011634231,0.49773112,-0.62761354,0.59863573,0.15194288,0.7426261,0.6522422,-0.8539187,-0.23368277,0.4649896,,0.08366135,1.2907679,0.42627734,0.9937993,0.08371726,-0.07317305,0.013451251,-0.74378836,-0.6682799,-0.11037182,0.6631518,-0.74030244,,-0.0897322,0.2710232,-0.10584821,-0.35233024,0.27625403,0.894174,-0.5809748,-0.81361204,0.02244373,0.7337109,-0.51158494,0.44715676,,-0.044099238,0.41032776,-0.3435292,-0.36523318,0.61709374,-0.6969935,-0.60012645,0.41629204,0.6830441,0.7116551,0.6677546,0.2182906,,1.2314360931923434,0.49349035339582037,0.21627172731000002,-1.3751466493715108,0.724993267755427,0.7215573145259043,-0.4155473042456064,,-1.2171027009777828,0.1259114367813564,0.19681700699000002,-0.3048891778264984,1.2921713782817703,-1.3946061766037638,0.857556347204966,,-0.06878124415953153,-0.05048146695237099,0.0911007994,-0.09256525236364105,,4.0646642e-05,1.2814999e-05,-9.536743e-07,0.99999994,-2.9101968e-05,-2.6062131e-05,2.9094517e-05,1.0,-4.3213367e-06,2.6062131e-05,4.351139e-06,1.0,257,0.781,0,0,0.0,False,-0.2552309735790237,1.0300580664446055
0.8057594739366323,14:40:52.103532,14:39:32.091418,0,,0.096744925,0.04104478,0.03587258,0.441273,-0.25096405,-0.8615655,0.065048695,-0.9486261,0.30964017,-0.8950122,-0.19267958,-0.40227824,,0.047909297,0.0067625847,0.011610866,0.49769258,-0.6273548,0.59893894,0.15192989,0.74291575,0.6519152,-0.85394347,-0.23345666,0.46505767,,0.08366135,1.2907679,0.42627734,0.9937993,0.08371726,-0.07317305,0.013451251,-0.74378836,-0.6682799,-0.11037182,0.6631518,-0.74030244,,-0.089744285,0.2710081,-0.10581458,-0.35308567,0.2752474,0.89418644,-0.57904947,-0.81498957,0.022220984,0.7348689,-0.5099322,0.44714296,,-0.0441076,0.4103189,-0.34350172,-0.36519065,0.61678815,-0.69728625,-0.60014737,0.41661087,0.6828312,0.71165925,0.6678381,0.2180214,,1.2312353021376137,0.49354441252593995,0.21631191230000002,-1.3774532387498404,0.7266329057526123,0.7202202996815473,-0.4155473042456064,,-1.217110423710657,0.12592688224710485,0.19684682166000003,-0.30467948788301386,1.2921713782817703,-1.3948512128241857,0.8560862506097576,,-0.06878124415953153,-0.05048146695237099,0.0911007994,-0.09256525236364105,,4.0646642e-05,1.2814999e-05,-9.536743e-07,0.99999994,-2.9101968e-05,-2.6062131e-05,2.9094517e-05,1.0,-4.3213367e-06,2.6062131e-05,4.351139e-06,1.0,265,0.805,0,0,0.0,False,-0.25576717304571295,1.0300580664446055
0.8371256398968399,14:40:52.125339,14:39:32.263429,0,,0.09676018,0.04100562,0.035842657,0.44070902,-0.25151166,-0.86169446,0.0661217,-0.9482412,0.31059054,-0.89521146,-0.19385666,-0.40126815,,0.04791809,0.00677385,0.011587858,0.49776047,-0.6273576,0.59887964,0.15182179,0.74286294,0.65200055,-0.8539231,-0.23361717,0.4650144,,0.08366135,1.2907679,0.42627734,0.9937993,0.08371726,-0.07317305,0.013451251,-0.74378836,-0.6682799,-0.11037182,0.6631518,-0.74030244,,-0.08975629,0.27095804,-0.10581769,-0.3525128,0.27590352,0.8942102,-0.57834613,-0.8154498,0.02360859,0.73569727,-0.50884074,0.44702423,,-0.044113256,0.41030818,-0.34347752,-0.36525515,0.6168188,-0.6972254,-0.6002145,0.4164586,0.68286514,0.71156955,0.6679048,0.21810992,,1.2309495610212673,0.4933976806013297,0.21631320859000003,-1.3774532387498404,0.7281359072500322,0.7189947027408866,-0.4155473042456064,,-1.217110423710657,0.12593460497997908,0.19687274746000002,-0.30467948788301386,1.292034741782005,-1.3947397949204894,0.8560862506097576,,-0.06878124415953153,-0.05048146695237099,0.0911007994,-0.09256525236364105,,4.0646642e-05,1.2814999e-05,-9.536743e-07,0.99999994,-2.9101968e-05,-2.6062131e-05,2.9094517e-05,1.0,-4.3213367e-06,2.6062131e-05,4.351139e-06,1.0,273,0.829,0,0,0.0,False,-0.25493308498641865,1.0298166654407082
0.8588726730085909,14:40:52.152511,14:39:32.263429,0,,0.09679523,0.040895797,0.03576511,0.43988523,-0.25205323,-0.8619571,0.06768149,-0.9477713,0.31168708,-0.89549994,-0.19544506,-0.3998513,,0.047931097,0.0067959633,0.011550307,0.4977516,-0.6273697,0.5988742,0.15185127,0.74286044,0.65199655,-0.8539231,-0.23359258,0.46502686,,0.08366135,1.2907679,0.42627734,0.9937993,0.08371726,-0.07317305,0.013451251,-0.74378836,-0.6682799,-0.11037182,0.6631518,-0.74030244,,-0.089782886,0.27082238,-0.105831586,-0.3516762,0.2765928,0.8943267,-0.5773227,-0.81612134,0.025385147,0.73690045,-0.5073878,0.44669378,,-0.04412136,0.4102934,-0.3434353,-0.36524794,0.616827,-0.6972219,-0.60019356,0.41647682,0.6828724,0.71159095,0.66788584,0.21809831,,1.2302622377954613,0.4929883757589958,0.21630283827000002,-1.3774532387498404,0.7305953642458101,0.7173158954349131,-0.41652736864241224,,-1.217110423710657,0.125965495911476,0.19691811761000003,-0.30467948788301386,1.292034741782005,-1.3947397949204894,0.8560862506097576,,-0.06878124415953153,-0.05048146695237099,0.0911007994,-0.09256525236364105,,4.0646642e-05,1.2814999e-05,-9.536743e-07,0.99999994,-2.9101968e-05,-2.6062131e-05,2.9094517e-05,1.0,-4.3213367e-06,2.6062131e-05,4.351139e-06,1.0,281,0.854,0,0,0.0,False,-0.25439688551972894,1.0302511872477231
0.8860767649021,14:40:52.175458,14:39:32.263429,0,,0.09682001,0.04078787,0.035690546,0.44147182,-0.24957195,-0.8618681,0.06810427,-0.9484483,0.3095279,-0.8946868,-0.19534466,-0.40171635,,0.047937855,0.006813517,0.011523426,0.49778083,-0.62754947,0.59866154,0.15191758,0.7426741,0.6521933,-0.8538942,-0.23370215,0.46502477,,0.08366135,1.2907679,0.42627734,0.9937993,0.08371726,-0.07317305,0.013451251,-0.74378836,-0.6682799,-0.11037182,0.6631518,-0.74030244,,-0.08979957,0.27069083,-0.10584712,-0.353337,0.27411836,0.894434,-0.5765783,-0.8167311,0.022533285,0.7366888,-0.5077494,0.44663203,,-0.044124734,0.4102843,-0.34340397,-0.36528474,0.6170311,-0.69702196,-0.60013276,0.41630006,0.6830336,0.71162325,0.6678075,0.21823254,,1.2297062010285171,0.4926408527796557,0.21627820876000003,-1.3797598281281702,0.7305953642458101,0.7178059678757566,-0.4155473042456066,,-1.217110423710657,0.1260041095758471,0.19695052486000003,-0.3048891778264984,1.292034741782005,-1.3946581161803489,0.8559229065436232,,-0.06878124415953153,-0.05048146695237099,0.0911007994,-0.09256525236364105,,4.0646642e-05,1.2814999e-05,-9.536743e-07,0.99999994,-2.9101968e-05,-2.6062131e-05,2.9094517e-05,1.0,-4.3213367e-06,2.6062131e-05,4.351139e-06,1.0,296,0.9,0,0,0.0,False,-0.2541585746456452,1.030009786243826
0.9090511330869049,14:40:52.216377,14:39:32.263429,0,,0.09689467,0.040503062,0.035568297,0.44164178,-0.24791521,-0.862259,0.069059104,-0.94882,0.30817455,-0.8945297,-0.19564962,-0.40191776,,0.047954604,0.0068545546,0.011457205,0.49790096,-0.6278162,0.5982819,0.1519405,0.7423538,0.6525526,-0.8538201,-0.23400337,0.4650094,,0.08366135,1.2907679,0.42627734,0.9937993,0.08371726,-0.07317305,0.013451251,-0.74378836,-0.6682799,-0.11037182,0.6631518,-0.74030244,,-0.089859985,0.27039272,-0.10594252,-0.35352823,0.2725016,0.89485234,-0.57577676,-0.8173263,0.02142185,0.7372238,-0.50766194,0.445848,,-0.044133015,0.41026047,-0.3433284,-0.365416,0.6173579,-0.69666374,-0.60008144,0.4159071,0.683318,0.7115992,0.66775036,0.21848592,,1.2283470000426535,0.4917681839648683,0.21617191298000002,-1.3805985879021083,0.7326449117422917,0.7177682741231215,-0.4152206161133378,,-1.2171027009777828,0.12608905963746356,0.19702830226,-0.3053085577134675,1.2918981052822394,-1.3945466982766521,0.8562495946758919,,-0.06878124415953153,-0.05048146695237099,0.0911007994,-0.09256525236364105,,4.0646642e-05,1.2814999e-05,-9.536743e-07,0.99999994,-2.9101968e-05,-2.6062131e-05,2.9094517e-05,1.0,-4.3213367e-06,2.6062131e-05,4.351139e-06,1.0,304,0.925,0,0,0.0,False,-0.2543373078012081,1.0289476218266778
0.9498865879140794,14:40:52.245407,14:39:32.263429,0,,0.09696467,0.040222086,0.035512984,0.44226936,-0.24614011,-0.8624458,0.070094764,-0.949177,0.30683815,-0.894139,-0.19615793,-0.40253884,,0.0479625,0.006881496,0.011412621,0.49795136,-0.62778324,0.5982746,0.15205503,0.7424061,0.6524664,-0.8537704,-0.23392591,0.46513975,,0.08366135,1.2907679,0.42627734,0.9937993,0.08371726,-0.07317305,0.013451251,-0.74378836,-0.6682799,-0.11037182,0.6631518,-0.74030244,,-0.089922294,0.27014238,-0.10608521,-0.3541981,0.2707866,0.895108,-0.5747916,-0.8180547,0.020029029,0.73767084,-0.50740635,0.44539928,,-0.044135224,0.41024446,-0.34327823,-0.3654794,0.6173106,-0.69667244,-0.5999766,0.41599357,0.6833575,0.711655,0.6677402,0.21833481,,1.2271963128443941,0.4910731380061881,0.21601895076000002,-1.3820664175065,0.734284549739477,0.7174930829005918,-0.4153839601794722,,-1.2170872555120342,0.12615084150045736,0.19708015386000002,-0.30572793760043654,1.2918981052822394,-1.3950367707174955,0.8549428421468176,,-0.06878124415953153,-0.05048146695237099,0.0911007994,-0.09256525236364105,,4.0646642e-05,1.2814999e-05,-9.536743e-07,0.99999994,-2.9101968e-05,-2.6062131e-05,2.9094517e-05,1.0,-4.3213367e-06,2.6062131e-05,4.351139e-06,1.0,312,0.948,0,0,0.0,False,-0.2543373078012081,1.0278854574095297
0.9789999930653721,14:40:52.272712,14:39:32.401363,0,,0.09703435,0.039910264,0.035458535,0.44339454,-0.24412432,-0.86244106,0.07107052,-0.94959027,0.3053314,-0.8935045,-0.19667637,-0.40369314,,0.047992405,0.006918242,0.011381924,0.49888214,-0.6265359,0.59880656,0.14949086,0.7427809,0.65263236,-0.8536797,-0.23607063,0.4642215,,0.08366135,1.2907679,0.42627734,0.9937993,0.08371726,-0.07317305,0.013451251,-0.74378836,-0.6682799,-0.11037182,0.6631518,-0.74030244,,-0.089984134,0.26986971,-0.10624919,-0.35538638,0.26883346,0.8952257,-0.5737234,-0.8188482,0.018141037,0.7379309,-0.50716484,0.44524354,,-0.04416183,0.41024187,-0.3432285,-0.36627877,0.61639625,-0.6970621,-0.6017521,0.4144822,0.68271434,0.70974237,0.6695224,0.2191017,,1.225983843783141,0.4903085874516399,0.21584265532000002,-1.3841633169413452,0.7356509147371314,0.7169506550446115,-0.41456723984880073,,-1.2170872555120342,0.12622806882919962,0.19710737595000002,-0.30342134822210676,1.2891653752869305,-1.3928084126435671,0.854616154014549,,-0.06878124415953153,-0.05048146695237099,0.0911007994,-0.09256525236364105,,4.0646642e-05,1.2814999e-05,-9.536743e-07,0.99999994,-2.9101968e-05,-2.6062131e-05,2.9094517e-05,1.0,-4.3213367e-06,2.6062131e-05,4.351139e-06,1.0,324,0.985,0,0,0.0,False,-0.2545756186752919,1.0275474960040736
1.0062524620443583,14:40:52.304024,14:39:32.401363,0,,0.097115785,0.039524026,0.035434842,0.4432963,-0.24301423,-0.86280495,0.072138965,-0.94975483,0.3045681,-0.89346766,-0.19725573,-0.4034921,,0.04800614,0.006949445,0.011343896,0.49919042,-0.6253565,0.5997817,0.14880896,0.7437829,0.6516462,-0.8536186,-0.23604268,0.46434796,,0.08366135,1.2907679,0.42627734,0.9937993,0.08371726,-0.07317305,0.013451251,-0.74378836,-0.6682799,-0.11037182,0.6631518,-0.74030244,,-0.09006011,0.2695615,-0.106485,-0.35529986,0.26778582,0.895574,-0.5728988,-0.8194342,0.017733892,0.7386129,-0.5067724,0.44455907,,-0.04417104,0.4102326,-0.34317908,-0.366557,0.6151767,-0.69799256,-0.60220635,0.4149893,0.6820054,0.70921326,0.6703294,0.21834609,,1.2246014745986546,0.48938958223960716,0.21559765651,-1.3847923867717988,0.7379737352331439,0.7163634105240213,-0.4148939279810693,,-1.2170795327791601,0.12630529615794187,0.19715015352,-0.3030019683351377,1.288345556288338,-1.3937734800242,0.8536360896177434,,-0.06878124415953153,-0.05048146695237099,0.0911007994,-0.09256525236364105,,4.0646642e-05,1.2814999e-05,-9.536743e-07,0.99999994,-2.9101968e-05,-2.6062131e-05,2.9094517e-05,1.0,-4.3213367e-06,2.6062131e-05,4.351139e-06,1.0,332,1.009,0,0,0.0,False,-0.2549926627049395,1.0271612543978381
1.0375950660090894,14:40:52.327052,14:39:32.401363,0,,0.097169966,0.039266057,0.035428762,0.44329578,-0.24149069,-0.8632329,0.07302949,-0.9500947,0.30329317,-0.8933955,-0.19749,-0.40353706,,0.04801187,0.0069672074,0.011312723,0.49953154,-0.62541103,0.5994407,0.14844832,0.743521,0.65202725,-0.8534819,-0.23672223,0.4642535,,0.08366135,1.2907679,0.42627734,0.9937993,0.08371726,-0.07317305,0.013451251,-0.74378836,-0.6682799,-0.11037182,0.6631518,-0.74030244,,-0.09011158,0.26936215,-0.106649734,-0.35531273,0.26629457,0.89601344,-0.5721896,-0.8199495,0.016787505,0.7391562,-0.5067248,0.4437095,,-0.04417274,0.41022068,-0.34314483,-0.36689618,0.61535037,-0.69766116,-0.60239697,0.4143258,0.6822405,0.70887595,0.6705804,0.21867062,,1.2236979148523706,0.4888026545411661,0.21542784252000002,-1.3854214566022525,0.739613373230329,0.7166599704824757,-0.4155473042456066,,-1.2170718100462858,0.1263516325551872,0.19718126448,-0.30342134822210676,1.287799010289276,-1.3936545233699764,0.8533094014854747,,-0.06878124415953153,-0.05048146695237099,0.0911007994,-0.09256525236364105,,4.0646642e-05,1.2814999e-05,-9.536743e-07,0.99999994,-2.9101968e-05,-2.6062131e-05,2.9094517e-05,1.0,-4.3213367e-06,2.6062131e-05,4.351139e-06,1.0,340,1.034,0,0,0.0,False,-0.254218152364166,1.0268715731931612
1.0606060700956732,14:40:52.355220,14:39:32.401363,0,,0.09726903,0.03877931,0.03542602,0.4435932,-0.239352,-0.8636756,0.07453805,-0.9504867,0.30169368,-0.89312327,-0.19820592,-0.40378866,,0.048018396,0.0069973078,0.011276722,0.49949473,-0.6253514,0.59953356,0.14852583,0.7436185,0.65189844,-0.85349,-0.23657364,0.46431434,,0.08366135,1.2907679,0.42627734,0.9937993,0.08371726,-0.07317305,0.013451251,-0.74378836,-0.6682799,-0.11037182,0.6631518,-0.74030244,,-0.090206414,0.26899204,-0.106967166,-0.35564595,0.26423806,0.8964899,-0.5709092,-0.82086754,0.015463535,0.7399856,-0.5063148,0.44279417,,-0.044175107,0.4102133,-0.3430981,-0.36686262,0.6152633,-0.69775563,-0.6023458,0.41449034,0.68218565,0.70893675,0.67055863,0.21854028,,1.2220375272844122,0.48771374920590044,0.21509988115000003,-1.386889286206644,0.742346103225638,0.7162285446916393,-0.41571064831174076,,-1.2170563645805375,0.12643658261680368,0.19722663463,-0.30342134822210676,1.287799010289276,-1.3938178808502575,0.8529827133532062,,-0.06878124415953153,-0.05048146695237099,0.0911007994,-0.09256525236364105,,4.0646642e-05,1.2814999e-05,-9.536743e-07,0.99999994,-2.9101968e-05,-2.6062131e-05,2.9094517e-05,1.0,-4.3213367e-06,2.6062131e-05,4.351139e-06,1.0,352,1.071,0,0,0.0,True,-0.25356279746043464,1.0270646939962789
1.0887961210682988,14:40:52.388895,14:39:32.401363,0,,0.097396836,0.038088284,0.035372257,0.44515836,-0.23376763,-0.86439955,0.07683614,-0.95179,0.29697138,-0.8921492,-0.19861642,-0.40573552,,0.048025727,0.007024428,0.011247158,0.49947268,-0.62533283,0.5995713,0.14859957,0.7436657,0.6518277,-0.85349005,-0.23647413,0.4643649,,0.08366135,1.2907679,0.42627734,0.9937993,0.08371726,-0.07317305,0.013451251,-0.74378836,-0.6682799,-0.11037182,0.6631518,-0.74030244,,-0.09032345,0.26843432,-0.10738184,-0.3573145,0.25872907,0.8974328,-0.56866395,-0.82250017,0.010711496,0.74091,-0.5065103,0.44102114,,-0.04417912,0.41020852,-0.34305778,-0.36684465,0.615227,-0.69779706,-0.60229367,0.4145918,0.68217003,0.7089904,0.6705292,0.21845654,,1.2196125891619056,0.4860533616379422,0.21466951287000002,-1.3906637051893656,0.745762015719774,0.7170369616654135,-0.4152206161133378,,-1.2170563645805375,0.12651380994554592,0.19726552333000003,-0.30342134822210676,1.287799010289276,-1.393899559590398,0.8528193692870719,,-0.06878124415953153,-0.05048146695237099,0.0911007994,-0.09256525236364105,,4.0646642e-05,1.2814999e-05,-9.536743e-07,0.99999994,-2.9101968e-05,-2.6062131e-05,2.9094517e-05,1.0,-4.3213367e-06,2.6062131e-05,4.351139e-06,1.0,360,1.096,0,0,0.0,True,-0.2533840643048717,1.0299132258422672
1.1224909389857203,14:40:52.415218,14:39:32.549464,0,,0.09747633,0.037766136,0.035297066,0.445293,-0.23216578,-0.8647619,0.07747167,-0.9521872,0.29552972,-0.8920271,-0.1985918,-0.40601605,,0.04802448,0.007040551,0.011236429,0.4994938,-0.6254758,0.5994045,0.14869586,0.7435306,0.65195996,-0.85346097,-0.236521,0.46439457,,0.08366135,1.2907679,0.42627734,0.9937993,0.08371726,-0.07317305,0.013451251,-0.74378836,-0.6682799,-0.11037182,0.6631518,-0.74030244,,-0.09039297,0.26813945,-0.10753675,-0.35746488,0.25713527,0.8978309,-0.56812024,-0.82289094,0.009479774,0.7412545,-0.5066872,0.4402384,,-0.044177044,0.41021153,-0.3430387,-0.36687505,0.6153823,-0.6976441,-0.60221165,0.4144894,0.6823047,0.70904434,0.67045,0.21852458,,1.2182688336417906,0.48518069282315485,0.21450488404,-1.3912927750198192,0.7475382902167248,0.7172221037201715,-0.4148939279810693,,-1.2170563645805375,0.12658331454141394,0.19728107881,-0.3036310381655913,1.287799010289276,-1.393899559590398,0.8528193692870719,,-0.06878124415953153,-0.05048146695237099,0.0911007994,-0.09256525236364105,,4.0646642e-05,1.2814999e-05,-9.536743e-07,0.99999994,-2.9101968e-05,-2.6062131e-05,2.9094517e-05,1.0,-4.3213367e-06,2.6062131e-05,4.351139e-06,1.0,368,1.121,0,0,0.0,True,-0.25344364202339253,1.0351757677272282
1.1488086830358952,14:40:52.439006,14:39:32.549464,0,,0.09757963,0.03738544,0.035104483,0.44669136,-0.22908555,-0.8648622,0.077887386,-0.9530363,0.29266912,-0.8912915,-0.19809458,-0.4078703,,0.048023283,0.0070459154,0.011232495,0.49948087,-0.6254874,0.59940326,0.14871618,0.74352753,0.65195876,-0.85346496,-0.23650004,0.4643979,,0.08366135,1.2907679,0.42627734,0.9937993,0.08371726,-0.07317305,0.013451251,-0.74378836,-0.6682799,-0.11037182,0.6631518,-0.74030244,,-0.09047441,0.2677213,-0.107642494,-0.35893077,0.25402758,0.89813066,-0.5674195,-0.82340604,0.0061277174,0.74108285,-0.50741744,0.43968597,,-0.044175528,0.4102124,-0.3430322,-0.36686274,0.6153906,-0.6976433,-0.60219914,0.4145045,0.6823065,0.7090613,0.67043304,0.21852143,,1.2163999322862282,0.4839682237619016,0.21438044020000002,-1.3933896744546643,0.7489046552143791,0.717659820745878,-0.41505727204720344,,-1.2170486418476631,0.1266064827400366,0.19728626397000001,-0.3036310381655913,1.287799010289276,-1.393899559590398,0.8528193692870719,,-0.06878124415953153,-0.05048146695237099,0.0911007994,-0.09256525236364105,,4.0646642e-05,1.2814999e-05,-9.536743e-07,0.99999994,-2.9101968e-05,-2.6062131e-05,2.9094517e-05,1.0,-4.3213367e-06,2.6062131e-05,4.351139e-06,1.0,401,1.222,0,0,0.0,True,-0.2536819528974772,1.0333894002983879
1.1725808109622449,14:40:52.530636,14:39:32.549464,0,,0.09775929,0.03702063,0.034851,0.44719154,-0.22886783,-0.8646614,0.07608375,-0.95347154,0.29172453,-0.8911964,-0.19624335,-0.4089713,,0.04806094,0.006999648,0.011236191,0.49957934,-0.62558174,0.59922266,0.14873737,0.743401,0.65209824,-0.8534037,-0.236648,0.46443528,,0.08358218,1.2907733,0.4262687,0.99379855,0.08376116,-0.0731336,0.013509918,-0.7437834,-0.6682842,-0.11037182,0.6631518,-0.74030244,,-0.090555884,0.26728207,-0.10769786,-0.35942888,0.2536908,0.89802665,-0.56875074,-0.8224964,0.0047151777,0.7398199,-0.50905854,0.4399158,,-0.044137698,0.41019535,-0.34307435,-0.36697197,0.61546904,-0.6975166,-0.60217565,0.4143489,0.6824218,0.7090247,0.6704572,0.21856603,,1.214469249067672,0.48270941830340297,0.21430525538000003,-1.3925509146807262,0.7490412917141446,0.7179567965428844,-0.41522061611333805,,-1.2170331963819148,0.1266064827400366,0.19729533800000001,-0.3038407281090758,1.287799010289276,-1.393899559590398,0.8528193692870719,,-0.06878124415953153,-0.05048146695237099,0.0911007994,-0.09256525236364105,,-3.700331e-05,-3.516674e-06,7.6293945e-06,1.0,1.4603138e-05,1.30832195e-05,-1.4610589e-05,1.0,2.1755695e-06,-1.309067e-05,-2.1457672e-06,1.0,409,1.247,0,0,0.0,True,-0.25356279746043464,1.0279820178110888
1.2642313679680228,14:40:52.561756,14:39:32.708389,0,,0.09772085,0.037091695,0.03492607,0.447076,-0.22870706,-0.86476374,0.07676116,-0.953385,0.29182994,-0.8911963,-0.19685033,-0.40867978,,0.04806094,0.006999648,0.011236191,0.49957934,-0.62558174,0.59922266,0.14873737,0.743401,0.65209824,-0.8534037,-0.236648,0.46443528,,0.08358218,1.2907733,0.4262687,0.99379855,0.08376116,-0.0731336,0.013509918,-0.7437834,-0.6682842,-0.11037182,0.6631518,-0.74030244,,-0.09052541,0.26738754,-0.10770831,-0.35931882,0.25358889,0.8980995,-0.5682397,-0.8228479,0.004994847,0.7402659,-0.508541,0.43976402,,-0.044137698,0.41019535,-0.34307435,-0.36697197,0.61546904,-0.6975166,-0.60217565,0.4143489,0.6824218,0.7090247,0.6704572,0.21856603,,1.214978949437371,0.4829951594197493,0.21430395909000002,-1.3929702945676954,0.7491779282139099,0.717845378639188,-0.41522061611333805,,-1.2170331963819148,0.1266064827400366,0.19729533800000001,-0.3038407281090758,1.287799010289276,-1.393899559590398,0.8528193692870719,,-0.06878124415953153,-0.05048146695237099,0.0911007994,-0.09256525236364105,,-3.700331e-05,-3.516674e-06,7.6293945e-06,1.0,1.4603138e-05,1.30832195e-05,-1.4610589e-05,1.0,2.1755695e-06,-1.309067e-05,-2.1457672e-06,1.0,417,1.272,0,0,0.0,True,-0.2532649088678296,1.0270164137954993
1.2953299980144948,14:40:52.589574,14:39:32.708389,0,,0.09766559,0.037164323,0.03500639,0.4466428,-0.22888738,-0.8649398,0.07730031,-0.9532373,0.29217008,-0.8913669,-0.19735563,-0.40806353,,0.04806259,0.0070005124,0.011235714,0.49958563,-0.62557936,0.59922,0.14873916,0.74340224,0.6520964,-0.85339963,-0.23665051,0.4644413,,0.08358218,1.2907733,0.4262687,0.99379855,0.08376116,-0.0731336,0.013509918,-0.7437834,-0.6682842,-0.11037182,0.6631518,-0.74030244,,-0.0904787,0.26749885,-0.107722774,-0.35887507,0.25381616,0.8982127,-0.5679228,-0.8230623,0.0056703654,0.74072427,-0.5080805,0.4395245,,-0.04413929,0.4101953,-0.34307325,-0.36697888,0.61546695,-0.6975148,-0.6021725,0.41434753,0.6824254,0.70902383,0.6704599,0.21856049,,1.2155813226015606,0.48323456413885024,0.21430136651,-1.3929702945676954,0.7493145647136754,0.7177339607354914,-0.41522061611333805,,-1.2170409191147888,0.1266064827400366,0.19729663429000002,-0.3038407281090758,1.287799010289276,-1.393899559590398,0.8528193692870719,,-0.06878124415953153,-0.05048146695237099,0.0911007994,-0.09256525236364105,,-3.700331e-05,-3.516674e-06,7.6293945e-06,1.0,1.4603138e-05,1.30832195e-05,-1.4610589e-05,1.0,2.1755695e-06,-1.309067e-05,-2.1457672e-06,1.0,425,1.296,0,0,0.0,True,-0.2539202637715605,1.0259059691775718
1.3231082579586655,14:40:52.610647,14:39:32.708389,0,,0.097644284,0.0371835,0.03502898,0.44651344,-0.22884606,-0.86501753,0.07742068,-0.95323426,0.29214814,-0.8914213,-0.19741812,-0.40791452,,0.048062004,0.0070003336,0.011234045,0.49964908,-0.6255814,0.59916496,0.14862168,0.74334836,0.6521846,-0.85338295,-0.2368145,0.46438834,,0.08358218,1.2907733,0.4262687,0.99379855,0.08376116,-0.0731336,0.013509918,-0.7437834,-0.6682842,-0.11037182,0.6631518,-0.74030244,,-0.090459816,0.26752964,-0.107728034,-0.35874194,0.25378105,0.8982758,-0.56786054,-0.8231046,0.0057588015,0.74083644,-0.50802946,0.4393944,,-0.044138435,0.41019404,-0.34307232,-0.36703798,0.6154974,-0.69745684,-0.6022478,0.41419187,0.68245345,0.7089293,0.6705282,0.21865779,,1.2157743909234162,0.48328090053609557,0.21430007022000003,-1.3929702945676954,0.7493145647136754,0.717815639475632,-0.41505727204720366,,-1.2170331963819148,0.1266064827400366,0.19729663429000002,-0.3038407281090758,1.2876623737895108,-1.3937881416867017,0.8528193692870719,,-0.06878124415953153,-0.05048146695237099,0.0911007994,-0.09256525236364105,,-3.700331e-05,-3.516674e-06,7.6293945e-06,1.0,1.4603138e-05,1.30832195e-05,-1.4610589e-05,1.0,2.1755695e-06,-1.309067e-05,-2.1457672e-06,1.0,433,1.321,0,0,0.0,True,-0.25439688551972894,1.026437051386146
1.344227080931887,14:40:52.641093,14:39:32.708389,0,,0.09760721,0.0371904,0.035041645,0.44632807,-0.22883907,-0.86511505,0.07749462,-0.9532341,0.29212898,-0.8915076,-0.197427,-0.4077214,,0.04806249,0.0070037013,0.011234283,0.49965093,-0.625585,0.59915966,0.14863822,0.74334836,0.6521808,-0.853379,-0.23680472,0.4644006,,0.08358218,1.2907733,0.4262687,0.99379855,0.08376116,-0.0731336,0.013509918,-0.7437834,-0.6682842,-0.11037182,0.6631518,-0.74030244,,-0.09042419,0.2675458,-0.10773525,-0.35854962,0.25377494,0.8983543,-0.56785023,-0.8231109,0.005880122,0.7409374,-0.50802237,0.43923226,,-0.044139136,0.4101964,-0.34306997,-0.3670413,0.6154995,-0.69745326,-0.6022342,0.41419965,0.6824607,0.70893914,0.6705215,0.21864644,,1.2159829047110202,0.4832191186731018,0.21429877393000002,-1.3929702945676954,0.7493145647136754,0.717815639475632,-0.41505727204720366,,-1.2170409191147888,0.12662192820578505,0.19729793058000003,-0.3038407281090758,1.2876623737895108,-1.3937881416867017,0.8528193692870719,,-0.06878124415953153,-0.05048146695237099,0.0911007994,-0.09256525236364105,,-3.700331e-05,-3.516674e-06,7.6293945e-06,1.0,1.4603138e-05,1.30832195e-05,-1.4610589e-05,1.0,2.1755695e-06,-1.309067e-05,-2.1457672e-06,1.0,441,1.345,0,0,0.0,True,-0.2536223751789555,1.0269198533939408
1.3746852399781346,14:40:52.661940,14:39:32.708389,0,,0.09761223,0.037179567,0.035032496,0.44636562,-0.22882089,-0.86510044,0.0774402,-0.95324945,0.29209325,-0.89149356,-0.19737384,-0.40777794,,0.04806249,0.0070037013,0.011234283,0.49965093,-0.6255361,0.5992107,0.14863822,0.74340165,0.65212005,-0.853379,-0.23676679,0.4644199,,0.08358218,1.2907733,0.4262687,0.99379855,0.08376116,-0.0731336,0.013509918,-0.7437834,-0.6682842,-0.11037182,0.6631518,-0.74030244,,-0.09042823,0.2675313,-0.10773542,-0.358588,0.25375184,0.8983455,-0.56788385,-0.82308817,0.0058149104,0.74089307,-0.50807077,0.43925112,,-0.044139136,0.4101964,-0.34306997,-0.3670413,0.6154425,-0.69750357,-0.6022342,0.41425538,0.68242687,0.70893914,0.6705393,0.21859168,,1.2159134001151521,0.48318050500873067,0.21429747764,-1.3929702945676954,0.7493145647136754,0.717815639475632,-0.41505727204720366,,-1.2170409191147888,0.12662192820578505,0.19729793058000003,-0.3038407281090758,1.2876623737895108,-1.3938698204268425,0.8526560252209376,,-0.06878124415953153,-0.05048146695237099,0.0911007994,-0.09256525236364105,,-3.700331e-05,-3.516674e-06,7.6293945e-06,1.0,1.4603138e-05,1.30832195e-05,-1.4610589e-05,1.0,2.1755695e-06,-1.309067e-05,-2.1457672e-06,1.0,449,1.371,0,0,0.0,True,-0.254694774112334,1.0268232929923817
1.3955323570407927,14:40:52.689841,14:39:32.814465,0,,0.09763226,0.0371638,0.03501694,0.44648078,-0.22880171,-0.86504614,0.07734695,-0.95326793,0.29205754,-0.8914441,-0.19730672,-0.40791872,,0.04806128,0.007003284,0.011233687,0.49964467,-0.6255385,0.59921336,0.1486364,0.74340034,0.6521219,-0.853383,-0.23676428,0.4644139,,0.08358218,1.2907733,0.4262687,0.99379855,0.08376116,-0.0731336,0.013509918,-0.7437834,-0.6682842,-0.11037182,0.6631518,-0.74030244,,-0.09044655,0.26750782,-0.10773314,-0.35870668,0.2537264,0.8983053,-0.56792814,-0.8230585,0.005690752,0.7408017,-0.50813156,0.43933493,,-0.044137828,0.4101959,-0.34306994,-0.3670344,0.61544454,-0.69750535,-0.60223734,0.41425675,0.6824233,0.70894,0.6705366,0.21859722,,1.2157512227247935,0.483157336810108,0.21429618135000003,-1.3929702945676954,0.7493145647136754,0.717815639475632,-0.41505727204720366,,-1.2170331963819148,0.12662192820578505,0.19729793058000003,-0.3038407281090758,1.2876623737895108,-1.3938698204268425,0.8526560252209376,,-0.06878124415953153,-0.05048146695237099,0.0911007994,-0.09256525236364105,,-3.700331e-05,-3.516674e-06,7.6293945e-06,1.0,1.4603138e-05,1.30832195e-05,-1.4610589e-05,1.0,2.1755695e-06,-1.309067e-05,-2.1457672e-06,1.0,478,1.46,0,0,0.0,True,-0.25558843989015,1.0266784523900434
1.4234202769584954,14:40:52.772131,14:39:32.814465,0,,0.097665936,0.03714738,0.035000995,0.44665906,-0.2285797,-0.86501276,0.07724205,-0.9533528,0.2918083,-0.89136386,-0.19715405,-0.40816775,,0.048063505,0.0070029562,0.011232793,0.49965313,-0.62553304,0.5992121,0.14863083,0.74340224,0.65212107,-0.853379,-0.23677295,0.46441686,,0.08358218,1.2907733,0.4262687,0.99379855,0.08376116,-0.0731336,0.013509918,-0.7437834,-0.6682842,-0.11037182,0.6631518,-0.74030244,,-0.090478405,0.26748267,-0.10773009,-0.35889113,0.25349125,0.898298,-0.5679651,-0.82303536,0.005337462,0.74068403,-0.50828636,0.43935427,,-0.044139862,0.41019464,-0.34306946,-0.3670431,0.6154404,-0.69750446,-0.60223943,0.41425082,0.6824251,0.7089338,0.6705441,0.21859458,,1.215527263471441,0.48317278227585647,0.21429358877000002,-1.3929702945676954,0.7493145647136754,0.7180606756960536,-0.4152206161133378,,-1.2170409191147888,0.12661420547291083,0.19729922687,-0.3038407281090758,1.2876623737895108,-1.3938698204268425,0.8526560252209376,,-0.06878124415953153,-0.05048146695237099,0.0911007994,-0.09256525236364105,,-3.700331e-05,-3.516674e-06,7.6293945e-06,1.0,1.4603138e-05,1.30832195e-05,-1.4610589e-05,1.0,2.1755695e-06,-1.309067e-05,-2.1457672e-06,1.0,482,1.472,0,0,0.0,True,-0.254694774112334,1.0260025295791309
1.5057263080962002,14:40:52.791233,14:39:32.814465,0,,0.09765953,0.037149273,0.035003558,0.44662628,-0.22857967,-0.8650297,0.0772576,-0.9533518,0.2918074,-0.8913789,-0.19715884,-0.4081325,,0.048063945,0.007003433,0.011231661,0.49965313,-0.62553304,0.5992121,0.14863083,0.74340224,0.65212107,-0.853379,-0.23677295,0.46441686,,0.08358218,1.2907733,0.4262687,0.99379855,0.08376116,-0.0731336,0.013509918,-0.7437834,-0.6682842,-0.11037182,0.6631518,-0.74030244,,-0.09047228,0.2674862,-0.10773113,-0.35885715,0.2534917,0.8983115,-0.5679613,-0.8230378,0.0053614858,0.7407034,-0.5082821,0.43932647,,-0.044140145,0.41019407,-0.34306833,-0.3670431,0.6154404,-0.69750446,-0.60223943,0.41425082,0.6824251,0.7089338,0.6705441,0.21859458,,1.215565877135812,0.4831650595429822,0.21429358877000002,-1.3929702945676954,0.7493145647136754,0.7180606756960536,-0.4152206161133378,,-1.2170409191147888,0.12661420547291083,0.19730052316000002,-0.3038407281090758,1.2876623737895108,-1.3938698204268425,0.8526560252209376,,-0.06878124415953153,-0.05048146695237099,0.0911007994,-0.09256525236364105,,-3.700331e-05,-3.516674e-06,7.6293945e-06,1.0,1.4603138e-05,1.30832195e-05,-1.4610589e-05,1.0,2.1755695e-06,-1.309067e-05,-2.1457672e-06,1.0,490,1.497,0,0,0.0,True,-0.2561246393568388,1.0263887711853665
1.5248299150262028,14:40:52.821255,14:39:32.942100,0,,0.09765069,0.037155382,0.035010383,0.44657603,-0.22858712,-0.8650537,0.077296436,-0.95334446,0.29182118,-0.8914007,-0.19718578,-0.40807188,,0.048063945,0.007003433,0.011231661,0.49965313,-0.62553304,0.5992121,0.14863083,0.74340224,0.65212107,-0.853379,-0.23677295,0.46441686,,0.08358218,1.2907733,0.4262687,0.99379855,0.08376116,-0.0731336,0.013509918,-0.7437834,-0.6682842,-0.11037182,0.6631518,-0.74030244,,-0.0904642,0.26749593,-0.10773269,-0.35880533,0.25350165,0.8983294,-0.56794345,-0.8230498,0.005413773,0.74074215,-0.5082578,0.43928927,,-0.044140145,0.41019407,-0.34306833,-0.3670431,0.6154404,-0.69750446,-0.60223943,0.41425082,0.6824251,0.7089338,0.6705441,0.21859458,,1.21563538173168,0.48317278227585647,0.21429358877000002,-1.3929702945676954,0.7493145647136754,0.7180606756960536,-0.4152206161133378,,-1.2170409191147888,0.12661420547291083,0.19730052316000002,-0.3038407281090758,1.2876623737895108,-1.3938698204268425,0.8526560252209376,,-0.06878124415953153,-0.05048146695237099,0.0911007994,-0.09256525236364105,,-3.700331e-05,-3.516674e-06,7.6293945e-06,1.0,1.4603138e-05,1.30832195e-05,-1.4610589e-05,1.0,2.1755695e-06,-1.309067e-05,-2.1457672e-06,1.0,502,1.534,0,0,0.0,True,-0.25493308498641865,1.027402655401735
1.5548449871130288,14:40:52.852745,14:39:32.942100,0,,0.09765202,0.037151746,0.035006747,0.4465875,-0.22858019,-0.8650496,0.077277035,-0.9533502,0.29180744,-0.89139664,-0.19716594,-0.40809035,,0.04806216,0.0070042675,0.011231482,0.49964467,-0.6255385,0.59921336,0.1486364,0.74340034,0.6521219,-0.853383,-0.23676428,0.4644139,,0.08358218,1.2907733,0.4262687,0.99379855,0.08376116,-0.0731336,0.013509918,-0.7437834,-0.6682842,-0.11037182,0.6631518,-0.74030244,,-0.09046514,0.2674907,-0.107732356,-0.358817,0.2534929,0.8983272,-0.567956,-0.8230413,0.0053909607,0.74072695,-0.5082759,0.439294,,-0.044138394,0.41019475,-0.34306768,-0.3670344,0.61544454,-0.69750535,-0.60223734,0.41425675,0.6824233,0.70894,0.6705366,0.21859722,,1.2156122135330574,0.483157336810108,0.21429358877000002,-1.3929702945676954,0.7493145647136754,0.7180606756960536,-0.4152206161133378,,-1.2170331963819148,0.12662192820578505,0.19730052316000002,-0.3038407281090758,1.2876623737895108,-1.3938698204268425,0.8526560252209376,,-0.06878124415953153,-0.05048146695237099,0.0911007994,-0.09256525236364105,,-3.700331e-05,-3.516674e-06,7.6293945e-06,1.0,1.4603138e-05,1.30832195e-05,-1.4610589e-05,1.0,2.1755695e-06,-1.309067e-05,-2.1457672e-06,1.0,510,1.558,0,0,0.0,True,-0.2550522404234603,1.0276440564056324
1.5863138630520552,14:40:52.879756,14:39:32.942100,0,,0.0976561,0.037153192,0.03500946,0.4466029,-0.22858769,-0.8650397,0.07728475,-0.9533449,0.291823,-0.8913882,-0.19718328,-0.4081003,,0.048063945,0.007003433,0.011231661,0.49965313,-0.62553304,0.5992121,0.14863083,0.74340224,0.65212107,-0.853379,-0.23677295,0.46441686,,0.08358218,1.2907733,0.4262687,0.99379855,0.08376116,-0.0731336,0.013509918,-0.7437834,-0.6682842,-0.11037182,0.6631518,-0.74030244,,-0.09046948,0.2674933,-0.10773312,-0.3588332,0.25350198,0.8983182,-0.5679457,-0.82304835,0.0053952,0.74072695,-0.50825995,0.43931243,,-0.044140145,0.41019407,-0.34306833,-0.3670431,0.6154404,-0.69750446,-0.60223943,0.41425082,0.6824251,0.7089338,0.6705441,0.21859458,,1.215604490800183,0.48318050500873067,0.21429229248000004,-1.3929702945676954,0.7493145647136754,0.7180606756960536,-0.4152206161133378,,-1.2170409191147888,0.12661420547291083,0.19730052316000002,-0.3038407281090758,1.2876623737895108,-1.3938698204268425,0.8526560252209376,,-0.06878124415953153,-0.05048146695237099,0.0911007994,-0.09256525236364105,,-3.700331e-05,-3.516674e-06,7.6293945e-06,1.0,1.4603138e-05,1.30832195e-05,-1.4610589e-05,1.0,2.1755695e-06,-1.309067e-05,-2.1457672e-06,1.0,518,1.583,0,0,0.0,True,-0.2549926627049395,1.0272095345986172
1.6133234009612352,14:40:52.906158,14:39:32.942100,0,,0.097659364,0.03715148,0.035007462,0.4466207,-0.22858608,-0.8650309,0.07727313,-0.9533466,0.29182023,-0.8913803,-0.19717649,-0.4081208,,0.048063945,0.007003433,0.011231661,0.49965313,-0.62553304,0.5992121,0.14863083,0.74340224,0.65212107,-0.853379,-0.23677295,0.46441686,,0.08358218,1.2907733,0.4262687,0.99379855,0.08376116,-0.0731336,0.013509918,-0.7437834,-0.6682842,-0.11037182,0.6631518,-0.74030244,,-0.09047252,0.26749048,-0.107732564,-0.35885158,0.25349975,0.89831144,-0.5679503,-0.82304525,0.0053788475,0.7407145,-0.5082661,0.43932635,,-0.044140145,0.41019407,-0.34306833,-0.3670431,0.6154404,-0.69750446,-0.60223943,0.41425082,0.6824251,0.7089338,0.6705441,0.21859458,,1.2155813226015606,0.48318050500873067,0.21429229248000004,-1.3929702945676954,0.7493145647136754,0.7180606756960536,-0.4152206161133378,,-1.2170409191147888,0.12661420547291083,0.19730052316000002,-0.3038407281090758,1.2876623737895108,-1.3938698204268425,0.8526560252209376,,-0.06878124415953153,-0.05048146695237099,0.0911007994,-0.09256525236364105,,-3.700331e-05,-3.516674e-06,7.6293945e-06,1.0,1.4603138e-05,1.30832195e-05,-1.4610589e-05,1.0,2.1755695e-06,-1.309067e-05,-2.1457672e-06,1.0,526,1.609,0,0,0.0,True,-0.25481392954937654,1.0265818919884844
1.6397464640904218,14:40:52.928592,14:39:32.942100,0,,0.09765731,0.037151106,0.035007343,0.4466116,-0.22858395,-0.86503613,0.0772731,-0.95334804,0.29181567,-0.8913849,-0.19717222,-0.40811297,,0.048063803,0.0070051616,0.011230946,0.49965093,-0.6255361,0.5992107,0.14863822,0.74340165,0.65212005,-0.853379,-0.23676679,0.4644199,,0.08358218,1.2907733,0.4262687,0.99379855,0.08376116,-0.0731336,0.013509918,-0.7437834,-0.6682842,-0.11037182,0.6631518,-0.74030244,,-0.090470456,0.26749024,-0.10773286,-0.3588421,0.2534972,0.8983159,-0.56795275,-0.8230436,0.005381068,0.74071723,-0.50827,0.43931714,,-0.04413998,0.4101947,-0.34306657,-0.3670413,0.6154425,-0.69750357,-0.6022342,0.41425538,0.68242687,0.70893914,0.6705393,0.21859168,,1.2155890453344347,0.48317278227585647,0.21429229248000004,-1.3929702945676954,0.7493145647136754,0.7180606756960536,-0.4152206161133378,,-1.2170409191147888,0.12662192820578505,0.19730181945000003,-0.3038407281090758,1.2876623737895108,-1.3938698204268425,0.8526560252209376,,-0.06878124415953153,-0.05048146695237099,0.0911007994,-0.09256525236364105,,-3.700331e-05,-3.516674e-06,7.6293945e-06,1.0,1.4603138e-05,1.30832195e-05,-1.4610589e-05,1.0,2.1755695e-06,-1.309067e-05,-2.1457672e-06,1.0,551,1.685,0,0,0.0,True,-0.2545756186752919,1.0266784523900434
1.6621692089829594,14:40:53.000014,14:39:33.101843,0,,0.09765412,0.03715194,0.035010293,0.44659382,-0.22858554,-0.86504495,0.07728475,-0.9533462,0.2918184,-0.89139277,-0.19717902,-0.40809244,,0.048062596,0.007004804,0.01123035,0.49964467,-0.6255385,0.59921336,0.1486364,0.74340034,0.6521219,-0.853383,-0.23676428,0.4644139,,0.08358218,1.2907733,0.4262687,0.99379855,0.08376116,-0.0731336,0.013509918,-0.7437834,-0.6682842,-0.11037182,0.6631518,-0.74030244,,-0.09046758,0.26749307,-0.1077347,-0.35882372,0.25349945,0.89832264,-0.5679481,-0.8230467,0.005397421,0.7407297,-0.5082639,0.4393032,,-0.044138674,0.4101942,-0.3430665,-0.3670344,0.61544454,-0.69750535,-0.60223734,0.41425675,0.6824233,0.70894,0.6705366,0.21859722,,1.2156122135330574,0.48317278227585647,0.21429099619000003,-1.3929702945676954,0.7493145647136754,0.7180606756960536,-0.4152206161133378,,-1.2170331963819148,0.12662192820578505,0.19730181945000003,-0.3038407281090758,1.2876623737895108,-1.3938698204268425,0.8526560252209376,,-0.06878124415953153,-0.05048146695237099,0.0911007994,-0.09256525236364105,,-3.700331e-05,-3.516674e-06,7.6293945e-06,1.0,1.4603138e-05,1.30832195e-05,-1.4610589e-05,1.0,2.1755695e-06,-1.309067e-05,-2.1457672e-06,1.0,559,1.71,0,0,0.0,True,-0.25546928445310746,1.026630172189264
1.733609109884128,14:40:53.027256,14:39:33.101843,0,,0.09765315,0.037150986,0.03500949,0.4465907,-0.22858287,-0.8650472,0.07728088,-0.9533483,0.29181293,-0.89139473,-0.19717246,-0.4080914,,0.048062596,0.007004804,0.01123035,0.49964467,-0.6255385,0.59921336,0.1486364,0.74340034,0.6521219,-0.853383,-0.23676428,0.4644139,,0.08358218,1.2907733,0.4262687,0.99379855,0.08376116,-0.0731336,0.013509918,-0.7437834,-0.6682842,-0.11037182,0.6631518,-0.74030244,,-0.09046653,0.26749188,-0.107734814,-0.35882038,0.25349617,0.8983249,-0.56795204,-0.823044,0.0053941905,0.7407283,-0.5082699,0.4392986,,-0.044138674,0.4101942,-0.3430665,-0.3670344,0.61544454,-0.69750535,-0.60223734,0.41425675,0.6824233,0.70894,0.6705366,0.21859722,,1.2156122135330574,0.4831650595429822,0.21429099619000003,-1.3929702945676954,0.7493145647136754,0.7180606756960536,-0.4152206161133378,,-1.2170331963819148,0.12662192820578505,0.19730181945000003,-0.3038407281090758,1.2876623737895108,-1.3938698204268425,0.8526560252209376,,-0.06878124415953153,-0.05048146695237099,0.0911007994,-0.09256525236364105,,-3.700331e-05,-3.516674e-06,7.6293945e-06,1.0,1.4603138e-05,1.30832195e-05,-1.4610589e-05,1.0,2.1755695e-06,-1.309067e-05,-2.1457672e-06,1.0,567,1.734,0,0,0.0,True,-0.25558843989015,1.026630172189264
1.7608430311083794,14:40:53.054297,14:39:33.101843,0,,0.09765424,0.037150405,0.035008833,0.44659662,-0.22858235,-0.8650443,0.077276975,-0.95334876,0.291812,-0.8913921,-0.1971702,-0.40809822,,0.048063803,0.0070051616,0.011230946,0.49965093,-0.6255361,0.5992107,0.14863822,0.74340165,0.65212005,-0.853379,-0.23676679,0.4644199,,0.08358218,1.2907733,0.4262687,0.99379855,0.08376116,-0.0731336,0.013509918,-0.7437834,-0.6682842,-0.11037182,0.6631518,-0.74030244,,-0.09046754,0.26749092,-0.10773463,-0.3588265,0.25349542,0.89832264,-0.5679536,-0.8230429,0.00538874,0.74072415,-0.50827193,0.43930325,,-0.04413998,0.4101947,-0.34306657,-0.3670413,0.6154425,-0.69750357,-0.6022342,0.41425538,0.68242687,0.70893914,0.6705393,0.21859168,,1.215604490800183,0.4831650595429822,0.21429099619000003,-1.3929702945676954,0.7493145647136754,0.7180606756960536,-0.4152206161133378,,-1.2170409191147888,0.12662192820578505,0.19730181945000003,-0.3038407281090758,1.2876623737895108,-1.3938698204268425,0.8526560252209376,,-0.06878124415953153,-0.05048146695237099,0.0911007994,-0.09256525236364105,,-3.700331e-05,-3.516674e-06,7.6293945e-06,1.0,1.4603138e-05,1.30832195e-05,-1.4610589e-05,1.0,2.1755695e-06,-1.309067e-05,-2.1457672e-06,1.0,575,1.759,0,0,0.0,True,-0.2559459062012759,1.0271129741970584
1.7878939670044929,14:40:53.077972,14:39:33.101843,0,,0.09765643,0.037149258,0.035007462,0.44660848,-0.22858128,-0.8650385,0.07726923,-0.95335007,0.29181015,-0.89138687,-0.19716561,-0.40811196,,0.048062596,0.007004804,0.01123035,0.49964467,-0.6255385,0.59921336,0.1486364,0.74340034,0.6521219,-0.853383,-0.23676428,0.4644139,,0.08358218,1.2907733,0.4262687,0.99379855,0.08376116,-0.0731336,0.013509918,-0.7437834,-0.6682842,-0.11037182,0.6631518,-0.74030244,,-0.09046957,0.26748902,-0.107734255,-0.35883877,0.25349393,0.8983182,-0.5679567,-0.8230409,0.0053778384,0.74071586,-0.50827605,0.43931255,,-0.044138674,0.4101942,-0.3430665,-0.3670344,0.61544454,-0.69750535,-0.60223734,0.41425675,0.6824233,0.70894,0.6705366,0.21859722,,1.2155890453344347,0.4831650595429822,0.21429099619000003,-1.3929702945676954,0.7493145647136754,0.7180606756960536,-0.4152206161133378,,-1.2170331963819148,0.12662192820578505,0.19730181945000003,-0.3038407281090758,1.2876623737895108,-1.3938698204268425,0.8526560252209376,,-0.06878124415953153,-0.05048146695237099,0.0911007994,-0.09256525236364105,,-3.700331e-05,-3.516674e-06,7.6293945e-06,1.0,1.4603138e-05,1.30832195e-05,-1.4610589e-05,1.0,2.1755695e-06,-1.309067e-05,-2.1457672e-06,1.0,583,1.784,0,0,0.0,True,-0.25535012901606535,1.0270646939962789
1.8115393770858645,14:40:53.107559,14:39:33.241805,0,,0.09765643,0.037149258,0.035007462,0.44660848,-0.22858128,-0.8650385,0.07726923,-0.95335007,0.29181015,-0.89138687,-0.19716561,-0.40811196,,0.048064433,0.007006771,0.011231959,0.499655,-0.6255367,0.59920675,0.1486474,0.7434023,0.65211725,-0.85337496,-0.23676312,0.46442908,,0.08358218,1.2907733,0.4262687,0.99379855,0.08376116,-0.0731336,0.013509918,-0.7437834,-0.6682842,-0.11037182,0.6631518,-0.74030244,,-0.09046957,0.26748902,-0.107734255,-0.35883877,0.25349393,0.8983182,-0.5679567,-0.8230409,0.0053778384,0.74071586,-0.50827605,0.43931255,,-0.044140846,0.41019642,-0.343066,-0.36704642,0.6154425,-0.6975009,-0.6022258,0.41425857,0.68243235,0.7089436,0.67053735,0.21858323,,1.2155890453344347,0.4831650595429822,0.21429099619000003,-1.3929702945676954,0.7493145647136754,0.7180606756960536,-0.4152206161133378,,-1.2170486418476631,0.12662965093865927,0.19730181945000003,-0.3038407281090758,1.2876623737895108,-1.3938698204268425,0.8526560252209376,,-0.06878124415953153,-0.05048146695237099,0.0911007994,-0.09256525236364105,,-3.700331e-05,-3.516674e-06,7.6293945e-06,1.0,1.4603138e-05,1.30832195e-05,-1.4610589e-05,1.0,2.1755695e-06,-1.309067e-05,-2.1457672e-06,1.0,599,1.834,0,0,0.0,True,-0.25540970673458663,1.0271129741970584
1.8411528840661049,14:40:53.145787,14:39:33.241805,0,,0.09765194,0.037153073,0.035011634,0.446582,-0.22858661,-0.86505073,0.07729253,-0.95334506,0.29182023,-0.8913981,-0.19718355,-0.4080787,,0.04806201,0.0070060557,0.011230707,0.49964243,-0.6255415,0.59921205,0.14864379,0.7433998,0.6521209,-0.853383,-0.23675814,0.46441704,,0.08358218,1.2907733,0.4262687,0.99379855,0.08376116,-0.0731336,0.013509918,-0.7437834,-0.6682842,-0.11037182,0.6631518,-0.74030244,,-0.090465546,0.26749495,-0.107735075,-0.35881147,0.25350094,0.8983271,-0.567945,-0.8230488,0.0054083224,0.74073803,-0.50825983,0.4392939,,-0.04413823,0.4101954,-0.3430659,-0.3670326,0.6154466,-0.69750446,-0.6022321,0.41426134,0.6824251,0.7089454,0.67053187,0.21859431,,1.2156276589988058,0.48317278227585647,0.21429099619000003,-1.3929702945676954,0.7493145647136754,0.7180606756960536,-0.4152206161133378,,-1.2170331963819148,0.12662965093865927,0.19730181945000003,-0.3038407281090758,1.2876623737895108,-1.3938698204268425,0.8526560252209376,,-0.06878124415953153,-0.05048146695237099,0.0911007994,-0.09256525236364105,,-3.700331e-05,-3.516674e-06,7.6293945e-06,1.0,1.4603138e-05,1.30832195e-05,-1.4610589e-05,1.0,2.1755695e-06,-1.309067e-05,-2.1457672e-06,1.0,628,1.923,0,0,0.0,True,-0.25540970673458663,1.0270164137954993
1.87937265005894,14:40:53.235395,14:39:33.368561,0,,0.09765835,0.03715118,0.0350091,0.44661477,-0.22858661,-0.8650338,0.077277035,-0.953346,0.29182115,-0.891383,-0.19717875,-0.40811396,,0.048061874,0.007007784,0.011229992,0.49964026,-0.6255446,0.59921074,0.14865121,0.7433992,0.65211993,-0.853383,-0.236752,0.4644202,,0.08358218,1.2907733,0.4262687,0.99379855,0.08376116,-0.0731336,0.013509918,-0.7437834,-0.6682842,-0.11037182,0.6631518,-0.74030244,,-0.09047167,0.2674914,-0.10773403,-0.35884547,0.2535005,0.89831364,-0.56794876,-0.82304627,0.0053842985,0.74071866,-0.508264,0.43932173,,-0.044138066,0.41019604,-0.34306413,-0.3670308,0.6154487,-0.6975036,-0.6022269,0.4142659,0.6824269,0.70895076,0.67052716,0.21859142,,1.2155890453344347,0.48318050500873067,0.21429099619000003,-1.3929702945676954,0.7493145647136754,0.7180606756960536,-0.4152206161133378,,-1.2170331963819148,0.12663737367153352,0.19730311574,-0.3038407281090758,1.2876623737895108,-1.3938698204268425,0.8526560252209376,,-0.06878124415953153,-0.05048146695237099,0.0911007994,-0.09256525236364105,,-3.700331e-05,-3.516674e-06,7.6293945e-06,1.0,1.4603138e-05,1.30832195e-05,-1.4610589e-05,1.0,2.1755695e-06,-1.309067e-05,-2.1457672e-06,1.0,636,1.947,0,0,0.0,True,-0.2550522404234603,1.028464819818883
1.9689802259672433,14:40:53.266881,14:39:33.368561,0,,0.0976553,0.037150495,0.03501059,0.44659975,-0.228585,-0.865042,0.07728088,-0.95334685,0.2918175,-0.89139014,-0.1971767,-0.40809926,,0.04806245,0.0070065027,0.011229634,0.49964243,-0.6255415,0.59921205,0.14864379,0.7433998,0.6521209,-0.853383,-0.23675814,0.46441704,,0.08358218,1.2907733,0.4262687,0.99379855,0.08376116,-0.0731336,0.013509918,-0.7437834,-0.6682842,-0.11037182,0.6631518,-0.74030244,,-0.09046876,0.2674921,-0.107735805,-0.35882986,0.2534987,0.8983204,-0.56794965,-0.8230457,0.00539197,0.7407256,-0.508266,0.43930784,,-0.044138514,0.41019484,-0.34306476,-0.3670326,0.6154466,-0.69750446,-0.6022321,0.41426134,0.6824251,0.7089454,0.67053187,0.21859431,,1.215604490800183,0.48317278227585647,0.21428969990000002,-1.3929702945676954,0.7493145647136754,0.7180606756960536,-0.4152206161133378,,-1.2170331963819148,0.12662965093865927,0.19730311574,-0.3038407281090758,1.2876623737895108,-1.3938698204268425,0.8526560252209376,,-0.06878124415953153,-0.05048146695237099,0.0911007994,-0.09256525236364105,,-3.700331e-05,-3.516674e-06,7.6293945e-06,1.0,1.4603138e-05,1.30832195e-05,-1.4610589e-05,1.0,2.1755695e-06,-1.309067e-05,-2.1457672e-06,1.0,644,1.972,0,0,0.0,True,-0.2550522404234603,1.0282716990157654
2.000447740079835,14:40:53.293021,14:39:33.368561,0,,0.09765476,0.03715115,0.035010144,0.44666228,-0.22852932,-0.8650244,0.07716903,-0.95338565,0.29172012,-0.8913685,-0.19705334,-0.40820608,,0.04806308,0.007008112,0.011230588,0.49964654,-0.6254932,0.59925914,0.14865294,0.7434537,0.65205735,-0.853379,-0.23671657,0.46444553,,0.08358218,1.2907733,0.4262687,0.99379855,0.08376116,-0.0731336,0.013509918,-0.7437834,-0.6682842,-0.11037182,0.6631518,-0.74030244,,-0.09046819,0.26749232,-0.10773507,-0.35889336,0.25343162,0.89831394,-0.5680226,-0.8229962,0.005247279,0.7406388,-0.50837946,0.43932277,,-0.044139374,0.41019654,-0.3430642,-0.3670377,0.61538965,-0.6975521,-0.60222375,0.41432026,0.6823967,0.70894986,0.6705477,0.2185311,,1.2156122135330574,0.48317278227585647,0.21428969990000002,-1.3929702945676954,0.7491779282139099,0.7181720935997501,-0.4152206161133378,,-1.2170409191147888,0.12663737367153352,0.19730311574,-0.3038407281090758,1.2876623737895108,-1.393951499166983,0.8524926811548034,,-0.06878124415953153,-0.05048146695237099,0.0911007994,-0.09256525236364105,,-3.700331e-05,-3.516674e-06,7.6293945e-06,1.0,1.4603138e-05,1.30832195e-05,-1.4610589e-05,1.0,2.1755695e-06,-1.309067e-05,-2.1457672e-06,1.0,652,1.997,0,0,0.0,True,-0.25576717304571295,1.0283682594173245
2.026579068042338,14:40:53.317666,14:39:33.368561,0,,0.09765203,0.03715221,0.035012588,0.446582,-0.22858661,-0.86505073,0.07729253,-0.95334506,0.29182023,-0.8913981,-0.19718355,-0.4080787,,0.04806308,0.007008112,0.011230588,0.49964654,-0.6254443,0.5993102,0.14865294,0.743507,0.6519966,-0.853379,-0.23667859,0.46446487,,0.08358218,1.2907733,0.4262687,0.99379855,0.08376116,-0.0731336,0.013509918,-0.7437834,-0.6682842,-0.11037182,0.6631518,-0.74030244,,-0.09046572,0.26749495,-0.107736364,-0.35881147,0.25350094,0.8983271,-0.567945,-0.8230488,0.0054083224,0.74073803,-0.50825983,0.4392939,,-0.044139374,0.41019654,-0.3430642,-0.3670377,0.61533266,-0.69760233,-0.60222375,0.41437602,0.68236285,0.70894986,0.6705656,0.21847634,,1.2156276589988058,0.48317278227585647,0.21428969990000002,-1.3929702945676954,0.7493145647136754,0.7180606756960536,-0.4152206161133378,,-1.2170409191147888,0.12663737367153352,0.19730311574,-0.3038407281090758,1.2876623737895108,-1.3940331779071236,0.8523293370886691,,-0.06878124415953153,-0.05048146695237099,0.0911007994,-0.09256525236364105,,-3.700331e-05,-3.516674e-06,7.6293945e-06,1.0,1.4603138e-05,1.30832195e-05,-1.4610589e-05,1.0,2.1755695e-06,-1.309067e-05,-2.1457672e-06,1.0,664,2.033,0,0,0.0,True,-0.2546351963938136,1.029092462429016
2.0512144630774856,14:40:53.356785,14:39:33.368561,0,,0.097654074,0.037152596,0.035012737,0.44659105,-0.22858876,-0.86504555,0.0772925,-0.95334363,0.29182482,-0.8913935,-0.19718781,-0.40808657,,0.04806308,0.007008112,0.011230588,0.49964654,-0.6254443,0.5993102,0.14865294,0.743507,0.6519966,-0.853379,-0.23667859,0.46446487,,0.08358218,1.2907733,0.4262687,0.99379855,0.08376116,-0.0731336,0.013509918,-0.7437834,-0.6682842,-0.11037182,0.6631518,-0.74030244,,-0.09046778,0.2674952,-0.10773606,-0.35882095,0.25350347,0.89832264,-0.5679426,-0.8230504,0.0054061017,0.74073523,-0.50825584,0.43930313,,-0.044139374,0.41019654,-0.3430642,-0.3670377,0.61533266,-0.69760233,-0.60222375,0.41437602,0.68236285,0.70894986,0.6705656,0.21847634,,1.2156199362659317,0.48318050500873067,0.21428969990000002,-1.3929702945676954,0.7493145647136754,0.7180606756960536,-0.4152206161133378,,-1.2170409191147888,0.12663737367153352,0.19730311574,-0.3038407281090758,1.2876623737895108,-1.3940331779071236,0.8523293370886691,,-0.06878124415953153,-0.05048146695237099,0.0911007994,-0.09256525236364105,,-3.700331e-05,-3.516674e-06,7.6293945e-06,1.0,1.4603138e-05,1.30832195e-05,-1.4610589e-05,1.0,2.1755695e-06,-1.309067e-05,-2.1457672e-06,1.0,697,2.136,0,0,0.0,True,-0.2543373078012081,1.0278854574095297
2.0903773540630937,14:40:53.447043,14:39:33.518803,0,,0.097655416,0.03714896,0.0350091,0.44660252,-0.2285818,-0.86504143,0.07727313,-0.9533494,0.2918111,-0.8913895,-0.19716793,-0.40810508,,0.048064724,0.007007546,0.011228085,0.49971846,-0.6254408,0.5992539,0.14852995,0.74345493,0.65208405,-0.85335827,-0.23685126,0.46441483,,0.08358218,1.2907733,0.4262687,0.99379855,0.08376116,-0.0731336,0.013509918,-0.7437834,-0.6682842,-0.11037182,0.6631518,-0.74030244,,-0.09046873,0.26748997,-0.10773573,-0.35883263,0.25349468,0.89832044,-0.56795514,-0.8230419,0.005383289,0.74072003,-0.50827396,0.4393079,,-0.04414056,0.41019404,-0.3430628,-0.3671055,0.61535895,-0.69754344,-0.60230106,0.4142144,0.6823927,0.708849,0.6706413,0.21857099,,1.215596768067309,0.4831650595429822,0.21428969990000002,-1.3929702945676954,0.7493145647136754,0.7180606756960536,-0.4152206161133378,,-1.2170409191147888,0.12662965093865927,0.19730441203000001,-0.3038407281090758,1.2875257372897455,-1.3939217600034273,0.8523293370886691,,-0.06878124415953153,-0.05048146695237099,0.0911007994,-0.09256525236364105,,-3.700331e-05,-3.516674e-06,7.6293945e-06,1.0,1.4603138e-05,1.30832195e-05,-1.4610589e-05,1.0,2.1755695e-06,-1.309067e-05,-2.1457672e-06,1.0,701,2.148,0,0,0.0,False,-0.25427773008268684,1.0261956503822487
2.1806395079474896,14:40:53.471894,14:39:33.518803,0,,0.097623855,0.03714115,0.035020158,0.4476556,-0.22598591,-0.8651791,0.08150214,-0.9532001,0.2911474,-0.8904841,-0.20084763,-0.40828708,,0.04809092,0.0070286756,0.0112403035,0.49900475,-0.62329286,0.60207987,0.14785394,0.745809,0.6495445,-0.85389316,-0.23510596,0.4643186,,0.08358218,1.2907733,0.4262687,0.99379855,0.08376116,-0.0731336,0.013509918,-0.7437834,-0.6682842,-0.11037182,0.6631518,-0.74030244,,-0.09043832,0.26749375,-0.10775127,-0.35999897,0.25126588,0.89847994,-0.5642864,-0.8255653,0.0047790073,0.7429546,-0.5052796,0.43898857,,-0.044169407,0.41021305,-0.3430534,-0.36628282,0.61284524,-0.700184,-0.60303366,0.41673067,0.68021023,0.7086517,0.67138386,0.21692502,,1.2156122135330574,0.4831959504744791,0.21429618135000003,-1.3975834733243548,0.7521839312087497,0.7156392209782882,-0.41505727204720366,,-1.2170409191147888,0.12663737367153352,0.19730959719000002,-0.2998566191828698,1.2873891007899798,-1.39372866335959,0.8524926811548034,,-0.06878124415953153,-0.05048146695237099,0.0911007994,-0.09256525236364105,,-3.700331e-05,-3.516674e-06,7.6293945e-06,1.0,1.4603138e-05,1.30832195e-05,-1.4610589e-05,1.0,2.1755695e-06,-1.309067e-05,-2.1457672e-06,1.0,713,2.185,0,0,0.0,False,-0.2537415306159976,1.0247955245596445
2.2054627400357276,14:40:53.505506,14:39:33.518803,0,,0.09756993,0.037222244,0.035008892,0.4453863,-0.2179586,-0.8684038,0.09212881,-0.95361173,0.2865956,-0.890586,-0.20765069,-0.40464535,,0.048125923,0.0070573455,0.011256039,0.49761367,-0.6194451,0.60718066,0.14703152,0.75010943,0.64476156,-0.8548464,-0.23156744,0.4643427,,0.08358218,1.2907733,0.4262687,0.99379855,0.08376116,-0.0731336,0.013509918,-0.7437834,-0.6682842,-0.11037182,0.6631518,-0.74030244,,-0.09038415,0.26755023,-0.107692204,-0.35780764,0.24393746,0.90137017,-0.5563066,-0.83096725,0.004053029,0.7499978,-0.499988,0.43303046,,-0.044207882,0.41023833,-0.34304014,-0.36471897,0.6082734,-0.7049706,-0.6040676,0.4215953,0.6762837,0.7085777,0.6725034,0.21367446,,1.2156122135330574,0.4833504051319636,0.21442581035000002,-1.402825721911468,0.7622950321913923,0.7164606362603554,-0.41456723984880073,,-1.2169868599846694,0.12662965093865927,0.19731996751000003,-0.2933562309348496,1.2875257372897455,-1.3942484749639894,0.851675960824132,,-0.06878124415953153,-0.05048146695237099,0.0911007994,-0.09256525236364105,,-3.700331e-05,-3.516674e-06,7.6293945e-06,1.0,1.4603138e-05,1.30832195e-05,-1.4610589e-05,1.0,2.1755695e-06,-1.309067e-05,-2.1457672e-06,1.0,721,2.21,0,0,0.0,False,-0.2550522404234603,1.0244575631541881
2.2391022169031203,14:40:53.531385,14:39:33.665181,0,,0.09754062,0.037472375,0.03484474,0.4422641,-0.20608744,-0.8728863,0.100189686,-0.9557985,0.27642584,-0.89127135,-0.20970735,-0.4020676,,0.04815453,0.0070837205,0.011268556,0.49634674,-0.6160592,0.6116461,0.14616266,0.753806,0.6406348,-0.85573155,-0.22857717,0.46419406,,0.08358218,1.2907733,0.4262687,0.99379855,0.08376116,-0.0731336,0.013509918,-0.7437834,-0.6682842,-0.11037182,0.6631518,-0.74030244,,-0.09034092,0.26762858,-0.107405216,-0.3546924,0.23233712,0.905656,-0.5505603,-0.8347941,-0.001464027,0.7556961,-0.49913752,0.42401072,,-0.04423942,0.41026065,-0.34302685,-0.36328584,0.6042742,-0.70913756,-0.6051012,0.4257274,0.672762,0.708432,0.6735049,0.21098635,,1.215596768067309,0.4836207007825615,0.21477062349000003,-1.404922621346313,0.7707664951768496,0.7253167230783061,-0.4153839601794722,,-1.2169096326559272,0.12662965093865927,0.19732904154000003,-0.2872752225737984,1.2875257372897455,-1.3942484749639894,0.851675960824132,,-0.06878124415953153,-0.05048146695237099,0.0911007994,-0.09256525236364105,,-3.700331e-05,-3.516674e-06,7.6293945e-06,1.0,1.4603138e-05,1.30832195e-05,-1.4610589e-05,1.0,2.1755695e-06,-1.309067e-05,-2.1457672e-06,1.0,733,2.246,0,0,0.0,False,-0.254218152364166,1.0246024037565267
2.264944066060707,14:40:53.571568,14:39:33.665181,0,,0.09753668,0.03779418,0.03466831,0.4378021,-0.19300368,-0.878111,0.10769886,-0.9583957,0.26434544,-0.89259756,-0.21030247,-0.39880148,,0.048178338,0.0071094995,0.011283278,0.4947748,-0.6122996,0.61667407,0.14543864,0.75795394,0.6358878,-0.8567646,-0.22493303,0.46406865,,0.08358218,1.2907733,0.4262687,0.99379855,0.08376116,-0.0731336,0.013509918,-0.7437834,-0.6682842,-0.11037182,0.6631518,-0.74030244,,-0.09032227,0.26775017,-0.10705942,-0.35017768,0.21939147,0.9106278,-0.54555666,-0.83803684,-0.007888667,0.7614089,-0.4995615,0.41315225,,-0.044266555,0.410285,-0.3430158,-0.3615362,0.5997808,-0.7138309,-0.60610104,0.43058166,0.6687608,0.7084724,0.6744349,0.20785691,,1.2156122135330574,0.4840763420221407,0.21517376968000002,-1.4047129314028288,0.7795112311618377,0.7377071961353293,-0.4145672398488005,,-1.2167860689299395,0.12662965093865927,0.19733681928000002,-0.2805651443822936,1.287799010289276,-1.394471310771382,0.8506958964273263,,-0.06878124415953153,-0.05048146695237099,0.0911007994,-0.09256525236364105,,-3.700331e-05,-3.516674e-06,7.6293945e-06,1.0,1.4603138e-05,1.30832195e-05,-1.4610589e-05,1.0,2.1755695e-06,-1.309067e-05,-2.1457672e-06,1.0,766,2.349,0,0,0.0,False,-0.2552905512975445,1.0256645681736747
2.30515651893802,14:40:53.661613,14:39:33.665181,0,,0.09785013,0.039128624,0.034306422,0.43655902,-0.18104526,-0.8812712,0.11092138,-0.96123874,0.25242108,-0.89281166,-0.20794845,-0.39955568,,0.048110783,0.007124233,0.011238575,0.49454293,-0.61226505,0.6168945,0.1453299,0.75802374,0.63582945,-0.8569169,-0.22479178,0.46385574,,0.08367212,1.2907717,0.42626956,0.9937996,0.08370228,-0.07318651,0.013431236,-0.74379003,-0.6682784,-0.11037182,0.6631518,-0.74030244,,-0.09068801,0.26847273,-0.1058682,-0.34893486,0.20720682,0.9139528,-0.5431928,-0.83943444,-0.017071303,0.7636662,-0.5024094,0.40546116,,-0.04427692,0.41026253,-0.34297472,-0.36127636,0.59978163,-0.7139617,-0.6062224,0.43069702,0.6685764,0.7085011,0.67436045,0.2080004,,1.2161914184986242,0.4880381039866179,0.21632487520000002,-1.4021966520810143,0.7816974151580848,0.7546289411683753,-0.4153839601794722,,-1.2166084460738325,0.12662192820578505,0.19736404137000002,-0.2803554544388091,1.287799010289276,-1.3943896320312414,0.8511859286257293,,-0.06878124415953153,-0.05048146695237099,0.0911007994,-0.09256525236364105,,5.2262098e-05,5.7816505e-06,1.4305115e-06,1.0,-4.400313e-05,-3.9421022e-05,4.400313e-05,1.0,-6.556511e-06,3.941357e-05,6.5863132e-06,1.0,770,2.361,0,0,0.0,False,-0.25535012901606535,1.0259542493783513
2.395211192080751,14:40:53.688074,14:39:33.819690,0,,0.09805487,0.03960123,0.03429441,0.43489072,-0.18453246,-0.8813727,0.10727319,-0.9611906,0.25417507,-0.89407074,-0.20508593,-0.39821756,,0.04810953,0.0071262,0.011239052,0.4945867,-0.6124384,0.6166874,0.14537531,0.7578453,0.63603187,-0.8568839,-0.22492178,0.4638536,,0.08367212,1.2907717,0.42626956,0.9937996,0.08370228,-0.07318651,0.013431236,-0.74379003,-0.6682784,-0.11037182,0.6631518,-0.74030244,,-0.09089403,0.2688012,-0.10552896,-0.34712642,0.21040033,0.9139119,-0.546623,-0.8372468,-0.014870465,0.76204103,-0.5047272,0.40564016,,-0.044275858,0.41026434,-0.34297368,-0.36132702,0.5999821,-0.71376765,-0.6061747,0.43050948,0.66874045,0.70851606,0.6743019,0.20813929,,1.216492605080719,0.4897988870819411,0.21662820706000002,-1.3954865738895095,0.7791013216625415,0.7587061711019807,-0.4160373364440091,,-1.2166161688067065,0.12663737367153352,0.19736404137000002,-0.2805651443822936,1.287799010289276,-1.394307953291101,0.8513492726918636,,-0.06878124415953153,-0.05048146695237099,0.0911007994,-0.09256525236364105,,5.2262098e-05,5.7816505e-06,1.4305115e-06,1.0,-4.400313e-05,-3.9421022e-05,4.400313e-05,1.0,-6.556511e-06,3.941357e-05,6.5863132e-06,1.0,782,2.398,0,0,0.0,False,-0.25588632848275505,1.0264853315869256
2.421627942007035,14:40:53.715187,14:39:33.819690,0,,0.098174974,0.039897673,0.034294054,0.43611556,-0.182827,-0.8811229,0.106004536,-0.96189,0.252053,-0.8936254,-0.20332718,-0.40011472,,0.048108377,0.007128644,0.011239827,0.49458227,-0.61244446,0.61668485,0.14539006,0.757844,0.63602996,-0.856884,-0.22490934,0.46385956,,0.08367212,1.2907717,0.42626956,0.9937996,0.08370228,-0.07318651,0.013431236,-0.74379003,-0.6682784,-0.11037182,0.6631518,-0.74030244,,-0.09101565,0.26901263,-0.10532202,-0.34837946,0.20853779,0.913862,-0.54735386,-0.8367135,-0.017727463,0.76094383,-0.50638175,0.40563777,,-0.044274967,0.41026676,-0.34297243,-0.36132342,0.59998626,-0.713766,-0.60616434,0.4305187,0.66874397,0.7085268,0.6742923,0.20813377,,1.21673200979982,0.4910113561431943,0.21681098395,-1.3950671940025405,0.7769151376662944,0.7622857898442159,-0.4153839601794722,,-1.2166161688067065,0.12665281913728196,0.19736404137000002,-0.2805651443822936,1.287799010289276,-1.394307953291101,0.8513492726918636,,-0.06878124415953153,-0.05048146695237099,0.0911007994,-0.09256525236364105,,5.2262098e-05,5.7816505e-06,1.4305115e-06,1.0,-4.400313e-05,-3.9421022e-05,4.400313e-05,1.0,-6.556511e-06,3.941357e-05,6.5863132e-06,1.0,790,2.423,0,0,0.0,False,-0.2549926627049395,1.026340490984587
2.4487850919831544,14:40:53.741603,14:39:33.819690,0,,0.09833825,0.04032632,0.034307465,0.43502867,-0.18481347,-0.8812458,0.10562125,-0.961478,0.25377974,-0.8942003,-0.20347959,-0.3987503,,0.04810895,0.007127422,0.011239469,0.4945845,-0.6124918,0.6166361,0.14538264,0.7577927,0.6360928,-0.85688394,-0.22495341,0.4638382,,0.08367212,1.2907717,0.42626956,0.9937996,0.08370228,-0.07318651,0.013431236,-0.74379003,-0.6682784,-0.11037182,0.6631518,-0.74030244,,-0.09118253,0.2693283,-0.105033815,-0.34723935,0.21052669,0.9138399,-0.5479453,-0.83637,-0.015527846,0.76103926,-0.50612617,0.4057777,,-0.04427541,0.41026556,-0.34297305,-0.36132523,0.60004246,-0.7137178,-0.6061695,0.43045947,0.66877735,0.7085214,0.6742801,0.2081916,,1.2170718100462858,0.4926717437111526,0.21708450114000002,-1.3919218448502726,0.7766418646667635,0.7638154854938577,-0.41636402457627764,,-1.2166161688067065,0.12664509640440774,0.19736404137000002,-0.2805651443822936,1.287799010289276,-1.3942262745509604,0.8515126167579978,,-0.06878124415953153,-0.05048146695237099,0.0911007994,-0.09256525236364105,,5.2262098e-05,5.7816505e-06,1.4305115e-06,1.0,-4.400313e-05,-3.9421022e-05,4.400313e-05,1.0,-6.556511e-06,3.941357e-05,6.5863132e-06,1.0,798,2.447,0,0,0.0,False,-0.2551118181419816,1.0266784523900434
2.4751998391002417,14:40:53.763358,14:39:33.819690,0,,0.09844497,0.04060515,0.034274474,0.43618482,-0.18423386,-0.8807955,0.103726506,-0.96199834,0.25258598,-0.8938589,-0.20153591,-0.40049922,,0.048107743,0.007127094,0.011238873,0.49457818,-0.6124941,0.6166388,0.14538085,0.7577914,0.6360947,-0.8568879,-0.22495106,0.46383208,,0.08367212,1.2907717,0.42626956,0.9937996,0.08370228,-0.07318651,0.013431236,-0.74379003,-0.6682784,-0.11037182,0.6631518,-0.74030244,,-0.09128756,0.26950583,-0.10481544,-0.34840947,0.20976554,0.9135695,-0.54920536,-0.83550185,-0.01761097,0.75959486,-0.50787306,0.4063011,,-0.044274103,0.41026506,-0.342973,-0.3613183,0.6000445,-0.7137196,-0.6061727,0.43046075,0.6687737,0.70852226,0.6742775,0.20819722,,1.2172648783681415,0.49369886718342443,0.21727764835000002,-1.3910830850763345,0.7740457711712202,0.7665858555852142,-0.415383960179472,,-1.2166084460738325,0.12664509640440774,0.19736404137000002,-0.2805651443822936,1.287799010289276,-1.3942262745509604,0.8515126167579978,,-0.06878124415953153,-0.05048146695237099,0.0911007994,-0.09256525236364105,,5.2262098e-05,5.7816505e-06,1.4305115e-06,1.0,-4.400313e-05,-3.9421022e-05,4.400313e-05,1.0,-6.556511e-06,3.941357e-05,6.5863132e-06,1.0,806,2.473,0,0,0.0,False,-0.25493308498641865,1.026775012791602
2.49694065307267,14:40:53.791671,14:39:33.819690,0,,0.09859797,0.04097841,0.034234628,0.436884,-0.18534796,-0.88021505,0.101124525,-0.96221733,0.25280717,-0.8938156,-0.1994586,-0.4016342,,0.04810697,0.0071272133,0.011237085,0.4945719,-0.61239576,0.6167416,0.14537904,0.75789416,0.6359727,-0.8568918,-0.22487289,0.46386272,,0.08367212,1.2907717,0.42626956,0.9937996,0.08370228,-0.07318651,0.013431236,-0.74379003,-0.6682784,-0.11037182,0.6631518,-0.74030244,,-0.09143866,0.26974562,-0.104525656,-0.34909084,0.21067502,0.9131,-0.5511571,-0.83420205,-0.018243758,0.7578664,-0.50963026,0.40732732,,-0.04427308,0.410264,-0.3429718,-0.36131138,0.5999299,-0.71381944,-0.6061758,0.43057132,0.6686997,0.7085231,0.67430884,0.20809267,,1.2174811148886198,0.49507351363503643,0.21753561006000002,-1.3887764956980047,0.7710397681763805,0.7691187282066761,-0.4155473042456066,,-1.2166007233409581,0.12664509640440774,0.19736533766000003,-0.2805651443822936,1.287799010289276,-1.3943896320312414,0.8515126167579978,,-0.06878124415953153,-0.05048146695237099,0.0911007994,-0.09256525236364105,,5.2262098e-05,5.7816505e-06,1.4305115e-06,1.0,-4.400313e-05,-3.9421022e-05,4.400313e-05,1.0,-6.556511e-06,3.941357e-05,6.5863132e-06,1.0,831,2.55,0,0,0.0,False,-0.2551713958605024,1.0273060950001762
2.5252407148946077,14:40:53.865386,14:39:33.954236,0,,0.09902863,0.04177224,0.034146473,0.4328725,-0.19856355,-0.8793145,0.08409545,-0.9622902,0.2586996,-0.89752406,-0.18593013,-0.3998507,,0.048106827,0.007128942,0.01123637,0.49456972,-0.6123988,0.6167403,0.14538643,0.75789356,0.6359718,-0.8568919,-0.22486672,0.4638657,,0.08367212,1.2907717,0.42626956,0.9937996,0.08370228,-0.07318651,0.013431236,-0.74379003,-0.6682784,-0.11037182,0.6631518,-0.74030244,,-0.09186447,0.27024597,-0.10389976,-0.3446173,0.2225202,0.91198885,-0.5659883,-0.8243148,-0.0127443075,0.74893004,-0.52056694,0.41001695,,-0.044272915,0.4102646,-0.34297004,-0.3613096,0.599932,-0.71381855,-0.6061706,0.4305759,0.66870147,0.7085285,0.67430407,0.20808992,,1.2178131924022113,0.49786142020263147,0.21804116316000002,-1.3680171912930368,0.758195937198429,0.7793469749337181,-0.4157106483117403,,-1.2166007233409581,0.12665281913728196,0.19736663395,-0.2805651443822936,1.287799010289276,-1.3943896320312414,0.8524926811548035,,-0.06878124415953153,-0.05048146695237099,0.0911007994,-0.09256525236364105,,5.2262098e-05,5.7816505e-06,1.4305115e-06,1.0,-4.400313e-05,-3.9421022e-05,4.400313e-05,1.0,-6.556511e-06,3.941357e-05,6.5863132e-06,1.0,839,2.574,0,0,0.0,False,-0.25481392954937654,1.0259059691775718
2.598983363015577,14:40:53.891896,14:39:33.954236,0,,0.09917125,0.042126022,0.034090146,0.4316197,-0.2014881,-0.8792651,0.08082709,-0.96217525,0.26016435,-0.8984271,-0.1833604,-0.39900818,,0.048106246,0.0071301935,0.011236787,0.49456745,-0.6123516,0.616789,0.14539382,0.7579448,0.6359089,-0.8568919,-0.22482255,0.46388704,,0.08367212,1.2907717,0.42626956,0.9937996,0.08370228,-0.07318651,0.013431236,-0.74379003,-0.6682784,-0.11037182,0.6631518,-0.74030244,,-0.09200351,0.27046108,-0.10361153,-0.3432596,0.22518158,0.91184765,-0.5689284,-0.8223121,-0.011099015,0.74732405,-0.52258587,0.41037872,,-0.04427247,0.41026583,-0.34296942,-0.3613078,0.5998758,-0.7138667,-0.60616535,0.43063515,0.66866803,0.7085339,0.6743162,0.20803209,,1.2179908152583185,0.49901983013376516,0.21830301374000002,-1.3629846326494082,0.755736480202651,0.7820876058615187,-0.41522061611333805,,-1.2166007233409581,0.12666054187015618,0.19736663395,-0.2805651443822936,1.287799010289276,-1.394471310771382,0.8520026489564005,,-0.06878124415953153,-0.05048146695237099,0.0911007994,-0.09256525236364105,,5.2262098e-05,5.7816505e-06,1.4305115e-06,1.0,-4.400313e-05,-3.9421022e-05,4.400313e-05,1.0,-6.556511e-06,3.941357e-05,6.5863132e-06,1.0,847,2.599,0,0,0.0,False,-0.25493308498641865,1.0250369255635419
