AlexandreBanks6/ExpertPlaybackApp/resources/Motions/P_14/PC1/Data_PC1_4.csv
Task Time,PC1 Time,PC2 Time,Gaze Calib,s_T_psm1,Tx,Ty,Tz,R00,R01,R02,R10,R11,R12,R20,R21,R22,s_T_psm3,Tx,Ty,Tz,R00,R01,R02,R10,R11,R12,R20,R21,R22,cart_T_ecm,Tx,Ty,Tz,R00,R01,R02,R10,R11,R12,R20,R21,R22,ecm_T_psm1,Tx,Ty,Tz,R00,R01,R02,R10,R11,R12,R20,R21,R22,ecm_T_psm3,Tx,Ty,Tz,R00,R01,R02,R10,R11,R12,R20,R21,R22,psm1_joints,q1,q2,q3,q4,q5,q6,jaw,psm3_joints,q1,q2,q3,q4,q5,q6,jaw,ecm_joints,q1,q2,q3,q4,ecmi_T_ecm,Tx,Ty,Tz,R00,R01,R02,R10,R11,R12,R20,R21,R22,Sample #,Task Duration (s),Collisions (binary),Collisions (increments),Cumulative Collision Time (s),Clutch Press,MTMR Angle,MTML Angle
""
lci_T_si,,,,,-0.049124364,0.02991215,0.20692563,0.9896189,-0.012728876,0.14315182,0.085764766,-0.7469579,-0.65931654,0.115320735,0.6647495,-0.7381119
rci_T_si,,,,,-0.058113385,0.033566415,0.21507215,0.9884834,-0.028870352,0.14854968,0.08002212,-0.73343956,-0.675028,0.1284405,0.6791413,-0.7226826
ecm_T_lc,,,,,-4.4061628e-05,-0.00034663224,-0.01840835,-0.99912,0.030754527,0.028518902,-0.031987965,-0.99852574,-0.043852776,0.027128186,-0.04472645,0.9986309
ecm_T_rc,,,,,-0.0043358393,0.01870579,-0.007592615,-0.99555075,-0.052743673,-0.078081585,0.04863213,-0.9973746,0.053654674,-0.08070653,0.04961868,0.9955021
cart_T_ecmi,,,,,0.0835391,1.2908473,0.4262244,0.99383307,0.08264993,-0.07392409,0.012264122,-0.7445041,-0.66750526,-0.110206045,0.6624822,-0.74092644
ecmac_T_ecmrep_psm1,,,,,0.023195708,-0.2631036,-0.30022871,0.99664557,0.07921609,0.02055357,-0.078295335,0.99603295,-0.04228661,-0.023821812,0.040535513,0.9988941
ecmac_T_ecmrep_psm3,,,,,0.022281613,-0.4507852,-0.5326207,0.99995744,0.002629678,0.008843231,-0.0032003638,0.99787027,0.06515156,-0.008653069,-0.06517708,0.9978362
""
0,13:56:53.241277,13:55:33.267871,0,,0.12656079,0.0005109608,0.026460871,0.30870774,0.9348414,-0.17541693,-0.1987359,0.24374956,0.94925773,0.93016315,-0.25818157,0.26103395,,0.0425701,-0.03029665,0.017764032,-0.6192463,0.19466886,0.7606827,0.76182866,0.3835457,0.52202475,-0.19013461,0.9027716,-0.3858135,,0.08361586,1.2908477,0.4262142,0.9938341,0.0825914,-0.07397657,0.012185989,-0.7445106,-0.6674994,-0.110206045,0.6624822,-0.74092644,,-0.119494244,0.255217,-0.10300712,-0.42514554,-0.8842131,0.19343856,0.4605134,-0.027324088,0.8872321,-0.7792167,0.4662838,0.4188087,,-0.042338956,0.40885323,-0.35701397,0.6488408,-0.34785578,-0.67675847,0.44929588,0.8929375,-0.028210908,0.6141163,-0.2857604,0.7356644,,1.083916449828907,0.4995758669007093,0.21821745860000002,3.238451487174994,-0.9494870368700457,-0.8570447853008767,-0.40476659588074404,,-1.188428193815787,0.14552717828188666,0.17926135152000003,-3.637072069739075,0.2358345985951502,0.6235816334840529,0.8766676029426769,,-0.06956009733823401,-0.051437034717837886,0.09109722752,-0.09158399527144698,,7.741153e-05,-7.1525574e-07,1.66893e-06,1.0,-5.824864e-05,-5.208701e-05,5.825609e-05,1.0,-8.672476e-06,5.208701e-05,8.702278e-06,1.0,36,0.109,0,0,0.0,False,-0.25636295023092304,1.0513013547875674
0.12077046814374626,13:56:53.271430,13:55:33.267871,0,,0.12653929,0.00057388097,0.026647374,0.30539158,0.935824,-0.17598142,-0.2007846,0.24394023,0.9487775,0.9308176,-0.2544143,0.2623963,,0.042574298,-0.030299183,0.017764688,-0.61947876,0.19537008,0.76031345,0.7615819,0.38444066,0.5217265,-0.19036563,0.9022393,-0.38694307,,0.08361586,1.2908477,0.4262142,0.9938341,0.0825914,-0.07397657,0.012185989,-0.7445106,-0.6674994,-0.110206045,0.6624822,-0.74092644,,-0.11949136,0.25538903,-0.103105046,-0.4220407,-0.88561714,0.19381419,0.45955503,-0.024707753,0.8878056,-0.7814671,0.46375835,0.41741747,,-0.04234323,0.4088515,-0.35701576,0.6491085,-0.34844536,-0.6761982,0.4489908,0.89305943,-0.02919067,0.6140565,-0.28465882,0.73614126,,1.0843798138013603,0.5001010127361566,0.21813838491,3.2348867581357577,-0.9526296763646508,-0.8550539246968429,-0.40460325181460965,,-1.1884436392815356,0.145504010083264,0.17926135152000003,-3.637491449626044,0.2358345985951502,0.622274773641804,0.876667602942677,,-0.06956009733823401,-0.051437034717837886,0.09109722752,-0.09158399527144698,,7.741153e-05,-7.1525574e-07,1.66893e-06,1.0,-5.824864e-05,-5.208701e-05,5.825609e-05,1.0,-8.672476e-06,5.208701e-05,8.702278e-06,1.0,43,0.131,0,0,0.0,False,-0.25588632848275505,1.0507219923782136
0.15109783504158258,13:56:53.293891,13:55:33.346742,0,,0.1265186,0.0006267503,0.026793107,0.30098206,0.9367563,-0.17859852,-0.20171353,0.24558304,0.9481565,0.93205225,-0.2493523,0.2628725,,0.042574808,-0.030301835,0.01776278,-0.61991626,0.19535595,0.7599605,0.76125264,0.38456833,0.52211285,-0.19025889,0.90218794,-0.3871153,,0.08361586,1.2908477,0.4262142,0.9938341,0.0825914,-0.07397657,0.012185989,-0.7445106,-0.6674994,-0.110206045,0.6624822,-0.74092644,,-0.119485065,0.25552636,-0.1031796,-0.41786033,-0.887046,0.19632156,0.4598594,-0.020145467,0.8877632,-0.7835318,0.46124133,0.41633442,,-0.042343423,0.4088483,-0.35701644,0.6495177,-0.34842142,-0.67581743,0.4489033,0.8931092,-0.029013379,0.6136877,-0.28453198,0.7364978,,1.0846346639862097,0.5004871493798678,0.21808264444000003,3.2288057497747062,-0.9556356793594905,-0.8527660882958027,-0.405256628079147,,-1.1884436392815356,0.14546539641889286,0.17926135152000003,-3.637910829513013,0.2354246890958539,0.6221189549120496,0.8766676029426765,,-0.06956009733823401,-0.051437034717837886,0.09109722752,-0.09158399527144698,,7.741153e-05,-7.1525574e-07,1.66893e-06,1.0,-5.824864e-05,-5.208701e-05,5.825609e-05,1.0,-8.672476e-06,5.208701e-05,8.702278e-06,1.0,51,0.154,0,0,0.0,False,-0.25540970673458663,1.0505771517758753
0.1735617199447006,13:56:53.321208,13:55:33.346742,0,,0.1265569,0.00065822154,0.026938275,0.3008033,0.9370019,-0.17760876,-0.20311734,0.24490574,0.9480319,0.931805,-0.24909575,0.2639897,,0.042578086,-0.03030273,0.017763138,-0.62003875,0.19545236,0.7598357,0.7612034,0.38446826,0.52225816,-0.19005606,0.9022097,-0.38716418,,0.08361586,1.2908477,0.4262142,0.9938341,0.0825914,-0.07397657,0.012185989,-0.7445106,-0.6674994,-0.110206045,0.6624822,-0.74092644,,-0.11953834,0.25564513,-0.1032608,-0.41772804,-0.8873551,0.19520304,0.45865706,-0.02048787,0.88837713,-0.7843067,0.4606313,0.41555005,,-0.042346712,0.4088475,-0.35701692,0.64960223,-0.3485209,-0.6756849,0.44903412,0.89304596,-0.028935993,0.61350244,-0.2846087,0.73662245,,1.0848431777738137,0.5010586316125604,0.21800357075000001,3.229644509548644,-0.9563188618583177,-0.8527807499583046,-0.40509328401301237,,-1.1884668074801583,0.1454422282202702,0.17926135152000003,-3.637910829513013,0.235151416096323,0.6220967544990208,0.8761775707442738,,-0.06956009733823401,-0.051437034717837886,0.09109722752,-0.09158399527144698,,7.741153e-05,-7.1525574e-07,1.66893e-06,1.0,-5.824864e-05,-5.208701e-05,5.825609e-05,1.0,-8.672476e-06,5.208701e-05,8.702278e-06,1.0,59,0.179,0,0,0.0,False,-0.2556480176086704,1.0513496349883464
0.2008846141397953,13:56:53.341801,13:55:33.346742,0,,0.12657209,0.0006888285,0.027062759,0.29791492,0.9379449,-0.17749962,-0.20485044,0.24442698,0.9477825,0.9323534,-0.24599767,0.26495683,,0.042579066,-0.030306753,0.01776117,-0.6194238,0.19645569,0.7600785,0.7619082,0.383814,0.5217114,-0.18923555,0.90227044,-0.38742468,,0.08361586,1.2908477,0.4262142,0.9938341,0.0825914,-0.07397657,0.012185989,-0.7445106,-0.6674994,-0.110206045,0.6624822,-0.74092644,,-0.11956631,0.25575033,-0.10333015,-0.41501853,-0.888677,0.19496883,0.457846,-0.018814439,0.8888324,-0.7862167,0.45814762,0.41468555,,-0.042347364,0.40884325,-0.3570185,0.64885765,-0.34952417,-0.6758821,0.4500292,0.8925257,-0.029523507,0.6135613,-0.28501013,0.7364182,,1.0849744642326755,0.5014447682562716,0.21795171915000003,3.226918540283345,-0.9590515918536265,-0.8507157493646572,-0.4050932840130126,,-1.1884822529459067,0.14541133728877328,0.17926135152000003,-3.636652689852106,0.2348781430967921,0.6219928753458515,0.8761775707442738,,-0.06956009733823401,-0.051437034717837886,0.09109722752,-0.09158399527144698,,7.741153e-05,-7.1525574e-07,1.66893e-06,1.0,-5.824864e-05,-5.208701e-05,5.825609e-05,1.0,-8.672476e-06,5.208701e-05,8.702278e-06,1.0,67,0.203,0,0,0.0,False,-0.2551713958605024,1.0512530745867876
0.2214694139547646,13:56:53.364766,13:55:33.346742,0,,0.12658745,0.0007442981,0.027213141,0.29434788,0.93854517,-0.18025614,-0.20527014,0.24629694,0.94720745,0.9333935,-0.24180727,0.2651523,,0.042562947,-0.030299451,0.017749786,-0.6184356,0.1990734,0.76020205,0.7637466,0.3800137,0.5218053,-0.18500969,0.9033046,-0.38705567,,0.08361586,1.2908477,0.4262142,0.9938341,0.0825914,-0.07397657,0.012185989,-0.7445106,-0.6674994,-0.110206045,0.6624822,-0.74092644,,-0.11959618,0.25589132,-0.103402,-0.41162422,-0.8896629,0.19764966,0.4583666,-0.014651522,0.88864243,-0.78769636,0.45638275,0.41382268,,-0.042329438,0.40884188,-0.3570076,0.6471539,-0.35231203,-0.67606807,0.4542282,0.8904065,-0.029206188,0.6122651,-0.2881883,0.7362601,,1.0851134734244117,0.5019853595574674,0.21789079352000001,3.221676291696232,-0.9609645028503427,-0.8491558987129073,-0.4050932840130126,,-1.188489975678781,0.14536500089152796,0.17926264781,-3.6326685809258996,0.23214541310148332,0.6233227672782337,0.8769942910749452,,-0.06956009733823401,-0.051437034717837886,0.09109722752,-0.09158399527144698,,7.741153e-05,-7.1525574e-07,1.66893e-06,1.0,-5.824864e-05,-5.208701e-05,5.825609e-05,1.0,-8.672476e-06,5.208701e-05,8.702278e-06,1.0,78,0.236,0,0,0.0,False,-0.2544564632382502,1.0506737121774343
0.24439684115350246,13:56:53.395895,13:55:33.444806,0,,0.12657423,0.0007949695,0.027322277,0.28944308,0.9391442,-0.18501557,-0.20514941,0.24966235,0.9463521,0.9349526,-0.23595926,0.26492792,,0.042564213,-0.030295279,0.017748654,-0.6195279,0.20158397,0.7586496,0.76307786,0.38133878,0.52181697,-0.18411255,0.9021887,-0.3900742,,0.08361586,1.2908477,0.4262142,0.9938341,0.0825914,-0.07397657,0.012185989,-0.7445106,-0.6674994,-0.110206045,0.6624822,-0.74092644,,-0.119593136,0.25600234,-0.10345018,-0.40693533,-0.8907624,0.20235114,0.45968774,-0.008270271,0.8880421,-0.789361,0.45439404,0.412838,,-0.04233045,0.40884367,-0.35700357,0.6480658,-0.35457638,-0.67400765,0.45457393,0.890162,-0.031211229,0.6110428,-0.2861594,0.7380647,,1.0851907007531538,0.5023019916053105,0.21785838627,3.213917763787305,-0.9634239598461206,-0.8473954126667936,-0.40460325181460965,,-1.188528589343152,0.14531094176140838,0.17926264781,-3.633297650756354,0.23064241160406349,0.620137712251304,0.8763409148104081,,-0.06956009733823401,-0.051437034717837886,0.09109722752,-0.09158399527144698,,7.741153e-05,-7.1525574e-07,1.66893e-06,1.0,-5.824864e-05,-5.208701e-05,5.825609e-05,1.0,-8.672476e-06,5.208701e-05,8.702278e-06,1.0,86,0.261,0,0,0.0,False,-0.25535012901606535,1.0511565141852286
0.2754697611089796,13:56:53.416492,13:55:33.444806,0,,0.12647732,0.00087504834,0.027397618,0.281694,0.93998766,-0.19254014,-0.20454273,0.2548825,0.945091,0.9374491,-0.22684383,0.2640664,,0.04252531,-0.03029044,0.017727375,-0.6199632,0.20215692,0.7581412,0.7629144,0.38106412,0.5222565,-0.18332264,0.9021767,-0.39047414,,0.083612144,1.2908487,0.4262112,0.99383384,0.08260456,-0.07396477,0.012203555,-0.7445091,-0.66750073,-0.110206045,0.6624822,-0.74092644,,-0.119500384,0.25611764,-0.10346678,-0.39950612,-0.8923932,0.20983158,0.46210298,0.001648227,0.8868247,-0.7917422,0.4512557,0.41171905,,-0.042286176,0.4088394,-0.3569922,0.6483407,-0.35514858,-0.67344177,0.45510438,0.8898929,-0.031155642,0.6103559,-0.2862868,0.73858345,,1.0852447598832735,0.5024255553312982,0.21783764563000002,3.201336367178233,-0.967249781839553,-0.8442757113632938,-0.40460325181460965,,-1.1885440348089005,0.14527232809703725,0.17926264781,-3.633297650756354,0.22968595610570539,0.6198558139553516,0.876830947008811,,-0.06956009733823401,-0.051437034717837886,0.09109722752,-0.09158399527144698,,7.405877e-05,-3.7550926e-06,3.4570694e-06,1.0,-4.515797e-05,-4.0367246e-05,4.515797e-05,1.0,-6.7055225e-06,4.0374696e-05,6.7055225e-06,1.0,94,0.285,0,0,0.0,False,-0.25535012901606535,1.0509151131813312
0.29612385015934706,13:56:53.445196,13:55:33.444806,0,,0.12644783,0.00089249015,0.027524278,0.27338326,0.9418539,-0.19537851,-0.2069158,0.25594288,0.94428754,0.9393867,-0.21772552,0.26485485,,0.042537387,-0.030296907,0.017729342,-0.6199918,0.20225605,0.75809145,0.76290166,0.3810985,0.52225,-0.1832793,0.9021399,-0.3905794,,0.083612144,1.2908487,0.4262112,0.99383384,0.08260456,-0.07396477,0.012203555,-0.7445091,-0.66750073,-0.110206045,0.6624822,-0.74092644,,-0.119485,0.25621626,-0.103551954,-0.39161453,-0.8952522,0.21251242,0.46195412,0.008446325,0.8868636,-0.7957616,0.44547966,0.41025773,,-0.042298447,0.40883493,-0.35699677,0.648361,-0.35523945,-0.67337424,0.4551311,0.8898766,-0.03123075,0.61031437,-0.28622478,0.7386418,,1.085229314417525,0.5025491190572857,0.21779875693000003,3.191061559947492,-0.973808333828294,-0.838845973245725,-0.40443990774847527,,-1.1886058166718942,0.14521054623404345,0.17926264781,-3.633297650756354,0.22954931960593997,0.6197221956386263,0.8766676029426765,,-0.06956009733823401,-0.051437034717837886,0.09109722752,-0.09158399527144698,,7.405877e-05,-3.7550926e-06,3.4570694e-06,1.0,-4.515797e-05,-4.0367246e-05,4.515797e-05,1.0,-6.7055225e-06,4.0374696e-05,6.7055225e-06,1.0,105,0.318,0,0,0.0,False,-0.2546351963938136,1.0505771517758753
0.3248357910197228,13:56:53.480591,13:55:33.444806,0,,0.12640199,0.0008831173,0.027677462,0.26398245,0.9437527,-0.1991081,-0.20920068,0.25753975,0.9433495,0.94156694,-0.20737416,0.2654196,,0.042556085,-0.030302778,0.017733514,-0.61976576,0.20241043,0.7582351,0.7632178,0.3804141,0.5222872,-0.18272695,0.90239406,-0.39025083,,0.083612144,1.2908487,0.4262112,0.99383384,0.08260456,-0.07396477,0.012203555,-0.7445091,-0.66750073,-0.110206045,0.6624822,-0.74092644,,-0.11945791,0.25631323,-0.103676505,-0.3826655,-0.8982592,0.21609612,0.46207517,0.016464716,0.8866879,-0.8000335,0.43915752,0.4087628,,-0.042317647,0.40883178,-0.35700163,0.6480436,-0.3554414,-0.67357326,0.45571852,0.88958454,-0.030983543,0.61021316,-0.28688112,0.7384708,,1.0851752552874054,0.5026109009202795,0.21772486840000002,3.1788995432253895,-0.980913431816097,-0.8326438485528082,-0.40329649928553546,,-1.1887216576650077,0.1451333189053012,0.17926264781,-3.6326685809258996,0.22913941010664365,0.6201381280898561,0.8765042588765423,,-0.06956009733823401,-0.051437034717837886,0.09109722752,-0.09158399527144698,,7.405877e-05,-3.7550926e-06,3.4570694e-06,1.0,-4.515797e-05,-4.0367246e-05,4.515797e-05,1.0,-6.7055225e-06,4.0374696e-05,6.7055225e-06,1.0,116,0.351,0,0,0.0,False,-0.2559459062012759,1.0507219923782136
0.3602493079379201,13:56:53.513033,13:55:33.444806,0,,0.12628163,0.0009147972,0.027885064,0.24815995,0.945785,-0.20954078,-0.20953062,0.26359197,0.94160295,0.9457872,-0.18976292,0.26358384,,0.042563766,-0.030303374,0.017733335,-0.61786664,0.20508172,0.7590667,0.7656991,0.37638274,0.5215756,-0.17873392,0.9034808,-0.38958517,,0.083612144,1.2908487,0.4262112,0.99383384,0.08260456,-0.07396477,0.012203555,-0.7445091,-0.66750073,-0.110206045,0.6624822,-0.74092644,,-0.11936109,0.25647998,-0.10382286,-0.36748284,-0.90201133,0.2265654,0.46526217,0.03263523,0.88457114,-0.8052872,0.430477,0.40767887,,-0.042325176,0.40883026,-0.35700098,0.6454891,-0.35829294,-0.6745146,0.46006328,0.8873421,-0.03107799,0.6096602,-0.29025888,0.73760706,,1.08512891889016,0.5026804055161476,0.21764190584,3.154156129894216,-0.9897948043008505,-0.8219711777266372,-0.4042765636823411,,-1.1888606668567436,0.14504836884368474,0.17926135152000003,-3.627845712225756,0.22708986261016204,0.6216460391650214,0.8765042588765424,,-0.06956009733823401,-0.051437034717837886,0.09109722752,-0.09158399527144698,,7.405877e-05,-3.7550926e-06,3.4570694e-06,1.0,-4.515797e-05,-4.0367246e-05,4.515797e-05,1.0,-6.7055225e-06,4.0374696e-05,6.7055225e-06,1.0,131,0.396,0,0,0.0,False,-0.25576717304571295,1.0505771517758753
0.3926973370835185,13:56:53.553625,13:55:33.444806,0,,0.12620243,0.000955753,0.028181061,0.2293677,0.95025927,-0.21070783,-0.21539646,0.26066652,0.9410937,0.9492074,-0.1704708,0.26447082,,0.04259092,-0.030305818,0.017740726,-0.6178888,0.20577744,0.75886035,0.7659824,0.37534583,0.5219066,-0.1774385,0.9037539,-0.3895439,,0.083612144,1.2908487,0.4262112,0.99383384,0.08260456,-0.07396477,0.012203555,-0.7445091,-0.66750073,-0.110206045,0.6624822,-0.74092644,,-0.11931494,0.25671098,-0.104023024,-0.34955254,-0.9088535,0.22759257,0.46391258,0.043151915,0.8848294,-0.8140013,0.4148774,0.4065447,,-0.04235322,0.40883058,-0.35700428,0.6452847,-0.35903373,-0.6743162,0.4612036,0.8867596,-0.030800018,0.60901463,-0.29112232,0.73780006,,1.0850825824929147,0.5030202057626134,0.21754727667,3.1298320964500106,-1.0044149097757529,-0.8029434116388909,-0.40591000434368407,,-1.1890537351785992,0.1449402505834456,0.17926135152000003,-3.627006952451818,0.22586013411227307,0.6218320128968835,0.8758508826120052,,-0.06956009733823401,-0.051437034717837886,0.09109722752,-0.09158399527144698,,7.405877e-05,-3.7550926e-06,3.4570694e-06,1.0,-4.515797e-05,-4.0367246e-05,4.515797e-05,1.0,-6.7055225e-06,4.0374696e-05,6.7055225e-06,1.0,138,0.416,0,0,0.0,False,-0.25624379479388093,1.0506737121774343
0.4332813019864261,13:56:53.581298,13:55:33.637910,0,,0.12619743,0.0009733215,0.028441593,0.21941626,0.9534235,-0.20697844,-0.22020483,0.25506994,0.9415143,0.9504559,-0.16100588,0.26591486,,0.0425962,-0.030303612,0.017740428,-0.61653996,0.20990032,0.7588283,0.76791716,0.37298948,0.5207516,-0.173729,0.90378124,-0.39114898,,0.083612144,1.2908487,0.4262112,0.99383384,0.08260456,-0.07396477,0.012203555,-0.7445091,-0.66750073,-0.110206045,0.6624822,-0.74092644,,-0.11933943,0.25689802,-0.10420366,-0.3400813,-0.9133903,0.22374749,0.4615561,0.04517752,0.8859599,-0.8193355,0.40457043,0.40621683,,-0.042358354,0.4088312,-0.3570018,0.64331776,-0.36311463,-0.6740104,0.46504393,0.8846818,-0.032744154,0.6081746,-0.29237953,0.7379958,,1.0851134734244117,0.5035607970638092,0.21742931428,3.1182991495583616,-1.0131596457607408,-0.7897684390319186,-0.4044399077484755,,-1.189177298904587,0.14486302325470335,0.17926005523000002,-3.6230228435256118,0.223673950116026,0.6207559434511066,0.8763409148104081,,-0.06956009733823401,-0.051437034717837886,0.09109722752,-0.09158399527144698,,7.405877e-05,-3.7550926e-06,3.4570694e-06,1.0,-4.515797e-05,-4.0367246e-05,4.515797e-05,1.0,-6.7055225e-06,4.0374696e-05,6.7055225e-06,1.0,149,0.449,0,0,0.0,False,-0.25695872741613357,1.0503840309727575
0.460965579142794,13:56:53.613415,13:55:33.637910,0,,0.12620303,0.001058653,0.028743312,0.20681635,0.9561661,-0.2073001,-0.22624099,0.25287682,0.9406744,0.9518624,-0.14764708,0.26862285,,0.04257965,-0.030279145,0.017731965,-0.6165444,0.21419507,0.7576235,0.76939845,0.36806452,0.52206767,-0.16703,0.90479225,-0.39172947,,0.083612144,1.2908487,0.4262112,0.99383384,0.08260456,-0.07396477,0.012203555,-0.7445091,-0.66750073,-0.110206045,0.6624822,-0.74092644,,-0.119375706,0.25716254,-0.104368165,-0.32806644,-0.9177842,0.2237064,0.45849493,0.052349117,0.88715386,-0.82592666,0.39361367,0.40362543,,-0.042340383,0.40884346,-0.35698012,0.64215237,-0.36755756,-0.67271227,0.47093788,0.8815809,-0.032135364,0.60486186,-0.29616988,0.739206,,1.0851984234860281,0.5044025749470996,0.21734246285000003,3.103201473627476,-1.0239539292422106,-0.77786263251456,-0.40607334840981824,,-1.1892776944319519,0.1447857959259611,0.17926005523000002,-3.6186193547124366,0.21820849012540838,0.6213737588123571,0.8761775707442739,,-0.06956009733823401,-0.051437034717837886,0.09109722752,-0.09158399527144698,,7.405877e-05,-3.7550926e-06,3.4570694e-06,1.0,-4.515797e-05,-4.0367246e-05,4.515797e-05,1.0,-6.7055225e-06,4.0374696e-05,6.7055225e-06,1.0,160,0.482,0,0,0.0,False,-0.2568991496976123,1.0510116735828905
0.4929954931139946,13:56:53.645687,13:55:33.637910,0,,0.12630112,0.0011428073,0.028979644,0.20575267,0.95689416,-0.20498607,-0.23126873,0.25108024,0.9399327,0.9508841,-0.14598683,0.27296007,,0.042589337,-0.030285254,0.017731607,-0.6172763,0.21494782,0.7568139,0.7688738,0.36869156,0.5223981,-0.16674253,0.9043584,-0.39285228,,0.083612144,1.2908487,0.4262112,0.99383384,0.08260456,-0.07396477,0.012203555,-0.7445091,-0.66750073,-0.110206045,0.6624822,-0.74092644,,-0.11949615,0.25737897,-0.10447406,-0.3271617,-0.91879445,0.22086635,0.4541431,0.05209143,0.8894046,-0.8286853,0.39128405,0.40022185,,-0.042349897,0.40883788,-0.3569832,0.6428181,-0.36821726,-0.6717149,0.47088876,0.8815888,-0.032633483,0.60419255,-0.2953256,0.7400906,,1.085538223732494,0.5054683120837427,0.21726209287000003,3.1061371328362593,-1.027779751235643,-0.7789902256983693,-0.406073348409818,,-1.1893317535620713,0.14469312313147042,0.17926005523000002,-3.6192484245428904,0.21738867112681573,0.6201636552113028,0.8766676029426768,,-0.06956009733823401,-0.051437034717837886,0.09109722752,-0.09158399527144698,,7.405877e-05,-3.7550926e-06,3.4570694e-06,1.0,-4.515797e-05,-4.0367246e-05,4.515797e-05,1.0,-6.7055225e-06,4.0374696e-05,6.7055225e-06,1.0,171,0.515,0,0,0.0,False,-0.25546928445310746,1.0507702725789931
0.5253358059562743,13:56:53.676103,13:55:33.736880,0,,0.12636833,0.0012489483,0.029216692,0.20798278,0.95732605,-0.20067355,-0.23683462,0.2483427,0.9392738,0.94902706,-0.14782634,0.2783789,,0.042597353,-0.03029652,0.017730176,-0.61724156,0.21492684,0.7568483,0.76888657,0.36873832,0.5223464,-0.16681272,0.9043442,-0.3928549,,0.083612144,1.2908487,0.4262112,0.99383384,0.08260456,-0.07396477,0.012203555,-0.7445091,-0.66750073,-0.110206045,0.6624822,-0.74092644,,-0.11958488,0.25761342,-0.104569614,-0.3294494,-0.9191521,0.21592243,0.44867626,0.048810754,0.89236045,-0.8307543,0.39086688,0.39632106,,-0.04235762,0.40882826,-0.35698962,0.6427963,-0.36819375,-0.6717487,0.47084156,0.8816125,-0.032674413,0.6042526,-0.2952842,0.7400582,,1.0863877243486586,0.5066035538162537,0.21717913031000002,3.114944110462609,-1.0306491177307173,-0.78326642767213,-0.4062366924759524,,-1.189354921760694,0.14461589580272816,0.17926005523000002,-3.6192484245428904,0.21738867112681573,0.6201636552113028,0.8766676029426768,,-0.06956009733823401,-0.051437034717837886,0.09109722752,-0.09158399527144698,,7.405877e-05,-3.7550926e-06,3.4570694e-06,1.0,-4.515797e-05,-4.0367246e-05,4.515797e-05,1.0,-6.7055225e-06,4.0374696e-05,6.7055225e-06,1.0,182,0.547,0,0,0.0,False,-0.2552309735790237,1.0511565141852286
0.5557469259947538,13:56:53.706039,13:55:33.736880,0,,0.12633073,0.0014414266,0.029559866,0.21309978,0.95607185,-0.20128365,-0.24354067,0.25149196,0.9367175,0.9461905,-0.15059356,0.2864352,,0.04260195,-0.030303672,0.017730474,-0.6172202,0.21497478,0.756852,0.7688944,0.36880863,0.52228516,-0.1668554,0.90430415,-0.392929,,0.083612144,1.2908487,0.4262112,0.99383384,0.08260456,-0.07396477,0.012203555,-0.7445091,-0.66750073,-0.110206045,0.6624822,-0.74092644,,-0.11957752,0.257987,-0.10469852,-0.3345459,-0.91741973,0.21545316,0.44159496,0.049357127,0.8958559,-0.83251,0.39484796,0.3886157,,-0.042362258,0.40882313,-0.3569946,0.6427829,-0.36823335,-0.67173976,0.47081292,0.8816242,-0.03277006,0.6042891,-0.29519972,0.740062,,1.08821801203985,0.507854636541878,0.2170637605,3.1271061271847116,-1.032152119228137,-0.7961712527757868,-0.40672672467435533,,-1.1893703672264424,0.14456955940548283,0.17925875894,-3.6192484245428904,0.21738867112681573,0.620081976471162,0.8765042588765424,,-0.06956009733823401,-0.051437034717837886,0.09109722752,-0.09158399527144698,,7.405877e-05,-3.7550926e-06,3.4570694e-06,1.0,-4.515797e-05,-4.0367246e-05,4.515797e-05,1.0,-6.7055225e-06,4.0374696e-05,6.7055225e-06,1.0,193,0.58,0,0,0.0,False,-0.2552309735790237,1.0509151131813312
0.5856970581226051,13:56:53.743255,13:55:33.736880,0,,0.12615979,0.0016081631,0.029834494,0.21160956,0.95574,-0.2044074,-0.24926567,0.25500286,0.9342591,0.9450333,-0.14674643,0.2921941,,0.042602863,-0.030306146,0.017729819,-0.6172144,0.21497434,0.75685686,0.76889634,0.3688193,0.52227473,-0.16686773,0.9042999,-0.39293358,,0.083612144,1.2908487,0.4262112,0.99383384,0.08260456,-0.07396477,0.012203555,-0.7445091,-0.66750073,-0.110206045,0.6624822,-0.74092644,,-0.11943124,0.2583009,-0.10481038,-0.3332339,-0.91735494,0.21775009,0.43662176,0.054548364,0.8979899,-0.8356534,0.3943151,0.38235974,,-0.042363063,0.40882093,-0.35699588,0.6427794,-0.36823207,-0.6717438,0.47080445,0.88162833,-0.032781012,0.6042994,-0.29518902,0.7400579,,1.0899865178680472,0.5084724551718159,0.21698857568000002,3.127525507071681,-1.0372076697194585,-0.8009517730143404,-0.4065633806082207,,-1.1893703672264424,0.14455411393973439,0.17925875894,-3.6192484245428904,0.21738867112681573,0.620081976471162,0.8765042588765424,,-0.06956009733823401,-0.051437034717837886,0.09109722752,-0.09158399527144698,,7.405877e-05,-3.7550926e-06,3.4570694e-06,1.0,-4.515797e-05,-4.0367246e-05,4.515797e-05,1.0,-6.7055225e-06,4.0374696e-05,6.7055225e-06,1.0,204,0.613,0,0,0.0,False,-0.2549926627049395,1.0507702725789931
0.6229046450462192,13:56:53.796590,13:55:33.864907,0,,0.12575647,0.0018432662,0.030178532,0.20483136,0.9562402,-0.20892283,-0.2549157,0.25819895,0.93185365,0.94501954,-0.13761514,0.29664782,,0.042602863,-0.030306146,0.017729819,-0.6172144,0.21497434,0.75685686,0.76889634,0.3688193,0.52227473,-0.16686773,0.9042999,-0.39293358,,0.083612144,1.2908487,0.4262112,0.99383384,0.08260456,-0.07396477,0.012203555,-0.7445091,-0.66750073,-0.110206045,0.6624822,-0.74092644,,-0.11905902,0.25872102,-0.10495608,-0.32680684,-0.9187484,0.2215823,0.4326733,0.06299742,0.89934707,-0.84023273,0.38978553,0.3769299,,-0.042363063,0.40882093,-0.35699588,0.6427794,-0.36823207,-0.6717438,0.47080445,0.88162833,-0.032781012,0.6042994,-0.29518902,0.7400579,,1.0926431379767805,0.508750473555288,0.21690431683000003,3.11683131995397,-1.0452692232056195,-0.797236872601171,-0.4057466602775497,,-1.1893703672264424,0.14455411393973439,0.17925875894,-3.6192484245428904,0.21738867112681573,0.620081976471162,0.8765042588765424,,-0.06956009733823401,-0.051437034717837886,0.09109722752,-0.09158399527144698,,7.405877e-05,-3.7550926e-06,3.4570694e-06,1.0,-4.515797e-05,-4.0367246e-05,4.515797e-05,1.0,-6.7055225e-06,4.0374696e-05,6.7055225e-06,1.0,226,0.678,0,0,0.0,False,-0.25677999426057063,1.0511565141852286
0.6762633949983865,13:56:53.856088,13:55:33.864907,0,,0.12549366,0.0019031763,0.030295,0.19194049,0.95715535,-0.21682353,-0.25866267,0.26245812,0.92962855,0.9467061,-0.1223492,0.2979566,,0.04260324,-0.030304894,0.017730236,-0.6172796,0.21585985,0.7565517,0.76886845,0.36933756,0.5219494,-0.16675508,0.9038774,-0.39395234,,0.083612144,1.2908487,0.4262112,0.99383384,0.08260456,-0.07396477,0.012203555,-0.7445091,-0.66750073,-0.110206045,0.6624822,-0.74092644,,-0.11880882,0.25885355,-0.10503392,-0.3144157,-0.9212132,0.22914837,0.4315135,0.076313116,0.89887285,-0.8455406,0.38150036,0.3735219,,-0.042363495,0.408822,-0.35699517,0.64282346,-0.36902526,-0.67126626,0.47087646,0.881555,-0.033705913,0.6041965,-0.29441655,0.74044955,,1.0932995702710897,0.5082793868499603,0.21690690941000002,3.096491395435971,-1.0557902336875584,-0.7878409066151411,-0.40672672467435533,,-1.1893780899593167,0.14455411393973439,0.17925875894,-3.6192484245428904,0.2172520346270503,0.6189682132727501,0.8760142266781398,,-0.06956009733823401,-0.051437034717837886,0.09109722752,-0.09158399527144698,,7.405877e-05,-3.7550926e-06,3.4570694e-06,1.0,-4.515797e-05,-4.0367246e-05,4.515797e-05,1.0,-6.7055225e-06,4.0374696e-05,6.7055225e-06,1.0,237,0.712,0,0,0.0,False,-0.2561842170753601,1.051397915189126
0.7357627891469747,13:56:53.884091,13:55:33.864907,0,,0.12549508,0.0018535927,0.030328408,0.17946783,0.95845115,-0.22172669,-0.26222596,0.26383856,0.92823845,0.9481713,-0.10844645,0.2986812,,0.04260853,-0.030309632,0.017728925,-0.61738706,0.21645048,0.75629526,0.76875174,0.36997586,0.5216692,-0.16689548,0.9034749,-0.39481497,,0.083612144,1.2908487,0.4262112,0.99383384,0.08260456,-0.07396477,0.012203555,-0.7445091,-0.66750073,-0.110206045,0.6624822,-0.74092644,,-0.11881673,0.25883886,-0.10509134,-0.30240387,-0.9240478,0.23385361,0.43032637,0.08656284,0.89851326,-0.85051227,0.37234727,0.3714652,,-0.042368498,0.40881717,-0.35699716,0.6429531,-0.36953083,-0.67086387,0.47070903,0.881614,-0.034492444,0.604189,-0.29360464,0.74077797,,1.0924500696549249,0.5080708730623563,0.21692376118,3.0797161999572094,-1.0650815156716082,-0.7783858781405516,-0.4068900687404897,,-1.189393535425065,0.14451550027536325,0.17926005523000002,-3.619458114486375,0.2172520346270503,0.6179880683910633,0.8766676029426768,,-0.06956009733823401,-0.051437034717837886,0.09109722752,-0.09158399527144698,,7.405877e-05,-3.7550926e-06,3.4570694e-06,1.0,-4.515797e-05,-4.0367246e-05,4.515797e-05,1.0,-6.7055225e-06,4.0374696e-05,6.7055225e-06,1.0,248,0.745,0,0,0.0,False,-0.2566012611050077,1.0513496349883464
0.7637557270936668,13:56:53.906118,13:55:33.864907,0,,0.1255044,0.0018212497,0.030364826,0.16830236,0.9592805,-0.22683743,-0.2650614,0.26568586,0.92690533,0.94942963,-0.09587449,0.2989837,,0.04261037,-0.030313507,0.017727137,-0.61769474,0.21619962,0.7561157,0.7685485,0.36975336,0.5221262,-0.16669276,0.9036261,-0.3945546,,0.083612144,1.2908487,0.4262112,0.99383384,0.08260456,-0.07396477,0.012203555,-0.7445091,-0.66750073,-0.110206045,0.6624822,-0.74092644,,-0.118831925,0.25883877,-0.10513857,-0.2916261,-0.9262401,0.23881693,0.42949185,0.09629046,0.8979226,-0.85468763,0.36442757,0.36973175,,-0.04237003,0.40881306,-0.35699865,0.6432187,-0.36931226,-0.6707296,0.47075984,0.88160706,-0.033973116,0.6038666,-0.29390037,0.7409235,,1.0916469054360056,0.5079782002678656,0.21693931666000002,3.063779764252385,-1.0731430691577692,-0.7696885745788081,-0.4062366924759526,,-1.1894012581579394,0.1444691638781179,0.17926005523000002,-3.6196678044298594,0.216842125127754,0.6183223221021525,0.8766676029426768,,-0.06956009733823401,-0.051437034717837886,0.09109722752,-0.09158399527144698,,7.405877e-05,-3.7550926e-06,3.4570694e-06,1.0,-4.515797e-05,-4.0367246e-05,4.515797e-05,1.0,-6.7055225e-06,4.0374696e-05,6.7055225e-06,1.0,256,0.768,0,0,0.0,False,-0.25731619372725945,1.051494475590685
0.7857884550467134,13:56:53.930119,13:55:33.976446,0,,0.1255828,0.00174281,0.030395046,0.15377581,0.9614059,-0.22814876,-0.27088574,0.26306695,0.925968,0.95024943,-0.080589205,0.30088437,,0.042619772,-0.030321792,0.017727494,-0.6176618,0.21622835,0.7561344,0.76856124,0.3698275,0.52205503,-0.16675621,0.9035889,-0.394613,,0.083612144,1.2908487,0.4262112,0.99383384,0.08260456,-0.07396477,0.012203555,-0.7445091,-0.66750073,-0.110206045,0.6624822,-0.74092644,,-0.11891732,0.2587975,-0.105203494,-0.2776208,-0.930269,0.23984647,0.42627206,0.104454346,0.8985441,-0.8609407,0.35169435,0.36754897,,-0.04237941,0.4088066,-0.35700387,0.64319754,-0.36933342,-0.6707382,0.47071785,0.8816259,-0.03406596,0.6039219,-0.29381728,0.7409114,,1.0902645362515193,0.5078700820076264,0.21697042762000002,3.045536739169232,-1.0854403541366588,-0.7552503112785397,-0.4062366924759524,,-1.1894398718223105,0.1444073820151241,0.17926005523000002,-3.6196678044298594,0.216842125127754,0.618240643362012,0.8768309470088109,,-0.06956009733823401,-0.051437034717837886,0.09109722752,-0.09158399527144698,,7.405877e-05,-3.7550926e-06,3.4570694e-06,1.0,-4.515797e-05,-4.0367246e-05,4.515797e-05,1.0,-6.7055225e-06,4.0374696e-05,6.7055225e-06,1.0,267,0.801,0,0,0.0,False,-0.25576717304571295,1.05105995378367
0.809774907073006,13:56:53.956824,13:55:33.976446,0,,0.12562448,0.0017081574,0.030404195,0.14631334,0.96204114,-0.23036748,-0.27301088,0.26309904,0.9253346,0.9508194,-0.07249597,0.3011425,,0.042628273,-0.030330107,0.017727554,-0.61775666,0.21624964,0.7560508,0.76844925,0.37009382,0.522031,-0.16692078,0.90347475,-0.3948048,,0.083612144,1.2908487,0.4262112,0.99383384,0.08260456,-0.07396477,0.012203555,-0.7445091,-0.66750073,-0.110206045,0.6624822,-0.74092644,,-0.11896154,0.2587762,-0.10522823,-0.2703979,-0.9318417,0.24198353,0.42536232,0.10985165,0.8983315,-0.8636851,0.34583765,0.3666667,,-0.042387843,0.40879995,-0.357009,0.6433191,-0.36933222,-0.67062235,0.47053438,0.88171816,-0.03421182,0.6039354,-0.29354176,0.7410096,,1.0894999856969712,0.5078469138090037,0.21698857568000002,3.0350522419950057,-1.0909058141272765,-0.7482615541863253,-0.40607334840981824,,-1.1894707627538075,0.1443456001521303,0.17926005523000002,-3.619877494373344,0.216842125127754,0.6179956071415903,0.8763409148104082,,-0.06956009733823401,-0.051437034717837886,0.09109722752,-0.09158399527144698,,7.405877e-05,-3.7550926e-06,3.4570694e-06,1.0,-4.515797e-05,-4.0367246e-05,4.515797e-05,1.0,-6.7055225e-06,4.0374696e-05,6.7055225e-06,1.0,274,0.822,0,0,0.0,False,-0.2568991496976123,1.051108233984449
0.8365024840459228,13:56:53.986383,13:55:33.976446,0,,0.12563904,0.0016796514,0.030455038,0.13295048,0.9632183,-0.23352656,-0.27778363,0.26238796,0.9241152,0.9513992,-0.05799173,0.30245078,,0.042637434,-0.030346707,0.017723382,-0.6180285,0.21604584,0.7558869,0.76825863,0.36996827,0.5224005,-0.1667917,0.9035749,-0.39463,,0.083612144,1.2908487,0.4262112,0.99383384,0.08260456,-0.07396477,0.012203555,-0.7445091,-0.66750073,-0.110206045,0.6624822,-0.74092644,,-0.11898341,0.25878832,-0.10528286,-0.25746349,-0.9347388,0.24489987,0.4227195,0.11895103,0.8984202,-0.8689193,0.33483437,0.36450678,,-0.042396262,0.40878466,-0.3570175,0.6435625,-0.36915025,-0.67048895,0.4705353,0.88173294,-0.033815738,0.6036753,-0.29372618,0.7411485,,1.0885423668205674,0.5078237456103811,0.21701709406000003,3.0159704571379136,-1.1014268246092154,-0.7346999724531267,-0.40656338060822117,,-1.1894939309524302,0.14421431369326848,0.17926005523000002,-3.6200871843168283,0.21643221562845769,0.6182481821125391,0.8765042588765426,,-0.06956009733823401,-0.051437034717837886,0.09109722752,-0.09158399527144698,,7.405877e-05,-3.7550926e-06,3.4570694e-06,1.0,-4.515797e-05,-4.0367246e-05,4.515797e-05,1.0,-6.7055225e-06,4.0374696e-05,6.7055225e-06,1.0,285,0.854,0,0,0.0,False,-0.2575545046013441,1.0510116735828905
0.8660576920956373,13:56:54.015057,13:55:33.976446,0,,0.12554891,0.0017110482,0.030555025,0.116008766,0.9634883,-0.24131352,-0.28273505,0.264936,0.9218838,0.95215684,-0.03871882,0.30314675,,0.04266589,-0.030372068,0.017724097,-0.6186214,0.21646543,0.75528157,0.7676499,0.37133354,0.52232677,-0.16739573,0.90291417,-0.39588454,,0.083612144,1.2908487,0.4262112,0.99383384,0.08260456,-0.07396477,0.012203555,-0.7445091,-0.66750073,-0.110206045,0.6624822,-0.74092644,,-0.118904054,0.2588819,-0.10534651,-0.24100976,-0.9371213,0.2524243,0.4202021,0.13369146,0.8975282,-0.87483966,0.32238227,0.3615594,,-0.04242459,0.4087646,-0.35703325,0.64424795,-0.3694364,-0.66967255,0.46976012,0.8821116,-0.03470675,0.6035479,-0.2922257,0.7418451,,1.0879168254577551,0.5078469138090037,0.21704950131000003,2.988291384597957,-1.1134508365885742,-0.7180341827560344,-0.40721675687275805,,-1.1896020492126693,0.14401352263853864,0.17926005523000002,-3.6211356340342506,0.21629557912869224,0.6167260252134243,0.8761775707442738,,-0.06956009733823401,-0.051437034717837886,0.09109722752,-0.09158399527144698,,7.405877e-05,-3.7550926e-06,3.4570694e-06,1.0,-4.515797e-05,-4.0367246e-05,4.515797e-05,1.0,-6.7055225e-06,4.0374696e-05,6.7055225e-06,1.0,296,0.887,0,0,0.0,False,-0.25791197091247,1.0509151131813312
0.8947234591469169,13:56:54.047488,13:55:34.090136,0,,0.12551227,0.0017318428,0.030624405,0.10580435,0.9655044,-0.23792158,-0.28837237,0.25877464,0.92188776,0.9516548,-0.02892974,0.30580416,,0.042693563,-0.030396953,0.017723024,-0.6192902,0.21739669,0.7544655,0.76735455,0.37107044,0.52294725,-0.16627291,0.90279865,-0.39662063,,0.083612144,1.2908487,0.4262112,0.99383384,0.08260456,-0.07396477,0.012203555,-0.7445091,-0.66750073,-0.110206045,0.6624822,-0.74092644,,-0.11887471,0.25894505,-0.10538817,-0.23112701,-0.9405868,0.24875042,0.41607112,0.13555788,0.89917123,-0.8794687,0.31132063,0.3600199,,-0.042451825,0.40874365,-0.3570476,0.644706,-0.37033468,-0.6687349,0.47046787,0.88173354,-0.034726802,0.6025065,-0.2922297,0.7426895,,1.087569302478415,0.5079009729391233,0.21708450114000002,2.9738227784975244,-1.1230153915721552,-0.701822019262807,-0.4080334772034293,,-1.1897487811372796,0.14375094972081504,0.17925875894,-3.6211356340342506,0.21465594113150693,0.6161027502944078,0.8761775707442738,,-0.06956009733823401,-0.051437034717837886,0.09109722752,-0.09158399527144698,,7.405877e-05,-3.7550926e-06,3.4570694e-06,1.0,-4.515797e-05,-4.0367246e-05,4.515797e-05,1.0,-6.7055225e-06,4.0374696e-05,6.7055225e-06,1.0,307,0.92,0,0,0.0,False,-0.2566012611050077,1.0507702725789931
0.9271472149994224,13:56:54.081468,13:55:34.090136,0,,0.12543672,0.0017814189,0.030757591,0.09228793,0.9683366,-0.23196363,-0.2950003,0.2490888,0.9224584,0.95102984,-0.016702458,0.3086474,,0.042753406,-0.030446574,0.017727375,-0.61940277,0.2175469,0.7543298,0.7672273,0.37144148,0.52287054,-0.1664405,0.9026099,-0.3969798,,0.083612144,1.2908487,0.4262112,0.99383384,0.08260456,-0.07396477,0.012203555,-0.7445091,-0.66750073,-0.110206045,0.6624822,-0.74092644,,-0.11881272,0.25907373,-0.105462365,-0.21799725,-0.9453315,0.24253975,0.4112504,0.13639644,0.9012597,-0.8850708,0.29621673,0.35903394,,-0.042511873,0.40870607,-0.35707992,0.6448455,-0.37044644,-0.6685385,0.47027415,0.88182515,-0.03502385,0.6025085,-0.2918114,0.74285233,,1.0872758386291945,0.5081249321924758,0.21710394549000003,2.9526440942055876,-1.1346294940522175,-0.6768325368219041,-0.40672672467435533,,-1.1900113540550032,0.14335709034422958,0.17925746265,-3.621345323977736,0.21424603163221062,0.6156202166040915,0.8765042588765426,,-0.06956009733823401,-0.051437034717837886,0.09109722752,-0.09158399527144698,,7.405877e-05,-3.7550926e-06,3.4570694e-06,1.0,-4.515797e-05,-4.0367246e-05,4.515797e-05,1.0,-6.7055225e-06,4.0374696e-05,6.7055225e-06,1.0,318,0.953,0,0,0.0,False,-0.25779281547542787,1.051108233984449
0.9611220320221037,13:56:54.116996,13:55:34.090136,0,,0.12530565,0.0018485114,0.030846909,0.08058241,0.9689818,-0.23362504,-0.2951743,0.24707264,0.92294484,0.9520391,-0.0054130256,0.30592805,,0.042799417,-0.030478999,0.017732441,-0.6194444,0.2172603,0.7543783,0.7671343,0.3715909,0.5229008,-0.16671455,0.9026174,-0.3968477,,0.083612144,1.2908487,0.4262112,0.99383384,0.08260456,-0.07396477,0.012203555,-0.7445091,-0.66750073,-0.110206045,0.6624822,-0.74092644,,-0.11868962,0.25918835,-0.10549938,-0.20651488,-0.9473946,0.24453032,0.41225106,0.14240126,0.8998727,-0.887356,0.286645,0.36115643,,-0.0425583,0.40868223,-0.35710162,0.64493394,-0.3701645,-0.6686093,0.4700166,0.8819668,-0.03491301,0.6026148,-0.2917409,0.7427938,,1.0870596021087162,0.508302555048583,0.21710524178,2.927690990930929,-1.1392751350442425,-0.6556467564462863,-0.40852350940183224,,-1.1902198678426072,0.14309451742650595,0.17925746265,-3.6215550139212205,0.2141093951324452,0.6156499557676474,0.8766676029426768,,-0.06956009733823401,-0.051437034717837886,0.09109722752,-0.09158399527144698,,7.405877e-05,-3.7550926e-06,3.4570694e-06,1.0,-4.515797e-05,-4.0367246e-05,4.515797e-05,1.0,-6.7055225e-06,4.0374696e-05,6.7055225e-06,1.0,329,0.986,0,0,0.0,False,-0.25731619372725945,1.050963393382111
0.9966103001497686,13:56:54.145905,13:55:34.090136,0,,0.12526348,0.0018794462,0.030904785,0.07316181,0.9709091,-0.22799708,-0.29551524,0.23944776,0.9248435,0.9525324,-0.00028663874,0.3044368,,0.042844377,-0.030499294,0.017740965,-0.6194437,0.21699844,0.75445414,0.7670623,0.37180132,0.5228569,-0.16704792,0.90259373,-0.3967613,,0.083612144,1.2908487,0.4262112,0.99383384,0.08260456,-0.07396477,0.012203555,-0.7445091,-0.66750073,-0.110206045,0.6624822,-0.74092644,,-0.11865293,0.2592516,-0.10552649,-0.19923078,-0.95030504,0.23922242,0.41261598,0.14007224,0.900071,-0.88885045,0.27802885,0.36420438,,-0.04260421,0.40866923,-0.35711673,0.6449916,-0.369901,-0.66869956,0.4697244,0.8821235,-0.034888767,0.602781,-0.29160154,0.7427137,,1.0867275245951245,0.508511068836187,0.21710264920000003,2.9123836250565587,-1.142281138039082,-0.6357979909150254,-0.4077067890711612,,-1.1904438270959596,0.14290917183752455,0.17925875894,-3.6217647038647045,0.2141093951324452,0.6155682770275067,0.8765042588765424,,-0.06956009733823401,-0.051437034717837886,0.09109722752,-0.09158399527144698,,7.405877e-05,-3.7550926e-06,3.4570694e-06,1.0,-4.515797e-05,-4.0367246e-05,4.515797e-05,1.0,-6.7055225e-06,4.0374696e-05,6.7055225e-06,1.0,337,1.01,0,0,0.0,False,-0.2571374605716965,1.051108233984449
1.0255487710237503,13:56:54.172005,13:55:34.090136,0,,0.125211,0.0018959194,0.030986264,0.06322602,0.97116697,-0.22986315,-0.29722512,0.23819603,0.9246187,0.9527117,0.009861127,0.30371535,,0.042867314,-0.030506954,0.017747223,-0.61938345,0.21701966,0.7544976,0.76708776,0.37190408,0.5227465,-0.16715446,0.90254635,-0.39682427,,0.083612144,1.2908487,0.4262112,0.99383384,0.08260456,-0.07396477,0.012203555,-0.7445091,-0.66750073,-0.110206045,0.6624822,-0.74092644,,-0.11860952,0.25932026,-0.105581865,-0.18948747,-0.95181054,0.2411455,0.41185114,0.14589946,0.8994954,-0.8913322,0.26975918,0.36435813,,-0.04262795,0.4086658,-0.35712367,0.6449512,-0.36991274,-0.66873205,0.46965593,0.88215494,-0.035014287,0.6028775,-0.29149145,0.7426786,,1.0862409924240484,0.5087273053566653,0.21708968630000003,2.892882460312498,-1.1474733250301687,-0.619884050734461,-0.40852350940183246,,-1.1905673908219474,0.1428319445087823,0.17925875894,-3.6217647038647045,0.2141093951324452,0.6154049195472256,0.8765042588765426,,-0.06956009733823401,-0.051437034717837886,0.09109722752,-0.09158399527144698,,7.405877e-05,-3.7550926e-06,3.4570694e-06,1.0,-4.515797e-05,-4.0367246e-05,4.515797e-05,1.0,-6.7055225e-06,4.0374696e-05,6.7055225e-06,1.0,345,1.035,0,0,0.0,False,-0.25767366003838577,1.0511565141852286
1.0516545830760151,13:56:54.190847,13:55:34.090136,0,,0.12523764,0.0018697456,0.03102918,0.05972247,0.97182894,-0.22799501,-0.29837322,0.23534025,0.92498016,0.9525789,0.012785494,0.3040228,,0.042872984,-0.030505583,0.017749846,-0.6195634,0.21681574,0.7544085,0.7669406,0.37188432,0.52297646,-0.16716322,0.90260345,-0.39669073,,0.083612144,1.2908487,0.4262112,0.99383384,0.08260456,-0.07396477,0.012203555,-0.7445091,-0.66750073,-0.110206045,0.6624822,-0.74092644,,-0.118642315,0.25932837,-0.10562763,-0.1860576,-0.95295835,0.23927587,0.41104504,0.14569941,0.89989644,-0.8924262,0.26578575,0.36460033,,-0.042633988,0.40866792,-0.3571237,0.6451287,-0.36972225,-0.6686661,0.46957353,0.8822092,-0.03475127,0.60275173,-0.29156888,0.7427503,,1.0858394103145887,0.5088663145484014,0.21706246421000003,2.8870111418949316,-1.1497961455261814,-0.6125991495223445,-0.4068900687404897,,-1.1906060044863185,0.1428242217759081,0.17925875894,-3.621974393808189,0.21397275863267975,0.615516337450922,0.8765042588765426,,-0.06956009733823401,-0.051437034717837886,0.09109722752,-0.09158399527144698,,7.405877e-05,-3.7550926e-06,3.4570694e-06,1.0,-4.515797e-05,-4.0367246e-05,4.515797e-05,1.0,-6.7055225e-06,4.0374696e-05,6.7055225e-06,1.0,353,1.059,0,0,0.0,False,-0.2575545046013441,1.0510116735828905
1.070519755128771,13:56:54.225871,13:55:34.275039,0,,0.12526053,0.001817733,0.031097457,0.054046012,0.97239995,-0.22697413,-0.30065984,0.23260494,0.92493165,0.95219886,0.018253133,0.3049329,,0.042875975,-0.030503526,0.017751932,-0.61956036,0.2169204,0.7543808,0.7669425,0.37195766,0.52292144,-0.16716543,0.9025481,-0.39681572,,0.083612144,1.2908487,0.4262112,0.99383384,0.08260456,-0.07396477,0.012203555,-0.7445091,-0.66750073,-0.110206045,0.6624822,-0.74092644,,-0.118675716,0.25933433,-0.10570977,-0.18050367,-0.9543064,0.23815466,0.4093118,0.1472889,0.9004276,-0.8943614,0.26001,0.3640227,,-0.042637285,0.40867046,-0.3571232,0.6451262,-0.36981496,-0.6686173,0.4695728,0.88220465,-0.0348761,0.602755,-0.291465,0.7427884,,1.0852524826161476,0.5089976010072632,0.21701450148,2.8775750944381278,-1.15403187701891,-0.6029376102570728,-0.4075434450050268,,-1.1906291726849412,0.1428319445087823,0.17925875894,-3.621974393808189,0.21397275863267975,0.6153529799706409,0.8765042588765425,,-0.06956009733823401,-0.051437034717837886,0.09109722752,-0.09158399527144698,,7.405877e-05,-3.7550926e-06,3.4570694e-06,1.0,-4.515797e-05,-4.0367246e-05,4.515797e-05,1.0,-6.7055225e-06,4.0374696e-05,6.7055225e-06,1.0,386,1.162,0,0,0.0,False,-0.2564821056679656,1.050963393382111
1.1055438921321183,13:56:54.319496,13:55:34.275039,0,,0.12517795,0.0016604438,0.031289265,0.037286863,0.9722644,-0.2308931,-0.30355537,0.2311557,0.92434907,0.9520839,0.03562273,0.30375504,,0.042873822,-0.030505553,0.017749965,-0.61962557,0.21714379,0.75426304,0.76691353,0.37202495,0.5229161,-0.16705668,0.9024666,-0.39704666,,0.083612144,1.2908487,0.4262112,0.99383384,0.08260456,-0.07396477,0.012203555,-0.7445091,-0.66750073,-0.110206045,0.6624822,-0.74092644,,-0.11862446,0.25934845,-0.10596571,-0.16402113,-0.9562747,0.24214819,0.40773487,0.15780151,0.89936143,-0.89824796,0.24624655,0.36402375,,-0.042634822,0.4086679,-0.3571236,0.645171,-0.37001997,-0.66846067,0.46964115,0.88216203,-0.03503382,0.6026538,-0.29133382,0.7429219,,1.0839396180275296,0.5090748283360055,0.21683042830000002,2.844024703480604,-1.1627766130038983,-0.5760406093064857,-0.4062366924759524,,-1.1906137272191926,0.14281649904303387,0.17925875894,-3.621974393808189,0.21383612213291428,0.6151376829137751,0.8765042588765425,,-0.06956009733823401,-0.051437034717837886,0.09109722752,-0.09158399527144698,,7.405877e-05,-3.7550926e-06,3.4570694e-06,1.0,-4.515797e-05,-4.0367246e-05,4.515797e-05,1.0,-6.7055225e-06,4.0374696e-05,6.7055225e-06,1.0,390,1.174,0,0,0.0,False,-0.2568991496976123,1.0507702725789931
1.1991305749397725,13:56:54.340756,13:55:34.275039,0,,0.1251024,0.0016559735,0.031326815,0.03132654,0.9714491,-0.23517065,-0.3033743,0.23342767,0.9238374,0.95235634,0.042404085,0.30202508,,0.042874966,-0.030505255,0.017750502,-0.6196236,0.21719913,0.7542487,0.7669144,0.37206542,0.52288586,-0.1670595,0.9024366,-0.39711368,,0.083612144,1.2908487,0.4262112,0.99383384,0.08260456,-0.07396477,0.012203555,-0.7445091,-0.66750073,-0.110206045,0.6624822,-0.74092644,,-0.11855416,0.25937313,-0.10600553,-0.15813208,-0.9561379,0.24656552,0.40828395,0.16404696,0.8979938,-0.8990542,0.24267037,0.36443466,,-0.04263605,0.40866837,-0.35712364,0.64516956,-0.37006885,-0.668435,0.46963948,0.8821602,-0.035101276,0.6026566,-0.2912772,0.74294186,,1.0837002133084286,0.5090902738017539,0.21680579879000003,2.830185167210625,-1.1645528875008488,-0.5676494836464845,-0.40770678907116076,,-1.1906214499520669,0.14281649904303387,0.17925875894,-3.621974393808189,0.21383612213291428,0.6150560041736345,0.8763409148104081,,-0.06956009733823401,-0.051437034717837886,0.09109722752,-0.09158399527144698,,7.405877e-05,-3.7550926e-06,3.4570694e-06,1.0,-4.515797e-05,-4.0367246e-05,4.515797e-05,1.0,-6.7055225e-06,4.0374696e-05,6.7055225e-06,1.0,398,1.199,0,0,0.0,False,-0.2566608388235285,1.0507702725789931
1.2204065171536058,13:56:54.362469,13:55:34.414563,0,,0.12506214,0.0016314536,0.031353936,0.025437266,0.9726064,-0.23106208,-0.30296245,0.22776708,0.92538416,0.95266294,0.046463892,0.30045697,,0.042876113,-0.030504957,0.017751098,-0.61962163,0.21713129,0.7542698,0.76691544,0.37202048,0.52291644,-0.16706234,0.9024715,-0.39703327,,0.083612144,1.2908487,0.4262112,0.99383384,0.08260456,-0.07396477,0.012203555,-0.7445091,-0.66750073,-0.110206045,0.6624822,-0.74092644,,-0.11851869,0.25937453,-0.10604673,-0.15230533,-0.9580569,0.24275501,0.4090247,0.16249806,0.8979383,-0.89972323,0.23605359,0.3671196,,-0.042637285,0.40866885,-0.3571237,0.6451681,-0.37000856,-0.6684697,0.46963784,0.8821641,-0.035024628,0.60265946,-0.29134193,0.7429142,,1.0832445720688493,0.5091288874661251,0.21677728041000002,2.8167650108276154,-1.1660558889982686,-0.5509866048192577,-0.4088501975341008,,-1.1906291726849412,0.14281649904303387,0.17925875894,-3.621974393808189,0.21383612213291428,0.615137682913775,0.8761775707442738,,-0.06956009733823401,-0.051437034717837886,0.09109722752,-0.09158399527144698,,7.405877e-05,-3.7550926e-06,3.4570694e-06,1.0,-4.515797e-05,-4.0367246e-05,4.515797e-05,1.0,-6.7055225e-06,4.0374696e-05,6.7055225e-06,1.0,410,1.235,0,0,0.0,False,-0.256541683386486,1.0505771517758753
1.2421261020936072,13:56:54.398717,13:55:34.414563,0,,0.12501767,0.0016089603,0.031379595,0.018367872,0.97266716,-0.23147604,-0.302801,0.2260542,0.9258569,0.9528768,0.053085163,0.29867667,,0.04287635,-0.030502275,0.01775235,-0.6196255,0.21724863,0.75423294,0.76691437,0.37209296,0.52286637,-0.16705273,0.90241337,-0.3971694,,0.083612144,1.2908487,0.4262112,0.99383384,0.08260456,-0.07396477,0.012203555,-0.7445091,-0.66750073,-0.110206045,0.6624822,-0.74092644,,-0.11847875,0.25937665,-0.106086,-0.14531054,-0.9589798,0.24339813,0.40956336,0.16563766,0.89711875,-0.90063465,0.23004776,0.36869407,,-0.042637713,0.40867153,-0.35712248,0.6451702,-0.37011325,-0.66840976,0.46964464,0.8821554,-0.035153143,0.6026519,-0.2912353,0.7429621,,1.0826808125690308,0.5091906693291188,0.21675524348000003,2.8006188851793072,-1.1682420729945158,-0.5362169986777655,-0.4070534128066239,,-1.1906368954178153,0.1428319445087823,0.17925875894,-3.621974393808189,0.21383612213291428,0.6149743254334938,0.8765042588765424,,-0.06956009733823401,-0.051437034717837886,0.09109722752,-0.09158399527144698,,7.405877e-05,-3.7550926e-06,3.4570694e-06,1.0,-4.515797e-05,-4.0367246e-05,4.515797e-05,1.0,-6.7055225e-06,4.0374696e-05,6.7055225e-06,1.0,418,1.26,0,0,0.0,False,-0.2566012611050077,1.05105995378367
1.2783798901364207,13:56:54.421564,13:55:34.414563,0,,0.12499104,0.0015726238,0.031441882,0.009130217,0.9720445,-0.23461881,-0.3058131,0.22610123,0.9248549,0.9520477,0.06330536,0.29932824,,0.04287627,-0.03049986,0.017753065,-0.6196935,0.21720743,0.7541889,0.76688534,0.37196666,0.52299887,-0.1669339,0.9024753,-0.39707848,,0.083612144,1.2908487,0.4262112,0.99383384,0.08260456,-0.07396477,0.012203555,-0.7445091,-0.66750073,-0.110206045,0.6624822,-0.74092644,,-0.11846152,0.2593922,-0.106159285,-0.13621046,-0.9595522,0.24638635,0.4071298,0.17251389,0.89693046,-0.9031567,0.22248253,0.3671641,,-0.04263774,0.40867367,-0.35712114,0.6452159,-0.37008458,-0.66838145,0.46972066,0.8821213,-0.034992345,0.60254365,-0.29137498,0.74299514,,1.0819548756788537,0.5093528467194776,0.21672931768000003,2.7823758600961535,-1.173844169484899,-0.5228275606910314,-0.4057466602775497,,-1.1906446181506896,0.14283966724165653,0.17925875894,-3.621974393808189,0.21369948563314886,0.6150857433371902,0.8765042588765424,,-0.06956009733823401,-0.051437034717837886,0.09109722752,-0.09158399527144698,,7.405877e-05,-3.7550926e-06,3.4570694e-06,1.0,-4.515797e-05,-4.0367246e-05,4.515797e-05,1.0,-6.7055225e-06,4.0374696e-05,6.7055225e-06,1.0,426,1.285,1,1,0.007,False,-0.2571374605716965,1.0507702725789931
1.301217847969383,13:56:54.450964,13:55:34.414563,0,,0.124935,0.001567699,0.031497315,0.0008760616,0.97128326,-0.23792449,-0.30779055,0.22663623,0.9240676,0.95145375,0.07242134,0.29915023,,0.042876728,-0.030501053,0.017752707,-0.6196906,0.21714559,0.75420916,0.76688635,0.3719293,0.52302396,-0.16694008,0.9025056,-0.39700705,,0.083612144,1.2908487,0.4262112,0.99383384,0.08260456,-0.07396477,0.012203555,-0.7445091,-0.66750073,-0.110206045,0.6624822,-0.74092644,,-0.118412666,0.2594277,-0.10621021,-0.12805882,-0.9598326,0.24964425,0.4055845,0.17902204,0.89635503,-0.90504265,0.216038,0.3663679,,-0.04263814,0.40867257,-0.35712177,0.6452142,-0.37002936,-0.66841376,0.46971646,0.8821262,-0.034925792,0.60254884,-0.2914303,0.7429692,,1.0814683435077777,0.5095304695755847,0.21671376220000002,2.764552214899969,-1.1780799009776277,-0.5097355143398559,-0.4096669178647723,,-1.1906446181506896,0.1428319445087823,0.17925875894,-3.621974393808189,0.21369948563314886,0.6151674220773309,0.8763409148104081,,-0.06956009733823401,-0.051437034717837886,0.09109722752,-0.09158399527144698,,7.405877e-05,-3.7550926e-06,3.4570694e-06,1.0,-4.515797e-05,-4.0367246e-05,4.515797e-05,1.0,-6.7055225e-06,4.0374696e-05,6.7055225e-06,1.0,435,1.313,1,1,0.035,False,-0.2571374605716965,1.0508185527797727
1.3306303471326828,13:56:54.473274,13:55:34.527727,0,,0.12491963,0.0015571788,0.031545237,-0.006539263,0.9722065,-0.23403345,-0.30902737,0.2206178,0.9251107,0.9510306,0.07837227,0.2989956,,0.04287789,-0.030503228,0.01775229,-0.61981034,0.21700796,0.7541504,0.7667642,0.372045,0.52312064,-0.1670565,0.90249103,-0.39699122,,0.083612144,1.2908487,0.4262112,0.99383384,0.08260456,-0.07396477,0.012203555,-0.7445091,-0.66750073,-0.110206045,0.6624822,-0.74092644,,-0.11840357,0.25945243,-0.106254354,-0.12072011,-0.96175903,0.24585807,0.40467143,0.1784774,0.89687616,-0.90645885,0.20776273,0.3676506,,-0.042639226,0.40867066,-0.35712296,0.64535165,-0.36989042,-0.66835797,0.46956453,0.88221043,-0.03484202,0.60252005,-0.29135182,0.74302334,,1.0808505248778397,0.5097930424933084,0.21669561414000002,2.748406089251661,-1.1812225404722327,-0.4907554757865853,-0.4062366924759524,,-1.1906446181506896,0.14281649904303387,0.17925875894,-3.6221840837516734,0.21369948563314886,0.6151674220773309,0.8763409148104081,,-0.06956009733823401,-0.051437034717837886,0.09109722752,-0.09158399527144698,,7.405877e-05,-3.7550926e-06,3.4570694e-06,1.0,-4.515797e-05,-4.0367246e-05,4.515797e-05,1.0,-6.7055225e-06,4.0374696e-05,6.7055225e-06,1.0,443,1.338,1,1,0.06,False,-0.25636295023092304,1.0504805913743163
1.3529503070749342,13:56:54.500174,13:55:34.527727,0,,0.12485858,0.0015576184,0.031610116,-0.01768662,0.9720802,-0.23398119,-0.3065081,0.21747905,0.9266907,0.95170367,0.088107124,0.2941038,,0.042877197,-0.030504748,0.017751396,-0.6198093,0.21701401,0.7541493,0.7667643,0.37205258,0.5231152,-0.16705988,0.90248644,-0.39700025,,0.083612144,1.2908487,0.4262112,0.99383384,0.08260456,-0.07396477,0.012203555,-0.7445091,-0.66750073,-0.110206045,0.6624822,-0.74092644,,-0.118350565,0.25949842,-0.10630924,-0.1096105,-0.96293455,0.24646004,0.4074299,0.18264022,0.8947868,-0.9066347,0.19849321,0.37230906,,-0.042638395,0.40866908,-0.35712355,0.6453513,-0.3698955,-0.66835546,0.46956193,0.8822114,-0.034852117,0.60252243,-0.29134244,0.7430251,,1.0800241924602976,0.5102564064657618,0.21664116996000002,2.7207270167117037,-1.1812225404722327,-0.46510835138244877,-0.40917688566636956,,-1.1906368954178153,0.14280877631015965,0.17925875894,-3.6221840837516734,0.21369948563314886,0.6151674220773309,0.8763409148104081,,-0.06956009733823401,-0.051437034717837886,0.09109722752,-0.09158399527144698,,7.405877e-05,-3.7550926e-06,3.4570694e-06,1.0,-4.515797e-05,-4.0367246e-05,4.515797e-05,1.0,-6.7055225e-06,4.0374696e-05,6.7055225e-06,1.0,456,1.379,1,1,0.101,False,-0.2570183051346544,1.0513013547875674
1.3798460820689797,13:56:54.541848,13:55:34.527727,0,,0.12480821,0.0015008897,0.03176017,-0.032942124,0.9714497,-0.23494756,-0.30760232,0.21381035,0.9271818,0.95094454,0.10281375,0.2917768,,0.042996764,-0.030457795,0.01776588,-0.619894,0.21703948,0.7540725,0.7666955,0.3721243,0.5231649,-0.16706128,0.9024507,-0.39708078,,0.08360815,1.2908484,0.42622212,0.9938336,0.08261759,-0.073953085,0.012220951,-0.7445077,-0.66750205,-0.110206045,0.6624822,-0.74092644,,-0.11831805,0.25954977,-0.10645692,-0.09444412,-0.96422255,0.24769986,0.40670526,0.18973173,0.89364016,-0.90866446,0.1851399,0.37423533,,-0.042754292,0.40868908,-0.35707572,0.64542127,-0.36992177,-0.6682733,0.46953273,0.8822259,-0.034878172,0.6024702,-0.2912651,0.7430977,,1.0791978600427556,0.5108510568970771,0.21653487418000003,2.6846603464323655,-1.1854582719649613,-0.43265844361796,-0.4083601653356983,,-1.1906446181506896,0.1428242217759081,0.17926005523000002,-3.6221840837516734,0.21369948563314886,0.6150040645970498,0.8763409148104082,,-0.06956009733823401,-0.051437034717837886,0.09109722752,-0.09158399527144698,,6.888807e-05,3.3974648e-06,-4.053116e-06,1.0,-3.2186508e-05,-2.8774142e-05,3.219396e-05,1.0,-4.7683716e-06,2.8781593e-05,4.798174e-06,1.0,469,1.42,1,1,0.142,False,-0.25624379479388093,1.0506737121774343
1.421520508127287,13:56:54.582369,13:55:34.527727,0,,0.12471208,0.0015058592,0.032053277,-0.052182436,0.9713412,-0.23189053,-0.31157827,0.2047793,0.9278925,0.94878656,0.120671764,0.2919629,,0.042993102,-0.030456394,0.017766476,-0.61990374,0.21705234,0.7540608,0.76669157,0.37211815,0.52317506,-0.16704333,0.9024501,-0.3970896,,0.08360815,1.2908484,0.42622212,0.9938336,0.08261759,-0.073953085,0.012220951,-0.7445077,-0.66750205,-0.110206045,0.6624822,-0.74092644,,-0.11825665,0.25975272,-0.106681034,-0.07531914,-0.96667314,0.24468361,0.4030588,0.19492796,0.89417374,-0.91206944,0.16597028,0.37494433,,-0.04275078,0.4086909,-0.35707554,0.64542764,-0.3699344,-0.6682602,0.46954444,0.88221973,-0.034876365,0.6024543,-0.2912677,0.74310964,,1.0781861820362322,0.5121639214856952,0.21636894906,2.639786698526677,-1.1924267334529988,-0.3879336927422541,-0.4083601653356983,,-1.1906291726849412,0.14283966724165653,0.17925875894,-3.6221840837516734,0.21369948563314886,0.6150040645970498,0.8763409148104082,,-0.06956009733823401,-0.051437034717837886,0.09109722752,-0.09158399527144698,,6.888807e-05,3.3974648e-06,-4.053116e-06,1.0,-3.2186508e-05,-2.8774142e-05,3.219396e-05,1.0,-4.7683716e-06,2.8781593e-05,4.798174e-06,1.0,478,1.448,1,1,0.17,False,-0.2566012611050077,1.0506254319766548
1.4620342019479722,13:56:54.609412,13:55:34.527727,0,,0.124699384,0.0015035346,0.032193735,-0.05856538,0.9704565,-0.2340606,-0.31072527,0.20509517,0.9281087,0.94869375,0.1270836,0.28953382,,0.042991955,-0.030456692,0.01776588,-0.6199057,0.21705861,0.75405747,0.7666906,0.37212044,0.5231749,-0.16704056,0.90244764,-0.3970963,,0.08360815,1.2908484,0.42622212,0.9938336,0.08261759,-0.073953085,0.012220951,-0.7445077,-0.66750205,-0.110206045,0.6624822,-0.74092644,,-0.11826058,0.25984517,-0.10678748,-0.068933025,-0.96652716,0.2471306,0.40388077,0.19947425,0.89279914,-0.9122108,0.16135465,0.37661138,,-0.042749546,0.40869042,-0.35707548,0.6454291,-0.36994013,-0.6682557,0.46954608,0.88221866,-0.03488096,0.6024515,-0.29126364,0.7431135,,1.0778232135911436,0.5128357992457528,0.21626006070000003,2.6240599527653377,-1.192153460453468,-0.37574136004828107,-0.4070534128066239,,-1.1906214499520669,0.14283966724165653,0.17925875894,-3.6221840837516734,0.21369948563314886,0.6150040645970498,0.8763409148104082,,-0.06956009733823401,-0.051437034717837886,0.09109722752,-0.09158399527144698,,6.888807e-05,3.3974648e-06,-4.053116e-06,1.0,-3.2186508e-05,-2.8774142e-05,3.219396e-05,1.0,-4.7683716e-06,2.8781593e-05,4.798174e-06,1.0,491,1.489,1,1,0.211,False,-0.2561246393568388,1.0507219923782136
1.4890871581155807,13:56:54.651412,13:55:34.527727,0,,0.12471427,0.0015123636,0.032515243,-0.06804934,0.9698326,-0.23408106,-0.31128207,0.20227343,0.9285413,0.947878,0.13605186,0.2881269,,0.042988513,-0.030457526,0.017764091,-0.6199115,0.21707734,0.75404716,0.76668775,0.37212723,0.52317435,-0.16703215,0.90244037,-0.39711642,,0.08360815,1.2908484,0.42622212,0.9938336,0.08261759,-0.073953085,0.012220951,-0.7445077,-0.66750205,-0.110206045,0.6624822,-0.74092644,,-0.11831238,0.26006562,-0.10701637,-0.059461117,-0.9671031,0.24733777,0.40329266,0.20338102,0.89218336,-0.91313714,0.15279973,0.3779323,,-0.04274585,0.408689,-0.35707536,0.6454333,-0.36995724,-0.66824204,0.46955103,0.8822155,-0.034894746,0.6024431,-0.2912515,0.7431251,,1.0773984632830613,0.5142567820946101,0.21603839511000003,2.6016231288124936,-1.193109915951826,-0.3551951796083903,-0.406073348409818,,-1.1905982817534442,0.14283966724165653,0.17925875894,-3.6221840837516734,0.21369948563314886,0.6150040645970498,0.8763409148104082,,-0.06956009733823401,-0.051437034717837886,0.09109722752,-0.09158399527144698,,6.888807e-05,3.3974648e-06,-4.053116e-06,1.0,-3.2186508e-05,-2.8774142e-05,3.219396e-05,1.0,-4.7683716e-06,2.8781593e-05,4.798174e-06,1.0,500,1.518,1,1,0.24,False,-0.25600548391979716,1.0506254319766548
1.531045133015141,13:56:54.684295,13:55:34.741431,0,,0.12469232,0.0015497953,0.032822654,-0.07989385,0.9690469,-0.2335916,-0.31369418,0.19799161,0.9286524,0.9461569,0.14746994,0.28816596,,0.042987365,-0.030457824,0.017763555,-0.61991346,0.21708363,0.7540437,0.7666867,0.37212947,0.5231742,-0.16702932,0.9024379,-0.39712313,,0.08360815,1.2908484,0.42622212,0.9938336,0.08261759,-0.073953085,0.012220951,-0.7445077,-0.66750205,-0.110206045,0.6624822,-0.74092644,,-0.11832451,0.26029935,-0.107220314,-0.04763993,-0.9678811,0.2468536,0.40081245,0.2078418,0.892273,-0.9149207,0.14144982,0.3780372,,-0.042744618,0.40868852,-0.35707533,0.64543474,-0.36996296,-0.6682375,0.46955267,0.8822144,-0.034899343,0.60244024,-0.29124746,0.74312896,,1.0769505447763563,0.5157395468064612,0.21585950709,2.573314986442083,-1.1961159189466657,-0.32856707864546253,-0.405256628079147,,-1.19059055902057,0.14283966724165653,0.17925875894,-3.6221840837516734,0.21369948563314886,0.6150040645970498,0.8763409148104082,,-0.06956009733823401,-0.051437034717837886,0.09109722752,-0.09158399527144698,,6.888807e-05,3.3974648e-06,-4.053116e-06,1.0,-3.2186508e-05,-2.8774142e-05,3.219396e-05,1.0,-4.7683716e-06,2.8781593e-05,4.798174e-06,1.0,513,1.559,1,1,0.281,False,-0.2561246393568388,1.0508185527797727
1.5639714831486344,13:56:54.714173,13:55:34.741431,0,,0.12467129,0.0015558004,0.032987133,-0.08830082,0.968043,-0.23472437,-0.3131941,0.19671181,0.9290931,0.9455751,0.15555398,0.28581554,,0.042991057,-0.030456752,0.017765462,-0.62003314,0.21692756,0.7539903,0.7665655,0.37222776,0.52328193,-0.16714182,0.90243495,-0.39708263,,0.08360815,1.2908484,0.42622212,0.9938336,0.08261759,-0.073953085,0.012220951,-0.7445077,-0.66750205,-0.110206045,0.6624822,-0.74092644,,-0.11832253,0.26041436,-0.107339926,-0.039207917,-0.9678959,0.24827449,0.4011247,0.21232088,0.89107734,-0.91518396,0.13452631,0.3799223,,-0.042748593,0.4086902,-0.35707536,0.6455714,-0.36980808,-0.66819125,0.4694042,0.88229775,-0.034790814,0.60240954,-0.29119182,0.7431756,,1.0765103490025256,0.5166353838198713,0.21573895212000002,2.5525556820371147,-1.1959792824469004,-0.31070917371823525,-0.40738010093889243,,-1.1906137272191926,0.14283966724165653,0.17925875894,-3.6223937736951584,0.21369948563314886,0.6150040645970498,0.8763409148104082,,-0.06956009733823401,-0.051437034717837886,0.09109722752,-0.09158399527144698,,6.888807e-05,3.3974648e-06,-4.053116e-06,1.0,-3.2186508e-05,-2.8774142e-05,3.219396e-05,1.0,-4.7683716e-06,2.8781593e-05,4.798174e-06,1.0,522,1.588,1,1,0.31,False,-0.25588632848275505,1.0504805913743163
1.5937850179616362,13:56:54.745708,13:55:34.741431,0,,0.12467561,0.001529865,0.03310798,-0.096214905,0.9677069,-0.2329936,-0.3131348,0.19276673,0.9299395,0.9448223,0.16243246,0.28447568,,0.04299361,-0.03045842,0.01776588,-0.6202762,0.21775438,0.75355196,0.76632005,0.37321544,0.5229378,-0.16736516,0.9018277,-0.3983661,,0.08360815,1.2908484,0.42622212,0.9938336,0.08261759,-0.073953085,0.012220951,-0.7445077,-0.66750205,-0.110206045,0.6624822,-0.74092644,,-0.11834228,0.2604755,-0.1074456,-0.03126794,-0.9685724,0.24675873,0.40097564,0.21398672,0.8907459,-0.91555494,0.12679602,0.381683,,-0.042751186,0.40868905,-0.35707653,0.6458482,-0.3705074,-0.6675361,0.46910694,0.8824112,-0.035905156,0.6023444,-0.28995654,0.74371123,,1.0758539167082164,0.5173613207100484,0.21563654521000003,2.5334738971800235,-1.1963891919461966,-0.2913437735543951,-0.4075434450050268,,-1.1906214499520669,0.1428242217759081,0.17925875894,-3.6228131535821273,0.21369948563314886,0.6135338472745198,0.8760142266781397,,-0.06956009733823401,-0.051437034717837886,0.09109722752,-0.09158399527144698,,6.888807e-05,3.3974648e-06,-4.053116e-06,1.0,-3.2186508e-05,-2.8774142e-05,3.219396e-05,1.0,-4.7683716e-06,2.8781593e-05,4.798174e-06,1.0,535,1.629,1,1,0.351,False,-0.2561842170753601,1.0504805913743163
1.6253535989671946,13:56:54.786102,13:55:34.741431,0,,0.124741435,0.00143601,0.033268645,-0.10337937,0.9662784,-0.23583597,-0.3147747,0.19313613,0.9293091,0.9435197,0.1703066,0.28419363,,0.042989157,-0.030451685,0.017766297,-0.62086874,0.21847221,0.7528558,0.765993,0.37325776,0.52338654,-0.16666387,0.90163654,-0.3990922,,0.08360815,1.2908484,0.42622212,0.9938336,0.08261759,-0.073953085,0.012220951,-0.7445077,-0.66750205,-0.110206045,0.6624822,-0.74092644,,-0.11843124,0.26051027,-0.10761832,-0.024096584,-0.96805495,0.2495775,0.39916644,0.21956941,0.89019966,-0.9165618,0.12107373,0.38112417,,-0.042746827,0.40869445,-0.35707238,0.6463053,-0.37117994,-0.6667195,0.46947545,0.88220936,-0.036048036,0.6015665,-0.2897104,0.74443644,,1.0748885750989383,0.518102703065974,0.21548099041000002,2.517327771531715,-1.1985753759424436,-0.27918788709740094,-0.4083601653356981,,-1.1906291726849412,0.1428242217759081,0.17925746265,-3.6230228435256118,0.21274303013479076,0.6128435552778645,0.8763409148104083,,-0.06956009733823401,-0.051437034717837886,0.09109722752,-0.09158399527144698,,6.888807e-05,3.3974648e-06,-4.053116e-06,1.0,-3.2186508e-05,-2.8774142e-05,3.219396e-05,1.0,-4.7683716e-06,2.8781593e-05,4.798174e-06,1.0,544,1.657,1,1,0.379,False,-0.2564821056679656,1.0507702725789931
1.6657619311008602,13:56:54.821483,13:55:34.878479,0,,0.12486418,0.0013807565,0.033333793,-0.10504188,0.96714246,-0.23151986,-0.3146539,0.1885247,0.9302964,0.9433764,0.17056873,0.28451225,,0.042989157,-0.030451685,0.017766297,-0.62086874,0.21890259,0.75273085,0.765993,0.37355697,0.5231731,-0.16666387,0.9014082,-0.39960766,,0.08360815,1.2908484,0.42622212,0.9938336,0.08261759,-0.073953085,0.012220951,-0.7445077,-0.66750205,-0.110206045,0.6624822,-0.74092644,,-0.11856348,0.2605078,-0.1076881,-0.02242468,-0.9691849,0.2453116,0.39922556,0.21627946,0.8909782,-0.9165785,0.117914565,0.38207337,,-0.042746827,0.40869445,-0.35707238,0.6463053,-0.37156105,-0.6665072,0.46947545,0.8821886,-0.036552433,0.6015665,-0.28928474,0.74460196,,1.0741780836745096,0.5185428988398048,0.21540969446000002,2.5150211821533848,-1.1985753759424436,-0.27257190914601537,-0.40917688566636934,,-1.1906291726849412,0.1428242217759081,0.17925746265,-3.6230228435256118,0.21274303013479076,0.6122718040968805,0.8761775707442738,,-0.06956009733823401,-0.051437034717837886,0.09109722752,-0.09158399527144698,,6.888807e-05,3.3974648e-06,-4.053116e-06,1.0,-3.2186508e-05,-2.8774142e-05,3.219396e-05,1.0,-4.7683716e-06,2.8781593e-05,4.798174e-06,1.0,557,1.698,1,1,0.42,False,-0.25719703829021734,1.0502874705711984
1.7011489551514387,13:56:54.854257,13:55:34.878479,0,,0.124842346,0.0013482794,0.03338115,-0.112065904,0.963886,-0.24158841,-0.31475025,0.19617042,0.92868155,0.94253564,0.18011354,0.28139934,,0.0429909,-0.03045407,0.0177657,-0.6209251,0.21892217,0.75267863,0.76596785,0.37349495,0.5232542,-0.16656971,0.9014291,-0.39959964,,0.08360815,1.2908484,0.42622212,0.9938336,0.08261759,-0.073953085,0.012220951,-0.7445077,-0.66750205,-0.110206045,0.6624822,-0.74092644,,-0.11854906,0.26051608,-0.107747234,-0.015365358,-0.96666694,0.25557572,0.39886734,0.22846173,0.88809353,-0.9168799,0.11558668,0.38206145,,-0.042748462,0.4086922,-0.35707358,0.646344,-0.37158448,-0.66645664,0.46953455,0.8821599,-0.03648564,0.6014788,-0.28934214,0.7446505,,1.0735757105103203,0.5189522036821386,0.21535525028000002,2.4976169168441698,-1.1991219219415055,-0.2668987981622336,-0.4101569500631752,,-1.1906368954178153,0.1428010535772854,0.17925746265,-3.6230228435256118,0.21260639363502531,0.6123015432604365,0.8760142266781397,,-0.06956009733823401,-0.051437034717837886,0.09109722752,-0.09158399527144698,,6.888807e-05,3.3974648e-06,-4.053116e-06,1.0,-3.2186508e-05,-2.8774142e-05,3.219396e-05,1.0,-4.7683716e-06,2.8781593e-05,4.798174e-06,1.0,566,1.727,1,1,0.449,False,-0.2561246393568388,1.050963393382111
1.733919268939644,13:56:54.882712,13:55:34.878479,0,,0.12486378,0.0013635755,0.033458486,-0.11646609,0.9634534,-0.24123251,-0.3156963,0.19437754,0.9287374,0.9416854,0.18432266,0.2815203,,0.04300643,-0.03045389,0.01777041,-0.6210824,0.21873543,0.7526032,0.76583,0.37351882,0.5234389,-0.16661677,0.9014646,-0.39950007,,0.08360815,1.2908484,0.42622212,0.9938336,0.08261759,-0.073953085,0.012220951,-0.7445077,-0.66750205,-0.110206045,0.6624822,-0.74092644,,-0.11857853,0.26057822,-0.107791364,-0.010951871,-0.9668232,0.25521153,0.39776808,0.22995214,0.8882019,-0.9174206,0.11124247,0.38205302,,-0.042764574,0.4086938,-0.35707462,0.64650613,-0.3714067,-0.66639847,0.4694276,0.88222533,-0.03627953,0.60138804,-0.28937086,0.74471265,,1.0732359102638542,0.5195314086477054,0.21531895416000002,2.4871324196699436,-1.2000783774398633,-0.25680749646033474,-0.4095035737986379,,-1.190729568212306,0.1427701626457885,0.17925875894,-3.6232325334690962,0.2124697571352599,0.6123312824239924,0.8761775707442739,,-0.06956009733823401,-0.051437034717837886,0.09109722752,-0.09158399527144698,,6.888807e-05,3.3974648e-06,-4.053116e-06,1.0,-3.2186508e-05,-2.8774142e-05,3.219396e-05,1.0,-4.7683716e-06,2.8781593e-05,4.798174e-06,1.0,579,1.768,1,1,0.49,False,-0.25642252794944387,1.0502874705711984
1.7623850801028311,13:56:54.933547,13:55:34.878479,0,,0.12469781,0.001430139,0.03360285,-0.12963372,0.96109027,-0.24392739,-0.31734338,0.19285056,0.92849433,0.9394084,0.19777295,0.27999568,,0.04303459,-0.03045237,0.01778239,-0.62121534,0.21854126,0.75254977,0.7657038,0.37356597,0.5235898,-0.166701,0.9014921,-0.39940274,,0.08360815,1.2908484,0.42622212,0.9938336,0.08261759,-0.073953085,0.012220951,-0.7445077,-0.66750205,-0.110206045,0.6624822,-0.74092644,,-0.11842728,0.2607305,-0.10787347,0.0022866188,-0.966129,0.2580494,0.39553794,0.2378797,0.88710934,-0.9184468,0.10003985,0.38268462,,-0.0427944,0.40870008,-0.3570779,0.64665085,-0.3712201,-0.666362,0.46929815,0.8823015,-0.036100544,0.60133344,-0.28937802,0.74475396,,1.0731046238049926,0.5205430866542289,0.21525154708000002,2.452323889051512,-1.2015813789372833,-0.22748441291132038,-0.41048363819544376,,-1.1909071910684133,0.14273154898141738,0.17925875894,-3.623442223412581,0.21233312063549445,0.6122793428474076,0.8761775707442738,,-0.06956009733823401,-0.051437034717837886,0.09109722752,-0.09158399527144698,,6.888807e-05,3.3974648e-06,-4.053116e-06,1.0,-3.2186508e-05,-2.8774142e-05,3.219396e-05,1.0,-4.7683716e-06,2.8781593e-05,4.798174e-06,1.0,588,1.797,1,1,0.519,False,-0.25731619372725945,1.0507219923782136
1.8131926211062819,13:56:54.954709,13:55:34.995483,0,,0.124640524,0.0014647245,0.03365399,-0.1343836,0.9612245,-0.24080797,-0.3175583,0.18842155,0.92932993,0.938668,0.20135729,0.27992406,,0.043046527,-0.030450791,0.017787993,-0.62119293,0.21847865,0.75258654,0.7657145,0.3735488,0.52358633,-0.16673529,0.9015144,-0.39933807,,0.08360815,1.2908484,0.42622212,0.9938336,0.08261759,-0.073953085,0.012220951,-0.7445077,-0.66750205,-0.110206045,0.6624822,-0.74092644,,-0.1183746,0.26079258,-0.10789506,0.0070725377,-0.9669131,0.2550079,0.39506966,0.2369699,0.8875614,-0.9186239,0.09446857,0.38367403,,-0.04280712,0.4087037,-0.35707894,0.64663494,-0.37116256,-0.66640955,0.46927744,0.8823142,-0.036060147,0.60136676,-0.28941318,0.74471337,,1.073089178339244,0.520960114229437,0.21523080644000003,2.439742492442441,-1.2015813789372833,-0.21270056094587875,-0.40803347720342953,,-1.1909844183971554,0.14272382624854316,0.17925875894,-3.623442223412581,0.21233312063549445,0.6122793428474076,0.8761775707442738,,-0.06956009733823401,-0.051437034717837886,0.09109722752,-0.09158399527144698,,6.888807e-05,3.3974648e-06,-4.053116e-06,1.0,-3.2186508e-05,-2.8774142e-05,3.219396e-05,1.0,-4.7683716e-06,2.8781593e-05,4.798174e-06,1.0,601,1.838,1,1,0.56,False,-0.2568991496976123,1.0509151131813312
1.834384846035391,13:56:54.996427,13:55:34.995483,0,,0.124526344,0.0015407428,0.033778265,-0.14612731,0.9590532,-0.24261852,-0.318499,0.1865831,0.92937887,0.9365922,0.21308142,0.27819258,,0.043071914,-0.030453533,0.017795563,-0.62132496,0.21824744,0.7525447,0.7655875,0.3735781,0.5237512,-0.1668268,0.9015582,-0.39920086,,0.08360815,1.2908484,0.42622212,0.9938336,0.08261759,-0.073953085,0.012220951,-0.7445077,-0.66750205,-0.110206045,0.6624822,-0.74092644,,-0.11827187,0.2609365,-0.10794976,0.018912457,-0.9662242,0.25700814,0.39344367,0.24350686,0.88651365,-0.91915417,0.084352076,0.38476008,,-0.042833466,0.40870422,-0.3570828,0.64678,-0.37094247,-0.66639125,0.46914196,0.882395,-0.035844054,0.6013164,-0.28944886,0.7447402,,1.072919278216011,0.5220490195647026,0.21518025113000003,2.408918070750216,-1.201854651936814,-0.18625884955336558,-0.4088501975341011,,-1.1911311503217656,0.14266204438554936,0.17926005523000002,-3.6236519133560656,0.212196484135729,0.6123090820109633,0.8763409148104081,,-0.06956009733823401,-0.051437034717837886,0.09109722752,-0.09158399527144698,,6.888807e-05,3.3974648e-06,-4.053116e-06,1.0,-3.2186508e-05,-2.8774142e-05,3.219396e-05,1.0,-4.7683716e-06,2.8781593e-05,4.798174e-06,1.0,610,1.866,1,1,0.588,False,-0.2564821056679656,1.0502874705711984
1.876089147059247,13:56:55.025854,13:55:34.995483,0,,0.1245152,0.0015541092,0.033828422,-0.15057564,0.9588094,-0.24085572,-0.32042843,0.18314636,0.9293994,0.9352286,0.2171219,0.2796524,,0.04308132,-0.030455232,0.017798722,-0.6213026,0.21832612,0.75254023,0.76559734,0.3736639,0.5236756,-0.16686505,0.9015037,-0.39930817,,0.08360815,1.2908484,0.42622212,0.9938336,0.08261759,-0.073953085,0.012220951,-0.7445077,-0.66750205,-0.110206045,0.6624822,-0.74092644,,-0.118265964,0.26098034,-0.10797914,0.023381907,-0.9666344,0.2550906,0.39127225,0.24365437,0.8874337,-0.9199779,0.07905999,0.38391432,,-0.042843297,0.40870422,-0.357085,0.6467648,-0.37100962,-0.6663686,0.4691178,0.88240266,-0.035972603,0.6013516,-0.28933954,0.74475425,,1.0726567052982876,0.5225046608042819,0.21516599194000002,2.397385123858567,-1.2036309264337648,-0.1735387506659144,-0.40917688566636956,,-1.1911852094518853,0.1426388761869267,0.17926005523000002,-3.6236519133560656,0.212196484135729,0.6121457245306823,0.8760142266781398,,-0.06956009733823401,-0.051437034717837886,0.09109722752,-0.09158399527144698,,6.888807e-05,3.3974648e-06,-4.053116e-06,1.0,-3.2186508e-05,-2.8774142e-05,3.219396e-05,1.0,-4.7683716e-06,2.8781593e-05,4.798174e-06,1.0,623,1.907,1,1,0.629,False,-0.25642252794944387,1.05105995378367
1.9055312329437584,13:56:55.064662,13:55:35.106934,0,,0.12449721,0.0015828982,0.033892766,-0.16032076,0.956059,-0.24545534,-0.32204214,0.18440087,0.92859316,0.933052,0.22791974,0.27832803,,0.04308958,-0.030457169,0.017801344,-0.62128216,0.21834958,0.7525503,0.76560616,0.37370908,0.5236304,-0.1669004,0.90147924,-0.3993485,,0.08360815,1.2908484,0.42622212,0.9938336,0.08261759,-0.073953085,0.012220951,-0.7445077,-0.66750205,-0.110206045,0.6624822,-0.74092644,,-0.11825412,0.26104537,-0.108009495,0.03321606,-0.9651005,0.25976455,0.38900024,0.25189734,0.8861301,-0.9206386,0.07161472,0.38379136,,-0.0428519,0.40870377,-0.35708714,0.64675105,-0.37102807,-0.6663717,0.46909526,0.88241214,-0.036033668,0.601384,-0.289287,0.7447485,,1.0720311639354754,0.5234313887491888,0.21514525130000003,2.3724320205839082,-1.2047240184318886,-0.15516815704626252,-0.40917688566636945,,-1.1912315458491307,0.14261570798830403,0.17926005523000002,-3.6236519133560656,0.212196484135729,0.6120640457905417,0.876177570744274,,-0.06956009733823401,-0.051437034717837886,0.09109722752,-0.09158399527144698,,6.888807e-05,3.3974648e-06,-4.053116e-06,1.0,-3.2186508e-05,-2.8774142e-05,3.219396e-05,1.0,-4.7683716e-06,2.8781593e-05,4.798174e-06,1.0,632,1.936,1,1,0.658,False,-0.2571374605716965,1.0507219923782136
1.944324549054727,13:56:55.097174,13:55:35.106934,0,,0.124482356,0.0015818328,0.03395219,-0.16959015,0.9534526,-0.24933368,-0.32650748,0.18435147,0.92704237,0.9298559,0.23862655,0.28004515,,0.043089263,-0.030457467,0.017800868,-0.62134624,0.21843718,0.7524719,0.765578,0.37368152,0.52369136,-0.16679117,0.90146947,-0.39941627,,0.08360815,1.2908484,0.42622212,0.9938336,0.08261759,-0.073953085,0.012220951,-0.7445077,-0.66750205,-0.110206045,0.6624822,-0.74092644,,-0.11824638,0.2610848,-0.10805575,0.04254748,-0.96376735,0.26332912,0.38390797,0.25910383,0.886273,-0.9223906,0.063385464,0.38102219,,-0.042851496,0.40870324,-0.35708705,0.6467947,-0.37111282,-0.6662822,0.46916434,0.8823755,-0.036032546,0.6012832,-0.2892902,0.74482864,,1.0712820588466756,0.5242499984338567,0.21513358469000002,2.347688607252735,-1.2088231134248515,-0.13565322938753877,-0.4088501975341008,,-1.1912315458491307,0.1426079852554298,0.17926005523000002,-3.6236519133560656,0.21205984763596358,0.612012106213957,0.8761775707442737,,-0.06956009733823401,-0.051437034717837886,0.09109722752,-0.09158399527144698,,6.888807e-05,3.3974648e-06,-4.053116e-06,1.0,-3.2186508e-05,-2.8774142e-05,3.219396e-05,1.0,-4.7683716e-06,2.8781593e-05,4.798174e-06,1.0,645,1.977,1,1,0.699,False,-0.25767366003838577,1.05105995378367
1.9768108390271664,13:56:55.133670,13:55:35.106934,0,,0.124503404,0.0015814304,0.033965364,-0.17477351,0.9522423,-0.25037712,-0.32698423,0.18372533,0.9269986,0.9287279,0.24388415,0.27925786,,0.043089718,-0.030458659,0.01780051,-0.6213434,0.21843705,0.75247437,0.765579,0.3736868,0.5236861,-0.16679728,0.90146726,-0.39941856,,0.08360815,1.2908484,0.42622212,0.9938336,0.08261759,-0.073953085,0.012220951,-0.7445077,-0.66750205,-0.110206045,0.6624822,-0.74092644,,-0.11826881,0.26109245,-0.10806314,0.04779478,-0.9632133,0.2644536,0.38300326,0.26219207,0.8857561,-0.92250973,0.058952067,0.3814453,,-0.0428519,0.40870214,-0.35708767,0.64679295,-0.37111223,-0.6662842,0.46916017,0.88237745,-0.03603806,0.6012883,-0.28928486,0.74482656,,1.0707491902783541,0.5247519760706812,0.21512580695000003,2.3342684508697253,-1.2089597499246172,-0.12435182408458512,-0.41032029412930937,,-1.1912315458491307,0.14260026252255556,0.17926005523000002,-3.6236519133560656,0.21205984763596358,0.612012106213957,0.8761775707442737,,-0.06956009733823401,-0.051437034717837886,0.09109722752,-0.09158399527144698,,6.888807e-05,3.3974648e-06,-4.053116e-06,1.0,-3.2186508e-05,-2.8774142e-05,3.219396e-05,1.0,-4.7683716e-06,2.8781593e-05,4.798174e-06,1.0,654,2.005,1,1,0.727,False,-0.25695872741613357,1.0507219923782136
2.013339577941224,13:56:55.164359,13:55:35.106934,0,,0.124462105,0.0015628785,0.03395374,-0.18110302,0.95046633,-0.25261673,-0.32791057,0.18380761,0.92665505,0.9271873,0.25065574,0.27837986,,0.043092396,-0.030457646,0.017800272,-0.6215289,0.21825182,0.7523749,0.7654283,0.3736745,0.5239151,-0.16679788,0.9015173,-0.39930555,,0.08360815,1.2908484,0.42622212,0.9938336,0.08261759,-0.073953085,0.012220951,-0.7445077,-0.66750205,-0.110206045,0.6624822,-0.74092644,,-0.11822747,0.26107252,-0.10807199,0.05420333,-0.9622378,0.26675916,0.38153356,0.2668393,0.88500226,-0.9227644,0.053807504,0.3815896,,-0.04285448,0.4087023,-0.3570864,0.64697444,-0.37093884,-0.6662045,0.46908212,0.88242906,-0.035789426,0.6011539,-0.2893498,0.7449098,,1.0702935490387748,0.5250608853856502,0.21512321437,2.3177029453344478,-1.2095062959236789,-0.11116426900787191,-0.40966691786477216,,-1.191246991314879,0.14259253978968134,0.17926135152000003,-3.62386160329955,0.21192321113619814,0.6121235241176535,0.8761775707442737,,-0.06956009733823401,-0.051437034717837886,0.09109722752,-0.09158399527144698,,6.888807e-05,3.3974648e-06,-4.053116e-06,1.0,-3.2186508e-05,-2.8774142e-05,3.219396e-05,1.0,-4.7683716e-06,2.8781593e-05,4.798174e-06,1.0,663,2.033,1,1,0.755,False,-0.25695872741613357,1.0501909101696396
2.0439718009438366,13:56:55.196806,13:55:35.106934,0,,0.12438581,0.0015285164,0.033933,-0.18831162,0.9470105,-0.26021075,-0.3301217,0.18849833,0.92492604,0.92496395,0.26007554,0.2771323,,0.04309927,-0.030462593,0.017801046,-0.6215065,0.21834883,0.7523652,0.76543725,0.37377766,0.52382845,-0.16683996,0.90145105,-0.39943752,,0.08360815,1.2908484,0.42622212,0.9938336,0.08261759,-0.073953085,0.012220951,-0.7445077,-0.66750205,-0.110206045,0.6624822,-0.74092644,,-0.11815119,0.2610361,-0.1080889,0.06149587,-0.95966285,0.27434543,0.37868685,0.27674732,0.88318014,-0.92347956,0.04957907,0.38043052,,-0.04286142,0.4086987,-0.35708973,0.64695996,-0.37102184,-0.6661723,0.46905452,0.8824375,-0.035942785,0.60119104,-0.2892176,0.7449312,,1.0698147396005728,0.5253080128376254,0.21512191808000003,2.297363020816449,-1.2112825704206296,-0.099914387442951,-0.40934022973250406,,-1.1912778822463759,0.14255392612531023,0.17926135152000003,-3.62386160329955,0.21192321113619814,0.6119601666373724,0.8758508826120054,,-0.06956009733823401,-0.051437034717837886,0.09109722752,-0.09158399527144698,,6.888807e-05,3.3974648e-06,-4.053116e-06,1.0,-3.2186508e-05,-2.8774142e-05,3.219396e-05,1.0,-4.7683716e-06,2.8781593e-05,4.798174e-06,1.0,676,2.075,1,1,0.797,False,-0.25737577144578117,1.0505771517758753
2.0764003430958837,13:56:55.235011,13:55:35.288257,0,,0.12427736,0.001501143,0.033917025,-0.1954295,0.94444364,-0.26426023,-0.3327856,0.18960649,0.923744,0.92252964,0.26846886,0.27724257,,0.043108225,-0.030463845,0.017802715,-0.62161136,0.21823475,0.75231165,0.7653216,0.37392825,0.52388984,-0.16697958,0.9014162,-0.39945775,,0.08360815,1.2908484,0.42622212,0.9938336,0.08261759,-0.073953085,0.012220951,-0.7445077,-0.66750205,-0.110206045,0.6624822,-0.74092644,,-0.11804321,0.2610093,-0.10810862,0.06869926,-0.9580381,0.2782866,0.375359,0.28327042,0.8825324,-0.92433006,0.043828055,0.37906867,,-0.04287054,0.40869796,-0.35709065,0.64708686,-0.3709023,-0.66611564,0.46888813,0.8825273,-0.03590972,0.60118425,-0.289097,0.7449835,,1.069505830285604,0.5255242493581037,0.21512062179000002,2.2763940264679965,-1.2133321179171113,-0.08427605432346852,-0.40983026193090666,,-1.1913242186436213,0.14253075792668754,0.17926264781,-3.624071293243034,0.21192321113619814,0.6118784878972319,0.8760142266781397,,-0.06956009733823401,-0.051437034717837886,0.09109722752,-0.09158399527144698,,6.888807e-05,3.3974648e-06,-4.053116e-06,1.0,-3.2186508e-05,-2.8774142e-05,3.219396e-05,1.0,-4.7683716e-06,2.8781593e-05,4.798174e-06,1.0,685,2.103,1,1,0.825,False,-0.2570778828531757,1.0505288715750958
2.114678726065904,13:56:55.257063,13:55:35.288257,0,,0.12426563,0.0015023649,0.03391017,-0.19841835,0.94439197,-0.26220948,-0.33262295,0.18676868,0.9243806,0.9219501,0.27063096,0.2770681,,0.043117557,-0.030465484,0.017805576,-0.6217783,0.21807922,0.7522188,0.7651788,0.37396348,0.5240734,-0.16701275,0.9014393,-0.3993919,,0.08360815,1.2908484,0.42622212,0.9938336,0.08261759,-0.073953085,0.012220951,-0.7445077,-0.66750205,-0.110206045,0.6624822,-0.74092644,,-0.11803072,0.26100612,-0.108104184,0.07173969,-0.95838827,0.27630654,0.3752102,0.28260314,0.8828096,-0.92415947,0.040340554,0.37987092,,-0.042880245,0.40869775,-0.35709265,0.64725596,-0.370753,-0.66603446,0.46878913,0.8825873,-0.03572684,0.6010794,-0.28910533,0.7450649,,1.0693127619637484,0.5257327631457077,0.21512062179000002,2.2686354985590693,-1.2127855719180496,-0.07500195586152736,-0.40999360599704093,,-1.191378277773741,0.14249986699519065,0.17926264781,-3.6242809831865186,0.21178657463643272,0.6119082270607877,0.8761775707442739,,-0.06956009733823401,-0.051437034717837886,0.09109722752,-0.09158399527144698,,6.888807e-05,3.3974648e-06,-4.053116e-06,1.0,-3.2186508e-05,-2.8774142e-05,3.219396e-05,1.0,-4.7683716e-06,2.8781593e-05,4.798174e-06,1.0,689,2.116,1,1,0.838,False,-0.257435349164302,1.0503840309727575
2.1367384830955416,13:56:55.282829,13:55:35.288257,0,,0.12421929,0.0015042797,0.03390415,-0.20400986,0.9415112,-0.26820987,-0.33286676,0.19093549,0.92344105,0.9206408,0.27766925,0.27444506,,0.043134663,-0.03047046,0.017808795,-0.62179875,0.21802925,0.75221646,0.76516926,0.37390327,0.5241303,-0.16698048,0.90147626,-0.3993218,,0.08360815,1.2908484,0.42622212,0.9938336,0.08261759,-0.073953085,0.012220951,-0.7445077,-0.66750205,-0.110206045,0.6624822,-0.74092644,,-0.11798394,0.2610053,-0.10810411,0.07742518,-0.95613337,0.28251427,0.3743738,0.29051042,0.8805952,-0.92403984,0.037585698,0.38044408,,-0.04289769,0.40869465,-0.3570963,0.6472703,-0.3707108,-0.66604406,0.46880895,0.8825804,-0.035637204,0.6010485,-0.28918052,0.7450606,,1.069057911778899,0.5260880088579221,0.21511673292000003,2.2535378226281835,-1.2122390259189877,-0.06744311094253785,-0.41032029412930937,,-1.1914709505682315,0.14243808513219686,0.17926394410000002,-3.6242809831865186,0.21164993813666727,0.6119379662243435,0.8760142266781396,,-0.06956009733823401,-0.051437034717837886,0.09109722752,-0.09158399527144698,,6.888807e-05,3.3974648e-06,-4.053116e-06,1.0,-3.2186508e-05,-2.8774142e-05,3.219396e-05,1.0,-4.7683716e-06,2.8781593e-05,4.798174e-06,1.0,698,2.145,1,1,0.867,False,-0.25695872741613357,1.050335750771978
2.1624810160137713,13:56:55.305824,13:55:35.288257,0,,0.12424602,0.001517415,0.033927158,-0.20518291,0.94171935,-0.26657945,-0.3331041,0.18892118,0.9237697,0.9202943,0.27834046,0.27492723,,0.04315048,-0.030472457,0.017811477,-0.6217627,0.21795963,0.75226635,0.765185,0.37390506,0.52410597,-0.1670423,0.90149236,-0.39925963,,0.08360815,1.2908484,0.42622212,0.9938336,0.08261759,-0.073953085,0.012220951,-0.7445077,-0.66750205,-0.110206045,0.6624822,-0.74092644,,-0.11801245,0.2610294,-0.10810904,0.07861655,-0.95652395,0.28085828,0.3740118,0.2894513,0.8810977,-0.9240858,0.035775457,0.38050693,,-0.042913742,0.40869325,-0.35709763,0.6472459,-0.37064508,-0.6661043,0.46876976,0.88260216,-0.03561429,0.6011054,-0.28919837,0.7450078,,1.0689266253200371,0.52635830450852,0.21511154776000002,2.2508118533628845,-1.2122390259189877,-0.06319581645522854,-0.4086868534679666,,-1.191555900629848,0.14239947146782572,0.17926653668,-3.6242809831865186,0.21164993813666727,0.6119379662243435,0.8760142266781396,,-0.06956009733823401,-0.051437034717837886,0.09109722752,-0.09158399527144698,,6.888807e-05,3.3974648e-06,-4.053116e-06,1.0,-3.2186508e-05,-2.8774142e-05,3.219396e-05,1.0,-4.7683716e-06,2.8781593e-05,4.798174e-06,1.0,707,2.172,1,1,0.894,False,-0.257435349164302,1.0509151131813312
2.18547576200217,13:56:55.329616,13:55:35.288257,0,,0.124174565,0.0015221611,0.033945814,-0.21067217,0.9390371,-0.27171046,-0.33508635,0.1917407,0.922471,0.91833234,0.28538543,0.27426404,,0.043177307,-0.030478805,0.01781845,-0.62169665,0.21796203,0.75232035,0.76521355,0.37400112,0.52399576,-0.16715747,0.90145195,-0.39930266,,0.08360815,1.2908484,0.42622212,0.9938336,0.08261759,-0.073953085,0.012220951,-0.7445077,-0.66750205,-0.110206045,0.6624822,-0.74092644,,-0.11794351,0.26104817,-0.10812832,0.08418541,-0.9545375,0.28595623,0.37144274,0.29635283,0.87988937,-0.92463136,0.032142516,0.3795046,,-0.04294142,0.40869072,-0.3571036,0.64720136,-0.3706396,-0.6661507,0.46869633,0.8826366,-0.035726413,0.6012106,-0.2891002,0.744961,,1.0687953388611753,0.5267444411522312,0.21510247373000002,2.234665727714576,-1.2133321179171113,-0.05340149055033594,-0.40983026193090655,,-1.1917026325544584,0.14232224413908348,0.17926783297,-3.6242809831865186,0.21164993813666727,0.6117746087440624,0.8763409148104081,,-0.06956009733823401,-0.051437034717837886,0.09109722752,-0.09158399527144698,,6.888807e-05,3.3974648e-06,-4.053116e-06,1.0,-3.2186508e-05,-2.8774142e-05,3.219396e-05,1.0,-4.7683716e-06,2.8781593e-05,4.798174e-06,1.0,720,2.214,1,1,0.936,False,-0.25791197091247,1.0508668329805522
2.209233116125688,13:56:55.379894,13:55:35.429984,0,,0.124110706,0.0015479475,0.0339932,-0.21699394,0.9383635,-0.2690493,-0.3354797,0.1871434,0.9232718,0.9167153,0.29060498,0.27419287,,0.043220975,-0.030484498,0.01783055,-0.6221,0.21739987,0.7521495,0.7648277,0.37417352,0.5244357,-0.16742215,0.90151614,-0.39904675,,0.08360815,1.2908484,0.42622212,0.9938336,0.08261759,-0.073953085,0.012220951,-0.7445077,-0.66750205,-0.110206045,0.6624822,-0.74092644,,-0.117884345,0.26110145,-0.108153805,0.090623215,-0.9547201,0.28336734,0.37031826,0.29644006,0.88033384,-0.9244738,0.025157414,0.38041463,,-0.042986587,0.40869027,-0.3571104,0.64764214,-0.37009627,-0.6660243,0.46829495,0.88286984,-0.035222884,0.60104865,-0.28908402,0.74509794,,1.06874900246393,0.5273545370492949,0.21507006648000002,2.2174711523488453,-1.212375662418753,-0.03482355446289764,-0.4083601653356981,,-1.1919497600064335,0.14220640314597013,0.17927042555000003,-3.6249100530169724,0.21137666513713638,0.611834087071174,0.8760142266781396,,-0.06956009733823401,-0.051437034717837886,0.09109722752,-0.09158399527144698,,6.888807e-05,3.3974648e-06,-4.053116e-06,1.0,-3.2186508e-05,-2.8774142e-05,3.219396e-05,1.0,-4.7683716e-06,2.8781593e-05,4.798174e-06,1.0,729,2.242,1,1,0.964,False,-0.25815028178655464,1.0502874705711984
2.259521716972813,13:56:55.405207,13:55:35.429984,0,,0.12411628,0.0015611723,0.03402619,-0.21758775,0.9384036,-0.26842895,-0.33531854,0.18640934,0.9234787,0.9166335,0.29094687,0.27410376,,0.04323679,-0.030488223,0.017834008,-0.6220611,0.21733008,0.75220186,0.76484454,0.37418061,0.5244062,-0.16749015,0.90153,-0.39898688,,0.08360815,1.2908484,0.42622212,0.9938336,0.08261759,-0.073953085,0.012220951,-0.7445077,-0.66750205,-0.110206045,0.6624822,-0.74092644,,-0.11789303,0.26113307,-0.10816858,0.091230154,-0.95483834,0.28277338,0.37040675,0.2961204,0.8804042,-0.92437863,0.024421753,0.38069367,,-0.043002795,0.40868834,-0.3571135,0.64761597,-0.37002996,-0.6660866,0.46825156,0.88289356,-0.035205495,0.6011107,-0.28909647,0.74504304,,1.068787616128301,0.5275476053711505,0.21505191842000002,2.216213012687938,-1.2119657529194567,-0.033115839670472824,-0.4108103263277121,,-1.19203471006805,0.14216006674872478,0.17927172184,-3.6249100530169724,0.21137666513713638,0.611834087071174,0.8760142266781396,,-0.06956009733823401,-0.051437034717837886,0.09109722752,-0.09158399527144698,,6.888807e-05,3.3974648e-06,-4.053116e-06,1.0,-3.2186508e-05,-2.8774142e-05,3.219396e-05,1.0,-4.7683716e-06,2.8781593e-05,4.798174e-06,1.0,747,2.299,1,1,1.021,False,-0.25826943722359585,1.0507219923782136
2.28485259716399,13:56:55.458560,13:55:35.429984,0,,0.1239406,0.0015292019,0.034123436,-0.22647548,0.9326143,-0.28096125,-0.33821324,0.19521034,0.9206002,0.9134115,0.30351818,0.27121213,,0.04325503,-0.03049782,0.017834306,-0.6220718,0.21740851,0.7521703,0.7648381,0.3742297,0.52438056,-0.1674797,0.90149075,-0.39908,,0.08360815,1.2908484,0.42622212,0.9938336,0.08261759,-0.073953085,0.012220951,-0.7445077,-0.66750205,-0.110206045,0.6624822,-0.74092644,,-0.11773182,0.261181,-0.10828283,0.100268595,-0.9501009,0.29538873,0.36645094,0.31127974,0.876823,-0.92501885,0.020327665,0.37937695,,-0.043020867,0.4086798,-0.35711852,0.6476247,-0.37009987,-0.66603935,0.4682562,0.88288784,-0.035286803,0.6010977,-0.28902447,0.7450815,,1.068888011655666,0.5281345330695916,0.21494821522000002,2.1893726999219187,-1.2129222084178148,-0.021309284425621966,-0.40999360599704093,,-1.1921196601296664,0.14206739395423407,0.17927431442000002,-3.6249100530169724,0.21124002863737093,0.6117004687544488,0.8758508826120055,,-0.06956009733823401,-0.051437034717837886,0.09109722752,-0.09158399527144698,,6.888807e-05,3.3974648e-06,-4.053116e-06,1.0,-3.2186508e-05,-2.8774142e-05,3.219396e-05,1.0,-4.7683716e-06,2.8781593e-05,4.798174e-06,1.0,761,2.344,1,1,1.066,False,-0.25719703829021734,1.050335750771978
2.3382381920237094,13:56:55.503798,13:55:35.429984,0,,0.123773076,0.0015057772,0.03428571,-0.23688541,0.9285018,-0.2859539,-0.34001213,0.19648647,0.9196656,0.91009724,0.31508318,0.26915708,,0.043261345,-0.03050232,0.017831743,-0.6221156,0.21747655,0.75211436,0.7648177,0.37422207,0.5244157,-0.16740976,0.90147746,-0.39913929,,0.08360815,1.2908484,0.42622212,0.9938336,0.08261759,-0.073953085,0.012220951,-0.7445077,-0.66750205,-0.110206045,0.6624822,-0.74092644,,-0.11758584,0.26127836,-0.10843828,0.110885106,-0.94730437,0.300531,0.36330828,0.32010368,0.87495184,-0.9250468,0.01216627,0.37965828,,-0.043026663,0.40867412,-0.3571194,0.6476553,-0.37016454,-0.6659736,0.4682993,0.8828645,-0.03529961,0.6010311,-0.289013,0.74513966,,1.069065634511773,0.5290921519459953,0.21478747526000003,2.1595967279471164,-1.2119657529194567,0.0007808374878605084,-0.4096669178647724,,-1.192142828328289,0.14202105755698874,0.179276907,-3.6249100530169724,0.21110339213760548,0.6116485291778642,0.8758508826120052,,-0.06956009733823401,-0.051437034717837886,0.09109722752,-0.09158399527144698,,6.888807e-05,3.3974648e-06,-4.053116e-06,1.0,-3.2186508e-05,-2.8774142e-05,3.219396e-05,1.0,-4.7683716e-06,2.8781593e-05,4.798174e-06,1.0,770,2.374,1,1,1.096,False,-0.2587460589717643,1.050335750771978
2.38346456293948,13:56:55.534581,13:55:35.591718,0,,0.12370408,0.0015303493,0.03440781,-0.24204373,0.9272732,-0.28562042,-0.33943716,0.19484745,0.9202266,0.9089539,0.31968528,0.2675894,,0.043265145,-0.03050518,0.017830312,-0.62216717,0.21755117,0.75205016,0.7647944,0.3742061,0.5244611,-0.1673246,0.90146613,-0.39920062,,0.08360815,1.2908484,0.42622212,0.9938336,0.08261759,-0.073953085,0.012220951,-0.7445077,-0.66750205,-0.110206045,0.6624822,-0.74092644,,-0.11753037,0.2613808,-0.108520165,0.11616465,-0.94670904,0.30041263,0.36317486,0.32200179,0.8743105,-0.9244511,0.0075383373,0.38122615,,-0.043030176,0.4086707,-0.35712013,0.64769083,-0.37023613,-0.6658992,0.46835244,0.88283604,-0.035305966,0.6009514,-0.28900817,0.7452058,,1.0693513756281194,0.5297949206375498,0.21468766093000002,2.1463862615075913,-1.2096429324234443,0.012772118948916944,-0.41064698226157803,,-1.1921582737940375,0.14199016662549183,0.17927820329000002,-3.6249100530169724,0.21096675563784006,0.6115965896012794,0.8761775707442738,,-0.06956009733823401,-0.051437034717837886,0.09109722752,-0.09158399527144698,,6.888807e-05,3.3974648e-06,-4.053116e-06,1.0,-3.2186508e-05,-2.8774142e-05,3.219396e-05,1.0,-4.7683716e-06,2.8781593e-05,4.798174e-06,1.0,784,2.418,1,1,1.14,False,-0.2586269035347226,1.0503840309727575
2.4142539291642606,13:56:55.579101,13:55:35.591718,0,,0.1235469,0.0015419871,0.034590945,-0.24896249,0.9238944,-0.29057992,-0.3414815,0.19702317,0.9190061,0.90631557,0.32802573,0.2664415,,0.04326919,-0.030507773,0.01782906,-0.62234384,0.21754976,0.75190437,0.76464653,0.37433833,0.5245824,-0.16734385,0.90141153,-0.3993157,,0.08360815,1.2908484,0.42622212,0.9938336,0.08261759,-0.073953085,0.012220951,-0.7445077,-0.66750205,-0.110206045,0.6624822,-0.74092644,,-0.11739523,0.26151773,-0.10866634,0.123226896,-0.9442167,0.30540115,0.3601642,0.32931563,0.87283045,-0.9247145,0.0024383757,0.38065362,,-0.043033965,0.40866753,-0.35712075,0.64786696,-0.37022412,-0.6657345,0.46826148,0.8828849,-0.035290554,0.6008324,-0.28887427,0.74535364,,1.0698996896621893,0.5306366985208403,0.21454118016,2.1256269571026234,-1.209233022924148,0.026568287282144776,-0.41113701445998097,,-1.192173719259786,0.14195927569399494,0.17927949958000003,-3.625119742960457,0.21083011913807462,0.6114629712845542,0.8756875385458711,,-0.06956009733823401,-0.051437034717837886,0.09109722752,-0.09158399527144698,,6.888807e-05,3.3974648e-06,-4.053116e-06,1.0,-3.2186508e-05,-2.8774142e-05,3.219396e-05,1.0,-4.7683716e-06,2.8781593e-05,4.798174e-06,1.0,793,2.448,1,1,1.17,False,-0.25767366003838577,1.050432311173537
2.458752883132547,13:56:55.608717,13:55:35.591718,0,,0.12338444,0.0015384778,0.03467454,-0.2559725,0.92099535,-0.29367605,-0.3435052,0.19731095,0.9181899,0.903594,0.3359106,0.26586053,,0.043277584,-0.030509531,0.017830014,-0.6223876,0.21753803,0.7518716,0.7646271,0.37427044,0.5246591,-0.16727003,0.9014425,-0.39927667,,0.08360815,1.2908484,0.42622212,0.9938336,0.08261759,-0.073953085,0.012220951,-0.7445077,-0.66750205,-0.110206045,0.6624822,-0.74092644,,-0.11724404,0.26157722,-0.10874998,0.13039044,-0.9422463,0.3084967,0.35711688,0.33490217,0.87195647,-0.924914,-0.0035254024,0.3801601,,-0.043042406,0.408666,-0.35712165,0.6478968,-0.37021855,-0.66570854,0.46830797,0.8828636,-0.035206452,0.600764,-0.28894648,0.7453808,,1.0702549353744037,0.5311695670891617,0.21445821760000003,2.1042385828672017,-1.2089597499246172,0.04308959320356731,-0.41130035852611513,,-1.1922200556570313,0.14192838476249803,0.17928079587,-3.625119742960457,0.21069348263830917,0.61149271044811,0.8758508826120053,,-0.06956009733823401,-0.051437034717837886,0.09109722752,-0.09158399527144698,,6.888807e-05,3.3974648e-06,-4.053116e-06,1.0,-3.2186508e-05,-2.8774142e-05,3.219396e-05,1.0,-4.7683716e-06,2.8781593e-05,4.798174e-06,1.0,807,2.492,1,1,1.214,False,-0.2587460589717643,1.0507219923782136
2.4883936380501837,13:56:55.651079,13:55:35.591718,0,,0.123208076,0.0015373155,0.034746334,-0.26511413,0.918522,-0.29331172,-0.34385824,0.1941316,0.91873527,0.90081954,0.34442732,0.2643743,,0.043296207,-0.03051129,0.017833412,-0.622474,0.2175023,0.75181043,0.7645891,0.374125,0.5248182,-0.16712192,0.90151155,-0.3991829,,0.08360815,1.2908484,0.42622212,0.9938336,0.08261759,-0.073953085,0.012220951,-0.7445077,-0.66750205,-0.110206045,0.6624822,-0.74092644,,-0.11707757,0.26163113,-0.10882507,0.13976209,-0.9409541,0.30833745,0.35536054,0.3383139,0.8713567,-0.9242215,-0.012211668,0.38166142,,-0.043061353,0.408665,-0.3571229,0.64795554,-0.37019664,-0.66566366,0.46840176,0.88282114,-0.03502354,0.60062754,-0.28910434,0.7454296,,1.0706256265523664,0.5318105539177224,0.21436358843000003,2.0788660997055746,-1.2062270199293084,0.066426680793635,-0.41179039072451806,,-1.1923281739172704,0.14187432563237848,0.17928338845000003,-3.625119742960457,0.21042020963877828,0.6115521887752218,0.8761775707442738,,-0.06956009733823401,-0.051437034717837886,0.09109722752,-0.09158399527144698,,6.888807e-05,3.3974648e-06,-4.053116e-06,1.0,-3.2186508e-05,-2.8774142e-05,3.219396e-05,1.0,-4.7683716e-06,2.8781593e-05,4.798174e-06,1.0,821,2.537,1,1,1.259,False,-0.25815028178655464,1.0503840309727575
2.5307403539773077,13:56:55.701305,13:55:35.591718,0,,0.12288564,0.00148312,0.03492926,-0.27923694,0.91059065,-0.30471528,-0.3474453,0.20001951,0.916119,0.8951583,0.3616861,0.26052755,,0.04329263,-0.03055809,0.017828941,-0.622641,0.21720073,0.7517593,0.7643932,0.37434182,0.52494895,-0.16739556,0.9014943,-0.39910722,,0.08358153,1.2908528,0.42621824,0.99383366,0.08261503,-0.07395537,0.012217547,-0.74450797,-0.6675018,-0.110206045,0.6624822,-0.74092644,,-0.11675557,0.26173377,-0.109036796,0.15423957,-0.93479127,0.31996167,0.34946623,0.3545184,0.8672889,-0.9241664,-0.021954468,0.38135874,,-0.043031182,0.40863886,-0.3571571,0.6481692,-0.36989352,-0.6656241,0.4680899,0.8829925,-0.034872122,0.60064006,-0.28896886,0.745472,,1.0710272086618262,0.53282995465712,0.21414451542000001,2.036718421065185,-1.2047240184318886,0.09297185550076537,-0.41244376698905516,,-1.1926061923007425,0.14178165283788777,0.17930412909000001,-3.6255391228474263,0.21028357313901283,0.6114185704584965,0.8760142266781397,,-0.06956009733823401,-0.051437034717837886,0.09109722752,-0.09158399527144698,,4.2907894e-05,-4.708767e-06,-2.1457672e-06,1.0,-3.4727156e-05,-3.104657e-05,3.4727156e-05,1.0,-5.1259995e-06,3.104657e-05,5.185604e-06,1.0,830,2.567,1,1,1.289,False,-0.2586269035347226,1.05014262996886
2.580981769133359,13:56:55.730470,13:55:35.779778,0,,0.12281601,0.001464881,0.03499122,-0.2835411,0.9099335,-0.3026971,-0.34913078,0.19603658,0.91633916,0.89314735,0.36550066,0.2621012,,0.043346163,-0.030551445,0.017835677,-0.62260574,0.2172277,0.7517808,0.764411,0.37439784,0.5248831,-0.16744585,0.9014646,-0.39915338,,0.08358153,1.2908528,0.42621824,0.99383366,0.08261503,-0.07395537,0.012217547,-0.74450797,-0.6675018,-0.110206045,0.6624822,-0.74092644,,-0.1166947,0.26176426,-0.10910303,0.15865442,-0.93479383,0.317788,0.3470389,0.35412496,0.8684236,-0.9243337,-0.02749444,0.38059333,,-0.043085013,0.4086415,-0.35715,0.6481435,-0.3699144,-0.66563755,0.46806058,0.8830049,-0.034952708,0.6006907,-0.2889043,0.7454562,,1.0711198814563168,0.5332547049652024,0.21407970092000003,2.02350795462566,-1.2047240184318886,0.10759234998592615,-0.4101569500631752,,-1.1929073788828373,0.14171214824201975,0.17931968457000003,-3.6255391228474263,0.2101469366392474,0.6111215946614901,0.8758508826120053,,-0.06956009733823401,-0.051437034717837886,0.09109722752,-0.09158399527144698,,4.2907894e-05,-4.708767e-06,-2.1457672e-06,1.0,-3.4727156e-05,-3.104657e-05,3.4727156e-05,1.0,-5.1259995e-06,3.104657e-05,5.185604e-06,1.0,844,2.611,1,1,1.333,False,-0.2583885926606384,1.0506254319766548
