AlexandreBanks6/ExpertPlaybackApp/resources/Motions/P_14/PC1/Data_PC1_3.csv
Task Time,PC1 Time,PC2 Time,Gaze Calib,s_T_psm1,Tx,Ty,Tz,R00,R01,R02,R10,R11,R12,R20,R21,R22,s_T_psm3,Tx,Ty,Tz,R00,R01,R02,R10,R11,R12,R20,R21,R22,cart_T_ecm,Tx,Ty,Tz,R00,R01,R02,R10,R11,R12,R20,R21,R22,ecm_T_psm1,Tx,Ty,Tz,R00,R01,R02,R10,R11,R12,R20,R21,R22,ecm_T_psm3,Tx,Ty,Tz,R00,R01,R02,R10,R11,R12,R20,R21,R22,psm1_joints,q1,q2,q3,q4,q5,q6,jaw,psm3_joints,q1,q2,q3,q4,q5,q6,jaw,ecm_joints,q1,q2,q3,q4,ecmi_T_ecm,Tx,Ty,Tz,R00,R01,R02,R10,R11,R12,R20,R21,R22,Sample #,Task Duration (s),Collisions (binary),Collisions (increments),Cumulative Collision Time (s),Clutch Press,MTMR Angle,MTML Angle
""
lci_T_si,,,,,-0.048014555,0.029841654,0.20603786,0.98909175,-0.010691175,0.14691202,0.09030502,-0.7439362,-0.6621208,0.11637202,0.66816515,-0.7348557
rci_T_si,,,,,-0.05720088,0.033855394,0.21545881,0.9875528,-0.02682583,0.15498324,0.08572007,-0.73436654,-0.67331856,0.13187683,0.67822284,-0.7229262
ecm_T_lc,,,,,-4.4061628e-05,-0.00034663224,-0.01840835,-0.99912,0.030754527,0.028518902,-0.031987965,-0.99852574,-0.043852776,0.027128186,-0.04472645,0.9986309
ecm_T_rc,,,,,-0.0043358393,0.01870579,-0.007592615,-0.99555075,-0.052743673,-0.078081585,0.04863213,-0.9973746,0.053654674,-0.08070653,0.04961868,0.9955021
cart_T_ecmi,,,,,0.08389765,1.2908373,0.4261723,0.9940883,0.08247068,-0.0706194,0.014340571,-0.744454,-0.6675197,-0.1076237,0.66256076,-0.7412357
ecmac_T_ecmrep_psm1,,,,,0.023195708,-0.2631036,-0.30022871,0.99664557,0.07921609,0.02055357,-0.078295335,0.99603295,-0.04228661,-0.023821812,0.040535513,0.9988941
ecmac_T_ecmrep_psm3,,,,,0.022281613,-0.4507852,-0.5326207,0.99995744,0.002629678,0.008843231,-0.0032003638,0.99787027,0.06515156,-0.008653069,-0.06517708,0.9978362
""
0,13:50:02.824566,13:48:42.829056,0,,0.13228299,0.0045900866,0.030487448,-0.5110831,-0.27119482,-0.8156271,-0.79539704,0.50889117,0.32920116,0.32578778,0.8169963,-0.4757932,,0.017848462,-0.017934754,0.021188676,0.0379975,-0.041498557,0.9984157,-0.96624446,-0.25629985,0.026120245,0.25480998,-0.96570605,-0.04983653,,0.08395448,1.2908347,0.42617378,0.9940891,0.08242571,-0.07065971,0.014280525,-0.74445903,-0.66751546,-0.1076237,0.66256076,-0.7412357,,-0.12659453,0.26030323,-0.103178345,0.427435,0.19627036,0.8824836,-0.3489205,0.93633026,-0.039244983,-0.8339987,-0.29114193,0.46870306,,-0.019659594,0.42290908,-0.35396865,-0.08876568,0.21324508,-0.97295797,-0.46205893,-0.87416804,-0.14943817,-0.88239574,0.43629894,0.17612793,,1.056809657440379,0.6120034120836697,0.21873338202000003,0.21472250212815294,-1.046089042204212,0.5838840219366497,-0.417670777105352,,-1.0976088552149068,0.2916026705978433,0.17557340647000003,0.13587908337797178,-0.7428926492246997,-1.196380580063922,0.8415486287238065,,-0.07059420492004065,-0.05163338425868725,0.09109008376,-0.09158399527144698,,5.6300312e-05,7.688999e-06,-3.33786e-06,1.0,-4.476309e-05,-4.002452e-05,4.477054e-05,1.0,-6.467104e-06,4.0009618e-05,6.556511e-06,1.0,36,0.107,0,0,0.0,False,-0.2570778828531757,1.0164913300255776
0.12598581216298044,13:50:02.855610,13:48:42.898108,0,,0.13221022,0.004643567,0.030641228,-0.50951463,-0.273265,-0.8159174,-0.7989534,0.50231403,0.3306874,0.3194815,0.82036984,-0.4742623,,0.017848134,-0.017934158,0.021189451,0.038042136,-0.04147371,0.99841505,-0.9662757,-0.25617617,0.026176162,0.25468463,-0.96574,-0.049820542,,0.08395448,1.2908347,0.42617378,0.9940891,0.08242571,-0.07065971,0.014280525,-0.74445903,-0.66751546,-0.1076237,0.66256076,-0.7412357,,-0.12653819,0.26044905,-0.10326414,0.42645907,0.19758552,0.88266224,-0.35584956,0.93380636,-0.037105173,-0.83156705,-0.29827112,0.4685409,,-0.019659411,0.4229101,-0.35396877,-0.08878718,0.21322744,-0.9729599,-0.46217757,-0.87411374,-0.14938909,-0.88233143,0.4364164,0.17615904,,1.0580452947002548,0.6124049941931294,0.21861282705,0.20423800495392672,-1.041716674211718,0.5938773198816976,-0.4183241533698891,,-1.0976088552149068,0.2916026705978433,0.17557211018000002,0.13587908337797178,-0.7427560127249343,-1.1964103192274778,0.8420386609222095,,-0.07059420492004065,-0.05163338425868725,0.09109008376,-0.09158399527144698,,5.6300312e-05,7.688999e-06,-3.33786e-06,1.0,-4.476309e-05,-4.002452e-05,4.477054e-05,1.0,-6.467104e-06,4.0009618e-05,6.556511e-06,1.0,44,0.132,0,0,0.0,False,-0.25630337251240265,1.0163947696240185
0.15697497501969337,13:50:02.869982,13:48:42.898108,0,,0.13217166,0.0046682134,0.030745506,-0.5083647,-0.27725807,-0.8152873,-0.80141556,0.49876747,0.3300972,0.31511676,0.82119346,-0.47575468,,0.017849267,-0.01793389,0.021189868,0.038039334,-0.0414669,0.99841547,-0.9662763,-0.25617394,0.026175268,0.2546827,-0.96574086,-0.04981318,,0.08395448,1.2908347,0.42617378,0.9940891,0.08242571,-0.07065971,0.014280525,-0.74445903,-0.66751546,-0.1076237,0.66256076,-0.7412357,,-0.12651126,0.26053888,-0.10332878,0.4257198,0.20126665,0.8821873,-0.3606487,0.9319039,-0.03856991,-0.8298766,-0.30173972,0.46931648,,-0.019660598,0.42291045,-0.3539687,-0.088784076,0.21322091,-0.9729616,-0.46217903,-0.87411374,-0.14938432,-0.88233095,0.4364195,0.17615362,,1.058809845254803,0.6126752898437272,0.21852467933000003,0.19689885693196837,-1.0387106712168783,0.5977970677313401,-0.41603733644400925,,-1.0976165779477811,0.2916026705978433,0.17557211018000002,0.13587908337797178,-0.7427560127249343,-1.1964103192274778,0.8420386609222095,,-0.07059420492004065,-0.05163338425868725,0.09109008376,-0.09158399527144698,,5.6300312e-05,7.688999e-06,-3.33786e-06,1.0,-4.476309e-05,-4.002452e-05,4.477054e-05,1.0,-6.467104e-06,4.0009618e-05,6.556511e-06,1.0,52,0.157,0,0,0.0,False,-0.25636295023092304,1.0164913300255776
0.17137539898976684,13:50:02.903555,13:48:42.898108,0,,0.13207556,0.0047282428,0.030939996,-0.508875,-0.27729958,-0.81495476,-0.8027039,0.49485487,0.33284414,0.31098682,0.8235432,-0.4744087,,0.017859146,-0.017933205,0.021193385,0.039247647,-0.040780265,0.99839693,-0.9661591,-0.25647646,0.027504444,0.25494385,-0.9656898,-0.049466334,,0.08395448,1.2908347,0.42617378,0.9940891,0.08242571,-0.07065971,0.014280525,-0.74445903,-0.66751546,-0.1076237,0.66256076,-0.7412357,,-0.12643634,0.26071787,-0.10344288,0.42665753,0.20082793,0.88183415,-0.36434817,0.9305803,-0.03564686,-0.8277764,-0.30608568,0.47021037,,-0.019670954,0.4229122,-0.35396928,-0.09001898,0.21253459,-0.97299826,-0.46206695,-0.87436754,-0.14824133,-0.88226455,0.43624583,0.17691489,,1.0599141960558172,0.613115485617558,0.21838208743,0.19375350777970052,-1.0351581222229769,0.6018428951471809,-0.41718074490694923,,-1.0976165779477811,0.29159494786496903,0.17557081389,0.1342015638300956,-0.7426193762251688,-1.1959499859501905,0.8418753168560751,,-0.07059420492004065,-0.05163338425868725,0.09109008376,-0.09158399527144698,,5.6300312e-05,7.688999e-06,-3.33786e-06,1.0,-4.476309e-05,-4.002452e-05,4.477054e-05,1.0,-6.467104e-06,4.0009618e-05,6.556511e-06,1.0,59,0.178,0,0,0.0,False,-0.25642252794944387,1.0163464894232392
0.20497182197868824,13:50:02.920259,13:48:42.898108,0,,0.132054,0.004726529,0.031045198,-0.50709057,-0.2810949,-0.81476665,-0.80505025,0.49209058,0.3312718,0.3078203,0.82391286,-0.47582996,,0.017864317,-0.017936721,0.021196246,0.039738074,-0.042862657,0.99829036,-0.9660209,-0.25700575,0.027418762,0.2553912,-0.96545887,-0.051619157,,0.08395448,1.2908347,0.42617378,0.9940891,0.08242571,-0.07065971,0.014280525,-0.74445903,-0.66751546,-0.1076237,0.66256076,-0.7412357,,-0.12642771,0.260788,-0.10352374,0.4251509,0.20440704,0.88173944,-0.3682864,0.92894477,-0.03777255,-0.8268082,-0.30867362,0.47022203,,-0.01967657,0.4229113,-0.35397312,-0.09058114,0.21453832,-0.9725062,-0.46171045,-0.8742792,-0.14986448,-0.8823936,0.4354414,0.1782478,,1.0605088464871324,0.6133935040010301,0.21828875455000002,0.18662404970122667,-1.0335184842257914,0.6054066047112576,-0.41652736864241213,,-1.0976165779477811,0.2915872251320948,0.17556951760000003,0.1333628040561575,-0.7428926492246997,-1.1932767879385806,0.8422020049883439,,-0.07059420492004065,-0.05163338425868725,0.09109008376,-0.09158399527144698,,5.6300312e-05,7.688999e-06,-3.33786e-06,1.0,-4.476309e-05,-4.002452e-05,4.477054e-05,1.0,-6.467104e-06,4.0009618e-05,6.556511e-06,1.0,67,0.202,0,0,0.0,False,-0.2566012611050077,1.0162982092224597
0.22160937217995524,13:50:02.944259,13:48:42.898108,0,,0.13200451,0.0047691613,0.0311611,-0.5086733,-0.28076747,-0.8138926,-0.80516154,0.4899167,0.33421054,0.3049042,0.82531875,-0.4752707,,0.017864645,-0.017934218,0.021194816,0.039869398,-0.043440048,0.99826014,-0.9661129,-0.25665975,0.027416788,0.25502232,-0.9655251,-0.05220087,,0.08395448,1.2908347,0.42617378,0.9940891,0.08242571,-0.07065971,0.014280525,-0.74445903,-0.66751546,-0.1076237,0.66256076,-0.7412357,,-0.12639041,0.2608994,-0.10358617,0.42706525,0.2038037,0.88095367,-0.37025353,0.9282614,-0.03525803,-0.824941,-0.31111872,0.47188723,,-0.01967662,0.42291185,-0.3539703,-0.09064443,0.21512015,-0.9723718,-0.46205968,-0.8740218,-0.15028878,-0.8822043,0.43567097,0.17862356,,1.0610648832540766,0.6136560769187538,0.21820190312,0.1868337396447112,-1.0303758447311864,0.6063561787522841,-0.41767077710535205,,-1.0976165779477811,0.2915795023992206,0.17556951760000003,0.1333628040561575,-0.7424827397254035,-1.1927125755081236,0.8417119727899409,,-0.07059420492004065,-0.05163338425868725,0.09109008376,-0.09158399527144698,,5.6300312e-05,7.688999e-06,-3.33786e-06,1.0,-4.476309e-05,-4.002452e-05,4.477054e-05,1.0,-6.467104e-06,4.0009618e-05,6.556511e-06,1.0,75,0.226,0,0,0.0,False,-0.2566012611050077,1.0162016488209007
0.24406222510151565,13:50:02.972598,13:48:43.025253,0,,0.1319792,0.0047718436,0.031249046,-0.5062285,-0.28401604,-0.8142896,-0.8078304,0.48670772,0.33245412,0.30189887,0.8261055,-0.4758221,,0.01786469,-0.017934099,0.021192133,0.03984853,-0.04326225,0.9982687,-0.96622,-0.25625113,0.02746404,0.25461945,-0.9656416,-0.05201207,,0.08395448,1.2908347,0.42617378,0.9940891,0.08242571,-0.07065971,0.014280525,-0.74445903,-0.66751546,-0.1076237,0.66256076,-0.7412357,,-0.12637576,0.2609614,-0.10365192,0.42486826,0.20676814,0.88132507,-0.37435156,0.9265519,-0.036911845,-0.82422566,-0.31424275,0.47106645,,-0.019676177,0.42290995,-0.3539684,-0.09055196,0.21496858,-0.97241396,-0.46242407,-0.8738581,-0.15011984,-0.88202286,0.43607396,0.1785362,,1.0617058700826372,0.6138954816378547,0.21812671830000002,0.17865583184881476,-1.0291461162332975,0.6115610018696991,-0.4170174008408149,,-1.0976165779477811,0.2915563342005979,0.17556951760000003,0.133572493999642,-0.742072830226107,-1.193046829219213,0.8417119727899409,,-0.07059420492004065,-0.05163338425868725,0.09109008376,-0.09158399527144698,,5.6300312e-05,7.688999e-06,-3.33786e-06,1.0,-4.476309e-05,-4.002452e-05,4.477054e-05,1.0,-6.467104e-06,4.0009618e-05,6.556511e-06,1.0,86,0.26,0,0,0.0,False,-0.2570778828531757,1.0162016488209007
0.2739889780059457,13:50:03.006078,13:48:43.025253,0,,0.13190898,0.0047808886,0.031349093,-0.50811195,-0.28308672,-0.8134397,-0.8072475,0.4858061,0.33517757,0.3002898,0.82695466,-0.4753649,,0.017865062,-0.017933294,0.0211941,0.039848886,-0.043419532,0.9982618,-0.9662224,-0.2562467,0.027424492,0.2546107,-0.9656357,-0.052164085,,0.08395448,1.2908347,0.42617378,0.9940891,0.08242571,-0.07065971,0.014280525,-0.74445903,-0.66751546,-0.1076237,0.66256076,-0.7412357,,-0.12631774,0.2610382,-0.103727795,0.42695847,0.20569916,0.88056475,-0.37491548,0.92641217,-0.034624223,-0.82288814,-0.31535426,0.47265932,,-0.019676903,0.42291188,-0.3539691,-0.09055075,0.21512225,-0.97238004,-0.46243206,-0.8738303,-0.15025687,-0.8820188,0.43605384,0.17860542,,1.0621383431235938,0.613972708966597,0.21803208913000002,0.1809624212271445,-1.026823295737285,0.6106470423885465,-0.41669071270854635,,-1.0976243006806554,0.29156405693347215,0.17556822131000002,0.133572493999642,-0.742072830226107,-1.192883471738932,0.8417119727899411,,-0.07059420492004065,-0.05163338425868725,0.09109008376,-0.09158399527144698,,5.6300312e-05,7.688999e-06,-3.33786e-06,1.0,-4.476309e-05,-4.002452e-05,4.477054e-05,1.0,-6.467104e-06,4.0009618e-05,6.556511e-06,1.0,94,0.284,0,0,0.0,False,-0.2566608388235285,1.0167810112302544
0.30748415901325643,13:50:03.027389,13:48:43.025253,0,,0.13188268,0.004768677,0.0313842,-0.5080641,-0.28299788,-0.8135005,-0.80728185,0.48572904,0.33520645,0.3002782,0.8270304,-0.4752405,,0.017856956,-0.01792641,0.021191716,0.039372623,-0.04332454,0.9982849,-0.96661127,-0.2548139,0.027064793,0.25320444,-0.96601903,-0.0519107,,0.08395448,1.2908347,0.42617378,0.9940891,0.08242571,-0.07065971,0.014280525,-0.74445903,-0.66751546,-0.1076237,0.66256076,-0.7412357,,-0.1262965,0.26105383,-0.10376493,0.4269107,0.20559807,0.88061154,-0.37495083,0.9264019,-0.034516834,-0.8228968,-0.3154504,0.47258005,,-0.019668462,0.4229158,-0.3539634,-0.08983129,0.21510601,-0.9724504,-0.46366125,-0.87316895,-0.15031369,-0.88144684,0.4373847,0.17817421,,1.062285075048204,0.6139804316994711,0.21799449672000001,0.1809624212271445,-1.026823295737285,0.6106470423885465,-0.41669071270854635,,-1.0976243006806554,0.2915563342005979,0.17556433244000003,0.13483063366054918,-0.7408431017282181,-1.1938862328721997,0.8417119727899411,,-0.07059420492004065,-0.05163338425868725,0.09109008376,-0.09158399527144698,,5.6300312e-05,7.688999e-06,-3.33786e-06,1.0,-4.476309e-05,-4.002452e-05,4.477054e-05,1.0,-6.467104e-06,4.0009618e-05,6.556511e-06,1.0,102,0.308,0,0,0.0,False,-0.2568991496976123,1.0167810112302544
0.32878650398924947,13:50:03.047291,13:48:43.025253,0,,0.13188367,0.004735537,0.031401545,-0.5066755,-0.28579703,-0.813388,-0.8083879,0.4854024,0.33300686,0.2996482,0.82625926,-0.47697628,,0.017848939,-0.017901763,0.021184623,0.039772913,-0.041995868,0.9983258,-0.9676053,-0.2509112,0.027994156,0.24931565,-0.9670987,-0.0506149,,0.08395448,1.2908347,0.42617378,0.9940891,0.08242571,-0.07065971,0.014280525,-0.74445903,-0.66751546,-0.1076237,0.66256076,-0.7412357,,-0.12630123,0.26104084,-0.1037997,0.425554,0.20844957,0.88059783,-0.37625313,0.9257652,-0.03731481,-0.8230051,-0.31544822,0.4723929,,-0.01965915,0.42292804,-0.35394135,-0.08953046,0.21401572,-0.97271866,-0.46723005,-0.8715331,-0.14874853,-0.87959105,0.44116586,0.17802334,,1.0623700251098205,0.6139804316994711,0.21796079318000003,0.1773976921879076,-1.0269599322370504,0.6110851752528054,-0.4175074330392178,,-1.0976243006806554,0.29151772053622677,0.1755565547,0.1360887733214563,-0.7368806432350203,-1.1962188859378498,0.842855381252881,,-0.07059420492004065,-0.05163338425868725,0.09109008376,-0.09158399527144698,,5.6300312e-05,7.688999e-06,-3.33786e-06,1.0,-4.476309e-05,-4.002452e-05,4.477054e-05,1.0,-6.467104e-06,4.0009618e-05,6.556511e-06,1.0,106,0.32,0,0,0.0,False,-0.2566608388235285,1.0174569340411665
0.3487083700019866,13:50:03.066127,13:48:43.025253,0,,0.1319045,0.004675679,0.031412125,-0.50384176,-0.2901769,-0.81359744,-0.8106297,0.48417962,0.32931685,0.2983673,0.8254497,-0.47917593,,0.01784826,-0.017905906,0.021185815,0.039661296,-0.04480173,0.9982082,-0.9676492,-0.25083035,0.027189352,0.24916288,-0.96699375,-0.053300627,,0.08395448,1.2908347,0.42617378,0.9940891,0.08242571,-0.07065971,0.014280525,-0.74445903,-0.66751546,-0.1076237,0.66256076,-0.7412357,,-0.12632617,0.26100266,-0.10384495,0.4227855,0.2128278,0.88088405,-0.37889624,0.92450756,-0.041514058,-0.8232193,-0.31621212,0.47150806,,-0.019658726,0.42292625,-0.35394534,-0.08939344,0.21675724,-0.97212404,-0.46735683,-0.87103605,-0.15124072,-0.8795376,0.44080886,0.17916788,,1.0624395297056886,0.613972708966597,0.21791801561000002,0.17005854416594926,-1.0272332052365811,0.613758373264415,-0.4163640245762778,,-1.0976243006806554,0.29149455233760413,0.17555266583,0.13629846326494083,-0.7367440067352549,-1.1935532266767672,0.8425286931206122,,-0.07059420492004065,-0.05163338425868725,0.09109008376,-0.09158399527144698,,5.6300312e-05,7.688999e-06,-3.33786e-06,1.0,-4.476309e-05,-4.002452e-05,4.477054e-05,1.0,-6.467104e-06,4.0009618e-05,6.556511e-06,1.0,114,0.345,0,0,0.0,False,-0.25636295023092304,1.0171672528364901
0.3675346539821476,13:50:03.092096,13:48:43.147549,0,,0.13191947,0.004618868,0.03145033,-0.5023489,-0.29214048,-0.81381786,-0.8130497,0.47991198,0.32959813,0.29427204,0.8272474,-0.4786079,,0.017852724,-0.017905876,0.021184683,0.040031426,-0.044558078,0.99820435,-0.9679112,-0.24976492,0.027667537,0.24808377,-0.96728075,-0.053126723,,0.08395448,1.2908347,0.42617378,0.9940891,0.08242571,-0.07065971,0.014280525,-0.74445903,-0.66751546,-0.1076237,0.66256076,-0.7412357,,-0.12634847,0.2609855,-0.10390913,0.42167595,0.21434322,0.88104844,-0.38349837,0.9226348,-0.04091541,-0.82165587,-0.3206276,0.4712532,,-0.019662911,0.42292485,-0.353944,-0.08956467,0.21657532,-0.9721488,-0.4683718,-0.8705683,-0.15079382,-0.8789801,0.44182128,0.17940994,,1.0626248752946699,0.613972708966597,0.21783246047000002,0.16230001625702184,-1.024363838741507,0.6208933311430953,-0.4163640245762778,,-1.0976397461464038,0.2914327704746103,0.17554748067,0.13629846326494083,-0.7355142782373659,-1.1938208791487699,0.8430187253190151,,-0.07059420492004065,-0.05163338425868725,0.09109008376,-0.09158399527144698,,5.6300312e-05,7.688999e-06,-3.33786e-06,1.0,-4.476309e-05,-4.002452e-05,4.477054e-05,1.0,-6.467104e-06,4.0009618e-05,6.556511e-06,1.0,129,0.39,0,0,0.0,False,-0.25636295023092304,1.0173120934388282
0.3935158890672028,13:50:03.137271,13:48:43.147549,0,,0.13189468,0.0046345294,0.031552434,-0.5041008,-0.29330114,-0.8123157,-0.8149268,0.4729762,0.33494464,0.2859665,0.8308235,-0.47744662,,0.01785557,-0.017916784,0.021181166,0.040005744,-0.04455544,0.9982055,-0.96789604,-0.2498267,0.02763991,0.24814701,-0.9672649,-0.05311954,,0.08395448,1.2908347,0.42617378,0.9940891,0.08242571,-0.07065971,0.014280525,-0.74445903,-0.66751546,-0.1076237,0.66256076,-0.7412357,,-0.1263354,0.2610666,-0.103976496,0.4243172,0.2147142,0.879689,-0.39037776,0.9199412,-0.036240578,-0.81704354,-0.3280335,0.47416654,,-0.019665144,0.42291465,-0.3539495,-0.089550726,0.21656953,-0.9721514,-0.4683119,-0.87059814,-0.15080713,-0.8790134,0.4417652,0.17938478,,1.0632349711917335,0.614111718158333,0.21770412776000003,0.1568480777264242,-1.016302285255346,0.628041703168621,-0.41734408897308345,,-1.0976320234135295,0.2913632658787423,0.17554618438000003,0.13629846326494083,-0.7355142782373659,-1.1938208791487699,0.8430187253190151,,-0.07059420492004065,-0.05163338425868725,0.09109008376,-0.09158399527144698,,5.6300312e-05,7.688999e-06,-3.33786e-06,1.0,-4.476309e-05,-4.002452e-05,4.477054e-05,1.0,-6.467104e-06,4.0009618e-05,6.556511e-06,1.0,137,0.415,0,0,0.0,False,-0.25683957197909146,1.017698335045064
0.43865203810855746,13:50:03.151970,13:48:43.147549,0,,0.13184224,0.004633561,0.03163737,-0.50335675,-0.29481852,-0.81222785,-0.81608784,0.47111017,0.33474755,0.28395912,0.8313465,-0.47773427,,0.017856985,-0.017920092,0.021179855,0.039996274,-0.04455229,0.998206,-0.9678912,-0.24984652,0.027630419,0.24816743,-0.96726,-0.053114705,,0.08395448,1.2908347,0.42617378,0.9940891,0.08242571,-0.07065971,0.014280525,-0.74445903,-0.66751546,-0.1076237,0.66256076,-0.7412357,,-0.12629366,0.2611251,-0.10404582,0.42376238,0.21606164,0.8796265,-0.39261553,0.9189748,-0.03658315,-0.81625885,-0.32985246,0.47425613,,-0.019666309,0.42291126,-0.3539509,-0.089545056,0.21656542,-0.9721528,-0.46829244,-0.87060815,-0.15080997,-0.8790244,0.44174755,0.1793746,,1.0637755624929293,0.6142198364185721,0.21762375778,0.15349303863067185,-1.0149359202576917,0.6300313162569982,-0.41701740084081496,,-1.0976320234135295,0.29134009768011965,0.17554618438000003,0.13629846326494083,-0.7355142782373659,-1.1938208791487699,0.8426920371867466,,-0.07059420492004065,-0.05163338425868725,0.09109008376,-0.09158399527144698,,5.6300312e-05,7.688999e-06,-3.33786e-06,1.0,-4.476309e-05,-4.002452e-05,4.477054e-05,1.0,-6.467104e-06,4.0009618e-05,6.556511e-06,1.0,145,0.439,0,0,0.0,False,-0.2568991496976123,1.0179397360489613
0.4533131259959191,13:50:03.179573,13:48:43.147549,0,,0.13177343,0.0046357587,0.031733036,-0.5023928,-0.29695708,-0.8120455,-0.8172006,0.4698884,0.33374855,0.28246185,0.8312769,-0.47874206,,0.017858103,-0.017919794,0.021180272,0.039993502,-0.04454546,0.99820644,-0.9678918,-0.24984434,0.027629554,0.24816552,-0.96726084,-0.05310735,,0.08395448,1.2908347,0.42617378,0.9940891,0.08242571,-0.07065971,0.014280525,-0.74445903,-0.66751546,-0.1076237,0.66256076,-0.7412357,,-0.12623683,0.2611938,-0.10412289,0.4229307,0.21812874,0.8795166,-0.39448535,0.9181159,-0.038006674,-0.8157885,-0.33088225,0.47434798,,-0.019667495,0.42291164,-0.35395083,-0.089541994,0.21655887,-0.97215456,-0.4682939,-0.8706082,-0.1508052,-0.8790239,0.44175065,0.1793692,,1.0644088265886158,0.6143356774116855,0.21753949893000002,0.15034768947840396,-1.014116101259099,0.6307513474172091,-0.41718074490694923,,-1.0976397461464038,0.29134009768011965,0.17554618438000003,0.13629846326494083,-0.7355142782373659,-1.1938208791487699,0.8426920371867466,,-0.07059420492004065,-0.05163338425868725,0.09109008376,-0.09158399527144698,,5.6300312e-05,7.688999e-06,-3.33786e-06,1.0,-4.476309e-05,-4.002452e-05,4.477054e-05,1.0,-6.467104e-06,4.0009618e-05,6.556511e-06,1.0,149,0.451,0,0,0.0,False,-0.2568991496976123,1.0180362964505203
0.48099224106408656,13:50:03.198964,13:48:43.147549,0,,0.13169783,0.0046438724,0.031835735,-0.500786,-0.29937297,-0.812151,-0.8187194,0.4683413,0.33219743,0.28091297,0.83128333,-0.4796412,,0.017860636,-0.017921105,0.021181762,0.04013443,-0.04447638,0.9982039,-0.9678725,-0.24990234,0.02778019,0.24821812,-0.967249,-0.05307716,,0.08395448,1.2908347,0.42617378,0.9940891,0.08242571,-0.07065971,0.014280525,-0.74445903,-0.66751546,-0.1076237,0.66256076,-0.7412357,,-0.12617382,0.2612719,-0.104201965,0.4214473,0.22044522,0.8796511,-0.39671865,0.91707903,-0.039754037,-0.81547314,-0.33221975,0.4739552,,-0.019670257,0.42291152,-0.35395244,-0.08968997,0.21648847,-0.9721566,-0.46826082,-0.87064725,-0.1506823,-0.8790265,0.44170818,0.17946139,,1.0651579316774156,0.6144824093362958,0.21745524008000003,0.14594420066522895,-1.0135695552600372,0.6323476443059377,-0.41734408897308345,,-1.097647468879278,0.2913323749472454,0.17554488809000002,0.1360887733214563,-0.7355142782373659,-1.1937392004086291,0.8428553812528807,,-0.07059420492004065,-0.05163338425868725,0.09109008376,-0.09158399527144698,,5.6300312e-05,7.688999e-06,-3.33786e-06,1.0,-4.476309e-05,-4.002452e-05,4.477054e-05,1.0,-6.467104e-06,4.0009618e-05,6.556511e-06,1.0,157,0.476,0,0,0.0,False,-0.2557075953271921,1.0185673786590943
0.5003827700857073,13:50:03.219950,13:48:43.147549,0,,0.13160953,0.004675433,0.031956762,-0.5014071,-0.29962504,-0.8116747,-0.81910384,0.46654457,0.33377415,0.27867535,0.83220243,-0.4793527,,0.017861292,-0.017919675,0.021182656,0.040134825,-0.044470605,0.9982041,-0.96787477,-0.24989349,0.027782492,0.24820939,-0.96725154,-0.053071417,,0.08395448,1.2908347,0.42617378,0.9940891,0.08242571,-0.07065971,0.014280525,-0.74445903,-0.66751546,-0.1076237,0.66256076,-0.7412357,,-0.12609924,0.26138023,-0.10428035,0.42231283,0.220494,0.8792237,-0.39847568,0.91637415,-0.038412992,-0.8141677,-0.33412695,0.47485805,,-0.019671055,0.42291304,-0.3539519,-0.0896888,0.2164833,-0.97215784,-0.46826878,-0.870644,-0.15067658,-0.87902236,0.44171718,0.17945938,,1.0659070367662153,0.6146523094595288,0.21735931462000002,0.14531513083477537,-1.01138337126379,0.6330153200510116,-0.41701740084081496,,-1.0976551916121522,0.29134009768011965,0.17554488809000002,0.1360887733214563,-0.7355142782373659,-1.1937392004086291,0.8431820693851495,,-0.07059420492004065,-0.05163338425868725,0.09109008376,-0.09158399527144698,,5.6300312e-05,7.688999e-06,-3.33786e-06,1.0,-4.476309e-05,-4.002452e-05,4.477054e-05,1.0,-6.467104e-06,4.0009618e-05,6.556511e-06,1.0,176,0.533,0,0,0.0,False,-0.2551713958605024,1.018422538056756
0.5213425310794264,13:50:03.272850,13:48:43.320966,0,,0.13139677,0.0047474205,0.032305896,-0.50380397,-0.30063638,-0.8098144,-0.82022583,0.46054232,0.33930892,0.2709453,0.83517563,-0.47861272,,0.017869651,-0.01791872,0.021185279,0.040112324,-0.04450332,0.9982036,-0.9678774,-0.24988654,0.027752928,0.24820268,-0.96725184,-0.053097293,,0.08395448,1.2908347,0.42617378,0.9940891,0.08242571,-0.07065971,0.014280525,-0.74445903,-0.66751546,-0.1076237,0.66256076,-0.7412357,,-0.12592666,0.26167676,-0.10451408,0.42556244,0.22083649,0.87756926,-0.40438163,0.913962,-0.033896502,-0.8095506,-0.3404478,0.47825012,,-0.01967975,0.42291453,-0.3539519,-0.08966548,0.21651557,-0.9721528,-0.4682725,-0.8706353,-0.1507152,-0.8790227,0.4417185,0.1794542,,1.0678377199847715,0.615177455294976,0.21706635308000002,0.14321823139993015,-1.0037317272769255,0.6355972213791927,-0.4166907127085464,,-1.0977092507422719,0.2913323749472454,0.17554488809000002,0.1360887733214563,-0.7355142782373659,-1.1936575216684884,0.8436721015835527,,-0.07059420492004065,-0.05163338425868725,0.09109008376,-0.09158399527144698,,5.6300312e-05,7.688999e-06,-3.33786e-06,1.0,-4.476309e-05,-4.002452e-05,4.477054e-05,1.0,-6.467104e-06,4.0009618e-05,6.556511e-06,1.0,184,0.558,0,0,0.0,False,-0.2568991496976123,1.0191950212692271
0.5742323161102831,13:50:03.298858,13:48:43.320966,0,,0.13134268,0.004739128,0.03245616,-0.50234795,-0.30271918,-0.8099431,-0.82200974,0.45777425,0.3387372,0.2682289,0.8359448,-0.4788,,0.017856717,-0.017921582,0.021181047,0.038085453,-0.046453416,0.9981941,-0.96816003,-0.24904555,0.02534961,0.24741834,-0.967377,-0.054459356,,0.08395448,1.2908347,0.42617378,0.9940891,0.08242571,-0.07065971,0.014280525,-0.74445903,-0.66751546,-0.1076237,0.66256076,-0.7412357,,-0.12589152,0.26177365,-0.10463636,0.4243556,0.22266945,0.8776905,-0.4075871,0.91251665,-0.034440055,-0.8085759,-0.3431205,0.47798875,,-0.01966627,0.4229112,-0.35395283,-0.08753215,0.2184611,-0.97191197,-0.46877208,-0.8699121,-0.15331566,-0.87897146,0.44218513,0.17855373,,1.068579102340697,0.615486364609945,0.21692894634,0.1377662928693325,-1.0020920892797403,0.6390792522031288,-0.41603733644400925,,-1.0977324189408946,0.29131692948149696,0.1755435918,0.13902443253023963,-0.7353776417376005,-1.1936872608320444,0.8435087575174183,,-0.07059420492004065,-0.05163338425868725,0.09109008376,-0.09158399527144698,,5.6300312e-05,7.688999e-06,-3.33786e-06,1.0,-4.476309e-05,-4.002452e-05,4.477054e-05,1.0,-6.467104e-06,4.0009618e-05,6.556511e-06,1.0,188,0.57,0,0,0.0,False,-0.25683957197909146,1.0192433014700066
0.6002742031123489,13:50:03.317365,13:48:43.320966,0,,0.13133177,0.004735507,0.03257537,-0.50354195,-0.3058137,-0.8080368,-0.82294136,0.45456272,0.34079382,0.26308405,0.83657074,-0.48055807,,0.0178665,-0.017922,0.021184325,0.038465,-0.04617825,0.9981923,-0.9680772,-0.24932432,0.025770359,0.2476837,-0.9673184,-0.054294355,,0.08395448,1.2908347,0.42617378,0.9940891,0.08242571,-0.07065971,0.014280525,-0.74445903,-0.66751546,-0.1076237,0.66256076,-0.7412357,,-0.12589523,0.2618513,-0.10472745,0.42611122,0.22550038,0.87611574,-0.4116724,0.91069084,-0.03417687,-0.80557746,-0.34610954,0.48088786,,-0.019676479,0.42291203,-0.35395405,-0.08795279,0.21817829,-0.97193754,-0.46857163,-0.8700908,-0.15291387,-0.87903637,0.44197315,0.17875907,,1.0689497935186598,0.6157026011304233,0.21680579879000003,0.1352500135475182,-0.9973098117879499,0.6397536350216256,-0.4168540567746807,,-1.0977710326052657,0.2913092067486227,0.1755435918,0.13839536269978608,-0.7355142782373659,-1.1934941641882073,0.843998789715821,,-0.07059420492004065,-0.05163338425868725,0.09109008376,-0.09158399527144698,,5.6300312e-05,7.688999e-06,-3.33786e-06,1.0,-4.476309e-05,-4.002452e-05,4.477054e-05,1.0,-6.467104e-06,4.0009618e-05,6.556511e-06,1.0,196,0.595,0,0,0.0,False,-0.2564821056679656,1.0191467410684476
0.6187839040067047,13:50:03.339746,13:48:43.320966,0,,0.13132997,0.004730992,0.032678068,-0.5049879,-0.3047636,-0.80753106,-0.82344455,0.45053005,0.3449085,0.25870156,0.8391315,-0.47846806,,0.017875105,-0.017921492,0.021186769,0.038891546,-0.04580345,0.998193,-0.9680238,-0.24947935,0.026268438,0.24782547,-0.96729624,-0.05404149,,0.08395448,1.2908347,0.42617378,0.9940891,0.08242571,-0.07065971,0.014280525,-0.74445903,-0.66751546,-0.1076237,0.66256076,-0.7412357,,-0.12590602,0.26191685,-0.10480594,0.42804655,0.22394791,0.87557036,-0.41491845,0.9093721,-0.029749263,-0.8028816,-0.35055625,0.4821737,,-0.019685391,0.42291307,-0.35395423,-0.08839759,0.21780474,-0.9719809,-0.46848765,-0.8702268,-0.15239635,-0.8790365,0.44188958,0.1789648,,1.0692046437035092,0.6159111149180273,0.21669561414000002,0.13378218394312655,-0.9929374437954557,0.6441927786371153,-0.4175074330392178,,-1.0978019235367624,0.2913014840157485,0.1755435918,0.1377662928693325,-0.7355142782373659,-1.1934124854480668,0.8441621337819554,,-0.07059420492004065,-0.05163338425868725,0.09109008376,-0.09158399527144698,,5.6300312e-05,7.688999e-06,-3.33786e-06,1.0,-4.476309e-05,-4.002452e-05,4.477054e-05,1.0,-6.467104e-06,4.0009618e-05,6.556511e-06,1.0,204,0.619,0,0,0.0,False,-0.25683957197909146,1.0196295430762423
0.641160085098818,13:50:03.364150,13:48:43.320966,0,,0.13136722,0.004707344,0.0327574,-0.5047107,-0.30737793,-0.80671304,-0.82535213,0.44577846,0.34651923,0.25310302,0.8407141,-0.47868413,,0.017880283,-0.01792489,0.021186352,0.038720943,-0.04591462,0.9981946,-0.9680379,-0.24944496,0.0260773,0.2477974,-0.9672998,-0.054105833,,0.08395448,1.2908347,0.42617378,0.9940891,0.08242571,-0.07065971,0.014280525,-0.74445903,-0.66751546,-0.1076237,0.66256076,-0.7412357,,-0.12595369,0.26195085,-0.1048753,0.42834893,0.22611004,0.87486655,-0.42009518,0.907025,-0.028735962,-0.80002326,-0.35521817,0.4835109,,-0.01969043,0.42290983,-0.35395584,-0.08822481,0.21791494,-0.9719719,-0.46849537,-0.870192,-0.15257119,-0.8790498,0.4419038,0.17886466,,1.0693822665596162,0.6161196287056314,0.21659320723000003,0.12770117558207533,-0.9882918028034308,0.6493892313268989,-0.41620068051014353,,-1.0978328144682594,0.29127059308425163,0.1755435918,0.13797598281281703,-0.7355142782373659,-1.1934124854480668,0.8441621337819554,,-0.07059420492004065,-0.05163338425868725,0.09109008376,-0.09158399527144698,,5.6300312e-05,7.688999e-06,-3.33786e-06,1.0,-4.476309e-05,-4.002452e-05,4.477054e-05,1.0,-6.467104e-06,4.0009618e-05,6.556511e-06,1.0,219,0.664,0,0,0.0,False,-0.25636295023092304,1.0198709440801397
0.6655695009976625,13:50:03.404224,13:48:43.433482,0,,0.13136671,0.0046537817,0.032991737,-0.5058751,-0.3115375,-0.8043847,-0.8270488,0.4401453,0.34966055,0.24511391,0.84214985,-0.48031524,,0.017885327,-0.017925814,0.021182597,0.037564166,-0.046827,0.99819636,-0.96834475,-0.24838307,0.024788782,0.2467744,-0.9675294,-0.054674998,,0.08395448,1.2908347,0.42617378,0.9940891,0.08242571,-0.07065971,0.014280525,-0.74445903,-0.66751546,-0.1076237,0.66256076,-0.7412357,,-0.12598407,0.26206818,-0.1050829,0.43037874,0.2297774,0.87291265,-0.4266543,0.9039935,-0.027602218,-0.79544973,-0.36055255,0.4870951,,-0.019694708,0.42290574,-0.35395342,-0.0869045,0.21885978,-0.9718786,-0.46929976,-0.8695335,-0.15384807,-0.8787522,0.4427323,0.17827721,,1.0698919669293152,0.6165675472123364,0.21633394923000002,0.12245892699496222,-0.9810500683158624,0.6525504225865908,-0.4173440889730835,,-1.0979177645298759,0.2912088112212578,0.1755435918,0.13986319230417774,-0.7348310957385388,-1.1937245387461273,0.8449788541126262,,-0.07059420492004065,-0.05163338425868725,0.09109008376,-0.09158399527144698,,5.6300312e-05,7.688999e-06,-3.33786e-06,1.0,-4.476309e-05,-4.002452e-05,4.477054e-05,1.0,-6.467104e-06,4.0009618e-05,6.556511e-06,1.0,227,0.689,0,0,0.0,False,-0.2559459062012759,1.0207399876941698
0.705636742990464,13:50:03.431276,13:48:43.433482,0,,0.1313416,0.004645191,0.033097446,-0.50710964,-0.3122802,-0.8033187,-0.8270155,0.43872434,0.35152,0.24266288,0.842616,-0.48074192,,0.017882481,-0.017909065,0.021175683,0.03758169,-0.04574454,0.99824595,-0.96907604,-0.24546877,0.02523496,0.24388397,-0.96832454,-0.053555086,,0.08395448,1.2908347,0.42617378,0.9940891,0.08242571,-0.07065971,0.014280525,-0.74445903,-0.66751546,-0.1076237,0.66256076,-0.7412357,,-0.12597233,0.26213375,-0.105169185,0.43189925,0.23038606,0.87200075,-0.428218,0.90328515,-0.0265565,-0.7937836,-0.3619367,0.48878363,,-0.019690571,0.42291224,-0.35393676,-0.08640544,0.21795483,-0.9721264,-0.47191086,-0.8683157,-0.1527352,-0.877402,0.44555986,0.17788245,,1.0701699853127873,0.6167451700684435,0.21622894974,0.12266861693844675,-0.9784539748203192,0.6522304146994513,-0.4160373364440092,,-1.0979409327284986,0.2911624748240125,0.17553970293,0.1411213319650849,-0.7319617292434645,-1.19573759976319,0.8459589185094321,,-0.07059420492004065,-0.05163338425868725,0.09109008376,-0.09158399527144698,,5.6300312e-05,7.688999e-06,-3.33786e-06,1.0,-4.476309e-05,-4.002452e-05,4.477054e-05,1.0,-6.467104e-06,4.0009618e-05,6.556511e-06,1.0,235,0.714,0,0,0.0,False,-0.25576717304571295,1.0205468668910522
0.732694017002359,13:50:03.456288,13:48:43.433482,0,,0.13132423,0.004638046,0.033240587,-0.5063625,-0.3160748,-0.8023053,-0.82912654,0.43411732,0.35226622,0.23695228,0.8435868,-0.48188668,,0.017906584,-0.017910555,0.021179914,0.03854125,-0.046113268,0.99819237,-0.96905357,-0.2454696,0.026076302,0.24382353,-0.9683069,-0.054146938,,0.08395448,1.2908347,0.42617378,0.9940891,0.08242571,-0.07065971,0.014280525,-0.74445903,-0.66751546,-0.1076237,0.66256076,-0.7412357,,-0.12597267,0.2622251,-0.10528094,0.43173888,0.2337992,0.8711713,-0.433641,0.9006867,-0.02681464,-0.7909216,-0.3661987,0.4902464,,-0.01971505,0.4229112,-0.35393766,-0.0873383,0.21831433,-0.9719624,-0.47206542,-0.86825514,-0.15260173,-0.8772265,0.44550186,0.17889057,,1.070780081209851,0.6170463566505383,0.21608506155,0.11616822869042649,-0.9739449703280595,0.6560680679704011,-0.4163640245762778,,-1.0980336055229893,0.29110069296101865,0.17553840664,0.13986319230417774,-0.7315518197441682,-1.194438278671468,0.8456322303771637,,-0.07059420492004065,-0.05163338425868725,0.09109008376,-0.09158399527144698,,5.6300312e-05,7.688999e-06,-3.33786e-06,1.0,-4.476309e-05,-4.002452e-05,4.477054e-05,1.0,-6.467104e-06,4.0009618e-05,6.556511e-06,1.0,243,0.738,0,0,0.0,False,-0.2566012611050077,1.0217538719105386
0.7576432339847088,13:50:03.482785,13:48:43.433482,0,,0.13130032,0.0046759844,0.033340067,-0.50866187,-0.31629065,-0.8007642,-0.8293822,0.42961693,0.3571479,0.2310594,0.84580684,-0.48085555,,0.017915815,-0.01791589,0.021180987,0.03835568,-0.046608727,0.9981765,-0.969066,-0.24545202,0.025776021,0.2438032,-0.9682876,-0.05458141,,0.08395448,1.2908347,0.42617378,0.9940891,0.08242571,-0.07065971,0.014280525,-0.74445903,-0.66751546,-0.1076237,0.66256076,-0.7412357,,-0.12595901,0.2623209,-0.105331354,0.4347145,0.23351935,0.8697655,-0.43767828,0.89884824,-0.022573158,-0.7870585,-0.3708646,0.4929487,,-0.019724358,0.42290723,-0.3539412,-0.08715217,0.21879831,-0.97187024,-0.47206447,-0.8681646,-0.1531187,-0.8772455,0.44544077,0.17894933,,1.0712357224494302,0.6172394249723939,0.21599043238,0.1153294689164884,-0.9677963278386147,0.6588137426174155,-0.41652736864241213,,-1.0980876646531088,0.2910543565637733,0.17553711035000003,0.1400728822476623,-0.7315518197441682,-1.1940298849707651,0.8461222625755664,,-0.07059420492004065,-0.05163338425868725,0.09109008376,-0.09158399527144698,,5.6300312e-05,7.688999e-06,-3.33786e-06,1.0,-4.476309e-05,-4.002452e-05,4.477054e-05,1.0,-6.467104e-06,4.0009618e-05,6.556511e-06,1.0,251,0.763,0,0,0.0,False,-0.25642252794944387,1.0215124709066412
0.7842006050050259,13:50:03.501430,13:48:43.433482,0,,0.13126616,0.0046685115,0.033446148,-0.50913316,-0.3140538,-0.80134493,-0.83033526,0.42430052,0.36126512,0.22655433,0.84931684,-0.47679535,,0.017838039,-0.017933711,0.02116692,0.036047883,-0.048888262,0.9981535,-0.96932626,-0.2446971,0.023021907,0.2431198,-0.96836627,-0.056209482,,0.08396729,1.290838,0.4261746,0.99408937,0.08241337,-0.07067079,0.014264037,-0.7444604,-0.66751426,-0.1076237,0.66256076,-0.7412357,,-0.12594892,0.26239017,-0.10541368,0.43566146,0.2306183,0.8700657,-0.4413891,0.8971588,-0.016786098,-0.7844582,-0.37672445,0.4926499,,-0.019656805,0.42289567,-0.35395178,-0.08477603,0.22105326,-0.97157013,-0.47243884,-0.8674236,-0.15613419,-0.8772768,0.44577104,0.17797087,,1.071776313750626,0.6174170478285012,0.21587765515000001,0.11239380970770506,-0.9636972328456515,0.6661711204649364,-0.4160373364440092,,-1.0981417237832283,0.29100029743365374,0.17553711035000003,0.14321823139993015,-0.7315518197441682,-1.193866527490484,0.846448950707835,,-0.07059420492004065,-0.05163338425868725,0.09109008376,-0.09158399527144698,,6.898865e-05,6.7949295e-06,-7.033348e-06,1.0,-5.7056546e-05,-5.1021576e-05,5.7071447e-05,1.0,-8.255243e-06,5.0999224e-05,8.34465e-06,0.99999994,266,0.808,0,0,0.0,False,-0.25683957197909146,1.0217538719105386
0.8028502431698143,13:50:03.551459,13:48:43.579664,0,,0.13116388,0.004694551,0.033722445,-0.5092445,-0.3170504,-0.8000932,-0.83205825,0.41890278,0.36359245,0.21988413,0.8508815,-0.4771283,,0.017890774,-0.017936543,0.02118212,0.036496706,-0.04796651,0.9981819,-0.9692599,-0.24489787,0.023670971,0.24331734,-0.9683615,-0.055429995,,0.08396729,1.290838,0.4261746,0.99408937,0.08241337,-0.07067079,0.014264037,-0.7444604,-0.66751426,-0.1076237,0.66256076,-0.7412357,,-0.12587942,0.26259902,-0.10561121,0.43648723,0.23312889,0.8689821,-0.44713014,0.8943374,-0.015338961,-0.78073907,-0.3818528,0.4946058,,-0.01971143,0.42289805,-0.35395733,-0.08525268,0.2201446,-0.9717347,-0.47230825,-0.86767423,-0.15513314,-0.8773009,0.4457328,0.17794767,,1.0730582874077472,0.6179499163968226,0.21564043408000003,0.10736125106407647,-0.9580951363552683,0.6693624667267366,-0.41620068051014353,,-1.098435187632449,0.29090762463916303,0.17553451777,0.14237947162599204,-0.7315518197441682,-1.1939482062306246,0.8469389829062379,,-0.07059420492004065,-0.05163338425868725,0.09109008376,-0.09158399527144698,,6.898865e-05,6.7949295e-06,-7.033348e-06,1.0,-5.7056546e-05,-5.1021576e-05,5.7071447e-05,1.0,-8.255243e-06,5.0999224e-05,8.34465e-06,0.99999994,274,0.832,0,0,0.0,False,-0.25719703829021734,1.0218987125128767
0.8528798001352698,13:50:03.571898,13:48:43.579664,0,,0.13112569,0.004695013,0.033836856,-0.51014334,-0.31961292,-0.79849946,-0.83239096,0.41717634,0.36481398,0.21651581,0.850771,-0.47886252,,0.01790984,-0.017940208,0.02118522,0.036436386,-0.04786334,0.99818903,-0.9692571,-0.24491236,0.023636743,0.2433376,-0.968363,-0.055315614,,0.08396729,1.290838,0.4261746,0.99408937,0.08241337,-0.07067079,0.014264037,-0.7444604,-0.66751426,-0.1076237,0.66256076,-0.7412357,,-0.1258553,0.2626777,-0.105699435,0.43776676,0.23559573,0.86767215,-0.4495942,0.89309555,-0.015665028,-0.77860475,-0.38324273,0.49689,,-0.01973076,0.42289537,-0.35395968,-0.08519699,0.2200433,-0.97176254,-0.47228357,-0.86769843,-0.15507296,-0.87731963,0.44573575,0.17784813,,1.073498483181578,0.6181275392529297,0.21552895314000003,0.10631280134665386,-0.9548158603608978,0.6683220118408338,-0.4171807449069492,,-1.0985433058926881,0.2908535655090435,0.17553451777,0.14237947162599204,-0.7315518197441682,-1.1939482062306246,0.8469389829062379,,-0.07059420492004065,-0.05163338425868725,0.09109008376,-0.09158399527144698,,6.898865e-05,6.7949295e-06,-7.033348e-06,1.0,-5.7056546e-05,-5.1021576e-05,5.7071447e-05,1.0,-8.255243e-06,5.0999224e-05,8.34465e-06,0.99999994,278,0.845,0,0,0.0,False,-0.257435349164302,1.0219469927136564
0.8733117270749062,13:50:03.596347,13:48:43.579664,0,,0.13109457,0.0047041625,0.033993647,-0.51153713,-0.31973198,-0.79755956,-0.8328819,0.41272447,0.36873594,0.21127567,0.8528949,-0.4774228,,0.017922334,-0.017945424,0.021184742,0.03417147,-0.049797826,0.9981745,-0.9695438,-0.24401441,0.02101776,0.24252239,-0.96849215,-0.056619518,,0.08396729,1.290838,0.4261746,0.99408937,0.08241337,-0.07067079,0.014264037,-0.7444604,-0.66751426,-0.1076237,0.66256076,-0.7412357,,-0.12584285,0.2627909,-0.10581199,0.43975413,0.23523383,0.8667649,-0.45340812,0.89122444,-0.011834854,-0.775266,-0.3877938,0.49857655,,-0.019743003,0.42288995,-0.35396174,-0.08282398,0.22197452,-0.9715284,-0.47277752,-0.8669422,-0.15777384,-0.8772808,0.44624937,0.17674817,,1.0740390744827737,0.6184364485678987,0.21538117608000001,0.10463528179877765,-0.9497603098695766,0.6717139934969978,-0.4171807449069492,,-1.0987209287487951,0.29077633818030124,0.17553451777,0.1455248207782599,-0.7314151832444028,-1.1939779453941803,0.8471023269723723,,-0.07059420492004065,-0.05163338425868725,0.09109008376,-0.09158399527144698,,6.898865e-05,6.7949295e-06,-7.033348e-06,1.0,-5.7056546e-05,-5.1021576e-05,5.7071447e-05,1.0,-8.255243e-06,5.0999224e-05,8.34465e-06,0.99999994,286,0.869,0,0,0.0,False,-0.25725661600873906,1.0220435531152154
0.8977393661625683,13:50:03.616145,13:48:43.579664,0,,0.13110083,0.004699126,0.034094885,-0.5124485,-0.3223459,-0.79592067,-0.83370674,0.40883106,0.3712012,0.20574185,0.85378575,-0.4782467,,0.017936163,-0.017949566,0.021187127,0.034385346,-0.049642608,0.9981749,-0.9694764,-0.24426192,0.021248795,0.24276143,-0.9684377,-0.0565264,,0.08396729,1.290838,0.4261746,0.99408937,0.08241337,-0.07067079,0.014264037,-0.7444604,-0.66751426,-0.1076237,0.66256076,-0.7412357,,-0.1258615,0.2628547,-0.105888754,0.44128165,0.23752196,0.8653634,-0.45768717,0.88904977,-0.010631248,-0.7718763,-0.39137435,0.50103205,,-0.019757053,0.42288712,-0.35396466,-0.08307701,0.22181062,-0.97154427,-0.4725851,-0.86708754,-0.15755153,-0.8773605,0.44604844,0.17685945,,1.0743170928662458,0.6186372396226286,0.21526839885000001,0.10169962258999432,-0.9445681228784898,0.673606018667076,-0.41669071270854635,,-1.0987827106117891,0.2907377245159301,0.17553451777,0.14510544089129085,-0.7315518197441682,-1.1937848487503433,0.8472656710385065,,-0.07059420492004065,-0.05163338425868725,0.09109008376,-0.09158399527144698,,6.898865e-05,6.7949295e-06,-7.033348e-06,1.0,-5.7056546e-05,-5.1021576e-05,5.7071447e-05,1.0,-8.255243e-06,5.0999224e-05,8.34465e-06,0.99999994,294,0.894,0,0,0.0,False,-0.2566608388235285,1.0223815145206714
0.9175629091914743,13:50:03.637367,13:48:43.579664,0,,0.13109075,0.004695326,0.034209535,-0.5140404,-0.32211825,-0.7949858,-0.83391875,0.4046921,0.37523845,0.20085326,0.85584104,-0.47664848,,0.017942913,-0.017954275,0.021184027,0.034098104,-0.04985918,0.9981739,-0.9695324,-0.24406755,0.020928472,0.24257854,-0.96847564,-0.05666236,,0.08396729,1.290838,0.4261746,0.99408937,0.08241337,-0.07067079,0.014264037,-0.7444604,-0.66751426,-0.1076237,0.66256076,-0.7412357,,-0.12586546,0.26292914,-0.10597654,0.44343728,0.23684031,0.86444783,-0.46105012,0.8873495,-0.0066092107,-0.76863265,-0.395623,0.5026791,,-0.019763164,0.4228808,-0.35396528,-0.08276187,0.2220316,-0.97152066,-0.47271913,-0.86695755,-0.15786472,-0.87731814,0.44619125,0.1767096,,1.0746182794483405,0.6188380306773584,0.21514654759000001,0.10065117287257168,-0.9396492088869339,0.6768643820065149,-0.4175074330392177,,-1.0988213242761602,0.29068366538581053,0.17553581406000002,0.1455248207782599,-0.7314151832444028,-1.1938145879138993,0.8471023269723721,,-0.07059420492004065,-0.05163338425868725,0.09109008376,-0.09158399527144698,,6.898865e-05,6.7949295e-06,-7.033348e-06,1.0,-5.7056546e-05,-5.1021576e-05,5.7071447e-05,1.0,-8.255243e-06,5.0999224e-05,8.34465e-06,0.99999994,302,0.918,0,0,0.0,False,-0.25672041654204936,1.0228160363276866
0.938754266127944,13:50:03.665772,13:48:43.716306,0,,0.1310809,0.0047087222,0.03429617,-0.5151803,-0.32300702,-0.79388654,-0.83403444,0.4022935,0.37755328,0.19742307,0.8566365,-0.47665262,,0.017944671,-0.017936483,0.021179497,0.033831693,-0.048733514,0.9982386,-0.9703171,-0.24091169,0.021124236,0.239458,-0.9693227,-0.055437423,,0.08396729,1.290838,0.4261746,0.99408937,0.08241337,-0.07067079,0.014264037,-0.7444604,-0.66751426,-0.1076237,0.66256076,-0.7412357,,-0.12586544,0.26299754,-0.106032245,0.44497412,0.23750482,0.86347526,-0.4633844,0.88614357,-0.004944348,-0.76633734,-0.39792082,0.504367,,-0.019763986,0.42288914,-0.35394886,-0.0819424,0.2210949,-0.9718037,-0.4754977,-0.86562234,-0.15684366,-0.87589234,0.44923827,0.17606129,,1.0748962978318126,0.619031098999214,0.21506747390000003,0.10002210304211812,-0.936233296392798,0.6776727989802891,-0.41620068051014353,,-1.098890828872028,0.29062960625569095,0.1755306289,0.1472023403261361,-0.728409180249563,-1.1961024243149394,0.8474290151046409,,-0.07059420492004065,-0.05163338425868725,0.09109008376,-0.09158399527144698,,6.898865e-05,6.7949295e-06,-7.033348e-06,1.0,-5.7056546e-05,-5.1021576e-05,5.7071447e-05,1.0,-8.255243e-06,5.0999224e-05,8.34465e-06,0.99999994,313,0.951,0,0,0.0,False,-0.2570778828531757,1.0224780749222304
0.9671903271228075,13:50:03.695245,13:48:43.716306,0,,0.13105646,0.004691586,0.034485385,-0.5157146,-0.3266823,-0.7920336,-0.8348329,0.39941937,0.37883785,0.1925939,0.85658777,-0.4787115,,0.017955996,-0.017945394,0.021180391,0.033926375,-0.050264698,0.9981594,-0.9705227,-0.24010196,0.02089616,0.23860976,-0.9694454,-0.05692882,,0.08396729,1.290838,0.4261746,0.99408937,0.08241337,-0.07067079,0.014264037,-0.7444604,-0.66751426,-0.1076237,0.66256076,-0.7412357,,-0.12586483,0.26311266,-0.10618533,0.44604447,0.24100965,0.8619505,-0.4671883,0.884141,-0.0054524904,-0.7633999,-0.40026113,0.5069631,,-0.01977532,0.42288235,-0.35395464,-0.08188399,0.22262776,-0.9714586,-0.47626957,-0.86497283,-0.15807992,-0.8754783,0.44973198,0.17685825,,1.075429166400134,0.6194172356429253,0.21488599330000002,0.09729613377681931,-0.9319975649000694,0.6774859935713226,-0.41718074490694923,,-1.0989448880021477,0.29052148799545185,0.17552285116000002,0.14741203026962063,-0.7274527247512049,-1.194677023657019,0.8472656710385063,,-0.07059420492004065,-0.05163338425868725,0.09109008376,-0.09158399527144698,,6.898865e-05,6.7949295e-06,-7.033348e-06,1.0,-5.7056546e-05,-5.1021576e-05,5.7071447e-05,1.0,-8.255243e-06,5.0999224e-05,8.34465e-06,0.99999994,321,0.976,0,0,0.0,False,-0.25815028178655464,1.0228160363276866
0.9966336851939559,13:50:03.715362,13:48:43.716306,0,,0.13105214,0.0047022253,0.034527496,-0.51654345,-0.32713538,-0.79130614,-0.8347039,0.39843792,0.3801534,0.19092473,0.85687196,-0.4788716,,0.017959334,-0.01794757,0.02118069,0.033955216,-0.050385434,0.9981524,-0.9705486,-0.23999673,0.020901494,0.23850024,-0.96946526,-0.057050668,,0.08396729,1.290838,0.4261746,0.99408937,0.08241337,-0.07067079,0.014264037,-0.7444604,-0.66751426,-0.1076237,0.66256076,-0.7412357,,-0.12586509,0.26314896,-0.10620959,0.4470735,0.2413752,0.8613149,-0.46817487,0.8836238,-0.0046165204,-0.7621926,-0.40118206,0.50805056,,-0.019778682,0.4228807,-0.35395607,-0.08189278,0.2227507,-0.9714297,-0.47637102,-0.8649015,-0.15816487,-0.8754223,0.4498084,0.17694116,,1.0755527301261216,0.6195176311702901,0.21484969718000002,0.09750582372030382,-0.9302212904031185,0.6773444206655181,-0.41783412117148633,,-1.0989603334678961,0.29049831979682916,0.17552155487,0.14741203026962063,-0.7273160882514395,-1.194543405340294,0.848082391369178,,-0.07059420492004065,-0.05163338425868725,0.09109008376,-0.09158399527144698,,6.898865e-05,6.7949295e-06,-7.033348e-06,1.0,-5.7056546e-05,-5.1021576e-05,5.7071447e-05,1.0,-8.255243e-06,5.0999224e-05,8.34465e-06,0.99999994,325,0.988,0,0,0.0,False,-0.2575545046013441,1.0225263551230097
1.0167807550169528,13:50:03.741929,13:48:43.716306,0,,0.13104095,0.0047153905,0.034663662,-0.51813585,-0.32685745,-0.79037935,-0.83481085,0.39431486,0.38419616,0.18608093,0.8588829,-0.4771728,,0.017974503,-0.017954245,0.021182895,0.034329906,-0.049880095,0.998165,-0.97059226,-0.23977676,0.02139955,0.23826948,-0.9695457,-0.056644775,,0.08396729,1.290838,0.4261746,0.99408937,0.08241337,-0.07067079,0.014264037,-0.7444604,-0.66751426,-0.1076237,0.66256076,-0.7412357,,-0.12586969,0.26325044,-0.1063019,0.4492295,0.24064985,0.86039555,-0.4714299,0.88190335,-0.00052265654,-0.7589115,-0.4053814,0.50962657,,-0.01979403,0.42287585,-0.3539606,-0.08222005,0.22226939,-0.9715123,-0.47661826,-0.8648799,-0.15753661,-0.8752571,0.45008785,0.17704812,,1.0759465895027072,0.6198342632181334,0.21472266076000002,0.09645737400288121,-0.9253023764115627,0.6804394265246757,-0.41701740084081496,,-1.09902211533089,0.2904210924680869,0.17551766600000002,0.14699265038265158,-0.7269061787521433,-1.1947143015711021,0.8484090795014463,,-0.07059420492004065,-0.05163338425868725,0.09109008376,-0.09158399527144698,,6.898865e-05,6.7949295e-06,-7.033348e-06,1.0,-5.7056546e-05,-5.1021576e-05,5.7071447e-05,1.0,-8.255243e-06,5.0999224e-05,8.34465e-06,0.99999994,337,1.025,0,0,0.0,False,-0.256065061638318,1.0229125967292456
1.0433401411864907,13:50:03.772144,13:48:43.716306,0,,0.13105768,0.004726559,0.03475435,-0.51901346,-0.33052287,-0.78827643,-0.8357111,0.38985798,0.3867785,0.17947668,0.8595145,-0.47856313,,0.017982818,-0.017965928,0.021183431,0.03413651,-0.050220717,0.99815446,-0.9705963,-0.23978385,0.021129712,0.23828024,-0.9695264,-0.056929447,,0.08396729,1.290838,0.4261746,0.99408937,0.08241337,-0.07067079,0.014264037,-0.7444604,-0.66751426,-0.1076237,0.66256076,-0.7412357,,-0.12589663,0.26331875,-0.106358804,0.45084855,0.24398322,0.85860807,-0.4764836,0.8791833,0.0003680008,-0.75478405,-0.40927857,0.5126325,,-0.019802375,0.42286742,-0.35396862,-0.08203179,0.2226009,-0.9714523,-0.4765879,-0.86482596,-0.15792406,-0.8752912,0.4500276,0.17703213,,1.0762246078861792,0.6200350542728632,0.2146267353,0.09310233490712881,-0.9192903704218833,0.6820713379732782,-0.41636402457627775,,-1.0990607289952612,0.2903438651393447,0.17551377713000002,0.1472023403261361,-0.7269061787521433,-1.1944692653506803,0.8479190473030436,,-0.07059420492004065,-0.05163338425868725,0.09109008376,-0.09158399527144698,,6.898865e-05,6.7949295e-06,-7.033348e-06,1.0,-5.7056546e-05,-5.1021576e-05,5.7071447e-05,1.0,-8.255243e-06,5.0999224e-05,8.34465e-06,0.99999994,366,1.115,0,0,0.0,False,-0.2568991496976123,1.0225746353237892
1.0735401911661029,13:50:03.851347,13:48:43.881362,0,,0.1310877,0.0047390014,0.035025463,-0.52260125,-0.33359185,-0.7846046,-0.83648694,0.3785674,0.39620236,0.16485587,0.8633672,-0.47688496,,0.018002026,-0.017990038,0.021182358,0.0324182,-0.051583342,0.99814236,-0.9707838,-0.23918906,0.019168533,0.23775601,-0.9696018,-0.057830356,,0.08396729,1.290838,0.4261746,0.99408937,0.08241337,-0.07067079,0.014264037,-0.7444604,-0.66751426,-0.1076237,0.66256076,-0.7412357,,-0.12595838,0.2635083,-0.106545396,0.45612508,0.2459932,0.85524106,-0.48669785,0.8735308,0.0083163325,-0.7450336,-0.42003727,0.5181637,,-0.019821212,0.42284805,-0.35398355,-0.08024826,0.22395822,-0.97128934,-0.47687343,-0.86430705,-0.15989098,-0.87530106,0.4503511,0.17615885,,1.0768424265161172,0.6206374274370527,0.21434544037000003,0.08848915615046928,-0.9050801744462775,0.6889432712606174,-0.4166907127085464,,-1.0992151836527455,0.29015851955036326,0.17550729568,0.14950892970446586,-0.7267695422523778,-1.194499004514236,0.848082391369178,,-0.07059420492004065,-0.05163338425868725,0.09109008376,-0.09158399527144698,,6.898865e-05,6.7949295e-06,-7.033348e-06,1.0,-5.7056546e-05,-5.1021576e-05,5.7071447e-05,1.0,-8.255243e-06,5.0999224e-05,8.34465e-06,0.99999994,370,1.127,0,0,0.0,False,-0.256541683386486,1.0238782007448346
1.1527666430920362,13:50:03.875444,13:48:43.881362,0,,0.13109726,0.004751019,0.035083994,-0.52354586,-0.33399045,-0.7838049,-0.83629,0.37728715,0.397836,0.16284612,0.86377347,-0.4768399,,0.018011324,-0.017995551,0.021183431,0.032383107,-0.051698804,0.9981375,-0.9707779,-0.23921815,0.019105136,0.23778501,-0.9695884,-0.05793471,,0.08396729,1.290838,0.4261746,0.99408937,0.08241337,-0.07067079,0.014264037,-0.7444604,-0.66751426,-0.1076237,0.66256076,-0.7412357,,-0.1259743,0.263556,-0.10657905,0.4573132,0.246275,0.85452515,-0.4878572,0.8728715,0.009522377,-0.74354553,-0.42124096,0.5193227,,-0.019830588,0.42284393,-0.3539872,-0.08021892,0.22406922,-0.97126615,-0.47684363,-0.86430156,-0.16000919,-0.87532,0.4503063,0.17617932,,1.076935099310608,0.6208227730260341,0.21429877393000002,0.0886988460939538,-0.9030306269497959,0.6890689349882635,-0.41669071270854635,,-1.099261520049991,0.2901044604202437,0.17550599939000003,0.14950892970446586,-0.7267695422523778,-1.194335647033955,0.8484090795014467,,-0.07059420492004065,-0.05163338425868725,0.09109008376,-0.09158399527144698,,6.898865e-05,6.7949295e-06,-7.033348e-06,1.0,-5.7056546e-05,-5.1021576e-05,5.7071447e-05,1.0,-8.255243e-06,5.0999224e-05,8.34465e-06,0.99999994,378,1.152,0,0,0.0,False,-0.25719703829021734,1.0244575631541881
1.1768554539885372,13:50:03.895077,13:48:43.881362,0,,0.13110608,0.004756473,0.0351312,-0.52344745,-0.33321312,-0.7842014,-0.83642864,0.37642112,0.3983645,0.16244969,0.8644513,-0.4757456,,0.01802186,-0.018002674,0.021182477,0.032341696,-0.05181213,0.99813294,-0.9707688,-0.23926044,0.019035287,0.23782763,-0.96957195,-0.058035694,,0.08396729,1.290838,0.4261746,0.99408937,0.08241337,-0.07067079,0.014264037,-0.7444604,-0.66751426,-0.1076237,0.66256076,-0.7412357,,-0.12598844,0.2635913,-0.106608905,0.45725638,0.24537908,0.8548133,-0.4882298,0.87264997,0.0106645,-0.7433359,-0.42222172,0.5188261,,-0.019840816,0.4228371,-0.35399053,-0.0801858,0.22417748,-0.9712439,-0.47680092,-0.8643029,-0.16012928,-0.8753463,0.45024988,0.17619285,,1.07701232663935,0.6210081186150155,0.21426895926000003,0.08827946620698475,-0.9028939904500305,0.6905910918873783,-0.4166907127085464,,-1.0993078564472363,0.29005040129012416,0.17550599939000003,0.14950892970446586,-0.7267695422523778,-1.194172289553674,0.848735767633715,,-0.07059420492004065,-0.05163338425868725,0.09109008376,-0.09158399527144698,,6.898865e-05,6.7949295e-06,-7.033348e-06,1.0,-5.7056546e-05,-5.1021576e-05,5.7071447e-05,1.0,-8.255243e-06,5.0999224e-05,8.34465e-06,0.99999994,386,1.176,0,0,0.0,False,-0.25677999426057063,1.0237333601424965
1.1964958920143545,13:50:03.918308,13:48:43.881362,0,,0.13116094,0.004759811,0.035180554,-0.5224216,-0.33786532,-0.78289384,-0.8377956,0.37423146,0.39755416,0.15866372,0.8635957,-0.47856864,,0.018035643,-0.018009827,0.021183789,0.032594427,-0.05155518,0.99813807,-0.9707272,-0.23940551,0.019333743,0.23796311,-0.9695499,-0.05784931,,0.08396729,1.290838,0.4261746,0.99408937,0.08241337,-0.07067079,0.014264037,-0.7444604,-0.66751426,-0.1076237,0.66256076,-0.7412357,,-0.1260486,0.26362443,-0.10663608,0.45662567,0.24998404,0.85381556,-0.49182415,0.8706567,0.008115607,-0.7413515,-0.4236329,0.5205124,,-0.019854654,0.4228315,-0.35399503,-0.08045857,0.22391993,-0.97128075,-0.47670668,-0.8644169,-0.1597942,-0.8753726,0.45015922,0.17629386,,1.0770509403037212,0.6212629687998649,0.2142248854,0.08366628745032521,-0.9001612604547217,0.690976453497948,-0.4170174008408149,,-1.099361915577356,0.28998861942713033,0.17550470310000002,0.14908954981749684,-0.7267695422523778,-1.1940906108135334,0.8488991116998494,,-0.07059420492004065,-0.05163338425868725,0.09109008376,-0.09158399527144698,,6.898865e-05,6.7949295e-06,-7.033348e-06,1.0,-5.7056546e-05,-5.1021576e-05,5.7071447e-05,1.0,-8.255243e-06,5.0999224e-05,8.34465e-06,0.99999994,394,1.201,0,0,0.0,False,-0.25672041654204936,1.0239264809456141
1.219726531067863,13:50:03.944237,13:48:43.998981,0,,0.1311594,0.004764624,0.035219803,-0.52360994,-0.33481276,-0.7834112,-0.8371115,0.37310818,0.4000434,0.15835753,0.865269,-0.47563866,,0.018041946,-0.018011227,0.021186233,0.032574654,-0.05160029,0.9981364,-0.97072697,-0.23940894,0.01930353,0.23796678,-0.96954656,-0.057888463,,0.08396729,1.290838,0.4261746,0.99408937,0.08241337,-0.07067079,0.014264037,-0.7444604,-0.66751426,-0.1076237,0.66256076,-0.7412357,,-0.12605155,0.26365435,-0.10666179,0.4578752,0.24669965,0.8541016,-0.49147043,0.8708123,0.011945934,-0.74081516,-0.42523545,0.5199689,,-0.01986129,0.42283154,-0.35399687,-0.080439776,0.2239637,-0.97127223,-0.47670123,-0.8644109,-0.15984285,-0.8753773,0.45014894,0.17629679,,1.0770663857694698,0.621371087060104,0.21419507073000002,0.08555349694168593,-0.8994780779558944,0.6931147624041044,-0.4155473042456064,,-1.099400529241727,0.2899731739613819,0.17550340681,0.14908954981749684,-0.7267695422523778,-1.1940089320733929,0.8490624557659836,,-0.07059420492004065,-0.05163338425868725,0.09109008376,-0.09158399527144698,,6.898865e-05,6.7949295e-06,-7.033348e-06,1.0,-5.7056546e-05,-5.1021576e-05,5.7071447e-05,1.0,-8.255243e-06,5.0999224e-05,8.34465e-06,0.99999994,402,1.226,0,0,0.0,False,-0.25672041654204936,1.0244575631541881
1.24565503699705,13:50:03.976054,13:48:43.998981,0,,0.13120595,0.004765652,0.035258964,-0.52513623,-0.3402203,-0.78005254,-0.83745754,0.3695737,0.40259185,0.15131703,0.86467636,-0.4789965,,0.0180474,-0.018016532,0.021186352,0.032550782,-0.051574342,0.9981384,-0.9707208,-0.23943514,0.019284949,0.23799488,-0.96954155,-0.057858102,,0.08396729,1.290838,0.4261746,0.99408937,0.08241337,-0.07067079,0.014264037,-0.7444604,-0.66751426,-0.1076237,0.66256076,-0.7412357,,-0.12610234,0.26367933,-0.10668407,0.46021783,0.25195402,0.8513041,-0.49637735,0.8680315,0.011438551,-0.73607683,-0.4278323,0.5245478,,-0.019866716,0.42282742,-0.35400024,-0.08042131,0.22393711,-0.97127986,-0.47667342,-0.86442804,-0.15983324,-0.8753941,0.4501293,0.1762633,,1.077043217570847,0.6214405916559721,0.21412636736000001,0.08303721761987165,-0.892509616467857,0.6920064587634583,-0.41620068051014353,,-1.0994236974403497,0.28993456029701076,0.17550211052,0.14908954981749684,-0.7267695422523778,-1.1940089320733929,0.8490624557659836,,-0.07059420492004065,-0.05163338425868725,0.09109008376,-0.09158399527144698,,6.898865e-05,6.7949295e-06,-7.033348e-06,1.0,-5.7056546e-05,-5.1021576e-05,5.7071447e-05,1.0,-8.255243e-06,5.0999224e-05,8.34465e-06,0.99999994,410,1.25,0,0,0.0,False,-0.2570778828531757,1.0245541235557472
1.2774741121102124,13:50:03.992720,13:48:43.998981,0,,0.13121955,0.004735641,0.035299018,-0.5256389,-0.34185368,-0.77899927,-0.8378232,0.36679587,0.40436745,0.1474992,0.86521477,-0.4792151,,0.018042773,-0.018017516,0.021184623,0.031349286,-0.052754674,0.9981153,-0.97085357,-0.23900706,0.01786051,0.23761442,-0.9695837,-0.058709778,,0.08396729,1.290838,0.4261746,0.99408937,0.08241337,-0.07067079,0.014264037,-0.7444604,-0.66751426,-0.1076237,0.66256076,-0.7412357,,-0.12612218,0.26368335,-0.10673185,0.4611569,0.25336862,0.8503756,-0.4991843,0.8664048,0.012562106,-0.7335866,-0.43028724,0.5260262,,-0.019861855,0.42282608,-0.35400042,-0.07917173,0.22510816,-0.97111183,-0.47688437,-0.8640196,-0.16140479,-0.87539315,0.45032936,0.17575648,,1.0770509403037212,0.6214328689230978,0.21405377512,0.08115000812851092,-0.8888204309741901,0.6935721848115264,-0.4155473042456064,,-1.0994545883718465,0.28992683756413656,0.17550211052,0.150767069365373,-0.7267695422523778,-1.1939272533332521,0.8495524879643865,,-0.07059420492004065,-0.05163338425868725,0.09109008376,-0.09158399527144698,,6.898865e-05,6.7949295e-06,-7.033348e-06,1.0,-5.7056546e-05,-5.1021576e-05,5.7071447e-05,1.0,-8.255243e-06,5.0999224e-05,8.34465e-06,0.99999994,418,1.275,0,0,0.0,False,-0.25636295023092304,1.0241678819495115
1.2941388960462064,13:50:04.024411,13:48:43.998981,0,,0.13123608,0.0046688244,0.035374925,-0.52489424,-0.3489509,-0.7763501,-0.83930546,0.36393425,0.4038789,0.14160645,0.86358833,-0.48390335,,0.018044643,-0.018016115,0.021185815,0.030587986,-0.053329457,0.99810827,-0.97093916,-0.23872188,0.01700037,0.23736382,-0.96962243,-0.05908171,,0.08396729,1.290838,0.4261746,0.99408937,0.08241337,-0.07067079,0.014264037,-0.7444604,-0.66751426,-0.1076237,0.66256076,-0.7412357,,-0.12615106,0.26368394,-0.10683014,0.4610526,0.2604565,0.84828824,-0.5042633,0.86350363,0.008943587,-0.73017055,-0.43188405,0.52945924,,-0.019863911,0.42282766,-0.35399994,-0.07837825,0.22568215,-0.97104293,-0.47702605,-0.86378294,-0.16225022,-0.8753874,0.4504959,0.17535807,,1.0771513358310862,0.6214251461902236,0.21392155354000003,0.0756980695979133,-0.8837648804828687,0.6925535145001002,-0.41718074490694923,,-1.0995086475019662,0.28992683756413656,0.17550211052,0.15181551908279564,-0.7267695422523778,-1.1940089320733929,0.8497158320305205,,-0.07059420492004065,-0.05163338425868725,0.09109008376,-0.09158399527144698,,6.898865e-05,6.7949295e-06,-7.033348e-06,1.0,-5.7056546e-05,-5.1021576e-05,5.7071447e-05,1.0,-8.255243e-06,5.0999224e-05,8.34465e-06,0.99999994,447,1.365,0,0,0.0,False,-0.25636295023092304,1.0248920849612033
1.3209171111229807,13:50:04.101887,13:48:44.149334,0,,0.13116819,0.004553333,0.035836622,-0.537401,-0.37304366,-0.75633234,-0.8361939,0.35210547,0.42047754,0.10945234,0.8584055,-0.50115865,,0.01805722,-0.018019184,0.021187484,0.030699208,-0.053209934,0.99811137,-0.9709196,-0.23879173,0.017132752,0.23742911,-0.9696118,-0.058993287,,0.08396729,1.290838,0.4261746,0.99408937,0.08241337,-0.07067079,0.014264037,-0.7444604,-0.66751426,-0.1076237,0.66256076,-0.7412357,,-0.1261451,0.26391065,-0.107254036,0.4774768,0.28437033,0.83135396,-0.5229548,0.85231483,0.008811832,-0.70606947,-0.43896803,0.5556734,,-0.019876597,0.42282522,-0.35400176,-0.078499295,0.22556227,-0.97106105,-0.47697958,-0.8638373,-0.16209747,-0.8754018,0.45045176,0.17539921,,1.0780626183102446,0.6214174234573494,0.21326822338,0.0756980695979133,-0.849059209542447,0.6755250331006067,-0.4168540567746807,,-1.09957042936496,0.28988822389976543,0.17550211052,0.1516058291393111,-0.7267695422523778,-1.1939272533332521,0.8495524879643865,,-0.07059420492004065,-0.05163338425868725,0.09109008376,-0.09158399527144698,,6.898865e-05,6.7949295e-06,-7.033348e-06,1.0,-5.7056546e-05,-5.1021576e-05,5.7071447e-05,1.0,-8.255243e-06,5.0999224e-05,8.34465e-06,0.99999994,451,1.377,0,0,0.0,False,-0.25624379479388093,1.024747244358865
1.4033067731652409,13:50:04.124954,13:48:44.149334,0,,0.13113573,0.004501052,0.035982683,-0.54070956,-0.3812431,-0.7498579,-0.8352075,0.34959808,0.42451087,0.10030714,0.855824,-0.5074481,,0.018057875,-0.018022016,0.021187723,0.030692875,-0.053207766,0.99811167,-0.9709165,-0.2388049,0.017126322,0.23744279,-0.96960866,-0.058989912,,0.08396729,1.290838,0.4261746,0.99408937,0.08241337,-0.07067079,0.014264037,-0.7444604,-0.66751426,-0.1076237,0.66256076,-0.7412357,,-0.12613313,0.26397118,-0.10740004,0.48190677,0.29268378,0.8258947,-0.5282067,0.8490844,0.0073050177,-0.69911623,-0.4397635,0.563777,,-0.0198773,0.42282337,-0.35400394,-0.07849552,0.2255595,-0.971062,-0.47696668,-0.8638441,-0.16209933,-0.8754092,0.45044014,0.17539226,,1.0783638048923394,0.621371087060104,0.21305822440000002,0.07548837965442877,-0.8392213815593352,0.6689731613569945,-0.416527368642412,,-1.09957042936496,0.289872778434017,0.17550081423000002,0.1516058291393111,-0.7267695422523778,-1.1939272533332521,0.8495524879643865,,-0.07059420492004065,-0.05163338425868725,0.09109008376,-0.09158399527144698,,6.898865e-05,6.7949295e-06,-7.033348e-06,1.0,-5.7056546e-05,-5.1021576e-05,5.7071447e-05,1.0,-8.255243e-06,5.0999224e-05,8.34465e-06,0.99999994,459,1.402,0,0,0.0,False,-0.25624379479388093,1.0249403651619828
1.4263689741492271,13:50:04.142514,13:48:44.149334,0,,0.13109341,0.0044538304,0.03612633,-0.5450277,-0.38952175,-0.7424404,-0.8334221,0.3482326,0.4291172,0.09139153,0.8526468,-0.51443243,,0.018055968,-0.018027112,0.021188438,0.030497327,-0.053460628,0.9981041,-0.97089964,-0.23889202,0.01687055,0.2375373,-0.9695734,-0.05919049,,0.08396729,1.290838,0.4261746,0.99408937,0.08241337,-0.07067079,0.014264037,-0.7444604,-0.66751426,-0.1076237,0.66256076,-0.7412357,,-0.12611082,0.26403427,-0.10754208,0.48735034,0.30120498,0.81961286,-0.5326686,0.8463046,0.005716188,-0.69192034,-0.43936783,0.57288927,,-0.019875586,0.42282078,-0.35400847,-0.07832008,0.22580136,-0.9710199,-0.47686052,-0.8638432,-0.16241604,-0.87548274,0.45032063,0.17533202,,1.0786495460086858,0.6212861369984876,0.21285081800000002,0.07716589920230496,-0.8291102805766927,0.660238164042616,-0.4168540567746806,,-1.0995627066320857,0.28985733296826854,0.17549822165,0.15181551908279564,-0.7269061787521433,-1.1938158354295558,0.8498791760966546,,-0.07059420492004065,-0.05163338425868725,0.09109008376,-0.09158399527144698,,6.898865e-05,6.7949295e-06,-7.033348e-06,1.0,-5.7056546e-05,-5.1021576e-05,5.7071447e-05,1.0,-8.255243e-06,5.0999224e-05,8.34465e-06,0.99999994,463,1.414,0,0,0.0,False,-0.2570778828531757,1.0248438047604238
1.443917095195502,13:50:04.163887,13:48:44.149334,0,,0.13104537,0.0043605417,0.03626375,-0.5471539,-0.39644015,-0.73719597,-0.83268064,0.34748694,0.43115634,0.08523834,0.84975755,-0.52023685,,0.01807107,-0.018037155,0.021193802,0.03178899,-0.05344639,0.9980646,-0.9706105,-0.23997721,0.018063806,0.23854738,-0.96930605,-0.059504263,,0.08396729,1.290838,0.4261746,0.99408937,0.08241337,-0.07067079,0.014264037,-0.7444604,-0.66751426,-0.1076237,0.66256076,-0.7412357,,-0.12608442,0.26405928,-0.107711114,0.4902359,0.3083742,0.81521416,-0.5361489,0.8441177,0.0031100183,-0.68717766,-0.43860084,0.5791513,,-0.019891461,0.42281607,-0.35401756,-0.07977084,0.22573303,-0.9709177,-0.47609496,-0.8643723,-0.16184573,-0.87576836,0.44933847,0.17642206,,1.0788812279949125,0.6211548505396257,0.21263822644000002,0.07695620925882043,-0.8224150920881861,0.6538802206199452,-0.41636402457627775,,-1.09957042936496,0.2898187193038974,0.17549562907000002,0.14971861964795039,-0.7274527247512049,-1.1923900189330836,0.850532552361192,,-0.07059420492004065,-0.05163338425868725,0.09109008376,-0.09158399527144698,,6.898865e-05,6.7949295e-06,-7.033348e-06,1.0,-5.7056546e-05,-5.1021576e-05,5.7071447e-05,1.0,-8.255243e-06,5.0999224e-05,8.34465e-06,0.99999994,471,1.439,0,0,0.0,False,-0.2574949268828224,1.0251817661658802
1.4652895419858396,13:50:04.182814,13:48:44.149334,0,,0.1310005,0.004232876,0.036405787,-0.5480733,-0.40294582,-0.7329737,-0.83260643,0.34652236,0.43207496,0.07988903,0.8470872,-0.5254148,,0.018068768,-0.0180455,0.02119428,0.031740822,-0.05462953,0.998002,-0.9705728,-0.24015465,0.017722696,0.23870677,-0.9691962,-0.060644664,,0.08396729,1.290838,0.4261746,0.99408937,0.08241337,-0.07067079,0.014264037,-0.7444604,-0.66751426,-0.1076237,0.66256076,-0.7412357,,-0.12606347,0.26406178,-0.10790615,0.49179453,0.31509683,0.81169707,-0.5396378,0.84189725,0.00013766102,-0.6833222,-0.43809012,0.5840786,,-0.019889329,0.4228111,-0.35402438,-0.079751946,0.22687602,-0.9706528,-0.4759467,-0.8642556,-0.1629019,-0.8758507,0.44898728,0.17690696,,1.0790588508510197,0.6210003958821413,0.21240748682000002,0.07527868971094424,-0.8169496320975684,0.6491784682516666,-0.41652736864241213,,-1.0995472611663373,0.2897878283724005,0.17549174020000002,0.14971861964795039,-0.7275893612509704,-1.1912167774075597,0.8503692082950578,,-0.07059420492004065,-0.05163338425868725,0.09109008376,-0.09158399527144698,,6.898865e-05,6.7949295e-06,-7.033348e-06,1.0,-5.7056546e-05,-5.1021576e-05,5.7071447e-05,1.0,-8.255243e-06,5.0999224e-05,8.34465e-06,0.99999994,479,1.463,0,0,0.0,False,-0.2566608388235285,1.0250852057643212
1.4842332571279258,13:50:04.202697,13:48:44.149334,0,,0.13096416,0.0041244775,0.0365427,-0.55041164,-0.40904105,-0.72782725,-0.83165896,0.34528166,0.4348839,0.07342011,0.8446691,-0.53022957,,0.018070228,-0.018052265,0.021192253,0.03165753,-0.05495623,0.99798673,-0.97063756,-0.23990387,0.017579198,0.23845485,-0.96923983,-0.060937375,,0.08396729,1.290838,0.4261746,0.99408937,0.08241337,-0.07067079,0.014264037,-0.7444604,-0.66751426,-0.1076237,0.66256076,-0.7412357,,-0.12604937,0.26407477,-0.1080835,0.49493873,0.32136825,0.80731535,-0.5431677,0.83962333,-0.0012306618,-0.6782363,-0.43789855,0.59011894,,-0.019890448,0.42280495,-0.35402793,-0.07962502,0.22720666,-0.9705859,-0.47616377,-0.8640778,-0.16321038,-0.8757442,0.44916221,0.1769898,,1.0791824145770073,0.6208459412246567,0.21218452494,0.07527868971094424,-0.8098445341097655,0.6438748097002962,-0.4175074330392178,,-1.0995472611663373,0.28973376924228095,0.17548914762,0.1499283095914349,-0.7273160882514395,-1.1910312195142498,0.8511859286257293,,-0.07059420492004065,-0.05163338425868725,0.09109008376,-0.09158399527144698,,6.898865e-05,6.7949295e-06,-7.033348e-06,1.0,-5.7056546e-05,-5.1021576e-05,5.7071447e-05,1.0,-8.255243e-06,5.0999224e-05,8.34465e-06,0.99999994,487,1.488,0,0,0.0,False,-0.25731619372725945,1.0245058433549676
1.5040951061528176,13:50:04.233800,13:48:44.149334,0,,0.13090947,0.0039109066,0.036743775,-0.5513473,-0.41286927,-0.7249518,-0.8314761,0.34306732,0.43698096,0.06829131,0.8437082,-0.53244007,,0.018074185,-0.018065587,0.021191418,0.031515233,-0.055215873,0.9979769,-0.97066677,-0.23979932,0.017385267,0.2383543,-0.9692509,-0.061153553,,0.08396729,1.290838,0.4261746,0.99408937,0.08241337,-0.07067079,0.014264037,-0.7444604,-0.66751426,-0.1076237,0.66256076,-0.7412357,,-0.1260301,0.26405358,-0.1083805,0.4964925,0.3251677,0.8048361,-0.5464276,0.83750534,-0.0012828158,-0.6744717,-0.43914777,0.5934957,,-0.019894255,0.4227949,-0.3540368,-0.07946712,0.22746465,-0.97053844,-0.47623855,-0.8639824,-0.16349703,-0.8757179,0.44921514,0.17698562,,1.0792519191728753,0.6206374274370527,0.21185267470000002,0.07381086010655258,-0.8045157106189132,0.6425516248413364,-0.41669071270854635,,-1.0995549838992114,0.2896488191806645,0.17548396246,0.15013799953491944,-0.727179451751674,-1.1908976011975247,0.8506958964273266,,-0.07059420492004065,-0.05163338425868725,0.09109008376,-0.09158399527144698,,6.898865e-05,6.7949295e-06,-7.033348e-06,1.0,-5.7056546e-05,-5.1021576e-05,5.7071447e-05,1.0,-8.255243e-06,5.0999224e-05,8.34465e-06,0.99999994,495,1.512,0,0,0.0,False,-0.25761408231986493,1.0252300463666597
1.5352187191601843,13:50:04.251010,13:48:44.314055,0,,0.13089216,0.0037766546,0.036888435,-0.5526337,-0.41679916,-0.72171634,-0.8310791,0.340514,0.4397245,0.062477767,0.84280986,-0.53457254,,0.018078052,-0.018074319,0.021190882,0.0314904,-0.055364534,0.99796945,-0.9706564,-0.23984596,0.017322622,0.23840001,-0.96923083,-0.06129279,,0.08396729,1.290838,0.4261746,0.99408937,0.08241337,-0.07067079,0.014264037,-0.7444604,-0.66751426,-0.1076237,0.66256076,-0.7412357,,-0.1260371,0.26405177,-0.10857848,0.49848714,0.3290433,0.8020231,-0.5499723,0.8351825,-0.0008192762,-0.6701052,-0.4406821,0.5972924,,-0.01989801,0.4227882,-0.35404247,-0.07945087,0.227607,-0.97050637,-0.4761948,-0.8639794,-0.16364,-0.87574315,0.44914874,0.17702919,,1.0792673646386237,0.6205293091768136,0.21161674992,0.07255272044564542,-0.7985037046292339,0.6412431016448786,-0.41767077710535205,,-1.0995627066320857,0.2895947600505449,0.17548136988000002,0.15013799953491944,-0.727179451751674,-1.1907342437172432,0.8503692082950578,,-0.07059420492004065,-0.05163338425868725,0.09109008376,-0.09158399527144698,,6.898865e-05,6.7949295e-06,-7.033348e-06,1.0,-5.7056546e-05,-5.1021576e-05,5.7071447e-05,1.0,-8.255243e-06,5.0999224e-05,8.34465e-06,0.99999994,524,1.602,0,0,0.0,False,-0.256065061638318,1.0251334859651007
1.5524256040807813,13:50:04.343565,13:48:44.314055,0,,0.13083851,0.0033429563,0.037560925,-0.56107044,-0.43163276,-0.7063237,-0.82720023,0.32396388,0.4591156,0.030654103,0.84186715,-0.53881323,,0.018086545,-0.018096432,0.021191716,0.031666346,-0.054901496,0.9979895,-0.9706713,-0.23976472,0.017609604,0.23831591,-0.9692774,-0.060883805,,0.08396729,1.290838,0.4261746,0.99408937,0.08241337,-0.07067079,0.014264037,-0.7444604,-0.66751426,-0.1076237,0.66256076,-0.7412357,,-0.12608667,0.26418325,-0.1093681,0.51087505,0.34302893,0.78824985,-0.5680511,0.822932,0.010039527,-0.6452322,-0.45289516,0.6152734,,-0.019906636,0.42277294,-0.35405844,-0.07960888,0.22716038,-0.97059804,-0.47628942,-0.86401975,-0.16315114,-0.87567735,0.4492973,0.17697772,,1.0797075604124544,0.6203902999850776,0.21062508807000002,0.06877830146292399,-0.7653010351862319,0.6398156754507848,-0.4170174008408149,,-1.09957042936496,0.28945575085880887,0.17547099956,0.1499283095914349,-0.7269061787521433,-1.1910387582647766,0.8505325523611922,,-0.07059420492004065,-0.05163338425868725,0.09109008376,-0.09158399527144698,,6.898865e-05,6.7949295e-06,-7.033348e-06,1.0,-5.7056546e-05,-5.1021576e-05,5.7071447e-05,1.0,-8.255243e-06,5.0999224e-05,8.34465e-06,0.99999994,528,1.615,0,0,0.0,False,-0.25642252794944387,1.0245058433549676
1.6449801141861826,13:50:04.361244,13:48:44.314055,0,,0.1307807,0.0032479912,0.037735447,-0.5620716,-0.43551502,-0.7031374,-0.82668483,0.32238364,0.46115193,0.025841445,0.8404733,-0.5412363,,0.018072315,-0.01808022,0.021187961,0.031210102,-0.053736426,0.9980672,-0.97153056,-0.23625511,0.01766023,0.2348496,-0.970204,-0.05958014,,0.08396729,1.290838,0.4261746,0.99408937,0.08241337,-0.07067079,0.014264037,-0.7444604,-0.66751426,-0.1076237,0.66256076,-0.7412357,,-0.12605514,0.2642323,-0.10956664,0.5124725,0.346966,0.7854849,-0.57084984,0.82099617,0.009786423,-0.64148456,-0.4534092,0.61880344,,-0.019891875,0.42278287,-0.3540457,-0.078540854,0.22620128,-0.970909,-0.4793466,-0.8625123,-0.1621708,-0.8741042,0.4526649,0.17617127,,1.080070528857543,0.6203902999850776,0.21039694103000003,0.06793954168898589,-0.7603821211946761,0.6372748482402437,-0.41636402457627786,,-1.0995627066320857,0.28941713719443773,0.17545933295000002,0.15202520902628017,-0.7236269027577726,-1.1937127879534908,0.8505325523611922,,-0.07059420492004065,-0.05163338425868725,0.09109008376,-0.09158399527144698,,6.898865e-05,6.7949295e-06,-7.033348e-06,1.0,-5.7056546e-05,-5.1021576e-05,5.7071447e-05,1.0,-8.255243e-06,5.0999224e-05,8.34465e-06,0.99999994,536,1.639,0,0,0.0,False,-0.25767366003838577,1.0248920849612033
1.6626532471273094,13:50:04.383571,13:48:44.314055,0,,0.1307225,0.0031780377,0.037907586,-0.563426,-0.43983987,-0.69935113,-0.82593775,0.31979585,0.4642816,0.019440114,0.8392087,-0.5434616,,0.01806929,-0.018081412,0.021190584,0.031409815,-0.054440297,0.99802285,-0.9718984,-0.23472804,0.017783672,0.23329589,-0.9705354,-0.060283206,,0.08396729,1.290838,0.4261746,0.99408937,0.08241337,-0.07067079,0.014264037,-0.7444604,-0.66751426,-0.1076237,0.66256076,-0.7412357,,-0.12602164,0.26429832,-0.10974671,0.5146229,0.3512755,0.78215647,-0.57452595,0.81841964,0.010449891,-0.63646144,-0.45474696,0.6229944,,-0.019889379,0.4227844,-0.35404867,-0.078459635,0.22696203,-0.97073805,-0.48075813,-0.8616457,-0.1625987,-0.87333596,0.45393276,0.17671825,,1.080518447364248,0.6203902999850776,0.21017786802000002,0.06689109197156327,-0.753823569205935,0.6350305809881568,-0.4166907127085464,,-1.0995549838992114,0.2893553553314439,0.17544637005000002,0.1524445889132492,-0.7219872647605874,-1.1933345492548963,0.8510225845595949,,-0.07059420492004065,-0.05163338425868725,0.09109008376,-0.09158399527144698,,6.898865e-05,6.7949295e-06,-7.033348e-06,1.0,-5.7056546e-05,-5.1021576e-05,5.7071447e-05,1.0,-8.255243e-06,5.0999224e-05,8.34465e-06,0.99999994,544,1.664,0,0,0.0,False,-0.25719703829021734,1.0251334859651007
1.6849782629869878,13:50:04.410627,13:48:44.464128,0,,0.13063282,0.003108248,0.03817092,-0.5662585,-0.44702744,-0.6924722,-0.8241991,0.31411213,0.47120002,0.0068747103,0.8375558,-0.5463082,,0.018072076,-0.018089011,0.021190941,0.031638294,-0.05517198,0.9979754,-0.97205627,-0.23406631,0.01787655,0.2326062,-0.97065383,-0.061035737,,0.08396729,1.290838,0.4261746,0.99408937,0.08241337,-0.07067079,0.014264037,-0.7444604,-0.66751426,-0.1076237,0.66256076,-0.7412357,,-0.12596793,0.26442695,-0.109997384,0.51903015,0.35831383,0.7760276,-0.5815325,0.81341326,0.013370237,-0.62644047,-0.45822486,0.6305572,,-0.019892223,0.4227792,-0.35405418,-0.07856112,0.22770686,-0.97055537,-0.48139936,-0.86119604,-0.16308288,-0.87297356,0.45441276,0.17727447,,1.0813293343160417,0.6203825772522034,0.20985120294,0.06521357242368708,-0.7408431017282181,0.6321236817102097,-0.4170174008408149,,-1.0995549838992114,0.2892781280027017,0.17543859231000003,0.1524445889132492,-0.7211674457619947,-1.1926145180946852,0.850532552361192,,-0.07059420492004065,-0.05163338425868725,0.09109008376,-0.09158399527144698,,6.898865e-05,6.7949295e-06,-7.033348e-06,1.0,-5.7056546e-05,-5.1021576e-05,5.7071447e-05,1.0,-8.255243e-06,5.0999224e-05,8.34465e-06,0.99999994,552,1.688,0,0,0.0,False,-0.25642252794944387,1.0251334859651007
1.7120473640970886,13:50:04.434310,13:48:44.464128,0,,0.13057439,0.0030660927,0.038343474,-0.568233,-0.4526719,-0.6871677,-0.8228657,0.31074774,0.47573924,-0.0018179417,0.83577734,-0.54906523,,0.018080942,-0.018114641,0.021192968,0.03180854,-0.055196468,0.9979686,-0.9720676,-0.23400658,0.018040389,0.23253554,-0.9706669,-0.06109812,,0.08396729,1.290838,0.4261746,0.99408937,0.08241337,-0.07067079,0.014264037,-0.7444604,-0.66751426,-0.1076237,0.66256076,-0.7412357,,-0.12593289,0.26451388,-0.110159196,0.5221005,0.36395434,0.7713289,-0.5862822,0.8099743,0.014655921,-0.61942255,-0.45986828,0.63626796,,-0.019901467,0.4227625,-0.35407352,-0.078715906,0.22773363,-0.97053653,-0.481481,-0.8611626,-0.16301855,-0.87291455,0.45446274,0.1774366,,1.0818699256172373,0.6203671317864549,0.20963731509000003,0.06416512270626445,-0.731825092743699,0.6290173945535551,-0.4166907127085464,,-1.0995627066320857,0.2891236733452172,0.17542562941,0.15223489896976466,-0.7208941727624638,-1.1924289602013753,0.8506958964273263,,-0.07059420492004065,-0.05163338425868725,0.09109008376,-0.09158399527144698,,6.898865e-05,6.7949295e-06,-7.033348e-06,1.0,-5.7056546e-05,-5.1021576e-05,5.7071447e-05,1.0,-8.255243e-06,5.0999224e-05,8.34465e-06,0.99999994,560,1.713,0,0,0.0,False,-0.2559459062012759,1.0253748869689978
1.735725241014734,13:50:04.451357,13:48:44.464128,0,,0.13049844,0.0030151159,0.038505867,-0.5697156,-0.454904,-0.68446076,-0.8218138,0.30844814,0.47904268,-0.0067977905,0.8354173,-0.549574,,0.018086769,-0.018132165,0.021189868,0.031916298,-0.055048022,0.99797344,-0.9720294,-0.23415536,0.018170655,0.23268065,-0.9706394,-0.060981683,,0.08396729,1.290838,0.4261746,0.99408937,0.08241337,-0.07067079,0.014264037,-0.7444604,-0.66751426,-0.1076237,0.66256076,-0.7412357,,-0.12587968,0.26458818,-0.110321626,0.5242225,0.3660947,0.76887286,-0.5887744,0.80812603,0.016645292,-0.6152524,-0.46141845,0.639185,,-0.019906731,0.42274776,-0.35408384,-0.07884782,0.22758183,-0.97056144,-0.4813631,-0.861261,-0.1628469,-0.8729677,0.45435232,0.17745803,,1.0824027941855587,0.6203671317864549,0.20944416788000003,0.06416512270626445,-0.7264962692528469,0.6278575671748767,-0.41620068051014353,,-1.0995549838992114,0.28901555508497806,0.17542174054,0.15202520902628017,-0.7208941727624638,-1.1924289602013753,0.8506958964273263,,-0.07059420492004065,-0.05163338425868725,0.09109008376,-0.09158399527144698,,6.898865e-05,6.7949295e-06,-7.033348e-06,1.0,-5.7056546e-05,-5.1021576e-05,5.7071447e-05,1.0,-8.255243e-06,5.0999224e-05,8.34465e-06,0.99999994,568,1.738,0,0,0.0,False,-0.25695872741613357,1.0248438047604238
1.7527763121761382,13:50:04.478136,13:48:44.464128,0,,0.13043308,0.0029488057,0.03864394,-0.5702385,-0.45802402,-0.68194,-0.8214129,0.30736995,0.48042113,-0.010436505,0.8341088,-0.5515009,,0.018092059,-0.018148437,0.021187186,0.031875275,-0.055115327,0.99797106,-0.9720095,-0.23424262,0.0181095,0.23276934,-0.9706145,-0.06103918,,0.08396729,1.290838,0.4261746,0.99408937,0.08241337,-0.07067079,0.014264037,-0.7444604,-0.66751426,-0.1076237,0.66256076,-0.7412357,,-0.12583484,0.2646344,-0.11047518,0.5251987,0.36929107,0.76667494,-0.5908924,0.8065864,0.016266039,-0.61238265,-0.46156526,0.6418294,,-0.019911554,0.42273426,-0.35409358,-0.07882333,0.22764304,-0.9705491,-0.48127934,-0.8612921,-0.16292955,-0.87301606,0.45426258,0.17744981,,1.082819821760767,0.620336240854958,0.20926916873,0.06332636293232637,-0.7228070837591799,0.6256660711764788,-0.416527368642412,,-1.0995549838992114,0.28891515955761315,0.17541785167,0.15202520902628017,-0.7208941727624638,-1.1923472814612346,0.8508592404934607,,-0.07059420492004065,-0.05163338425868725,0.09109008376,-0.09158399527144698,,6.898865e-05,6.7949295e-06,-7.033348e-06,1.0,-5.7056546e-05,-5.1021576e-05,5.7071447e-05,1.0,-8.255243e-06,5.0999224e-05,8.34465e-06,0.99999994,597,1.828,0,0,0.0,False,-0.2568991496976123,1.0252783265674388
1.779548519058153,13:50:04.571151,13:48:44.603857,0,,0.13024414,0.0026209205,0.03917028,-0.5732889,-0.4714841,-0.6701064,-0.8187744,0.29891807,0.49015966,-0.030795574,0.82966894,-0.5574054,,0.018098064,-0.018170461,0.021186888,0.03186503,-0.055152606,0.99796927,-0.9720123,-0.23423234,0.018091448,0.23275903,-0.9706148,-0.06107284,,0.08396729,1.290838,0.4261746,0.99408937,0.08241337,-0.07067079,0.014264037,-0.7444604,-0.66751426,-0.1076237,0.66256076,-0.7412357,,-0.12572736,0.26475227,-0.11110352,0.5308049,0.38274395,0.7561437,-0.6024441,0.79793465,0.019011723,-0.5960766,-0.4656258,0.6541294,,-0.019917525,0.42271855,-0.35410902,-0.0788114,0.22767983,-0.9705414,-0.48128745,-0.8612807,-0.16296606,-0.87301266,0.45426583,0.17745818,,1.083955063493278,0.6199578269441209,0.20852120940000002,0.05892287411915135,-0.7019016992950675,0.6199724767904645,-0.4170174008408149,,-1.0995549838992114,0.2887838730987513,0.17540877764,0.15202520902628017,-0.7207575362626983,-1.1922953418846496,0.850532552361192,,-0.07059420492004065,-0.05163338425868725,0.09109008376,-0.09158399527144698,,6.898865e-05,6.7949295e-06,-7.033348e-06,1.0,-5.7056546e-05,-5.1021576e-05,5.7071447e-05,1.0,-8.255243e-06,5.0999224e-05,8.34465e-06,0.99999994,605,1.852,0,0,0.0,False,-0.25582675076423333,1.0246989641580855
1.8725309171713889,13:50:04.596831,13:48:44.603857,0,,0.13023277,0.0025662556,0.039225504,-0.5738078,-0.47607824,-0.6664039,-0.81815445,0.29646748,0.49267673,-0.036985576,0.8279228,-0.55962086,,0.018094994,-0.018170372,0.021187603,0.03172154,-0.05538204,0.9979611,-0.97202957,-0.23417547,0.017901681,0.23270667,-0.9706156,-0.061261393,,0.08396729,1.290838,0.4261746,0.99408937,0.08241337,-0.07067079,0.014264037,-0.7444604,-0.66751426,-0.1076237,0.66256076,-0.7412357,,-0.12572548,0.26474926,-0.111181974,0.53209513,0.3873853,0.75286615,-0.6061092,0.7951489,0.019231483,-0.5911907,-0.46655205,0.65789264,,-0.019914633,0.42271954,-0.35410982,-0.07866091,0.22790596,-0.9705005,-0.48131865,-0.8612133,-0.16322987,-0.873009,0.45428023,0.17743921,,1.0840322908220201,0.6197493131565169,0.20840713588,0.05703566462779063,-0.6956164203058572,0.6182777603063327,-0.4160373364440093,,-1.0995472611663373,0.28879159583162556,0.17540748135,0.15223489896976466,-0.7207575362626983,-1.1922136631445093,0.850369208295058,,-0.07059420492004065,-0.05163338425868725,0.09109008376,-0.09158399527144698,,6.898865e-05,6.7949295e-06,-7.033348e-06,1.0,-5.7056546e-05,-5.1021576e-05,5.7071447e-05,1.0,-8.255243e-06,5.0999224e-05,8.34465e-06,0.99999994,613,1.877,0,0,0.0,False,-0.25791197091247,1.0246024037565267
1.8982253491412848,13:50:04.618085,13:48:44.603857,0,,0.13023028,0.0025545955,0.03926766,-0.5743461,-0.48076937,-0.6625612,-0.8174356,0.29344183,0.4956721,-0.04388079,0.8262884,-0.5615351,,0.018221885,-0.018143736,0.021198988,0.03168214,-0.05546137,0.997958,-0.9720442,-0.2341184,0.017848387,0.23265037,-0.9706248,-0.061328292,,0.08396969,1.2908427,0.4261796,0.9940898,0.08239221,-0.07068975,0.014235788,-0.7444627,-0.66751224,-0.1076237,0.66256076,-0.7412357,,-0.1257271,0.2647712,-0.11121235,0.5334705,0.39208823,0.7494505,-0.6101857,0.79200625,0.019987581,-0.5857326,-0.46796674,0.6617586,,-0.02004102,0.4227284,-0.35407555,-0.0786387,0.2279764,-0.9704858,-0.4813656,-0.8611751,-0.1632931,-0.8729852,0.45431733,0.17746168,,1.0841481318151336,0.619548522101787,0.20832417332000003,0.05493876519294538,-0.688374685818289,0.6168649421181533,-0.41718074490694923,,-1.0995549838992114,0.28879159583162556,0.17540748135,0.1524445889132492,-0.7207575362626983,-1.1922136631445093,0.850369208295058,,-0.07059420492004065,-0.05163338425868725,0.09109008376,-0.09158399527144698,,7.090345e-05,6.854534e-06,-1.4066696e-05,1.0,-7.812679e-05,-6.984174e-05,7.813424e-05,1.0,-1.13248825e-05,6.982684e-05,1.1384487e-05,0.99999994,621,1.901,0,0,0.0,False,-0.25761408231986493,1.0246024037565267
1.919505009194836,13:50:04.643012,13:48:44.603857,0,,0.13019343,0.0025194958,0.039330482,-0.5746637,-0.49001238,-0.6554765,-0.81655073,0.28964525,0.49935007,-0.05483204,0.8221882,-0.56656855,,0.018211648,-0.018150918,0.021205783,0.031936258,-0.055242464,0.9979621,-0.9720795,-0.2339479,0.018157758,0.23246807,-0.97067845,-0.06117151,,0.08396969,1.2908427,0.4261796,0.9940898,0.08239221,-0.07068975,0.014235788,-0.7444627,-0.66751224,-0.1076237,0.66256076,-0.7412357,,-0.1256999,0.2647889,-0.11128642,0.5351472,0.4015539,0.74321735,-0.6168531,0.7868481,0.0190325,-0.5771566,-0.46864113,0.6687793,,-0.020032207,0.4227299,-0.3540866,-0.07885604,0.2277717,-0.97051626,-0.48155606,-0.86112934,-0.16297233,-0.8728605,0.45450664,0.1775901,,1.0845033775273478,0.6191932763895728,0.20819195174000002,0.050954656266739416,-0.6777170388365846,0.6125849975974228,-0.41620068051014353,,-1.0994932020362176,0.2887838730987513,0.17539451845,0.15223489896976466,-0.7204842632631675,-1.1923548202117615,0.8502058642289236,,-0.07059420492004065,-0.05163338425868725,0.09109008376,-0.09158399527144698,,7.090345e-05,6.854534e-06,-1.4066696e-05,1.0,-7.812679e-05,-6.984174e-05,7.813424e-05,1.0,-1.13248825e-05,6.982684e-05,1.1384487e-05,0.99999994,629,1.926,0,0,0.0,False,-0.2566012611050077,1.0246989641580855
1.944405475165695,13:50:04.677187,13:48:44.723845,0,,0.13010506,0.002504304,0.03940612,-0.57494104,-0.49889225,-0.64849776,-0.8155652,0.28594714,0.50307816,-0.06554568,0.8181324,-0.57128185,,0.01819557,-0.018159054,0.021210492,0.031747565,-0.055375505,0.9979607,-0.9721625,-0.2336182,0.017963722,0.23214713,-0.9707502,-0.0612508,,0.08396969,1.2908427,0.4261796,0.9940898,0.08239221,-0.07068975,0.014235788,-0.7444627,-0.66751224,-0.1076237,0.66256076,-0.7412357,,-0.12562214,0.26483217,-0.11136285,0.53676045,0.41065907,0.73705316,-0.6232886,0.78177696,0.018333567,-0.5686824,-0.46923754,0.67558604,,-0.020017296,0.42273006,-0.35409775,-0.07861312,0.22791739,-0.9705017,-0.48182228,-0.8609449,-0.1631597,-0.8727355,0.45478287,0.17749724,,1.0851829780202797,0.6187685260814904,0.20805584129000002,0.04718023728401798,-0.6669227553551148,0.6080302776927148,-0.4158739923778749,,-1.0994159747074754,0.2887761503658771,0.17538155555,0.15265427885673374,-0.7202109902636367,-1.1925776560191543,0.8502058642289236,,-0.07059420492004065,-0.05163338425868725,0.09109008376,-0.09158399527144698,,7.090345e-05,6.854534e-06,-1.4066696e-05,1.0,-7.812679e-05,-6.984174e-05,7.813424e-05,1.0,-1.13248825e-05,6.982684e-05,1.1384487e-05,0.99999994,637,1.951,0,0,0.0,False,-0.25785239319394915,1.0248438047604238
1.9785754720214754,13:50:04.695204,13:48:44.723845,0,,0.13002805,0.0025126785,0.039459407,-0.57384115,-0.5053226,-0.64448065,-0.81560767,0.28142232,0.5055548,-0.07409707,0.8157515,-0.57363665,,0.018186018,-0.018162362,0.02121228,0.031617194,-0.055557676,0.99795467,-0.9721768,-0.23357126,0.017797269,0.23210478,-0.97075117,-0.061396755,,0.08396969,1.2908427,0.4261796,0.9940898,0.08239221,-0.07068975,0.014235788,-0.7444627,-0.66751224,-0.1076237,0.66256076,-0.7412357,,-0.12555179,0.2648774,-0.111405745,0.5366964,0.41709256,0.73347855,-0.62909716,0.7771085,0.018416353,-0.56231105,-0.47131327,0.6794631,,-0.020008245,0.42273042,-0.35410258,-0.07847735,0.228097,-0.97047055,-0.48184592,-0.8608905,-0.16337699,-0.87273467,0.45479587,0.17746802,,1.0858625785132114,0.6184596167665214,0.20796898986,0.04235736858387392,-0.6588612018689539,0.6070924544443248,-0.4179974652376206,,-1.09936963831023,0.2887838730987513,0.17537637039,0.15286396880021827,-0.7202109902636367,-1.1925776560191543,0.8502058642289236,,-0.07059420492004065,-0.05163338425868725,0.09109008376,-0.09158399527144698,,7.090345e-05,6.854534e-06,-1.4066696e-05,1.0,-7.812679e-05,-6.984174e-05,7.813424e-05,1.0,-1.13248825e-05,6.982684e-05,1.1384487e-05,0.99999994,666,2.041,0,0,0.0,False,-0.25779281547542787,1.0251817661658802
1.9966170331463218,13:50:04.781901,13:48:44.723845,0,,0.12937671,0.0025728121,0.039743543,-0.5743002,-0.51193005,-0.6388324,-0.81361574,0.27056205,0.5146121,-0.09060162,0.81530595,-0.57189816,,0.01817663,-0.018178873,0.021222174,0.031772047,-0.05530423,0.99796385,-0.9721484,-0.2336736,0.0180007,0.23220235,-0.9707409,-0.061188214,,0.08396969,1.2908427,0.4261796,0.9940898,0.08239221,-0.07068975,0.014235788,-0.7444627,-0.66751224,-0.1076237,0.66256076,-0.7412357,,-0.12493715,0.2651407,-0.11165372,0.5392371,0.42314917,0.72812647,-0.63865864,0.7690492,0.026047518,-0.5489431,-0.47907004,0.6849477,,-0.02000088,0.4227279,-0.35412255,-0.07864708,0.22784528,-0.9705159,-0.48177558,-0.8609844,-0.16308953,-0.8727582,0.45474437,0.1774842,,1.0899633496694245,0.6170386339176641,0.20762158414,0.03711511999676081,-0.641235093399212,0.6072583606125065,-0.4170174008408149,,-1.0993078564472363,0.2887452594343802,0.17535822233,0.15265427885673374,-0.7202109902636367,-1.1927410134994354,0.850532552361192,,-0.07059420492004065,-0.05163338425868725,0.09109008376,-0.09158399527144698,,7.090345e-05,6.854534e-06,-1.4066696e-05,1.0,-7.812679e-05,-6.984174e-05,7.813424e-05,1.0,-1.13248825e-05,6.982684e-05,1.1384487e-05,0.99999994,670,2.053,0,0,0.0,False,-0.25737577144578117,1.0259542493783513
2.083315053023398,13:50:04.801997,13:48:44.723845,0,,0.1291993,0.0025874898,0.039814323,-0.57386833,-0.5145296,-0.6371298,-0.8135759,0.26922518,0.51537555,-0.09364453,0.8141112,-0.5731086,,0.018178418,-0.018185668,0.021222115,0.03175628,-0.055298734,0.9979647,-0.97214085,-0.23370668,0.01798454,0.23223647,-0.9707333,-0.06117981,,0.08396969,1.2908427,0.4261796,0.9940898,0.08239221,-0.07068975,0.014235788,-0.7444627,-0.66751224,-0.1076237,0.66256076,-0.7412357,,-0.12476901,0.26520675,-0.11171757,0.5391768,0.4258027,0.7266226,-0.64068663,0.7673713,0.025728153,-0.5466342,-0.47940943,0.6865549,,-0.020002672,0.42272308,-0.35412735,-0.07863767,0.22783832,-0.97051835,-0.4817434,-0.8610015,-0.16309425,-0.87277687,0.45471543,0.17746675,,1.0910677004704388,0.6166833882054498,0.20753991787,0.03543760044888462,-0.6380924539046069,0.6055125362288943,-0.4160373364440092,,-1.0993078564472363,0.2887066457700091,0.17535562975000002,0.15265427885673374,-0.7202109902636367,-1.1927410134994356,0.8508592404934605,,-0.07059420492004065,-0.05163338425868725,0.09109008376,-0.09158399527144698,,7.090345e-05,6.854534e-06,-1.4066696e-05,1.0,-7.812679e-05,-6.984174e-05,7.813424e-05,1.0,-1.13248825e-05,6.982684e-05,1.1384487e-05,0.99999994,678,2.078,0,0,0.0,False,-0.2575545046013441,1.0252783265674388
2.103417686186731,13:50:04.820923,13:48:44.877303,0,,0.129031,0.0025905296,0.039883137,-0.5696988,-0.5187027,-0.6374879,-0.8161007,0.26542494,0.51335096,-0.09707126,0.8127097,-0.57452583,,0.01818131,-0.018190436,0.021224856,0.03189359,-0.05523021,0.9979641,-0.9721205,-0.23377976,0.018129647,0.23230252,-0.97071964,-0.061146513,,0.08396969,1.2908427,0.4261796,0.9940898,0.08239221,-0.07068975,0.014235788,-0.7444627,-0.66751224,-0.1076237,0.66256076,-0.7412357,,-0.12461029,0.26526242,-0.11178663,0.53532773,0.42991698,0.72704583,-0.6450352,0.7637977,0.023293784,-0.54530156,-0.48143998,0.6861937,,-0.020006036,0.42272156,-0.35413235,-0.07878448,0.22776803,-0.97052294,-0.48169935,-0.8610491,-0.162973,-0.8727879,0.4546605,0.17755303,,1.0922647240659435,0.6163667561576066,0.20745954789,0.02830814237041079,-0.6361795429078907,0.6070564777024858,-0.41767077710535205,,-1.0993155791801106,0.2886834775713864,0.17535174088000002,0.1524445889132492,-0.7202109902636367,-1.192659334759295,0.8510225845595947,,-0.07059420492004065,-0.05163338425868725,0.09109008376,-0.09158399527144698,,7.090345e-05,6.854534e-06,-1.4066696e-05,1.0,-7.812679e-05,-6.984174e-05,7.813424e-05,1.0,-1.13248825e-05,6.982684e-05,1.1384487e-05,0.99999994,686,2.102,0,0,0.0,False,-0.2568991496976123,1.0250852057643212
2.1223253961652517,13:50:04.844280,13:48:44.877303,0,,0.12883514,0.0026453808,0.040001392,-0.5706008,-0.5229763,-0.63317496,-0.8143074,0.26042783,0.51873004,-0.10638708,0.81158674,-0.5744637,,0.018184379,-0.01819744,0.021225631,0.03191533,-0.055109616,0.9979701,-0.9721407,-0.23369166,0.018184483,0.2322151,-0.9707477,-0.06103266,,0.08396969,1.2908427,0.4261796,0.9940898,0.08239221,-0.07068975,0.014235788,-0.7444627,-0.66751224,-0.1076237,0.66256076,-0.7412357,,-0.12442754,0.26539084,-0.11186061,0.5374329,0.43403697,0.7230337,-0.64990824,0.75952816,0.027134007,-0.5373873,-0.48448828,0.69027966,,-0.020009229,0.422717,-0.35413766,-0.07879026,0.22765498,-0.970549,-0.48177975,-0.8610267,-0.16285367,-0.872743,0.45475957,0.17752008,,1.093685706914801,0.6159651740481469,0.20733510405000002,0.026420932879050067,-0.626341714924779,0.6059770815482913,-0.4175074330392177,,-1.0993233019129847,0.2886371411741411,0.17534785201000003,0.1524445889132492,-0.7200743537638712,-1.1927707526629914,0.8513492726918637,,-0.07059420492004065,-0.05163338425868725,0.09109008376,-0.09158399527144698,,7.090345e-05,6.854534e-06,-1.4066696e-05,1.0,-7.812679e-05,-6.984174e-05,7.813424e-05,1.0,-1.13248825e-05,6.982684e-05,1.1384487e-05,0.99999994,694,2.127,0,0,0.0,False,-0.25683957197909146,1.0255680077721157
2.1456687489990145,13:50:04.872743,13:48:44.877303,0,,0.12871988,0.0026530996,0.040076554,-0.57026166,-0.5249809,-0.6318201,-0.8138112,0.25631163,0.5215512,-0.11186159,0.81160283,-0.5734,,0.018182129,-0.018202297,0.021223962,0.031913824,-0.055126928,0.99796915,-0.9721345,-0.23371825,0.018177316,0.23224157,-0.9707403,-0.061049655,,0.08396969,1.2908427,0.4261796,0.9940898,0.08239221,-0.07068975,0.014235788,-0.7444627,-0.66751224,-0.1076237,0.66256076,-0.7412357,,-0.12432192,0.26545194,-0.11192467,0.5377801,0.43581486,0.7217049,-0.6532231,0.75657576,0.029878454,-0.533003,-0.48750234,0.69155574,,-0.02000676,0.4227129,-0.3541405,-0.0787935,0.22767052,-0.97054505,-0.48175597,-0.8610368,-0.1628708,-0.8727558,0.45473272,0.17752574,,1.0944965938665945,0.615694878397549,0.20724306746,0.024114343500720302,-0.6208762549341614,0.6074012346905548,-0.41636402457627775,,-1.099300133714362,0.2886139729755184,0.17534655572000002,0.1524445889132492,-0.7200743537638712,-1.1927707526629914,0.8513492726918637,,-0.07059420492004065,-0.05163338425868725,0.09109008376,-0.09158399527144698,,7.090345e-05,6.854534e-06,-1.4066696e-05,1.0,-7.812679e-05,-6.984174e-05,7.813424e-05,1.0,-1.13248825e-05,6.982684e-05,1.1384487e-05,0.99999994,702,2.151,0,0,0.0,False,-0.25719703829021734,1.0254231671697775
2.1741439669858664,13:50:04.895244,13:48:44.877303,0,,0.12861556,0.0026473403,0.04015541,-0.5702084,-0.52838916,-0.6290208,-0.8129779,0.25294793,0.52448475,-0.11802247,0.81044555,-0.57380176,,0.018180452,-0.018203847,0.02122575,0.031916477,-0.055133797,0.9979687,-0.9721339,-0.23372054,0.018178135,0.2322436,-0.97073936,-0.06105698,,0.08396969,1.2908427,0.4261796,0.9940898,0.08239221,-0.07068975,0.014235788,-0.7444627,-0.66751224,-0.1076237,0.66256076,-0.7412357,,-0.12422827,0.26550505,-0.11199911,0.5385104,0.43916345,0.71912587,-0.65673554,0.753456,0.031661425,-0.5279252,-0.48932555,0.69415814,,-0.020005422,0.42271337,-0.354143,-0.07879647,0.22767709,-0.97054327,-0.48175448,-0.8610367,-0.16287556,-0.8727564,0.45472956,0.17753111,,1.0952148080238973,0.6154014145483285,0.20713677168000003,0.022017444065875056,-0.6145909759449512,0.606850020568391,-0.4166907127085464,,-1.0992924109814879,0.2886139729755184,0.17534396314000003,0.1524445889132492,-0.7200743537638712,-1.1927707526629914,0.8513492726918637,,-0.07059420492004065,-0.05163338425868725,0.09109008376,-0.09158399527144698,,7.090345e-05,6.854534e-06,-1.4066696e-05,1.0,-7.812679e-05,-6.984174e-05,7.813424e-05,1.0,-1.13248825e-05,6.982684e-05,1.1384487e-05,0.99999994,710,2.176,0,0,0.0,False,-0.25719703829021734,1.0259059691775718
2.196663248119876,13:50:04.918505,13:48:44.877303,0,,0.12846199,0.0025987104,0.040251285,-0.56942993,-0.5336812,-0.625247,-0.8126741,0.2509837,0.52589726,-0.12373459,0.80758363,-0.5766265,,0.0181811,-0.018206708,0.02122593,0.03191016,-0.055131607,0.997969,-0.97213084,-0.23373377,0.018171676,0.23225725,-0.97073627,-0.06105364,,0.08396969,1.2908427,0.4261796,0.9940898,0.08239221,-0.07068975,0.014235788,-0.7444627,-0.66751224,-0.1076237,0.66256076,-0.7412357,,-0.12409,0.2655399,-0.1121208,0.53844094,0.4446554,0.7157953,-0.6603713,0.7503134,0.030651312,-0.52344155,-0.4891946,0.69763714,,-0.020006122,0.42271152,-0.35414517,-0.078792706,0.2276743,-0.9705442,-0.4817416,-0.8610435,-0.16287746,-0.8727639,0.45471796,0.17752413,,1.0961029223044332,0.6149303278430008,0.20698510575,0.019081784857091718,-0.6088522429548027,0.6037223646758121,-0.41669071270854635,,-1.0992924109814879,0.28859852750976994,0.17534266685000002,0.1524445889132492,-0.7200743537638712,-1.1927707526629914,0.8513492726918637,,-0.07059420492004065,-0.05163338425868725,0.09109008376,-0.09158399527144698,,7.090345e-05,6.854534e-06,-1.4066696e-05,1.0,-7.812679e-05,-6.984174e-05,7.813424e-05,1.0,-1.13248825e-05,6.982684e-05,1.1384487e-05,0.99999994,735,2.254,0,0,0.0,False,-0.25725661600873906,1.0255680077721157
2.219924984034151,13:50:05.000021,13:48:45.051313,0,,0.1280004,0.002479978,0.040451556,-0.5698955,-0.55335075,-0.6074718,-0.80898976,0.24821776,0.5328447,-0.1440647,0.79510427,-0.58911324,,0.018179893,-0.01820933,0.021227181,0.03190966,-0.05513738,0.99796873,-0.97212875,-0.23374262,0.018169291,0.23226607,-0.9707339,-0.061059304,,0.08396969,1.2908427,0.4261796,0.9940898,0.08239221,-0.07068975,0.014235788,-0.7444627,-0.66751224,-0.1076237,0.66256076,-0.7412357,,-0.12366241,0.26560622,-0.11240376,0.5415336,0.46551827,0.70002437,-0.6712412,0.7407594,0.02666004,-0.50613886,-0.48432252,0.71362114,,-0.020005174,0.42271087,-0.35414815,-0.07879379,0.22767949,-0.9705429,-0.48173365,-0.8610469,-0.16288316,-0.87276816,0.45470902,0.17752603,,1.0985819195570592,0.6131077628846838,0.20658973730000002,0.013420156383009559,-0.5868537664925667,0.5865191908419531,-0.416527368642412,,-1.0992846882486136,0.2885908047768957,0.17534007427,0.1524445889132492,-0.7200743537638712,-1.1927707526629914,0.8513492726918637,,-0.07059420492004065,-0.05163338425868725,0.09109008376,-0.09158399527144698,,7.090345e-05,6.854534e-06,-1.4066696e-05,1.0,-7.812679e-05,-6.984174e-05,7.813424e-05,1.0,-1.13248825e-05,6.982684e-05,1.1384487e-05,0.99999994,743,2.278,0,0,0.0,False,-0.25719703829021734,1.0257611285752335
2.3014399260282516,13:50:05.019482,13:48:45.051313,0,,0.12787212,0.0024739131,0.040502667,-0.57039964,-0.55890393,-0.6018892,-0.8073037,0.2464636,0.53620553,-0.15134352,0.7917588,-0.59178793,,0.018181488,-0.018210135,0.02122724,0.03190387,-0.05512941,0.9979693,-0.9721278,-0.23374692,0.018165216,0.23227084,-0.97073317,-0.061050273,,0.08396969,1.2908427,0.4261796,0.9940898,0.08239221,-0.07068975,0.014235788,-0.7444627,-0.66751224,-0.1076237,0.66256076,-0.7412357,,-0.1235417,0.26564157,-0.11246102,0.54299396,0.47133785,0.6949807,-0.6748464,0.73745984,0.027115582,-0.49973977,-0.48372886,0.71851695,,-0.020006748,0.42271012,-0.35414854,-0.07878894,0.22767152,-0.9705452,-0.48172873,-0.86105037,-0.16287933,-0.8727713,0.4547064,0.17751716,,1.0993387473787333,0.6125826170492366,0.20649381184,0.011952326778617888,-0.5789288495061712,0.5821805996712154,-0.41620068051014353,,-1.0992924109814879,0.2885830820440215,0.17534007427,0.1524445889132492,-0.7200743537638712,-1.1927707526629914,0.8513492726918637,,-0.07059420492004065,-0.05163338425868725,0.09109008376,-0.09158399527144698,,7.090345e-05,6.854534e-06,-1.4066696e-05,1.0,-7.812679e-05,-6.984174e-05,7.813424e-05,1.0,-1.13248825e-05,6.982684e-05,1.1384487e-05,0.99999994,751,2.303,0,0,0.0,False,-0.25683957197909146,1.0254231671697775
2.320900005986914,13:50:05.043577,13:48:45.051313,0,,0.12774363,0.0024699494,0.040543765,-0.5704723,-0.5639277,-0.59711546,-0.8060881,0.24507841,0.5386637,-0.15742728,0.7886203,-0.59438586,,0.018181205,-0.018210791,0.021228254,0.03190387,-0.05512941,0.9979693,-0.9721278,-0.23374692,0.018165216,0.23227084,-0.97073317,-0.061050273,,0.08396969,1.2908427,0.4261796,0.9940898,0.08239221,-0.07068975,0.014235788,-0.7444627,-0.66751224,-0.1076237,0.66256076,-0.7412357,,-0.12341944,0.26567176,-0.112509586,0.54385906,0.47662637,0.6906842,-0.6780183,0.7345494,0.02698886,-0.49447802,-0.48297465,0.72265273,,-0.020006672,0.42271054,-0.35414976,-0.07878894,0.22767152,-0.9705452,-0.48172873,-0.86105037,-0.16287933,-0.8727713,0.4547064,0.17751716,,1.100087852467533,0.612080639412412,0.20641344186000002,0.010274807230741693,-0.57237029751743,0.5782210788761767,-0.4166907127085464,,-1.0992924109814879,0.2885830820440215,0.17533877798000003,0.1524445889132492,-0.7200743537638712,-1.1927707526629914,0.8513492726918637,,-0.07059420492004065,-0.05163338425868725,0.09109008376,-0.09158399527144698,,7.090345e-05,6.854534e-06,-1.4066696e-05,1.0,-7.812679e-05,-6.984174e-05,7.813424e-05,1.0,-1.13248825e-05,6.982684e-05,1.1384487e-05,0.99999994,755,2.315,0,0,0.0,False,-0.25826943722359585,1.0261473701814692
