AlexandreBanks6/ExpertPlaybackApp/resources/Motions/P_14/PC1/Data_PC1_1.csv
Task Time,PC1 Time,PC2 Time,Gaze Calib,s_T_psm1,Tx,Ty,Tz,R00,R01,R02,R10,R11,R12,R20,R21,R22,s_T_psm3,Tx,Ty,Tz,R00,R01,R02,R10,R11,R12,R20,R21,R22,cart_T_ecm,Tx,Ty,Tz,R00,R01,R02,R10,R11,R12,R20,R21,R22,ecm_T_psm1,Tx,Ty,Tz,R00,R01,R02,R10,R11,R12,R20,R21,R22,ecm_T_psm3,Tx,Ty,Tz,R00,R01,R02,R10,R11,R12,R20,R21,R22,psm1_joints,q1,q2,q3,q4,q5,q6,jaw,psm3_joints,q1,q2,q3,q4,q5,q6,jaw,ecm_joints,q1,q2,q3,q4,ecmi_T_ecm,Tx,Ty,Tz,R00,R01,R02,R10,R11,R12,R20,R21,R22,Sample #,Task Duration (s),Collisions (binary),Collisions (increments),Cumulative Collision Time (s),Clutch Press,MTMR Angle,MTML Angle
""
lci_T_si,,,,,-0.047966473,0.029824005,0.20612693,0.98945576,-0.010707055,0.14443912,0.08864643,-0.7438866,-0.6624006,0.11453868,0.6682201,-0.7350937
rci_T_si,,,,,-0.056871362,0.033660326,0.2142175,0.9889376,-0.02698719,0.14585623,0.07976576,-0.7322766,-0.6763197,0.12505908,0.6804724,-0.72202325
ecm_T_lc,,,,,-4.4061628e-05,-0.00034663224,-0.01840835,-0.99912,0.030754527,0.028518902,-0.031987965,-0.99852574,-0.043852776,0.027128186,-0.04472645,0.9986309
ecm_T_rc,,,,,-0.0043358393,0.01870579,-0.007592615,-0.99555075,-0.052743673,-0.078081585,0.04863213,-0.9973746,0.053654674,-0.08070653,0.04961868,0.9955021
cart_T_ecmi,,,,,0.08392089,1.2908584,0.42616695,0.99424213,0.08045969,-0.07077319,0.012758965,-0.74465305,-0.6673298,-0.10639462,0.66258436,-0.741392
ecmac_T_ecmrep_psm1,,,,,0.023195708,-0.2631036,-0.30022871,0.99664557,0.07921609,0.02055357,-0.078295335,0.99603295,-0.04228661,-0.023821812,0.040535513,0.9988941
ecmac_T_ecmrep_psm3,,,,,0.022281613,-0.4507852,-0.5326207,0.99995744,0.002629678,0.008843231,-0.0032003638,0.99787027,0.06515156,-0.008653069,-0.06517708,0.9978362
""
0,13:41:40.095278,13:40:20.131061,0,,0.12871973,-0.00046621263,0.022359893,-0.91513103,0.14968227,-0.37433994,-0.09491539,0.8224317,0.5608897,0.39182425,0.54881823,-0.7384256,,0.024722576,-0.021615963,0.04505676,0.62048054,0.040818825,0.78315896,-0.7664315,-0.17994255,0.6166065,0.16609275,-0.98282975,-0.080366045,,0.0838772,1.290859,0.42616487,0.9942415,0.08049743,-0.07073937,0.012809351,-0.744649,-0.66733336,-0.10639462,0.66258436,-0.741392,,-0.1222822,0.25150955,-0.10121248,0.8566621,-0.17171365,0.48646116,0.230672,0.9709586,-0.06348117,-0.46143305,0.16659488,0.87139297,,-0.030596366,0.4371599,-0.37145737,-0.6444047,0.13338664,-0.7529612,-0.46877652,-0.8468537,0.25117207,-0.604145,0.514827,0.608245,,1.0266678310322805,0.5384752723881782,0.21796079318000003,1.1822319013657483,-0.5267337065957729,-0.1470542079025243,-0.41473058391493506,,-1.1926679741637365,0.2868609126130694,0.1540770294,-0.49948144538013706,-0.3394050654173541,-0.8688639364296151,0.8745441300829311,,-0.06634650985299945,-0.05184936875362155,0.09109722752,-0.0892943953896608,,-4.3205917e-05,-5.364418e-06,4.172325e-06,1.0,3.7573278e-05,3.3579767e-05,-3.7573278e-05,1.0,5.3942204e-06,-3.3579767e-05,-5.364418e-06,1.0,33,0.099,0,0,0.0,False,-0.25582675076423333,1.049080465551712
0.12214632495306432,13:41:40.113661,13:40:20.131061,0,,0.12861645,-0.00040677935,0.02238594,-0.91519344,0.14853859,-0.37464285,-0.096203506,0.8222074,0.56099916,0.39136413,0.5494646,-0.73818886,,0.024721637,-0.021616172,0.045056224,0.6204825,0.040811814,0.78315777,-0.7664305,-0.17994478,0.616607,0.16609001,-0.98282963,-0.08037314,,0.0838772,1.290859,0.42616487,0.9942415,0.08049743,-0.07073937,0.012809351,-0.744649,-0.66733336,-0.10639462,0.66258436,-0.741392,,-0.12217984,0.25157538,-0.10120428,0.85671335,-0.17066681,0.48673922,0.22941172,0.9712736,-0.063228734,-0.4619659,0.16583258,0.87125605,,-0.030595347,0.43715948,-0.3714573,-0.64440614,0.13339351,-0.7529588,-0.46877816,-0.84685415,0.25116736,-0.6041422,0.5148244,0.60824996,,1.0273551542580865,0.538467549655304,0.21796468205000002,1.180554381817872,-0.5267337065957729,-0.14640077798139986,-0.41505727204720366,,-1.1926602514308622,0.2868609126130694,0.1540770294,-0.49948144538013706,-0.3394050654173541,-0.8688639364296151,0.8745441300829311,,-0.06634650985299945,-0.05184936875362155,0.09109722752,-0.0892943953896608,,-4.3205917e-05,-5.364418e-06,4.172325e-06,1.0,3.7573278e-05,3.3579767e-05,-3.7573278e-05,1.0,5.3942204e-06,-3.3579767e-05,-5.364418e-06,1.0,41,0.124,0,0,0.0,False,-0.25558843989015,1.048983905150153
0.1405316770542413,13:41:40.143038,13:40:20.131061,0,,0.12848696,-0.00034847856,0.02239959,-0.91566956,0.1453449,-0.3747319,-0.099253476,0.82168627,0.5612313,0.3894841,0.55109584,-0.7379671,,0.024722144,-0.021618765,0.045056403,0.62047666,0.04081376,0.78316236,-0.7664325,-0.17995825,0.6166005,0.16610228,-0.9828271,-0.08037886,,0.0838772,1.290859,0.42616487,0.9942415,0.08049743,-0.07073937,0.012809351,-0.744649,-0.66733336,-0.10639462,0.66258436,-0.741392,,-0.1220501,0.25163317,-0.10119091,0.8572536,-0.16771781,0.48681307,0.22591168,0.9721147,-0.06290434,-0.46268794,0.16390173,0.87123823,,-0.030595897,0.43715787,-0.37145934,-0.64440256,0.13339107,-0.7529623,-0.46876976,-0.84686154,0.25115824,-0.6041525,0.51481295,0.6082494,,1.02816604120988,0.5384057677923102,0.21797375608000003,1.176150893004697,-0.5267337065957729,-0.14427713073774515,-0.41505727204720355,,-1.1926602514308622,0.28684546714732095,0.15407573311,-0.49948144538013706,-0.3394050654173541,-0.8688639364296151,0.8745441300829311,,-0.06634650985299945,-0.05184936875362155,0.09109722752,-0.0892943953896608,,-4.3205917e-05,-5.364418e-06,4.172325e-06,1.0,3.7573278e-05,3.3579767e-05,-3.7573278e-05,1.0,5.3942204e-06,-3.3579767e-05,-5.364418e-06,1.0,52,0.156,0,0,0.0,False,-0.2552309735790237,1.0491287457524916
0.16990338498726487,13:41:40.168007,13:40:20.209492,0,,0.12840931,-0.0003330335,0.022386596,-0.91701907,0.13769037,-0.37432253,-0.10512164,0.82189643,0.55985343,0.3847407,0.55274564,-0.73922044,,0.024724029,-0.021618288,0.045057476,0.62047267,0.040827774,0.7831647,-0.76643455,-0.17995387,0.6165993,0.16610785,-0.98282737,-0.080364615,,0.0838772,1.290859,0.42616487,0.9942415,0.08049743,-0.07073937,0.012809351,-0.744649,-0.66733336,-0.10639462,0.66258436,-0.741392,,-0.12197079,0.2516392,-0.101180464,0.8588554,-0.16031009,0.48648536,0.21844102,0.9736975,-0.06478251,-0.46330428,0.16190718,0.87128365,,-0.030597934,0.43715867,-0.37145942,-0.6443997,0.13337734,-0.7529672,-0.46876648,-0.8468606,0.25116763,-0.6041581,0.51481813,0.6082395,,1.0286294051823335,0.5383825995936875,0.21798283011000003,1.1671342254348627,-0.5267337065957729,-0.14174508979338774,-0.4145672398488006,,-1.1926756968966106,0.28684546714732095,0.15407573311,-0.49948144538013706,-0.3394050654173541,-0.8688639364296151,0.8745441300829311,,-0.06634650985299945,-0.05184936875362155,0.09109722752,-0.0892943953896608,,-4.3205917e-05,-5.364418e-06,4.172325e-06,1.0,3.7573278e-05,3.3579767e-05,-3.7573278e-05,1.0,5.3942204e-06,-3.3579767e-05,-5.364418e-06,1.0,60,0.181,0,0,0.0,False,-0.25540970673458663,1.0488873447485942
0.19485951005481184,13:41:40.196056,13:40:20.209492,0,,0.12837845,-0.00031740963,0.022380665,-0.9174182,0.13648033,-0.37378728,-0.10647103,0.8209023,0.5610556,0.38341588,0.55452013,-0.7385795,,0.024721809,-0.02161349,0.045059502,0.62048733,0.0408229,0.7831533,-0.7664293,-0.1799202,0.61661565,0.16607714,-0.98283374,-0.08035031,,0.0838772,1.290859,0.42616487,0.9942415,0.08049743,-0.07073937,0.012809351,-0.744649,-0.66733336,-0.10639462,0.66258436,-0.741392,,-0.12193869,0.25164807,-0.10116937,0.8593394,-0.15936908,0.48593956,0.21657002,0.9742008,-0.063484594,-0.4632852,0.15979475,0.87168366,,-0.030596081,0.43716365,-0.37145743,-0.64440864,0.13338345,-0.7529584,-0.46878746,-0.84684217,0.25119045,-0.6041323,0.51484674,0.6082409,,1.0288379189699377,0.538367154127939,0.21799190414000003,1.1648276360565328,-0.5264604335962421,-0.13927252717614197,-0.4157106483117407,,-1.1926756968966106,0.2868840808116921,0.15407573311,-0.49948144538013706,-0.3394050654173541,-0.8688639364296151,0.8745441300829311,,-0.06634650985299945,-0.05184936875362155,0.09109722752,-0.0892943953896608,,-4.3205917e-05,-5.364418e-06,4.172325e-06,1.0,3.7573278e-05,3.3579767e-05,-3.7573278e-05,1.0,5.3942204e-06,-3.3579767e-05,-5.364418e-06,1.0,68,0.205,0,0,0.0,False,-0.2561246393568388,1.0491770259532711
0.22291563102044165,13:41:40.217346,13:40:20.209492,0,,0.12835571,-0.00029616058,0.022384688,-0.9177986,0.13641228,-0.37287724,-0.10607651,0.820748,0.5613561,0.38261408,0.55476534,-0.73881114,,0.024720855,-0.021613698,0.045058966,0.62048936,0.040815897,0.7831521,-0.76642835,-0.1799224,0.61661625,0.1660743,-0.9828335,-0.08035746,,0.0838772,1.290859,0.42616487,0.9942415,0.08049743,-0.07073937,0.012809351,-0.744649,-0.66733336,-0.10639462,0.66258436,-0.741392,,-0.12191554,0.25166747,-0.10116085,0.859831,-0.15933824,0.4850794,0.21634102,0.97425354,-0.06345531,-0.46247947,0.15950342,0.8721648,,-0.030595062,0.43716326,-0.3714574,-0.6444101,0.1333903,-0.752956,-0.4687891,-0.84684265,0.25118575,-0.6041295,0.5148442,0.60824585,,1.029054155490416,0.538367154127939,0.21799449672000001,1.1644082561695637,-0.5253673415981185,-0.13893868930360503,-0.41358717545199497,,-1.1926679741637365,0.2868840808116921,0.15407573311,-0.49948144538013706,-0.3394050654173541,-0.8688639364296151,0.8745441300829311,,-0.06634650985299945,-0.05184936875362155,0.09109722752,-0.0892943953896608,,-4.3205917e-05,-5.364418e-06,4.172325e-06,1.0,3.7573278e-05,3.3579767e-05,-3.7573278e-05,1.0,5.3942204e-06,-3.3579767e-05,-5.364418e-06,1.0,76,0.229,0,0,0.0,False,-0.2564821056679656,1.048983905150153
0.24421032587997615,13:41:40.246628,13:40:20.303013,0,,0.12828946,-0.00027824938,0.022385374,-0.91880816,0.13049933,-0.37250704,-0.110529676,0.82093453,0.56022286,0.3789126,0.55591035,-0.7398573,,0.024720028,-0.02161334,0.045060456,0.6204923,0.04081492,0.78314984,-0.7664273,-0.1799157,0.61661947,0.16606817,-0.98283494,-0.0803546,,0.0838772,1.290859,0.42616487,0.9942415,0.08049743,-0.07073937,0.012809351,-0.744649,-0.66733336,-0.10639462,0.66258436,-0.741392,,-0.12184902,0.25168398,-0.101157375,0.86104417,-0.15359949,0.48477846,0.21060291,0.97540754,-0.06501178,-0.46287078,0.15807375,0.8722175,,-0.0305945,0.43716466,-0.3714582,-0.64441186,0.13339153,-0.7529542,-0.4687933,-0.846839,0.2511903,-0.6041243,0.5148499,0.60824615,,1.0294789057984983,0.5383748768608132,0.21799579301000002,1.1574884880345744,-0.5252307050983531,-0.13717149618406843,-0.41603733644400925,,-1.1926679741637365,0.28689180354456634,0.15407443682000002,-0.49948144538013706,-0.3394050654173541,-0.8688639364296151,0.8745441300829311,,-0.06634650985299945,-0.05184936875362155,0.09109722752,-0.0892943953896608,,-4.3205917e-05,-5.364418e-06,4.172325e-06,1.0,3.7573278e-05,3.3579767e-05,-3.7573278e-05,1.0,5.3942204e-06,-3.3579767e-05,-5.364418e-06,1.0,87,0.263,0,0,0.0,False,-0.256541683386486,1.0487907843470352
0.27346511790528893,13:41:40.276874,13:40:20.303013,0,,0.12820527,-0.00024727732,0.022404,-0.9192662,0.1273039,-0.3724827,-0.113601714,0.82020044,0.5606835,0.37688762,0.5577321,-0.73952055,,0.024719246,-0.021616291,0.04505837,0.62026227,0.040542096,0.78334624,-0.76666045,-0.17982173,0.61635697,0.165851,-0.9828633,-0.08045459,,0.0838772,1.290859,0.42616487,0.9942415,0.08049743,-0.07073937,0.012809351,-0.744649,-0.66733336,-0.10639462,0.66258436,-0.741392,,-0.121766165,0.25172296,-0.10116048,0.8615824,-0.15068188,0.4847378,0.2069886,0.97621846,-0.064445764,-0.4634992,0.15586054,0.872282,,-0.030593382,0.43716133,-0.37145913,-0.64414823,0.1336656,-0.75313115,-0.46907857,-0.8467621,0.25091666,-0.60418403,0.5149052,0.60814,,1.0300117743668198,0.5383748768608132,0.21799060785000002,1.1530849992213994,-0.5253673415981185,-0.13469139481629577,-0.4158739923778749,,-1.1926602514308622,0.28687635807881784,0.15407443682000002,-0.49906206549316795,-0.3394050654173541,-0.8688639364296151,0.8745441300829311,,-0.06634650985299945,-0.05184936875362155,0.09109722752,-0.0892943953896608,,-4.3205917e-05,-5.364418e-06,4.172325e-06,1.0,3.7573278e-05,3.3579767e-05,-3.7573278e-05,1.0,5.3942204e-06,-3.3579767e-05,-5.364418e-06,1.0,95,0.287,0,0,0.0,False,-0.2561246393568388,1.0489356249493738
0.3037229550536722,13:41:40.297767,13:40:20.303013,0,,0.12814692,-0.00021763891,0.022422329,-0.9197037,0.12580186,-0.37191245,-0.11439827,0.8203044,0.5603693,0.37557688,0.55791986,-0.74004555,,0.024721019,-0.021618646,0.04505974,0.62018394,0.0405275,0.7834089,-0.7666981,-0.17997485,0.6162654,0.16596957,-0.9828359,-0.08054516,,0.0838772,1.290859,0.42616487,0.9942415,0.08049743,-0.07073937,0.012809351,-0.744649,-0.66733336,-0.10639462,0.66258436,-0.741392,,-0.12170896,0.25175965,-0.10116113,0.86213064,-0.14920911,0.4842183,0.20553833,0.9764845,-0.06505439,-0.46312493,0.1556108,0.8725254,,-0.03059538,0.43716052,-0.37146154,-0.6440925,0.13367423,-0.7531773,-0.46900654,-0.8468422,0.25078106,-0.60429937,0.5147713,0.6081388,,1.030436524674902,0.5383748768608132,0.21798412640000003,1.1511977897300387,-0.5245475225995259,-0.13446143609692807,-0.415220616113338,,-1.1926679741637365,0.28686863534594365,0.15407314053,-0.49906206549316795,-0.3395417019171195,-0.8687525185259187,0.8745441300829311,,-0.06634650985299945,-0.05184936875362155,0.09109722752,-0.0892943953896608,,-4.3205917e-05,-5.364418e-06,4.172325e-06,1.0,3.7573278e-05,3.3579767e-05,-3.7573278e-05,1.0,5.3942204e-06,-3.3579767e-05,-5.364418e-06,1.0,106,0.32,0,0,0.0,False,-0.2557075953271921,1.048742504146256
0.3246120819821954,13:41:40.329981,13:40:20.303013,0,,0.12800509,-0.00017550588,0.022471115,-0.92079407,0.11818789,-0.37171206,-0.12037407,0.8203653,0.55902666,0.37100986,0.5594929,-0.7411608,,0.024720684,-0.021617126,0.045062125,0.6201879,0.040404588,0.78341216,-0.76669705,-0.18005991,0.616242,0.16596009,-0.98282546,-0.08069286,,0.0838772,1.290859,0.42616487,0.9942415,0.08049743,-0.07073937,0.012809351,-0.744649,-0.66733336,-0.10639462,0.66258436,-0.741392,,-0.12157192,0.25182953,-0.10118584,0.8634493,-0.14184009,0.48408338,0.19809522,0.97790354,-0.066805124,-0.4639112,0.15357745,0.872468,,-0.030595466,0.43716332,-0.37146202,-0.64409465,0.13379285,-0.7531544,-0.46901327,-0.84687537,0.25065655,-0.60429186,0.5146859,0.6082185,,1.031363252619809,0.5384212132580586,0.21795431173000002,1.1421811221602043,-0.5244108860997605,-0.1322041705365482,-0.4145672398488008,,-1.1926756968966106,0.2868840808116921,0.15407184424,-0.49906206549316795,-0.3395417019171195,-0.8685891610456375,0.874544130082931,,-0.06634650985299945,-0.05184936875362155,0.09109722752,-0.0892943953896608,,-4.3205917e-05,-5.364418e-06,4.172325e-06,1.0,3.7573278e-05,3.3579767e-05,-3.7573278e-05,1.0,5.3942204e-06,-3.3579767e-05,-5.364418e-06,1.0,117,0.353,0,0,0.0,False,-0.2564821056679656,1.0491287457524916
0.3568474028725177,13:41:40.364179,13:40:20.303013,0,,0.12786579,-0.00013085455,0.022521302,-0.92218906,0.109933965,-0.37078556,-0.12623806,0.8206666,0.55728835,0.3655562,0.56073236,-0.74293184,,0.02471701,-0.021613728,0.04506278,0.6202035,0.040450662,0.78339744,-0.76669085,-0.17998704,0.61627084,0.16592991,-0.98283684,-0.08061546,,0.0838772,1.290859,0.42616487,0.9942415,0.08049743,-0.07073937,0.012809351,-0.744649,-0.66733336,-0.10639462,0.66258436,-0.741392,,-0.121437445,0.2519021,-0.10120958,0.8651801,-0.13378501,0.48328567,0.19015361,0.9793041,-0.06931905,-0.46400976,0.15187196,0.87271404,,-0.030591946,0.4371665,-0.37146035,-0.64410466,0.13374995,-0.75315344,-0.46903333,-0.84684116,0.25073457,-0.6042656,0.5147534,0.6081875,,1.0323285942290872,0.5384829951210524,0.21792190448,1.132535384759916,-0.5234544306014023,-0.1302886974377846,-0.4150572720472036,,-1.1926602514308622,0.286914971743189,0.15407184424,-0.49906206549316795,-0.3395417019171195,-0.8686708397857781,0.8743807860167967,,-0.06634650985299945,-0.05184936875362155,0.09109722752,-0.0892943953896608,,-4.3205917e-05,-5.364418e-06,4.172325e-06,1.0,3.7573278e-05,3.3579767e-05,-3.7573278e-05,1.0,5.3942204e-06,-3.3579767e-05,-5.364418e-06,1.0,121,0.365,0,0,0.0,False,-0.25677999426057063,1.0491287457524916
0.3910358289722353,13:41:40.387058,13:40:20.303013,0,,0.12776875,-8.747727e-05,0.022576436,-0.92288876,0.107448645,-0.3697716,-0.12795216,0.82014453,0.55766594,0.3631866,0.5619767,-0.7431539,,0.024715185,-0.021612,0.04506302,0.62021136,0.040505685,0.7833884,-0.7666878,-0.17992547,0.6162927,0.16591486,-0.9828459,-0.080536604,,0.0838772,1.290859,0.42616487,0.9942415,0.08049743,-0.07073937,0.012809351,-0.744649,-0.66733336,-0.10639462,0.66258436,-0.741392,,-0.12134551,0.25197527,-0.10123268,0.86606693,-0.13149299,0.48232523,0.18732479,0.97985536,-0.06923068,-0.4635056,0.15030988,0.8732523,,-0.030590186,0.4371681,-0.37145948,-0.64410967,0.13369775,-0.75315845,-0.46904337,-0.8468138,0.25080818,-0.60425246,0.51481193,0.608151,,1.0330545311192643,0.5385447769840462,0.21788949723000003,1.1289706557206791,-0.5222247021035133,-0.12867773888655443,-0.4153839601794721,,-1.1926525286979879,0.2869304172089374,0.15407184424,-0.49906206549316795,-0.3395417019171195,-0.8687525185259187,0.8745441300829311,,-0.06634650985299945,-0.05184936875362155,0.09109722752,-0.0892943953896608,,-4.3205917e-05,-5.364418e-06,4.172325e-06,1.0,3.7573278e-05,3.3579767e-05,-3.7573278e-05,1.0,5.3942204e-06,-3.3579767e-05,-5.364418e-06,1.0,132,0.398,0,0,0.0,False,-0.25600548391979716,1.049080465551712
0.4139121798798442,13:41:40.414710,13:40:20.459120,0,,0.12760782,-2.1487474e-05,0.022678003,-0.9240866,0.10064899,-0.36869198,-0.1332904,0.81925344,0.5577253,0.35818663,0.56452954,-0.74364555,,0.024710067,-0.021613818,0.04506159,0.62022126,0.04047063,0.7833825,-0.76668286,-0.17993644,0.6162956,0.16590095,-0.9828453,-0.08057228,,0.0838772,1.290859,0.42616487,0.9942415,0.08049743,-0.07073937,0.012809351,-0.744649,-0.66733336,-0.10639462,0.66258436,-0.741392,,-0.12119454,0.25209898,-0.10128238,0.8675752,-0.12509492,0.48131537,0.18006857,0.9811914,-0.06956141,-0.46356073,0.14701952,0.873783,,-0.030584902,0.43716648,-0.3714605,-0.6441169,0.13373208,-0.75314623,-0.46905157,-0.8468162,0.25078467,-0.60423845,0.51479906,0.6081758,,1.034251554714769,0.5387301225730275,0.21782857160000002,1.1201636780943292,-0.5211316101053899,-0.12524010888867598,-0.4148939279810693,,-1.1926139150336168,0.2869304172089374,0.15407054795000003,-0.49906206549316795,-0.3395417019171195,-0.8687525185259186,0.8748708182151995,,-0.06634650985299945,-0.05184936875362155,0.09109722752,-0.0892943953896608,,-4.3205917e-05,-5.364418e-06,4.172325e-06,1.0,3.7573278e-05,3.3579767e-05,-3.7573278e-05,1.0,5.3942204e-06,-3.3579767e-05,-5.364418e-06,1.0,139,0.418,0,0,0.0,False,-0.25630337251240265,1.0494667071579475
0.44157711206935346,13:41:40.430264,13:40:20.459120,0,,0.12750822,3.351271e-05,0.022741541,-0.9250329,0.094220445,-0.3680172,-0.1381987,0.8189131,0.5570301,0.35385773,0.5661305,-0.7445004,,0.024707787,-0.02161489,0.045061648,0.6202252,0.0405206,0.7833767,-0.76668096,-0.17989054,0.6163115,0.16589537,-0.9828516,-0.080506265,,0.0838772,1.290859,0.42616487,0.9942415,0.08049743,-0.07073937,0.012809351,-0.744649,-0.66733336,-0.10639462,0.66258436,-0.741392,,-0.12110049,0.2521865,-0.10130417,0.8687767,-0.118925035,0.4807119,0.17357007,0.98228204,-0.070677884,-0.4637893,0.1448405,0.8740256,,-0.030582672,0.4371661,-0.37146163,-0.64411974,0.13368429,-0.75315225,-0.46905485,-0.8467967,0.25084445,-0.60423285,0.5148436,0.6081437,,1.0350547189336883,0.5389309136277574,0.21780005322,1.1124051501854018,-0.5205850641063281,-0.12299038207882312,-0.41522061611333794,,-1.1925984695678684,0.2869304172089374,0.15406925166000002,-0.49906206549316795,-0.3395417019171195,-0.8688341972660593,0.8747074741490652,,-0.06634650985299945,-0.05184936875362155,0.09109722752,-0.0892943953896608,,-4.3205917e-05,-5.364418e-06,4.172325e-06,1.0,3.7573278e-05,3.3579767e-05,-3.7573278e-05,1.0,5.3942204e-06,-3.3579767e-05,-5.364418e-06,1.0,150,0.451,0,0,0.0,False,-0.2570778828531757,1.0488390645478147
0.4571312728803605,13:41:40.464608,13:40:20.459120,0,,0.12736557,0.00012367964,0.022840068,-0.9258014,0.08715609,-0.3678255,-0.14403361,0.81831783,0.5564266,0.34949407,0.5681196,-0.7450463,,0.024705507,-0.021618258,0.045063972,0.6201557,0.04054799,0.7834303,-0.7667146,-0.17999327,0.6162396,0.16599944,-0.9828317,-0.080535114,,0.0838772,1.290859,0.42616487,0.9942415,0.08049743,-0.07073937,0.012809351,-0.744649,-0.66733336,-0.10639462,0.66258436,-0.741392,,-0.120966084,0.25232536,-0.10133328,0.86975926,-0.11218313,0.48055568,0.16635413,0.9834705,-0.071499005,-0.46459135,0.14212935,0.8740447,,-0.030580861,0.43716586,-0.37146595,-0.6440701,0.13365322,-0.75320023,-0.4689919,-0.84685403,0.25076848,-0.6043346,0.5147573,0.6081156,,1.0361976833990736,0.5392321002098521,0.2177637571,1.1038078625025363,-0.5204484276065626,-0.12040640155788102,-0.4145672398488008,,-1.1925830241021198,0.2869304172089374,0.15406536279000002,-0.49906206549316795,-0.339678338416885,-0.8688044581025034,0.874544130082931,,-0.06634650985299945,-0.05184936875362155,0.09109722752,-0.0892943953896608,,-4.3205917e-05,-5.364418e-06,4.172325e-06,1.0,3.7573278e-05,3.3579767e-05,-3.7573278e-05,1.0,5.3942204e-06,-3.3579767e-05,-5.364418e-06,1.0,161,0.484,0,0,0.0,False,-0.2568991496976123,1.049080465551712
0.4914680609945208,13:41:40.497526,13:40:20.459120,0,,0.12719971,0.00018109381,0.022900268,-0.92693377,0.077070974,-0.36722445,-0.15272494,0.8164489,0.55685395,0.34273726,0.572251,-0.7450234,,0.024699531,-0.021616261,0.04506606,0.6202884,0.040585987,0.7833232,-0.7665904,-0.18008032,0.61636865,0.16607702,-0.9828142,-0.08058894,,0.0838772,1.290859,0.42616487,0.9942415,0.08049743,-0.07073937,0.012809351,-0.744649,-0.66733336,-0.10639462,0.66258436,-0.741392,,-0.12080579,0.25241518,-0.10135901,0.8712409,-0.10276179,0.4799784,0.155433,0.9852778,-0.071192145,-0.4655962,0.13663,0.8743869,,-0.030575342,0.4371695,-0.37146655,-0.64421374,0.13361223,-0.7530846,-0.46886927,-0.8469041,0.25082874,-0.60427666,0.5146856,0.6082339,,1.037348370597333,0.5393556639358398,0.21773264614,1.0908070860064958,-0.5203117911067973,-0.11431023521089462,-0.41489392798106933,,-1.192552133170623,0.28696130814043436,0.15406277021,-0.4992717554366525,-0.339678338416885,-0.8687227793623629,0.8743807860167968,,-0.06634650985299945,-0.05184936875362155,0.09109722752,-0.0892943953896608,,-4.3205917e-05,-5.364418e-06,4.172325e-06,1.0,3.7573278e-05,3.3579767e-05,-3.7573278e-05,1.0,5.3942204e-06,-3.3579767e-05,-5.364418e-06,1.0,172,0.517,0,0,0.0,False,-0.257435349164302,1.048983905150153
0.5243809809908271,13:41:40.529333,13:40:20.572804,0,,0.12701976,0.00027056783,0.022951648,-0.92836267,0.06976194,-0.36506996,-0.15695678,0.8167635,0.5552135,0.3369086,0.5727396,-0.74730307,,0.02468554,-0.021615814,0.045070946,0.6201431,0.040358596,0.78345,-0.7667248,-0.18014023,0.61618394,0.16599908,-0.9828125,-0.080768764,,0.0838772,1.290859,0.42616487,0.9942415,0.08049743,-0.07073937,0.012809351,-0.744649,-0.66733336,-0.10639462,0.66258436,-0.741392,,-0.12062888,0.25252348,-0.10135853,0.87313163,-0.09555468,0.47802767,0.148451,0.98614526,-0.074025996,-0.46433118,0.13559812,0.8752198,,-0.030562442,0.43717518,-0.37147114,-0.6440577,0.13383539,-0.7531785,-0.46899736,-0.8469135,0.25055727,-0.6043436,0.514612,0.60822964,,1.0386921261174482,0.5393711094015882,0.21771579437000002,1.0822097983236303,-0.5175790611114884,-0.1133531224193412,-0.41571064831174076,,-1.192482628574755,0.2870230900034281,0.15405499247,-0.49906206549316795,-0.33981497491665036,-0.8686113614586666,0.8743807860167968,,-0.06634650985299945,-0.05184936875362155,0.09109722752,-0.0892943953896608,,-4.3205917e-05,-5.364418e-06,4.172325e-06,1.0,3.7573278e-05,3.3579767e-05,-3.7573278e-05,1.0,5.3942204e-06,-3.3579767e-05,-5.364418e-06,1.0,176,0.529,0,0,0.0,False,-0.2568991496976123,1.0492253061540504
0.556203740881756,13:41:40.556211,13:40:20.572804,0,,0.12677166,0.0003450215,0.022995904,-0.9288954,0.056447174,-0.36601517,-0.16723005,0.81788635,0.55054164,0.33043528,0.57260424,-0.7502912,,0.024672456,-0.021619271,0.045075953,0.61980546,0.03997644,0.7837367,-0.7670128,-0.18030721,0.6157766,0.16592991,-0.9827976,-0.08109295,,0.0838772,1.290859,0.42616487,0.9942415,0.08049743,-0.07073937,0.012809351,-0.744649,-0.66733336,-0.10639462,0.66258436,-0.741392,,-0.120384276,0.25261873,-0.10137114,0.8739056,-0.08227715,0.47908196,0.1365224,0.9874458,-0.07945083,-0.46653047,0.13483794,0.8741671,,-0.03055047,0.4371782,-0.3714786,-0.6437147,0.13420784,-0.75340533,-0.46919665,-0.84696466,0.25001082,-0.6045543,0.5144309,0.6081735,,1.0402212272265445,0.5393093275385944,0.21770153518000002,1.0679508821666825,-0.5183988801100811,-0.11276629373730312,-0.41620068051014353,,-1.1924131239788869,0.28706942640067346,0.15404591844,-0.4986426856061989,-0.34008824791618125,-0.8683885256512736,0.8743807860167968,,-0.06634650985299945,-0.05184936875362155,0.09109722752,-0.0892943953896608,,-4.3205917e-05,-5.364418e-06,4.172325e-06,1.0,3.7573278e-05,3.3579767e-05,-3.7573278e-05,1.0,5.3942204e-06,-3.3579767e-05,-5.364418e-06,1.0,187,0.562,0,0,0.0,False,-0.2583290149421176,1.0490321853509326
0.5830797119997442,13:41:40.576936,13:40:20.572804,0,,0.12659594,0.00040643662,0.023026034,-0.92861944,0.050258808,-0.36761373,-0.1726491,0.81845355,0.5480203,0.3284176,0.57237047,-0.7513547,,0.024664856,-0.021620166,0.045078814,0.61982405,0.039938472,0.78372395,-0.7670047,-0.18029806,0.6157893,0.16589755,-0.98280084,-0.081120074,,0.0838772,1.290859,0.42616487,0.9942415,0.08049743,-0.07073937,0.012809351,-0.744649,-0.66733336,-0.10639462,0.66258436,-0.741392,,-0.12021046,0.25269184,-0.101373374,0.87359697,-0.07608369,0.4806658,0.13114288,0.9879693,-0.08196481,-0.46864685,0.13464011,0.8730648,,-0.030543502,0.43718073,-0.37148204,-0.64372724,0.13424584,-0.75338787,-0.46921742,-0.846956,0.250001,-0.6045248,0.5144352,0.6081992,,1.0412560734316907,0.5392321002098521,0.21770153518000002,1.0614504939186624,-0.5197652451077354,-0.11287729580244743,-0.41603733644400925,,-1.1923745103145158,0.28709259459929615,0.15404073328,-0.4986426856061989,-0.34008824791618125,-0.8683885256512736,0.8743807860167968,,-0.06634650985299945,-0.05184936875362155,0.09109722752,-0.0892943953896608,,-4.3205917e-05,-5.364418e-06,4.172325e-06,1.0,3.7573278e-05,3.3579767e-05,-3.7573278e-05,1.0,5.3942204e-06,-3.3579767e-05,-5.364418e-06,1.0,194,0.582,0,0,0.0,False,-0.25767366003838577,1.048983905150153
0.6038005610462278,13:41:40.606568,13:40:20.572804,0,,0.12629834,0.0004953146,0.02306445,-0.928312,0.031995527,-0.37042278,-0.18747862,0.8200763,0.54067254,0.32107404,0.5713591,-0.7552882,,0.024661072,-0.021620195,0.045087337,0.6197654,0.039910913,0.78377175,-0.76703507,-0.18041301,0.6157178,0.1659765,-0.9827808,-0.08120066,,0.0838772,1.290859,0.42616487,0.9942415,0.08049743,-0.07073937,0.012809351,-0.744649,-0.66733336,-0.10639462,0.66258436,-0.741392,,-0.11991535,0.25279593,-0.101378016,0.8734109,-0.057770066,0.4835453,0.11521939,0.9892611,-0.08992785,-0.4731574,0.13425776,0.8706876,,-0.030541303,0.43718746,-0.37148815,-0.6436837,0.13426876,-0.753421,-0.46917215,-0.8470144,0.24988803,-0.60460633,0.514333,0.60820454,,1.043016856527014,0.5391857638126069,0.21770542405,1.0425783990050552,-0.5229078846023405,-0.11292840370192786,-0.41505727204720355,,-1.1923745103145158,0.2871312082636673,0.15403295554000002,-0.4986426856061989,-0.3402248844159467,-0.8682771077475773,0.8743807860167968,,-0.06634650985299945,-0.05184936875362155,0.09109722752,-0.0892943953896608,,-4.3205917e-05,-5.364418e-06,4.172325e-06,1.0,3.7573278e-05,3.3579767e-05,-3.7573278e-05,1.0,5.3942204e-06,-3.3579767e-05,-5.364418e-06,1.0,202,0.607,0,0,0.0,False,-0.2579715486309908,1.0492253061540504
0.6334234420210123,13:41:40.626338,13:40:20.572804,0,,0.1261178,0.0005949363,0.023105353,-0.9272471,0.026611002,-0.37350297,-0.19352868,0.81986296,0.5388613,0.32056087,0.571941,-0.7550656,,0.024744943,-0.021597825,0.04511398,0.6198105,0.03998916,0.78373206,-0.76699805,-0.18036056,0.61577916,0.16597885,-0.98278725,-0.08111778,,0.08389023,1.2908574,0.42616716,0.9942414,0.08050187,-0.07073539,0.01281528,-0.7446485,-0.6673338,-0.10639462,0.66258436,-0.741392,,-0.11974954,0.25290054,-0.10136189,0.8721122,-0.052514087,0.48647973,0.1103516,0.9897188,-0.090990014,-0.4766999,0.13303731,0.8689409,,-0.030641606,0.4372075,-0.37147695,-0.64372385,0.13419494,-0.75339985,-0.46915403,-0.84699404,0.2499912,-0.6045776,0.5143859,0.60818833,,1.0443142756498835,0.5392012092783552,0.21771190550000002,1.0367070805874885,-0.5257772510974149,-0.11230388126725466,-0.4175074330392178,,-1.1923590648487674,0.2871775446609126,0.15402777038,-0.4986426856061989,-0.3402248844159467,-0.8683587864877178,0.874544130082931,,-0.06634650985299945,-0.05184936875362155,0.09109722752,-0.0892943953896608,,-3.0510128e-05,-1.6093254e-06,2.6226044e-06,1.0,4.1998923e-05,3.7536025e-05,-4.1991472e-05,1.0,6.020069e-06,-3.7528574e-05,-5.990267e-06,1.0,209,0.627,0,0,0.0,False,-0.25791197091247,1.048983905150153
0.6532078459858894,13:41:40.656459,13:40:20.572804,0,,0.12577854,0.00071757287,0.023150474,-0.9263137,0.0085641835,-0.3766556,-0.20879683,0.8204984,0.53215253,0.3136028,0.57158464,-0.7582508,,0.024730384,-0.02160164,0.045125663,0.6197734,0.03983955,0.7837691,-0.76701844,-0.18053004,0.6157042,0.16602322,-0.9827622,-0.08133003,,0.08389023,1.2908574,0.42616716,0.9942414,0.08050187,-0.07073539,0.01281528,-0.7446485,-0.6673338,-0.10639462,0.66258436,-0.741392,,-0.11941222,0.2530359,-0.101353906,0.87123793,-0.034541965,0.48964408,0.09433512,0.9907088,-0.09796361,-0.48171088,0.13154024,0.8664016,,-0.030629372,0.4372154,-0.37148923,-0.64369535,0.13433675,-0.75339895,-0.46913025,-0.8470693,0.24978057,-0.6046264,0.5142248,0.608276,,1.0463685225944273,0.5391625956139842,0.21773005356000003,1.0176252957303966,-0.5293298000913162,-0.11136730553452118,-0.41750743303921767,,-1.1922972829857736,0.2872316037910322,0.15401221490000003,-0.4986426856061989,-0.34036152091571215,-0.8681656898438808,0.8747074741490652,,-0.06634650985299945,-0.05184936875362155,0.09109722752,-0.0892943953896608,,-3.0510128e-05,-1.6093254e-06,2.6226044e-06,1.0,4.1998923e-05,3.7536025e-05,-4.1991472e-05,1.0,6.020069e-06,-3.7528574e-05,-5.990267e-06,1.0,220,0.66,0,0,0.0,False,-0.2590439475643693,1.0488390645478147
0.6833226908929646,13:41:40.680156,13:40:20.713292,0,,0.12554576,0.00083800405,0.023207217,-0.9259947,0.0020223726,-0.3775309,-0.21387766,0.82123387,0.52899086,0.31111097,0.5705881,-0.76002574,,0.024718277,-0.021602593,0.045129955,0.6198038,0.04009869,0.7837318,-0.7670053,-0.18026257,0.61579883,0.16597027,-0.98280084,-0.08097151,,0.08389023,1.2908574,0.42616716,0.9942414,0.08050187,-0.07073539,0.01281528,-0.7446485,-0.6673338,-0.10639462,0.66258436,-0.741392,,-0.119181976,0.25317296,-0.10134302,0.87095946,-0.027899649,0.49056217,0.08888674,0.9908608,-0.101459265,-0.48324814,0.13197137,0.8654795,,-0.030618228,0.4372195,-0.37149423,-0.64371574,0.1340901,-0.7534254,-0.46916434,-0.84695274,0.2501117,-0.60457826,0.5144812,0.6081071,,1.0479130691692722,0.5391471501482357,0.21773783130000002,1.010915217538892,-0.5297397095906126,-0.11258494788610263,-0.41701740084081496,,-1.1922355011227799,0.2872702174554033,0.15400443716,-0.4986426856061989,-0.34036152091571215,-0.8685740835445837,0.8740540978845283,,-0.06634650985299945,-0.05184936875362155,0.09109722752,-0.0892943953896608,,-3.0510128e-05,-1.6093254e-06,2.6226044e-06,1.0,4.1998923e-05,3.7536025e-05,-4.1991472e-05,1.0,6.020069e-06,-3.7528574e-05,-5.990267e-06,1.0,231,0.693,0,0,0.0,False,-0.2583290149421176,1.0486459437446969
0.7070257880259305,13:41:40.708009,13:40:20.713292,0,,0.12517023,0.0010475963,0.0232957,-0.92659175,-0.010859953,-0.37591177,-0.22148848,0.8235862,0.5221577,0.30392522,0.56708705,-0.7655336,,0.02469714,-0.02160155,0.045130193,0.61965144,0.040021755,0.7838563,-0.76708275,-0.18057358,0.61561126,0.16618156,-0.98274684,-0.08119261,,0.08389023,1.2908574,0.42616716,0.9942414,0.08050187,-0.07073539,0.01281528,-0.7446485,-0.6673338,-0.10639462,0.66258436,-0.741392,,-0.11880943,0.25340334,-0.101312965,0.87201506,-0.014592688,0.48926142,0.078456365,0.9907989,-0.110281974,-0.4831504,0.13455322,0.8651365,,-0.030597463,0.43722308,-0.3714962,-0.64360374,0.13415447,-0.7535097,-0.46904117,-0.8471105,0.24980833,-0.6047931,0.5142046,0.6081274,,1.0505851347437538,0.539123981949613,0.21774949791000003,0.9981241309863359,-0.5272802525948347,-0.1166324386561523,-0.4175074330392177,,-1.1920964919310437,0.2873551675170198,0.153999252,-0.4986426856061989,-0.34077143041500846,-0.8684031873137754,0.8742174419506626,,-0.06634650985299945,-0.05184936875362155,0.09109722752,-0.0892943953896608,,-3.0510128e-05,-1.6093254e-06,2.6226044e-06,1.0,4.1998923e-05,3.7536025e-05,-4.1991472e-05,1.0,6.020069e-06,-3.7528574e-05,-5.990267e-06,1.0,242,0.726,0,0,0.0,False,-0.2594609915940169,1.049370146756389
0.7348746580537409,13:41:40.740604,13:40:20.713292,0,,0.124771886,0.0012826025,0.023391336,-0.9280612,-0.02120733,-0.37182343,-0.2258383,0.8259196,0.5165791,0.29614097,0.5633888,-0.77129334,,0.0246768,-0.021600626,0.04512763,0.6197053,0.040023834,0.7838135,-0.76705873,-0.1804634,0.6156735,0.16609123,-0.982767,-0.081133485,,0.08389023,1.2908574,0.42616716,0.9942414,0.08050187,-0.07073539,0.01281528,-0.7446485,-0.6673338,-0.10639462,0.66258436,-0.741392,,-0.11841379,0.2536583,-0.10127389,0.8741705,-0.003777525,0.4856045,0.070078135,0.99048436,-0.11844754,-0.4805362,0.1375736,0.8661169,,-0.030576989,0.43722445,-0.37149635,-0.64364064,0.13415663,-0.75347775,-0.46909842,-0.8470521,0.24989873,-0.6047094,0.5143002,0.6081298,,1.0535197732359591,0.5390158636893739,0.21775727565000003,0.9876396338121096,-0.521814792604217,-0.12117083354414976,-0.4173440889730834,,-1.1919652054721819,0.28740922664713936,0.15399536313,-0.4986426856061989,-0.34077143041500846,-0.8685665447940567,0.8747074741490654,,-0.06634650985299945,-0.05184936875362155,0.09109722752,-0.0892943953896608,,-3.0510128e-05,-1.6093254e-06,2.6226044e-06,1.0,4.1998923e-05,3.7536025e-05,-4.1991472e-05,1.0,6.020069e-06,-3.7528574e-05,-5.990267e-06,1.0,253,0.758,0,0,0.0,False,-0.25922268071993226,1.048549383343138
0.7674640018958598,13:41:40.768160,13:40:20.713292,0,,0.12440599,0.0015479103,0.023491085,-0.93191046,-0.032159794,-0.36125958,-0.2265006,0.8295493,0.5104366,0.2832671,0.5575067,-0.78034985,,0.024659447,-0.02160322,0.045121014,0.61974454,0.04009477,0.7837788,-0.7670399,-0.18033656,0.6157341,0.16603169,-0.9827874,-0.081008285,,0.08389023,1.2908574,0.42616716,0.9942414,0.08050187,-0.07073539,0.01281528,-0.7446485,-0.6673338,-0.10639462,0.66258436,-0.741392,,-0.118049316,0.25393713,-0.10121363,0.87947124,0.007960229,0.47588545,0.061121754,0.9896922,-0.12951227,-0.4720111,0.14298926,0.8699193,,-0.03055875,0.43722007,-0.37149605,-0.6436686,0.13409115,-0.75346553,-0.46913466,-0.8469917,0.25003552,-0.6046515,0.5144168,0.60808873,,1.0566552027828944,0.5389463590935059,0.21775727565000003,0.9765260668074299,-0.5095175076253274,-0.12817633149162685,-0.4173440889730834,,-1.19183391901332,0.2874246721128878,0.15399406684000003,-0.4986426856061989,-0.34077143041500846,-0.8688115810144781,0.8747074741490651,,-0.06634650985299945,-0.05184936875362155,0.09109722752,-0.0892943953896608,,-3.0510128e-05,-1.6093254e-06,2.6226044e-06,1.0,4.1998923e-05,3.7536025e-05,-4.1991472e-05,1.0,6.020069e-06,-3.7528574e-05,-5.990267e-06,1.0,257,0.771,0,0,0.0,False,-0.2594609915940169,1.048983905150153
0.7950243370141834,13:41:40.796103,13:40:20.844993,0,,0.124045275,0.0017950386,0.023600727,-0.9345499,-0.038923368,-0.35369667,-0.22632924,0.8320347,0.50645185,0.2745751,0.55335635,-0.78638744,,0.024650104,-0.021604978,0.045117974,0.61976516,0.040222757,0.78375584,-0.76703,-0.18019879,0.6157868,0.16600052,-0.9828074,-0.080828905,,0.08389023,1.2908574,0.42616716,0.9942414,0.08050187,-0.07073539,0.01281528,-0.7446485,-0.6673338,-0.10639462,0.66258436,-0.741392,,-0.11769205,0.2542089,-0.10117218,0.88312143,0.015282014,0.46889555,0.055534758,0.9890368,-0.13682878,-0.46584597,0.14687642,0.8725909,,-0.030549025,0.43721786,-0.3714965,-0.64368325,0.13396953,-0.7534746,-0.46915358,-0.84693104,0.2502053,-0.6046212,0.5145483,0.60800767,,1.059566673076477,0.5388536862990152,0.21775338678000003,0.9693966087289562,-0.5002262256412775,-0.13354742295918828,-0.41767077710535205,,-1.1917644144174522,0.28743239484576205,0.15399277055000002,-0.4986426856061989,-0.34077143041500846,-0.8690566172349,0.8735640656861254,,-0.06634650985299945,-0.05184936875362155,0.09109722752,-0.0892943953896608,,-3.0510128e-05,-1.6093254e-06,2.6226044e-06,1.0,4.1998923e-05,3.7536025e-05,-4.1991472e-05,1.0,6.020069e-06,-3.7528574e-05,-5.990267e-06,1.0,268,0.804,0,0,0.0,False,-0.2583290149421176,1.0486459437446969
0.8229567878879607,13:41:40.821176,13:40:20.844993,0,,0.12378528,0.0019228533,0.023664951,-0.9348357,-0.044810064,-0.35224164,-0.22988041,0.8324306,0.50419676,0.27062365,0.5523145,-0.7884868,,0.024649046,-0.021607988,0.045117795,0.61969286,0.040059008,0.7838215,-0.7670646,-0.18045917,0.61566746,0.16611078,-0.9827664,-0.08110142,,0.08389023,1.2908574,0.42616716,0.9942414,0.08050187,-0.07073539,0.01281528,-0.7446485,-0.6673338,-0.10639462,0.66258436,-0.741392,,-0.11743533,0.25435755,-0.10116509,0.8836916,0.021262856,0.46758634,0.050267145,0.98887926,-0.13996784,-0.46536258,0.14719264,0.8727955,,-0.030547969,0.43721586,-0.37149876,-0.6436319,0.13412192,-0.7534914,-0.46908635,-0.84705335,0.24991724,-0.60472804,0.51430726,0.6081053,,1.0613506243704227,0.5387301225730275,0.21774949791000003,0.9628962204809359,-0.4981766781447959,-0.13464694033365074,-0.4168540567746806,,-1.1917489689517036,0.2874246721128878,0.15399147426,-0.4986426856061989,-0.34090806691477393,-0.8687818418509222,0.8742174419506625,,-0.06634650985299945,-0.05184936875362155,0.09109722752,-0.0892943953896608,,-3.0510128e-05,-1.6093254e-06,2.6226044e-06,1.0,4.1998923e-05,3.7536025e-05,-4.1991472e-05,1.0,6.020069e-06,-3.7528574e-05,-5.990267e-06,1.0,275,0.824,0,0,0.0,False,-0.26005676877922745,1.048452822941579
0.8480134389828891,13:41:40.839591,13:40:20.844993,0,,0.12361059,0.0020543188,0.023722768,-0.93685204,-0.04629226,-0.3466483,-0.22666027,0.83521795,0.5010351,0.26633286,0.54796714,-0.7929683,,0.024650551,-0.021608166,0.045119822,0.619689,0.04007303,0.7838239,-0.7670665,-0.18045476,0.61566633,0.16611636,-0.98276657,-0.08108714,,0.08389023,1.2908574,0.42616716,0.9942414,0.08050187,-0.07073539,0.01281528,-0.7446485,-0.6673338,-0.10639462,0.66258436,-0.741392,,-0.11726229,0.25450107,-0.101140596,0.88635886,0.023385182,0.46240792,0.049862694,0.98809373,-0.14554897,-0.46030605,0.15206552,0.8746396,,-0.030549815,0.43721706,-0.37150007,-0.643629,0.13410819,-0.7534963,-0.46908307,-0.8470524,0.24992664,-0.60473365,0.5143124,0.60809535,,1.0628488345480225,0.5386297270456627,0.21774301646000002,0.9620574607069977,-0.4913448531565239,-0.140544550479034,-0.41783412117148644,,-1.1917644144174522,0.2874246721128878,0.15399017797,-0.4986426856061989,-0.34090806691477393,-0.8687818418509222,0.8742174419506625,,-0.06634650985299945,-0.05184936875362155,0.09109722752,-0.0892943953896608,,-3.0510128e-05,-1.6093254e-06,2.6226044e-06,1.0,4.1998923e-05,3.7536025e-05,-4.1991472e-05,1.0,6.020069e-06,-3.7528574e-05,-5.990267e-06,1.0,286,0.857,0,0,0.0,False,-0.2594014138754961,1.0489356249493738
0.8664544299244881,13:41:40.870833,13:40:20.844993,0,,0.12338412,0.0021857768,0.02381143,-0.9380347,-0.050407022,-0.34285542,-0.22707637,0.8367721,0.4982459,0.26177678,0.54522616,-0.7963675,,0.02465155,-0.021609567,0.045121014,0.61968404,0.040080987,0.7838274,-0.7670686,-0.18045926,0.61566246,0.1661253,-0.9827654,-0.08108285,,0.08389023,1.2908574,0.42616716,0.9942414,0.08050187,-0.07073539,0.01281528,-0.7446485,-0.6673338,-0.10639462,0.66258436,-0.741392,,-0.117041506,0.2546674,-0.10114494,0.8880475,0.027867101,0.45890635,0.0465508,0.98758143,-0.15005317,-0.45738894,0.1546168,0.875722,,-0.030551013,0.43721685,-0.37150174,-0.6436258,0.13410011,-0.7535005,-0.46907723,-0.84705555,0.24992678,-0.60474163,0.5143092,0.6080901,,1.064594172177597,0.5385756679155431,0.21771709066000003,0.9578636618373073,-0.4866992121644989,-0.14408772298429065,-0.417670777105352,,-1.1917721371503263,0.28741694938001355,0.15398888168000002,-0.4986426856061989,-0.34090806691477393,-0.8687818418509222,0.8742174419506625,,-0.06634650985299945,-0.05184936875362155,0.09109722752,-0.0892943953896608,,-3.0510128e-05,-1.6093254e-06,2.6226044e-06,1.0,4.1998923e-05,3.7536025e-05,-4.1991472e-05,1.0,6.020069e-06,-3.7528574e-05,-5.990267e-06,1.0,297,0.89,0,0,0.0,False,-0.2594609915940169,1.0489356249493738
0.8976966990157962,13:41:40.900644,13:40:20.844993,0,,0.123292685,0.002245292,0.023903728,-0.9404639,-0.04867165,-0.33639044,-0.22283775,0.8356093,0.5020961,0.25665316,0.54716367,-0.79670626,,0.024651103,-0.021608613,0.04512143,0.61968696,0.040016003,0.78382844,-0.76706755,-0.18050277,0.615651,0.16611913,-0.9827601,-0.08116028,,0.08389023,1.2908574,0.42616716,0.9942414,0.08050187,-0.07073539,0.01281528,-0.7446485,-0.6673338,-0.10639462,0.66258436,-0.741392,,-0.11695871,0.2547772,-0.1011838,0.8912735,0.025859298,0.4527282,0.046360306,0.98794526,-0.1476985,-0.4510901,0.15262839,0.8793306,,-0.030550644,0.43721783,-0.37150136,-0.6436276,0.13416287,-0.7534878,-0.46908143,-0.8470723,0.24986215,-0.60473645,0.5142653,0.6081324,,1.0656058501841206,0.5385756679155431,0.21764449842000003,0.9574442819503381,-0.4789109316778688,-0.14186227578022764,-0.4191408737005605,,-1.1917721371503263,0.2874246721128878,0.15398888168000002,-0.4986426856061989,-0.34090806691477393,-0.8687001631107816,0.8743807860167968,,-0.06634650985299945,-0.05184936875362155,0.09109722752,-0.0892943953896608,,-3.0510128e-05,-1.6093254e-06,2.6226044e-06,1.0,4.1998923e-05,3.7536025e-05,-4.1991472e-05,1.0,6.020069e-06,-3.7528574e-05,-5.990267e-06,1.0,301,0.902,0,0,0.0,False,-0.2588652144088064,1.0482114219376817
0.927507049869746,13:41:40.922036,13:40:20.967551,0,,0.12328946,0.00221356,0.02398789,-0.9424676,-0.04764783,-0.33088434,-0.22025757,0.8330855,0.50740045,0.25147843,0.5510882,-0.79565084,,0.024648383,-0.021608762,0.04512185,0.6196938,0.04000102,0.7838237,-0.76706445,-0.1805005,0.6156554,0.16610739,-0.98276114,-0.08117169,,0.08389023,1.2908574,0.42616716,0.9942414,0.08050187,-0.07073539,0.01281528,-0.7446485,-0.6673338,-0.10639462,0.66258436,-0.741392,,-0.116967015,0.2548102,-0.10126711,0.894,0.024254655,0.44741002,0.044888694,0.98866194,-0.1432917,-0.44581276,0.14818643,0.882775,,-0.030548045,0.43721843,-0.37150207,-0.64363223,0.13417782,-0.75348115,-0.4690889,-0.8470696,0.24985732,-0.60472566,0.5142659,0.6081426,,1.0659147594990894,0.53860655884704,0.21753561006000002,0.9557667624024621,-0.47276228918842395,-0.13658456018885567,-0.4181608093037549,,-1.1917566916845779,0.28743239484576205,0.15398758539000001,-0.4986426856061989,-0.34090806691477393,-0.8687001631107816,0.8743807860167968,,-0.06634650985299945,-0.05184936875362155,0.09109722752,-0.0892943953896608,,-3.0510128e-05,-1.6093254e-06,2.6226044e-06,1.0,4.1998923e-05,3.7536025e-05,-4.1991472e-05,1.0,6.020069e-06,-3.7528574e-05,-5.990267e-06,1.0,312,0.935,0,0,0.0,False,-0.2598184579051428,1.048549383343138
0.9488909018691629,13:41:40.953642,13:40:20.967551,0,,0.123332486,0.0021414831,0.024137676,-0.9455567,-0.045601316,-0.3222466,-0.21476264,0.8313843,0.5125206,0.24453914,0.55382377,-0.7959145,,0.024650775,-0.021610878,0.0451231,0.61968404,0.04027307,0.7838176,-0.7670686,-0.1803084,0.6157067,0.1661253,-0.9827853,-0.08084205,,0.08389023,1.2908574,0.42616716,0.9942414,0.08050187,-0.07073539,0.01281528,-0.7446485,-0.6673338,-0.10639462,0.66258436,-0.741392,,-0.11703096,0.2548554,-0.101419955,0.89815754,0.021817174,0.4391321,0.04444017,0.9891485,-0.1400369,-0.43742207,0.1452903,0.88744164,,-0.030550633,0.43721762,-0.3715042,-0.6436258,0.13391547,-0.75353336,-0.46907723,-0.84699434,0.25013432,-0.60474163,0.51445824,0.6079641,,1.0661155505538193,0.538745568038776,0.21734375914,0.9553473825154929,-0.46333437070460853,-0.13291905066437068,-0.41832415336988915,,-1.1917721371503263,0.28741694938001355,0.1539862891,-0.4986426856061989,-0.34090806691477393,-0.8690268780713439,0.874054097884528,,-0.06634650985299945,-0.05184936875362155,0.09109722752,-0.0892943953896608,,-3.0510128e-05,-1.6093254e-06,2.6226044e-06,1.0,4.1998923e-05,3.7536025e-05,-4.1991472e-05,1.0,6.020069e-06,-3.7528574e-05,-5.990267e-06,1.0,330,0.988,0,0,0.0,False,-0.26005676877922745,1.0490321853509326
0.9805052978917956,13:41:41.001496,13:40:20.967551,0,,0.1233301,0.0019866824,0.024408996,-0.94663656,-0.046032034,-0.31899852,-0.21260548,0.83305675,0.51070094,0.24223524,0.55126894,-0.7983887,,0.024648502,-0.021611981,0.04512316,0.619688,0.04019504,0.78381836,-0.7670666,-0.18036306,0.6156931,0.16611972,-0.98277843,-0.08093658,,0.08389023,1.2908574,0.42616716,0.9942414,0.08050187,-0.07073539,0.01281528,-0.7446485,-0.6673338,-0.10639462,0.66258436,-0.741392,,-0.11706834,0.2549226,-0.101722725,0.8996085,0.022629429,0.43611065,0.044540137,0.98869395,-0.14317986,-0.43442002,0.14823025,0.8884295,,-0.030548407,0.4372172,-0.37150532,-0.64362866,0.13399073,-0.7535175,-0.4690805,-0.8470157,0.25005576,-0.60473603,0.5144034,0.608016,,1.0662545597455553,0.5390081409564996,0.21702616809000003,0.9555570724589775,-0.460055094710238,-0.13632818901434982,-0.41848749743602337,,-1.1917566916845779,0.28741694938001355,0.15398499281000003,-0.4986426856061989,-0.34090806691477393,-0.8689451993312034,0.8738907538183939,,-0.06634650985299945,-0.05184936875362155,0.09109722752,-0.0892943953896608,,-3.0510128e-05,-1.6093254e-06,2.6226044e-06,1.0,4.1998923e-05,3.7536025e-05,-4.1991472e-05,1.0,6.020069e-06,-3.7528574e-05,-5.990267e-06,1.0,338,1.012,0,0,0.0,False,-0.2590439475643693,1.048983905150153
1.0283373149577528,13:41:41.031625,13:40:21.071816,0,,0.12332499,0.0018913522,0.024629474,-0.94759345,-0.04880817,-0.31572816,-0.2126303,0.8339393,0.50924826,0.23844266,0.5496936,-0.8006135,,0.024649054,-0.021612398,0.04512477,0.61968595,0.040266067,0.78381634,-0.76706755,-0.18031064,0.6157073,0.16612253,-0.98278517,-0.08084917,,0.08389023,1.2908574,0.42616716,0.9942414,0.08050187,-0.07073539,0.01281528,-0.7446485,-0.6673338,-0.10639462,0.66258436,-0.741392,,-0.11709403,0.2549999,-0.101948716,0.90100294,0.025612669,0.43305624,0.042020373,0.9884088,-0.14588468,-0.4317731,0.1496397,0.889483,,-0.030549234,0.437218,-0.3715066,-0.6436272,0.13392232,-0.7535309,-0.46907887,-0.8469948,0.25012964,-0.60473883,0.5144557,0.60796905,,1.066517132663279,0.5393324957372171,0.21678635444000002,0.9528311031936787,-0.45704909171539826,-0.1381259529745466,-0.4181608093037549,,-1.1917644144174522,0.28741694938001355,0.15398369652000002,-0.4986426856061989,-0.34090806691477393,-0.8690268780713439,0.874054097884528,,-0.06634650985299945,-0.05184936875362155,0.09109722752,-0.0892943953896608,,-3.0510128e-05,-1.6093254e-06,2.6226044e-06,1.0,4.1998923e-05,3.7536025e-05,-4.1991472e-05,1.0,6.020069e-06,-3.7528574e-05,-5.990267e-06,1.0,346,1.037,0,0,0.0,False,-0.2587460589717643,1.0488390645478147
1.0584911690093577,13:41:41.052211,13:40:21.071816,0,,0.12331987,0.0018321425,0.024802208,-0.9488083,-0.05128956,-0.31166002,-0.21265504,0.83331245,0.510263,0.23353906,0.5504178,-0.80156076,,0.024650007,-0.02161216,0.045125246,0.61968404,0.04027307,0.7838176,-0.7670686,-0.1803084,0.6157067,0.1661253,-0.9827853,-0.08084205,,0.08389023,1.2908574,0.42616716,0.9942414,0.08050187,-0.07073539,0.01281528,-0.7446485,-0.6673338,-0.10639462,0.66258436,-0.741392,,-0.117112294,0.25507203,-0.10211559,0.90278417,0.027956767,0.42918426,0.038766984,0.98853385,-0.1459383,-0.42834315,0.14838898,0.8913489,,-0.030550253,0.4372184,-0.37150663,-0.6436258,0.13391547,-0.75353336,-0.46907723,-0.84699434,0.25013432,-0.60474163,0.51445824,0.6079641,,1.0668492101768707,0.5396105141206892,0.21660228126000003,0.9492663741544418,-0.4530866332222005,-0.13686474147401193,-0.4186508415021577,,-1.1917721371503263,0.28741694938001355,0.15398369652000002,-0.4986426856061989,-0.34090806691477393,-0.8690268780713439,0.874054097884528,,-0.06634650985299945,-0.05184936875362155,0.09109722752,-0.0892943953896608,,-3.0510128e-05,-1.6093254e-06,2.6226044e-06,1.0,4.1998923e-05,3.7536025e-05,-4.1991472e-05,1.0,6.020069e-06,-3.7528574e-05,-5.990267e-06,1.0,379,1.138,0,0,0.0,False,-0.25963972474957986,1.049514987358727
1.0790789909660816,13:41:41.146713,13:40:21.209954,0,,0.12329953,0.0017749295,0.025892556,-0.95929635,-0.06696828,-0.27434587,-0.20719928,0.8269946,0.52263623,0.19188249,0.55820715,-0.80720866,,0.024655126,-0.021626405,0.04512441,0.6176735,0.038912833,0.78547144,-0.7686497,-0.18133563,0.61342883,0.16630416,-0.98265105,-0.08209586,,0.08389023,1.2908574,0.42616716,0.9942414,0.08050187,-0.07073539,0.01281528,-0.7446485,-0.6673338,-0.10639462,0.66258436,-0.741392,,-0.11722343,0.25576115,-0.10295537,0.91836715,0.04227094,0.39346525,0.015334776,0.9897305,-0.1421213,-0.39543214,0.13655324,0.90828776,,-0.030555233,0.43720767,-0.3715161,-0.6416879,0.13522446,-0.754951,-0.469741,-0.8474054,0.24748251,-0.6062838,0.5134379,0.6072902,,1.0702935490387748,0.5419659476473276,0.21560673054,0.9238938909928144,-0.41537495928693896,-0.12530649550141296,-0.4183241533698891,,-1.1917721371503263,0.2874246721128878,0.15398369652000002,-0.4965457861713537,-0.3425477049119592,-0.8680165781875493,0.8747074741490654,,-0.06634650985299945,-0.05184936875362155,0.09109722752,-0.0892943953896608,,-3.0510128e-05,-1.6093254e-06,2.6226044e-06,1.0,4.1998923e-05,3.7536025e-05,-4.1991472e-05,1.0,6.020069e-06,-3.7528574e-05,-5.990267e-06,1.0,387,1.163,0,0,0.0,False,-0.26053339052739544,1.049370146756389
1.1735273660160601,13:41:41.181603,13:40:21.209954,0,,0.123274386,0.0018073916,0.026262611,-0.96199685,-0.070382625,-0.26383346,-0.20392022,0.82775646,0.5227196,0.18159948,0.5566556,-0.8106516,,0.0246552,-0.021627747,0.045123637,0.6175572,0.038779624,0.7855695,-0.7687664,-0.18128741,0.613297,0.16619729,-0.9826652,-0.08214286,,0.08389023,1.2908574,0.42616716,0.9942414,0.08050187,-0.07073539,0.01281528,-0.7446485,-0.6673338,-0.10639462,0.66258436,-0.741392,,-0.11724045,0.25603426,-0.103207886,0.92242175,0.04587826,0.3834492,0.010987086,0.9893987,-0.14480828,-0.3860277,0.1377873,0.9121388,,-0.030555177,0.4372062,-0.3715166,-0.6415551,0.13535833,-0.7550399,-0.46988222,-0.84736645,0.24734747,-0.60631496,0.51346684,0.6072347,,1.0715677999630218,0.5428386164621151,0.21531117642000003,0.9192807122361547,-0.4047173123052346,-0.12754447151862947,-0.4191408737005605,,-1.1917721371503263,0.28741694938001355,0.15398369652000002,-0.4963360962278691,-0.3425477049119592,-0.8680165781875493,0.8747074741490654,,-0.06634650985299945,-0.05184936875362155,0.09109722752,-0.0892943953896608,,-3.0510128e-05,-1.6093254e-06,2.6226044e-06,1.0,4.1998923e-05,3.7536025e-05,-4.1991472e-05,1.0,6.020069e-06,-3.7528574e-05,-5.990267e-06,1.0,395,1.189,0,0,0.0,False,-0.2590439475643693,1.0490321853509326
1.2084669689647853,13:41:41.205550,13:40:21.209954,0,,0.12329406,0.001828216,0.026590556,-0.9651056,-0.074291736,-0.25110132,-0.19988325,0.8284803,0.5231321,0.16916811,0.5550686,-0.8144206,,0.024655834,-0.021629505,0.04512447,0.6174388,0.039102666,0.7856465,-0.76888394,-0.18088639,0.613268,0.16609314,-0.9827263,-0.08162084,,0.08389023,1.2908574,0.42616716,0.9942414,0.08050187,-0.07073539,0.01281528,-0.7446485,-0.6673338,-0.10639462,0.66258436,-0.741392,,-0.117297545,0.25626862,-0.10343187,0.92717224,0.049978532,0.37128666,0.005778502,0.9890358,-0.14756313,-0.37459078,0.13896191,0.9167177,,-0.03055595,0.43720552,-0.37151834,-0.6414207,0.13505355,-0.75520855,-0.4700218,-0.8471856,0.24770154,-0.6063489,0.5138454,0.60688055,,1.0726258143667906,0.5436417806810344,0.21503895552000002,0.9138287737055572,-0.39201011782704864,-0.12941174758777818,-0.4168540567746807,,-1.1917798598832006,0.28740922664713936,0.15398240023,-0.49612640628438465,-0.3425477049119592,-0.8685883293685333,0.8738907538183939,,-0.06634650985299945,-0.05184936875362155,0.09109722752,-0.0892943953896608,,-3.0510128e-05,-1.6093254e-06,2.6226044e-06,1.0,4.1998923e-05,3.7536025e-05,-4.1991472e-05,1.0,6.020069e-06,-3.7528574e-05,-5.990267e-06,1.0,403,1.213,0,0,0.0,False,-0.2587460589717643,1.04927358635483
1.232414796948433,13:41:41.230821,13:40:21.209954,0,,0.123314925,0.0018340051,0.02678305,-0.9670743,-0.07632863,-0.24277791,-0.19640979,0.830481,0.5212722,0.16183445,0.55179274,-0.8181285,,0.024655394,-0.021628492,0.04512489,0.61744165,0.039358348,0.7856314,-0.7688829,-0.18067926,0.61333036,0.16608696,-0.9827543,-0.08129695,,0.08389023,1.2908574,0.42616716,0.9942414,0.08050187,-0.07073539,0.01281528,-0.7446485,-0.6673338,-0.10639462,0.66258436,-0.741392,,-0.117340624,0.25640103,-0.10356653,0.9301634,0.052485168,0.36337498,0.0035206254,0.9884087,-0.15177587,-0.36712897,0.14245567,0.9191968,,-0.03055558,0.43720654,-0.37151793,-0.6414225,0.13480803,-0.75525093,-0.47002605,-0.847101,0.24798286,-0.6063437,0.5140494,0.60671294,,1.0732050193323575,0.5440896991877394,0.21487432669000003,0.9115221843272274,-0.3838119278411222,-0.1334831021250655,-0.41914087370056063,,-1.1917798598832006,0.28741694938001355,0.15398240023,-0.49612640628438465,-0.3425477049119592,-0.8689150443290956,0.874544130082931,,-0.06634650985299945,-0.05184936875362155,0.09109722752,-0.0892943953896608,,-3.0510128e-05,-1.6093254e-06,2.6226044e-06,1.0,4.1998923e-05,3.7536025e-05,-4.1991472e-05,1.0,6.020069e-06,-3.7528574e-05,-5.990267e-06,1.0,411,1.238,0,0,0.0,False,-0.2583885926606384,1.049370146756389
1.2576830559410155,13:41:41.254943,13:40:21.209954,0,,0.12332942,0.0018207505,0.026937366,-0.9684278,-0.07851246,-0.23660761,-0.19421999,0.83263737,0.5186461,0.15628818,0.54822516,-0.8215979,,0.024655446,-0.02163013,0.045125544,0.6174388,0.039295167,0.78563696,-0.76888394,-0.18073606,0.6133123,0.16609314,-0.9827463,-0.08138004,,0.08389023,1.2908574,0.42616716,0.9942414,0.08050187,-0.07073539,0.01281528,-0.7446485,-0.6673338,-0.10639462,0.66258436,-0.741392,,-0.11737385,0.25649402,-0.10368675,0.9322693,0.05517974,0.35753208,0.0014834348,0.98770756,-0.156306,-0.36176208,0.14624965,0.92072755,,-0.03055576,0.4372059,-0.37151957,-0.6414207,0.13486849,-0.75524163,-0.4700218,-0.8471249,0.24790911,-0.6063489,0.5139941,0.6067546,,1.073606601441817,0.5444140539684568,0.21473303108000003,0.9094252848923822,-0.37793655835120826,-0.13778399954316822,-0.4184874974360234,,-1.1917798598832006,0.28740922664713936,0.15398110394,-0.49612640628438465,-0.3425477049119592,-0.868833365588955,0.8747074741490652,,-0.06634650985299945,-0.05184936875362155,0.09109722752,-0.0892943953896608,,-3.0510128e-05,-1.6093254e-06,2.6226044e-06,1.0,4.1998923e-05,3.7536025e-05,-4.1991472e-05,1.0,6.020069e-06,-3.7528574e-05,-5.990267e-06,1.0,419,1.262,0,0,0.0,False,-0.2583885926606384,1.0490321853509326
1.2818058650009334,13:41:41.276831,13:40:21.209954,0,,0.12339432,0.0017777234,0.027062654,-0.97081846,-0.08183001,-0.2254223,-0.18967733,0.83718765,0.5129713,0.14674428,0.54075944,-0.8282785,,0.024654552,-0.021631978,0.045125663,0.6174378,0.039417468,0.7856316,-0.76888394,-0.18064484,0.6133391,0.16609654,-0.98275816,-0.08122945,,0.08389023,1.2908574,0.42616716,0.9942414,0.08050187,-0.07073539,0.01281528,-0.7446485,-0.6673338,-0.10639462,0.66258436,-0.741392,,-0.117455125,0.25654337,-0.10379953,0.93599296,0.059578322,0.3469403,-0.001445553,0.9862158,-0.16545801,-0.3520157,0.15436602,0.9231772,,-0.030554922,0.43720493,-0.37152115,-0.64142036,0.13475075,-0.755263,-0.47001922,-0.8470885,0.24803825,-0.60635126,0.5140849,0.60667527,,1.0738305606951697,0.5446071222903124,0.21458525402000003,0.9064896256835988,-0.3674155478692694,-0.14628149938765211,-0.41832415336988915,,-1.1917721371503263,0.2874015039142651,0.15397980765000002,-0.49612640628438465,-0.3425477049119592,-0.8689967230692361,0.8747074741490654,,-0.06634650985299945,-0.05184936875362155,0.09109722752,-0.0892943953896608,,-3.0510128e-05,-1.6093254e-06,2.6226044e-06,1.0,4.1998923e-05,3.7536025e-05,-4.1991472e-05,1.0,6.020069e-06,-3.7528574e-05,-5.990267e-06,1.0,427,1.287,0,0,0.0,False,-0.2580311263495121,1.0488873447485942
1.3036853780504316,13:41:41.303857,13:40:21.209954,0,,0.123451225,0.0017323196,0.02710262,-0.9723799,-0.08395936,-0.21777952,-0.18652573,0.8404159,0.5088314,0.14030422,0.5353989,-0.83286417,,0.024654165,-0.021632664,0.045126736,0.6174378,0.039353296,0.78563476,-0.76888394,-0.18069488,0.6133244,0.16609654,-0.9827516,-0.081309766,,0.08389023,1.2908574,0.42616716,0.9942414,0.08050187,-0.07073539,0.01281528,-0.7446485,-0.6673338,-0.10639462,0.66258436,-0.741392,,-0.11751856,0.2565341,-0.103852324,0.93845874,0.062484,0.33969238,-0.003360226,0.9851052,-0.1719199,-0.34537497,0.16019829,0.92469054,,-0.03055473,0.4372053,-0.37152237,-0.64142036,0.13481244,-0.75525194,-0.47001922,-0.8471088,0.24796906,-0.60635126,0.51403534,0.6067173,,1.0737996697636727,0.5445993995574382,0.21451006920000001,0.9046024161922381,-0.3603104498814665,-0.15215690912000657,-0.4184874974360234,,-1.1917721371503263,0.2874015039142651,0.15397851136000001,-0.49612640628438465,-0.3425477049119592,-0.8689150443290956,0.874544130082931,,-0.06634650985299945,-0.05184936875362155,0.09109722752,-0.0892943953896608,,-3.0510128e-05,-1.6093254e-06,2.6226044e-06,1.0,4.1998923e-05,3.7536025e-05,-4.1991472e-05,1.0,6.020069e-06,-3.7528574e-05,-5.990267e-06,1.0,460,1.388,0,0,0.0,False,-0.2585077480976805,1.0491770259532711
1.330721314996481,13:41:41.398161,13:40:21.391859,0,,0.12380306,0.0014703348,0.027025104,-0.9759249,-0.091738015,-0.19787526,-0.18060607,0.8485383,0.49735737,0.12227815,0.5211208,-0.84467804,,0.024654232,-0.021634273,0.04512739,0.6174348,0.039354272,0.785637,-0.768885,-0.18070158,0.6133211,0.16610268,-0.9827503,-0.0813126,,0.08389023,1.2908574,0.42616716,0.9942414,0.08050187,-0.07073539,0.01281528,-0.7446485,-0.6673338,-0.10639462,0.66258436,-0.741392,,-0.11787154,0.25627324,-0.10392835,0.94439566,0.072289094,0.3207664,-0.01090457,0.9818827,-0.18917562,-0.3286303,0.17515883,0.92807406,,-0.030554911,0.4372047,-0.37152398,-0.6414186,0.13481122,-0.7552537,-0.47001502,-0.8471124,0.2479645,-0.6063564,0.5140296,0.606717,,1.0720466094012238,0.5442982129753434,0.21438562536000003,0.8974729581137642,-0.34336752391055186,-0.16597272917836284,-0.4181608093037549,,-1.1917721371503263,0.2873937811813909,0.15397721507,-0.49612640628438465,-0.3425477049119592,-0.8689150443290955,0.8748708182151996,,-0.06634650985299945,-0.05184936875362155,0.09109722752,-0.0892943953896608,,-3.0510128e-05,-1.6093254e-06,2.6226044e-06,1.0,4.1998923e-05,3.7536025e-05,-4.1991472e-05,1.0,6.020069e-06,-3.7528574e-05,-5.990267e-06,1.0,468,1.413,0,0,0.0,False,-0.25952056931253775,1.049418426957168
1.4250286109745502,13:41:41.426047,13:40:21.391859,0,,0.123918004,0.001402922,0.026998907,-0.976041,-0.09216775,-0.19710112,-0.18051523,0.8487586,0.49701428,0.12148259,0.52068603,-0.84506094,,0.02465301,-0.021634601,0.045129895,0.6174378,0.039353296,0.78563476,-0.76888394,-0.18069488,0.6133244,0.16609654,-0.9827516,-0.081309766,,0.08389023,1.2908574,0.42616716,0.9942414,0.08050187,-0.07073539,0.01281528,-0.7446485,-0.6673338,-0.10639462,0.66258436,-0.741392,,-0.117985845,0.2562009,-0.1039404,0.94460917,0.07277759,0.32002646,-0.011365512,0.98177266,-0.18971895,-0.32800052,0.17557299,0.9282186,,-0.03055416,0.43720648,-0.37152603,-0.64142036,0.13481244,-0.75525194,-0.47001922,-0.8471088,0.24796906,-0.60635126,0.51403534,0.6067173,,1.071297504312424,0.5443599948383372,0.21437395875,0.8972632681702798,-0.3432308874107864,-0.16600246834191873,-0.41832415336988915,,-1.1917721371503263,0.2874015039142651,0.15397462249000002,-0.49612640628438465,-0.3425477049119592,-0.8689150443290955,0.8748708182151996,,-0.06634650985299945,-0.05184936875362155,0.09109722752,-0.0892943953896608,,-3.0510128e-05,-1.6093254e-06,2.6226044e-06,1.0,4.1998923e-05,3.7536025e-05,-4.1991472e-05,1.0,6.020069e-06,-3.7528574e-05,-5.990267e-06,1.0,476,1.438,0,0,0.0,False,-0.25856732581620134,1.0491287457524916
1.4529139280784875,13:41:41.455942,13:40:21.391859,0,,0.12397989,0.0013634413,0.026983857,-0.97606397,-0.09330092,-0.19645356,-0.18109281,0.84888554,0.49658722,0.120434545,0.52027714,-0.8454627,,0.024653457,-0.021635555,0.04512942,0.6174348,0.039354272,0.785637,-0.768885,-0.18070158,0.6133211,0.16610268,-0.9827503,-0.0813126,,0.08389023,1.2908574,0.42616716,0.9942414,0.08050187,-0.07073539,0.01281528,-0.7446485,-0.6673338,-0.10639462,0.66258436,-0.741392,,-0.11804743,0.25615895,-0.10394829,0.9447263,0.07395599,0.3194101,-0.0124949,0.9816403,-0.19033186,-0.327622,0.17582051,0.92830545,,-0.030554531,0.43720546,-0.37152642,-0.6414186,0.13481122,-0.7552537,-0.47001502,-0.8471124,0.2479645,-0.6063564,0.5140296,0.606717,,1.0708959222029644,0.5443908857698342,0.21436618101000002,0.8962148184528571,-0.34309425091102097,-0.16603220750547457,-0.4184874974360234,,-1.1917721371503263,0.2873937811813909,0.15397462249000002,-0.49612640628438465,-0.3425477049119592,-0.8689150443290955,0.8748708182151996,,-0.06634650985299945,-0.05184936875362155,0.09109722752,-0.0892943953896608,,-3.0510128e-05,-1.6093254e-06,2.6226044e-06,1.0,4.1998923e-05,3.7536025e-05,-4.1991472e-05,1.0,6.020069e-06,-3.7528574e-05,-5.990267e-06,1.0,484,1.463,0,0,0.0,False,-0.25963972474957986,1.0494667071579475
1.4828112989198416,13:41:41.477682,13:40:21.534631,0,,0.124060385,0.0013115183,0.026971966,-0.9766417,-0.09363454,-0.19339934,-0.17952785,0.8501488,0.4949918,0.11806989,0.5181501,-0.84710085,,0.024651736,-0.021637104,0.045131087,0.6174368,0.039347246,0.7856358,-0.76888394,-0.18070385,0.61332166,0.16609992,-0.9827502,-0.08131975,,0.08389023,1.2908574,0.42616716,0.9942414,0.08050187,-0.07073539,0.01281528,-0.7446485,-0.6673338,-0.10639462,0.66258436,-0.741392,,-0.11812848,0.25610915,-0.103964634,0.9456566,0.07460096,0.31649372,-0.012895575,0.98116505,-0.19274023,-0.32491118,0.17818472,0.92880726,,-0.030553132,0.43720585,-0.37152883,-0.64142,0.13481809,-0.7552512,-0.47001663,-0.8471129,0.2479598,-0.6063536,0.514027,0.60672194,,1.0704634491620078,0.5443754403040857,0.21434284779,0.8960051285093725,-0.3404981574154776,-0.16814914767570657,-0.4184874974360234,,-1.1917644144174522,0.2873937811813909,0.15397202991,-0.49612640628438465,-0.3425477049119592,-0.8689150443290955,0.8748708182151996,,-0.06634650985299945,-0.05184936875362155,0.09109722752,-0.0892943953896608,,-3.0510128e-05,-1.6093254e-06,2.6226044e-06,1.0,4.1998923e-05,3.7536025e-05,-4.1991472e-05,1.0,6.020069e-06,-3.7528574e-05,-5.990267e-06,1.0,492,1.488,0,0,0.0,False,-0.26005676877922745,1.049514987358727
1.5045513999648392,13:41:41.506198,13:40:21.534631,0,,0.12410513,0.0012874603,0.02696988,-0.9772083,-0.09397918,-0.19034624,-0.1779257,0.851671,0.49294946,0.1157854,0.5155817,-0.84898126,,0.024652347,-0.021639131,0.045133233,0.61743194,0.039355256,0.7856393,-0.768886,-0.18070832,0.61331785,0.16610886,-0.982749,-0.08131543,,0.08389023,1.2908574,0.42616716,0.9942414,0.08050187,-0.07073539,0.01281528,-0.7446485,-0.6673338,-0.10639462,0.66258436,-0.741392,,-0.11817382,0.25608805,-0.10397378,0.9465682,0.07532188,0.31358454,-0.013215415,0.98058635,-0.19564205,-0.32223284,0.18104438,0.92918724,,-0.030554138,0.43720603,-0.3715317,-0.6414168,0.13481,-0.7552554,-0.4700108,-0.8471161,0.24795996,-0.60636157,0.5140239,0.6067167,,1.0702935490387748,0.5443599948383372,0.21432599602000002,0.8957954385658881,-0.3377654274201688,-0.17094925693061888,-0.4194675618328292,,-1.1917721371503263,0.28738605844851667,0.15396943733000001,-0.49612640628438465,-0.3425477049119592,-0.8689150443290955,0.8748708182151996,,-0.06634650985299945,-0.05184936875362155,0.09109722752,-0.0892943953896608,,-3.0510128e-05,-1.6093254e-06,2.6226044e-06,1.0,4.1998923e-05,3.7536025e-05,-4.1991472e-05,1.0,6.020069e-06,-3.7528574e-05,-5.990267e-06,1.0,500,1.512,0,0,0.0,False,-0.2607121236829584,1.049514987358727
1.5330468469765037,13:41:41.528116,13:40:21.534631,0,,0.124132596,0.001264751,0.026968062,-0.9774793,-0.098637745,-0.18656027,-0.17963716,0.85284543,0.49029112,0.110745855,0.5127625,-0.8513577,,0.024650075,-0.021640174,0.045133352,0.6174359,0.039277047,0.7856401,-0.76888406,-0.18076292,0.61330426,0.16610333,-0.9827421,-0.08140999,,0.08389023,1.2908574,0.42616716,0.9942414,0.08050187,-0.07073539,0.01281528,-0.7446485,-0.6673338,-0.10639462,0.66258436,-0.741392,,-0.118201986,0.25606883,-0.10398433,0.9473445,0.08033325,0.3099759,-0.017849514,0.97976303,-0.19936359,-0.31971845,0.18333307,0.929607,,-0.030551912,0.43720564,-0.37153283,-0.6414197,0.13488542,-0.7552395,-0.47001404,-0.84713733,0.24788135,-0.60635597,0.5139691,0.6067686,,1.0702549353744037,0.544352272105463,0.21430784796000002,0.8909725698657439,-0.33503269742485997,-0.1731776150045473,-0.41963090589896335,,-1.1917566916845779,0.28738605844851667,0.15396814104,-0.49612640628438465,-0.3425477049119592,-0.868833365588955,0.8747074741490652,,-0.06634650985299945,-0.05184936875362155,0.09109722752,-0.0892943953896608,,-3.0510128e-05,-1.6093254e-06,2.6226044e-06,1.0,4.1998923e-05,3.7536025e-05,-4.1991472e-05,1.0,6.020069e-06,-3.7528574e-05,-5.990267e-06,1.0,508,1.537,0,0,0.0,False,-0.2602355019347904,1.049370146756389
1.55498349503614,13:41:41.557161,13:40:21.534631,0,,0.12417568,0.0012291819,0.02696091,-0.97790587,-0.1104525,-0.17748314,-0.18445607,0.8554211,0.48397392,0.09836674,0.50601864,-0.856895,,0.024651513,-0.021638803,0.045134723,0.6174348,0.039354272,0.785637,-0.768885,-0.18070158,0.6133211,0.16610268,-0.9827503,-0.0813126,,0.08389023,1.2908574,0.42616716,0.9942414,0.08050187,-0.07073539,0.01281528,-0.7446485,-0.6673338,-0.10639462,0.66258436,-0.741392,,-0.11824566,0.25603586,-0.103997685,0.94898325,0.09297466,0.301308,-0.029698351,0.97764874,-0.20813693,-0.31392485,0.18857011,0.93053347,,-0.030553577,0.43720743,-0.37153253,-0.6414186,0.13481122,-0.7552537,-0.47001502,-0.8471124,0.2479645,-0.6063564,0.5140296,0.606717,,1.0703167172373975,0.5443213811739661,0.21427673700000002,0.878600863200157,-0.3286107819358843,-0.1783325777381386,-0.4197942499650976,,-1.1917721371503263,0.2873937811813909,0.15396814104,-0.49612640628438465,-0.3425477049119592,-0.8689150443290955,0.8748708182151996,,-0.06634650985299945,-0.05184936875362155,0.09109722752,-0.0892943953896608,,-3.0510128e-05,-1.6093254e-06,2.6226044e-06,1.0,4.1998923e-05,3.7536025e-05,-4.1991472e-05,1.0,6.020069e-06,-3.7528574e-05,-5.990267e-06,1.0,537,1.626,0,0,0.0,False,-0.2596993024681016,1.049708108161845
1.5840295709203929,13:41:41.636777,13:40:21.651939,0,,0.12424385,0.0012069121,0.026979655,-0.9800784,-0.12760523,-0.15219435,-0.1851349,0.8644204,0.4674425,0.0719118,0.48630676,-0.870824,,0.024648301,-0.021644525,0.04514122,0.6174339,0.039284073,0.7856413,-0.768885,-0.18076065,0.61330366,0.1661061,-0.98274225,-0.08140284,,0.08389023,1.2908574,0.42616716,0.9942414,0.08050187,-0.07073539,0.01281528,-0.7446485,-0.6673338,-0.10639462,0.66258436,-0.741392,,-0.118316606,0.25602907,-0.104018085,0.95422,0.11276082,0.27703652,-0.04783863,0.9718283,-0.23078392,-0.29525533,0.20696558,0.9327323,,-0.030551597,0.43720877,-0.37154144,-0.6414182,0.13487855,-0.75524193,-0.47001243,-0.84713686,0.24788606,-0.60635877,0.51397175,0.6067636,,1.0709268131344611,0.544143758317859,0.21420025589000002,0.8599384582300345,-0.3081153069710682,-0.19692387431583466,-0.41865084150215776,,-1.1917644144174522,0.28738605844851667,0.15395906701,-0.49612640628438465,-0.3425477049119592,-0.8688333655889549,0.8750341622813339,,-0.06634650985299945,-0.05184936875362155,0.09109722752,-0.0892943953896608,,-3.0510128e-05,-1.6093254e-06,2.6226044e-06,1.0,4.1998923e-05,3.7536025e-05,-4.1991472e-05,1.0,6.020069e-06,-3.7528574e-05,-5.990267e-06,1.0,545,1.65,0,0,0.0,False,-0.2594609915940169,1.0496115477602863
1.6636478260625154,13:41:41.665129,13:40:21.651939,0,,0.124249324,0.0011823475,0.026989043,-0.9811565,-0.1294032,-0.14348033,-0.18199714,0.8683113,0.46142465,0.06487578,0.4788427,-0.8755002,,0.024647862,-0.021643542,0.045141578,0.6174368,0.039283097,0.78563905,-0.76888394,-0.18075395,0.6133069,0.16609992,-0.98274344,-0.08140001,,0.08389023,1.2908574,0.42616716,0.9942414,0.08050187,-0.07073539,0.01281528,-0.7446485,-0.6673338,-0.10639462,0.66258436,-0.741392,,-0.11832437,0.2560169,-0.10404075,0.9562759,0.115618944,0.26864237,-0.050183218,0.9697852,-0.23874322,-0.28812864,0.21482304,0.9331843,,-0.030551227,0.43720976,-0.37154102,-0.64142,0.13487977,-0.7552402,-0.47001663,-0.84713316,0.2478906,-0.6063536,0.51397747,0.6067639,,1.0711584951206878,0.5439275217973807,0.21415747832,0.8576318688517045,-0.3003270264844381,-0.2048265908892014,-0.4197942499650976,,-1.1917644144174522,0.2873937811813909,0.15395906701,-0.49612640628438465,-0.3425477049119592,-0.8688333655889549,0.8750341622813339,,-0.06634650985299945,-0.05184936875362155,0.09109722752,-0.0892943953896608,,-3.0510128e-05,-1.6093254e-06,2.6226044e-06,1.0,4.1998923e-05,3.7536025e-05,-4.1991472e-05,1.0,6.020069e-06,-3.7528574e-05,-5.990267e-06,1.0,553,1.676,0,0,0.0,False,-0.26011634649774784,1.049708108161845
1.691968074068427,13:41:41.688561,13:40:21.651939,0,,0.1241955,0.001140058,0.027002513,-0.98086745,-0.1344346,-0.1408058,-0.18493435,0.86938477,0.45822436,0.06081322,0.47549707,-0.8776127,,0.024648026,-0.021644644,0.0451442,0.6174348,0.0392901,0.7856402,-0.768885,-0.18075174,0.61330634,0.16610268,-0.9827436,-0.081392854,,0.08389023,1.2908574,0.42616716,0.9942414,0.08050187,-0.07073539,0.01281528,-0.7446485,-0.6673338,-0.10639462,0.66258436,-0.741392,,-0.11827471,0.25599688,-0.10408546,0.95632,0.12105701,0.26607767,-0.055094466,0.96854997,-0.2426428,-0.28708315,0.21738474,0.93291324,,-0.030551864,0.43721095,-0.37154353,-0.6414186,0.13487291,-0.75524265,-0.47001502,-0.8471327,0.24789532,-0.6063564,0.51398003,0.60675895,,1.0714133453055374,0.5437112852769024,0.21410951559000002,0.8523896202645915,-0.29882402498701827,-0.20744072641225159,-0.4197942499650976,,-1.1917721371503263,0.2873937811813909,0.15395647443000002,-0.49612640628438465,-0.3425477049119592,-0.8688333655889549,0.8750341622813339,,-0.06634650985299945,-0.05184936875362155,0.09109722752,-0.0892943953896608,,-3.0510128e-05,-1.6093254e-06,2.6226044e-06,1.0,4.1998923e-05,3.7536025e-05,-4.1991472e-05,1.0,6.020069e-06,-3.7528574e-05,-5.990267e-06,1.0,561,1.701,0,0,0.0,False,-0.25963972474957986,1.0499977893665218
1.7153500150889158,13:41:41.714246,13:40:21.651939,0,,0.12415329,0.0011140704,0.027000874,-0.9805301,-0.1377435,-0.13995504,-0.1872707,0.87035704,0.4554213,0.059079528,0.47276366,-0.87920654,,0.024648592,-0.021645062,0.04514575,0.61743295,0.03929711,0.78564143,-0.76888597,-0.18074948,0.6133058,0.16610546,-0.9827437,-0.0813857,,0.08389023,1.2908574,0.42616716,0.9942414,0.08050187,-0.07073539,0.01281528,-0.7446485,-0.6673338,-0.10639462,0.66258436,-0.741392,,-0.118233964,0.2559783,-0.10410676,0.95607203,0.12470955,0.26528063,-0.058001794,0.96757764,-0.24582374,-0.28733617,0.21963845,0.9323073,,-0.030552693,0.43721172,-0.37154478,-0.64141715,0.13486604,-0.7552451,-0.47001338,-0.8471322,0.24790002,-0.6063592,0.51398265,0.606754,,1.0715600772301477,0.5435491078865436,0.21408877495000003,0.8492442711123236,-0.29882402498701827,-0.20980940987632785,-0.4191408737005605,,-1.1917798598832006,0.2873937811813909,0.15395517814,-0.49612640628438465,-0.3425477049119592,-0.8688333655889549,0.8750341622813339,,-0.06634650985299945,-0.05184936875362155,0.09109722752,-0.0892943953896608,,-3.0510128e-05,-1.6093254e-06,2.6226044e-06,1.0,4.1998923e-05,3.7536025e-05,-4.1991472e-05,1.0,6.020069e-06,-3.7528574e-05,-5.990267e-06,1.0,569,1.725,0,0,0.0,False,-0.25922268071993226,1.0493218665556094
1.7411038968712091,13:41:41.735646,13:40:21.651939,0,,0.12411672,0.0010961741,0.026998043,-0.9805304,-0.13795389,-0.13974522,-0.18724303,0.8712526,0.45371687,0.05916141,0.4710495,-0.8801205,,0.024647646,-0.02164527,0.045145273,0.6174348,0.0392901,0.7856402,-0.768885,-0.18075174,0.61330634,0.16610268,-0.9827436,-0.081392854,,0.08389023,1.2908574,0.42616716,0.9942414,0.08050187,-0.07073539,0.01281528,-0.7446485,-0.6673338,-0.10639462,0.66258436,-0.741392,,-0.11819826,0.25596467,-0.10412111,0.9560641,0.1251652,0.26509446,-0.057926413,0.96710145,-0.24770817,-0.2873777,0.22146893,0.93186134,,-0.030551674,0.43721133,-0.37154475,-0.6414186,0.13487291,-0.75524265,-0.47001502,-0.8471327,0.24789532,-0.6063564,0.51398003,0.60675895,,1.071675918223261,0.5433869304961849,0.21407451576000003,0.8492442711123236,-0.2986873884872528,-0.2117177600631167,-0.42044762622963483,,-1.1917721371503263,0.2873937811813909,0.15395517814,-0.49612640628438465,-0.3425477049119592,-0.8688333655889549,0.8750341622813339,,-0.06634650985299945,-0.05184936875362155,0.09109722752,-0.0892943953896608,,-3.0510128e-05,-1.6093254e-06,2.6226044e-06,1.0,4.1998923e-05,3.7536025e-05,-4.1991472e-05,1.0,6.020069e-06,-3.7528574e-05,-5.990267e-06,1.0,573,1.737,0,0,0.0,False,-0.2599376133421849,1.0498529487641832
1.7625038588885218,13:41:41.764899,13:40:21.805138,0,,0.12409389,0.0010549724,0.02698712,-0.9802248,-0.14385967,-0.13588095,-0.19030488,0.87355244,0.44798473,0.054252222,0.46498445,-0.883655,,0.024543308,-0.021680906,0.045117736,0.61740017,0.039187603,0.7856726,-0.7689247,-0.18075702,0.613255,0.16604787,-0.9827467,-0.08146709,,0.08392038,1.2908595,0.42616326,0.9942422,0.080454186,-0.070778124,0.012751609,-0.74465364,-0.66732925,-0.10639462,0.66258436,-0.741392,,-0.11819909,0.25593442,-0.10413959,0.9561701,0.13190788,0.26141736,-0.06354541,0.96498466,-0.25449288,-0.28583336,0.2267266,0.93107164,,-0.030469734,0.43718147,-0.3715671,-0.641423,0.13495588,-0.7552241,-0.47005096,-0.8471283,0.24784239,-0.6063239,0.5139656,0.60680366,,1.0718844320108651,0.5431706939757067,0.21405766399,0.8433729526947569,-0.29663784099077123,-0.21714625066502885,-0.4201209380973663,,-1.1917644144174522,0.2873937811813909,0.15395388185,-0.49612640628438465,-0.3425477049119592,-0.8688333655889549,0.8750341622813339,,-0.06634650985299945,-0.05184936875362155,0.09109722752,-0.0892943953896608,,-8.940697e-08,-3.33786e-06,2.026558e-06,1.0,-5.4836273e-06,-4.8950315e-06,5.4836273e-06,1.0,-7.748604e-07,4.902482e-06,8.046627e-07,1.0,585,1.774,0,0,0.0,False,-0.25963972474957986,1.0501909101696396
1.791766240959987,13:41:41.794404,13:40:21.805138,0,,0.12403463,0.0010562763,0.0269946,-0.9804356,-0.14163356,-0.13669595,-0.18871677,0.8737863,0.4482003,0.05596289,0.46522823,-0.8834199,,0.024548583,-0.021680161,0.04512179,0.6173884,0.039293826,0.7856766,-0.76893055,-0.18069372,0.6132663,0.16606441,-0.9827541,-0.08134398,,0.08392038,1.2908595,0.42616326,0.9942422,0.080454186,-0.070778124,0.012751609,-0.74465364,-0.66732925,-0.10639462,0.66258436,-0.741392,,-0.11814113,0.25594285,-0.10415135,0.9562577,0.12968318,0.26220882,-0.06121332,0.96522796,-0.25414142,-0.2860492,0.22697403,0.93094504,,-0.03047565,0.43718427,-0.3715686,-0.64141434,0.13485302,-0.7552498,-0.47004122,-0.84710515,0.2479398,-0.6063406,0.5140307,0.6067319,,1.0721470049285886,0.543008516585348,0.21404599738000002,0.8456795420730867,-0.29663784099077123,-0.21747296562559115,-0.4191408737005605,,-1.1918107508146976,0.2873937811813909,0.15395258556000002,-0.49612640628438465,-0.3425477049119592,-0.8689150443290955,0.8748708182151996,,-0.06634650985299945,-0.05184936875362155,0.09109722752,-0.0892943953896608,,-8.940697e-08,-3.33786e-06,2.026558e-06,1.0,-5.4836273e-06,-4.8950315e-06,5.4836273e-06,1.0,-7.748604e-07,4.902482e-06,8.046627e-07,1.0,614,1.863,0,0,0.0,False,-0.25963972474957986,1.0499012289649627
1.8212644909508526,13:41:41.878201,13:40:21.805138,0,,0.12395055,0.0010252446,0.027046993,-0.97930616,-0.15934385,-0.124775656,-0.19850165,0.87643397,0.4387033,0.039452925,0.4543929,-0.88992727,,0.024560876,-0.021677181,0.045128286,0.61736286,0.039192416,0.78570175,-0.76894337,-0.18081528,0.61321443,0.1661003,-0.98273575,-0.08149192,,0.08392038,1.2908595,0.42616326,0.9942422,0.080454186,-0.070778124,0.012751609,-0.74465364,-0.66732925,-0.10639462,0.66258436,-0.741392,,-0.11806548,0.2559585,-0.10422071,0.95658934,0.14865725,0.25067484,-0.07957573,0.96067184,-0.26604003,-0.28036502,0.23454341,0.93079793,,-0.030488884,0.43718946,-0.37156913,-0.6413956,0.13494886,-0.7552486,-0.47002012,-0.8471597,0.24779338,-0.60637677,0.5139156,0.6067932,,1.0729733373461308,0.5428231709963666,0.21395914595,0.8263880672725105,-0.28966937950273375,-0.22544228343804432,-0.4201209380973662,,-1.1919111463420624,0.2873937811813909,0.15395258556000002,-0.49612640628438465,-0.3425477049119592,-0.8686700081086738,0.8753608504136026,,-0.06634650985299945,-0.05184936875362155,0.09109722752,-0.0892943953896608,,-8.940697e-08,-3.33786e-06,2.026558e-06,1.0,-5.4836273e-06,-4.8950315e-06,5.4836273e-06,1.0,-7.748604e-07,4.902482e-06,8.046627e-07,1.0,622,1.888,0,0,0.0,False,-0.2596993024681016,1.0500943497680806
1.905068697873503,13:41:41.901607,13:40:21.805138,0,,0.123928204,0.0010256916,0.027111039,-0.9793969,-0.16659063,-0.114145726,-0.1999546,0.87913233,0.432602,0.028281763,0.44651288,-0.8943301,,0.02455993,-0.02167745,0.04512781,0.6173648,0.03905706,0.78570694,-0.76894236,-0.18091765,0.6131854,0.16609755,-0.9827223,-0.081659555,,0.08392038,1.2908595,0.42616326,0.9942422,0.080454186,-0.070778124,0.012751609,-0.74465364,-0.66732925,-0.10639462,0.66258436,-0.741392,,-0.11805084,0.2560027,-0.10427007,0.95792204,0.15690845,0.24034378,-0.08813487,0.95769477,-0.27395788,-0.2731623,0.24124762,0.931226,,-0.030487865,0.43718904,-0.3715691,-0.64139706,0.1350791,-0.7552241,-0.47002172,-0.84720063,0.24765028,-0.60637397,0.5138139,0.6068821,,1.0735602650445717,0.5427922800648697,0.21388914629000003,0.8175810896461604,-0.28160782601657275,-0.23242433345683605,-0.41963090589896335,,-1.191903423609188,0.2873937811813909,0.15395258556000002,-0.49612640628438465,-0.3425477049119592,-0.8685066506283927,0.875687538545871,,-0.06634650985299945,-0.05184936875362155,0.09109722752,-0.0892943953896608,,-8.940697e-08,-3.33786e-06,2.026558e-06,1.0,-5.4836273e-06,-4.8950315e-06,5.4836273e-06,1.0,-7.748604e-07,4.902482e-06,8.046627e-07,1.0,630,1.914,0,0,0.0,False,-0.25952056931253775,1.0496115477602863
1.9284216579981148,13:41:41.928008,13:40:21.967825,0,,0.12386623,0.0010142773,0.027167127,-0.97862875,-0.17477697,-0.1083454,-0.20461957,0.8799611,0.42871833,0.020409659,0.44172555,-0.896918,,0.02456043,-0.021676227,0.045128703,0.6173657,0.039191455,0.7856995,-0.76894236,-0.18080863,0.6132177,0.16609412,-0.98273706,-0.08148906,,0.08392038,1.2908595,0.42616326,0.9942422,0.080454186,-0.070778124,0.012751609,-0.74465364,-0.66732925,-0.10639462,0.66258436,-0.741392,,-0.117996566,0.25603443,-0.10432631,0.9578525,0.165633,0.23470046,-0.09689949,0.95544416,-0.27881348,-0.2704239,0.24431983,0.93122435,,-0.030488513,0.43719044,-0.37156874,-0.6413974,0.13495009,-0.7552469,-0.47002432,-0.84715605,0.24779794,-0.6063716,0.5139213,0.6067935,,1.0741163018115159,0.5427304982018759,0.21382433179000002,0.8083547321328414,-0.2781919135224367,-0.23578153223023052,-0.4191408737005606,,-1.1919111463420624,0.2874015039142651,0.15395258556000002,-0.49612640628438465,-0.3425477049119592,-0.8686700081086738,0.8756875385458711,,-0.06634650985299945,-0.05184936875362155,0.09109722752,-0.0892943953896608,,-8.940697e-08,-3.33786e-06,2.026558e-06,1.0,-5.4836273e-06,-4.8950315e-06,5.4836273e-06,1.0,-7.748604e-07,4.902482e-06,8.046627e-07,1.0,638,1.938,0,0,0.0,False,-0.26059296824591627,1.0498529487641832
1.9548778189346194,13:41:41.950619,13:40:21.967825,0,,0.12383538,0.0010225251,0.027229473,-0.9790485,-0.17736849,-0.1000219,-0.20319562,0.8829474,0.42322046,0.013248101,0.4346773,-0.90048885,,0.024560854,-0.021686658,0.045123994,0.61567426,0.037634514,0.7871017,-0.77042246,-0.18105313,0.6112846,0.16551265,-0.9827529,-0.082475275,,0.08392038,1.2908595,0.42616326,0.9942422,0.080454186,-0.070778124,0.012751609,-0.74465364,-0.66732925,-0.10639462,0.66258436,-0.741392,,-0.11797289,0.2560836,-0.10437021,0.9591841,0.16918384,0.2265892,-0.1006259,0.9530425,-0.28562978,-0.26427308,0.2511708,0.93116754,,-0.030488143,0.43717995,-0.37157333,-0.63963795,0.13648367,-0.7564625,-0.47122023,-0.8471303,0.24560487,-0.60730124,0.5135586,0.60617054,,1.074664615845586,0.5426764390717563,0.21376340616000003,0.8045803131501199,-0.2713600885341647,-0.24298600221786285,-0.4201209380973662,,-1.191903423609188,0.2873937811813909,0.15395388185,-0.4938198169060548,-0.34336752391055186,-0.8680831794266357,0.8751975063474683,,-0.06634650985299945,-0.05184936875362155,0.09109722752,-0.0892943953896608,,-8.940697e-08,-3.33786e-06,2.026558e-06,1.0,-5.4836273e-06,-4.8950315e-06,5.4836273e-06,1.0,-7.748604e-07,4.902482e-06,8.046627e-07,1.0,646,1.963,0,0,0.0,False,-0.2594014138754961,1.0496115477602863
1.9774668859317899,13:41:41.977859,13:40:21.967825,0,,0.12373594,0.0010203272,0.027348503,-0.97825694,-0.18697834,-0.089735776,-0.20739123,0.885086,0.41666734,0.0015161186,0.4262181,-0.90461916,,0.024561442,-0.021688774,0.045123875,0.6155294,0.037580468,0.7872176,-0.77049166,-0.18135223,0.6111087,0.16572942,-0.9826998,-0.08267215,,0.08392038,1.2908595,0.42616326,0.9942422,0.080454186,-0.070778124,0.012751609,-0.74465364,-0.66732925,-0.10639462,0.66258436,-0.741392,,-0.1178884,0.25616592,-0.10447094,0.95956963,0.17981867,0.21654426,-0.11163033,0.9493617,-0.2936854,-0.25838894,0.25763866,0.9310518,,-0.030488716,0.43717837,-0.3715748,-0.63953424,0.13652574,-0.7565426,-0.47108853,-0.8472837,0.24532816,-0.6075126,0.5132943,0.60618263,,1.075668571119235,0.5426223799416368,0.21364544377000003,0.793047366258471,-0.2643916270461273,-0.25005685388876986,-0.41963090589896335,,-1.191895700876314,0.2873937811813909,0.15395388185,-0.4938198169060548,-0.34364079691008276,-0.8678603436192429,0.8753608504136026,,-0.06634650985299945,-0.05184936875362155,0.09109722752,-0.0892943953896608,,-8.940697e-08,-3.33786e-06,2.026558e-06,1.0,-5.4836273e-06,-4.8950315e-06,5.4836273e-06,1.0,-7.748604e-07,4.902482e-06,8.046627e-07,1.0,654,1.987,0,0,0.0,False,-0.2587460589717643,1.049514987358727
2.0046932140830904,13:41:42.007999,13:40:21.967825,0,,0.123615585,0.0010027513,0.027523443,-0.97774833,-0.19379494,-0.08032216,-0.20962241,0.8876639,0.41001385,-0.008159518,0.4177276,-0.9085356,,0.024562128,-0.02168645,0.045123935,0.61575973,0.037847854,0.78702456,-0.7702602,-0.18145576,0.6113697,0.1659492,-0.9826704,-0.08258042,,0.08392038,1.2908595,0.42616326,0.9942422,0.080454186,-0.070778124,0.012751609,-0.74465364,-0.66732925,-0.10639462,0.66258436,-0.741392,,-0.11779053,0.25627518,-0.10462547,0.9600926,0.18770906,0.20733438,-0.1197891,0.9458682,-0.30163547,-0.2527307,0.26476157,0.93060654,,-0.030489393,0.43717992,-0.371573,-0.6397987,0.1362568,-0.75636744,-0.47080252,-0.84736556,0.24559431,-0.60745585,0.5132306,0.60629344,,1.0767806446531234,0.5426069344758883,0.21347433349000003,0.7844500785756056,-0.2576964385576207,-0.2579666933741113,-0.41930421776669485,,-1.191895700876314,0.2874015039142651,0.15395517814,-0.4942391967930239,-0.34364079691008276,-0.8678603436192429,0.8748708182151995,,-0.06634650985299945,-0.05184936875362155,0.09109722752,-0.0892943953896608,,-8.940697e-08,-3.33786e-06,2.026558e-06,1.0,-5.4836273e-06,-4.8950315e-06,5.4836273e-06,1.0,-7.748604e-07,4.902482e-06,8.046627e-07,1.0,683,2.076,0,0,0.0,False,-0.25922268071993226,1.0499977893665218
2.034867770038545,13:41:42.091019,13:40:22.104588,0,,0.123187445,0.00092475116,0.028208867,-0.97600526,-0.20963845,-0.058867753,-0.21562529,0.892858,0.395361,-0.030322328,0.39856774,-0.9166375,,0.024563566,-0.02168502,0.045125365,0.6157588,0.038118035,0.7870122,-0.77026117,-0.18124485,0.6114311,0.16594851,-0.9826989,-0.08224228,,0.08392038,1.2908595,0.42616326,0.9942422,0.080454186,-0.070778124,0.012751609,-0.74465364,-0.66732925,-0.10639462,0.66258436,-0.741392,,-0.11745059,0.25669467,-0.10523183,0.9606721,0.2059406,0.18627295,-0.13916281,0.9375422,-0.3188234,-0.24029742,0.28036246,0.9293299,,-0.030491058,0.43718174,-0.3715727,-0.6397976,0.13599718,-0.75641507,-0.47080353,-0.8472807,0.2458851,-0.6074562,0.5134396,0.6061161,,1.0804103291040088,0.5428540619278635,0.21283007736,0.7636907741706377,-0.2425297870836568,-0.27629662871467525,-0.4201209380973663,,-1.1919111463420624,0.28740922664713936,0.15395517814,-0.4942391967930239,-0.34364079691008276,-0.868187058579805,0.8755241944797366,,-0.06634650985299945,-0.05184936875362155,0.09109722752,-0.0892943953896608,,-8.940697e-08,-3.33786e-06,2.026558e-06,1.0,-5.4836273e-06,-4.8950315e-06,5.4836273e-06,1.0,-7.748604e-07,4.902482e-06,8.046627e-07,1.0,691,2.101,0,0,0.0,False,-0.25910352528289105,1.0496115477602863
2.1178741599433124,13:41:42.112468,13:40:22.104588,0,,0.12308863,0.0009014681,0.028407887,-0.9759464,-0.2110979,-0.054463126,-0.21527317,0.8936726,0.39370894,-0.034438923,0.39596316,-0.9176203,,0.02456268,-0.021686897,0.045125544,0.6157578,0.038240552,0.7870071,-0.77026117,-0.1811539,0.611458,0.16595191,-0.9827109,-0.08209172,,0.08392038,1.2908595,0.42616326,0.9942422,0.080454186,-0.070778124,0.012751609,-0.74465364,-0.66732925,-0.10639462,0.66258436,-0.741392,,-0.1173772,0.25681493,-0.10540523,0.9611164,0.20773587,0.18193717,-0.14166304,0.9364617,-0.32089105,-0.23703778,0.2826399,0.92947716,,-0.03049022,0.43718073,-0.37157428,-0.6397973,0.13587925,-0.7564366,-0.4708009,-0.8472446,0.24601425,-0.6074586,0.51353025,0.6060369,,1.0812984433845447,0.5429853483867253,0.21264730047000002,0.7609648049053389,-0.23870396509022446,-0.27917129379775335,-0.4193042177666949,,-1.191903423609188,0.2874015039142651,0.15395388185,-0.4942391967930239,-0.34364079691008276,-0.8683504160600863,0.8751975063474681,,-0.06634650985299945,-0.05184936875362155,0.09109722752,-0.0892943953896608,,-8.940697e-08,-3.33786e-06,2.026558e-06,1.0,-5.4836273e-06,-4.8950315e-06,5.4836273e-06,1.0,-7.748604e-07,4.902482e-06,8.046627e-07,1.0,699,2.127,0,0,0.0,False,-0.2594014138754961,1.0496598279610654
2.1393164740875363,13:41:42.140970,13:40:22.104588,0,,0.12292997,0.0008575916,0.0287406,-0.97521454,-0.21597019,-0.0480974,-0.21729058,0.8938159,0.3922728,-0.04172899,0.39300117,-0.9185906,,0.024564072,-0.021687582,0.045125604,0.6157529,0.038312823,0.78700745,-0.7702632,-0.18110847,0.6114689,0.16596085,-0.98271644,-0.08200711,,0.08392038,1.2908595,0.42616326,0.9942422,0.080454186,-0.070778124,0.012751609,-0.74465364,-0.66732925,-0.10639462,0.66258436,-0.741392,,-0.117261246,0.25701204,-0.10569763,0.96114767,0.21292412,0.17566586,-0.1480741,0.93478733,-0.3228726,-0.23295759,0.2843167,0.9299972,,-0.030491607,0.43718013,-0.3715747,-0.63979405,0.13580938,-0.75645185,-0.47079507,-0.84722775,0.24608362,-0.6074665,0.5135766,0.60598963,,1.0827117035005278,0.5432710895030716,0.21234267232,0.7540450367703496,-0.23378505109866862,-0.28179379974843494,-0.4197942499650977,,-1.1919111463420624,0.2873937811813909,0.15395388185,-0.4942391967930239,-0.34364079691008276,-0.8684320948002268,0.8750341622813339,,-0.06634650985299945,-0.05184936875362155,0.09109722752,-0.0892943953896608,,-8.940697e-08,-3.33786e-06,2.026558e-06,1.0,-5.4836273e-06,-4.8950315e-06,5.4836273e-06,1.0,-7.748604e-07,4.902482e-06,8.046627e-07,1.0,707,2.151,0,0,0.0,False,-0.2598184579051428,1.0498529487641832
2.1678322649095207,13:41:42.170461,13:40:22.104588,0,,0.12279048,0.0008148253,0.029075012,-0.9741545,-0.2219782,-0.041817017,-0.2203494,0.8931403,0.39210528,-0.04969038,0.3911854,-0.9189694,,0.024563126,-0.02168782,0.045125127,0.6157549,0.038305826,0.78700626,-0.77026224,-0.18111068,0.6114695,0.16595809,-0.9827163,-0.08201426,,0.08392038,1.2908595,0.42616326,0.9942422,0.080454186,-0.070778124,0.012751609,-0.74465364,-0.66732925,-0.10639462,0.66258436,-0.741392,,-0.11716446,0.2572103,-0.105988234,0.96088004,0.21906246,0.1694734,-0.15572056,0.9333219,-0.32351407,-0.229043,0.2844677,0.93092287,,-0.03049059,0.43717974,-0.37157467,-0.6397955,0.13581623,-0.7564494,-0.4707967,-0.8472282,0.24607891,-0.6074638,0.51357406,0.60599464,,1.0840477362877687,0.5436340579481601,0.21204063675,0.7458671289744532,-0.22913941010664365,-0.28280493130933415,-0.4201209380973663,,-1.191903423609188,0.2873937811813909,0.15395388185,-0.4942391967930239,-0.34364079691008276,-0.8684320948002268,0.8750341622813339,,-0.06634650985299945,-0.05184936875362155,0.09109722752,-0.0892943953896608,,-8.940697e-08,-3.33786e-06,2.026558e-06,1.0,-5.4836273e-06,-4.8950315e-06,5.4836273e-06,1.0,-7.748604e-07,4.902482e-06,8.046627e-07,1.0,715,2.176,0,0,0.0,False,-0.2593418361569748,1.0492253061540504
2.1973145140800625,13:41:42.191761,13:40:22.104588,0,,0.12271465,0.0007888377,0.02929093,-0.97421855,-0.22219858,-0.03906347,-0.21945208,0.89316386,0.39255476,-0.05233504,0.3910066,-0.9188987,,0.02456458,-0.02168639,0.045126498,0.6157539,0.038318865,0.7870064,-0.7702632,-0.18109953,0.61147165,0.16595739,-0.9827179,-0.081997156,,0.08392038,1.2908595,0.42616326,0.9942422,0.080454186,-0.070778124,0.012751609,-0.74465364,-0.66732925,-0.10639462,0.66258436,-0.741392,,-0.117116,0.2573389,-0.10617302,0.9613003,0.21930325,0.16675685,-0.15682518,0.93322873,-0.32324913,-0.22651187,0.2845878,0.9315053,,-0.030492255,0.43718153,-0.37157434,-0.6397944,0.13580373,-0.75645256,-0.4707977,-0.8472236,0.24609287,-0.60746413,0.513585,0.605985,,1.084812286842317,0.5438889081330095,0.21184878583000002,0.744608989313546,-0.22627004361156938,-0.28342945374400724,-0.419957594031232,,-1.1919188690749365,0.2874015039142651,0.15395388185,-0.4942391967930239,-0.34364079691008276,-0.8684320948002268,0.8750341622813339,,-0.06634650985299945,-0.05184936875362155,0.09109722752,-0.0892943953896608,,-8.940697e-08,-3.33786e-06,2.026558e-06,1.0,-5.4836273e-06,-4.8950315e-06,5.4836273e-06,1.0,-7.748604e-07,4.902482e-06,8.046627e-07,1.0,723,2.2,0,0,0.0,False,-0.26005676877922745,1.0499495091657423
2.2186003690585494,13:41:42.213709,13:40:22.104588,0,,0.1226252,0.0007298291,0.029667124,-0.9731106,-0.22826794,-0.030811958,-0.22176422,0.89231116,0.393194,-0.062259734,0.38945416,-0.91893905,,0.024564072,-0.021687582,0.045125604,0.6157529,0.038312823,0.78700745,-0.7702632,-0.18110847,0.6114689,0.16596085,-0.98271644,-0.08200711,,0.08392038,1.2908595,0.42616326,0.9942422,0.080454186,-0.070778124,0.012751609,-0.74465364,-0.66732925,-0.10639462,0.66258436,-0.741392,,-0.117074564,0.25755104,-0.10649905,0.96125406,0.22546253,0.1586103,-0.16523601,0.93181115,-0.3231487,-0.22065276,0.2844199,0.93296176,,-0.030491607,0.43718013,-0.3715747,-0.63979405,0.13580938,-0.75645185,-0.47079507,-0.84722775,0.24608362,-0.6074665,0.5135766,0.60598963,,1.0860479241021928,0.5444372221670795,0.21149878753,0.735802011687196,-0.21971149162282821,-0.28395846745314224,-0.4191408737005606,,-1.1919111463420624,0.2873937811813909,0.15395388185,-0.4942391967930239,-0.34364079691008276,-0.8684320948002268,0.8750341622813339,,-0.06634650985299945,-0.05184936875362155,0.09109722752,-0.0892943953896608,,-8.940697e-08,-3.33786e-06,2.026558e-06,1.0,-5.4836273e-06,-4.8950315e-06,5.4836273e-06,1.0,-7.748604e-07,4.902482e-06,8.046627e-07,1.0,748,2.277,0,0,0.0,False,-0.25922268071993226,1.05014262996886
2.2405411670915782,13:41:42.292483,13:40:22.305063,0,,0.12264998,0.0006842017,0.030375108,-0.97049725,-0.24106045,-0.00498873,-0.22353959,0.8918198,0.39330354,-0.09036088,0.38281512,-0.9193951,,0.024565965,-0.02169089,0.04512596,0.61574215,0.03832274,0.7870154,-0.77026725,-0.18112648,0.61145854,0.1659821,-0.98271275,-0.08200839,,0.08392038,1.2908595,0.42616326,0.9942422,0.080454186,-0.070778124,0.012751609,-0.74465364,-0.66732925,-0.10639462,0.66258436,-0.741392,,-0.11718484,0.25799066,-0.10704544,0.96188295,0.2389069,0.1330591,-0.18549298,0.9275346,-0.32445645,-0.2009318,0.2874076,0.9364952,,-0.030493546,0.43717793,-0.37157717,-0.6397872,0.13579886,-0.75645953,-0.4707808,-0.8472383,0.24607469,-0.6074848,0.513562,0.6059837,,1.0878936572591325,0.5458736504816852,0.21091804961000002,0.7152523972257125,-0.19948928965754306,-0.28819650617912823,-0.41979424996509773,,-1.1919188690749365,0.2873706129827682,0.15395258556000002,-0.4942391967930239,-0.34364079691008276,-0.8684320948002268,0.8750341622813339,,-0.06634650985299945,-0.05184936875362155,0.09109722752,-0.0892943953896608,,-8.940697e-08,-3.33786e-06,2.026558e-06,1.0,-5.4836273e-06,-4.8950315e-06,5.4836273e-06,1.0,-7.748604e-07,4.902482e-06,8.046627e-07,1.0,756,2.302,0,0,0.0,False,-0.2586269035347226,1.0500943497680806
2.3193172889295965,13:41:42.312924,13:40:22.305063,0,,0.12277266,0.00069659203,0.030556753,-0.9698756,-0.24326766,0.012734421,-0.21917307,0.8942422,0.3902488,-0.10632254,0.37570164,-0.9206214,,0.024567023,-0.021690115,0.045128405,0.61574113,0.038271517,0.78701866,-0.7702682,-0.18116522,0.61144584,0.16598144,-0.9827076,-0.08207157,,0.08392038,1.2908595,0.42616326,0.9942422,0.080454186,-0.070778124,0.012751609,-0.74465364,-0.66732925,-0.10639462,0.66258436,-0.741392,,-0.11732728,0.2581164,-0.1071554,0.9633665,0.24205588,0.115472555,-0.1929798,0.9246553,-0.3282855,-0.18623574,0.29397538,0.93749386,,-0.03049502,0.4371801,-0.37157807,-0.6397861,0.13584813,-0.7564516,-0.47078177,-0.84725374,0.24601945,-0.6074852,0.51352346,0.60601604,,1.0882411802384726,0.5463292917212645,0.21078064287000003,0.7081229391472387,-0.18459591118311003,-0.29486858209262057,-0.4202842821635005,,-1.191934314540685,0.2873783357156425,0.15395128927,-0.4942391967930239,-0.34364079691008276,-0.8683504160600863,0.8751975063474681,,-0.06634650985299945,-0.05184936875362155,0.09109722752,-0.0892943953896608,,-8.940697e-08,-3.33786e-06,2.026558e-06,1.0,-5.4836273e-06,-4.8950315e-06,5.4836273e-06,1.0,-7.748604e-07,4.902482e-06,8.046627e-07,1.0,764,2.327,0,0,0.0,False,-0.25868648125324345,1.0495632675595068
2.339787636883557,13:41:42.344236,13:40:22.305063,0,,0.122950755,0.00065823644,0.03086637,-0.9683599,-0.24692851,0.036131248,-0.21363287,0.89506304,0.39143735,-0.12899679,0.3713333,-0.91949517,,0.024568953,-0.02169688,0.04512751,0.6143482,0.036958948,0.78816915,-0.7714803,-0.18139961,0.6098461,0.1655129,-0.98271465,-0.08292946,,0.08392038,1.2908595,0.42616326,0.9942422,0.080454186,-0.070778124,0.012751609,-0.74465364,-0.66732925,-0.10639462,0.66258436,-0.741392,,-0.11754231,0.258288,-0.107386425,0.96481323,0.2462425,0.09219574,-0.20413272,0.92248976,-0.32763153,-0.16572644,0.29728308,0.94029653,,-0.030496802,0.4371747,-0.3715823,-0.638339,0.13713972,-0.75744045,-0.47175446,-0.8472462,0.2441752,-0.60825247,0.5131925,0.6055266,,1.0886273168821838,0.5469934467484477,0.21051490342,0.697428752029528,-0.16396379971852854,-0.2979706572071657,-0.4193042177666949,,-1.1919497600064335,0.28738605844851667,0.15395128927,-0.49235198730166324,-0.34432397940890996,-0.8677933265416042,0.8751975063474681,,-0.06634650985299945,-0.05184936875362155,0.09109722752,-0.0892943953896608,,-8.940697e-08,-3.33786e-06,2.026558e-06,1.0,-5.4836273e-06,-4.8950315e-06,5.4836273e-06,1.0,-7.748604e-07,4.902482e-06,8.046627e-07,1.0,772,2.352,0,0,0.0,False,-0.2594014138754961,1.0496115477602863
2.3710997418966144,13:41:42.362634,13:40:22.305063,0,,0.12299041,0.0006446615,0.030939862,-0.96810734,-0.2471818,0.040857397,-0.21209842,0.8954092,0.39148003,-0.13335079,0.3703288,-0.9192791,,0.024571642,-0.021700785,0.04512769,0.61366767,0.036300175,0.7887296,-0.7720467,-0.1816687,0.6090487,0.16539603,-0.9826895,-0.08345875,,0.08392038,1.2908595,0.42616326,0.9942422,0.080454186,-0.070778124,0.012751609,-0.74465364,-0.66732925,-0.10639462,0.66258436,-0.741392,,-0.11759098,0.25832552,-0.107444555,0.965153,0.24662945,0.08748524,-0.20592402,0.9220838,-0.3276534,-0.1614777,0.29822034,0.94073886,,-0.0304995,0.43717188,-0.37158498,-0.6376518,0.13778202,-0.75790256,-0.47213024,-0.84732234,0.24318287,-0.6086815,0.5128947,0.6053477,,1.0886890987451776,0.5471479014059323,0.21045008892000003,0.6957512324816518,-0.15972806822579988,-0.2988925712773974,-0.41979424996509773,,-1.1919652054721819,0.28738605844851667,0.15395128927,-0.4915132275277251,-0.3447338889082062,-0.8673773940903743,0.8753608504136023,,-0.06634650985299945,-0.05184936875362155,0.09109722752,-0.0892943953896608,,-8.940697e-08,-3.33786e-06,2.026558e-06,1.0,-5.4836273e-06,-4.8950315e-06,5.4836273e-06,1.0,-7.748604e-07,4.902482e-06,8.046627e-07,1.0,776,2.364,0,0,0.0,False,-0.26041423509035333,1.0496598279610654
2.389503405895084,13:41:42.391973,13:40:22.305063,0,,0.12305767,0.00060322136,0.031089708,-0.9665974,-0.25193024,0.047123097,-0.21370807,0.8937267,0.3944381,-0.14148608,0.37119216,-0.91771346,,0.024579138,-0.021699652,0.04513228,0.61373997,0.03662633,0.7886584,-0.7718916,-0.18200636,0.6091445,0.16585155,-0.9826149,-0.08343294,,0.08392038,1.2908595,0.42616326,0.9942422,0.080454186,-0.070778124,0.012751609,-0.74465364,-0.66732925,-0.10639462,0.66258436,-0.741392,,-0.11767742,0.2583924,-0.10757398,0.9645327,0.2511523,0.08123576,-0.21263196,0.92161477,-0.324675,-0.15641095,0.29588634,0.94233054,,-0.030507682,0.43717504,-0.3715862,-0.6378029,0.1374459,-0.75783646,-0.47170168,-0.8475346,0.24327484,-0.6088555,0.5126341,0.60539347,,1.088735435142423,0.5475263153167693,0.21031268218000002,0.6890411542901471,-0.15480915423424405,-0.29645099533936414,-0.4196309058989633,,-1.1920115418694273,0.2873937811813909,0.15395128927,-0.4919326074146941,-0.3450071619077371,-0.867236237023122,0.8748708182151997,,-0.06634650985299945,-0.05184936875362155,0.09109722752,-0.0892943953896608,,-8.940697e-08,-3.33786e-06,2.026558e-06,1.0,-5.4836273e-06,-4.8950315e-06,5.4836273e-06,1.0,-7.748604e-07,4.902482e-06,8.046627e-07,1.0,788,2.401,0,0,0.0,False,-0.25963972474957986,1.0500943497680806
2.41883764998056,13:41:42.418792,13:40:22.466896,0,,0.12313209,0.0005817935,0.031173572,-0.964404,-0.2588571,0.05401843,-0.21720833,0.89197505,0.39648607,-0.15081634,0.37063938,-0.91645014,,0.02458381,-0.021700665,0.045133412,0.6137262,0.037107207,0.7886466,-0.77189755,-0.18166262,0.6092396,0.16587481,-0.9826605,-0.08284813,,0.08392038,1.2908595,0.42616326,0.9942422,0.080454186,-0.070778124,0.012751609,-0.74465364,-0.66732925,-0.10639462,0.66258436,-0.741392,,-0.117762186,0.25842962,-0.10764078,0.96328,0.25799897,0.0743516,-0.2215704,0.9202368,-0.32260004,-0.15165156,0.29428005,0.94361067,,-0.030512495,0.43717462,-0.37158716,-0.63779354,0.13698271,-0.7579282,-0.4716868,-0.84740084,0.24376915,-0.6088768,0.5129791,0.6050797,,1.0886890987451776,0.5478043337002414,0.21023879365000003,0.6800244867203126,-0.15016351324221905,-0.29468504973548415,-0.42028428216350044,,-1.1920424328009243,0.2873783357156425,0.15395128927,-0.4919326074146941,-0.3450071619077371,-0.8678079882041061,0.875687538545871,,-0.06634650985299945,-0.05184936875362155,0.09109722752,-0.0892943953896608,,-8.940697e-08,-3.33786e-06,2.026558e-06,1.0,-5.4836273e-06,-4.8950315e-06,5.4836273e-06,1.0,-7.748604e-07,4.902482e-06,8.046627e-07,1.0,813,2.478,0,0,0.0,False,-0.2590439475643693,1.0499012289649627
2.4456293599214405,13:41:42.492606,13:40:22.466896,0,,0.12336126,0.0005849004,0.031309173,-0.96269816,-0.26161095,0.06907887,-0.21374005,0.8918198,0.39871377,-0.16591378,0.36907595,-0.9144701,,0.024596095,-0.021697685,0.04513997,0.61370057,0.03726273,0.7886592,-0.7719103,-0.18158415,0.60924685,0.1659102,-0.9826691,-0.0826748,,0.08392038,1.2908595,0.42616326,0.9942422,0.080454186,-0.070778124,0.012751609,-0.74465364,-0.66732925,-0.10639462,0.66258436,-0.741392,,-0.11800529,0.25851315,-0.107710324,0.9635414,0.26090646,0.059294246,-0.2291892,0.91918963,-0.3202541,-0.13805902,0.29498848,0.9454742,,-0.030525727,0.4371798,-0.37158772,-0.6377747,0.13683164,-0.75797135,-0.47166598,-0.84737486,0.24389964,-0.60891265,0.5130623,0.6049731,,1.0883492984987118,0.5484375977959278,0.21015064593000002,0.6728950286418387,-0.1370464092647368,-0.2950079684924892,-0.4204476262296347,,-1.192142828328289,0.2873783357156425,0.15395128927,-0.4919326074146941,-0.3450071619077371,-0.8678896669442466,0.8751975063474683,,-0.06634650985299945,-0.05184936875362155,0.09109722752,-0.0892943953896608,,-8.940697e-08,-3.33786e-06,2.026558e-06,1.0,-5.4836273e-06,-4.8950315e-06,5.4836273e-06,1.0,-7.748604e-07,4.902482e-06,8.046627e-07,1.0,821,2.502,0,0,0.0,False,-0.2589247921273281,1.0495632675595068
