AlexandreBanks6/ExpertPlaybackApp/resources/Motions/P_14/PC1/Data_PC1_6.csv
Task Time,PC1 Time,PC2 Time,Gaze Calib,s_T_psm1,Tx,Ty,Tz,R00,R01,R02,R10,R11,R12,R20,R21,R22,s_T_psm3,Tx,Ty,Tz,R00,R01,R02,R10,R11,R12,R20,R21,R22,cart_T_ecm,Tx,Ty,Tz,R00,R01,R02,R10,R11,R12,R20,R21,R22,ecm_T_psm1,Tx,Ty,Tz,R00,R01,R02,R10,R11,R12,R20,R21,R22,ecm_T_psm3,Tx,Ty,Tz,R00,R01,R02,R10,R11,R12,R20,R21,R22,psm1_joints,q1,q2,q3,q4,q5,q6,jaw,psm3_joints,q1,q2,q3,q4,q5,q6,jaw,ecm_joints,q1,q2,q3,q4,ecmi_T_ecm,Tx,Ty,Tz,R00,R01,R02,R10,R11,R12,R20,R21,R22,Sample #,Task Duration (s),Collisions (binary),Collisions (increments),Cumulative Collision Time (s),Clutch Press,MTMR Angle,MTML Angle
""
lci_T_si,,,,,-0.05129452,0.048553377,0.19299848,0.991276,0.046896584,0.12317695,0.11708693,-0.74244076,-0.65960014,0.060518593,0.6682682,-0.7414547
rci_T_si,,,,,-0.059571687,0.0508194,0.20016095,0.98826504,0.02463223,0.15074971,0.12190245,-0.72187847,-0.68119836,0.092043534,0.6915813,-0.71641
ecm_T_lc,,,,,-4.4061628e-05,-0.00034663224,-0.01840835,-0.99912,0.030754527,0.028518902,-0.031987965,-0.99852574,-0.043852776,0.027128186,-0.04472645,0.9986309
ecm_T_rc,,,,,-0.0043358393,0.01870579,-0.007592615,-0.99555075,-0.052743673,-0.078081585,0.04863213,-0.9973746,0.053654674,-0.08070653,0.04961868,0.9955021
cart_T_ecmi,,,,,0.08361981,1.2907763,0.42627257,0.9937988,0.08374649,-0.07314679,0.013490307,-0.743785,-0.66828275,-0.11037182,0.6631518,-0.74030244
ecmac_T_ecmrep_psm1,,,,,0.023195708,-0.2631036,-0.30022871,0.99664557,0.07921609,0.02055357,-0.078295335,0.99603295,-0.04228661,-0.023821812,0.040535513,0.9988941
ecmac_T_ecmrep_psm3,,,,,0.022281613,-0.4507852,-0.5326207,0.99995744,0.002629678,0.008843231,-0.0032003638,0.99787027,0.06515156,-0.008653069,-0.06517708,0.9978362
""
0,14:37:22.330893,14:36:02.448633,0,,0.08843444,0.0125793815,0.028164938,0.45980638,-0.34899646,-0.81656563,-0.20750156,-0.93630534,0.28332895,-0.86343575,0.03916228,-0.5029366,,0.06108558,0.009270758,0.03829372,0.062045105,-0.46745148,0.88183856,-0.030887514,0.8822184,0.46982607,-0.9975953,-0.05638814,0.04029894,,0.08370481,1.2907671,0.42626604,0.9937998,0.08369069,-0.073196925,0.013415747,-0.74379134,-0.66827726,-0.11037182,0.6631518,-0.74030244,,-0.080563284,0.245329,-0.119749255,-0.37263167,0.35026956,0.8593351,-0.7616198,-0.6444927,-0.06756093,0.5301707,-0.679662,0.5069306,,-0.061449014,0.4295486,-0.35843897,0.09644249,0.42418534,-0.90042526,-0.7608918,0.61462176,0.20804751,0.64167166,0.6650616,0.3820348,,1.190212145109733,0.3594546016307798,0.20352660403000003,-1.3002873395475354,0.5455895435634037,0.6767207701503898,-0.4184874974360234,,-1.3091190631741678,0.17067239652036167,0.17808950536,0.9849136645468108,0.9529029493641817,-0.44402423682577064,0.8698071521650369,,-0.06878124415953153,-0.05048146695237099,0.0911007994,-0.09256525236364105,,8.505955e-05,9.596348e-06,4.7683716e-06,0.99999994,-5.554408e-05,-4.9747527e-05,5.554408e-05,1.0,-8.285046e-06,4.9747527e-05,8.314848e-06,1.0,34,0.102,0,0,0.0,False,-0.25791197091247,1.0449283682846786
0.12736105197109282,14:37:22.366567,14:36:02.448633,0,,0.08841605,0.012901172,0.028896019,0.45524806,-0.3466925,-0.8200936,-0.18631199,-0.93777823,0.29301843,-0.8706533,0.019397259,-0.4915148,,0.0611171,0.009284587,0.038303852,0.062236022,-0.46763697,0.88172686,-0.030810773,0.8821182,0.47001922,-0.9975858,-0.056418777,0.040491283,,0.08370481,1.2907671,0.42626604,0.9937998,0.08369069,-0.073196925,0.013415747,-0.74379134,-0.66827726,-0.11037182,0.6631518,-0.74030244,,-0.080617994,0.2460563,-0.120075405,-0.36754847,0.3498989,0.86167216,-0.7503798,-0.65891796,-0.052509863,0.54939806,-0.6658813,0.5047414,,-0.061482415,0.42956045,-0.3584333,0.096248716,0.4243782,-0.9003551,-0.7608627,0.61456084,0.20833352,0.6417352,0.66499484,0.38204423,,1.191903423609188,0.36201854894502233,0.20323493878,-1.306787727795556,0.5654018360293926,0.6678345819869189,-0.4183241533698894,,-1.3093275769617718,0.1706801192532359,0.17810117197000003,0.9849136645468108,0.9529029493641817,-0.443779200605349,0.8699704962311713,,-0.06878124415953153,-0.05048146695237099,0.0911007994,-0.09256525236364105,,8.505955e-05,9.596348e-06,4.7683716e-06,0.99999994,-5.554408e-05,-4.9747527e-05,5.554408e-05,1.0,-8.285046e-06,4.9747527e-05,8.314848e-06,1.0,46,0.139,0,0,0.0,False,-0.25791197091247,1.044976648485458
0.16305730701424181,14:37:22.397838,14:36:02.448633,0,,0.08850682,0.013303056,0.029492542,0.44918737,-0.3493803,-0.8222919,-0.17573744,-0.9369396,0.30209365,-0.8759835,0.008810878,-0.4822607,,0.061144866,0.009296031,0.038309336,0.062212594,-0.4676354,0.8817293,-0.030784458,0.8821212,0.4700153,-0.99758804,-0.056384355,0.040483177,,0.08370481,1.2907671,0.42626604,0.9937998,0.08369069,-0.073196925,0.013415747,-0.74379134,-0.66827726,-0.11037182,0.6631518,-0.74030244,,-0.08076892,0.24674578,-0.1202411,-0.3610765,0.35359204,0.8629,-0.74565685,-0.6651612,-0.039452393,0.5600175,-0.65767264,0.5038324,,-0.061511245,0.42956787,-0.35842654,0.09627082,0.4243711,-0.9003561,-0.7608434,0.61458784,0.20832457,0.6417548,0.6649744,0.38204682,,1.193409356519662,0.36482190097836587,0.20304697673000002,-1.305319898191164,0.5766060290101588,0.6632723233316837,-0.4186508415021577,,-1.3094974770850047,0.17068784198611012,0.17811283858000002,0.9851233544902954,0.9527663128644163,-0.443586103961512,0.8701338402973056,,-0.06878124415953153,-0.05048146695237099,0.0911007994,-0.09256525236364105,,8.505955e-05,9.596348e-06,4.7683716e-06,0.99999994,-5.554408e-05,-4.9747527e-05,5.554408e-05,1.0,-8.285046e-06,4.9747527e-05,8.314848e-06,1.0,57,0.171,0,0,0.0,False,-0.25856732581620134,1.0457491316979295
0.19432634697295725,14:37:22.428228,14:36:02.543914,0,,0.08864751,0.013762869,0.030058429,0.43775594,-0.3526316,-0.82705534,-0.16975299,-0.93574846,0.30912566,-0.88292336,0.0050736666,-0.46948984,,0.06116885,0.009304793,0.038314164,0.062349774,-0.4676795,0.8816962,-0.030741543,0.882096,0.47006547,-0.9975808,-0.056413144,0.04062128,,0.08370481,1.2907671,0.42626604,0.9937998,0.08369069,-0.073196925,0.013415747,-0.74379134,-0.66827726,-0.11037182,0.6631518,-0.74030244,,-0.08096697,0.24745433,-0.120341964,-0.34907058,0.35718098,0.8663553,-0.7450374,-0.6665394,-0.025388507,0.5683916,-0.6543295,0.49878246,,-0.061536107,0.4295736,-0.3584216,0.09613217,0.42442045,-0.90034765,-0.76083034,0.61455667,0.20846407,0.64179105,0.6649717,0.38199064,,1.1948689530328904,0.3677102030733258,0.20291086628000002,-1.2950450909604225,0.5869904029923322,0.6664029437507156,-0.41963090589896346,,-1.309644209009615,0.1706801192532359,0.17812320890000002,0.9851233544902954,0.9527663128644163,-0.4435044252213714,0.8706238724957084,,-0.06878124415953153,-0.05048146695237099,0.0911007994,-0.09256525236364105,,8.505955e-05,9.596348e-06,4.7683716e-06,0.99999994,-5.554408e-05,-4.9747527e-05,5.554408e-05,1.0,-8.285046e-06,4.9747527e-05,8.314848e-06,1.0,65,0.196,0,0,0.0,False,-0.2594014138754961,1.046666455512739
0.22471787501126528,14:37:22.450229,14:36:02.543914,0,,0.088773794,0.014213324,0.030529752,0.42966783,-0.35399875,-0.83070475,-0.16436112,-0.9352441,0.3135344,-0.8879026,0.0018200278,-0.460028,,0.06118104,0.009311558,0.03831643,0.06241943,-0.4678865,0.8815814,-0.030708969,0.8819853,0.47027516,-0.99757755,-0.056426734,0.0406847,,0.08370481,1.2907671,0.42626604,0.9937998,0.08369069,-0.073196925,0.013415747,-0.74379134,-0.66827726,-0.11037182,0.6631518,-0.74030244,,-0.08114149,0.24809395,-0.12038019,-0.34057754,0.35885277,0.86904067,-0.7437857,-0.66823715,-0.015555004,0.57514334,-0.65167767,0.4944961,,-0.06154883,0.4295779,-0.35841724,0.096061245,0.4246325,-0.90025526,-0.7608168,0.6145045,0.20866701,0.64181775,0.6648845,0.3820976,,1.1962358767516281,0.3704286050450528,0.20283568146000003,-1.288125322825433,0.5947786834789622,0.6696085358364654,-0.419957594031232,,-1.3097214363383574,0.17068784198611012,0.17812969035,0.9851233544902954,0.9527663128644163,-0.44325938900094985,0.8714405928263798,,-0.06878124415953153,-0.05048146695237099,0.0911007994,-0.09256525236364105,,8.505955e-05,9.596348e-06,4.7683716e-06,0.99999994,-5.554408e-05,-4.9747527e-05,5.554408e-05,1.0,-8.285046e-06,4.9747527e-05,8.314848e-06,1.0,73,0.221,0,0,0.0,False,-0.2586269035347226,1.0464733347096211
0.24669957906007767,14:37:22.479152,14:36:02.543914,0,,0.088851005,0.014480799,0.030751422,0.42712393,-0.35553104,-0.831362,-0.16386393,-0.9346633,0.3155203,-0.8892209,0.0014640093,-0.45747584,,0.061191697,0.009318353,0.03831619,0.062474832,-0.46788,0.88158095,-0.03068167,0.88198864,0.47027072,-0.99757487,-0.056428373,0.04074675,,0.08370481,1.2907671,0.42626604,0.9937998,0.08369069,-0.073196925,0.013415747,-0.74379134,-0.66827726,-0.11037182,0.6631518,-0.74030244,,-0.08124169,0.24843478,-0.12035968,-0.3379217,0.3604081,0.8694337,-0.74411666,-0.66793585,-0.012334119,0.5762806,-0.65112805,0.49389568,,-0.061559666,0.42958063,-0.35841134,0.09600478,0.42462617,-0.90026426,-0.76080513,0.6145046,0.20870961,0.64184004,0.6648885,0.38205314,,1.1970467637034217,0.3719885970856462,0.20281882969,-1.2849799736731653,0.595598502477555,0.6709819969178008,-0.41946756183282896,,-1.3097832182013511,0.17069556471898434,0.17813746809000003,0.9851233544902954,0.9527663128644163,-0.44325938900094985,0.8714405928263798,,-0.06878124415953153,-0.05048146695237099,0.0911007994,-0.09256525236364105,,8.505955e-05,9.596348e-06,4.7683716e-06,0.99999994,-5.554408e-05,-4.9747527e-05,5.554408e-05,1.0,-8.285046e-06,4.9747527e-05,8.314848e-06,1.0,84,0.253,0,0,0.0,False,-0.2591631030014119,1.0463767743080625
0.275643551023677,14:37:22.501253,14:36:02.543914,0,,0.08891985,0.014806323,0.031000629,0.42508227,-0.35804912,-0.83132774,-0.1635811,-0.93370247,0.31849772,-0.8902507,0.0006017983,-0.4554705,,0.061198883,0.009321214,0.03831345,0.06250502,-0.4678712,0.8815835,-0.030677795,0.8819927,0.47026348,-0.99757314,-0.056438804,0.040775746,,0.08370481,1.2907671,0.42626604,0.9937998,0.08369069,-0.073196925,0.013415747,-0.74379134,-0.66827726,-0.11037182,0.6631518,-0.74030244,,-0.08133664,0.24883766,-0.12032122,-0.33579206,0.3629909,0.86918426,-0.7444498,-0.6676206,-0.008789999,0.5770946,-0.65001565,0.4944102,,-0.061566476,0.42957944,-0.3584069,0.09597452,0.42461893,-0.9002709,-0.76080585,0.61449826,0.20872563,0.64184374,0.664899,0.38202873,,1.1981279463058132,0.37380343931108895,0.20281364453000003,-1.2822540044078663,0.595598502477555,0.6711453543980821,-0.41963090589896346,,-1.309814109132848,0.17068784198611012,0.17814394954,0.9851233544902954,0.9527663128644163,-0.44325938900094985,0.8714405928263798,,-0.06878124415953153,-0.05048146695237099,0.0911007994,-0.09256525236364105,,8.505955e-05,9.596348e-06,4.7683716e-06,0.99999994,-5.554408e-05,-4.9747527e-05,5.554408e-05,1.0,-8.285046e-06,4.9747527e-05,8.314848e-06,1.0,92,0.278,0,0,0.0,False,-0.2584481703791588,1.046425054508842
0.2977548339404166,14:37:22.532488,14:36:02.658043,0,,0.088949606,0.015041225,0.03117548,0.42374456,-0.35996935,-0.83118147,-0.16366574,-0.9329641,0.3206111,-0.8908727,0.00017887354,-0.4542532,,0.061201442,0.00932324,0.038311064,0.062512144,-0.46787,0.8815837,-0.030675232,0.8819933,0.47026247,-0.99757266,-0.056439817,0.040783316,,0.08370481,1.2907671,0.42626604,0.9937998,0.08369069,-0.073196925,0.013415747,-0.74379134,-0.66827726,-0.11037182,0.6631518,-0.74030244,,-0.08138486,0.24912648,-0.12029112,-0.3343999,0.36493763,0.8689058,-0.74483335,-0.66721964,-0.0064202957,0.577408,-0.64933693,0.4949359,,-0.061568722,0.4295786,-0.35840365,0.0959673,0.4246178,-0.9002722,-0.7608049,0.6144977,0.20873052,0.6418459,0.6649002,0.38202298,,1.1990006151206005,0.3750467993038391,0.20281494082,-1.2803667949165056,0.5951885929782587,0.671152893148609,-0.42028428216350067,,-1.3098218318657222,0.17068784198611012,0.17814783841,0.9851233544902954,0.9527663128644163,-0.44325938900094985,0.8714405928263798,,-0.06878124415953153,-0.05048146695237099,0.0911007994,-0.09256525236364105,,8.505955e-05,9.596348e-06,4.7683716e-06,0.99999994,-5.554408e-05,-4.9747527e-05,5.554408e-05,1.0,-8.285046e-06,4.9747527e-05,8.314848e-06,1.0,100,0.303,0,0,0.0,False,-0.2589843698458485,1.0463767743080625
0.3289745410438627,14:37:22.558177,14:36:02.658043,0,,0.088941656,0.015128396,0.031239495,0.42564654,-0.35840216,-0.8308867,-0.16172665,-0.9335656,0.31984326,-0.8903199,-0.0017635524,-0.45533225,,0.06120107,0.00932482,0.03831017,0.062404428,-0.46773484,0.881663,-0.030592382,0.8820733,0.4701178,-0.9975821,-0.05630955,0.04073614,,0.08370481,1.2907671,0.42626604,0.9937998,0.08369069,-0.073196925,0.013415747,-0.74379134,-0.66827726,-0.11037182,0.6631518,-0.74030244,,-0.081383765,0.2492344,-0.120280586,-0.3363603,0.36357006,0.8687224,-0.7431589,-0.66907036,-0.0077299406,0.578426,-0.6481988,0.49523902,,-0.061568297,0.42957905,-0.3584019,0.09607072,0.42445996,-0.90033555,-0.7607405,0.6146259,0.20858799,0.6419068,0.66488254,0.38195145,,1.199363583565689,0.37554105420778944,0.20282012598000002,-1.2835121440687736,0.595325229478024,0.6703880453237882,-0.42028428216350044,,-1.309814109132848,0.17070328745185856,0.17814913470000002,0.98533304443378,0.9527663128644163,-0.44325938900094985,0.8714405928263798,,-0.06878124415953153,-0.05048146695237099,0.0911007994,-0.09256525236364105,,8.505955e-05,9.596348e-06,4.7683716e-06,0.99999994,-5.554408e-05,-4.9747527e-05,5.554408e-05,1.0,-8.285046e-06,4.9747527e-05,8.314848e-06,1.0,111,0.335,0,0,0.0,False,-0.2591631030014119,1.0468112961150775
0.35453673102892935,14:37:22.586059,14:36:02.658043,0,,0.088918015,0.0152744055,0.031351432,0.42528826,-0.35929605,-0.8306841,-0.15456864,-0.93317413,0.324491,-0.8917614,-0.009604394,-0.45240402,,0.061202105,0.009325952,0.038308084,0.062404428,-0.46773484,0.881663,-0.030592382,0.8820733,0.4701178,-0.9975821,-0.05630955,0.04073614,,0.08370481,1.2907671,0.42626604,0.9937998,0.08369069,-0.073196925,0.013415747,-0.74379134,-0.66827726,-0.11037182,0.6631518,-0.74030244,,-0.08137211,0.24941903,-0.12026712,-0.33591554,0.36521536,0.8682042,-0.7387807,-0.67394185,-0.00234273,0.58426356,-0.6421994,0.49620157,,-0.061569046,0.42957813,-0.35839957,0.09607072,0.42445996,-0.90033555,-0.7607405,0.6146259,0.20858799,0.6419068,0.66488254,0.38195145,,1.199811502072394,0.3762438228993439,0.20285512581,-1.2870768731080104,0.6013372354677035,0.6645055126794588,-0.4206109702957689,,-1.309814109132848,0.17070328745185856,0.17815172728,0.98533304443378,0.9527663128644163,-0.44325938900094985,0.8714405928263798,,-0.06878124415953153,-0.05048146695237099,0.0911007994,-0.09256525236364105,,8.505955e-05,9.596348e-06,4.7683716e-06,0.99999994,-5.554408e-05,-4.9747527e-05,5.554408e-05,1.0,-8.285046e-06,4.9747527e-05,8.314848e-06,1.0,118,0.356,0,0,0.0,False,-0.259282258438454,1.0461353733041652
0.3824856779538095,14:37:22.616695,14:36:02.658043,0,,0.08893411,0.015432984,0.031425938,0.4272449,-0.3570322,-0.8306562,-0.1476529,-0.9339478,0.32548425,-0.891998,-0.016412616,-0.4517414,,0.06120368,0.009325952,0.03830558,0.062406074,-0.46773112,0.8816649,-0.030598998,0.88207483,0.47011447,-0.9975817,-0.05631599,0.040734768,,0.08370481,1.2907671,0.42626604,0.9937998,0.08369069,-0.073196925,0.013415747,-0.74379134,-0.66827726,-0.11037182,0.6631518,-0.74030244,,-0.08139647,0.24958524,-0.12021485,-0.33788958,0.36362633,0.8681051,-0.7339416,-0.67921156,-0.0011658153,0.5892031,-0.6375324,0.49637902,,-0.061570223,0.4295761,-0.35839784,0.09606938,0.42445725,-0.900337,-0.76074487,0.61462164,0.20858447,0.6419018,0.6648882,0.38195,,1.2000663522572435,0.37710876898125706,0.20291475515000001,-1.2929481915255772,0.6058462399599629,0.6609104005976174,-0.4201209380973663,,-1.309814109132848,0.17069556471898434,0.17815431986000002,0.98533304443378,0.9527663128644163,-0.44325938900094985,0.8714405928263798,,-0.06878124415953153,-0.05048146695237099,0.0911007994,-0.09256525236364105,,8.505955e-05,9.596348e-06,4.7683716e-06,0.99999994,-5.554408e-05,-4.9747527e-05,5.554408e-05,1.0,-8.285046e-06,4.9747527e-05,8.314848e-06,1.0,129,0.389,0,0,0.0,False,-0.25910352528289105,1.0458456920994883
0.4132002380210906,14:37:22.642974,14:36:02.658043,0,,0.08905892,0.01570744,0.031500086,0.42527732,-0.36001915,-0.83037657,-0.14824152,-0.9327971,0.32850277,-0.8928402,-0.016608417,-0.4500673,,0.061205722,0.009326489,0.03830701,0.062420335,-0.46772859,0.8816652,-0.030593723,0.882076,0.47011253,-0.9975809,-0.056318015,0.040749937,,0.08370481,1.2907671,0.42626604,0.9937998,0.08369069,-0.073196925,0.013415747,-0.74379134,-0.66827726,-0.11037182,0.6631518,-0.74030244,,-0.081529826,0.24982966,-0.12007744,-0.3358456,0.36660987,0.86764336,-0.7348019,-0.6782783,0.0021708822,0.5892995,-0.63681686,0.4971824,,-0.06157248,0.4295772,-0.35839823,0.09605493,0.424455,-0.9003396,-0.760743,0.61462057,0.20859425,0.64190614,0.6648906,0.38193852,,1.2003675388393382,0.37852202909724014,0.20300938432,-1.2895931524298248,0.6058462399599629,0.6609920793377579,-0.42028428216350044,,-1.3098295545985965,0.17069556471898434,0.17815431986000002,0.98533304443378,0.9527663128644163,-0.44325938900094985,0.8714405928263798,,-0.06878124415953153,-0.05048146695237099,0.0911007994,-0.09256525236364105,,8.505955e-05,9.596348e-06,4.7683716e-06,0.99999994,-5.554408e-05,-4.9747527e-05,5.554408e-05,1.0,-8.285046e-06,4.9747527e-05,8.314848e-06,1.0,140,0.421,0,0,0.0,False,-0.2593418361569748,1.045797411898709
0.43947894987650216,14:37:22.671267,14:36:02.798632,0,,0.089146,0.01591365,0.03157963,0.42424682,-0.36175096,-0.8301511,-0.1481303,-0.9321154,0.3304818,-0.8933488,-0.01723519,-0.44903338,,0.061204657,0.009327919,0.03830558,0.06241155,-0.46773356,0.8816632,-0.030589819,0.8820739,0.47011682,-0.99758166,-0.056310564,0.04074374,,0.08370481,1.2907671,0.42626604,0.9937998,0.08369069,-0.073196925,0.013415747,-0.74379134,-0.66827726,-0.11037182,0.6631518,-0.74030244,,-0.08162568,0.25002962,-0.11999224,-0.33477154,0.36838925,0.8673047,-0.734986,-0.6780686,0.0043131113,0.58968097,-0.63601285,0.497759,,-0.061571293,0.4295773,-0.35839632,0.096063495,0.42445883,-0.90033686,-0.76073956,0.61462533,0.20859288,0.64190894,0.66488373,0.3819457,,1.200668725421433,0.37963410263112846,0.20306382850000002,-1.2879156328819485,0.6059828764597284,0.6608806614340615,-0.42028428216350044,,-1.3098218318657222,0.17070328745185856,0.17815561615000003,0.98533304443378,0.9527663128644163,-0.44325938900094985,0.8714405928263798,,-0.06878124415953153,-0.05048146695237099,0.0911007994,-0.09256525236364105,,8.505955e-05,9.596348e-06,4.7683716e-06,0.99999994,-5.554408e-05,-4.9747527e-05,5.554408e-05,1.0,-8.285046e-06,4.9747527e-05,8.314848e-06,1.0,151,0.454,0,0,0.0,False,-0.2588652144088064,1.0454594504932526
0.4677604869939387,14:37:22.700946,14:36:02.798632,0,,0.089316994,0.016372353,0.031774268,0.42160934,-0.36585045,-0.829698,-0.14932275,-0.93051636,0.33442765,-0.8943983,-0.017104924,-0.4469443,,0.061207257,0.009328217,0.03830391,0.062420335,-0.46772859,0.8816652,-0.030593723,0.882076,0.47011253,-0.9975809,-0.056318015,0.040749937,,0.08370481,1.2907671,0.42626604,0.9937998,0.08369069,-0.073196925,0.013415747,-0.74379134,-0.66827726,-0.11037182,0.6631518,-0.74030244,,-0.081817985,0.25048786,-0.11981736,-0.33203644,0.37244537,0.86662346,-0.7363856,-0.67650735,0.008602584,0.5894812,-0.6353127,0.4988885,,-0.0615736,0.4295758,-0.35839477,0.09605493,0.424455,-0.9003396,-0.760743,0.61462057,0.20859425,0.64190614,0.6648906,0.38193852,,1.2015413942362203,0.38205904075363495,0.20316882799000002,-1.2830927641818046,0.6050264209613704,0.6616605867599364,-0.42028428216350044,,-1.3098295545985965,0.17069556471898434,0.17815820873000002,0.98533304443378,0.9527663128644163,-0.44325938900094985,0.8714405928263798,,-0.06878124415953153,-0.05048146695237099,0.0911007994,-0.09256525236364105,,8.505955e-05,9.596348e-06,4.7683716e-06,0.99999994,-5.554408e-05,-4.9747527e-05,5.554408e-05,1.0,-8.285046e-06,4.9747527e-05,8.314848e-06,1.0,155,0.466,0,0,0.0,False,-0.2594014138754961,1.044735247481561
0.4974478909280151,14:37:22.723094,14:36:02.798632,0,,0.08944045,0.01685793,0.032037362,0.41993856,-0.36844242,-0.8293984,-0.14791611,-0.9294511,0.33799618,-0.89541745,-0.019256085,-0.44481105,,0.061207168,0.009331615,0.03830254,0.062417034,-0.46766397,0.88169974,-0.03058067,0.8821113,0.47004715,-0.9975816,-0.056301802,0.0407573,,0.08370481,1.2907671,0.42626604,0.9937998,0.08369069,-0.073196925,0.013415747,-0.74379134,-0.66827726,-0.11037182,0.6631518,-0.74030244,,-0.081969775,0.25101498,-0.119678274,-0.33028504,0.37522554,0.8660933,-0.73590344,-0.6769683,0.012652112,0.5910651,-0.6331822,0.49972227,,-0.06157348,0.42957708,-0.35839137,0.09605761,0.4243869,-0.90037143,-0.7607343,0.6146461,0.20855106,0.6419161,0.6649105,0.3818871,,1.2027770314960962,0.38463071080075173,0.20325179055000003,-1.2809958647469593,0.6054363304606666,0.6614080117889878,-0.42012093809736606,,-1.3098295545985965,0.17071101018473278,0.17816080131,0.98533304443378,0.9527663128644163,-0.4433410677410903,0.8709505606279769,,-0.06878124415953153,-0.05048146695237099,0.0911007994,-0.09256525236364105,,8.505955e-05,9.596348e-06,4.7683716e-06,0.99999994,-5.554408e-05,-4.9747527e-05,5.554408e-05,1.0,-8.285046e-06,4.9747527e-05,8.314848e-06,1.0,166,0.499,0,0,0.0,False,-0.2585077480976805,1.0443972860761046
0.519533596932888,14:37:22.751370,14:36:02.798632,0,,0.089470476,0.017199956,0.032237217,0.421061,-0.36733717,-0.82931954,-0.14371711,-0.9297909,0.3388719,-0.8955741,-0.023498237,-0.4442914,,0.061206527,0.009336085,0.038301587,0.06241206,-0.46774706,0.881656,-0.030561,0.8820683,0.47012922,-0.99758255,-0.056285977,0.04075688,,0.08370481,1.2907671,0.42626604,0.9937998,0.08369069,-0.073196925,0.013415747,-0.74379134,-0.66827726,-0.11037182,0.6631518,-0.74030244,,-0.08202143,0.25139993,-0.11959485,-0.33141708,0.3745383,0.8659583,-0.7329694,-0.68012476,0.013642924,0.5940695,-0.63019943,0.49993008,,-0.061572928,0.42957944,-0.35838744,0.09606164,0.42446864,-0.90033245,-0.7607212,0.61464167,0.2086118,0.64193106,0.6648624,0.38194576,,1.2038427686327393,0.3863992166289491,0.20331401247000003,-1.284141213899227,0.6070759684578518,0.6601526756847714,-0.42028428216350067,,-1.3098295545985965,0.17073417838335547,0.17816339389000002,0.98533304443378,0.9527663128644163,-0.44325938900094974,0.8707872165618427,,-0.06878124415953153,-0.05048146695237099,0.0911007994,-0.09256525236364105,,8.505955e-05,9.596348e-06,4.7683716e-06,0.99999994,-5.554408e-05,-4.9747527e-05,5.554408e-05,1.0,-8.285046e-06,4.9747527e-05,8.314848e-06,1.0,173,0.52,0,0,0.0,False,-0.25963972474957986,1.0439627642690894
0.5478722988627851,14:37:22.772292,14:36:02.798632,0,,0.089483075,0.017541438,0.032450303,0.41979557,-0.36889446,-0.8292698,-0.1393671,-0.92904025,0.34272575,-0.8968548,-0.028301805,-0.44141883,,0.061208487,0.009340019,0.038301647,0.062423002,-0.46775195,0.88165265,-0.030542731,0.88206637,0.47013396,-0.9975824,-0.05627519,0.040774852,,0.08370481,1.2907671,0.42626604,0.9937998,0.08369069,-0.073196925,0.013415747,-0.74379134,-0.66827726,-0.11037182,0.6631518,-0.74030244,,-0.08205704,0.25179455,-0.11952278,-0.33006495,0.37654752,0.8656033,-0.7305049,-0.6826592,0.018414412,0.597846,-0.62624943,0.50039166,,-0.061575066,0.4295818,-0.35838443,0.096049875,0.42447183,-0.9003322,-0.7607106,0.61464906,0.20862861,0.6419453,0.6648535,0.38193718,,1.2049780103652503,0.3880596041969074,0.20337623439000002,-1.2847702837296808,0.610218607952457,0.6574267064194725,-0.42028428216350044,,-1.309845000064345,0.17074962384910392,0.17816598647,0.98533304443378,0.9527663128644163,-0.44325938900094974,0.8707872165618427,,-0.06878124415953153,-0.05048146695237099,0.0911007994,-0.09256525236364105,,8.505955e-05,9.596348e-06,4.7683716e-06,0.99999994,-5.554408e-05,-4.9747527e-05,5.554408e-05,1.0,-8.285046e-06,4.9747527e-05,8.314848e-06,1.0,184,0.552,0,0,0.0,False,-0.25922268071993226,1.0438662038675306
0.5687969860155135,14:37:22.801686,14:36:02.798632,0,,0.08947283,0.018008076,0.032748386,0.4201223,-0.36874104,-0.8291727,-0.13259569,-0.9288589,0.3458893,-0.8977281,-0.035371006,-0.43912786,,0.061209254,0.00935039,0.03829831,0.062420182,-0.46748477,0.8817946,-0.030500859,0.8822112,0.46986476,-0.9975838,-0.056224436,0.040809184,,0.08370481,1.2907671,0.42626604,0.9937998,0.08369069,-0.073196925,0.013415747,-0.74379134,-0.66827726,-0.11037182,0.6631518,-0.74030244,,-0.082079016,0.2523403,-0.1194312,-0.33035412,0.3770773,0.8652623,-0.72608304,-0.6872459,0.022282638,0.60305023,-0.6208911,0.5008239,,-0.06157584,0.42958614,-0.35837445,0.09605071,0.42419288,-0.9004636,-0.7606834,0.614742,0.20845373,0.64197737,0.6649456,0.3817229,,1.2066692888647055,0.39033781039480364,0.20345790066000002,-1.2885447027124022,0.6139077934461239,0.6540100293189666,-0.42044762622963494,,-1.309852722797219,0.17079596024634924,0.17817376421000003,0.98533304443378,0.9527663128644163,-0.443586103961512,0.8701338402973056,,-0.06878124415953153,-0.05048146695237099,0.0911007994,-0.09256525236364105,,8.505955e-05,9.596348e-06,4.7683716e-06,0.99999994,-5.554408e-05,-4.9747527e-05,5.554408e-05,1.0,-8.285046e-06,4.9747527e-05,8.314848e-06,1.0,195,0.585,0,0,0.0,False,-0.2591631030014119,1.0445904068792222
0.598181976005435,14:37:22.839783,14:36:02.798632,0,,0.0894607,0.018699706,0.033193693,0.4153371,-0.3738547,-0.8292935,-0.12527046,-0.92646533,0.35492134,-0.9010008,-0.043525904,-0.43162847,,0.06120702,0.009368361,0.038294673,0.06250637,-0.46773997,0.881653,-0.030498505,0.8820727,0.47012493,-0.9975785,-0.0562748,0.040869802,,0.08370481,1.2907671,0.42626604,0.9937998,0.08369069,-0.073196925,0.013415747,-0.74379134,-0.66827726,-0.11037182,0.6631518,-0.74030244,,-0.08211498,0.2531513,-0.11929786,-0.3253274,0.38293856,0.8645925,-0.72249055,-0.6905446,0.0339931,0.61005694,-0.613601,0.50132257,,-0.061574,0.42959574,-0.35835874,0.09596474,0.4244597,-0.900347,-0.760691,0.61465174,0.20869218,0.64198124,0.66485876,0.3818676,,1.2092100679803253,0.39352729907185835,0.2035823445,-1.2866574932210415,0.6200564359355687,0.6489962236526275,-0.42044762622963494,,-1.3098604455300933,0.17088091030796573,0.17818413453,0.9851233544902954,0.9527663128644163,-0.44350442522137146,0.8699704962311713,,-0.06878124415953153,-0.05048146695237099,0.0911007994,-0.09256525236364105,,8.505955e-05,9.596348e-06,4.7683716e-06,0.99999994,-5.554408e-05,-4.9747527e-05,5.554408e-05,1.0,-8.285046e-06,4.9747527e-05,8.314848e-06,1.0,206,0.618,0,0,0.0,False,-0.25922268071993226,1.0439627642690894
0.6362880598753691,14:37:22.866814,14:36:02.974613,0,,0.08946724,0.0192217,0.033516154,0.4114106,-0.37729466,-0.82969266,-0.119415104,-0.9247655,0.36131504,-0.90359354,-0.049570948,-0.42551315,,0.06120501,0.00938514,0.03829044,0.062488142,-0.4677087,0.88167095,-0.030426383,0.882094,0.4700896,-0.99758184,-0.05620101,0.04088974,,0.08370481,1.2907671,0.42626604,0.9937998,0.08369069,-0.073196925,0.013415747,-0.74379134,-0.66827726,-0.11037182,0.6631518,-0.74030244,,-0.08215642,0.25375322,-0.11918611,-0.3212106,0.38693485,0.86435246,-0.7195963,-0.69306976,0.042842325,0.6156337,-0.60822344,0.5010582,,-0.061572228,0.42960405,-0.35834354,0.09597952,0.42441615,-0.90036595,-0.7606429,0.6147152,0.20868061,0.6420361,0.6648279,0.3818292,,1.2110480784043907,0.3959831281258617,0.20369123286000002,-1.2847702837296808,0.625385259426421,0.6457944277704348,-0.42028428216350056,,-1.3098604455300933,0.1709658603695822,0.17819450485000002,0.9851233544902954,0.9527663128644163,-0.443586103961512,0.8701338402973056,,-0.06878124415953153,-0.05048146695237099,0.0911007994,-0.09256525236364105,,8.505955e-05,9.596348e-06,4.7683716e-06,0.99999994,-5.554408e-05,-4.9747527e-05,5.554408e-05,1.0,-8.285046e-06,4.9747527e-05,8.314848e-06,1.0,217,0.652,0,0,0.0,False,-0.2598184579051428,1.0442041652729868
0.663274368038401,14:37:22.900262,14:36:02.974613,0,,0.08950172,0.019781627,0.033907577,0.4059624,-0.38004738,-0.83111876,-0.11202976,-0.9232662,0.36746255,-0.9069972,-0.056065828,-0.4173881,,0.06120462,0.009399415,0.038287222,0.06248035,-0.46774074,0.8816545,-0.03036493,0.8820807,0.4701187,-0.9975842,-0.056144476,0.040909827,,0.08370481,1.2907671,0.42626604,0.9937998,0.08369069,-0.073196925,0.013415747,-0.74379134,-0.66827726,-0.11037182,0.6631518,-0.74030244,,-0.0822326,0.25442725,-0.11909804,-0.31551173,0.3902921,0.86494184,-0.71599996,-0.6960916,0.05291993,0.622733,-0.60260147,0.49907422,,-0.06157207,0.4296112,-0.35833076,0.095984384,0.42443958,-0.9003544,-0.76060265,0.61475265,0.20871712,0.64208305,0.66477835,0.3818365,,1.212878366095582,0.39866291643321766,0.20377808429000002,-1.2822540044078663,0.6324903574142238,0.6440029550451086,-0.42028428216350056,,-1.3098681682629676,0.17103536496545022,0.17820357888000002,0.9851233544902954,0.9527663128644163,-0.443586103961512,0.8701338402973056,,-0.06878124415953153,-0.05048146695237099,0.0911007994,-0.09256525236364105,,8.505955e-05,9.596348e-06,4.7683716e-06,0.99999994,-5.554408e-05,-4.9747527e-05,5.554408e-05,1.0,-8.285046e-06,4.9747527e-05,8.314848e-06,1.0,228,0.685,0,0,0.0,False,-0.25880563669028556,1.0443972860761046
0.6967483670450747,14:37:22.936040,14:36:02.974613,0,,0.0895879,0.020667471,0.034515783,0.39360648,-0.38548863,-0.8345492,-0.09960249,-0.92036915,0.37815344,-0.91386724,-0.06572038,-0.40065897,,0.06120622,0.009415955,0.03828472,0.062485166,-0.46770188,0.88167477,-0.030291587,0.88210535,0.4700771,-0.9975862,-0.056080133,0.040951103,,0.08370481,1.2907671,0.42626604,0.9937998,0.08369069,-0.073196925,0.013415747,-0.74379134,-0.66827726,-0.11037182,0.6631518,-0.74030244,,-0.08238355,0.2554841,-0.118948445,-0.30263853,0.39662084,0.8666613,-0.71048635,-0.6999928,0.072244115,0.6353102,-0.5938872,0.49363852,,-0.061574116,0.42962012,-0.3583167,0.095976144,0.42438993,-0.9003787,-0.76055616,0.6148103,0.20871669,0.6421394,0.6647567,0.3817795,,1.215604490800183,0.4029026967811669,0.20394271312,-1.2738664066684855,0.646837189889595,0.6427589538949763,-0.4206109702957691,,-1.3098913364615903,0.17111259229419246,0.17821394920000003,0.9851233544902954,0.9527663128644163,-0.4436677827016525,0.8702971843634398,,-0.06878124415953153,-0.05048146695237099,0.0911007994,-0.09256525236364105,,8.505955e-05,9.596348e-06,4.7683716e-06,0.99999994,-5.554408e-05,-4.9747527e-05,5.554408e-05,1.0,-8.285046e-06,4.9747527e-05,8.314848e-06,1.0,236,0.708,0,0,0.0,False,-0.2588652144088064,1.0445421266784427
0.7325363759882748,14:37:22.955388,14:36:02.974613,0,,0.089642644,0.021133773,0.03485404,0.38704294,-0.38904554,-0.83596724,-0.0942117,-0.9185691,0.38386822,-0.91723603,-0.06981552,-0.39217842,,0.061205577,0.009420396,0.038283765,0.06248019,-0.46764097,0.88170743,-0.030271888,0.8821391,0.47001505,-0.99758697,-0.056057513,0.040959835,,0.08370481,1.2907671,0.42626604,0.9937998,0.08369069,-0.073196925,0.013415747,-0.74379134,-0.66827726,-0.11037182,0.6631518,-0.74030244,,-0.082474105,0.2560518,-0.11888243,-0.2958187,0.40054423,0.8672114,-0.70826924,-0.70113605,0.082236834,0.6409727,-0.58989197,0.4911023,,-0.061573565,0.42962247,-0.35831276,0.095980175,0.42432457,-0.90040904,-0.760543,0.61484003,0.20867701,0.6421543,0.66477096,0.38172954,,1.2171027009777828,0.40518862571193737,0.20401141649,-1.2686241580813724,0.6532591053785708,0.642423036829678,-0.42028428216350056,,-1.3098913364615903,0.17113576049281515,0.17821654178000002,0.9851233544902954,0.9527663128644163,-0.44374946144179317,0.8704605284295741,,-0.06878124415953153,-0.05048146695237099,0.0911007994,-0.09256525236364105,,8.505955e-05,9.596348e-06,4.7683716e-06,0.99999994,-5.554408e-05,-4.9747527e-05,5.554408e-05,1.0,-8.285046e-06,4.9747527e-05,8.314848e-06,1.0,247,0.741,0,0,0.0,False,-0.2585077480976805,1.044638687080002
0.7518716510385275,14:37:22.994791,14:36:02.974613,0,,0.089751616,0.02190099,0.03537239,0.37505412,-0.39832827,-0.8370597,-0.09105486,-0.91443735,0.39435154,-0.92252016,-0.07168475,-0.37923333,,0.06120655,0.009425701,0.038281202,0.062400974,-0.4676733,0.88169587,-0.030359477,0.8821193,0.47004655,-0.99758935,-0.056099117,0.040846825,,0.08370481,1.2907671,0.42626604,0.9937998,0.08369069,-0.073196925,0.013415747,-0.74379134,-0.66827726,-0.11037182,0.6631518,-0.74030244,,-0.082638204,0.2569591,-0.11874436,-0.28339788,0.40993437,0.86697143,-0.7086064,-0.6986637,0.0987215,0.6461908,-0.58636403,0.48848194,,-0.061574396,0.42962396,-0.35830706,0.0960632,0.42436403,-0.9003816,-0.7605908,0.6148013,0.20861685,0.64208525,0.6647816,0.38182715,,1.21962031189478,0.4088337556285713,0.20413067517000003,-1.2552040016983628,0.6592711113682501,0.6433198396170154,-0.4197942499650975,,-1.3098990591944644,0.1711589286914378,0.17822043065,0.9851233544902954,0.9526296763646508,-0.44371972227823725,0.8702971843634398,,-0.06878124415953153,-0.05048146695237099,0.0911007994,-0.09256525236364105,,8.505955e-05,9.596348e-06,4.7683716e-06,0.99999994,-5.554408e-05,-4.9747527e-05,5.554408e-05,1.0,-8.285046e-06,4.9747527e-05,8.314848e-06,1.0,254,0.761,0,0,0.0,False,-0.2585077480976805,1.0446869672807815
0.7912771049886942,14:37:23.015515,14:36:02.974613,0,,0.08980908,0.022409111,0.03573732,0.36726594,-0.40391058,-0.8378376,-0.08806226,-0.9118421,0.40098506,-0.92593783,-0.07348618,-0.37045792,,0.06120604,0.009425969,0.038279474,0.062393837,-0.46760255,0.8817339,-0.03036207,0.8821571,0.46997547,-0.9975897,-0.056094766,0.040843815,,0.08370481,1.2907671,0.42626604,0.9937998,0.08369069,-0.073196925,0.013415747,-0.74379134,-0.66827726,-0.11037182,0.6631518,-0.74030244,,-0.08273433,0.25757545,-0.11866986,-0.27533728,0.41564605,0.8668493,-0.7081163,-0.6975461,0.10954785,0.65020055,-0.5836675,0.48638618,,-0.06157364,0.42962295,-0.35830572,0.09607042,0.4242916,-0.90041494,-0.7605917,0.6148189,0.20856175,0.6420831,0.66481155,0.3817786,,1.2213888177229772,0.4112586937510778,0.20420067483,-1.2470260939024662,0.6637801158605097,0.6438086645422023,-0.4193042177666948,,-1.3098913364615903,0.1711589286914378,0.17822172694000002,0.9851233544902954,0.9526296763646508,-0.4438014010183778,0.8704605284295741,,-0.06878124415953153,-0.05048146695237099,0.0911007994,-0.09256525236364105,,8.505955e-05,9.596348e-06,4.7683716e-06,0.99999994,-5.554408e-05,-4.9747527e-05,5.554408e-05,1.0,-8.285046e-06,4.9747527e-05,8.314848e-06,1.0,265,0.794,0,0,0.0,False,-0.2586269035347226,1.044880088083899
0.8120175679214299,14:37:23.046849,14:36:03.164508,0,,0.08993538,0.023284793,0.036404565,0.35896683,-0.40513286,-0.840839,-0.077595085,-0.9107176,0.4056752,-0.9301193,-0.08037889,-0.35835382,,0.061225705,0.009399449,0.038278043,0.062424574,-0.46746492,0.8818048,-0.030336648,0.8822309,0.46983847,-0.9975886,-0.05608043,0.040891558,,0.08364596,1.2907736,0.42627457,0.99379915,0.0837289,-0.073162585,0.013466814,-0.74378705,-0.668281,-0.11037182,0.6631518,-0.74030244,,-0.08287731,0.25866294,-0.11856296,-0.26674354,0.41756755,0.8686111,-0.7025645,-0.70119953,0.121335804,0.65973556,-0.57788974,0.48040858,,-0.061536245,0.42960522,-0.35831657,0.096045665,0.42410374,-0.90050614,-0.76057863,0.61486995,0.20845874,0.6421023,0.66488415,0.38161984,,1.2248717702492526,0.41555253322914665,0.20435752592000003,-1.2422032252023223,0.6730713978445597,0.6459520171675726,-0.41979424996509773,,-1.309914504660213,0.17116665142431203,0.17822691210000002,0.9851233544902954,0.9526296763646508,-0.44396475849865885,0.8704605284295741,,-0.06878124415953153,-0.05048146695237099,0.0911007994,-0.09256525236364105,,2.573058e-05,5.4240227e-06,-1.66893e-06,1.0,-1.7508864e-05,-1.5676022e-05,1.7508864e-05,1.0,-2.6226044e-06,1.5668571e-05,2.6524067e-06,1.0,280,0.839,0,0,0.0,False,-0.2585077480976805,1.0451214890877965
0.8433535099029541,14:37:23.085858,14:36:03.164508,0,,0.08994545,0.024021178,0.036939397,0.34364066,-0.41386464,-0.8429871,-0.072778374,-0.9066899,0.41547167,-0.9362769,-0.081421584,-0.34169596,,0.0612328,0.009404814,0.03827679,0.062458582,-0.46746233,0.8818038,-0.030317187,0.88223237,0.46983695,-0.99758697,-0.05607903,0.040930897,,0.08364596,1.2907736,0.42627457,0.99379915,0.0837289,-0.073162585,0.013466814,-0.74378705,-0.668281,-0.11037182,0.6631518,-0.74030244,,-0.082944386,0.25956526,-0.11846431,-0.25092873,0.42632997,0.869067,-0.702017,-0.69829196,0.13985866,0.66648847,-0.5750053,0.47451243,,-0.061543323,0.42960677,-0.35831124,0.09601087,0.42410082,-0.9005112,-0.7605697,0.61487156,0.20848668,0.6421181,0.6648845,0.38159257,,1.2277677950770867,0.4186879627760818,0.20448456234,-1.2260570995540139,0.6816794973297824,0.6490608530121277,-0.42044762622963483,,-1.3099608410574581,0.17117437415718625,0.17823468984000002,0.9851233544902954,0.9526296763646508,-0.44396475849865885,0.8704605284295741,,-0.06878124415953153,-0.05048146695237099,0.0911007994,-0.09256525236364105,,2.573058e-05,5.4240227e-06,-1.66893e-06,1.0,-1.7508864e-05,-1.5676022e-05,1.7508864e-05,1.0,-2.6226044e-06,1.5668571e-05,2.6524067e-06,1.0,287,0.86,0,0,0.0,False,-0.25773323775690704,1.0457491316979295
0.882360951974988,14:37:23.115071,14:36:03.164508,0,,0.08992088,0.02467233,0.03741096,0.33313188,-0.41829222,-0.8450177,-0.06793827,-0.904528,0.4209671,-0.94042945,-0.08282846,-0.32974523,,0.06124248,0.009408807,0.038279414,0.062515646,-0.46752414,0.88176686,-0.030296296,0.8821989,0.46990114,-0.9975841,-0.056090385,0.040986985,,0.08364596,1.2907736,0.42627457,0.99379915,0.0837289,-0.073162585,0.013466814,-0.74378705,-0.668281,-0.11037182,0.6631518,-0.74030244,,-0.08297024,0.2603646,-0.118378356,-0.24010277,0.43085715,0.8698924,-0.70045394,-0.6973141,0.1520439,0.6720974,-0.5728134,0.46922264,,-0.06155348,0.42960984,-0.35830936,0.09595305,0.42416534,-0.90048695,-0.76056236,0.6148504,0.20857598,0.64213544,0.664863,0.38160095,,1.230493919781688,0.4214681466108026,0.20459863586000002,-1.2157822923232722,0.6879647763189927,0.6525118971568512,-0.4199575940312317,,-1.3100149001875778,0.17117437415718625,0.17823728242,0.9851233544902954,0.9526296763646508,-0.4438830797585183,0.8706238724957084,,-0.06878124415953153,-0.05048146695237099,0.0911007994,-0.09256525236364105,,2.573058e-05,5.4240227e-06,-1.66893e-06,1.0,-1.7508864e-05,-1.5676022e-05,1.7508864e-05,1.0,-2.6226044e-06,1.5668571e-05,2.6524067e-06,1.0,298,0.892,0,0,0.0,False,-0.25737577144578117,1.0459905327018268
0.9115577030461282,14:37:23.145357,14:36:03.164508,0,,0.08988853,0.025382265,0.037906185,0.32320288,-0.4243606,-0.84584755,-0.063075215,-0.9014915,0.42817572,-0.9442253,-0.08503553,-0.31813136,,0.061250024,0.009413814,0.03828478,0.06256939,-0.46737733,0.8818409,-0.03026241,0.88227737,0.46975592,-0.9975817,-0.05607888,0.041059643,,0.08364596,1.2907736,0.42627457,0.99379915,0.0837289,-0.073162585,0.013466814,-0.74378705,-0.668281,-0.11037182,0.6631518,-0.74030244,,-0.08299106,0.26122385,-0.118271,-0.22988848,0.43708852,0.86954296,-0.6986769,-0.696105,0.1651922,0.6774968,-0.5695538,0.46541017,,-0.06156202,0.42961597,-0.35830867,0.09589791,0.42401466,-0.9005638,-0.76054627,0.6148887,0.20852163,0.64216274,0.6649236,0.3814493,,1.233482617404013,0.4244877351646244,0.20473474631000002,-1.206136554922984,0.6935668728093758,0.6537429536552779,-0.41979424996509773,,-1.3100766820505716,0.1711898196229347,0.17823857871,0.9851233544902954,0.9526296763646508,-0.4440464372387995,0.8709505606279769,,-0.06878124415953153,-0.05048146695237099,0.0911007994,-0.09256525236364105,,2.573058e-05,5.4240227e-06,-1.66893e-06,1.0,-1.7508864e-05,-1.5676022e-05,1.7508864e-05,1.0,-2.6226044e-06,1.5668571e-05,2.6524067e-06,1.0,309,0.925,0,0,0.0,False,-0.25779281547542787,1.0466181753119597
0.94185880292207,14:37:23.176871,14:36:03.164508,0,,0.08990708,0.026068091,0.038445577,0.30971026,-0.4329101,-0.8465627,-0.059435427,-0.897413,0.4371695,-0.94897157,-0.08508,-0.30366823,,0.06125608,0.009417182,0.038288355,0.06261053,-0.4673014,0.88187826,-0.030240268,0.8823179,0.46968132,-0.99757993,-0.056075126,0.04111108,,0.08364596,1.2907736,0.42627457,0.99379915,0.0837289,-0.073162585,0.013466814,-0.74378705,-0.668281,-0.11037182,0.6631518,-0.74030244,,-0.08306666,0.2620911,-0.118209064,-0.21602663,0.44557258,0.86879086,-0.69819117,-0.6925073,0.18155622,0.68254054,-0.5673611,0.46069485,,-0.061568737,0.42961994,-0.35830814,0.09585589,0.42393705,-0.9006048,-0.7605364,0.61490685,0.20850423,0.64218074,0.66495633,0.381362,,1.2363631967660986,0.4275304919170689,0.20482289403,-1.1912485689355827,0.6997155152988206,0.6564886283022925,-0.41897752963442647,,-1.310123018447817,0.17119754235580892,0.17823987500000002,0.9851233544902954,0.9526296763646508,-0.44412811597894,0.8714405928263798,,-0.06878124415953153,-0.05048146695237099,0.0911007994,-0.09256525236364105,,2.573058e-05,5.4240227e-06,-1.66893e-06,1.0,-1.7508864e-05,-1.5676022e-05,1.7508864e-05,1.0,-2.6226044e-06,1.5668571e-05,2.6524067e-06,1.0,320,0.958,0,0,0.0,False,-0.25815028178655464,1.0461353733041652
0.9733708498533815,14:37:23.207042,14:36:03.330916,0,,0.08992106,0.026753359,0.03898947,0.2990871,-0.43365955,-0.849992,-0.053083867,-0.8969481,0.43893754,-0.9527482,-0.08615959,-0.291286,,0.061258122,0.009417718,0.038289785,0.06262479,-0.46722683,0.8819168,-0.030235022,0.8823575,0.4696073,-0.9975791,-0.056073785,0.04113087,,0.08364596,1.2907736,0.42627457,0.99379915,0.0837289,-0.073162585,0.013466814,-0.74378705,-0.668281,-0.11037182,0.6631518,-0.74030244,,-0.083138116,0.26296124,-0.118151136,-0.20513408,0.44641957,0.87099344,-0.6952476,-0.692829,0.19136016,0.68887645,-0.56630164,0.45249498,,-0.061571,0.42962104,-0.35830852,0.09584144,0.42386124,-0.90064204,-0.7605345,0.6149228,0.20846377,0.64218503,0.6649899,0.3812962,,1.239197439730939,0.43068136692975245,0.2049175232,-1.1811834516483257,0.7068206132866234,0.6640902106931307,-0.4179974652376204,,-1.3101384639135654,0.17119754235580892,0.17823987500000002,0.9851233544902954,0.9526296763646508,-0.4442097947190805,0.871603936892514,,-0.06878124415953153,-0.05048146695237099,0.0911007994,-0.09256525236364105,,2.573058e-05,5.4240227e-06,-1.66893e-06,1.0,-1.7508864e-05,-1.5676022e-05,1.7508864e-05,1.0,-2.6226044e-06,1.5668571e-05,2.6524067e-06,1.0,331,0.991,0,0,0.0,False,-0.2579715486309908,1.0463284941072828
1.0035391729325056,14:37:23.237964,14:36:03.330916,0,,0.08993874,0.027580984,0.03966479,0.2863725,-0.4228901,-0.8597411,-0.04465565,-0.90223837,0.4289192,-0.95707715,-0.084438324,-0.27726075,,0.0612627,0.009419417,0.038291633,0.06265332,-0.46722174,0.8819174,-0.030224591,0.8823599,0.4696034,-0.99757767,-0.05607781,0.04116118,,0.08364596,1.2907736,0.42627457,0.99379915,0.0837289,-0.073162585,0.013466814,-0.74378705,-0.668281,-0.11037182,0.6631518,-0.74030244,,-0.08322701,0.26402438,-0.11809473,-0.19212152,0.43557256,0.87941223,-0.6909839,-0.6963646,0.19395275,0.696872,-0.5703972,0.4347602,,-0.06157589,0.4296228,-0.35830817,0.09581252,0.42385674,-0.9006472,-0.7605308,0.61492074,0.20848331,0.64219373,0.6649947,0.38127324,,1.2426649467914659,0.4345272879011163,0.20502641156,-1.1694408148131923,0.7158386222711426,0.6864676904603317,-0.41832415336988915,,-1.3101693548450624,0.17119754235580892,0.17824117129000003,0.9851233544902954,0.9526296763646508,-0.4442097947190805,0.871603936892514,,-0.06878124415953153,-0.05048146695237099,0.0911007994,-0.09256525236364105,,2.573058e-05,5.4240227e-06,-1.66893e-06,1.0,-1.7508864e-05,-1.5676022e-05,1.7508864e-05,1.0,-2.6226044e-06,1.5668571e-05,2.6524067e-06,1.0,339,1.015,0,0,0.0,False,-0.25761408231986493,1.0463767743080625
1.034464854048565,14:37:23.266111,14:36:03.330916,0,,0.08995396,0.027948499,0.039977446,0.28007945,-0.41914442,-0.86363965,-0.040896177,-0.90403926,0.42548853,-0.9591053,-0.08385098,-0.27034432,,0.061261125,0.0094202515,0.038291276,0.06264453,-0.46715468,0.8819536,-0.030220717,0.8823961,0.46953565,-0.99757826,-0.05606705,0.04115957,,0.08364596,1.2907736,0.42627457,0.99379915,0.0837289,-0.073162585,0.013466814,-0.74378705,-0.668281,-0.11037182,0.6631518,-0.74030244,,-0.08327506,0.26450446,-0.118078634,-0.18568909,0.43180072,0.8826481,-0.6891032,-0.69757277,0.19628827,0.70046866,-0.57178706,0.4270869,,-0.061574325,0.42962334,-0.35830742,0.0958211,0.42378703,-0.9006791,-0.7605274,0.6149425,0.2084317,0.64219654,0.665019,0.38122612,,1.244325334359424,0.4363730210580559,0.20507048542000003,-1.1629404265651722,0.720347626763402,0.6962678917615426,-0.418160809303755,,-1.310161632112188,0.17120526508868317,0.17824117129000003,0.9851233544902954,0.9526296763646508,-0.44429147345922115,0.8717672809586483,,-0.06878124415953153,-0.05048146695237099,0.0911007994,-0.09256525236364105,,2.573058e-05,5.4240227e-06,-1.66893e-06,1.0,-1.7508864e-05,-1.5676022e-05,1.7508864e-05,1.0,-2.6226044e-06,1.5668571e-05,2.6524067e-06,1.0,368,1.105,0,0,0.0,False,-0.25815028178655464,1.0462319337057238
1.0626117498613894,14:37:23.352456,14:36:03.330916,0,,0.0900666,0.029684193,0.04142283,0.25798154,-0.43238497,-0.8639958,-0.037455082,-0.8980705,0.43825382,-0.9654236,-0.08070022,-0.24788068,,0.061261635,0.009420818,0.038290262,0.06264453,-0.46737078,0.88183904,-0.030220717,0.88228106,0.46975183,-0.99757826,-0.056077152,0.04114586,,0.08364596,1.2907736,0.42627457,0.99379915,0.0837289,-0.073162585,0.013466814,-0.74378705,-0.668281,-0.11037182,0.6631518,-0.74030244,,-0.08353949,0.26674816,-0.11797681,-0.16310902,0.444631,0.8807376,-0.68920887,-0.6901138,0.22075793,0.705965,-0.57100457,0.41900742,,-0.061574697,0.4296229,-0.3583063,0.0958211,0.4240077,-0.9005752,-0.7605274,0.6148914,0.20858239,0.64219654,0.6649256,0.38138905,,1.2519322262405352,0.44474446349371527,0.20519752184,-1.1363098037426376,0.7228070837591799,0.7063508230358101,-0.4184874974360233,,-1.310161632112188,0.17120526508868317,0.17824246758,0.9851233544902954,0.9526296763646508,-0.4440464372387994,0.871603936892514,,-0.06878124415953153,-0.05048146695237099,0.0911007994,-0.09256525236364105,,2.573058e-05,5.4240227e-06,-1.66893e-06,1.0,-1.7508864e-05,-1.5676022e-05,1.7508864e-05,1.0,-2.6226044e-06,1.5668571e-05,2.6524067e-06,1.0,376,1.13,0,0,0.0,False,-0.25773323775690704,1.0459905327018268
1.1489570320118219,14:37:23.378904,14:36:03.501514,0,,0.090094514,0.030276634,0.041955844,0.25065517,-0.435177,-0.86475027,-0.034394413,-0.89670575,0.44128877,-0.9674653,-0.08086869,-0.23973164,,0.0612621,0.009422218,0.038291335,0.06265001,-0.46722916,0.8819138,-0.030211508,0.88235676,0.46961004,-0.99757826,-0.056064934,0.04116398,,0.08364596,1.2907736,0.42627457,0.99379915,0.0837289,-0.073162585,0.013466814,-0.74378705,-0.668281,-0.11037182,0.6631518,-0.74030244,,-0.083623104,0.26754114,-0.117972076,-0.15564178,0.44741634,0.8806783,-0.6877834,-0.68901706,0.22849394,0.70903426,-0.5701527,0.41496536,,-0.061575394,0.42962453,-0.35830593,0.09581521,0.4238622,-0.90064436,-0.7605221,0.6149292,0.20849033,0.6422037,0.6649834,0.38127613,,1.254673796410885,0.4477099929174175,0.20522863280000003,-1.1283415858902255,0.7251299042551925,0.7105826241835131,-0.4179974652376206,,-1.3101693548450624,0.1712129878215574,0.17824246758,0.9851233544902954,0.9526296763646508,-0.4442097947190805,0.871603936892514,,-0.06878124415953153,-0.05048146695237099,0.0911007994,-0.09256525236364105,,2.573058e-05,5.4240227e-06,-1.66893e-06,1.0,-1.7508864e-05,-1.5676022e-05,1.7508864e-05,1.0,-2.6226044e-06,1.5668571e-05,2.6524067e-06,1.0,384,1.155,0,0,0.0,False,-0.2587460589717643,1.0452180494893553
1.1753935678862035,14:37:23.405711,14:36:03.501514,0,,0.09009625,0.030620508,0.042291865,0.2463629,-0.4357235,-0.86570805,-0.029173493,-0.89616895,0.44275278,-0.96873856,-0.08382207,-0.23349443,,0.061262064,0.009423917,0.03829068,0.06264834,-0.46737686,0.8818355,-0.030205011,0.88227856,0.46975753,-0.9975785,-0.05606535,0.041156203,,0.08364596,1.2907736,0.42627457,0.99379915,0.0837289,-0.073162585,0.013466814,-0.74378705,-0.668281,-0.11037182,0.6631518,-0.74030244,,-0.08365982,0.2680202,-0.11799,-0.15128425,0.44824207,0.8810177,-0.6844551,-0.69054824,0.23380405,0.713186,-0.56764615,0.41127065,,-0.061575335,0.42962515,-0.35830423,0.09581655,0.42401204,-0.9005737,-0.7605177,0.61489934,0.20859429,0.64220864,0.6649155,0.38138622,,1.2562724021158493,0.449447607814118,0.20524937344000002,-1.1254059266814422,0.729638908747452,0.7122966302108082,-0.4199575940312319,,-1.3101693548450624,0.1712207105544316,0.17824376387000002,0.9851233544902954,0.9526296763646508,-0.44404643723879944,0.8712772487602455,,-0.06878124415953153,-0.05048146695237099,0.0911007994,-0.09256525236364105,,2.573058e-05,5.4240227e-06,-1.66893e-06,1.0,-1.7508864e-05,-1.5676022e-05,1.7508864e-05,1.0,-2.6226044e-06,1.5668571e-05,2.6524067e-06,1.0,392,1.179,0,0,0.0,False,-0.25815028178655464,1.0452663296901348
1.2022164459340274,14:37:23.429970,14:36:03.501514,0,,0.09006895,0.031097531,0.042742684,0.24582161,-0.43292338,-0.86726534,-0.02165702,-0.8969493,0.44160253,-0.9690731,-0.08977294,-0.22986543,,0.06126049,0.009424752,0.03829032,0.06263955,-0.4673819,0.88183355,-0.030201048,0.8822764,0.46976185,-0.9975792,-0.0560579,0.041150004,,0.08364596,1.2907736,0.42627457,0.99379915,0.0837289,-0.073162585,0.013466814,-0.74378705,-0.668281,-0.11037182,0.6631518,-0.74030244,,-0.0836797,0.26867664,-0.11800555,-0.15076739,0.44603643,0.88222486,-0.6790604,-0.6952893,0.23547761,0.71843314,-0.56358165,0.40771264,,-0.061573774,0.4296257,-0.3583035,0.09582513,0.4240159,-0.900571,-0.76051426,0.6149041,0.20859292,0.6422115,0.66490865,0.3813934,,1.2585506083137457,0.4519497732653668,0.20528307698,-1.1283415858902255,0.7338746402401807,0.7134166846440907,-0.4193042177666948,,-1.310161632112188,0.17122843328730583,0.17824376387000002,0.9851233544902954,0.9526296763646508,-0.44404643723879944,0.8712772487602455,,-0.06878124415953153,-0.05048146695237099,0.0911007994,-0.09256525236364105,,2.573058e-05,5.4240227e-06,-1.66893e-06,1.0,-1.7508864e-05,-1.5676022e-05,1.7508864e-05,1.0,-2.6226044e-06,1.5668571e-05,2.6524067e-06,1.0,400,1.204,0,0,0.0,False,-0.2575545046013441,1.0452663296901348
1.2264690350275487,14:37:23.458516,14:36:03.501514,0,,0.09007361,0.031452887,0.043074116,0.24322245,-0.43525895,-0.866829,-0.01766631,-0.89550483,0.4447009,-0.96980965,-0.092847496,-0.2254964,,0.0612615,0.00942499,0.038291037,0.06264669,-0.46738064,0.88183373,-0.030198485,0.882277,0.46976086,-0.99757886,-0.056058913,0.041157603,,0.08364596,1.2907736,0.42627457,0.99379915,0.0837289,-0.073162585,0.013466814,-0.74378705,-0.668281,-0.11037182,0.6631518,-0.74030244,,-0.08371896,0.26916096,-0.11801219,-0.14813802,0.44864795,0.8813456,-0.67640644,-0.6961019,0.24065834,0.72147727,-0.5604972,0.40658754,,-0.061574902,0.42962626,-0.3583037,0.0958179,0.42401478,-0.90057224,-0.76051337,0.61490357,0.20859781,0.64221364,0.66490984,0.38138765,,1.2602032731488297,0.4537877836894322,0.2053064102,-1.126873756285834,0.7364707337357239,0.7122798893555455,-0.4186508415021577,,-1.3101693548450624,0.17122843328730583,0.17824376387000002,0.9851233544902954,0.9526296763646508,-0.44404643723879944,0.8712772487602455,,-0.06878124415953153,-0.05048146695237099,0.0911007994,-0.09256525236364105,,2.573058e-05,5.4240227e-06,-1.66893e-06,1.0,-1.7508864e-05,-1.5676022e-05,1.7508864e-05,1.0,-2.6226044e-06,1.5668571e-05,2.6524067e-06,1.0,412,1.241,0,0,0.0,False,-0.25761408231986493,1.0448318078831196
1.254946048837155,14:37:23.491326,14:36:03.631168,0,,0.090084486,0.031961165,0.04354821,0.24159902,-0.43654066,-0.8666384,-0.010365844,-0.89420533,0.44753677,-0.97032076,-0.09914091,-0.22056434,,0.061262064,0.009423917,0.03829068,0.06264834,-0.4673049,0.88187367,-0.030205011,0.88231695,0.46968547,-0.9975785,-0.056061924,0.041160792,,0.08364596,1.2907736,0.42627457,0.99379915,0.0837289,-0.073162585,0.013466814,-0.74378705,-0.668281,-0.11037182,0.6631518,-0.74030244,,-0.08377931,0.2698534,-0.11802143,-0.14652546,0.45052296,0.88065845,-0.6712138,-0.69924104,0.2460366,0.72663766,-0.5550595,0.40485385,,-0.061575335,0.42962515,-0.35830423,0.09581655,0.42393848,-0.9006083,-0.7605177,0.6149164,0.20854408,0.64220864,0.6649466,0.3813319,,1.262481479346726,0.45651390839403344,0.20534529890000003,-1.128131895946741,0.7408431017282181,0.7101847337597901,-0.41897752963442647,,-1.3101693548450624,0.1712207105544316,0.17824376387000002,0.9851233544902954,0.9526296763646508,-0.44412811597894003,0.8711139046941112,,-0.06878124415953153,-0.05048146695237099,0.0911007994,-0.09256525236364105,,2.573058e-05,5.4240227e-06,-1.66893e-06,1.0,-1.7508864e-05,-1.5676022e-05,1.7508864e-05,1.0,-2.6226044e-06,1.5668571e-05,2.6524067e-06,1.0,424,1.277,0,0,0.0,False,-0.2568991496976123,1.04478352768234
1.2877643469255418,14:37:23.529640,14:36:03.631168,0,,0.090068884,0.032339975,0.043879703,0.2448381,-0.43300527,-0.8675026,-0.0018473864,-0.89494145,0.4461797,-0.96956223,-0.107639104,-0.21991573,,0.0612636,0.009424781,0.03829032,0.06265548,-0.46730363,0.8818739,-0.030202359,0.8823174,0.46968448,-0.99757814,-0.056062967,0.041168362,,0.08364596,1.2907736,0.42627457,0.99379915,0.0837289,-0.073162585,0.013466814,-0.74378705,-0.668281,-0.11037182,0.6631518,-0.74030244,,-0.08379858,0.2703566,-0.11801376,-0.1498841,0.44783163,0.8814656,-0.664612,-0.70569813,0.24552199,0.7320011,-0.54903275,0.4034072,,-0.06157684,0.42962524,-0.35830328,0.095809326,0.42393735,-0.9006096,-0.7605168,0.61491585,0.20854895,0.64221084,0.6649478,0.38132617,,1.2640800850516904,0.4586067690029483,0.20540103937,-1.1363098037426376,0.7452154697207122,0.7075995057231914,-0.4186508415021577,,-1.3101770775779364,0.1712207105544316,0.17824506016000002,0.9851233544902954,0.9526296763646508,-0.44412811597894003,0.8711139046941112,,-0.06878124415953153,-0.05048146695237099,0.0911007994,-0.09256525236364105,,2.573058e-05,5.4240227e-06,-1.66893e-06,1.0,-1.7508864e-05,-1.5676022e-05,1.7508864e-05,1.0,-2.6226044e-06,1.5668571e-05,2.6524067e-06,1.0,449,1.355,0,0,0.0,False,-0.25719703829021734,1.0451214890877965
1.326109207002446,14:37:23.596937,14:36:03.631168,0,,0.09015182,0.033182964,0.04460837,0.24995258,-0.43169618,-0.8666961,0.017505169,-0.8929475,0.44982028,-0.96809983,-0.12760535,-0.21563765,,0.061263546,0.009426421,0.038289666,0.062653825,-0.46730727,0.88187206,-0.030195862,0.882316,0.46968782,-0.9975785,-0.05605656,0.041169733,,0.08364596,1.2907736,0.42627457,0.99379915,0.0837289,-0.073162585,0.013466814,-0.74378705,-0.668281,-0.11037182,0.6631518,-0.74030244,,-0.083957694,0.2714621,-0.11798216,-0.15525554,0.44844568,0.8802228,-0.6496302,-0.7176143,0.25101864,0.74422866,-0.5328473,0.40273744,,-0.06157678,0.4296259,-0.35830158,0.095810674,0.4239401,-0.9006082,-0.7605125,0.6149201,0.20855246,0.6422158,0.6649422,0.3813276,,1.2670996736055122,0.4635261498438293,0.20553066837000003,-1.1516171696170079,0.7564196627014783,0.6964212691165708,-0.4188141855682921,,-1.3101770775779364,0.17122843328730583,0.17824635645,0.9851233544902954,0.9526296763646508,-0.44412811597894003,0.8711139046941112,,-0.06878124415953153,-0.05048146695237099,0.0911007994,-0.09256525236364105,,2.573058e-05,5.4240227e-06,-1.66893e-06,1.0,-1.7508864e-05,-1.5676022e-05,1.7508864e-05,1.0,-2.6226044e-06,1.5668571e-05,2.6524067e-06,1.0,453,1.368,0,0,0.0,False,-0.2575545046013441,1.045169769288576
1.393437481019646,14:37:23.618667,14:36:03.631168,0,,0.0901938,0.033458456,0.044817045,0.25244558,-0.43130422,-0.8661686,0.021941066,-0.8923801,0.45075083,-0.9673623,-0.13279462,-0.2158142,,0.061263546,0.009426421,0.038289666,0.062653825,-0.46730727,0.88187206,-0.030195862,0.882316,0.46968782,-0.9975785,-0.05605656,0.041169733,,0.08364596,1.2907736,0.42627457,0.99379915,0.0837289,-0.073162585,0.013466814,-0.74378705,-0.668281,-0.11037182,0.6631518,-0.74030244,,-0.08402165,0.27180272,-0.11794904,-0.15784012,0.4485534,0.8797081,-0.6460207,-0.72067845,0.2515548,0.7468224,-0.5286042,0.40352678,,-0.06157678,0.4296259,-0.35830158,0.095810674,0.4239401,-0.9006082,-0.7605125,0.6149201,0.20855246,0.6422158,0.6649422,0.3813276,,1.2680109560846706,0.46514020101454223,0.20558122368,-1.1566497282606365,0.7580593006986637,0.6930422857686996,-0.4186508415021579,,-1.3101770775779364,0.17122843328730583,0.17824635645,0.9851233544902954,0.9526296763646508,-0.44412811597894003,0.8711139046941112,,-0.06878124415953153,-0.05048146695237099,0.0911007994,-0.09256525236364105,,2.573058e-05,5.4240227e-06,-1.66893e-06,1.0,-1.7508864e-05,-1.5676022e-05,1.7508864e-05,1.0,-2.6226044e-06,1.5668571e-05,2.6524067e-06,1.0,465,1.404,0,0,0.0,False,-0.257435349164302,1.0453146098909143
1.4151716309133917,14:37:23.650159,14:36:03.751921,0,,0.09028849,0.033909954,0.04514049,0.25217435,-0.43531632,-0.8642383,0.027459651,-0.8895229,0.45606452,-0.9672922,-0.13873938,-0.21236128,,0.061263546,0.009426421,0.038289666,0.062653825,-0.46730727,0.88187206,-0.030195862,0.882316,0.46968782,-0.9975785,-0.05605656,0.041169733,,0.08364596,1.2907736,0.42627457,0.99379915,0.0837289,-0.073162585,0.013466814,-0.74378705,-0.668281,-0.11037182,0.6631518,-0.74030244,,-0.08415043,0.27234676,-0.11787933,-0.15761676,0.453101,0.87741464,-0.64185834,-0.72223735,0.25766477,0.7504498,-0.5225636,0.40466335,,-0.06157678,0.4296259,-0.35830158,0.095810674,0.4239401,-0.9006082,-0.7605125,0.6149201,0.20855246,0.6422158,0.6649422,0.3813276,,1.2694242162006537,0.4676269210000425,0.20567714914000002,-1.1583272478085125,0.7610653036935033,0.6875689785021775,-0.4188141855682921,,-1.3101770775779364,0.17122843328730583,0.17824635645,0.9851233544902954,0.9526296763646508,-0.44412811597894003,0.8711139046941112,,-0.06878124415953153,-0.05048146695237099,0.0911007994,-0.09256525236364105,,2.573058e-05,5.4240227e-06,-1.66893e-06,1.0,-1.7508864e-05,-1.5676022e-05,1.7508864e-05,1.0,-2.6226044e-06,1.5668571e-05,2.6524067e-06,1.0,469,1.417,0,0,0.0,False,-0.2575545046013441,1.0445421266784427
1.4466427729930729,14:37:23.670066,14:36:03.751921,0,,0.09034618,0.03424251,0.04539682,0.25322616,-0.43565032,-0.8637624,0.031574994,-0.88866556,0.45746738,-0.96689177,-0.14311594,-0.2112778,,0.06126253,0.009426182,0.03828889,0.06264669,-0.4673086,0.8818719,-0.030198485,0.8823154,0.46968877,-0.99757886,-0.056055576,0.041162163,,0.08364596,1.2907736,0.42627457,0.99379915,0.0837289,-0.073162585,0.013466814,-0.74378705,-0.668281,-0.11037182,0.6631518,-0.74030244,,-0.08423505,0.2727604,-0.117842175,-0.15873204,0.4538506,0.876826,-0.6386103,-0.7244938,0.25939474,0.7529814,-0.5187758,0.40483406,,-0.061575647,0.42962533,-0.35830137,0.0958179,0.42394122,-0.9006069,-0.76051337,0.6149206,0.20854758,0.64221364,0.664941,0.38133335,,1.270567180666039,0.4695189905542275,0.20573418590000003,-1.161262907017296,0.7627049416906886,0.6852518187761337,-0.41914087370056063,,-1.3101693548450624,0.17122843328730583,0.17824635645,0.9851233544902954,0.9526296763646508,-0.44412811597894003,0.8711139046941112,,-0.06878124415953153,-0.05048146695237099,0.0911007994,-0.09256525236364105,,2.573058e-05,5.4240227e-06,-1.66893e-06,1.0,-1.7508864e-05,-1.5676022e-05,1.7508864e-05,1.0,-2.6226044e-06,1.5668571e-05,2.6524067e-06,1.0,481,1.454,0,0,0.0,False,-0.25767366003838577,1.044880088083899
1.4665715110022575,14:37:23.700654,14:36:03.751921,0,,0.09047013,0.034895115,0.045857415,0.25260216,-0.43791115,-0.86280125,0.037310034,-0.8866478,0.4609376,-0.96685064,-0.14862496,-0.20763074,,0.06126253,0.009426182,0.03828889,0.06264669,-0.4673086,0.8818719,-0.030198485,0.8823154,0.46968877,-0.99757886,-0.056055576,0.041162163,,0.08364596,1.2907736,0.42627457,0.99379915,0.0837289,-0.073162585,0.013466814,-0.74378705,-0.668281,-0.11037182,0.6631518,-0.74030244,,-0.08440767,0.27354306,-0.11773717,-0.15815632,0.45661908,0.8754916,-0.6342818,-0.7265083,0.2643336,0.7567517,-0.51350236,0.40452707,,-0.061575647,0.42962533,-0.35830137,0.0958179,0.42394122,-0.9006069,-0.76051337,0.6149206,0.20854758,0.64221364,0.664941,0.38133335,,1.2727449913365703,0.4730328340119997,0.20587159264000002,-1.1623113567347185,0.765027762186701,0.6829493207125918,-0.4193042177666948,,-1.3101693548450624,0.17122843328730583,0.17824635645,0.9851233544902954,0.9526296763646508,-0.44412811597894003,0.8707872165618427,,-0.06878124415953153,-0.05048146695237099,0.0911007994,-0.09256525236364105,,2.573058e-05,5.4240227e-06,-1.66893e-06,1.0,-1.7508864e-05,-1.5676022e-05,1.7508864e-05,1.0,-2.6226044e-06,1.5668571e-05,2.6524067e-06,1.0,489,1.478,0,0,0.0,False,-0.2580907040680329,1.0453628900916938
1.4971357139293104,14:37:23.729842,14:36:03.751921,0,,0.09052223,0.035198763,0.046073183,0.252521,-0.43842173,-0.8625657,0.038081467,-0.88626266,0.46161488,-0.9668418,-0.1494152,-0.20710424,,0.061261974,0.009427285,0.03828931,0.06264503,-0.46731225,0.8818701,-0.030191928,0.8823137,0.46969217,-0.9975791,-0.056049168,0.041163534,,0.08364596,1.2907736,0.42627457,0.99379915,0.0837289,-0.073162585,0.013466814,-0.74378705,-0.668281,-0.11037182,0.6631518,-0.74030244,,-0.08448259,0.2739086,-0.11768975,-0.15808198,0.4572009,0.87520134,-0.63369757,-0.7267131,0.2651707,0.75725657,-0.51269424,0.40460736,,-0.061575215,0.42962644,-0.35830083,0.09581924,0.42394394,-0.90060544,-0.760509,0.6149248,0.2085511,0.6422186,0.66493535,0.3813348,,1.2738647876033329,0.47465460791558683,0.20592474053,-1.162101666791234,0.7642079431881085,0.683454470654489,-0.41963090589896357,,-1.3101693548450624,0.17123615602018005,0.17824635645,0.9851233544902954,0.9526296763646508,-0.44412811597894,0.870460528429574,,-0.06878124415953153,-0.05048146695237099,0.0911007994,-0.09256525236364105,,2.573058e-05,5.4240227e-06,-1.66893e-06,1.0,-1.7508864e-05,-1.5676022e-05,1.7508864e-05,1.0,-2.6226044e-06,1.5668571e-05,2.6524067e-06,1.0,497,1.503,0,0,0.0,False,-0.25815028178655464,1.0453146098909143
1.5263386929873377,14:37:23.752781,14:36:03.871736,0,,0.09056756,0.035632104,0.046365693,0.25580737,-0.4375906,-0.8620192,0.04152578,-0.8858907,0.4620315,-0.9658356,-0.15398705,-0.20844616,,0.061261974,0.009427285,0.03828931,0.06264503,-0.46731225,0.8818701,-0.030191928,0.8823137,0.46969217,-0.9975791,-0.056049168,0.041163534,,0.08364596,1.2907736,0.42627457,0.99379915,0.0837289,-0.073162585,0.013466814,-0.74378705,-0.668281,-0.11037182,0.6631518,-0.74030244,,-0.08455913,0.27442202,-0.11761265,-0.16147503,0.45681328,0.87478423,-0.63070077,-0.7295418,0.26454747,0.7590404,-0.50900924,0.40591526,,-0.061575215,0.42962644,-0.35830083,0.09581924,0.42394394,-0.90060544,-0.760509,0.6149248,0.2085511,0.6422186,0.66493535,0.3813348,,1.2754402251096746,0.47699459597647687,0.20602066599000002,-1.1675536053218316,0.763798033688812,0.6809299684606589,-0.41914087370056063,,-1.3101693548450624,0.17123615602018005,0.17824635645,0.9851233544902954,0.9526296763646508,-0.44412811597894,0.870460528429574,,-0.06878124415953153,-0.05048146695237099,0.0911007994,-0.09256525236364105,,2.573058e-05,5.4240227e-06,-1.66893e-06,1.0,-1.7508864e-05,-1.5676022e-05,1.7508864e-05,1.0,-2.6226044e-06,1.5668571e-05,2.6524067e-06,1.0,526,1.593,0,0,0.0,False,-0.25856732581620134,1.0453628900916938
1.5492841489613056,14:37:23.839404,14:36:03.871736,0,,0.09079093,0.03665477,0.04691954,0.25961822,-0.4405349,-0.85937613,0.046508998,-0.88315296,0.46677375,-0.9645908,-0.16115159,-0.20879382,,0.06126397,0.00942955,0.038290083,0.06265764,-0.4672414,0.88190675,-0.030180186,0.88235176,0.46962145,-0.9975787,-0.05604142,0.041184694,,0.08364596,1.2907736,0.42627457,0.99379915,0.0837289,-0.073162585,0.013466814,-0.74378705,-0.668281,-0.11037182,0.6631518,-0.74030244,,-0.0848424,0.27553457,-0.11732198,-0.16542427,0.46041697,0.8721531,-0.6264394,-0.732077,0.26765072,0.76171416,-0.50207514,0.40952665,,-0.061577417,0.42962816,-0.35829952,0.09580613,0.42387086,-0.90064126,-0.76050276,0.614945,0.20851414,0.64222795,0.66496325,0.38127047,,1.2783825863347542,0.4823387271254402,0.20632918301000003,-1.1730055438524292,0.7622950321913923,0.6756212661900742,-0.4211010024941719,,-1.3101848003108107,0.17124387875305427,0.17824765274,0.9851233544902954,0.9526296763646508,-0.4442097947190806,0.8706238724957083,,-0.06878124415953153,-0.05048146695237099,0.0911007994,-0.09256525236364105,,2.573058e-05,5.4240227e-06,-1.66893e-06,1.0,-1.7508864e-05,-1.5676022e-05,1.7508864e-05,1.0,-2.6226044e-06,1.5668571e-05,2.6524067e-06,1.0,530,1.605,0,0,0.0,False,-0.2580907040680329,1.0452663296901348
1.6359073070343584,14:37:23.859912,14:36:03.871736,0,,0.090856284,0.036875144,0.047038868,0.26364627,-0.43857625,-0.85915166,0.050489157,-0.8831688,0.46632993,-0.9632972,-0.16632387,-0.2107009,,0.06126138,0.009430086,0.03828901,0.06264171,-0.46731967,0.88186646,-0.030178785,0.8823107,0.46969882,-0.9975798,-0.056036383,0.041166335,,0.08364596,1.2907736,0.42627457,0.99379915,0.0837289,-0.073162585,0.013466814,-0.74378705,-0.668281,-0.11037182,0.6631518,-0.74030244,,-0.08492058,0.27577308,-0.11725818,-0.16958718,0.458968,0.8721173,-0.6229054,-0.7356728,0.26603475,0.76369435,-0.49813047,0.41065434,,-0.061574724,0.42962816,-0.3582986,0.09582193,0.4239494,-0.90060264,-0.76050025,0.61493325,0.20855811,0.6422286,0.6649241,0.3813377,,1.2788150593757108,0.4836902053784295,0.20640307154,-1.179715622043934,0.7633881241895157,0.6725245969767079,-0.41832415336988915,,-1.3101693548450624,0.1712516014859285,0.17824765274,0.9851233544902954,0.9526296763646508,-0.44412811597894,0.870460528429574,,-0.06878124415953153,-0.05048146695237099,0.0911007994,-0.09256525236364105,,2.573058e-05,5.4240227e-06,-1.66893e-06,1.0,-1.7508864e-05,-1.5676022e-05,1.7508864e-05,1.0,-2.6226044e-06,1.5668571e-05,2.6524067e-06,1.0,538,1.63,0,0,0.0,False,-0.25767366003838577,1.0451214890877965
1.6563623149413615,14:37:23.887378,14:36:03.871736,0,,0.09097419,0.037170067,0.0472015,0.26783586,-0.4388538,-0.85771286,0.056278557,-0.8815917,0.46864554,-0.9618195,-0.17379084,-0.2114239,,0.06126397,0.00942955,0.038290083,0.06265764,-0.4673134,0.8818686,-0.030180186,0.8823135,0.4696935,-0.9975787,-0.056044757,0.041180134,,0.08364596,1.2907736,0.42627457,0.99379915,0.0837289,-0.073162585,0.013466814,-0.74378705,-0.668281,-0.11037182,0.6631518,-0.74030244,,-0.08505578,0.2760921,-0.117172904,-0.1739417,0.45995516,0.8707385,-0.6179169,-0.73945814,0.267171,0.76676136,-0.49157184,0.41283667,,-0.061577417,0.42962816,-0.35829952,0.09580613,0.4239444,-0.90060663,-0.76050276,0.614928,0.20856437,0.64222795,0.66493213,0.38132477,,1.2792552551495415,0.4855513840011176,0.20650288587,-1.187264460009377,0.7658475811852937,0.6660267440024413,-0.4194675618328292,,-1.3101848003108107,0.17124387875305427,0.17824765274,0.9851233544902954,0.9526296763646508,-0.44412811597894,0.870460528429574,,-0.06878124415953153,-0.05048146695237099,0.0911007994,-0.09256525236364105,,2.573058e-05,5.4240227e-06,-1.66893e-06,1.0,-1.7508864e-05,-1.5676022e-05,1.7508864e-05,1.0,-2.6226044e-06,1.5668571e-05,2.6524067e-06,1.0,546,1.654,0,0,0.0,False,-0.25761408231986493,1.044735247481561
1.683881260920316,14:37:23.908916,14:36:03.871736,0,,0.09110243,0.03740017,0.047285065,0.26806873,-0.44056255,-0.85676354,0.057110578,-0.88048154,0.47062778,-0.96170557,-0.17509073,-0.21086887,,0.06126397,0.00942955,0.038290083,0.06265764,-0.4673134,0.8818686,-0.030180186,0.8823135,0.4696935,-0.9975787,-0.056044757,0.041180134,,0.08364596,1.2907736,0.42627457,0.99379915,0.0837289,-0.073162585,0.013466814,-0.74378705,-0.668281,-0.11037182,0.6631518,-0.74030244,,-0.08519316,0.2763096,-0.117071934,-0.1741905,0.46177357,0.8697257,-0.61723965,-0.73938036,0.26894575,0.7672502,-0.4899814,0.41381803,,-0.061577417,0.42962816,-0.35829952,0.09580613,0.4239444,-0.90060663,-0.76050276,0.614928,0.20856437,0.64222795,0.66493213,0.38132477,,1.2794637689371458,0.48685652585686157,0.20659492246000002,-1.1870547700658924,0.7658475811852937,0.6648015629003329,-0.41897752963442625,,-1.3101848003108107,0.17124387875305427,0.17824765274,0.9851233544902954,0.9526296763646508,-0.44412811597894,0.870460528429574,,-0.06878124415953153,-0.05048146695237099,0.0911007994,-0.09256525236364105,,2.573058e-05,5.4240227e-06,-1.66893e-06,1.0,-1.7508864e-05,-1.5676022e-05,1.7508864e-05,1.0,-2.6226044e-06,1.5668571e-05,2.6524067e-06,1.0,554,1.679,0,0,0.0,False,-0.25779281547542787,1.045169769288576
1.70534339803271,14:37:23.934064,14:36:03.871736,0,,0.091320105,0.037730917,0.047402993,0.2677229,-0.44247657,-0.8558849,0.057753325,-0.8793448,0.47267026,-0.9617635,-0.17597482,-0.20986634,,0.061262954,0.009429222,0.03828937,0.0626505,-0.4673147,0.88186836,-0.030182779,0.8823128,0.4696945,-0.9975791,-0.056043774,0.041172504,,0.08364596,1.2907736,0.42627457,0.99379915,0.0837289,-0.073162585,0.013466814,-0.74378705,-0.668281,-0.11037182,0.6631518,-0.74030244,,-0.0854236,0.27661845,-0.116922945,-0.17384535,0.46375585,0.8687395,-0.6167769,-0.7389914,0.27106833,0.7677005,-0.48869446,0.4145041,,-0.06157629,0.4296276,-0.35829934,0.09581336,0.42394555,-0.9006053,-0.7605037,0.6149285,0.20855948,0.64222574,0.6649309,0.38133052,,1.2796336690603787,0.48879493180829187,0.20672455146000002,-1.185377250518016,0.7657109446855282,0.6649129808040294,-0.41897752963442625,,-1.3101770775779364,0.17124387875305427,0.17824765274,0.9851233544902954,0.9526296763646508,-0.44412811597894,0.870460528429574,,-0.06878124415953153,-0.05048146695237099,0.0911007994,-0.09256525236364105,,2.573058e-05,5.4240227e-06,-1.66893e-06,1.0,-1.7508864e-05,-1.5676022e-05,1.7508864e-05,1.0,-2.6226044e-06,1.5668571e-05,2.6524067e-06,1.0,562,1.703,0,0,0.0,False,-0.2587460589717643,1.04478352768234
1.7305287939962,14:37:23.961474,14:36:03.871736,0,,0.09146489,0.037941918,0.04749517,0.2673511,-0.44404334,-0.8551894,0.058234423,-0.87842727,0.47431454,-0.9618379,-0.1766099,-0.20898998,,0.061262954,0.009429222,0.03828937,0.0626505,-0.4673147,0.88186836,-0.030182779,0.8823128,0.4696945,-0.9975791,-0.056043774,0.041172504,,0.08364596,1.2907736,0.42627457,0.99379915,0.0837289,-0.073162585,0.013466814,-0.74378705,-0.668281,-0.11037182,0.6631518,-0.74030244,,-0.08557814,0.27682635,-0.11684004,-0.17347156,0.46537006,0.8679506,-0.6164433,-0.7386235,0.27282414,0.76805294,-0.4877151,0.41500443,,-0.06157629,0.4296276,-0.35829934,0.09581336,0.42394555,-0.9006053,-0.7605037,0.6149285,0.20855948,0.64222574,0.6649309,0.38133052,,1.2797649555192403,0.4900846281982874,0.20679584741,-1.1841191108571092,0.7657109446855282,0.6647496233237482,-0.4193042177666948,,-1.3101770775779364,0.17124387875305427,0.17824765274,0.9851233544902954,0.9526296763646508,-0.44412811597894,0.870460528429574,,-0.06878124415953153,-0.05048146695237099,0.0911007994,-0.09256525236364105,,2.573058e-05,5.4240227e-06,-1.66893e-06,1.0,-1.7508864e-05,-1.5676022e-05,1.7508864e-05,1.0,-2.6226044e-06,1.5668571e-05,2.6524067e-06,1.0,574,1.74,0,0,0.0,False,-0.259282258438454,1.0443972860761046
1.7579693018924445,14:37:23.992603,14:36:04.093528,0,,0.09175716,0.038367525,0.04769446,0.2675947,-0.44743276,-0.8533446,0.059995174,-0.87618685,0.47822297,-0.96166193,-0.1791664,-0.20761919,,0.06126397,0.00942955,0.038290083,0.06265764,-0.4673134,0.8818686,-0.030180186,0.8823135,0.4696935,-0.9975787,-0.056044757,0.041180134,,0.08364596,1.2907736,0.42627457,0.99379915,0.0837289,-0.073162585,0.013466814,-0.74378705,-0.668281,-0.11037182,0.6631518,-0.74030244,,-0.08589139,0.2772546,-0.116682656,-0.17374372,0.46897462,0.86595374,-0.615036,-0.73842615,0.27650952,0.76911885,-0.48455098,0.41673318,,-0.061577417,0.42962816,-0.35829952,0.09580613,0.4239444,-0.90060663,-0.76050276,0.614928,0.20856437,0.64222795,0.66493213,0.38132477,,1.2800352511698383,0.4927644165056433,0.20693325415000002,-1.183280351083171,0.7659842176850592,0.6626481764931224,-0.41979424996509773,,-1.3101848003108107,0.17124387875305427,0.17824765274,0.9851233544902954,0.9526296763646508,-0.44412811597894003,0.8707872165618427,,-0.06878124415953153,-0.05048146695237099,0.0911007994,-0.09256525236364105,,2.573058e-05,5.4240227e-06,-1.66893e-06,1.0,-1.7508864e-05,-1.5676022e-05,1.7508864e-05,1.0,-2.6226044e-06,1.5668571e-05,2.6524067e-06,1.0,603,1.83,0,0,0.0,False,-0.25779281547542787,1.044107604871428
1.7891010988969356,14:37:24.072863,14:36:04.093528,0,,0.09223145,0.039023057,0.04804425,0.26961637,-0.4503542,-0.8511687,0.062222093,-0.87390685,0.48209444,-0.96095544,-0.18294194,-0.2075977,,0.06126291,0.009430921,0.038288713,0.06264885,-0.46710232,0.881981,-0.030176163,0.8824263,0.46948165,-0.9975794,-0.056027263,0.041187674,,0.08364596,1.2907736,0.42627457,0.99379915,0.0837289,-0.073162585,0.013466814,-0.74378705,-0.668281,-0.11037182,0.6631518,-0.74030244,,-0.086402,0.27794102,-0.11647027,-0.17584026,0.47223106,0.8637581,-0.613054,-0.7390446,0.27924514,0.770224,-0.4804278,0.41945693,,-0.06157623,0.42962825,-0.35829765,0.0958147,0.42372757,-0.9007078,-0.7604993,0.6149838,0.2084123,0.64223075,0.6650187,0.38116902,,1.2804908924094176,0.4971354833124544,0.20710825330000002,-1.18369973097014,0.7651643986864665,0.6609480004512247,-0.4199575940312319,,-1.3101770775779364,0.1712516014859285,0.17824894903000002,0.9851233544902954,0.9526296763646508,-0.4443731521993617,0.8702971843634398,,-0.06878124415953153,-0.05048146695237099,0.0911007994,-0.09256525236364105,,2.573058e-05,5.4240227e-06,-1.66893e-06,1.0,-1.7508864e-05,-1.5676022e-05,1.7508864e-05,1.0,-2.6226044e-06,1.5668571e-05,2.6524067e-06,1.0,607,1.843,0,0,0.0,False,-0.2580907040680329,1.045604291095591
1.869364304933697,14:37:24.099051,14:36:04.093528,0,,0.092418544,0.03922929,0.048144177,0.2705124,-0.45149818,-0.8502779,0.06288567,-0.8730335,0.48358828,-0.96066046,-0.18428683,-0.20777375,,0.06126291,0.009430921,0.038288713,0.06264885,-0.46717435,0.88194287,-0.030176163,0.882388,0.4695537,-0.9975794,-0.05603063,0.041183054,,0.08364596,1.2907736,0.42627457,0.99379915,0.0837289,-0.073162585,0.013466814,-0.74378705,-0.668281,-0.11037182,0.6631518,-0.74030244,,-0.08659937,0.27814758,-0.11639347,-0.17676543,0.47349343,0.8628777,-0.6124276,-0.7392123,0.28017426,0.7705105,-0.47892502,0.42064765,,-0.06157623,0.42962825,-0.35829765,0.0958147,0.42380115,-0.90067315,-0.7604993,0.6149668,0.20846254,0.64223075,0.66498756,0.38122335,,1.280436833279298,0.49861052529143124,0.20716658635000001,-1.1839094209136245,0.7648911256869357,0.6601090126367901,-0.42044762622963483,,-1.3101770775779364,0.1712516014859285,0.17824894903000002,0.9851233544902954,0.9526296763646508,-0.44429147345922115,0.8704605284295741,,-0.06878124415953153,-0.05048146695237099,0.0911007994,-0.09256525236364105,,2.573058e-05,5.4240227e-06,-1.66893e-06,1.0,-1.7508864e-05,-1.5676022e-05,1.7508864e-05,1.0,-2.6226044e-06,1.5668571e-05,2.6524067e-06,1.0,615,1.867,0,0,0.0,False,-0.25785239319394915,1.0466181753119597
1.8955433608498424,14:37:24.121617,14:36:04.232107,0,,0.09252886,0.039324462,0.04819493,0.2710671,-0.45210448,-0.84977895,0.06334263,-0.87253976,0.4844192,-0.960474,-0.1851373,-0.20787944,,0.061263926,0.009431189,0.03828937,0.062655985,-0.46710098,0.8819812,-0.03017363,0.882427,0.46948066,-0.99757904,-0.056028247,0.041195244,,0.08364596,1.2907736,0.42627457,0.99379915,0.0837289,-0.073162585,0.013466814,-0.74378705,-0.668281,-0.11037182,0.6631518,-0.74030244,,-0.08671476,0.27824432,-0.11635981,-0.17733884,0.47417557,0.86238533,-0.6120031,-0.73936987,0.28068566,0.770716,-0.478006,0.4213159,,-0.061577357,0.4296288,-0.35829782,0.09580747,0.42372644,-0.9007091,-0.7604984,0.6149833,0.20841719,0.6422329,0.66501987,0.38116327,,1.2803132695533104,0.4993827985788537,0.20718862328,-1.1841191108571092,0.7648911256869357,0.6595372614558062,-0.4199575940312321,,-1.3101848003108107,0.1712516014859285,0.17824894903000002,0.9851233544902954,0.9526296763646508,-0.44437315219936163,0.8712772487602455,,-0.06878124415953153,-0.05048146695237099,0.0911007994,-0.09256525236364105,,2.573058e-05,5.4240227e-06,-1.66893e-06,1.0,-1.7508864e-05,-1.5676022e-05,1.7508864e-05,1.0,-2.6226044e-06,1.5668571e-05,2.6524067e-06,1.0,623,1.892,0,0,0.0,False,-0.2587460589717643,1.0475837793275489
1.9181191269308329,14:37:24.145173,14:36:04.232107,0,,0.09260437,0.039441884,0.048218563,0.2721322,-0.4519379,-0.84952706,0.06307599,-0.87256896,0.48440132,-0.9601904,-0.18540582,-0.20894775,,0.061262354,0.009432053,0.03828901,0.062647186,-0.46717805,0.881941,-0.030169666,0.88238645,0.46955705,-0.99757963,-0.056024224,0.041184485,,0.08364596,1.2907736,0.42627457,0.99379915,0.0837289,-0.073162585,0.013466814,-0.74378705,-0.668281,-0.11037182,0.6631518,-0.74030244,,-0.08679306,0.27834195,-0.11629357,-0.17842439,0.474036,0.86223817,-0.6120868,-0.7395822,0.27994284,0.770399,-0.47781593,0.42211065,,-0.061575793,0.42962933,-0.35829708,0.095816046,0.42380387,-0.9006717,-0.76049495,0.614971,0.20846605,0.6422357,0.6649819,0.38122478,,1.2799194101767248,0.5002322991950184,0.20721325279000002,-1.1843288008005934,0.7642079431881085,0.6600943509742883,-0.4199575940312321,,-1.3101770775779364,0.17125932421880272,0.17824894903000002,0.9851233544902954,0.9526296763646508,-0.4442914734592211,0.8714405928263798,,-0.06878124415953153,-0.05048146695237099,0.0911007994,-0.09256525236364105,,2.573058e-05,5.4240227e-06,-1.66893e-06,1.0,-1.7508864e-05,-1.5676022e-05,1.7508864e-05,1.0,-2.6226044e-06,1.5668571e-05,2.6524067e-06,1.0,631,1.916,0,0,0.0,False,-0.25761408231986493,1.047728619929887
1.941660659853369,14:37:24.167882,14:36:04.232107,0,,0.09272258,0.039461747,0.04821922,0.2717438,-0.45321536,-0.84897065,0.0644514,-0.8716156,0.4859342,-0.960209,-0.1867668,-0.20764591,,0.061364315,0.009497388,0.038288176,0.06262851,-0.46733844,0.88185734,-0.030172288,0.88230145,0.46971658,-0.99758065,-0.056025356,0.04115656,,0.08362983,1.2907728,0.4262706,0.9937991,0.08373068,-0.07316098,0.013469191,-0.7437868,-0.6682812,-0.11037182,0.6631518,-0.74030244,,-0.086895615,0.27835205,-0.11627761,-0.17804612,0.47543427,0.86154616,-0.6110515,-0.7396908,0.2819106,0.77130777,-0.476256,0.4222139,,-0.061664216,0.42966002,-0.35824576,0.095835105,0.42396453,-0.9005941,-0.7604947,0.6149386,0.2085624,0.64223313,0.6649094,0.3813555,,1.2794714916700198,0.5006029903729812,0.20722232682000002,-1.1839094209136245,0.7658475811852937,0.6587573361299313,-0.4199575940312321,,-1.3101770775779364,0.17126704695167694,0.17825024532000003,0.9851233544902954,0.9526296763646508,-0.44420979471908056,0.8722573131570512,,-0.06878124415953153,-0.05048146695237099,0.0911007994,-0.09256525236364105,,1.013279e-05,2.0861626e-06,3.0994415e-06,0.99999994,-1.5735626e-05,-1.4089048e-05,1.5728176e-05,0.9999999,-2.3245811e-06,1.4089048e-05,2.3543835e-06,1.0,639,1.941,0,0,0.0,False,-0.25719703829021734,1.0471975377213132
1.9643101058900356,14:37:24.196188,14:36:04.232107,0,,0.09288818,0.03944306,0.048180684,0.27198893,-0.4536385,-0.8486661,0.06422064,-0.8713909,0.48636764,-0.96015507,-0.18678838,-0.20787585,,0.061357,0.00949408,0.038287282,0.06269185,-0.4675569,0.881737,-0.03026408,0.88217795,0.46994254,-0.997574,-0.056146592,0.04115516,,0.08362983,1.2907728,0.4262706,0.9937991,0.08373068,-0.07316098,0.013469191,-0.7437868,-0.6682812,-0.11037182,0.6631518,-0.74030244,,-0.08705658,0.27830088,-0.11625055,-0.17829365,0.4758559,0.8612622,-0.611204,-0.7395086,0.28205782,0.77112967,-0.47611782,0.42269474,,-0.061656684,0.42965826,-0.3582481,0.095776334,0.4242054,-0.9004869,-0.7605603,0.6148009,0.20872948,0.6421643,0.6648832,0.38151714,,1.2785833773894841,0.5009659588180697,0.20721843795000003,-1.1830706611396864,0.7661208541848247,0.6590245727633818,-0.4193042177666948,,-1.3101384639135654,0.17125932421880272,0.17824635645,0.9849136645468108,0.9526296763646508,-0.44412811597894003,0.8724206572231854,,-0.06878124415953153,-0.05048146695237099,0.0911007994,-0.09256525236364105,,1.013279e-05,2.0861626e-06,3.0994415e-06,0.99999994,-1.5735626e-05,-1.4089048e-05,1.5728176e-05,0.9999999,-2.3245811e-06,1.4089048e-05,2.3543835e-06,1.0,672,2.043,0,0,0.0,False,-0.2575545046013441,1.0471492575205337
1.992658213013783,14:37:24.293697,14:36:04.393851,0,,0.093426496,0.039128646,0.047972336,0.2767347,-0.4518979,-0.84806025,0.062295377,-0.87223315,0.4851066,-0.958925,-0.18707594,-0.21322618,,0.061348945,0.009488477,0.03828287,0.062638104,-0.4675597,0.8817393,-0.030297995,0.88217616,0.4699437,-0.9975763,-0.05615139,0.04109168,,0.08362983,1.2907728,0.4262706,0.9937991,0.08373068,-0.07316098,0.013469191,-0.7437868,-0.6682812,-0.11037182,0.6631518,-0.74030244,,-0.08756994,0.27789092,-0.11627111,-0.18312214,0.47415736,0.86118585,-0.6121465,-0.7404476,0.27751398,0.7692483,-0.47635296,0.42584613,,-0.06164777,0.42965257,-0.35824993,0.09583147,0.42420897,-0.9004794,-0.76057637,0.6147966,0.20868339,0.642137,0.66488487,0.38156018,,1.2748610201441077,0.5013520954617809,0.20706936460000003,-1.184957870631047,0.7653010351862319,0.6594480439651387,-0.419304217766695,,-1.3100766820505716,0.17124387875305427,0.17824376387000002,0.9849136645468108,0.9526296763646508,-0.44412811597894003,0.8724206572231854,,-0.06878124415953153,-0.05048146695237099,0.0911007994,-0.09256525236364105,,1.013279e-05,2.0861626e-06,3.0994415e-06,0.99999994,-1.5735626e-05,-1.4089048e-05,1.5728176e-05,0.9999999,-2.3245811e-06,1.4089048e-05,2.3543835e-06,1.0,680,2.068,0,0,0.0,False,-0.25773323775690704,1.0472458179220927
2.0901641480159014,14:37:24.316902,14:36:04.393851,0,,0.09359576,0.038969144,0.04794462,0.27805883,-0.45165032,-0.8477589,0.061680496,-0.872347,0.4849805,-0.95858175,-0.18714315,-0.21470588,,0.06134797,0.009486481,0.03828287,0.062632635,-0.4674852,0.8817792,-0.030307144,0.8822155,0.46986926,-0.99757636,-0.056153446,0.0410873,,0.08362983,1.2907728,0.4262706,0.9937991,0.08373068,-0.07316098,0.013469191,-0.7437868,-0.6682812,-0.11037182,0.6631518,-0.74030244,,-0.08773456,0.27774215,-0.11634612,-0.18446876,0.4739183,0.86103004,-0.61246705,-0.74059427,0.27641326,0.7686712,-0.4763629,0.42687583,,-0.0616467,0.42965138,-0.35825145,0.095837355,0.4241338,-0.9005141,-0.7605817,0.61480993,0.20862477,0.64212984,0.6649205,0.38151017,,1.2736562738157289,0.5013829863932778,0.20695399479,-1.185377250518016,0.7651643986864665,0.6593144256484134,-0.4199575940312321,,-1.3100689593176973,0.17123615602018005,0.17824246758,0.9849136645468108,0.9526296763646508,-0.44420979471908056,0.8725840012893198,,-0.06878124415953153,-0.05048146695237099,0.0911007994,-0.09256525236364105,,1.013279e-05,2.0861626e-06,3.0994415e-06,0.99999994,-1.5735626e-05,-1.4089048e-05,1.5728176e-05,0.9999999,-2.3245811e-06,1.4089048e-05,2.3543835e-06,1.0,688,2.093,0,0,0.0,False,-0.25767366003838577,1.0471492575205337
2.1134041268378496,14:37:24.345967,14:36:04.393851,0,,0.09370851,0.03885357,0.047930136,0.27873927,-0.4515361,-0.84759635,0.0608266,-0.8725029,0.4848078,-0.95843863,-0.18669125,-0.21573552,,0.06134857,0.009483709,0.03828317,0.06263594,-0.46754986,0.88174474,-0.030320227,0.8821802,0.46993464,-0.9975757,-0.0561696,0.04107994,,0.08362983,1.2907728,0.4262706,0.9937991,0.08373068,-0.07316098,0.013469191,-0.7437868,-0.6682812,-0.11037182,0.6631518,-0.74030244,,-0.08784454,0.2776388,-0.11640529,-0.1851537,0.473762,0.86096907,-0.61305326,-0.7404169,0.2755875,0.7680389,-0.47679386,0.42753226,,-0.06164719,0.42964965,-0.3582537,0.095834665,0.4242019,-0.90048236,-0.7605904,0.6147845,0.20866796,0.6421199,0.6649006,0.38156158,,1.2728608323296837,0.5013752636604036,0.20686584707000003,-1.1851675605745318,0.7647544891871703,0.6596486793595027,-0.4199575940312321,,-1.3100689593176973,0.1712207105544316,0.17824117129000003,0.9849136645468108,0.9526296763646508,-0.44412811597894003,0.8724206572231854,,-0.06878124415953153,-0.05048146695237099,0.0911007994,-0.09256525236364105,,1.013279e-05,2.0861626e-06,3.0994415e-06,0.99999994,-1.5735626e-05,-1.4089048e-05,1.5728176e-05,0.9999999,-2.3245811e-06,1.4089048e-05,2.3543835e-06,1.0,696,2.117,0,0,0.0,False,-0.25779281547542787,1.047390658524431
2.142470821039751,14:37:24.368433,14:36:04.393851,0,,0.093857095,0.038660303,0.04792483,0.27936685,-0.45167804,-0.847314,0.059633374,-0.872584,0.4848103,-0.95833087,-0.18596798,-0.216836,,0.061347917,0.009481861,0.038283408,0.062736616,-0.4676862,0.88166517,-0.030405581,0.8820996,0.47008032,-0.9975668,-0.05629888,0.041119635,,0.08362983,1.2907728,0.4262706,0.9937991,0.08373068,-0.07316098,0.013469191,-0.7437868,-0.6682812,-0.11037182,0.6631518,-0.74030244,,-0.087990515,0.27748138,-0.116520904,-0.18578011,0.47383392,0.8607945,-0.6139113,-0.7399851,0.27483627,0.76720184,-0.47739235,0.42836648,,-0.061646488,0.42964867,-0.35825527,0.0957384,0.42436084,-0.9004177,-0.7606557,0.61465687,0.2088057,0.6420569,0.6649171,0.38163877,,1.2717564815286695,0.5012671454001645,0.20671158856000002,-1.1845384907440781,0.7643445796878738,0.659982933070592,-0.41963090589896335,,-1.3100689593176973,0.17120526508868317,0.17823987500000002,0.9847039746033265,0.9526296763646508,-0.44412811597894003,0.8722573131570512,,-0.06878124415953153,-0.05048146695237099,0.0911007994,-0.09256525236364105,,1.013279e-05,2.0861626e-06,3.0994415e-06,0.99999994,-1.5735626e-05,-1.4089048e-05,1.5728176e-05,0.9999999,-2.3245811e-06,1.4089048e-05,2.3543835e-06,1.0,704,2.142,0,0,0.0,False,-0.2575545046013441,1.047294098122872
2.1648881528526545,14:37:24.394723,14:36:04.393851,0,,0.09393923,0.038518757,0.047939613,0.2799096,-0.4511091,-0.84743804,0.05910608,-0.87295127,0.48421308,-0.9582051,-0.18562451,-0.21768431,,0.061349917,0.009474768,0.03828019,0.0626333,-0.46745446,0.8817954,-0.030371338,0.88222826,0.46984118,-0.99757445,-0.056209058,0.041059643,,0.08362983,1.2907728,0.4262706,0.9937991,0.08373068,-0.07316098,0.013469191,-0.7437868,-0.6682812,-0.11037182,0.6631518,-0.74030244,,-0.08807267,0.27738038,-0.11662118,-0.1863287,0.47323707,0.86100423,-0.61425704,-0.74006885,0.27383637,0.76679194,-0.47785434,0.42858526,,-0.06164759,0.42964134,-0.35825828,0.09583972,0.42411152,-0.9005244,-0.76062286,0.614773,0.2085834,0.6420807,0.66496885,0.3815086,,1.2711077719672348,0.5011590271399253,0.20658973730000002,-1.1845384907440781,0.7642079431881085,0.6605844234151317,-0.4193042177666948,,-1.310053513851949,0.17116665142431203,0.17823987500000002,0.9849136645468108,0.9526296763646508,-0.44420979471908056,0.8722573131570512,,-0.06878124415953153,-0.05048146695237099,0.0911007994,-0.09256525236364105,,1.013279e-05,2.0861626e-06,3.0994415e-06,0.99999994,-1.5735626e-05,-1.4089048e-05,1.5728176e-05,0.9999999,-2.3245811e-06,1.4089048e-05,2.3543835e-06,1.0,712,2.166,0,0,0.0,False,-0.25767366003838577,1.0475354991267694
2.1911352849565446,14:37:24.421040,14:36:04.529436,0,,0.094045214,0.038290754,0.047963813,0.28007066,-0.45080724,-0.8475454,0.05809447,-0.8733014,0.48370397,-0.95822,-0.1847089,-0.21839681,,0.06134853,0.009466841,0.038274586,0.062402472,-0.4673037,0.8818917,-0.03026855,0.88232124,0.4696731,-0.997592,-0.05600235,0.040914416,,0.08362983,1.2907728,0.4262706,0.9937991,0.08373068,-0.07316098,0.013469191,-0.7437868,-0.6682812,-0.11037182,0.6631518,-0.74030244,,-0.08817886,0.27721983,-0.11678473,-0.18648022,0.4728506,0.86118376,-0.61502916,-0.7397398,0.27299124,0.76613593,-0.4787456,0.42876372,,-0.061644938,0.4296322,-0.35826063,0.096064806,0.42392564,-0.9005879,-0.7605327,0.61496335,0.20835091,0.64215386,0.6649113,0.38148564,,1.270157875823705,0.5008655632907048,0.20639140493000002,-1.18369973097014,0.764071306688343,0.6615126287202339,-0.41963090589896357,,-1.3100071774547035,0.17113576049281515,0.17823987500000002,0.98533304443378,0.9526296763646508,-0.44404643723879944,0.8727473453554542,,-0.06878124415953153,-0.05048146695237099,0.0911007994,-0.09256525236364105,,1.013279e-05,2.0861626e-06,3.0994415e-06,0.99999994,-1.5735626e-05,-1.4089048e-05,1.5728176e-05,0.9999999,-2.3245811e-06,1.4089048e-05,2.3543835e-06,1.0,741,2.256,0,0,0.0,False,-0.25737577144578117,1.0480665813353434
2.2175447209738195,14:37:24.505182,14:36:04.529436,0,,0.09426411,0.037441626,0.047974333,0.28608078,-0.44484836,-0.8486859,0.056887954,-0.876256,0.4784757,-0.9565153,-0.18516257,-0.22537363,,0.061356403,0.009415015,0.038245916,0.061631475,-0.46705425,0.88207805,-0.030052304,0.8824891,0.46937168,-0.99764645,-0.05543658,0.04035303,,0.08362983,1.2907728,0.4262706,0.9937991,0.08373068,-0.07316098,0.013469191,-0.7437868,-0.6682812,-0.11037182,0.6631518,-0.74030244,,-0.08839162,0.27658117,-0.11734675,-0.19261819,0.46698502,0.86303145,-0.6152105,-0.74265337,0.2645411,0.7644699,-0.47999057,0.43034264,,-0.06164553,0.4295756,-0.35827976,0.09682257,0.4235824,-0.90066826,-0.7603126,0.61545163,0.2077114,0.6423006,0.66467834,0.38164467,,1.2671846236671287,0.49930557125011144,0.20575103767000003,-1.189990429274676,0.7635247606892812,0.6622033365554412,-0.41914087370056086,,-1.309845000064345,0.17085774210934304,0.17824117129000003,0.9868008740381715,0.9526296763646508,-0.44306629235711276,0.8729106894215882,,-0.06878124415953153,-0.05048146695237099,0.0911007994,-0.09256525236364105,,1.013279e-05,2.0861626e-06,3.0994415e-06,0.99999994,-1.5735626e-05,-1.4089048e-05,1.5728176e-05,0.9999999,-2.3245811e-06,1.4089048e-05,2.3543835e-06,1.0,749,2.281,0,0,0.0,True,-0.2566012611050077,1.0478251803314462
2.3016867449041456,14:37:24.534624,14:36:04.529436,0,,0.094328925,0.037126914,0.047857657,0.2887007,-0.44318926,-0.8486667,0.056450337,-0.87698895,0.47718298,-0.9557538,-0.18567052,-0.22816923,,0.0613603,0.009407266,0.038243294,0.0616431,-0.46702835,0.882091,-0.03009814,0.88249993,0.46934828,-0.9976443,-0.055481404,0.040343314,,0.08362983,1.2907728,0.4262706,0.9937991,0.08373068,-0.07316098,0.013469191,-0.7437868,-0.6682812,-0.11037182,0.6631518,-0.74030244,,-0.088442564,0.27626523,-0.11746701,-0.19529627,0.46538815,0.8632921,-0.6152116,-0.7436523,0.26171726,0.76378924,-0.47999492,0.43154472,,-0.061648555,0.42956793,-0.35828358,0.09681315,0.42356333,-0.9006783,-0.76034325,0.61542207,0.20768681,0.6422658,0.6647178,0.38163447,,1.26577908628402,0.4983788433052045,0.20559807545000003,-1.192926088483459,0.7635247606892812,0.6610598341934733,-0.4194675618328292,,-1.309845000064345,0.1708036829792235,0.17824117129000003,0.9868008740381715,0.9526296763646508,-0.44306629235711276,0.8729106894215882,,-0.06878124415953153,-0.05048146695237099,0.0911007994,-0.09256525236364105,,1.013279e-05,2.0861626e-06,3.0994415e-06,0.99999994,-1.5735626e-05,-1.4089048e-05,1.5728176e-05,0.9999999,-2.3245811e-06,1.4089048e-05,2.3543835e-06,1.0,757,2.306,0,0,0.0,True,-0.2571374605716965,1.0479700209337843
2.3311075000092387,14:37:24.557284,14:36:04.668361,0,,0.09436641,0.036984697,0.04775183,0.28866738,-0.4438153,-0.8483508,0.055627584,-0.87679994,0.47762674,-0.9558121,-0.18506682,-0.22841528,,0.061358817,0.009405597,0.038241506,0.061630502,-0.4670272,0.8820925,-0.030109912,0.8825003,0.46934688,-0.9976448,-0.055485845,0.040326804,,0.08362983,1.2907728,0.4262706,0.9937991,0.08373068,-0.07316098,0.013469191,-0.7437868,-0.6682812,-0.11037182,0.6631518,-0.74030244,,-0.08846861,0.2760865,-0.11748154,-0.19525152,0.4659515,0.8629983,-0.6158589,-0.74306583,0.2618606,0.7632789,-0.4803565,0.4320451,,-0.06164673,0.42956573,-0.35828373,0.096826255,0.42356285,-0.9006771,-0.76034945,0.6154189,0.20767353,0.6422565,0.6647211,0.3816445,,1.2649759220651005,0.49779191560676345,0.20556566820000002,-1.1922970186530055,0.7636613971890466,0.6605400225890741,-0.4186508415021577,,-1.3098295545985965,0.17079596024634924,0.17824117129000003,0.9868008740381715,0.9526296763646508,-0.44306629235711276,0.8729106894215882,,-0.06878124415953153,-0.05048146695237099,0.0911007994,-0.09256525236364105,,1.013279e-05,2.0861626e-06,3.0994415e-06,0.99999994,-1.5735626e-05,-1.4089048e-05,1.5728176e-05,0.9999999,-2.3245811e-06,1.4089048e-05,2.3543835e-06,1.0,765,2.33,0,0,0.0,True,-0.25677999426057063,1.0478251803314462
2.353789286920801,14:37:24.584016,14:36:04.668361,0,,0.09439774,0.0368229,0.04762931,0.28909978,-0.4436506,-0.84828967,0.054765135,-0.87701225,0.47733644,-0.9557312,-0.18445444,-0.22924757,,0.061358817,0.009405597,0.038241506,0.061630502,-0.46709922,0.88205427,-0.030109912,0.88246197,0.46941894,-0.9976448,-0.055489153,0.040322244,,0.08362983,1.2907728,0.4262706,0.9937991,0.08373068,-0.07316098,0.013469191,-0.7437868,-0.6682812,-0.11037182,0.6631518,-0.74030244,,-0.088486776,0.27588257,-0.117497265,-0.19568348,0.4657299,0.86302006,-0.6164756,-0.74282694,0.2610862,0.7626702,-0.48094055,0.43247005,,-0.06164673,0.42956573,-0.35828373,0.096826255,0.4236364,-0.90064245,-0.76034945,0.6154019,0.2077238,0.6422565,0.6646899,0.3816988,,1.2641032532503131,0.49710459238095744,0.20553066837000003,-1.1922970186530055,0.7636613971890466,0.660376665108793,-0.4186508415021577,,-1.3098295545985965,0.17079596024634924,0.17824117129000003,0.9868008740381715,0.9526296763646508,-0.4429846136169721,0.872747345355454,,-0.06878124415953153,-0.05048146695237099,0.0911007994,-0.09256525236364105,,1.013279e-05,2.0861626e-06,3.0994415e-06,0.99999994,-1.5735626e-05,-1.4089048e-05,1.5728176e-05,0.9999999,-2.3245811e-06,1.4089048e-05,2.3543835e-06,1.0,773,2.355,0,0,0.0,True,-0.2575545046013441,1.047680339729108
2.3805022528395057,14:37:24.608935,14:36:04.668361,0,,0.09441101,0.036768675,0.047587827,0.28939587,-0.44339547,-0.8483221,0.05453652,-0.8771678,0.47707683,-0.9556546,-0.1843285,-0.22966763,,0.061358817,0.009405597,0.038241506,0.061630502,-0.46709922,0.88205427,-0.030109912,0.88246197,0.46941894,-0.9976448,-0.055489153,0.040322244,,0.08362983,1.2907728,0.4262706,0.9937991,0.08373068,-0.07316098,0.013469191,-0.7437868,-0.6682812,-0.11037182,0.6631518,-0.74030244,,-0.088495575,0.27581373,-0.117502026,-0.19598393,0.4654649,0.86309487,-0.61661506,-0.74287635,0.26061586,0.76248026,-0.4811208,0.4326045,,-0.06164673,0.42956573,-0.35828373,0.096826255,0.4236364,-0.90064245,-0.76034945,0.6154019,0.2077238,0.6422565,0.6646899,0.3816988,,1.263794343935344,0.4968883558604792,0.20551900176000001,-1.19250670859649,0.7636613971890466,0.660376665108793,-0.4186508415021577,,-1.3098295545985965,0.17079596024634924,0.17824117129000003,0.9868008740381715,0.9526296763646508,-0.4429846136169721,0.872747345355454,,-0.06878124415953153,-0.05048146695237099,0.0911007994,-0.09256525236364105,,1.013279e-05,2.0861626e-06,3.0994415e-06,0.99999994,-1.5735626e-05,-1.4089048e-05,1.5728176e-05,0.9999999,-2.3245811e-06,1.4089048e-05,2.3543835e-06,1.0,802,2.445,0,0,0.0,True,-0.2579715486309908,1.0480665813353434
2.4053908500354737,14:37:24.689684,14:36:04.825441,0,,0.09438181,0.036858663,0.04769714,0.28904212,-0.443668,-0.8483002,0.0551441,-0.8769356,0.47743374,-0.95572686,-0.18477711,-0.22900572,,0.061359286,0.009407862,0.038239777,0.061628833,-0.46710292,0.8820524,-0.030103356,0.88246036,0.46942228,-0.997645,-0.055482715,0.040323615,,0.08362983,1.2907728,0.4262706,0.9937991,0.08373068,-0.07316098,0.013469191,-0.7437868,-0.6682812,-0.11037182,0.6631518,-0.74030244,,-0.08847774,0.27595544,-0.11752453,-0.19562925,0.46577784,0.8630065,-0.6161873,-0.7429838,0.26132032,0.76291704,-0.4806517,0.43235573,,-0.061647043,0.4295659,-0.3582809,0.096827604,0.42363915,-0.900641,-0.7603451,0.61540616,0.20772731,0.64226145,0.66468424,0.38170025,,1.2644662216954017,0.4973362743671842,0.20551122402000002,-1.19250670859649,0.7636613971890466,0.6602949863686525,-0.41881418556829186,,-1.3098295545985965,0.1708036829792235,0.17824376387000002,0.9868008740381715,0.9526296763646508,-0.4429846136169721,0.872747345355454,,-0.06878124415953153,-0.05048146695237099,0.0911007994,-0.09256525236364105,,1.013279e-05,2.0861626e-06,3.0994415e-06,0.99999994,-1.5735626e-05,-1.4089048e-05,1.5728176e-05,0.9999999,-2.3245811e-06,1.4089048e-05,2.3543835e-06,1.0,810,2.469,0,0,0.0,True,-0.2596993024681016,1.04748721892599
2.4861896589864045,14:37:24.719460,14:36:04.825441,0,,0.094356775,0.03687404,0.047720715,0.28887427,-0.44369054,-0.84834564,0.055270344,-0.87691665,0.47745374,-0.9557703,-0.1848123,-0.22879589,,0.06135827,0.009407564,0.03823906,0.06162171,-0.46710426,0.88205224,-0.030105919,0.88245976,0.46942323,-0.99764544,-0.055481702,0.040316045,,0.08362983,1.2907728,0.4262706,0.9937991,0.08373068,-0.07316098,0.013469191,-0.7437868,-0.6682812,-0.11037182,0.6631518,-0.74030244,,-0.08845521,0.27598432,-0.117533304,-0.19545889,0.46580356,0.8630312,-0.6161108,-0.7429917,0.2614782,0.7630225,-0.4806146,0.43221095,,-0.061645914,0.42956534,-0.3582807,0.09683483,0.42364028,-0.9006397,-0.760346,0.6154067,0.20772243,0.6422593,0.66468304,0.38170597,,1.2646670127501314,0.4973594425658069,0.20550863144000003,-1.19250670859649,0.7636613971890466,0.6602949863686525,-0.41881418556829186,,-1.3098218318657222,0.1708036829792235,0.17824376387000002,0.9868008740381715,0.9526296763646508,-0.4429846136169721,0.872747345355454,,-0.06878124415953153,-0.05048146695237099,0.0911007994,-0.09256525236364105,,1.013279e-05,2.0861626e-06,3.0994415e-06,0.99999994,-1.5735626e-05,-1.4089048e-05,1.5728176e-05,0.9999999,-2.3245811e-06,1.4089048e-05,2.3543835e-06,1.0,818,2.494,0,0,0.0,True,-0.2603546573718325,1.046666455512739
2.5159618039615452,14:37:24.747846,14:36:04.825441,0,,0.094346225,0.036864325,0.047712162,0.28883922,-0.4436602,-0.8483735,0.0552198,-0.87694734,0.47740328,-0.9557838,-0.18473965,-0.22879809,,0.06135827,0.009407564,0.03823906,0.06162171,-0.46710426,0.88205224,-0.030105919,0.88245976,0.46942323,-0.99764544,-0.055481702,0.040316045,,0.08362983,1.2907728,0.4262706,0.9937991,0.08373068,-0.07316098,0.013469191,-0.7437868,-0.6682812,-0.11037182,0.6631518,-0.74030244,,-0.088443816,0.27597213,-0.1175342,-0.19542234,0.46576655,0.86305946,-0.61615485,-0.74296814,0.2614412,0.76299626,-0.4806868,0.4321769,,-0.061645914,0.42956534,-0.3582807,0.09683483,0.42364028,-0.9006397,-0.760346,0.6154067,0.20772243,0.6422593,0.66468304,0.38170597,,1.2646670127501314,0.4972744925041904,0.20550863144000003,-1.19250670859649,0.7636613971890466,0.6602949863686525,-0.41881418556829186,,-1.3098218318657222,0.1708036829792235,0.17824376387000002,0.9868008740381715,0.9526296763646508,-0.4429846136169721,0.872747345355454,,-0.06878124415953153,-0.05048146695237099,0.0911007994,-0.09256525236364105,,1.013279e-05,2.0861626e-06,3.0994415e-06,0.99999994,-1.5735626e-05,-1.4089048e-05,1.5728176e-05,0.9999999,-2.3245811e-06,1.4089048e-05,2.3543835e-06,1.0,826,2.519,0,0,0.0,True,-0.2603546573718325,1.0451214890877965
2.544327314943075,14:37:24.769435,14:36:04.825441,0,,0.09435448,0.036856458,0.047704592,0.2888962,-0.4436496,-0.8483596,0.055170447,-0.8769567,0.4773919,-0.9557694,-0.184721,-0.22887322,,0.06135623,0.009406998,0.03823763,0.06160744,-0.46710673,0.882052,-0.030111194,0.88245857,0.4694252,-0.9976462,-0.055479765,0.040300876,,0.08362983,1.2907728,0.4262706,0.9937991,0.08373068,-0.07316098,0.013469191,-0.7437868,-0.6682812,-0.11037182,0.6631518,-0.74030244,,-0.08845124,0.27596068,-0.11753333,-0.1954801,0.46575424,0.863053,-0.6161859,-0.7429634,0.2613817,0.7629564,-0.4807062,0.43222573,,-0.061643653,0.42956424,-0.3582803,0.096849285,0.42364252,-0.90063715,-0.76034784,0.6154077,0.20771265,0.64225495,0.66468066,0.38171747,,1.2645897854213892,0.497259047038442,0.20550733515000003,-1.19250670859649,0.7636613971890466,0.6602949863686525,-0.41881418556829186,,-1.3098063863999738,0.1708036829792235,0.17824376387000002,0.9868008740381715,0.9526296763646508,-0.4429846136169721,0.872747345355454,,-0.06878124415953153,-0.05048146695237099,0.0911007994,-0.09256525236364105,,1.013279e-05,2.0861626e-06,3.0994415e-06,0.99999994,-1.5735626e-05,-1.4089048e-05,1.5728176e-05,0.9999999,-2.3245811e-06,1.4089048e-05,2.3543835e-06,1.0,834,2.543,0,0,0.0,True,-0.259282258438454,1.043093720655059
2.5659295909572393,14:37:24.799472,14:36:04.825441,0,,0.09437786,0.03684129,0.047689065,0.2890451,-0.44363454,-0.8483167,0.055069506,-0.8769685,0.47738194,-0.9557303,-0.18470117,-0.22905278,,0.06135623,0.009406998,0.03823763,0.06160744,-0.46710673,0.882052,-0.030111194,0.88245857,0.4694252,-0.9976462,-0.055479765,0.040300876,,0.08362983,1.2907728,0.4262706,0.9937991,0.08373068,-0.07316098,0.013469191,-0.7437868,-0.6682812,-0.11037182,0.6631518,-0.74030244,,-0.0884729,0.27593744,-0.11753044,-0.19563134,0.46573746,0.8630278,-0.61624515,-0.74296,0.26125166,0.7628698,-0.48072767,0.43235472,,-0.061643653,0.42956424,-0.3582803,0.096849285,0.42364252,-0.90063715,-0.76034784,0.6154077,0.20771265,0.64225495,0.66468066,0.38171747,,1.264404439832408,0.49725132430556773,0.20550474257,-1.19250670859649,0.7636613971890466,0.6602949863686525,-0.41881418556829186,,-1.3098063863999738,0.1708036829792235,0.17824376387000002,0.9868008740381715,0.9526296763646508,-0.4429846136169721,0.872747345355454,,-0.06878124415953153,-0.05048146695237099,0.0911007994,-0.09256525236364105,,1.013279e-05,2.0861626e-06,3.0994415e-06,0.99999994,-1.5735626e-05,-1.4089048e-05,1.5728176e-05,0.9999999,-2.3245811e-06,1.4089048e-05,2.3543835e-06,1.0,842,2.568,0,0,0.0,True,-0.25868648125324345,1.0407762710176451
