AlexandreBanks6/ExpertPlaybackApp/resources/Motions/P_14/PC1/Data_PC1_5.csv
Task Time,PC1 Time,PC2 Time,Gaze Calib,s_T_psm1,Tx,Ty,Tz,R00,R01,R02,R10,R11,R12,R20,R21,R22,s_T_psm3,Tx,Ty,Tz,R00,R01,R02,R10,R11,R12,R20,R21,R22,cart_T_ecm,Tx,Ty,Tz,R00,R01,R02,R10,R11,R12,R20,R21,R22,ecm_T_psm1,Tx,Ty,Tz,R00,R01,R02,R10,R11,R12,R20,R21,R22,ecm_T_psm3,Tx,Ty,Tz,R00,R01,R02,R10,R11,R12,R20,R21,R22,psm1_joints,q1,q2,q3,q4,q5,q6,jaw,psm3_joints,q1,q2,q3,q4,q5,q6,jaw,ecm_joints,q1,q2,q3,q4,ecmi_T_ecm,Tx,Ty,Tz,R00,R01,R02,R10,R11,R12,R20,R21,R22,Sample #,Task Duration (s),Collisions (binary),Collisions (increments),Cumulative Collision Time (s),Clutch Press,MTMR Angle,MTML Angle
""
lci_T_si,,,,,-0.049124364,0.02991215,0.20692563,0.9896189,-0.012728876,0.14315182,0.085764766,-0.7469579,-0.65931654,0.115320735,0.6647495,-0.7381119
rci_T_si,,,,,-0.058113385,0.033566415,0.21507215,0.9884834,-0.028870352,0.14854968,0.08002212,-0.73343956,-0.675028,0.1284405,0.6791413,-0.7226826
ecm_T_lc,,,,,-4.4061628e-05,-0.00034663224,-0.01840835,-0.99912,0.030754527,0.028518902,-0.031987965,-0.99852574,-0.043852776,0.027128186,-0.04472645,0.9986309
ecm_T_rc,,,,,-0.0043358393,0.01870579,-0.007592615,-0.99555075,-0.052743673,-0.078081585,0.04863213,-0.9973746,0.053654674,-0.08070653,0.04961868,0.9955021
cart_T_ecmi,,,,,0.0835391,1.2908473,0.4262244,0.99383307,0.08264993,-0.07392409,0.012264122,-0.7445041,-0.66750526,-0.110206045,0.6624822,-0.74092644
ecmac_T_ecmrep_psm1,,,,,0.023195708,-0.2631036,-0.30022871,0.99664557,0.07921609,0.02055357,-0.078295335,0.99603295,-0.04228661,-0.023821812,0.040535513,0.9988941
ecmac_T_ecmrep_psm3,,,,,0.022281613,-0.4507852,-0.5326207,0.99995744,0.002629678,0.008843231,-0.0032003638,0.99787027,0.06515156,-0.008653069,-0.06517708,0.9978362
""
0,13:59:13.831647,13:57:53.824127,0,,0.12628886,-0.0017622933,0.02415815,0.5396846,0.6970677,-0.47205633,0.075215906,0.51855856,0.8517273,0.83850044,-0.49517033,0.22742745,,0.01728303,-0.0089898035,0.005363643,0.20985866,0.63545257,0.74307436,-0.31647775,-0.6749351,0.6665617,0.92509526,-0.37505013,0.059465587,,0.08340446,1.2908493,0.42621395,0.9938311,0.08277097,-0.07381556,0.01242571,-0.7444906,-0.66751724,-0.110206045,0.6624822,-0.74092644,,-0.118893966,0.25200054,-0.1028869,-0.62914795,-0.6064247,0.48623237,0.5940919,0.028217023,0.8039021,-0.5012261,0.7946401,0.3425193,,-0.014911357,0.41726547,-0.3361654,-0.37201217,-0.56431854,-0.7369882,0.4382673,-0.80668515,0.39646038,-0.8182474,-0.17550972,0.5474191,,1.0756067892562413,0.49792320206562524,0.21625617183,3.3105848277336705,-0.5802952145038256,-1.1904407421842698,-0.3946392637804188,,-1.0197096487126043,0.2692762498584602,0.19717996819000003,-1.5682710873207575,-1.1809492674727018,-0.3482855525684158,0.8765042588765424,,-0.06912158336367043,-0.051437034717837886,0.09109722752,-0.09158399527144698,,-0.00013263896,-1.9490719e-05,1.6331673e-05,1.0,0.00012046099,0.000107713044,-0.00012046099,1.0,1.7881393e-05,-0.000107713044,-1.7940998e-05,1.0,35,0.105,0,0,0.0,False,-0.23813216836348694,1.0506737121774343
0.1277892431244254,13:59:13.851229,13:57:53.824127,0,,0.12629203,-0.0017632619,0.024168193,0.539178,0.6982828,-0.47083786,0.07402781,0.51760364,0.85241205,0.83893204,-0.49445695,0.22738805,,0.017281279,-0.0089888945,0.0053637624,0.20986821,0.63545126,0.74307275,-0.3164816,-0.6749313,0.66656375,0.92509174,-0.37505937,0.05946198,,0.08340446,1.2908493,0.42621395,0.9938311,0.08277097,-0.07381556,0.01242571,-0.7444906,-0.66751724,-0.110206045,0.6624822,-0.74092644,,-0.11889835,0.25200638,-0.10289452,-0.6287581,-0.60776305,0.48506433,0.59351563,0.02793472,0.8043375,-0.50239676,0.79362696,0.34315267,,-0.014909638,0.41726637,-0.33616498,-0.372021,-0.56431556,-0.736986,0.43826094,-0.80668914,0.3964593,-0.8182467,-0.17550099,0.54742277,,1.0756222347219897,0.4979077565998768,0.21625487554000003,3.310794517677155,-0.5816615795014799,-1.1893265631473058,-0.3946392637804188,,-1.01970192597973,0.2692839725913344,0.19717996819000003,-1.5682710873207575,-1.1809492674727018,-0.3482855525684158,0.8765042588765424,,-0.06912158336367043,-0.051437034717837886,0.09109722752,-0.09158399527144698,,-0.00013263896,-1.9490719e-05,1.6331673e-05,1.0,0.00012046099,0.000107713044,-0.00012046099,1.0,1.7881393e-05,-0.000107713044,-1.7940998e-05,1.0,43,0.129,0,0,0.0,False,-0.2386683678301762,1.0507702725789931
0.14737155591137707,13:59:13.885962,13:57:53.926662,0,,0.12631913,-0.0017668083,0.02419445,0.53600836,0.70124996,-0.4700464,0.07197133,0.5168019,0.8530744,0.8411392,-0.49108487,0.22654024,,0.017280862,-0.0089916065,0.0053609014,0.21002525,0.6354829,0.7430013,-0.31648773,-0.6748433,0.66664994,0.925054,-0.3751641,0.05938834,,0.08340446,1.2908493,0.42621395,0.9938311,0.08277097,-0.07381556,0.01242571,-0.7444906,-0.66751724,-0.110206045,0.6624822,-0.74092644,,-0.11892845,0.2520202,-0.10291293,-0.6259796,-0.61114126,0.48441294,0.593582,0.029471142,0.80423373,-0.5057766,0.7909727,0.34431407,,-0.014908752,0.41726255,-0.3361652,-0.37216896,-0.5643276,-0.73690206,0.43820944,-0.8067108,0.39647225,-0.818207,-0.17536275,0.5475264,,1.0755063937288762,0.49789231113412835,0.21625487554000003,3.30869761824231,-0.5856240379946778,-1.1869122313415152,-0.39365919938361293,,-1.019694203246856,0.2692762498584602,0.19717996819000003,-1.5680613973772732,-1.1808126309729363,-0.34856032795239356,0.8761775707442738,,-0.06912158336367043,-0.051437034717837886,0.09109722752,-0.09158399527144698,,-0.00013263896,-1.9490719e-05,1.6331673e-05,1.0,0.00012046099,0.000107713044,-0.00012046099,1.0,1.7881393e-05,-0.000107713044,-1.7940998e-05,1.0,54,0.163,0,0,0.0,False,-0.23884710098573914,1.051108233984449
0.18200425105169415,13:59:13.906003,13:57:53.926662,0,,0.12632655,-0.0017717332,0.024194837,0.5359736,0.701121,-0.4702783,0.071983665,0.51706547,0.85291356,0.84116024,-0.49099153,0.22666419,,0.017281353,-0.008992828,0.0053604245,0.21002279,0.6354214,0.7430546,-0.3164816,-0.6749018,0.6665936,0.92505664,-0.37516287,0.059354395,,0.08340446,1.2908493,0.42621395,0.9938311,0.08277097,-0.07381556,0.01242571,-0.7444906,-0.66751724,-0.110206045,0.6624822,-0.74092644,,-0.11893613,0.2520165,-0.10291561,-0.625947,-0.61101043,0.48462006,0.59360653,0.029734476,0.8042059,-0.5057881,0.7910639,0.34408757,,-0.014909154,0.4172613,-0.3361657,-0.37216696,-0.56426775,-0.7369489,0.43821582,-0.80674136,0.39640293,-0.8182045,-0.17541458,0.54751354,,1.075460057331631,0.4979000338670026,0.21625228296000001,3.30869761824231,-0.5856240379946778,-1.1872389463020774,-0.39431257564815003,,-1.019694203246856,0.26926852712558597,0.19717996819000003,-1.5680613973772732,-1.1808126309729363,-0.348478649212253,0.8760142266781397,,-0.06912158336367043,-0.051437034717837886,0.09109722752,-0.09158399527144698,,-0.00013263896,-1.9490719e-05,1.6331673e-05,1.0,0.00012046099,0.000107713044,-0.00012046099,1.0,1.7881393e-05,-0.000107713044,-1.7940998e-05,1.0,62,0.187,0,0,0.0,False,-0.23968118904503388,1.0513013547875674
0.20214608707465231,13:59:13.933310,13:57:53.926662,0,,0.12633753,-0.0017770231,0.024200618,0.5359243,0.7010433,-0.47045016,0.07197964,0.51726073,0.85279554,0.841192,-0.4908967,0.22675171,,0.017282337,-0.008995302,0.0053593516,0.21001783,0.6354199,0.7430573,-0.31646925,-0.67490995,0.66659117,0.925062,-0.37515077,0.05934775,,0.08340446,1.2908493,0.42621395,0.9938311,0.08277097,-0.07381556,0.01242571,-0.7444906,-0.66751724,-0.110206045,0.6624822,-0.74092644,,-0.11894796,0.252016,-0.10292203,-0.625902,-0.61093426,0.48477417,0.5936267,0.029946078,0.8041832,-0.50582016,0.79111475,0.34392357,,-0.0149099585,0.41725874,-0.3361667,-0.37216294,-0.5642684,-0.7369504,0.43822858,-0.8067378,0.39639607,-0.8181995,-0.1754288,0.54751647,,1.0754059982015114,0.4979309247984995,0.21624580151000003,3.30869761824231,-0.5856240379946778,-1.187483982522499,-0.39480260784655274,,-1.019694203246856,0.2692530816598375,0.19717996819000003,-1.5680613973772732,-1.1808126309729363,-0.34847864921225297,0.8763409148104082,,-0.06912158336367043,-0.051437034717837886,0.09109722752,-0.09158399527144698,,-0.00013263896,-1.9490719e-05,1.6331673e-05,1.0,0.00012046099,0.000107713044,-0.00012046099,1.0,1.7881393e-05,-0.000107713044,-1.7940998e-05,1.0,70,0.211,0,0,0.0,False,-0.23980034448207643,1.0508668329805522
0.2294273809529841,13:59:13.955259,13:57:53.926662,0,,0.1263302,-0.0017742068,0.024205148,0.5365815,0.70027053,-0.47085193,0.07237738,0.5177331,0.85247517,0.8407389,-0.4915015,0.22712225,,0.017284855,-0.008994646,0.0053602457,0.2100037,0.6354848,0.7430058,-0.31647387,-0.67485505,0.6666446,0.9250636,-0.3751397,0.059392244,,0.08340446,1.2908493,0.42621395,0.9938311,0.08277097,-0.07381556,0.01242571,-0.7444906,-0.66751724,-0.110206045,0.6624822,-0.74092644,,-0.11894108,0.2520214,-0.102924384,-0.6264801,-0.6100725,0.4851126,0.5935946,0.029924467,0.8042077,-0.50514174,0.79178035,0.34338865,,-0.014912593,0.41725954,-0.3361665,-0.37214935,-0.56433386,-0.7369072,0.4382285,-0.80670106,0.39647093,-0.8182058,-0.17538732,0.54752046,,1.075460057331631,0.49796181572999637,0.21623932006000002,3.309116998129279,-0.584804218996085,-1.1883158474249587,-0.39480260784655297,,-1.0197096487126043,0.2692530816598375,0.19717996819000003,-1.5680613973772732,-1.1808126309729363,-0.3485603279523936,0.8765042588765426,,-0.06912158336367043,-0.051437034717837886,0.09109722752,-0.09158399527144698,,-0.00013263896,-1.9490719e-05,1.6331673e-05,1.0,0.00012046099,0.000107713044,-0.00012046099,1.0,1.7881393e-05,-0.000107713044,-1.7940998e-05,1.0,74,0.224,0,0,0.0,False,-0.24140894288214376,1.0506737121774343
0.25140543398447335,13:59:13.983839,13:57:53.926662,0,,0.12631787,-0.0017688051,0.024225771,0.5359524,0.7008355,-0.4707277,0.071781605,0.5177231,0.8525317,0.84119105,-0.49070594,0.22716779,,0.017284855,-0.008994646,0.0053602457,0.2100037,0.6354241,0.7430577,-0.31647387,-0.6749095,0.6665895,0.9250636,-0.37514454,0.059361607,,0.08340446,1.2908493,0.42621395,0.9938311,0.08277097,-0.07381556,0.01242571,-0.7444906,-0.66751724,-0.110206045,0.6624822,-0.74092644,,-0.11893097,0.25203967,-0.102937475,-0.6259401,-0.61072624,0.48498708,0.5934776,0.030425504,0.8042752,-0.50594795,0.7912571,0.3434078,,-0.014912593,0.41725954,-0.3361665,-0.37214935,-0.56427366,-0.73695326,0.4382285,-0.8067334,0.39640504,-0.8182058,-0.17543204,0.5475061,,1.075560452858996,0.49796181572999637,0.21623024603000002,3.30869761824231,-0.5857606744944432,-1.1879443157997864,-0.3952926400449559,,-1.0197096487126043,0.2692530816598375,0.19717996819000003,-1.5680613973772732,-1.1808126309729363,-0.3484786492122531,0.8766676029426768,,-0.06912158336367043,-0.051437034717837886,0.09109722752,-0.09158399527144698,,-0.00013263896,-1.9490719e-05,1.6331673e-05,1.0,0.00012046099,0.000107713044,-0.00012046099,1.0,1.7881393e-05,-0.000107713044,-1.7940998e-05,1.0,85,0.256,0,0,0.0,False,-0.2439707847785484,1.0507219923782136
0.27998434309847653,13:59:14.003857,13:57:54.061120,0,,0.12631452,-0.0017532706,0.024278134,0.5324823,0.7037794,-0.47027344,0.069485545,0.517369,0.85293674,0.8435842,-0.486851,0.2265873,,0.017284095,-0.008996181,0.0053592324,0.2100083,0.6354212,0.74305886,-0.31646544,-0.6749138,0.66658914,0.92506546,-0.37514165,0.059351325,,0.08340446,1.2908493,0.42621395,0.9938311,0.08277097,-0.07381556,0.01242571,-0.7444906,-0.66751724,-0.110206045,0.6624822,-0.74092644,,-0.11893294,0.25208628,-0.102966055,-0.622898,-0.6141142,0.48462543,0.5935015,0.032617897,0.8041716,-0.5096607,0.7885428,0.3441601,,-0.014911678,0.41725788,-0.3361671,-0.37215412,-0.5642714,-0.7369526,0.43823493,-0.80673385,0.3963971,-0.8182001,-0.17543752,0.54751277,,1.075668571119235,0.4979695384628706,0.21622117200000002,3.3061813389204957,-0.5901330424869373,-1.18568580272375,-0.3975794569708355,,-1.01970192597973,0.26924535892696333,0.19717996819000003,-1.5680613973772732,-1.1808126309729363,-0.3484786492122531,0.8766676029426768,,-0.06912158336367043,-0.051437034717837886,0.09109722752,-0.09158399527144698,,-0.00013263896,-1.9490719e-05,1.6331673e-05,1.0,0.00012046099,0.000107713044,-0.00012046099,1.0,1.7881393e-05,-0.000107713044,-1.7940998e-05,1.0,97,0.293,0,0,0.0,False,-0.2448048728378427,1.0509151131813312
0.3000011129770428,13:59:14.036903,13:57:54.061120,0,,0.1262851,-0.0017393157,0.024341732,0.53161967,0.7010573,-0.47528842,0.068847,0.52352995,0.8492211,0.8441804,-0.4841848,0.23005316,,0.01728344,-0.008998044,0.0053581595,0.21004274,0.6352593,0.74318755,-0.31653187,-0.6750196,0.6664505,0.92503494,-0.37522557,0.059296787,,0.08340446,1.2908493,0.42621395,0.9938311,0.08277097,-0.07381556,0.01242571,-0.7444906,-0.66751724,-0.110206045,0.6624822,-0.74092644,,-0.11891047,0.25214022,-0.103007145,-0.62214535,-0.6114031,0.4890004,0.59345794,0.039086875,0.8039154,-0.51062983,0.79035336,0.33852428,,-0.014910852,0.41725588,-0.33616784,-0.37218314,-0.56409794,-0.7370707,0.43816373,-0.8068457,0.3962481,-0.8182251,-0.17548078,0.5474616,,1.0759311440369588,0.4980544885244871,0.21618357959,3.3053425791465574,-0.5912261344850608,-1.1922272248469699,-0.39872286543377555,,-1.019694203246856,0.26924535892696333,0.19717996819000003,-1.5678517074337885,-1.1808126309729363,-0.3484786492122531,0.8766676029426768,,-0.06912158336367043,-0.051437034717837886,0.09109722752,-0.09158399527144698,,-0.00013263896,-1.9490719e-05,1.6331673e-05,1.0,0.00012046099,0.000107713044,-0.00012046099,1.0,1.7881393e-05,-0.000107713044,-1.7940998e-05,1.0,105,0.318,0,0,0.0,False,-0.24796249191945785,1.0506737121774343
0.33304554410278797,13:59:14.063389,13:57:54.061120,0,,0.12626623,-0.00174319,0.024428904,0.5305156,0.70180714,-0.47541553,0.0669246,0.52441853,0.8488264,0.8450291,-0.48213267,0.23124398,,0.017282948,-0.008996807,0.005358696,0.21004522,0.6351993,0.74323815,-0.31653804,-0.67507,0.6663965,0.92503226,-0.3752365,0.059269458,,0.08340446,1.2908493,0.42621395,0.9938311,0.08277097,-0.07381556,0.01242571,-0.7444906,-0.66751724,-0.110206045,0.6624822,-0.74092644,,-0.11890211,0.25219622,-0.10307615,-0.62125003,-0.6123397,0.48896682,0.592637,0.041087367,0.804421,-0.51266927,0.7895264,0.33736962,,-0.01491045,0.41725716,-0.33616734,-0.37218514,-0.5640374,-0.73711604,0.43815732,-0.8068799,0.3961856,-0.8182276,-0.1755184,0.54744583,,1.0761628260231855,0.49813943858610354,0.21612395025000003,3.305132889203073,-0.5935489549810733,-1.1928651614284882,-0.4011730264257898,,-1.019694203246856,0.2692530816598375,0.19717996819000003,-1.5678517074337885,-1.1808126309729363,-0.34839697047211243,0.8765042588765424,,-0.06912158336367043,-0.051437034717837886,0.09109722752,-0.09158399527144698,,-0.00013263896,-1.9490719e-05,1.6331673e-05,1.0,0.00012046099,0.000107713044,-0.00012046099,1.0,1.7881393e-05,-0.000107713044,-1.7940998e-05,1.0,124,0.375,0,0,0.0,False,-0.2489753131343151,1.050963393382111
0.35953063308261335,13:59:14.123974,13:57:54.061120,0,,0.1261957,-0.0017358139,0.02464497,0.53039604,0.69999313,-0.4782151,0.066511154,0.52800035,0.8466356,0.8451368,-0.48085877,0.23349188,,0.01728344,-0.008998044,0.0053581595,0.21004274,0.6351379,0.7432914,-0.31653187,-0.67512846,0.6663402,0.92503494,-0.3752353,0.059235513,,0.08340446,1.2908493,0.42621395,0.9938311,0.08277097,-0.07381556,0.01242571,-0.7444906,-0.66751724,-0.110206045,0.6624822,-0.74092644,,-0.118857,0.2523486,-0.103238836,-0.62116563,-0.61050165,0.49136645,0.5924059,0.04467312,0.8044001,-0.51303846,0.7907541,0.3339154,,-0.014910852,0.41725588,-0.33616784,-0.37218314,-0.56397754,-0.7371628,0.43816373,-0.80691046,0.3961163,-0.8182251,-0.1755702,0.54743296,,1.0768501492489915,0.498533297962689,0.21595672884000003,3.304503819372619,-0.5936855914808388,-1.1963476080909763,-0.4041132196162067,,-1.019694203246856,0.26924535892696333,0.19717996819000003,-1.5678517074337885,-1.1808126309729363,-0.3483152917319719,0.8763409148104082,,-0.06912158336367043,-0.051437034717837886,0.09109722752,-0.09158399527144698,,-0.00013263896,-1.9490719e-05,1.6331673e-05,1.0,0.00012046099,0.000107713044,-0.00012046099,1.0,1.7881393e-05,-0.000107713044,-1.7940998e-05,1.0,132,0.4,0,0,0.0,False,-0.24826038051206245,1.050963393382111
0.42008779011666775,13:59:14.148031,13:57:54.212325,0,,0.12616906,-0.0017237887,0.024689108,0.5313341,0.6985815,-0.47923687,0.067090064,0.5292214,0.84582716,0.8445016,-0.48156884,0.23432548,,0.01728405,-0.008999564,0.0053574443,0.2100701,0.634978,0.74342024,-0.3166006,-0.67523396,0.6662006,0.9250052,-0.37531602,0.05918789,,0.08340446,1.2908493,0.42621395,0.9938311,0.08277097,-0.07381556,0.01242571,-0.7444906,-0.66751724,-0.110206045,0.6624822,-0.74092644,,-0.11883508,0.25238803,-0.10326655,-0.6219916,-0.60895485,0.49224025,0.5923762,0.04516336,0.80439466,-0.51207125,0.7919181,0.3326391,,-0.014911343,0.4172543,-0.33616844,-0.37220535,-0.56380665,-0.73728234,0.43809247,-0.80702007,0.3959717,-0.8182531,-0.17561506,0.54737663,,1.0770818312352182,0.49865686168867657,0.21592172901,3.3049231992595884,-0.5924558629829498,-1.1980037991453687,-0.40411321961620694,,-1.019694203246856,0.26924535892696333,0.19717996819000003,-1.567642017490304,-1.1808126309729363,-0.3483152917319719,0.8763409148104082,,-0.06912158336367043,-0.051437034717837886,0.09109722752,-0.09158399527144698,,-0.00013263896,-1.9490719e-05,1.6331673e-05,1.0,0.00012046099,0.000107713044,-0.00012046099,1.0,1.7881393e-05,-0.000107713044,-1.7940998e-05,1.0,140,0.424,0,0,0.0,False,-0.24778375876389402,1.05105995378367
0.4441723709460348,13:59:14.169140,13:57:54.212325,0,,0.12609686,-0.0017004535,0.02477169,0.53247446,0.69608915,-0.48159188,0.06753889,0.5322038,0.843918,0.84374714,-0.48189104,0.23637179,,0.01728405,-0.008999564,0.0053574443,0.2100701,0.634978,0.74342024,-0.3166006,-0.67523396,0.6662006,0.9250052,-0.37531602,0.05918789,,0.08340446,1.2908493,0.42621395,0.9938311,0.08277097,-0.07381556,0.01242571,-0.7444906,-0.66751724,-0.110206045,0.6624822,-0.74092644,,-0.118771896,0.2524633,-0.103320554,-0.6230111,-0.60628927,0.4942372,0.5921622,0.04726507,0.80443144,-0.5110783,0.7938384,0.32957494,,-0.014911343,0.4172543,-0.33616844,-0.37220535,-0.56380665,-0.73728234,0.43809247,-0.80702007,0.3959717,-0.8182531,-0.17561506,0.54737663,,1.0776146998035396,0.4987881481475384,0.21585950709,3.3053425791465574,-0.5912261344850608,-1.2016202799631346,-0.40476659588074404,,-1.019694203246856,0.26924535892696333,0.19717996819000003,-1.567642017490304,-1.1808126309729363,-0.3483152917319719,0.8763409148104082,,-0.06912158336367043,-0.051437034717837886,0.09109722752,-0.09158399527144698,,-0.00013263896,-1.9490719e-05,1.6331673e-05,1.0,0.00012046099,0.000107713044,-0.00012046099,1.0,1.7881393e-05,-0.000107713044,-1.7940998e-05,1.0,148,0.449,0,0,0.0,False,-0.24885615769727254,1.0506737121774343
0.4652781900949776,13:59:14.198237,13:57:54.212325,0,,0.12604539,-0.0016788915,0.024826467,0.5315832,0.6961925,-0.48242646,0.067650676,0.5328492,0.84350175,0.8443001,-0.48102787,0.23615567,,0.017284542,-0.009000801,0.0053569674,0.21006761,0.6350379,0.74336976,-0.3165944,-0.67518365,0.6662545,0.9250078,-0.3753052,0.059215218,,0.08340446,1.2908493,0.42621395,0.9938311,0.08277097,-0.07381556,0.01242571,-0.7444906,-0.66751724,-0.110206045,0.6624822,-0.74092644,,-0.11872611,0.2525179,-0.10335277,-0.62218577,-0.60645866,0.4950684,0.5926491,0.048316956,0.8040103,-0.5115192,0.7936456,0.3293551,,-0.014911745,0.41725305,-0.33616894,-0.37220332,-0.5638672,-0.73723704,0.43809885,-0.806986,0.39603418,-0.8182506,-0.17557746,0.5473924,,1.0779622227828798,0.49882676181190955,0.21582839613000002,3.303874749542166,-0.5917726804841226,-1.2013379658286298,-0.4031331552194011,,-1.019694203246856,0.2692376361940891,0.19717996819000003,-1.567642017490304,-1.1808126309729363,-0.34839697047211243,0.876177570744274,,-0.06912158336367043,-0.051437034717837886,0.09109722752,-0.09158399527144698,,-0.00013263896,-1.9490719e-05,1.6331673e-05,1.0,0.00012046099,0.000107713044,-0.00012046099,1.0,1.7881393e-05,-0.000107713044,-1.7940998e-05,1.0,156,0.474,0,0,0.0,False,-0.24903489085283592,1.0508668329805522
0.4943778170272708,13:59:14.220192,13:57:54.212325,0,,0.12597397,-0.0016527921,0.02488029,0.53027177,0.6957466,-0.4845085,0.068819016,0.53426284,0.84251237,0.84503,-0.48010397,0.23542392,,0.017281525,-0.009000234,0.00535661,0.21008426,0.6350344,0.7433679,-0.31659597,-0.6751801,0.66625744,0.9250035,-0.37531748,0.059204668,,0.08340446,1.2908493,0.42621395,0.9938311,0.08277097,-0.07381556,0.01242571,-0.7444906,-0.66751724,-0.110206045,0.6624822,-0.74092644,,-0.1186602,0.25257602,-0.103383675,-0.62090915,-0.6060502,0.4971669,0.5940566,0.050002493,0.80286765,-0.5114377,0.79385316,0.32898113,,-0.014908708,0.41725352,-0.33616865,-0.37221894,-0.5638616,-0.7372334,0.43809256,-0.8069921,0.39602864,-0.8182469,-0.17556712,0.5474013,,1.0783715276252137,0.49883448454478374,0.21579598888,3.3011487802768666,-0.5917726804841226,-1.2012562870884895,-0.40394987555007233,,-1.0196787577811073,0.26924535892696333,0.19717996819000003,-1.567642017490304,-1.1808126309729363,-0.34839697047211243,0.876177570744274,,-0.06912158336367043,-0.051437034717837886,0.09109722752,-0.09158399527144698,,-0.00013263896,-1.9490719e-05,1.6331673e-05,1.0,0.00012046099,0.000107713044,-0.00012046099,1.0,1.7881393e-05,-0.000107713044,-1.7940998e-05,1.0,167,0.506,0,0,0.0,False,-0.2481412250750208,1.0505771517758753
0.5163290549535304,13:59:14.253976,13:57:54.212325,0,,0.12591924,-0.0016218275,0.024947643,0.5246927,0.6985721,-0.48651263,0.068529904,0.5349837,0.84207845,0.8485288,-0.47517312,0.2328289,,0.017281525,-0.009000234,0.00535661,0.21008426,0.6350344,0.7433679,-0.31659597,-0.6751801,0.66625744,0.9250035,-0.37531748,0.059204668,,0.08340446,1.2908493,0.42621395,0.9938311,0.08277097,-0.07381556,0.01242571,-0.7444906,-0.66751724,-0.110206045,0.6624822,-0.74092644,,-0.11861214,0.25264612,-0.10341927,-0.61579925,-0.6093901,0.49943468,0.5963939,0.053716928,0.8008925,-0.51488405,0.7910488,0.3303577,,-0.014908708,0.41725352,-0.33616865,-0.37221894,-0.5638616,-0.7372334,0.43809256,-0.8069921,0.39602864,-0.8182469,-0.17556712,0.5474013,,1.0786649914744342,0.49877270268178997,0.21577913711000002,3.2946483920288467,-0.5960084119768512,-1.197884010814041,-0.40378653148393817,,-1.0196787577811073,0.26924535892696333,0.19717996819000003,-1.567642017490304,-1.1808126309729363,-0.34839697047211243,0.876177570744274,,-0.06912158336367043,-0.051437034717837886,0.09109722752,-0.09158399527144698,,-0.00013263896,-1.9490719e-05,1.6331673e-05,1.0,0.00012046099,0.000107713044,-0.00012046099,1.0,1.7881393e-05,-0.000107713044,-1.7940998e-05,1.0,175,0.531,0,0,0.0,False,-0.2476646033268528,1.0509151131813312
0.550120874075219,13:59:14.279633,13:57:54.212325,0,,0.12589255,-0.0016226172,0.024957478,0.5249966,0.6978578,-0.48720944,0.06820062,0.53610885,0.8413893,0.8483674,-0.47495446,0.23386092,,0.017281368,-0.009003304,0.005354941,0.21011621,0.63487166,0.74349797,-0.31665626,-0.6752898,0.6661175,0.9249757,-0.37539536,0.059146702,,0.08340446,1.2908493,0.42621395,0.9938311,0.08277097,-0.07381556,0.01242571,-0.7444906,-0.66751724,-0.110206045,0.6624822,-0.74092644,,-0.11858687,0.25265315,-0.10343029,-0.616099,-0.6086483,0.49996927,0.59602934,0.054727927,0.8010954,-0.51494765,0.79155046,0.32905442,,-0.014908284,0.41725028,-0.33616987,-0.3722459,-0.56368846,-0.7373522,0.43802774,-0.8071021,0.3958761,-0.8182693,-0.17561746,0.54735166,,1.0788117233990444,0.4987186435516704,0.21576876679,3.2950677719158152,-0.5961450484766166,-1.1994061677131558,-0.4021530908225954,,-1.0196710350482332,0.2692376361940891,0.19717996819000003,-1.5674323275468196,-1.1808126309729363,-0.34839697047211243,0.876177570744274,,-0.06912158336367043,-0.051437034717837886,0.09109722752,-0.09158399527144698,,-0.00013263896,-1.9490719e-05,1.6331673e-05,1.0,0.00012046099,0.000107713044,-0.00012046099,1.0,1.7881393e-05,-0.000107713044,-1.7940998e-05,1.0,183,0.555,0,0,0.0,False,-0.24736671473424732,1.0511565141852286
0.5757689320016652,13:59:14.300183,13:57:54.358184,0,,0.12585692,-0.0016294792,0.024964869,0.52665013,0.6960964,-0.48794392,0.06822711,0.5375325,0.8404783,0.8473397,-0.47592914,0.23559882,,0.017284214,-0.00900694,0.005353689,0.21013154,0.6347123,0.74362975,-0.316715,-0.67540324,0.6659746,0.9249521,-0.37546092,0.059099376,,0.08340446,1.2908493,0.42621395,0.9938311,0.08277097,-0.07381556,0.01242571,-0.7444906,-0.66751724,-0.110206045,0.6624822,-0.74092644,,-0.11855275,0.25265437,-0.10344463,-0.6176177,-0.6067132,0.5004473,0.59529877,0.055206094,0.80160564,-0.51397246,0.79300153,0.32707936,,-0.014910895,0.41724655,-0.3361714,-0.37225726,-0.56352085,-0.7374746,0.4379692,-0.807206,0.39572912,-0.8182955,-0.17567813,0.54729307,,1.0790047917209,0.4986645844215508,0.21574932244000003,3.296745291463692,-0.5950519564784932,-1.2020944432258194,-0.402479778954864,,-1.0196787577811073,0.26922219072834064,0.19717996819000003,-1.567222637603335,-1.1808126309729363,-0.34839697047211243,0.876177570744274,,-0.06912158336367043,-0.051437034717837886,0.09109722752,-0.09158399527144698,,-0.00013263896,-1.9490719e-05,1.6331673e-05,1.0,0.00012046099,0.000107713044,-0.00012046099,1.0,1.7881393e-05,-0.000107713044,-1.7940998e-05,1.0,191,0.58,0,0,0.0,False,-0.24790291420093657,1.0506254319766548
0.5963284780737013,13:59:14.331160,13:57:54.358184,0,,0.12581411,-0.0016285852,0.025000155,0.5268347,0.6957322,-0.48826414,0.06814182,0.53802913,0.8401674,0.84723186,-0.47590056,0.23604393,,0.017283022,-0.009008251,0.005355537,0.21001348,0.6346371,0.7437272,-0.31676677,-0.6754924,0.6658596,0.9249612,-0.37542748,0.05916941,,0.08340446,1.2908493,0.42621395,0.9938311,0.08277097,-0.07381556,0.01242571,-0.7444906,-0.66751724,-0.110206045,0.6624822,-0.74092644,,-0.11851436,0.25268024,-0.1034752,-0.61779267,-0.6063292,0.50069666,0.59515613,0.055608913,0.8016837,-0.51392746,0.793267,0.32650575,,-0.014910051,0.41724718,-0.3361737,-0.37214306,-0.56345344,-0.73758376,0.43795606,-0.8072318,0.39569095,-0.8183545,-0.17577565,0.54717356,,1.0792596419057494,0.4986414162229281,0.21571821148000003,3.296745291463692,-0.5950519564784932,-1.2025845156666626,-0.40280646708713275,,-1.0196710350482332,0.26922219072834064,0.19717867190000002,-1.567222637603335,-1.1809492674727018,-0.3482855525684158,0.876177570744274,,-0.06912158336367043,-0.051437034717837886,0.09109722752,-0.09158399527144698,,-0.00013263896,-1.9490719e-05,1.6331673e-05,1.0,0.00012046099,0.000107713044,-0.00012046099,1.0,1.7881393e-05,-0.000107713044,-1.7940998e-05,1.0,199,0.605,0,0,0.0,False,-0.2481412250750208,1.0511565141852286
0.6273014601320028,13:59:14.357450,13:57:54.358184,0,,0.12577094,-0.0016208142,0.025021255,0.52733004,0.69392264,-0.4903003,0.06924072,0.54003847,0.8387873,0.84683454,-0.47626653,0.23673075,,0.017283514,-0.009009458,0.005354941,0.21001098,0.6346363,0.74372864,-0.31676063,-0.67549646,0.66585827,0.92496383,-0.37542143,0.059166074,,0.08340446,1.2908493,0.42621395,0.9938311,0.08277097,-0.07381556,0.01242571,-0.7444906,-0.66751724,-0.110206045,0.6624822,-0.74092644,,-0.118473604,0.2527018,-0.10349083,-0.61818004,-0.6043866,0.50256366,0.5956893,0.05693071,0.80119485,-0.5128428,0.7946544,0.3248332,,-0.014910453,0.4172459,-0.33617422,-0.37214103,-0.56345373,-0.73758453,0.43796244,-0.80723,0.39568752,-0.818352,-0.17578276,0.547175,,1.079491323891976,0.4986414162229281,0.21569617455,3.296325911576723,-0.5938222279806042,-1.2047307791618984,-0.4031331552194011,,-1.0196710350482332,0.2692144679954664,0.19717867190000002,-1.567222637603335,-1.1809492674727018,-0.3482855525684158,0.876177570744274,,-0.06912158336367043,-0.051437034717837886,0.09109722752,-0.09158399527144698,,-0.00013263896,-1.9490719e-05,1.6331673e-05,1.0,0.00012046099,0.000107713044,-0.00012046099,1.0,1.7881393e-05,-0.000107713044,-1.7940998e-05,1.0,214,0.65,0,0,0.0,False,-0.24802206963797868,1.0507702725789931
0.6535922870971262,13:59:14.397838,13:57:54.455653,0,,0.12571229,-0.001594156,0.025118113,0.5239851,0.697667,-0.48856956,0.06590521,0.53869087,0.8399218,0.8491738,-0.4723058,0.23628603,,0.017277986,-0.009009577,0.005353749,0.21004182,0.63462865,0.7437264,-0.31675753,-0.67549336,0.66586286,0.9249579,-0.37543988,0.059141606,,0.08340446,1.2908493,0.42621395,0.9938311,0.08277097,-0.07381556,0.01242571,-0.7444906,-0.66751724,-0.110206045,0.6624822,-0.74092644,,-0.11842534,0.25278854,-0.10355148,-0.6153101,-0.608633,0.50095844,0.594899,0.058423143,0.8016744,-0.5171931,0.79129803,0.3261268,,-0.014904781,0.4172456,-0.33617413,-0.37217027,-0.56344295,-0.73757803,0.43795624,-0.8072405,0.39567295,-0.818342,-0.1757692,0.54719424,,1.079970133330178,0.4986182480243055,0.21565858214000003,3.294229012141878,-0.5990144149716908,-1.2013136862228402,-0.40280646708713275,,-1.0196401441167362,0.26922219072834064,0.19717867190000002,-1.567222637603335,-1.1809492674727018,-0.3482855525684158,0.876177570744274,,-0.06912158336367043,-0.051437034717837886,0.09109722752,-0.09158399527144698,,-0.00013263896,-1.9490719e-05,1.6331673e-05,1.0,0.00012046099,0.000107713044,-0.00012046099,1.0,1.7881393e-05,-0.000107713044,-1.7940998e-05,1.0,222,0.674,0,0,0.0,False,-0.24879657997875215,1.0510116735828905
0.6939700611401349,13:59:14.421124,13:57:54.455653,0,,0.1256616,-0.0015916973,0.025142848,0.52519983,0.6954705,-0.49039355,0.06723264,0.5405572,0.8386165,0.8483188,-0.47341177,0.23714215,,0.017278582,-0.009011112,0.0053530335,0.2100691,0.6344686,0.7438552,-0.31682628,-0.67559886,0.66572326,0.9249282,-0.3755207,0.059093922,,0.08340446,1.2908493,0.42621395,0.9938311,0.08277097,-0.07381556,0.01242571,-0.7444906,-0.66751724,-0.110206045,0.6624822,-0.74092644,,-0.11837781,0.25280884,-0.10357421,-0.6163456,-0.60622776,0.50259924,0.5952688,0.059160117,0.8013458,-0.5155319,0.79308766,0.32440537,,-0.014905271,0.41724402,-0.33617476,-0.3721924,-0.563272,-0.7376974,0.43788502,-0.80735004,0.3955283,-0.81837004,-0.17581402,0.5471379,,1.0802404289807759,0.4986182480243055,0.21562617489000002,3.2944387020853623,-0.5971015039749749,-1.2036903242759955,-0.4028064670871325,,-1.0196401441167362,0.26922219072834064,0.19717867190000002,-1.5670129476598507,-1.1809492674727018,-0.3482855525684158,0.876177570744274,,-0.06912158336367043,-0.051437034717837886,0.09109722752,-0.09158399527144698,,-0.00013263896,-1.9490719e-05,1.6331673e-05,1.0,0.00012046099,0.000107713044,-0.00012046099,1.0,1.7881393e-05,-0.000107713044,-1.7940998e-05,1.0,230,0.699,0,0,0.0,False,-0.24903489085283592,1.0507702725789931
0.7172682429663837,13:59:14.448142,13:57:54.455653,0,,0.12556839,-0.0015784428,0.025227249,0.52548826,0.6951979,-0.49047112,0.06677064,0.5410059,0.838364,0.8481767,-0.47329956,0.2378734,,0.01728034,-0.009011991,0.005352974,0.21005955,0.63447005,0.7438568,-0.3168224,-0.6756026,0.6657212,0.92493165,-0.37551156,0.0590975,,0.08340446,1.2908493,0.42621395,0.9938311,0.08277097,-0.07381556,0.01242571,-0.7444906,-0.66751724,-0.110206045,0.6624822,-0.74092644,,-0.11829454,0.25287867,-0.10363885,-0.61663926,-0.60594696,0.50257766,0.59481895,0.059579536,0.80164874,-0.5157,0.79327077,0.32368967,,-0.01490699,0.41724312,-0.33617514,-0.3721836,-0.563275,-0.7376996,0.43789136,-0.8073461,0.39552936,-0.81837064,-0.17582273,0.5471342,,1.0808428021449654,0.49861052529143124,0.21556136039,3.2944387020853623,-0.5973747769745056,-1.203957560909446,-0.40345984335166984,,-1.0196478668496105,0.2692144679954664,0.19717867190000002,-1.5670129476598507,-1.1809492674727018,-0.3482855525684158,0.876177570744274,,-0.06912158336367043,-0.051437034717837886,0.09109722752,-0.09158399527144698,,-0.00013263896,-1.9490719e-05,1.6331673e-05,1.0,0.00012046099,0.000107713044,-0.00012046099,1.0,1.7881393e-05,-0.000107713044,-1.7940998e-05,1.0,238,0.723,0,0,0.0,False,-0.24861784682318921,1.051108233984449
0.7442760309204459,13:59:14.471241,13:57:54.455653,0,,0.12551601,-0.0015619919,0.025292873,0.52467316,0.69683576,-0.48901728,0.064736515,0.5401113,0.83910006,0.8488387,-0.47191063,0.23827118,,0.017280072,-0.009014778,0.005351424,0.21006165,0.63446635,0.74385923,-0.3168078,-0.675611,0.6657195,0.9249362,-0.37550256,0.05908391,,0.08340446,1.2908493,0.42621395,0.9938311,0.08277097,-0.07381556,0.01242571,-0.7444906,-0.66751724,-0.110206045,0.6624822,-0.74092644,,-0.11824937,0.25293675,-0.103682555,-0.6160146,-0.6077803,0.50112784,0.593779,0.059776183,0.8024047,-0.51764125,0.79185224,0.32406417,,-0.014906477,0.41724017,-0.33617625,-0.37218636,-0.563273,-0.7376997,0.43790415,-0.8073447,0.395518,-0.81836253,-0.17583534,0.54714227,,1.0812521069872993,0.49860280255855705,0.21552765685000003,3.2944387020853623,-0.5996975974705181,-1.2025535289874505,-0.4031331552194013,,-1.0196401441167362,0.26919902252971795,0.19717867190000002,-1.5670129476598507,-1.1809492674727018,-0.3482855525684158,0.876177570744274,,-0.06912158336367043,-0.051437034717837886,0.09109722752,-0.09158399527144698,,-0.00013263896,-1.9490719e-05,1.6331673e-05,1.0,0.00012046099,0.000107713044,-0.00012046099,1.0,1.7881393e-05,-0.000107713044,-1.7940998e-05,1.0,246,0.748,0,0,0.0,False,-0.24903489085283592,1.0506254319766548
0.7673790049739182,13:59:14.498922,13:57:54.455653,0,,0.12542431,-0.0015650913,0.025396079,0.5268304,0.6942567,-0.49036455,0.06365308,0.54307383,0.8372688,0.84758365,-0.47231185,0.2419162,,0.017282546,-0.009017505,0.0053505898,0.21010914,0.63414836,0.74411696,-0.31694758,-0.6758215,0.66543937,0.9248775,-0.3756609,0.058995485,,0.08340446,1.2908493,0.42621395,0.9938311,0.08277097,-0.07381556,0.01242571,-0.7444906,-0.66751724,-0.110206045,0.6624822,-0.74092644,,-0.11817063,0.25300685,-0.1037717,-0.61806434,-0.60502046,0.50194293,0.5920512,0.0618138,0.8035262,-0.5171768,0.79380685,0.31999817,,-0.014908774,0.41723743,-0.33617738,-0.3722238,-0.5629337,-0.7379398,0.43776163,-0.80756146,0.3952331,-0.8184218,-0.17592657,0.54702437,,1.0819008165487343,0.4986414162229281,0.21543432397,3.2969549814071764,-0.5991510514714563,-1.2073281738296857,-0.4049299399468782,,-1.0196478668496105,0.26919902252971795,0.19717867190000002,-1.5665935677728815,-1.1809492674727018,-0.3482855525684158,0.876177570744274,,-0.06912158336367043,-0.051437034717837886,0.09109722752,-0.09158399527144698,,-0.00013263896,-1.9490719e-05,1.6331673e-05,1.0,0.00012046099,0.000107713044,-0.00012046099,1.0,1.7881393e-05,-0.000107713044,-1.7940998e-05,1.0,257,0.781,0,0,0.0,False,-0.2500477120676936,1.0506737121774343
0.7950638420879841,13:59:14.535125,13:57:54.595242,0,,0.12534058,-0.0015434027,0.025586575,0.52359635,0.6974505,-0.489295,0.059107423,0.543191,0.83752596,0.8499136,-0.46744657,0.2431883,,0.017280519,-0.009019397,0.0053490996,0.2101208,0.6340826,0.74416965,-0.31693682,-0.67588043,0.66538465,0.9248785,-0.3756659,0.058947533,,0.08340446,1.2908493,0.42621395,0.9938311,0.08277097,-0.07381556,0.01242571,-0.7444906,-0.66751724,-0.110206045,0.6624822,-0.74092644,,-0.11810868,0.25315332,-0.10390764,-0.6153667,-0.60874957,0.5007472,0.59035,0.06502103,0.8045242,-0.5223128,0.7906935,0.31936353,,-0.014906541,0.41723534,-0.3361781,-0.3722354,-0.5628685,-0.73798364,0.4377681,-0.8075963,0.3951547,-0.818413,-0.17597514,0.5470218,,1.0826653671032824,0.4987572572160415,0.21532413932000002,3.295487151802785,-0.6051630574611357,-1.2058562931529468,-0.40525662807914675,,-1.0196324213838621,0.26919129979684375,0.19717867190000002,-1.5665935677728815,-1.1809492674727018,-0.3482038738282753,0.8763409148104082,,-0.06912158336367043,-0.051437034717837886,0.09109722752,-0.09158399527144698,,-0.00013263896,-1.9490719e-05,1.6331673e-05,1.0,0.00012046099,0.000107713044,-0.00012046099,1.0,1.7881393e-05,-0.000107713044,-1.7940998e-05,1.0,265,0.805,0,0,0.0,False,-0.24820080279354162,1.0504805913743163
0.8312671049498022,13:59:14.555610,13:57:54.595242,0,,0.12528682,-0.0015602782,0.025660336,0.5258874,0.6948333,-0.49056005,0.059310704,0.5453922,0.83607984,0.8484837,-0.46877936,0.24560381,,0.01728227,-0.009020306,0.0053490996,0.21011125,0.634084,0.74417126,-0.31693298,-0.67588437,0.66538256,0.92488205,-0.37565678,0.0589512,,0.08340446,1.2908493,0.42621395,0.9938311,0.08277097,-0.07381556,0.01242571,-0.7444906,-0.66751724,-0.110206045,0.6624822,-0.74092644,,-0.11806485,0.25319207,-0.10397971,-0.6174615,-0.60588306,0.5016443,0.5894577,0.06587232,0.80510896,-0.52084637,0.7928219,0.3164688,,-0.014908261,0.41723448,-0.3361785,-0.37222657,-0.56287146,-0.73798585,0.43777445,-0.8075924,0.3951558,-0.8184137,-0.17598386,0.54701805,,1.0830360582812453,0.49882676181190955,0.21524247305000002,3.29758405123763,-0.603386782964185,-1.209673409365077,-0.4037865314839386,,-1.0196401441167362,0.2691835770639695,0.19717867190000002,-1.5665935677728815,-1.1809492674727018,-0.3482038738282753,0.8763409148104082,,-0.06912158336367043,-0.051437034717837886,0.09109722752,-0.09158399527144698,,-0.00013263896,-1.9490719e-05,1.6331673e-05,1.0,0.00012046099,0.000107713044,-0.00012046099,1.0,1.7881393e-05,-0.000107713044,-1.7940998e-05,1.0,273,0.83,0,0,0.0,False,-0.2489753131343151,1.0509151131813312
0.8517543571069837,13:59:14.583062,13:57:54.595242,0,,0.1252152,-0.0015929118,0.025852323,0.5257495,0.6948642,-0.49066398,0.058147132,0.5461113,0.83569205,0.8486497,-0.46789548,0.2467133,,0.0172835,-0.009027965,0.0053468347,0.21016541,0.6337593,0.7444325,-0.3170497,-0.67610735,0.6651003,0.92482966,-0.37580314,0.058838814,,0.08340446,1.2908493,0.42621395,0.9938311,0.08277097,-0.07381556,0.01242571,-0.7444906,-0.66751724,-0.110206045,0.6624822,-0.74092644,,-0.118017934,0.25329867,-0.10415143,-0.617405,-0.60597926,0.50159764,0.5887081,0.06699567,0.8055646,-0.52176034,0.7926542,0.31538147,,-0.014909137,0.41722757,-0.33618256,-0.3722715,-0.5625277,-0.7382252,0.43765116,-0.807808,0.3948515,-0.81845915,-0.17609313,0.5469148,,1.0836075405139378,0.4990121074008909,0.21507265906000003,3.29758405123763,-0.6043432384625431,-1.2102003438814508,-0.40411321961620694,,-1.0196324213838621,0.2691604088653468,0.19717737561,-1.5661741878859123,-1.1809492674727018,-0.3482038738282753,0.8763409148104082,,-0.06912158336367043,-0.051437034717837886,0.09109722752,-0.09158399527144698,,-0.00013263896,-1.9490719e-05,1.6331673e-05,1.0,0.00012046099,0.000107713044,-0.00012046099,1.0,1.7881393e-05,-0.000107713044,-1.7940998e-05,1.0,281,0.854,0,0,0.0,False,-0.24849869138614666,1.0503840309727575
0.8791063339449465,13:59:14.608187,13:57:54.595242,0,,0.1251759,-0.0015682206,0.025932357,0.5271852,0.694154,-0.49012828,0.0568749,0.54667336,0.83541214,0.84784484,-0.468293,0.2487181,,0.017272301,-0.0090123415,0.0053776503,0.20879138,0.63561445,0.7432365,-0.31629935,-0.67524976,0.6663277,0.92539763,-0.3742087,0.060058117,,0.083470024,1.2908485,0.4262098,0.99383193,0.082720004,-0.07386126,0.012357663,-0.7444963,-0.6675122,-0.110206045,0.6624822,-0.74092644,,-0.11804448,0.25337395,-0.104194045,-0.6187955,-0.60515976,0.50087297,0.58719593,0.067213185,0.80664945,-0.5218171,0.79326165,0.31375614,,-0.014963138,0.41725698,-0.33619398,-0.37102854,-0.5646774,-0.7372091,0.43875524,-0.8062734,0.39675814,-0.81843245,-0.17624575,0.54690564,,1.0839859544247747,0.49920517572274653,0.21499228908,3.2996809506724754,-0.6042066019627776,-1.2119453365879584,-0.4037865314839386,,-1.0196246986509878,0.2691295179338499,0.19717607932000003,-1.569529226981665,-1.1819057229710597,-0.3471789122819789,0.8761775707442739,,-0.06912158336367043,-0.051437034717837886,0.09109722752,-0.09158399527144698,,-6.702542e-05,-1.6272068e-05,1.513958e-05,1.0,6.9744885e-05,6.235391e-05,-6.9729984e-05,1.0,1.0371208e-05,-6.235391e-05,-1.0371208e-05,1.0,289,0.879,0,0,0.0,False,-0.2486774245417096,1.0501909101696396
0.9043248021043837,13:59:14.629464,13:57:54.595242,0,,0.12514877,-0.0015435293,0.026018873,0.52701503,0.6939533,-0.49059552,0.05569282,0.5478273,0.8347355,0.84802914,-0.4672408,0.2500649,,0.017254591,-0.008968696,0.0054146647,0.20595187,0.6385018,0.741552,-0.31434995,-0.6744653,0.66804254,0.92669725,-0.37069145,0.061805665,,0.083470024,1.2908485,0.4262098,0.99383193,0.082720004,-0.07386126,0.012357663,-0.7444963,-0.6675122,-0.110206045,0.6624822,-0.74092644,,-0.11802638,0.2534511,-0.10424457,-0.61871016,-0.6050229,0.50114375,0.586446,0.06878144,0.8070627,-0.5227608,0.7932316,0.31225747,,-0.014951903,0.4173155,-0.33618814,-0.36844826,-0.56813383,-0.73584634,0.44136986,-0.80353844,0.39939782,-0.81819224,-0.17762296,0.5468195,,1.0843412001369892,0.49939824404460215,0.21494432635000002,3.29989064061596,-0.6051630574611357,-1.2132073797655976,-0.40411321961620694,,-1.0196169759181135,0.26906773607085616,0.19717607932000003,-1.5777071347775613,-1.183818633967776,-0.3425152695048875,0.8761775707442739,,-0.06912158336367043,-0.051437034717837886,0.09109722752,-0.09158399527144698,,-6.702542e-05,-1.6272068e-05,1.513958e-05,1.0,6.9744885e-05,6.235391e-05,-6.9729984e-05,1.0,1.0371208e-05,-6.235391e-05,-1.0371208e-05,1.0,308,0.936,0,0,0.0,False,-0.24826038051206245,1.050046069567301
0.9255954299587756,13:59:14.680381,13:57:54.595242,0,,0.1250807,-0.0014721677,0.02625002,0.52306324,0.69402677,-0.49470353,0.052833736,0.5529178,0.831559,0.8506546,-0.46109506,0.25254294,,0.017246015,-0.008980423,0.0054089427,0.2054161,0.6349965,0.7447038,-0.31392393,-0.6779709,0.66468585,0.9269606,-0.37031752,0.06007448,,0.083470024,1.2908485,0.4262098,0.99383193,0.082720004,-0.07386126,0.012357663,-0.7444963,-0.6675122,-0.110206045,0.6624822,-0.74092644,,-0.1179821,0.253661,-0.104375385,-0.6152471,-0.60554606,0.50476235,0.5862247,0.076665245,0.80651295,-0.52707845,0.79210883,0.30781794,,-0.014942554,0.4173046,-0.3361942,-0.36796415,-0.56477547,-0.73866844,0.44191545,-0.80517215,0.3954852,-0.8181156,-0.18090463,0.5458575,,1.0851829780202797,0.49984616255130715,0.21483154912000002,3.296325911576723,-0.6099453349529261,-1.2164954822685923,-0.4049299399468782,,-1.0195397485893714,0.26895189507774275,0.19717737561,-1.5791749643819528,-1.1842285434670723,-0.33630014650367773,0.8758508826120052,,-0.06912158336367043,-0.051437034717837886,0.09109722752,-0.09158399527144698,,-6.702542e-05,-1.6272068e-05,1.513958e-05,1.0,6.9744885e-05,6.235391e-05,-6.9729984e-05,1.0,1.0371208e-05,-6.235391e-05,-1.0371208e-05,1.0,312,0.949,0,0,0.0,False,-0.24748587017128898,1.0503840309727575
0.9765231399796903,13:59:14.701127,13:57:54.595242,0,,0.12506224,-0.0014560372,0.026311949,0.5224705,0.69495726,-0.4940232,0.05174458,0.5524819,0.83191717,0.8510857,-0.4602152,0.25269514,,0.017242737,-0.008982673,0.005407095,0.20543492,0.6349895,0.7447046,-0.31391084,-0.6779756,0.6646873,0.9269608,-0.3703208,0.06005025,,0.083470024,1.2908485,0.4262098,0.99383193,0.082720004,-0.07386126,0.012357663,-0.7444963,-0.6675122,-0.110206045,0.6624822,-0.74092644,,-0.11797017,0.25371507,-0.104412496,-0.61476654,-0.6065944,0.50408864,0.58572507,0.07689139,0.8068543,-0.52819335,0.7912844,0.3080273,,-0.014939004,0.41730213,-0.336195,-0.3679826,-0.5647681,-0.7386649,0.44192204,-0.80517685,0.3954683,-0.81810373,-0.18090685,0.54587454,,1.0854223827393805,0.49996200354442055,0.21479914187000002,3.296116221633238,-0.6111750634508152,-1.2156560786156057,-0.403623187417804,,-1.0195165803907487,0.26894417234486856,0.19717737561,-1.5791749643819528,-1.1842285434670723,-0.3363001465036778,0.8761775707442739,,-0.06912158336367043,-0.051437034717837886,0.09109722752,-0.09158399527144698,,-6.702542e-05,-1.6272068e-05,1.513958e-05,1.0,6.9744885e-05,6.235391e-05,-6.9729984e-05,1.0,1.0371208e-05,-6.235391e-05,-1.0371208e-05,1.0,320,0.973,0,0,0.0,False,-0.2480816473564995,1.0508668329805522
0.9972695680335164,13:59:14.730434,13:57:54.595242,0,,0.12501161,-0.0014395267,0.02636315,0.52108,0.694474,-0.4961667,0.052910715,0.5539246,0.83088386,0.8518662,-0.45920953,0.25189388,,0.017240785,-0.008991629,0.005401969,0.20547883,0.6348173,0.7448392,-0.31393877,-0.67810243,0.6645447,0.9269417,-0.37038377,0.05995807,,0.083470024,1.2908485,0.4262098,0.99383193,0.082720004,-0.07386126,0.012357663,-0.7444963,-0.6675122,-0.110206045,0.6624822,-0.74092644,,-0.11792506,0.25376347,-0.10444531,-0.61341745,-0.60615677,0.5062539,0.5871677,0.078654505,0.8056349,-0.5281602,0.79144645,0.3076676,,-0.014936256,0.41729262,-0.3361985,-0.36802268,-0.5645884,-0.7387822,0.44188374,-0.80528617,0.39528838,-0.8181064,-0.18098077,0.54584605,,1.085708123855727,0.49999289447591744,0.21476543833000003,3.2933902523679395,-0.6111750634508152,-1.2156560786156057,-0.40394987555007256,,-1.0194856894592517,0.2689055586804974,0.19717737561,-1.5789652744384683,-1.1842285434670723,-0.3363001465036778,0.8761775707442739,,-0.06912158336367043,-0.051437034717837886,0.09109722752,-0.09158399527144698,,-6.702542e-05,-1.6272068e-05,1.513958e-05,1.0,6.9744885e-05,6.235391e-05,-6.9729984e-05,1.0,1.0371208e-05,-6.235391e-05,-1.0371208e-05,1.0,332,1.01,0,0,0.0,False,-0.24826038051206245,1.0505288715750958
1.0265646940097213,13:59:14.753201,13:57:54.806412,0,,0.12496303,-0.0014434457,0.026372328,0.5218495,0.69443107,-0.49541754,0.052614123,0.5534605,0.83121175,0.85141337,-0.45983347,0.25228617,,0.017243043,-0.008993775,0.005401373,0.2054668,0.6348787,0.74479026,-0.3139287,-0.678056,0.6645968,0.9269477,-0.3703636,0.059988618,,0.083470024,1.2908485,0.4262098,0.99383193,0.082720004,-0.07386126,0.012357663,-0.7444963,-0.6675122,-0.110206045,0.6624822,-0.74092644,,-0.11787816,0.2537686,-0.10446061,-0.6141433,-0.60606575,0.50548226,0.58661485,0.077894755,0.8061113,-0.52793086,0.7915912,0.30768862,,-0.014938377,0.41729045,-0.33619943,-0.36801183,-0.564652,-0.7387391,0.44189644,-0.8052481,0.39535183,-0.8181044,-0.18095201,0.54585856,,1.0859552513077022,0.4998770534828041,0.21474988285000002,3.294229012141878,-0.6110384269510497,-1.2155224602988803,-0.4031331552194013,,-1.019493412192126,0.268890113214749,0.19717737561,-1.5789652744384683,-1.1842285434670723,-0.3363818252438184,0.8760142266781396,,-0.06912158336367043,-0.051437034717837886,0.09109722752,-0.09158399527144698,,-6.702542e-05,-1.6272068e-05,1.513958e-05,1.0,6.9744885e-05,6.235391e-05,-6.9729984e-05,1.0,1.0371208e-05,-6.235391e-05,-1.0371208e-05,1.0,340,1.035,0,0,0.0,False,-0.24742629245276815,1.0499977893665218
1.0493463289458305,13:59:14.790361,13:57:54.806412,0,,0.12493337,-0.0014451593,0.026388004,0.52153873,0.69446516,-0.49569666,0.052794218,0.5535874,0.83111596,0.8515926,-0.45962915,0.2520535,,0.017241739,-0.009000942,0.00539732,0.20547575,0.6348685,0.7447964,-0.31389096,-0.678077,0.6645932,0.9269585,-0.3703426,0.059951216,,0.083470024,1.2908485,0.4262098,0.99383193,0.082720004,-0.07386126,0.012357663,-0.7444963,-0.6675122,-0.110206045,0.6624822,-0.74092644,,-0.11785066,0.25377893,-0.1044769,-0.6138466,-0.60611683,0.5057813,0.58688056,0.07812406,0.8058957,-0.5279806,0.79152954,0.30776203,,-0.014936435,0.41728288,-0.33620223,-0.36802223,-0.5646459,-0.73873854,0.4419285,-0.80524546,0.39532128,-0.8180824,-0.1809826,0.54588133,,1.0860942604994381,0.4998229943526845,0.21473432737000003,3.293599942311424,-0.6111750634508152,-1.2152476849149028,-0.4031331552194011,,-1.0194702439935033,0.26885149955037785,0.19717737561,-1.5789652744384683,-1.1842285434670723,-0.3363818252438184,0.8760142266781396,,-0.06912158336367043,-0.051437034717837886,0.09109722752,-0.09158399527144698,,-6.702542e-05,-1.6272068e-05,1.513958e-05,1.0,6.9744885e-05,6.235391e-05,-6.9729984e-05,1.0,1.0371208e-05,-6.235391e-05,-1.0371208e-05,1.0,348,1.059,0,0,0.0,False,-0.2476646033268528,1.0499977893665218
1.0865004900842905,13:59:14.811403,13:57:54.806412,0,,0.12491701,-0.0014435723,0.02640067,0.5216115,0.6945391,-0.49551672,0.05275917,0.55341655,0.8312319,0.8515502,-0.45972317,0.25202507,,0.017241955,-0.009004936,0.0053952932,0.2054754,0.6348641,0.74480027,-0.31387016,-0.6780894,0.6645905,0.92696565,-0.3703276,0.05993423,,0.083470024,1.2908485,0.4262098,0.99383193,0.082720004,-0.07386126,0.012357663,-0.7444963,-0.6675122,-0.110206045,0.6624822,-0.74092644,,-0.117835835,0.2537892,-0.10448715,-0.6139156,-0.6061881,0.50561213,0.5868234,0.077931374,0.80595595,-0.52796394,0.79149395,0.30788207,,-0.014936324,0.41727868,-0.33620384,-0.368023,-0.56464434,-0.7387394,0.4419477,-0.8052422,0.39530653,-0.8180717,-0.18100227,0.5458909,,1.086194656026803,0.49981527161981026,0.21472395705000002,3.293599942311424,-0.6111750634508152,-1.215002648694481,-0.403623187417804,,-1.019462521260629,0.26882833135175516,0.19717737561,-1.5789652744384683,-1.1842285434670723,-0.3363818252438184,0.8760142266781396,,-0.06912158336367043,-0.051437034717837886,0.09109722752,-0.09158399527144698,,-6.702542e-05,-1.6272068e-05,1.513958e-05,1.0,6.9744885e-05,6.235391e-05,-6.9729984e-05,1.0,1.0371208e-05,-6.235391e-05,-1.0371208e-05,1.0,381,1.162,0,0,0.0,False,-0.24790291420093657,1.050335750771978
1.1075446249451488,13:59:14.905340,13:57:54.923577,0,,0.12478445,-0.0014701188,0.026674137,0.52124757,0.6962093,-0.49355194,0.049865782,0.552497,0.8320218,0.8519473,-0.45830074,0.2532707,,0.017241687,-0.009007692,0.005393803,0.20547755,0.63486046,0.7448028,-0.31385553,-0.6780976,0.6645888,0.9269701,-0.37031856,0.05992067,,0.083470024,1.2908485,0.4262098,0.99383193,0.082720004,-0.07386126,0.012357663,-0.7444963,-0.6675122,-0.110206045,0.6624822,-0.74092644,,-0.11773766,0.25395703,-0.1047222,-0.6137527,-0.6080587,0.5035596,0.58494973,0.07813057,0.8072976,-0.5302277,0.7900381,0.3077309,,-0.01493581,0.41727573,-0.33620495,-0.3680258,-0.56464237,-0.73873943,0.4419605,-0.8052407,0.3952952,-0.8180635,-0.18101484,0.545899,,1.0872295022319491,0.5000083399416658,0.21449840259000003,3.294019322198393,-0.6137711569463585,-1.2135391384453733,-0.40329649928553546,,-1.019454798527755,0.2688128858860067,0.19717737561,-1.5789652744384683,-1.1842285434670723,-0.3363818252438184,0.8760142266781396,,-0.06912158336367043,-0.051437034717837886,0.09109722752,-0.09158399527144698,,-6.702542e-05,-1.6272068e-05,1.513958e-05,1.0,6.9744885e-05,6.235391e-05,-6.9729984e-05,1.0,1.0371208e-05,-6.235391e-05,-1.0371208e-05,1.0,389,1.186,0,0,0.0,False,-0.24784333648241574,1.050335750771978
1.2014799539465457,13:59:14.933126,13:57:54.923577,0,,0.12474891,-0.0014896393,0.026768044,0.5227053,0.6963712,-0.49177852,0.048422635,0.55167425,0.8326528,0.851137,-0.45904535,0.2546429,,0.017242186,-0.009008974,0.005393207,0.20547506,0.63485974,0.74480414,-0.3138494,-0.67810166,0.6645876,0.9269728,-0.3703125,0.0599173,,0.083470024,1.2908485,0.4262098,0.99383193,0.082720004,-0.07386126,0.012357663,-0.7444963,-0.6675122,-0.110206045,0.6624822,-0.74092644,,-0.11771439,0.25400653,-0.104808636,-0.6151796,-0.6081755,0.50167376,0.5832785,0.07701541,0.8086129,-0.5304152,0.79005766,0.3073574,,-0.014936212,0.41727445,-0.33620545,-0.36802378,-0.5646427,-0.7387402,0.4419669,-0.8052389,0.39529178,-0.818061,-0.18102193,0.54590046,,1.0875770252112893,0.5001087354690308,0.21440895858000003,3.296325911576723,-0.6139077934461239,-1.2137544355022394,-0.40329649928553546,,-1.019454798527755,0.2688051631531325,0.19717737561,-1.5789652744384683,-1.1842285434670723,-0.3363818252438184,0.8760142266781396,,-0.06912158336367043,-0.051437034717837886,0.09109722752,-0.09158399527144698,,-6.702542e-05,-1.6272068e-05,1.513958e-05,1.0,6.9744885e-05,6.235391e-05,-6.9729984e-05,1.0,1.0371208e-05,-6.235391e-05,-1.0371208e-05,1.0,397,1.211,0,0,0.0,False,-0.2481412250750208,1.0507219923782136
1.2292565850075334,13:59:14.958917,13:57:54.923577,0,,0.124686226,-0.0015025586,0.026936248,0.5251029,0.69352305,-0.49324703,0.04685998,0.5551412,0.830435,0.84974766,-0.45917737,0.2590077,,0.017242536,-0.009013295,0.0053910613,0.20550516,0.634696,0.7449353,-0.31390268,-0.6782157,0.6644461,0.9269481,-0.37038428,0.059855998,,0.083470024,1.2908485,0.4262098,0.99383193,0.082720004,-0.07386126,0.012357663,-0.7444963,-0.6675122,-0.110206045,0.6624822,-0.74092644,,-0.117672525,0.2541116,-0.10494866,-0.61747724,-0.6051537,0.50250465,0.5810952,0.07961834,0.80993164,-0.5301417,0.79211736,0.3024894,,-0.01493621,0.41726992,-0.33620718,-0.36804944,-0.5644698,-0.73885953,0.44190928,-0.80534714,0.39513558,-0.81808054,-0.18107946,0.545852,,1.0882025665741015,0.5003790311196287,0.21426636668000001,3.299471260728991,-0.6133612474470621,-1.2195092252261615,-0.4044399077484755,,-1.0194470757948806,0.2687897176873841,0.19717737561,-1.5787555844949839,-1.1842285434670723,-0.3363818252438184,0.8760142266781396,,-0.06912158336367043,-0.051437034717837886,0.09109722752,-0.09158399527144698,,-6.702542e-05,-1.6272068e-05,1.513958e-05,1.0,6.9744885e-05,6.235391e-05,-6.9729984e-05,1.0,1.0371208e-05,-6.235391e-05,-1.0371208e-05,1.0,405,1.235,0,0,0.0,False,-0.24826038051206245,1.05014262996886
1.2550612490158528,13:59:15.003476,13:57:55.037240,0,,0.12465172,-0.001475811,0.027284727,0.52596456,0.6939552,-0.49171877,0.037175238,0.55883765,0.82844335,0.84969354,-0.45401168,0.26813084,,0.017242886,-0.0090096295,0.005391538,0.2054726,0.6347981,0.7448573,-0.3138432,-0.67816,0.66453105,0.9269754,-0.37031138,0.059883744,,0.083470024,1.2908485,0.4262098,0.99383193,0.082720004,-0.07386126,0.012357663,-0.7444963,-0.6675122,-0.110206045,0.6624822,-0.74092644,,-0.117677554,0.25436527,-0.10519147,-0.6188331,-0.6059912,0.49982014,0.57381976,0.08579727,0.8144751,-0.53644794,0.7908309,0.29463553,,-0.014936605,0.4172727,-0.33620474,-0.3680218,-0.5645827,-0.73878706,0.44197327,-0.80526936,0.3952226,-0.81805843,-0.1810736,0.5458871,,1.0892914719093671,0.5010817998111831,0.21405118254000002,3.3059716489770112,-0.6201930724353342,-1.2269252497236898,-0.40460325181460965,,-1.019454798527755,0.26879744042025827,0.19717867190000002,-1.5789652744384683,-1.1842285434670723,-0.33630014650367773,0.8758508826120052,,-0.06912158336367043,-0.051437034717837886,0.09109722752,-0.09158399527144698,,-6.702542e-05,-1.6272068e-05,1.513958e-05,1.0,6.9744885e-05,6.235391e-05,-6.9729984e-05,1.0,1.0371208e-05,-6.235391e-05,-1.0371208e-05,1.0,417,1.272,0,0,0.0,False,-0.2489753131343151,1.050432311173537
1.299617717973888,13:59:15.053065,13:57:55.037240,0,,0.12462281,-0.0013302937,0.027815297,0.5195286,0.69720334,-0.49396104,0.025141478,0.5653783,0.82444835,0.85408306,-0.44074354,0.27620143,,0.017244108,-0.009004712,0.0053929687,0.20546585,0.6348046,0.7448536,-0.3138663,-0.6781474,0.664533,0.92696905,-0.37032336,0.059907585,,0.083470024,1.2908485,0.4262098,0.99383193,0.082720004,-0.07386126,0.012357663,-0.7444963,-0.6675122,-0.110206045,0.6624822,-0.74092644,,-0.11770315,0.25482854,-0.105488464,-0.613593,-0.61041784,0.50089294,0.56804603,0.09938644,0.8169737,-0.5484773,0.7858196,0.28576264,,-0.014938023,0.41727683,-0.33620185,-0.3680142,-0.5645869,-0.73878765,0.44195402,-0.8052705,0.39524183,-0.81807226,-0.18105558,0.5458724,,1.0908514639499605,0.5023792189340528,0.2138100726,3.305132889203073,-0.633446812912582,-1.2330252122742333,-0.407706789071161,,-1.0194702439935033,0.26882060861888096,0.19717996819000003,-1.5789652744384683,-1.1842285434670723,-0.33630014650367773,0.8758508826120052,,-0.06912158336367043,-0.051437034717837886,0.09109722752,-0.09158399527144698,,-6.702542e-05,-1.6272068e-05,1.513958e-05,1.0,6.9744885e-05,6.235391e-05,-6.9729984e-05,1.0,1.0371208e-05,-6.235391e-05,-1.0371208e-05,1.0,462,1.412,0,0,0.0,False,-0.24861784682318921,1.0504805913743163
1.3492061190772802,13:59:15.155848,13:57:55.163445,0,,0.12458498,-0.0011714175,0.028092816,0.51740885,0.69611603,-0.4977052,0.025795639,0.56865716,0.82217,0.85534936,-0.4382367,0.27627146,,0.017242283,-0.0090060085,0.005390346,0.20547755,0.63479966,0.7448547,-0.31385553,-0.6781519,0.6645335,0.9269701,-0.37032345,0.05989042,,0.083470024,1.2908485,0.4262098,0.99383193,0.082720004,-0.07386126,0.012357663,-0.7444963,-0.6675122,-0.110206045,0.6624822,-0.74092644,,-0.1176897,0.25513336,-0.1055915,-0.6116041,-0.6094601,0.50447875,0.5694604,0.1035406,0.81547177,-0.5492315,0.78602654,0.28373754,,-0.01493578,0.4172743,-0.33620134,-0.3680258,-0.56458205,-0.73878556,0.4419605,-0.805273,0.39522943,-0.8180635,-0.18105942,0.5458842,,1.0918476964907353,0.5034604015364442,0.21369988795000003,3.3009390903333826,-0.633446812912582,-1.2339236784157797,-0.40460325181460965,,-1.019454798527755,0.2688128858860067,0.19718126448,-1.5789652744384683,-1.1842285434670723,-0.33630014650367773,0.8758508826120052,,-0.06912158336367043,-0.051437034717837886,0.09109722752,-0.09158399527144698,,-6.702542e-05,-1.6272068e-05,1.513958e-05,1.0,6.9744885e-05,6.235391e-05,-6.9729984e-05,1.0,1.0371208e-05,-6.235391e-05,-1.0371208e-05,1.0,466,1.424,0,0,0.0,False,-0.24837953594910456,1.050335750771978
1.4519672801252455,13:59:15.176519,13:57:55.163445,0,,0.12459467,-0.001219511,0.028061584,0.515751,0.6974706,-0.4975295,0.025288701,0.5680784,0.8225857,0.85636514,-0.43683133,0.27534884,,0.017242484,-0.009005398,0.005389154,0.20547755,0.63479966,0.7448547,-0.31385553,-0.6781519,0.6645335,0.9269701,-0.37032345,0.05989042,,0.083470024,1.2908485,0.4262098,0.99383193,0.082720004,-0.07386126,0.012357663,-0.7444963,-0.6675122,-0.110206045,0.6624822,-0.74092644,,-0.11769818,0.25507635,-0.105599366,-0.6101049,-0.61099786,0.50443393,0.56982565,0.10399436,0.81515884,-0.5505186,0.7847718,0.2847148,,-0.014935771,0.41727382,-0.33620012,-0.3680258,-0.56458205,-0.73878556,0.4419605,-0.805273,0.39522943,-0.8180635,-0.18105942,0.5458842,,1.0915851235730119,0.5031978286187206,0.21370248053000002,3.2996809506724754,-0.6352230874095326,-1.2325569244078667,-0.4044399077484755,,-1.019454798527755,0.2688128858860067,0.19718256077000001,-1.5789652744384683,-1.1842285434670723,-0.33630014650367773,0.8758508826120052,,-0.06912158336367043,-0.051437034717837886,0.09109722752,-0.09158399527144698,,-6.702542e-05,-1.6272068e-05,1.513958e-05,1.0,6.9744885e-05,6.235391e-05,-6.9729984e-05,1.0,1.0371208e-05,-6.235391e-05,-1.0371208e-05,1.0,478,1.461,0,0,0.0,False,-0.24849869138614666,1.0507219923782136
1.4726104701403528,13:59:15.205016,13:57:55.163445,0,,0.124595046,-0.0012461096,0.028055742,0.51235956,0.69869804,-0.4993082,0.025320709,0.56887805,0.822032,0.8583976,-0.43381882,0.2737785,,0.017241366,-0.0090027,0.005390346,0.20545208,0.6349604,0.74472463,-0.31379378,-0.67804223,0.66467464,0.9269967,-0.37024868,0.05994144,,0.083470024,1.2908485,0.4262098,0.99383193,0.082720004,-0.07386126,0.012357663,-0.7444963,-0.6675122,-0.110206045,0.6624822,-0.74092644,,-0.117699265,0.25505266,-0.10561275,-0.6069768,-0.6125248,0.5063522,0.5713379,0.106550604,0.813769,-0.55240583,0.7832371,0.28528488,,-0.014934857,0.41727665,-0.33619902,-0.36800495,-0.56475264,-0.7386656,0.44202453,-0.80516505,0.3953777,-0.8180383,-0.18100736,0.54593927,,1.0913997779840303,0.503004760296865,0.21370248053000002,3.2959065316897536,-0.6376825444053106,-1.231286510802596,-0.40329649928553546,,-1.019454798527755,0.26882060861888096,0.19718256077000001,-1.5791749643819528,-1.1842285434670723,-0.33630014650367773,0.8758508826120052,,-0.06912158336367043,-0.051437034717837886,0.09109722752,-0.09158399527144698,,-6.702542e-05,-1.6272068e-05,1.513958e-05,1.0,6.9744885e-05,6.235391e-05,-6.9729984e-05,1.0,1.0371208e-05,-6.235391e-05,-1.0371208e-05,1.0,482,1.473,0,0,0.0,False,-0.24831995823058373,1.0499977893665218
1.501161390915513,13:59:15.235025,13:57:55.297398,0,,0.12460616,-0.0012696385,0.028064832,0.50991774,0.70176363,-0.49750543,0.022361428,0.5673356,0.82318294,0.8599324,-0.4308806,0.27360198,,0.017241366,-0.0090027,0.005390346,0.20545208,0.63489956,0.7447764,-0.31379378,-0.6780965,0.6646192,0.9269967,-0.37025362,0.05991119,,0.083470024,1.2908485,0.4262098,0.99383193,0.082720004,-0.07386126,0.012357663,-0.7444963,-0.6675122,-0.110206045,0.6624822,-0.74092644,,-0.11771259,0.2550408,-0.10563374,-0.6048893,-0.61598885,0.50464517,0.5702554,0.107242815,0.8144371,-0.5558037,0.7804209,0.28640094,,-0.014934857,0.41727665,-0.33619902,-0.36800495,-0.5646923,-0.73871166,0.44202453,-0.80519736,0.39531192,-0.8180383,-0.18105194,0.5459245,,1.0913071051895398,0.5028425829065063,0.21370377682000002,3.2952774618593006,-0.6419182758980392,-1.228976058149975,-0.4039498755500728,,-1.019454798527755,0.26882060861888096,0.19718256077000001,-1.5791749643819528,-1.1842285434670723,-0.3362184677635372,0.875687538545871,,-0.06912158336367043,-0.051437034717837886,0.09109722752,-0.09158399527144698,,-6.702542e-05,-1.6272068e-05,1.513958e-05,1.0,6.9744885e-05,6.235391e-05,-6.9729984e-05,1.0,1.0371208e-05,-6.235391e-05,-1.0371208e-05,1.0,494,1.51,0,0,0.0,False,-0.24826038051206245,1.049514987358727
1.5311472730245441,13:59:15.256847,13:57:55.297398,0,,0.12459841,-0.00125435,0.028109208,0.5050747,0.7042469,-0.49893472,0.021076977,0.56785226,0.8228605,0.8628182,-0.4261221,0.27196437,,0.017237104,-0.00899215,0.0053961873,0.20510083,0.6357395,0.74415654,-0.31329957,-0.67766863,0.66528845,0.9272417,-0.36959508,0.060186505,,0.083470024,1.2908485,0.4262098,0.99383193,0.082720004,-0.07386126,0.012357663,-0.7444963,-0.6675122,-0.110206045,0.6624822,-0.74092644,,-0.11770927,0.25508204,-0.10565715,-0.60049,-0.6189798,0.50623685,0.5714141,0.11070395,0.81316084,-0.5593726,0.77756584,0.2872172,,-0.0149316145,0.4172885,-0.33619556,-0.36769876,-0.565632,-0.738145,0.4425791,-0.80453473,0.39603984,-0.81787616,-0.1810642,0.5461633,,1.0913457188539109,0.5028116919750094,0.21370248053000002,3.290454593159156,-0.6462906438905333,-1.2265541875936572,-0.40460325181460965,,-1.019454798527755,0.2688128858860067,0.19718256077000001,-1.5808524839298292,-1.1843651799668378,-0.3356169774189974,0.8753608504136026,,-0.06912158336367043,-0.051437034717837886,0.09109722752,-0.09158399527144698,,-6.702542e-05,-1.6272068e-05,1.513958e-05,1.0,6.9744885e-05,6.235391e-05,-6.9729984e-05,1.0,1.0371208e-05,-6.235391e-05,-1.0371208e-05,1.0,502,1.534,0,0,0.0,False,-0.24831995823058373,1.0502874705711984
1.5529924440197647,13:59:15.278176,13:57:55.297398,0,,0.12459869,-0.0012137815,0.028224543,0.49698296,0.709448,-0.49969125,0.015020698,0.56872076,0.8223934,0.8676302,-0.41622132,0.27198815,,0.017207459,-0.008917958,0.005445063,0.20172396,0.63821363,0.7429609,-0.31019232,-0.6778791,0.66652894,0.9290253,-0.36491564,0.06122449,,0.083470024,1.2908485,0.4262098,0.99383193,0.082720004,-0.07386126,0.012357663,-0.7444963,-0.6675122,-0.110206045,0.6624822,-0.74092644,,-0.11772088,0.25518915,-0.10571496,-0.5933437,-0.62524784,0.50696,0.57043445,0.117750384,0.81285876,-0.5679329,0.77149206,0.28679645,,-0.01491049,0.41737768,-0.3361763,-0.36466628,-0.5688939,-0.7371419,0.4463914,-0.8015641,0.39778098,-0.8171617,-0.1839965,0.5462528,,1.0915619553743892,0.5028580283722547,0.21369729537,3.2850026546285584,-0.6566750178727068,-1.2239672962028498,-0.4026431230209986,,-1.019454798527755,0.2687665494887614,0.19718385706000002,-1.5928048107084471,-1.186278090963554,-0.32654268267431574,0.8756875385458711,,-0.06912158336367043,-0.051437034717837886,0.09109722752,-0.09158399527144698,,-6.702542e-05,-1.6272068e-05,1.513958e-05,1.0,6.9744885e-05,6.235391e-05,-6.9729984e-05,1.0,1.0371208e-05,-6.235391e-05,-1.0371208e-05,1.0,510,1.559,0,0,0.0,False,-0.2495115126010048,1.0505771517758753
1.5743169870693237,13:59:15.305824,13:57:55.297398,0,,0.12459341,-0.0011850521,0.028309748,0.49277562,0.71208525,-0.5001067,0.009755313,0.57017493,0.8214653,0.8701016,-0.40967685,0.2740217,,0.017209299,-0.008921355,0.005442202,0.20174783,0.6353779,0.74538094,-0.31024724,-0.68038404,0.663946,0.9290018,-0.36520207,0.059858263,,0.083470024,1.2908485,0.4262098,0.99383193,0.082720004,-0.07386126,0.012357663,-0.7444963,-0.6675122,-0.110206045,0.6624822,-0.74092644,,-0.117724076,0.25526756,-0.10575917,-0.5897352,-0.62855077,0.5070861,0.56833005,0.12309429,0.8135409,-0.5737711,0.767966,0.28463125,,-0.014911818,0.41737306,-0.33617672,-0.36468604,-0.5660708,-0.73930234,0.4463344,-0.8030948,0.39474595,-0.81718403,-0.18601772,0.5455343,,1.0918168055592385,0.5029043647695001,0.21368951763000002,3.283534825024167,-0.6637801158605097,-1.2246261856817404,-0.4031331552194013,,-1.019454798527755,0.26875110402301294,0.19718515335000003,-1.5925951207649622,-1.186278090963554,-0.3229488181081309,0.8756875385458711,,-0.06912158336367043,-0.051437034717837886,0.09109722752,-0.09158399527144698,,-6.702542e-05,-1.6272068e-05,1.513958e-05,1.0,6.9744885e-05,6.235391e-05,-6.9729984e-05,1.0,1.0371208e-05,-6.235391e-05,-1.0371208e-05,1.0,539,1.649,0,0,0.0,False,-0.24945193488248307,1.0502874705711984
1.6019614629913121,13:59:15.395908,13:57:55.428410,0,,0.124409325,-0.0010519847,0.028690502,0.4793142,0.7173155,-0.505684,-0.007924229,0.5796976,0.8147931,0.8776076,-0.38653472,0.28354144,,0.017211415,-0.008925229,0.005433738,0.2021079,0.6355359,0.7451488,-0.31004664,-0.68019605,0.66423225,0.92899054,-0.3652775,0.059572816,,0.083470024,1.2908485,0.4262098,0.99383193,0.082720004,-0.07386126,0.012357663,-0.7444963,-0.6675122,-0.110206045,0.6624822,-0.74092644,,-0.11757895,0.25562775,-0.10597313,-0.5781868,-0.635939,0.51115716,0.5607094,0.14541052,0.8151446,-0.59270984,0.75791645,0.27250254,,-0.014912447,0.41736406,-0.33617377,-0.36503696,-0.5662116,-0.7390213,0.44641516,-0.8030439,0.39475822,-0.81698316,-0.18580896,0.5459061,,1.093685706914801,0.5029661466324938,0.21359877733000002,3.278292576437054,-0.6872815938201655,-1.2322529330120602,-0.40443990774847505,,-1.019454798527755,0.2687124903586418,0.19718774593000002,-1.5925951207649622,-1.1858681814642578,-0.3232013930790797,0.875524194479737,,-0.06912158336367043,-0.051437034717837886,0.09109722752,-0.09158399527144698,,-6.702542e-05,-1.6272068e-05,1.513958e-05,1.0,6.9744885e-05,6.235391e-05,-6.9729984e-05,1.0,1.0371208e-05,-6.235391e-05,-1.0371208e-05,1.0,547,1.674,0,0,0.0,False,-0.2486774245417096,1.0505288715750958
1.6920324261300266,13:59:15.421269,13:57:55.428410,0,,0.124345705,-0.0010180175,0.028865352,0.47478905,0.7180938,-0.50883836,-0.015515327,0.5848994,0.8109573,0.8799628,-0.37713894,0.28884527,,0.017210923,-0.008924007,0.0054342747,0.20211035,0.6354758,0.74519926,-0.31005284,-0.68024623,0.6641779,0.928988,-0.36528844,0.059546262,,0.083470024,1.2908485,0.4262098,0.99383193,0.082720004,-0.07386126,0.012357663,-0.7444963,-0.6675122,-0.110206045,0.6624822,-0.74092644,,-0.11753448,0.2557721,-0.10608692,-0.5743715,-0.63753456,0.5134657,0.55680954,0.15551741,0.8159519,-0.6000504,0.75456214,0.26566055,,-0.014912046,0.41736534,-0.33617327,-0.36503896,-0.5661509,-0.7390668,0.44640878,-0.803078,0.39469603,-0.8169858,-0.18584646,0.5458895,,1.094419366537852,0.5030433739612361,0.21353396283000003,3.2776635066065998,-0.69643623930445,-1.2381015681073118,-0.40264312302099814,,-1.019454798527755,0.26872021309151606,0.19718774593000002,-1.5925951207649622,-1.1858681814642578,-0.32311971433893916,0.8756875385458711,,-0.06912158336367043,-0.051437034717837886,0.09109722752,-0.09158399527144698,,-6.702542e-05,-1.6272068e-05,1.513958e-05,1.0,6.9744885e-05,6.235391e-05,-6.9729984e-05,1.0,1.0371208e-05,-6.235391e-05,-1.0371208e-05,1.0,555,1.698,0,0,0.0,False,-0.24843911366762628,1.05014262996886
1.7174136899411678,13:59:15.449597,13:57:55.428410,0,,0.124239594,-0.0009892806,0.0289879,0.47429976,0.7172661,-0.51045954,-0.014980882,0.58632004,0.80994093,0.8802359,-0.3765077,0.2888367,,0.017212383,-0.008923098,0.0054335594,0.20210324,0.63547784,0.7451995,-0.31005517,-0.68024606,0.66417706,0.9289887,-0.3652853,0.059553266,,0.083470024,1.2908485,0.4262098,0.99383193,0.082720004,-0.07386126,0.012357663,-0.7444963,-0.6675122,-0.110206045,0.6624822,-0.74092644,,-0.11744203,0.2558794,-0.10617089,-0.5738901,-0.63671285,0.51502126,0.5574085,0.15702778,0.8152534,-0.59995496,0.7549431,0.26479247,,-0.014913352,0.41736525,-0.33617195,-0.36503214,-0.56615347,-0.7390682,0.44640872,-0.8030758,0.39470053,-0.8169889,-0.1858481,0.5458843,,1.0951453034280292,0.5031514922214753,0.21344840769,3.27577629711524,-0.6962996028046845,-1.2383763434912893,-0.4036231874178038,,-1.019462521260629,0.26872021309151606,0.19718904222000003,-1.5925951207649622,-1.1858681814642578,-0.32311971433893916,0.8760142266781397,,-0.06912158336367043,-0.051437034717837886,0.09109722752,-0.09158399527144698,,-6.702542e-05,-1.6272068e-05,1.513958e-05,1.0,6.9744885e-05,6.235391e-05,-6.9729984e-05,1.0,1.0371208e-05,-6.235391e-05,-1.0371208e-05,1.0,563,1.723,0,0,0.0,False,-0.24784333648241574,1.049804668563404
1.7456828919239342,13:59:15.476053,13:57:55.526950,0,,0.124164335,-0.0009808242,0.029059783,0.4739677,0.71624,-0.51220584,-0.014000088,0.5877498,0.8089215,0.8804309,-0.37623176,0.28860182,,0.017213635,-0.008922726,0.0054340363,0.2020962,0.635419,0.7452516,-0.31005746,-0.68030006,0.6641207,0.92898947,-0.36528704,0.059530377,,0.083470024,1.2908485,0.4262098,0.99383193,0.082720004,-0.07386126,0.012357663,-0.7444963,-0.6675122,-0.110206045,0.6624822,-0.74092644,,-0.11737534,0.2559366,-0.106227316,-0.5735321,-0.63565236,0.5167272,0.5582813,0.15831581,0.8144066,-0.5994856,0.75556743,0.26407364,,-0.014914669,0.41736567,-0.33617187,-0.3650253,-0.56609565,-0.7391159,0.44640863,-0.8031059,0.39463943,-0.8169919,-0.18589433,0.5458639,,1.09558549920186,0.5031669376872238,0.21338877835000003,3.2740987775673633,-0.6957530568056227,-1.2389036938462155,-0.40378653148393817,,-1.0194702439935033,0.26872021309151606,0.19718904222000003,-1.5925951207649622,-1.1858681814642578,-0.3230380355987986,0.8758508826120055,,-0.06912158336367043,-0.051437034717837886,0.09109722752,-0.09158399527144698,,-6.702542e-05,-1.6272068e-05,1.513958e-05,1.0,6.9744885e-05,6.235391e-05,-6.9729984e-05,1.0,1.0371208e-05,-6.235391e-05,-1.0371208e-05,1.0,571,1.747,0,0,0.0,False,-0.2472475592972052,1.0499012289649627
1.7721979760099202,13:59:15.499656,13:57:55.526950,0,,0.124067456,-0.0009597838,0.029135063,0.47299322,0.7155334,-0.5140908,-0.013117164,0.58914137,0.8079234,0.8809684,-0.3753989,0.28804553,,0.017213635,-0.008922726,0.0054340363,0.2020962,0.6354798,0.7451997,-0.31005746,-0.6802459,0.6641762,0.92898947,-0.36528218,0.05956018,,0.083470024,1.2908485,0.4262098,0.99383193,0.082720004,-0.07386126,0.012357663,-0.7444963,-0.6675122,-0.110206045,0.6624822,-0.74092644,,-0.11728693,0.25600624,-0.10628047,-0.572582,-0.6349758,0.5186093,0.55933493,0.15993436,0.8133667,-0.59941167,0.7557954,0.2635886,,-0.014914669,0.41736567,-0.33617187,-0.3650253,-0.56615597,-0.73906964,0.44640863,-0.80307364,0.39470503,-0.8169919,-0.18584974,0.5458791,,1.0961415359688043,0.5031437694886011,0.21333563046,3.2715824982455493,-0.6957530568056227,-1.238822015106075,-0.4039498755500728,,-1.0194702439935033,0.26872021309151606,0.19718904222000003,-1.5925951207649622,-1.1858681814642578,-0.32311971433893916,0.8756875385458711,,-0.06912158336367043,-0.051437034717837886,0.09109722752,-0.09158399527144698,,-6.702542e-05,-1.6272068e-05,1.513958e-05,1.0,6.9744885e-05,6.235391e-05,-6.9729984e-05,1.0,1.0371208e-05,-6.235391e-05,-1.0371208e-05,1.0,583,1.784,0,0,0.0,False,-0.24849869138614666,1.0499977893665218
1.7957977601327002,13:59:15.530465,13:57:55.526950,0,,0.12398082,-0.00096607953,0.029217407,0.470499,0.7143023,-0.51807606,-0.0110191405,0.59183156,0.80598617,0.8823316,-0.37350702,0.2863271,,0.017214127,-0.008923978,0.0054335,0.2020937,0.6355399,0.74514914,-0.31005123,-0.68019557,0.6642306,0.92899203,-0.36527127,0.059586704,,0.083470024,1.2908485,0.4262098,0.99383193,0.082720004,-0.07386126,0.012357663,-0.7444963,-0.6675122,-0.110206045,0.6624822,-0.74092644,,-0.11721095,0.25605989,-0.10635582,-0.5701574,-0.63383454,0.5226608,0.5619028,0.16324605,0.8109352,-0.59932107,0.7560453,0.26307747,,-0.014915071,0.4173644,-0.33617237,-0.3650233,-0.56621665,-0.73902416,0.446415,-0.80303955,0.3947672,-0.81698936,-0.18581223,0.54589576,,1.0965045044138928,0.5030819876256072,0.21326044564000002,3.2665499396019206,-0.6957530568056227,-1.238822015106075,-0.4039498755500728,,-1.0194702439935033,0.2687124903586418,0.19718904222000003,-1.5925951207649622,-1.1858681814642578,-0.3232013930790797,0.875524194479737,,-0.06912158336367043,-0.051437034717837886,0.09109722752,-0.09158399527144698,,-6.702542e-05,-1.6272068e-05,1.513958e-05,1.0,6.9744885e-05,6.235391e-05,-6.9729984e-05,1.0,1.0371208e-05,-6.235391e-05,-1.0371208e-05,1.0,591,1.809,0,0,0.0,False,-0.24879657997875215,1.0499977893665218
1.8265643119812012,13:59:15.556111,13:57:55.526950,0,,0.123949416,-0.0009818524,0.029257849,0.46912247,0.7150925,-0.5182342,-0.011493564,0.59170717,0.8060709,0.88305825,-0.37218973,0.28580207,,0.017213635,-0.008922726,0.0054340363,0.2020962,0.63554066,0.7451477,-0.31005746,-0.6801916,0.6642318,0.92898947,-0.3652773,0.05959001,,0.083470024,1.2908485,0.4262098,0.99383193,0.082720004,-0.07386126,0.012357663,-0.7444963,-0.6675122,-0.110206045,0.6624822,-0.74092644,,-0.11718534,0.25607634,-0.106399916,-0.56890184,-0.6347785,0.52288324,0.5620884,0.16400115,0.8106542,-0.60033935,0.7550893,0.26350105,,-0.014914669,0.41736567,-0.33617187,-0.3650253,-0.56621635,-0.7390234,0.44640863,-0.8030414,0.39477062,-0.8169919,-0.18580516,0.5458943,,1.0966357908727546,0.503004760296865,0.21322414952000002,3.265082109997529,-0.6971194218032771,-1.2377078360691107,-0.4039498755500728,,-1.0194702439935033,0.26872021309151606,0.19718904222000003,-1.5925951207649622,-1.1858681814642578,-0.3232013930790797,0.875524194479737,,-0.06912158336367043,-0.051437034717837886,0.09109722752,-0.09158399527144698,,-6.702542e-05,-1.6272068e-05,1.513958e-05,1.0,6.9744885e-05,6.235391e-05,-6.9729984e-05,1.0,1.0371208e-05,-6.235391e-05,-1.0371208e-05,1.0,616,1.887,0,0,0.0,False,-0.2476646033268528,1.05014262996886
1.852230747928843,13:59:15.626781,13:57:55.526950,0,,0.12378588,-0.001018472,0.029392615,0.45505604,0.7170342,-0.5280018,-0.009896189,0.5969877,0.80218935,0.8904078,-0.35981587,0.27875873,,0.017214827,-0.008924633,0.005431831,0.20209125,0.6353565,0.7453062,-0.31004506,-0.68036234,0.6640626,0.9289947,-0.36527976,0.0594939,,0.083470024,1.2908485,0.4262098,0.99383193,0.082720004,-0.07386126,0.012357663,-0.7444963,-0.6675122,-0.110206045,0.6624822,-0.74092644,,-0.1170408,0.25614542,-0.10654341,-0.5557247,-0.6378712,0.53318894,0.56872964,0.17610742,0.8034506,-0.6063965,0.7497376,0.264909,,-0.0149154635,0.41736263,-0.33617166,-0.3650213,-0.56603587,-0.73916364,0.44642138,-0.8031344,0.394567,-0.8169868,-0.18595308,0.54585165,,1.0969447001877235,0.5024564462627951,0.21312822406,3.2464197050274057,-0.7053176117892036,-1.2323296216895743,-0.4039498755500728,,-1.0194702439935033,0.2687047676257676,0.19719033851,-1.5925951207649622,-1.1858681814642578,-0.322956356858658,0.8756875385458709,,-0.06912158336367043,-0.051437034717837886,0.09109722752,-0.09158399527144698,,-6.702542e-05,-1.6272068e-05,1.513958e-05,1.0,6.9744885e-05,6.235391e-05,-6.9729984e-05,1.0,1.0371208e-05,-6.235391e-05,-1.0371208e-05,1.0,620,1.899,0,0,0.0,False,-0.24748587017128898,1.05014262996886
1.9229249691125005,13:59:15.655381,13:57:55.526950,0,,0.12372384,-0.001057297,0.029454216,0.4535363,0.71706784,-0.5292621,-0.012876987,0.59906095,0.8005998,0.89114463,-0.35628587,0.2809295,,0.017214365,-0.008926749,0.005430579,0.20215839,0.63503534,0.7455616,-0.31018376,-0.68057024,0.66378474,0.9289338,-0.36545077,0.059394658,,0.083470024,1.2908485,0.4262098,0.99383193,0.082720004,-0.07386126,0.012357663,-0.7444963,-0.6675122,-0.110206045,0.6624822,-0.74092644,,-0.11698849,0.25616002,-0.10662212,-0.5544597,-0.6382077,0.5341024,0.56706285,0.18000317,0.80376524,-0.6091093,0.7485251,0.2620994,,-0.0149148125,0.41736037,-0.3361725,-0.36507767,-0.5656912,-0.7393996,0.4462754,-0.8033584,0.39427602,-0.81704134,-0.1860345,0.5457423,,1.0972458867698183,0.5022093188108199,0.21307118730000002,3.2464197050274057,-0.7090067972828705,-1.2348754926193293,-0.40460325181460943,,-1.019462521260629,0.2687124903586418,0.19719033851,-1.5921757408779935,-1.1858681814642578,-0.322956356858658,0.8756875385458709,,-0.06912158336367043,-0.051437034717837886,0.09109722752,-0.09158399527144698,,-6.702542e-05,-1.6272068e-05,1.513958e-05,1.0,6.9744885e-05,6.235391e-05,-6.9729984e-05,1.0,1.0371208e-05,-6.235391e-05,-1.0371208e-05,1.0,628,1.924,0,0,0.0,False,-0.24903489085283592,1.0502391903704191
1.951526191085577,13:59:15.679095,13:57:55.526950,0,,0.123663455,-0.0010555908,0.02955003,0.44746003,0.7204234,-0.52987695,-0.016657054,0.59911305,0.8004911,0.8941487,-0.3493617,0.28007916,,0.017213106,-0.008927107,0.005430162,0.20216551,0.6350333,0.7455614,-0.31018147,-0.68057054,0.6637856,0.92893296,-0.36545387,0.059387684,,0.083470024,1.2908485,0.4262098,0.99383193,0.082720004,-0.07386126,0.012357663,-0.7444963,-0.6675122,-0.110206045,0.6624822,-0.74092644,,-0.116939686,0.25622758,-0.10669886,-0.54898196,-0.6423409,0.5348056,0.56649196,0.18452904,0.80314124,-0.61457765,0.7438731,0.26257786,,-0.014913496,0.41735998,-0.3361726,-0.36508453,-0.5656886,-0.7393982,0.4462755,-0.8033605,0.39427152,-0.81703824,-0.18603286,0.54574746,,1.0975625188176616,0.5020471414204611,0.21303489118000002,3.2413871463837776,-0.7161118952706733,-1.2316954813116134,-0.40329649928553546,,-1.019454798527755,0.2687124903586418,0.19719033851,-1.5921757408779935,-1.1858681814642578,-0.322956356858658,0.8756875385458709,,-0.06912158336367043,-0.051437034717837886,0.09109722752,-0.09158399527144698,,-6.702542e-05,-1.6272068e-05,1.513958e-05,1.0,6.9744885e-05,6.235391e-05,-6.9729984e-05,1.0,1.0371208e-05,-6.235391e-05,-1.0371208e-05,1.0,636,1.948,0,0,0.0,False,-0.2489753131343151,1.049804668563404
1.9752295811194927,13:59:15.706594,13:57:55.526950,0,,0.123534426,-0.0010403693,0.029662743,0.44289953,0.7194089,-0.53506136,-0.018876374,0.6041361,0.79665744,0.89637244,-0.3427393,0.2811514,,0.017214097,-0.008929566,0.005429089,0.20216054,0.6350317,0.7455641,-0.3101691,-0.6805786,0.6637832,0.92893827,-0.36544174,0.059381098,,0.083470024,1.2908485,0.4262098,0.99383193,0.082720004,-0.07386126,0.012357663,-0.7444963,-0.6675122,-0.110206045,0.6624822,-0.74092644,,-0.11682407,0.2563191,-0.106787354,-0.54483473,-0.6418441,0.5396214,0.56650245,0.19272318,0.80120707,-0.61824757,0.7422223,0.25860396,,-0.014914299,0.41735741,-0.3361736,-0.36508048,-0.56568927,-0.7393997,0.44628823,-0.8033568,0.3942647,-0.8170331,-0.18604703,0.5457503,,1.0982575647763417,0.5018463503657313,0.21297526184,3.2365642776836334,-0.7210308092622292,-1.2347088084306306,-0.404929939946878,,-1.019454798527755,0.26869704489289337,0.19719033851,-1.5921757408779935,-1.1858681814642578,-0.322956356858658,0.8756875385458709,,-0.06912158336367043,-0.051437034717837886,0.09109722752,-0.09158399527144698,,-6.702542e-05,-1.6272068e-05,1.513958e-05,1.0,6.9744885e-05,6.235391e-05,-6.9729984e-05,1.0,1.0371208e-05,-6.235391e-05,-1.0371208e-05,1.0,648,1.985,0,0,0.0,False,-0.24820080279354162,1.0502391903704191
2.002737641101703,13:59:15.731997,13:57:55.526950,0,,0.123321205,-0.0010036901,0.029836565,0.43897772,0.7210346,-0.5361042,-0.020557612,0.604571,0.7962859,0.89826274,-0.33853078,0.28021592,,0.01721578,-0.008905947,0.005426526,0.20217136,0.63502896,0.7455635,-0.31017083,-0.6805767,0.6637844,0.9289353,-0.36545023,0.059374392,,0.08346568,1.2908487,0.42620626,0.99383193,0.08271895,-0.0738622,0.012356266,-0.7444964,-0.6675121,-0.110206045,0.6624822,-0.74092644,,-0.11662685,0.2564737,-0.10691961,-0.54125375,-0.6439237,0.54074645,0.56666636,0.19579098,0.8003469,-0.6212356,0.73961353,0.25891727,,-0.01491129,0.41737407,-0.33615708,-0.3650909,-0.565686,-0.73939705,0.44628385,-0.8033608,0.3942615,-0.81703085,-0.18603966,0.5457562,,1.0991920154541228,0.5017922912356118,0.21287804009000003,3.2317414089834897,-0.724993267755427,-1.2318860829241371,-0.4044399077484755,,-1.019462521260629,0.2687047676257676,0.19719033851,-1.5921757408779935,-1.1858681814642578,-0.322956356858658,0.8756875385458709,,-0.06912158336367043,-0.051437034717837886,0.09109722752,-0.09158399527144698,,-7.0955604e-05,-1.9192696e-05,1.8000603e-05,0.99999994,6.869435e-05,6.142259e-05,-6.869435e-05,1.0,1.0222197e-05,-6.142259e-05,-1.0222197e-05,1.0,656,2.01,0,0,0.0,False,-0.24873700226023132,1.0503840309727575
2.028141821967438,13:59:15.759985,13:57:55.808719,0,,0.12314929,-0.0009618476,0.030002266,0.43489146,0.7206292,-0.5399657,-0.019446194,0.60701615,0.79445153,0.90027285,-0.3349999,0.27799967,,0.017214872,-0.008907244,0.005425632,0.20214468,0.63518524,0.7454375,-0.31008872,-0.680479,0.66392285,0.9289684,-0.36536026,0.059408545,,0.08346568,1.2908487,0.42620626,0.99383193,0.08271895,-0.0738622,0.012356266,-0.7444964,-0.6675121,-0.110206045,0.6624822,-0.74092644,,-0.116473496,0.25662208,-0.1070346,-0.5373773,-0.64380544,0.54473865,0.568994,0.19998121,0.7976549,-0.62247205,0.73859465,0.25885606,,-0.0149102425,0.41737267,-0.3361576,-0.36506993,-0.565855,-0.739278,0.4463665,-0.8032493,0.39439517,-0.816995,-0.18600713,0.5458209,,1.1001650797962752,0.5017922912356118,0.21277304060000002,3.2246119509050155,-0.7266329057526123,-1.2299773168987962,-0.40460325181460965,,-1.019454798527755,0.2686893221600191,0.19719033851,-1.592385430821478,-1.1858681814642578,-0.322956356858658,0.8756875385458709,,-0.06912158336367043,-0.051437034717837886,0.09109722752,-0.09158399527144698,,-7.0955604e-05,-1.9192696e-05,1.8000603e-05,0.99999994,6.869435e-05,6.142259e-05,-6.869435e-05,1.0,1.0222197e-05,-6.142259e-05,-1.0222197e-05,1.0,685,2.1,0,0,0.0,False,-0.24796249191945785,1.0503840309727575
2.0561300560366362,13:59:15.842948,13:57:55.890897,0,,0.122872256,-0.0008882433,0.030333936,0.4253221,0.7234719,-0.5437734,-0.021779388,0.6088345,0.79299825,0.9047799,-0.32543656,0.27470756,,0.017197825,-0.008862734,0.0054620504,0.19937412,0.63874024,0.7431425,-0.30816188,-0.6790243,0.66630507,0.93020755,-0.36185217,0.06145549,,0.08346568,1.2908487,0.42620626,0.99383193,0.08271895,-0.0738622,0.012356266,-0.7444964,-0.6675121,-0.110206045,0.6624822,-0.74092644,,-0.11623357,0.25690892,-0.10726337,-0.5285347,-0.64764524,0.54882306,0.57063884,0.20760159,0.7945268,-0.62850803,0.7331147,0.2598469,,-0.014899552,0.41743124,-0.33615062,-0.362547,-0.5699619,-0.7373622,0.44891304,-0.8001561,0.39777794,-0.81672317,-0.1867983,0.54595757,,1.1018563582957304,0.5018154594342344,0.21259026371000003,3.212240244239429,-0.7344211862392425,-1.2237081751282406,-0.4044399077484755,,-1.019462521260629,0.26862754029702535,0.19719033851,-1.6005633386173743,-1.1876444559612085,-0.31922091938666874,0.8756875385458711,,-0.06912158336367043,-0.051437034717837886,0.09109722752,-0.09158399527144698,,-7.0955604e-05,-1.9192696e-05,1.8000603e-05,0.99999994,6.869435e-05,6.142259e-05,-6.869435e-05,1.0,1.0222197e-05,-6.142259e-05,-1.0222197e-05,1.0,693,2.124,0,0,0.0,False,-0.24820080279354162,1.0505771517758753
2.13909411104396,13:59:15.875653,13:57:55.890897,0,,0.1228087,-0.00087478757,0.03042233,0.418129,0.72369087,-0.5490351,-0.02214083,0.61234593,0.79027987,0.9081177,-0.31828284,0.27206266,,0.017189555,-0.008842155,0.005483806,0.19725159,0.63655025,0.7455841,-0.30705807,-0.68214387,0.6636228,0.93102473,-0.35983822,0.060903907,,0.08346568,1.2908487,0.42620626,0.99383193,0.08271895,-0.0738622,0.012356266,-0.7444964,-0.6675121,-0.110206045,0.6624822,-0.74092644,,-0.116180144,0.25698036,-0.10732718,-0.5218091,-0.6485131,0.5542076,0.5728778,0.21497716,0.7909461,-0.63208085,0.73021615,0.25934172,,-0.014895088,0.417462,-0.33615068,-0.36059365,-0.5681846,-0.7396881,0.4505179,-0.80049706,0.39526963,-0.8167043,-0.19071099,0.5446315,,1.102049426617586,0.5017382321054922,0.21255396759000003,3.203223576669594,-0.7390668272312674,-1.2222069711264982,-0.4044399077484755,,-1.019462521260629,0.2685425902354089,0.19719163480000002,-1.6058055872044876,-1.1891474574586283,-0.31080759331363866,0.8763409148104081,,-0.06912158336367043,-0.051437034717837886,0.09109722752,-0.09158399527144698,,-7.0955604e-05,-1.9192696e-05,1.8000603e-05,0.99999994,6.869435e-05,6.142259e-05,-6.869435e-05,1.0,1.0222197e-05,-6.142259e-05,-1.0222197e-05,1.0,705,2.161,0,0,0.0,False,-0.24742629245276815,1.0502874705711984
2.171752103138715,13:59:15.908290,13:57:55.963665,0,,0.12277643,-0.00089389086,0.030513585,0.410943,0.7259501,-0.55147266,-0.025731683,0.613905,0.78896046,0.9112978,-0.31002748,0.2709599,,0.017192885,-0.008851469,0.0054718256,0.19803499,0.63594306,0.7458945,-0.30680087,-0.68251413,0.6633611,0.9309432,-0.3602098,0.05994621,,0.08346568,1.2908487,0.42620626,0.99383193,0.08271895,-0.0738622,0.012356266,-0.7444964,-0.6675121,-0.110206045,0.6624822,-0.74092644,,-0.11615979,0.25702828,-0.107411,-0.5152414,-0.6516352,0.5566847,0.57260853,0.2215551,0.7893243,-0.63768786,0.7254549,0.25897753,,-0.014896322,0.41744655,-0.3361493,-0.36134845,-0.56752414,-0.7398268,0.45053184,-0.80094045,0.39435452,-0.81636286,-0.19081612,0.5451063,,1.1021034857477054,0.5015837774480076,0.21251378260000003,3.196723188421574,-0.7464451982186011,-1.2200293051134978,-0.40394987555007256,,-1.019462521260629,0.2684885311052893,0.19719163480000002,-1.6053862073175185,-1.1883276384600356,-0.3104959558541303,0.8763409148104081,,-0.06912158336367043,-0.051437034717837886,0.09109722752,-0.09158399527144698,,-7.0955604e-05,-1.9192696e-05,1.8000603e-05,0.99999994,6.869435e-05,6.142259e-05,-6.869435e-05,1.0,1.0222197e-05,-6.142259e-05,-1.0222197e-05,1.0,717,2.198,0,0,0.0,False,-0.2486774245417096,1.05014262996886
2.2044304949231446,13:59:15.952598,13:57:55.963665,0,,0.12272851,-0.00092533976,0.03063953,0.40047583,0.7294742,-0.5545145,-0.031376988,0.61572456,0.78733647,0.91576993,-0.29791024,0.26947147,,0.017197825,-0.008863777,0.005466521,0.19801036,0.63605666,0.745804,-0.3067387,-0.68244547,0.6634604,0.9309689,-0.360139,0.05997193,,0.08346568,1.2908487,0.42620626,0.99383193,0.08271895,-0.0738622,0.012356266,-0.7444964,-0.6675121,-0.110206045,0.6624822,-0.74092644,,-0.11612861,0.25709078,-0.107530445,-0.5056779,-0.6564488,0.55979,0.57180095,0.23085321,0.7872423,-0.6460136,0.71817946,0.25862068,,-0.014900341,0.4174338,-0.3361543,-0.3613283,-0.567648,-0.73974156,0.4505954,-0.800857,0.39445126,-0.8163367,-0.19079776,0.5451519,,1.1021652676106994,0.5013212045302841,0.21246063471,3.187496830908255,-0.7575127546996018,-1.2164769305035052,-0.4031331552194015,,-1.019462521260629,0.26841130377654704,0.19719163480000002,-1.6053862073175185,-1.1883276384600356,-0.3106593133344115,0.8760142266781396,,-0.06912158336367043,-0.051437034717837886,0.09109722752,-0.09158399527144698,,-7.0955604e-05,-1.9192696e-05,1.8000603e-05,0.99999994,6.869435e-05,6.142259e-05,-6.869435e-05,1.0,1.0222197e-05,-6.142259e-05,-1.0222197e-05,1.0,754,2.313,0,0,0.0,False,-0.24754544788981026,1.0505288715750958
2.248715744121,13:59:16.057837,13:57:56.050146,0,,0.12239897,-0.00094775856,0.031072587,0.36719424,0.7399696,-0.563572,-0.04837206,0.6202692,0.78289616,0.9288856,-0.26021385,0.2635531,,0.017203651,-0.008898601,0.005449593,0.19808495,0.63560736,0.74616724,-0.30678213,-0.68280256,0.6630728,0.9309388,-0.36025554,0.059740096,,0.08346568,1.2908487,0.42620626,0.99383193,0.08271895,-0.0738622,0.012356266,-0.7444964,-0.6675121,-0.110206045,0.6624822,-0.74092644,,-0.11585347,0.25737584,-0.107904196,-0.4750908,-0.6710179,0.56923085,0.56920713,0.2589673,0.78034556,-0.671038,0.69474524,0.2589152,,-0.014903351,0.41739738,-0.33616832,-0.36139673,-0.5671878,-0.7400611,0.45053485,-0.80112493,0.3939762,-0.81633985,-0.19104159,0.54506177,,1.1033005093432104,0.500355862921006,0.21229859846000002,3.1554142695551226,-0.7915352431411965,-1.201475755945024,-0.4044399077484755,,-1.0194161848633838,0.2682336809204399,0.19719163480000002,-1.6047571374870648,-1.1883276384600356,-0.3107409920745521,0.8758508826120052,,-0.06912158336367043,-0.051437034717837886,0.09109722752,-0.09158399527144698,,-7.0955604e-05,-1.9192696e-05,1.8000603e-05,0.99999994,6.869435e-05,6.142259e-05,-6.869435e-05,1.0,1.0222197e-05,-6.142259e-05,-1.0222197e-05,1.0,762,2.337,0,0,0.0,False,-0.2476646033268528,1.0503840309727575
2.3539833950344473,13:59:16.088761,13:57:56.131587,0,,0.1222968,-0.00091648847,0.031271935,0.35605183,0.7432815,-0.5663565,-0.05425325,0.621495,0.78153735,0.93288994,-0.24754113,0.26160985,,0.017205127,-0.008902252,0.0054479837,0.19807757,0.63572675,0.74606746,-0.30676347,-0.6827061,0.6631807,0.93094647,-0.36022747,0.059789002,,0.08346568,1.2908487,0.42620626,0.99383193,0.08271895,-0.0738622,0.012356266,-0.7444964,-0.6675121,-0.110206045,0.6624822,-0.74092644,,-0.11577377,0.25753608,-0.1080425,-0.46481535,-0.67571694,0.572148,0.56793845,0.26820248,0.7781474,-0.6792589,0.6866397,0.25910097,,-0.014904556,0.41739357,-0.3361698,-0.36139068,-0.5673096,-0.7399707,0.45055392,-0.80105484,0.39409685,-0.816332,-0.19097376,0.5450973,,1.1038256551786576,0.5003404174552575,0.21222989509,3.1443007025504426,-0.8026027996221973,-1.195799734091377,-0.40460325181460965,,-1.0194161848633838,0.26821051272181723,0.19719163480000002,-1.6047571374870648,-1.1883276384600356,-0.31090434955483326,0.8761775707442739,,-0.06912158336367043,-0.051437034717837886,0.09109722752,-0.09158399527144698,,-7.0955604e-05,-1.9192696e-05,1.8000603e-05,0.99999994,6.869435e-05,6.142259e-05,-6.869435e-05,1.0,1.0222197e-05,-6.142259e-05,-1.0222197e-05,1.0,770,2.362,0,0,0.0,False,-0.24903489085283592,1.0506254319766548
2.384888753062114,13:59:16.109433,13:57:56.131587,0,,0.122254625,-0.00090153515,0.031413734,0.349444,0.74679947,-0.56584394,-0.060228467,0.62057126,0.78183365,0.9350195,-0.23912716,0.26183343,,0.01720611,-0.008904755,0.005446911,0.19807264,0.63572514,0.7460702,-0.30675107,-0.6827141,0.6631782,0.93095165,-0.36021525,0.059782326,,0.08346568,1.2908487,0.42620626,0.99383193,0.08271895,-0.0738622,0.012356266,-0.7444964,-0.6675121,-0.110206045,0.6624822,-0.74092644,,-0.1157477,0.25764343,-0.10814202,-0.45882347,-0.68023616,0.5716291,0.5651718,0.27298966,0.778497,-0.6856106,0.6802613,0.25919622,,-0.01490536,0.417391,-0.33617082,-0.36138666,-0.5673102,-0.7399722,0.45056665,-0.801051,0.39409003,-0.8163268,-0.1909879,0.5451002,,1.104150009959375,0.5003790311196287,0.21218452494,3.139477833850299,-0.81121089910742,-1.1917208408035627,-0.40362318741780356,,-1.0194161848633838,0.2681950672560688,0.19719163480000002,-1.6047571374870648,-1.1883276384600356,-0.31090434955483326,0.8761775707442739,,-0.06912158336367043,-0.051437034717837886,0.09109722752,-0.09158399527144698,,-7.0955604e-05,-1.9192696e-05,1.8000603e-05,0.99999994,6.869435e-05,6.142259e-05,-6.869435e-05,1.0,1.0222197e-05,-6.142259e-05,-1.0222197e-05,1.0,778,2.386,0,0,0.0,False,-0.24957109031952562,1.0501909101696396
2.4055771429557353,13:59:16.139014,13:57:56.131587,0,,0.12217664,-0.0008567646,0.031591,0.34089068,0.7468511,-0.5709701,-0.06390759,0.62435347,0.7785233,0.9379282,-0.22890198,0.26056576,,0.017207108,-0.008907184,0.005445838,0.19806772,0.6357235,0.7460728,-0.30673862,-0.6827221,0.6631758,0.9309568,-0.36020303,0.05977574,,0.08346568,1.2908487,0.42620626,0.99383193,0.08271895,-0.0738622,0.012356266,-0.7444964,-0.6675121,-0.110206045,0.6624822,-0.74092644,,-0.11568869,0.25779802,-0.108252116,-0.45087266,-0.6812821,0.5766876,0.56470937,0.28262192,0.7753891,-0.69124323,0.6752626,0.25729987,,-0.014906163,0.41738847,-0.3361718,-0.3613826,-0.5673108,-0.73997366,0.45057935,-0.8010472,0.39408323,-0.81632155,-0.19100204,0.5451031,,1.1046210966647028,0.5005334857771131,0.21212100673000003,3.1298320964500106,-0.8188625430942845,-1.190382162604997,-0.40591000434368385,,-1.0194161848633838,0.26817962179032034,0.19719163480000002,-1.6047571374870648,-1.1883276384600356,-0.31090434955483326,0.8761775707442739,,-0.06912158336367043,-0.051437034717837886,0.09109722752,-0.09158399527144698,,-7.0955604e-05,-1.9192696e-05,1.8000603e-05,0.99999994,6.869435e-05,6.142259e-05,-6.869435e-05,1.0,1.0222197e-05,-6.142259e-05,-1.0222197e-05,1.0,786,2.411,0,0,0.0,False,-0.2490944685713572,1.0499977893665218
2.43513948796317,13:59:16.160924,13:57:56.220961,0,,0.12215492,-0.0008470416,0.03168446,0.33762854,0.7487667,-0.5703992,-0.06772399,0.6237362,0.7786955,0.9388399,-0.22428015,0.26130056,,0.017209083,-0.008912116,0.005443752,0.19805789,0.6357811,0.74602634,-0.30671376,-0.6826838,0.6632267,0.9309671,-0.36017376,0.059791923,,0.08346568,1.2908487,0.42620626,0.99383193,0.08271895,-0.0738622,0.012356266,-0.7444964,-0.6675121,-0.110206045,0.6624822,-0.74092644,,-0.11567754,0.25786847,-0.10831709,-0.44794372,-0.68375355,0.5760447,0.5626057,0.28517047,0.77598494,-0.6948534,0.6716836,0.25694335,,-0.014907771,0.41738334,-0.33617383,-0.36137456,-0.56737244,-0.73993033,0.4506048,-0.80100745,0.39413503,-0.81631106,-0.1909858,0.5451245,,1.1048450559180552,0.5006029903729812,0.21208859948000003,3.128154576902134,-0.823644820586075,-1.1885245044791362,-0.40509328401301237,,-1.0194161848633838,0.2681487308588234,0.19719163480000002,-1.6047571374870648,-1.1883276384600356,-0.31098602829497374,0.8760142266781398,,-0.06912158336367043,-0.051437034717837886,0.09109722752,-0.09158399527144698,,-7.0955604e-05,-1.9192696e-05,1.8000603e-05,0.99999994,6.869435e-05,6.142259e-05,-6.869435e-05,1.0,1.0222197e-05,-6.142259e-05,-1.0222197e-05,1.0,815,2.501,0,0,0.0,False,-0.24831995823058373,1.049804668563404
2.457039908040315,13:59:16.244202,13:57:56.293134,0,,0.122033946,-0.0007935241,0.031864762,0.32422414,0.7514256,-0.57466346,-0.07296479,0.6255342,0.77677745,0.9431621,-0.20991981,0.2576409,,0.017211087,-0.008927181,0.0054362416,0.19811603,0.63532615,0.74639845,-0.30678442,-0.6830408,0.6628263,0.93093145,-0.36029994,0.059586823,,0.08346568,1.2908487,0.42620626,0.99383193,0.08271895,-0.0738622,0.012356266,-0.7444964,-0.6675121,-0.110206045,0.6624822,-0.74092644,,-0.11557579,0.25803328,-0.10842884,-0.43542844,-0.68797195,0.58060026,0.562114,0.29598254,0.77228373,-0.70315707,0.6626378,0.25783947,,-0.0149085475,0.41736755,-0.33617988,-0.36142603,-0.56690496,-0.74026346,0.45052403,-0.8012816,0.39366984,-0.8163329,-0.19122395,0.5450083,,1.1053084198905088,0.5005566539757358,0.21205230336000003,3.1130569009712485,-0.835122286566372,-1.1808806541115886,-0.4039498755500728,,-1.0193930166647611,0.2680792262629554,0.19719163480000002,-1.6043377576000957,-1.1883276384600356,-0.31082267081469256,0.875687538545871,,-0.06912158336367043,-0.051437034717837886,0.09109722752,-0.09158399527144698,,-7.0955604e-05,-1.9192696e-05,1.8000603e-05,0.99999994,6.869435e-05,6.142259e-05,-6.869435e-05,1.0,1.0222197e-05,-6.142259e-05,-1.0222197e-05,1.0,823,2.526,0,0,0.0,False,-0.2492136240083993,1.0504805913743163
2.540345085086301,13:59:16.273368,13:57:56.293134,0,,0.12202561,-0.0007916391,0.031881094,0.32228836,0.75077343,-0.57660156,-0.07430616,0.62728655,0.7752356,0.94372064,-0.20700437,0.25795424,,0.017209068,-0.008929104,0.0054348707,0.19812779,0.6353214,0.74639946,-0.30677363,-0.6830452,0.66282684,0.9309324,-0.36030006,0.059569597,,0.08346568,1.2908487,0.42620626,0.99383193,0.08271895,-0.0738622,0.012356266,-0.7444964,-0.6675121,-0.110206045,0.6624822,-0.74092644,,-0.11556933,0.25804588,-0.1084406,-0.43364403,-0.6875734,0.58240515,0.5615643,0.29925647,0.77142143,-0.7046973,0.66158026,0.2563459,,-0.014906315,0.4173655,-0.33618057,-0.3614377,-0.56690025,-0.7402614,0.45053056,-0.801284,0.39365745,-0.81632406,-0.19122772,0.54502016,,1.1053161426233828,0.5005180403113647,0.21205489594000002,3.1113793814233723,-0.8373084705626191,-1.1821200810376467,-0.40541997214528114,,-1.0193775711990125,0.2680715035300812,0.19719163480000002,-1.6043377576000957,-1.1883276384600356,-0.31082267081469256,0.875687538545871,,-0.06912158336367043,-0.051437034717837886,0.09109722752,-0.09158399527144698,,-7.0955604e-05,-1.9192696e-05,1.8000603e-05,0.99999994,6.869435e-05,6.142259e-05,-6.869435e-05,1.0,1.0222197e-05,-6.142259e-05,-1.0222197e-05,1.0,831,2.55,0,0,0.0,False,-0.2490944685713572,1.0502391903704191
2.569488022942096,13:59:16.296309,13:57:56.293134,0,,0.12200691,-0.00078232586,0.03195992,0.31434858,0.7543447,-0.5763237,-0.0809004,0.62617767,0.77547187,0.9458542,-0.19714367,0.25786477,,0.017212301,-0.0089336485,0.005433142,0.19811079,0.6353201,0.74640495,-0.30675098,-0.6830609,0.6628211,0.9309435,-0.36027256,0.05956334,,0.08346568,1.2908487,0.42620626,0.99383193,0.08271895,-0.0738622,0.012356266,-0.7444964,-0.6675121,-0.110206045,0.6624822,-0.74092644,,-0.11555949,0.25810614,-0.10849469,-0.42636403,-0.69232386,0.58215237,0.55839187,0.3048688,0.77152675,-0.71162647,0.6540204,0.25660294,,-0.0149092395,0.41736078,-0.33618248,-0.36142278,-0.566904,-0.7402658,0.45055592,-0.80127424,0.39364833,-0.81631666,-0.19125766,0.5450207,,1.1053315880891315,0.5004176447839997,0.21206526626000002,3.105298373062321,-0.8471462985457309,-1.1772017840968456,-0.4054199721452809,,-1.0193852939318868,0.2680406125985843,0.19719163480000002,-1.6043377576000957,-1.1883276384600356,-0.31082267081469256,0.875687538545871,,-0.06912158336367043,-0.051437034717837886,0.09109722752,-0.09158399527144698,,-7.0955604e-05,-1.9192696e-05,1.8000603e-05,0.99999994,6.869435e-05,6.142259e-05,-6.869435e-05,1.0,1.0222197e-05,-6.142259e-05,-1.0222197e-05,1.0,839,2.575,0,0,0.0,False,-0.24927320172692014,1.0501909101696396
2.5924535270314664,13:59:16.324793,13:57:56.293134,0,,0.12199767,-0.0007727444,0.032014847,0.30848294,0.7560543,-0.57725227,-0.08562797,0.62645596,0.77473915,0.94736797,-0.18956488,0.25799033,,0.017213292,-0.008936122,0.005432129,0.19810589,0.63531846,0.7464077,-0.30673862,-0.6830688,0.6628187,0.9309486,-0.3602603,0.059556723,,0.08346568,1.2908487,0.42620626,0.99383193,0.08271895,-0.0738622,0.012356266,-0.7444964,-0.6675121,-0.110206045,0.6624822,-0.74092644,,-0.11555625,0.25815025,-0.108529866,-0.420971,-0.69488907,0.5830202,0.5561138,0.310064,0.77110165,-0.7166037,0.64883703,0.25590944,,-0.014910043,0.41735825,-0.3361835,-0.36141875,-0.5669046,-0.7402673,0.45056862,-0.8012704,0.3936415,-0.8163115,-0.1912718,0.54502356,,1.1053161426233828,0.5003635856538802,0.21207693287,3.1006851943056617,-0.8542513965335337,-1.1749202389306759,-0.4055833162114153,,-1.0193852939318868,0.2680251671328358,0.19719163480000002,-1.6043377576000957,-1.1883276384600356,-0.31082267081469256,0.875687538545871,,-0.06912158336367043,-0.051437034717837886,0.09109722752,-0.09158399527144698,,-7.0955604e-05,-1.9192696e-05,1.8000603e-05,0.99999994,6.869435e-05,6.142259e-05,-6.869435e-05,1.0,1.0222197e-05,-6.142259e-05,-1.0222197e-05,1.0,851,2.612,0,0,0.0,False,-0.24742629245276815,1.0499977893665218
2.6209289410617203,13:59:16.356023,13:57:56.409755,0,,0.121928334,-0.00073318183,0.032166153,0.29036504,0.75991714,-0.5815617,-0.096625,0.62792337,0.7722538,0.95202506,-0.16804215,0.255754,,0.01721584,-0.008945629,0.005427778,0.19815958,0.63517535,0.7465152,-0.30683878,-0.6831386,0.66270036,0.93090427,-0.3603802,0.059525907,,0.08346568,1.2908487,0.42620626,0.99383193,0.08271895,-0.0738622,0.012356266,-0.7444964,-0.6675121,-0.110206045,0.6624822,-0.74092644,,-0.11550305,0.25828332,-0.10862329,-0.40412176,-0.7011545,0.5874249,0.5517472,0.3253603,0.7679295,-0.729562,0.63444704,0.25537482,,-0.014911844,0.41734833,-0.33618733,-0.36146453,-0.56674314,-0.7403686,0.45046225,-0.8013869,0.39352614,-0.8163499,-0.19126236,0.5449693,,1.1053161426233828,0.5001705173320246,0.21210934012000002,3.083280928996446,-0.872970597001399,-1.1661086065953707,-0.4044399077484757,,-1.0193775711990125,0.2679865534684647,0.19719163480000002,-1.6039183777131267,-1.1883276384600356,-0.3110677070351143,0.8758508826120055,,-0.06912158336367043,-0.051437034717837886,0.09109722752,-0.09158399527144698,,-7.0955604e-05,-1.9192696e-05,1.8000603e-05,0.99999994,6.869435e-05,6.142259e-05,-6.869435e-05,1.0,1.0222197e-05,-6.142259e-05,-1.0222197e-05,1.0,876,2.689,0,0,0.0,False,-0.24849869138614666,1.0499495091657423
2.6521566319279373,13:59:16.427661,13:57:56.480867,0,,0.1218447,-0.00071695447,0.032375127,0.2673446,0.76282686,-0.58874613,-0.118389755,0.6323591,0.7655756,0.95630056,-0.1349709,0.2593687,,0.017216079,-0.008959815,0.005420387,0.1982272,0.63484085,0.7467818,-0.30691335,-0.68338335,0.66241336,0.9308652,-0.36050567,0.05937597,,0.08346568,1.2908487,0.42620626,0.99383193,0.08271895,-0.0738622,0.012356266,-0.7444964,-0.6675121,-0.110206045,0.6624822,-0.74092644,,-0.115443625,0.25843805,-0.108776435,-0.3829301,-0.70766634,0.59377855,0.5393065,0.35060534,0.76565295,-0.7500087,0.6134201,0.24739172,,-0.014910898,0.41733342,-0.336193,-0.36152473,-0.56639355,-0.74060667,0.4503752,-0.80160046,0.39319062,-0.81637126,-0.19140273,0.544888,,1.1053933699521252,0.49971487609244536,0.21216637688,3.0662960435741997,-0.9035771729488576,-1.1631225772651832,-0.405256628079147,,-1.0193466802675157,0.2679247716054709,0.19719163480000002,-1.6034989978261578,-1.1883276384600356,-0.3110677070351143,0.8758508826120055,,-0.06912158336367043,-0.051437034717837886,0.09109722752,-0.09158399527144698,,-7.0955604e-05,-1.9192696e-05,1.8000603e-05,0.99999994,6.869435e-05,6.142259e-05,-6.869435e-05,1.0,1.0222197e-05,-6.142259e-05,-1.0222197e-05,1.0,884,2.714,0,0,0.0,False,-0.24873700226023132,1.0501909101696396
