AlexandreBanks6/ExpertPlaybackApp/resources/Motions/P_14/PC1/Data_PC1_2.csv
Task Time,PC1 Time,PC2 Time,Gaze Calib,s_T_psm1,Tx,Ty,Tz,R00,R01,R02,R10,R11,R12,R20,R21,R22,s_T_psm3,Tx,Ty,Tz,R00,R01,R02,R10,R11,R12,R20,R21,R22,cart_T_ecm,Tx,Ty,Tz,R00,R01,R02,R10,R11,R12,R20,R21,R22,ecm_T_psm1,Tx,Ty,Tz,R00,R01,R02,R10,R11,R12,R20,R21,R22,ecm_T_psm3,Tx,Ty,Tz,R00,R01,R02,R10,R11,R12,R20,R21,R22,psm1_joints,q1,q2,q3,q4,q5,q6,jaw,psm3_joints,q1,q2,q3,q4,q5,q6,jaw,ecm_joints,q1,q2,q3,q4,ecmi_T_ecm,Tx,Ty,Tz,R00,R01,R02,R10,R11,R12,R20,R21,R22,Sample #,Task Duration (s),Collisions (binary),Collisions (increments),Cumulative Collision Time (s),Clutch Press,MTMR Angle,MTML Angle
""
lci_T_si,,,,,-0.048014555,0.029841654,0.20603786,0.98909175,-0.010691175,0.14691202,0.09030502,-0.7439362,-0.6621208,0.11637202,0.66816515,-0.7348557
rci_T_si,,,,,-0.05720088,0.033855394,0.21545881,0.9875528,-0.02682583,0.15498324,0.08572007,-0.73436654,-0.67331856,0.13187683,0.67822284,-0.7229262
ecm_T_lc,,,,,-4.4061628e-05,-0.00034663224,-0.01840835,-0.99912,0.030754527,0.028518902,-0.031987965,-0.99852574,-0.043852776,0.027128186,-0.04472645,0.9986309
ecm_T_rc,,,,,-0.0043358393,0.01870579,-0.007592615,-0.99555075,-0.052743673,-0.078081585,0.04863213,-0.9973746,0.053654674,-0.08070653,0.04961868,0.9955021
cart_T_ecmi,,,,,0.08389765,1.2908373,0.4261723,0.9940883,0.08247068,-0.0706194,0.014340571,-0.744454,-0.6675197,-0.1076237,0.66256076,-0.7412357
ecmac_T_ecmrep_psm1,,,,,0.023195708,-0.2631036,-0.30022871,0.99664557,0.07921609,0.02055357,-0.078295335,0.99603295,-0.04228661,-0.023821812,0.040535513,0.9988941
ecmac_T_ecmrep_psm3,,,,,0.022281613,-0.4507852,-0.5326207,0.99995744,0.002629678,0.008843231,-0.0032003638,0.99787027,0.06515156,-0.008653069,-0.06517708,0.9978362
""
0,13:47:52.853955,13:46:32.880829,0,,0.11575461,0.003370218,0.023096412,0.44228652,0.8938006,-0.07418132,-0.38577825,0.26426038,0.88393533,0.80966514,-0.36233523,0.46168756,,0.023362719,0.0048541054,0.0124825835,0.06907949,0.9968875,0.037987668,-0.3531937,-0.011173122,0.9354836,0.9329964,-0.078039795,0.3513225,,0.08387156,1.2908367,0.42617515,0.99408776,0.08249608,-0.07059662,0.014374484,-0.7444512,-0.66752213,-0.1076237,0.66256076,-0.7412357,,-0.1093089,0.25516865,-0.100619785,-0.55530685,-0.8292938,0.06249849,0.23724571,-0.08593826,0.967641,-0.79708767,0.5521652,0.24446851,,-0.023313038,0.4310006,-0.33059564,-0.23793624,-0.9665859,-0.09538381,0.44026273,-0.19486658,0.87646776,-0.8657685,0.16654952,0.47191757,,1.140717150118828,0.47297105214900587,0.22157225712000003,3.6209259440907666,-1.0131596457607408,-1.158384593286276,-0.40787013313729537,,-1.0912067096621747,0.32105717378013554,0.19905699611000002,-1.773976921879076,-1.2428456018664462,-0.9463424389100012,0.875524194479737,,-0.06622870012848983,-0.05163338425868725,0.09109722752,-0.09125690957404896,,-2.625212e-05,2.3841858e-07,1.1920929e-07,0.99999994,2.5294721e-05,2.2597611e-05,-2.528727e-05,1.0,3.7252903e-06,-2.2612512e-05,-3.6358833e-06,1.0,35,0.104,0,0,0.0,False,-0.25117968871959295,1.0510116735828905
0.11471398314461112,13:47:52.875595,13:46:32.880829,0,,0.11567198,0.003419444,0.02322802,0.44327316,0.8928839,-0.07916482,-0.38545364,0.26959974,0.8824633,0.8092802,-0.360658,0.46367157,,0.02336274,0.004851587,0.012484193,0.06907684,0.9968877,0.037989628,-0.35318744,-0.011176437,0.9354859,0.932999,-0.07803792,0.35131606,,0.08387156,1.2908367,0.42617515,0.99408776,0.08249608,-0.07059662,0.014374484,-0.7444512,-0.66752213,-0.1076237,0.66256076,-0.7412357,,-0.109240316,0.2552969,-0.100693375,-0.55622244,-0.82831794,0.06712676,0.23718533,-0.080817506,0.9680969,-0.79646707,0.55439866,0.24141738,,-0.023313357,0.43100008,-0.33059853,-0.23793407,-0.96658635,-0.09538456,0.44026917,-0.19486743,0.8764643,-0.8657658,0.16654584,0.47192377,,1.1414276415432567,0.47321817960098106,0.22149188714,3.620296874260313,-1.012203190262383,-1.1633301343593199,-0.4083601653356983,,-1.0912067096621747,0.3210494510472613,0.19905569982000001,-1.773976921879076,-1.2428456018664462,-0.9463424389100012,0.875524194479737,,-0.06622870012848983,-0.05163338425868725,0.09109722752,-0.09125690957404896,,-2.625212e-05,2.3841858e-07,1.1920929e-07,0.99999994,2.5294721e-05,2.2597611e-05,-2.528727e-05,1.0,3.7252903e-06,-2.2612512e-05,-3.6358833e-06,1.0,43,0.129,0,0,0.0,False,-0.25207335449740853,1.050335750771978
0.13634929107502103,13:47:52.900485,13:46:32.949242,0,,0.11559748,0.003461562,0.023357064,0.44358608,0.89239115,-0.082880646,-0.38583112,0.27361572,0.88106114,0.8089287,-0.3588486,0.4656843,,0.023363687,0.0048512146,0.012485862,0.06906967,0.9968882,0.037987977,-0.35318962,-0.011177219,0.93548506,0.9329987,-0.07803067,0.3513184,,0.08387156,1.2908367,0.42617515,0.99408776,0.08249608,-0.07059662,0.014374484,-0.7444512,-0.66752213,-0.1076237,0.66256076,-0.7412357,,-0.109179854,0.25541782,-0.100768864,-0.5565094,-0.827845,0.07049823,0.23665643,-0.07660752,0.96856856,-0.7964239,0.5557013,0.23854765,,-0.023314586,0.43100092,-0.33059976,-0.23792697,-0.9665882,-0.09538337,0.44026846,-0.19486271,0.87646574,-0.86576813,0.16654056,0.47192138,,1.1421072420361884,0.4734498615872078,0.22141670232000002,3.6200871843168283,-1.012203190262383,-1.1674957501064882,-0.40787013313729537,,-1.091214432395049,0.3210494510472613,0.19905440353,-1.773976921879076,-1.2428456018664462,-0.9463424389100012,0.875524194479737,,-0.06622870012848983,-0.05163338425868725,0.09109722752,-0.09125690957404896,,-2.625212e-05,2.3841858e-07,1.1920929e-07,0.99999994,2.5294721e-05,2.2597611e-05,-2.528727e-05,1.0,3.7252903e-06,-2.2612512e-05,-3.6358833e-06,1.0,50,0.15,0,0,0.0,False,-0.25266913168261906,1.0507702725789931
0.16123640700243413,13:47:52.925175,13:46:32.949242,0,,0.11546604,0.0035073683,0.023569465,0.44258654,0.8925657,-0.08627534,-0.38787198,0.27729505,0.8790124,0.8085002,-0.35557538,0.46892816,,0.023363218,0.00484886,0.012485802,0.06911412,0.9968804,0.038109887,-0.35323906,-0.01127179,0.9354652,0.9329766,-0.07811581,0.35135806,,0.08387156,1.2908367,0.42617515,0.99408776,0.08249608,-0.07059662,0.014374484,-0.7444512,-0.66752213,-0.1076237,0.66256076,-0.7412357,,-0.10907278,0.2555998,-0.10090995,-0.5555695,-0.82822657,0.07337069,0.23490044,-0.07169543,0.96937174,-0.7975991,0.5557882,0.23438258,,-0.02331412,0.43099937,-0.3306015,-0.237967,-0.9665658,-0.09551053,0.44021347,-0.19498722,0.8764657,-0.86578506,0.16652489,0.47189578,,1.1432502065015737,0.4737047117720572,0.22129355477,3.620296874260313,-1.0143893742586299,-1.172329041598731,-0.4086868534679664,,-1.0912067096621747,0.3210494510472613,0.19905310724000003,-1.7737672319355915,-1.2428456018664462,-0.9464241176501419,0.8753608504136026,,-0.06622870012848983,-0.05163338425868725,0.09109722752,-0.09125690957404896,,-2.625212e-05,2.3841858e-07,1.1920929e-07,0.99999994,2.5294721e-05,2.2597611e-05,-2.528727e-05,1.0,3.7252903e-06,-2.2612512e-05,-3.6358833e-06,1.0,58,0.174,0,0,0.0,False,-0.2512392664381147,1.0508668329805522
0.18589495099149644,13:47:52.941834,13:46:32.949242,0,,0.11542005,0.0035158098,0.023629129,0.44227815,0.89261776,-0.08731213,-0.38844198,0.2783898,0.8784145,0.80839527,-0.35458794,0.46985582,,0.023363218,0.00484886,0.012485802,0.06911412,0.9968804,0.038109887,-0.35323906,-0.01127179,0.9354652,0.9329766,-0.07811581,0.35135806,,0.08387156,1.2908367,0.42617515,0.99408776,0.08249608,-0.07059662,0.014374484,-0.7444512,-0.66752213,-0.1076237,0.66256076,-0.7412357,,-0.10903394,0.25564805,-0.10095365,-0.55527985,-0.82834184,0.07425698,0.23442124,-0.07022484,0.9695954,-0.79794174,0.5558042,0.23317535,,-0.02331412,0.43099937,-0.3306015,-0.237967,-0.9665658,-0.09551053,0.44021347,-0.19498722,0.8764657,-0.86578506,0.16652489,0.47189578,,1.1435977294809139,0.4737356027035541,0.22125596236000003,3.620296874260313,-1.015072556757457,-1.1737322418436222,-0.4086868534679662,,-1.0912067096621747,0.3210494510472613,0.19905310724000003,-1.7737672319355915,-1.2428456018664462,-0.9464241176501419,0.8753608504136026,,-0.06622870012848983,-0.05163338425868725,0.09109722752,-0.09125690957404896,,-2.625212e-05,2.3841858e-07,1.1920929e-07,0.99999994,2.5294721e-05,2.2597611e-05,-2.528727e-05,1.0,3.7252903e-06,-2.2612512e-05,-3.6358833e-06,1.0,66,0.198,0,0,0.0,False,-0.2508222224084671,1.0507702725789931
0.20259183808229864,13:47:52.972142,13:46:32.949242,0,,0.115267776,0.0035508797,0.023790926,0.44206434,0.8922946,-0.09159293,-0.38890624,0.28267983,0.87683755,0.80828893,-0.35199758,0.4719815,,0.023365088,0.004850678,0.012487471,0.069102444,0.9968815,0.038104605,-0.35324985,-0.011270046,0.93546116,0.9329735,-0.07810315,0.35136932,,0.08387156,1.2908367,0.42617515,0.99408776,0.08249608,-0.07059662,0.014374484,-0.7444512,-0.66752213,-0.1076237,0.66256076,-0.7412357,,-0.10890065,0.2557891,-0.10106742,-0.5550784,-0.82811713,0.07816621,0.2340153,-0.06529591,0.97003776,-0.79820096,0.5567391,0.23003644,,-0.02331626,0.43100157,-0.33060107,-0.237955,-0.96656907,-0.09550739,0.4402055,-0.19497691,0.87647194,-0.86579245,0.166518,0.47188476,,1.14463257568606,0.4737742163679252,0.22115225916000003,3.6190387345994055,-1.0158923757560496,-1.1776377438693153,-0.407706789071161,,-1.0912221551279233,0.32105717378013554,0.19905310724000003,-1.7737672319355915,-1.2428456018664462,-0.9464241176501419,0.8753608504136026,,-0.06622870012848983,-0.05163338425868725,0.09109722752,-0.09125690957404896,,-2.625212e-05,2.3841858e-07,1.1920929e-07,0.99999994,2.5294721e-05,2.2597611e-05,-2.528727e-05,1.0,3.7252903e-06,-2.2612512e-05,-3.6358833e-06,1.0,73,0.22,0,0,0.0,False,-0.25225208765297147,1.0503840309727575
0.23290146701037884,13:47:52.991873,13:46:32.949242,0,,0.115169086,0.0035711676,0.02389872,0.4418674,0.8919811,-0.0955129,-0.3883837,0.28619066,0.87592983,0.8086478,-0.34994924,0.47288913,,0.023362666,0.004850067,0.012486398,0.06911679,0.9968803,0.038107917,-0.35324544,-0.011268474,0.93546295,0.93297404,-0.07811768,0.3513645,,0.08387156,1.2908367,0.42617515,0.99408776,0.08249608,-0.07059662,0.014374484,-0.7444512,-0.66752213,-0.1076237,0.66256076,-0.7412357,,-0.10881475,0.25588065,-0.101144925,-0.5549,-0.82787603,0.08189788,0.23465158,-0.06130798,0.97014433,-0.7981382,0.55755055,0.22828221,,-0.023313684,0.43100068,-0.3306011,-0.23796919,-0.9665653,-0.095509775,0.440207,-0.19498637,0.87646914,-0.86578774,0.16652857,0.4718896,,1.1452426715831237,0.47378193910079947,0.22107837063000002,3.616732145221076,-1.016029012255815,-1.1797316519494143,-0.4095035737986379,,-1.0912067096621747,0.32105717378013554,0.19905310724000003,-1.7737672319355915,-1.2428456018664462,-0.9464241176501419,0.8753608504136026,,-0.06622870012848983,-0.05163338425868725,0.09109722752,-0.09125690957404896,,-2.625212e-05,2.3841858e-07,1.1920929e-07,0.99999994,2.5294721e-05,2.2597611e-05,-2.528727e-05,1.0,3.7252903e-06,-2.2612512e-05,-3.6358833e-06,1.0,81,0.244,0,0,0.0,False,-0.25129884415663506,1.0511565141852286
0.2526287930086255,13:47:53.020090,13:46:33.077900,0,,0.115033455,0.0035983324,0.02403912,0.44179708,0.8914436,-0.10071431,-0.38737953,0.29082364,0.8748478,0.80916774,-0.34749064,0.473812,,0.023364611,0.0048483238,0.0124874115,0.069146864,0.99687064,0.038307942,-0.3532993,-0.011441022,0.9354405,0.93295145,-0.078217,0.35140258,,0.08387156,1.2908367,0.42617515,0.99408776,0.08249608,-0.07059662,0.014374484,-0.7444512,-0.66752213,-0.1076237,0.66256076,-0.7412357,,-0.1086958,0.25600076,-0.10124624,-0.5548423,-0.8274057,0.08688945,0.23574711,-0.056203857,0.97018784,-0.79785544,0.5587852,0.2262428,,-0.023315795,0.43100002,-0.33060282,-0.23799501,-0.96653885,-0.095713496,0.44015053,-0.19517301,0.87645596,-0.8658094,0.16646379,0.47187278,,1.1460535585349172,0.4737742163679252,0.22097985259000003,3.6133771061253235,-1.0158923757560496,-1.1821300745770464,-0.4075434450050266,,-1.091214432395049,0.32105717378013554,0.19905181095000002,-1.773557541992107,-1.2428456018664462,-0.9464241176501418,0.8756875385458709,,-0.06622870012848983,-0.05163338425868725,0.09109722752,-0.09125690957404896,,-2.625212e-05,2.3841858e-07,1.1920929e-07,0.99999994,2.5294721e-05,2.2597611e-05,-2.528727e-05,1.0,3.7252903e-06,-2.2612512e-05,-3.6358833e-06,1.0,89,0.268,0,0,0.0,False,-0.25207335449740853,1.0512530745867876
0.2808399379719049,13:47:53.042375,13:46:33.077900,0,,0.11496812,0.0036024228,0.024102777,0.44351542,0.89001626,-0.10566389,-0.3868196,0.29643,0.87321234,0.8084953,-0.3464104,0.475747,,0.023364611,0.0048483238,0.0124874115,0.069146864,0.99687064,0.038307942,-0.3532993,-0.011441022,0.9354405,0.93295145,-0.078217,0.35140258,,0.08387156,1.2908367,0.42617515,0.99408776,0.08249608,-0.07059662,0.014374484,-0.7444512,-0.66752213,-0.1076237,0.66256076,-0.7412357,,-0.10863847,0.2560493,-0.101298146,-0.55643696,-0.8258383,0.091481745,0.2356365,-0.05126293,0.9704883,-0.79677683,0.561572,0.22312225,,-0.023315795,0.43100002,-0.33060282,-0.23799501,-0.96653885,-0.095713496,0.44015053,-0.19517301,0.87645596,-0.8658094,0.16646379,0.47187278,,1.1464783088429995,0.4738051072994221,0.22091763067000003,3.6140061759557773,-1.0142527377588644,-1.1882044563495557,-0.4072167568727585,,-1.091214432395049,0.32105717378013554,0.19905181095000002,-1.773557541992107,-1.2428456018664462,-0.9464241176501419,0.8760142266781399,,-0.06622870012848983,-0.05163338425868725,0.09109722752,-0.09125690957404896,,-2.625212e-05,2.3841858e-07,1.1920929e-07,0.99999994,2.5294721e-05,2.2597611e-05,-2.528727e-05,1.0,3.7252903e-06,-2.2612512e-05,-3.6358833e-06,1.0,97,0.293,0,0,0.0,False,-0.25117968871959295,1.0509151131813312
0.3031322380993515,13:47:53.062827,13:46:33.077900,0,,0.11492018,0.003602177,0.024174571,0.4440018,0.8889813,-0.112136394,-0.386917,0.3030985,0.87087685,0.80818164,-0.34328353,0.47853813,,0.023364067,0.004849501,0.012488008,0.06914954,0.99687046,0.038305983,-0.35330567,-0.011437714,0.9354381,0.9329488,-0.07821887,0.351409,,0.08387156,1.2908367,0.42617515,0.99408776,0.08249608,-0.07059662,0.014374484,-0.7444512,-0.66752213,-0.1076237,0.66256076,-0.7412357,,-0.10859959,0.2560993,-0.101356834,-0.5568864,-0.82485265,0.09744579,0.23533301,-0.044180796,0.97091013,-0.79655254,0.56361884,0.21871874,,-0.023315359,0.43100134,-0.3306024,-0.2379972,-0.96653837,-0.09571274,0.44014406,-0.19517216,0.87645936,-0.86581206,0.16646747,0.47186655,,1.146833554555214,0.4738591664295417,0.22085800133000003,3.614215865899262,-1.0139794647593336,-1.1957783787695995,-0.40721675687275827,,-1.091214432395049,0.3210648965130098,0.19905181095000002,-1.773557541992107,-1.2428456018664462,-0.9464241176501419,0.8760142266781399,,-0.06622870012848983,-0.05163338425868725,0.09109722752,-0.09125690957404896,,-2.625212e-05,2.3841858e-07,1.1920929e-07,0.99999994,2.5294721e-05,2.2597611e-05,-2.528727e-05,1.0,3.7252903e-06,-2.2612512e-05,-3.6358833e-06,1.0,104,0.314,0,0,0.0,False,-0.2515371550307197,1.0507702725789931
0.32358383806422353,13:47:53.084500,13:46:33.077900,0,,0.11488071,0.0036083087,0.024297625,0.44288293,0.88726056,-0.12893128,-0.38839385,0.3194708,0.86434287,0.8080872,-0.33272666,0.4860946,,0.023362972,0.0048518553,0.0124892,0.06915485,0.9968703,0.038302056,-0.35331827,-0.011431068,0.9354334,0.9329437,-0.07822263,0.3514219,,0.08387156,1.2908367,0.42617515,0.99408776,0.08249608,-0.07059662,0.014374484,-0.7444512,-0.66752213,-0.1076237,0.66256076,-0.7412357,,-0.10857495,0.25618804,-0.10144772,-0.55583996,-0.82359254,0.11285967,0.23422411,-0.024899336,0.97186375,-0.79760957,0.56663513,0.20674527,,-0.023314489,0.43100393,-0.33060157,-0.23800157,-0.9665374,-0.09571123,0.44013116,-0.19517046,0.8764662,-0.8658174,0.16647485,0.47185412,,1.1472969185276674,0.4740445120185231,0.22078022393000002,3.6144255558427463,-1.0157557392562842,-1.215403060977811,-0.40721675687275827,,-1.091214432395049,0.32108034197875823,0.19905181095000002,-1.773557541992107,-1.2428456018664462,-0.9464241176501419,0.876340914810408,,-0.06622870012848983,-0.05163338425868725,0.09109722752,-0.09125690957404896,,-2.625212e-05,2.3841858e-07,1.1920929e-07,0.99999994,2.5294721e-05,2.2597611e-05,-2.528727e-05,1.0,3.7252903e-06,-2.2612512e-05,-3.6358833e-06,1.0,115,0.347,0,0,0.0,False,-0.25207335449740853,1.0514461953899055
0.34525368199683726,13:47:53.113569,13:46:33.077900,0,,0.114876606,0.0035944209,0.024440378,0.43824703,0.88892865,-0.13321124,-0.39122063,0.32206526,0.86210227,0.80925024,-0.3256989,0.48891133,,0.02336409,0.0048531964,0.012490392,0.06919024,0.99686027,0.038498152,-0.35338485,-0.011596993,0.93540627,0.93291587,-0.07832572,0.35147288,,0.08387156,1.2908367,0.42617515,0.99408776,0.08249608,-0.07059662,0.014374484,-0.7444512,-0.66752213,-0.1076237,0.66256076,-0.7412357,,-0.10858875,0.25627354,-0.10156207,-0.5515258,-0.8259611,0.11665156,0.23311074,-0.018340973,0.9722772,-0.80092365,0.5634287,0.20265591,,-0.023315787,0.4310055,-0.33060122,-0.23803174,-0.96650994,-0.09591344,0.44006175,-0.19535542,0.8764599,-0.8658444,0.16641745,0.47182485,,1.147559491445391,0.474214412141756,0.22070503911000003,3.612538346351385,-1.0212211992469018,-1.219195897584151,-0.40640003654208656,,-1.0912221551279233,0.3210957874445067,0.19905181095000002,-1.7733478520486223,-1.2428456018664462,-0.9464241176501419,0.876340914810408,,-0.06622870012848983,-0.05163338425868725,0.09109722752,-0.09125690957404896,,-2.625212e-05,2.3841858e-07,1.1920929e-07,0.99999994,2.5294721e-05,2.2597611e-05,-2.528727e-05,1.0,3.7252903e-06,-2.2612512e-05,-3.6358833e-06,1.0,119,0.358,0,0,0.0,False,-0.25147757731219844,1.0506737121774343
0.37429339718073606,13:47:53.135192,13:46:33.077900,0,,0.11484387,0.0036527067,0.024570316,0.43940228,0.88680416,-0.14319196,-0.38784564,0.3310719,0.8602134,0.8102477,-0.32244343,0.48941678,,0.023362882,0.0048528686,0.012489855,0.06919741,0.9968566,0.03858123,-0.35338268,-0.011672586,0.9354061,0.93291616,-0.078361675,0.351464,,0.08387156,1.2908367,0.42617515,0.99408776,0.08249608,-0.07059662,0.014374484,-0.7444512,-0.66752213,-0.1076237,0.66256076,-0.7412357,,-0.10856898,0.25640523,-0.10162226,-0.5526213,-0.82379305,0.12639125,0.23622982,-0.009392333,0.9716518,-0.79925287,0.5668129,0.19979489,,-0.0233145,0.43100506,-0.33060125,-0.23803884,-0.9665003,-0.09599357,0.4400625,-0.19543172,0.8764425,-0.8658421,0.16638419,0.47184086,,1.1478761234932342,0.4745851033197188,0.22062078026,3.6070864078207876,-1.0182151962520622,-1.224097453669689,-0.407706789071161,,-1.091214432395049,0.3210957874445067,0.19905181095000002,-1.7733478520486223,-1.2428456018664462,-0.9464241176501419,0.876177570744274,,-0.06622870012848983,-0.05163338425868725,0.09109722752,-0.09125690957404896,,-2.625212e-05,2.3841858e-07,1.1920929e-07,0.99999994,2.5294721e-05,2.2597611e-05,-2.528727e-05,1.0,3.7252903e-06,-2.2612512e-05,-3.6358833e-06,1.0,130,0.391,0,0,0.0,False,-0.2514179995936776,1.050963393382111
0.3959058600012213,13:47:53.164095,13:46:33.218286,0,,0.11485081,0.0036839545,0.02463609,0.43944237,0.88649625,-0.14496444,-0.3872394,0.33257374,0.85990715,0.8105159,-0.32174373,0.48943323,,0.023363829,0.004852496,0.012491465,0.06919024,0.9968571,0.03857957,-0.35338485,-0.011673398,0.93540525,0.93291587,-0.07835441,0.35146642,,0.08387156,1.2908367,0.42617515,0.99408776,0.08249608,-0.07059662,0.014374484,-0.7444512,-0.66752213,-0.1076237,0.66256076,-0.7412357,,-0.108582206,0.25647217,-0.10164868,-0.5526628,-0.82349634,0.12813121,0.23685701,-0.0077971057,0.9715132,-0.7990385,0.56726795,0.19936006,,-0.02331573,0.4310059,-0.33060247,-0.23803174,-0.96650213,-0.09599238,0.44006175,-0.195427,0.8764439,-0.8658444,0.1663789,0.47183844,,1.1479996872192217,0.47484767623744245,0.22058837301000003,3.6056185782163963,-1.0176686502530004,-1.224461446544334,-0.40787013313729514,,-1.0912221551279233,0.3210957874445067,0.19905051466,-1.7733478520486223,-1.2428456018664462,-0.9463424389100014,0.876177570744274,,-0.06622870012848983,-0.05163338425868725,0.09109722752,-0.09125690957404896,,-2.625212e-05,2.3841858e-07,1.1920929e-07,0.99999994,2.5294721e-05,2.2597611e-05,-2.528727e-05,1.0,3.7252903e-06,-2.2612512e-05,-3.6358833e-06,1.0,137,0.412,0,0,0.0,False,-0.25159673274924055,1.0506737121774343
0.42484830715693533,13:47:53.184721,13:46:33.218286,0,,0.11487682,0.0037310794,0.024654478,0.4415877,0.88499576,-0.14758953,-0.38584417,0.3358247,0.8592707,0.8100152,-0.32249683,0.48976642,,0.023363613,0.004850842,0.012490332,0.06923466,0.99684614,0.038782913,-0.35343432,-0.01184433,0.9353844,0.93289375,-0.07846829,0.35149956,,0.08387156,1.2908367,0.42617515,0.99408776,0.08249608,-0.07059662,0.014374484,-0.7444512,-0.66752213,-0.1076237,0.66256076,-0.7412357,,-0.10860783,0.25651827,-0.101627424,-0.55465937,-0.8217545,0.1306618,0.23746188,-0.0058268993,0.9713794,-0.797474,0.5698119,0.19836731,,-0.023315322,0.43100396,-0.33060297,-0.23807174,-0.9664718,-0.09619848,0.44000673,-0.19562308,0.87642777,-0.86586136,0.16632472,0.47182643,,1.1480228554178444,0.4751643082852856,0.22058578043000002,3.605828268159881,-1.0147992837579263,-1.2272096162226616,-0.4070534128066241,,-1.091214432395049,0.3210957874445067,0.19905051466,-1.773138162105138,-1.2428456018664462,-0.9463424389100014,0.876177570744274,,-0.06622870012848983,-0.05163338425868725,0.09109722752,-0.09125690957404896,,-2.625212e-05,2.3841858e-07,1.1920929e-07,0.99999994,2.5294721e-05,2.2597611e-05,-2.528727e-05,1.0,3.7252903e-06,-2.2612512e-05,-3.6358833e-06,1.0,148,0.445,0,0,0.0,False,-0.2519541990603664,1.0513496349883464
0.4454743710812181,13:47:53.213075,13:46:33.218286,0,,0.114906974,0.003749907,0.02465704,0.44218642,0.88463247,-0.14797449,-0.3856112,0.3364573,0.85912776,0.80979943,-0.32283407,0.48990095,,0.023364268,0.0048523173,0.012491465,0.06923016,0.9968466,0.038779285,-0.35344285,-0.011841804,0.9353812,0.9328909,-0.078462906,0.35150844,,0.08387156,1.2908367,0.42617515,0.99408776,0.08249608,-0.07059662,0.014374484,-0.7444512,-0.66752213,-0.1076237,0.66256076,-0.7412357,,-0.10863709,0.2565326,-0.10161296,-0.55521536,-0.8213219,0.1310201,0.23746386,-0.005568121,0.9713804,-0.7970865,0.57043785,0.19812576,,-0.023316173,0.43100572,-0.33060256,-0.23806684,-0.96647316,-0.09619653,0.43999955,-0.19561751,0.87643266,-0.86586636,0.16632311,0.4718178,,1.1479533508219764,0.4753342084085186,0.22059226188000003,3.60624764804685,-1.0139794647593336,-1.227959802384981,-0.4072167568727585,,-1.0912221551279233,0.32110351017738087,0.19905051466,-1.773138162105138,-1.2428456018664462,-0.9463424389100014,0.876177570744274,,-0.06622870012848983,-0.05163338425868725,0.09109722752,-0.09125690957404896,,-2.625212e-05,2.3841858e-07,1.1920929e-07,0.99999994,2.5294721e-05,2.2597611e-05,-2.528727e-05,1.0,3.7252903e-06,-2.2612512e-05,-3.6358833e-06,1.0,152,0.456,0,0,0.0,False,-0.25201377677888814,1.0507702725789931
0.4738160241395235,13:47:53.235127,13:46:33.218286,0,,0.11493708,0.0037600324,0.024623662,0.4442925,0.88314104,-0.15055165,-0.3844416,0.3397333,0.8583624,0.80920255,-0.32348576,0.49045703,,0.02336549,0.00485263,0.012492001,0.069222994,0.99684715,0.03877763,-0.35344505,-0.011842608,0.93538034,0.93289053,-0.07845565,0.35151085,,0.08387156,1.2908367,0.42617515,0.99408776,0.08249608,-0.07059662,0.014374484,-0.7444512,-0.66752213,-0.1076237,0.66256076,-0.7412357,,-0.10866242,0.25651646,-0.10157806,-0.5571728,-0.81960005,0.13346985,0.2378388,-0.0035118153,0.9712983,-0.79560745,0.5729253,0.19688939,,-0.023317462,0.43100616,-0.33060253,-0.23805974,-0.96647507,-0.09619534,0.4399988,-0.19561279,0.8764341,-0.8658687,0.16631784,0.47181538,,1.1477911734316177,0.4754346039358835,0.22060652107000003,3.607296097764273,-1.01138337126379,-1.2315469598777429,-0.40787013313729537,,-1.0912298778607974,0.32110351017738087,0.19905051466,-1.773138162105138,-1.2428456018664462,-0.9463424389100014,0.876177570744274,,-0.06622870012848983,-0.05163338425868725,0.09109722752,-0.09125690957404896,,-2.625212e-05,2.3841858e-07,1.1920929e-07,0.99999994,2.5294721e-05,2.2597611e-05,-2.528727e-05,1.0,3.7252903e-06,-2.2612512e-05,-3.6358833e-06,1.0,159,0.478,0,0,0.0,False,-0.25171588818628265,1.0513013547875674
0.49588349112309515,13:47:53.252909,13:46:33.218286,0,,0.114984386,0.0037395954,0.024585754,0.4450552,0.88241625,-0.15253618,-0.38488805,0.34228992,0.8571458,0.808571,-0.32276788,0.4919693,,0.023367696,0.0048515424,0.012491941,0.06925306,0.99683726,0.038977653,-0.35349897,-0.012015134,0.9353578,0.93286794,-0.078555,0.35154876,,0.08387156,1.2908367,0.42617515,0.99408776,0.08249608,-0.07059662,0.014374484,-0.7444512,-0.66752213,-0.1076237,0.66256076,-0.7412357,,-0.10870579,0.25647384,-0.10155814,-0.55787545,-0.8188391,0.13519435,0.23705152,-0.001104502,0.97149646,-0.79534996,0.57402205,0.19472323,,-0.023319628,0.43100512,-0.33060303,-0.23808554,-0.96644837,-0.09639905,0.4399423,-0.19579941,0.87642074,-0.8658903,0.16625309,0.47179854,,1.1475363232467684,0.4754654948673804,0.22062078026,3.6096026871426026,-1.0108368252647284,-1.2361582472396972,-0.40803347720342975,,-1.0912376005936717,0.32110351017738087,0.19905051466,-1.7729284721616532,-1.2428456018664462,-0.9463424389100014,0.876177570744274,,-0.06622870012848983,-0.05163338425868725,0.09109722752,-0.09125690957404896,,-2.625212e-05,2.3841858e-07,1.1920929e-07,0.99999994,2.5294721e-05,2.2597611e-05,-2.528727e-05,1.0,3.7252903e-06,-2.2612512e-05,-3.6358833e-06,1.0,170,0.511,0,0,0.0,False,-0.25207335449740853,1.051108233984449
0.5136235090903938,13:47:53.275807,13:46:33.334797,0,,0.115056045,0.0037139058,0.024535507,0.4447643,0.88158476,-0.1580913,-0.38478553,0.34746924,0.8551054,0.80877984,-0.31948918,0.4937629,,0.023367144,0.0048527196,0.012492597,0.0692557,0.99683714,0.03897568,-0.35350525,-0.012011819,0.9353554,0.9328653,-0.07855686,0.35155523,,0.08387156,1.2908367,0.42617515,0.99408776,0.08249608,-0.07059662,0.014374484,-0.7444512,-0.66752213,-0.1076237,0.66256076,-0.7412357,,-0.108772084,0.25641802,-0.10152975,-0.557607,-0.81814843,0.14038366,0.23728015,0.004966863,0.9714286,-0.79547006,0.5749856,0.19136083,,-0.023319194,0.43100643,-0.33060262,-0.23808771,-0.96644795,-0.09639829,0.43993586,-0.19579856,0.8764242,-0.865893,0.16625677,0.4717923,,1.1470652365414407,0.4754732176002546,0.22064670606000003,3.609812377086087,-1.0108368252647284,-1.2425291889706613,-0.4093402297325035,,-1.0912376005936717,0.3211112329102551,0.19905051466,-1.7729284721616532,-1.2428456018664462,-0.9463424389100014,0.876177570744274,,-0.06622870012848983,-0.05163338425868725,0.09109722752,-0.09125690957404896,,-2.625212e-05,2.3841858e-07,1.1920929e-07,0.99999994,2.5294721e-05,2.2597611e-05,-2.528727e-05,1.0,3.7252903e-06,-2.2612512e-05,-3.6358833e-06,1.0,178,0.534,0,0,0.0,False,-0.2519541990603664,1.0507219923782136
0.5365650141611695,13:47:53.303755,13:46:33.334797,0,,0.115105584,0.003692627,0.024519533,0.44431868,0.8815722,-0.15940869,-0.38461235,0.34841478,0.85479856,0.80910707,-0.31849253,0.49387068,,0.023369566,0.0048533306,0.01249367,0.06924136,0.99683833,0.038972363,-0.35350963,-0.012013391,0.93535376,0.9328648,-0.07854234,0.35156006,,0.08387156,1.2908367,0.42617515,0.99408776,0.08249608,-0.07059662,0.014374484,-0.7444512,-0.66752213,-0.1076237,0.66256076,-0.7412357,,-0.10882035,0.25638938,-0.1015262,-0.55719584,-0.8182083,0.14166138,0.23764716,0.0063358736,0.9713309,-0.7956486,0.574887,0.19091456,,-0.023321768,0.43100733,-0.3306026,-0.23807353,-0.96645164,-0.0963959,0.43993437,-0.1957891,0.87642705,-0.86589766,0.1662462,0.4717875,,1.1467486044935975,0.4755041085317515,0.22064929864000002,3.609392997199118,-1.0109734617644939,-1.2434795946887922,-0.40917688566636956,,-1.09125304605942,0.3211112329102551,0.19905051466,-1.7729284721616532,-1.2428456018664462,-0.9463424389100014,0.876177570744274,,-0.06622870012848983,-0.05163338425868725,0.09109722752,-0.09125690957404896,,-2.625212e-05,2.3841858e-07,1.1920929e-07,0.99999994,2.5294721e-05,2.2597611e-05,-2.528727e-05,1.0,3.7252903e-06,-2.2612512e-05,-3.6358833e-06,1.0,185,0.555,0,0,0.0,False,-0.2513584218751568,1.0505288715750958
0.5645127980969846,13:47:53.326999,13:46:33.334797,0,,0.11519463,0.0036624372,0.024508268,0.44358364,0.881816,-0.16010557,-0.38427895,0.34852475,0.8549036,0.80966854,-0.31769615,0.49346316,,0.023373984,0.0048511997,0.012493551,0.06930147,0.99681836,0.039372407,-0.35361752,-0.012358412,0.9353085,0.93281937,-0.07874107,0.3516359,,0.08387156,1.2908367,0.42617515,0.99408776,0.08249608,-0.07059662,0.014374484,-0.7444512,-0.66752213,-0.1076237,0.66256076,-0.7412357,,-0.1089088,0.25635555,-0.10152721,-0.55651784,-0.8185403,0.14240661,0.23830245,0.0069402982,0.9711662,-0.795927,0.57440716,0.19119777,,-0.023326103,0.43100524,-0.33060357,-0.23812509,-0.96639824,-0.09680331,0.43982136,-0.19616234,0.8764003,-0.86594087,0.16611673,0.47175378,,1.1462311813910244,0.4756276722577391,0.22064540977000002,3.60855423742518,-1.0111100982642593,-1.2432048193048146,-0.40852350940183246,,-1.0912684915251685,0.3211112329102551,0.19905051466,-1.7725090922746845,-1.2428456018664462,-0.9463424389100014,0.876177570744274,,-0.06622870012848983,-0.05163338425868725,0.09109722752,-0.09125690957404896,,-2.625212e-05,2.3841858e-07,1.1920929e-07,0.99999994,2.5294721e-05,2.2597611e-05,-2.528727e-05,1.0,3.7252903e-06,-2.2612512e-05,-3.6358833e-06,1.0,196,0.587,0,0,0.0,False,-0.25129884415663506,1.0511565141852286
0.5877124599646777,13:47:53.363153,13:46:33.334797,0,,0.11524574,0.0036593378,0.02450645,0.4437105,0.8812286,-0.1629626,-0.3828919,0.35082656,0.8545844,0.810256,-0.3167911,0.49308068,,0.02337882,0.0048524067,0.012495756,0.069272794,0.9968206,0.03936577,-0.35362625,-0.012361586,0.9353052,0.93281823,-0.07871202,0.35164556,,0.08387156,1.2908367,0.42617515,0.99408776,0.08249608,-0.07059662,0.014374484,-0.7444512,-0.66752213,-0.1076237,0.66256076,-0.7412357,,-0.10895941,0.25634983,-0.101521686,-0.55664444,-0.81795096,0.1452692,0.2397185,0.00927817,0.9707981,-0.7954131,0.5752131,0.19091333,,-0.023331253,0.43100703,-0.3306035,-0.23809671,-0.9664057,-0.09679853,0.4398184,-0.19614343,0.876406,-0.86595017,0.16609561,0.47174412,,1.1459145493431813,0.4757512359837267,0.22064022461000002,3.606667027933819,-1.0100170062661358,-1.2440961625343858,-0.40852350940183246,,-1.0912993824566655,0.3211112329102551,0.19905051466,-1.7725090922746845,-1.2428456018664462,-0.9463424389100014,0.876177570744274,,-0.06622870012848983,-0.05163338425868725,0.09109722752,-0.09125690957404896,,-2.625212e-05,2.3841858e-07,1.1920929e-07,0.99999994,2.5294721e-05,2.2597611e-05,-2.528727e-05,1.0,3.7252903e-06,-2.2612512e-05,-3.6358833e-06,1.0,207,0.62,0,0,0.0,False,-0.25171588818628265,1.051397915189126
0.6239077120553702,13:47:53.397013,13:46:33.334797,0,,0.1152745,0.0036616772,0.02451101,0.4439435,0.88096774,-0.16373686,-0.38252074,0.35156995,0.8544451,0.8103036,-0.31669268,0.49306557,,0.023382448,0.0048533008,0.012497425,0.06925129,0.99682236,0.039360788,-0.3536328,-0.012363978,0.9353026,0.9328173,-0.07869023,0.3516528,,0.08387156,1.2908367,0.42617515,0.99408776,0.08249608,-0.07059662,0.014374484,-0.7444512,-0.66752213,-0.1076237,0.66256076,-0.7412357,,-0.10898835,0.25635335,-0.101519935,-0.55686253,-0.8176667,0.14603166,0.24001525,0.009906408,0.97071856,-0.7951709,0.57560664,0.19073598,,-0.023335116,0.43100837,-0.33060348,-0.23807544,-0.9664113,-0.09679495,0.43981618,-0.19612925,0.8764103,-0.86595714,0.16607977,0.47173688,,1.1457909856171935,0.47585935424396586,0.22063633574000002,3.6064573379903346,-1.0094704602670739,-1.2446235128893122,-0.4083601653356983,,-1.0913225506552882,0.3211112329102551,0.19905051466,-1.7725090922746845,-1.2428456018664462,-0.9463424389100014,0.876177570744274,,-0.06622870012848983,-0.05163338425868725,0.09109722752,-0.09125690957404896,,-2.625212e-05,2.3841858e-07,1.1920929e-07,0.99999994,2.5294721e-05,2.2597611e-05,-2.528727e-05,1.0,3.7252903e-06,-2.2612512e-05,-3.6358833e-06,1.0,218,0.653,0,0,0.0,False,-0.25100095556403,1.0504805913743163
0.6577661621849984,13:47:53.429062,13:46:33.479171,0,,0.11527612,0.0036854967,0.024560899,0.44033664,0.88223773,-0.16661347,-0.38220096,0.3521113,0.85436535,0.81241983,-0.31252858,0.49223953,,0.02338729,0.0048545226,0.01249963,0.06922258,0.9968246,0.039354153,-0.35364157,-0.012367137,0.9352993,0.93281615,-0.07866116,0.3516624,,0.08387156,1.2908367,0.42617515,0.99408776,0.08249608,-0.07059662,0.014374484,-0.7444512,-0.66752213,-0.1076237,0.66256076,-0.7412357,,-0.10899477,0.25640437,-0.10154033,-0.5535249,-0.8193994,0.14897905,0.24182756,0.013041994,0.9702316,-0.79695016,0.5730746,0.1909343,,-0.023340266,0.43101016,-0.3306034,-0.23804705,-0.9664188,-0.09679018,0.43981323,-0.19611032,0.876416,-0.8659665,0.16605866,0.47172725,,1.145767817418571,0.4759056906412112,0.22063633574000002,3.6007957095162526,-1.0123398267621484,-1.2421203794314062,-0.4083601653356981,,-1.091353441586785,0.3211112329102551,0.19905051466,-1.7725090922746845,-1.2428456018664462,-0.9463424389100014,0.876177570744274,,-0.06622870012848983,-0.05163338425868725,0.09109722752,-0.09125690957404896,,-2.625212e-05,2.3841858e-07,1.1920929e-07,0.99999994,2.5294721e-05,2.2597611e-05,-2.528727e-05,1.0,3.7252903e-06,-2.2612512e-05,-3.6358833e-06,1.0,229,0.686,0,0,0.0,False,-0.25076264468994625,1.0511565141852286
0.6897939220070839,13:47:53.463563,13:46:33.479171,0,,0.11525677,0.0036959946,0.024558991,0.44067758,0.88143367,-0.16993454,-0.38065022,0.3549325,0.85389006,0.8129629,-0.31160474,0.49192864,,0.023394339,0.004854642,0.012501776,0.069223955,0.9968169,0.039547514,-0.3537042,-0.012542814,0.9352733,0.9327922,-0.0787315,0.35171,,0.08387156,1.2908367,0.42617515,0.99408776,0.08249608,-0.07059662,0.014374484,-0.7444512,-0.66752213,-0.1076237,0.66256076,-0.7412357,,-0.10897482,0.2564117,-0.10153426,-0.55385023,-0.8185714,0.15228525,0.24332576,0.015786862,0.96981615,-0.79626787,0.5741878,0.19043595,,-0.023347583,0.4310109,-0.33060384,-0.23804444,-0.9663995,-0.096989095,0.43975374,-0.19627804,0.87640834,-0.8659974,0.16597281,0.4717007,,1.1457755401514451,0.47585935424396586,0.22063503945000001,3.598489120137922,-1.0112467347640248,-1.2431750801412584,-0.40803347720342975,,-1.0913920552511562,0.3211112329102551,0.19905051466,-1.7722994023311998,-1.2428456018664462,-0.9463424389100014,0.876177570744274,,-0.06622870012848983,-0.05163338425868725,0.09109722752,-0.09125690957404896,,-2.625212e-05,2.3841858e-07,1.1920929e-07,0.99999994,2.5294721e-05,2.2597611e-05,-2.528727e-05,1.0,3.7252903e-06,-2.2612512e-05,-3.6358833e-06,1.0,240,0.719,0,0,0.0,False,-0.25052433381586203,1.0509151131813312
0.7243100691121072,13:47:53.495371,13:46:33.479171,0,,0.11523289,0.0037273392,0.024604768,0.43715426,0.8819939,-0.17601931,-0.37886882,0.35808945,0.8533641,0.81569266,-0.3063636,0.49070024,,0.023399174,0.004855849,0.012503982,0.06919526,0.9968191,0.039540876,-0.35371298,-0.012545973,0.93526995,0.9327911,-0.07870244,0.35171968,,0.08387156,1.2908367,0.42617515,0.99408776,0.08249608,-0.07059662,0.014374484,-0.7444512,-0.66752213,-0.1076237,0.66256076,-0.7412357,,-0.10895508,0.25646666,-0.10154976,-0.55059564,-0.8195983,0.15843937,0.24662867,0.021613413,0.96886903,-0.7975078,0.57253075,0.1902362,,-0.023352733,0.4310127,-0.33060378,-0.23801607,-0.96640694,-0.09698432,0.4397508,-0.19625911,0.87641406,-0.8660067,0.1659517,0.47169104,,1.145767817418571,0.4758207405795947,0.22063503945000001,3.590311212342026,-1.0132962822605063,-1.2414221328456718,-0.40787013313729537,,-1.091422946182653,0.3211112329102551,0.19905051466,-1.7722994023311998,-1.2428456018664462,-0.9463424389100014,0.876177570744274,,-0.06622870012848983,-0.05163338425868725,0.09109722752,-0.09125690957404896,,-2.625212e-05,2.3841858e-07,1.1920929e-07,0.99999994,2.5294721e-05,2.2597611e-05,-2.528727e-05,1.0,3.7252903e-06,-2.2612512e-05,-3.6358833e-06,1.0,251,0.751,0,0,0.0,False,-0.2508222224084671,1.0508668329805522
0.7561044301837683,13:47:53.527880,13:46:33.479171,0,,0.11523372,0.0037363023,0.024636835,0.43402976,0.8826684,-0.18031786,-0.37783873,0.36004883,0.8529963,0.81783617,-0.30209482,0.48977816,,0.023402043,0.004856281,0.0125050545,0.069220774,0.99680954,0.039737258,-0.3537754,-0.012715951,0.93524396,0.9327655,-0.07879645,0.3517664,,0.08387156,1.2908367,0.42617515,0.99408776,0.08249608,-0.07059662,0.014374484,-0.7444512,-0.66752213,-0.1076237,0.66256076,-0.7412357,,-0.108959295,0.25649473,-0.101567134,-0.5477038,-0.8206819,0.16279362,0.24896461,0.025896072,0.9681663,-0.7987723,0.5707982,0.19013737,,-0.023355752,0.4310134,-0.33060384,-0.2380369,-0.96638155,-0.09718606,0.43968707,-0.19644016,0.8764055,-0.8660333,0.16588539,0.47166547,,1.1456442536925833,0.47578984964809784,0.22063244687000003,3.5842302039809746,-1.015345829756988,-1.2399142217705066,-0.4072167568727578,,-1.0914383916484014,0.3211189556431293,0.19905051466,-1.7720897123877153,-1.2428456018664462,-0.9463424389100014,0.876177570744274,,-0.06622870012848983,-0.05163338425868725,0.09109722752,-0.09125690957404896,,-2.625212e-05,2.3841858e-07,1.1920929e-07,0.99999994,2.5294721e-05,2.2597611e-05,-2.528727e-05,1.0,3.7252903e-06,-2.2612512e-05,-3.6358833e-06,1.0,262,0.784,0,0,0.0,False,-0.2511201110010721,1.0513013547875674
0.7886079291347414,13:47:53.555972,13:46:33.479171,0,,0.115227714,0.003748767,0.02466844,0.43169945,0.883124,-0.18365064,-0.37704724,0.3616318,0.85267675,0.81943333,-0.29885513,0.48909563,,0.023385681,0.00484835,0.012490749,0.069256574,0.99680585,0.03976777,-0.3537871,-0.012730934,0.9352393,0.9327584,-0.07884082,0.35177538,,0.08386865,1.2908362,0.4261699,0.99408776,0.08249843,-0.07059451,0.014377626,-0.744451,-0.6675223,-0.1076237,0.66256076,-0.7412357,,-0.10895456,0.2565286,-0.10158736,-0.5455445,-0.82144487,0.1661613,0.2507219,0.029217707,0.9676181,-0.7996998,0.569539,0.19001466,,-0.023335097,0.43100318,-0.33060685,-0.23807009,-0.96636987,-0.09722073,0.43966907,-0.19648455,0.8764045,-0.8660333,0.16590077,0.47166005,,1.14552841269947,0.4757821269152236,0.22062985429,3.5796170252243154,-1.016848831254408,-1.238851982310127,-0.40721675687275805,,-1.0914383916484014,0.3211189556431293,0.19905051466,-1.7720897123877153,-1.2428456018664462,-0.9463424389100014,0.876177570744274,,-0.06622870012848983,-0.05163338425868725,0.09109722752,-0.09125690957404896,,-2.8591603e-05,-3.1590462e-06,4.6491623e-06,1.0,2.7634203e-05,2.4698675e-05,-2.7626753e-05,1.0,4.0233135e-06,-2.4706125e-05,-3.963709e-06,0.99999994,273,0.817,0,0,0.0,False,-0.2505839115343833,1.050963393382111
0.8167307330295444,13:47:53.588380,13:46:33.630765,0,,0.1152503,0.003758721,0.024710074,0.42722622,0.88409376,-0.18935668,-0.37570083,0.36408383,0.85222745,0.8223908,-0.29295254,0.48770082,,0.02339115,0.0048479773,0.012493491,0.069111556,0.99681145,0.03987967,-0.35386282,-0.012880854,0.93520856,0.93274045,-0.078745686,0.35184434,,0.08386865,1.2908362,0.4261699,0.99408776,0.08249843,-0.07059451,0.014377626,-0.744451,-0.6675223,-0.1076237,0.66256076,-0.7412357,,-0.10898146,0.2565629,-0.10160845,-0.54139745,-0.82299286,0.1719638,0.2538965,0.03494717,0.9665998,-0.80151445,0.5669757,0.19003469,,-0.02334098,0.43100423,-0.33060828,-0.23792464,-0.96639335,-0.09734339,0.43962434,-0.1965154,0.8764201,-0.866096,0.1657274,0.4716059,,1.145250394315998,0.47578984964809784,0.22062855800000003,3.5712294274849343,-1.019718197749482,-1.2365122063325023,-0.4075434450050266,,-1.0914692825798984,0.3211112329102551,0.19905051466,-1.7720897123877153,-1.242982238366212,-0.9462310210063049,0.876177570744274,,-0.06622870012848983,-0.05163338425868725,0.09109722752,-0.09125690957404896,,-2.8591603e-05,-3.1590462e-06,4.6491623e-06,1.0,2.7634203e-05,2.4698675e-05,-2.7626753e-05,1.0,4.0233135e-06,-2.4706125e-05,-3.963709e-06,0.99999994,284,0.85,0,0,0.0,False,-0.2505839115343833,1.050432311173537
0.8491152070928365,13:47:53.618749,13:46:33.630765,0,,0.11527056,0.0037522614,0.024734393,0.42355764,0.8849619,-0.19349776,-0.37500334,0.36573574,0.85182726,0.82460374,-0.28823566,0.48677373,,0.023394786,0.0048488565,0.01249516,0.069090046,0.9968131,0.039874684,-0.35386935,-0.012883231,0.9352061,0.9327396,-0.07872389,0.35185158,,0.08386865,1.2908362,0.4261699,0.99408776,0.08249843,-0.07059451,0.014377626,-0.744451,-0.6675223,-0.1076237,0.66256076,-0.7412357,,-0.109004796,0.2565735,-0.10162809,-0.5379912,-0.8243378,0.1761609,0.25605625,0.039293684,0.96586293,-0.8031193,0.56473285,0.18993719,,-0.023344843,0.43100557,-0.33060825,-0.23790336,-0.96639895,-0.09733981,0.43962213,-0.19650121,0.8764244,-0.866103,0.16571157,0.47159865,,1.1449878213982743,0.47574351325085246,0.22062726171000002,3.565148419123883,-1.0223142912450254,-1.2348853386031138,-0.40656338060822095,,-1.091492450778521,0.3211112329102551,0.19905051466,-1.7720897123877153,-1.242982238366212,-0.9462310210063049,0.876177570744274,,-0.06622870012848983,-0.05163338425868725,0.09109722752,-0.09125690957404896,,-2.8591603e-05,-3.1590462e-06,4.6491623e-06,1.0,2.7634203e-05,2.4698675e-05,-2.7626753e-05,1.0,4.0233135e-06,-2.4706125e-05,-3.963709e-06,0.99999994,295,0.883,0,0,0.0,False,-0.2513584218751568,1.0510116735828905
0.8795069721527398,13:47:53.653373,13:46:33.630765,0,,0.115284316,0.0037397072,0.024773553,0.418367,0.886879,-0.19599669,-0.37560892,0.36540833,0.851701,0.8269745,-0.28270555,0.48599437,,0.023398414,0.0048497654,0.012496829,0.06906853,0.99681485,0.039869703,-0.3538759,-0.012885615,0.93520355,0.93273866,-0.07870209,0.35185882,,0.08386865,1.2908362,0.4261699,0.99408776,0.08249843,-0.07059451,0.014377626,-0.744451,-0.6675223,-0.1076237,0.66256076,-0.7412357,,-0.10902378,0.25658983,-0.101663485,-0.5331605,-0.82692015,0.17872587,0.25742245,0.042672392,0.9653563,-0.8058992,0.5606979,0.19011657,,-0.023348704,0.4310069,-0.3306082,-0.23788208,-0.96640456,-0.097336225,0.4396199,-0.19648702,0.87642866,-0.86610997,0.16569573,0.4715914,,1.1447870303435443,0.475658563189236,0.22062596542000001,3.559067410762832,-1.0269599322370504,-1.2317505597985596,-0.40754344500502704,,-1.0915156189771438,0.3211112329102551,0.19905051466,-1.7720897123877153,-1.242982238366212,-0.9462310210063049,0.876177570744274,,-0.06622870012848983,-0.05163338425868725,0.09109722752,-0.09125690957404896,,-2.8591603e-05,-3.1590462e-06,4.6491623e-06,1.0,2.7634203e-05,2.4698675e-05,-2.7626753e-05,1.0,4.0233135e-06,-2.4706125e-05,-3.963709e-06,0.99999994,306,0.916,0,0,0.0,False,-0.2511201110010721,1.0507219923782136
0.9141142831649631,13:47:53.688911,13:46:33.630765,0,,0.115293786,0.003712371,0.024785116,0.4157001,0.88723373,-0.20002456,-0.37530383,0.36766785,0.8508627,0.8284566,-0.27863377,0.48582166,,0.023399323,0.0048488267,0.012495041,0.06921941,0.99680424,0.03987338,-0.35385436,-0.0128374845,0.9352124,0.9327356,-0.07884423,0.351835,,0.08386865,1.2908362,0.4261699,0.99408776,0.08249843,-0.07059451,0.014377626,-0.744451,-0.6675223,-0.1076237,0.66256076,-0.7412357,,-0.109035924,0.2565769,-0.10168909,-0.5306793,-0.82764786,0.18269795,0.25875795,0.047059406,0.9647952,-0.8071083,0.5592714,0.18918702,,-0.023349287,0.43100488,-0.33060762,-0.23802981,-0.96636826,-0.097335495,0.43961236,-0.19655786,0.87641656,-0.8660732,0.16582337,0.47161406,,1.144563071090192,0.4755349994632484,0.22061559510000003,3.5550833018366257,-1.0290094797335319,-1.2322029384867683,-0.4085235094018327,,-1.0915156189771438,0.3211112329102551,0.19905051466,-1.771880022444231,-1.2428456018664462,-0.9464241176501419,0.8760142266781399,,-0.06622870012848983,-0.05163338425868725,0.09109722752,-0.09125690957404896,,-2.8591603e-05,-3.1590462e-06,4.6491623e-06,1.0,2.7634203e-05,2.4698675e-05,-2.7626753e-05,1.0,4.0233135e-06,-2.4706125e-05,-3.963709e-06,0.99999994,317,0.949,0,0,0.0,False,-0.2505839115343833,1.0509151131813312
0.9496475399937481,13:47:53.718955,13:46:33.765370,0,,0.1153061,0.0036946312,0.024857923,0.40942347,0.88967884,-0.20209874,-0.37680453,0.3666345,0.85064524,0.8308975,-0.2721225,0.4853437,,0.02340053,0.0048491247,0.012495637,0.069212236,0.99680805,0.039790295,-0.35385656,-0.012761891,0.9352126,0.9327353,-0.078808226,0.3518438,,0.08386865,1.2908362,0.4261699,0.99408776,0.08249843,-0.07059451,0.014377626,-0.744451,-0.6675223,-0.1076237,0.66256076,-0.7412357,,-0.10905779,0.256612,-0.1017528,-0.52482533,-0.8309073,0.18480097,0.2595552,0.050549228,0.9644044,-0.8106722,0.55410993,0.1891368,,-0.023350574,0.43100533,-0.33060762,-0.23802271,-0.9663781,-0.097255364,0.4396116,-0.19648156,0.876434,-0.8660755,0.16585661,0.4715981,,1.1444240618984558,0.47548866306600307,0.22059615075000003,3.5487926035320903,-1.0350214857232114,-1.2286074105663747,-0.40656338060822095,,-1.091523341710018,0.3211112329102551,0.19905051466,-1.771880022444231,-1.2428456018664462,-0.9465057963902823,0.8758508826120057,,-0.06622870012848983,-0.05163338425868725,0.09109722752,-0.09125690957404896,,-2.8591603e-05,-3.1590462e-06,4.6491623e-06,1.0,2.7634203e-05,2.4698675e-05,-2.7626753e-05,1.0,4.0233135e-06,-2.4706125e-05,-3.963709e-06,0.99999994,328,0.982,0,0,0.0,False,-0.25076264468994625,1.050963393382111
0.9796951431781054,13:47:53.748653,13:46:33.765370,0,,0.115314245,0.0036712512,0.024912193,0.4055293,0.8910569,-0.20387165,-0.3776835,0.36644295,0.850338,0.8324068,-0.267838,0.48514068,,0.02340053,0.0048491247,0.012495637,0.069212236,0.99680805,0.039790295,-0.35385656,-0.012761891,0.9352126,0.9327353,-0.078808226,0.3518438,,0.08386865,1.2908362,0.4261699,0.99408776,0.08249843,-0.07059451,0.014377626,-0.744451,-0.6675223,-0.1076237,0.66256076,-0.7412357,,-0.10907357,0.2566307,-0.10180722,-0.5211901,-0.83279854,0.1865677,0.26008505,0.05321759,0.96411806,-0.81284475,0.5510123,0.18886195,,-0.023350574,0.43100533,-0.33060762,-0.23802271,-0.9663781,-0.097255364,0.4396116,-0.19648156,0.876434,-0.8660755,0.16585661,0.4715981,,1.1443159436382166,0.47545004940163194,0.22056892866000002,3.5448084946058844,-1.0387106712168783,-1.2268243082686796,-0.407706789071161,,-1.091523341710018,0.3211112329102551,0.19905051466,-1.771880022444231,-1.2428456018664462,-0.9465057963902823,0.8758508826120057,,-0.06622870012848983,-0.05163338425868725,0.09109722752,-0.09125690957404896,,-2.8591603e-05,-3.1590462e-06,4.6491623e-06,1.0,2.7634203e-05,2.4698675e-05,-2.7626753e-05,1.0,4.0233135e-06,-2.4706125e-05,-3.963709e-06,0.99999994,332,0.993,0,0,0.0,False,-0.2508818001269879,1.0502874705711984
1.0094061819836497,13:47:53.770236,13:46:33.765370,0,,0.11531559,0.0036108345,0.024985567,0.40459394,0.89105415,-0.20573357,-0.3775704,0.36766306,0.8498614,0.83291316,-0.26616988,0.4851898,,0.023401193,0.0048506446,0.012496769,0.06920771,0.9968085,0.039786663,-0.3538651,-0.012759373,0.93520945,0.93273246,-0.078802854,0.35185277,,0.08386865,1.2908362,0.4261699,0.99408776,0.08249843,-0.07059451,0.014377626,-0.744451,-0.6675223,-0.1076237,0.66256076,-0.7412357,,-0.10908677,0.256635,-0.10190124,-0.520318,-0.83293504,0.18838385,0.26054895,0.055239536,0.96387905,-0.8132549,0.5506068,0.18827823,,-0.023351427,0.4310071,-0.33060718,-0.2380178,-0.96637946,-0.09725341,0.4396044,-0.19647598,0.8764389,-0.8660805,0.16585504,0.47158948,,1.1442464390423488,0.4754346039358835,0.22047948465000003,3.5433406650014923,-1.0393938537157055,-1.2274107211121654,-0.40705341280662366,,-1.0915310644428922,0.3211189556431293,0.19905051466,-1.771880022444231,-1.2428456018664462,-0.9465057963902823,0.8758508826120057,,-0.06622870012848983,-0.05163338425868725,0.09109722752,-0.09125690957404896,,-2.8591603e-05,-3.1590462e-06,4.6491623e-06,1.0,2.7634203e-05,2.4698675e-05,-2.7626753e-05,1.0,4.0233135e-06,-2.4706125e-05,-3.963709e-06,0.99999994,340,1.018,0,0,0.0,False,-0.25064348925290414,1.0507219923782136
1.03099348815158,13:47:53.794812,13:46:33.765370,0,,0.1153014,0.003588207,0.02507563,0.40122822,0.89192885,-0.2085161,-0.37734324,0.3683781,0.8496525,0.8346424,-0.26222253,0.4843669,,0.02340407,0.004851017,0.012497842,0.06923321,0.99679565,0.04006448,-0.35392752,-0.013005711,0.93518233,0.93270683,-0.07892561,0.35189298,,0.08386865,1.2908362,0.4261699,0.99408776,0.08249843,-0.07059451,0.014377626,-0.744451,-0.6675223,-0.1076237,0.66256076,-0.7412357,,-0.10908467,0.2566792,-0.10198412,-0.5171775,-0.83424103,0.1912311,0.2620228,0.058375906,0.9632945,-0.8147831,0.5483012,0.18839945,,-0.023354445,0.43100777,-0.33060724,-0.23803861,-0.9663461,-0.09753408,0.43954068,-0.1967286,0.8764142,-0.86610717,0.16575022,0.4715774,,1.1442387163094745,0.47542688120300924,0.22041596644000003,3.5378887264708947,-1.0419899472112488,-1.225048744721512,-0.4075434450050266,,-1.0915465099086405,0.32112667837600356,0.19905051466,-1.7716703325007461,-1.2428456018664462,-0.9464241176501419,0.8760142266781399,,-0.06622870012848983,-0.05163338425868725,0.09109722752,-0.09125690957404896,,-2.8591603e-05,-3.1590462e-06,4.6491623e-06,1.0,2.7634203e-05,2.4698675e-05,-2.7626753e-05,1.0,4.0233135e-06,-2.4706125e-05,-3.963709e-06,0.99999994,348,1.042,0,0,0.0,False,-0.2512392664381147,1.0505288715750958
1.0555215121712536,13:47:53.809008,13:46:33.765370,0,,0.11529148,0.0035886914,0.025133207,0.39811853,0.8928005,-0.21073413,-0.37726727,0.36875084,0.8495246,0.8361645,-0.25870848,0.48363087,,0.023404188,0.0048537143,0.01249963,0.06923136,0.99679595,0.040058892,-0.35394233,-0.01299984,0.93517685,0.93270135,-0.07892212,0.3519083,,0.08386865,1.2908362,0.4261699,0.99408776,0.08249843,-0.07059451,0.014377626,-0.744451,-0.6675223,-0.1076237,0.66256076,-0.7412357,,-0.10908174,0.25671858,-0.10202719,-0.51427364,-0.8355092,0.19351229,0.26323462,0.060968395,0.9628034,-0.8162292,0.54608357,0.1885805,,-0.023354862,0.43101084,-0.33060637,-0.23803589,-0.96634704,-0.09753137,0.439527,-0.19672218,0.87642246,-0.86611485,0.16575234,0.47156256,,1.1442309935766002,0.47542688120300924,0.22039133693000001,3.533065857770751,-1.0444494042070267,-1.222716507494414,-0.4075434450050268,,-1.0915542326415149,0.321142123841752,0.19905051466,-1.7716703325007461,-1.2428456018664462,-0.9464241176501419,0.8760142266781399,,-0.06622870012848983,-0.05163338425868725,0.09109722752,-0.09125690957404896,,-2.8591603e-05,-3.1590462e-06,4.6491623e-06,1.0,2.7634203e-05,2.4698675e-05,-2.7626753e-05,1.0,4.0233135e-06,-2.4706125e-05,-3.963709e-06,0.99999994,352,1.054,0,0,0.0,False,-0.2515371550307197,1.0506737121774343
1.069764519110322,13:47:53.833354,13:46:33.765370,0,,0.11525948,0.0035661086,0.025255546,0.394037,0.89308465,-0.21710521,-0.37545666,0.37201935,0.84890157,0.83890826,-0.25298506,0.4819038,,0.02340328,0.0048624612,0.012506545,0.06918865,0.9968045,0.039921846,-0.35393503,-0.012887023,0.93518114,0.9327073,-0.07883366,0.35191244,,0.08386865,1.2908362,0.4261699,0.99408776,0.08249843,-0.07059451,0.014377626,-0.744451,-0.6675223,-0.1076237,0.66256076,-0.7412357,,-0.10906587,0.25678518,-0.10213586,-0.51046586,-0.8363148,0.20000535,0.26659298,0.06721282,0.96146274,-0.8175285,0.54411393,0.18864582,,-0.023355179,0.4310219,-0.33060452,-0.2379949,-0.96637064,-0.09739729,0.43954182,-0.19658317,0.87644625,-0.8661186,0.16577956,0.47154608,,1.1442001026451034,0.4754037130043866,0.22029930034000003,3.523629810313947,-1.0466355882032738,-1.2200353548937248,-0.4080334772034293,,-1.0915774008401375,0.32118846023899733,0.19904921837000003,-1.771880022444231,-1.2428456018664462,-0.9463424389100014,0.875850882612005,,-0.06622870012848983,-0.05163338425868725,0.09109722752,-0.09125690957404896,,-2.8591603e-05,-3.1590462e-06,4.6491623e-06,1.0,2.7634203e-05,2.4698675e-05,-2.7626753e-05,1.0,4.0233135e-06,-2.4706125e-05,-3.963709e-06,0.99999994,360,1.079,0,0,0.0,False,-0.25106053328255173,1.0501909101696396
1.0941050329711288,13:47:53.850311,13:46:33.765370,0,,0.11525225,0.0035182536,0.025320306,0.39392674,0.89292645,-0.21795404,-0.37508804,0.37265494,0.84878564,0.83912486,-0.25260746,0.48172474,,0.023404963,0.004873503,0.012514174,0.06917407,0.99680316,0.039979234,-0.3539965,-0.012940817,0.9351572,0.932685,-0.07884116,0.3519697,,0.08386865,1.2908362,0.4261699,0.99408776,0.08249843,-0.07059451,0.014377626,-0.744451,-0.6675223,-0.1076237,0.66256076,-0.7412357,,-0.109068885,0.25679344,-0.102216244,-0.51036406,-0.83617145,0.20086265,0.26701608,0.067943744,0.96129394,-0.8174539,0.54424345,0.18859519,,-0.023358135,0.4310346,-0.33060107,-0.23797691,-0.9663683,-0.09746419,0.4394864,-0.19662435,0.8764648,-0.86615163,0.1657442,0.4714978,,1.1442001026451034,0.4754037130043866,0.22021763407000003,3.5227910505400093,-1.0464989517035084,-1.2200650940572806,-0.40819682126956347,,-1.0916160145045086,0.32125024210199116,0.19904921837000003,-1.771880022444231,-1.2428456018664462,-0.9462607601698608,0.8756875385458711,,-0.06622870012848983,-0.05163338425868725,0.09109722752,-0.09125690957404896,,-2.8591603e-05,-3.1590462e-06,4.6491623e-06,1.0,2.7634203e-05,2.4698675e-05,-2.7626753e-05,1.0,4.0233135e-06,-2.4706125e-05,-3.963709e-06,0.99999994,393,1.181,0,0,0.0,False,-0.2504647560973412,1.0502874705711984
1.1110651909839362,13:47:53.950103,13:46:33.963232,0,,0.115222596,0.0032715425,0.025757685,0.38597792,0.8912177,-0.23822683,-0.37580407,0.38774258,0.841681,0.84249175,-0.23534371,0.48458323,,0.023442186,0.0049257167,0.012557149,0.06893662,0.9968218,0.039922867,-0.35429704,-0.012946688,0.9350433,0.9325885,-0.07860329,0.3522786,,0.08386865,1.2908362,0.4261699,0.99408776,0.08249843,-0.07059451,0.014377626,-0.744451,-0.6675223,-0.1076237,0.66256076,-0.7412357,,-0.109104514,0.25690493,-0.102705464,-0.502924,-0.8357945,0.2202611,0.2690882,0.09076609,0.958829,-0.82137626,0.5414878,0.17925401,,-0.023402201,0.4310961,-0.33058566,-0.23772764,-0.9664296,-0.097465,0.43924624,-0.19645613,0.8766229,-0.8663419,0.16558635,0.47120363,,1.1441769344464807,0.47545004940163194,0.21977689547,3.5118871734788137,-1.0531941401920148,-1.2320848671662366,-0.4062366924759526,,-1.0919635374838488,0.32149736955396635,0.19905051466,-1.771880022444231,-1.2428456018664462,-0.9461790814297201,0.8755241944797367,,-0.06622870012848983,-0.05163338425868725,0.09109722752,-0.09125690957404896,,-2.8591603e-05,-3.1590462e-06,4.6491623e-06,1.0,2.7634203e-05,2.4698675e-05,-2.7626753e-05,1.0,4.0233135e-06,-2.4706125e-05,-3.963709e-06,0.99999994,397,1.194,0,0,0.0,False,-0.25100095556403,1.050335750771978
1.2108604649547487,13:47:53.970590,13:46:33.963232,0,,0.11520361,0.0032374114,0.025857672,0.38445407,0.88962954,-0.24648398,-0.37371385,0.39413452,0.8396403,0.8441167,-0.23068872,0.4839934,,0.023455948,0.004936073,0.012567878,0.06880971,0.9968334,0.039852872,-0.35430115,-0.012925632,0.935042,0.9325963,-0.078459896,0.35228986,,0.08386865,1.2908362,0.4261699,0.99408776,0.08249843,-0.07059451,0.014377626,-0.744451,-0.6675223,-0.1076237,0.66256076,-0.7412357,,-0.109099425,0.25694743,-0.10280389,-0.50150347,-0.8344581,0.22841604,0.2717925,0.0986912,0.957282,-0.82135445,0.54216206,0.17730549,,-0.023417603,0.4311091,-0.33058324,-0.23760423,-0.96646667,-0.09739819,0.4392658,-0.19633839,0.8766395,-0.86636585,0.16550957,0.47118658,,1.144122875316361,0.4754732176002546,0.21967708114000004,3.5058061651177623,-1.0530575036922496,-1.2348100047544308,-0.407706789071161,,-1.092071655744088,0.32152826048546324,0.19905051466,-1.7720897123877153,-1.2428456018664462,-0.9460157239494389,0.8758508826120053,,-0.06622870012848983,-0.05163338425868725,0.09109722752,-0.09125690957404896,,-2.8591603e-05,-3.1590462e-06,4.6491623e-06,1.0,2.7634203e-05,2.4698675e-05,-2.7626753e-05,1.0,4.0233135e-06,-2.4706125e-05,-3.963709e-06,0.99999994,405,1.218,0,0,0.0,False,-0.2508818001269879,1.0501909101696396
1.2312858081422746,13:47:53.991715,13:46:33.963232,0,,0.11519141,0.0031629428,0.026001975,0.38261,0.8876592,-0.2562634,-0.37045616,0.40148932,0.83759683,0.84638745,-0.22553855,0.4824525,,0.023460783,0.00493728,0.012570083,0.06878103,0.99683565,0.03984622,-0.3543099,-0.012928836,0.9350387,0.93259513,-0.07843085,0.35229954,,0.08386865,1.2908362,0.4261699,0.99408776,0.08249843,-0.07059451,0.014377626,-0.744451,-0.6675223,-0.1076237,0.66256076,-0.7412357,,-0.109108426,0.25698945,-0.10296095,-0.49978432,-0.8327539,0.2381945,0.27580863,0.10767835,0.9551623,-0.82106346,0.5430712,0.17586477,,-0.023422752,0.4311109,-0.33058318,-0.23757586,-0.9664741,-0.0973934,0.4392628,-0.19631948,0.8766452,-0.86637515,0.16548844,0.4711769,,1.1439220842616313,0.47549638579887726,0.21951374860000003,3.4974185673783813,-1.0523743211934222,-1.2366739541151621,-0.4075434450050268,,-1.0921025466755847,0.32152826048546324,0.19905051466,-1.7720897123877153,-1.2428456018664462,-0.9460157239494389,0.8758508826120053,,-0.06622870012848983,-0.05163338425868725,0.09109722752,-0.09125690957404896,,-2.8591603e-05,-3.1590462e-06,4.6491623e-06,1.0,2.7634203e-05,2.4698675e-05,-2.7626753e-05,1.0,4.0233135e-06,-2.4706125e-05,-3.963709e-06,0.99999994,413,1.243,0,0,0.0,False,-0.25064348925290414,1.0506254319766548
1.2524713780730963,13:47:54.008967,13:46:33.963232,0,,0.11518851,0.0031523183,0.026049152,0.38113382,0.8869845,-0.26075926,-0.3689351,0.4045363,0.8368017,0.84771687,-0.22273022,0.48142213,,0.023465402,0.004936833,0.012571096,0.06879672,0.9968267,0.040042862,-0.35436818,-0.013102822,0.9350141,0.93257177,-0.07851585,0.35234234,,0.08386865,1.2908362,0.4261699,0.99408776,0.08249843,-0.07059451,0.014377626,-0.744451,-0.6675223,-0.1076237,0.66256076,-0.7412357,,-0.10911176,0.25701332,-0.10300299,-0.49840412,-0.83226955,0.2427359,0.27789104,0.111847416,0.954079,-0.8212003,0.542971,0.17553504,,-0.023427492,0.43111074,-0.33058366,-0.23758742,-0.966451,-0.09759468,0.43920478,-0.19649668,0.8766346,-0.8664014,0.1654133,0.47115505,,1.1438062432685179,0.47551183126462576,0.21947226732000003,3.4925956986782376,-1.0525109576931877,-1.2365625362114656,-0.4075434450050268,,-1.0921257148742074,0.32152826048546324,0.19905051466,-1.771880022444231,-1.2428456018664462,-0.9460157239494389,0.8758508826120053,,-0.06622870012848983,-0.05163338425868725,0.09109722752,-0.09125690957404896,,-2.8591603e-05,-3.1590462e-06,4.6491623e-06,1.0,2.7634203e-05,2.4698675e-05,-2.7626753e-05,1.0,4.0233135e-06,-2.4706125e-05,-3.963709e-06,0.99999994,417,1.255,0,0,0.0,False,-0.25076264468994625,1.0502874705711984
1.2697248130571097,13:47:54.033248,13:46:34.085129,0,,0.115244426,0.0030605122,0.026127502,0.3789044,0.88612837,-0.2668483,-0.3667413,0.4085186,0.83583087,0.8496659,-0.21883574,0.4797693,,0.023469701,0.004939217,0.012573957,0.06877071,0.9968288,0.04003425,-0.35438326,-0.01310268,0.9350084,0.932568,-0.07848868,0.3523584,,0.08386865,1.2908362,0.4261699,0.99408776,0.08249843,-0.07059451,0.014377626,-0.744451,-0.6675223,-0.1076237,0.66256076,-0.7412357,,-0.109181255,0.25699535,-0.103114985,-0.49631777,-0.8316887,0.24892288,0.28092003,0.1174453,0.952518,-0.82143325,0.542679,0.1753478,,-0.023432206,0.43111384,-0.33058318,-0.23756123,-0.96645796,-0.09758913,0.43919536,-0.19647692,0.8766437,-0.86641335,0.16539589,0.47113916,,1.143219315570077,0.4755272767303742,0.21935819380000002,3.4863050003737017,-1.0526475941929532,-1.2365327970479096,-0.40738010093889243,,-1.0921566058057044,0.3215359832183375,0.19905051466,-1.771880022444231,-1.2428456018664462,-0.9460157239494389,0.8758508826120053,,-0.06622870012848983,-0.05163338425868725,0.09109722752,-0.09125690957404896,,-2.8591603e-05,-3.1590462e-06,4.6491623e-06,1.0,2.7634203e-05,2.4698675e-05,-2.7626753e-05,1.0,4.0233135e-06,-2.4706125e-05,-3.963709e-06,0.99999994,429,1.292,0,0,0.0,False,-0.25070306697142497,1.0504805913743163
1.294006816111505,13:47:54.061729,13:46:34.085129,0,,0.11528284,0.0030192211,0.02618207,0.37534416,0.8850695,-0.27526125,-0.36462712,0.4140249,0.8340445,0.8521524,-0.21268603,0.47812212,,0.023471601,0.0049441196,0.012576222,0.06887085,0.996827,0.039906777,-0.35433546,-0.012951642,0.9350286,0.93257874,-0.078536615,0.3523192,,0.08386865,1.2908362,0.4261699,0.99408776,0.08249843,-0.07059451,0.014377626,-0.744451,-0.6675223,-0.1076237,0.66256076,-0.7412357,,-0.10922797,0.2569996,-0.10317788,-0.4929806,-0.8311015,0.2573723,0.28430817,0.1256924,0.95045793,-0.8222767,0.54173034,0.174325,,-0.023434466,0.43111855,-0.3305808,-0.2376614,-0.9664467,-0.097456574,0.43922204,-0.19641119,0.8766451,-0.86637235,0.16553964,0.47116405,,1.1427173379332523,0.4755272767303742,0.21930245333,3.4779174026343207,-1.053877322690842,-1.2370819319773128,-0.4081968212695639,,-1.092179774004327,0.3215591514169601,0.19905051466,-1.771880022444231,-1.242708965366681,-0.9461271418531352,0.8758508826120053,,-0.06622870012848983,-0.05163338425868725,0.09109722752,-0.09125690957404896,,-2.8591603e-05,-3.1590462e-06,4.6491623e-06,1.0,2.7634203e-05,2.4698675e-05,-2.7626753e-05,1.0,4.0233135e-06,-2.4706125e-05,-3.963709e-06,0.99999994,437,1.317,0,0,0.0,False,-0.2509413778455092,1.0506254319766548
1.3224529381841421,13:47:54.091006,13:46:34.085129,0,,0.11538988,0.0029415488,0.026210561,0.37080327,0.8846873,-0.2825479,-0.36330095,0.41816992,0.832554,0.854703,-0.2060639,0.4764664,,0.023471497,0.004945118,0.0125768185,0.06891337,0.9968161,0.040104486,-0.35439992,-0.0131166205,0.93500197,0.9325512,-0.0786472,0.3523677,,0.08386865,1.2908362,0.4261699,0.99408776,0.08249843,-0.07059451,0.014377626,-0.744451,-0.6675223,-0.1076237,0.66256076,-0.7412357,,-0.10934144,0.2569565,-0.103237614,-0.4887185,-0.83131045,0.2647209,0.28719813,0.13321762,0.9485622,-0.82381517,0.5396073,0.1736449,,-0.023434473,0.43111968,-0.33058047,-0.23769863,-0.966417,-0.09765992,0.43915328,-0.19660088,0.87663704,-0.866397,0.16548774,0.471137,,1.1417983327212196,0.47554272219612265,0.21925578689000003,3.4701588747253935,-1.0562001431868546,-1.2370664386377062,-0.4057466602775497,,-1.092179774004327,0.32157459688270856,0.19905051466,-1.7716703325007461,-1.242708965366681,-0.9461271418531352,0.8758508826120053,,-0.06622870012848983,-0.05163338425868725,0.09109722752,-0.09125690957404896,,-2.8591603e-05,-3.1590462e-06,4.6491623e-06,1.0,2.7634203e-05,2.4698675e-05,-2.7626753e-05,1.0,4.0233135e-06,-2.4706125e-05,-3.963709e-06,0.99999994,445,1.341,0,0,0.0,False,-0.2509413778455092,1.0503840309727575
1.3517636880278587,13:47:54.110011,13:46:34.085129,0,,0.115462564,0.0028933883,0.0262032,0.368429,0.88394845,-0.28791517,-0.3618468,0.42163023,0.8314414,0.85634506,-0.202146,0.4751947,,0.023471616,0.0049477853,0.012578607,0.06891153,0.99681646,0.040098876,-0.35441467,-0.013110764,0.93499637,0.93254566,-0.07864368,0.352383,,0.08386865,1.2908362,0.4261699,0.99408776,0.08249843,-0.07059451,0.014377626,-0.744451,-0.6675223,-0.1076237,0.66256076,-0.7412357,,-0.10941504,0.25691268,-0.10325555,-0.48648885,-0.83087504,0.27013928,0.28947958,0.13843922,0.94711995,-0.8243362,0.5389631,0.17317224,,-0.02343489,0.43112272,-0.3305796,-0.2376959,-0.96641797,-0.0976572,0.43913963,-0.19659446,0.8766453,-0.86640465,0.16548985,0.47112212,,1.1411341776940362,0.47551955399749996,0.21924023141,3.4651263160817645,-1.0568833256856818,-1.237652851481192,-0.4080334772034293,,-1.0921874967372014,0.321590042348457,0.19905051466,-1.7716703325007461,-1.242708965366681,-0.9461271418531352,0.8758508826120053,,-0.06622870012848983,-0.05163338425868725,0.09109722752,-0.09125690957404896,,-2.8591603e-05,-3.1590462e-06,4.6491623e-06,1.0,2.7634203e-05,2.4698675e-05,-2.7626753e-05,1.0,4.0233135e-06,-2.4706125e-05,-3.963709e-06,0.99999994,474,1.431,0,0,0.0,False,-0.2504647560973412,1.0499977893665218
1.3707676341291517,13:47:54.194107,13:46:34.085129,0,,0.115671374,0.0027959496,0.02628307,0.35128742,0.8815111,-0.31549206,-0.361043,0.43844688,0.8230505,0.86385465,-0.17522115,0.47228426,,0.023511887,0.004950259,0.012526929,0.07568531,0.99623084,0.042376254,-0.3534808,-0.012932137,0.9353523,0.93237495,-0.08577162,0.3511697,,0.08386865,1.2908362,0.4261699,0.99408776,0.08249843,-0.07059451,0.014377626,-0.744451,-0.6675223,-0.1076237,0.66256076,-0.7412357,,-0.109636575,0.25688484,-0.10335361,-0.47035637,-0.8308507,0.29740867,0.29585502,0.16904743,0.94015574,-0.8314052,0.5301981,0.16629882,,-0.02346518,0.4310812,-0.3305389,-0.24432287,-0.96455735,-0.09967684,0.43875253,-0.20163007,0.8756949,-0.86475575,0.17021881,0.47246483,,1.1391571580782347,0.47551183126462576,0.21922337964000002,3.439963522863622,-1.0686340646655097,-1.2430997999491633,-0.4086868534679666,,-1.092311060463189,0.32182172433468376,0.19905051466,-1.7628633548743964,-1.2364236863774707,-0.9519874740844357,0.8756875385458711,,-0.06622870012848983,-0.05163338425868725,0.09109722752,-0.09125690957404896,,-2.8591603e-05,-3.1590462e-06,4.6491623e-06,1.0,2.7634203e-05,2.4698675e-05,-2.7626753e-05,1.0,4.0233135e-06,-2.4706125e-05,-3.963709e-06,0.99999994,478,1.444,0,0,0.0,False,-0.2516563104677614,1.049804668563404
1.4548554059583694,13:47:54.214334,13:46:34.272632,0,,0.11565277,0.002812788,0.026311293,0.3495535,0.8802003,-0.32102922,-0.35937697,0.44239882,0.82166374,0.86525166,-0.17184494,0.47096568,,0.023506626,0.0049685724,0.0125386715,0.07566361,0.99624926,0.04197935,-0.35352257,-0.012563333,0.9353416,0.9323609,-0.08561199,0.35124606,,0.08386865,1.2908362,0.4261699,0.99408776,0.08249843,-0.07059451,0.014377626,-0.744451,-0.6675223,-0.1076237,0.66256076,-0.7412357,,-0.109620675,0.25691706,-0.10336532,-0.46872142,-0.82975835,0.3029874,0.2981014,0.17429538,0.9384864,-0.83152616,0.5302096,0.16565612,,-0.023462024,0.43110272,-0.33053365,-0.24429923,-0.9646022,-0.099300236,0.43871722,-0.20126948,0.87579554,-0.86478037,0.17039146,0.47235754,,1.1391030989481152,0.47551183126462576,0.21921300932,3.43430189438954,-1.0687707011652752,-1.2433967757461697,-0.40917688566636934,,-1.0923342286618116,0.3219298425949229,0.19904921837000003,-1.7630730448178806,-1.2364236863774707,-0.9521508315647169,0.8756875385458709,,-0.06622870012848983,-0.05163338425868725,0.09109722752,-0.09125690957404896,,-2.8591603e-05,-3.1590462e-06,4.6491623e-06,1.0,2.7634203e-05,2.4698675e-05,-2.7626753e-05,1.0,4.0233135e-06,-2.4706125e-05,-3.963709e-06,0.99999994,486,1.468,0,0,0.0,False,-0.25106053328255173,1.0495632675595068
1.4750694511458278,13:47:54.241878,13:46:34.272632,0,,0.11561114,0.0028454587,0.026354328,0.3471793,0.8785391,-0.32807872,-0.35720482,0.4473507,0.819928,0.867105,-0.16747084,0.46912923,,0.023503467,0.0049819835,0.01254642,0.07571859,0.9962343,0.042235315,-0.35365537,-0.012771979,0.93528855,0.93230605,-0.08575549,0.35135663,,0.08386865,1.2908362,0.4261699,0.99408776,0.08249843,-0.07059451,0.014377626,-0.744451,-0.6675223,-0.1076237,0.66256076,-0.7412357,,-0.10958294,0.25697193,-0.10338009,-0.46648112,-0.8283882,0.31011024,0.30105656,0.18096833,0.93627745,-0.8317213,0.5301165,0.16497338,,-0.023460234,0.43111777,-0.3305291,-0.24434417,-0.9645628,-0.09957222,0.43858123,-0.20151193,0.8758079,-0.86483663,0.17032805,0.47227737,,1.139133989879612,0.4755041085317515,0.21920134271000002,3.4265433664806126,-1.0690439741648061,-1.2432556186789174,-0.4093402297325037,,-1.09234967412756,0.3220225153894136,0.19904921837000003,-1.7628633548743964,-1.2364236863774707,-0.9520691528245764,0.8755241944797365,,-0.06622870012848983,-0.05163338425868725,0.09109722752,-0.09125690957404896,,-2.8591603e-05,-3.1590462e-06,4.6491623e-06,1.0,2.7634203e-05,2.4698675e-05,-2.7626753e-05,1.0,4.0233135e-06,-2.4706125e-05,-3.963709e-06,0.99999994,494,1.493,0,0,0.0,False,-0.2512392664381147,1.049514987358727
1.502637054072693,13:47:54.260648,13:46:34.272632,0,,0.1155717,0.0028725043,0.026421532,0.342871,0.8783503,-0.3330768,-0.35679218,0.44976607,0.81878555,0.8689872,-0.1618987,0.46760014,,0.023499869,0.0049956627,0.012554228,0.075733505,0.99623764,0.04212894,-0.353729,-0.012660086,0.9352622,0.93227696,-0.085732944,0.3514394,,0.08386865,1.2908362,0.4261699,0.99408776,0.08249843,-0.07059451,0.014377626,-0.744451,-0.6675223,-0.1076237,0.66256076,-0.7412357,,-0.10955056,0.2570387,-0.103416055,-0.46241522,-0.8287497,0.3151921,0.30281144,0.18649979,0.93462455,-0.8333531,0.5276284,0.16471456,,-0.023458017,0.43113306,-0.33052444,-0.24435401,-0.9645695,-0.09948264,0.43850884,-0.20142122,0.875865,-0.8648706,0.17039712,0.47219032,,1.1391957717426058,0.47549638579887726,0.21918837981000003,3.4185751486282006,-1.0719133406598804,-1.2409158427012925,-0.4090135416002352,,-1.0923651195933084,0.3221074654510301,0.19904921837000003,-1.7628633548743964,-1.2364236863774707,-0.9521508315647169,0.8753608504136023,,-0.06622870012848983,-0.05163338425868725,0.09109722752,-0.09125690957404896,,-2.8591603e-05,-3.1590462e-06,4.6491623e-06,1.0,2.7634203e-05,2.4698675e-05,-2.7626753e-05,1.0,4.0233135e-06,-2.4706125e-05,-3.963709e-06,0.99999994,498,1.505,0,0,0.0,False,-0.25159673274924055,1.0496115477602863
1.5214036621619016,13:47:54.283891,13:46:34.272632,0,,0.11551308,0.0028976202,0.026511863,0.3389588,0.87676275,-0.34116563,-0.35524905,0.4550661,0.81652486,0.87115145,-0.1555695,0.46571773,,0.023499899,0.005010236,0.012563646,0.07572692,0.99623936,0.042098958,-0.3538092,-0.0126268715,0.93523234,0.93224704,-0.085717276,0.35152254,,0.08386865,1.2908362,0.4261699,0.99408776,0.08249843,-0.07059451,0.014377626,-0.744451,-0.6675223,-0.1076237,0.66256076,-0.7412357,,-0.10950203,0.2571204,-0.10347262,-0.45871904,-0.8276703,0.32332456,0.3055759,0.19473736,0.93204117,-0.8343861,0.5263452,0.16358635,,-0.023459664,0.43114966,-0.33051974,-0.24434261,-0.96457386,-0.099468276,0.4384343,-0.20138782,0.87591,-0.8649116,0.17041183,0.47210988,,1.1393116127357192,0.47549638579887726,0.21914689853000002,3.4091391011713967,-1.0736896151568311,-1.240447554834926,-0.40770678907116076,,-1.0924037332576795,0.32219241551264655,0.19904921837000003,-1.7628633548743964,-1.2364236863774707,-0.9521508315647169,0.8753608504136023,,-0.06622870012848983,-0.05163338425868725,0.09109722752,-0.09125690957404896,,-2.8591603e-05,-3.1590462e-06,4.6491623e-06,1.0,2.7634203e-05,2.4698675e-05,-2.7626753e-05,1.0,4.0233135e-06,-2.4706125e-05,-3.963709e-06,0.99999994,510,1.542,0,0,0.0,False,-0.2513584218751568,1.0499977893665218
1.5446102530695498,13:47:54.309942,13:46:34.272632,0,,0.11549459,0.0028880313,0.026558772,0.3380537,0.8758668,-0.34435013,-0.3543262,0.45741788,0.8156113,0.87187874,-0.15370819,0.46497422,,0.02351629,0.0049958862,0.012557924,0.076626934,0.996026,0.045391124,-0.3546751,-0.015317723,0.9348641,0.93184435,-0.0877349,0.35209194,,0.08386865,1.2908362,0.4261699,0.99408776,0.08249843,-0.07059451,0.014377626,-0.744451,-0.6675223,-0.1076237,0.66256076,-0.7412357,,-0.10948982,0.25714552,-0.103515655,-0.45786273,-0.8268875,0.32652533,0.30678663,0.1977664,0.93100506,-0.83441216,0.5264461,0.16312817,,-0.023474839,0.43113378,-0.33052468,-0.24516025,-0.9640157,-0.10281119,0.43744406,-0.2046344,0.8756526,-0.86518157,0.16970107,0.47187117,,1.1393270582014676,0.4755041085317515,0.21910412096,3.4059937520191292,-1.0736896151568311,-1.2407742697954882,-0.4083601653356983,,-1.0924269014563022,0.3222541973756403,0.19904792208000002,-1.7590889358916748,-1.2361504133779397,-0.9524553461122504,0.8748708182151999,,-0.06622870012848983,-0.05163338425868725,0.09109722752,-0.09125690957404896,,-2.8591603e-05,-3.1590462e-06,4.6491623e-06,1.0,2.7634203e-05,2.4698675e-05,-2.7626753e-05,1.0,4.0233135e-06,-2.4706125e-05,-3.963709e-06,0.99999994,514,1.554,0,0,0.0,False,-0.25076264468994625,1.0502874705711984
1.570694079156965,13:47:54.333619,13:46:34.272632,0,,0.11543905,0.0029133633,0.02665542,0.33284345,0.87413174,-0.3537074,-0.35235375,0.46321428,0.8131908,0.87467825,-0.14603515,0.4621813,,0.023548953,0.0049665906,0.012516737,0.08106367,0.9955573,0.04789778,-0.3549713,-0.016067997,0.934739,0.9313561,-0.09277573,0.3520918,,0.08386865,1.2908362,0.4261699,0.99408776,0.08249843,-0.07059451,0.014377626,-0.744451,-0.6675223,-0.1076237,0.66256076,-0.7412357,,-0.10944511,0.25723147,-0.103576325,-0.45293438,-0.82579845,0.33601686,0.31035146,0.2072786,0.9277486,-0.8357825,0.5244926,0.16240416,,-0.023499705,0.43107972,-0.33051544,-0.2494381,-0.9626512,-0.105277486,0.436309,-0.20877278,0.8752419,-0.8645317,0.17238516,0.4720893,,1.1393270582014676,0.47549638579887726,0.21906263968000003,3.3938317352970264,-1.0760124356528433,-1.2389618441727894,-0.40819682126956414,,-1.0924577923877992,0.32234687017013103,0.19904403321000003,-1.7509110280957785,-1.2325978643840383,-0.957639216332293,0.8758508826120053,,-0.06622870012848983,-0.05163338425868725,0.09109722752,-0.09125690957404896,,-2.8591603e-05,-3.1590462e-06,4.6491623e-06,1.0,2.7634203e-05,2.4698675e-05,-2.7626753e-05,1.0,4.0233135e-06,-2.4706125e-05,-3.963709e-06,0.99999994,547,1.657,0,0,0.0,False,-0.2514179995936776,1.0504805913743163
1.5942987331654876,13:47:54.425666,13:46:34.410204,0,,0.115342334,0.0029487163,0.026793882,0.32511348,0.8674105,-0.3766966,-0.34872133,0.4802292,0.80484366,0.87903047,-0.13030338,0.45861346,,0.023528226,0.0050207265,0.012536645,0.08730054,0.9951025,0.04636262,-0.35475698,-0.012433678,0.93487585,0.9308739,-0.09806264,0.3519341,,0.08386865,1.2908362,0.4261699,0.99408776,0.08249843,-0.07059451,0.014377626,-0.744451,-0.6675223,-0.1076237,0.66256076,-0.7412357,,-0.10936409,0.25735468,-0.10366599,-0.4456111,-0.8201706,0.35881892,0.31629685,0.23072173,0.92017597,-0.83748853,0.5235339,0.1566052,,-0.023482598,0.43113315,-0.3304907,-0.25548488,-0.9612314,-0.10373829,0.43528378,-0.21017079,0.87541777,-0.86328185,0.17850041,0.4721039,,1.1393116127357192,0.4754346039358835,0.21899782518000002,3.3745402604964503,-1.0788818021479178,-1.2454433721303453,-0.4072167568727585,,-1.092488683319296,0.3230496388616855,0.19900514451,-1.7429428102433666,-1.2271324043934206,-0.9664249057075996,0.8756875385458711,,-0.06622870012848983,-0.05163338425868725,0.09109722752,-0.09125690957404896,,-2.8591603e-05,-3.1590462e-06,4.6491623e-06,1.0,2.7634203e-05,2.4698675e-05,-2.7626753e-05,1.0,4.0233135e-06,-2.4706125e-05,-3.963709e-06,0.99999994,555,1.681,0,0,0.0,False,-0.25159673274924055,1.050335750771978
1.6864183221478015,13:47:54.452862,13:46:34.410204,0,,0.11532485,0.00295759,0.02680923,0.32386872,0.8669681,-0.3787815,-0.34825242,0.48149276,0.80429155,0.8796756,-0.12857339,0.45786405,,0.023517422,0.0050446726,0.012552023,0.0873492,0.9951002,0.046319563,-0.35489044,-0.012361884,0.93482614,0.93081844,-0.09809473,0.35207182,,0.08386865,1.2908362,0.4261699,0.99408776,0.08249843,-0.07059451,0.014377626,-0.744451,-0.6675223,-0.1076237,0.66256076,-0.7412357,,-0.109348156,0.2573723,-0.103673436,-0.44443098,-0.81987643,0.36094838,0.31713098,0.23283651,0.9193558,-0.83780015,0.5230581,0.15652847,,-0.023474617,0.43116182,-0.33048433,-0.25552353,-0.961223,-0.103721015,0.43514776,-0.21014617,0.8754913,-0.86333895,0.17857467,0.47197133,,1.1393193354685935,0.4754114357372608,0.21899523260000003,3.3716046012876673,-1.0794283481469795,-1.2448343430352786,-0.4075434450050268,,-1.0924964060521702,0.3232118162520442,0.19900255193000002,-1.7429428102433666,-1.2271324043934206,-0.9664249057075996,0.8756875385458711,,-0.06622870012848983,-0.05163338425868725,0.09109722752,-0.09125690957404896,,-2.8591603e-05,-3.1590462e-06,4.6491623e-06,1.0,2.7634203e-05,2.4698675e-05,-2.7626753e-05,1.0,4.0233135e-06,-2.4706125e-05,-3.963709e-06,0.99999994,563,1.706,0,0,0.0,False,-0.25117968871959295,1.0502391903704191
1.713614922016859,13:47:54.481156,13:46:34.536531,0,,0.11529425,0.002964355,0.026802108,0.32377982,0.8654165,-0.38238832,-0.34671855,0.4845733,0.8031032,0.880314,-0.12744752,0.45695096,,0.023507394,0.0050716884,0.012568116,0.087436,0.9950818,0.046551764,-0.3550997,-0.012527078,0.9347445,0.93073046,-0.09826085,0.352258,,0.08386865,1.2908362,0.4261699,0.99408776,0.08249843,-0.07059451,0.014377626,-0.744451,-0.6675223,-0.1076237,0.66256076,-0.7412357,,-0.109316625,0.25737387,-0.10366745,-0.44434243,-0.81831855,0.36457446,0.3186993,0.23594156,0.9180209,-0.8372518,0.52410525,0.15595871,,-0.023467502,0.43119293,-0.33047596,-0.25559422,-0.96117586,-0.103983395,0.4349324,-0.21037583,0.8755432,-0.86342657,0.17855804,0.47181737,,1.139334780934342,0.47531876294277015,0.21899523260000003,3.3688786320223683,-1.0784718926486214,-1.2460226620618564,-0.40738010093889243,,-1.0925118515179186,0.32339716184102557,0.19900125564,-1.7427331202998817,-1.2271324043934206,-0.9663432269674591,0.8755241944797367,,-0.06622870012848983,-0.05163338425868725,0.09109722752,-0.09125690957404896,,-2.8591603e-05,-3.1590462e-06,4.6491623e-06,1.0,2.7634203e-05,2.4698675e-05,-2.7626753e-05,1.0,4.0233135e-06,-2.4706125e-05,-3.963709e-06,0.99999994,571,1.73,0,0,0.0,False,-0.25147757731219844,1.0502391903704191
1.7418903571087867,13:47:54.503677,13:46:34.536531,0,,0.115255475,0.0029683858,0.026806131,0.32216948,0.8641747,-0.3865346,-0.34557554,0.487483,0.801834,0.8813537,-0.1247496,0.45568973,,0.023531117,0.005051855,0.012553334,0.09002501,0.9946257,0.05113791,-0.35613418,-0.01580213,0.93430114,0.9300881,-0.102322444,0.3527977,,0.08386865,1.2908362,0.4261699,0.99408776,0.08249843,-0.07059451,0.014377626,-0.744451,-0.6675223,-0.1076237,0.66256076,-0.7412357,,-0.10927846,0.25738126,-0.10367247,-0.44281337,-0.8172654,0.36877316,0.32031325,0.23995969,0.9164163,-0.837446,0.5239243,0.15552355,,-0.023488276,0.43116578,-0.3304781,-0.258031,-0.9600142,-0.10859417,0.4334334,-0.2154802,0.875045,-0.86345553,0.17872041,0.47170278,,1.1393270582014676,0.47517203101815986,0.21899523260000003,3.364265453265709,-1.0788818021479178,-1.2460968020514698,-0.407380100938892,,-1.09255046518229,0.3235361710327616,0.19899477419000003,-1.736023042108377,-1.2254927663962354,-0.9680886355125189,0.875034162281334,,-0.06622870012848983,-0.05163338425868725,0.09109722752,-0.09125690957404896,,-2.8591603e-05,-3.1590462e-06,4.6491623e-06,1.0,2.7634203e-05,2.4698675e-05,-2.7626753e-05,1.0,4.0233135e-06,-2.4706125e-05,-3.963709e-06,0.99999994,579,1.755,0,0,0.0,False,-0.2508818001269879,1.049804668563404
1.7644124750513583,13:47:54.534475,13:46:34.536531,0,,0.11524233,0.002955228,0.026794627,0.3221343,0.8632525,-0.3886188,-0.34558523,0.48940098,0.8006606,0.88136274,-0.12361938,0.45598003,,0.023541726,0.0050506927,0.012522817,0.09401848,0.99432725,0.049736936,-0.3551061,-0.013178945,0.93473303,0.93008614,-0.1055441,0.35185263,,0.08386865,1.2908362,0.4261699,0.99408776,0.08249843,-0.07059451,0.014377626,-0.744451,-0.6675223,-0.1076237,0.66256076,-0.7412357,,-0.10926471,0.25736436,-0.10367445,-0.44278005,-0.8163905,0.37074563,0.3203137,0.24217857,0.9158322,-0.83746344,0.52426714,0.15426923,,-0.02349322,0.43114123,-0.33045766,-0.26195303,-0.9591258,-0.10704352,0.4335959,-0.21605697,0.87482226,-0.8621921,0.1827487,0.4724698,,1.1393270582014676,0.47507163549079495,0.21899523260000003,3.364265453265709,-1.079018438647683,-1.2484357463519904,-0.40787013313729514,,-1.0925813561137867,0.3236133983615039,0.19898829274000002,-1.7324583130691402,-1.2215303079030375,-0.972708293302105,0.8751975063474684,,-0.06622870012848983,-0.05163338425868725,0.09109722752,-0.09125690957404896,,-2.8591603e-05,-3.1590462e-06,4.6491623e-06,1.0,2.7634203e-05,2.4698675e-05,-2.7626753e-05,1.0,4.0233135e-06,-2.4706125e-05,-3.963709e-06,0.99999994,587,1.779,0,0,0.0,False,-0.25117968871959295,1.0502874705711984
1.795225125970319,13:47:54.552210,13:46:34.536531,0,,0.11521452,0.0029566213,0.026793078,0.32150733,0.8621604,-0.39155155,-0.3448559,0.49171874,0.7995542,0.88187724,-0.122033745,0.4554122,,0.023533575,0.0050663836,0.012537241,0.094026744,0.99440265,0.048189986,-0.3546857,-0.011769265,0.9349115,0.9302457,-0.10499903,0.35159385,,0.08386865,1.2908362,0.4261699,0.99408776,0.08249843,-0.07059451,0.014377626,-0.744451,-0.6675223,-0.1076237,0.66256076,-0.7412357,,-0.10923688,0.25736558,-0.10367582,-0.4421836,-0.81538177,0.373666,0.32122624,0.24500632,0.9147599,-0.83742905,0.52452314,0.15358421,,-0.023487724,0.43116337,-0.33045644,-0.26198754,-0.9592902,-0.10547428,0.43399212,-0.21472709,0.8749532,-0.8619822,0.18345183,0.47258022,,1.1393502264000903,0.47497123996343,0.21899523260000003,3.3619588638873794,-1.079018438647683,-1.2494158912336772,-0.40591000434368363,,-1.0926045243124094,0.32367518022449765,0.19898051500000002,-1.7337164527300475,-1.2212570349035068,-0.9730128078496383,0.8750341622813338,,-0.06622870012848983,-0.05163338425868725,0.09109722752,-0.09125690957404896,,-2.8591603e-05,-3.1590462e-06,4.6491623e-06,1.0,2.7634203e-05,2.4698675e-05,-2.7626753e-05,1.0,4.0233135e-06,-2.4706125e-05,-3.963709e-06,0.99999994,595,1.804,0,0,0.0,False,-0.2505839115343833,1.049804668563404
1.8129674610681832,13:47:54.575365,13:46:34.536531,0,,0.11519403,0.0029555783,0.026808545,0.31968454,0.86292547,-0.39135832,-0.34565336,0.49077696,0.7997885,0.88222754,-0.120405704,0.45516682,,0.02353365,0.0050728507,0.012549162,0.09390074,0.9944098,0.048287563,-0.3548087,-0.011891916,0.93486327,0.93021154,-0.10491723,0.3517086,,0.08386865,1.2908362,0.4261699,0.99408776,0.08249843,-0.07059451,0.014377626,-0.744451,-0.6675223,-0.1076237,0.66256076,-0.7412357,,-0.10921848,0.25737604,-0.10369035,-0.44045863,-0.8163836,0.37351573,0.32094955,0.24536566,0.91476065,-0.8384435,0.52279395,0.15394454,,-0.023489913,0.4311764,-0.33045945,-0.26185814,-0.9593127,-0.10559119,0.43390152,-0.21474975,0.87499255,-0.86206716,0.18330774,0.47248122,,1.1393965627973357,0.4748940126346878,0.21899652889000001,3.3600716543960183,-1.0809313496443995,-1.2474476468812243,-0.4067267246743551,,-1.0926354152439064,0.3237292393546172,0.19897532984000002,-1.7337164527300475,-1.221393671403272,-0.9729013899459417,0.8753608504136023,,-0.06622870012848983,-0.05163338425868725,0.09109722752,-0.09125690957404896,,-2.8591603e-05,-3.1590462e-06,4.6491623e-06,1.0,2.7634203e-05,2.4698675e-05,-2.7626753e-05,1.0,4.0233135e-06,-2.4706125e-05,-3.963709e-06,0.99999994,628,1.906,0,0,0.0,False,-0.25076264468994625,1.050046069567301
1.8361226730048656,13:47:54.675111,13:46:34.692303,0,,0.11499811,0.003067568,0.027057901,0.30038828,0.8582594,-0.4161222,-0.3474303,0.5047542,0.7902629,0.8882899,-0.0928123,0.4498074,,0.02360724,0.0051143654,0.012592912,0.093742564,0.99441206,0.04854651,-0.35518938,-0.0121486485,0.9347155,0.9300822,-0.10486586,0.35206565,,0.083871156,1.2908363,0.42617956,0.99408823,0.08247291,-0.07061739,0.014343556,-0.7444538,-0.6675199,-0.1076237,0.66256076,-0.7412357,,-0.109045856,0.2576305,-0.10381306,-0.42215666,-0.81435424,0.3982599,0.3245445,0.27443737,0.9051823,-0.84643644,0.5113818,0.1484386,,-0.023567948,0.43121943,-0.3304415,-0.26168996,-0.9593269,-0.10587808,0.4335771,-0.21485846,0.8751267,-0.86228144,0.18310557,0.47216848,,1.139921708632783,0.47466233064846103,0.21899393631000003,3.327989093042886,-1.0955514551193015,-1.244510592601169,-0.4083601653356981,,-1.0926431379767805,0.3239377531422213,0.19896884839,-1.7335067627865628,-1.221666944402803,-0.9726785541385488,0.8753608504136023,,-0.06622870012848983,-0.05163338425868725,0.09109722752,-0.09125690957404896,,-2.7135015e-05,3.3974648e-06,-2.861023e-06,1.0,2.2277236e-06,1.9818544e-06,-2.2277236e-06,1.0,3.874302e-07,-1.9967556e-06,-2.682209e-07,1.0,632,1.919,0,0,0.0,False,-0.25159673274924055,1.0502391903704191
1.935869445092976,13:47:54.693417,13:46:34.692303,0,,0.114960454,0.003083676,0.027112588,0.2968103,0.8573443,-0.4205524,-0.34718198,0.50714314,0.7888413,0.88958883,-0.08812806,0.44817975,,0.023606494,0.005121637,0.012598813,0.09362821,0.9944099,0.048811816,-0.35530165,-0.012426034,0.9346692,0.93005085,-0.104854345,0.35215187,,0.083871156,1.2908363,0.42617956,0.99408823,0.08247291,-0.07061739,0.014343556,-0.7444538,-0.6675199,-0.1076237,0.66256076,-0.7412357,,-0.109014295,0.2576807,-0.10384699,-0.41875297,-0.8138901,0.40277648,0.32575488,0.2793861,0.9032315,-0.8476613,0.50943726,0.1481349,,-0.023568232,0.4312287,-0.33044,-0.26157248,-0.9593284,-0.10615484,0.43349412,-0.21503463,0.8751245,-0.8623588,0.182891,0.47211036,,1.1399448768314056,0.4746468851827126,0.21897838083,3.321069324907897,-1.0977376391155484,-1.2427279061420264,-0.4083601653356981,,-1.092658583442529,0.3239840895394666,0.19896884839,-1.7335067627865628,-1.2218035809025685,-0.9724037787545715,0.8753608504136026,,-0.06622870012848983,-0.05163338425868725,0.09109722752,-0.09125690957404896,,-2.7135015e-05,3.3974648e-06,-2.861023e-06,1.0,2.2277236e-06,1.9818544e-06,-2.2277236e-06,1.0,3.874302e-07,-1.9967556e-06,-2.682209e-07,1.0,640,1.943,0,0,0.0,False,-0.2524308208085344,1.0503840309727575
1.95417485316284,13:47:54.715197,13:46:34.692303,0,,0.11494212,0.0030607656,0.027170435,0.29493928,0.85639566,-0.42378914,-0.34663904,0.50920224,0.7877528,0.89042246,-0.08543745,0.4470438,,0.023593903,0.005138371,0.012610257,0.093250684,0.9944719,0.0482676,-0.35522145,-0.0120579,0.93470454,0.9301194,-0.104307525,0.35213324,,0.083871156,1.2908363,0.42617956,0.99408823,0.08247291,-0.07061739,0.014343556,-0.7444538,-0.6675199,-0.1076237,0.66256076,-0.7412357,,-0.109004214,0.25770327,-0.10390694,-0.41697082,-0.8131695,0.4060674,0.32679743,0.28275615,0.9018051,-0.84813845,0.5087282,0.14784062,,-0.023557825,0.43124992,-0.33043665,-0.261213,-0.9594858,-0.10561597,0.43364716,-0.21439603,0.8752054,-0.8623908,0.18281497,0.4720813,,1.1398985404341604,0.47463143971696414,0.21892523294000002,3.3168755260382063,-1.0985574581141413,-1.242222756200129,-0.40803347720342953,,-1.0926431379767805,0.3240613168682089,0.19896755210000003,-1.7345552125039854,-1.2220768539020994,-0.9719359067267569,0.8755241944797367,,-0.06622870012848983,-0.05163338425868725,0.09109722752,-0.09125690957404896,,-2.7135015e-05,3.3974648e-06,-2.861023e-06,1.0,2.2277236e-06,1.9818544e-06,-2.2277236e-06,1.0,3.874302e-07,-1.9967556e-06,-2.682209e-07,1.0,648,1.968,0,0,0.0,False,-0.25159673274924055,1.050335750771978
1.9759225230664015,13:47:54.743786,13:46:34.692303,0,,0.114895694,0.0029861778,0.0273294,0.28971016,0.8531766,-0.43377146,-0.3451951,0.51584584,0.7840558,0.8926972,-0.0774132,0.44395804,,0.02357956,0.0051679946,0.012626588,0.09312133,0.99448425,0.048262153,-0.35532382,-0.012087345,0.93466514,0.9300932,-0.104185954,0.35223824,,0.083871156,1.2908363,0.42617956,0.99408823,0.08247291,-0.07061739,0.014343556,-0.7444538,-0.6675199,-0.1076237,0.66256076,-0.7412357,,-0.108981065,0.25775653,-0.10407904,-0.41198725,-0.81060845,0.4161495,0.32961977,0.29319623,0.89743346,-0.8494806,0.5069022,0.14639947,,-0.023546493,0.43128353,-0.33042705,-0.26108164,-0.95952004,-0.10562974,0.43357664,-0.21432805,0.87525696,-0.86246604,0.18271492,0.4719826,,1.1397131948451789,0.4745696578539704,0.21876838185000003,3.3053425791465574,-1.1010169151099192,-1.242177523696967,-0.40803347720342975,,-1.0926431379767805,0.32423893972431606,0.19896755210000003,-1.7349745923909545,-1.2222134904018647,-0.9714977738624981,0.875524194479737,,-0.06622870012848983,-0.05163338425868725,0.09109722752,-0.09125690957404896,,-2.7135015e-05,3.3974648e-06,-2.861023e-06,1.0,2.2277236e-06,1.9818544e-06,-2.2277236e-06,1.0,3.874302e-07,-1.9967556e-06,-2.682209e-07,1.0,656,1.992,0,0,0.0,False,-0.2516563104677614,1.0499977893665218
2.004537760047242,13:47:54.763826,13:46:34.692303,0,,0.11491954,0.0029137954,0.027364388,0.28968444,0.8506455,-0.43873125,-0.34532976,0.52040136,0.78098005,0.89265347,-0.07473081,0.4445053,,0.023569174,0.0051870085,0.012637436,0.093213685,0.99445957,0.048592303,-0.3554895,-0.012346178,0.9345988,0.9300207,-0.104391456,0.35236895,,0.083871156,1.2908363,0.42617956,0.99408823,0.08247291,-0.07061739,0.014343556,-0.7444538,-0.6675199,-0.1076237,0.66256076,-0.7412357,,-0.10901257,0.2577253,-0.104150206,-0.41196325,-0.80819225,0.42084625,0.32949173,0.29847988,0.8957371,-0.8495419,0.5076761,0.14332992,,-0.02353811,0.43130547,-0.33042124,-0.26116034,-0.9594602,-0.1059784,0.4334009,-0.21464817,0.87526554,-0.8625305,0.18265352,0.4718885,,1.1395201265233232,0.474523321456725,0.21870097477000003,3.3059716489770112,-1.1010169151099192,-1.2485484654279309,-0.4090135416002352,,-1.0926354152439064,0.3243779489160521,0.19896625581000002,-1.73476490244747,-1.2222134904018647,-0.9713344163822171,0.8751975063474682,,-0.06622870012848983,-0.05163338425868725,0.09109722752,-0.09125690957404896,,-2.7135015e-05,3.3974648e-06,-2.861023e-06,1.0,2.2277236e-06,1.9818544e-06,-2.2277236e-06,1.0,3.874302e-07,-1.9967556e-06,-2.682209e-07,1.0,664,2.017,0,0,0.0,False,-0.25106053328255173,1.0499495091657423
2.0245409819763154,13:47:54.788139,13:46:34.692303,0,,0.11495093,0.0028262287,0.027392134,0.2888428,0.8464587,-0.44730023,-0.3445707,0.52781856,0.7763238,0.89321935,-0.07010907,0.44412127,,0.02356571,0.0052081235,0.01264286,0.09427735,0.9942408,0.050957687,-0.35619053,-0.014110625,0.9343069,0.9296452,-0.10623463,0.35280877,,0.083871156,1.2908363,0.42617956,0.99408823,0.08247291,-0.07061739,0.014343556,-0.7444538,-0.6675199,-0.1076237,0.66256076,-0.7412357,,-0.10905143,0.2576776,-0.10422531,-0.41115862,-0.8042236,0.4291538,0.3304702,0.30725595,0.89240307,-0.8495517,0.50874174,0.139441,,-0.02353556,0.431324,-0.33040947,-0.26214296,-0.9589231,-0.10838593,0.43251914,-0.21714851,0.875085,-0.8626751,0.18251836,0.47167656,,1.1391185444138636,0.4744229259293601,0.21862449366000003,3.3040844394856506,-1.1010169151099192,-1.2565529819617058,-0.4080334772034293,,-1.0926431379767805,0.3246250763680273,0.19896755210000003,-1.7318292432386866,-1.221666944402803,-0.9716984092568622,0.8753608504136023,,-0.06622870012848983,-0.05163338425868725,0.09109722752,-0.09125690957404896,,-2.7135015e-05,3.3974648e-06,-2.861023e-06,1.0,2.2277236e-06,1.9818544e-06,-2.2277236e-06,1.0,3.874302e-07,-1.9967556e-06,-2.682209e-07,1.0,672,2.042,0,0,0.0,False,-0.25225208765297147,1.05014262996886
2.048894497100264,13:47:54.816500,13:46:34.860478,0,,0.11502638,0.002706647,0.02740942,0.28731206,0.842415,-0.4558385,-0.34348023,0.534867,0.7719706,0.89413255,-0.065225035,0.44302654,,0.023575813,0.005206365,0.012614071,0.098253116,0.99375015,0.05297863,-0.35635564,-0.014572561,0.9342368,0.92917013,-0.11067093,0.35269657,,0.083871156,1.2908363,0.42617956,0.99408823,0.08247291,-0.07061739,0.014343556,-0.7444538,-0.6675199,-0.1076237,0.66256076,-0.7412357,,-0.10913433,0.2575973,-0.10430875,-0.4096959,-0.8004469,0.43753165,0.33195695,0.3159282,0.88881606,-0.8496787,0.50938594,0.13627943,,-0.023540331,0.43130037,-0.33039072,-0.26596904,-0.9576442,-0.110354,0.43154147,-0.22064817,0.87469214,-0.8619933,0.1850187,0.47194877,,1.1383694393250638,0.4743225304019952,0.21853893852000003,3.3011487802768666,-1.1011535516096844,-1.2633842569699572,-0.40787013313729514,,-1.0926431379767805,0.3248258674227571,0.19896495952,-1.7255385449341507,-1.2183876684084323,-0.9755159413075444,0.8753608504136026,,-0.06622870012848983,-0.05163338425868725,0.09109722752,-0.09125690957404896,,-2.7135015e-05,3.3974648e-06,-2.861023e-06,1.0,2.2277236e-06,1.9818544e-06,-2.2277236e-06,1.0,3.874302e-07,-1.9967556e-06,-2.682209e-07,1.0,693,2.107,0,0,0.0,False,-0.2517754659048035,1.049804668563404
2.0772337671369314,13:47:54.876237,13:46:34.860478,0,,0.11540101,0.0024338886,0.02729027,0.27899572,0.83311427,-0.47757915,-0.3347286,0.550506,0.7647875,0.90006566,-0.05351311,0.43245584,,0.023540601,0.0052734055,0.012644112,0.09940695,0.9937531,0.05072516,-0.35575163,-0.012114212,0.9345021,0.9292788,-0.11094154,0.35232487,,0.083871156,1.2908363,0.42617956,0.99408823,0.08247291,-0.07061739,0.014343556,-0.7444538,-0.6675199,-0.1076237,0.66256076,-0.7412357,,-0.10950516,0.25729898,-0.10435803,-0.4017235,-0.7918469,0.45999643,0.3427807,0.33577085,0.8773593,-0.8491876,0.51013374,0.13654281,,-0.023510732,0.43137175,-0.3303648,-0.26712015,-0.95758444,-0.108068965,0.43187332,-0.2192084,0.8748903,-0.861471,0.18702874,0.47211015,,1.1347783685385495,0.47422985760750447,0.21845986483000002,3.279550716097961,-1.0992406406129684,-1.2655975375428317,-0.40852350940183246,,-1.0926431379767805,0.3252274495322168,0.19895588549,-1.726377304708089,-1.2170213034107782,-0.9767934778247894,0.8756875385458709,,-0.06622870012848983,-0.05163338425868725,0.09109722752,-0.09125690957404896,,-2.7135015e-05,3.3974648e-06,-2.861023e-06,1.0,2.2277236e-06,1.9818544e-06,-2.2277236e-06,1.0,3.874302e-07,-1.9967556e-06,-2.682209e-07,1.0,697,2.119,0,0,0.0,False,-0.2517754659048035,1.0495632675595068
2.1369792660698295,13:47:54.898770,13:46:34.860478,0,,0.11564719,0.0022702813,0.0271938,0.27821362,0.83332294,-0.47767133,-0.33385342,0.5501942,0.76539415,0.90063256,-0.053471,0.43127918,,0.023537174,0.0052794255,0.012650013,0.0993065,0.9937576,0.05083166,-0.3558589,-0.01223737,0.9344597,0.92924845,-0.11088681,0.35242212,,0.083871156,1.2908363,0.42617956,0.99408823,0.08247291,-0.07061739,0.014343556,-0.7444538,-0.6675199,-0.1076237,0.66256076,-0.7412357,,-0.10974588,0.25710234,-0.10436667,-0.40097222,-0.79207456,0.46025988,0.34384325,0.33555886,0.87702453,-0.8491131,0.50991976,0.13779971,,-0.023508387,0.4313805,-0.33036458,-0.2670165,-0.9575995,-0.10819148,0.43179262,-0.21925093,0.87491953,-0.8615436,0.18690166,0.472028,,1.1330948127719684,0.4742375803403787,0.21843912419000003,3.280389475871899,-1.0988307311136722,-1.2660134699940613,-0.4083601653356983,,-1.0926431379767805,0.3252737859294621,0.19895458920000003,-1.726377304708089,-1.2171579399105434,-0.9766820599210931,0.8753608504136023,,-0.06622870012848983,-0.05163338425868725,0.09109722752,-0.09125690957404896,,-2.7135015e-05,3.3974648e-06,-2.861023e-06,1.0,2.2277236e-06,1.9818544e-06,-2.2277236e-06,1.0,3.874302e-07,-1.9967556e-06,-2.682209e-07,1.0,705,2.144,0,0,0.0,False,-0.2524308208085344,1.0496598279610654
2.1595191680826247,13:47:54.917316,13:46:34.860478,0,,0.11594917,0.0020740926,0.027064338,0.27837053,0.83510464,-0.4744576,-0.3339464,0.5473163,0.76741433,0.90054965,-0.05518222,0.43123686,,0.02353786,0.0052783825,0.012652695,0.09929934,0.99375844,0.050829995,-0.3558611,-0.012238085,0.93445873,0.9292484,-0.11087957,0.35242465,,0.083871156,1.2908363,0.42617956,0.99408823,0.08247291,-0.07061739,0.014343556,-0.7444538,-0.6675199,-0.1076237,0.66256076,-0.7412357,,-0.1100396,0.25685704,-0.10436608,-0.4011225,-0.7937801,0.4571804,0.3437119,0.33220184,0.87835306,-0.84909534,0.5094655,0.13957803,,-0.023509556,0.43138173,-0.33036703,-0.26700947,-0.9576016,-0.1081903,0.43179202,-0.21924621,0.874921,-0.86154604,0.18689647,0.4720255,,1.1311795750191609,0.4742453030732529,0.21842745758,3.2850026546285584,-1.0985574581141413,-1.2663179845415948,-0.40852350940183224,,-1.0926508607096548,0.3252737859294621,0.19895199662000002,-1.726377304708089,-1.2171579399105434,-0.9766820599210931,0.8753608504136023,,-0.06622870012848983,-0.05163338425868725,0.09109722752,-0.09125690957404896,,-2.7135015e-05,3.3974648e-06,-2.861023e-06,1.0,2.2277236e-06,1.9818544e-06,-2.2277236e-06,1.0,3.874302e-07,-1.9967556e-06,-2.682209e-07,1.0,713,2.169,0,0,0.0,False,-0.2524308208085344,1.050046069567301
2.1780509061645716,13:47:54.945074,13:46:34.989642,0,,0.116429195,0.0017503649,0.026842281,0.28208202,0.8409525,-0.46176672,-0.33622974,0.53744113,0.7733735,0.8985429,-0.06289512,0.43435562,,0.023536786,0.0052782483,0.012655556,0.099302,0.9937541,0.050909184,-0.3558673,-0.012310877,0.9344555,0.9292457,-0.11091023,0.35242203,,0.083871156,1.2908363,0.42617956,0.99408823,0.08247291,-0.07061739,0.014343556,-0.7444538,-0.6675199,-0.1076237,0.66256076,-0.7412357,,-0.11050511,0.2564474,-0.10436117,-0.40467587,-0.7991476,0.4445228,0.3405133,0.31946072,0.8843051,-0.8486979,0.50922287,0.14284235,,-0.023509003,0.43138382,-0.33036909,-0.26701164,-0.95759225,-0.10826774,0.43178558,-0.21931666,0.87490654,-0.8615486,0.18686177,0.4720346,,1.128468895780308,0.4742453030732529,0.21841060581000002,3.301358470220351,-1.0976010026157832,-1.2671795886076103,-0.4086868534679666,,-1.0926508607096548,0.32528150866233635,0.19894940404000003,-1.726377304708089,-1.2171579399105434,-0.9766003811809526,0.8751975063474684,,-0.06622870012848983,-0.05163338425868725,0.09109722752,-0.09125690957404896,,-2.7135015e-05,3.3974648e-06,-2.861023e-06,1.0,2.2277236e-06,1.9818544e-06,-2.2277236e-06,1.0,3.874302e-07,-1.9967556e-06,-2.682209e-07,1.0,721,2.193,0,0,0.0,False,-0.25106053328255173,1.049418426957168
2.2057565189898014,13:47:54.959200,13:46:34.989642,0,,0.11669081,0.0015720278,0.026761517,0.28065893,0.8428822,-0.45910782,-0.336981,0.5344162,0.77514076,0.89870703,-0.06283966,0.43402386,,0.023539752,0.005277697,0.012656033,0.099285044,0.99376005,0.05082666,-0.3558656,-0.012239531,0.93445706,0.9292482,-0.11086507,0.35242963,,0.083871156,1.2908363,0.42617956,0.99408823,0.08247291,-0.07061739,0.014343556,-0.7444538,-0.6675199,-0.1076237,0.66256076,-0.7412357,,-0.11076376,0.2562497,-0.104389235,-0.40332255,-0.8012198,0.4420155,0.34012863,0.31717187,0.8852765,-0.849496,0.5073941,0.14459525,,-0.023512013,0.4313834,-0.33036947,-0.2669954,-0.9576058,-0.10818793,0.4317908,-0.21923673,0.87492394,-0.86155105,0.18688612,0.47202057,,1.1267776172808528,0.4742684712718756,0.21838468001000003,3.3036650595986807,-1.0988307311136722,-1.266013469994061,-0.40917688566636956,,-1.0926663061754032,0.3252737859294621,0.19894940404000003,-1.726377304708089,-1.2171579399105434,-0.976682059921093,0.8750341622813342,,-0.06622870012848983,-0.05163338425868725,0.09109722752,-0.09125690957404896,,-2.7135015e-05,3.3974648e-06,-2.861023e-06,1.0,2.2277236e-06,1.9818544e-06,-2.2277236e-06,1.0,3.874302e-07,-1.9967556e-06,-2.682209e-07,1.0,729,2.218,0,0,0.0,False,-0.25106053328255173,1.0499977893665218
2.219957252033055,13:47:54.986764,13:46:34.989642,0,,0.11692027,0.0013844371,0.026716277,0.27898026,0.8479292,-0.45076165,-0.34076774,0.5262641,0.779053,0.8978014,-0.063735396,0.43576407,,0.023538947,0.0052782036,0.012657702,0.099287726,0.9937599,0.05082469,-0.35587177,-0.012235984,0.9344548,0.9292456,-0.110866964,0.35243604,,0.083871156,1.2908363,0.42617956,0.99408823,0.08247291,-0.07061739,0.014343556,-0.7444538,-0.6675199,-0.1076237,0.66256076,-0.7412357,,-0.11099527,0.25607038,-0.10445351,-0.4017399,-0.8065264,0.43372825,0.33678874,0.31030998,0.8889775,-0.85157406,0.5032125,0.14696512,,-0.02351152,0.4313851,-0.3303703,-0.26699758,-0.95760524,-0.108187154,0.43178436,-0.21923573,0.8749274,-0.86155355,0.18688996,0.4720144,,1.1254493072264862,0.4742375803403787,0.21834449502000003,3.309746067959732,-1.1026565531071044,-1.2624036962497183,-0.4093402297325037,,-1.0926663061754032,0.32528150866233635,0.19894810775000002,-1.726377304708089,-1.2171579399105434,-0.976682059921093,0.8750341622813342,,-0.06622870012848983,-0.05163338425868725,0.09109722752,-0.09125690957404896,,-2.7135015e-05,3.3974648e-06,-2.861023e-06,1.0,2.2277236e-06,1.9818544e-06,-2.2277236e-06,1.0,3.874302e-07,-1.9967556e-06,-2.682209e-07,1.0,733,2.23,0,0,0.0,False,-0.25117968871959295,1.0501909101696396
2.247515846043825,13:47:55.008774,13:46:34.989642,0,,0.117174596,0.001155436,0.026727036,0.2745853,0.8522835,-0.44521418,-0.34415734,0.5194477,0.7821316,0.89786327,-0.06153822,0.43595222,,0.023538142,0.00527874,0.012659371,0.099290386,0.99375546,0.05090389,-0.35587797,-0.012308776,0.93445146,0.9292429,-0.11089762,0.35243344,,0.083871156,1.2908363,0.42617956,0.99408823,0.08247291,-0.07061739,0.014343556,-0.7444538,-0.6675199,-0.1076237,0.66256076,-0.7412357,,-0.11126024,0.25589675,-0.10458344,-0.39756063,-0.811451,0.42836055,0.33451006,0.3065404,0.8911431,-0.85442877,0.49757433,0.14957014,,-0.023511024,0.4313868,-0.3303711,-0.26699975,-0.9575959,-0.1082646,0.43177792,-0.21930619,0.8749129,-0.8615561,0.18685526,0.47202346,,1.1237966423914023,0.4742453030732529,0.21824856956000002,3.3110042076206394,-1.1078487400981911,-1.2571896710275676,-0.40901354160023495,,-1.0926663061754032,0.3252892313952106,0.19894681146,-1.726377304708089,-1.2171579399105434,-0.9766003811809526,0.8751975063474684,,-0.06622870012848983,-0.05163338425868725,0.09109722752,-0.09125690957404896,,-2.7135015e-05,3.3974648e-06,-2.861023e-06,1.0,2.2277236e-06,1.9818544e-06,-2.2277236e-06,1.0,3.874302e-07,-1.9967556e-06,-2.682209e-07,1.0,762,2.32,0,0,0.0,False,-0.2523116653714932,1.0500943497680806
2.2695277959574014,13:47:55.094217,13:46:35.105959,0,,0.11722503,0.0008632466,0.027045444,0.26101756,0.8513913,-0.4549754,-0.34627122,0.5225255,0.77914274,0.9010916,-0.045825183,0.43120053,,0.023532644,0.005292166,0.012669444,0.09919874,0.99375576,0.05107806,-0.3560247,-0.0124877095,0.93439317,0.9291965,-0.110875696,0.35256273,,0.083871156,1.2908363,0.42617956,0.99408823,0.08247291,-0.07061739,0.014343556,-0.7444538,-0.6675199,-0.1076237,0.66256076,-0.7412357,,-0.111363254,0.25589135,-0.10500614,-0.38460344,-0.8123014,0.43845943,0.3356984,0.31938764,0.88617045,-0.85987604,0.48801434,0.14985068,,-0.023507351,0.43140385,-0.33036837,-0.2669021,-0.9576011,-0.10845954,0.431658,-0.2194094,0.87494624,-0.8616465,0.18670754,0.47191697,,1.122584173330149,0.4740522347513973,0.21790505271000002,3.2921321127070327,-1.1182331140803647,-1.2498654127086075,-0.40803347720342975,,-1.0926740289082775,0.32538190418970125,0.19894551517000003,-1.726377304708089,-1.217294576410309,-0.9764072845371157,0.8753608504136026,,-0.06622870012848983,-0.05163338425868725,0.09109722752,-0.09125690957404896,,-2.7135015e-05,3.3974648e-06,-2.861023e-06,1.0,2.2277236e-06,1.9818544e-06,-2.2277236e-06,1.0,3.874302e-07,-1.9967556e-06,-2.682209e-07,1.0,770,2.345,0,0,0.0,False,-0.25064348925290414,1.0503840309727575
