AlexandreBanks6/ExpertPlaybackApp/resources/Motions/P_14/PC1/Data_PC1_9.csv
Task Time,PC1 Time,PC2 Time,Gaze Calib,s_T_psm1,Tx,Ty,Tz,R00,R01,R02,R10,R11,R12,R20,R21,R22,s_T_psm3,Tx,Ty,Tz,R00,R01,R02,R10,R11,R12,R20,R21,R22,cart_T_ecm,Tx,Ty,Tz,R00,R01,R02,R10,R11,R12,R20,R21,R22,ecm_T_psm1,Tx,Ty,Tz,R00,R01,R02,R10,R11,R12,R20,R21,R22,ecm_T_psm3,Tx,Ty,Tz,R00,R01,R02,R10,R11,R12,R20,R21,R22,psm1_joints,q1,q2,q3,q4,q5,q6,jaw,psm3_joints,q1,q2,q3,q4,q5,q6,jaw,ecm_joints,q1,q2,q3,q4,ecmi_T_ecm,Tx,Ty,Tz,R00,R01,R02,R10,R11,R12,R20,R21,R22,Sample #,Task Duration (s),Collisions (binary),Collisions (increments),Cumulative Collision Time (s),Clutch Press,MTMR Angle,MTML Angle
""
lci_T_si,,,,,-0.05129452,0.048553377,0.19299848,0.991276,0.046896584,0.12317695,0.11708693,-0.74244076,-0.65960014,0.060518593,0.6682682,-0.7414547
rci_T_si,,,,,-0.059571687,0.0508194,0.20016095,0.98826504,0.02463223,0.15074971,0.12190245,-0.72187847,-0.68119836,0.092043534,0.6915813,-0.71641
ecm_T_lc,,,,,-4.4061628e-05,-0.00034663224,-0.01840835,-0.99912,0.030754527,0.028518902,-0.031987965,-0.99852574,-0.043852776,0.027128186,-0.04472645,0.9986309
ecm_T_rc,,,,,-0.0043358393,0.01870579,-0.007592615,-0.99555075,-0.052743673,-0.078081585,0.04863213,-0.9973746,0.053654674,-0.08070653,0.04961868,0.9955021
cart_T_ecmi,,,,,0.08361981,1.2907763,0.42627257,0.9937988,0.08374649,-0.07314679,0.013490307,-0.743785,-0.66828275,-0.11037182,0.6631518,-0.74030244
ecmac_T_ecmrep_psm1,,,,,0.023195708,-0.2631036,-0.30022871,0.99664557,0.07921609,0.02055357,-0.078295335,0.99603295,-0.04228661,-0.023821812,0.040535513,0.9988941
ecmac_T_ecmrep_psm3,,,,,0.022281613,-0.4507852,-0.5326207,0.99995744,0.002629678,0.008843231,-0.0032003638,0.99787027,0.06515156,-0.008653069,-0.06517708,0.9978362
""
0,14:47:47.498008,14:46:27.660336,0,,0.087584384,0.013873845,0.024351373,0.479062,-0.44195652,-0.7584022,-0.12907791,-0.8900759,0.43715397,-0.8682388,-0.11153075,-0.48344854,,0.06057146,0.013478933,0.014881551,0.04787218,-0.5290179,0.8472592,-0.28479394,0.80579394,0.51921904,-0.9573927,-0.26615047,-0.11208606,,0.08362326,1.2907704,0.42627263,0.9937989,0.08374024,-0.0731524,0.013481963,-0.74378574,-0.6682821,-0.11037182,0.6631518,-0.74030244,,-0.07928279,0.24381027,-0.11611994,-0.39188468,0.45709547,0.7984298,-0.70797706,-0.7040456,0.05557246,0.5875329,-0.54349196,0.5995178,,-0.057421617,0.4152668,-0.33982578,0.11731075,0.5216255,-0.845071,-0.8977498,0.41952425,0.13433053,0.424598,0.74290395,0.5175039,,1.1858642465015445,0.35414908414618756,0.20755676964000003,-1.3715819203322737,0.6076225144569137,0.467843643479805,-0.4086868534679666,,-1.2545888463492685,0.15318812929311737,0.19714626465,0.7603357350748853,0.7789646851627761,-0.5383224831665916,0.8425286931206124,,-0.0686699794197169,-0.04953898915629405,0.0911007994,-0.09256525236364105,,3.3453107e-06,4.5895576e-06,3.5762787e-06,0.99999994,-6.221235e-06,-5.5655837e-06,6.213784e-06,1.0,-9.536743e-07,5.5655837e-06,9.23872e-07,1.0,35,0.104,0,0,0.0,False,-0.2552905512975445,1.0255680077721157
0.12633536895737052,14:47:47.537834,14:46:27.660336,0,,0.08817147,0.014236182,0.024746433,0.47172448,-0.44401234,-0.76179326,-0.12562141,-0.8889893,0.44036028,-0.8727516,-0.11203113,-0.47513562,,0.06060439,0.013493983,0.014971256,0.051038377,-0.52367866,0.8503856,-0.27367166,0.81156766,0.51619923,-0.9604682,-0.2590724,-0.101894915,,0.08362326,1.2907704,0.42627263,0.9937989,0.08374024,-0.0731524,0.013481963,-0.74378574,-0.6682821,-0.11037182,0.6631518,-0.74030244,,-0.07990795,0.24430132,-0.11612993,-0.38417023,0.4591821,0.8009775,-0.7079035,-0.70342815,0.06372982,0.5926937,-0.5425317,0.5952928,,-0.057468906,0.41533753,-0.33987176,0.11409207,0.5149526,-0.84959215,-0.8931025,0.4277349,0.1393225,0.43514472,0.7428773,0.5087066,,1.184806232097776,0.35768609580258237,0.20741936290000001,-1.362774942705924,0.6158207044428401,0.47341038027910415,-0.4086868534679666,,-1.2546197372807655,0.1531031792315009,0.19716441271000001,0.7639004641141223,0.7907154241426039,-0.5425136260352068,0.8493891438982522,,-0.0686699794197169,-0.04953898915629405,0.0911007994,-0.09256525236364105,,3.3453107e-06,4.5895576e-06,3.5762787e-06,0.99999994,-6.221235e-06,-5.5655837e-06,6.213784e-06,1.0,-9.536743e-07,5.5655837e-06,9.23872e-07,1.0,46,0.137,0,0,0.0,False,-0.2550522404234603,1.030154626846164
0.16615601209923625,14:47:47.561374,14:46:27.660336,0,,0.088418014,0.014356747,0.024880782,0.46984285,-0.44351706,-0.7632432,-0.12572923,-0.88942707,0.43944454,-0.8737505,-0.110507786,-0.47365415,,0.060627215,0.013494937,0.015000105,0.05147808,-0.52371097,0.8503392,-0.2688936,0.812755,0.5168418,-0.9617933,-0.25525677,-0.098983526,,0.08362326,1.2907704,0.42627263,0.9937989,0.08374024,-0.0731524,0.013481963,-0.74378574,-0.6682821,-0.11037182,0.6631518,-0.74030244,,-0.0801672,0.24446304,-0.116131976,-0.38220006,0.458545,0.802284,-0.7085172,-0.7027728,0.06413893,0.59323394,-0.5439181,0.59348685,,-0.057495978,0.41535583,-0.33988866,0.11361787,0.5143261,-0.8500351,-0.89096993,0.43132356,0.14188926,0.4396175,0.74123454,0.50725514,,1.184296531728077,0.35902212858982324,0.20735843727000003,-1.3594199036101713,0.6171870694404945,0.4776869980914169,-0.40803347720342953,,-1.2546197372807655,0.15304912010138133,0.19717867190000002,0.766626433379421,0.7953610651346288,-0.5407476804313269,0.854616154014549,,-0.0686699794197169,-0.04953898915629405,0.0911007994,-0.09256525236364105,,3.3453107e-06,4.5895576e-06,3.5762787e-06,0.99999994,-6.221235e-06,-5.5655837e-06,6.213784e-06,1.0,-9.536743e-07,5.5655837e-06,9.23872e-07,1.0,54,0.161,0,0,0.0,False,-0.25540970673458663,1.0327134774874756
0.1897007809020579,14:47:47.587936,14:46:27.753297,0,,0.088699415,0.014466062,0.02504228,0.46781492,-0.44374081,-0.76435804,-0.12633777,-0.889521,0.4390797,-0.87475026,-0.108840704,-0.47219256,,0.060669877,0.013501702,0.015030563,0.050809696,-0.5217386,0.85159093,-0.26191464,0.81588614,0.51549053,-0.9637527,-0.24923599,-0.09519604,,0.08362326,1.2907704,0.42627263,0.9937989,0.08374024,-0.0731524,0.013481963,-0.74378574,-0.6682821,-0.11037182,0.6631518,-0.74030244,,-0.08046368,0.24463207,-0.11615928,-0.3800806,0.45860714,0.8032548,-0.7094928,-0.70171595,0.06492023,0.59342957,-0.54522854,0.5920871,,-0.05754318,0.41537625,-0.33990097,0.11422164,0.5112765,-0.8517921,-0.8876744,0.4375149,0.14357899,0.4460803,0.7397142,0.50382066,,1.1836864358310133,0.3604662796373032,0.20726380810000003,-1.3554357946839655,0.618280161438618,0.48177805801041995,-0.4095035737986379,,-1.2546120145478912,0.15301822916988445,0.19721107915000002,0.7722880618535032,0.8015097076240736,-0.5393905443667019,0.8578830353372346,,-0.0686699794197169,-0.04953898915629405,0.0911007994,-0.09256525236364105,,3.3453107e-06,4.5895576e-06,3.5762787e-06,0.99999994,-6.221235e-06,-5.5655837e-06,6.213784e-06,1.0,-9.536743e-07,5.5655837e-06,9.23872e-07,1.0,62,0.186,0,0,0.0,False,-0.2552905512975445,1.0351274875264485
0.21626017289236188,14:47:47.612768,14:46:27.753297,0,,0.08892135,0.014546342,0.025182948,0.4621963,-0.45064086,-0.763739,-0.13070348,-0.88646466,0.44395602,-0.87709254,-0.105371445,-0.4686211,,0.060705625,0.013498811,0.015032947,0.048649203,-0.5222774,0.8513868,-0.25834247,0.8168106,0.5158289,-0.96482766,-0.24504398,-0.09518924,,0.08362326,1.2907704,0.42627263,0.9937989,0.08374024,-0.0731524,0.013481963,-0.74378574,-0.6682821,-0.11037182,0.6631518,-0.74030244,,-0.08069877,0.24476983,-0.116194636,-0.37423033,0.46511695,0.80225796,-0.7139002,-0.6966513,0.07087648,0.59185994,-0.546208,0.59275514,,-0.057578664,0.41537064,-0.3399024,0.11633548,0.5111043,-0.85160935,-0.8857657,0.44128156,0.14383931,0.44931638,0.7375927,0.5040553,,1.1832925764544278,0.3614393439794555,0.20717177151000002,-1.3453706773967082,0.6184167979383834,0.4833818936496752,-0.4090135416002352,,-1.2545888463492685,0.15300278370413598,0.19723570866,0.7775303104406163,0.8038325281200862,-0.5352404219591396,0.8608232285276516,,-0.0686699794197169,-0.04953898915629405,0.0911007994,-0.09256525236364105,,3.3453107e-06,4.5895576e-06,3.5762787e-06,0.99999994,-6.221235e-06,-5.5655837e-06,6.213784e-06,1.0,-9.536743e-07,5.5655837e-06,9.23872e-07,1.0,73,0.219,0,0,0.0,False,-0.2551713958605024,1.0375414975654216
0.24109250400215387,14:47:47.648453,14:46:27.753297,0,,0.08906938,0.01457274,0.02533944,0.46229002,-0.45140034,-0.7632336,-0.13110182,-0.88606405,0.44463778,-0.87698364,-0.10549021,-0.4687981,,0.060756557,0.013482122,0.015035391,0.04386864,-0.5208031,0.8525489,-0.25447583,0.8193964,0.51364523,-0.96608365,-0.23948601,-0.09658603,,0.08362326,1.2907704,0.42627263,0.9937989,0.08374024,-0.0731524,0.013481963,-0.74378574,-0.6682821,-0.11037182,0.6631518,-0.74030244,,-0.08086141,0.24488333,-0.116282746,-0.37433127,0.46588144,0.8017672,-0.71413,-0.6963798,0.071229175,0.59151876,-0.54590267,0.59337664,,-0.057628416,0.4153537,-0.3399131,0.12104662,0.50864655,-0.85242385,-0.8833983,0.4468472,0.14119138,0.45271972,0.735939,0.50342685,,1.183091785399698,0.36228112186274597,0.20704214251000003,-1.3445319176227701,0.6180068884390871,0.4837161473607645,-0.4090135416002352,,-1.2545502326848974,0.15300278370413598,0.19725385672,0.7863372880669662,0.8051988931177405,-0.5309638041468265,0.8624566691889946,,-0.0686699794197169,-0.04953898915629405,0.0911007994,-0.09256525236364105,,3.3453107e-06,4.5895576e-06,3.5762787e-06,0.99999994,-6.221235e-06,-5.5655837e-06,6.213784e-06,1.0,-9.536743e-07,5.5655837e-06,9.23872e-07,1.0,85,0.256,0,0,0.0,False,-0.25451604095677105,1.0391830243919231
0.2766512590460479,14:47:47.673891,14:46:27.753297,0,,0.089238435,0.01464656,0.025528863,0.46124405,-0.453735,-0.76248175,-0.133259,-0.8850318,0.44605,-0.87720925,-0.10413027,-0.46868005,,0.06084063,0.013450293,0.0150568485,0.03600824,-0.5177901,0.85474956,-0.2470079,0.824155,0.5096623,-0.9683443,-0.2294819,-0.09822193,,0.08362326,1.2907704,0.42627263,0.9937989,0.08374024,-0.0731524,0.013481963,-0.74378574,-0.6682821,-0.11037182,0.6631518,-0.74030244,,-0.08104854,0.24505247,-0.11636201,-0.3732528,0.46806607,0.8009972,-0.7158083,-0.69454354,0.072303414,0.5901702,-0.54637295,0.5942859,,-0.057713047,0.4153356,-0.33994555,0.12876584,0.5038631,-0.85413194,-0.8789124,0.4568799,0.13701752,0.4592738,0.73306394,0.50168204,,1.1830377262695784,0.3633623044651374,0.20690732835000003,-1.3411768785270177,0.6166405234414327,0.4849120051378693,-0.4088501975341009,,-1.2544884508219036,0.15301050643701022,0.19727330107000002,0.8016446539413365,0.8083415326123456,-0.5239700033353986,0.8636000776519345,,-0.0686699794197169,-0.04953898915629405,0.0911007994,-0.09256525236364105,,3.3453107e-06,4.5895576e-06,3.5762787e-06,0.99999994,-6.221235e-06,-5.5655837e-06,6.213784e-06,1.0,-9.536743e-07,5.5655837e-06,9.23872e-07,1.0,93,0.28,0,0,0.0,False,-0.2550522404234603,1.0405348700137478
0.30221260502003133,14:47:47.701997,14:46:27.753297,0,,0.08936728,0.01472944,0.0256785,0.45919448,-0.4570048,-0.7617657,-0.1345743,-0.8834102,0.4488609,-0.87808335,-0.10360029,-0.4671583,,0.060872827,0.013442693,0.015075922,0.03368926,-0.5189602,0.85413426,-0.24233618,0.82487404,0.5107405,-0.96960723,-0.22419408,-0.097973496,,0.08362326,1.2907704,0.42627263,0.9937989,0.08374024,-0.0731524,0.013481963,-0.74378574,-0.6682821,-0.11037182,0.6631518,-0.74030244,,-0.081191845,0.24520467,-0.116408475,-0.37111884,0.47125745,0.800117,-0.7172233,-0.69275725,0.0753539,0.5897979,-0.5458973,0.59509206,,-0.057747394,0.41533968,-0.3399617,0.13100839,0.5041528,-0.8536198,-0.87638795,0.46140864,0.13800792,0.46344465,0.7300219,0.50228184,,1.1830377262695784,0.3642504187456732,0.20682177321000003,-1.3374024595442964,0.6166405234414327,0.4848303263977287,-0.4090135416002352,,-1.2544421144246583,0.15301822916988445,0.19728626397000001,0.8079353522458724,0.8114841721069508,-0.5182830623662193,0.8650701742471429,,-0.0686699794197169,-0.04953898915629405,0.0911007994,-0.09256525236364105,,3.3453107e-06,4.5895576e-06,3.5762787e-06,0.99999994,-6.221235e-06,-5.5655837e-06,6.213784e-06,1.0,-9.536743e-07,5.5655837e-06,9.23872e-07,1.0,100,0.302,0,0,0.0,False,-0.2546351963938136,1.0422246770410288
0.33032608102075756,14:47:47.730842,14:46:27.881413,0,,0.089576975,0.014870472,0.02590634,0.4580827,-0.45863438,-0.76145566,-0.13656306,-0.8827584,0.4495419,-0.87835693,-0.10194057,-0.46700904,,0.06093856,0.01342815,0.015130222,0.029774519,-0.51574194,0.8562263,-0.23161459,0.8297322,0.50783753,-0.9723519,-0.21343505,-0.0947485,,0.08362326,1.2907704,0.42627263,0.9937989,0.08374024,-0.0731524,0.013481963,-0.74378574,-0.6682821,-0.11037182,0.6631518,-0.74030244,,-0.0814236,0.24544646,-0.11646837,-0.36997148,0.47271413,0.799789,-0.71880394,-0.69105315,0.075937085,0.58859324,-0.5467969,0.59545875,,-0.057819955,0.41535982,-0.3400042,0.13474287,0.4990436,-0.85603726,-0.87069416,0.47202972,0.13812901,0.47300744,0.72673476,0.498117,,1.1830531717353268,0.36576407438902125,0.20669214421,-1.3338377305050595,0.6152741584437783,0.48733304401708255,-0.4081968212695637,,-1.2543571643630418,0.1530336746356329,0.19730959719000002,0.8207264387984283,0.819272452593581,-0.5131988592572367,0.8676836793052913,,-0.0686699794197169,-0.04953898915629405,0.0911007994,-0.09256525236364105,,3.3453107e-06,4.5895576e-06,3.5762787e-06,0.99999994,-6.221235e-06,-5.5655837e-06,6.213784e-06,1.0,-9.536743e-07,5.5655837e-06,9.23872e-07,1.0,112,0.338,0,0,0.0,False,-0.25481392954937654,1.0436248028636332
0.35915843304246664,14:47:47.757620,14:46:27.881413,0,,0.08980878,0.01502876,0.026184902,0.45395827,-0.46069586,-0.7626802,-0.13730973,-0.88190603,0.45098528,-0.8803795,-0.100005,-0.46360666,,0.060964577,0.013425229,0.015146792,0.027669914,-0.5161599,0.8560452,-0.2257798,0.8310158,0.5083661,-0.9737854,-0.20734414,-0.093544364,,0.08362326,1.2907704,0.42627263,0.9937989,0.08374024,-0.0731524,0.013481963,-0.74378574,-0.6682821,-0.11037182,0.6631518,-0.74030244,,-0.08168241,0.24573334,-0.11655275,-0.36566547,0.4745725,0.8006683,-0.7204166,-0.68898594,0.07936162,0.5893121,-0.54779494,0.59382826,,-0.057848066,0.4153661,-0.34001565,0.1367403,0.49843654,-0.8560743,-0.8675554,0.47740784,0.13938944,0.47817335,0.7236317,0.49770218,,1.1830300035367043,0.3674167392241053,0.20654566344000003,-1.3275470322005238,0.6169137964409637,0.49122346854172133,-0.4095035737986381,,-1.2542413233699283,0.153072288300004,0.19733163412000002,0.8276462069334176,0.8235081840863095,-0.5079131890767857,0.8691537759004999,,-0.0686699794197169,-0.04953898915629405,0.0911007994,-0.09256525236364105,,3.3453107e-06,4.5895576e-06,3.5762787e-06,0.99999994,-6.221235e-06,-5.5655837e-06,6.213784e-06,1.0,-9.536743e-07,5.5655837e-06,9.23872e-07,1.0,120,0.362,0,0,0.0,False,-0.254694774112334,1.0445904068792222
0.3858973840251565,14:47:47.785057,14:46:27.881413,0,,0.090035826,0.0151670575,0.026485518,0.44969833,-0.45994565,-0.76565087,-0.13507578,-0.88238025,0.45073226,-0.88290775,-0.09927258,-0.45893255,,0.060956366,0.013433574,0.015146971,0.02779077,-0.51620233,0.8560156,-0.22285497,0.8315943,0.5087106,-0.9744555,-0.2049048,-0.09192765,,0.08362326,1.2907704,0.42627263,0.9937989,0.08374024,-0.0731524,0.013481963,-0.74378574,-0.6682821,-0.11037182,0.6631518,-0.74030244,,-0.08193846,0.24602039,-0.11666715,-0.36119717,0.4737584,0.8031747,-0.7201441,-0.68890256,0.08249681,0.5923926,-0.54860395,0.59000397,,-0.057840426,0.41537303,-0.34001008,0.13657422,0.4980668,-0.8563159,-0.86612415,0.47958556,0.14080718,0.48080814,0.72244525,0.49688673,,1.1829141625435908,0.36910801772356044,0.20637973832000003,-1.3227241635003797,0.6214228009332231,0.4965313391352014,-0.4091768856663698,,-1.2541023141781924,0.15311862469724935,0.19734978218000002,0.8295334164247784,0.8262409140816184,-0.5066293613246697,0.8706238724957084,,-0.0686699794197169,-0.04953898915629405,0.0911007994,-0.09256525236364105,,3.3453107e-06,4.5895576e-06,3.5762787e-06,0.99999994,-6.221235e-06,-5.5655837e-06,6.213784e-06,1.0,-9.536743e-07,5.5655837e-06,9.23872e-07,1.0,132,0.399,0,0,0.0,False,-0.2547543518308557,1.044880088083899
0.41336960601620376,14:47:47.815971,14:46:27.881413,0,,0.090230346,0.015241861,0.026737854,0.4469992,-0.46067643,-0.7667913,-0.13433081,-0.88204455,0.451611,-0.8843908,-0.098866016,-0.45615637,,0.060946338,0.013440875,0.015138686,0.028195653,-0.51638854,0.85589004,-0.22175503,0.83166385,0.50907737,-0.9746947,-0.20415163,-0.09106243,,0.08362326,1.2907704,0.42627263,0.9937989,0.08374024,-0.0731524,0.013481963,-0.74378574,-0.6682821,-0.11037182,0.6631518,-0.74030244,,-0.082157016,0.24623041,-0.11679054,-0.3583727,0.47444397,0.80403477,-0.72038996,-0.6883312,0.08507903,0.59380746,-0.5487286,0.5884638,,-0.057829615,0.41537333,-0.33999977,0.13615525,0.49812907,-0.8563464,-0.86563087,0.4802118,0.14170349,0.48181427,0.7219862,0.49657923,,1.1827597078861063,0.37032048678481366,0.20621770207,-1.3193691244046273,0.6234723484297048,0.4988623288466425,-0.4083601653356982,,-1.2540096413837016,0.15314179289587201,0.19736404137000002,0.829743106368263,0.8274706425795073,-0.5063252626156887,0.871603936892514,,-0.0686699794197169,-0.04953898915629405,0.0911007994,-0.09256525236364105,,3.3453107e-06,4.5895576e-06,3.5762787e-06,0.99999994,-6.221235e-06,-5.5655837e-06,6.213784e-06,1.0,-9.536743e-07,5.5655837e-06,9.23872e-07,1.0,147,0.444,0,0,0.0,False,-0.254694774112334,1.0448318078831196
0.4442985290661454,14:47:47.865924,14:46:27.881413,0,,0.090418294,0.01525072,0.026998654,0.4442349,-0.4624764,-0.767314,-0.13604754,-0.88135326,0.45244586,-0.88552046,-0.09660098,-0.45444682,,0.06097664,0.013426362,0.015144885,0.025408827,-0.51524764,0.85666454,-0.21839821,0.8333798,0.5077206,-0.97552896,-0.19999453,-0.09135398,,0.08362326,1.2907704,0.42627263,0.9937989,0.08374024,-0.0731524,0.013481963,-0.74378574,-0.6682821,-0.11037182,0.6631518,-0.74030244,,-0.082369365,0.2463976,-0.116964854,-0.35549977,0.47601137,0.80438364,-0.7222232,-0.6861825,0.08687459,0.5933073,-0.55006063,0.5877242,,-0.05785972,0.41536367,-0.34001276,0.13886036,0.4962645,-0.8569944,-0.86359394,0.4842241,0.14047264,0.4846889,0.72058904,0.49581054,,1.1825898077628734,0.3713398875242113,0.20599474019000003,-1.3143365657609987,0.6236089849294703,0.5019363818084281,-0.408850197534101,,-1.2539555822535822,0.15314179289587201,0.19737441169000003,0.8358241147293141,0.8291102805766927,-0.5033333042325959,0.8717672809586483,,-0.0686699794197169,-0.04953898915629405,0.0911007994,-0.09256525236364105,,3.3453107e-06,4.5895576e-06,3.5762787e-06,0.99999994,-6.221235e-06,-5.5655837e-06,6.213784e-06,1.0,-9.536743e-07,5.5655837e-06,9.23872e-07,1.0,155,0.469,0,0,0.0,False,-0.25439688551972894,1.045169769288576
0.4942423589527607,14:47:47.894624,14:46:27.881413,0,,0.090507865,0.015231445,0.027165338,0.44110116,-0.46416813,-0.7681,-0.13682368,-0.88063884,0.45360163,-0.8869662,-0.094989836,-0.45196015,,0.060967647,0.013441471,0.015166521,0.028092705,-0.5160414,0.85610276,-0.21605408,0.83306205,0.50924265,-0.9759772,-0.19927049,-0.08808994,,0.08362326,1.2907704,0.42627263,0.9937989,0.08374024,-0.0731524,0.013481963,-0.74378574,-0.6682821,-0.11037182,0.6631518,-0.74030244,,-0.08247449,0.24648805,-0.11709499,-0.35223535,0.47753412,0.80491704,-0.7235429,-0.68445987,0.08944469,0.5936463,-0.55088645,0.5866074,,-0.057855017,0.41539088,-0.3400164,0.13616173,0.49695066,-0.8570298,-0.8627727,0.4846638,0.14395924,0.48691195,0.71982014,0.49474812,,1.1825203031670053,0.3717723605651679,0.20584696313000003,-1.3099330769478237,0.6248387134273592,0.5039557340603611,-0.4083601653356982,,-1.2539478595207079,0.15314179289587201,0.19738218943000002,0.8341465951814379,0.8325261930708286,-0.5036683896207895,0.8717672809586483,,-0.0686699794197169,-0.04953898915629405,0.0911007994,-0.09256525236364105,,3.3453107e-06,4.5895576e-06,3.5762787e-06,0.99999994,-6.221235e-06,-5.5655837e-06,6.213784e-06,1.0,-9.536743e-07,5.5655837e-06,9.23872e-07,1.0,163,0.493,0,0,0.0,False,-0.25546928445310746,1.044880088083899
0.522922839038074,14:47:47.917682,14:46:28.079824,0,,0.09059197,0.01522284,0.027321354,0.4355,-0.4676823,-0.7691638,-0.13928714,-0.8791661,0.45570382,-0.8893475,-0.09132433,-0.44801912,,0.06096832,0.01344323,0.015161395,0.028085917,-0.5163933,0.8558908,-0.21605667,0.83285296,0.5095835,-0.9759768,-0.199233,-0.0881788,,0.08362326,1.2907704,0.42627263,0.9937989,0.08374024,-0.0731524,0.013481963,-0.74378574,-0.6682821,-0.11037182,0.6631518,-0.74030244,,-0.082573235,0.24657974,-0.117210485,-0.34641245,0.4806665,0.80557936,-0.7265654,-0.68067753,0.09370595,0.5933811,-0.5528452,0.58503085,,-0.057854977,0.41538823,-0.34001166,0.13616851,0.49730265,-0.8568245,-0.8627731,0.4846057,0.14415224,0.48690933,0.7196161,0.4950474,,1.182504857701257,0.37210443807875954,0.20571474155000002,-1.3017551691519271,0.6260684419252481,0.5072819461545433,-0.40983026193090666,,-1.2539401367878336,0.15314179289587201,0.19738737459000003,0.8341465951814379,0.8325261930708286,-0.5032599959200867,0.871603936892514,,-0.0686699794197169,-0.04953898915629405,0.0911007994,-0.09256525236364105,,3.3453107e-06,4.5895576e-06,3.5762787e-06,0.99999994,-6.221235e-06,-5.5655837e-06,6.213784e-06,1.0,-9.536743e-07,5.5655837e-06,9.23872e-07,1.0,175,0.53,0,0,0.0,False,-0.25535012901606535,1.045169769288576
0.5460054539144039,14:47:47.947323,14:46:28.079824,0,,0.090664245,0.0152499825,0.02747272,0.43248594,-0.46847597,-0.7703805,-0.13855726,-0.87880373,0.4566242,-0.89093095,-0.090741694,-0.44498116,,0.060970895,0.013445137,0.015158892,0.028092705,-0.5164609,0.85584974,-0.21605408,0.8328123,0.5096509,-0.9759772,-0.1992273,-0.088187605,,0.08362326,1.2907704,0.42627263,0.9937989,0.08374024,-0.0731524,0.013481963,-0.74378574,-0.6682821,-0.11037182,0.6631518,-0.74030244,,-0.08266001,0.24669567,-0.11729936,-0.3432647,0.48139742,0.8064898,-0.72686726,-0.67996466,0.096498884,0.5948389,-0.5530864,0.5833199,,-0.057857223,0.41538727,-0.34000838,0.13616173,0.4973706,-0.85678613,-0.8627727,0.48459318,0.14419675,0.48691195,0.7195776,0.49510083,,1.182535748632754,0.3726295839142068,0.20561492722000002,-1.2984001300561747,0.6283912624212606,0.5091450638381698,-0.40983026193090644,,-1.2539478595207079,0.15314179289587201,0.19739126346000002,0.8341465951814379,0.8325261930708286,-0.5031783171799462,0.8714405928263798,,-0.0686699794197169,-0.04953898915629405,0.0911007994,-0.09256525236364105,,3.3453107e-06,4.5895576e-06,3.5762787e-06,0.99999994,-6.221235e-06,-5.5655837e-06,6.213784e-06,1.0,-9.536743e-07,5.5655837e-06,9.23872e-07,1.0,190,0.576,0,0,0.0,False,-0.25540970673458663,1.0452180494893553
0.5756484579760581,14:47:47.994790,14:46:28.079824,0,,0.09084803,0.0153975785,0.027697012,0.4295241,-0.46720934,-0.772803,-0.1393224,-0.87980294,0.4544623,-0.8922435,-0.08753371,-0.44298938,,0.060959682,0.013460992,0.015175045,0.030609433,-0.51584226,0.8561365,-0.21452495,0.833187,0.50968456,-0.97623885,-0.19926375,-0.08515766,,0.08362326,1.2907704,0.42627263,0.9937989,0.08374024,-0.0731524,0.013481963,-0.74378574,-0.6682821,-0.11037182,0.6631518,-0.74030244,,-0.0828657,0.2469418,-0.11735399,-0.34018433,0.4798337,0.80872387,-0.7281021,-0.6786576,0.09639119,0.5950983,-0.55604273,0.58023655,,-0.05784952,0.41541132,-0.340008,0.13364103,0.49674663,-0.85754466,-0.86233014,0.48472154,0.14639601,0.4883921,0.71992207,0.49313828,,1.1826052532286218,0.3740428440301899,0.20550863144000003,-1.2935772613560306,0.6290744449200878,0.5159390609323384,-0.4095035737986381,,-1.2539478595207079,0.15314951562874626,0.19739774491,0.8320496957465926,0.835122286566372,-0.5054586148304594,0.8717672809586483,,-0.0686699794197169,-0.04953898915629405,0.0911007994,-0.09256525236364105,,3.3453107e-06,4.5895576e-06,3.5762787e-06,0.99999994,-6.221235e-06,-5.5655837e-06,6.213784e-06,1.0,-9.536743e-07,5.5655837e-06,9.23872e-07,1.0,198,0.6,0,0,0.0,False,-0.2548735072678969,1.04570085149715
0.6231156711000949,14:47:48.019803,14:46:28.079824,0,,0.0910418,0.015586361,0.027908847,0.42684782,-0.46859995,-0.7734435,-0.13905185,-0.87911177,0.4558804,-0.89356905,-0.08704275,-0.44040677,,0.060961418,0.013462065,0.015168488,0.030603688,-0.51640034,0.8558002,-0.21453395,0.8328534,0.5102257,-0.97623694,-0.19921297,-0.08529705,,0.08362326,1.2907704,0.42627263,0.9937989,0.08374024,-0.0731524,0.013481963,-0.74378574,-0.6682821,-0.11037182,0.6631518,-0.74030244,,-0.0830804,0.24720952,-0.117371134,-0.33739442,0.48116526,0.80910134,-0.7285968,-0.67771983,0.099209756,0.5960803,-0.5560358,0.57923436,,-0.057850257,0.41540694,-0.34000275,0.13364688,0.49730647,-0.8572192,-0.8623339,0.48462173,0.14670376,0.4883838,0.7196027,0.4936124,,1.1826670350916157,0.3756182815365317,0.20543992807000003,-1.2895931524298248,0.6304408099177423,0.5183370677214184,-0.40934022973250384,,-1.2539401367878336,0.15314179289587201,0.19740422636000002,0.8320496957465926,0.835122286566372,-0.5048051849093349,0.8717672809586483,,-0.0686699794197169,-0.04953898915629405,0.0911007994,-0.09256525236364105,,3.3453107e-06,4.5895576e-06,3.5762787e-06,0.99999994,-6.221235e-06,-5.5655837e-06,6.213784e-06,1.0,-9.536743e-07,5.5655837e-06,9.23872e-07,1.0,210,0.637,0,0,0.0,False,-0.2546351963938136,1.0462319337057238
0.648053860059008,14:47:48.058576,14:46:28.229395,0,,0.09133381,0.015908174,0.028188601,0.4284484,-0.46702892,-0.7735087,-0.13925678,-0.87996423,0.4541699,-0.89277077,-0.08687198,-0.44205633,,0.06095977,0.013467131,0.01517719,0.03165987,-0.5158876,0.856071,-0.21328545,0.8332851,0.5100442,-0.97647685,-0.19873539,-0.083649665,,0.08362326,1.2907704,0.42627263,0.9937989,0.08374024,-0.0731524,0.013481963,-0.74378574,-0.6682821,-0.11037182,0.6631518,-0.74030244,,-0.08340041,0.24761434,-0.117342815,-0.3390632,0.47959128,0.8093382,-0.72832924,-0.6783491,0.096845396,0.59546006,-0.556628,0.57930356,,-0.05785026,0.41541696,-0.34000483,0.1325779,0.49670368,-0.85773456,-0.8618409,0.48518065,0.14774962,0.489544,0.7196424,0.49240378,,1.1828678261463454,0.3782362879808938,0.20536992841,-1.2895931524298248,0.6283912624212606,0.5220503047803786,-0.40917688566636934,,-1.2539324140549595,0.1531340701629978,0.19740941152000002,0.8316303158596237,0.8367619245635572,-0.5057338060529891,0.8725840012893198,,-0.0686699794197169,-0.04953898915629405,0.0911007994,-0.09256525236364105,,3.3453107e-06,4.5895576e-06,3.5762787e-06,0.99999994,-6.221235e-06,-5.5655837e-06,6.213784e-06,1.0,-9.536743e-07,5.5655837e-06,9.23872e-07,1.0,218,0.661,0,0,0.0,False,-0.2545756186752919,1.0464733347096211
0.6868530008941889,14:47:48.086248,14:46:28.229395,0,,0.091477625,0.016074449,0.028326198,0.4275382,-0.46895057,-0.77284956,-0.14145952,-0.87909824,0.45516527,-0.89286083,-0.08527359,-0.44218564,,0.060952567,0.013477949,0.015180588,0.03305497,-0.5159109,0.8560042,-0.21282253,0.83319604,0.51038283,-0.9765316,-0.19904765,-0.08225624,,0.08362326,1.2907704,0.42627263,0.9937989,0.08374024,-0.0731524,0.013481963,-0.74378574,-0.6682821,-0.11037182,0.6631518,-0.74030244,,-0.08355807,0.24781936,-0.117323495,-0.3381326,0.481343,0.8086874,-0.72996056,-0.6765063,0.09745188,0.59398985,-0.5573582,0.5801102,,-0.057844244,0.41542768,-0.33999944,0.13118644,0.49678016,-0.8579042,-0.86178476,0.48489633,0.14900546,0.49001756,0.7197812,0.49172938,,1.1830454490024527,0.379479647973644,0.20533622487000003,-1.2864478032775568,0.6264783514245444,0.5236918341722692,-0.40901354160023495,,-1.2539324140549595,0.15314179289587201,0.19741589297,0.8301624862552319,0.8378550165616808,-0.5067885067628417,0.8725840012893197,,-0.0686699794197169,-0.04953898915629405,0.0911007994,-0.09256525236364105,,3.3453107e-06,4.5895576e-06,3.5762787e-06,0.99999994,-6.221235e-06,-5.5655837e-06,6.213784e-06,1.0,-9.536743e-07,5.5655837e-06,9.23872e-07,1.0,226,0.686,0,0,0.0,False,-0.25397984149008224,1.0464733347096211
0.7145754559896886,14:47:48.106721,14:46:28.229395,0,,0.09162502,0.016267307,0.028490975,0.4279647,-0.46948802,-0.7722869,-0.14259326,-0.87886554,0.45526078,-0.8924761,-0.084712565,-0.44306937,,0.0609535,0.013478247,0.015179038,0.032994654,-0.5159004,0.8560128,-0.21264145,0.83324665,0.51037586,-0.9765731,-0.19886348,-0.08220917,,0.08362326,1.2907704,0.42627263,0.9937989,0.08374024,-0.0731524,0.013481963,-0.74378574,-0.6682821,-0.11037182,0.6631518,-0.74030244,,-0.08372211,0.24806197,-0.11730623,-0.33858612,0.48182198,0.8082122,-0.73057574,-0.67592204,0.09689444,0.5929743,-0.5576531,0.58086526,,-0.057844944,0.41542664,-0.33999816,0.13124302,0.4967383,-0.85791975,-0.8616859,0.48506323,0.14903402,0.49017623,0.71969765,0.49169356,,1.1833157446530504,0.3809392444868724,0.20529733617,-1.2853993535601342,0.6245654404278282,0.5251700060838784,-0.4088501975341008,,-1.2539246913220852,0.15314179289587201,0.19741848555000002,0.8303721761987164,0.8379916530614462,-0.5066548884461164,0.8724206572231855,,-0.0686699794197169,-0.04953898915629405,0.0911007994,-0.09256525236364105,,3.3453107e-06,4.5895576e-06,3.5762787e-06,0.99999994,-6.221235e-06,-5.5655837e-06,6.213784e-06,1.0,-9.536743e-07,5.5655837e-06,9.23872e-07,1.0,237,0.72,0,0,0.0,False,-0.25386068605304013,1.0468112961150775
0.7350146360695362,14:47:48.137991,14:46:28.229395,0,,0.091843784,0.01654981,0.028735176,0.4244399,-0.4746988,-0.77104586,-0.14692631,-0.876377,0.45866758,-0.8934559,-0.081389815,-0.44171527,,0.060954433,0.01347935,0.015176892,0.032994654,-0.51618004,0.85584426,-0.21264145,0.8330798,0.51064813,-0.9765731,-0.1988366,-0.08227411,,0.08362326,1.2907704,0.42627263,0.9937989,0.08374024,-0.0731524,0.013481963,-0.74378574,-0.6682821,-0.11037182,0.6631518,-0.74030244,,-0.083965495,0.24841908,-0.11728287,-0.33495188,0.4866688,0.80682135,-0.734198,-0.671495,0.100238636,0.59055954,-0.5587915,0.5822298,,-0.057845574,0.41542563,-0.33999586,0.13124302,0.49701858,-0.85775745,-0.8616859,0.4850145,0.1491925,0.49017623,0.71953696,0.49192867,,1.1837559404268814,0.3829317095684223,0.20523900312,-1.2776408256512068,0.6218327104325195,0.5275617216380879,-0.4088501975341008,,-1.2539246913220852,0.15314179289587201,0.19742107813,0.8303721761987164,0.8379916530614462,-0.5063281734855541,0.8730740334877226,,-0.0686699794197169,-0.04953898915629405,0.0911007994,-0.09256525236364105,,3.3453107e-06,4.5895576e-06,3.5762787e-06,0.99999994,-6.221235e-06,-5.5655837e-06,6.213784e-06,1.0,-9.536743e-07,5.5655837e-06,9.23872e-07,1.0,245,0.743,0,0,0.0,False,-0.254694774112334,1.0459422525010473
0.766313724918291,14:47:48.167750,14:46:28.229395,0,,0.09199396,0.016789898,0.028961077,0.42528668,-0.4714769,-0.77255464,-0.14772347,-0.8783101,0.45469674,-0.8929217,-0.079252005,-0.4431819,,0.060947325,0.013492523,0.015192509,0.03519651,-0.51595646,0.85589135,-0.21108371,0.8332629,0.5109956,-0.9768342,-0.19864994,-0.07958208,,0.08362326,1.2907704,0.42627263,0.9937989,0.08374024,-0.0731524,0.013481963,-0.74378574,-0.6682821,-0.11037182,0.6631518,-0.74030244,,-0.08413856,0.24873728,-0.117278956,-0.33584058,0.48326924,0.8084936,-0.7344931,-0.6717315,0.09641953,0.58968717,-0.5614514,0.58055264,,-0.057841696,0.4154469,-0.3399968,0.12903132,0.49675938,-0.858243,-0.8611763,0.48523894,0.15138867,0.49165666,0.7195647,0.49040842,,1.1842733635294542,0.3847156608623682,0.20518067007000002,-1.277221445764238,0.6196465264362724,0.5335100238443995,-0.4099936059970408,,-1.2539324140549595,0.15314179289587201,0.19742755958000002,0.8286946566508403,0.8404511100572242,-0.5078436233112462,0.8724206572231855,,-0.0686699794197169,-0.04953898915629405,0.0911007994,-0.09256525236364105,,3.3453107e-06,4.5895576e-06,3.5762787e-06,0.99999994,-6.221235e-06,-5.5655837e-06,6.213784e-06,1.0,-9.536743e-07,5.5655837e-06,9.23872e-07,1.0,257,0.78,0,0,0.0,False,-0.25403941920860307,1.0456525712963705
0.7959664070513099,14:47:48.198184,14:46:28.229395,0,,0.09213573,0.017028049,0.029224142,0.42230323,-0.4733008,-0.7730758,-0.1486839,-0.87747407,0.45599595,-0.8941773,-0.0776245,-0.44093248,,0.060947068,0.013493268,0.015189648,0.03518971,-0.51602864,0.85584813,-0.21108627,0.83322006,0.51106435,-0.9768338,-0.19864196,-0.07960579,,0.08362326,1.2907704,0.42627263,0.9937989,0.08374024,-0.0731524,0.013481963,-0.74378574,-0.6682821,-0.11037182,0.6631518,-0.74030244,,-0.08430682,0.24907942,-0.11730438,-0.3327428,0.4849211,0.8087854,-0.7358335,-0.66989845,0.098919414,0.58977216,-0.5622167,0.5797251,,-0.057841025,0.4154453,-0.3399944,0.12903811,0.4968315,-0.85820025,-0.8611768,0.4852273,0.15142338,0.4916541,0.7195227,0.49047256,,1.1848680139607697,0.38641466209469755,0.20510418896000002,-1.2723985770640938,0.6195098899365069,0.5365618763931561,-0.4086868534679665,,-1.2539246913220852,0.15314179289587201,0.19743015216,0.8286946566508403,0.8404511100572242,-0.5077619445711057,0.8719306250247827,,-0.0686699794197169,-0.04953898915629405,0.0911007994,-0.09256525236364105,,3.3453107e-06,4.5895576e-06,3.5762787e-06,0.99999994,-6.221235e-06,-5.5655837e-06,6.213784e-06,1.0,-9.536743e-07,5.5655837e-06,9.23872e-07,1.0,265,0.805,0,0,0.0,False,-0.25397984149008224,1.0453146098909143
0.8264624429866672,14:47:48.226929,14:46:28.229395,0,,0.0922845,0.017259933,0.029502437,0.42177215,-0.471997,-0.7741622,-0.15125293,-0.8784846,0.45319676,-0.89399713,-0.07405144,-0.44191137,,0.060947277,0.0134945195,0.015185654,0.03518288,-0.5160309,0.85584706,-0.21108887,0.83321905,0.51106495,-0.9768335,-0.19864047,-0.0796133,,0.08362326,1.2907704,0.42627263,0.9937989,0.08374024,-0.0731524,0.013481963,-0.74378574,-0.6682821,-0.11037182,0.6631518,-0.74030244,,-0.08448348,0.24942656,-0.11734482,-0.33221307,0.4832851,0.80998147,-0.7375832,-0.66835916,0.09626545,0.58788216,-0.5654481,0.5785006,,-0.05784067,0.41544318,-0.3399908,0.12904492,0.49683353,-0.85819805,-0.8611772,0.48522803,0.15141846,0.4916515,0.7195208,0.49047792,,1.1855553371865757,0.3882295043201403,0.20499659689000002,-1.2694629178553105,0.6163672504419018,0.5427183527443586,-0.40803347720342964,,-1.2539169685892109,0.15314179289587201,0.19743404103,0.8286946566508403,0.8404511100572242,-0.5077619445711057,0.8719306250247827,,-0.0686699794197169,-0.04953898915629405,0.0911007994,-0.09256525236364105,,3.3453107e-06,4.5895576e-06,3.5762787e-06,0.99999994,-6.221235e-06,-5.5655837e-06,6.213784e-06,1.0,-9.536743e-07,5.5655837e-06,9.23872e-07,1.0,284,0.862,0,0,0.0,False,-0.2540989969271239,1.0458456920994883
0.8552448719274253,14:47:48.277807,14:46:28.420301,0,,0.09252334,0.017600775,0.029961899,0.41886386,-0.47288948,-0.7751958,-0.15411064,-0.87833005,0.452533,-0.894876,-0.07008371,-0.44077814,,0.06094973,0.013495384,0.015180886,0.035183977,-0.5160274,0.85584915,-0.21109533,0.83321965,0.51106125,-0.97683203,-0.19864687,-0.079615,,0.08362326,1.2907704,0.42627263,0.9937989,0.08374024,-0.0731524,0.013481963,-0.74378574,-0.6682821,-0.11037182,0.6631518,-0.74030244,,-0.0847681,0.24996898,-0.117440134,-0.3292128,0.48378846,0.81090546,-0.7400862,-0.66553795,0.09660033,0.5864225,-0.56833786,0.5771488,,-0.057842392,0.4154399,-0.33998683,0.12904397,0.4968311,-0.8581996,-0.8611806,0.48522323,0.15141445,0.49164578,0.71952575,0.49047643,,1.1865361242616022,0.39100196542198695,0.20480863484000003,-1.2631722195507746,0.6137711569463585,0.5494909811026025,-0.4088501975341009,,-1.2539169685892109,0.1531340701629978,0.19743922619,0.8286946566508403,0.8404511100572242,-0.5077619445711057,0.8719306250247827,,-0.0686699794197169,-0.04953898915629405,0.0911007994,-0.09256525236364105,,3.3453107e-06,4.5895576e-06,3.5762787e-06,0.99999994,-6.221235e-06,-5.5655837e-06,6.213784e-06,1.0,-9.536743e-07,5.5655837e-06,9.23872e-07,1.0,288,0.874,0,0,0.0,False,-0.254694774112334,1.045411170292473
0.9061318980529904,14:47:48.300540,14:46:28.420301,0,,0.0926771,0.0178205,0.0302784,0.41650298,-0.47543776,-0.77490914,-0.1548234,-0.87700164,0.45486015,-0.89585435,-0.069476396,-0.43888283,,0.06095171,0.013498602,0.01517874,0.03518971,-0.51602864,0.85584813,-0.21108627,0.83322006,0.51106435,-0.9768338,-0.19864196,-0.07960579,,0.08362326,1.2907704,0.42627263,0.9937989,0.08374024,-0.0731524,0.013481963,-0.74378574,-0.6682821,-0.11037182,0.6631518,-0.74030244,,-0.08495335,0.2503322,-0.117516644,-0.32676327,0.48625636,0.81042,-0.7411016,-0.6639684,0.099570684,0.5865101,-0.56806755,0.5773259,,-0.057844177,0.41544017,-0.3399829,0.12903811,0.4968315,-0.85820025,-0.8611768,0.4852273,0.15142338,0.4916541,0.7195227,0.49047256,,1.1871693883572885,0.3928245303803039,0.20467900584,-1.2591881106245688,0.6133612474470621,0.5508870584355192,-0.4090135416002354,,-1.2539246913220852,0.15314179289587201,0.19744311506,0.8286946566508403,0.8404511100572242,-0.5077619445711057,0.8719306250247827,,-0.0686699794197169,-0.04953898915629405,0.0911007994,-0.09256525236364105,,3.3453107e-06,4.5895576e-06,3.5762787e-06,0.99999994,-6.221235e-06,-5.5655837e-06,6.213784e-06,1.0,-9.536743e-07,5.5655837e-06,9.23872e-07,1.0,300,0.911,0,0,0.0,False,-0.25481392954937654,1.0446869672807815
0.9288658420555294,14:47:48.336175,14:46:28.420301,0,,0.0928494,0.018031843,0.03054513,0.41112453,-0.47988987,-0.775037,-0.15921146,-0.8749463,0.457297,-0.8975681,-0.06461117,-0.43611592,,0.060954273,0.01350054,0.015176237,0.03519651,-0.51623607,0.85572267,-0.21108371,0.83309585,0.5112679,-0.9768342,-0.1986239,-0.07964699,,0.08362326,1.2907704,0.42627263,0.9937989,0.08374024,-0.0731524,0.013481963,-0.74378574,-0.6682821,-0.11037182,0.6631518,-0.74030244,,-0.08515217,0.25065473,-0.11756071,-0.32121268,0.490202,0.81026196,-0.7451236,-0.65888834,0.10323232,0.5844768,-0.5705858,0.57690436,,-0.05784642,0.41543922,-0.33997962,0.12903132,0.49703974,-0.8580806,-0.8611763,0.48518944,0.15154721,0.49165666,0.7194044,0.4906435,,1.1876945341927359,0.39444630428389105,0.20457400635000003,-1.2497520631677652,0.611448336450346,0.5553056649921888,-0.4081968212695639,,-1.2539324140549595,0.15314179289587201,0.19744700393000003,0.8286946566508403,0.8404511100572242,-0.5075169083506839,0.8717672809586483,,-0.0686699794197169,-0.04953898915629405,0.0911007994,-0.09256525236364105,,3.3453107e-06,4.5895576e-06,3.5762787e-06,0.99999994,-6.221235e-06,-5.5655837e-06,6.213784e-06,1.0,-9.536743e-07,5.5655837e-06,9.23872e-07,1.0,308,0.936,0,0,0.0,False,-0.2545756186752919,1.0451214890877965
0.9645022090990096,14:47:48.358431,14:46:28.420301,0,,0.09296056,0.01816687,0.03072451,0.40828052,-0.4788785,-0.77716297,-0.15942818,-0.8756746,0.45582494,-0.89882684,-0.062202692,-0.43386775,,0.060955174,0.013501851,0.015175283,0.035264406,-0.516213,0.8557339,-0.2109673,0.83312505,0.5112683,-0.9768568,-0.1985614,-0.07952444,,0.08362326,1.2907704,0.42627263,0.9937989,0.08374024,-0.0731524,0.013481963,-0.74378574,-0.6682821,-0.11037182,0.6631518,-0.74030244,,-0.08528113,0.2508667,-0.11759541,-0.31825876,0.4889677,0.81217116,-0.7459238,-0.6578951,0.103786804,0.5850718,-0.57278675,0.5741135,,-0.057847213,0.41543925,-0.33997792,0.12896186,0.49700567,-0.85811085,-0.861126,0.48525113,0.1516356,0.49176303,0.71938634,0.4905634,,1.1879493843775852,0.3955352096191567,0.20451048814000003,-1.2457679542415592,0.6122681554489386,0.5605997056002713,-0.4093402297325037,,-1.2539324140549595,0.15314179289587201,0.19744959651000002,0.8286946566508403,0.8405877465569896,-0.5075466475142398,0.8716039368925141,,-0.0686699794197169,-0.04953898915629405,0.0911007994,-0.09256525236364105,,3.3453107e-06,4.5895576e-06,3.5762787e-06,0.99999994,-6.221235e-06,-5.5655837e-06,6.213784e-06,1.0,-9.536743e-07,5.5655837e-06,9.23872e-07,1.0,316,0.96,0,0,0.0,False,-0.2545756186752919,1.045073208887017
0.9867262509651482,14:47:48.380205,14:46:28.420301,0,,0.093085445,0.018315554,0.03093423,0.4027546,-0.47969157,-0.7795414,-0.1588405,-0.8753782,0.45659894,-0.9014203,-0.06007451,-0.42875716,,0.060955316,0.013506232,0.015173972,0.03533015,-0.51612693,0.8557831,-0.21083796,0.8331948,0.51120806,-0.9768824,-0.19849259,-0.07938227,,0.08362326,1.2907704,0.42627263,0.9937989,0.08374024,-0.0731524,0.013481963,-0.74378574,-0.6682821,-0.11037182,0.6631518,-0.74030244,,-0.085426785,0.25110805,-0.11764248,-0.31251228,0.4895689,0.81403834,-0.746828,-0.6561999,0.10793364,0.58701277,-0.574216,0.57069427,,-0.057847388,0.41544122,-0.33997384,0.1288943,0.4969064,-0.8581785,-0.86106884,0.4853348,0.15169235,0.4918808,0.71939844,0.4904275,,1.1881887890966862,0.3966858968174162,0.20444178477000002,-1.2390578760500544,0.6152741584437783,0.5654995983316007,-0.4083601653356983,,-1.2539324140549595,0.15315723836162048,0.19745348538000002,0.8286946566508403,0.8407243830567551,-0.5076580654179363,0.8712772487602456,,-0.0686699794197169,-0.04953898915629405,0.0911007994,-0.09256525236364105,,3.3453107e-06,4.5895576e-06,3.5762787e-06,0.99999994,-6.221235e-06,-5.5655837e-06,6.213784e-06,1.0,-9.536743e-07,5.5655837e-06,9.23872e-07,1.0,340,1.034,0,0,0.0,False,-0.254218152364166,1.045411170292473
1.0085043790750206,14:47:48.450241,14:46:28.420301,0,,0.09362689,0.018858023,0.0315295,0.39385197,-0.47973186,-0.7840522,-0.15604231,-0.8755114,0.45730776,-0.90583193,-0.05776617,-0.4196805,,0.060956046,0.01352009,0.015163839,0.03538474,-0.5159871,0.8558651,-0.21068525,0.83330274,0.51109505,-0.9769134,-0.19840312,-0.07922472,,0.08362326,1.2907704,0.42627263,0.9937989,0.08374024,-0.0731524,0.013481963,-0.74378574,-0.6682821,-0.11037182,0.6631518,-0.74030244,,-0.08602718,0.25186944,-0.117682874,-0.30324513,0.4893867,0.81764483,-0.74706596,-0.6547578,0.11482449,0.5915529,-0.57601464,0.5641563,,-0.057847247,0.41544288,-0.33995673,0.12883739,0.49674886,-0.8582782,-0.86099845,0.48545086,0.15172046,0.49201888,0.71942896,0.49024424,,1.1883664119527932,0.40128092287757977,0.20428882255000003,-1.2275249291584056,0.6210128914339268,0.5767474007037605,-0.40917688566636967,,-1.2539246913220852,0.1532035747588658,0.19746904086000003,0.8286946566508403,0.8408610195565206,-0.5078511620617734,0.8714405928263798,,-0.0686699794197169,-0.04953898915629405,0.0911007994,-0.09256525236364105,,3.3453107e-06,4.5895576e-06,3.5762787e-06,0.99999994,-6.221235e-06,-5.5655837e-06,6.213784e-06,1.0,-9.536743e-07,5.5655837e-06,9.23872e-07,1.0,348,1.059,0,0,0.0,False,-0.25451604095677105,1.0453628900916938
1.0785645740106702,14:47:48.481068,14:46:28.637147,0,,0.093900174,0.019135289,0.03173192,0.39535117,-0.48001534,-0.7831236,-0.15441668,-0.8751826,0.45848736,-0.9054574,-0.060336024,-0.42012703,,0.060956694,0.0135276,0.015161872,0.0353872,-0.5160686,0.8558159,-0.21065679,0.83325946,0.5111773,-0.9769194,-0.19837251,-0.07922664,,0.08362326,1.2907704,0.42627263,0.9937989,0.08374024,-0.0731524,0.013481963,-0.74378574,-0.6682821,-0.11037182,0.6631518,-0.74030244,,-0.086320765,0.25219095,-0.117628455,-0.30478528,0.48991507,0.81675524,-0.7457148,-0.6562063,0.115337454,0.5924655,-0.57391334,0.56533897,,-0.057847954,0.4154463,-0.33994973,0.12883443,0.49682674,-0.8582336,-0.8609844,0.48545694,0.15178101,0.4920443,0.7193711,0.49030364,,1.188289184624051,0.40342011988373994,0.20427845223000002,-1.2283636889323437,0.6210128914339268,0.5764206857431982,-0.4095035737986381,,-1.2539324140549595,0.15323446569036273,0.19747422602000003,0.8286946566508403,0.8408610195565206,-0.5077694833216329,0.8716039368925141,,-0.0686699794197169,-0.04953898915629405,0.0911007994,-0.09256525236364105,,3.3453107e-06,4.5895576e-06,3.5762787e-06,0.99999994,-6.221235e-06,-5.5655837e-06,6.213784e-06,1.0,-9.536743e-07,5.5655837e-06,9.23872e-07,1.0,356,1.083,0,0,0.0,False,-0.25481392954937654,1.0457491316979295
1.1093887689057738,14:47:48.506566,14:46:28.637147,0,,0.09419301,0.0194266,0.031916574,0.3954728,-0.48382518,-0.78071404,-0.1519391,-0.87275934,0.46390244,-0.90582335,-0.06483972,-0.41866463,,0.06095688,0.013531713,0.015159428,0.035385046,-0.51607555,0.8558118,-0.2106438,0.8332583,0.51118463,-0.9769223,-0.1983597,-0.079223275,,0.08362326,1.2907704,0.42627263,0.9937989,0.08374024,-0.0731524,0.013481963,-0.74378574,-0.6682821,-0.11037182,0.6631518,-0.74030244,,-0.08663219,0.2525097,-0.1175502,-0.3048888,0.49412504,0.81417644,-0.744128,-0.65714115,0.12016268,0.5944042,-0.5692152,0.5680472,,-0.057847973,0.4154472,-0.33994502,0.12883633,0.49683166,-0.8582305,-0.86097753,0.48546654,0.151789,0.49205574,0.7193612,0.49030662,,1.1880575026378244,0.40569832608163614,0.20429660029000002,-1.228153998988859,0.622652529431112,0.5723065937340621,-0.40852350940183224,,-1.2539324140549595,0.15324991115611117,0.19747811489000003,0.8286946566508403,0.8408610195565206,-0.5077694833216329,0.8716039368925141,,-0.0686699794197169,-0.04953898915629405,0.0911007994,-0.09256525236364105,,3.3453107e-06,4.5895576e-06,3.5762787e-06,0.99999994,-6.221235e-06,-5.5655837e-06,6.213784e-06,1.0,-9.536743e-07,5.5655837e-06,9.23872e-07,1.0,364,1.108,0,0,0.0,False,-0.2537415306159976,1.0455560108948116
1.1348658800125122,14:47:48.530410,14:46:28.637147,0,,0.094370976,0.019591242,0.03199263,0.39600042,-0.48458162,-0.779977,-0.15122733,-0.8722348,0.4651199,-0.9057119,-0.066233695,-0.41868752,,0.060957298,0.013532547,0.015159547,0.03545293,-0.51598257,0.85586506,-0.21052742,0.8333292,0.511117,-0.976945,-0.19830361,-0.079084545,,0.08362326,1.2907704,0.42627263,0.9937989,0.08374024,-0.0731524,0.013481963,-0.74378574,-0.6682821,-0.11037182,0.6631518,-0.74030244,,-0.08681786,0.25267014,-0.11748419,-0.30542988,0.49500898,0.8134363,-0.7435624,-0.6576276,0.12099949,0.594834,-0.56788385,0.5689292,,-0.057848446,0.41544777,-0.33994448,0.12876688,0.49672747,-0.85830116,-0.86092716,0.48554066,0.1518377,0.49216208,0.7193831,0.49016774,,1.1878335433844718,0.4069725770058832,0.20432382238000002,-1.228153998988859,0.6227891659308775,0.5718684608698035,-0.40917688566636934,,-1.2539324140549595,0.15324991115611117,0.19747941118,0.8286946566508403,0.840997656056286,-0.5078809012253291,0.8719306250247827,,-0.0686699794197169,-0.04953898915629405,0.0911007994,-0.09256525236364105,,3.3453107e-06,4.5895576e-06,3.5762787e-06,0.99999994,-6.221235e-06,-5.5655837e-06,6.213784e-06,1.0,-9.536743e-07,5.5655837e-06,9.23872e-07,1.0,372,1.132,0,0,0.0,False,-0.2540989969271239,1.045169769288576
1.158736920915544,14:47:48.553820,14:46:28.637147,0,,0.09463164,0.019843437,0.032031253,0.396272,-0.48607597,-0.7789086,-0.15117177,-0.87132543,0.46683934,-0.90560234,-0.06724632,-0.4187629,,0.06091631,0.0135368565,0.015133858,0.035308413,-0.5159808,0.8558721,-0.21040416,0.83337283,0.51109666,-0.9769767,-0.198125,-0.0791394,,0.083629884,1.2907704,0.42626968,0.9937987,0.08375326,-0.0731407,0.013499351,-0.7437843,-0.6682834,-0.11037182,0.6631518,-0.74030244,,-0.08709168,0.25286523,-0.11732852,-0.30570844,0.4966027,0.8123596,-0.74347234,-0.65751487,0.122160085,0.5948036,-0.5666215,0.5702182,,-0.057812583,0.41543925,-0.3399285,0.12891343,0.4966809,-0.8583061,-0.8608461,0.48570526,0.15177089,0.4922655,0.7193042,0.49017975,,1.1872157247545339,0.4087642510327033,0.2044119701,-1.226895859327952,0.622652529431112,0.5719798787734998,-0.408850197534101,,-1.2539246913220852,0.1532576338889854,0.19748070747000002,0.8289043465943249,0.840997656056286,-0.5077175437450481,0.8716039368925141,,-0.0686699794197169,-0.04953898915629405,0.0911007994,-0.09256525236364105,,1.02594495e-05,3.2782555e-06,5.2452087e-06,0.99999994,6.735325e-06,6.0349703e-06,-6.7427754e-06,1.0,1.013279e-06,-6.042421e-06,-9.834766e-07,1.0,384,1.169,0,0,0.0,False,-0.2537415306159976,1.04478352768234
1.1821190530899912,14:47:48.589555,14:46:28.637147,0,,0.09492776,0.02003637,0.03200774,0.39215603,-0.49080136,-0.77802795,-0.15111226,-0.8686565,0.47180587,-0.90740216,-0.067451864,-0.4148151,,0.060917497,0.013537184,0.015134573,0.03531523,-0.5159785,0.85587317,-0.2104016,0.83337384,0.51109606,-0.976977,-0.19812647,-0.0791319,,0.083629884,1.2907704,0.42626968,0.9937987,0.08375326,-0.0731407,0.013499351,-0.7437843,-0.6682834,-0.11037182,0.6631518,-0.74030244,,-0.08738553,0.252972,-0.117162034,-0.3014382,0.5013064,0.81106526,-0.7443387,-0.65533906,0.12841573,0.5958984,-0.56499785,0.570686,,-0.057813883,0.4154398,-0.33992866,0.12890662,0.49667886,-0.8583083,-0.8608456,0.4857045,0.15177582,0.49226806,0.7193061,0.49017438,,1.1862658286110042,0.4100771156213215,0.20453511765000001,-1.2206051610234163,0.6252486229266555,0.5716598708863602,-0.4095035737986382,,-1.2539324140549595,0.1532576338889854,0.19748070747000002,0.8289043465943249,0.840997656056286,-0.5077175437450481,0.8716039368925141,,-0.0686699794197169,-0.04953898915629405,0.0911007994,-0.09256525236364105,,1.02594495e-05,3.2782555e-06,5.2452087e-06,0.99999994,6.735325e-06,6.0349703e-06,-6.7427754e-06,1.0,1.013279e-06,-6.042421e-06,-9.834766e-07,1.0,392,1.194,0,0,0.0,False,-0.25397984149008224,1.045169769288576
1.2178502990864217,14:47:48.613813,14:46:28.637147,0,,0.09524913,0.02020619,0.03192182,0.38773343,-0.49062955,-0.7803495,-0.14924756,-0.86882067,0.4720972,-0.9096086,-0.0665825,-0.41009617,,0.0609214,0.013537691,0.0151334405,0.03532993,-0.51611036,0.85579306,-0.2104029,0.8332931,0.51122725,-0.97697616,-0.19812292,-0.079150915,,0.083629884,1.2907704,0.42626968,0.9937987,0.08375326,-0.0731407,0.013499351,-0.7437843,-0.6682834,-0.11037182,0.6631518,-0.74030244,,-0.08769831,0.25301826,-0.116963215,-0.29683656,0.5010525,0.81291723,-0.7441144,-0.6548937,0.13193935,0.5984829,-0.56573904,0.5672368,,-0.05781758,0.41543874,-0.3399273,0.12889206,0.49681255,-0.85823315,-0.8608482,0.48567343,0.15186103,0.4922675,0.71923476,0.49027961,,1.184914350358015,0.41122780281958093,0.20470104277,-1.2147338426058496,0.6300309004184459,0.5765815481921663,-0.40656338060822117,,-1.2539478595207079,0.15324991115611117,0.19748330005000003,0.8289043465943249,0.840997656056286,-0.507554186264767,0.8712772487602456,,-0.0686699794197169,-0.04953898915629405,0.0911007994,-0.09256525236364105,,1.02594495e-05,3.2782555e-06,5.2452087e-06,0.99999994,6.735325e-06,6.0349703e-06,-6.7427754e-06,1.0,1.013279e-06,-6.042421e-06,-9.834766e-07,1.0,421,1.284,0,0,0.0,False,-0.25302659799374494,1.045169769288576
1.2421368779614568,14:47:48.701587,14:46:28.795716,0,,0.0963667,0.020707905,0.031688467,0.37779146,-0.48639008,-0.78784406,-0.13773215,-0.87095916,0.4716566,-0.9155891,-0.06967628,-0.39603254,,0.06092867,0.013550089,0.015117586,0.035273418,-0.51596826,0.8558811,-0.21019998,0.8334259,0.5110941,-0.97702193,-0.19793415,-0.07905875,,0.083629884,1.2907704,0.42626968,0.9937987,0.08375326,-0.0731407,0.013499351,-0.7437843,-0.6682834,-0.11037182,0.6631518,-0.74030244,,-0.08879167,0.25315678,-0.11637967,-0.2864464,0.49714777,0.81901926,-0.7388537,-0.6588401,0.14150943,0.6099539,-0.5646005,0.55604184,,-0.057822913,0.41543424,-0.33990702,0.12894444,0.49663594,-0.8583275,-0.8607385,0.4858784,0.15182693,0.4924455,0.71921825,0.490125,,1.1800104149828825,0.4152590693799261,0.20518715152000003,-1.2029912057707162,0.6484768278867804,0.5898009752817837,-0.4075434450050267,,-1.2539478595207079,0.15327307935473383,0.19750533698000003,0.8291140365378092,0.8411342925560513,-0.5075839254283228,0.8717672809586483,,-0.0686699794197169,-0.04953898915629405,0.0911007994,-0.09256525236364105,,1.02594495e-05,3.2782555e-06,5.2452087e-06,0.99999994,6.735325e-06,6.0349703e-06,-6.7427754e-06,1.0,1.013279e-06,-6.042421e-06,-9.834766e-07,1.0,429,1.308,0,0,0.0,False,-0.25427773008268684,1.044976648485458
1.3298988870810717,14:47:48.731845,14:46:28.795716,0,,0.09710473,0.021117471,0.03164451,0.37999657,-0.49143726,-0.7836402,-0.13495806,-0.86757994,0.47863483,-0.9150896,-0.07612094,-0.39600086,,0.060932428,0.013560251,0.015105724,0.03527015,-0.51611847,0.8557907,-0.21018052,0.8333405,0.5112413,-0.97702616,-0.19790205,-0.079086006,,0.083629884,1.2907704,0.42626968,0.9937987,0.08375326,-0.0731407,0.013499351,-0.7437843,-0.6682834,-0.11037182,0.6631518,-0.74030244,,-0.08952493,0.25337973,-0.11602335,-0.28870952,0.50277007,0.8147816,-0.73661625,-0.6602719,0.14641573,0.61159086,-0.5579097,0.5609754,,-0.0578253,0.41543177,-0.33989134,0.12894732,0.4967835,-0.8582417,-0.86072826,0.48586798,0.15191828,0.49246264,0.71912336,0.49024698,,1.1775082495316336,0.4187497446390756,0.20542566888000002,-1.2029912057707162,0.6507996483827929,0.5843130063527598,-0.4088501975341008,,-1.2539478595207079,0.15329624755335652,0.19752089246,0.8291140365378092,0.8411342925560513,-0.5074205679480417,0.8717672809586483,,-0.0686699794197169,-0.04953898915629405,0.0911007994,-0.09256525236364105,,1.02594495e-05,3.2782555e-06,5.2452087e-06,0.99999994,6.735325e-06,6.0349703e-06,-6.7427754e-06,1.0,1.013279e-06,-6.042421e-06,-9.834766e-07,1.0,441,1.345,0,0,0.0,False,-0.2543373078012081,1.0455077306940321
1.3601380719337612,14:47:48.764461,14:46:28.795716,0,,0.09761116,0.02148141,0.031669155,0.3823528,-0.49454403,-0.78053343,-0.13366559,-0.8654359,0.4828604,-0.9142974,-0.08029246,-0.39700544,,0.060932703,0.013564543,0.015097082,0.03525545,-0.51619637,0.8557443,-0.21017921,0.83329606,0.51131433,-0.97702694,-0.19788623,-0.07911548,,0.083629884,1.2907704,0.42626968,0.9937987,0.08375326,-0.0731407,0.013499351,-0.7437843,-0.6682834,-0.11037182,0.6631518,-0.74030244,,-0.090033986,0.2536308,-0.115763806,-0.29114068,0.50625014,0.8117561,-0.7352943,-0.661242,0.14866509,0.6120289,-0.55359715,0.5647573,,-0.05782444,0.41542822,-0.3398824,0.12896189,0.49686012,-0.8581951,-0.86072576,0.48586187,0.1519521,0.4924632,0.7190746,0.49031794,,1.1761644940115186,0.4215762648710418,0.20559418658000003,-1.2036202756011698,0.6509362848825584,0.580934438843441,-0.409503573798638,,-1.2539324140549595,0.15330397028623075,0.19752996649000001,0.8291140365378092,0.8411342925560513,-0.507338889207901,0.8712772487602455,,-0.0686699794197169,-0.04953898915629405,0.0911007994,-0.09256525236364105,,1.02594495e-05,3.2782555e-06,5.2452087e-06,0.99999994,6.735325e-06,6.0349703e-06,-6.7427754e-06,1.0,1.013279e-06,-6.042421e-06,-9.834766e-07,1.0,449,1.37,0,0,0.0,False,-0.2539202637715605,1.04570085149715
1.3926994290668517,14:47:48.800963,14:46:28.957295,0,,0.0980591,0.021894805,0.031681105,0.3841368,-0.49701396,-0.7780848,-0.1323832,-0.86368525,0.4863356,-0.9137361,-0.083813936,-0.3975697,,0.060933955,0.01356797,0.015093148,0.03525435,-0.51619977,0.8557423,-0.2101728,0.8332954,0.511318,-0.9770284,-0.19787982,-0.07911384,,0.083629884,1.2907704,0.42626968,0.9937987,0.08375326,-0.0731407,0.013499351,-0.7437843,-0.6682834,-0.11037182,0.6631518,-0.74030244,,-0.09048397,0.2539142,-0.115465686,-0.29297984,0.50903636,0.80934834,-0.7340934,-0.6621157,0.15069707,0.6125926,-0.5499861,0.5676668,,-0.057825238,0.41542742,-0.33987716,0.12896284,0.49686256,-0.8581936,-0.86072236,0.48586667,0.1519561,0.49246892,0.71906966,0.49031946,,1.1751759842036178,0.4243410032400141,0.20581066701000003,-1.2038299655446543,0.6510729213823236,0.57869937369609,-0.40852350940183246,,-1.2539324140549595,0.15331169301910497,0.19753515165000002,0.8291140365378092,0.8411342925560513,-0.507338889207901,0.8712772487602455,,-0.0686699794197169,-0.04953898915629405,0.0911007994,-0.09256525236364105,,1.02594495e-05,3.2782555e-06,5.2452087e-06,0.99999994,6.735325e-06,6.0349703e-06,-6.7427754e-06,1.0,1.013279e-06,-6.042421e-06,-9.834766e-07,1.0,465,1.419,0,0,0.0,False,-0.25332448658635043,1.045604291095591
1.4292588829994202,14:47:48.835608,14:46:28.957295,0,,0.09857266,0.022437312,0.031716183,0.3848456,-0.501906,-0.77458644,-0.12935793,-0.8602698,0.49315554,-0.91387105,-0.089589775,-0.39599663,,0.060934845,0.013569311,0.015092194,0.035322286,-0.5161068,0.8557956,-0.2100563,0.8333664,0.51125026,-0.977051,-0.19782376,-0.07897511,,0.083629884,1.2907704,0.42626968,0.9937987,0.08375326,-0.0731407,0.013499351,-0.7437843,-0.6682834,-0.11037182,0.6631518,-0.74030244,,-0.09100243,0.25430426,-0.11509372,-0.29369417,0.5144392,0.80566496,-0.73198736,-0.66308576,0.15656243,0.6147668,-0.5437551,0.5713074,,-0.057826027,0.41542745,-0.3398755,0.12889335,0.49675837,-0.8582643,-0.86067194,0.48594072,0.15200475,0.49257523,0.7190916,0.49018052,,1.1741951971285913,0.4277312829717987,0.20609844339000002,-1.2032008957142009,0.6531224688788053,0.5738426342751617,-0.40803347720342953,,-1.2539324140549595,0.15331169301910497,0.19753774423,0.8291140365378092,0.8412709290558168,-0.5074503071115976,0.8712772487602455,,-0.0686699794197169,-0.04953898915629405,0.0911007994,-0.09256525236364105,,1.02594495e-05,3.2782555e-06,5.2452087e-06,0.99999994,6.735325e-06,6.0349703e-06,-6.7427754e-06,1.0,1.013279e-06,-6.042421e-06,-9.834766e-07,1.0,498,1.521,0,0,0.0,False,-0.25308617571226666,1.0449283682846786
1.4639000869356096,14:47:48.943662,14:46:29.101823,0,,0.09968175,0.023398608,0.031521454,0.37466288,-0.5156204,-0.7705604,-0.13781855,-0.8528354,0.5036643,-0.9168608,-0.082506776,-0.39058784,,0.060938098,0.013570801,0.01508975,0.035078887,-0.51585126,0.8559596,-0.20991567,0.8335768,0.5109649,-0.97709,-0.19760337,-0.07904431,,0.083629884,1.2907704,0.42626968,0.9937987,0.08375326,-0.0731407,0.013499351,-0.7437843,-0.6682834,-0.11037182,0.6631518,-0.74030244,,-0.09209442,0.25481027,-0.1142314,-0.28320894,0.52735,0.8010585,-0.73954564,-0.6518849,0.16768509,0.6106267,-0.5449294,0.574619,,-0.05782893,0.41542614,-0.3398725,0.12913221,0.49646097,-0.85840046,-0.8605704,0.48620325,0.15173987,0.49269003,0.71911955,0.49002412,,1.1714536269582416,0.4332375915111208,0.20676214387000003,-1.1807640717613566,0.650526375383262,0.5800435114524218,-0.40803347720342986,,-1.2539324140549595,0.1533194157519792,0.19754163310000003,0.8295334164247784,0.8412709290558168,-0.5074503071115976,0.8712772487602455,,-0.0686699794197169,-0.04953898915629405,0.0911007994,-0.09256525236364105,,1.02594495e-05,3.2782555e-06,5.2452087e-06,0.99999994,6.735325e-06,6.0349703e-06,-6.7427754e-06,1.0,1.013279e-06,-6.042421e-06,-9.834766e-07,1.0,506,1.546,0,0,0.0,False,-0.25278828711966117,1.045169769288576
1.5719771289732307,14:47:48.967234,14:46:29.101823,0,,0.09999597,0.02358611,0.031423822,0.37251374,-0.51776356,-0.77016515,-0.14125961,-0.8518603,0.5043607,-0.9172127,-0.07908803,-0.3904688,,0.060938098,0.013570801,0.01508975,0.035078887,-0.51599103,0.8558753,-0.20991567,0.83349335,0.511101,-0.97709,-0.1975905,-0.07907659,,0.083629884,1.2907704,0.42626968,0.9937987,0.08375326,-0.0731407,0.013499351,-0.7437843,-0.6682834,-0.11037182,0.6631518,-0.74030244,,-0.092399076,0.25486237,-0.11401255,-0.28101096,0.5291453,0.80064857,-0.7421838,-0.6487326,0.16825362,0.6084374,-0.54694724,0.575024,,-0.05782893,0.41542614,-0.3398725,0.12913221,0.4966012,-0.85831934,-0.8605704,0.48617846,0.15181929,0.49269003,0.7190395,0.49014157,,1.1704110580202214,0.4344423378394998,0.20692418012000002,-1.1748927533437898,0.6487501008863112,0.5836972701842705,-0.40656338060822117,,-1.2539324140549595,0.1533194157519792,0.19754163310000003,0.8295334164247784,0.8412709290558168,-0.5072869496313164,0.8709505606279769,,-0.0686699794197169,-0.04953898915629405,0.0911007994,-0.09256525236364105,,1.02594495e-05,3.2782555e-06,5.2452087e-06,0.99999994,6.735325e-06,6.0349703e-06,-6.7427754e-06,1.0,1.013279e-06,-6.042421e-06,-9.834766e-07,1.0,514,1.571,0,0,0.0,False,-0.25332448658635043,1.0459422525010473
1.5955615160055459,14:47:48.994668,14:46:29.101823,0,,0.100212604,0.023701087,0.031374082,0.36961848,-0.52058154,-0.7696603,-0.14305612,-0.85032505,0.5064407,-0.91810524,-0.07708511,-0.38876826,,0.060940474,0.013571487,0.015091181,0.035092503,-0.5159866,0.85587746,-0.20991051,0.8334954,0.51109976,-0.97709066,-0.19759339,-0.07906158,,0.083629884,1.2907704,0.42626968,0.9937987,0.08375326,-0.0731407,0.013499351,-0.7437843,-0.6682834,-0.11037182,0.6631518,-0.74030244,,-0.09261072,0.25489938,-0.11388424,-0.27802998,0.53174514,0.7999665,-0.74390894,-0.6460606,0.17089538,0.60769963,-0.5475882,0.5751941,,-0.057831533,0.4154273,-0.3398728,0.1291186,0.49659714,-0.85832375,-0.8605695,0.486177,0.15182915,0.49269518,0.71904325,0.49013084,,1.1696696756642957,0.4352146111269222,0.20702010558000003,-1.1694408148131923,0.6487501008863112,0.5854125237272224,-0.40852350940183246,,-1.2539478595207079,0.1533194157519792,0.19754163310000003,0.8295334164247784,0.8412709290558168,-0.5072869496313164,0.8712772487602455,,-0.0686699794197169,-0.04953898915629405,0.0911007994,-0.09256525236364105,,1.02594495e-05,3.2782555e-06,5.2452087e-06,0.99999994,6.735325e-06,6.0349703e-06,-6.7427754e-06,1.0,1.013279e-06,-6.042421e-06,-9.834766e-07,1.0,522,1.595,0,0,0.0,False,-0.25278828711966117,1.0459905327018268
1.6229960171040148,14:47:49.016073,14:46:29.101823,0,,0.10040328,0.023798838,0.0313264,0.3678053,-0.5221879,-0.76944065,-0.14526048,-0.8495481,0.50711656,-0.91848713,-0.07475075,-0.38832164,,0.060939867,0.013572709,0.015091538,0.035091434,-0.5162696,0.8557068,-0.20990404,0.8333277,0.5113757,-0.977092,-0.19756114,-0.07912445,,0.083629884,1.2907704,0.42626968,0.9937987,0.08375326,-0.0731407,0.013499351,-0.7437843,-0.6682834,-0.11037182,0.6631518,-0.74030244,,-0.092796594,0.25492677,-0.11377072,-0.27617246,0.53311247,0.79969984,-0.7456726,-0.64381564,0.17167932,0.6063837,-0.54890114,0.5753315,,-0.057831068,0.41542852,-0.33987218,0.12911956,0.49688,-0.8581599,-0.8605661,0.48613214,0.15199198,0.4927009,0.71887815,0.49036723,,1.169028688835735,0.4359019343527282,0.20710047556000002,-1.165247015943502,0.6477936453879533,0.587744345115768,-0.4075434450050267,,-1.2539478595207079,0.1533271384848534,0.19754163310000003,0.8295334164247784,0.8412709290558168,-0.5069602346707541,0.8719306250247826,,-0.0686699794197169,-0.04953898915629405,0.0911007994,-0.09256525236364105,,1.02594495e-05,3.2782555e-06,5.2452087e-06,0.99999994,6.735325e-06,6.0349703e-06,-6.7427754e-06,1.0,1.013279e-06,-6.042421e-06,-9.834766e-07,1.0,530,1.62,0,0,0.0,False,-0.2529074425567037,1.04570085149715
1.6443913041148335,14:47:49.044711,14:46:29.206579,0,,0.10069023,0.023953386,0.03126888,0.3629717,-0.526558,-0.7687575,-0.14998654,-0.847282,0.5095264,-0.9196497,-0.06964025,-0.38651612,,0.060936898,0.013573275,0.015090525,0.03507672,-0.51634747,0.85566044,-0.20990273,0.8332833,0.51144874,-0.97709286,-0.19754535,-0.079153895,,0.083629884,1.2907704,0.42626968,0.9937987,0.08375326,-0.0731407,0.013499351,-0.7437843,-0.6682834,-0.11037182,0.6631518,-0.74030244,,-0.09307774,0.25498304,-0.113605425,-0.27121496,0.53695124,0.79882777,-0.7496164,-0.6384214,0.17462337,0.60375303,-0.55145395,0.5756569,,-0.057828,0.41542858,-0.33987126,0.12913413,0.4969566,-0.85811335,-0.8605636,0.486126,0.15202582,0.49270147,0.7188294,0.4904382,,1.1681714654866961,0.4369213350921259,0.20721325279000002,-1.1558109684866982,0.645880734391237,0.5916728792315942,-0.4073801009388923,,-1.2539324140549595,0.15333486121772763,0.19754163310000003,0.8295334164247784,0.8412709290558168,-0.5068785559306135,0.8720939690909169,,-0.0686699794197169,-0.04953898915629405,0.0911007994,-0.09256525236364105,,1.02594495e-05,3.2782555e-06,5.2452087e-06,0.99999994,6.735325e-06,6.0349703e-06,-6.7427754e-06,1.0,1.013279e-06,-6.042421e-06,-9.834766e-07,1.0,538,1.644,0,0,0.0,False,-0.2524903985270561,1.0453146098909143
1.6730388309806585,14:47:49.067042,14:46:29.206579,0,,0.100856006,0.024036482,0.03124486,0.3613387,-0.52600646,-0.76990354,-0.15210944,-0.8478836,0.50789374,-0.919944,-0.06641197,-0.38638377,,0.060934477,0.013572858,0.015090346,0.035131052,-0.51618904,0.85575384,-0.20979148,0.83339393,0.51131415,-0.9771148,-0.19749284,-0.07901406,,0.083629884,1.2907704,0.42626968,0.9937987,0.08375326,-0.0731407,0.013499351,-0.7437843,-0.6682834,-0.11037182,0.6631518,-0.74030244,,-0.09324101,0.25501707,-0.113520876,-0.2695458,0.53609437,0.7999674,-0.7512738,-0.6367555,0.17358,0.6024389,-0.55420685,0.57438844,,-0.05782556,0.4154285,-0.3398716,0.1290782,0.49678636,-0.85822034,-0.86051404,0.48621395,0.15202488,0.4928026,0.71888757,0.49025124,,1.167406914932148,0.4378789539685297,0.20729751164000002,-1.1518268595604924,0.6447876423931135,0.5985267704914264,-0.4068900687404895,,-1.2539169685892109,0.15333486121772763,0.19754163310000003,0.8295334164247784,0.8414075655555823,-0.5070716525744506,0.8719306250247826,,-0.0686699794197169,-0.04953898915629405,0.0911007994,-0.09256525236364105,,1.02594495e-05,3.2782555e-06,5.2452087e-06,0.99999994,6.735325e-06,6.0349703e-06,-6.7427754e-06,1.0,1.013279e-06,-6.042421e-06,-9.834766e-07,1.0,571,1.747,0,0,0.0,False,-0.252371243090014,1.0453628900916938
1.6953598470427096,14:47:49.166139,14:46:29.321959,0,,0.101311475,0.024257965,0.031241223,0.35812467,-0.5254669,-0.77177143,-0.15308475,-0.8484564,0.50664264,-0.9210384,-0.06329471,-0.38429424,,0.060935684,0.013570354,0.015089512,0.03513322,-0.5163219,0.85567355,-0.20980445,0.8333116,0.5114429,-0.977112,-0.19749272,-0.07904971,,0.083629884,1.2907704,0.42626968,0.9937987,0.08375326,-0.0731407,0.013499351,-0.7437843,-0.6682834,-0.11037182,0.6631518,-0.74030244,,-0.093695596,0.25514713,-0.11333931,-0.266234,0.53525996,0.8016335,-0.75250155,-0.6351414,0.1741747,0.6023793,-0.5568592,0.5718802,,-0.05782649,0.41542605,-0.33987284,0.12907627,0.49692163,-0.8581423,-0.8605209,0.4861795,0.15209632,0.49279115,0.71881735,0.49036568,,1.1661944458708948,0.4394543914748715,0.20738695565,-1.145326471312472,0.6457440978914716,0.6037910719359532,-0.40656338060822095,,-1.2539169685892109,0.1533194157519792,0.19754163310000003,0.8295334164247784,0.8414075655555823,-0.5069082950941695,0.871603936892514,,-0.0686699794197169,-0.04953898915629405,0.0911007994,-0.09256525236364105,,1.02594495e-05,3.2782555e-06,5.2452087e-06,0.99999994,6.735325e-06,6.0349703e-06,-6.7427754e-06,1.0,1.013279e-06,-6.042421e-06,-9.834766e-07,1.0,579,1.771,0,0,0.0,False,-0.2529074425567037,1.045169769288576
1.7944569059181958,14:47:49.196163,14:46:29.321959,0,,0.10132167,0.024261087,0.03124316,0.35778114,-0.5258249,-0.771687,-0.15297791,-0.8482294,0.5070547,-0.92118967,-0.06336352,-0.38392016,,0.060936265,0.013571964,0.015090585,0.03513895,-0.51632315,0.8556726,-0.20979539,0.83331203,0.51144594,-0.97711366,-0.1974878,-0.0790405,,0.083629884,1.2907704,0.42626968,0.9937987,0.08375326,-0.0731407,0.013499351,-0.7437843,-0.6682834,-0.11037182,0.6631518,-0.74030244,,-0.093705945,0.25515002,-0.113337964,-0.26587823,0.5356213,0.8015102,-0.7524989,-0.6349937,0.17472394,0.6025398,-0.55668026,0.5718854,,-0.057827327,0.41542786,-0.33987236,0.12907043,0.49692208,-0.8581429,-0.860517,0.48618355,0.15210524,0.49279943,0.7188143,0.4903618,,1.1661558322065237,0.4394852824063684,0.20738825194000002,-1.144907091425503,0.6460173708910025,0.6036499148687008,-0.4067267246743551,,-1.2539246913220852,0.1533271384848534,0.19754163310000003,0.8295334164247784,0.8414075655555823,-0.5069082950941695,0.871603936892514,,-0.0686699794197169,-0.04953898915629405,0.0911007994,-0.09256525236364105,,1.02594495e-05,3.2782555e-06,5.2452087e-06,0.99999994,6.735325e-06,6.0349703e-06,-6.7427754e-06,1.0,1.013279e-06,-6.042421e-06,-9.834766e-07,1.0,587,1.796,0,0,0.0,False,-0.25278828711966117,1.04570085149715
1.8244886118918657,14:47:49.209236,14:46:29.321959,0,,0.10131396,0.024258554,0.031241879,0.3576641,-0.5258656,-0.77171344,-0.15274742,-0.8481921,0.50718665,-0.92127335,-0.06352517,-0.38369256,,0.060934477,0.013572858,0.015090346,0.035131052,-0.5163288,0.85566944,-0.20979148,0.83331037,0.5114503,-0.9771148,-0.1974799,-0.07904634,,0.083629884,1.2907704,0.42626968,0.9937987,0.08375326,-0.0731407,0.013499351,-0.7437843,-0.6682834,-0.11037182,0.6631518,-0.74030244,,-0.09369813,0.2551478,-0.11333924,-0.26575533,0.5356772,0.8015136,-0.75237536,-0.6350708,0.1749754,0.6027482,-0.55653846,0.57180375,,-0.05782556,0.4154285,-0.3398716,0.1290782,0.49692655,-0.85813916,-0.86051404,0.4861891,0.1521043,0.4928026,0.71880746,0.4903687,,1.1661712776722721,0.4394466687419973,0.20738954823000003,-1.144907091425503,0.6462906438905333,0.6035087578014486,-0.4068900687404895,,-1.2539169685892109,0.15333486121772763,0.19754163310000003,0.8295334164247784,0.8414075655555823,-0.5069082950941695,0.871603936892514,,-0.0686699794197169,-0.04953898915629405,0.0911007994,-0.09256525236364105,,1.02594495e-05,3.2782555e-06,5.2452087e-06,0.99999994,6.735325e-06,6.0349703e-06,-6.7427754e-06,1.0,1.013279e-06,-6.042421e-06,-9.834766e-07,1.0,595,1.82,0,0,0.0,False,-0.25278828711966117,1.044976648485458
1.837552750017494,14:47:49.254522,14:46:29.321959,0,,0.10129438,0.024248257,0.031237766,0.35745963,-0.526005,-0.7717132,-0.15242377,-0.84808743,0.50745904,-0.9214064,-0.063768625,-0.38333276,,0.060932703,0.013570921,0.015088499,0.03511852,-0.5163997,0.85562724,-0.20980313,0.8332671,0.51151586,-0.97711277,-0.1974769,-0.079079166,,0.083629884,1.2907704,0.42626968,0.9937987,0.08375326,-0.0731407,0.013499351,-0.7437843,-0.6682834,-0.11037182,0.6631518,-0.74030244,,-0.09367816,0.2551388,-0.11334439,-0.2655413,0.53583866,0.8014766,-0.75220937,-0.63514555,0.17541733,0.6030497,-0.55629766,0.57172024,,-0.057823423,0.41542614,-0.33987194,0.12909085,0.49699822,-0.85809577,-0.8605184,0.48617336,0.15213017,0.4927917,0.71876854,0.49043664,,1.1662098913366432,0.4393385504817581,0.20738954823000003,-1.144907091425503,0.6467005533898296,0.6031745040903594,-0.4068900687404895,,-1.2539015231234625,0.1533271384848534,0.19754163310000003,0.8295334164247784,0.8414075655555823,-0.5068266163540289,0.8714405928263798,,-0.0686699794197169,-0.04953898915629405,0.0911007994,-0.09256525236364105,,1.02594495e-05,3.2782555e-06,5.2452087e-06,0.99999994,6.735325e-06,6.0349703e-06,-6.7427754e-06,1.0,1.013279e-06,-6.042421e-06,-9.834766e-07,1.0,607,1.857,0,0,0.0,False,-0.2531457534307875,1.044976648485458
1.8828478099312633,14:47:49.280433,14:46:29.446930,0,,0.10128066,0.024242125,0.031238541,0.35718778,-0.52639985,-0.77156985,-0.15183917,-0.8477994,0.5081151,-0.9216082,-0.06433788,-0.38275182,,0.060933307,0.013569699,0.015088081,0.035119593,-0.51646614,0.85558707,-0.20980957,0.83322597,0.5115802,-0.97711134,-0.19747683,-0.07909697,,0.083629884,1.2907704,0.42626968,0.9937987,0.08375326,-0.0731407,0.013499351,-0.7437843,-0.6682834,-0.11037182,0.6631518,-0.74030244,,-0.09366454,0.25513572,-0.11334999,-0.26525545,0.5362846,0.8012729,-0.7518909,-0.63528335,0.1762814,0.60357237,-0.55571026,0.5717399,,-0.057823885,0.4154249,-0.33987257,0.12908989,0.49706587,-0.8580567,-0.8605218,0.48615614,0.15216589,0.49278602,0.71873343,0.49049383,,1.166233059535266,0.4392690458858901,0.20738954823000003,-1.144907091425503,0.6473837358886568,0.6024540570915962,-0.40721675687275816,,-1.2539015231234625,0.1533194157519792,0.19754163310000003,0.8295334164247784,0.8414075655555823,-0.5067449376138883,0.8712772487602455,,-0.0686699794197169,-0.04953898915629405,0.0911007994,-0.09256525236364105,,1.02594495e-05,3.2782555e-06,5.2452087e-06,0.99999994,6.735325e-06,6.0349703e-06,-6.7427754e-06,1.0,1.013279e-06,-6.042421e-06,-9.834766e-07,1.0,615,1.882,0,0,0.0,False,-0.25308617571226666,1.0451214890877965
1.9087469910737127,14:47:49.300789,14:46:29.446930,0,,0.10126266,0.02423352,0.03124328,0.35663688,-0.5273269,-0.77119154,-0.15053529,-0.8471215,0.5096316,-0.92203534,-0.06566179,-0.38149613,,0.060933307,0.013569699,0.015088081,0.035119593,-0.51646614,0.85558707,-0.20980957,0.83322597,0.5115802,-0.97711134,-0.19747683,-0.07909697,,0.083629884,1.2907704,0.42626968,0.9937987,0.08375326,-0.0731407,0.013499351,-0.7437843,-0.6682834,-0.11037182,0.6631518,-0.74030244,,-0.09364702,0.25513378,-0.11336047,-0.26467523,0.5373305,0.80076396,-0.7511689,-0.6355972,0.1782173,0.60472494,-0.5543393,0.57185286,,-0.057823885,0.4154249,-0.33987257,0.12908989,0.49706587,-0.8580567,-0.8605218,0.48615614,0.15216589,0.49278602,0.71873343,0.49049383,,1.1662485050010143,0.4391763730913994,0.20738954823000003,-1.144907091425503,0.6488867373860767,0.6008200664502326,-0.4083601653356981,,-1.2539015231234625,0.1533194157519792,0.19754163310000003,0.8295334164247784,0.8414075655555823,-0.5067449376138883,0.8712772487602455,,-0.0686699794197169,-0.04953898915629405,0.0911007994,-0.09256525236364105,,1.02594495e-05,3.2782555e-06,5.2452087e-06,0.99999994,6.735325e-06,6.0349703e-06,-6.7427754e-06,1.0,1.013279e-06,-6.042421e-06,-9.834766e-07,1.0,648,1.984,0,0,0.0,False,-0.2538011083345184,1.0444938464776636
1.9290950479917228,14:47:49.405369,14:46:29.446930,0,,0.10101704,0.024070837,0.031099007,0.35005033,-0.5280941,-0.7736804,-0.1577465,-0.8473742,0.5070235,-0.92335296,-0.05543834,-0.3799287,,0.060928345,0.013568536,0.015084684,0.03528253,-0.51657796,0.85551286,-0.20977709,0.833146,0.5117239,-0.9771125,-0.19752187,-0.078970715,,0.083629884,1.2907704,0.42626968,0.9937987,0.08375326,-0.0731407,0.013499351,-0.7437843,-0.6682834,-0.11037182,0.6631518,-0.74030244,,-0.09338743,0.2549341,-0.113379255,-0.25794005,0.537107,0.80310833,-0.75693786,-0.62891865,0.17750035,0.6004265,-0.56211865,0.56877995,,-0.05781841,0.41542244,-0.33987153,0.12892768,0.49718735,-0.8580107,-0.86052567,0.48608696,0.1523649,0.49282172,0.7186962,0.49051252,,1.166889491829575,0.4373769763317051,0.20739214081000001,-1.1352613540252148,0.6451975518924098,0.6087290742584697,-0.4070534128066239,,-1.2538706321919657,0.15331169301910497,0.19754292939,0.8293237264812938,0.8415442020553477,-0.5067746767774443,0.8707872165618427,,-0.0686699794197169,-0.04953898915629405,0.0911007994,-0.09256525236364105,,1.02594495e-05,3.2782555e-06,5.2452087e-06,0.99999994,6.735325e-06,6.0349703e-06,-6.7427754e-06,1.0,1.013279e-06,-6.042421e-06,-9.834766e-07,1.0,656,2.009,0,0,0.0,False,-0.25213293221593025,1.04478352768234
2.033689944073558,14:47:49.438576,14:46:29.604511,0,,0.100876495,0.023995638,0.031039312,0.33889842,-0.5259085,-0.78010774,-0.16375256,-0.8494922,0.50154567,-0.92646265,-0.04222837,-0.37401044,,0.06092835,0.013567225,0.015082419,0.034897685,-0.5161996,0.855757,-0.20957696,0.833459,0.5112959,-0.9771693,-0.19718996,-0.07909776,,0.083629884,1.2907704,0.42626968,0.9937987,0.08375326,-0.0731407,0.013499351,-0.7437843,-0.6682834,-0.11037182,0.6631518,-0.74030244,,-0.09324122,0.25484836,-0.11339492,-0.24649641,0.53366923,0.8089726,-0.76268595,-0.6218417,0.1778286,0.5979546,-0.5731579,0.56030375,,-0.057817988,0.4154199,-0.339871,0.12930577,0.496746,-0.85820943,-0.86037636,0.4864807,0.15195096,0.49298337,0.7187349,0.49029326,,1.1674300831307707,0.436203120934823,0.20739473339000003,-1.1201636780943292,0.6443777328938172,0.6246715060869334,-0.4085235094018326,,-1.253847463993343,0.1533194157519792,0.19754422568000002,0.8299527963117473,0.8415442020553477,-0.5067746767774443,0.8707872165618427,,-0.0686699794197169,-0.04953898915629405,0.0911007994,-0.09256525236364105,,1.02594495e-05,3.2782555e-06,5.2452087e-06,0.99999994,6.735325e-06,6.0349703e-06,-6.7427754e-06,1.0,1.013279e-06,-6.042421e-06,-9.834766e-07,1.0,668,2.046,0,0,0.0,True,-0.22836142252603775,1.0443972860761046
2.066894073970616,14:47:49.465861,14:46:29.604511,0,,0.10065079,0.02389741,0.03100966,0.32875517,-0.5193004,-0.7888264,-0.16317087,-0.85392535,0.49415243,-0.9302125,-0.033741593,-0.36546713,,0.060926482,0.013566063,0.015079379,0.03475616,-0.5160768,0.8558368,-0.20951754,0.83356154,0.5111532,-0.977187,-0.19707853,-0.07915574,,0.083629884,1.2907704,0.42626968,0.9937987,0.08375326,-0.0731407,0.013499351,-0.7437843,-0.6682834,-0.11037182,0.6631518,-0.74030244,,-0.09301301,0.25477153,-0.113453925,-0.23604247,0.52630347,0.81687737,-0.7640412,-0.6199412,0.17864494,0.60043734,-0.58196014,0.54844993,,-0.05781561,0.41541716,-0.33986998,0.12944505,0.4966021,-0.8582717,-0.86032856,0.48661178,0.15180175,0.4930302,0.7187457,0.49023044,,1.1681019608908283,0.4347898608188399,0.20739602968,-1.1094694909766183,0.649296646885373,0.6405900741481596,-0.40558331621141563,,-1.2538242957947203,0.1533194157519792,0.19754552197000003,0.8301624862552319,0.8415442020553477,-0.5067746767774443,0.8707872165618427,,-0.0686699794197169,-0.04953898915629405,0.0911007994,-0.09256525236364105,,1.02594495e-05,3.2782555e-06,5.2452087e-06,0.99999994,6.735325e-06,6.0349703e-06,-6.7427754e-06,1.0,1.013279e-06,-6.042421e-06,-9.834766e-07,1.0,676,2.07,0,0,0.0,True,-0.16687721701233116,1.0471975377213132
2.0941885060165077,14:47:49.487324,14:46:29.604511,0,,0.10038404,0.023780681,0.030947462,0.32457456,-0.51572245,-0.7928945,-0.16262063,-0.85622275,0.49034375,-0.93177557,-0.030211985,-0.36177537,,0.0609235,0.013566629,0.015078366,0.03474143,-0.51601475,0.8558748,-0.20951623,0.8336005,0.51109004,-0.9771879,-0.1970756,-0.07915297,,0.083629884,1.2907704,0.42626968,0.9937987,0.08375326,-0.0731407,0.013499351,-0.7437843,-0.6682834,-0.11037182,0.6631518,-0.74030244,,-0.092740655,0.25466216,-0.11350401,-0.23173438,0.52241766,0.8205967,-0.764381,-0.6195457,0.17856309,0.6016817,-0.5858693,0.5428962,,-0.057812545,0.41541725,-0.33986905,0.12945962,0.49653846,-0.85830635,-0.86032605,0.48663044,0.15175614,0.49303076,0.718777,0.49018395,,1.1688356205138795,0.4333379870384857,0.20739991855000003,-1.106114451880866,0.6516194673813854,0.646782165059236,-0.406073348409818,,-1.2538088503289717,0.1533271384848534,0.19754552197000003,0.8301624862552319,0.8415442020553477,-0.5068563555175848,0.8709505606279769,,-0.0686699794197169,-0.04953898915629405,0.0911007994,-0.09256525236364105,,1.02594495e-05,3.2782555e-06,5.2452087e-06,0.99999994,6.735325e-06,6.0349703e-06,-6.7427754e-06,1.0,1.013279e-06,-6.042421e-06,-9.834766e-07,1.0,688,2.107,0,0,0.0,True,-0.1628855098714217,1.0478734605322257
2.1156332690734416,14:47:49.521804,14:46:29.604511,0,,0.10022879,0.023710378,0.030903324,0.32419592,-0.51565355,-0.79309416,-0.16252485,-0.8562699,0.4902933,-0.93192416,-0.030053496,-0.36140585,,0.06092292,0.0135650495,0.015077233,0.03473573,-0.51601356,0.8558758,-0.20952526,0.8336001,0.511087,-0.9771861,-0.19708052,-0.07916218,,0.083629884,1.2907704,0.42626968,0.9937987,0.08375326,-0.0731407,0.013499351,-0.7437843,-0.6682834,-0.11037182,0.6631518,-0.74030244,,-0.09258135,0.25459144,-0.11352887,-0.23134387,0.5223341,0.8207601,-0.7643823,-0.6194799,0.17878589,0.6018303,-0.58601344,0.54257584,,-0.057811707,0.41541544,-0.33986953,0.12946546,0.49653804,-0.8583057,-0.8603299,0.4866264,0.15174723,0.49302247,0.71878004,0.49018782,,1.1692449253562134,0.43254254555244054,0.20740121484000001,-1.106533831767835,0.6518927403809164,0.6460692568109998,-0.4062366924759525,,-1.2538011275960976,0.1533194157519792,0.19754552197000003,0.8301624862552319,0.8415442020553477,-0.5068563555175848,0.8709505606279769,,-0.0686699794197169,-0.04953898915629405,0.0911007994,-0.09256525236364105,,1.02594495e-05,3.2782555e-06,5.2452087e-06,0.99999994,6.735325e-06,6.0349703e-06,-6.7427754e-06,1.0,1.013279e-06,-6.042421e-06,-9.834766e-07,1.0,717,2.197,0,0,0.0,True,-0.2051261123028345,1.0470526971189749
2.150128969922662,14:47:49.611777,14:46:29.747810,0,,0.10008103,0.023655467,0.030870393,0.32379925,-0.5156389,-0.7932657,-0.1627799,-0.856295,0.49016482,-0.93201756,-0.029587239,-0.36120337,,0.06091999,0.013565854,0.015077949,0.034977898,-0.5163426,0.8556675,-0.20965958,0.8333473,0.51144415,-0.9771486,-0.19728804,-0.07910739,,0.083629884,1.2907704,0.42626968,0.9937987,0.08375326,-0.0731407,0.013499351,-0.7437843,-0.6682834,-0.11037182,0.6631518,-0.74030244,,-0.0924307,0.2545391,-0.11355122,-0.23093817,0.52227455,0.8209122,-0.764606,-0.61918885,0.1788375,0.6017019,-0.586374,0.5423286,,-0.057808973,0.41541696,-0.3398696,0.1292277,0.49690813,-0.85812736,-0.86042815,0.4863563,0.1520558,0.49291337,0.7187071,0.49040443,,1.1697005665957927,0.43184749959376034,0.20740121484000001,-1.1067435217113195,0.6517561038811509,0.6456089235337124,-0.4065633806082213,,-1.2538011275960976,0.1533194157519792,0.19754422568000002,0.829743106368263,0.8415442020553477,-0.5067746767774443,0.8707872165618427,,-0.0686699794197169,-0.04953898915629405,0.0911007994,-0.09256525236364105,,1.02594495e-05,3.2782555e-06,5.2452087e-06,0.99999994,6.735325e-06,6.0349703e-06,-6.7427754e-06,1.0,1.013279e-06,-6.042421e-06,-9.834766e-07,1.0,721,2.209,0,0,0.0,True,-0.2519541990603664,1.0413073532262194
2.2400966801214963,14:47:49.633004,14:46:29.747810,0,,0.100118145,0.023681477,0.030885264,0.32393152,-0.51572126,-0.7931582,-0.16267246,-0.856238,0.49029988,-0.9319904,-0.029798508,-0.36125618,,0.06091999,0.013565854,0.015077949,0.034977898,-0.5163426,0.8556675,-0.20965958,0.8333473,0.51144415,-0.9771486,-0.19728804,-0.07910739,,0.083629884,1.2907704,0.42626968,0.9937987,0.08375326,-0.0731407,0.013499351,-0.7437843,-0.6682834,-0.11037182,0.6631518,-0.74030244,,-0.09246927,0.25456572,-0.113542296,-0.23107322,0.52237654,0.8208093,-0.7645174,-0.6192816,0.17889498,0.60176265,-0.58618516,0.5424653,,-0.057808973,0.41541696,-0.3398696,0.1292277,0.49690813,-0.85812736,-0.86042815,0.4863563,0.1520558,0.49291337,0.7187071,0.49040443,,1.1696001710684278,0.432179577107352,0.20740380742000003,-1.1067435217113195,0.6517561038811509,0.6456089235337124,-0.4065633806082213,,-1.2538011275960976,0.1533194157519792,0.19754422568000002,0.829743106368263,0.8415442020553477,-0.5067746767774443,0.8707872165618427,,-0.0686699794197169,-0.04953898915629405,0.0911007994,-0.09256525236364105,,1.02594495e-05,3.2782555e-06,5.2452087e-06,0.99999994,6.735325e-06,6.0349703e-06,-6.7427754e-06,1.0,1.013279e-06,-6.042421e-06,-9.834766e-07,1.0,729,2.234,0,0,0.0,True,-0.25207335449740853,1.0405348700137478
2.2612450949382037,14:47:49.667019,14:46:29.747810,0,,0.10015936,0.023707472,0.030901447,0.32408103,-0.51580966,-0.79303956,-0.16256353,-0.8561769,0.4904428,-0.93195736,-0.030023873,-0.36132255,,0.060920592,0.0135646025,0.015077531,0.034978982,-0.5163391,0.8556695,-0.20966601,0.8333479,0.51144046,-0.97714716,-0.19729444,-0.07910907,,0.083629884,1.2907704,0.42626968,0.9937987,0.08375326,-0.0731407,0.013499351,-0.7437843,-0.6682834,-0.11037182,0.6631518,-0.74030244,,-0.09251205,0.2545929,-0.11353408,-0.23122601,0.5224859,0.82069665,-0.76442504,-0.6193802,0.17894854,0.6018213,-0.5859835,0.5426181,,-0.057809435,0.41541573,-0.3398702,0.12922674,0.49690565,-0.8581289,-0.86043155,0.4863515,0.1520518,0.49290767,0.71871203,0.49040294,,1.1695461119383082,0.4323263090319623,0.20740510371,-1.1067435217113195,0.6517561038811509,0.6456089235337124,-0.4065633806082213,,-1.2538011275960976,0.15331169301910497,0.19754422568000002,0.829743106368263,0.8415442020553477,-0.5067746767774443,0.8707872165618427,,-0.0686699794197169,-0.04953898915629405,0.0911007994,-0.09256525236364105,,1.02594495e-05,3.2782555e-06,5.2452087e-06,0.99999994,6.735325e-06,6.0349703e-06,-6.7427754e-06,1.0,1.013279e-06,-6.042421e-06,-9.834766e-07,1.0,741,2.271,0,0,0.0,True,-0.2511201110010721,1.0391347441911436
2.295344646088779,14:47:49.690035,14:46:29.747810,0,,0.1001631,0.023710862,0.030902132,0.32407397,-0.5158139,-0.7930398,-0.1625894,-0.85617524,0.49043703,-0.93195534,-0.029997945,-0.3613301,,0.060951523,0.013567248,0.015091777,0.034991313,-0.5163538,0.8556602,-0.2096886,0.8333331,0.51145536,-0.9771419,-0.19731867,-0.07911408,,0.083656594,1.2907705,0.4262697,0.9937992,0.083725855,-0.07316533,0.013462739,-0.74378735,-0.6682807,-0.11037182,0.6631518,-0.74030244,,-0.09253824,0.25459552,-0.11352894,-0.23122513,0.52245635,0.8207157,-0.7644337,-0.61937803,0.1789191,0.6018107,-0.5860121,0.542599,,-0.057865825,0.41542128,-0.33987394,0.1292035,0.4969555,-0.8581035,-0.8604461,0.4863155,0.15208483,0.49288842,0.71870196,0.4904371,,1.1695229437396855,0.4323031408333396,0.20740510371,-1.1067435217113195,0.6517561038811509,0.6456089235337124,-0.4065633806082213,,-1.2537856821303492,0.15331169301910497,0.19754422568000002,0.829743106368263,0.8415442020553477,-0.5067746767774443,0.8707872165618427,,-0.0686699794197169,-0.04953898915629405,0.0911007994,-0.09256525236364105,,3.6802143e-05,5.4240227e-06,3.33786e-06,1.0,-2.054125e-05,-1.8402934e-05,2.05338e-05,1.0,-3.0398369e-06,1.8388033e-05,3.0398369e-06,1.0,749,2.295,0,0,0.0,True,-0.25254997624557696,1.0382657005771132
2.318334667943418,14:47:49.719055,14:46:29.747810,0,,0.10014756,0.023702905,0.030896947,0.32401526,-0.51578295,-0.7930839,-0.16262203,-0.85619664,0.49038887,-0.93197006,-0.029920489,-0.3612986,,0.060949735,0.013568172,0.015091419,0.034983415,-0.51635945,0.8556571,-0.2096847,0.83333147,0.51145965,-0.9771431,-0.1973108,-0.07911989,,0.083656594,1.2907705,0.4262697,0.9937992,0.083725855,-0.07316533,0.013462739,-0.74378735,-0.6682807,-0.11037182,0.6631518,-0.74030244,,-0.09252221,0.25458726,-0.11353147,-0.23116504,0.5224182,0.820757,-0.7644636,-0.6193445,0.17890747,0.6017958,-0.5860816,0.5425405,,-0.05786406,0.41542193,-0.33987316,0.12921126,0.49695998,-0.85809976,-0.8604431,0.48632103,0.15208389,0.49289158,0.7186951,0.49044394,,1.1695615574040565,0.43221819077172313,0.20740510371,-1.1067435217113195,0.6517561038811509,0.6456089235337124,-0.4065633806082213,,-1.253777959397475,0.1533194157519792,0.19754422568000002,0.829743106368263,0.8415442020553477,-0.5067746767774443,0.8707872165618427,,-0.0686699794197169,-0.04953898915629405,0.0911007994,-0.09256525236364105,,3.6802143e-05,5.4240227e-06,3.33786e-06,1.0,-2.054125e-05,-1.8402934e-05,2.05338e-05,1.0,-3.0398369e-06,1.8388033e-05,3.0398369e-06,1.0,757,2.32,0,0,0.0,True,-0.2511201110010721,1.03768633816776
2.347380954073742,14:47:49.743609,14:46:29.897406,0,,0.10013878,0.023698717,0.030894265,0.32398158,-0.5157659,-0.79310876,-0.16263875,-0.8562083,0.49036282,-0.9319788,-0.0298782,-0.36127937,,0.06094913,0.013569454,0.015091836,0.034982342,-0.5163629,0.855655,-0.20967823,0.8333308,0.5114633,-0.9771445,-0.19730437,-0.07911821,,0.083656594,1.2907705,0.4262697,0.9937992,0.083725855,-0.07316533,0.013462739,-0.74378735,-0.6682807,-0.11037182,0.6631518,-0.74030244,,-0.09251319,0.254583,-0.113532886,-0.23113056,0.5223972,0.82078,-0.7644795,-0.6193262,0.17890264,0.6017888,-0.5861196,0.5425072,,-0.057863593,0.41542315,-0.33987254,0.12921222,0.49696243,-0.8580982,-0.8604397,0.48632583,0.15208788,0.49289727,0.71869016,0.49044544,,1.1695847256026792,0.4321718543744778,0.20740510371,-1.1067435217113195,0.6517561038811509,0.6456089235337124,-0.4065633806082213,,-1.253777959397475,0.1533271384848534,0.19754422568000002,0.829743106368263,0.8415442020553477,-0.5067746767774443,0.8707872165618427,,-0.0686699794197169,-0.04953898915629405,0.0911007994,-0.09256525236364105,,3.6802143e-05,5.4240227e-06,3.33786e-06,1.0,-2.054125e-05,-1.8402934e-05,2.05338e-05,1.0,-3.0398369e-06,1.8388033e-05,3.0398369e-06,1.0,778,2.386,0,0,0.0,True,-0.2516563104677614,1.036865574754509
2.371916343923658,14:47:49.802297,14:46:29.897406,0,,0.10014463,0.023701504,0.030896053,0.32400405,-0.51577723,-0.7930922,-0.16262767,-0.8562005,0.49038017,-0.931973,-0.029906362,-0.36129212,,0.060950324,0.013569782,0.015092552,0.034989145,-0.5163607,0.85565615,-0.20967564,0.8333319,0.5114627,-0.9771448,-0.19730586,-0.07911068,,0.083656594,1.2907705,0.4262697,0.9937992,0.083725855,-0.07316533,0.013462739,-0.74378735,-0.6682807,-0.11037182,0.6631518,-0.74030244,,-0.0925192,0.25458583,-0.11353194,-0.23115355,0.5224112,0.8207646,-0.7644689,-0.61933833,0.17890586,0.60179347,-0.5860943,0.54252934,,-0.057864897,0.41542372,-0.3398727,0.12920542,0.4969604,-0.8581004,-0.86043924,0.4863251,0.15209281,0.49289986,0.71869206,0.49044007,,1.1695692801369308,0.4322027453059747,0.20740510371,-1.1067435217113195,0.6517561038811509,0.6456089235337124,-0.4065633806082213,,-1.2537856821303492,0.1533271384848534,0.19754422568000002,0.829743106368263,0.8415442020553477,-0.5067746767774443,0.8707872165618427,,-0.0686699794197169,-0.04953898915629405,0.0911007994,-0.09256525236364105,,3.6802143e-05,5.4240227e-06,3.33786e-06,1.0,-2.054125e-05,-1.8402934e-05,2.05338e-05,1.0,-3.0398369e-06,1.8388033e-05,3.0398369e-06,1.0,786,2.41,0,0,0.0,True,-0.25207335449740853,1.0376380579669804
2.4306091950275004,14:47:49.830554,14:46:29.897406,0,,0.10014886,0.023700714,0.03089501,0.32402468,-0.5157813,-0.79308116,-0.16263467,-0.85619783,0.49038255,-0.9319646,-0.029913455,-0.36131325,,0.06094913,0.013569454,0.015091836,0.034982342,-0.5163629,0.855655,-0.20967823,0.8333308,0.5114633,-0.9771445,-0.19730437,-0.07911821,,0.083656594,1.2907705,0.4262697,0.9937992,0.083725855,-0.07316533,0.013462739,-0.74378735,-0.6682807,-0.11037182,0.6631518,-0.74030244,,-0.0925233,0.25458425,-0.1135314,-0.23117484,0.5224159,0.82075566,-0.76447,-0.6193408,0.17889278,0.6017839,-0.5860875,0.5425473,,-0.057863593,0.41542315,-0.33987254,0.12921222,0.49696243,-0.8580982,-0.8604397,0.48632583,0.15208788,0.49289727,0.71869016,0.49044544,,1.1695461119383082,0.4322104680388489,0.20740510371,-1.1067435217113195,0.6517561038811509,0.6456089235337124,-0.4065633806082213,,-1.253777959397475,0.1533271384848534,0.19754422568000002,0.829743106368263,0.8415442020553477,-0.5067746767774443,0.8707872165618427,,-0.0686699794197169,-0.04953898915629405,0.0911007994,-0.09256525236364105,,3.6802143e-05,5.4240227e-06,3.33786e-06,1.0,-2.054125e-05,-1.8402934e-05,2.05338e-05,1.0,-3.0398369e-06,1.8388033e-05,3.0398369e-06,1.0,794,2.435,0,0,0.0,True,-0.2511201110010721,1.03855538178179
2.45887657511048,14:47:49.861642,14:46:30.017519,0,,0.10014723,0.023697168,0.030892149,0.32402286,-0.515774,-0.7930866,-0.16265294,-0.85620296,0.4903675,-0.931962,-0.029892355,-0.36132157,,0.06094913,0.013569454,0.015091836,0.034982342,-0.5163629,0.855655,-0.20967823,0.8333308,0.5114633,-0.9771445,-0.19730437,-0.07911821,,0.083656594,1.2907705,0.4262697,0.9937992,0.083725855,-0.07316533,0.013462739,-0.74378735,-0.6682807,-0.11037182,0.6631518,-0.74030244,,-0.09252138,0.25457984,-0.1135318,-0.23117314,0.52240664,0.82076204,-0.7644817,-0.61933106,0.17887646,0.6017696,-0.5861061,0.542543,,-0.057863593,0.41542315,-0.33987254,0.12921222,0.49696243,-0.8580982,-0.8604397,0.48632583,0.15208788,0.49289727,0.71869016,0.49044544,,1.169538389205434,0.43218729984022625,0.20740510371,-1.1067435217113195,0.6517561038811509,0.6456089235337124,-0.4065633806082213,,-1.253777959397475,0.1533271384848534,0.19754422568000002,0.829743106368263,0.8415442020553477,-0.5067746767774443,0.8707872165618427,,-0.0686699794197169,-0.04953898915629405,0.0911007994,-0.09256525236364105,,3.6802143e-05,5.4240227e-06,3.33786e-06,1.0,-2.054125e-05,-1.8402934e-05,2.05338e-05,1.0,-3.0398369e-06,1.8388033e-05,3.0398369e-06,1.0,802,2.459,0,0,0.0,True,-0.2515371550307197,1.0385071015810106
2.4899065289646387,14:47:49.883734,14:46:30.017519,0,,0.1001432,0.023696356,0.03089185,0.3240056,-0.5157678,-0.7930976,-0.16265452,-0.8562072,0.49035963,-0.9319677,-0.029878229,-0.36130804,,0.06094913,0.013569454,0.015091836,0.034982342,-0.5163629,0.855655,-0.20967823,0.8333308,0.5114633,-0.9771445,-0.19730437,-0.07911821,,0.083656594,1.2907705,0.4262697,0.9937992,0.083725855,-0.07316533,0.013462739,-0.74378735,-0.6682807,-0.11037182,0.6631518,-0.74030244,,-0.09251733,0.25457934,-0.113532394,-0.23115544,0.5223992,0.82077175,-0.7644855,-0.6193252,0.17888041,0.6017716,-0.58611894,0.54252696,,-0.057863593,0.41542315,-0.33987254,0.12921222,0.49696243,-0.8580982,-0.8604397,0.48632583,0.15208788,0.49289727,0.71869016,0.49044544,,1.1695538346711825,0.4321718543744778,0.20740510371,-1.1067435217113195,0.6517561038811509,0.6456089235337124,-0.4065633806082213,,-1.253777959397475,0.1533271384848534,0.19754422568000002,0.829743106368263,0.8415442020553477,-0.5067746767774443,0.8707872165618427,,-0.0686699794197169,-0.04953898915629405,0.0911007994,-0.09256525236364105,,3.6802143e-05,5.4240227e-06,3.33786e-06,1.0,-2.054125e-05,-1.8402934e-05,2.05338e-05,1.0,-3.0398369e-06,1.8388033e-05,3.0398369e-06,1.0,810,2.484,0,0,0.0,True,-0.2515371550307197,1.039376145195041
2.5120600170921534,14:47:49.903738,14:46:30.017519,0,,0.10013969,0.023699738,0.03089504,0.32398418,-0.51576847,-0.79310596,-0.16263407,-0.85620654,0.49036756,-0.9319787,-0.029885232,-0.361279,,0.060947947,0.013569066,0.015091121,0.034975514,-0.5163652,0.855654,-0.20968083,0.8333298,0.51146394,-0.9771442,-0.19730288,-0.07912573,,0.083656594,1.2907705,0.4262697,0.9937992,0.083725855,-0.07316533,0.013462739,-0.74378735,-0.6682807,-0.11037182,0.6631518,-0.74030244,,-0.09251417,0.2545842,-0.11353271,-0.2311332,0.5224005,0.8207772,-0.7644761,-0.61932933,0.17890622,0.6017921,-0.5861134,0.5425103,,-0.057862293,0.4154226,-0.3398724,0.12921903,0.49696445,-0.858096,-0.86044014,0.48632658,0.15208295,0.4928947,0.71868825,0.4904508,,1.1695847256026792,0.432179577107352,0.20740510371,-1.1067435217113195,0.6517561038811509,0.6456089235337124,-0.4065633806082213,,-1.2537702366646006,0.1533271384848534,0.19754422568000002,0.829743106368263,0.8415442020553477,-0.5067746767774443,0.8707872165618427,,-0.0686699794197169,-0.04953898915629405,0.0911007994,-0.09256525236364105,,3.6802143e-05,5.4240227e-06,3.33786e-06,1.0,-2.054125e-05,-1.8402934e-05,2.05338e-05,1.0,-3.0398369e-06,1.8388033e-05,3.0398369e-06,1.0,818,2.508,0,0,0.0,True,-0.24998813434917277,1.0394244253958205
2.5320435808971524,14:47:49.929764,14:46:30.017519,0,,0.100141436,0.02370251,0.030895486,0.32398942,-0.51577365,-0.7931005,-0.16262445,-0.85620296,0.490377,-0.9319786,-0.029899359,-0.36127824,,0.060947224,0.013569305,0.015089273,0.034968715,-0.51636744,0.85565287,-0.20968339,0.8333287,0.5114646,-0.9771439,-0.19730139,-0.07913324,,0.083656594,1.2907705,0.4262697,0.9937992,0.083725855,-0.07316533,0.013462739,-0.74378735,-0.6682807,-0.11037182,0.6631518,-0.74030244,,-0.092515975,0.25458643,-0.113531075,-0.23113847,0.522407,0.8207716,-0.76446927,-0.6193357,0.17891338,0.6017987,-0.5861009,0.5425164,,-0.057861306,0.4154215,-0.3398711,0.12922584,0.49696648,-0.8580938,-0.8604406,0.48632732,0.15207803,0.49289215,0.71868634,0.4904562,,1.1695847256026792,0.43219502257310044,0.20740640000000002,-1.1067435217113195,0.6517561038811509,0.6456089235337124,-0.4065633806082213,,-1.2537625139317266,0.1533271384848534,0.19754552197000003,0.829743106368263,0.8415442020553477,-0.5067746767774443,0.8707872165618427,,-0.0686699794197169,-0.04953898915629405,0.0911007994,-0.09256525236364105,,3.6802143e-05,5.4240227e-06,3.33786e-06,1.0,-2.054125e-05,-1.8402934e-05,2.05338e-05,1.0,-3.0398369e-06,1.8388033e-05,3.0398369e-06,1.0,847,2.599,0,0,0.0,True,-0.25028602294177826,1.039714106600497
2.558085192926228,14:47:50.011630,14:46:30.134372,0,,0.100150384,0.023697019,0.030888334,0.3240409,-0.51577544,-0.79307836,-0.16266477,-0.85620207,0.49036515,-0.93195367,-0.029892325,-0.36134306,,0.060948417,0.013569603,0.015089989,0.034975514,-0.516435,0.8556118,-0.20968083,0.83328795,0.511532,-0.9771442,-0.19729641,-0.079141825,,0.083656594,1.2907705,0.4262697,0.9937992,0.083725855,-0.07316533,0.013462739,-0.74378735,-0.6682807,-0.11037182,0.6631518,-0.74030244,,-0.09252415,0.25457695,-0.11352887,-0.2311918,0.52240807,0.82075584,-0.7644862,-0.6193303,0.17885979,0.60175675,-0.5861056,0.54255784,,-0.05786261,0.41542205,-0.33987126,0.12921903,0.49703455,-0.8580554,-0.86044014,0.48631415,0.15212268,0.4928947,0.7186482,0.4905095,,1.1695152210068114,0.43218729984022625,0.20740769629000003,-1.1067435217113195,0.6517561038811509,0.6456089235337124,-0.4065633806082213,,-1.2537702366646006,0.1533271384848534,0.19754552197000003,0.829743106368263,0.8415442020553477,-0.5066929980373037,0.8706238724957084,,-0.0686699794197169,-0.04953898915629405,0.0911007994,-0.09256525236364105,,3.6802143e-05,5.4240227e-06,3.33786e-06,1.0,-2.054125e-05,-1.8402934e-05,2.05338e-05,1.0,-3.0398369e-06,1.8388033e-05,3.0398369e-06,1.0,851,2.611,0,0,0.0,True,-0.2489753131343151,1.0391830243919231
2.639954664045945,14:47:50.032154,14:46:30.134372,0,,0.10014727,0.023697212,0.03088881,0.32402626,-0.51577187,-0.7930866,-0.16266164,-0.8562045,0.490362,-0.9319594,-0.029885262,-0.36132914,,0.060948417,0.013569603,0.015089989,0.034975514,-0.516435,0.8556118,-0.20968083,0.83328795,0.511532,-0.9771442,-0.19729641,-0.079141825,,0.083656594,1.2907705,0.4262697,0.9937992,0.083725855,-0.07316533,0.013462739,-0.74378735,-0.6682807,-0.11037182,0.6631518,-0.74030244,,-0.09252109,0.25457764,-0.11352929,-0.23117672,0.52240384,0.82076275,-0.7644866,-0.6193276,0.17886733,0.60176206,-0.5861122,0.5425449,,-0.05786261,0.41542205,-0.33987126,0.12921903,0.49703455,-0.8580554,-0.86044014,0.48631415,0.15212268,0.4928947,0.7186482,0.4905095,,1.1695306664725598,0.432179577107352,0.20740769629000003,-1.1067435217113195,0.6517561038811509,0.6456089235337124,-0.4065633806082213,,-1.2537702366646006,0.1533271384848534,0.19754552197000003,0.829743106368263,0.8415442020553477,-0.5066929980373037,0.8706238724957084,,-0.0686699794197169,-0.04953898915629405,0.0911007994,-0.09256525236364105,,3.6802143e-05,5.4240227e-06,3.33786e-06,1.0,-2.054125e-05,-1.8402934e-05,2.05338e-05,1.0,-3.0398369e-06,1.8388033e-05,3.0398369e-06,1.0,859,2.635,0,0,0.0,True,-0.2485582691046675,1.0398589472028357
2.6604555970989168,14:47:50.055778,14:46:30.134372,0,,0.10014486,0.023699962,0.030891344,0.32401082,-0.515773,-0.7930922,-0.16264504,-0.85620356,0.4903691,-0.93196756,-0.029892296,-0.36130723,,0.060947224,0.013569305,0.015089273,0.034968715,-0.51643723,0.85561067,-0.20968339,0.83328694,0.5115326,-0.9771439,-0.19729492,-0.079149365,,0.083656594,1.2907705,0.4262697,0.9937992,0.083725855,-0.07316533,0.013462739,-0.74378735,-0.6682807,-0.11037182,0.6631518,-0.74030244,,-0.09251896,0.25458154,-0.11352948,-0.2311607,0.5224057,0.82076615,-0.7644787,-0.61933154,0.17888758,0.6017782,-0.5861065,0.5425331,,-0.057861306,0.4154215,-0.3398711,0.12922584,0.49703655,-0.8580532,-0.8604406,0.4863149,0.15211774,0.49289215,0.7186463,0.49051487,,1.1695538346711825,0.43218729984022625,0.20740769629000003,-1.1067435217113195,0.6517561038811509,0.6456089235337124,-0.4065633806082213,,-1.2537625139317266,0.1533271384848534,0.19754552197000003,0.829743106368263,0.8415442020553477,-0.5066929980373037,0.8706238724957084,,-0.0686699794197169,-0.04953898915629405,0.0911007994,-0.09256525236364105,,3.6802143e-05,5.4240227e-06,3.33786e-06,1.0,-2.054125e-05,-1.8402934e-05,2.05338e-05,1.0,-3.0398369e-06,1.8388033e-05,3.0398369e-06,1.0,867,2.66,0,0,0.0,True,-0.2489753131343151,1.0394244253958205
2.684097511926666,14:47:50.085470,14:46:30.134372,0,,0.10014236,0.023703508,0.030896261,0.32399204,-0.5157763,-0.7930978,-0.16261971,-0.8562011,0.49038178,-0.9319786,-0.029906362,-0.36127782,,0.060947224,0.013569305,0.015089273,0.034968715,-0.51643723,0.85561067,-0.20968339,0.83328694,0.5115326,-0.9771439,-0.19729492,-0.079149365,,0.083656594,1.2907705,0.4262697,0.9937992,0.083725855,-0.07316533,0.013462739,-0.74378735,-0.6682807,-0.11037182,0.6631518,-0.74030244,,-0.092516966,0.25458762,-0.113530904,-0.2311411,0.5224102,0.8207688,-0.76446587,-0.61933887,0.17891698,0.60180205,-0.5860946,0.54251945,,-0.057861306,0.4154215,-0.3398711,0.12922584,0.49703655,-0.8580532,-0.8604406,0.4863149,0.15211774,0.49289215,0.7186463,0.49051487,,1.1695847256026792,0.4322027453059747,0.20740640000000002,-1.1067435217113195,0.6517561038811509,0.6456089235337124,-0.4065633806082213,,-1.2537625139317266,0.1533271384848534,0.19754552197000003,0.829743106368263,0.8415442020553477,-0.5066929980373037,0.8706238724957084,,-0.0686699794197169,-0.04953898915629405,0.0911007994,-0.09256525236364105,,3.6802143e-05,5.4240227e-06,3.33786e-06,1.0,-2.054125e-05,-1.8402934e-05,2.05338e-05,1.0,-3.0398369e-06,1.8388033e-05,3.0398369e-06,1.0,875,2.685,0,0,0.0,True,-0.2490944685713572,1.0400520680059533
2.713792552938685,14:47:50.112038,14:46:30.269236,0,,0.10014124,0.023704097,0.030896857,0.32398602,-0.51577574,-0.7931005,-0.16261575,-0.8562014,0.49038258,-0.9319813,-0.029906392,-0.36127067,,0.060950883,0.013568262,0.015090406,0.03473332,-0.516176,0.855778,-0.20954654,0.8334991,0.511243,-0.9771816,-0.19708243,-0.079212695,,0.083656594,1.2907705,0.4262697,0.9937992,0.083725855,-0.07316533,0.013462739,-0.74378735,-0.6682807,-0.11037182,0.6631518,-0.74030244,,-0.09251592,0.2545885,-0.11353102,-0.23113489,0.52240974,0.8207708,-0.7644644,-0.6193391,0.17892253,0.60180634,-0.5860948,0.5425145,,-0.05786503,0.41542107,-0.33987236,0.1294568,0.4967346,-0.8581933,-0.8603419,0.48657188,0.15185387,0.4930038,0.7186811,0.49035162,,1.1695924483355535,0.4322027453059747,0.20740640000000002,-1.1067435217113195,0.6517561038811509,0.6456089235337124,-0.4065633806082213,,-1.2537702366646006,0.1533271384848534,0.19754552197000003,0.8301624862552319,0.8415442020553477,-0.5066929980373037,0.8706238724957084,,-0.0686699794197169,-0.04953898915629405,0.0911007994,-0.09256525236364105,,3.6802143e-05,5.4240227e-06,3.33786e-06,1.0,-2.054125e-05,-1.8402934e-05,2.05338e-05,1.0,-3.0398369e-06,1.8388033e-05,3.0398369e-06,1.0,908,2.787,0,0,0.0,True,-0.24700924842312055,1.0399555076043943
