AlexandreBanks6/ExpertPlaybackApp/resources/Motions/P_14/PC1/Data_PC1_10.csv
Task Time,PC1 Time,PC2 Time,Gaze Calib,s_T_psm1,Tx,Ty,Tz,R00,R01,R02,R10,R11,R12,R20,R21,R22,s_T_psm3,Tx,Ty,Tz,R00,R01,R02,R10,R11,R12,R20,R21,R22,cart_T_ecm,Tx,Ty,Tz,R00,R01,R02,R10,R11,R12,R20,R21,R22,ecm_T_psm1,Tx,Ty,Tz,R00,R01,R02,R10,R11,R12,R20,R21,R22,ecm_T_psm3,Tx,Ty,Tz,R00,R01,R02,R10,R11,R12,R20,R21,R22,psm1_joints,q1,q2,q3,q4,q5,q6,jaw,psm3_joints,q1,q2,q3,q4,q5,q6,jaw,ecm_joints,q1,q2,q3,q4,ecmi_T_ecm,Tx,Ty,Tz,R00,R01,R02,R10,R11,R12,R20,R21,R22,Sample #,Task Duration (s),Collisions (binary),Collisions (increments),Cumulative Collision Time (s),Clutch Press,MTMR Angle,MTML Angle
""
lci_T_si,,,,,-0.05129452,0.048553377,0.19299848,0.991276,0.046896584,0.12317695,0.11708693,-0.74244076,-0.65960014,0.060518593,0.6682682,-0.7414547
rci_T_si,,,,,-0.059571687,0.0508194,0.20016095,0.98826504,0.02463223,0.15074971,0.12190245,-0.72187847,-0.68119836,0.092043534,0.6915813,-0.71641
ecm_T_lc,,,,,-4.4061628e-05,-0.00034663224,-0.01840835,-0.99912,0.030754527,0.028518902,-0.031987965,-0.99852574,-0.043852776,0.027128186,-0.04472645,0.9986309
ecm_T_rc,,,,,-0.0043358393,0.01870579,-0.007592615,-0.99555075,-0.052743673,-0.078081585,0.04863213,-0.9973746,0.053654674,-0.08070653,0.04961868,0.9955021
cart_T_ecmi,,,,,0.08361981,1.2907763,0.42627257,0.9937988,0.08374649,-0.07314679,0.013490307,-0.743785,-0.66828275,-0.11037182,0.6631518,-0.74030244
ecmac_T_ecmrep_psm1,,,,,0.023195708,-0.2631036,-0.30022871,0.99664557,0.07921609,0.02055357,-0.078295335,0.99603295,-0.04228661,-0.023821812,0.040535513,0.9988941
ecmac_T_ecmrep_psm3,,,,,0.022281613,-0.4507852,-0.5326207,0.99995744,0.002629678,0.008843231,-0.0032003638,0.99787027,0.06515156,-0.008653069,-0.06517708,0.9978362
""
0,14:51:13.150896,14:49:53.308385,0,,0.08751111,0.009605154,0.023256898,0.40133488,-0.22632667,-0.88752836,0.0009521544,-0.9688864,0.24750414,-0.91593087,-0.10017702,-0.38863242,,0.057863757,0.0026034182,0.021637142,0.19946314,-0.27430254,0.94072986,0.14889109,0.9573582,0.24758172,-0.9685277,0.090682864,0.2317989,,0.083598286,1.2907714,0.4262755,0.9937985,0.08376469,-0.073130436,0.013514621,-0.743783,-0.66828454,-0.11037182,0.6631518,-0.74030244,,-0.07905127,0.23991667,-0.118175566,-0.31085065,0.24198553,0.91913813,-0.6377885,-0.7701027,-0.0129504595,0.7046969,-0.5902414,0.3937225,,-0.05522087,0.41341153,-0.35259393,-0.05295942,0.20668322,-0.9769736,-0.6410816,0.74308026,0.19195352,0.76564336,0.6364855,0.0931477,,1.1668508781652038,0.33610878015199913,0.20694621705000002,-1.3862602163761906,0.7875727846479987,0.6553356689667987,-0.421754378758709,,-1.2292505597889378,0.11334655039499313,0.18973537472000002,0.9700256785594097,1.2796008203033498,-0.6739140477210829,0.8471023269723721,,-0.06866343443502192,-0.04953898915629405,0.0911007994,-0.09223816666624303,,-2.1781772e-05,3.7550926e-06,2.6226044e-06,1.0,1.8112361e-05,1.6219914e-05,-1.8112361e-05,1.0,2.7120113e-06,-1.6227365e-05,-2.682209e-06,1.0,37,0.11,0,0,0.0,False,-0.25761408231986493,1.0216573115089795
0.12031577085144818,14:51:13.183849,14:49:53.308385,0,,0.08759688,0.010394268,0.02407533,0.3947245,-0.22721264,-0.8902623,0.0054792464,-0.96834147,0.24956937,-0.91878325,-0.103389084,-0.38098314,,0.05781126,0.0026416546,0.021469057,0.19906747,-0.26176065,0.9443799,0.1286234,0.96230936,0.23961756,-0.97150815,0.07376936,0.22523308,,0.083598286,1.2907714,0.4262755,0.9937985,0.08376469,-0.073130436,0.013514621,-0.743783,-0.66828454,-0.11037182,0.6631518,-0.74030244,,-0.079221524,0.2410418,-0.11824622,-0.3040284,0.24317406,0.9211043,-0.6358646,-0.7717763,-0.006128408,0.7093962,-0.58756083,0.38926768,,-0.055144794,0.4133217,-0.35245755,-0.051051132,0.19670159,-0.9791334,-0.65665275,0.73207587,0.1813066,0.7524632,0.65220654,0.09179133,,1.1700094759107618,0.34055707428755244,0.20675566242,-1.3793404482412013,0.7918085161407274,0.661519805288796,-0.4207743143619036,,-1.229798873823008,0.11222675412823058,0.18972630069000002,0.9360559077149168,1.2626578943324351,-0.715231377257606,0.8472656710385065,,-0.06866343443502192,-0.04953898915629405,0.0911007994,-0.09223816666624303,,-2.1781772e-05,3.7550926e-06,2.6226044e-06,1.0,1.8112361e-05,1.6219914e-05,-1.8112361e-05,1.0,2.7120113e-06,-1.6227365e-05,-2.682209e-06,1.0,45,0.135,0,0,0.0,False,-0.25791197091247,1.0264853315869256
0.1532667619176209,14:51:13.214791,14:49:53.399207,0,,0.087657064,0.011195675,0.024874121,0.38703102,-0.22954762,-0.89303696,0.009480149,-0.9674748,0.2527898,-0.92201793,-0.10630357,-0.37226662,,0.05775521,0.0026802486,0.021318376,0.20574516,-0.25843087,0.94386566,0.10073909,0.9649697,0.24224997,-0.9734067,0.04524243,0.22457196,,0.083598286,1.2907714,0.4262755,0.9937985,0.08376469,-0.073130436,0.013514621,-0.743783,-0.66828454,-0.11037182,0.6631518,-0.74030244,,-0.07936452,0.24216476,-0.11829585,-0.29608735,0.24577364,0.92299926,-0.63451016,-0.7729112,0.002265187,0.71395314,-0.58498174,0.3847951,,-0.055067938,0.41324535,-0.35233262,-0.055893436,0.19774164,-0.9786594,-0.6775534,0.71243364,0.18264638,0.73334664,0.67330277,0.09416017,,1.173291637382307,0.34488180469711816,0.20659881133000002,-1.3707431605583356,0.7961808841332215,0.6675925237070969,-0.4211010024941719,,-1.231219856671865,0.11029607090967444,0.18967704167000002,0.8775524134827344,1.242708965366681,-0.7675745050360009,0.8482457354353121,,-0.06866343443502192,-0.04953898915629405,0.0911007994,-0.09223816666624303,,-2.1781772e-05,3.7550926e-06,2.6226044e-06,1.0,1.8112361e-05,1.6219914e-05,-1.8112361e-05,1.0,2.7120113e-06,-1.6227365e-05,-2.682209e-06,1.0,57,0.171,0,0,0.0,False,-0.25725661600873906,1.0373483767623035
0.18412636290304363,14:51:13.243592,14:49:53.399207,0,,0.087721616,0.011960067,0.025611937,0.37897936,-0.23342533,-0.8954816,0.01166594,-0.9663824,0.2568442,-0.9253316,-0.107785136,-0.36351585,,0.057664137,0.002722389,0.021284819,0.21484281,-0.26964766,0.9386867,0.087142855,0.9625894,0.2565691,-0.97275317,0.026677787,0.23030327,,0.083598286,1.2907714,0.4262755,0.9937985,0.08376469,-0.073130436,0.013514621,-0.743783,-0.66828454,-0.11037182,0.6631518,-0.74030244,,-0.07950568,0.24321932,-0.11832486,-0.287769,0.24976845,0.9245565,-0.6345306,-0.7728154,0.011277485,0.7173283,-0.58341414,0.38087806,,-0.054975055,0.41326252,-0.35228497,-0.06426331,0.21183255,-0.9751909,-0.6874701,0.69894564,0.19712915,0.72336376,0.6830827,0.10071199,,1.1764038987306196,0.34891307125746335,0.20646788604000002,-1.3602586633841094,0.7994601601275921,0.6739031554338445,-0.4217543787587088,,-1.2321620300825205,0.10923033377303147,0.18962778265000002,0.8364531845597677,1.235603867378878,-0.7906950480535462,0.8492257998321178,,-0.06866343443502192,-0.04953898915629405,0.0911007994,-0.09223816666624303,,-2.1781772e-05,3.7550926e-06,2.6226044e-06,1.0,1.8112361e-05,1.6219914e-05,-1.8112361e-05,1.0,2.7120113e-06,-1.6227365e-05,-2.682209e-06,1.0,64,0.192,0,0,0.0,False,-0.2579715486309908,1.0395692659981588
0.21300616604276001,14:51:13.266027,14:49:53.399207,0,,0.087802514,0.012435511,0.026044518,0.37279955,-0.23720914,-0.89707994,0.009648681,-0.9657295,0.2593714,-0.9278618,-0.10534912,-0.3577348,,0.057539783,0.0027637547,0.021208584,0.22706689,-0.2784524,0.93322283,0.05784449,0.96041757,0.27249226,-0.97215974,-0.007892162,0.23418595,,0.083598286,1.2907714,0.4262755,0.9937985,0.08376469,-0.073130436,0.013514621,-0.743783,-0.66828454,-0.11037182,0.6631518,-0.74030244,,-0.0796315,0.2438548,-0.11832073,-0.28135896,0.25329405,0.9255697,-0.63728034,-0.77044195,0.01711792,0.7174336,-0.5850311,0.37819007,,-0.054842614,0.41325283,-0.35221177,-0.074892566,0.22603723,-0.97123545,-0.7083211,0.673503,0.21136454,0.7019062,0.7037762,0.109666586,,1.1782110182231882,0.35136117757859253,0.20639270122000003,-1.3493547863229143,0.7995967966273575,0.6808977879223772,-0.42044762622963483,,-1.233891922246347,0.10757766893794742,0.18949037591,0.771029922192596,1.2152450289138275,-0.834781084327217,0.8513492726918634,,-0.06866343443502192,-0.04953898915629405,0.0911007994,-0.09223816666624303,,-2.1781772e-05,3.7550926e-06,2.6226044e-06,1.0,1.8112361e-05,1.6219914e-05,-1.8112361e-05,1.0,2.7120113e-06,-1.6227365e-05,-2.682209e-06,1.0,76,0.229,0,0,0.0,False,-0.25761408231986493,1.0444938464776636
0.2354451739229262,14:51:13.296437,14:49:53.399207,0,,0.08792854,0.013143785,0.026684105,0.36355639,-0.24006513,-0.90010864,0.009979248,-0.9651662,0.26144707,-0.9315188,-0.10403305,-0.34849668,,0.05742516,0.0028087562,0.021089137,0.23523499,-0.2823454,0.93002445,0.028179765,0.9584547,0.28384897,-0.9715299,-0.040563345,0.23341855,,0.083598286,1.2907714,0.4262755,0.9937985,0.08376469,-0.073130436,0.013514621,-0.743783,-0.66828454,-0.11037182,0.6631518,-0.74030244,,-0.07982395,0.24479793,-0.11831062,-0.27180803,0.25600517,0.9276754,-0.63882315,-0.76894647,0.025027081,0.7197398,-0.585818,0.37254784,,-0.05471321,0.4132125,-0.35210663,-0.08150803,0.23508953,-0.96855015,-0.7287755,0.6488481,0.21882033,0.6798843,0.7236912,0.11844116,,1.1807749655374307,0.3550835348239687,0.20630455350000002,-1.3357249399964202,0.8024661631224318,0.6912182166665394,-0.4214276906264405,,-1.2351970641020908,0.106565990931424,0.18936852465,0.7200752659258566,1.1916069144544061,-0.8700671854016315,0.8533094014854747,,-0.06866343443502192,-0.04953898915629405,0.0911007994,-0.09223816666624303,,-2.1781772e-05,3.7550926e-06,2.6226044e-06,1.0,1.8112361e-05,1.6219914e-05,-1.8112361e-05,1.0,2.7120113e-06,-1.6227365e-05,-2.682209e-06,1.0,80,0.241,0,0,0.0,False,-0.25731619372725945,1.0463284941072828
0.2658516620285809,14:51:13.316994,14:49:53.399207,0,,0.08806905,0.01361461,0.027071506,0.35469043,-0.24342614,-0.90273935,0.007966131,-0.96469164,0.26326162,-0.9349499,-0.10056767,-0.34022772,,0.05737263,0.0028193062,0.020936012,0.24133286,-0.27529967,0.9305743,-0.0088713765,0.95825166,0.28578833,-0.9704019,-0.077225566,0.22881533,,0.083598286,1.2907714,0.4262755,0.9937985,0.08376469,-0.073130436,0.013514621,-0.743783,-0.66828454,-0.11037182,0.6631518,-0.74030244,,-0.080004685,0.24539572,-0.11827218,-0.26263738,0.25901166,0.9294808,-0.64198166,-0.7660491,0.032068726,0.72033405,-0.5882872,0.36747384,,-0.054638,0.41311526,-0.3520008,-0.08577616,0.23388556,-0.968473,-0.7534526,0.6207831,0.2166508,0.6518831,0.748282,0.12297329,,1.1822036711191621,0.3574775820149783,0.20627084996000003,-1.321256333895988,0.804379074119148,0.7014201045950303,-0.4207743143619034,,-1.2366952742796904,0.10559292658927172,0.18921685872000002,0.6728950286418387,1.1594973370095278,-0.9111055811686555,0.8551061862129519,,-0.06866343443502192,-0.04953898915629405,0.0911007994,-0.09223816666624303,,-2.1781772e-05,3.7550926e-06,2.6226044e-06,1.0,1.8112361e-05,1.6219914e-05,-1.8112361e-05,1.0,2.7120113e-06,-1.6227365e-05,-2.682209e-06,1.0,91,0.274,0,0,0.0,False,-0.2571374605716965,1.0453146098909143
0.2864028380718082,14:51:13.344309,14:49:53.399207,0,,0.08825889,0.014247246,0.027620494,0.34499913,-0.24248365,-0.90673995,0.011743754,-0.9648618,0.2624951,-0.9385296,-0.101209015,-0.33002886,,0.057370417,0.0027800268,0.020780623,0.25040823,-0.25766316,0.9332231,-0.057713002,0.9582466,0.2800581,-0.9664186,-0.12398794,0.22508235,,0.083598286,1.2907714,0.4262755,0.9937985,0.08376469,-0.073130436,0.013514621,-0.743783,-0.66828454,-0.11037182,0.6631518,-0.74030244,,-0.08025132,0.24621783,-0.11824148,-0.25267297,0.2581369,0.93248147,-0.6408826,-0.766669,0.038576484,0.72486264,-0.5878639,0.359152,,-0.054609466,0.41297564,-0.35192734,-0.092815846,0.22380537,-0.9702043,-0.78431004,0.58384764,0.20971319,0.61338645,0.7804057,0.12134249,,1.1840030678788565,0.36097598000700204,0.20623066497000003,-1.3095136970608547,0.8108009896081236,0.713090962330395,-0.4199575940312319,,-1.2388730849502216,0.10438045752801847,0.18898223023000002,0.6171175036749552,1.116456839583414,-0.9667540218004472,0.8582097234695032,,-0.06866343443502192,-0.04953898915629405,0.0911007994,-0.09223816666624303,,-2.1781772e-05,3.7550926e-06,2.6226044e-06,1.0,1.8112361e-05,1.6219914e-05,-1.8112361e-05,1.0,2.7120113e-06,-1.6227365e-05,-2.682209e-06,1.0,99,0.299,0,0,0.0,False,-0.257435349164302,1.0413073532262194
0.31372415204532444,14:51:13.375472,14:49:53.399207,0,,0.08848501,0.014884204,0.02811271,0.3370095,-0.24523042,-0.90900314,0.014517039,-0.9640144,0.26545346,-0.9413894,-0.102656275,-0.32132196,,0.057402752,0.0026856726,0.020756483,0.26212737,-0.24224025,0.9341354,-0.097969145,0.95630175,0.2754795,-0.9600476,-0.1637271,0.22694081,,0.083598286,1.2907714,0.4262755,0.9937985,0.08376469,-0.073130436,0.013514621,-0.743783,-0.66828454,-0.11037182,0.6631518,-0.74030244,,-0.080528624,0.2470028,-0.11816351,-0.24446447,0.26100457,0.9338703,-0.64016885,-0.7668115,0.04673323,0.72830003,-0.58641005,0.35454518,,-0.05463269,0.4128905,-0.35197967,-0.10328216,0.21491052,-0.9711572,-0.8081211,0.5511063,0.20789944,0.57989055,0.8062849,0.116754286,,1.1855862281180725,0.3645284371291453,0.20622547981000003,-1.2988195099431439,0.8154466306001487,0.7201660260434115,-0.4207743143619036,,-1.2411358456823693,0.10324521579550747,0.18869834272000002,0.5688888166735145,1.0813412591436957,-1.013672455180487,0.8600065081969801,,-0.06866343443502192,-0.04953898915629405,0.0911007994,-0.09223816666624303,,-2.1781772e-05,3.7550926e-06,2.6226044e-06,1.0,1.8112361e-05,1.6219914e-05,-1.8112361e-05,1.0,2.7120113e-06,-1.6227365e-05,-2.682209e-06,1.0,107,0.323,0,0,0.0,False,-0.25677999426057063,1.0293338634329134
0.3448577930685133,14:51:13.396190,14:49:53.399207,0,,0.088651955,0.015333101,0.02843538,0.33427125,-0.24587375,-0.90984005,0.01591888,-0.96376044,0.26629364,-0.9423425,-0.10349792,-0.31824344,,0.057422325,0.0025948947,0.020757258,0.26925096,-0.23634186,0.9336201,-0.12367752,0.9529083,0.27689254,-0.95509565,-0.1900214,0.2273413,,0.083598286,1.2907714,0.4262755,0.9937985,0.08376469,-0.073130436,0.013514621,-0.743783,-0.66828454,-0.11037182,0.6631518,-0.74030244,,-0.080729246,0.24753931,-0.11809012,-0.24165717,0.2617244,0.93439937,-0.6395712,-0.76713866,0.049467016,0.7297606,-0.5856608,0.35277596,,-0.054647405,0.41282788,-0.35204664,-0.109748766,0.21338202,-0.9707849,-0.8226257,0.5286954,0.2092083,0.55789083,0.82155293,0.11750987,,1.1866596879875897,0.36712327537488476,0.20622807239000002,-1.294416021129969,0.8165397225982721,0.7242570859624143,-0.4219177228248434,,-1.2424718784696103,0.10256561530257571,0.18848964003000002,0.5412097441335574,1.0583863271831018,-1.0359569749100503,0.8600065081969803,,-0.06866343443502192,-0.04953898915629405,0.0911007994,-0.09223816666624303,,-2.1781772e-05,3.7550926e-06,2.6226044e-06,1.0,1.8112361e-05,1.6219914e-05,-1.8112361e-05,1.0,2.7120113e-06,-1.6227365e-05,-2.682209e-06,1.0,115,0.347,0,0,0.0,False,-0.257435349164302,1.0265818919884844
0.3656043680384755,14:51:13.433267,14:49:53.399207,0,,0.08902174,0.016322963,0.029100686,0.32931846,-0.25011283,-0.9104905,0.015333205,-0.96273524,0.27001044,-0.9440944,-0.10288006,-0.31321156,,0.057541117,0.0023098951,0.020842493,0.27580667,-0.21228442,0.9374785,-0.1700468,0.9491485,0.26495486,-0.94605213,-0.23249155,0.22568321,,0.083598286,1.2907714,0.4262755,0.9937985,0.08376469,-0.073130436,0.013514621,-0.743783,-0.66828454,-0.11037182,0.6631518,-0.74030244,,-0.08116884,0.24869151,-0.11789405,-0.23655403,0.2658763,0.934533,-0.64082575,-0.76566845,0.05562476,0.7303318,-0.5857146,0.35150236,,-0.054763112,0.41268328,-0.35230798,-0.11522309,0.1964921,-0.9737117,-0.84775394,0.49144378,0.1994899,0.5177227,0.8484538,0.1099513,,1.1890614579114736,0.37273770217444596,0.20625140561000002,-1.283302454125289,0.8151733576006177,0.7323139579113264,-0.4214276906264405,,-1.2447423619346323,0.10119869158383797,0.18801649418000002,0.5074496632325489,1.0149359202576917,-1.0757522012040464,0.8572296590726975,,-0.06866343443502192,-0.04953898915629405,0.0911007994,-0.09223816666624303,,-2.1781772e-05,3.7550926e-06,2.6226044e-06,1.0,1.8112361e-05,1.6219914e-05,-1.8112361e-05,1.0,2.7120113e-06,-1.6227365e-05,-2.682209e-06,1.0,127,0.384,0,0,0.0,False,-0.25677999426057063,1.0421763968402495
0.4026764139998704,14:51:13.458941,14:49:53.626258,0,,0.08925328,0.017105818,0.029633999,0.32791638,-0.2531891,-0.91014624,0.017958283,-0.96157193,0.27396512,-0.94453615,-0.10618219,-0.3107684,,0.057619922,0.0020692712,0.020950794,0.2778713,-0.1996358,0.93964523,-0.19044995,0.94730145,0.25758222,-0.94154996,-0.25053006,0.22520727,,0.083598286,1.2907714,0.4262755,0.9937985,0.08376469,-0.073130436,0.013514621,-0.743783,-0.66828454,-0.11037182,0.6631518,-0.74030244,,-0.08145655,0.24961177,-0.11774833,-0.2351349,0.26924902,0.93392533,-0.639073,-0.7667894,0.060164258,0.7323232,-0.5826998,0.3523687,,-0.054845292,0.41259107,-0.35255414,-0.11690492,0.18693402,-0.9753917,-0.8583036,0.47508848,0.19392222,0.499648,0.8598527,0.10490597,,1.1911620412532626,0.37718599630999927,0.20628381286000003,-1.2803667949165056,0.8150367211008523,0.7334055206967094,-0.42044762622963483,,-1.2457849308726525,0.10014839991294344,0.18771575490000003,0.49549733645393107,0.9958068102905301,-1.09249847578221,0.8585364116017717,,-0.06866343443502192,-0.04953898915629405,0.0911007994,-0.09223816666624303,,-2.1781772e-05,3.7550926e-06,2.6226044e-06,1.0,1.8112361e-05,1.6219914e-05,-1.8112361e-05,1.0,2.7120113e-06,-1.6227365e-05,-2.682209e-06,1.0,142,0.43,0,0,0.0,False,-0.25582675076423333,1.0468112961150775
0.4283111388795078,14:51:13.497532,14:49:53.626258,0,,0.08947055,0.017915763,0.030142128,0.32671192,-0.257043,-0.9094989,0.018454581,-0.96038795,0.27805454,-0.94494385,-0.10762808,-0.30902663,,0.05764924,0.0018534726,0.02106905,0.27864844,-0.20147298,0.93902266,-0.19307983,0.946033,0.2602722,-0.94078434,-0.25383088,0.22471029,,0.083598286,1.2907714,0.4262755,0.9937985,0.08376469,-0.073130436,0.013514621,-0.743783,-0.66828454,-0.11037182,0.6631518,-0.74030244,,-0.08172783,0.25053635,-0.11756679,-0.23390028,0.273216,0.9330829,-0.63889176,-0.76660347,0.06431516,0.73287654,-0.58109564,0.35386422,,-0.05488151,0.41253012,-0.35279164,-0.11765473,0.18932824,-0.97483957,-0.8596049,0.47210574,0.1954368,0.49722907,0.860971,0.10720201,,1.1934170792525363,0.3816033995140557,0.20634603478000002,-1.2761729960468153,0.8128505371046052,0.7352698858959927,-0.420610970295769,,-1.2460243355917535,0.09913672190642003,0.18752908914000002,0.4938198169060548,0.9941671722933447,-1.09075306723715,0.8616399488583231,,-0.06866343443502192,-0.04953898915629405,0.0911007994,-0.09223816666624303,,-2.1781772e-05,3.7550926e-06,2.6226044e-06,1.0,1.8112361e-05,1.6219914e-05,-1.8112361e-05,1.0,2.7120113e-06,-1.6227365e-05,-2.682209e-06,1.0,150,0.454,0,0,0.0,False,-0.25719703829021734,1.04835626254002
0.46691997605375946,14:51:13.528240,14:49:53.626258,0,,0.08965854,0.01871407,0.030638099,0.32530442,-0.26158297,-0.9087087,0.020422399,-0.95880914,0.28331593,-0.94538885,-0.11072183,-0.30656275,,0.05767016,0.0016630953,0.021230996,0.2737343,-0.19730605,0.94135,-0.18836972,0.9487802,0.25363928,-0.9431789,-0.24675164,0.2225472,,0.083598286,1.2907714,0.4262755,0.9937985,0.08376469,-0.073130436,0.013514621,-0.743783,-0.66828454,-0.11037182,0.6631518,-0.74030244,,-0.08196871,0.25144625,-0.11738605,-0.23247065,0.27802238,0.9320198,-0.63762873,-0.76717436,0.069807194,0.7344297,-0.5780545,0.3556206,,-0.054917596,0.4125193,-0.3530396,-0.112677634,0.18396834,-0.97645247,-0.8574919,0.47848624,0.1890993,0.50200737,0.85860735,0.10383666,,1.1956952854504324,0.3858817935263761,0.20642770105000002,-1.2730276468945474,0.8120307181060126,0.7350399271766253,-0.4207743143619034,,-1.2457849308726525,0.09845712141348828,0.18735668257000002,0.5055624537411882,0.9984029037860733,-1.0870192931193696,0.8676836793052914,,-0.06866343443502192,-0.04953898915629405,0.0911007994,-0.09223816666624303,,-2.1781772e-05,3.7550926e-06,2.6226044e-06,1.0,1.8112361e-05,1.6219914e-05,-1.8112361e-05,1.0,2.7120113e-06,-1.6227365e-05,-2.682209e-06,1.0,158,0.479,0,0,0.0,False,-0.2564821056679656,1.0482597021384612
0.49762520007789135,14:51:13.557160,14:49:53.626258,0,,0.089853466,0.019559406,0.031128764,0.32507002,-0.26451778,-0.90794265,0.019873261,-0.9579621,0.2862055,-0.9454812,-0.11108059,-0.306148,,0.05760158,0.001466251,0.021576047,0.26775897,-0.19138934,0.94428563,-0.17464823,0.95419466,0.2429205,-0.9475248,-0.22996196,0.2220684,,0.083598286,1.2907714,0.4262755,0.9937985,0.08376469,-0.073130436,0.013514621,-0.743783,-0.66828454,-0.11037182,0.6631518,-0.74030244,,-0.082216315,0.25238705,-0.11716937,-0.23222445,0.28097188,0.93119633,-0.63808143,-0.7665787,0.07217484,0.73411435,-0.5774183,0.35730127,,-0.05489371,0.41265193,-0.3534195,-0.10681631,0.17522518,-0.97871673,-0.8506697,0.49348766,0.18119325,0.5147342,0.85191905,0.09634623,,1.1981511145044357,0.39033781039480364,0.20652751538000003,-1.2694629178553105,0.8082048961125803,0.7377512347794221,-0.420610970295769,,-1.2452443395714567,0.09810187570127395,0.18705723958,0.5235957888808573,1.0109734617644939,-1.082567567034139,0.8694804640327685,,-0.06866343443502192,-0.04953898915629405,0.0911007994,-0.09223816666624303,,-2.1781772e-05,3.7550926e-06,2.6226044e-06,1.0,1.8112361e-05,1.6219914e-05,-1.8112361e-05,1.0,2.7120113e-06,-1.6227365e-05,-2.682209e-06,1.0,166,0.503,0,0,0.0,False,-0.2559459062012759,1.0490321853509326
0.5265489870216697,14:51:13.579989,14:49:53.743298,0,,0.09005911,0.020366907,0.03157404,0.32356635,-0.2692724,-0.9070817,0.017914087,-0.9567368,0.2904029,-0.946036,-0.110214025,-0.3047441,,0.057511598,0.0013280278,0.022019446,0.26351953,-0.19529836,0.9446777,-0.14898127,0.9593028,0.23988047,-0.9530803,-0.20395246,0.22369924,,0.083598286,1.2907714,0.4262755,0.9937985,0.08376469,-0.073130436,0.013514621,-0.743783,-0.66828454,-0.11037182,0.6631518,-0.74030244,,-0.08246992,0.25326875,-0.11694379,-0.23065996,0.28561136,0.93017316,-0.63979995,-0.764758,0.076165766,0.7331112,-0.5775564,0.35913318,,-0.054867152,0.41289875,-0.35382226,-0.103097826,0.17474711,-0.97920084,-0.8370708,0.5165268,0.1803121,0.5372925,0.8382503,0.09302292,,1.2004061525037093,0.39451580887975907,0.20664029261000003,-1.263381909494259,0.804105801119617,0.7406853781896121,-0.4207743143619034,,-1.2446419664072674,0.0980555393040286,0.18677983352000002,0.5454035430032479,1.0351581222229769,-1.0674933926885262,0.8711139046941112,,-0.06866343443502192,-0.04953898915629405,0.0911007994,-0.09223816666624303,,-2.1781772e-05,3.7550926e-06,2.6226044e-06,1.0,1.8112361e-05,1.6219914e-05,-1.8112361e-05,1.0,2.7120113e-06,-1.6227365e-05,-2.682209e-06,1.0,185,0.561,0,0,0.0,False,-0.25695872741613357,1.0487907843470352
0.549375823000446,14:51:13.630906,14:49:53.743298,0,,0.09041363,0.021575995,0.032189876,0.32164013,-0.27605116,-0.9057282,0.013706565,-0.95509994,0.29596633,-0.9467629,-0.10760903,-0.3034148,,0.057250537,0.0011548763,0.022616804,0.26346266,-0.21410975,0.9406085,-0.12606773,0.95905364,0.25361973,-0.9563966,-0.18539971,0.22568253,,0.083598286,1.2907714,0.4262755,0.9937985,0.08376469,-0.073130436,0.013514621,-0.743783,-0.66828454,-0.11037182,0.6631518,-0.74030244,,-0.08289112,0.25455177,-0.116565265,-0.22864194,0.2920943,0.928657,-0.6432725,-0.7613314,0.081086434,0.7307006,-0.5788397,0.36196852,,-0.054694105,0.41326103,-0.3543642,-0.10371211,0.19041206,-0.97621053,-0.82429,0.53279954,0.1914959,0.5565877,0.82454103,0.10169698,,1.2035106911191475,0.4007866679736294,0.20684381014000003,-1.253736172093971,0.7968640666320487,0.7461821333848194,-0.420610970295769,,-1.2439546431814614,0.09826405309163266,0.18628335445000002,0.5579849396123193,1.0574298716847434,-1.043263244858091,0.8735640656861254,,-0.06866343443502192,-0.04953898915629405,0.0911007994,-0.09223816666624303,,-2.1781772e-05,3.7550926e-06,2.6226044e-06,1.0,1.8112361e-05,1.6219914e-05,-1.8112361e-05,1.0,2.7120113e-06,-1.6227365e-05,-2.682209e-06,1.0,193,0.586,0,0,0.0,False,-0.2561246393568388,1.0490321853509326
0.6002844020258635,14:51:13.659521,14:49:53.743298,0,,0.0905623,0.022013068,0.032396853,0.32114038,-0.2782307,-0.90523845,0.011779845,-0.9546217,0.2975879,-0.9469583,-0.106230974,-0.3032901,,0.057148036,0.0010630852,0.022870958,0.26161486,-0.2145119,0.9410326,-0.12558767,0.95913434,0.25355268,-0.95696676,-0.18451518,0.22398373,,0.083598286,1.2907714,0.4262755,0.9937985,0.08376469,-0.073130436,0.013514621,-0.743783,-0.66828454,-0.11037182,0.6631518,-0.74030244,,-0.083062276,0.25500372,-0.11641553,-0.22811165,0.29412678,0.92814577,-0.644798,-0.75990516,0.08233891,0.7295208,-0.579684,0.36299556,,-0.054628003,0.41340187,-0.3546078,-0.101825275,0.19066617,-0.9763596,-0.8241101,0.533562,0.1901425,0.5572021,0.8239891,0.10279981,,1.204560982790042,0.403180715164639,0.20693066157,-1.2499617531112497,0.793858063637209,0.7486333272661407,-0.420610970295769,,-1.243869693119845,0.09841850774911715,0.18599428178000002,0.5617593585950407,1.0572932351849782,-1.0398846773487722,0.8742174419506625,,-0.06866343443502192,-0.04953898915629405,0.0911007994,-0.09223816666624303,,-2.1781772e-05,3.7550926e-06,2.6226044e-06,1.0,1.8112361e-05,1.6219914e-05,-1.8112361e-05,1.0,2.7120113e-06,-1.6227365e-05,-2.682209e-06,1.0,201,0.61,0,0,0.0,False,-0.2561842170753601,1.0490321853509326
0.628878602059558,14:51:13.680631,14:49:53.743298,0,,0.09079806,0.02266591,0.032699287,0.31974217,-0.2824047,-0.90444046,0.010278642,-0.95346,0.3013444,-0.94744885,-0.105648875,-0.30195862,,0.05708374,0.0010196036,0.023003757,0.26234764,-0.22326267,0.93879044,-0.12338513,0.95711994,0.2621021,-0.9570527,-0.18459466,0.22355084,,0.083598286,1.2907714,0.4262755,0.9937985,0.08376469,-0.073130436,0.013514621,-0.743783,-0.66828454,-0.11037182,0.6631518,-0.74030244,,-0.08333092,0.25567332,-0.11618593,-0.2266617,0.29821634,0.9271955,-0.6461411,-0.75836194,0.085958675,0.728784,-0.5796156,0.36458144,,-0.054583114,0.41348007,-0.35473245,-0.10264889,0.19941424,-0.9745241,-0.8228225,0.5334897,0.19583637,0.55895114,0.8219627,0.10932039,,1.205904738310157,0.406516935766304,0.20706677202,-1.244929194467621,0.7909886971421347,0.7508097457634846,-0.420610970295769,,-1.2438310794554737,0.09844167594773982,0.18585946762000002,0.5615496686515562,1.0596160556809908,-1.0313239029736196,0.8748708182151997,,-0.06866343443502192,-0.04953898915629405,0.0911007994,-0.09223816666624303,,-2.1781772e-05,3.7550926e-06,2.6226044e-06,1.0,1.8112361e-05,1.6219914e-05,-1.8112361e-05,1.0,2.7120113e-06,-1.6227365e-05,-2.682209e-06,1.0,209,0.634,0,0,0.0,False,-0.2570183051346544,1.04927358635483
0.6500306548550725,14:51:13.700367,14:49:53.888981,0,,0.09094894,0.02304808,0.032859176,0.31978247,-0.28377524,-0.9039972,0.0086556375,-0.953181,0.3022765,-0.9474515,-0.10448727,-0.30235434,,0.056973882,0.0009880429,0.023159921,0.2665181,-0.2353466,0.9346551,-0.11640358,0.9547725,0.27360478,-0.956775,-0.18171781,0.22706896,,0.083598286,1.2907714,0.4262755,0.9937985,0.08376469,-0.073130436,0.013514621,-0.743783,-0.66828454,-0.11037182,0.6631518,-0.74030244,,-0.08349935,0.25605297,-0.11603799,-0.22668977,0.29946604,0.92678577,-0.6473505,-0.75728464,0.08635579,0.72770125,-0.58037925,0.36552817,,-0.05449754,0.41359016,-0.3548666,-0.10716807,0.2110047,-0.97159255,-0.8186172,0.53586656,0.20667098,0.5642525,0.8175109,0.1153043,,1.2066461206660828,0.40855573724509925,0.20715491974000003,-1.2424129151458068,0.788255967146826,0.7530381038374129,-0.420610970295769,,-1.2437384066609831,0.0984339532148656,0.18573632007000002,0.5571461798383812,1.0675409726673861,-1.0239007555641162,0.8748708182151996,,-0.06866343443502192,-0.04953898915629405,0.0911007994,-0.09223816666624303,,-2.1781772e-05,3.7550926e-06,2.6226044e-06,1.0,1.8112361e-05,1.6219914e-05,-1.8112361e-05,1.0,2.7120113e-06,-1.6227365e-05,-2.682209e-06,1.0,217,0.658,0,0,0.0,False,-0.25695872741613357,1.048983905150153
0.669778754003346,14:51:13.734673,14:49:53.888981,0,,0.09119679,0.023634762,0.033093214,0.31844264,-0.28735828,-0.90333796,0.0077976584,-0.95212007,0.305625,-0.9479101,-0.10436788,-0.3009549,,0.05674446,0.00095400866,0.023335278,0.27658376,-0.2540203,0.92680913,-0.10844648,0.95002073,0.2927454,-0.95485115,-0.18147779,0.23521273,,0.083598286,1.2907714,0.4262755,0.9937985,0.08376469,-0.073130436,0.013514621,-0.743783,-0.66828454,-0.11037182,0.6631518,-0.74030244,,-0.08377292,0.25662705,-0.11580135,-0.22530566,0.30301294,0.92597,-0.6481989,-0.75616604,0.089727744,0.72737575,-0.57999665,0.36678115,,-0.054296914,0.41373074,-0.35502324,-0.11781,0.22963214,-0.9661211,-0.8134494,0.5357119,0.2265235,0.5695796,0.8125773,0.1236819,,1.207619185008235,0.4116602758605375,0.20731306712000003,-1.2377997363891473,0.7863430561501098,0.7549246694497251,-0.42093765842803754,,-1.243560783804876,0.09835672588612336,0.18557169124000003,0.5405806743031037,1.078061983149325,-1.0198197294269535,0.8747074741490655,,-0.06866343443502192,-0.04953898915629405,0.0911007994,-0.09223816666624303,,-2.1781772e-05,3.7550926e-06,2.6226044e-06,1.0,1.8112361e-05,1.6219914e-05,-1.8112361e-05,1.0,2.7120113e-06,-1.6227365e-05,-2.682209e-06,1.0,232,0.704,0,0,0.0,False,-0.25624379479388093,1.0480665813353434
0.7040908690541983,14:51:13.778656,14:49:53.888981,0,,0.09152957,0.02435641,0.033347964,0.31742206,-0.2909721,-0.90254,0.0066707134,-0.95105225,0.30895814,-0.94826096,-0.10409066,-0.29994398,,0.056471646,0.00089988764,0.023424864,0.2865053,-0.26130062,0.9217574,-0.10614151,0.94751024,0.30159253,-0.952181,-0.18424457,0.24373192,,0.083598286,1.2907714,0.4262755,0.9937985,0.08376469,-0.073130436,0.013514621,-0.743783,-0.66828454,-0.11037182,0.6631518,-0.74030244,,-0.08413401,0.25730914,-0.11548391,-0.22424777,0.30657515,0.92505383,-0.6491977,-0.754935,0.09281966,0.72681177,-0.5797282,0.36832038,,-0.054039042,0.41380173,-0.3551409,-0.12813318,0.23737597,-0.9629302,-0.8114628,0.5331191,0.23939946,0.5701841,0.8120571,0.12431154,,1.20861541754901,0.4155061968319013,0.20753084384000003,-1.2327671777455187,0.7837469626545664,0.7576133608009411,-0.42044762622963483,,-1.243151478962542,0.09820227122863887,0.18541224757000002,0.5200310598416203,1.0831175336406464,-1.0299047398939822,0.8735640656861254,,-0.06866343443502192,-0.04953898915629405,0.0911007994,-0.09223816666624303,,-2.1781772e-05,3.7550926e-06,2.6226044e-06,1.0,1.8112361e-05,1.6219914e-05,-1.8112361e-05,1.0,2.7120113e-06,-1.6227365e-05,-2.682209e-06,1.0,240,0.729,0,0,0.0,False,-0.2570778828531757,1.0479217407330053
0.7480684139300138,14:51:13.800037,14:49:53.888981,0,,0.09168197,0.024694055,0.033443153,0.31754902,-0.291731,-0.9022504,0.006263286,-0.950832,0.3096436,-0.9482212,-0.10397801,-0.30010864,,0.05635284,0.0008721715,0.023447037,0.29017413,-0.25921008,0.9211998,-0.10417339,0.94834113,0.29966137,-0.9512869,-0.18291846,0.24818128,,0.083598286,1.2907714,0.4262755,0.9937985,0.08376469,-0.073130436,0.013514621,-0.743783,-0.66828454,-0.11037182,0.6631518,-0.74030244,,-0.08429735,0.25761253,-0.11531786,-0.22437502,0.30731794,0.9247765,-0.64948255,-0.75464326,0.09319846,0.72651786,-0.5797148,0.36892074,,-0.05392389,0.41381752,-0.35518408,-0.13199382,0.23506345,-0.96297604,-0.8100563,0.5343261,0.24146287,0.5713023,0.81193644,0.119886905,,1.209032445124218,0.4172669799272245,0.20765139881000003,-1.231299348141127,0.7823805976569119,0.7591359335386081,-0.4212643465603061,,-1.2428502923804472,0.09811732116702239,0.18536169226000002,0.5126919118196621,1.086123536635486,-1.0389719117266891,0.8740540978845284,,-0.06866343443502192,-0.04953898915629405,0.0911007994,-0.09223816666624303,,-2.1781772e-05,3.7550926e-06,2.6226044e-06,1.0,1.8112361e-05,1.6219914e-05,-1.8112361e-05,1.0,2.7120113e-06,-1.6227365e-05,-2.682209e-06,1.0,248,0.753,0,0,0.0,False,-0.25695872741613357,1.047294098122872
0.7694567909929901,14:51:13.825914,14:49:53.888981,0,,0.09191342,0.025188781,0.033584118,0.31667814,-0.29453883,-0.90164393,0.005598128,-0.9499698,0.31229153,-0.9485166,-0.10394338,-0.2991858,,0.056212552,0.0008097952,0.023438811,0.29312372,-0.2589298,0.9203444,-0.10405791,0.9482695,0.299928,-0.95039487,-0.18368506,0.25101662,,0.083598286,1.2907714,0.4262755,0.9937985,0.08376469,-0.073130436,0.013514621,-0.743783,-0.66828454,-0.11037182,0.6631518,-0.74030244,,-0.08454494,0.25805745,-0.1150751,-0.22347483,0.31010294,0.92406446,-0.65011203,-0.75378305,0.095736474,0.72623235,-0.5793507,0.37005317,,-0.053781003,0.41379136,-0.3552344,-0.1350486,0.23491062,-0.9625897,-0.8097718,0.5336745,0.24384673,0.5709917,0.8124091,0.11815201,,1.2096116500897849,0.4198232045085928,0.20783028683000002,-1.22773461910189,0.7808775961594921,0.7606065666996904,-0.4207743143619034,,-1.242325146545,0.09790880737941833,0.18530076663000003,0.5055624537411882,1.087353265133375,-1.0454471484493746,0.8735640656861254,,-0.06866343443502192,-0.04953898915629405,0.0911007994,-0.09223816666624303,,-2.1781772e-05,3.7550926e-06,2.6226044e-06,1.0,1.8112361e-05,1.6219914e-05,-1.8112361e-05,1.0,2.7120113e-06,-1.6227365e-05,-2.682209e-06,1.0,256,0.777,0,0,0.0,False,-0.25677999426057063,1.0476320595283284
0.7953310960438102,14:51:13.849961,14:49:53.888981,0,,0.09205044,0.025521152,0.033673167,0.3163202,-0.29559427,-0.9014242,0.005384922,-0.9496405,0.3132949,-0.9486371,-0.10395542,-0.29879886,,0.05615408,0.0007771896,0.02341938,0.29531282,-0.26125255,0.9189872,-0.103174716,0.9475408,0.30252472,-0.9498133,-0.18415576,0.25286633,,0.08361183,1.2907727,0.42627332,0.99379855,0.08376136,-0.07313343,0.013510175,-0.74378335,-0.6682842,-0.11037182,0.6631518,-0.74030244,,-0.084705554,0.25835547,-0.11490873,-0.2231054,0.31114796,0.92380244,-0.65032446,-0.75347406,0.0967209,0.72615564,-0.5791924,0.37045127,,-0.053731985,0.41376558,-0.35524946,-0.1373456,0.23731726,-0.9616739,-0.8090898,0.5331968,0.24713339,0.5714105,0.8120232,0.118778735,,1.2100286776649931,0.4215299284737964,0.20796510099,-1.2258474096105294,0.779921140661134,0.7620399219466898,-0.4207743143619034,,-1.2420007917642826,0.09776979818768229,0.18528391486,0.5007395850410442,1.0889929031305603,-1.0473559144747153,0.873400721619991,,-0.06866343443502192,-0.04953898915629405,0.0911007994,-0.09223816666624303,,-8.054078e-06,2.4437904e-06,2.3841858e-06,1.0,1.47894025e-05,1.3254583e-05,-1.4796853e-05,0.9999999,2.1755695e-06,-1.3269484e-05,-2.2053719e-06,1.0,275,0.835,0,0,0.0,False,-0.2566012611050077,1.047390658524431
0.8193813578691334,14:51:13.901442,14:49:54.081748,0,,0.09243407,0.026557282,0.033918113,0.3138262,-0.29927525,-0.9010814,0.005467415,-0.9484402,0.31690863,-0.9494647,-0.10438073,-0.2960092,,0.056057945,0.00073519815,0.023379922,0.29530218,-0.26088938,0.9190937,-0.10202873,0.94788235,0.30184272,-0.94994044,-0.18290886,0.2532935,,0.08361183,1.2907727,0.42627332,0.99379855,0.08376136,-0.07313343,0.013510175,-0.74378335,-0.6682842,-0.11037182,0.6631518,-0.74030244,,-0.085118584,0.25926092,-0.114369914,-0.22054371,0.314844,0.9231651,-0.65063965,-0.75260806,0.10123828,0.7266557,-0.5783203,0.37083295,,-0.05362882,0.41372335,-0.355261,-0.13737467,0.23674628,-0.96181047,-0.80842096,0.5342822,0.24697785,0.5723493,0.8114763,0.11799382,,1.21150371964397,0.4264415865818032,0.20840454330000002,-1.2191373314190246,0.7782815026639488,0.7663173714361072,-0.4212643465603061,,-1.241359804935722,0.0976771253931916,0.18527613712000002,0.5003202051540752,1.0904959046279803,-1.0486631901555168,0.8735640656861254,,-0.06866343443502192,-0.04953898915629405,0.0911007994,-0.09223816666624303,,-8.054078e-06,2.4437904e-06,2.3841858e-06,1.0,1.47894025e-05,1.3254583e-05,-1.4796853e-05,0.9999999,2.1755695e-06,-1.3269484e-05,-2.2053719e-06,1.0,283,0.86,0,0,0.0,False,-0.2566012611050077,1.04748721892599
0.8708615980576724,14:51:13.930552,14:49:54.081748,0,,0.09258219,0.02709873,0.034006774,0.31203344,-0.29845548,-0.9019754,0.006223172,-0.9487141,0.31607378,-0.9500507,-0.10423863,-0.29417324,,0.056034237,0.000738685,0.02337265,0.29517615,-0.26095775,0.9191148,-0.1020087,0.9478717,0.3018829,-0.94998175,-0.18286636,0.25316918,,0.08361183,1.2907727,0.42627332,0.99379855,0.08376136,-0.07313343,0.013510175,-0.74378335,-0.6682842,-0.11037182,0.6631518,-0.74030244,,-0.08527852,0.25971153,-0.11406279,-0.21870819,0.31401637,0.9238834,-0.6503433,-0.75277424,0.10190467,0.7274753,-0.578554,0.36885634,,-0.053604472,0.4137239,-0.35525513,-0.13724494,0.23680763,-0.9618139,-0.8084189,0.5343166,0.24691018,0.57238334,0.8114357,0.11810753,,1.2123763884587573,0.4287429609783221,0.20867676420000003,-1.2157822923232722,0.7782815026639488,0.7711364171044003,-0.42093765842803754,,-1.24122851847686,0.09773890725618539,0.18527484083,0.5003202051540752,1.0904959046279803,-1.0486631901555168,0.8735640656861254,,-0.06866343443502192,-0.04953898915629405,0.0911007994,-0.09223816666624303,,-8.054078e-06,2.4437904e-06,2.3841858e-06,1.0,1.47894025e-05,1.3254583e-05,-1.4796853e-05,0.9999999,2.1755695e-06,-1.3269484e-05,-2.2053719e-06,1.0,291,0.885,0,0,0.0,False,-0.25636295023092304,1.0480665813353434
0.899957689922303,14:51:13.960378,14:49:54.081748,0,,0.09267837,0.02744349,0.03406915,0.3111023,-0.2977138,-0.90254194,0.006689012,-0.9489583,0.31533036,-0.95035285,-0.10413697,-0.2932318,,0.056030378,0.0007503377,0.023373365,0.2951629,-0.26099184,0.9191094,-0.101943165,0.94787395,0.30189797,-0.9499929,-0.18280607,0.2531709,,0.08361183,1.2907727,0.42627332,0.99379855,0.08376136,-0.07313343,0.013510175,-0.74378335,-0.6682842,-0.11037182,0.6631518,-0.74030244,,-0.08538278,0.2600023,-0.113871485,-0.21775562,0.3132701,0.9243616,-0.6501335,-0.7529398,0.10201992,0.7279484,-0.57874304,0.36762425,,-0.053601384,0.41373274,-0.3552472,-0.13723353,0.23683172,-0.9618096,-0.8083816,0.53436744,0.24692228,0.5724388,0.8113952,0.11811729,,1.2129401479585757,0.43023344842304745,0.2088452819,-1.2138950828319115,0.7781448661641833,0.7742699483932974,-0.42012093809736606,,-1.24122851847686,0.09780841185205341,0.18527743341000003,0.5003202051540752,1.0904959046279803,-1.0486631901555168,0.8735640656861254,,-0.06866343443502192,-0.04953898915629405,0.0911007994,-0.09223816666624303,,-8.054078e-06,2.4437904e-06,2.3841858e-06,1.0,1.47894025e-05,1.3254583e-05,-1.4796853e-05,0.9999999,2.1755695e-06,-1.3269484e-05,-2.2053719e-06,1.0,299,0.908,0,0,0.0,False,-0.2561842170753601,1.0477769001306665
0.9297780280467123,14:51:13.989817,14:49:54.081748,0,,0.092822224,0.028001308,0.034157664,0.31025845,-0.29728067,-0.90297514,0.008189052,-0.94897676,0.3152392,-0.95061696,-0.10519999,-0.29199368,,0.05603611,0.00076711643,0.023382366,0.29521394,-0.26101118,0.9190875,-0.101840675,0.9478841,0.3019007,-0.949988,-0.18272576,0.25324708,,0.08361183,1.2907727,0.42627332,0.99379855,0.08376136,-0.07313343,0.013510175,-0.74378335,-0.6682842,-0.11037182,0.6631518,-0.74030244,,-0.085538566,0.26046526,-0.113553576,-0.21690105,0.31294197,0.9246736,-0.6491367,-0.7536923,0.10280766,0.7290922,-0.5779405,0.36661878,,-0.053609326,0.41374964,-0.35524026,-0.13728994,0.2368377,-0.9618001,-0.8083177,0.5344359,0.24698322,0.5725154,0.8113483,0.118067436,,1.21384370770486,0.43261205014830856,0.20913176199000003,-1.2122175632840353,0.7782815026639488,0.7771806438748019,-0.42028428216350044,,-1.2413057458056023,0.09789336191366989,0.1852787297,0.5003202051540752,1.0904959046279803,-1.0486631901555168,0.8735640656861254,,-0.06866343443502192,-0.04953898915629405,0.0911007994,-0.09223816666624303,,-8.054078e-06,2.4437904e-06,2.3841858e-06,1.0,1.47894025e-05,1.3254583e-05,-1.4796853e-05,0.9999999,2.1755695e-06,-1.3269484e-05,-2.2053719e-06,1.0,311,0.945,0,0,0.0,False,-0.25600548391979716,1.0484045427407995
0.9591780409682542,14:51:14.021889,14:49:54.081748,0,,0.09303967,0.028855361,0.03425792,0.31033713,-0.2967037,-0.9031378,0.008656561,-0.9491232,0.31478557,-0.9505871,-0.10550755,-0.29197982,,0.056039438,0.00077242125,0.02338487,0.2952364,-0.26101363,0.91907954,-0.10180977,0.9478878,0.30189943,-0.9499843,-0.18270305,0.25327724,,0.08361183,1.2907727,0.42627332,0.99379855,0.08376136,-0.07313343,0.013510175,-0.74378335,-0.6682842,-0.11037182,0.6631518,-0.74030244,,-0.085770875,0.26115078,-0.11304089,-0.21698564,0.31239852,0.92483747,-0.64877534,-0.75404644,0.102491565,0.7293886,-0.5777726,0.3662937,,-0.05361328,0.4137545,-0.35523772,-0.13731427,0.23683634,-0.96179694,-0.80829793,0.5344554,0.2470057,0.5725375,0.8113359,0.11804597,,1.215218354156472,0.43619539820194875,0.20958546349,-1.2103303537926746,0.7762319551674671,0.7814656321147462,-0.42028428216350044,,-1.2413366367370993,0.09791653011229255,0.18528002599,0.5003202051540752,1.0904959046279803,-1.0486631901555168,0.8735640656861254,,-0.06866343443502192,-0.04953898915629405,0.0911007994,-0.09223816666624303,,-8.054078e-06,2.4437904e-06,2.3841858e-06,1.0,1.47894025e-05,1.3254583e-05,-1.4796853e-05,0.9999999,2.1755695e-06,-1.3269484e-05,-2.2053719e-06,1.0,322,0.979,0,0,0.0,False,-0.25558843989015,1.048452822941579
0.9912965570110828,14:51:14.047476,14:49:54.081748,0,,0.09314792,0.029230729,0.034317255,0.31043124,-0.29742157,-0.9028693,0.009882897,-0.9487318,0.31592748,-0.9505445,-0.106996626,-0.29157668,,0.056039877,0.0007702159,0.023382425,0.29523262,-0.26108333,0.919061,-0.10182652,0.9478619,0.30197507,-0.9499837,-0.18273783,0.25325456,,0.08361183,1.2907727,0.42627332,0.99379855,0.08376136,-0.07313343,0.013510175,-0.74378335,-0.6682842,-0.11037182,0.6631518,-0.74030244,,-0.08588709,0.26146138,-0.112826034,-0.21709235,0.31325424,0.92452294,-0.6478432,-0.7546977,0.103589036,0.73018503,-0.5764575,0.3667787,,-0.053613212,0.41375116,-0.35523775,-0.13730977,0.2369119,-0.96177894,-0.80830806,0.5344233,0.24704204,0.5725243,0.81133497,0.11811625,,1.215766668190542,0.4378480630370328,0.20977861070000003,-1.21012066384919,0.7762319551674671,0.7815473108548867,-0.4204476262296346,,-1.241328914004225,0.09790108464654411,0.18528132228000002,0.5003202051540752,1.0904959046279803,-1.0485815114153763,0.8737274097522596,,-0.06866343443502192,-0.04953898915629405,0.0911007994,-0.09223816666624303,,-8.054078e-06,2.4437904e-06,2.3841858e-06,1.0,1.47894025e-05,1.3254583e-05,-1.4796853e-05,0.9999999,2.1755695e-06,-1.3269484e-05,-2.2053719e-06,1.0,355,1.08,0,0,0.0,False,-0.256065061638318,1.048452822941579
1.016896131914109,14:51:14.150334,14:49:54.286895,0,,0.09373635,0.031240188,0.03443846,0.3131124,-0.29769984,-0.9018511,0.011110902,-0.9483874,0.3169189,-0.949651,-0.10925141,-0.29364425,,0.056039028,0.00076872576,0.023378551,0.29518893,-0.26122653,0.91903436,-0.10197118,0.9477898,0.3021526,-0.9499818,-0.18290722,0.2531395,,0.08361183,1.2907727,0.42627332,0.99379855,0.08376136,-0.07313343,0.013510175,-0.74378335,-0.6682842,-0.11037182,0.6631518,-0.74030244,,-0.08649905,0.26299253,-0.111529924,-0.2198562,0.31374678,0.9237024,-0.6465244,-0.75592506,0.10287583,0.7305268,-0.57457834,0.36903977,,-0.05361168,0.41374743,-0.35523632,-0.13725948,0.23708338,-0.9617439,-0.808396,0.53427297,0.24707955,0.5724122,0.8113839,0.11832322,,1.218353783703407,0.4462581191370633,0.21093360509000003,-1.2086528342447984,0.7709031316766151,0.7873628264215773,-0.4204476262296346,,-1.2413134685384766,0.09789336191366989,0.18528261857000003,0.5003202051540752,1.0903592681282146,-1.0483884147715392,0.873890753818394,,-0.06866343443502192,-0.04953898915629405,0.0911007994,-0.09223816666624303,,-8.054078e-06,2.4437904e-06,2.3841858e-06,1.0,1.47894025e-05,1.3254583e-05,-1.4796853e-05,0.9999999,2.1755695e-06,-1.3269484e-05,-2.2053719e-06,1.0,363,1.105,0,0,0.0,False,-0.2571374605716965,1.0482597021384612
1.11975058587268,14:51:14.178039,14:49:54.286895,0,,0.093871474,0.03164058,0.034463614,0.31162417,-0.2988133,-0.90199834,0.008884877,-0.9483087,0.3172245,-0.95016384,-0.10686877,-0.2928611,,0.056042008,0.00076982845,0.02338165,0.29524082,-0.26107728,0.9190601,-0.101831555,0.9478624,0.30197182,-0.9499806,-0.18274385,0.25326174,,0.08361183,1.2907727,0.42627332,0.99379855,0.08376136,-0.07313343,0.013510175,-0.74378335,-0.6682842,-0.11037182,0.6631518,-0.74030244,,-0.08663887,0.26329702,-0.11127118,-0.21830922,0.31462398,0.92377096,-0.64841413,-0.7542008,0.10363487,0.72931486,-0.5763617,0.36865565,,-0.053615168,0.41375,-0.35523736,-0.13731807,0.23690687,-0.961779,-0.8083104,0.5344183,0.24704531,0.57251906,0.8113398,0.11810899,,1.2188866522717285,0.4478721703077762,0.21115527068000003,-1.2042493454316234,0.7685803111806025,0.79121722054779,-0.4201209380973663,,-1.2413366367370993,0.09789336191366989,0.18528261857000003,0.5003202051540752,1.0904959046279803,-1.048581511415376,0.8740540978845281,,-0.06866343443502192,-0.04953898915629405,0.0911007994,-0.09223816666624303,,-8.054078e-06,2.4437904e-06,2.3841858e-06,1.0,1.47894025e-05,1.3254583e-05,-1.4796853e-05,0.9999999,2.1755695e-06,-1.3269484e-05,-2.2053719e-06,1.0,371,1.129,0,0,0.0,False,-0.2566012611050077,1.0485011031423586
1.1474595149047673,14:51:14.203836,14:49:54.286895,0,,0.09404631,0.03222893,0.034535855,0.30766547,-0.3007222,-0.90272266,0.0069812834,-0.9480026,0.31818554,-0.95146894,-0.10419676,-0.28956836,,0.056041427,0.0007683085,0.023380697,0.29523554,-0.2612259,0.9190196,-0.10184115,0.9478121,0.3021266,-0.9499812,-0.18279257,0.2532243,,0.08361183,1.2907727,0.42627332,0.99379855,0.08376136,-0.07313343,0.013510175,-0.74378335,-0.6682842,-0.11037182,0.6631518,-0.74030244,,-0.08682414,0.26376966,-0.110918716,-0.21422915,0.31626317,0.9241664,-0.65041906,-0.7520591,0.10659323,0.72873926,-0.57826006,0.36681658,,-0.053614363,0.41374835,-0.3552379,-0.13731231,0.23706365,-0.9617412,-0.80831635,0.5343717,0.24712665,0.572512,0.8113247,0.11824662,,1.2198133802166355,0.45018899017004355,0.21147026915000003,-1.196490817522696,0.7670773096831827,0.7971801844166032,-0.4211010024941719,,-1.241328914004225,0.09788563918079567,0.18528261857000003,0.5003202051540752,1.0904959046279803,-1.0484181539350952,0.8740540978845281,,-0.06866343443502192,-0.04953898915629405,0.0911007994,-0.09223816666624303,,-8.054078e-06,2.4437904e-06,2.3841858e-06,1.0,1.47894025e-05,1.3254583e-05,-1.4796853e-05,0.9999999,2.1755695e-06,-1.3269484e-05,-2.2053719e-06,1.0,379,1.154,0,0,0.0,False,-0.25642252794944387,1.0480665813353434
1.173190220957622,14:51:14.232215,14:49:54.286895,0,,0.094186485,0.032812454,0.03459999,0.30463418,-0.30174804,-0.9034081,0.0047656,-0.94799554,0.31824768,-0.95245755,-0.101254225,-0.2873539,,0.056038186,0.00076839793,0.023380816,0.2952206,-0.2613092,0.9190007,-0.10183832,0.94778615,0.30220878,-0.9499862,-0.18280786,0.25319478,,0.08361183,1.2907727,0.42627332,0.99379855,0.08376136,-0.07313343,0.013510175,-0.74378335,-0.6682842,-0.11037182,0.6631518,-0.74030244,,-0.08697409,0.2642357,-0.11056577,-0.21110041,0.3169995,0.9246339,-0.65250987,-0.7500211,0.10816303,0.7277826,-0.58049953,0.36517507,,-0.05361119,0.413749,-0.35523814,-0.13729697,0.23714958,-0.9617222,-0.8083159,0.5343558,0.24716242,0.5725163,0.81131,0.11832633,,1.2208713946204044,0.452405414504946,0.2117878602,-1.189990429274676,0.7647544891871703,0.8031582257864704,-0.4214276906264405,,-1.2413134685384766,0.09789336191366989,0.18528132228000002,0.5003202051540752,1.0904959046279803,-1.0483364751949544,0.873890753818394,,-0.06866343443502192,-0.04953898915629405,0.0911007994,-0.09223816666624303,,-8.054078e-06,2.4437904e-06,2.3841858e-06,1.0,1.47894025e-05,1.3254583e-05,-1.4796853e-05,0.9999999,2.1755695e-06,-1.3269484e-05,-2.2053719e-06,1.0,387,1.178,0,0,0.0,False,-0.2561246393568388,1.0486942239454764
1.2016216048505157,14:51:14.258387,14:49:54.431545,0,,0.09429483,0.03336203,0.03464815,0.3018848,-0.30267036,-0.9040223,0.0029358566,-0.9479643,0.31836268,-0.95333993,-0.09876281,-0.28528747,,0.05603676,0.0007665204,0.023382127,0.29524714,-0.2613153,0.9189905,-0.10171506,0.94780624,0.30218744,-0.9499911,-0.18269527,0.25325736,,0.08361183,1.2907727,0.42627332,0.99379855,0.08376136,-0.07313343,0.013510175,-0.74378335,-0.6682842,-0.11037182,0.6631518,-0.74030244,,-0.08709058,0.26466817,-0.11022592,-0.20826538,0.31767625,0.9250445,-0.65426314,-0.7482731,0.10966847,0.727025,-0.5823824,0.36368322,,-0.053609893,0.41374895,-0.3552405,-0.1373287,0.2371369,-0.9617208,-0.8082417,0.5344526,0.24719568,0.5726134,0.81125,0.11826826,,1.221929409024173,0.4543978795864959,0.21210026609000002,-1.1843288008005934,0.7627049416906886,0.808341680167961,-0.420610970295769,,-1.2413057458056023,0.09788563918079567,0.18528002599,0.5003202051540752,1.0906325411277455,-1.0483662143585104,0.873400721619991,,-0.06866343443502192,-0.04953898915629405,0.0911007994,-0.09223816666624303,,-8.054078e-06,2.4437904e-06,2.3841858e-06,1.0,1.47894025e-05,1.3254583e-05,-1.4796853e-05,0.9999999,2.1755695e-06,-1.3269484e-05,-2.2053719e-06,1.0,399,1.216,0,0,0.0,False,-0.25683957197909146,1.0483079823392407
1.2278035799972713,14:51:14.293580,14:49:54.431545,0,,0.094384074,0.033850215,0.034666806,0.2980304,-0.3048429,-0.90457106,-0.000528723,-0.94768745,0.319199,-0.9545562,-0.09465262,-0.28260094,,0.056038577,0.00076464284,0.02338326,0.29528847,-0.26146322,0.91893506,-0.10159457,0.9477781,0.3023161,-0.94999117,-0.18262938,0.25330478,,0.08361183,1.2907727,0.42627332,0.99379855,0.08376136,-0.07313343,0.013510175,-0.74378335,-0.6682842,-0.11037182,0.6631518,-0.74030244,,-0.08718475,0.26503673,-0.10990664,-0.20428637,0.31943893,0.92532474,-0.65737504,-0.74517626,0.11211799,0.72534484,-0.5853812,0.36222053,,-0.05361177,0.41374826,-0.35524258,-0.13737576,0.23727396,-0.9616803,-0.80816805,0.5345046,0.24732412,0.5727061,0.81117564,0.118329264,,1.2229101960991995,0.45601965349008305,0.21239063505000003,-1.1765702728916663,0.7598355751956144,0.8139486057512083,-0.420610970295769,,-1.2413134685384766,0.09787019371504721,0.18528002599,0.5003202051540752,1.0907691776275112,-1.0482325960417853,0.873890753818394,,-0.06866343443502192,-0.04953898915629405,0.0911007994,-0.09223816666624303,,-8.054078e-06,2.4437904e-06,2.3841858e-06,1.0,1.47894025e-05,1.3254583e-05,-1.4796853e-05,0.9999999,2.1755695e-06,-1.3269484e-05,-2.2053719e-06,1.0,436,1.33,0,0,0.0,False,-0.2559459062012759,1.0482597021384612
1.2629993099253625,14:51:14.399583,14:49:54.431545,0,,0.09478715,0.03513091,0.034549892,0.28174397,-0.31087244,-0.9077327,-0.00926733,-0.94689536,0.32140803,-0.9594449,-0.08214235,-0.2696631,,0.056034863,0.00076878536,0.023387194,0.29540417,-0.26143235,0.9189066,-0.10104361,0.9478867,0.30216014,-0.95001405,-0.18210906,0.25359362,,0.08361183,1.2907727,0.42627332,0.99379855,0.08376136,-0.07313343,0.013510175,-0.74378335,-0.6682842,-0.11037182,0.6631518,-0.74030244,,-0.08758391,0.26588124,-0.108935155,-0.18754044,0.32422414,0.927204,-0.6659766,-0.73582894,0.1226008,0.72201365,-0.5945036,0.35392338,,-0.053608947,0.4137545,-0.3552423,-0.13751484,0.2371565,-0.96168935,-0.8078367,0.53495324,0.24743663,0.5731401,0.81091416,0.11801971,,1.2243311789480569,0.4601049791805478,0.21328248257000001,-1.1478427506342863,0.756009753202182,0.834220842484226,-0.4193042177666948,,-1.2413057458056023,0.09789336191366989,0.18528132228000002,0.5003202051540752,1.091315723626573,-1.048433231436149,0.8737274097522597,,-0.06866343443502192,-0.04953898915629405,0.0911007994,-0.09223816666624303,,-8.054078e-06,2.4437904e-06,2.3841858e-06,1.0,1.47894025e-05,1.3254583e-05,-1.4796853e-05,0.9999999,2.1755695e-06,-1.3269484e-05,-2.2053719e-06,1.0,444,1.355,0,0,0.0,False,-0.25558843989015,1.048452822941579
1.369002321967855,14:51:14.428127,14:49:54.431545,0,,0.09488559,0.035274975,0.034472257,0.27707785,-0.3130948,-0.908405,-0.01064688,-0.94636285,0.32292998,-0.9607885,-0.07980493,-0.26554972,,0.056026388,0.0007651197,0.023385823,0.29542193,-0.26138443,0.91891456,-0.10080093,0.9479478,0.30204946,-0.95003426,-0.1818595,0.2536968,,0.08361183,1.2907727,0.42627332,0.99379855,0.08376136,-0.07313343,0.013510175,-0.74378335,-0.6682842,-0.11037182,0.6631518,-0.74030244,,-0.087675415,0.26592955,-0.108774655,-0.18275633,0.32620606,0.9274641,-0.66756856,-0.7337201,0.12651871,0.7217703,-0.5960238,0.35185692,,-0.05360017,0.41375232,-0.35524467,-0.1375418,0.23706703,-0.9617076,-0.80769324,0.5351694,0.24743758,0.57333577,0.8107977,0.11786927,,1.2241226651604529,0.46044477942701373,0.21343155592000002,-1.140503602612328,0.7566929357010093,0.8379110474530533,-0.419304217766695,,-1.2412516866754828,0.09788563918079567,0.18528002599,0.5003202051540752,1.0915889966261039,-1.0485743885034013,0.8735640656861254,,-0.06866343443502192,-0.04953898915629405,0.0911007994,-0.09223816666624303,,-8.054078e-06,2.4437904e-06,2.3841858e-06,1.0,1.47894025e-05,1.3254583e-05,-1.4796853e-05,0.9999999,2.1755695e-06,-1.3269484e-05,-2.2053719e-06,1.0,452,1.379,0,0,0.0,False,-0.2547543518308557,1.048114861536123
1.3975398868788034,14:51:14.452506,14:49:54.626521,0,,0.09492797,0.035307877,0.034419507,0.27498338,-0.31193322,-0.90944046,-0.011451483,-0.94690144,0.32131955,-0.9613807,-0.077943,-0.26395437,,0.05601728,0.0007631825,0.023383737,0.29550284,-0.2614121,0.9188807,-0.1007019,0.9479526,0.30206755,-0.9500196,-0.18179497,0.253798,,0.08361183,1.2907727,0.42627332,0.99379855,0.08376136,-0.07313343,0.013510175,-0.74378335,-0.6682842,-0.11037182,0.6631518,-0.74030244,,-0.08771273,0.26591584,-0.10871074,-0.18060863,0.32487378,0.92835206,-0.6684135,-0.73296076,0.12645899,0.7215288,-0.5976835,0.34952906,,-0.053590756,0.41375083,-0.35524532,-0.13762905,0.23708399,-0.9616909,-0.80762905,0.5352241,0.24752887,0.57340527,0.8107567,0.11781354,,1.223921874105723,0.4604525021598879,0.21348988897,-1.1371485635165755,0.7569662087005401,0.8419355061329697,-0.41963090589896335,,-1.2412053502782374,0.09788563918079567,0.1852787297,0.5001105152105906,1.0917256331258691,-1.0487674851472382,0.8737274097522597,,-0.06866343443502192,-0.04953898915629405,0.0911007994,-0.09223816666624303,,-8.054078e-06,2.4437904e-06,2.3841858e-06,1.0,1.47894025e-05,1.3254583e-05,-1.4796853e-05,0.9999999,2.1755695e-06,-1.3269484e-05,-2.2053719e-06,1.0,460,1.404,0,0,0.0,False,-0.2551713958605024,1.0484045427407995
1.4219180059153587,14:51:14.475130,14:49:54.626521,0,,0.09494287,0.035300784,0.034371972,0.27459273,-0.31012908,-0.9101752,-0.011122614,-0.9475213,0.3194986,-0.96149623,-0.07760832,-0.263632,,0.056006398,0.0007599341,0.02338016,0.29547396,-0.26136482,0.9189034,-0.100589275,0.9479915,0.30198294,-0.9500405,-0.18166003,0.2538163,,0.08361183,1.2907727,0.42627332,0.99379855,0.08376136,-0.07313343,0.013510175,-0.74378335,-0.6682842,-0.11037182,0.6631518,-0.74030244,,-0.08772291,0.26587784,-0.10867937,-0.18021102,0.32305026,0.9290654,-0.668219,-0.7333245,0.12537359,0.72180843,-0.5982254,0.34802148,,-0.053579297,0.4137477,-0.3552461,-0.13760313,0.2370142,-0.9617118,-0.8075653,0.5353416,0.24748273,0.5735013,0.81069946,0.11773975,,1.2237056375852446,0.4603443838996488,0.21352229622000002,-1.1367291836296065,0.7576493911993673,0.8440738150391262,-0.41914087370056063,,-1.2411358456823693,0.09788563918079567,0.18527743341000003,0.5001105152105906,1.0918622696256346,-1.0488789030509347,0.8737274097522597,,-0.06866343443502192,-0.04953898915629405,0.0911007994,-0.09223816666624303,,-8.054078e-06,2.4437904e-06,2.3841858e-06,1.0,1.47894025e-05,1.3254583e-05,-1.4796853e-05,0.9999999,2.1755695e-06,-1.3269484e-05,-2.2053719e-06,1.0,468,1.429,0,0,0.0,False,-0.2552309735790237,1.0479217407330053
1.4445493209641427,14:51:14.502636,14:49:54.626521,0,,0.09494683,0.035192944,0.034264117,0.27683592,-0.30767673,-0.910328,-0.0094227195,-0.9481766,0.31760344,-0.96087104,-0.07934606,-0.26538858,,0.055995338,0.00075731147,0.023379624,0.2955797,-0.2613274,0.91888005,-0.10035971,0.9480411,0.30190384,-0.9500319,-0.1814552,0.25399494,,0.08361183,1.2907727,0.42627332,0.99379855,0.08376136,-0.07313343,0.013510175,-0.74378335,-0.6682842,-0.11037182,0.6631518,-0.74030244,,-0.08771565,0.26572567,-0.10867161,-0.18251644,0.32078233,0.9294011,-0.66669786,-0.73514104,0.122806974,0.72263527,-0.5972155,0.34804022,,-0.053568173,0.41374725,-0.35524845,-0.13772067,0.2369427,-0.9617126,-0.8074226,0.5355189,0.24756467,0.5736739,0.81060326,0.11756086,,1.2230723734895583,0.4598655744614469,0.21353525912000001,-1.140503602612328,0.7590157561970217,0.843122993482443,-0.41914087370056063,,-1.2410817865522499,0.09788563918079567,0.18527484083,0.4999008252671061,1.0921355426251653,-1.049183417598468,0.873890753818394,,-0.06866343443502192,-0.04953898915629405,0.0911007994,-0.09223816666624303,,-8.054078e-06,2.4437904e-06,2.3841858e-06,1.0,1.47894025e-05,1.3254583e-05,-1.4796853e-05,0.9999999,2.1755695e-06,-1.3269484e-05,-2.2053719e-06,1.0,476,1.454,0,0,0.0,False,-0.2551713958605024,1.0477769001306665
1.4720393079333007,14:51:14.532651,14:49:54.626521,0,,0.094990954,0.035054788,0.03414175,0.27504402,-0.30998415,-0.9100883,-0.011195391,-0.9475653,0.31936568,-0.9613664,-0.077650666,-0.26409265,,0.055965856,0.0007484602,0.02336979,0.29554614,-0.26131797,0.91889364,-0.10029888,0.9480579,0.30187124,-0.9500487,-0.18138093,0.25398493,,0.08361183,1.2907727,0.42627332,0.99379855,0.08376136,-0.07313343,0.013510175,-0.74378335,-0.6682842,-0.11037182,0.6631518,-0.74030244,,-0.08774671,0.26553845,-0.10867074,-0.18067223,0.32291043,0.92902446,-0.66821814,-0.7333956,0.12496187,0.7216939,-0.59821385,0.34827882,,-0.053537086,0.4137386,-0.35525048,-0.1376881,0.23692091,-0.9617227,-0.8073895,0.5355831,0.24753368,0.57372826,0.81056726,0.11754404,,1.22230782293501,0.45920141943426357,0.21352618509000001,-1.1371485635165755,0.7590157561970217,0.843122993482443,-0.41914087370056063,,-1.2409041636961426,0.09788563918079567,0.18526965567,0.4996911353236215,1.092272179124931,-1.0494581929824458,0.8735640656861254,,-0.06866343443502192,-0.04953898915629405,0.0911007994,-0.09223816666624303,,-8.054078e-06,2.4437904e-06,2.3841858e-06,1.0,1.47894025e-05,1.3254583e-05,-1.4796853e-05,0.9999999,2.1755695e-06,-1.3269484e-05,-2.2053719e-06,1.0,484,1.478,0,0,0.0,False,-0.2552905512975445,1.0469561367174158
1.5019996010232717,14:51:14.556843,14:49:54.626521,0,,0.095004894,0.034918472,0.03404841,0.27516684,-0.3100744,-0.9100204,-0.011944145,-0.94759035,0.31926408,-0.9613223,-0.076981306,-0.26444912,,0.055921838,0.00073537696,0.023357391,0.29556626,-0.26104504,0.9189647,-0.10014787,0.9481751,0.30155325,-0.9500584,-0.18116143,0.25410548,,0.08361183,1.2907727,0.42627332,0.99379855,0.08376136,-0.07313343,0.013510175,-0.74378335,-0.6682842,-0.11037182,0.6631518,-0.74030244,,-0.08775057,0.2653741,-0.10869213,-0.1807933,0.3229357,0.9289921,-0.66875315,-0.73296183,0.12464417,0.7211678,-0.5987316,0.34847885,,-0.053491063,0.41372752,-0.35525495,-0.1377143,0.2366113,-0.96179515,-0.8072995,0.53578043,0.24740028,0.5738487,0.81052727,0.117231555,,1.2217054497708206,0.4586067690029483,0.21350025929000002,-1.136938873573091,0.7590157561970217,0.842959636002162,-0.41946756183282896,,-1.2406493135112933,0.09788563918079567,0.18526058164,0.4992717554366525,1.092545452124462,-1.0502527799708226,0.872747345355454,,-0.06866343443502192,-0.04953898915629405,0.0911007994,-0.09223816666624303,,-8.054078e-06,2.4437904e-06,2.3841858e-06,1.0,1.47894025e-05,1.3254583e-05,-1.4796853e-05,0.9999999,2.1755695e-06,-1.3269484e-05,-2.2053719e-06,1.0,509,1.555,0,0,0.0,False,-0.2552905512975445,1.0469078565166363
1.5262256199494004,14:51:14.631708,14:49:54.773895,0,,0.095035546,0.03383705,0.03365013,0.27455187,-0.31220716,-0.9094768,-0.009100258,-0.94662374,0.3222118,-0.9615292,-0.08018723,-0.2627386,,0.055792205,0.00069696177,0.023303032,0.294958,-0.26093215,0.91919214,-0.100263536,0.94822806,0.30134803,-0.95023525,-0.18104658,0.2535255,,0.08361183,1.2907727,0.42627332,0.99379855,0.08376136,-0.07313343,0.013510175,-0.74378335,-0.6682842,-0.11037182,0.6631518,-0.74030244,,-0.0877347,0.26430377,-0.109120175,-0.18018186,0.3253615,0.9282642,-0.6667368,-0.7342309,0.12793402,0.723185,-0.5958565,0.34922555,,-0.053352702,0.41368178,-0.35525614,-0.13708067,0.23647921,-0.9619181,-0.8074139,0.5358827,0.24680474,0.5738395,0.8104982,0.11747742,,1.21782863786796,0.45441332505224435,0.21310359455000003,-1.1381970132339982,0.7668040366836517,0.8361187430506227,-0.41914087370056063,,-1.239815258360877,0.09790108464654411,0.18524372987,0.49906206549316795,1.0926820886242272,-1.0508542703153623,0.8717672809586483,,-0.06866343443502192,-0.04953898915629405,0.0911007994,-0.09223816666624303,,-8.054078e-06,2.4437904e-06,2.3841858e-06,1.0,1.47894025e-05,1.3254583e-05,-1.4796853e-05,0.9999999,2.1755695e-06,-1.3269484e-05,-2.2053719e-06,1.0,517,1.58,0,0,0.0,True,-0.25451604095677105,1.0414521938285575
1.6011227159760892,14:51:14.652116,14:49:54.773895,0,,0.09503062,0.033442624,0.03352493,0.27534872,-0.3107373,-0.9097393,-0.008478701,-0.94706774,0.32092127,-0.961307,-0.08065173,-0.26340866,,0.05575583,0.0006859945,0.023289442,0.29475474,-0.26062724,0.9193438,-0.10032374,0.9483291,0.30100965,-0.950292,-0.18095613,0.25337747,,0.08361183,1.2907727,0.42627332,0.99379855,0.08376136,-0.07313343,0.013510175,-0.74378335,-0.6682842,-0.11037182,0.6631518,-0.74030244,,-0.087714836,0.2639279,-0.109292194,-0.18100095,0.32394674,0.9285996,-0.66618323,-0.73497313,0.12654793,0.72349054,-0.5957122,0.34883875,,-0.05331413,0.41367006,-0.3552577,-0.13686821,0.23615909,-0.962027,-0.80746466,0.53597,0.24644883,0.57381874,0.8105338,0.11733285,,1.2165466642108385,0.45292283760751906,0.21294155830000003,-1.1398745327818744,0.7687169476803679,0.8352940010601377,-0.419304217766695,,-1.2395835763746503,0.09790880737941833,0.18523724842000003,0.49906206549316795,1.0926820886242272,-1.051262664016065,0.8706238724957084,,-0.06866343443502192,-0.04953898915629405,0.0911007994,-0.09223816666624303,,-8.054078e-06,2.4437904e-06,2.3841858e-06,1.0,1.47894025e-05,1.3254583e-05,-1.4796853e-05,0.9999999,2.1755695e-06,-1.3269484e-05,-2.2053719e-06,1.0,525,1.604,0,0,0.0,True,-0.25397984149008224,1.0334376804991676
1.6215026369318366,14:51:14.678193,14:49:54.773895,0,,0.09502127,0.033036113,0.033370912,0.27575165,-0.3095609,-0.91001827,-0.008590043,-0.94747937,0.31970105,-0.9611905,-0.0803408,-0.2639282,,0.055721395,0.0006753551,0.023278117,0.2946941,-0.2603263,0.91944844,-0.10027173,0.9484412,0.30067345,-0.9503163,-0.18080151,0.25339663,,0.08361183,1.2907727,0.42627332,0.99379855,0.08376136,-0.07313343,0.013510175,-0.74378335,-0.6682842,-0.11037182,0.6631518,-0.74030244,,-0.08768767,0.26352417,-0.10945132,-0.18141243,0.32274878,0.92893636,-0.66621655,-0.7351541,0.12531549,0.7233568,-0.596139,0.34838665,,-0.05327785,0.41365993,-0.35526043,-0.13680725,0.23583227,-0.9621158,-0.8074388,0.5361122,0.24622403,0.57386965,0.8105349,0.1170761,,1.2152106314235978,0.45129334097105767,0.21279118866000002,-1.1407132925558123,0.7702199491777878,0.8348851915208827,-0.4186508415021579,,-1.239375062587046,0.09790880737941833,0.18523076697000002,0.4988523755496834,1.0928187251239927,-1.0518641543606047,0.868663743702097,,-0.06866343443502192,-0.04953898915629405,0.0911007994,-0.09223816666624303,,-8.054078e-06,2.4437904e-06,2.3841858e-06,1.0,1.47894025e-05,1.3254583e-05,-1.4796853e-05,0.9999999,2.1755695e-06,-1.3269484e-05,-2.2053719e-06,1.0,533,1.629,0,0,0.0,True,-0.2536819528974772,1.0189536202653298
1.6475445530377328,14:51:14.703349,14:49:54.773895,0,,0.09498895,0.0324962,0.033076584,0.27640513,-0.30754077,-0.9105048,-0.009014547,-0.9482027,0.3175374,-0.9609989,-0.079561085,-0.26486054,,0.055712633,0.00067213643,0.023275852,0.294647,-0.26041698,0.91943794,-0.10028753,0.9484116,0.30076194,-0.9503292,-0.18082678,0.25333005,,0.08361183,1.2907727,0.42627332,0.99379855,0.08376136,-0.07313343,0.013510175,-0.74378335,-0.6682842,-0.11037182,0.6631518,-0.74030244,,-0.08762313,0.26292953,-0.109597616,-0.18207829,0.320668,0.9295265,-0.66644984,-0.73531324,0.12312223,0.7229745,-0.5970649,0.34759372,,-0.05326868,0.41365743,-0.35526186,-0.13675797,0.23592721,-0.9620996,-0.8074516,0.53608763,0.24623553,0.5738633,0.8105235,0.11718555,,1.2133031164036643,0.448860680115677,0.21266026337000002,-1.1419714322167196,0.772132860174504,0.8346322007113817,-0.41897752963442625,,-1.2393210034569266,0.09790880737941833,0.18522817439000003,0.4988523755496834,1.0928187251239927,-1.0517824756204643,0.8691537759004999,,-0.06866343443502192,-0.04953898915629405,0.0911007994,-0.09223816666624303,,-8.054078e-06,2.4437904e-06,2.3841858e-06,1.0,1.47894025e-05,1.3254583e-05,-1.4796853e-05,0.9999999,2.1755695e-06,-1.3269484e-05,-2.2053719e-06,1.0,541,1.655,0,0,0.0,True,-0.2529074425567037,1.0113736287429549
1.6727256879676133,14:51:14.730407,14:49:54.902963,0,,0.094952166,0.032124147,0.03279832,0.2769098,-0.3057887,-0.9109415,-0.010881692,-0.9489496,0.31523958,-0.96083426,-0.07738018,-0.26610103,,0.055707887,0.00067088474,0.02327621,0.294723,-0.2605785,0.9193678,-0.1003122,0.94834924,0.30095005,-0.95030296,-0.18092078,0.25336117,,0.08361183,1.2907727,0.42627332,0.99379855,0.08376136,-0.07313343,0.013510175,-0.74378335,-0.6682842,-0.11037182,0.6631518,-0.74030244,,-0.08755689,0.26247048,-0.109643616,-0.18258294,0.31871867,0.93009776,-0.6677616,-0.73453736,0.120620534,0.7216356,-0.59906036,0.3469421,,-0.05326399,0.4136576,-0.35526338,-0.13683575,0.23610446,-0.962045,-0.8074603,0.53600186,0.24639374,0.5738326,0.81052864,0.11730076,,1.211920747219178,0.4469608878286177,0.21262007838000002,-1.1421811221602043,0.772132860174504,0.8356123455930685,-0.41897752963442647,,-1.2393055579911783,0.09790880737941833,0.18522558181,0.4986426856061989,1.0928187251239927,-1.0517824756204643,0.8691537759004999,,-0.06866343443502192,-0.04953898915629405,0.0911007994,-0.09223816666624303,,-8.054078e-06,2.4437904e-06,2.3841858e-06,1.0,1.47894025e-05,1.3254583e-05,-1.4796853e-05,0.9999999,2.1755695e-06,-1.3269484e-05,-2.2053719e-06,1.0,549,1.679,0,0,0.0,True,-0.2529074425567037,1.007704333483716
1.6997974019031972,14:51:14.760872,14:49:54.902963,0,,0.09494226,0.03195311,0.03268519,0.27694678,-0.30563298,-0.91098255,-0.01136601,-0.94904125,0.3149463,-0.96081805,-0.07686898,-0.26630783,,0.055709638,0.00067112315,0.023278654,0.29473647,-0.2605741,0.91936475,-0.10030767,0.9483508,0.30094692,-0.9502993,-0.18091944,0.25337595,,0.08361183,1.2907727,0.42627332,0.99379855,0.08376136,-0.07313343,0.013510175,-0.74378335,-0.6682842,-0.11037182,0.6631518,-0.74030244,,-0.08753485,0.26226884,-0.10967524,-0.1826178,0.3185149,0.93016076,-0.6681129,-0.7342757,0.1202679,0.72130156,-0.5994893,0.34689572,,-0.053266108,0.41365924,-0.3552647,-0.13684984,0.2360998,-0.9620442,-0.8074566,0.5360032,0.24640296,0.5738344,0.8105292,0.1172884,,1.2112797603906174,0.4461345554110757,0.21259285629000002,-1.1421811221602043,0.7725427696738003,0.8353597706221199,-0.41946756183282896,,-1.2393210034569266,0.09790880737941833,0.18522428552000003,0.4986426856061989,1.0928187251239927,-1.0517824756204643,0.8691537759004999,,-0.06866343443502192,-0.04953898915629405,0.0911007994,-0.09223816666624303,,-8.054078e-06,2.4437904e-06,2.3841858e-06,1.0,1.47894025e-05,1.3254583e-05,-1.4796853e-05,0.9999999,2.1755695e-06,-1.3269484e-05,-2.2053719e-06,1.0,586,1.793,0,0,0.0,True,-0.25159673274924055,1.0066904492673474
1.7302890280261636,14:51:14.862035,14:49:54.902963,0,,0.094972804,0.032276593,0.032993406,0.2765501,-0.30629453,-0.9108808,-0.009504825,-0.9486726,0.3161167,-0.9609525,-0.07876423,-0.2652669,,0.055708684,0.0006701993,0.023280859,0.29473647,-0.26049897,0.91938597,-0.10030767,0.9483752,0.30086946,-0.9502993,-0.18089876,0.25339076,,0.08361183,1.2907727,0.42627332,0.99379855,0.08376136,-0.07313343,0.013510175,-0.74378335,-0.6682842,-0.11037182,0.6631518,-0.74030244,,-0.087597415,0.2627122,-0.10968434,-0.18222351,0.31935394,0.92995036,-0.66679305,-0.73521847,0.121823214,0.7226214,-0.5978854,0.3469171,,-0.053265467,0.4136604,-0.35526693,-0.13684984,0.2360212,-0.9620635,-0.8074566,0.53602326,0.24635918,0.5738344,0.8105387,0.1172222,,1.2126466841093553,0.4479416749036442,0.21257859710000002,-1.1421811221602043,0.7725427696738003,0.8353597706221199,-0.41914087370056063,,-1.2393210034569266,0.09790880737941833,0.18522169294000002,0.4986426856061989,1.0928187251239927,-1.0518641543606049,0.8693171199666342,,-0.06866343443502192,-0.04953898915629405,0.0911007994,-0.09223816666624303,,-8.054078e-06,2.4437904e-06,2.3841858e-06,1.0,1.47894025e-05,1.3254583e-05,-1.4796853e-05,0.9999999,2.1755695e-06,-1.3269484e-05,-2.2053719e-06,1.0,594,1.817,0,0,0.0,True,-0.25260955396409823,1.0056282848501994
1.8314500858541578,14:51:14.896994,14:49:55.062110,0,,0.094959915,0.03231603,0.033034414,0.27641886,-0.30643058,-0.9108748,-0.009263217,-0.94860923,0.31631386,-0.96099263,-0.078997314,-0.26505208,,0.055706516,0.0006679045,0.023280382,0.29472446,-0.26049966,0.91938967,-0.100319475,0.9483737,0.30087095,-0.95030177,-0.1809068,0.25337574,,0.08361183,1.2907727,0.42627332,0.99379855,0.08376136,-0.07313343,0.013510175,-0.74378335,-0.6682842,-0.11037182,0.6631518,-0.74030244,,-0.08758883,0.2627697,-0.109689094,-0.18209074,0.31951147,0.9299222,-0.6666312,-0.73531723,0.12211228,0.7228041,-0.5976797,0.34689078,,-0.053263124,0.41365883,-0.35526845,-0.13683704,0.23602322,-0.9620648,-0.8074644,0.53601635,0.24634863,0.57382643,0.81054276,0.11723347,,1.2128938115613304,0.4481192977597514,0.21257600452000003,-1.1421811221602043,0.7725427696738003,0.8352780918819793,-0.41897752963442647,,-1.2393055579911783,0.09790108464654411,0.18522039665,0.4986426856061989,1.0928187251239927,-1.0518641543606049,0.8693171199666342,,-0.06866343443502192,-0.04953898915629405,0.0911007994,-0.09223816666624303,,-8.054078e-06,2.4437904e-06,2.3841858e-06,1.0,1.47894025e-05,1.3254583e-05,-1.4796853e-05,0.9999999,2.1755695e-06,-1.3269484e-05,-2.2053719e-06,1.0,602,1.842,0,0,0.0,True,-0.25332448658635043,1.0051937630431842
1.866412891075015,14:51:14.917555,14:49:55.062110,0,,0.09495035,0.032306194,0.033026755,0.276388,-0.30640048,-0.91089433,-0.009312332,-0.9486246,0.31626624,-0.96100104,-0.07892957,-0.2650418,,0.055708744,0.00066853035,0.023281693,0.29473794,-0.26049522,0.91938657,-0.100314975,0.94837505,0.3008678,-0.9502981,-0.18090546,0.25339055,,0.08361183,1.2907727,0.42627332,0.99379855,0.08376136,-0.07313343,0.013510175,-0.74378335,-0.6682842,-0.11037182,0.6631518,-0.74030244,,-0.0875785,0.26275796,-0.10969065,-0.18205886,0.31947502,0.929941,-0.6666711,-0.7352856,0.12208517,0.7227754,-0.5977381,0.34685,,-0.05326556,0.41365987,-0.3552687,-0.13685112,0.23601855,-0.9620639,-0.8074608,0.5360176,0.24635786,0.5738282,0.81054324,0.11722112,,1.2128938115613304,0.44804207043100913,0.21257600452000003,-1.1421811221602043,0.7725427696738003,0.8352780918819793,-0.41897752963442647,,-1.2393210034569266,0.09790108464654411,0.18522039665,0.4986426856061989,1.0928187251239927,-1.0518641543606049,0.8693171199666342,,-0.06866343443502192,-0.04953898915629405,0.0911007994,-0.09223816666624303,,-8.054078e-06,2.4437904e-06,2.3841858e-06,1.0,1.47894025e-05,1.3254583e-05,-1.4796853e-05,0.9999999,2.1755695e-06,-1.3269484e-05,-2.2053719e-06,1.0,610,1.867,0,0,0.0,True,-0.25308617571226666,1.0050489224408459
1.8869615679141134,14:51:14.942244,14:49:55.062110,0,,0.09494883,0.032284513,0.033008397,0.27636504,-0.3064316,-0.9108908,-0.009309083,-0.9486141,0.3162976,-0.9610077,-0.078933835,-0.2650165,,0.055712603,0.00066715945,0.023284256,0.29466343,-0.26032987,0.9194573,-0.10029757,0.9484371,0.300678,-0.95032305,-0.18081823,0.25335926,,0.08361183,1.2907727,0.42627332,0.99379855,0.08376136,-0.07313343,0.013510175,-0.74378335,-0.6682842,-0.11037182,0.6631518,-0.74030244,,-0.08757505,0.26272976,-0.10969172,-0.18203542,0.31950635,0.92993486,-0.6666715,-0.73527855,0.12212506,0.7227809,-0.59773,0.34685254,,-0.053269707,0.4136603,-0.35527116,-0.1367746,0.23583862,-0.9621189,-0.80745625,0.5360977,0.24619831,0.57385284,0.81054264,0.11710483,,1.2128011387668396,0.4479262294378958,0.21257600452000003,-1.1421811221602043,0.7726794061735658,0.8351666739782829,-0.41897752963442647,,-1.239336448922675,0.09789336191366989,0.18521910036000003,0.4988523755496834,1.0928187251239927,-1.0518641543606049,0.8693171199666342,,-0.06866343443502192,-0.04953898915629405,0.0911007994,-0.09223816666624303,,-8.054078e-06,2.4437904e-06,2.3841858e-06,1.0,1.47894025e-05,1.3254583e-05,-1.4796853e-05,0.9999999,2.1755695e-06,-1.3269484e-05,-2.2053719e-06,1.0,618,1.892,0,0,0.0,True,-0.25403941920860307,1.0050489224408459
1.9116611250210553,14:51:14.966808,14:49:55.062110,0,,0.09498645,0.032222174,0.03298047,0.27652198,-0.30633628,-0.91087526,-0.00956893,-0.94866407,0.3161401,-0.9609599,-0.0787034,-0.26525787,,0.055714756,0.00066832174,0.023285747,0.29457918,-0.26017433,0.91952837,-0.10026783,0.9484989,0.3004931,-0.9503523,-0.18071821,0.2533209,,0.08361183,1.2907727,0.42627332,0.99379855,0.08376136,-0.07313343,0.013510175,-0.74378335,-0.6682842,-0.11037182,0.6631518,-0.74030244,,-0.08760935,0.26266223,-0.10971032,-0.18219434,0.31938958,0.9299438,-0.6668436,-0.73516876,0.12184621,0.72258204,-0.5979274,0.34692648,,-0.053272124,0.41366184,-0.35527116,-0.1366885,0.23566635,-0.9621734,-0.8074452,0.5361885,0.2460368,0.57388884,0.81053275,0.116996884,,1.2124845067189964,0.4477486065817886,0.21257341194,-1.1421811221602043,0.7726794061735658,0.8351666739782829,-0.41897752963442647,,-1.2393441716555493,0.09790108464654411,0.18521910036000003,0.49906206549316795,1.0928187251239927,-1.0518641543606049,0.8693171199666342,,-0.06866343443502192,-0.04953898915629405,0.0911007994,-0.09223816666624303,,-8.054078e-06,2.4437904e-06,2.3841858e-06,1.0,1.47894025e-05,1.3254583e-05,-1.4796853e-05,0.9999999,2.1755695e-06,-1.3269484e-05,-2.2053719e-06,1.0,626,1.917,0,0,0.0,True,-0.25350321974191337,1.0055800046494199
1.9362130728550255,14:51:14.996992,14:49:55.062110,0,,0.095002614,0.03220308,0.032960564,0.27659833,-0.30632177,-0.91085684,-0.0096743405,-0.9486757,0.31610242,-0.960937,-0.07862139,-0.2653656,,0.055654123,0.00066360086,0.023263097,0.29454046,-0.26014882,0.9195479,-0.10025194,0.9485127,0.30045494,-0.950366,-0.1806826,0.25329494,,0.08360624,1.2907743,0.42627022,0.9937986,0.08375686,-0.07313748,0.013504158,-0.7437839,-0.66828376,-0.11037182,0.6631518,-0.74030244,,-0.08761746,0.26263765,-0.10970869,-0.18227188,0.3193616,0.92993826,-0.6669105,-0.7351254,0.1217412,0.72250074,-0.59799564,0.3469783,,-0.053202923,0.41365492,-0.3552653,-0.13665032,0.23564059,-0.96218514,-0.80743784,0.5362193,0.2459939,0.5739084,0.8105198,0.11699057,,1.212360942993009,0.44768682471879484,0.21257341194,-1.1421811221602043,0.7726794061735658,0.8351666739782829,-0.41897752963442647,,-1.239336448922675,0.09790108464654411,0.18521910036000003,0.49906206549316795,1.0928187251239927,-1.0518641543606049,0.8693171199666342,,-0.06866343443502192,-0.04953898915629405,0.0911007994,-0.09223816666624303,,-1.3239682e-05,-1.2516975e-06,3.9339066e-06,0.99999994,1.0311604e-05,9.23872e-06,-1.0311604e-05,1.0,1.5497208e-06,-9.2461705e-06,-1.5199184e-06,1.0,655,2.006,0,0,0.0,True,-0.25356279746043464,1.0046144006338307
1.9663852779194713,14:51:15.077488,14:49:55.246544,0,,0.09499186,0.032229543,0.032986015,0.2765025,-0.3063586,-0.9108736,-0.009517074,-0.94865274,0.31617606,-0.9609661,-0.078754485,-0.26522052,,0.05565141,0.0006624684,0.023262918,0.29452702,-0.26015326,0.91955096,-0.10025644,0.94851124,0.30045807,-0.9503697,-0.18068388,0.25328016,,0.08360624,1.2907743,0.42627022,0.9937986,0.08375686,-0.07313748,0.013504158,-0.7437839,-0.66828376,-0.11037182,0.6631518,-0.74030244,,-0.08760941,0.262675,-0.10971047,-0.18217482,0.319411,0.9299403,-0.6668065,-0.7351945,0.12189371,0.7226212,-0.5978843,0.34691927,,-0.053200167,0.41365445,-0.35526618,-0.13663624,0.23564525,-0.962186,-0.8074415,0.53621805,0.24598467,0.5739066,0.8105193,0.11700293,,1.2125308431162418,0.447794942979034,0.21257341194,-1.1421811221602043,0.7726794061735658,0.8351666739782829,-0.41897752963442647,,-1.2393210034569266,0.09790108464654411,0.18521780407000002,0.49906206549316795,1.0928187251239927,-1.0518641543606049,0.8693171199666342,,-0.06866343443502192,-0.04953898915629405,0.0911007994,-0.09223816666624303,,-1.3239682e-05,-1.2516975e-06,3.9339066e-06,0.99999994,1.0311604e-05,9.23872e-06,-1.0311604e-05,1.0,1.5497208e-06,-9.2461705e-06,-1.5199184e-06,1.0,663,2.03,0,0,0.0,True,-0.2532649088678296,1.0048075214369485
2.0468859649263322,14:51:15.102934,14:49:55.246544,0,,0.094989136,0.032225043,0.03298226,0.27649644,-0.3063468,-0.9108794,-0.009540796,-0.948659,0.31615674,-0.96096766,-0.078725696,-0.26522368,,0.055653643,0.000663124,0.02326417,0.29454046,-0.26014882,0.9195479,-0.10025194,0.9485127,0.30045494,-0.950366,-0.1806826,0.25329494,,0.08360624,1.2907743,0.42627022,0.9937986,0.08375686,-0.07313748,0.013504158,-0.7437839,-0.66828376,-0.11037182,0.6631518,-0.74030244,,-0.0876063,0.26266935,-0.10971091,-0.1821685,0.31939653,0.9299465,-0.6668247,-0.73518074,0.12187767,0.72260606,-0.597909,0.34690824,,-0.053202603,0.4136555,-0.35526642,-0.13665032,0.23564059,-0.96218514,-0.80743784,0.5362193,0.2459939,0.5739084,0.8105198,0.11699057,,1.2125231203833675,0.44776405204753705,0.21257341194,-1.1421811221602043,0.7726794061735658,0.8351666739782829,-0.41897752963442647,,-1.239336448922675,0.09790108464654411,0.18521780407000002,0.49906206549316795,1.0928187251239927,-1.0518641543606049,0.8693171199666342,,-0.06866343443502192,-0.04953898915629405,0.0911007994,-0.09223816666624303,,-1.3239682e-05,-1.2516975e-06,3.9339066e-06,0.99999994,1.0311604e-05,9.23872e-06,-1.0311604e-05,1.0,1.5497208e-06,-9.2461705e-06,-1.5199184e-06,1.0,671,2.055,0,0,0.0,True,-0.2531457534307875,1.004759241236169
2.072344755055383,14:51:15.133086,14:49:55.246544,0,,0.09498955,0.032220364,0.03297797,0.27650616,-0.3063385,-0.9108792,-0.009567559,-0.9486637,0.3161415,-0.96096456,-0.078700095,-0.26524234,,0.055654753,0.00066345185,0.023264885,0.2945472,-0.26014662,0.9195463,-0.10024968,0.9485134,0.3004534,-0.9503641,-0.18068188,0.25330234,,0.08360624,1.2907743,0.42627022,0.9937986,0.08375686,-0.07313748,0.013504158,-0.7437839,-0.66828376,-0.11037182,0.6631518,-0.74030244,,-0.08760627,0.26266298,-0.10971084,-0.18217826,0.3193858,0.9299483,-0.6668432,-0.73516786,0.12185391,0.72258645,-0.59793055,0.34691185,,-0.05320382,0.41365603,-0.35526654,-0.13665737,0.23563825,-0.96218467,-0.807436,0.53621995,0.24599852,0.5739093,0.81052005,0.1169844,,1.2124999521847448,0.4477408838489144,0.21257341194,-1.1421811221602043,0.7726794061735658,0.8351666739782829,-0.41897752963442647,,-1.2393441716555493,0.09790108464654411,0.18521780407000002,0.49906206549316795,1.0928187251239927,-1.0518641543606049,0.8693171199666342,,-0.06866343443502192,-0.04953898915629405,0.0911007994,-0.09223816666624303,,-1.3239682e-05,-1.2516975e-06,3.9339066e-06,0.99999994,1.0311604e-05,9.23872e-06,-1.0311604e-05,1.0,1.5497208e-06,-9.2461705e-06,-1.5199184e-06,1.0,679,2.08,0,0,0.0,True,-0.2536819528974772,1.0046144006338307
2.102478835033253,14:51:15.155460,14:49:55.246544,0,,0.09499172,0.032219924,0.03297904,0.27651557,-0.30634174,-0.9108753,-0.009566665,-0.94866234,0.31614593,-0.9609619,-0.07870513,-0.26525062,,0.055653643,0.000663124,0.02326417,0.29454046,-0.26014882,0.9195479,-0.10025194,0.9485127,0.30045494,-0.950366,-0.1806826,0.25329494,,0.08360624,1.2907743,0.42627022,0.9937986,0.08375686,-0.07313748,0.013504158,-0.7437839,-0.66828376,-0.11037182,0.6631518,-0.74030244,,-0.08760852,0.26266322,-0.10971179,-0.18218789,0.31938952,0.9299451,-0.6668414,-0.7351699,0.121851414,0.72258574,-0.5979261,0.3469212,,-0.053202603,0.4136555,-0.35526642,-0.13665032,0.23564059,-0.96218514,-0.80743784,0.5362193,0.2459939,0.5739084,0.8105198,0.11699057,,1.2124922294518707,0.4477486065817886,0.21257211565000003,-1.1421811221602043,0.7726794061735658,0.8351666739782829,-0.41897752963442647,,-1.239336448922675,0.09790108464654411,0.18521780407000002,0.49906206549316795,1.0928187251239927,-1.0518641543606049,0.8693171199666342,,-0.06866343443502192,-0.04953898915629405,0.0911007994,-0.09223816666624303,,-1.3239682e-05,-1.2516975e-06,3.9339066e-06,0.99999994,1.0311604e-05,9.23872e-06,-1.0311604e-05,1.0,1.5497208e-06,-9.2461705e-06,-1.5199184e-06,1.0,691,2.117,0,0,0.0,True,-0.2537415306159976,1.0040350382244774
2.1248652138747275,14:51:15.194409,14:49:55.246544,0,,0.09499474,0.032221302,0.032979906,0.27652806,-0.30634803,-0.91086936,-0.009560883,-0.9486593,0.31615514,-0.96095836,-0.07871702,-0.26525992,,0.055650286,0.00066214055,0.023262262,0.2945203,-0.2601555,0.91955245,-0.10025865,0.94851047,0.30045968,-0.9503715,-0.18068457,0.25327274,,0.08360624,1.2907743,0.42627022,0.9937986,0.08375686,-0.07313748,0.013504158,-0.7437839,-0.66828376,-0.11037182,0.6631518,-0.74030244,,-0.087611616,0.26266462,-0.10971129,-0.18220071,0.31939688,0.92994004,-0.6668356,-0.73517513,0.12185162,0.7225878,-0.5979157,0.34693465,,-0.053198945,0.41365394,-0.35526606,-0.13662921,0.23564759,-0.9621864,-0.8074433,0.5362174,0.24598007,0.5739057,0.81051904,0.11700911,,1.2124845067189964,0.44776405204753705,0.21257211565000003,-1.1421811221602043,0.7726794061735658,0.8351666739782829,-0.41897752963442647,,-1.2393132807240523,0.09790108464654411,0.18521780407000002,0.49906206549316795,1.0928187251239927,-1.0518641543606049,0.8693171199666342,,-0.06866343443502192,-0.04953898915629405,0.0911007994,-0.09223816666624303,,-1.3239682e-05,-1.2516975e-06,3.9339066e-06,0.99999994,1.0311604e-05,9.23872e-06,-1.0311604e-05,1.0,1.5497208e-06,-9.2461705e-06,-1.5199184e-06,1.0,699,2.142,0,0,0.0,True,-0.25302659799374494,1.0045178402322716
2.16381074488163,14:51:15.215624,14:49:55.379364,0,,0.09499526,0.03222698,0.032984972,0.27652144,-0.30635935,-0.9108675,-0.009529173,-0.948653,0.31617513,-0.9609605,-0.07874933,-0.2652423,,0.055650286,0.00066214055,0.023262262,0.2945203,-0.2601555,0.91955245,-0.10025865,0.94851047,0.30045968,-0.9503715,-0.18068457,0.25327274,,0.08360624,1.2907743,0.42627022,0.9937986,0.08375686,-0.07313748,0.013504158,-0.7437839,-0.66828376,-0.11037182,0.6631518,-0.74030244,,-0.08761267,0.26267216,-0.10971121,-0.18219414,0.31941125,0.9299364,-0.6668131,-0.73519117,0.12187809,0.72261024,-0.5978883,0.34693512,,-0.053198945,0.41365394,-0.35526606,-0.13662921,0.23564759,-0.9621864,-0.8074433,0.5362174,0.24598007,0.5739057,0.81051904,0.11700911,,1.2125076749176191,0.447794942979034,0.21257211565000003,-1.1421811221602043,0.7726794061735658,0.8351666739782829,-0.41897752963442647,,-1.2393132807240523,0.09790108464654411,0.18521780407000002,0.49906206549316795,1.0928187251239927,-1.0518641543606049,0.8693171199666342,,-0.06866343443502192,-0.04953898915629405,0.0911007994,-0.09223816666624303,,-1.3239682e-05,-1.2516975e-06,3.9339066e-06,0.99999994,1.0311604e-05,9.23872e-06,-1.0311604e-05,1.0,1.5497208e-06,-9.2461705e-06,-1.5199184e-06,1.0,724,2.219,0,0,0.0,True,-0.2531457534307875,1.0046626808346102
2.1850277818739414,14:51:15.285334,14:49:55.379364,0,,0.09498939,0.032222636,0.032981813,0.2764997,-0.30634406,-0.9108794,-0.009549707,-0.94866055,0.31615168,-0.9609666,-0.07871714,-0.2652299,,0.055654287,0.0006630048,0.023265958,0.2945472,-0.26014662,0.9195463,-0.10024968,0.9485134,0.3004534,-0.9503641,-0.18068188,0.25330234,,0.08360624,1.2907743,0.42627022,0.9937986,0.08375686,-0.07313748,0.013504158,-0.7437839,-0.66828376,-0.11037182,0.6631518,-0.74030244,,-0.08760649,0.26266724,-0.10971217,-0.18217176,0.31939295,0.9299471,-0.66683084,-0.73517644,0.12186975,0.7225995,-0.5979162,0.34690946,,-0.0532035,0.4136566,-0.35526764,-0.13665737,0.23563825,-0.96218467,-0.807436,0.53621995,0.24599852,0.5739093,0.81052005,0.1169844,,1.2125153976504934,0.44775632931466286,0.21257081936000002,-1.1421811221602043,0.7726794061735658,0.8351666739782829,-0.41897752963442647,,-1.2393441716555493,0.09790108464654411,0.18521650778,0.49906206549316795,1.0928187251239927,-1.0518641543606049,0.8693171199666342,,-0.06866343443502192,-0.04953898915629405,0.0911007994,-0.09223816666624303,,-1.3239682e-05,-1.2516975e-06,3.9339066e-06,0.99999994,1.0311604e-05,9.23872e-06,-1.0311604e-05,1.0,1.5497208e-06,-9.2461705e-06,-1.5199184e-06,1.0,732,2.243,0,0,0.0,True,-0.252371243090014,1.0040350382244774
2.254704426974058,14:51:15.314933,14:49:55.379364,0,,0.094991684,0.032220647,0.032981455,0.27651232,-0.30634454,-0.9108753,-0.009557784,-0.9486607,0.31615102,-0.9609629,-0.078713655,-0.2652444,,0.055651516,0.00066351146,0.023265004,0.2945323,-0.26015484,0.9195488,-0.10024691,0.9485122,0.3004582,-0.950369,-0.18067655,0.25328773,,0.08360624,1.2907743,0.42627022,0.9937986,0.08375686,-0.07313748,0.013504158,-0.7437839,-0.66828376,-0.11037182,0.6631518,-0.74030244,,-0.087608725,0.26266536,-0.10971309,-0.18218464,0.3193931,0.9299445,-0.66683525,-0.7351742,0.121859334,0.72259223,-0.59791887,0.34692,,-0.05320065,0.41365668,-0.35526678,-0.13664201,0.23564558,-0.9621851,-0.8074355,0.5362243,0.24599062,0.57391363,0.81051505,0.11699784,,1.2124999521847448,0.44775632931466286,0.21257081936000002,-1.1421811221602043,0.7726794061735658,0.8351666739782829,-0.41897752963442647,,-1.239328726189801,0.09790880737941833,0.18521650778,0.49906206549316795,1.0928187251239927,-1.0518641543606049,0.8693171199666342,,-0.06866343443502192,-0.04953898915629405,0.0911007994,-0.09223816666624303,,-1.3239682e-05,-1.2516975e-06,3.9339066e-06,0.99999994,1.0311604e-05,9.23872e-06,-1.0311604e-05,1.0,1.5497208e-06,-9.2461705e-06,-1.5199184e-06,1.0,740,2.268,0,0,0.0,True,-0.25171588818628265,1.0036005164174622
2.284335291944444,14:51:15.342951,14:49:55.379364,0,,0.09499575,0.032222174,0.032984078,0.2765279,-0.3063538,-0.91086745,-0.009547025,-0.9486562,0.31616497,-0.9609586,-0.07873228,-0.26525474,,0.05565258,0.0006611571,0.023264349,0.29453525,-0.2601473,0.91955006,-0.10026142,0.94851166,0.30045488,-0.95036656,-0.18068993,0.25328737,,0.08360624,1.2907743,0.42627022,0.9937986,0.08375686,-0.07313748,0.013504158,-0.7437839,-0.66828376,-0.11037182,0.6631518,-0.74030244,,-0.087613046,0.26266795,-0.109713726,-0.18220064,0.3194041,0.9299376,-0.6668255,-0.7351826,0.121862255,0.72259724,-0.5979027,0.3469375,,-0.053201478,0.41365445,-0.35526806,-0.13664457,0.23564026,-0.96218604,-0.8074438,0.53621304,0.24598797,0.57390136,0.81052405,0.11699567,,1.2124922294518707,0.4477794975132855,0.21256952307000002,-1.1421811221602043,0.7726794061735658,0.8351666739782829,-0.41897752963442647,,-1.239328726189801,0.09789336191366989,0.18521650778,0.49906206549316795,1.0928187251239927,-1.0518641543606049,0.8693171199666342,,-0.06866343443502192,-0.04953898915629405,0.0911007994,-0.09223816666624303,,-1.3239682e-05,-1.2516975e-06,3.9339066e-06,0.99999994,1.0311604e-05,9.23872e-06,-1.0311604e-05,1.0,1.5497208e-06,-9.2461705e-06,-1.5199184e-06,1.0,748,2.293,0,0,0.0,True,-0.25350321974191337,1.0043247194291538
2.312354439869523,14:51:15.366893,14:49:55.379364,0,,0.094996706,0.032223158,0.032984823,0.27653098,-0.30635685,-0.91086555,-0.009542137,-0.94865465,0.31616974,-0.96095765,-0.07873905,-0.26525575,,0.05565093,0.00066202134,0.02326405,0.29452702,-0.26015326,0.91955096,-0.10025644,0.94851124,0.30045807,-0.9503697,-0.18068388,0.25328016,,0.08360624,1.2907743,0.42627022,0.9937986,0.08375686,-0.07313748,0.013504158,-0.7437839,-0.66828376,-0.11037182,0.6631518,-0.74030244,,-0.087614074,0.26266915,-0.10971357,-0.18220383,0.31940773,0.92993575,-0.6668215,-0.73518574,0.12186497,0.7226001,-0.5978969,0.3469416,,-0.053199846,0.41365504,-0.35526732,-0.13663624,0.23564525,-0.962186,-0.8074415,0.53621805,0.24598467,0.5739066,0.8105193,0.11700293,,1.2124922294518707,0.44778722024615975,0.21256952307000002,-1.1421811221602043,0.7726794061735658,0.8351666739782829,-0.41897752963442647,,-1.2393210034569266,0.09790108464654411,0.18521650778,0.49906206549316795,1.0928187251239927,-1.0518641543606049,0.8693171199666342,,-0.06866343443502192,-0.04953898915629405,0.0911007994,-0.09223816666624303,,-1.3239682e-05,-1.2516975e-06,3.9339066e-06,0.99999994,1.0311604e-05,9.23872e-06,-1.0311604e-05,1.0,1.5497208e-06,-9.2461705e-06,-1.5199184e-06,1.0,760,2.33,0,0,0.0,True,-0.2532649088678296,1.0045661204330512
2.3363144600298256,14:51:15.400536,14:49:55.379364,0,,0.09499261,0.032222353,0.032984644,0.27651218,-0.30635032,-0.9108735,-0.009543896,-0.9486575,0.31616086,-0.9609631,-0.078728974,-0.2652392,,0.05565035,0.0006605014,0.023263037,0.2945218,-0.26015174,0.91955304,-0.10026598,0.94851017,0.300458,-0.9503703,-0.18069124,0.2532726,,0.08360624,1.2907743,0.42627022,0.9937986,0.08375686,-0.07313748,0.013504158,-0.7437839,-0.66828376,-0.11037182,0.6631518,-0.74030244,,-0.08760996,0.2626687,-0.10971424,-0.18218458,0.3194003,0.9299421,-0.66682506,-0.7351816,0.12186996,0.72260165,-0.5979058,0.34692287,,-0.05319904,0.4136534,-0.35526782,-0.13663049,0.23564492,-0.9621869,-0.8074475,0.5362117,0.24597874,0.57389957,0.81052357,0.11700802,,1.2125076749176191,0.4477717747804113,0.21256952307000002,-1.1421811221602043,0.7726794061735658,0.8351666739782829,-0.41897752963442647,,-1.2393210034569266,0.09789336191366989,0.18521650778,0.49906206549316795,1.0928187251239927,-1.0518641543606049,0.8693171199666342,,-0.06866343443502192,-0.04953898915629405,0.0911007994,-0.09223816666624303,,-1.3239682e-05,-1.2516975e-06,3.9339066e-06,0.99999994,1.0311604e-05,9.23872e-06,-1.0311604e-05,1.0,1.5497208e-06,-9.2461705e-06,-1.5199184e-06,1.0,789,2.42,0,0,0.0,True,-0.254218152364166,1.0050006422400664
2.369949047919363,14:51:15.485503,14:49:55.625990,0,,0.09499368,0.03222373,0.03298399,0.2763799,-0.30636272,-0.9109094,-0.009604275,-0.9486619,0.31614578,-0.9610005,-0.078627616,-0.26513356,,0.055652052,0.00066234916,0.023264647,0.29453376,-0.26015106,0.91954947,-0.10025424,0.9485119,0.30045652,-0.9503679,-0.18068326,0.25328755,,0.08360624,1.2907743,0.42627022,0.9937986,0.08375686,-0.07313748,0.013504158,-0.7437839,-0.66828376,-0.11037182,0.6631518,-0.74030244,,-0.087610975,0.2626692,-0.109712765,-0.18204886,0.31940287,0.92996776,-0.66688555,-0.73511654,0.12193172,0.72258,-0.59798455,0.34683228,,-0.053201064,0.41365555,-0.3552674,-0.13664329,0.23564291,-0.96218556,-0.8074397,0.53621864,0.2459893,0.5739075,0.8105196,0.11699675,,1.2125076749176191,0.4477717747804113,0.21257081936000002,-1.1419714322167196,0.7726794061735658,0.8353300314585639,-0.4193042177666948,,-1.239328726189801,0.09790108464654411,0.18521650778,0.49906206549316795,1.0928187251239927,-1.0518641543606049,0.8693171199666342,,-0.06866343443502192,-0.04953898915629405,0.0911007994,-0.09223816666624303,,-1.3239682e-05,-1.2516975e-06,3.9339066e-06,0.99999994,1.0311604e-05,9.23872e-06,-1.0311604e-05,1.0,1.5497208e-06,-9.2461705e-06,-1.5199184e-06,1.0,793,2.432,0,0,0.0,True,-0.2548735072678969,1.0040350382244774
2.454922941979021,14:51:15.509822,14:49:55.625990,0,,0.09499669,0.032225117,0.032984853,0.2763924,-0.30636895,-0.91090345,-0.009598494,-0.94865894,0.31615502,-0.960997,-0.07863945,-0.26514286,,0.05565048,0.000662677,0.02326411,0.29462323,-0.26030818,0.9194763,-0.100274354,0.94845116,0.30064154,-0.950338,-0.18077588,0.25333354,,0.08360624,1.2907743,0.42627022,0.9937986,0.08375686,-0.07313748,0.013504158,-0.7437839,-0.66828376,-0.11037182,0.6631518,-0.74030244,,-0.08761407,0.2626706,-0.10971227,-0.18206169,0.31941023,0.9299627,-0.6668798,-0.7351217,0.121931925,0.7225821,-0.5979742,0.34684572,,-0.05319945,0.41365564,-0.3552669,-0.13673516,0.23581553,-0.9621302,-0.8074447,0.53613424,0.24615675,0.5738785,0.81052524,0.1170996,,1.2124999521847448,0.44778722024615975,0.21257081936000002,-1.1419714322167196,0.7726794061735658,0.8353300314585639,-0.4193042177666948,,-1.239328726189801,0.09790108464654411,0.18521650778,0.4988523755496834,1.0928187251239927,-1.0518641543606049,0.8693171199666342,,-0.06866343443502192,-0.04953898915629405,0.0911007994,-0.09223816666624303,,-1.3239682e-05,-1.2516975e-06,3.9339066e-06,0.99999994,1.0311604e-05,9.23872e-06,-1.0311604e-05,1.0,1.5497208e-06,-9.2461705e-06,-1.5199184e-06,1.0,801,2.456,0,0,0.0,True,-0.2547543518308557,1.0041315986260362
2.479236101033166,14:51:15.532399,14:49:55.625990,0,,0.09499574,0.03222412,0.032984078,0.27638933,-0.30636597,-0.9109055,-0.009603411,-0.9486605,0.31615025,-0.9609978,-0.07863268,-0.26514181,,0.055648785,0.00066088885,0.0232625,0.29461128,-0.26030883,0.91947997,-0.100286126,0.9484495,0.30064303,-0.9503404,-0.18078387,0.25331852,,0.08360624,1.2907743,0.42627022,0.9937986,0.08375686,-0.07313748,0.013504158,-0.7437839,-0.66828376,-0.11037182,0.6631518,-0.74030244,,-0.08761303,0.2626694,-0.10971243,-0.1820585,0.31940657,0.9299646,-0.66688377,-0.73511857,0.12192921,0.72257924,-0.59798,0.34684163,,-0.05319743,0.4136535,-0.35526732,-0.13672236,0.23581752,-0.96213156,-0.8074525,0.5361273,0.2461462,0.5738706,0.81052923,0.11711087,,1.2124999521847448,0.4477794975132855,0.21257081936000002,-1.1419714322167196,0.7726794061735658,0.8353300314585639,-0.4193042177666948,,-1.2393132807240523,0.09789336191366989,0.18521650778,0.4988523755496834,1.0928187251239927,-1.0518641543606049,0.8693171199666342,,-0.06866343443502192,-0.04953898915629405,0.0911007994,-0.09223816666624303,,-1.3239682e-05,-1.2516975e-06,3.9339066e-06,0.99999994,1.0311604e-05,9.23872e-06,-1.0311604e-05,1.0,1.5497208e-06,-9.2461705e-06,-1.5199184e-06,1.0,809,2.481,0,0,0.0,True,-0.25481392954937654,1.0042281590275952
2.501803318038583,14:51:15.557092,14:49:55.625990,0,,0.09499395,0.032220602,0.032981128,0.27638638,-0.30628273,-0.9109343,-0.009622127,-0.94869095,0.31605816,-0.9609984,-0.07858896,-0.2651524,,0.055648785,0.00066088885,0.0232625,0.29461128,-0.26030883,0.91947997,-0.100286126,0.9484495,0.30064303,-0.9503404,-0.18078387,0.25331852,,0.08360624,1.2907743,0.42627022,0.9937986,0.08375686,-0.07313748,0.013504158,-0.7437839,-0.66828376,-0.11037182,0.6631518,-0.74030244,,-0.08761095,0.26266494,-0.10971272,-0.18205537,0.31931975,0.929995,-0.6668979,-0.7351179,0.12185584,0.72256696,-0.5980272,0.34678584,,-0.05319743,0.4136535,-0.35526732,-0.13672236,0.23581752,-0.96213156,-0.8074525,0.5361273,0.2461462,0.5738706,0.81052923,0.11711087,,1.2124922294518707,0.44775632931466286,0.21257081936000002,-1.1419714322167196,0.7726794061735658,0.8354117101987045,-0.4191408737005604,,-1.2393132807240523,0.09789336191366989,0.18521650778,0.4988523755496834,1.0928187251239927,-1.0518641543606049,0.8693171199666342,,-0.06866343443502192,-0.04953898915629405,0.0911007994,-0.09223816666624303,,-1.3239682e-05,-1.2516975e-06,3.9339066e-06,0.99999994,1.0311604e-05,9.23872e-06,-1.0311604e-05,1.0,1.5497208e-06,-9.2461705e-06,-1.5199184e-06,1.0,817,2.506,0,0,0.0,True,-0.254694774112334,1.0041315986260362
2.526450206991285,14:51:15.574711,14:49:55.625990,0,,0.09499191,0.032220192,0.032981038,0.276377,-0.30627948,-0.9109382,-0.009623051,-0.94869244,0.31605375,-0.9610012,-0.07858387,-0.26514414,,0.05565101,0.0006615147,0.023263872,0.29462472,-0.2603044,0.9194769,-0.100281686,0.9484509,0.30063987,-0.9503368,-0.18078259,0.25333336,,0.08360624,1.2907743,0.42627022,0.9937986,0.08375686,-0.07313748,0.013504158,-0.7437839,-0.66828376,-0.11037182,0.6631518,-0.74030244,,-0.087608896,0.26266474,-0.109713055,-0.18204574,0.31931603,0.92999816,-0.66689974,-0.7351158,0.121858336,0.72256774,-0.5980317,0.3467765,,-0.053199865,0.41365454,-0.35526755,-0.13673642,0.23581286,-0.96213067,-0.80744886,0.5361286,0.24615543,0.5738724,0.8105297,0.11709851,,1.2124999521847448,0.4477486065817886,0.21257081936000002,-1.1419714322167196,0.7726794061735658,0.8354117101987045,-0.4191408737005604,,-1.239328726189801,0.09789336191366989,0.18521650778,0.4988523755496834,1.0928187251239927,-1.0518641543606049,0.8693171199666342,,-0.06866343443502192,-0.04953898915629405,0.0911007994,-0.09223816666624303,,-1.3239682e-05,-1.2516975e-06,3.9339066e-06,0.99999994,1.0311604e-05,9.23872e-06,-1.0311604e-05,1.0,1.5497208e-06,-9.2461705e-06,-1.5199184e-06,1.0,825,2.531,0,0,0.0,True,-0.2544564632382502,1.0042764392283747
2.5440985220484436,14:51:15.603759,14:49:55.790738,0,,0.09498927,0.03222225,0.032983214,0.27663505,-0.30588824,-0.91099143,-0.00948441,-0.94880944,0.31570652,-0.96092826,-0.07869524,-0.26537517,,0.055650003,0.00066225976,0.023265302,0.29462323,-0.26030818,0.9194763,-0.100274354,0.94845116,0.30064154,-0.950338,-0.18077588,0.25333354,,0.08360624,1.2907743,0.42627022,0.9937986,0.08375686,-0.07313748,0.013504158,-0.7437839,-0.66828376,-0.11037182,0.6631518,-0.74030244,,-0.08760651,0.2626679,-0.10971349,-0.18231064,0.31893826,0.93007594,-0.66676635,-0.73530436,0.12145039,0.722624,-0.5980016,0.3467111,,-0.05319913,0.41365623,-0.35526803,-0.13673516,0.23581553,-0.9621302,-0.8074447,0.53613424,0.24615675,0.5738785,0.81052524,0.1170996,,1.2125153976504934,0.44776405204753705,0.21257081936000002,-1.1423908121036888,0.7726794061735658,0.8354933889388451,-0.41897752963442625,,-1.239328726189801,0.09790108464654411,0.18521521149000003,0.4988523755496834,1.0928187251239927,-1.0518641543606049,0.8693171199666342,,-0.06866343443502192,-0.04953898915629405,0.0911007994,-0.09223816666624303,,-1.3239682e-05,-1.2516975e-06,3.9339066e-06,0.99999994,1.0311604e-05,9.23872e-06,-1.0311604e-05,1.0,1.5497208e-06,-9.2461705e-06,-1.5199184e-06,1.0,854,2.62,0,0,0.0,True,-0.25439688551972894,1.0042764392283747
2.573109972057864,14:51:15.686353,14:49:55.790738,0,,0.094993524,0.03222151,0.03298199,0.2766571,-0.30589196,-0.91098344,-0.009491533,-0.9488081,0.3157103,-0.9609219,-0.07869679,-0.26539794,,0.05565145,0.00065966696,0.023264706,0.29443234,-0.25999457,0.9196262,-0.100245744,0.9485709,0.300273,-0.9504001,-0.18059868,0.2532266,,0.08360624,1.2907743,0.42627022,0.9937986,0.08375686,-0.07313748,0.013504158,-0.7437839,-0.66828376,-0.11037182,0.6631518,-0.74030244,,-0.08761061,0.26266623,-0.10971279,-0.18233316,0.3189421,0.93007016,-0.6667689,-0.7353041,0.12143747,0.72261596,-0.5979998,0.346731,,-0.053200334,0.41365388,-0.35526946,-0.13653862,0.2354723,-0.9622422,-0.8074424,0.5362961,0.24581127,0.57392853,0.8105179,0.11690518,,1.2124922294518707,0.4477717747804113,0.21257081936000002,-1.1423908121036888,0.7726794061735658,0.8354933889388451,-0.41897752963442625,,-1.2393132807240523,0.09789336191366989,0.18521521149000003,0.4992717554366525,1.0928187251239927,-1.0518641543606049,0.8693171199666342,,-0.06866343443502192,-0.04953898915629405,0.0911007994,-0.09223816666624303,,-1.3239682e-05,-1.2516975e-06,3.9339066e-06,0.99999994,1.0311604e-05,9.23872e-06,-1.0311604e-05,1.0,1.5497208e-06,-9.2461705e-06,-1.5199184e-06,1.0,862,2.645,0,0,0.0,True,-0.2545756186752919,1.0040350382244774
2.655775099992752,14:51:15.717571,14:49:55.790738,0,,0.09499256,0.03222052,0.032981247,0.276654,-0.30588895,-0.9109854,-0.00949648,-0.9488096,0.31570557,-0.9609227,-0.07868999,-0.2653969,,0.05565145,0.00065966696,0.023264706,0.29443234,-0.25999457,0.9196262,-0.100245744,0.9485709,0.300273,-0.9504001,-0.18059868,0.2532266,,0.08360624,1.2907743,0.42627022,0.9937986,0.08375686,-0.07313748,0.013504158,-0.7437839,-0.66828376,-0.11037182,0.6631518,-0.74030244,,-0.08760958,0.26266506,-0.10971294,-0.18232997,0.31893846,0.93007207,-0.6667729,-0.73530096,0.12143476,0.7226131,-0.59800565,0.34672692,,-0.053200334,0.41365388,-0.35526946,-0.13653862,0.2354723,-0.9622422,-0.8074424,0.5362961,0.24581127,0.57392853,0.8105179,0.11690518,,1.2124922294518707,0.44776405204753705,0.21257081936000002,-1.1423908121036888,0.7726794061735658,0.8354933889388451,-0.41897752963442625,,-1.2393132807240523,0.09789336191366989,0.18521521149000003,0.4992717554366525,1.0928187251239927,-1.0518641543606049,0.8693171199666342,,-0.06866343443502192,-0.04953898915629405,0.0911007994,-0.09223816666624303,,-1.3239682e-05,-1.2516975e-06,3.9339066e-06,0.99999994,1.0311604e-05,9.23872e-06,-1.0311604e-05,1.0,1.5497208e-06,-9.2461705e-06,-1.5199184e-06,1.0,874,2.682,0,0,0.0,True,-0.25397984149008224,1.0039867580236979
2.6869867879431695,14:51:15.757585,14:49:55.790738,0,,0.094989136,0.032223828,0.032984644,0.2766318,-0.305891,-0.91099143,-0.00947544,-0.94880784,0.31571162,-0.9609293,-0.07870376,-0.26536894,,0.055653684,0.0006603226,0.023265958,0.29444578,-0.26006526,0.9196019,-0.100241244,0.9485479,0.30034733,-0.9503964,-0.18061805,0.25322664,,0.08360624,1.2907743,0.42627022,0.9937986,0.08375686,-0.07313748,0.013504158,-0.7437839,-0.66828376,-0.11037182,0.6631518,-0.74030244,,-0.08760652,0.26267004,-0.10971351,-0.18230739,0.31894183,0.93007535,-0.66676015,-0.73530865,0.1214583,0.72263056,-0.59799445,0.3467099,,-0.05320277,0.41365492,-0.35526967,-0.1365527,0.23554623,-0.9622221,-0.80743873,0.53627735,0.2458643,0.5739303,0.81050885,0.11695903,,1.2125231203833675,0.4477717747804113,0.21257081936000002,-1.1423908121036888,0.7726794061735658,0.8354933889388451,-0.41897752963442625,,-1.239328726189801,0.09789336191366989,0.18521521149000003,0.4992717554366525,1.0928187251239927,-1.0517824756204643,0.8691537759004999,,-0.06866343443502192,-0.04953898915629405,0.0911007994,-0.09223816666624303,,-1.3239682e-05,-1.2516975e-06,3.9339066e-06,0.99999994,1.0311604e-05,9.23872e-06,-1.0311604e-05,1.0,1.5497208e-06,-9.2461705e-06,-1.5199184e-06,1.0,882,2.707,0,0,0.0,True,-0.2540989969271239,1.0038901976221388
