AlexandreBanks6/ExpertPlaybackApp/resources/Motions/PC1/Data_PC1_27.csv
Task Time,PC1 Time,PC2 Time,Gaze Calib,s_T_psm1,Tx,Ty,Tz,R00,R01,R02,R10,R11,R12,R20,R21,R22,s_T_psm3,Tx,Ty,Tz,R00,R01,R02,R10,R11,R12,R20,R21,R22,cart_T_ecm,Tx,Ty,Tz,R00,R01,R02,R10,R11,R12,R20,R21,R22,ecm_T_psm1,Tx,Ty,Tz,R00,R01,R02,R10,R11,R12,R20,R21,R22,ecm_T_psm3,Tx,Ty,Tz,R00,R01,R02,R10,R11,R12,R20,R21,R22,psm1_joints,q1,q2,q3,q4,q5,q6,jaw,psm3_joints,q1,q2,q3,q4,q5,q6,jaw,ecm_joints,q1,q2,q3,q4,ecmi_T_ecm,Tx,Ty,Tz,R00,R01,R02,R10,R11,R12,R20,R21,R22,Sample #,Task Duration (s),Collisions (binary),Collisions (increments),Cumulative Collision Time (s)
""
lci_T_si,,,,,-0.068703756,0.020479383,0.28058377,0.99537516,0.039429475,0.08759891,0.086155206,-0.76976204,-0.63249004,0.042491566,0.637112,-0.7695991
rci_T_si,,,,,-0.07879551,0.025418198,0.29028293,0.9952404,0.020858057,0.0951921,0.07789582,-0.757231,-0.64848554,0.05855626,0.65281403,-0.7552516
ecm_T_lc,,,,,-4.4061628e-05,-0.00034663224,-0.01840835,-0.99912,0.030754527,0.028518902,-0.031987965,-0.99852574,-0.043852776,0.027128186,-0.04472645,0.9986309
ecm_T_rc,,,,,-0.0043358393,0.01870579,-0.007592615,-0.99555075,-0.052743673,-0.078081585,0.04863213,-0.9973746,0.053654674,-0.08070653,0.04961868,0.9955021
cart_T_ecmi,,,,,0.08906961,1.3439981,0.47900134,0.9960481,0.002751522,-0.08877286,-0.053837433,-0.776247,-0.6281259,-0.07063797,0.6304229,-0.77303123
ecmac_T_ecmrep_psm1,,,,,0.08626859,-0.2052861,-0.33370098,0.999004,0.025128257,0.036871605,-0.023534218,0.9987958,-0.04304718,-0.037908904,0.04213656,0.9983924
ecmac_T_ecmrep_psm3,,,,,-0.16209933,-0.49188918,-0.56672233,0.99379694,-0.09876928,0.05111077,0.087427974,0.9779163,0.18983154,-0.068731576,-0.18418549,0.98048544
""
0,10:31:50.247740,10:31:32.160526,0,,0.027897464,0.04955668,0.07495868,-0.8674596,-0.3702126,-0.33234945,-0.4911414,0.7437715,0.45341355,0.079332665,0.5565486,-0.8270186,,0.14010535,-0.044849813,0.07178435,-0.7427211,-0.6173219,0.2593821,-0.44410422,0.74405044,0.49915975,-0.5011356,0.2555437,-0.8267772,,0.08909392,1.3439963,0.47900626,0.99604833,0.0027550748,-0.08876999,-0.053832874,-0.77624696,-0.62812626,-0.07063797,0.6304229,-0.77303123,,-0.07258326,0.27889383,-0.08404965,0.8815101,0.28359196,0.37751237,-0.24637581,0.9583256,-0.14460629,-0.40278894,0.034461994,0.9146439,,0.055088695,0.4437226,-0.3781207,0.86668277,0.45674396,-0.20061402,-0.49787462,0.7666867,-0.4053547,-0.031335212,0.45119455,0.8918753,,0.8187100801951629,-0.08605441241748371,0.15336277361,0.637038048305985,0.1186004817964023,0.30416851620138563,0.8702971843634397,,-0.6228924654363263,-0.6846048238342544,0.12751993617000001,1.4493768893650323,0.22722649910992745,0.789629468470602,0.8676836793052913,,-0.06956664232292899,-0.1007731293485876,0.09656220391999999,-0.034016912529394594,,2.3964792e-05,4.529953e-06,-4.887581e-06,1.0,3.5390258e-06,2.8871e-06,-3.5353005e-06,1.0,2.9802322e-07,-2.8796494e-06,-3.2782555e-07,1.0,NaN,NaN,NaN,NaN,NaN
0.01674161500068294,10:31:50.263140,10:31:32.160526,0,,0.027897464,0.04955668,0.07495868,-0.8674596,-0.3702126,-0.33234945,-0.4911414,0.7437715,0.45341355,0.079332665,0.5565486,-0.8270186,,0.14010535,-0.044849813,0.07178435,-0.7427211,-0.6173219,0.2593821,-0.44410422,0.74405044,0.49915975,-0.5011356,0.2555437,-0.8267772,,0.08909392,1.3439963,0.47900626,0.99604833,0.0027550748,-0.08876999,-0.053832874,-0.77624696,-0.62812626,-0.07063797,0.6304229,-0.77303123,,-0.07258326,0.27889383,-0.08404965,0.8815101,0.28359196,0.37751237,-0.24637581,0.9583256,-0.14460629,-0.40278894,0.034461994,0.9146439,,0.055088695,0.4437226,-0.3781207,0.86668277,0.45674396,-0.20061402,-0.49787462,0.7666867,-0.4053547,-0.031335212,0.45119455,0.8918753,,0.8187100801951629,-0.08605441241748371,0.15336277361,0.637038048305985,0.1186004817964023,0.30416851620138563,0.8702971843634397,,-0.6228924654363263,-0.6846048238342544,0.12751993617000001,1.4493768893650323,0.22722649910992745,0.789629468470602,0.8676836793052913,,-0.06956664232292899,-0.1007731293485876,0.09656220391999999,-0.034016912529394594,,2.3964792e-05,4.529953e-06,-4.887581e-06,1.0,3.5390258e-06,2.8871e-06,-3.5353005e-06,1.0,2.9802322e-07,-2.8796494e-06,-3.2782555e-07,1.0,0,0.0,0,0,0.0
0.03212695000001986,10:31:50.282083,10:31:32.160526,0,,0.027896484,0.049557097,0.074959055,-0.8674587,-0.3702093,-0.3323555,-0.4911423,0.74376935,0.45341605,0.079337046,0.5565536,-0.8270148,,0.14010522,-0.04484895,0.07178399,-0.74272084,-0.6173234,0.25937885,-0.44410285,0.7440469,0.4991662,-0.501137,0.25555012,-0.8267743,,0.08909392,1.3439963,0.47900626,0.99604833,0.0027550748,-0.08876999,-0.053832874,-0.77624696,-0.62812626,-0.07063797,0.6304229,-0.77303123,,-0.07258234,0.27889448,-0.0840497,0.8815088,0.28358832,0.37751797,-0.2463738,0.9583269,-0.1446014,-0.40279287,0.034456883,0.91464233,,0.055088755,0.44372287,-0.3781198,0.8666826,0.45674497,-0.20061225,-0.49787495,0.76668996,-0.40534803,-0.031333283,0.4511879,0.8918787,,0.8187178029280372,-0.08605441241748371,0.15336277361,0.637038048305985,0.1186004817964023,0.30416851620138563,0.8702971843634397,,-0.6228924654363263,-0.6845971011013801,0.12751993617000001,1.4493768893650323,0.22722649910992745,0.789629468470602,0.8676836793052913,,-0.06956664232292899,-0.1007731293485876,0.09656220391999999,-0.034016912529394594,,2.3964792e-05,4.529953e-06,-4.887581e-06,1.0,3.5390258e-06,2.8871e-06,-3.5353005e-06,1.0,2.9802322e-07,-2.8796494e-06,-3.2782555e-07,1.0,1,0.003,0,0,0.0
0.051065707000816474,10:31:50.295653,10:31:32.160526,0,,0.027897464,0.04955668,0.07495868,-0.8674596,-0.3702126,-0.33234945,-0.4911414,0.7437715,0.45341355,0.079332665,0.5565486,-0.8270186,,0.14010522,-0.04484895,0.07178399,-0.74272084,-0.6173234,0.25937885,-0.44410285,0.7440469,0.4991662,-0.501137,0.25555012,-0.8267743,,0.08909392,1.3439963,0.47900626,0.99604833,0.0027550748,-0.08876999,-0.053832874,-0.77624696,-0.62812626,-0.07063797,0.6304229,-0.77303123,,-0.07258326,0.27889383,-0.08404965,0.8815101,0.28359196,0.37751237,-0.24637581,0.9583256,-0.14460629,-0.40278894,0.034461994,0.9146439,,0.055088755,0.44372287,-0.3781198,0.8666826,0.45674497,-0.20061225,-0.49787495,0.76668996,-0.40534803,-0.031333283,0.4511879,0.8918787,,0.8187100801951629,-0.08605441241748371,0.15336277361,0.637038048305985,0.1186004817964023,0.30416851620138563,0.8702971843634397,,-0.6228924654363263,-0.6845971011013801,0.12751993617000001,1.4493768893650323,0.22722649910992745,0.789629468470602,0.8676836793052913,,-0.06956664232292899,-0.1007731293485876,0.09656220391999999,-0.034016912529394594,,2.3964792e-05,4.529953e-06,-4.887581e-06,1.0,3.5390258e-06,2.8871e-06,-3.5353005e-06,1.0,2.9802322e-07,-2.8796494e-06,-3.2782555e-07,1.0,2,0.006,0,0,0.0
0.0646540690004258,10:31:50.306964,10:31:32.160526,0,,0.027897919,0.049557723,0.0749587,-0.8674611,-0.3702123,-0.33234584,-0.49113965,0.7437687,0.45341995,0.0793269,0.55655235,-0.8270166,,0.14010522,-0.04484895,0.07178399,-0.74272084,-0.6173234,0.25937885,-0.44410285,0.7440469,0.4991662,-0.501137,0.25555012,-0.8267743,,0.08909392,1.3439963,0.47900626,0.99604833,0.0027550748,-0.08876999,-0.053832874,-0.77624696,-0.62812626,-0.07063797,0.6304229,-0.77303123,,-0.07258377,0.2788946,-0.08404899,0.881512,0.28359142,0.37750828,-0.24637797,0.9583259,-0.14460042,-0.40278342,0.03445728,0.9146465,,0.055088755,0.44372287,-0.3781198,0.8666826,0.45674497,-0.20061225,-0.49787495,0.76668996,-0.40534803,-0.031333283,0.4511879,0.8918787,,0.8187100801951629,-0.08604668968460949,0.15336277361,0.637038048305985,0.1186004817964023,0.30416851620138563,0.8702971843634397,,-0.6228924654363263,-0.6845971011013801,0.12751993617000001,1.4493768893650323,0.22722649910992745,0.789629468470602,0.8676836793052913,,-0.06956664232292899,-0.1007731293485876,0.09656220391999999,-0.034016912529394594,,2.3964792e-05,4.529953e-06,-4.887581e-06,1.0,3.5390258e-06,2.8871e-06,-3.5353005e-06,1.0,2.9802322e-07,-2.8796494e-06,-3.2782555e-07,1.0,3,0.009,0,0,0.0
0.07592767000005551,10:31:50.328093,10:31:32.160526,0,,0.027897464,0.04955668,0.07495868,-0.8674596,-0.3702126,-0.33234945,-0.4911414,0.7437715,0.45341355,0.079332665,0.5565486,-0.8270186,,0.14010522,-0.04484895,0.07178399,-0.74272084,-0.6173234,0.25937885,-0.44410285,0.7440469,0.4991662,-0.501137,0.25555012,-0.8267743,,0.08909392,1.3439963,0.47900626,0.99604833,0.0027550748,-0.08876999,-0.053832874,-0.77624696,-0.62812626,-0.07063797,0.6304229,-0.77303123,,-0.07258326,0.27889383,-0.08404965,0.8815101,0.28359196,0.37751237,-0.24637581,0.9583256,-0.14460629,-0.40278894,0.034461994,0.9146439,,0.055088755,0.44372287,-0.3781198,0.8666826,0.45674497,-0.20061225,-0.49787495,0.76668996,-0.40534803,-0.031333283,0.4511879,0.8918787,,0.8187100801951629,-0.08605441241748371,0.15336277361,0.637038048305985,0.1186004817964023,0.30416851620138563,0.8702971843634397,,-0.6228924654363263,-0.6845971011013801,0.12751993617000001,1.4493768893650323,0.22722649910992745,0.789629468470602,0.8676836793052913,,-0.06956664232292899,-0.1007731293485876,0.09656220391999999,-0.034016912529394594,,2.3964792e-05,4.529953e-06,-4.887581e-06,1.0,3.5390258e-06,2.8871e-06,-3.5353005e-06,1.0,2.9802322e-07,-2.8796494e-06,-3.2782555e-07,1.0,4,0.012,0,0,0.0
0.09708996600056707,10:31:50.351783,10:31:32.262704,0,,0.027897464,0.04955668,0.07495868,-0.8674596,-0.3702126,-0.33234945,-0.4911414,0.7437715,0.45341355,0.079332665,0.5565486,-0.8270186,,0.14010522,-0.04484895,0.07178399,-0.74272084,-0.6173234,0.25937885,-0.44410285,0.7440469,0.4991662,-0.501137,0.25555012,-0.8267743,,0.08909392,1.3439963,0.47900626,0.99604833,0.0027550748,-0.08876999,-0.053832874,-0.77624696,-0.62812626,-0.07063797,0.6304229,-0.77303123,,-0.07258326,0.27889383,-0.08404965,0.8815101,0.28359196,0.37751237,-0.24637581,0.9583256,-0.14460629,-0.40278894,0.034461994,0.9146439,,0.055088755,0.44372287,-0.3781198,0.8666826,0.45674497,-0.20061225,-0.49787495,0.76668996,-0.40534803,-0.031333283,0.4511879,0.8918787,,0.8187100801951629,-0.08605441241748371,0.15336277361,0.637038048305985,0.1186004817964023,0.30416851620138563,0.8702971843634397,,-0.6228924654363263,-0.6845971011013801,0.12751993617000001,1.4493768893650323,0.22722649910992745,0.789629468470602,0.8676836793052913,,-0.06956664232292899,-0.1007731293485876,0.09656220391999999,-0.034016912529394594,,2.3964792e-05,4.529953e-06,-4.887581e-06,1.0,3.5390258e-06,2.8871e-06,-3.5353005e-06,1.0,2.9802322e-07,-2.8796494e-06,-3.2782555e-07,1.0,5,0.015,0,0,0.0
0.12076572200021474,10:31:50.372085,10:31:32.262704,0,,0.027897464,0.04955668,0.07495868,-0.8674596,-0.3702126,-0.33234945,-0.4911414,0.7437715,0.45341355,0.079332665,0.5565486,-0.8270186,,0.14010535,-0.044849813,0.07178435,-0.7427211,-0.6173219,0.2593821,-0.44410422,0.74405044,0.49915975,-0.5011356,0.2555437,-0.8267772,,0.08909392,1.3439963,0.47900626,0.99604833,0.0027550748,-0.08876999,-0.053832874,-0.77624696,-0.62812626,-0.07063797,0.6304229,-0.77303123,,-0.07258326,0.27889383,-0.08404965,0.8815101,0.28359196,0.37751237,-0.24637581,0.9583256,-0.14460629,-0.40278894,0.034461994,0.9146439,,0.055088695,0.4437226,-0.3781207,0.86668277,0.45674396,-0.20061402,-0.49787462,0.7666867,-0.4053547,-0.031335212,0.45119455,0.8918753,,0.8187100801951629,-0.08605441241748371,0.15336277361,0.637038048305985,0.1186004817964023,0.30416851620138563,0.8702971843634397,,-0.6228924654363263,-0.6846048238342544,0.12751993617000001,1.4493768893650323,0.22722649910992745,0.789629468470602,0.8676836793052913,,-0.06956664232292899,-0.1007731293485876,0.09656220391999999,-0.034016912529394594,,2.3964792e-05,4.529953e-06,-4.887581e-06,1.0,3.5390258e-06,2.8871e-06,-3.5353005e-06,1.0,2.9802322e-07,-2.8796494e-06,-3.2782555e-07,1.0,6,0.018,0,0,0.0
0.14105378200019913,10:31:50.394019,10:31:32.262704,0,,0.027897919,0.049557723,0.0749587,-0.8674611,-0.3702123,-0.33234584,-0.49113965,0.7437687,0.45341995,0.0793269,0.55655235,-0.8270166,,0.14010522,-0.04484895,0.07178399,-0.74272084,-0.6173234,0.25937885,-0.44410285,0.7440469,0.4991662,-0.501137,0.25555012,-0.8267743,,0.08909392,1.3439963,0.47900626,0.99604833,0.0027550748,-0.08876999,-0.053832874,-0.77624696,-0.62812626,-0.07063797,0.6304229,-0.77303123,,-0.07258377,0.2788946,-0.08404899,0.881512,0.28359142,0.37750828,-0.24637797,0.9583259,-0.14460042,-0.40278342,0.03445728,0.9146465,,0.055088755,0.44372287,-0.3781198,0.8666826,0.45674497,-0.20061225,-0.49787495,0.76668996,-0.40534803,-0.031333283,0.4511879,0.8918787,,0.8187100801951629,-0.08604668968460949,0.15336277361,0.637038048305985,0.1186004817964023,0.30416851620138563,0.8702971843634397,,-0.6228924654363263,-0.6845971011013801,0.12751993617000001,1.4493768893650323,0.22722649910992745,0.789629468470602,0.8676836793052913,,-0.06956664232292899,-0.1007731293485876,0.09656220391999999,-0.034016912529394594,,2.3964792e-05,4.529953e-06,-4.887581e-06,1.0,3.5390258e-06,2.8871e-06,-3.5353005e-06,1.0,2.9802322e-07,-2.8796494e-06,-3.2782555e-07,1.0,7,0.021,0,0,0.0
0.16299827700004244,10:31:50.413769,10:31:32.262704,0,,0.027897919,0.049557723,0.0749587,-0.8674611,-0.3702123,-0.33234584,-0.49113965,0.7437687,0.45341995,0.0793269,0.55655235,-0.8270166,,0.14010522,-0.04484895,0.07178399,-0.74272084,-0.6173234,0.25937885,-0.44410285,0.7440469,0.4991662,-0.501137,0.25555012,-0.8267743,,0.08909392,1.3439963,0.47900626,0.99604833,0.0027550748,-0.08876999,-0.053832874,-0.77624696,-0.62812626,-0.07063797,0.6304229,-0.77303123,,-0.07258377,0.2788946,-0.08404899,0.881512,0.28359142,0.37750828,-0.24637797,0.9583259,-0.14460042,-0.40278342,0.03445728,0.9146465,,0.055088755,0.44372287,-0.3781198,0.8666826,0.45674497,-0.20061225,-0.49787495,0.76668996,-0.40534803,-0.031333283,0.4511879,0.8918787,,0.8187100801951629,-0.08604668968460949,0.15336277361,0.637038048305985,0.1186004817964023,0.30416851620138563,0.8702971843634397,,-0.6228924654363263,-0.6845971011013801,0.12751993617000001,1.4493768893650323,0.22722649910992745,0.789629468470602,0.8676836793052913,,-0.06956664232292899,-0.1007731293485876,0.09656220391999999,-0.034016912529394594,,2.3964792e-05,4.529953e-06,-4.887581e-06,1.0,3.5390258e-06,2.8871e-06,-3.5353005e-06,1.0,2.9802322e-07,-2.8796494e-06,-3.2782555e-07,1.0,8,0.024,0,0,0.0
0.1827379579999615,10:31:50.434464,10:31:32.262704,0,,0.027897464,0.04955668,0.07495868,-0.8674596,-0.3702126,-0.33234945,-0.4911414,0.7437715,0.45341355,0.079332665,0.5565486,-0.8270186,,0.14010522,-0.04484895,0.07178399,-0.74272084,-0.6173234,0.25937885,-0.44410285,0.7440469,0.4991662,-0.501137,0.25555012,-0.8267743,,0.08909392,1.3439963,0.47900626,0.99604833,0.0027550748,-0.08876999,-0.053832874,-0.77624696,-0.62812626,-0.07063797,0.6304229,-0.77303123,,-0.07258326,0.27889383,-0.08404965,0.8815101,0.28359196,0.37751237,-0.24637581,0.9583256,-0.14460629,-0.40278894,0.034461994,0.9146439,,0.055088755,0.44372287,-0.3781198,0.8666826,0.45674497,-0.20061225,-0.49787495,0.76668996,-0.40534803,-0.031333283,0.4511879,0.8918787,,0.8187100801951629,-0.08605441241748371,0.15336277361,0.637038048305985,0.1186004817964023,0.30416851620138563,0.8702971843634397,,-0.6228924654363263,-0.6845971011013801,0.12751993617000001,1.4493768893650323,0.22722649910992745,0.789629468470602,0.8676836793052913,,-0.06956664232292899,-0.1007731293485876,0.09656220391999999,-0.034016912529394594,,2.3964792e-05,4.529953e-06,-4.887581e-06,1.0,3.5390258e-06,2.8871e-06,-3.5353005e-06,1.0,2.9802322e-07,-2.8796494e-06,-3.2782555e-07,1.0,9,0.028,0,0,0.0
0.20346542200059048,10:31:50.453076,10:31:32.362002,0,,0.027897464,0.04955668,0.07495868,-0.8674596,-0.3702126,-0.33234945,-0.4911414,0.7437715,0.45341355,0.079332665,0.5565486,-0.8270186,,0.14010522,-0.04484895,0.07178399,-0.74272084,-0.6173234,0.25937885,-0.44410285,0.7440469,0.4991662,-0.501137,0.25555012,-0.8267743,,0.08909392,1.3439963,0.47900626,0.99604833,0.0027550748,-0.08876999,-0.053832874,-0.77624696,-0.62812626,-0.07063797,0.6304229,-0.77303123,,-0.07258326,0.27889383,-0.08404965,0.8815101,0.28359196,0.37751237,-0.24637581,0.9583256,-0.14460629,-0.40278894,0.034461994,0.9146439,,0.055088755,0.44372287,-0.3781198,0.8666826,0.45674497,-0.20061225,-0.49787495,0.76668996,-0.40534803,-0.031333283,0.4511879,0.8918787,,0.8187100801951629,-0.08605441241748371,0.15336277361,0.637038048305985,0.1186004817964023,0.30416851620138563,0.8702971843634397,,-0.6228924654363263,-0.6845971011013801,0.12751993617000001,1.4493768893650323,0.22722649910992745,0.789629468470602,0.8676836793052913,,-0.06956664232292899,-0.1007731293485876,0.09656220391999999,-0.034016912529394594,,2.3964792e-05,4.529953e-06,-4.887581e-06,1.0,3.5390258e-06,2.8871e-06,-3.5353005e-06,1.0,2.9802322e-07,-2.8796494e-06,-3.2782555e-07,1.0,10,0.031,0,0,0.0
0.22207646900005784,10:31:50.473660,10:31:32.362002,0,,0.027897919,0.049557723,0.0749587,-0.8674611,-0.3702123,-0.33234584,-0.49113965,0.7437687,0.45341995,0.0793269,0.55655235,-0.8270166,,0.14010535,-0.044849813,0.07178435,-0.7427211,-0.6173219,0.2593821,-0.44410422,0.74405044,0.49915975,-0.5011356,0.2555437,-0.8267772,,0.08909392,1.3439963,0.47900626,0.99604833,0.0027550748,-0.08876999,-0.053832874,-0.77624696,-0.62812626,-0.07063797,0.6304229,-0.77303123,,-0.07258377,0.2788946,-0.08404899,0.881512,0.28359142,0.37750828,-0.24637797,0.9583259,-0.14460042,-0.40278342,0.03445728,0.9146465,,0.055088695,0.4437226,-0.3781207,0.86668277,0.45674396,-0.20061402,-0.49787462,0.7666867,-0.4053547,-0.031335212,0.45119455,0.8918753,,0.8187100801951629,-0.08604668968460949,0.15336277361,0.637038048305985,0.1186004817964023,0.30416851620138563,0.8702971843634397,,-0.6228924654363263,-0.6846048238342544,0.12751993617000001,1.4493768893650323,0.22722649910992745,0.789629468470602,0.8676836793052913,,-0.06956664232292899,-0.1007731293485876,0.09656220391999999,-0.034016912529394594,,2.3964792e-05,4.529953e-06,-4.887581e-06,1.0,3.5390258e-06,2.8871e-06,-3.5353005e-06,1.0,2.9802322e-07,-2.8796494e-06,-3.2782555e-07,1.0,11,0.034,0,0,0.0
0.24262355400060187,10:31:50.494036,10:31:32.362002,0,,0.02789695,0.049558125,0.07495907,-0.8674602,-0.37020895,-0.33235192,-0.49114054,0.74376667,0.45342246,0.07933128,0.5565574,-0.8270128,,0.14010522,-0.04484895,0.07178399,-0.74272084,-0.6173234,0.25937885,-0.44410285,0.7440469,0.4991662,-0.501137,0.25555012,-0.8267743,,0.08909392,1.3439963,0.47900626,0.99604833,0.0027550748,-0.08876999,-0.053832874,-0.77624696,-0.62812626,-0.07063797,0.6304229,-0.77303123,,-0.072582856,0.27889526,-0.084049046,0.8815108,0.28358778,0.3775139,-0.24637596,0.9583272,-0.14459553,-0.40278736,0.03445217,0.91464496,,0.055088755,0.44372287,-0.3781198,0.8666826,0.45674497,-0.20061225,-0.49787495,0.76668996,-0.40534803,-0.031333283,0.4511879,0.8918787,,0.8187178029280372,-0.08604668968460949,0.15336277361,0.637038048305985,0.1186004817964023,0.30416851620138563,0.8702971843634397,,-0.6228924654363263,-0.6845971011013801,0.12751993617000001,1.4493768893650323,0.22722649910992745,0.789629468470602,0.8676836793052913,,-0.06956664232292899,-0.1007731293485876,0.09656220391999999,-0.034016912529394594,,2.3964792e-05,4.529953e-06,-4.887581e-06,1.0,3.5390258e-06,2.8871e-06,-3.5353005e-06,1.0,2.9802322e-07,-2.8796494e-06,-3.2782555e-07,1.0,12,0.037,0,0,0.0
0.26302411000051507,10:31:50.509037,10:31:32.362002,0,,0.027896484,0.049557097,0.074959055,-0.8674587,-0.3702093,-0.3323555,-0.4911423,0.74376935,0.45341605,0.079337046,0.5565536,-0.8270148,,0.14010522,-0.04484895,0.07178399,-0.74272084,-0.6173234,0.25937885,-0.44410285,0.7440469,0.4991662,-0.501137,0.25555012,-0.8267743,,0.08909392,1.3439963,0.47900626,0.99604833,0.0027550748,-0.08876999,-0.053832874,-0.77624696,-0.62812626,-0.07063797,0.6304229,-0.77303123,,-0.07258234,0.27889448,-0.0840497,0.8815088,0.28358832,0.37751797,-0.2463738,0.9583269,-0.1446014,-0.40279287,0.034456883,0.91464233,,0.055088755,0.44372287,-0.3781198,0.8666826,0.45674497,-0.20061225,-0.49787495,0.76668996,-0.40534803,-0.031333283,0.4511879,0.8918787,,0.8187178029280372,-0.08605441241748371,0.15336277361,0.637038048305985,0.1186004817964023,0.30416851620138563,0.8702971843634397,,-0.6228924654363263,-0.6846048238342544,0.12751993617000001,1.4493768893650323,0.22722649910992745,0.789629468470602,0.8676836793052913,,-0.06956664232292899,-0.1007731293485876,0.09656220391999999,-0.034016912529394594,,2.3964792e-05,4.529953e-06,-4.887581e-06,1.0,3.5390258e-06,2.8871e-06,-3.5353005e-06,1.0,2.9802322e-07,-2.8796494e-06,-3.2782555e-07,1.0,13,0.039,0,0,0.0
0.2779582310004116,10:31:50.529447,10:31:32.362002,0,,0.027896484,0.049557097,0.074959055,-0.8674587,-0.3702093,-0.3323555,-0.4911423,0.74376935,0.45341605,0.079337046,0.5565536,-0.8270148,,0.14010535,-0.044849813,0.07178435,-0.7427211,-0.6173219,0.2593821,-0.44410422,0.74405044,0.49915975,-0.5011356,0.2555437,-0.8267772,,0.08909392,1.3439963,0.47900626,0.99604833,0.0027550748,-0.08876999,-0.053832874,-0.77624696,-0.62812626,-0.07063797,0.6304229,-0.77303123,,-0.07258234,0.27889448,-0.0840497,0.8815088,0.28358832,0.37751797,-0.2463738,0.9583269,-0.1446014,-0.40279287,0.034456883,0.91464233,,0.055088695,0.4437226,-0.3781207,0.86668277,0.45674396,-0.20061402,-0.49787462,0.7666867,-0.4053547,-0.031335212,0.45119455,0.8918753,,0.8187178029280372,-0.08605441241748371,0.15336277361,0.637038048305985,0.1186004817964023,0.30416851620138563,0.8702971843634397,,-0.6228924654363263,-0.6846048238342544,0.12751993617000001,1.4493768893650323,0.22722649910992745,0.789629468470602,0.8676836793052913,,-0.06956664232292899,-0.1007731293485876,0.09656220391999999,-0.034016912529394594,,2.3964792e-05,4.529953e-06,-4.887581e-06,1.0,3.5390258e-06,2.8871e-06,-3.5353005e-06,1.0,2.9802322e-07,-2.8796494e-06,-3.2782555e-07,1.0,14,0.042,0,0,0.0
0.29843754900048225,10:31:50.547914,10:31:32.362002,0,,0.027897464,0.04955668,0.07495868,-0.8674596,-0.3702126,-0.33234945,-0.4911414,0.7437715,0.45341355,0.079332665,0.5565486,-0.8270186,,0.14010522,-0.04484895,0.07178399,-0.74272084,-0.6173234,0.25937885,-0.44410285,0.7440469,0.4991662,-0.501137,0.25555012,-0.8267743,,0.08909392,1.3439963,0.47900626,0.99604833,0.0027550748,-0.08876999,-0.053832874,-0.77624696,-0.62812626,-0.07063797,0.6304229,-0.77303123,,-0.07258326,0.27889383,-0.08404965,0.8815101,0.28359196,0.37751237,-0.24637581,0.9583256,-0.14460629,-0.40278894,0.034461994,0.9146439,,0.055088755,0.44372287,-0.3781198,0.8666826,0.45674497,-0.20061225,-0.49787495,0.76668996,-0.40534803,-0.031333283,0.4511879,0.8918787,,0.8187100801951629,-0.08605441241748371,0.15336277361,0.637038048305985,0.1186004817964023,0.30416851620138563,0.8702971843634397,,-0.6228924654363263,-0.6845971011013801,0.12751993617000001,1.4493768893650323,0.22722649910992745,0.789629468470602,0.8676836793052913,,-0.06956664232292899,-0.1007731293485876,0.09656220391999999,-0.034016912529394594,,2.3964792e-05,4.529953e-06,-4.887581e-06,1.0,3.5390258e-06,2.8871e-06,-3.5353005e-06,1.0,2.9802322e-07,-2.8796494e-06,-3.2782555e-07,1.0,15,0.045,0,0,0.0
0.3169096290002926,10:31:50.566153,10:31:32.467687,0,,0.027897464,0.04955668,0.07495868,-0.8674596,-0.3702126,-0.33234945,-0.4911414,0.7437715,0.45341355,0.079332665,0.5565486,-0.8270186,,0.14010522,-0.04484895,0.07178399,-0.74272084,-0.6173234,0.25937885,-0.44410285,0.7440469,0.4991662,-0.501137,0.25555012,-0.8267743,,0.08909392,1.3439963,0.47900626,0.99604833,0.0027550748,-0.08876999,-0.053832874,-0.77624696,-0.62812626,-0.07063797,0.6304229,-0.77303123,,-0.07258326,0.27889383,-0.08404965,0.8815101,0.28359196,0.37751237,-0.24637581,0.9583256,-0.14460629,-0.40278894,0.034461994,0.9146439,,0.055088755,0.44372287,-0.3781198,0.8666826,0.45674497,-0.20061225,-0.49787495,0.76668996,-0.40534803,-0.031333283,0.4511879,0.8918787,,0.8187100801951629,-0.08605441241748371,0.15336277361,0.637038048305985,0.1186004817964023,0.30416851620138563,0.8702971843634397,,-0.6228924654363263,-0.6845971011013801,0.12751993617000001,1.4493768893650323,0.22722649910992745,0.789629468470602,0.8676836793052913,,-0.06956664232292899,-0.1007731293485876,0.09656220391999999,-0.034016912529394594,,2.3964792e-05,4.529953e-06,-4.887581e-06,1.0,3.5390258e-06,2.8871e-06,-3.5353005e-06,1.0,2.9802322e-07,-2.8796494e-06,-3.2782555e-07,1.0,16,0.048,0,0,0.0
0.3351553730008163,10:31:50.581139,10:31:32.467687,0,,0.027897919,0.049557723,0.0749587,-0.8674611,-0.3702123,-0.33234584,-0.49113965,0.7437687,0.45341995,0.0793269,0.55655235,-0.8270166,,0.14010522,-0.04484895,0.07178399,-0.74272084,-0.6173234,0.25937885,-0.44410285,0.7440469,0.4991662,-0.501137,0.25555012,-0.8267743,,0.08909392,1.3439963,0.47900626,0.99604833,0.0027550748,-0.08876999,-0.053832874,-0.77624696,-0.62812626,-0.07063797,0.6304229,-0.77303123,,-0.07258377,0.2788946,-0.08404899,0.881512,0.28359142,0.37750828,-0.24637797,0.9583259,-0.14460042,-0.40278342,0.03445728,0.9146465,,0.055088755,0.44372287,-0.3781198,0.8666826,0.45674497,-0.20061225,-0.49787495,0.76668996,-0.40534803,-0.031333283,0.4511879,0.8918787,,0.8187100801951629,-0.08604668968460949,0.15336277361,0.637038048305985,0.1186004817964023,0.30416851620138563,0.8702971843634397,,-0.6228924654363263,-0.6845971011013801,0.12751993617000001,1.4493768893650323,0.22722649910992745,0.789629468470602,0.8676836793052913,,-0.06956664232292899,-0.1007731293485876,0.09656220391999999,-0.034016912529394594,,2.3964792e-05,4.529953e-06,-4.887581e-06,1.0,3.5390258e-06,2.8871e-06,-3.5353005e-06,1.0,2.9802322e-07,-2.8796494e-06,-3.2782555e-07,1.0,17,0.051,0,0,0.0
0.3501273810006751,10:31:50.599959,10:31:32.467687,0,,0.027897919,0.049557723,0.0749587,-0.8674611,-0.3702123,-0.33234584,-0.49113965,0.7437687,0.45341995,0.0793269,0.55655235,-0.8270166,,0.14010522,-0.04484895,0.07178399,-0.74272084,-0.6173234,0.25937885,-0.44410285,0.7440469,0.4991662,-0.501137,0.25555012,-0.8267743,,0.08909392,1.3439963,0.47900626,0.99604833,0.0027550748,-0.08876999,-0.053832874,-0.77624696,-0.62812626,-0.07063797,0.6304229,-0.77303123,,-0.07258377,0.2788946,-0.08404899,0.881512,0.28359142,0.37750828,-0.24637797,0.9583259,-0.14460042,-0.40278342,0.03445728,0.9146465,,0.055088755,0.44372287,-0.3781198,0.8666826,0.45674497,-0.20061225,-0.49787495,0.76668996,-0.40534803,-0.031333283,0.4511879,0.8918787,,0.8187100801951629,-0.08604668968460949,0.15336277361,0.637038048305985,0.1186004817964023,0.30416851620138563,0.8702971843634397,,-0.6228924654363263,-0.6845971011013801,0.12751993617000001,1.4493768893650323,0.22722649910992745,0.789629468470602,0.8676836793052913,,-0.06956664232292899,-0.1007731293485876,0.09656220391999999,-0.034016912529394594,,2.3964792e-05,4.529953e-06,-4.887581e-06,1.0,3.5390258e-06,2.8871e-06,-3.5353005e-06,1.0,2.9802322e-07,-2.8796494e-06,-3.2782555e-07,1.0,18,0.054,0,0,0.0
0.3689533800006757,10:31:50.623751,10:31:32.467687,0,,0.027897464,0.04955668,0.07495868,-0.8674596,-0.3702126,-0.33234945,-0.4911414,0.7437715,0.45341355,0.079332665,0.5565486,-0.8270186,,0.14010535,-0.044849813,0.07178435,-0.7427211,-0.6173219,0.2593821,-0.44410422,0.74405044,0.49915975,-0.5011356,0.2555437,-0.8267772,,0.08909392,1.3439963,0.47900626,0.99604833,0.0027550748,-0.08876999,-0.053832874,-0.77624696,-0.62812626,-0.07063797,0.6304229,-0.77303123,,-0.07258326,0.27889383,-0.08404965,0.8815101,0.28359196,0.37751237,-0.24637581,0.9583256,-0.14460629,-0.40278894,0.034461994,0.9146439,,0.055088695,0.4437226,-0.3781207,0.86668277,0.45674396,-0.20061402,-0.49787462,0.7666867,-0.4053547,-0.031335212,0.45119455,0.8918753,,0.8187100801951629,-0.08605441241748371,0.15336277361,0.637038048305985,0.1186004817964023,0.30416851620138563,0.8702971843634397,,-0.6228924654363263,-0.6846048238342544,0.12751993617000001,1.4493768893650323,0.22722649910992745,0.789629468470602,0.8676836793052913,,-0.06956664232292899,-0.1007731293485876,0.09656220391999999,-0.034016912529394594,,2.3964792e-05,4.529953e-06,-4.887581e-06,1.0,3.5390258e-06,2.8871e-06,-3.5353005e-06,1.0,2.9802322e-07,-2.8796494e-06,-3.2782555e-07,1.0,19,0.057,0,0,0.0
0.3926902910006902,10:31:50.638472,10:31:32.467687,0,,0.027896484,0.049557097,0.074959055,-0.8674587,-0.3702093,-0.3323555,-0.4911423,0.74376935,0.45341605,0.079337046,0.5565536,-0.8270148,,0.14010535,-0.044849813,0.07178435,-0.7427211,-0.6173219,0.2593821,-0.44410422,0.74405044,0.49915975,-0.5011356,0.2555437,-0.8267772,,0.08909392,1.3439963,0.47900626,0.99604833,0.0027550748,-0.08876999,-0.053832874,-0.77624696,-0.62812626,-0.07063797,0.6304229,-0.77303123,,-0.07258234,0.27889448,-0.0840497,0.8815088,0.28358832,0.37751797,-0.2463738,0.9583269,-0.1446014,-0.40279287,0.034456883,0.91464233,,0.055088695,0.4437226,-0.3781207,0.86668277,0.45674396,-0.20061402,-0.49787462,0.7666867,-0.4053547,-0.031335212,0.45119455,0.8918753,,0.8187178029280372,-0.08605441241748371,0.15336277361,0.637038048305985,0.1186004817964023,0.30416851620138563,0.8702971843634397,,-0.6228924654363263,-0.6846048238342544,0.12751993617000001,1.4493768893650323,0.22722649910992745,0.789629468470602,0.8676836793052913,,-0.06956664232292899,-0.1007731293485876,0.09656220391999999,-0.034016912529394594,,2.3964792e-05,4.529953e-06,-4.887581e-06,1.0,3.5390258e-06,2.8871e-06,-3.5353005e-06,1.0,2.9802322e-07,-2.8796494e-06,-3.2782555e-07,1.0,20,0.06,0,0,0.0
0.40744170700054383,10:31:50.661127,10:31:32.574159,0,,0.02790631,0.049549364,0.07496104,-0.86744857,-0.37022296,-0.33236665,-0.4911604,0.7437577,0.45341557,0.079335436,0.55656004,-0.82701063,,0.14015585,-0.04481283,0.07177892,-0.74271894,-0.6173592,0.25929907,-0.4441577,0.7440078,0.49917558,-0.50109124,0.2555775,-0.8267937,,0.08906741,1.343998,0.47900325,0.99604946,0.0027716744,-0.088756554,-0.053811576,-0.7762469,-0.6281282,-0.07063797,0.6304229,-0.77303123,,-0.07256907,0.27889097,-0.08405997,0.88150936,0.28358564,0.37751877,-0.24637447,0.95832795,-0.14459321,-0.40279132,0.034449283,0.9146433,,0.055058837,0.4437343,-0.37809134,0.86669046,0.4567627,-0.20053798,-0.4978575,0.7667026,-0.4053456,-0.03139375,0.45114848,0.89189655,,0.8187178029280372,-0.08604668968460949,0.15336277361,0.637038048305985,0.1186004817964023,0.30416851620138563,0.8702971843634397,,-0.6228924654363263,-0.6845971011013801,0.12751993617000001,1.4493768893650323,0.22722649910992745,0.789629468470602,0.8676836793052913,,-0.06956664232292899,-0.1007731293485876,0.09656220391999999,-0.034016912529394594,,-2.3245811e-06,1.3709068e-06,-1.3113022e-06,1.0,2.0068139e-05,1.6368926e-05,-2.0064414e-05,1.0,1.8179417e-06,-1.6361475e-05,-1.847744e-06,1.0,21,0.063,0,0,0.0
0.43012730500049656,10:31:50.677022,10:31:32.574159,0,,0.027905855,0.04954832,0.07496101,-0.8674471,-0.37022334,-0.33237022,-0.49116218,0.74376047,0.45340925,0.07934123,0.5565562,-0.8270127,,0.14015585,-0.04481283,0.07177892,-0.74271894,-0.6173592,0.25929907,-0.4441577,0.7440078,0.49917558,-0.50109124,0.2555775,-0.8267937,,0.08906741,1.343998,0.47900325,0.99604946,0.0027716744,-0.088756554,-0.053811576,-0.7762469,-0.6281282,-0.07063797,0.6304229,-0.77303123,,-0.072568566,0.2788902,-0.084060624,0.88150746,0.2835862,0.37752283,-0.2463723,0.9583276,-0.14459908,-0.40279686,0.034453996,0.9146407,,0.055058837,0.4437343,-0.37809134,0.86669046,0.4567627,-0.20053798,-0.4978575,0.7667026,-0.4053456,-0.03139375,0.45114848,0.89189655,,0.8187178029280372,-0.08605441241748371,0.15336277361,0.637038048305985,0.1186004817964023,0.30416851620138563,0.8702971843634397,,-0.6228924654363263,-0.6845971011013801,0.12751993617000001,1.4493768893650323,0.22722649910992745,0.789629468470602,0.8676836793052913,,-0.06956664232292899,-0.1007731293485876,0.09656220391999999,-0.034016912529394594,,-2.3245811e-06,1.3709068e-06,-1.3113022e-06,1.0,2.0068139e-05,1.6368926e-05,-2.0064414e-05,1.0,1.8179417e-06,-1.6361475e-05,-1.847744e-06,1.0,22,0.066,0,0,0.0
0.4460085140008232,10:31:50.696913,10:31:32.574159,0,,0.027906824,0.049547903,0.07496062,-0.86744803,-0.37022665,-0.3323642,-0.4911613,0.7437625,0.45340672,0.07933682,0.55655116,-0.82701653,,0.14015585,-0.04481283,0.07177892,-0.74271894,-0.6173592,0.25929907,-0.4441577,0.7440078,0.49917558,-0.50109124,0.2555775,-0.8267937,,0.08906741,1.343998,0.47900325,0.99604946,0.0027716744,-0.088756554,-0.053811576,-0.7762469,-0.6281282,-0.07063797,0.6304229,-0.77303123,,-0.07256948,0.27888954,-0.08406057,0.8815087,0.2835898,0.37751725,-0.24637431,0.95832634,-0.14460397,-0.40279293,0.034459107,0.9146422,,0.055058837,0.4437343,-0.37809134,0.86669046,0.4567627,-0.20053798,-0.4978575,0.7667026,-0.4053456,-0.03139375,0.45114848,0.89189655,,0.8187100801951629,-0.08605441241748371,0.15336277361,0.637038048305985,0.1186004817964023,0.30416851620138563,0.8702971843634397,,-0.6228924654363263,-0.6845971011013801,0.12751993617000001,1.4493768893650323,0.22722649910992745,0.789629468470602,0.8676836793052913,,-0.06956664232292899,-0.1007731293485876,0.09656220391999999,-0.034016912529394594,,-2.3245811e-06,1.3709068e-06,-1.3113022e-06,1.0,2.0068139e-05,1.6368926e-05,-2.0064414e-05,1.0,1.8179417e-06,-1.6361475e-05,-1.847744e-06,1.0,23,0.069,0,0,0.0
0.46554013100012526,10:31:50.714884,10:31:32.574159,0,,0.027906824,0.049547903,0.07496062,-0.86744803,-0.37022665,-0.3323642,-0.4911613,0.7437625,0.45340672,0.07933682,0.55655116,-0.82701653,,0.14015585,-0.04481283,0.07177892,-0.74271894,-0.6173592,0.25929907,-0.4441577,0.7440078,0.49917558,-0.50109124,0.2555775,-0.8267937,,0.08906741,1.343998,0.47900325,0.99604946,0.0027716744,-0.088756554,-0.053811576,-0.7762469,-0.6281282,-0.07063797,0.6304229,-0.77303123,,-0.07256948,0.27888954,-0.08406057,0.8815087,0.2835898,0.37751725,-0.24637431,0.95832634,-0.14460397,-0.40279293,0.034459107,0.9146422,,0.055058837,0.4437343,-0.37809134,0.86669046,0.4567627,-0.20053798,-0.4978575,0.7667026,-0.4053456,-0.03139375,0.45114848,0.89189655,,0.8187100801951629,-0.08605441241748371,0.15336277361,0.637038048305985,0.1186004817964023,0.30416851620138563,0.8702971843634397,,-0.6228924654363263,-0.6845971011013801,0.12751993617000001,1.4493768893650323,0.22722649910992745,0.789629468470602,0.8676836793052913,,-0.06956664232292899,-0.1007731293485876,0.09656220391999999,-0.034016912529394594,,-2.3245811e-06,1.3709068e-06,-1.3113022e-06,1.0,2.0068139e-05,1.6368926e-05,-2.0064414e-05,1.0,1.8179417e-06,-1.6361475e-05,-1.847744e-06,1.0,24,0.073,0,0,0.0
0.483855290000065,10:31:50.730271,10:31:32.574159,0,,0.027907282,0.049548917,0.07496065,-0.8674495,-0.3702263,-0.33236057,-0.4911595,0.7437599,0.4534131,0.079331055,0.5565551,-0.82701445,,0.140156,-0.044813633,0.07177928,-0.74271905,-0.6173576,0.2593023,-0.444159,0.7440114,0.49916923,-0.50108975,0.25557104,-0.82679653,,0.08906741,1.343998,0.47900325,0.99604946,0.0027716744,-0.088756554,-0.053811576,-0.7762469,-0.6281282,-0.07063797,0.6304229,-0.77303123,,-0.07256999,0.27889028,-0.08405992,0.8815106,0.28358927,0.37751317,-0.24637647,0.9583267,-0.1445981,-0.40278742,0.034454394,0.91464484,,0.055058777,0.44373402,-0.37809223,0.8666906,0.4567617,-0.20053977,-0.49785715,0.7666993,-0.40535226,-0.03139568,0.45115513,0.89189315,,0.8187100801951629,-0.08604668968460949,0.15336277361,0.637038048305985,0.1186004817964023,0.30416851620138563,0.8702971843634397,,-0.6228924654363263,-0.6846048238342544,0.12751993617000001,1.4493768893650323,0.22722649910992745,0.789629468470602,0.8676836793052913,,-0.06956664232292899,-0.1007731293485876,0.09656220391999999,-0.034016912529394594,,-2.3245811e-06,1.3709068e-06,-1.3113022e-06,1.0,2.0068139e-05,1.6368926e-05,-2.0064414e-05,1.0,1.8179417e-06,-1.6361475e-05,-1.847744e-06,1.0,25,0.075,0,0,0.0
0.4992717340001036,10:31:50.750131,10:31:32.574159,0,,0.027906824,0.049547903,0.07496062,-0.86744803,-0.37022665,-0.3323642,-0.4911613,0.7437625,0.45340672,0.07933682,0.55655116,-0.82701653,,0.140156,-0.044813633,0.07177928,-0.74271905,-0.6173576,0.2593023,-0.444159,0.7440114,0.49916923,-0.50108975,0.25557104,-0.82679653,,0.08906741,1.343998,0.47900325,0.99604946,0.0027716744,-0.088756554,-0.053811576,-0.7762469,-0.6281282,-0.07063797,0.6304229,-0.77303123,,-0.07256948,0.27888954,-0.08406057,0.8815087,0.2835898,0.37751725,-0.24637431,0.95832634,-0.14460397,-0.40279293,0.034459107,0.9146422,,0.055058777,0.44373402,-0.37809223,0.8666906,0.4567617,-0.20053977,-0.49785715,0.7666993,-0.40535226,-0.03139568,0.45115513,0.89189315,,0.8187100801951629,-0.08605441241748371,0.15336277361,0.637038048305985,0.1186004817964023,0.30416851620138563,0.8702971843634397,,-0.6228924654363263,-0.6846048238342544,0.12751993617000001,1.4493768893650323,0.22722649910992745,0.789629468470602,0.8676836793052913,,-0.06956664232292899,-0.1007731293485876,0.09656220391999999,-0.034016912529394594,,-2.3245811e-06,1.3709068e-06,-1.3113022e-06,1.0,2.0068139e-05,1.6368926e-05,-2.0064414e-05,1.0,1.8179417e-06,-1.6361475e-05,-1.847744e-06,1.0,26,0.078,0,0,0.0
0.519131156000185,10:31:50.766312,10:31:32.574159,0,,0.027906824,0.049547903,0.07496062,-0.86744803,-0.37022665,-0.3323642,-0.4911613,0.7437625,0.45340672,0.07933682,0.55655116,-0.82701653,,0.14015585,-0.04481283,0.07177892,-0.74271894,-0.6173592,0.25929907,-0.4441577,0.7440078,0.49917558,-0.50109124,0.2555775,-0.8267937,,0.08906741,1.343998,0.47900325,0.99604946,0.0027716744,-0.088756554,-0.053811576,-0.7762469,-0.6281282,-0.07063797,0.6304229,-0.77303123,,-0.07256948,0.27888954,-0.08406057,0.8815087,0.2835898,0.37751725,-0.24637431,0.95832634,-0.14460397,-0.40279293,0.034459107,0.9146422,,0.055058837,0.4437343,-0.37809134,0.86669046,0.4567627,-0.20053798,-0.4978575,0.7667026,-0.4053456,-0.03139375,0.45114848,0.89189655,,0.8187100801951629,-0.08605441241748371,0.15336277361,0.637038048305985,0.1186004817964023,0.30416851620138563,0.8702971843634397,,-0.6228924654363263,-0.6845971011013801,0.12751993617000001,1.4493768893650323,0.22722649910992745,0.789629468470602,0.8676836793052913,,-0.06956664232292899,-0.1007731293485876,0.09656220391999999,-0.034016912529394594,,-2.3245811e-06,1.3709068e-06,-1.3113022e-06,1.0,2.0068139e-05,1.6368926e-05,-2.0064414e-05,1.0,1.8179417e-06,-1.6361475e-05,-1.847744e-06,1.0,27,0.081,0,0,0.0
0.5353117860004204,10:31:50.785228,10:31:32.685734,0,,0.02790631,0.049549364,0.07496104,-0.86744857,-0.37022296,-0.33236665,-0.4911604,0.7437577,0.45341557,0.079335436,0.55656004,-0.82701063,,0.14015585,-0.04481283,0.07177892,-0.74271894,-0.6173592,0.25929907,-0.4441577,0.7440078,0.49917558,-0.50109124,0.2555775,-0.8267937,,0.08906741,1.343998,0.47900325,0.99604946,0.0027716744,-0.088756554,-0.053811576,-0.7762469,-0.6281282,-0.07063797,0.6304229,-0.77303123,,-0.07256907,0.27889097,-0.08405997,0.88150936,0.28358564,0.37751877,-0.24637447,0.95832795,-0.14459321,-0.40279132,0.034449283,0.9146433,,0.055058837,0.4437343,-0.37809134,0.86669046,0.4567627,-0.20053798,-0.4978575,0.7667026,-0.4053456,-0.03139375,0.45114848,0.89189655,,0.8187178029280372,-0.08604668968460949,0.15336277361,0.637038048305985,0.1186004817964023,0.30416851620138563,0.8702971843634397,,-0.6228924654363263,-0.6845971011013801,0.12751993617000001,1.4493768893650323,0.22722649910992745,0.789629468470602,0.8676836793052913,,-0.06956664232292899,-0.1007731293485876,0.09656220391999999,-0.034016912529394594,,-2.3245811e-06,1.3709068e-06,-1.3113022e-06,1.0,2.0068139e-05,1.6368926e-05,-2.0064414e-05,1.0,1.8179417e-06,-1.6361475e-05,-1.847744e-06,1.0,28,0.084,0,0,0.0
0.553631038000276,10:31:50.798915,10:31:32.685734,0,,0.02790631,0.049549364,0.07496104,-0.86744857,-0.37022296,-0.33236665,-0.4911604,0.7437577,0.45341557,0.079335436,0.55656004,-0.82701063,,0.14015585,-0.04481283,0.07177892,-0.74271894,-0.6173592,0.25929907,-0.4441577,0.7440078,0.49917558,-0.50109124,0.2555775,-0.8267937,,0.08906741,1.343998,0.47900325,0.99604946,0.0027716744,-0.088756554,-0.053811576,-0.7762469,-0.6281282,-0.07063797,0.6304229,-0.77303123,,-0.07256907,0.27889097,-0.08405997,0.88150936,0.28358564,0.37751877,-0.24637447,0.95832795,-0.14459321,-0.40279132,0.034449283,0.9146433,,0.055058837,0.4437343,-0.37809134,0.86669046,0.4567627,-0.20053798,-0.4978575,0.7667026,-0.4053456,-0.03139375,0.45114848,0.89189655,,0.8187178029280372,-0.08604668968460949,0.15336277361,0.637038048305985,0.1186004817964023,0.30416851620138563,0.8702971843634397,,-0.6228924654363263,-0.6845971011013801,0.12751993617000001,1.4493768893650323,0.22722649910992745,0.789629468470602,0.8676836793052913,,-0.06956664232292899,-0.1007731293485876,0.09656220391999999,-0.034016912529394594,,-2.3245811e-06,1.3709068e-06,-1.3113022e-06,1.0,2.0068139e-05,1.6368926e-05,-2.0064414e-05,1.0,1.8179417e-06,-1.6361475e-05,-1.847744e-06,1.0,29,0.087,0,0,0.0
0.5679117070003485,10:31:50.820556,10:31:32.685734,0,,0.027907282,0.049548917,0.07496065,-0.8674495,-0.3702263,-0.33236057,-0.4911595,0.7437599,0.4534131,0.079331055,0.5565551,-0.82701445,,0.14015585,-0.04481283,0.07177892,-0.74271894,-0.6173592,0.25929907,-0.4441577,0.7440078,0.49917558,-0.50109124,0.2555775,-0.8267937,,0.08906741,1.343998,0.47900325,0.99604946,0.0027716744,-0.088756554,-0.053811576,-0.7762469,-0.6281282,-0.07063797,0.6304229,-0.77303123,,-0.07256999,0.27889028,-0.08405992,0.8815106,0.28358927,0.37751317,-0.24637647,0.9583267,-0.1445981,-0.40278742,0.034454394,0.91464484,,0.055058837,0.4437343,-0.37809134,0.86669046,0.4567627,-0.20053798,-0.4978575,0.7667026,-0.4053456,-0.03139375,0.45114848,0.89189655,,0.8187100801951629,-0.08604668968460949,0.15336277361,0.637038048305985,0.1186004817964023,0.30416851620138563,0.8702971843634397,,-0.6228924654363263,-0.6845971011013801,0.12751993617000001,1.4493768893650323,0.22722649910992745,0.789629468470602,0.8676836793052913,,-0.06956664232292899,-0.1007731293485876,0.09656220391999999,-0.034016912529394594,,-2.3245811e-06,1.3709068e-06,-1.3113022e-06,1.0,2.0068139e-05,1.6368926e-05,-2.0064414e-05,1.0,1.8179417e-06,-1.6361475e-05,-1.847744e-06,1.0,30,0.09,0,0,0.0
0.5895504039999651,10:31:50.839128,10:31:32.685734,0,,0.027906824,0.049547903,0.07496062,-0.86744803,-0.37022665,-0.3323642,-0.4911613,0.7437625,0.45340672,0.07933682,0.55655116,-0.82701653,,0.140156,-0.044813633,0.07177928,-0.74271905,-0.6173576,0.2593023,-0.444159,0.7440114,0.49916923,-0.50108975,0.25557104,-0.82679653,,0.08906741,1.343998,0.47900325,0.99604946,0.0027716744,-0.088756554,-0.053811576,-0.7762469,-0.6281282,-0.07063797,0.6304229,-0.77303123,,-0.07256948,0.27888954,-0.08406057,0.8815087,0.2835898,0.37751725,-0.24637431,0.95832634,-0.14460397,-0.40279293,0.034459107,0.9146422,,0.055058777,0.44373402,-0.37809223,0.8666906,0.4567617,-0.20053977,-0.49785715,0.7666993,-0.40535226,-0.03139568,0.45115513,0.89189315,,0.8187100801951629,-0.08605441241748371,0.15336277361,0.637038048305985,0.1186004817964023,0.30416851620138563,0.8702971843634397,,-0.6228924654363263,-0.6846048238342544,0.12751993617000001,1.4493768893650323,0.22722649910992745,0.789629468470602,0.8676836793052913,,-0.06956664232292899,-0.1007731293485876,0.09656220391999999,-0.034016912529394594,,-2.3245811e-06,1.3709068e-06,-1.3113022e-06,1.0,2.0068139e-05,1.6368926e-05,-2.0064414e-05,1.0,1.8179417e-06,-1.6361475e-05,-1.847744e-06,1.0,31,0.093,0,0,0.0
0.6080595330004144,10:31:50.858187,10:31:32.685734,0,,0.027906824,0.049547903,0.07496062,-0.86744803,-0.37022665,-0.3323642,-0.4911613,0.7437625,0.45340672,0.07933682,0.55655116,-0.82701653,,0.14015585,-0.04481283,0.07177892,-0.74271894,-0.6173592,0.25929907,-0.4441577,0.7440078,0.49917558,-0.50109124,0.2555775,-0.8267937,,0.08906741,1.343998,0.47900325,0.99604946,0.0027716744,-0.088756554,-0.053811576,-0.7762469,-0.6281282,-0.07063797,0.6304229,-0.77303123,,-0.07256948,0.27888954,-0.08406057,0.8815087,0.2835898,0.37751725,-0.24637431,0.95832634,-0.14460397,-0.40279293,0.034459107,0.9146422,,0.055058837,0.4437343,-0.37809134,0.86669046,0.4567627,-0.20053798,-0.4978575,0.7667026,-0.4053456,-0.03139375,0.45114848,0.89189655,,0.8187100801951629,-0.08605441241748371,0.15336277361,0.637038048305985,0.1186004817964023,0.30416851620138563,0.8702971843634397,,-0.6228924654363263,-0.6845971011013801,0.12751993617000001,1.4493768893650323,0.22722649910992745,0.789629468470602,0.8676836793052913,,-0.06956664232292899,-0.1007731293485876,0.09656220391999999,-0.034016912529394594,,-2.3245811e-06,1.3709068e-06,-1.3113022e-06,1.0,2.0068139e-05,1.6368926e-05,-2.0064414e-05,1.0,1.8179417e-06,-1.6361475e-05,-1.847744e-06,1.0,32,0.096,0,0,0.0
0.6271670800006177,10:31:50.877902,10:31:32.783069,0,,0.027906824,0.049547903,0.07496062,-0.86744803,-0.37022665,-0.3323642,-0.4911613,0.7437625,0.45340672,0.07933682,0.55655116,-0.82701653,,0.14015585,-0.04481283,0.07177892,-0.74271894,-0.6173592,0.25929907,-0.4441577,0.7440078,0.49917558,-0.50109124,0.2555775,-0.8267937,,0.08906741,1.343998,0.47900325,0.99604946,0.0027716744,-0.088756554,-0.053811576,-0.7762469,-0.6281282,-0.07063797,0.6304229,-0.77303123,,-0.07256948,0.27888954,-0.08406057,0.8815087,0.2835898,0.37751725,-0.24637431,0.95832634,-0.14460397,-0.40279293,0.034459107,0.9146422,,0.055058837,0.4437343,-0.37809134,0.86669046,0.4567627,-0.20053798,-0.4978575,0.7667026,-0.4053456,-0.03139375,0.45114848,0.89189655,,0.8187100801951629,-0.08605441241748371,0.15336277361,0.637038048305985,0.1186004817964023,0.30416851620138563,0.8702971843634397,,-0.6228924654363263,-0.6845971011013801,0.12751993617000001,1.4493768893650323,0.22722649910992745,0.789629468470602,0.8676836793052913,,-0.06956664232292899,-0.1007731293485876,0.09656220391999999,-0.034016912529394594,,-2.3245811e-06,1.3709068e-06,-1.3113022e-06,1.0,2.0068139e-05,1.6368926e-05,-2.0064414e-05,1.0,1.8179417e-06,-1.6361475e-05,-1.847744e-06,1.0,33,0.099,0,0,0.0
0.6468841070000053,10:31:50.897623,10:31:32.783069,0,,0.027906824,0.049547903,0.07496062,-0.86744803,-0.37022665,-0.3323642,-0.4911613,0.7437625,0.45340672,0.07933682,0.55655116,-0.82701653,,0.14015585,-0.04481283,0.07177892,-0.74271894,-0.6173592,0.25929907,-0.4441577,0.7440078,0.49917558,-0.50109124,0.2555775,-0.8267937,,0.08906741,1.343998,0.47900325,0.99604946,0.0027716744,-0.088756554,-0.053811576,-0.7762469,-0.6281282,-0.07063797,0.6304229,-0.77303123,,-0.07256948,0.27888954,-0.08406057,0.8815087,0.2835898,0.37751725,-0.24637431,0.95832634,-0.14460397,-0.40279293,0.034459107,0.9146422,,0.055058837,0.4437343,-0.37809134,0.86669046,0.4567627,-0.20053798,-0.4978575,0.7667026,-0.4053456,-0.03139375,0.45114848,0.89189655,,0.8187100801951629,-0.08605441241748371,0.15336277361,0.637038048305985,0.1186004817964023,0.30416851620138563,0.8702971843634397,,-0.6228924654363263,-0.6845971011013801,0.12751993617000001,1.4493768893650323,0.22722649910992745,0.789629468470602,0.8676836793052913,,-0.06956664232292899,-0.1007731293485876,0.09656220391999999,-0.034016912529394594,,-2.3245811e-06,1.3709068e-06,-1.3113022e-06,1.0,2.0068139e-05,1.6368926e-05,-2.0064414e-05,1.0,1.8179417e-06,-1.6361475e-05,-1.847744e-06,1.0,34,0.102,0,0,0.0
0.666614020000452,10:31:50.916642,10:31:32.783069,0,,0.027907282,0.049548917,0.07496065,-0.8674495,-0.3702263,-0.33236057,-0.4911595,0.7437599,0.4534131,0.079331055,0.5565551,-0.82701445,,0.14015648,-0.04481259,0.07177916,-0.7427164,-0.61735946,0.25930575,-0.44415465,0.74400836,0.49917755,-0.5010976,0.25557548,-0.82679045,,0.08906741,1.343998,0.47900325,0.99604946,0.0027716744,-0.088756554,-0.053811576,-0.7762469,-0.6281282,-0.07063797,0.6304229,-0.77303123,,-0.07256999,0.27889028,-0.08405992,0.8815106,0.28358927,0.37751317,-0.24637647,0.9583267,-0.1445981,-0.40278742,0.034454394,0.91464484,,0.055058144,0.4437345,-0.37809137,0.8666885,0.4567632,-0.20054527,-0.49786127,0.7667014,-0.40534326,-0.031387556,0.45115006,0.89189595,,0.8187100801951629,-0.08604668968460949,0.15336277361,0.637038048305985,0.1186004817964023,0.30416851620138563,0.8702971843634397,,-0.6229001881692005,-0.6845971011013801,0.12751993617000001,1.4493768893650323,0.22722649910992745,0.789629468470602,0.8676836793052913,,-0.06956664232292899,-0.1007731293485876,0.09656220391999999,-0.034016912529394594,,-2.3245811e-06,1.3709068e-06,-1.3113022e-06,1.0,2.0068139e-05,1.6368926e-05,-2.0064414e-05,1.0,1.8179417e-06,-1.6361475e-05,-1.847744e-06,1.0,35,0.105,0,0,0.0
0.6856089150005573,10:31:50.932429,10:31:32.783069,0,,0.027907282,0.049548917,0.07496065,-0.8674495,-0.3702263,-0.33236057,-0.4911595,0.7437599,0.4534131,0.079331055,0.5565551,-0.82701445,,0.14015585,-0.04481283,0.07177892,-0.74271894,-0.6173592,0.25929907,-0.4441577,0.7440078,0.49917558,-0.50109124,0.2555775,-0.8267937,,0.08906741,1.343998,0.47900325,0.99604946,0.0027716744,-0.088756554,-0.053811576,-0.7762469,-0.6281282,-0.07063797,0.6304229,-0.77303123,,-0.07256999,0.27889028,-0.08405992,0.8815106,0.28358927,0.37751317,-0.24637647,0.9583267,-0.1445981,-0.40278742,0.034454394,0.91464484,,0.055058837,0.4437343,-0.37809134,0.86669046,0.4567627,-0.20053798,-0.4978575,0.7667026,-0.4053456,-0.03139375,0.45114848,0.89189655,,0.8187100801951629,-0.08604668968460949,0.15336277361,0.637038048305985,0.1186004817964023,0.30416851620138563,0.8702971843634397,,-0.6228924654363263,-0.6845971011013801,0.12751993617000001,1.4493768893650323,0.22722649910992745,0.789629468470602,0.8676836793052913,,-0.06956664232292899,-0.1007731293485876,0.09656220391999999,-0.034016912529394594,,-2.3245811e-06,1.3709068e-06,-1.3113022e-06,1.0,2.0068139e-05,1.6368926e-05,-2.0064414e-05,1.0,1.8179417e-06,-1.6361475e-05,-1.847744e-06,1.0,36,0.108,0,0,0.0
0.701384534000681,10:31:50.958488,10:31:32.783069,0,,0.027906824,0.049547903,0.07496062,-0.86744803,-0.37022665,-0.3323642,-0.4911613,0.7437625,0.45340672,0.07933682,0.55655116,-0.82701653,,0.14015585,-0.04481283,0.07177892,-0.74271894,-0.6173592,0.25929907,-0.4441577,0.7440078,0.49917558,-0.50109124,0.2555775,-0.8267937,,0.08906741,1.343998,0.47900325,0.99604946,0.0027716744,-0.088756554,-0.053811576,-0.7762469,-0.6281282,-0.07063797,0.6304229,-0.77303123,,-0.07256948,0.27888954,-0.08406057,0.8815087,0.2835898,0.37751725,-0.24637431,0.95832634,-0.14460397,-0.40279293,0.034459107,0.9146422,,0.055058837,0.4437343,-0.37809134,0.86669046,0.4567627,-0.20053798,-0.4978575,0.7667026,-0.4053456,-0.03139375,0.45114848,0.89189655,,0.8187100801951629,-0.08605441241748371,0.15336277361,0.637038048305985,0.1186004817964023,0.30416851620138563,0.8702971843634397,,-0.6228924654363263,-0.6845971011013801,0.12751993617000001,1.4493768893650323,0.22722649910992745,0.789629468470602,0.8676836793052913,,-0.06956664232292899,-0.1007731293485876,0.09656220391999999,-0.034016912529394594,,-2.3245811e-06,1.3709068e-06,-1.3113022e-06,1.0,2.0068139e-05,1.6368926e-05,-2.0064414e-05,1.0,1.8179417e-06,-1.6361475e-05,-1.847744e-06,1.0,37,0.111,0,0,0.0
0.7233992360006596,10:31:50.970707,10:31:32.783069,0,,0.027906824,0.049547903,0.07496062,-0.86744803,-0.37022665,-0.3323642,-0.4911613,0.7437625,0.45340672,0.07933682,0.55655116,-0.82701653,,0.14015585,-0.04481283,0.07177892,-0.74271894,-0.6173592,0.25929907,-0.4441577,0.7440078,0.49917558,-0.50109124,0.2555775,-0.8267937,,0.08906741,1.343998,0.47900325,0.99604946,0.0027716744,-0.088756554,-0.053811576,-0.7762469,-0.6281282,-0.07063797,0.6304229,-0.77303123,,-0.07256948,0.27888954,-0.08406057,0.8815087,0.2835898,0.37751725,-0.24637431,0.95832634,-0.14460397,-0.40279293,0.034459107,0.9146422,,0.055058837,0.4437343,-0.37809134,0.86669046,0.4567627,-0.20053798,-0.4978575,0.7667026,-0.4053456,-0.03139375,0.45114848,0.89189655,,0.8187100801951629,-0.08605441241748371,0.15336277361,0.637038048305985,0.1186004817964023,0.30416851620138563,0.8702971843634397,,-0.6228924654363263,-0.6845971011013801,0.12751993617000001,1.4493768893650323,0.22722649910992745,0.789629468470602,0.8676836793052913,,-0.06956664232292899,-0.1007731293485876,0.09656220391999999,-0.034016912529394594,,-2.3245811e-06,1.3709068e-06,-1.3113022e-06,1.0,2.0068139e-05,1.6368926e-05,-2.0064414e-05,1.0,1.8179417e-06,-1.6361475e-05,-1.847744e-06,1.0,38,0.115,0,0,0.0
0.7396342730007746,10:31:50.989557,10:31:32.783069,0,,0.027905855,0.04954832,0.07496101,-0.8674471,-0.37022334,-0.33237022,-0.49116218,0.74376047,0.45340925,0.07934123,0.5565562,-0.8270127,,0.14015585,-0.04481283,0.07177892,-0.74271894,-0.6173592,0.25929907,-0.4441577,0.7440078,0.49917558,-0.50109124,0.2555775,-0.8267937,,0.08906741,1.343998,0.47900325,0.99604946,0.0027716744,-0.088756554,-0.053811576,-0.7762469,-0.6281282,-0.07063797,0.6304229,-0.77303123,,-0.072568566,0.2788902,-0.084060624,0.88150746,0.2835862,0.37752283,-0.2463723,0.9583276,-0.14459908,-0.40279686,0.034453996,0.9146407,,0.055058837,0.4437343,-0.37809134,0.86669046,0.4567627,-0.20053798,-0.4978575,0.7667026,-0.4053456,-0.03139375,0.45114848,0.89189655,,0.8187178029280372,-0.08605441241748371,0.15336277361,0.637038048305985,0.1186004817964023,0.30416851620138563,0.8702971843634397,,-0.6228924654363263,-0.6845971011013801,0.12751993617000001,1.4493768893650323,0.22722649910992745,0.789629468470602,0.8676836793052913,,-0.06956664232292899,-0.1007731293485876,0.09656220391999999,-0.034016912529394594,,-2.3245811e-06,1.3709068e-06,-1.3113022e-06,1.0,2.0068139e-05,1.6368926e-05,-2.0064414e-05,1.0,1.8179417e-06,-1.6361475e-05,-1.847744e-06,1.0,39,0.118,0,0,0.0
0.7577307260007728,10:31:51.004681,10:31:32.783069,0,,0.027905855,0.04954832,0.07496101,-0.8674471,-0.37022334,-0.33237022,-0.49116218,0.74376047,0.45340925,0.07934123,0.5565562,-0.8270127,,0.14015585,-0.04481283,0.07177892,-0.74271894,-0.6173592,0.25929907,-0.4441577,0.7440078,0.49917558,-0.50109124,0.2555775,-0.8267937,,0.08906741,1.343998,0.47900325,0.99604946,0.0027716744,-0.088756554,-0.053811576,-0.7762469,-0.6281282,-0.07063797,0.6304229,-0.77303123,,-0.072568566,0.2788902,-0.084060624,0.88150746,0.2835862,0.37752283,-0.2463723,0.9583276,-0.14459908,-0.40279686,0.034453996,0.9146407,,0.055058837,0.4437343,-0.37809134,0.86669046,0.4567627,-0.20053798,-0.4978575,0.7667026,-0.4053456,-0.03139375,0.45114848,0.89189655,,0.8187178029280372,-0.08605441241748371,0.15336277361,0.637038048305985,0.1186004817964023,0.30416851620138563,0.8702971843634397,,-0.6228924654363263,-0.6845971011013801,0.12751993617000001,1.4493768893650323,0.22722649910992745,0.789629468470602,0.8676836793052913,,-0.06956664232292899,-0.1007731293485876,0.09656220391999999,-0.034016912529394594,,-2.3245811e-06,1.3709068e-06,-1.3113022e-06,1.0,2.0068139e-05,1.6368926e-05,-2.0064414e-05,1.0,1.8179417e-06,-1.6361475e-05,-1.847744e-06,1.0,40,0.12,0,0,0.0
0.7735918140006106,10:31:51.029712,10:31:32.783069,0,,0.027906824,0.049547903,0.07496062,-0.86744803,-0.37022665,-0.3323642,-0.4911613,0.7437625,0.45340672,0.07933682,0.55655116,-0.82701653,,0.14015585,-0.04481283,0.07177892,-0.74271894,-0.6173592,0.25929907,-0.4441577,0.7440078,0.49917558,-0.50109124,0.2555775,-0.8267937,,0.08906741,1.343998,0.47900325,0.99604946,0.0027716744,-0.088756554,-0.053811576,-0.7762469,-0.6281282,-0.07063797,0.6304229,-0.77303123,,-0.07256948,0.27888954,-0.08406057,0.8815087,0.2835898,0.37751725,-0.24637431,0.95832634,-0.14460397,-0.40279293,0.034459107,0.9146422,,0.055058837,0.4437343,-0.37809134,0.86669046,0.4567627,-0.20053798,-0.4978575,0.7667026,-0.4053456,-0.03139375,0.45114848,0.89189655,,0.8187100801951629,-0.08605441241748371,0.15336277361,0.637038048305985,0.1186004817964023,0.30416851620138563,0.8702971843634397,,-0.6228924654363263,-0.6845971011013801,0.12751993617000001,1.4493768893650323,0.22722649910992745,0.789629468470602,0.8676836793052913,,-0.06956664232292899,-0.1007731293485876,0.09656220391999999,-0.034016912529394594,,-2.3245811e-06,1.3709068e-06,-1.3113022e-06,1.0,2.0068139e-05,1.6368926e-05,-2.0064414e-05,1.0,1.8179417e-06,-1.6361475e-05,-1.847744e-06,1.0,41,0.123,0,0,0.0
0.7981917000006433,10:31:51.047387,10:31:32.945809,0,,0.027906824,0.049547903,0.07496062,-0.86744803,-0.37022665,-0.3323642,-0.4911613,0.7437625,0.45340672,0.07933682,0.55655116,-0.82701653,,0.14015585,-0.04481283,0.07177892,-0.74271894,-0.6173592,0.25929907,-0.4441577,0.7440078,0.49917558,-0.50109124,0.2555775,-0.8267937,,0.08906741,1.343998,0.47900325,0.99604946,0.0027716744,-0.088756554,-0.053811576,-0.7762469,-0.6281282,-0.07063797,0.6304229,-0.77303123,,-0.07256948,0.27888954,-0.08406057,0.8815087,0.2835898,0.37751725,-0.24637431,0.95832634,-0.14460397,-0.40279293,0.034459107,0.9146422,,0.055058837,0.4437343,-0.37809134,0.86669046,0.4567627,-0.20053798,-0.4978575,0.7667026,-0.4053456,-0.03139375,0.45114848,0.89189655,,0.8187100801951629,-0.08605441241748371,0.15336277361,0.637038048305985,0.1186004817964023,0.30416851620138563,0.8702971843634397,,-0.6228924654363263,-0.6845971011013801,0.12751993617000001,1.4493768893650323,0.22722649910992745,0.789629468470602,0.8676836793052913,,-0.06956664232292899,-0.1007731293485876,0.09656220391999999,-0.034016912529394594,,-2.3245811e-06,1.3709068e-06,-1.3113022e-06,1.0,2.0068139e-05,1.6368926e-05,-2.0064414e-05,1.0,1.8179417e-06,-1.6361475e-05,-1.847744e-06,1.0,42,0.126,0,0,0.0
0.8163839960006953,10:31:51.064264,10:31:32.945809,0,,0.027907282,0.049548917,0.07496065,-0.8674495,-0.3702263,-0.33236057,-0.4911595,0.7437599,0.4534131,0.079331055,0.5565551,-0.82701445,,0.14015585,-0.04481283,0.07177892,-0.74271894,-0.6173592,0.25929907,-0.4441577,0.7440078,0.49917558,-0.50109124,0.2555775,-0.8267937,,0.08906741,1.343998,0.47900325,0.99604946,0.0027716744,-0.088756554,-0.053811576,-0.7762469,-0.6281282,-0.07063797,0.6304229,-0.77303123,,-0.07256999,0.27889028,-0.08405992,0.8815106,0.28358927,0.37751317,-0.24637647,0.9583267,-0.1445981,-0.40278742,0.034454394,0.91464484,,0.055058837,0.4437343,-0.37809134,0.86669046,0.4567627,-0.20053798,-0.4978575,0.7667026,-0.4053456,-0.03139375,0.45114848,0.89189655,,0.8187100801951629,-0.08604668968460949,0.15336277361,0.637038048305985,0.1186004817964023,0.30416851620138563,0.8702971843634397,,-0.6228924654363263,-0.6845971011013801,0.12751993617000001,1.4493768893650323,0.22722649910992745,0.789629468470602,0.8676836793052913,,-0.06956664232292899,-0.1007731293485876,0.09656220391999999,-0.034016912529394594,,-2.3245811e-06,1.3709068e-06,-1.3113022e-06,1.0,2.0068139e-05,1.6368926e-05,-2.0064414e-05,1.0,1.8179417e-06,-1.6361475e-05,-1.847744e-06,1.0,43,0.129,0,0,0.0
0.8332459370003562,10:31:51.082688,10:31:32.945809,0,,0.027907282,0.049548917,0.07496065,-0.8674495,-0.3702263,-0.33236057,-0.4911595,0.7437599,0.4534131,0.079331055,0.5565551,-0.82701445,,0.140156,-0.044813633,0.07177928,-0.74271905,-0.6173576,0.2593023,-0.444159,0.7440114,0.49916923,-0.50108975,0.25557104,-0.82679653,,0.08906741,1.343998,0.47900325,0.99604946,0.0027716744,-0.088756554,-0.053811576,-0.7762469,-0.6281282,-0.07063797,0.6304229,-0.77303123,,-0.07256999,0.27889028,-0.08405992,0.8815106,0.28358927,0.37751317,-0.24637647,0.9583267,-0.1445981,-0.40278742,0.034454394,0.91464484,,0.055058777,0.44373402,-0.37809223,0.8666906,0.4567617,-0.20053977,-0.49785715,0.7666993,-0.40535226,-0.03139568,0.45115513,0.89189315,,0.8187100801951629,-0.08604668968460949,0.15336277361,0.637038048305985,0.1186004817964023,0.30416851620138563,0.8702971843634397,,-0.6228924654363263,-0.6846048238342544,0.12751993617000001,1.4493768893650323,0.22722649910992745,0.789629468470602,0.8676836793052913,,-0.06956664232292899,-0.1007731293485876,0.09656220391999999,-0.034016912529394594,,-2.3245811e-06,1.3709068e-06,-1.3113022e-06,1.0,2.0068139e-05,1.6368926e-05,-2.0064414e-05,1.0,1.8179417e-06,-1.6361475e-05,-1.847744e-06,1.0,44,0.132,0,0,0.0
0.8516520100001799,10:31:51.101068,10:31:32.945809,0,,0.027906824,0.049547903,0.07496062,-0.86744803,-0.37022665,-0.3323642,-0.4911613,0.7437625,0.45340672,0.07933682,0.55655116,-0.82701653,,0.140156,-0.044813633,0.07177928,-0.74271905,-0.6173576,0.2593023,-0.444159,0.7440114,0.49916923,-0.50108975,0.25557104,-0.82679653,,0.08906741,1.343998,0.47900325,0.99604946,0.0027716744,-0.088756554,-0.053811576,-0.7762469,-0.6281282,-0.07063797,0.6304229,-0.77303123,,-0.07256948,0.27888954,-0.08406057,0.8815087,0.2835898,0.37751725,-0.24637431,0.95832634,-0.14460397,-0.40279293,0.034459107,0.9146422,,0.055058777,0.44373402,-0.37809223,0.8666906,0.4567617,-0.20053977,-0.49785715,0.7666993,-0.40535226,-0.03139568,0.45115513,0.89189315,,0.8187100801951629,-0.08605441241748371,0.15336277361,0.637038048305985,0.1186004817964023,0.30416851620138563,0.8702971843634397,,-0.6228924654363263,-0.6846048238342544,0.12751993617000001,1.4493768893650323,0.22722649910992745,0.789629468470602,0.8676836793052913,,-0.06956664232292899,-0.1007731293485876,0.09656220391999999,-0.034016912529394594,,-2.3245811e-06,1.3709068e-06,-1.3113022e-06,1.0,2.0068139e-05,1.6368926e-05,-2.0064414e-05,1.0,1.8179417e-06,-1.6361475e-05,-1.847744e-06,1.0,45,0.135,0,0,0.0
0.8700689840006817,10:31:51.121972,10:31:32.945809,0,,0.027905855,0.04954832,0.07496101,-0.8674471,-0.37022334,-0.33237022,-0.49116218,0.74376047,0.45340925,0.07934123,0.5565562,-0.8270127,,0.14015585,-0.04481283,0.07177892,-0.74271894,-0.6173592,0.25929907,-0.4441577,0.7440078,0.49917558,-0.50109124,0.2555775,-0.8267937,,0.08906741,1.343998,0.47900325,0.99604946,0.0027716744,-0.088756554,-0.053811576,-0.7762469,-0.6281282,-0.07063797,0.6304229,-0.77303123,,-0.072568566,0.2788902,-0.084060624,0.88150746,0.2835862,0.37752283,-0.2463723,0.9583276,-0.14459908,-0.40279686,0.034453996,0.9146407,,0.055058837,0.4437343,-0.37809134,0.86669046,0.4567627,-0.20053798,-0.4978575,0.7667026,-0.4053456,-0.03139375,0.45114848,0.89189655,,0.8187178029280372,-0.08605441241748371,0.15336277361,0.637038048305985,0.1186004817964023,0.30416851620138563,0.8702971843634397,,-0.6228924654363263,-0.6845971011013801,0.12751993617000001,1.4493768893650323,0.22722649910992745,0.789629468470602,0.8676836793052913,,-0.06956664232292899,-0.1007731293485876,0.09656220391999999,-0.034016912529394594,,-2.3245811e-06,1.3709068e-06,-1.3113022e-06,1.0,2.0068139e-05,1.6368926e-05,-2.0064414e-05,1.0,1.8179417e-06,-1.6361475e-05,-1.847744e-06,1.0,46,0.138,0,0,0.0
0.8909546940003565,10:31:51.142173,10:31:33.048461,0,,0.027905855,0.04954832,0.07496101,-0.8674471,-0.37022334,-0.33237022,-0.49116218,0.74376047,0.45340925,0.07934123,0.5565562,-0.8270127,,0.14015585,-0.04481283,0.07177892,-0.74271894,-0.6173592,0.25929907,-0.4441577,0.7440078,0.49917558,-0.50109124,0.2555775,-0.8267937,,0.08906741,1.343998,0.47900325,0.99604946,0.0027716744,-0.088756554,-0.053811576,-0.7762469,-0.6281282,-0.07063797,0.6304229,-0.77303123,,-0.072568566,0.2788902,-0.084060624,0.88150746,0.2835862,0.37752283,-0.2463723,0.9583276,-0.14459908,-0.40279686,0.034453996,0.9146407,,0.055058837,0.4437343,-0.37809134,0.86669046,0.4567627,-0.20053798,-0.4978575,0.7667026,-0.4053456,-0.03139375,0.45114848,0.89189655,,0.8187178029280372,-0.08605441241748371,0.15336277361,0.637038048305985,0.1186004817964023,0.30416851620138563,0.8702971843634397,,-0.6228924654363263,-0.6845971011013801,0.12751993617000001,1.4493768893650323,0.22722649910992745,0.789629468470602,0.8676836793052913,,-0.06956664232292899,-0.1007731293485876,0.09656220391999999,-0.034016912529394594,,-2.3245811e-06,1.3709068e-06,-1.3113022e-06,1.0,2.0068139e-05,1.6368926e-05,-2.0064414e-05,1.0,1.8179417e-06,-1.6361475e-05,-1.847744e-06,1.0,47,0.141,0,0,0.0
0.911158787000204,10:31:51.160795,10:31:33.048461,0,,0.02790631,0.049549364,0.07496104,-0.86744857,-0.37022296,-0.33236665,-0.4911604,0.7437577,0.45341557,0.079335436,0.55656004,-0.82701063,,0.14015585,-0.04481283,0.07177892,-0.74271894,-0.6173592,0.25929907,-0.4441577,0.7440078,0.49917558,-0.50109124,0.2555775,-0.8267937,,0.08906741,1.343998,0.47900325,0.99604946,0.0027716744,-0.088756554,-0.053811576,-0.7762469,-0.6281282,-0.07063797,0.6304229,-0.77303123,,-0.07256907,0.27889097,-0.08405997,0.88150936,0.28358564,0.37751877,-0.24637447,0.95832795,-0.14459321,-0.40279132,0.034449283,0.9146433,,0.055058837,0.4437343,-0.37809134,0.86669046,0.4567627,-0.20053798,-0.4978575,0.7667026,-0.4053456,-0.03139375,0.45114848,0.89189655,,0.8187178029280372,-0.08604668968460949,0.15336277361,0.637038048305985,0.1186004817964023,0.30416851620138563,0.8702971843634397,,-0.6228924654363263,-0.6845971011013801,0.12751993617000001,1.4493768893650323,0.22722649910992745,0.789629468470602,0.8676836793052913,,-0.06956664232292899,-0.1007731293485876,0.09656220391999999,-0.034016912529394594,,-2.3245811e-06,1.3709068e-06,-1.3113022e-06,1.0,2.0068139e-05,1.6368926e-05,-2.0064414e-05,1.0,1.8179417e-06,-1.6361475e-05,-1.847744e-06,1.0,48,0.144,0,0,0.0
0.9297771139999895,10:31:51.174730,10:31:33.048461,0,,0.027907282,0.049548917,0.07496065,-0.8674495,-0.3702263,-0.33236057,-0.4911595,0.7437599,0.4534131,0.079331055,0.5565551,-0.82701445,,0.14015585,-0.04481283,0.07177892,-0.74271894,-0.6173592,0.25929907,-0.4441577,0.7440078,0.49917558,-0.50109124,0.2555775,-0.8267937,,0.08906741,1.343998,0.47900325,0.99604946,0.0027716744,-0.088756554,-0.053811576,-0.7762469,-0.6281282,-0.07063797,0.6304229,-0.77303123,,-0.07256999,0.27889028,-0.08405992,0.8815106,0.28358927,0.37751317,-0.24637647,0.9583267,-0.1445981,-0.40278742,0.034454394,0.91464484,,0.055058837,0.4437343,-0.37809134,0.86669046,0.4567627,-0.20053798,-0.4978575,0.7667026,-0.4053456,-0.03139375,0.45114848,0.89189655,,0.8187100801951629,-0.08604668968460949,0.15336277361,0.637038048305985,0.1186004817964023,0.30416851620138563,0.8702971843634397,,-0.6228924654363263,-0.6845971011013801,0.12751993617000001,1.4493768893650323,0.22722649910992745,0.789629468470602,0.8676836793052913,,-0.06956664232292899,-0.1007731293485876,0.09656220391999999,-0.034016912529394594,,-2.3245811e-06,1.3709068e-06,-1.3113022e-06,1.0,2.0068139e-05,1.6368926e-05,-2.0064414e-05,1.0,1.8179417e-06,-1.6361475e-05,-1.847744e-06,1.0,49,0.147,0,0,0.0
0.9437275370000862,10:31:51.194679,10:31:33.048461,0,,0.027906824,0.049547903,0.07496062,-0.86744803,-0.37022665,-0.3323642,-0.4911613,0.7437625,0.45340672,0.07933682,0.55655116,-0.82701653,,0.140156,-0.044813633,0.07177928,-0.74271905,-0.6173576,0.2593023,-0.444159,0.7440114,0.49916923,-0.50108975,0.25557104,-0.82679653,,0.08906741,1.343998,0.47900325,0.99604946,0.0027716744,-0.088756554,-0.053811576,-0.7762469,-0.6281282,-0.07063797,0.6304229,-0.77303123,,-0.07256948,0.27888954,-0.08406057,0.8815087,0.2835898,0.37751725,-0.24637431,0.95832634,-0.14460397,-0.40279293,0.034459107,0.9146422,,0.055058777,0.44373402,-0.37809223,0.8666906,0.4567617,-0.20053977,-0.49785715,0.7666993,-0.40535226,-0.03139568,0.45115513,0.89189315,,0.8187100801951629,-0.08605441241748371,0.15336277361,0.637038048305985,0.1186004817964023,0.30416851620138563,0.8702971843634397,,-0.6228924654363263,-0.6846048238342544,0.12751993617000001,1.4493768893650323,0.22722649910992745,0.789629468470602,0.8676836793052913,,-0.06956664232292899,-0.1007731293485876,0.09656220391999999,-0.034016912529394594,,-2.3245811e-06,1.3709068e-06,-1.3113022e-06,1.0,2.0068139e-05,1.6368926e-05,-2.0064414e-05,1.0,1.8179417e-06,-1.6361475e-05,-1.847744e-06,1.0,50,0.15,0,0,0.0
0.9636762650006858,10:31:51.214837,10:31:33.048461,0,,0.027906824,0.049547903,0.07496062,-0.86744803,-0.37022665,-0.3323642,-0.4911613,0.7437625,0.45340672,0.07933682,0.55655116,-0.82701653,,0.14015585,-0.04481283,0.07177892,-0.74271894,-0.6173592,0.25929907,-0.4441577,0.7440078,0.49917558,-0.50109124,0.2555775,-0.8267937,,0.08906741,1.343998,0.47900325,0.99604946,0.0027716744,-0.088756554,-0.053811576,-0.7762469,-0.6281282,-0.07063797,0.6304229,-0.77303123,,-0.07256948,0.27888954,-0.08406057,0.8815087,0.2835898,0.37751725,-0.24637431,0.95832634,-0.14460397,-0.40279293,0.034459107,0.9146422,,0.055058837,0.4437343,-0.37809134,0.86669046,0.4567627,-0.20053798,-0.4978575,0.7667026,-0.4053456,-0.03139375,0.45114848,0.89189655,,0.8187100801951629,-0.08605441241748371,0.15336277361,0.637038048305985,0.1186004817964023,0.30416851620138563,0.8702971843634397,,-0.6228924654363263,-0.6845971011013801,0.12751993617000001,1.4493768893650323,0.22722649910992745,0.789629468470602,0.8676836793052913,,-0.06956664232292899,-0.1007731293485876,0.09656220391999999,-0.034016912529394594,,-2.3245811e-06,1.3709068e-06,-1.3113022e-06,1.0,2.0068139e-05,1.6368926e-05,-2.0064414e-05,1.0,1.8179417e-06,-1.6361475e-05,-1.847744e-06,1.0,51,0.153,0,0,0.0
0.9838318690008236,10:31:51.232733,10:31:33.048461,0,,0.027907282,0.049548917,0.07496065,-0.8674495,-0.3702263,-0.33236057,-0.4911595,0.7437599,0.4534131,0.079331055,0.5565551,-0.82701445,,0.14015585,-0.04481283,0.07177892,-0.74271894,-0.6173592,0.25929907,-0.4441577,0.7440078,0.49917558,-0.50109124,0.2555775,-0.8267937,,0.08906741,1.343998,0.47900325,0.99604946,0.0027716744,-0.088756554,-0.053811576,-0.7762469,-0.6281282,-0.07063797,0.6304229,-0.77303123,,-0.07256999,0.27889028,-0.08405992,0.8815106,0.28358927,0.37751317,-0.24637647,0.9583267,-0.1445981,-0.40278742,0.034454394,0.91464484,,0.055058837,0.4437343,-0.37809134,0.86669046,0.4567627,-0.20053798,-0.4978575,0.7667026,-0.4053456,-0.03139375,0.45114848,0.89189655,,0.8187100801951629,-0.08604668968460949,0.15336277361,0.637038048305985,0.1186004817964023,0.30416851620138563,0.8702971843634397,,-0.6228924654363263,-0.6845971011013801,0.12751993617000001,1.4493768893650323,0.22722649910992745,0.789629468470602,0.8676836793052913,,-0.06956664232292899,-0.1007731293485876,0.09656220391999999,-0.034016912529394594,,-2.3245811e-06,1.3709068e-06,-1.3113022e-06,1.0,2.0068139e-05,1.6368926e-05,-2.0064414e-05,1.0,1.8179417e-06,-1.6361475e-05,-1.847744e-06,1.0,52,0.157,0,0,0.0
1.0017346470003758,10:31:51.251481,10:31:33.150155,0,,0.027907282,0.049548917,0.07496065,-0.8674495,-0.3702263,-0.33236057,-0.4911595,0.7437599,0.4534131,0.079331055,0.5565551,-0.82701445,,0.140156,-0.044813633,0.07177928,-0.74271905,-0.6173576,0.2593023,-0.444159,0.7440114,0.49916923,-0.50108975,0.25557104,-0.82679653,,0.08906741,1.343998,0.47900325,0.99604946,0.0027716744,-0.088756554,-0.053811576,-0.7762469,-0.6281282,-0.07063797,0.6304229,-0.77303123,,-0.07256999,0.27889028,-0.08405992,0.8815106,0.28358927,0.37751317,-0.24637647,0.9583267,-0.1445981,-0.40278742,0.034454394,0.91464484,,0.055058777,0.44373402,-0.37809223,0.8666906,0.4567617,-0.20053977,-0.49785715,0.7666993,-0.40535226,-0.03139568,0.45115513,0.89189315,,0.8187100801951629,-0.08604668968460949,0.15336277361,0.637038048305985,0.1186004817964023,0.30416851620138563,0.8702971843634397,,-0.6228924654363263,-0.6846048238342544,0.12751993617000001,1.4493768893650323,0.22722649910992745,0.789629468470602,0.8676836793052913,,-0.06956664232292899,-0.1007731293485876,0.09656220391999999,-0.034016912529394594,,-2.3245811e-06,1.3709068e-06,-1.3113022e-06,1.0,2.0068139e-05,1.6368926e-05,-2.0064414e-05,1.0,1.8179417e-06,-1.6361475e-05,-1.847744e-06,1.0,53,0.16,0,0,0.0
1.0204212540002118,10:31:51.267981,10:31:33.150155,0,,0.027905855,0.04954832,0.07496101,-0.8674471,-0.37022334,-0.33237022,-0.49116218,0.74376047,0.45340925,0.07934123,0.5565562,-0.8270127,,0.14015585,-0.04481283,0.07177892,-0.74271894,-0.6173592,0.25929907,-0.4441577,0.7440078,0.49917558,-0.50109124,0.2555775,-0.8267937,,0.08906741,1.343998,0.47900325,0.99604946,0.0027716744,-0.088756554,-0.053811576,-0.7762469,-0.6281282,-0.07063797,0.6304229,-0.77303123,,-0.072568566,0.2788902,-0.084060624,0.88150746,0.2835862,0.37752283,-0.2463723,0.9583276,-0.14459908,-0.40279686,0.034453996,0.9146407,,0.055058837,0.4437343,-0.37809134,0.86669046,0.4567627,-0.20053798,-0.4978575,0.7667026,-0.4053456,-0.03139375,0.45114848,0.89189655,,0.8187178029280372,-0.08605441241748371,0.15336277361,0.637038048305985,0.1186004817964023,0.30416851620138563,0.8702971843634397,,-0.6228924654363263,-0.6845971011013801,0.12751993617000001,1.4493768893650323,0.22722649910992745,0.789629468470602,0.8676836793052913,,-0.06956664232292899,-0.1007731293485876,0.09656220391999999,-0.034016912529394594,,-2.3245811e-06,1.3709068e-06,-1.3113022e-06,1.0,2.0068139e-05,1.6368926e-05,-2.0064414e-05,1.0,1.8179417e-06,-1.6361475e-05,-1.847744e-06,1.0,54,0.163,0,0,0.0
1.0369713640002374,10:31:51.292688,10:31:33.150155,0,,0.027906824,0.049547903,0.07496062,-0.86744803,-0.37022665,-0.3323642,-0.4911613,0.7437625,0.45340672,0.07933682,0.55655116,-0.82701653,,0.14015585,-0.04481283,0.07177892,-0.74271894,-0.6173592,0.25929907,-0.4441577,0.7440078,0.49917558,-0.50109124,0.2555775,-0.8267937,,0.08906741,1.343998,0.47900325,0.99604946,0.0027716744,-0.088756554,-0.053811576,-0.7762469,-0.6281282,-0.07063797,0.6304229,-0.77303123,,-0.07256948,0.27888954,-0.08406057,0.8815087,0.2835898,0.37751725,-0.24637431,0.95832634,-0.14460397,-0.40279293,0.034459107,0.9146422,,0.055058837,0.4437343,-0.37809134,0.86669046,0.4567627,-0.20053798,-0.4978575,0.7667026,-0.4053456,-0.03139375,0.45114848,0.89189655,,0.8187100801951629,-0.08605441241748371,0.15336277361,0.637038048305985,0.1186004817964023,0.30416851620138563,0.8702971843634397,,-0.6228924654363263,-0.6845971011013801,0.12751993617000001,1.4493768893650323,0.22722649910992745,0.789629468470602,0.8676836793052913,,-0.06956664232292899,-0.1007731293485876,0.09656220391999999,-0.034016912529394594,,-2.3245811e-06,1.3709068e-06,-1.3113022e-06,1.0,2.0068139e-05,1.6368926e-05,-2.0064414e-05,1.0,1.8179417e-06,-1.6361475e-05,-1.847744e-06,1.0,55,0.166,0,0,0.0
1.0577607620007257,10:31:51.306649,10:31:33.150155,0,,0.027905855,0.04954832,0.07496101,-0.8674471,-0.37022334,-0.33237022,-0.49116218,0.74376047,0.45340925,0.07934123,0.5565562,-0.8270127,,0.140156,-0.044813633,0.07177928,-0.74271905,-0.6173576,0.2593023,-0.444159,0.7440114,0.49916923,-0.50108975,0.25557104,-0.82679653,,0.08906741,1.343998,0.47900325,0.99604946,0.0027716744,-0.088756554,-0.053811576,-0.7762469,-0.6281282,-0.07063797,0.6304229,-0.77303123,,-0.072568566,0.2788902,-0.084060624,0.88150746,0.2835862,0.37752283,-0.2463723,0.9583276,-0.14459908,-0.40279686,0.034453996,0.9146407,,0.055058777,0.44373402,-0.37809223,0.8666906,0.4567617,-0.20053977,-0.49785715,0.7666993,-0.40535226,-0.03139568,0.45115513,0.89189315,,0.8187178029280372,-0.08605441241748371,0.15336277361,0.637038048305985,0.1186004817964023,0.30416851620138563,0.8702971843634397,,-0.6228924654363263,-0.6846048238342544,0.12751993617000001,1.4493768893650323,0.22722649910992745,0.789629468470602,0.8676836793052913,,-0.06956664232292899,-0.1007731293485876,0.09656220391999999,-0.034016912529394594,,-2.3245811e-06,1.3709068e-06,-1.3113022e-06,1.0,2.0068139e-05,1.6368926e-05,-2.0064414e-05,1.0,1.8179417e-06,-1.6361475e-05,-1.847744e-06,1.0,56,0.169,0,0,0.0
1.0755486680000104,10:31:51.329013,10:31:33.150155,0,,0.02790631,0.049549364,0.07496104,-0.86744857,-0.37022296,-0.33236665,-0.4911604,0.7437577,0.45341557,0.079335436,0.55656004,-0.82701063,,0.14015585,-0.04481283,0.07177892,-0.74271894,-0.6173592,0.25929907,-0.4441577,0.7440078,0.49917558,-0.50109124,0.2555775,-0.8267937,,0.08906741,1.343998,0.47900325,0.99604946,0.0027716744,-0.088756554,-0.053811576,-0.7762469,-0.6281282,-0.07063797,0.6304229,-0.77303123,,-0.07256907,0.27889097,-0.08405997,0.88150936,0.28358564,0.37751877,-0.24637447,0.95832795,-0.14459321,-0.40279132,0.034449283,0.9146433,,0.055058837,0.4437343,-0.37809134,0.86669046,0.4567627,-0.20053798,-0.4978575,0.7667026,-0.4053456,-0.03139375,0.45114848,0.89189655,,0.8187178029280372,-0.08604668968460949,0.15336277361,0.637038048305985,0.1186004817964023,0.30416851620138563,0.8702971843634397,,-0.6228924654363263,-0.6845971011013801,0.12751993617000001,1.4493768893650323,0.22722649910992745,0.789629468470602,0.8676836793052913,,-0.06956664232292899,-0.1007731293485876,0.09656220391999999,-0.034016912529394594,,-2.3245811e-06,1.3709068e-06,-1.3113022e-06,1.0,2.0068139e-05,1.6368926e-05,-2.0064414e-05,1.0,1.8179417e-06,-1.6361475e-05,-1.847744e-06,1.0,57,0.172,0,0,0.0
1.0980011380006545,10:31:51.347090,10:31:33.246521,0,,0.02790631,0.049549364,0.07496104,-0.86744857,-0.37022296,-0.33236665,-0.4911604,0.7437577,0.45341557,0.079335436,0.55656004,-0.82701063,,0.140156,-0.044813633,0.07177928,-0.74271905,-0.6173576,0.2593023,-0.444159,0.7440114,0.49916923,-0.50108975,0.25557104,-0.82679653,,0.08906741,1.343998,0.47900325,0.99604946,0.0027716744,-0.088756554,-0.053811576,-0.7762469,-0.6281282,-0.07063797,0.6304229,-0.77303123,,-0.07256907,0.27889097,-0.08405997,0.88150936,0.28358564,0.37751877,-0.24637447,0.95832795,-0.14459321,-0.40279132,0.034449283,0.9146433,,0.055058777,0.44373402,-0.37809223,0.8666906,0.4567617,-0.20053977,-0.49785715,0.7666993,-0.40535226,-0.03139568,0.45115513,0.89189315,,0.8187178029280372,-0.08604668968460949,0.15336277361,0.637038048305985,0.1186004817964023,0.30416851620138563,0.8702971843634397,,-0.6228924654363263,-0.6846048238342544,0.12751993617000001,1.4493768893650323,0.22722649910992745,0.789629468470602,0.8676836793052913,,-0.06956664232292899,-0.1007731293485876,0.09656220391999999,-0.034016912529394594,,-2.3245811e-06,1.3709068e-06,-1.3113022e-06,1.0,2.0068139e-05,1.6368926e-05,-2.0064414e-05,1.0,1.8179417e-06,-1.6361475e-05,-1.847744e-06,1.0,58,0.175,0,0,0.0
1.116084217000207,10:31:51.367389,10:31:33.246521,0,,0.027906824,0.049547903,0.07496062,-0.86744803,-0.37022665,-0.3323642,-0.4911613,0.7437625,0.45340672,0.07933682,0.55655116,-0.82701653,,0.140156,-0.044813633,0.07177928,-0.74271905,-0.6173576,0.2593023,-0.444159,0.7440114,0.49916923,-0.50108975,0.25557104,-0.82679653,,0.08906741,1.343998,0.47900325,0.99604946,0.0027716744,-0.088756554,-0.053811576,-0.7762469,-0.6281282,-0.07063797,0.6304229,-0.77303123,,-0.07256948,0.27888954,-0.08406057,0.8815087,0.2835898,0.37751725,-0.24637431,0.95832634,-0.14460397,-0.40279293,0.034459107,0.9146422,,0.055058777,0.44373402,-0.37809223,0.8666906,0.4567617,-0.20053977,-0.49785715,0.7666993,-0.40535226,-0.03139568,0.45115513,0.89189315,,0.8187100801951629,-0.08605441241748371,0.15336277361,0.637038048305985,0.1186004817964023,0.30416851620138563,0.8702971843634397,,-0.6228924654363263,-0.6846048238342544,0.12751993617000001,1.4493768893650323,0.22722649910992745,0.789629468470602,0.8676836793052913,,-0.06956664232292899,-0.1007731293485876,0.09656220391999999,-0.034016912529394594,,-2.3245811e-06,1.3709068e-06,-1.3113022e-06,1.0,2.0068139e-05,1.6368926e-05,-2.0064414e-05,1.0,1.8179417e-06,-1.6361475e-05,-1.847744e-06,1.0,59,0.178,0,0,0.0
1.1363908360008281,10:31:51.384369,10:31:33.246521,0,,0.027906824,0.049547903,0.07496062,-0.86744803,-0.37022665,-0.3323642,-0.4911613,0.7437625,0.45340672,0.07933682,0.55655116,-0.82701653,,0.14015585,-0.04481283,0.07177892,-0.74271894,-0.6173592,0.25929907,-0.4441577,0.7440078,0.49917558,-0.50109124,0.2555775,-0.8267937,,0.08906741,1.343998,0.47900325,0.99604946,0.0027716744,-0.088756554,-0.053811576,-0.7762469,-0.6281282,-0.07063797,0.6304229,-0.77303123,,-0.07256948,0.27888954,-0.08406057,0.8815087,0.2835898,0.37751725,-0.24637431,0.95832634,-0.14460397,-0.40279293,0.034459107,0.9146422,,0.055058837,0.4437343,-0.37809134,0.86669046,0.4567627,-0.20053798,-0.4978575,0.7667026,-0.4053456,-0.03139375,0.45114848,0.89189655,,0.8187100801951629,-0.08605441241748371,0.15336277361,0.637038048305985,0.1186004817964023,0.30416851620138563,0.8702971843634397,,-0.6228924654363263,-0.6845971011013801,0.12751993617000001,1.4493768893650323,0.22722649910992745,0.789629468470602,0.8676836793052913,,-0.06956664232292899,-0.1007731293485876,0.09656220391999999,-0.034016912529394594,,-2.3245811e-06,1.3709068e-06,-1.3113022e-06,1.0,2.0068139e-05,1.6368926e-05,-2.0064414e-05,1.0,1.8179417e-06,-1.6361475e-05,-1.847744e-06,1.0,60,0.181,0,0,0.0
1.1533108890007497,10:31:51.405926,10:31:33.246521,0,,0.027906824,0.049547903,0.07496062,-0.86744803,-0.37022665,-0.3323642,-0.4911613,0.7437625,0.45340672,0.07933682,0.55655116,-0.82701653,,0.14015585,-0.04481283,0.07177892,-0.74271894,-0.6173592,0.25929907,-0.4441577,0.7440078,0.49917558,-0.50109124,0.2555775,-0.8267937,,0.08906741,1.343998,0.47900325,0.99604946,0.0027716744,-0.088756554,-0.053811576,-0.7762469,-0.6281282,-0.07063797,0.6304229,-0.77303123,,-0.07256948,0.27888954,-0.08406057,0.8815087,0.2835898,0.37751725,-0.24637431,0.95832634,-0.14460397,-0.40279293,0.034459107,0.9146422,,0.055058837,0.4437343,-0.37809134,0.86669046,0.4567627,-0.20053798,-0.4978575,0.7667026,-0.4053456,-0.03139375,0.45114848,0.89189655,,0.8187100801951629,-0.08605441241748371,0.15336277361,0.637038048305985,0.1186004817964023,0.30416851620138563,0.8702971843634397,,-0.6228924654363263,-0.6845971011013801,0.12751993617000001,1.4493768893650323,0.22722649910992745,0.789629468470602,0.8676836793052913,,-0.06956664232292899,-0.1007731293485876,0.09656220391999999,-0.034016912529394594,,-2.3245811e-06,1.3709068e-06,-1.3113022e-06,1.0,2.0068139e-05,1.6368926e-05,-2.0064414e-05,1.0,1.8179417e-06,-1.6361475e-05,-1.847744e-06,1.0,61,0.184,0,0,0.0
1.1749105260005308,10:31:51.425010,10:31:33.246521,0,,0.027907282,0.049548917,0.07496065,-0.8674495,-0.3702263,-0.33236057,-0.4911595,0.7437599,0.4534131,0.079331055,0.5565551,-0.82701445,,0.14015585,-0.04481283,0.07177892,-0.74271894,-0.6173592,0.25929907,-0.4441577,0.7440078,0.49917558,-0.50109124,0.2555775,-0.8267937,,0.08906741,1.343998,0.47900325,0.99604946,0.0027716744,-0.088756554,-0.053811576,-0.7762469,-0.6281282,-0.07063797,0.6304229,-0.77303123,,-0.07256999,0.27889028,-0.08405992,0.8815106,0.28358927,0.37751317,-0.24637647,0.9583267,-0.1445981,-0.40278742,0.034454394,0.91464484,,0.055058837,0.4437343,-0.37809134,0.86669046,0.4567627,-0.20053798,-0.4978575,0.7667026,-0.4053456,-0.03139375,0.45114848,0.89189655,,0.8187100801951629,-0.08604668968460949,0.15336277361,0.637038048305985,0.1186004817964023,0.30416851620138563,0.8702971843634397,,-0.6228924654363263,-0.6845971011013801,0.12751993617000001,1.4493768893650323,0.22722649910992745,0.789629468470602,0.8676836793052913,,-0.06956664232292899,-0.1007731293485876,0.09656220391999999,-0.034016912529394594,,-2.3245811e-06,1.3709068e-06,-1.3113022e-06,1.0,2.0068139e-05,1.6368926e-05,-2.0064414e-05,1.0,1.8179417e-06,-1.6361475e-05,-1.847744e-06,1.0,62,0.187,0,0,0.0
1.1939991830004146,10:31:51.445330,10:31:33.361977,0,,0.027906824,0.049547903,0.07496062,-0.86744803,-0.37022665,-0.3323642,-0.4911613,0.7437625,0.45340672,0.07933682,0.55655116,-0.82701653,,0.14015585,-0.04481283,0.07177892,-0.74271894,-0.6173592,0.25929907,-0.4441577,0.7440078,0.49917558,-0.50109124,0.2555775,-0.8267937,,0.08906741,1.343998,0.47900325,0.99604946,0.0027716744,-0.088756554,-0.053811576,-0.7762469,-0.6281282,-0.07063797,0.6304229,-0.77303123,,-0.07256948,0.27888954,-0.08406057,0.8815087,0.2835898,0.37751725,-0.24637431,0.95832634,-0.14460397,-0.40279293,0.034459107,0.9146422,,0.055058837,0.4437343,-0.37809134,0.86669046,0.4567627,-0.20053798,-0.4978575,0.7667026,-0.4053456,-0.03139375,0.45114848,0.89189655,,0.8187100801951629,-0.08605441241748371,0.15336277361,0.637038048305985,0.1186004817964023,0.30416851620138563,0.8702971843634397,,-0.6228924654363263,-0.6845971011013801,0.12751993617000001,1.4493768893650323,0.22722649910992745,0.789629468470602,0.8676836793052913,,-0.06956664232292899,-0.1007731293485876,0.09656220391999999,-0.034016912529394594,,-2.3245811e-06,1.3709068e-06,-1.3113022e-06,1.0,2.0068139e-05,1.6368926e-05,-2.0064414e-05,1.0,1.8179417e-06,-1.6361475e-05,-1.847744e-06,1.0,63,0.19,0,0,0.0
1.2142967680001675,10:31:51.464028,10:31:33.361977,0,,0.027906824,0.049547903,0.07496062,-0.86744803,-0.37022665,-0.3323642,-0.4911613,0.7437625,0.45340672,0.07933682,0.55655116,-0.82701653,,0.140156,-0.044813633,0.07177928,-0.74271905,-0.6173576,0.2593023,-0.444159,0.7440114,0.49916923,-0.50108975,0.25557104,-0.82679653,,0.08906741,1.343998,0.47900325,0.99604946,0.0027716744,-0.088756554,-0.053811576,-0.7762469,-0.6281282,-0.07063797,0.6304229,-0.77303123,,-0.07256948,0.27888954,-0.08406057,0.8815087,0.2835898,0.37751725,-0.24637431,0.95832634,-0.14460397,-0.40279293,0.034459107,0.9146422,,0.055058777,0.44373402,-0.37809223,0.8666906,0.4567617,-0.20053977,-0.49785715,0.7666993,-0.40535226,-0.03139568,0.45115513,0.89189315,,0.8187100801951629,-0.08605441241748371,0.15336277361,0.637038048305985,0.1186004817964023,0.30416851620138563,0.8702971843634397,,-0.6228924654363263,-0.6846048238342544,0.12751993617000001,1.4493768893650323,0.22722649910992745,0.789629468470602,0.8676836793052913,,-0.06956664232292899,-0.1007731293485876,0.09656220391999999,-0.034016912529394594,,-2.3245811e-06,1.3709068e-06,-1.3113022e-06,1.0,2.0068139e-05,1.6368926e-05,-2.0064414e-05,1.0,1.8179417e-06,-1.6361475e-05,-1.847744e-06,1.0,64,0.193,0,0,0.0
1.2330201370004943,10:31:51.479057,10:31:33.361977,0,,0.02790631,0.049549364,0.07496104,-0.86744857,-0.37022296,-0.33236665,-0.4911604,0.7437577,0.45341557,0.079335436,0.55656004,-0.82701063,,0.14015585,-0.04481283,0.07177892,-0.74271894,-0.6173592,0.25929907,-0.4441577,0.7440078,0.49917558,-0.50109124,0.2555775,-0.8267937,,0.08906741,1.343998,0.47900325,0.99604946,0.0027716744,-0.088756554,-0.053811576,-0.7762469,-0.6281282,-0.07063797,0.6304229,-0.77303123,,-0.07256907,0.27889097,-0.08405997,0.88150936,0.28358564,0.37751877,-0.24637447,0.95832795,-0.14459321,-0.40279132,0.034449283,0.9146433,,0.055058837,0.4437343,-0.37809134,0.86669046,0.4567627,-0.20053798,-0.4978575,0.7667026,-0.4053456,-0.03139375,0.45114848,0.89189655,,0.8187178029280372,-0.08604668968460949,0.15336277361,0.637038048305985,0.1186004817964023,0.30416851620138563,0.8702971843634397,,-0.6228924654363263,-0.6845971011013801,0.12751993617000001,1.4493768893650323,0.22722649910992745,0.789629468470602,0.8676836793052913,,-0.06956664232292899,-0.1007731293485876,0.09656220391999999,-0.034016912529394594,,-2.3245811e-06,1.3709068e-06,-1.3113022e-06,1.0,2.0068139e-05,1.6368926e-05,-2.0064414e-05,1.0,1.8179417e-06,-1.6361475e-05,-1.847744e-06,1.0,65,0.196,0,0,0.0
1.2480412910008454,10:31:51.498045,10:31:33.361977,0,,0.02790631,0.049549364,0.07496104,-0.86744857,-0.37022296,-0.33236665,-0.4911604,0.7437577,0.45341557,0.079335436,0.55656004,-0.82701063,,0.14015585,-0.04481283,0.07177892,-0.74271894,-0.6173592,0.25929907,-0.4441577,0.7440078,0.49917558,-0.50109124,0.2555775,-0.8267937,,0.08906741,1.343998,0.47900325,0.99604946,0.0027716744,-0.088756554,-0.053811576,-0.7762469,-0.6281282,-0.07063797,0.6304229,-0.77303123,,-0.07256907,0.27889097,-0.08405997,0.88150936,0.28358564,0.37751877,-0.24637447,0.95832795,-0.14459321,-0.40279132,0.034449283,0.9146433,,0.055058837,0.4437343,-0.37809134,0.86669046,0.4567627,-0.20053798,-0.4978575,0.7667026,-0.4053456,-0.03139375,0.45114848,0.89189655,,0.8187178029280372,-0.08604668968460949,0.15336277361,0.637038048305985,0.1186004817964023,0.30416851620138563,0.8702971843634397,,-0.6228924654363263,-0.6845971011013801,0.12751993617000001,1.4493768893650323,0.22722649910992745,0.789629468470602,0.8676836793052913,,-0.06956664232292899,-0.1007731293485876,0.09656220391999999,-0.034016912529394594,,-2.3245811e-06,1.3709068e-06,-1.3113022e-06,1.0,2.0068139e-05,1.6368926e-05,-2.0064414e-05,1.0,1.8179417e-06,-1.6361475e-05,-1.847744e-06,1.0,66,0.2,0,0,0.0
1.2669946400001209,10:31:51.523545,10:31:33.361977,0,,0.027906824,0.049547903,0.07496062,-0.86744803,-0.37022665,-0.3323642,-0.4911613,0.7437625,0.45340672,0.07933682,0.55655116,-0.82701653,,0.140156,-0.044813633,0.07177928,-0.74271905,-0.6173576,0.2593023,-0.444159,0.7440114,0.49916923,-0.50108975,0.25557104,-0.82679653,,0.08906741,1.343998,0.47900325,0.99604946,0.0027716744,-0.088756554,-0.053811576,-0.7762469,-0.6281282,-0.07063797,0.6304229,-0.77303123,,-0.07256948,0.27888954,-0.08406057,0.8815087,0.2835898,0.37751725,-0.24637431,0.95832634,-0.14460397,-0.40279293,0.034459107,0.9146422,,0.055058777,0.44373402,-0.37809223,0.8666906,0.4567617,-0.20053977,-0.49785715,0.7666993,-0.40535226,-0.03139568,0.45115513,0.89189315,,0.8187100801951629,-0.08605441241748371,0.15336277361,0.637038048305985,0.1186004817964023,0.30416851620138563,0.8702971843634397,,-0.6228924654363263,-0.6846048238342544,0.12751993617000001,1.4493768893650323,0.22722649910992745,0.789629468470602,0.8676836793052913,,-0.06956664232292899,-0.1007731293485876,0.09656220391999999,-0.034016912529394594,,-2.3245811e-06,1.3709068e-06,-1.3113022e-06,1.0,2.0068139e-05,1.6368926e-05,-2.0064414e-05,1.0,1.8179417e-06,-1.6361475e-05,-1.847744e-06,1.0,67,0.202,0,0,0.0
1.2925342750004347,10:31:51.538450,10:31:33.361977,0,,0.027905855,0.04954832,0.07496101,-0.8674471,-0.37022334,-0.33237022,-0.49116218,0.74376047,0.45340925,0.07934123,0.5565562,-0.8270127,,0.14015585,-0.04481283,0.07177892,-0.74271894,-0.6173592,0.25929907,-0.4441577,0.7440078,0.49917558,-0.50109124,0.2555775,-0.8267937,,0.08906741,1.343998,0.47900325,0.99604946,0.0027716744,-0.088756554,-0.053811576,-0.7762469,-0.6281282,-0.07063797,0.6304229,-0.77303123,,-0.072568566,0.2788902,-0.084060624,0.88150746,0.2835862,0.37752283,-0.2463723,0.9583276,-0.14459908,-0.40279686,0.034453996,0.9146407,,0.055058837,0.4437343,-0.37809134,0.86669046,0.4567627,-0.20053798,-0.4978575,0.7667026,-0.4053456,-0.03139375,0.45114848,0.89189655,,0.8187178029280372,-0.08605441241748371,0.15336277361,0.637038048305985,0.1186004817964023,0.30416851620138563,0.8702971843634397,,-0.6228924654363263,-0.6845971011013801,0.12751993617000001,1.4493768893650323,0.22722649910992745,0.789629468470602,0.8676836793052913,,-0.06956664232292899,-0.1007731293485876,0.09656220391999999,-0.034016912529394594,,-2.3245811e-06,1.3709068e-06,-1.3113022e-06,1.0,2.0068139e-05,1.6368926e-05,-2.0064414e-05,1.0,1.8179417e-06,-1.6361475e-05,-1.847744e-06,1.0,68,0.205,0,0,0.0
1.3074223890007488,10:31:51.563100,10:31:33.471160,0,,0.027906824,0.049547903,0.07496062,-0.86744803,-0.37022665,-0.3323642,-0.4911613,0.7437625,0.45340672,0.07933682,0.55655116,-0.82701653,,0.140156,-0.044813633,0.07177928,-0.74271905,-0.6173576,0.2593023,-0.444159,0.7440114,0.49916923,-0.50108975,0.25557104,-0.82679653,,0.08906741,1.343998,0.47900325,0.99604946,0.0027716744,-0.088756554,-0.053811576,-0.7762469,-0.6281282,-0.07063797,0.6304229,-0.77303123,,-0.07256948,0.27888954,-0.08406057,0.8815087,0.2835898,0.37751725,-0.24637431,0.95832634,-0.14460397,-0.40279293,0.034459107,0.9146422,,0.055058777,0.44373402,-0.37809223,0.8666906,0.4567617,-0.20053977,-0.49785715,0.7666993,-0.40535226,-0.03139568,0.45115513,0.89189315,,0.8187100801951629,-0.08605441241748371,0.15336277361,0.637038048305985,0.1186004817964023,0.30416851620138563,0.8702971843634397,,-0.6228924654363263,-0.6846048238342544,0.12751993617000001,1.4493768893650323,0.22722649910992745,0.789629468470602,0.8676836793052913,,-0.06956664232292899,-0.1007731293485876,0.09656220391999999,-0.034016912529394594,,-2.3245811e-06,1.3709068e-06,-1.3113022e-06,1.0,2.0068139e-05,1.6368926e-05,-2.0064414e-05,1.0,1.8179417e-06,-1.6361475e-05,-1.847744e-06,1.0,69,0.208,0,0,0.0
1.3320542790006584,10:31:51.579497,10:31:33.471160,0,,0.027906824,0.049547903,0.07496062,-0.86744803,-0.37022665,-0.3323642,-0.4911613,0.7437625,0.45340672,0.07933682,0.55655116,-0.82701653,,0.14015585,-0.04481283,0.07177892,-0.74271894,-0.6173592,0.25929907,-0.4441577,0.7440078,0.49917558,-0.50109124,0.2555775,-0.8267937,,0.08906741,1.343998,0.47900325,0.99604946,0.0027716744,-0.088756554,-0.053811576,-0.7762469,-0.6281282,-0.07063797,0.6304229,-0.77303123,,-0.07256948,0.27888954,-0.08406057,0.8815087,0.2835898,0.37751725,-0.24637431,0.95832634,-0.14460397,-0.40279293,0.034459107,0.9146422,,0.055058837,0.4437343,-0.37809134,0.86669046,0.4567627,-0.20053798,-0.4978575,0.7667026,-0.4053456,-0.03139375,0.45114848,0.89189655,,0.8187100801951629,-0.08605441241748371,0.15336277361,0.637038048305985,0.1186004817964023,0.30416851620138563,0.8702971843634397,,-0.6228924654363263,-0.6845971011013801,0.12751993617000001,1.4493768893650323,0.22722649910992745,0.789629468470602,0.8676836793052913,,-0.06956664232292899,-0.1007731293485876,0.09656220391999999,-0.034016912529394594,,-2.3245811e-06,1.3709068e-06,-1.3113022e-06,1.0,2.0068139e-05,1.6368926e-05,-2.0064414e-05,1.0,1.8179417e-06,-1.6361475e-05,-1.847744e-06,1.0,70,0.211,0,0,0.0
1.348480407000352,10:31:51.598101,10:31:33.471160,0,,0.027906824,0.049547903,0.07496062,-0.86744803,-0.37022665,-0.3323642,-0.4911613,0.7437625,0.45340672,0.07933682,0.55655116,-0.82701653,,0.14015585,-0.04481283,0.07177892,-0.74271894,-0.6173592,0.25929907,-0.4441577,0.7440078,0.49917558,-0.50109124,0.2555775,-0.8267937,,0.08906741,1.343998,0.47900325,0.99604946,0.0027716744,-0.088756554,-0.053811576,-0.7762469,-0.6281282,-0.07063797,0.6304229,-0.77303123,,-0.07256948,0.27888954,-0.08406057,0.8815087,0.2835898,0.37751725,-0.24637431,0.95832634,-0.14460397,-0.40279293,0.034459107,0.9146422,,0.055058837,0.4437343,-0.37809134,0.86669046,0.4567627,-0.20053798,-0.4978575,0.7667026,-0.4053456,-0.03139375,0.45114848,0.89189655,,0.8187100801951629,-0.08605441241748371,0.15336277361,0.637038048305985,0.1186004817964023,0.30416851620138563,0.8702971843634397,,-0.6228924654363263,-0.6845971011013801,0.12751993617000001,1.4493768893650323,0.22722649910992745,0.789629468470602,0.8676836793052913,,-0.06956664232292899,-0.1007731293485876,0.09656220391999999,-0.034016912529394594,,-2.3245811e-06,1.3709068e-06,-1.3113022e-06,1.0,2.0068139e-05,1.6368926e-05,-2.0064414e-05,1.0,1.8179417e-06,-1.6361475e-05,-1.847744e-06,1.0,71,0.214,0,0,0.0
1.366628208000293,10:31:51.616666,10:31:33.471160,0,,0.027906824,0.049547903,0.07496062,-0.86744803,-0.37022665,-0.3323642,-0.4911613,0.7437625,0.45340672,0.07933682,0.55655116,-0.82701653,,0.14015585,-0.04481283,0.07177892,-0.74271894,-0.6173592,0.25929907,-0.4441577,0.7440078,0.49917558,-0.50109124,0.2555775,-0.8267937,,0.08906741,1.343998,0.47900325,0.99604946,0.0027716744,-0.088756554,-0.053811576,-0.7762469,-0.6281282,-0.07063797,0.6304229,-0.77303123,,-0.07256948,0.27888954,-0.08406057,0.8815087,0.2835898,0.37751725,-0.24637431,0.95832634,-0.14460397,-0.40279293,0.034459107,0.9146422,,0.055058837,0.4437343,-0.37809134,0.86669046,0.4567627,-0.20053798,-0.4978575,0.7667026,-0.4053456,-0.03139375,0.45114848,0.89189655,,0.8187100801951629,-0.08605441241748371,0.15336277361,0.637038048305985,0.1186004817964023,0.30416851620138563,0.8702971843634397,,-0.6228924654363263,-0.6845971011013801,0.12751993617000001,1.4493768893650323,0.22722649910992745,0.789629468470602,0.8676836793052913,,-0.06956664232292899,-0.1007731293485876,0.09656220391999999,-0.034016912529394594,,-2.3245811e-06,1.3709068e-06,-1.3113022e-06,1.0,2.0068139e-05,1.6368926e-05,-2.0064414e-05,1.0,1.8179417e-06,-1.6361475e-05,-1.847744e-06,1.0,72,0.217,0,0,0.0
1.385653674000423,10:31:51.631356,10:31:33.471160,0,,0.027906824,0.049547903,0.07496062,-0.86744803,-0.37022665,-0.3323642,-0.4911613,0.7437625,0.45340672,0.07933682,0.55655116,-0.82701653,,0.14015585,-0.04481283,0.07177892,-0.74271894,-0.6173592,0.25929907,-0.4441577,0.7440078,0.49917558,-0.50109124,0.2555775,-0.8267937,,0.08906741,1.343998,0.47900325,0.99604946,0.0027716744,-0.088756554,-0.053811576,-0.7762469,-0.6281282,-0.07063797,0.6304229,-0.77303123,,-0.07256948,0.27888954,-0.08406057,0.8815087,0.2835898,0.37751725,-0.24637431,0.95832634,-0.14460397,-0.40279293,0.034459107,0.9146422,,0.055058837,0.4437343,-0.37809134,0.86669046,0.4567627,-0.20053798,-0.4978575,0.7667026,-0.4053456,-0.03139375,0.45114848,0.89189655,,0.8187100801951629,-0.08605441241748371,0.15336277361,0.637038048305985,0.1186004817964023,0.30416851620138563,0.8702971843634397,,-0.6228924654363263,-0.6845971011013801,0.12751993617000001,1.4493768893650323,0.22722649910992745,0.789629468470602,0.8676836793052913,,-0.06956664232292899,-0.1007731293485876,0.09656220391999999,-0.034016912529394594,,-2.3245811e-06,1.3709068e-06,-1.3113022e-06,1.0,2.0068139e-05,1.6368926e-05,-2.0064414e-05,1.0,1.8179417e-06,-1.6361475e-05,-1.847744e-06,1.0,73,0.22,0,0,0.0
1.400356243000715,10:31:51.650738,10:31:33.564958,0,,0.027906824,0.049547903,0.07496062,-0.86744803,-0.37022665,-0.3323642,-0.4911613,0.7437625,0.45340672,0.07933682,0.55655116,-0.82701653,,0.14015585,-0.04481283,0.07177892,-0.74271894,-0.6173592,0.25929907,-0.4441577,0.7440078,0.49917558,-0.50109124,0.2555775,-0.8267937,,0.08906741,1.343998,0.47900325,0.99604946,0.0027716744,-0.088756554,-0.053811576,-0.7762469,-0.6281282,-0.07063797,0.6304229,-0.77303123,,-0.07256948,0.27888954,-0.08406057,0.8815087,0.2835898,0.37751725,-0.24637431,0.95832634,-0.14460397,-0.40279293,0.034459107,0.9146422,,0.055058837,0.4437343,-0.37809134,0.86669046,0.4567627,-0.20053798,-0.4978575,0.7667026,-0.4053456,-0.03139375,0.45114848,0.89189655,,0.8187100801951629,-0.08605441241748371,0.15336277361,0.637038048305985,0.1186004817964023,0.30416851620138563,0.8702971843634397,,-0.6228924654363263,-0.6845971011013801,0.12751993617000001,1.4493768893650323,0.22722649910992745,0.789629468470602,0.8676836793052913,,-0.06956664232292899,-0.1007731293485876,0.09656220391999999,-0.034016912529394594,,-2.3245811e-06,1.3709068e-06,-1.3113022e-06,1.0,2.0068139e-05,1.6368926e-05,-2.0064414e-05,1.0,1.8179417e-06,-1.6361475e-05,-1.847744e-06,1.0,74,0.223,0,0,0.0
1.4197166000003563,10:31:51.666236,10:31:33.564958,0,,0.027907282,0.049548917,0.07496065,-0.8674495,-0.3702263,-0.33236057,-0.4911595,0.7437599,0.4534131,0.079331055,0.5565551,-0.82701445,,0.140156,-0.044813633,0.07177928,-0.74271905,-0.6173576,0.2593023,-0.444159,0.7440114,0.49916923,-0.50108975,0.25557104,-0.82679653,,0.08906741,1.343998,0.47900325,0.99604946,0.0027716744,-0.088756554,-0.053811576,-0.7762469,-0.6281282,-0.07063797,0.6304229,-0.77303123,,-0.07256999,0.27889028,-0.08405992,0.8815106,0.28358927,0.37751317,-0.24637647,0.9583267,-0.1445981,-0.40278742,0.034454394,0.91464484,,0.055058777,0.44373402,-0.37809223,0.8666906,0.4567617,-0.20053977,-0.49785715,0.7666993,-0.40535226,-0.03139568,0.45115513,0.89189315,,0.8187100801951629,-0.08604668968460949,0.15336277361,0.637038048305985,0.1186004817964023,0.30416851620138563,0.8702971843634397,,-0.6228924654363263,-0.6846048238342544,0.12751993617000001,1.4493768893650323,0.22722649910992745,0.789629468470602,0.8676836793052913,,-0.06956664232292899,-0.1007731293485876,0.09656220391999999,-0.034016912529394594,,-2.3245811e-06,1.3709068e-06,-1.3113022e-06,1.0,2.0068139e-05,1.6368926e-05,-2.0064414e-05,1.0,1.8179417e-06,-1.6361475e-05,-1.847744e-06,1.0,75,0.226,0,0,0.0
1.4352347020003435,10:31:51.683929,10:31:33.564958,0,,0.027906824,0.049547903,0.07496062,-0.86744803,-0.37022665,-0.3323642,-0.4911613,0.7437625,0.45340672,0.07933682,0.55655116,-0.82701653,,0.140156,-0.044813633,0.07177928,-0.74271905,-0.6173576,0.2593023,-0.444159,0.7440114,0.49916923,-0.50108975,0.25557104,-0.82679653,,0.08906741,1.343998,0.47900325,0.99604946,0.0027716744,-0.088756554,-0.053811576,-0.7762469,-0.6281282,-0.07063797,0.6304229,-0.77303123,,-0.07256948,0.27888954,-0.08406057,0.8815087,0.2835898,0.37751725,-0.24637431,0.95832634,-0.14460397,-0.40279293,0.034459107,0.9146422,,0.055058777,0.44373402,-0.37809223,0.8666906,0.4567617,-0.20053977,-0.49785715,0.7666993,-0.40535226,-0.03139568,0.45115513,0.89189315,,0.8187100801951629,-0.08605441241748371,0.15336277361,0.637038048305985,0.1186004817964023,0.30416851620138563,0.8702971843634397,,-0.6228924654363263,-0.6846048238342544,0.12751993617000001,1.4493768893650323,0.22722649910992745,0.789629468470602,0.8676836793052913,,-0.06956664232292899,-0.1007731293485876,0.09656220391999999,-0.034016912529394594,,-2.3245811e-06,1.3709068e-06,-1.3113022e-06,1.0,2.0068139e-05,1.6368926e-05,-2.0064414e-05,1.0,1.8179417e-06,-1.6361475e-05,-1.847744e-06,1.0,76,0.229,0,0,0.0
1.45292821700059,10:31:51.700468,10:31:33.564958,0,,0.027906824,0.049547903,0.07496062,-0.86744803,-0.37022665,-0.3323642,-0.4911613,0.7437625,0.45340672,0.07933682,0.55655116,-0.82701653,,0.14015585,-0.04481283,0.07177892,-0.74271894,-0.6173592,0.25929907,-0.4441577,0.7440078,0.49917558,-0.50109124,0.2555775,-0.8267937,,0.08906741,1.343998,0.47900325,0.99604946,0.0027716744,-0.088756554,-0.053811576,-0.7762469,-0.6281282,-0.07063797,0.6304229,-0.77303123,,-0.07256948,0.27888954,-0.08406057,0.8815087,0.2835898,0.37751725,-0.24637431,0.95832634,-0.14460397,-0.40279293,0.034459107,0.9146422,,0.055058837,0.4437343,-0.37809134,0.86669046,0.4567627,-0.20053798,-0.4978575,0.7667026,-0.4053456,-0.03139375,0.45114848,0.89189655,,0.8187100801951629,-0.08605441241748371,0.15336277361,0.637038048305985,0.1186004817964023,0.30416851620138563,0.8702971843634397,,-0.6228924654363263,-0.6845971011013801,0.12751993617000001,1.4493768893650323,0.22722649910992745,0.789629468470602,0.8676836793052913,,-0.06956664232292899,-0.1007731293485876,0.09656220391999999,-0.034016912529394594,,-2.3245811e-06,1.3709068e-06,-1.3113022e-06,1.0,2.0068139e-05,1.6368926e-05,-2.0064414e-05,1.0,1.8179417e-06,-1.6361475e-05,-1.847744e-06,1.0,77,0.232,0,0,0.0
