AlexandreBanks6/ExpertPlaybackApp/resources/Motions/PC1/Data_PC1_7.csv
Task Time,PC1 Time,PC2 Time,Gaze Calib,s_T_psm1,Tx,Ty,Tz,R00,R01,R02,R10,R11,R12,R20,R21,R22,s_T_psm3,Tx,Ty,Tz,R00,R01,R02,R10,R11,R12,R20,R21,R22,cart_T_ecm,Tx,Ty,Tz,R00,R01,R02,R10,R11,R12,R20,R21,R22,ecm_T_psm1,Tx,Ty,Tz,R00,R01,R02,R10,R11,R12,R20,R21,R22,ecm_T_psm3,Tx,Ty,Tz,R00,R01,R02,R10,R11,R12,R20,R21,R22,psm1_joints,q1,q2,q3,q4,q5,q6,jaw,psm3_joints,q1,q2,q3,q4,q5,q6,jaw,ecm_joints,q1,q2,q3,q4
""
lci_T_si,,,,,-0.07152707,0.049801495,0.4795686,0.9947168,-0.005437465,0.102513075,0.050665822,-0.84249645,-0.53631395,0.089283094,0.5386744,-0.8377699
rci_T_si,,,,,-0.06390745,0.032424062,0.6328175,0.99964297,0.021414347,0.01598132,0.026542194,-0.8647473,-0.5015054,0.003080393,0.50175047,-0.8650069
ecm_T_lc,,,,,-0.010503502,0.0353613,-0.35674977,-0.9933329,0.103684954,0.050389625,-0.112544216,-0.96688193,-0.22907005,0.024969695,-0.2332139,0.9721048
ecm_T_rc,,,,,-0.045470465,0.07002666,-0.40169618,-0.98767287,0.15394595,0.028337218,-0.15650986,-0.96815085,-0.19541891,-0.0026492458,-0.19744499,0.9803104
cart_T_ecmi,,,,,0.1710136,1.3200647,0.5392175,0.9903206,-0.016193818,-0.1378509,-0.07697097,-0.8905407,-0.44834444,-0.115501426,0.45461524,-0.88316727
ecmac_T_ecmrep_psm1,,,,,-0.040727746,0.23137592,-0.21310239,0.98627466,0.1643199,0.016164957,-0.16233762,0.9471621,0.2766415,0.03014687,-0.27546868,0.96083724
ecmac_T_ecmrep_psm3,,,,,-0.03207139,0.39064074,-0.46404764,0.9917923,0.12441902,0.029460106,-0.1278581,0.9641174,0.23265849,0.00054414105,-0.23451562,0.9721122
""
0,13:06:32.364507,NaN,0,,0.058397323,-0.011476055,0.009170324,-0.6022867,0.44903737,-0.6600121,0.52213836,-0.4038121,-0.75120395,-0.60383946,-0.79705775,0.008750945,,NaN,NaN,NaN,NaN,NaN,NaN,NaN,NaN,NaN,NaN,NaN,NaN,,0.1710483,1.3200667,0.53922373,0.99031967,-0.016226731,-0.13785367,-0.07699372,-0.89057,-0.4482823,-0.115494184,0.45455664,-0.8831984,,-0.030993782,0.13183531,-0.110738635,0.65284276,-0.44128078,0.6156846,0.17961566,-0.69943184,-0.691761,0.73589027,0.56219774,-0.3773581,,NaN,NaN,NaN,NaN,NaN,NaN,NaN,NaN,NaN,NaN,NaN,NaN,,1.2749305247399758,-0.5602147654291202,0.19775422466000003,2.3487370569701573,0.6298942639186805,-0.7978785517296594,-0.1261016190556636,,NaN,NaN,NaN,NaN,NaN,NaN,NaN,,-0.18467328815352002,-0.3220459719164287,0.10864944584,0.03172731264760842
0.027403198997490108,13:06:32.395932,NaN,0,,0.058397323,-0.011476055,0.009170324,-0.6022867,0.44903737,-0.6600121,0.52213836,-0.4038121,-0.75120395,-0.60383946,-0.79705775,0.008750945,,NaN,NaN,NaN,NaN,NaN,NaN,NaN,NaN,NaN,NaN,NaN,NaN,,0.1710483,1.3200667,0.53922373,0.99031967,-0.016226731,-0.13785367,-0.07699372,-0.89057,-0.4482823,-0.115494184,0.45455664,-0.8831984,,-0.030993782,0.13183531,-0.110738635,0.65284276,-0.44128078,0.6156846,0.17961566,-0.69943184,-0.691761,0.73589027,0.56219774,-0.3773581,,NaN,NaN,NaN,NaN,NaN,NaN,NaN,NaN,NaN,NaN,NaN,NaN,,1.2749305247399758,-0.5602147654291202,0.19775422466000003,2.3487370569701573,0.6298942639186805,-0.7978785517296594,-0.1261016190556636,,NaN,NaN,NaN,NaN,NaN,NaN,NaN,,-0.18467328815352002,-0.3220459719164287,0.10864944584,0.03172731264760842
0.05881729899556376,13:06:32.426986,NaN,0,,0.058396574,-0.011475407,0.009169564,-0.6022677,0.449052,-0.6600196,0.5222496,-0.40367734,-0.751199,-0.6037623,-0.79711777,0.0086045265,,NaN,NaN,NaN,NaN,NaN,NaN,NaN,NaN,NaN,NaN,NaN,NaN,,0.1710483,1.3200667,0.53922373,0.99031967,-0.016226731,-0.13785367,-0.07699372,-0.89057,-0.4482823,-0.115494184,0.45455664,-0.8831984,,-0.03099297,0.13183554,-0.11073772,0.6528272,-0.44128552,0.61569774,0.17975007,-0.6993372,-0.69182175,0.7358713,0.56231177,-0.37722525,,NaN,NaN,NaN,NaN,NaN,NaN,NaN,NaN,NaN,NaN,NaN,NaN,,1.2749305247399758,-0.5602147654291202,0.19775422466000003,2.3487370569701573,0.6297576274189151,-0.7977671338259629,-0.1261016190556636,,NaN,NaN,NaN,NaN,NaN,NaN,NaN,,-0.18467328815352002,-0.3220459719164287,0.10864944584,0.03172731264760842
0.08984626698656939,13:06:32.451406,NaN,0,,0.058395825,-0.011474758,0.009168819,-0.60224855,0.44906664,-0.6600271,0.5223607,-0.40354252,-0.7511942,-0.60368514,-0.7971778,0.008458108,,NaN,NaN,NaN,NaN,NaN,NaN,NaN,NaN,NaN,NaN,NaN,NaN,,0.1710483,1.3200667,0.53922373,0.99031967,-0.016226731,-0.13785367,-0.07699372,-0.89057,-0.4482823,-0.115494184,0.45455664,-0.8831984,,-0.03099216,0.13183576,-0.1107368,0.6528116,-0.4412903,0.6157109,0.17988448,-0.69924253,-0.69188255,0.7358523,0.5624258,-0.37709236,,NaN,NaN,NaN,NaN,NaN,NaN,NaN,NaN,NaN,NaN,NaN,NaN,,1.2749305247399758,-0.5602147654291202,0.19775422466000003,2.3487370569701573,0.6296209909191496,-0.7976557159222665,-0.1261016190556636,,NaN,NaN,NaN,NaN,NaN,NaN,NaN,,-0.18467328815352002,-0.3220459719164287,0.10864944584,0.03172731264760842
0.11429081100504845,13:06:32.478008,NaN,0,,0.058395825,-0.011474758,0.009168819,-0.60224855,0.44906664,-0.6600271,0.5223607,-0.40354252,-0.7511942,-0.60368514,-0.7971778,0.008458108,,NaN,NaN,NaN,NaN,NaN,NaN,NaN,NaN,NaN,NaN,NaN,NaN,,0.1710483,1.3200667,0.53922373,0.99031967,-0.016226731,-0.13785367,-0.07699372,-0.89057,-0.4482823,-0.115494184,0.45455664,-0.8831984,,-0.03099216,0.13183576,-0.1107368,0.6528116,-0.4412903,0.6157109,0.17988448,-0.69924253,-0.69188255,0.7358523,0.5624258,-0.37709236,,NaN,NaN,NaN,NaN,NaN,NaN,NaN,NaN,NaN,NaN,NaN,NaN,,1.2749305247399758,-0.5602147654291202,0.19775422466000003,2.3487370569701573,0.6296209909191496,-0.7976557159222665,-0.1261016190556636,,NaN,NaN,NaN,NaN,NaN,NaN,NaN,,-0.18467328815352002,-0.3220459719164287,0.10864944584,0.03172731264760842
0.14090413998928852,13:06:32.503139,NaN,0,,0.058395825,-0.011474758,0.009168819,-0.60224855,0.44906664,-0.6600271,0.5223607,-0.40354252,-0.7511942,-0.60368514,-0.7971778,0.008458108,,NaN,NaN,NaN,NaN,NaN,NaN,NaN,NaN,NaN,NaN,NaN,NaN,,0.1710483,1.3200667,0.53922373,0.99031967,-0.016226731,-0.13785367,-0.07699372,-0.89057,-0.4482823,-0.115494184,0.45455664,-0.8831984,,-0.03099216,0.13183576,-0.1107368,0.6528116,-0.4412903,0.6157109,0.17988448,-0.69924253,-0.69188255,0.7358523,0.5624258,-0.37709236,,NaN,NaN,NaN,NaN,NaN,NaN,NaN,NaN,NaN,NaN,NaN,NaN,,1.2749305247399758,-0.5602147654291202,0.19775422466000003,2.3487370569701573,0.6296209909191496,-0.7976557159222665,-0.1261016190556636,,NaN,NaN,NaN,NaN,NaN,NaN,NaN,,-0.18467328815352002,-0.3220459719164287,0.10864944584,0.03172731264760842
0.16600180900422856,13:06:32.528353,13:06:31.357732,0,,0.058282174,-0.011407927,0.008556828,-0.5980029,0.4507596,-0.66272783,0.5301119,-0.39773214,-0.7488595,-0.60114384,-0.7991401,-0.0011079609,,NaN,NaN,NaN,NaN,NaN,NaN,NaN,NaN,NaN,NaN,NaN,NaN,,0.1710483,1.3200667,0.53922373,0.99031967,-0.016226731,-0.13785367,-0.07699372,-0.89057,-0.4482823,-0.115494184,0.45455664,-0.8831984,,-0.03099216,0.13183576,-0.1107368,0.6528116,-0.4412903,0.6157109,0.17988448,-0.69924253,-0.69188255,0.7358523,0.5624258,-0.37709236,,NaN,NaN,NaN,NaN,NaN,NaN,NaN,NaN,NaN,NaN,NaN,NaN,,1.2749305247399758,-0.5602147654291202,0.19775422466000003,2.3487370569701573,0.6296209909191496,-0.7976557159222665,-0.1261016190556636,,NaN,NaN,NaN,NaN,NaN,NaN,NaN,,-0.18467328815352002,-0.3220459719164287,0.10864944584,0.03172731264760842
0.19120929899509065,13:06:32.551724,13:06:31.357732,0,,0.058282174,-0.011407927,0.008556828,-0.5980029,0.4507596,-0.66272783,0.5301119,-0.39773214,-0.7488595,-0.60114384,-0.7991401,-0.0011079609,,NaN,NaN,NaN,NaN,NaN,NaN,NaN,NaN,NaN,NaN,NaN,NaN,,0.1710483,1.3200667,0.53922373,0.99031967,-0.016226731,-0.13785367,-0.07699372,-0.89057,-0.4482823,-0.115494184,0.45455664,-0.8831984,,-0.03099216,0.13183576,-0.1107368,0.6528116,-0.4412903,0.6157109,0.17988448,-0.69924253,-0.69188255,0.7358523,0.5624258,-0.37709236,,NaN,NaN,NaN,NaN,NaN,NaN,NaN,NaN,NaN,NaN,NaN,NaN,,1.2749305247399758,-0.5602147654291202,0.19775422466000003,2.3487370569701573,0.6296209909191496,-0.7976557159222665,-0.1261016190556636,,NaN,NaN,NaN,NaN,NaN,NaN,NaN,,-0.18467328815352002,-0.3220459719164287,0.10864944584,0.03172731264760842
0.21461738500511274,13:06:32.580589,13:06:31.357732,0,,0.058282174,-0.011407927,0.008556828,-0.5980029,0.4507596,-0.66272783,0.5301119,-0.39773214,-0.7488595,-0.60114384,-0.7991401,-0.0011079609,,NaN,NaN,NaN,NaN,NaN,NaN,NaN,NaN,NaN,NaN,NaN,NaN,,0.1710483,1.3200667,0.53922373,0.99031967,-0.016226731,-0.13785367,-0.07699372,-0.89057,-0.4482823,-0.115494184,0.45455664,-0.8831984,,-0.03099216,0.13183576,-0.1107368,0.6528116,-0.4412903,0.6157109,0.17988448,-0.69924253,-0.69188255,0.7358523,0.5624258,-0.37709236,,NaN,NaN,NaN,NaN,NaN,NaN,NaN,NaN,NaN,NaN,NaN,NaN,,1.2749305247399758,-0.5602147654291202,0.19775422466000003,2.3487370569701573,0.6296209909191496,-0.7976557159222665,-0.1261016190556636,,NaN,NaN,NaN,NaN,NaN,NaN,NaN,,-0.18467328815352002,-0.3220459719164287,0.10864944584,0.03172731264760842
0.24342207200243138,13:06:32.604296,13:06:31.357732,0,,0.058282174,-0.011407927,0.008556828,-0.5980029,0.4507596,-0.66272783,0.5301119,-0.39773214,-0.7488595,-0.60114384,-0.7991401,-0.0011079609,,NaN,NaN,NaN,NaN,NaN,NaN,NaN,NaN,NaN,NaN,NaN,NaN,,0.1710483,1.3200667,0.53922373,0.99031967,-0.016226731,-0.13785367,-0.07699372,-0.89057,-0.4482823,-0.115494184,0.45455664,-0.8831984,,-0.03099216,0.13183576,-0.1107368,0.6528116,-0.4412903,0.6157109,0.17988448,-0.69924253,-0.69188255,0.7358523,0.5624258,-0.37709236,,NaN,NaN,NaN,NaN,NaN,NaN,NaN,NaN,NaN,NaN,NaN,NaN,,1.2749305247399758,-0.5602147654291202,0.19775422466000003,2.3487370569701573,0.6296209909191496,-0.7976557159222665,-0.1261016190556636,,NaN,NaN,NaN,NaN,NaN,NaN,NaN,,-0.18467328815352002,-0.3220459719164287,0.10864944584,0.03172731264760842
0.26716492598643526,13:06:32.633107,13:06:31.357732,0,,0.058282174,-0.011407927,0.008556828,-0.5980029,0.4507596,-0.66272783,0.5301119,-0.39773214,-0.7488595,-0.60114384,-0.7991401,-0.0011079609,,NaN,NaN,NaN,NaN,NaN,NaN,NaN,NaN,NaN,NaN,NaN,NaN,,0.1710483,1.3200667,0.53922373,0.99031967,-0.016226731,-0.13785367,-0.07699372,-0.89057,-0.4482823,-0.115494184,0.45455664,-0.8831984,,-0.03099216,0.13183576,-0.1107368,0.6528116,-0.4412903,0.6157109,0.17988448,-0.69924253,-0.69188255,0.7358523,0.5624258,-0.37709236,,NaN,NaN,NaN,NaN,NaN,NaN,NaN,NaN,NaN,NaN,NaN,NaN,,1.2749305247399758,-0.5602147654291202,0.19775422466000003,2.3487370569701573,0.6296209909191496,-0.7976557159222665,-0.1261016190556636,,NaN,NaN,NaN,NaN,NaN,NaN,NaN,,-0.18467328815352002,-0.3220459719164287,0.10864944584,0.03172731264760842
0.29597417800687253,13:06:32.659982,13:06:31.487323,0,,0.058185574,-0.012411229,0.010852799,-0.5894983,0.4592266,-0.66453195,0.5320687,-0.39824268,-0.74719846,-0.6077784,-0.7940489,-0.0095767975,,NaN,NaN,NaN,NaN,NaN,NaN,NaN,NaN,NaN,NaN,NaN,NaN,,0.1710483,1.3200667,0.53922373,0.99031967,-0.016226731,-0.13785367,-0.07699372,-0.89057,-0.4482823,-0.115494184,0.45455664,-0.8831984,,-0.03099216,0.13183576,-0.1107368,0.6528116,-0.4412903,0.6157109,0.17988448,-0.69924253,-0.69188255,0.7358523,0.5624258,-0.37709236,,NaN,NaN,NaN,NaN,NaN,NaN,NaN,NaN,NaN,NaN,NaN,NaN,,1.2749305247399758,-0.5602147654291202,0.19775422466000003,2.3487370569701573,0.6296209909191496,-0.7976557159222665,-0.1261016190556636,,NaN,NaN,NaN,NaN,NaN,NaN,NaN,,-0.18467328815352002,-0.3220459719164287,0.10864944584,0.03172731264760842
0.3228792730078567,13:06:32.683504,13:06:31.487323,0,,0.058185574,-0.012411229,0.010852799,-0.5894983,0.4592266,-0.66453195,0.5320687,-0.39824268,-0.74719846,-0.6077784,-0.7940489,-0.0095767975,,NaN,NaN,NaN,NaN,NaN,NaN,NaN,NaN,NaN,NaN,NaN,NaN,,0.1710483,1.3200667,0.53922373,0.99031967,-0.016226731,-0.13785367,-0.07699372,-0.89057,-0.4482823,-0.115494184,0.45455664,-0.8831984,,-0.03099216,0.13183576,-0.1107368,0.6528116,-0.4412903,0.6157109,0.17988448,-0.69924253,-0.69188255,0.7358523,0.5624258,-0.37709236,,NaN,NaN,NaN,NaN,NaN,NaN,NaN,NaN,NaN,NaN,NaN,NaN,,1.2749305247399758,-0.5602147654291202,0.19775422466000003,2.3487370569701573,0.6296209909191496,-0.7976557159222665,-0.1261016190556636,,NaN,NaN,NaN,NaN,NaN,NaN,NaN,,-0.18467328815352002,-0.3220459719164287,0.10864944584,0.03172731264760842
0.34636497500468977,13:06:32.710451,13:06:31.487323,0,,0.058165416,-0.012415849,0.010870039,-0.58952796,0.45917168,-0.66454345,0.53208566,-0.3982387,-0.7471886,-0.60773474,-0.79408264,-0.0095458925,,NaN,NaN,NaN,NaN,NaN,NaN,NaN,NaN,NaN,NaN,NaN,NaN,,0.17102127,1.3200752,0.53921986,0.99032134,-0.016207825,-0.13784415,-0.0769727,-0.89057034,-0.44828522,-0.115494184,0.45455664,-0.8831984,,-0.030973257,0.13183878,-0.11075574,0.65284,-0.44123358,0.6157214,0.1799183,-0.699256,-0.69186014,0.7358188,0.5624535,-0.3771163,,NaN,NaN,NaN,NaN,NaN,NaN,NaN,NaN,NaN,NaN,NaN,NaN,,1.2749305247399758,-0.5602147654291202,0.19775422466000003,2.3487370569701573,0.6296209909191496,-0.7976557159222665,-0.1261016190556636,,NaN,NaN,NaN,NaN,NaN,NaN,NaN,,-0.18467328815352002,-0.3220459719164287,0.10864944584,0.03172731264760842
0.37333676099660806,13:06:32.735144,13:06:31.487323,0,,0.058165416,-0.012415849,0.010870039,-0.58952796,0.45917168,-0.66454345,0.53208566,-0.3982387,-0.7471886,-0.60773474,-0.79408264,-0.0095458925,,NaN,NaN,NaN,NaN,NaN,NaN,NaN,NaN,NaN,NaN,NaN,NaN,,0.17102127,1.3200752,0.53921986,0.99032134,-0.016207825,-0.13784415,-0.0769727,-0.89057034,-0.44828522,-0.115494184,0.45455664,-0.8831984,,-0.030973257,0.13183878,-0.11075574,0.65284,-0.44123358,0.6157214,0.1799183,-0.699256,-0.69186014,0.7358188,0.5624535,-0.3771163,,NaN,NaN,NaN,NaN,NaN,NaN,NaN,NaN,NaN,NaN,NaN,NaN,,1.2749305247399758,-0.5602147654291202,0.19775422466000003,2.3487370569701573,0.6296209909191496,-0.7976557159222665,-0.1261016190556636,,NaN,NaN,NaN,NaN,NaN,NaN,NaN,,-0.18467328815352002,-0.3220459719164287,0.10864944584,0.03172731264760842
0.39803943899460137,13:06:32.763756,13:06:31.487323,0,,0.058165416,-0.012415849,0.010870039,-0.58952796,0.45917168,-0.66454345,0.53208566,-0.3982387,-0.7471886,-0.60773474,-0.79408264,-0.0095458925,,NaN,NaN,NaN,NaN,NaN,NaN,NaN,NaN,NaN,NaN,NaN,NaN,,0.17102127,1.3200752,0.53921986,0.99032134,-0.016207825,-0.13784415,-0.0769727,-0.89057034,-0.44828522,-0.115494184,0.45455664,-0.8831984,,-0.030973257,0.13183878,-0.11075574,0.65284,-0.44123358,0.6157214,0.1799183,-0.699256,-0.69186014,0.7358188,0.5624535,-0.3771163,,NaN,NaN,NaN,NaN,NaN,NaN,NaN,NaN,NaN,NaN,NaN,NaN,,1.2749305247399758,-0.5602147654291202,0.19775422466000003,2.3487370569701573,0.6296209909191496,-0.7976557159222665,-0.1261016190556636,,NaN,NaN,NaN,NaN,NaN,NaN,NaN,,-0.18467328815352002,-0.3220459719164287,0.10864944584,0.03172731264760842
0.4265959830081556,13:06:32.792097,13:06:31.615839,0,,0.058212012,-0.012196958,0.010910794,-0.5905451,0.45783153,-0.6645649,0.5284616,-0.4029774,-0.74721986,-0.60990554,-0.792464,-0.003969997,,NaN,NaN,NaN,NaN,NaN,NaN,NaN,NaN,NaN,NaN,NaN,NaN,,0.17102127,1.3200752,0.53921986,0.99032134,-0.016207825,-0.13784415,-0.0769727,-0.89057034,-0.44828522,-0.115494184,0.45455664,-0.8831984,,-0.030973257,0.13183878,-0.11075574,0.65284,-0.44123358,0.6157214,0.1799183,-0.699256,-0.69186014,0.7358188,0.5624535,-0.3771163,,NaN,NaN,NaN,NaN,NaN,NaN,NaN,NaN,NaN,NaN,NaN,NaN,,1.2749305247399758,-0.5602147654291202,0.19775422466000003,2.3487370569701573,0.6296209909191496,-0.7976557159222665,-0.1261016190556636,,NaN,NaN,NaN,NaN,NaN,NaN,NaN,,-0.18467328815352002,-0.3220459719164287,0.10864944584,0.03172731264760842
0.4549676470051054,13:06:32.812880,13:06:31.615839,0,,0.058212012,-0.012196958,0.010910794,-0.5905451,0.45783153,-0.6645649,0.5284616,-0.4029774,-0.74721986,-0.60990554,-0.792464,-0.003969997,,NaN,NaN,NaN,NaN,NaN,NaN,NaN,NaN,NaN,NaN,NaN,NaN,,0.17102127,1.3200752,0.53921986,0.99032134,-0.016207825,-0.13784415,-0.0769727,-0.89057034,-0.44828522,-0.115494184,0.45455664,-0.8831984,,-0.030973257,0.13183878,-0.11075574,0.65284,-0.44123358,0.6157214,0.1799183,-0.699256,-0.69186014,0.7358188,0.5624535,-0.3771163,,NaN,NaN,NaN,NaN,NaN,NaN,NaN,NaN,NaN,NaN,NaN,NaN,,1.2749305247399758,-0.5602147654291202,0.19775422466000003,2.3487370569701573,0.6296209909191496,-0.7976557159222665,-0.1261016190556636,,NaN,NaN,NaN,NaN,NaN,NaN,NaN,,-0.18467328815352002,-0.3220459719164287,0.10864944584,0.03172731264760842
0.4757471219927538,13:06:32.838009,13:06:31.615839,0,,0.058212012,-0.012196958,0.010910794,-0.5905451,0.45783153,-0.6645649,0.5284616,-0.4029774,-0.74721986,-0.60990554,-0.792464,-0.003969997,,NaN,NaN,NaN,NaN,NaN,NaN,NaN,NaN,NaN,NaN,NaN,NaN,,0.17102127,1.3200752,0.53921986,0.99032134,-0.016207825,-0.13784415,-0.0769727,-0.89057034,-0.44828522,-0.115494184,0.45455664,-0.8831984,,-0.030973257,0.13183878,-0.11075574,0.65284,-0.44123358,0.6157214,0.1799183,-0.699256,-0.69186014,0.7358188,0.5624535,-0.3771163,,NaN,NaN,NaN,NaN,NaN,NaN,NaN,NaN,NaN,NaN,NaN,NaN,,1.2749305247399758,-0.5602147654291202,0.19775422466000003,2.3487370569701573,0.6296209909191496,-0.7976557159222665,-0.1261016190556636,,NaN,NaN,NaN,NaN,NaN,NaN,NaN,,-0.18467328815352002,-0.3220459719164287,0.10864944584,0.03172731264760842
0.5008988679910544,13:06:32.866976,13:06:31.615839,0,,0.058212012,-0.012196958,0.010910794,-0.5905451,0.45783153,-0.6645649,0.5284616,-0.4029774,-0.74721986,-0.60990554,-0.792464,-0.003969997,,NaN,NaN,NaN,NaN,NaN,NaN,NaN,NaN,NaN,NaN,NaN,NaN,,0.17102127,1.3200752,0.53921986,0.99032134,-0.016207825,-0.13784415,-0.0769727,-0.89057034,-0.44828522,-0.115494184,0.45455664,-0.8831984,,-0.030973257,0.13183878,-0.11075574,0.65284,-0.44123358,0.6157214,0.1799183,-0.699256,-0.69186014,0.7358188,0.5624535,-0.3771163,,NaN,NaN,NaN,NaN,NaN,NaN,NaN,NaN,NaN,NaN,NaN,NaN,,1.2749305247399758,-0.5602147654291202,0.19775422466000003,2.3487370569701573,0.6296209909191496,-0.7976557159222665,-0.1261016190556636,,NaN,NaN,NaN,NaN,NaN,NaN,NaN,,-0.18467328815352002,-0.3220459719164287,0.10864944584,0.03172731264760842
0.5297969600069337,13:06:32.895061,13:06:31.615839,0,,0.058212012,-0.012196958,0.010910794,-0.5905451,0.45783153,-0.6645649,0.5284616,-0.4029774,-0.74721986,-0.60990554,-0.792464,-0.003969997,,NaN,NaN,NaN,NaN,NaN,NaN,NaN,NaN,NaN,NaN,NaN,NaN,,0.17102127,1.3200752,0.53921986,0.99032134,-0.016207825,-0.13784415,-0.0769727,-0.89057034,-0.44828522,-0.115494184,0.45455664,-0.8831984,,-0.030973257,0.13183878,-0.11075574,0.65284,-0.44123358,0.6157214,0.1799183,-0.699256,-0.69186014,0.7358188,0.5624535,-0.3771163,,NaN,NaN,NaN,NaN,NaN,NaN,NaN,NaN,NaN,NaN,NaN,NaN,,1.2749305247399758,-0.5602147654291202,0.19775422466000003,2.3487370569701573,0.6296209909191496,-0.7976557159222665,-0.1261016190556636,,NaN,NaN,NaN,NaN,NaN,NaN,NaN,,-0.18467328815352002,-0.3220459719164287,0.10864944584,0.03172731264760842
0.5579581299971323,13:06:32.918907,13:06:31.745767,0,,0.058275566,-0.011466078,0.009429663,-0.5940685,0.45375127,-0.6642232,0.52757204,-0.4035596,-0.7475342,-0.6072482,-0.79451203,0.0003555715,,NaN,NaN,NaN,NaN,NaN,NaN,NaN,NaN,NaN,NaN,NaN,NaN,,0.17102127,1.3200752,0.53921986,0.99032134,-0.016207825,-0.13784415,-0.0769727,-0.89057034,-0.44828522,-0.115494184,0.45455664,-0.8831984,,-0.030975364,0.13183755,-0.110755555,0.65283203,-0.44124502,0.61572164,0.17990921,-0.6992569,-0.69186157,0.7358281,0.5624434,-0.37711328,,NaN,NaN,NaN,NaN,NaN,NaN,NaN,NaN,NaN,NaN,NaN,NaN,,1.2749150792742274,-0.5602147654291202,0.19775422466000003,2.3487370569701573,0.6296209909191496,-0.7976557159222665,-0.1261016190556636,,NaN,NaN,NaN,NaN,NaN,NaN,NaN,,-0.18467328815352002,-0.3220459719164287,0.10864944584,0.03172731264760842
0.5817108690098394,13:06:32.945277,13:06:31.745767,0,,0.05827453,-0.011465497,0.009429991,-0.59407264,0.4537459,-0.6642232,0.5275743,-0.40355664,-0.74753433,-0.60724217,-0.7945166,0.00035721064,,NaN,NaN,NaN,NaN,NaN,NaN,NaN,NaN,NaN,NaN,NaN,NaN,,0.17102127,1.3200752,0.53921986,0.99032134,-0.016207825,-0.13784415,-0.0769727,-0.89057034,-0.44828522,-0.115494184,0.45455664,-0.8831984,,-0.03097431,0.13183817,-0.11075565,0.652836,-0.4412393,0.6157215,0.17991376,-0.6992565,-0.69186085,0.73582345,0.56244844,-0.3771148,,NaN,NaN,NaN,NaN,NaN,NaN,NaN,NaN,NaN,NaN,NaN,NaN,,1.2749228020071017,-0.5602147654291202,0.19775422466000003,2.3487370569701573,0.6296209909191496,-0.7976557159222665,-0.1261016190556636,,NaN,NaN,NaN,NaN,NaN,NaN,NaN,,-0.18467328815352002,-0.3220459719164287,0.10864944584,0.03172731264760842
0.6081246180110611,13:06:32.969517,13:06:31.745767,0,,0.058273494,-0.011464916,0.009430289,-0.59407675,0.4537406,-0.66422313,0.52757657,-0.40355355,-0.74753433,-0.60723615,-0.7945212,0.00035890937,,NaN,NaN,NaN,NaN,NaN,NaN,NaN,NaN,NaN,NaN,NaN,NaN,,0.17102127,1.3200752,0.53921986,0.99032134,-0.016207825,-0.13784415,-0.0769727,-0.89057034,-0.44828522,-0.115494184,0.45455664,-0.8831984,,-0.030973257,0.13183878,-0.11075574,0.65284,-0.44123358,0.6157214,0.1799183,-0.699256,-0.69186014,0.7358188,0.5624535,-0.3771163,,NaN,NaN,NaN,NaN,NaN,NaN,NaN,NaN,NaN,NaN,NaN,NaN,,1.2749305247399758,-0.5602147654291202,0.19775422466000003,2.3487370569701573,0.6296209909191496,-0.7976557159222665,-0.1261016190556636,,NaN,NaN,NaN,NaN,NaN,NaN,NaN,,-0.18467328815352002,-0.3220459719164287,0.10864944584,0.03172731264760842
0.6323968509968836,13:06:32.990864,13:06:31.745767,0,,0.058273494,-0.011464916,0.009430289,-0.59407675,0.4537406,-0.66422313,0.52757657,-0.40355355,-0.74753433,-0.60723615,-0.7945212,0.00035890937,,NaN,NaN,NaN,NaN,NaN,NaN,NaN,NaN,NaN,NaN,NaN,NaN,,0.17102127,1.3200752,0.53921986,0.99032134,-0.016207825,-0.13784415,-0.0769727,-0.89057034,-0.44828522,-0.115494184,0.45455664,-0.8831984,,-0.030973257,0.13183878,-0.11075574,0.65284,-0.44123358,0.6157214,0.1799183,-0.699256,-0.69186014,0.7358188,0.5624535,-0.3771163,,NaN,NaN,NaN,NaN,NaN,NaN,NaN,NaN,NaN,NaN,NaN,NaN,,1.2749305247399758,-0.5602147654291202,0.19775422466000003,2.3487370569701573,0.6296209909191496,-0.7976557159222665,-0.1261016190556636,,NaN,NaN,NaN,NaN,NaN,NaN,NaN,,-0.18467328815352002,-0.3220459719164287,0.10864944584,0.03172731264760842
0.6536888609989546,13:06:33.020212,13:06:31.745767,0,,0.058273494,-0.011464916,0.009430289,-0.59407675,0.4537406,-0.66422313,0.52757657,-0.40355355,-0.74753433,-0.60723615,-0.7945212,0.00035890937,,NaN,NaN,NaN,NaN,NaN,NaN,NaN,NaN,NaN,NaN,NaN,NaN,,0.17102127,1.3200752,0.53921986,0.99032134,-0.016207825,-0.13784415,-0.0769727,-0.89057034,-0.44828522,-0.115494184,0.45455664,-0.8831984,,-0.030973257,0.13183878,-0.11075574,0.65284,-0.44123358,0.6157214,0.1799183,-0.699256,-0.69186014,0.7358188,0.5624535,-0.3771163,,NaN,NaN,NaN,NaN,NaN,NaN,NaN,NaN,NaN,NaN,NaN,NaN,,1.2749305247399758,-0.5602147654291202,0.19775422466000003,2.3487370569701573,0.6296209909191496,-0.7976557159222665,-0.1261016190556636,,NaN,NaN,NaN,NaN,NaN,NaN,NaN,,-0.18467328815352002,-0.3220459719164287,0.10864944584,0.03172731264760842
0.6830744440085255,13:06:33.044907,13:06:31.745767,0,,0.058273494,-0.011464916,0.009430289,-0.59407675,0.4537406,-0.66422313,0.52757657,-0.40355355,-0.74753433,-0.60723615,-0.7945212,0.00035890937,,NaN,NaN,NaN,NaN,NaN,NaN,NaN,NaN,NaN,NaN,NaN,NaN,,0.17102127,1.3200752,0.53921986,0.99032134,-0.016207825,-0.13784415,-0.0769727,-0.89057034,-0.44828522,-0.115494184,0.45455664,-0.8831984,,-0.030973257,0.13183878,-0.11075574,0.65284,-0.44123358,0.6157214,0.1799183,-0.699256,-0.69186014,0.7358188,0.5624535,-0.3771163,,NaN,NaN,NaN,NaN,NaN,NaN,NaN,NaN,NaN,NaN,NaN,NaN,,1.2749305247399758,-0.5602147654291202,0.19775422466000003,2.3487370569701573,0.6296209909191496,-0.7976557159222665,-0.1261016190556636,,NaN,NaN,NaN,NaN,NaN,NaN,NaN,,-0.18467328815352002,-0.3220459719164287,0.10864944584,0.03172731264760842
0.70779061599751,13:06:33.070137,13:06:31.897638,0,,0.058273494,-0.011464916,0.009430289,-0.59407675,0.4537406,-0.66422313,0.52757657,-0.40355355,-0.74753433,-0.60723615,-0.7945212,0.00035890937,,NaN,NaN,NaN,NaN,NaN,NaN,NaN,NaN,NaN,NaN,NaN,NaN,,0.17102127,1.3200752,0.53921986,0.99032134,-0.016207825,-0.13784415,-0.0769727,-0.89057034,-0.44828522,-0.115494184,0.45455664,-0.8831984,,-0.030973257,0.13183878,-0.11075574,0.65284,-0.44123358,0.6157214,0.1799183,-0.699256,-0.69186014,0.7358188,0.5624535,-0.3771163,,NaN,NaN,NaN,NaN,NaN,NaN,NaN,NaN,NaN,NaN,NaN,NaN,,1.2749305247399758,-0.5602147654291202,0.19775422466000003,2.3487370569701573,0.6296209909191496,-0.7976557159222665,-0.1261016190556636,,NaN,NaN,NaN,NaN,NaN,NaN,NaN,,-0.18467328815352002,-0.3220459719164287,0.10864944584,0.03172731264760842
0.7329863040067721,13:06:33.095471,13:06:31.897638,0,,0.058273494,-0.011464916,0.009430289,-0.59407675,0.4537406,-0.66422313,0.52757657,-0.40355355,-0.74753433,-0.60723615,-0.7945212,0.00035890937,,NaN,NaN,NaN,NaN,NaN,NaN,NaN,NaN,NaN,NaN,NaN,NaN,,0.17102127,1.3200752,0.53921986,0.99032134,-0.016207825,-0.13784415,-0.0769727,-0.89057034,-0.44828522,-0.115494184,0.45455664,-0.8831984,,-0.030973257,0.13183878,-0.11075574,0.65284,-0.44123358,0.6157214,0.1799183,-0.699256,-0.69186014,0.7358188,0.5624535,-0.3771163,,NaN,NaN,NaN,NaN,NaN,NaN,NaN,NaN,NaN,NaN,NaN,NaN,,1.2749305247399758,-0.5602147654291202,0.19775422466000003,2.3487370569701573,0.6296209909191496,-0.7976557159222665,-0.1261016190556636,,NaN,NaN,NaN,NaN,NaN,NaN,NaN,,-0.18467328815352002,-0.3220459719164287,0.10864944584,0.03172731264760842
0.7583584029925987,13:06:33.121179,13:06:31.897638,0,,0.058273494,-0.011464916,0.009430289,-0.59407675,0.4537406,-0.66422313,0.52757657,-0.40355355,-0.74753433,-0.60723615,-0.7945212,0.00035890937,,NaN,NaN,NaN,NaN,NaN,NaN,NaN,NaN,NaN,NaN,NaN,NaN,,0.17102127,1.3200752,0.53921986,0.99032134,-0.016207825,-0.13784415,-0.0769727,-0.89057034,-0.44828522,-0.115494184,0.45455664,-0.8831984,,-0.030973257,0.13183878,-0.11075574,0.65284,-0.44123358,0.6157214,0.1799183,-0.699256,-0.69186014,0.7358188,0.5624535,-0.3771163,,NaN,NaN,NaN,NaN,NaN,NaN,NaN,NaN,NaN,NaN,NaN,NaN,,1.2749305247399758,-0.5602147654291202,0.19775422466000003,2.3487370569701573,0.6296209909191496,-0.7976557159222665,-0.1261016190556636,,NaN,NaN,NaN,NaN,NaN,NaN,NaN,,-0.18467328815352002,-0.3220459719164287,0.10864944584,0.03172731264760842
0.7840447379858233,13:06:33.143136,13:06:31.897638,0,,0.058273494,-0.011464916,0.009430289,-0.59407675,0.4537406,-0.66422313,0.52757657,-0.40355355,-0.74753433,-0.60723615,-0.7945212,0.00035890937,,NaN,NaN,NaN,NaN,NaN,NaN,NaN,NaN,NaN,NaN,NaN,NaN,,0.17102127,1.3200752,0.53921986,0.99032134,-0.016207825,-0.13784415,-0.0769727,-0.89057034,-0.44828522,-0.115494184,0.45455664,-0.8831984,,-0.030973257,0.13183878,-0.11075574,0.65284,-0.44123358,0.6157214,0.1799183,-0.699256,-0.69186014,0.7358188,0.5624535,-0.3771163,,NaN,NaN,NaN,NaN,NaN,NaN,NaN,NaN,NaN,NaN,NaN,NaN,,1.2749305247399758,-0.5602147654291202,0.19775422466000003,2.3487370569701573,0.6296209909191496,-0.7976557159222665,-0.1261016190556636,,NaN,NaN,NaN,NaN,NaN,NaN,NaN,,-0.18467328815352002,-0.3220459719164287,0.10864944584,0.03172731264760842
0.8059928499860689,13:06:33.169236,13:06:31.897638,0,,0.058273494,-0.011464916,0.009430289,-0.59407675,0.4537406,-0.66422313,0.52757657,-0.40355355,-0.74753433,-0.60723615,-0.7945212,0.00035890937,,NaN,NaN,NaN,NaN,NaN,NaN,NaN,NaN,NaN,NaN,NaN,NaN,,0.17102127,1.3200752,0.53921986,0.99032134,-0.016207825,-0.13784415,-0.0769727,-0.89057034,-0.44828522,-0.115494184,0.45455664,-0.8831984,,-0.030973257,0.13183878,-0.11075574,0.65284,-0.44123358,0.6157214,0.1799183,-0.699256,-0.69186014,0.7358188,0.5624535,-0.3771163,,NaN,NaN,NaN,NaN,NaN,NaN,NaN,NaN,NaN,NaN,NaN,NaN,,1.2749305247399758,-0.5602147654291202,0.19775422466000003,2.3487370569701573,0.6296209909191496,-0.7976557159222665,-0.1261016190556636,,NaN,NaN,NaN,NaN,NaN,NaN,NaN,,-0.18467328815352002,-0.3220459719164287,0.10864944584,0.03172731264760842
0.8321248730062507,13:06:33.193180,13:06:31.897638,0,,0.058275275,-0.01146435,0.009429038,-0.5943453,0.4537639,-0.6639669,0.5274907,-0.40324408,-0.74776196,-0.60704803,-0.7946651,0.00030994415,,NaN,NaN,NaN,NaN,NaN,NaN,NaN,NaN,NaN,NaN,NaN,NaN,,0.17102127,1.3200752,0.53921986,0.99032134,-0.016207825,-0.13784415,-0.0769727,-0.89057034,-0.44828522,-0.115494184,0.45455664,-0.8831984,,-0.03097494,0.1318388,-0.11075425,0.6530938,-0.441231,0.615454,0.17991593,-0.69904256,-0.69207644,0.73559415,0.56272084,-0.37715584,,NaN,NaN,NaN,NaN,NaN,NaN,NaN,NaN,NaN,NaN,NaN,NaN,,1.2749305247399758,-0.5602147654291202,0.19775422466000003,2.3483176770831884,0.6296209909191496,-0.7976557159222665,-0.1261016190556636,,NaN,NaN,NaN,NaN,NaN,NaN,NaN,,-0.18467328815352002,-0.3220459719164287,0.10864944584,0.03172731264760842
0.856008897011634,13:06:33.220760,13:06:32.047159,0,,0.058204275,-0.012306713,0.011268735,-0.58748287,0.46076524,-0.6652513,0.52951133,-0.4027793,-0.74658334,-0.61194897,-0.79086304,-0.0073545873,,NaN,NaN,NaN,NaN,NaN,NaN,NaN,NaN,NaN,NaN,NaN,NaN,,0.17102127,1.3200752,0.53921986,0.99032134,-0.016207825,-0.13784415,-0.0769727,-0.89057034,-0.44828522,-0.115494184,0.45455664,-0.8831984,,-0.03097494,0.1318388,-0.11075425,0.6530938,-0.441231,0.615454,0.17991593,-0.69904256,-0.69207644,0.73559415,0.56272084,-0.37715584,,NaN,NaN,NaN,NaN,NaN,NaN,NaN,NaN,NaN,NaN,NaN,NaN,,1.2749305247399758,-0.5602147654291202,0.19775422466000003,2.3483176770831884,0.6296209909191496,-0.7976557159222665,-0.1261016190556636,,NaN,NaN,NaN,NaN,NaN,NaN,NaN,,-0.18467328815352002,-0.3220459719164287,0.10864944584,0.03172731264760842
0.8836202399979811,13:06:33.246171,13:06:32.047159,0,,0.058204275,-0.012306713,0.011268735,-0.58748287,0.46076524,-0.6652513,0.52951133,-0.4027793,-0.74658334,-0.61194897,-0.79086304,-0.0073545873,,NaN,NaN,NaN,NaN,NaN,NaN,NaN,NaN,NaN,NaN,NaN,NaN,,0.17102127,1.3200752,0.53921986,0.99032134,-0.016207825,-0.13784415,-0.0769727,-0.89057034,-0.44828522,-0.115494184,0.45455664,-0.8831984,,-0.03097494,0.1318388,-0.11075425,0.6530938,-0.441231,0.615454,0.17991593,-0.69904256,-0.69207644,0.73559415,0.56272084,-0.37715584,,NaN,NaN,NaN,NaN,NaN,NaN,NaN,NaN,NaN,NaN,NaN,NaN,,1.2749305247399758,-0.5602147654291202,0.19775422466000003,2.3483176770831884,0.6296209909191496,-0.7976557159222665,-0.1261016190556636,,NaN,NaN,NaN,NaN,NaN,NaN,NaN,,-0.18467328815352002,-0.3220459719164287,0.10864944584,0.03172731264760842
0.9090670580044389,13:06:33.272868,13:06:32.047159,0,,0.058204275,-0.012306713,0.011268735,-0.58748287,0.46076524,-0.6652513,0.52951133,-0.4027793,-0.74658334,-0.61194897,-0.79086304,-0.0073545873,,NaN,NaN,NaN,NaN,NaN,NaN,NaN,NaN,NaN,NaN,NaN,NaN,,0.17102127,1.3200752,0.53921986,0.99032134,-0.016207825,-0.13784415,-0.0769727,-0.89057034,-0.44828522,-0.115494184,0.45455664,-0.8831984,,-0.03097494,0.1318388,-0.11075425,0.6530938,-0.441231,0.615454,0.17991593,-0.69904256,-0.69207644,0.73559415,0.56272084,-0.37715584,,NaN,NaN,NaN,NaN,NaN,NaN,NaN,NaN,NaN,NaN,NaN,NaN,,1.2749305247399758,-0.5602147654291202,0.19775422466000003,2.3483176770831884,0.6296209909191496,-0.7976557159222665,-0.1261016190556636,,NaN,NaN,NaN,NaN,NaN,NaN,NaN,,-0.18467328815352002,-0.3220459719164287,0.10864944584,0.03172731264760842
0.9357445669884328,13:06:33.296460,13:06:32.047159,0,,0.058204275,-0.012306713,0.011268735,-0.58748287,0.46076524,-0.6652513,0.52951133,-0.4027793,-0.74658334,-0.61194897,-0.79086304,-0.0073545873,,NaN,NaN,NaN,NaN,NaN,NaN,NaN,NaN,NaN,NaN,NaN,NaN,,0.17102127,1.3200752,0.53921986,0.99032134,-0.016207825,-0.13784415,-0.0769727,-0.89057034,-0.44828522,-0.115494184,0.45455664,-0.8831984,,-0.03097494,0.1318388,-0.11075425,0.6530938,-0.441231,0.615454,0.17991593,-0.69904256,-0.69207644,0.73559415,0.56272084,-0.37715584,,NaN,NaN,NaN,NaN,NaN,NaN,NaN,NaN,NaN,NaN,NaN,NaN,,1.2749305247399758,-0.5602147654291202,0.19775422466000003,2.3483176770831884,0.6296209909191496,-0.7976557159222665,-0.1261016190556636,,NaN,NaN,NaN,NaN,NaN,NaN,NaN,,-0.18467328815352002,-0.3220459719164287,0.10864944584,0.03172731264760842
0.9593257730011828,13:06:33.323210,13:06:32.047159,0,,0.058204275,-0.012306713,0.011268735,-0.58748287,0.46076524,-0.6652513,0.52951133,-0.4027793,-0.74658334,-0.61194897,-0.79086304,-0.0073545873,,NaN,NaN,NaN,NaN,NaN,NaN,NaN,NaN,NaN,NaN,NaN,NaN,,0.17102127,1.3200752,0.53921986,0.99032134,-0.016207825,-0.13784415,-0.0769727,-0.89057034,-0.44828522,-0.115494184,0.45455664,-0.8831984,,-0.03097494,0.1318388,-0.11075425,0.6530938,-0.441231,0.615454,0.17991593,-0.69904256,-0.69207644,0.73559415,0.56272084,-0.37715584,,NaN,NaN,NaN,NaN,NaN,NaN,NaN,NaN,NaN,NaN,NaN,NaN,,1.2749305247399758,-0.5602147654291202,0.19775422466000003,2.3483176770831884,0.6296209909191496,-0.7976557159222665,-0.1261016190556636,,NaN,NaN,NaN,NaN,NaN,NaN,NaN,,-0.18467328815352002,-0.3220459719164287,0.10864944584,0.03172731264760842
0.9860984749975614,13:06:33.347115,13:06:32.185597,0,,0.05819409,-0.012268737,0.011112839,-0.587278,0.4605673,-0.66556925,0.53022027,-0.4023818,-0.7462943,-0.6115317,-0.79118055,-0.007892162,,NaN,NaN,NaN,NaN,NaN,NaN,NaN,NaN,NaN,NaN,NaN,NaN,,0.17102127,1.3200752,0.53921986,0.99032134,-0.016207825,-0.13784415,-0.0769727,-0.89057034,-0.44828522,-0.115494184,0.45455664,-0.8831984,,-0.030975994,0.13183819,-0.11075416,0.6530898,-0.44123673,0.61545414,0.17991139,-0.699043,-0.69207716,0.7355988,0.56271577,-0.37715435,,NaN,NaN,NaN,NaN,NaN,NaN,NaN,NaN,NaN,NaN,NaN,NaN,,1.2749228020071017,-0.5602147654291202,0.19775422466000003,2.3483176770831884,0.6296209909191496,-0.7976557159222665,-0.1261016190556636,,NaN,NaN,NaN,NaN,NaN,NaN,NaN,,-0.18467328815352002,-0.3220459719164287,0.10864944584,0.03172731264760842
1.0100099820119794,13:06:33.378474,13:06:32.185597,0,,0.05819305,-0.012268163,0.011113137,-0.58728224,0.460562,-0.66556925,0.5302225,-0.4023788,-0.7462944,-0.6115258,-0.79118526,-0.0078905225,,NaN,NaN,NaN,NaN,NaN,NaN,NaN,NaN,NaN,NaN,NaN,NaN,,0.17102127,1.3200752,0.53921986,0.99032134,-0.016207825,-0.13784415,-0.0769727,-0.89057034,-0.44828522,-0.115494184,0.45455664,-0.8831984,,-0.03097494,0.1318388,-0.11075425,0.6530938,-0.441231,0.615454,0.17991593,-0.69904256,-0.69207644,0.73559415,0.56272084,-0.37715584,,NaN,NaN,NaN,NaN,NaN,NaN,NaN,NaN,NaN,NaN,NaN,NaN,,1.2749305247399758,-0.5602147654291202,0.19775422466000003,2.3483176770831884,0.6296209909191496,-0.7976557159222665,-0.1261016190556636,,NaN,NaN,NaN,NaN,NaN,NaN,NaN,,-0.18467328815352002,-0.3220459719164287,0.10864944584,0.03172731264760842
1.0413488339981996,13:06:33.403816,13:06:32.185597,0,,0.05819305,-0.012268163,0.011113137,-0.58728224,0.460562,-0.66556925,0.5302225,-0.4023788,-0.7462944,-0.6115258,-0.79118526,-0.0078905225,,NaN,NaN,NaN,NaN,NaN,NaN,NaN,NaN,NaN,NaN,NaN,NaN,,0.17102127,1.3200752,0.53921986,0.99032134,-0.016207825,-0.13784415,-0.0769727,-0.89057034,-0.44828522,-0.115494184,0.45455664,-0.8831984,,-0.03097494,0.1318388,-0.11075425,0.6530938,-0.441231,0.615454,0.17991593,-0.69904256,-0.69207644,0.73559415,0.56272084,-0.37715584,,NaN,NaN,NaN,NaN,NaN,NaN,NaN,NaN,NaN,NaN,NaN,NaN,,1.2749305247399758,-0.5602147654291202,0.19775422466000003,2.3483176770831884,0.6296209909191496,-0.7976557159222665,-0.1261016190556636,,NaN,NaN,NaN,NaN,NaN,NaN,NaN,,-0.18467328815352002,-0.3220459719164287,0.10864944584,0.03172731264760842
1.0666581859986763,13:06:33.431159,13:06:32.185597,0,,0.05819409,-0.012268737,0.011112839,-0.587278,0.4605673,-0.66556925,0.53022027,-0.4023818,-0.7462943,-0.6115317,-0.79118055,-0.007892162,,NaN,NaN,NaN,NaN,NaN,NaN,NaN,NaN,NaN,NaN,NaN,NaN,,0.17102127,1.3200752,0.53921986,0.99032134,-0.016207825,-0.13784415,-0.0769727,-0.89057034,-0.44828522,-0.115494184,0.45455664,-0.8831984,,-0.030975994,0.13183819,-0.11075416,0.6530898,-0.44123673,0.61545414,0.17991139,-0.699043,-0.69207716,0.7355988,0.56271577,-0.37715435,,NaN,NaN,NaN,NaN,NaN,NaN,NaN,NaN,NaN,NaN,NaN,NaN,,1.2749228020071017,-0.5602147654291202,0.19775422466000003,2.3483176770831884,0.6296209909191496,-0.7976557159222665,-0.1261016190556636,,NaN,NaN,NaN,NaN,NaN,NaN,NaN,,-0.18467328815352002,-0.3220459719164287,0.10864944584,0.03172731264760842
1.0940430900081992,13:06:33.453269,13:06:32.185597,0,,0.05819305,-0.012268163,0.011113137,-0.58728224,0.460562,-0.66556925,0.5302225,-0.4023788,-0.7462944,-0.6115258,-0.79118526,-0.0078905225,,NaN,NaN,NaN,NaN,NaN,NaN,NaN,NaN,NaN,NaN,NaN,NaN,,0.17102127,1.3200752,0.53921986,0.99032134,-0.016207825,-0.13784415,-0.0769727,-0.89057034,-0.44828522,-0.115494184,0.45455664,-0.8831984,,-0.03097494,0.1318388,-0.11075425,0.6530938,-0.441231,0.615454,0.17991593,-0.69904256,-0.69207644,0.73559415,0.56272084,-0.37715584,,NaN,NaN,NaN,NaN,NaN,NaN,NaN,NaN,NaN,NaN,NaN,NaN,,1.2749305247399758,-0.5602147654291202,0.19775422466000003,2.3483176770831884,0.6296209909191496,-0.7976557159222665,-0.1261016190556636,,NaN,NaN,NaN,NaN,NaN,NaN,NaN,,-0.18467328815352002,-0.3220459719164287,0.10864944584,0.03172731264760842
1.116133709991118,13:06:33.481197,13:06:32.318354,0,,0.05818501,-0.012050152,0.010473609,-0.5908488,0.45744294,-0.66456276,0.5290438,-0.40221322,-0.7472197,-0.6091063,-0.7930766,-0.004360169,,NaN,NaN,NaN,NaN,NaN,NaN,NaN,NaN,NaN,NaN,NaN,NaN,,0.17102127,1.3200752,0.53921986,0.99032134,-0.016207825,-0.13784415,-0.0769727,-0.89057034,-0.44828522,-0.115494184,0.45455664,-0.8831984,,-0.03097494,0.1318388,-0.11075425,0.6530938,-0.441231,0.615454,0.17991593,-0.69904256,-0.69207644,0.73559415,0.56272084,-0.37715584,,NaN,NaN,NaN,NaN,NaN,NaN,NaN,NaN,NaN,NaN,NaN,NaN,,1.2749305247399758,-0.5602147654291202,0.19775422466000003,2.3483176770831884,0.6296209909191496,-0.7976557159222665,-0.1261016190556636,,NaN,NaN,NaN,NaN,NaN,NaN,NaN,,-0.18467328815352002,-0.3220459719164287,0.10864944584,0.03172731264760842
1.1440484590129927,13:06:33.509452,13:06:32.318354,0,,0.05818501,-0.012050152,0.010473609,-0.5908488,0.45744294,-0.66456276,0.5290438,-0.40221322,-0.7472197,-0.6091063,-0.7930766,-0.004360169,,NaN,NaN,NaN,NaN,NaN,NaN,NaN,NaN,NaN,NaN,NaN,NaN,,0.17102127,1.3200752,0.53921986,0.99032134,-0.016207825,-0.13784415,-0.0769727,-0.89057034,-0.44828522,-0.115494184,0.45455664,-0.8831984,,-0.03097494,0.1318388,-0.11075425,0.6530938,-0.441231,0.615454,0.17991593,-0.69904256,-0.69207644,0.73559415,0.56272084,-0.37715584,,NaN,NaN,NaN,NaN,NaN,NaN,NaN,NaN,NaN,NaN,NaN,NaN,,1.2749305247399758,-0.5602147654291202,0.19775422466000003,2.3483176770831884,0.6296209909191496,-0.7976557159222665,-0.1261016190556636,,NaN,NaN,NaN,NaN,NaN,NaN,NaN,,-0.18467328815352002,-0.3220459719164287,0.10864944584,0.03172731264760842
1.1723367710073944,13:06:33.531393,13:06:32.318354,0,,0.05818501,-0.012050152,0.010473609,-0.5908488,0.45744294,-0.66456276,0.5290438,-0.40221322,-0.7472197,-0.6091063,-0.7930766,-0.004360169,,NaN,NaN,NaN,NaN,NaN,NaN,NaN,NaN,NaN,NaN,NaN,NaN,,0.17102127,1.3200752,0.53921986,0.99032134,-0.016207825,-0.13784415,-0.0769727,-0.89057034,-0.44828522,-0.115494184,0.45455664,-0.8831984,,-0.03097494,0.1318388,-0.11075425,0.6530938,-0.441231,0.615454,0.17991593,-0.69904256,-0.69207644,0.73559415,0.56272084,-0.37715584,,NaN,NaN,NaN,NaN,NaN,NaN,NaN,NaN,NaN,NaN,NaN,NaN,,1.2749305247399758,-0.5602147654291202,0.19775422466000003,2.3483176770831884,0.6296209909191496,-0.7976557159222665,-0.1261016190556636,,NaN,NaN,NaN,NaN,NaN,NaN,NaN,,-0.18467328815352002,-0.3220459719164287,0.10864944584,0.03172731264760842
1.1942702590022236,13:06:33.555297,13:06:32.318354,0,,0.058186047,-0.0120507255,0.010473311,-0.59084463,0.45744827,-0.6645628,0.5290415,-0.40221617,-0.7472197,-0.6091123,-0.793072,-0.004361838,,NaN,NaN,NaN,NaN,NaN,NaN,NaN,NaN,NaN,NaN,NaN,NaN,,0.17102127,1.3200752,0.53921986,0.99032134,-0.016207825,-0.13784415,-0.0769727,-0.89057034,-0.44828522,-0.115494184,0.45455664,-0.8831984,,-0.030975994,0.13183819,-0.11075416,0.6530898,-0.44123673,0.61545414,0.17991139,-0.699043,-0.69207716,0.7355988,0.56271577,-0.37715435,,NaN,NaN,NaN,NaN,NaN,NaN,NaN,NaN,NaN,NaN,NaN,NaN,,1.2749228020071017,-0.5602147654291202,0.19775422466000003,2.3483176770831884,0.6296209909191496,-0.7976557159222665,-0.1261016190556636,,NaN,NaN,NaN,NaN,NaN,NaN,NaN,,-0.18467328815352002,-0.3220459719164287,0.10864944584,0.03172731264760842
1.2181263609963935,13:06:33.580290,13:06:32.318354,0,,0.05818501,-0.012050152,0.010473609,-0.5908488,0.45744294,-0.66456276,0.5290438,-0.40221322,-0.7472197,-0.6091063,-0.7930766,-0.004360169,,NaN,NaN,NaN,NaN,NaN,NaN,NaN,NaN,NaN,NaN,NaN,NaN,,0.17102127,1.3200752,0.53921986,0.99032134,-0.016207825,-0.13784415,-0.0769727,-0.89057034,-0.44828522,-0.115494184,0.45455664,-0.8831984,,-0.03097494,0.1318388,-0.11075425,0.6530938,-0.441231,0.615454,0.17991593,-0.69904256,-0.69207644,0.73559415,0.56272084,-0.37715584,,NaN,NaN,NaN,NaN,NaN,NaN,NaN,NaN,NaN,NaN,NaN,NaN,,1.2749305247399758,-0.5602147654291202,0.19775422466000003,2.3483176770831884,0.6296209909191496,-0.7976557159222665,-0.1261016190556636,,NaN,NaN,NaN,NaN,NaN,NaN,NaN,,-0.18467328815352002,-0.3220459719164287,0.10864944584,0.03172731264760842
1.2431764010107145,13:06:33.606355,13:06:32.318354,0,,0.05818501,-0.012050152,0.010473609,-0.5908488,0.45744294,-0.66456276,0.5290438,-0.40221322,-0.7472197,-0.6091063,-0.7930766,-0.004360169,,NaN,NaN,NaN,NaN,NaN,NaN,NaN,NaN,NaN,NaN,NaN,NaN,,0.17102127,1.3200752,0.53921986,0.99032134,-0.016207825,-0.13784415,-0.0769727,-0.89057034,-0.44828522,-0.115494184,0.45455664,-0.8831984,,-0.03097494,0.1318388,-0.11075425,0.6530938,-0.441231,0.615454,0.17991593,-0.69904256,-0.69207644,0.73559415,0.56272084,-0.37715584,,NaN,NaN,NaN,NaN,NaN,NaN,NaN,NaN,NaN,NaN,NaN,NaN,,1.2749305247399758,-0.5602147654291202,0.19775422466000003,2.3483176770831884,0.6296209909191496,-0.7976557159222665,-0.1261016190556636,,NaN,NaN,NaN,NaN,NaN,NaN,NaN,,-0.18467328815352002,-0.3220459719164287,0.10864944584,0.03172731264760842
1.269241800007876,13:06:33.631883,13:06:32.460291,0,,0.058210254,-0.012057275,0.010472864,-0.5918508,0.45628995,-0.66446394,0.5281048,-0.40326533,-0.74731696,-0.60894835,-0.7932066,-0.0022960305,,NaN,NaN,NaN,NaN,NaN,NaN,NaN,NaN,NaN,NaN,NaN,NaN,,0.17102127,1.3200752,0.53921986,0.99032134,-0.016207825,-0.13784415,-0.0769727,-0.89057034,-0.44828522,-0.115494184,0.45455664,-0.8831984,,-0.03097494,0.1318388,-0.11075425,0.6530938,-0.441231,0.615454,0.17991593,-0.69904256,-0.69207644,0.73559415,0.56272084,-0.37715584,,NaN,NaN,NaN,NaN,NaN,NaN,NaN,NaN,NaN,NaN,NaN,NaN,,1.2749305247399758,-0.5602147654291202,0.19775422466000003,2.3483176770831884,0.6296209909191496,-0.7976557159222665,-0.1261016190556636,,NaN,NaN,NaN,NaN,NaN,NaN,NaN,,-0.18467328815352002,-0.3220459719164287,0.10864944584,0.03172731264760842
1.2947794510109816,13:06:33.656668,13:06:32.460291,0,,0.058210254,-0.012057275,0.010472864,-0.5918508,0.45628995,-0.66446394,0.5281048,-0.40326533,-0.74731696,-0.60894835,-0.7932066,-0.0022960305,,NaN,NaN,NaN,NaN,NaN,NaN,NaN,NaN,NaN,NaN,NaN,NaN,,0.17102127,1.3200752,0.53921986,0.99032134,-0.016207825,-0.13784415,-0.0769727,-0.89057034,-0.44828522,-0.115494184,0.45455664,-0.8831984,,-0.03097494,0.1318388,-0.11075425,0.6530938,-0.441231,0.615454,0.17991593,-0.69904256,-0.69207644,0.73559415,0.56272084,-0.37715584,,NaN,NaN,NaN,NaN,NaN,NaN,NaN,NaN,NaN,NaN,NaN,NaN,,1.2749305247399758,-0.5602147654291202,0.19775422466000003,2.3483176770831884,0.6296209909191496,-0.7976557159222665,-0.1261016190556636,,NaN,NaN,NaN,NaN,NaN,NaN,NaN,,-0.18467328815352002,-0.3220459719164287,0.10864944584,0.03172731264760842
1.3194919769885018,13:06:33.678901,13:06:32.460291,0,,0.058210254,-0.012057275,0.010472864,-0.5918508,0.45628995,-0.66446394,0.5281048,-0.40326533,-0.74731696,-0.60894835,-0.7932066,-0.0022960305,,NaN,NaN,NaN,NaN,NaN,NaN,NaN,NaN,NaN,NaN,NaN,NaN,,0.17102127,1.3200752,0.53921986,0.99032134,-0.016207825,-0.13784415,-0.0769727,-0.89057034,-0.44828522,-0.115494184,0.45455664,-0.8831984,,-0.03097494,0.1318388,-0.11075425,0.6530938,-0.441231,0.615454,0.17991593,-0.69904256,-0.69207644,0.73559415,0.56272084,-0.37715584,,NaN,NaN,NaN,NaN,NaN,NaN,NaN,NaN,NaN,NaN,NaN,NaN,,1.2749305247399758,-0.5602147654291202,0.19775422466000003,2.3483176770831884,0.6296209909191496,-0.7976557159222665,-0.1261016190556636,,NaN,NaN,NaN,NaN,NaN,NaN,NaN,,-0.18467328815352002,-0.3220459719164287,0.10864944584,0.03172731264760842
1.3417956230114214,13:06:33.706498,13:06:32.460291,0,,0.058211286,-0.012057841,0.010472551,-0.5918466,0.45629525,-0.66446394,0.5281025,-0.40326828,-0.74731684,-0.60895425,-0.7932019,-0.0022976696,,NaN,NaN,NaN,NaN,NaN,NaN,NaN,NaN,NaN,NaN,NaN,NaN,,0.17102127,1.3200752,0.53921986,0.99032134,-0.016207825,-0.13784415,-0.0769727,-0.89057034,-0.44828522,-0.115494184,0.45455664,-0.8831984,,-0.030975994,0.13183819,-0.11075416,0.6530898,-0.44123673,0.61545414,0.17991139,-0.699043,-0.69207716,0.7355988,0.56271577,-0.37715435,,NaN,NaN,NaN,NaN,NaN,NaN,NaN,NaN,NaN,NaN,NaN,NaN,,1.2749228020071017,-0.5602147654291202,0.19775422466000003,2.3483176770831884,0.6296209909191496,-0.7976557159222665,-0.1261016190556636,,NaN,NaN,NaN,NaN,NaN,NaN,NaN,,-0.18467328815352002,-0.3220459719164287,0.10864944584,0.03172731264760842
1.3693777529988438,13:06:33.730051,13:06:32.460291,0,,0.058210254,-0.012057275,0.010472864,-0.5918508,0.45628995,-0.66446394,0.5281048,-0.40326533,-0.74731696,-0.60894835,-0.7932066,-0.0022960305,,NaN,NaN,NaN,NaN,NaN,NaN,NaN,NaN,NaN,NaN,NaN,NaN,,0.17102127,1.3200752,0.53921986,0.99032134,-0.016207825,-0.13784415,-0.0769727,-0.89057034,-0.44828522,-0.115494184,0.45455664,-0.8831984,,-0.03097494,0.1318388,-0.11075425,0.6530938,-0.441231,0.615454,0.17991593,-0.69904256,-0.69207644,0.73559415,0.56272084,-0.37715584,,NaN,NaN,NaN,NaN,NaN,NaN,NaN,NaN,NaN,NaN,NaN,NaN,,1.2749305247399758,-0.5602147654291202,0.19775422466000003,2.3483176770831884,0.6296209909191496,-0.7976557159222665,-0.1261016190556636,,NaN,NaN,NaN,NaN,NaN,NaN,NaN,,-0.18467328815352002,-0.3220459719164287,0.10864944584,0.03172731264760842
1.3929130810138304,13:06:33.761545,13:06:32.602503,0,,0.05820025,-0.012270153,0.011043996,-0.58739895,0.46010345,-0.6657832,0.5304064,-0.40248522,-0.74610627,-0.611254,-0.79139775,-0.007622421,,NaN,NaN,NaN,NaN,NaN,NaN,NaN,NaN,NaN,NaN,NaN,NaN,,0.17102127,1.3200752,0.53921986,0.99032134,-0.016207825,-0.13784415,-0.0769727,-0.89057034,-0.44828522,-0.115494184,0.45455664,-0.8831984,,-0.030977046,0.13183756,-0.110754065,0.6530858,-0.44124246,0.61545426,0.17990685,-0.69904345,-0.6920779,0.73560345,0.5627107,-0.37715286,,NaN,NaN,NaN,NaN,NaN,NaN,NaN,NaN,NaN,NaN,NaN,NaN,,1.2749150792742274,-0.5602147654291202,0.19775422466000003,2.3483176770831884,0.6296209909191496,-0.7976557159222665,-0.1261016190556636,,NaN,NaN,NaN,NaN,NaN,NaN,NaN,,-0.18467328815352002,-0.3220459719164287,0.10864944584,0.03172731264760842
1.4244409269886091,13:06:33.783339,13:06:32.602503,0,,0.05820025,-0.012270153,0.011043996,-0.58739895,0.46010345,-0.6657832,0.5304064,-0.40248522,-0.74610627,-0.611254,-0.79139775,-0.007622421,,NaN,NaN,NaN,NaN,NaN,NaN,NaN,NaN,NaN,NaN,NaN,NaN,,0.17102127,1.3200752,0.53921986,0.99032134,-0.016207825,-0.13784415,-0.0769727,-0.89057034,-0.44828522,-0.115494184,0.45455664,-0.8831984,,-0.030977046,0.13183756,-0.110754065,0.6530858,-0.44124246,0.61545426,0.17990685,-0.69904345,-0.6920779,0.73560345,0.5627107,-0.37715286,,NaN,NaN,NaN,NaN,NaN,NaN,NaN,NaN,NaN,NaN,NaN,NaN,,1.2749150792742274,-0.5602147654291202,0.19775422466000003,2.3483176770831884,0.6296209909191496,-0.7976557159222665,-0.1261016190556636,,NaN,NaN,NaN,NaN,NaN,NaN,NaN,,-0.18467328815352002,-0.3220459719164287,0.10864944584,0.03172731264760842
1.4462264619942289,13:06:33.808488,13:06:32.602503,0,,0.05820025,-0.012270153,0.011043996,-0.58739895,0.46010345,-0.6657832,0.5304064,-0.40248522,-0.74610627,-0.611254,-0.79139775,-0.007622421,,NaN,NaN,NaN,NaN,NaN,NaN,NaN,NaN,NaN,NaN,NaN,NaN,,0.17102127,1.3200752,0.53921986,0.99032134,-0.016207825,-0.13784415,-0.0769727,-0.89057034,-0.44828522,-0.115494184,0.45455664,-0.8831984,,-0.030977046,0.13183756,-0.110754065,0.6530858,-0.44124246,0.61545426,0.17990685,-0.69904345,-0.6920779,0.73560345,0.5627107,-0.37715286,,NaN,NaN,NaN,NaN,NaN,NaN,NaN,NaN,NaN,NaN,NaN,NaN,,1.2749150792742274,-0.5602147654291202,0.19775422466000003,2.3483176770831884,0.6296209909191496,-0.7976557159222665,-0.1261016190556636,,NaN,NaN,NaN,NaN,NaN,NaN,NaN,,-0.18467328815352002,-0.3220459719164287,0.10864944584,0.03172731264760842
1.4713037050096318,13:06:33.830232,13:06:32.602503,0,,0.05820025,-0.012270153,0.011043996,-0.58739895,0.46010345,-0.6657832,0.5304064,-0.40248522,-0.74610627,-0.611254,-0.79139775,-0.007622421,,NaN,NaN,NaN,NaN,NaN,NaN,NaN,NaN,NaN,NaN,NaN,NaN,,0.17102127,1.3200752,0.53921986,0.99032134,-0.016207825,-0.13784415,-0.0769727,-0.89057034,-0.44828522,-0.115494184,0.45455664,-0.8831984,,-0.030977046,0.13183756,-0.110754065,0.6530858,-0.44124246,0.61545426,0.17990685,-0.69904345,-0.6920779,0.73560345,0.5627107,-0.37715286,,NaN,NaN,NaN,NaN,NaN,NaN,NaN,NaN,NaN,NaN,NaN,NaN,,1.2749150792742274,-0.5602147654291202,0.19775422466000003,2.3483176770831884,0.6296209909191496,-0.7976557159222665,-0.1261016190556636,,NaN,NaN,NaN,NaN,NaN,NaN,NaN,,-0.18467328815352002,-0.3220459719164287,0.10864944584,0.03172731264760842
1.4931082759867422,13:06:33.853003,13:06:32.602503,0,,0.058186848,-0.012240112,0.011003837,-0.5873418,0.4601454,-0.6658047,0.53043306,-0.40248674,-0.7460865,-0.6112858,-0.79137254,-0.007679075,,NaN,NaN,NaN,NaN,NaN,NaN,NaN,NaN,NaN,NaN,NaN,NaN,,0.17103672,1.3200697,0.53922635,0.9903202,-0.01622075,-0.13785066,-0.07698707,-0.8905701,-0.44828323,-0.115494184,0.45455664,-0.8831984,,-0.030959548,0.13184592,-0.110705905,0.6530323,-0.44128573,0.61548007,0.17991827,-0.6990321,-0.69208634,0.73564816,0.56269085,-0.3770952,,NaN,NaN,NaN,NaN,NaN,NaN,NaN,NaN,NaN,NaN,NaN,NaN,,1.2749228020071017,-0.5602147654291202,0.19775422466000003,2.3483176770831884,0.6296209909191496,-0.7976557159222665,-0.1261016190556636,,NaN,NaN,NaN,NaN,NaN,NaN,NaN,,-0.18467328815352002,-0.3220459719164287,0.10864944584,0.03172731264760842
1.5158944129943848,13:06:33.878571,13:06:32.602503,0,,0.058187887,-0.0122406855,0.011003524,-0.5873375,0.4601507,-0.6658047,0.5304308,-0.4024898,-0.7460865,-0.6112918,-0.791368,-0.007680744,,NaN,NaN,NaN,NaN,NaN,NaN,NaN,NaN,NaN,NaN,NaN,NaN,,0.17103672,1.3200697,0.53922635,0.9903202,-0.01622075,-0.13785066,-0.07698707,-0.8905701,-0.44828323,-0.115494184,0.45455664,-0.8831984,,-0.030960603,0.13184531,-0.11070581,0.6530283,-0.44129145,0.6154802,0.17991373,-0.6990326,-0.69208705,0.7356528,0.5626858,-0.37709367,,NaN,NaN,NaN,NaN,NaN,NaN,NaN,NaN,NaN,NaN,NaN,NaN,,1.2749150792742274,-0.5602147654291202,0.19775422466000003,2.3483176770831884,0.6296209909191496,-0.7976557159222665,-0.1261016190556636,,NaN,NaN,NaN,NaN,NaN,NaN,NaN,,-0.18467328815352002,-0.3220459719164287,0.10864944584,0.03172731264760842
1.5414436770079192,13:06:33.909081,13:06:32.741265,0,,0.058165684,-0.012524173,0.011790097,-0.581621,0.4652334,-0.66728914,0.5331055,-0.4015993,-0.74465877,-0.614423,-0.7888447,-0.014439881,,NaN,NaN,NaN,NaN,NaN,NaN,NaN,NaN,NaN,NaN,NaN,NaN,,0.17103672,1.3200697,0.53922635,0.9903202,-0.01622075,-0.13785066,-0.07698707,-0.8905701,-0.44828323,-0.115494184,0.45455664,-0.8831984,,-0.030960603,0.13184531,-0.11070581,0.6530283,-0.44129145,0.6154802,0.17991373,-0.6990326,-0.69208705,0.7356528,0.5626858,-0.37709367,,NaN,NaN,NaN,NaN,NaN,NaN,NaN,NaN,NaN,NaN,NaN,NaN,,1.2749150792742274,-0.5602147654291202,0.19775422466000003,2.3483176770831884,0.6296209909191496,-0.7976557159222665,-0.1261016190556636,,NaN,NaN,NaN,NaN,NaN,NaN,NaN,,-0.18467328815352002,-0.3220459719164287,0.10864944584,0.03172731264760842
1.5719651470135432,13:06:33.931126,13:06:32.741265,0,,0.05816465,-0.0125235915,0.011790395,-0.5816252,0.46522814,-0.66728914,0.5331077,-0.40159625,-0.7446588,-0.61441696,-0.78884935,-0.014438212,,NaN,NaN,NaN,NaN,NaN,NaN,NaN,NaN,NaN,NaN,NaN,NaN,,0.17103672,1.3200697,0.53922635,0.9903202,-0.01622075,-0.13785066,-0.07698707,-0.8905701,-0.44828323,-0.115494184,0.45455664,-0.8831984,,-0.030959548,0.13184592,-0.110705905,0.6530323,-0.44128573,0.61548007,0.17991827,-0.6990321,-0.69208634,0.73564816,0.56269085,-0.3770952,,NaN,NaN,NaN,NaN,NaN,NaN,NaN,NaN,NaN,NaN,NaN,NaN,,1.2749305247399758,-0.5602147654291202,0.19775422466000003,2.3483176770831884,0.6296209909191496,-0.7976557159222665,-0.1261016190556636,,NaN,NaN,NaN,NaN,NaN,NaN,NaN,,-0.18467328815352002,-0.3220459719164287,0.10864944584,0.03172731264760842
1.5940047879994381,13:06:33.954930,13:06:32.741265,0,,0.058163613,-0.01252301,0.011790693,-0.58162946,0.46522287,-0.66728914,0.53310996,-0.4015932,-0.7446588,-0.61441106,-0.788854,-0.014436543,,NaN,NaN,NaN,NaN,NaN,NaN,NaN,NaN,NaN,NaN,NaN,NaN,,0.17103672,1.3200697,0.53922635,0.9903202,-0.01622075,-0.13785066,-0.07698707,-0.8905701,-0.44828323,-0.115494184,0.45455664,-0.8831984,,-0.030958496,0.13184655,-0.110706,0.6530363,-0.44128,0.61547995,0.17992282,-0.69903165,-0.6920856,0.7356435,0.5626959,-0.37709668,,NaN,NaN,NaN,NaN,NaN,NaN,NaN,NaN,NaN,NaN,NaN,NaN,,1.2749305247399758,-0.5602147654291202,0.19775422466000003,2.3483176770831884,0.6296209909191496,-0.7976557159222665,-0.1261016190556636,,NaN,NaN,NaN,NaN,NaN,NaN,NaN,,-0.18467328815352002,-0.3220459719164287,0.10864944584,0.03172731264760842
1.6177876160072628,13:06:33.982298,13:06:32.741265,0,,0.058163613,-0.01252301,0.011790693,-0.58162946,0.46522287,-0.66728914,0.53310996,-0.4015932,-0.7446588,-0.61441106,-0.788854,-0.014436543,,NaN,NaN,NaN,NaN,NaN,NaN,NaN,NaN,NaN,NaN,NaN,NaN,,0.17103672,1.3200697,0.53922635,0.9903202,-0.01622075,-0.13785066,-0.07698707,-0.8905701,-0.44828323,-0.115494184,0.45455664,-0.8831984,,-0.030958496,0.13184655,-0.110706,0.6530363,-0.44128,0.61547995,0.17992282,-0.69903165,-0.6920856,0.7356435,0.5626959,-0.37709668,,NaN,NaN,NaN,NaN,NaN,NaN,NaN,NaN,NaN,NaN,NaN,NaN,,1.2749305247399758,-0.5602147654291202,0.19775422466000003,2.3483176770831884,0.6296209909191496,-0.7976557159222665,-0.1261016190556636,,NaN,NaN,NaN,NaN,NaN,NaN,NaN,,-0.18467328815352002,-0.3220459719164287,0.10864944584,0.03172731264760842
1.6451850259909406,13:06:34.008831,13:06:32.741265,0,,0.058163613,-0.01252301,0.011790693,-0.58162946,0.46522287,-0.66728914,0.53310996,-0.4015932,-0.7446588,-0.61441106,-0.788854,-0.014436543,,NaN,NaN,NaN,NaN,NaN,NaN,NaN,NaN,NaN,NaN,NaN,NaN,,0.17103672,1.3200697,0.53922635,0.9903202,-0.01622075,-0.13785066,-0.07698707,-0.8905701,-0.44828323,-0.115494184,0.45455664,-0.8831984,,-0.030958496,0.13184655,-0.110706,0.6530363,-0.44128,0.61547995,0.17992282,-0.69903165,-0.6920856,0.7356435,0.5626959,-0.37709668,,NaN,NaN,NaN,NaN,NaN,NaN,NaN,NaN,NaN,NaN,NaN,NaN,,1.2749305247399758,-0.5602147654291202,0.19775422466000003,2.3483176770831884,0.6296209909191496,-0.7976557159222665,-0.1261016190556636,,NaN,NaN,NaN,NaN,NaN,NaN,NaN,,-0.18467328815352002,-0.3220459719164287,0.10864944584,0.03172731264760842
1.6717117899970617,13:06:34.033428,13:06:32.741265,0,,0.058163613,-0.01252301,0.011790693,-0.58162946,0.46522287,-0.66728914,0.53310996,-0.4015932,-0.7446588,-0.61441106,-0.788854,-0.014436543,,NaN,NaN,NaN,NaN,NaN,NaN,NaN,NaN,NaN,NaN,NaN,NaN,,0.17103672,1.3200697,0.53922635,0.9903202,-0.01622075,-0.13785066,-0.07698707,-0.8905701,-0.44828323,-0.115494184,0.45455664,-0.8831984,,-0.030958496,0.13184655,-0.110706,0.6530363,-0.44128,0.61547995,0.17992282,-0.69903165,-0.6920856,0.7356435,0.5626959,-0.37709668,,NaN,NaN,NaN,NaN,NaN,NaN,NaN,NaN,NaN,NaN,NaN,NaN,,1.2749305247399758,-0.5602147654291202,0.19775422466000003,2.3483176770831884,0.6296209909191496,-0.7976557159222665,-0.1261016190556636,,NaN,NaN,NaN,NaN,NaN,NaN,NaN,,-0.18467328815352002,-0.3220459719164287,0.10864944584,0.03172731264760842
1.696324154996546,13:06:34.059551,13:06:32.885245,0,,0.058163047,-0.012370504,0.011346981,-0.58331275,0.46337524,-0.66710544,0.53312075,-0.40122405,-0.7448499,-0.61280376,-0.7901281,-0.012995899,,NaN,NaN,NaN,NaN,NaN,NaN,NaN,NaN,NaN,NaN,NaN,NaN,,0.17103672,1.3200697,0.53922635,0.9903202,-0.01622075,-0.13785066,-0.07698707,-0.8905701,-0.44828323,-0.115494184,0.45455664,-0.8831984,,-0.030956812,0.13184653,-0.11070749,0.65278244,-0.44128254,0.61574733,0.17992519,-0.69924515,-0.6918693,0.7358682,0.5624286,-0.3770571,,NaN,NaN,NaN,NaN,NaN,NaN,NaN,NaN,NaN,NaN,NaN,NaN,,1.2749305247399758,-0.5602147654291202,0.19775422466000003,2.3487370569701573,0.6296209909191496,-0.7976557159222665,-0.1261016190556636,,NaN,NaN,NaN,NaN,NaN,NaN,NaN,,-0.18467328815352002,-0.3220459719164287,0.10864944584,0.03172731264760842
1.722444232989801,13:06:34.083452,13:06:32.885245,0,,0.058163047,-0.012370504,0.011346981,-0.58331275,0.46337524,-0.66710544,0.53312075,-0.40122405,-0.7448499,-0.61280376,-0.7901281,-0.012995899,,NaN,NaN,NaN,NaN,NaN,NaN,NaN,NaN,NaN,NaN,NaN,NaN,,0.17103672,1.3200697,0.53922635,0.9903202,-0.01622075,-0.13785066,-0.07698707,-0.8905701,-0.44828323,-0.115494184,0.45455664,-0.8831984,,-0.030956812,0.13184653,-0.11070749,0.65278244,-0.44128254,0.61574733,0.17992519,-0.69924515,-0.6918693,0.7358682,0.5624286,-0.3770571,,NaN,NaN,NaN,NaN,NaN,NaN,NaN,NaN,NaN,NaN,NaN,NaN,,1.2749305247399758,-0.5602147654291202,0.19775422466000003,2.3487370569701573,0.6296209909191496,-0.7976557159222665,-0.1261016190556636,,NaN,NaN,NaN,NaN,NaN,NaN,NaN,,-0.18467328815352002,-0.3220459719164287,0.10864944584,0.03172731264760842
1.7463467259949539,13:06:34.110545,13:06:32.885245,0,,0.058163047,-0.012370504,0.011346981,-0.58331275,0.46337524,-0.66710544,0.53312075,-0.40122405,-0.7448499,-0.61280376,-0.7901281,-0.012995899,,NaN,NaN,NaN,NaN,NaN,NaN,NaN,NaN,NaN,NaN,NaN,NaN,,0.17103672,1.3200697,0.53922635,0.9903202,-0.01622075,-0.13785066,-0.07698707,-0.8905701,-0.44828323,-0.115494184,0.45455664,-0.8831984,,-0.030956812,0.13184653,-0.11070749,0.65278244,-0.44128254,0.61574733,0.17992519,-0.69924515,-0.6918693,0.7358682,0.5624286,-0.3770571,,NaN,NaN,NaN,NaN,NaN,NaN,NaN,NaN,NaN,NaN,NaN,NaN,,1.2749305247399758,-0.5602147654291202,0.19775422466000003,2.3487370569701573,0.6296209909191496,-0.7976557159222665,-0.1261016190556636,,NaN,NaN,NaN,NaN,NaN,NaN,NaN,,-0.18467328815352002,-0.3220459719164287,0.10864944584,0.03172731264760842
1.7733958899916615,13:06:34.133664,13:06:32.885245,0,,0.058164086,-0.012371086,0.011346668,-0.5833086,0.46338055,-0.66710544,0.53311855,-0.40122706,-0.7448499,-0.6128097,-0.7901236,-0.012997508,,NaN,NaN,NaN,NaN,NaN,NaN,NaN,NaN,NaN,NaN,NaN,NaN,,0.17103672,1.3200697,0.53922635,0.9903202,-0.01622075,-0.13785066,-0.07698707,-0.8905701,-0.44828323,-0.115494184,0.45455664,-0.8831984,,-0.030957866,0.1318459,-0.110707395,0.6527785,-0.44128826,0.61574745,0.17992064,-0.6992456,-0.69187003,0.7358728,0.5624235,-0.37705562,,NaN,NaN,NaN,NaN,NaN,NaN,NaN,NaN,NaN,NaN,NaN,NaN,,1.2749228020071017,-0.5602147654291202,0.19775422466000003,2.3487370569701573,0.6296209909191496,-0.7976557159222665,-0.1261016190556636,,NaN,NaN,NaN,NaN,NaN,NaN,NaN,,-0.18467328815352002,-0.3220459719164287,0.10864944584,0.03172731264760842
1.7965420650143642,13:06:34.160249,13:06:32.885245,0,,0.058163047,-0.012370504,0.011346981,-0.58331275,0.46337524,-0.66710544,0.53312075,-0.40122405,-0.7448499,-0.61280376,-0.7901281,-0.012995899,,NaN,NaN,NaN,NaN,NaN,NaN,NaN,NaN,NaN,NaN,NaN,NaN,,0.17103672,1.3200697,0.53922635,0.9903202,-0.01622075,-0.13785066,-0.07698707,-0.8905701,-0.44828323,-0.115494184,0.45455664,-0.8831984,,-0.030956812,0.13184653,-0.11070749,0.65278244,-0.44128254,0.61574733,0.17992519,-0.69924515,-0.6918693,0.7358682,0.5624286,-0.3770571,,NaN,NaN,NaN,NaN,NaN,NaN,NaN,NaN,NaN,NaN,NaN,NaN,,1.2749305247399758,-0.5602147654291202,0.19775422466000003,2.3487370569701573,0.6296209909191496,-0.7976557159222665,-0.1261016190556636,,NaN,NaN,NaN,NaN,NaN,NaN,NaN,,-0.18467328815352002,-0.3220459719164287,0.10864944584,0.03172731264760842
1.8231002879911102,13:06:34.184960,13:06:33.014613,0,,0.058163047,-0.012370504,0.011346981,-0.58331275,0.46337524,-0.66710544,0.53312075,-0.40122405,-0.7448499,-0.61280376,-0.7901281,-0.012995899,,NaN,NaN,NaN,NaN,NaN,NaN,NaN,NaN,NaN,NaN,NaN,NaN,,0.17103672,1.3200697,0.53922635,0.9903202,-0.01622075,-0.13785066,-0.07698707,-0.8905701,-0.44828323,-0.115494184,0.45455664,-0.8831984,,-0.030956812,0.13184653,-0.11070749,0.65278244,-0.44128254,0.61574733,0.17992519,-0.69924515,-0.6918693,0.7358682,0.5624286,-0.3770571,,NaN,NaN,NaN,NaN,NaN,NaN,NaN,NaN,NaN,NaN,NaN,NaN,,1.2749305247399758,-0.5602147654291202,0.19775422466000003,2.3487370569701573,0.6296209909191496,-0.7976557159222665,-0.1261016190556636,,NaN,NaN,NaN,NaN,NaN,NaN,NaN,,-0.18467328815352002,-0.3220459719164287,0.10864944584,0.03172731264760842
1.8478237660019659,13:06:34.211751,13:06:33.014613,0,,0.058163047,-0.012370504,0.011346981,-0.58331275,0.46337524,-0.66710544,0.53312075,-0.40122405,-0.7448499,-0.61280376,-0.7901281,-0.012995899,,NaN,NaN,NaN,NaN,NaN,NaN,NaN,NaN,NaN,NaN,NaN,NaN,,0.17103672,1.3200697,0.53922635,0.9903202,-0.01622075,-0.13785066,-0.07698707,-0.8905701,-0.44828323,-0.115494184,0.45455664,-0.8831984,,-0.030956812,0.13184653,-0.11070749,0.65278244,-0.44128254,0.61574733,0.17992519,-0.69924515,-0.6918693,0.7358682,0.5624286,-0.3770571,,NaN,NaN,NaN,NaN,NaN,NaN,NaN,NaN,NaN,NaN,NaN,NaN,,1.2749305247399758,-0.5602147654291202,0.19775422466000003,2.3487370569701573,0.6296209909191496,-0.7976557159222665,-0.1261016190556636,,NaN,NaN,NaN,NaN,NaN,NaN,NaN,,-0.18467328815352002,-0.3220459719164287,0.10864944584,0.03172731264760842
1.8746465340082068,13:06:34.236068,13:06:33.014613,0,,0.058163047,-0.012370504,0.011346981,-0.58331275,0.46337524,-0.66710544,0.53312075,-0.40122405,-0.7448499,-0.61280376,-0.7901281,-0.012995899,,NaN,NaN,NaN,NaN,NaN,NaN,NaN,NaN,NaN,NaN,NaN,NaN,,0.17103672,1.3200697,0.53922635,0.9903202,-0.01622075,-0.13785066,-0.07698707,-0.8905701,-0.44828323,-0.115494184,0.45455664,-0.8831984,,-0.030956812,0.13184653,-0.11070749,0.65278244,-0.44128254,0.61574733,0.17992519,-0.69924515,-0.6918693,0.7358682,0.5624286,-0.3770571,,NaN,NaN,NaN,NaN,NaN,NaN,NaN,NaN,NaN,NaN,NaN,NaN,,1.2749305247399758,-0.5602147654291202,0.19775422466000003,2.3487370569701573,0.6296209909191496,-0.7976557159222665,-0.1261016190556636,,NaN,NaN,NaN,NaN,NaN,NaN,NaN,,-0.18467328815352002,-0.3220459719164287,0.10864944584,0.03172731264760842
1.898957077995874,13:06:34.263741,13:06:33.014613,0,,0.058163047,-0.012370504,0.011346981,-0.58331275,0.46337524,-0.66710544,0.53312075,-0.40122405,-0.7448499,-0.61280376,-0.7901281,-0.012995899,,NaN,NaN,NaN,NaN,NaN,NaN,NaN,NaN,NaN,NaN,NaN,NaN,,0.17103672,1.3200697,0.53922635,0.9903202,-0.01622075,-0.13785066,-0.07698707,-0.8905701,-0.44828323,-0.115494184,0.45455664,-0.8831984,,-0.030956812,0.13184653,-0.11070749,0.65278244,-0.44128254,0.61574733,0.17992519,-0.69924515,-0.6918693,0.7358682,0.5624286,-0.3770571,,NaN,NaN,NaN,NaN,NaN,NaN,NaN,NaN,NaN,NaN,NaN,NaN,,1.2749305247399758,-0.5602147654291202,0.19775422466000003,2.3487370569701573,0.6296209909191496,-0.7976557159222665,-0.1261016190556636,,NaN,NaN,NaN,NaN,NaN,NaN,NaN,,-0.18467328815352002,-0.3220459719164287,0.10864944584,0.03172731264760842
1.9266376990126446,13:06:34.286662,13:06:33.014613,0,,0.058163047,-0.012370504,0.011346981,-0.58331275,0.46337524,-0.66710544,0.53312075,-0.40122405,-0.7448499,-0.61280376,-0.7901281,-0.012995899,,NaN,NaN,NaN,NaN,NaN,NaN,NaN,NaN,NaN,NaN,NaN,NaN,,0.17103672,1.3200697,0.53922635,0.9903202,-0.01622075,-0.13785066,-0.07698707,-0.8905701,-0.44828323,-0.115494184,0.45455664,-0.8831984,,-0.030956812,0.13184653,-0.11070749,0.65278244,-0.44128254,0.61574733,0.17992519,-0.69924515,-0.6918693,0.7358682,0.5624286,-0.3770571,,NaN,NaN,NaN,NaN,NaN,NaN,NaN,NaN,NaN,NaN,NaN,NaN,,1.2749305247399758,-0.5602147654291202,0.19775422466000003,2.3487370569701573,0.6296209909191496,-0.7976557159222665,-0.1261016190556636,,NaN,NaN,NaN,NaN,NaN,NaN,NaN,,-0.18467328815352002,-0.3220459719164287,0.10864944584,0.03172731264760842
1.949539730005199,13:06:34.312968,13:06:33.150939,0,,0.058150493,-0.012101889,0.010659099,-0.58746403,0.46021408,-0.6656495,0.53112566,-0.40133497,-0.74621445,-0.6105667,-0.7919175,-0.008661658,,NaN,NaN,NaN,NaN,NaN,NaN,NaN,NaN,NaN,NaN,NaN,NaN,,0.17103672,1.3200697,0.53922635,0.9903202,-0.01622075,-0.13785066,-0.07698707,-0.8905701,-0.44828323,-0.115494184,0.45455664,-0.8831984,,-0.030956812,0.13184653,-0.11070749,0.65278244,-0.44128254,0.61574733,0.17992519,-0.69924515,-0.6918693,0.7358682,0.5624286,-0.3770571,,NaN,NaN,NaN,NaN,NaN,NaN,NaN,NaN,NaN,NaN,NaN,NaN,,1.2749305247399758,-0.5602147654291202,0.19775422466000003,2.3487370569701573,0.6296209909191496,-0.7976557159222665,-0.1261016190556636,,NaN,NaN,NaN,NaN,NaN,NaN,NaN,,-0.18467328815352002,-0.3220459719164287,0.10864944584,0.03172731264760842
1.9758224950055592,13:06:34.339135,13:06:33.150939,0,,0.05815153,-0.01210247,0.010658786,-0.5874599,0.46021935,-0.6656495,0.5311234,-0.401338,-0.74621445,-0.6105726,-0.79191285,-0.0086633265,,NaN,NaN,NaN,NaN,NaN,NaN,NaN,NaN,NaN,NaN,NaN,NaN,,0.17103672,1.3200697,0.53922635,0.9903202,-0.01622075,-0.13785066,-0.07698707,-0.8905701,-0.44828323,-0.115494184,0.45455664,-0.8831984,,-0.030957866,0.1318459,-0.110707395,0.6527785,-0.44128826,0.61574745,0.17992064,-0.6992456,-0.69187003,0.7358728,0.5624235,-0.37705562,,NaN,NaN,NaN,NaN,NaN,NaN,NaN,NaN,NaN,NaN,NaN,NaN,,1.2749228020071017,-0.5602147654291202,0.19775422466000003,2.3487370569701573,0.6296209909191496,-0.7976557159222665,-0.1261016190556636,,NaN,NaN,NaN,NaN,NaN,NaN,NaN,,-0.18467328815352002,-0.3220459719164287,0.10864944584,0.03172731264760842
2.0019735480018426,13:06:34.362243,13:06:33.150939,0,,0.058150493,-0.012101889,0.010659099,-0.58746403,0.46021408,-0.6656495,0.53112566,-0.40133497,-0.74621445,-0.6105667,-0.7919175,-0.008661658,,NaN,NaN,NaN,NaN,NaN,NaN,NaN,NaN,NaN,NaN,NaN,NaN,,0.17103672,1.3200697,0.53922635,0.9903202,-0.01622075,-0.13785066,-0.07698707,-0.8905701,-0.44828323,-0.115494184,0.45455664,-0.8831984,,-0.030956812,0.13184653,-0.11070749,0.65278244,-0.44128254,0.61574733,0.17992519,-0.69924515,-0.6918693,0.7358682,0.5624286,-0.3770571,,NaN,NaN,NaN,NaN,NaN,NaN,NaN,NaN,NaN,NaN,NaN,NaN,,1.2749305247399758,-0.5602147654291202,0.19775422466000003,2.3487370569701573,0.6296209909191496,-0.7976557159222665,-0.1261016190556636,,NaN,NaN,NaN,NaN,NaN,NaN,NaN,,-0.18467328815352002,-0.3220459719164287,0.10864944584,0.03172731264760842
2.0250884589913767,13:06:34.387132,13:06:33.150939,0,,0.058150493,-0.012101889,0.010659099,-0.58746403,0.46021408,-0.6656495,0.53112566,-0.40133497,-0.74621445,-0.6105667,-0.7919175,-0.008661658,,NaN,NaN,NaN,NaN,NaN,NaN,NaN,NaN,NaN,NaN,NaN,NaN,,0.17103672,1.3200697,0.53922635,0.9903202,-0.01622075,-0.13785066,-0.07698707,-0.8905701,-0.44828323,-0.115494184,0.45455664,-0.8831984,,-0.030956812,0.13184653,-0.11070749,0.65278244,-0.44128254,0.61574733,0.17992519,-0.69924515,-0.6918693,0.7358682,0.5624286,-0.3770571,,NaN,NaN,NaN,NaN,NaN,NaN,NaN,NaN,NaN,NaN,NaN,NaN,,1.2749305247399758,-0.5602147654291202,0.19775422466000003,2.3487370569701573,0.6296209909191496,-0.7976557159222665,-0.1261016190556636,,NaN,NaN,NaN,NaN,NaN,NaN,NaN,,-0.18467328815352002,-0.3220459719164287,0.10864944584,0.03172731264760842
2.049918793985853,13:06:34.412758,13:06:33.150939,0,,0.058150493,-0.012101889,0.010659099,-0.58746403,0.46021408,-0.6656495,0.53112566,-0.40133497,-0.74621445,-0.6105667,-0.7919175,-0.008661658,,NaN,NaN,NaN,NaN,NaN,NaN,NaN,NaN,NaN,NaN,NaN,NaN,,0.17103672,1.3200697,0.53922635,0.9903202,-0.01622075,-0.13785066,-0.07698707,-0.8905701,-0.44828323,-0.115494184,0.45455664,-0.8831984,,-0.030956812,0.13184653,-0.11070749,0.65278244,-0.44128254,0.61574733,0.17992519,-0.69924515,-0.6918693,0.7358682,0.5624286,-0.3770571,,NaN,NaN,NaN,NaN,NaN,NaN,NaN,NaN,NaN,NaN,NaN,NaN,,1.2749305247399758,-0.5602147654291202,0.19775422466000003,2.3487370569701573,0.6296209909191496,-0.7976557159222665,-0.1261016190556636,,NaN,NaN,NaN,NaN,NaN,NaN,NaN,,-0.18467328815352002,-0.3220459719164287,0.10864944584,0.03172731264760842
2.075634867011104,13:06:34.444258,13:06:33.288138,0,,0.058578514,-0.013617754,0.0108153075,-0.5974426,0.44637132,-0.66619444,0.5673779,-0.35178682,-0.7445323,-0.56669617,-0.82279927,-0.043088883,,NaN,NaN,NaN,NaN,NaN,NaN,NaN,NaN,NaN,NaN,NaN,NaN,,0.17103672,1.3200697,0.53922635,0.9903202,-0.01622075,-0.13785066,-0.07698707,-0.8905701,-0.44828323,-0.115494184,0.45455664,-0.8831984,,-0.030956812,0.13184653,-0.11070749,0.65278244,-0.44128254,0.61574733,0.17992519,-0.69924515,-0.6918693,0.7358682,0.5624286,-0.3770571,,NaN,NaN,NaN,NaN,NaN,NaN,NaN,NaN,NaN,NaN,NaN,NaN,,1.2749305247399758,-0.5602147654291202,0.19775422466000003,2.3487370569701573,0.6296209909191496,-0.7976557159222665,-0.1261016190556636,,NaN,NaN,NaN,NaN,NaN,NaN,NaN,,-0.18467328815352002,-0.3220459719164287,0.10864944584,0.03172731264760842
2.1071542910067365,13:06:34.466905,13:06:33.288138,0,,0.05857954,-0.0136183165,0.010814935,-0.59743863,0.44637668,-0.6661945,0.567376,-0.3517902,-0.7445322,-0.5667023,-0.8227949,-0.043090552,,NaN,NaN,NaN,NaN,NaN,NaN,NaN,NaN,NaN,NaN,NaN,NaN,,0.17103672,1.3200697,0.53922635,0.9903202,-0.01622075,-0.13785066,-0.07698707,-0.8905701,-0.44828323,-0.115494184,0.45455664,-0.8831984,,-0.030957866,0.1318459,-0.110707395,0.6527785,-0.44128826,0.61574745,0.17992064,-0.6992456,-0.69187003,0.7358728,0.5624235,-0.37705562,,NaN,NaN,NaN,NaN,NaN,NaN,NaN,NaN,NaN,NaN,NaN,NaN,,1.2749228020071017,-0.5602147654291202,0.19775422466000003,2.3487370569701573,0.6296209909191496,-0.7976557159222665,-0.1261016190556636,,NaN,NaN,NaN,NaN,NaN,NaN,NaN,,-0.18467328815352002,-0.3220459719164287,0.10864944584,0.03172731264760842
2.1297657919931225,13:06:34.493845,13:06:33.288138,0,,0.058578514,-0.013617754,0.0108153075,-0.5974426,0.44637132,-0.66619444,0.5673779,-0.35178682,-0.7445323,-0.56669617,-0.82279927,-0.043088883,,NaN,NaN,NaN,NaN,NaN,NaN,NaN,NaN,NaN,NaN,NaN,NaN,,0.17103672,1.3200697,0.53922635,0.9903202,-0.01622075,-0.13785066,-0.07698707,-0.8905701,-0.44828323,-0.115494184,0.45455664,-0.8831984,,-0.030956812,0.13184653,-0.11070749,0.65278244,-0.44128254,0.61574733,0.17992519,-0.69924515,-0.6918693,0.7358682,0.5624286,-0.3770571,,NaN,NaN,NaN,NaN,NaN,NaN,NaN,NaN,NaN,NaN,NaN,NaN,,1.2749305247399758,-0.5602147654291202,0.19775422466000003,2.3487370569701573,0.6296209909191496,-0.7976557159222665,-0.1261016190556636,,NaN,NaN,NaN,NaN,NaN,NaN,NaN,,-0.18467328815352002,-0.3220459719164287,0.10864944584,0.03172731264760842
2.156729158014059,13:06:34.516152,13:06:33.288138,0,,0.058578514,-0.013617754,0.0108153075,-0.5974426,0.44637132,-0.66619444,0.5673779,-0.35178682,-0.7445323,-0.56669617,-0.82279927,-0.043088883,,NaN,NaN,NaN,NaN,NaN,NaN,NaN,NaN,NaN,NaN,NaN,NaN,,0.17103672,1.3200697,0.53922635,0.9903202,-0.01622075,-0.13785066,-0.07698707,-0.8905701,-0.44828323,-0.115494184,0.45455664,-0.8831984,,-0.030956812,0.13184653,-0.11070749,0.65278244,-0.44128254,0.61574733,0.17992519,-0.69924515,-0.6918693,0.7358682,0.5624286,-0.3770571,,NaN,NaN,NaN,NaN,NaN,NaN,NaN,NaN,NaN,NaN,NaN,NaN,,1.2749305247399758,-0.5602147654291202,0.19775422466000003,2.3487370569701573,0.6296209909191496,-0.7976557159222665,-0.1261016190556636,,NaN,NaN,NaN,NaN,NaN,NaN,NaN,,-0.18467328815352002,-0.3220459719164287,0.10864944584,0.03172731264760842
2.1790348459908273,13:06:34.540519,13:06:33.288138,0,,0.058578514,-0.013617754,0.0108153075,-0.5974426,0.44637132,-0.66619444,0.5673779,-0.35178682,-0.7445323,-0.56669617,-0.82279927,-0.043088883,,NaN,NaN,NaN,NaN,NaN,NaN,NaN,NaN,NaN,NaN,NaN,NaN,,0.17103672,1.3200697,0.53922635,0.9903202,-0.01622075,-0.13785066,-0.07698707,-0.8905701,-0.44828323,-0.115494184,0.45455664,-0.8831984,,-0.030956812,0.13184653,-0.11070749,0.65278244,-0.44128254,0.61574733,0.17992519,-0.69924515,-0.6918693,0.7358682,0.5624286,-0.3770571,,NaN,NaN,NaN,NaN,NaN,NaN,NaN,NaN,NaN,NaN,NaN,NaN,,1.2749305247399758,-0.5602147654291202,0.19775422466000003,2.3487370569701573,0.6296209909191496,-0.7976557159222665,-0.1261016190556636,,NaN,NaN,NaN,NaN,NaN,NaN,NaN,,-0.18467328815352002,-0.3220459719164287,0.10864944584,0.03172731264760842
2.203399680001894,13:06:34.563472,13:06:33.288138,0,,0.058578514,-0.013617754,0.0108153075,-0.5974426,0.44637132,-0.66619444,0.5673779,-0.35178682,-0.7445323,-0.56669617,-0.82279927,-0.043088883,,NaN,NaN,NaN,NaN,NaN,NaN,NaN,NaN,NaN,NaN,NaN,NaN,,0.17103672,1.3200697,0.53922635,0.9903202,-0.01622075,-0.13785066,-0.07698707,-0.8905701,-0.44828323,-0.115494184,0.45455664,-0.8831984,,-0.030956812,0.13184653,-0.11070749,0.65278244,-0.44128254,0.61574733,0.17992519,-0.69924515,-0.6918693,0.7358682,0.5624286,-0.3770571,,NaN,NaN,NaN,NaN,NaN,NaN,NaN,NaN,NaN,NaN,NaN,NaN,,1.2749305247399758,-0.5602147654291202,0.19775422466000003,2.3487370569701573,0.6296209909191496,-0.7976557159222665,-0.1261016190556636,,NaN,NaN,NaN,NaN,NaN,NaN,NaN,,-0.18467328815352002,-0.3220459719164287,0.10864944584,0.03172731264760842
2.2263468010060024,13:06:34.594253,13:06:33.431661,0,,0.058568276,-0.01327575,0.010059446,-0.60217786,0.44249564,-0.6645144,0.56474423,-0.35223758,-0.7463194,-0.56431,-0.8246976,-0.03778717,,NaN,NaN,NaN,NaN,NaN,NaN,NaN,NaN,NaN,NaN,NaN,NaN,,0.17103672,1.3200697,0.53922635,0.9903202,-0.01622075,-0.13785066,-0.07698707,-0.8905701,-0.44828323,-0.115494184,0.45455664,-0.8831984,,-0.030956812,0.13184653,-0.11070749,0.65278244,-0.44128254,0.61574733,0.17992519,-0.69924515,-0.6918693,0.7358682,0.5624286,-0.3770571,,NaN,NaN,NaN,NaN,NaN,NaN,NaN,NaN,NaN,NaN,NaN,NaN,,1.2749305247399758,-0.5602147654291202,0.19775422466000003,2.3487370569701573,0.6296209909191496,-0.7976557159222665,-0.1261016190556636,,NaN,NaN,NaN,NaN,NaN,NaN,NaN,,-0.18467328815352002,-0.3220459719164287,0.10864944584,0.03172731264760842
2.2571457650046796,13:06:34.613977,13:06:33.431661,0,,0.058568276,-0.01327575,0.010059446,-0.60217786,0.44249564,-0.6645144,0.56474423,-0.35223758,-0.7463194,-0.56431,-0.8246976,-0.03778717,,NaN,NaN,NaN,NaN,NaN,NaN,NaN,NaN,NaN,NaN,NaN,NaN,,0.17103672,1.3200697,0.53922635,0.9903202,-0.01622075,-0.13785066,-0.07698707,-0.8905701,-0.44828323,-0.115494184,0.45455664,-0.8831984,,-0.030956812,0.13184653,-0.11070749,0.65278244,-0.44128254,0.61574733,0.17992519,-0.69924515,-0.6918693,0.7358682,0.5624286,-0.3770571,,NaN,NaN,NaN,NaN,NaN,NaN,NaN,NaN,NaN,NaN,NaN,NaN,,1.2749305247399758,-0.5602147654291202,0.19775422466000003,2.3487370569701573,0.6296209909191496,-0.7976557159222665,-0.1261016190556636,,NaN,NaN,NaN,NaN,NaN,NaN,NaN,,-0.18467328815352002,-0.3220459719164287,0.10864944584,0.03172731264760842
2.276857946009841,13:06:34.640784,13:06:33.431661,0,,0.058568276,-0.01327575,0.010059446,-0.60217786,0.44249564,-0.6645144,0.56474423,-0.35223758,-0.7463194,-0.56431,-0.8246976,-0.03778717,,NaN,NaN,NaN,NaN,NaN,NaN,NaN,NaN,NaN,NaN,NaN,NaN,,0.17103672,1.3200697,0.53922635,0.9903202,-0.01622075,-0.13785066,-0.07698707,-0.8905701,-0.44828323,-0.115494184,0.45455664,-0.8831984,,-0.030956812,0.13184653,-0.11070749,0.65278244,-0.44128254,0.61574733,0.17992519,-0.69924515,-0.6918693,0.7358682,0.5624286,-0.3770571,,NaN,NaN,NaN,NaN,NaN,NaN,NaN,NaN,NaN,NaN,NaN,NaN,,1.2749305247399758,-0.5602147654291202,0.19775422466000003,2.3487370569701573,0.6296209909191496,-0.7976557159222665,-0.1261016190556636,,NaN,NaN,NaN,NaN,NaN,NaN,NaN,,-0.18467328815352002,-0.3220459719164287,0.10864944584,0.03172731264760842
2.3036622299987357,13:06:34.665432,13:06:33.431661,0,,0.058568276,-0.01327575,0.010059446,-0.60217786,0.44249564,-0.6645144,0.56474423,-0.35223758,-0.7463194,-0.56431,-0.8246976,-0.03778717,,NaN,NaN,NaN,NaN,NaN,NaN,NaN,NaN,NaN,NaN,NaN,NaN,,0.17103672,1.3200697,0.53922635,0.9903202,-0.01622075,-0.13785066,-0.07698707,-0.8905701,-0.44828323,-0.115494184,0.45455664,-0.8831984,,-0.030956812,0.13184653,-0.11070749,0.65278244,-0.44128254,0.61574733,0.17992519,-0.69924515,-0.6918693,0.7358682,0.5624286,-0.3770571,,NaN,NaN,NaN,NaN,NaN,NaN,NaN,NaN,NaN,NaN,NaN,NaN,,1.2749305247399758,-0.5602147654291202,0.19775422466000003,2.3487370569701573,0.6296209909191496,-0.7976557159222665,-0.1261016190556636,,NaN,NaN,NaN,NaN,NaN,NaN,NaN,,-0.18467328815352002,-0.3220459719164287,0.10864944584,0.03172731264760842
2.328301244007889,13:06:34.690511,13:06:33.431661,0,,0.058568276,-0.01327575,0.010059446,-0.60217786,0.44249564,-0.6645144,0.56474423,-0.35223758,-0.7463194,-0.56431,-0.8246976,-0.03778717,,NaN,NaN,NaN,NaN,NaN,NaN,NaN,NaN,NaN,NaN,NaN,NaN,,0.17103672,1.3200697,0.53922635,0.9903202,-0.01622075,-0.13785066,-0.07698707,-0.8905701,-0.44828323,-0.115494184,0.45455664,-0.8831984,,-0.030956812,0.13184653,-0.11070749,0.65278244,-0.44128254,0.61574733,0.17992519,-0.69924515,-0.6918693,0.7358682,0.5624286,-0.3770571,,NaN,NaN,NaN,NaN,NaN,NaN,NaN,NaN,NaN,NaN,NaN,NaN,,1.2749305247399758,-0.5602147654291202,0.19775422466000003,2.3487370569701573,0.6296209909191496,-0.7976557159222665,-0.1261016190556636,,NaN,NaN,NaN,NaN,NaN,NaN,NaN,,-0.18467328815352002,-0.3220459719164287,0.10864944584,0.03172731264760842
2.353364626003895,13:06:34.715170,13:06:33.431661,0,,0.058568276,-0.01327575,0.010059446,-0.60217786,0.44249564,-0.6645144,0.56474423,-0.35223758,-0.7463194,-0.56431,-0.8246976,-0.03778717,,NaN,NaN,NaN,NaN,NaN,NaN,NaN,NaN,NaN,NaN,NaN,NaN,,0.17103672,1.3200697,0.53922635,0.9903202,-0.01622075,-0.13785066,-0.07698707,-0.8905701,-0.44828323,-0.115494184,0.45455664,-0.8831984,,-0.030956812,0.13184653,-0.11070749,0.65278244,-0.44128254,0.61574733,0.17992519,-0.69924515,-0.6918693,0.7358682,0.5624286,-0.3770571,,NaN,NaN,NaN,NaN,NaN,NaN,NaN,NaN,NaN,NaN,NaN,NaN,,1.2749305247399758,-0.5602147654291202,0.19775422466000003,2.3487370569701573,0.6296209909191496,-0.7976557159222665,-0.1261016190556636,,NaN,NaN,NaN,NaN,NaN,NaN,NaN,,-0.18467328815352002,-0.3220459719164287,0.10864944584,0.03172731264760842
2.3780159589950927,13:06:34.740050,13:06:33.431661,0,,0.058568276,-0.01327575,0.010059446,-0.60217786,0.44249564,-0.6645144,0.56474423,-0.35223758,-0.7463194,-0.56431,-0.8246976,-0.03778717,,NaN,NaN,NaN,NaN,NaN,NaN,NaN,NaN,NaN,NaN,NaN,NaN,,0.17103672,1.3200697,0.53922635,0.9903202,-0.01622075,-0.13785066,-0.07698707,-0.8905701,-0.44828323,-0.115494184,0.45455664,-0.8831984,,-0.030956812,0.13184653,-0.11070749,0.65278244,-0.44128254,0.61574733,0.17992519,-0.69924515,-0.6918693,0.7358682,0.5624286,-0.3770571,,NaN,NaN,NaN,NaN,NaN,NaN,NaN,NaN,NaN,NaN,NaN,NaN,,1.2749305247399758,-0.5602147654291202,0.19775422466000003,2.3487370569701573,0.6296209909191496,-0.7976557159222665,-0.1261016190556636,,NaN,NaN,NaN,NaN,NaN,NaN,NaN,,-0.18467328815352002,-0.3220459719164287,0.10864944584,0.03172731264760842
2.402931635006098,13:06:34.766028,13:06:33.594090,0,,0.058623828,-0.013256744,0.009971052,-0.6027361,0.44224158,-0.6641775,0.5647697,-0.35156846,-0.7466156,-0.5636883,-0.8251194,-0.037861675,,NaN,NaN,NaN,NaN,NaN,NaN,NaN,NaN,NaN,NaN,NaN,NaN,,0.17103672,1.3200697,0.53922635,0.9903202,-0.01622075,-0.13785066,-0.07698707,-0.8905701,-0.44828323,-0.115494184,0.45455664,-0.8831984,,-0.030956812,0.13184653,-0.11070749,0.65278244,-0.44128254,0.61574733,0.17992519,-0.69924515,-0.6918693,0.7358682,0.5624286,-0.3770571,,NaN,NaN,NaN,NaN,NaN,NaN,NaN,NaN,NaN,NaN,NaN,NaN,,1.2749305247399758,-0.5602147654291202,0.19775422466000003,2.3487370569701573,0.6296209909191496,-0.7976557159222665,-0.1261016190556636,,NaN,NaN,NaN,NaN,NaN,NaN,NaN,,-0.18467328815352002,-0.3220459719164287,0.10864944584,0.03172731264760842
2.428914330987027,13:06:34.791100,13:06:33.594090,0,,0.058625884,-0.013257854,0.009970307,-0.602728,0.4422524,-0.6641776,0.56476593,-0.35157496,-0.74661523,-0.56370056,-0.8251108,-0.037864983,,NaN,NaN,NaN,NaN,NaN,NaN,NaN,NaN,NaN,NaN,NaN,NaN,,0.17103672,1.3200697,0.53922635,0.9903202,-0.01622075,-0.13785066,-0.07698707,-0.8905701,-0.44828323,-0.115494184,0.45455664,-0.8831984,,-0.03095892,0.1318453,-0.1107073,0.6527745,-0.44129398,0.6157476,0.1799161,-0.69924605,-0.69187075,0.73587745,0.5624185,-0.3770541,,NaN,NaN,NaN,NaN,NaN,NaN,NaN,NaN,NaN,NaN,NaN,NaN,,1.2749150792742274,-0.5602147654291202,0.19775422466000003,2.3487370569701573,0.6296209909191496,-0.7976557159222665,-0.1261016190556636,,NaN,NaN,NaN,NaN,NaN,NaN,NaN,,-0.18467328815352002,-0.3220459719164287,0.10864944584,0.03172731264760842
2.4539780800114386,13:06:34.815128,13:06:33.594090,0,,0.058625884,-0.013257854,0.009970307,-0.602728,0.4422524,-0.6641776,0.56476593,-0.35157496,-0.74661523,-0.56370056,-0.8251108,-0.037864983,,NaN,NaN,NaN,NaN,NaN,NaN,NaN,NaN,NaN,NaN,NaN,NaN,,0.17103672,1.3200697,0.53922635,0.9903202,-0.01622075,-0.13785066,-0.07698707,-0.8905701,-0.44828323,-0.115494184,0.45455664,-0.8831984,,-0.03095892,0.1318453,-0.1107073,0.6527745,-0.44129398,0.6157476,0.1799161,-0.69924605,-0.69187075,0.73587745,0.5624185,-0.3770541,,NaN,NaN,NaN,NaN,NaN,NaN,NaN,NaN,NaN,NaN,NaN,NaN,,1.2749150792742274,-0.5602147654291202,0.19775422466000003,2.3487370569701573,0.6296209909191496,-0.7976557159222665,-0.1261016190556636,,NaN,NaN,NaN,NaN,NaN,NaN,NaN,,-0.18467328815352002,-0.3220459719164287,0.10864944584,0.03172731264760842
2.477986100013368,13:06:34.838182,13:06:33.594090,0,,0.058625884,-0.013257854,0.009970307,-0.602728,0.4422524,-0.6641776,0.56476593,-0.35157496,-0.74661523,-0.56370056,-0.8251108,-0.037864983,,NaN,NaN,NaN,NaN,NaN,NaN,NaN,NaN,NaN,NaN,NaN,NaN,,0.17103672,1.3200697,0.53922635,0.9903202,-0.01622075,-0.13785066,-0.07698707,-0.8905701,-0.44828323,-0.115494184,0.45455664,-0.8831984,,-0.03095892,0.1318453,-0.1107073,0.6527745,-0.44129398,0.6157476,0.1799161,-0.69924605,-0.69187075,0.73587745,0.5624185,-0.3770541,,NaN,NaN,NaN,NaN,NaN,NaN,NaN,NaN,NaN,NaN,NaN,NaN,,1.2749150792742274,-0.5602147654291202,0.19775422466000003,2.3487370569701573,0.6296209909191496,-0.7976557159222665,-0.1261016190556636,,NaN,NaN,NaN,NaN,NaN,NaN,NaN,,-0.18467328815352002,-0.3220459719164287,0.10864944584,0.03172731264760842
2.501027393998811,13:06:34.865322,13:06:33.594090,0,,0.058625884,-0.013257854,0.009970307,-0.602728,0.4422524,-0.6641776,0.56476593,-0.35157496,-0.74661523,-0.56370056,-0.8251108,-0.037864983,,NaN,NaN,NaN,NaN,NaN,NaN,NaN,NaN,NaN,NaN,NaN,NaN,,0.17103672,1.3200697,0.53922635,0.9903202,-0.01622075,-0.13785066,-0.07698707,-0.8905701,-0.44828323,-0.115494184,0.45455664,-0.8831984,,-0.03095892,0.1318453,-0.1107073,0.6527745,-0.44129398,0.6157476,0.1799161,-0.69924605,-0.69187075,0.73587745,0.5624185,-0.3770541,,NaN,NaN,NaN,NaN,NaN,NaN,NaN,NaN,NaN,NaN,NaN,NaN,,1.2749150792742274,-0.5602147654291202,0.19775422466000003,2.3487370569701573,0.6296209909191496,-0.7976557159222665,-0.1261016190556636,,NaN,NaN,NaN,NaN,NaN,NaN,NaN,,-0.18467328815352002,-0.3220459719164287,0.10864944584,0.03172731264760842
2.528190787008498,13:06:34.891472,13:06:33.730631,0,,0.05858018,-0.01273638,0.008574665,-0.6050733,0.43879357,-0.664339,0.56795526,-0.34687215,-0.7463957,-0.5579544,-0.8289391,-0.03933209,,NaN,NaN,NaN,NaN,NaN,NaN,NaN,NaN,NaN,NaN,NaN,NaN,,0.17103672,1.3200697,0.53922635,0.9903202,-0.01622075,-0.13785066,-0.07698707,-0.8905701,-0.44828323,-0.115494184,0.45455664,-0.8831984,,-0.030957654,0.13184653,-0.11070675,0.6529094,-0.4412813,0.61561364,0.17992401,-0.6991384,-0.6919775,0.73575586,0.5625623,-0.37707692,,NaN,NaN,NaN,NaN,NaN,NaN,NaN,NaN,NaN,NaN,NaN,NaN,,1.2749305247399758,-0.5602147654291202,0.19775422466000003,2.348527367026673,0.6296209909191496,-0.7976557159222665,-0.1261016190556636,,NaN,NaN,NaN,NaN,NaN,NaN,NaN,,-0.18467328815352002,-0.3220459719164287,0.10864944584,0.03172731264760842
2.554336658009561,13:06:34.917486,13:06:33.730631,0,,0.05858106,-0.012736041,0.008574039,-0.60520583,0.43880394,-0.66421145,0.5679058,-0.34671274,-0.7465074,-0.55786103,-0.82900023,-0.039366752,,NaN,NaN,NaN,NaN,NaN,NaN,NaN,NaN,NaN,NaN,NaN,NaN,,0.17103672,1.3200697,0.53922635,0.9903202,-0.01622075,-0.13785066,-0.07698707,-0.8905701,-0.44828323,-0.115494184,0.45455664,-0.8831984,,-0.030958496,0.13184655,-0.110706,0.6530363,-0.44128,0.61547995,0.17992282,-0.69903165,-0.6920856,0.7356435,0.5626959,-0.37709668,,NaN,NaN,NaN,NaN,NaN,NaN,NaN,NaN,NaN,NaN,NaN,NaN,,1.2749305247399758,-0.5602147654291202,0.19775422466000003,2.3483176770831884,0.6296209909191496,-0.7976557159222665,-0.1261016190556636,,NaN,NaN,NaN,NaN,NaN,NaN,NaN,,-0.18467328815352002,-0.3220459719164287,0.10864944584,0.03172731264760842
2.580379326012917,13:06:34.941961,13:06:33.730631,0,,0.05858209,-0.012736596,0.008573666,-0.6052019,0.4388094,-0.6642115,0.56790394,-0.34671608,-0.7465073,-0.5578672,-0.82899606,-0.03936839,,NaN,NaN,NaN,NaN,NaN,NaN,NaN,NaN,NaN,NaN,NaN,NaN,,0.17103672,1.3200697,0.53922635,0.9903202,-0.01622075,-0.13785066,-0.07698707,-0.8905701,-0.44828323,-0.115494184,0.45455664,-0.8831984,,-0.030959548,0.13184592,-0.110705905,0.6530323,-0.44128573,0.61548007,0.17991827,-0.6990321,-0.69208634,0.73564816,0.56269085,-0.3770952,,NaN,NaN,NaN,NaN,NaN,NaN,NaN,NaN,NaN,NaN,NaN,NaN,,1.2749228020071017,-0.5602147654291202,0.19775422466000003,2.3483176770831884,0.6296209909191496,-0.7976557159222665,-0.1261016190556636,,NaN,NaN,NaN,NaN,NaN,NaN,NaN,,-0.18467328815352002,-0.3220459719164287,0.10864944584,0.03172731264760842
2.6048491790133994,13:06:34.966150,13:06:33.730631,0,,0.05858106,-0.012736041,0.008574039,-0.60520583,0.43880394,-0.66421145,0.5679058,-0.34671274,-0.7465074,-0.55786103,-0.82900023,-0.039366752,,NaN,NaN,NaN,NaN,NaN,NaN,NaN,NaN,NaN,NaN,NaN,NaN,,0.17103672,1.3200697,0.53922635,0.9903202,-0.01622075,-0.13785066,-0.07698707,-0.8905701,-0.44828323,-0.115494184,0.45455664,-0.8831984,,-0.030958496,0.13184655,-0.110706,0.6530363,-0.44128,0.61547995,0.17992282,-0.69903165,-0.6920856,0.7356435,0.5626959,-0.37709668,,NaN,NaN,NaN,NaN,NaN,NaN,NaN,NaN,NaN,NaN,NaN,NaN,,1.2749305247399758,-0.5602147654291202,0.19775422466000003,2.3483176770831884,0.6296209909191496,-0.7976557159222665,-0.1261016190556636,,NaN,NaN,NaN,NaN,NaN,NaN,NaN,,-0.18467328815352002,-0.3220459719164287,0.10864944584,0.03172731264760842
2.6290397880075034,13:06:34.993349,13:06:33.730631,0,,0.058574304,-0.012724735,0.00857833,-0.60522133,0.43879607,-0.66420263,0.5678955,-0.346711,-0.7465159,-0.5578548,-0.8290051,-0.03935337,,NaN,NaN,NaN,NaN,NaN,NaN,NaN,NaN,NaN,NaN,NaN,NaN,,0.17107211,1.320067,0.5392273,0.99031705,-0.016256806,-0.1378688,-0.077027164,-0.89056945,-0.44827765,-0.115494184,0.45455664,-0.8831984,,-0.030951124,0.13185816,-0.110704355,0.6530509,-0.44127193,0.61547023,0.17991646,-0.699033,-0.69208586,0.7356321,0.5627005,-0.37711206,,NaN,NaN,NaN,NaN,NaN,NaN,NaN,NaN,NaN,NaN,NaN,NaN,,1.2749305247399758,-0.5602147654291202,0.19775422466000003,2.3483176770831884,0.6296209909191496,-0.7976557159222665,-0.1261016190556636,,NaN,NaN,NaN,NaN,NaN,NaN,NaN,,-0.18467328815352002,-0.3220459719164287,0.10864944584,0.03172731264760842
2.656207580002956,13:06:35.015956,13:06:33.730631,0,,0.05857533,-0.012725286,0.008577973,-0.6052173,0.43880153,-0.6642027,0.5678936,-0.34671438,-0.74651587,-0.557861,-0.8290009,-0.03935507,,NaN,NaN,NaN,NaN,NaN,NaN,NaN,NaN,NaN,NaN,NaN,NaN,,0.17107211,1.320067,0.5392273,0.99031705,-0.016256806,-0.1378688,-0.077027164,-0.89056945,-0.44827765,-0.115494184,0.45455664,-0.8831984,,-0.030952176,0.13185754,-0.110704266,0.6530469,-0.44127765,0.61547035,0.17991191,-0.6990335,-0.6920866,0.7356368,0.5626955,-0.37711057,,NaN,NaN,NaN,NaN,NaN,NaN,NaN,NaN,NaN,NaN,NaN,NaN,,1.2749228020071017,-0.5602147654291202,0.19775422466000003,2.3483176770831884,0.6296209909191496,-0.7976557159222665,-0.1261016190556636,,NaN,NaN,NaN,NaN,NaN,NaN,NaN,,-0.18467328815352002,-0.3220459719164287,0.10864944584,0.03172731264760842
2.6788086779997684,13:06:35.041780,13:06:33.868764,0,,0.05859278,-0.012554787,0.0080836415,-0.6100569,0.43364134,-0.6631634,0.5653739,-0.3481555,-0.7477566,-0.5551422,-0.8311094,-0.032774836,,NaN,NaN,NaN,NaN,NaN,NaN,NaN,NaN,NaN,NaN,NaN,NaN,,0.17107211,1.320067,0.5392273,0.99031705,-0.016256806,-0.1378688,-0.077027164,-0.89056945,-0.44827765,-0.115494184,0.45455664,-0.8831984,,-0.030951124,0.13185816,-0.110704355,0.6530509,-0.44127193,0.61547023,0.17991646,-0.699033,-0.69208586,0.7356321,0.5627005,-0.37711206,,NaN,NaN,NaN,NaN,NaN,NaN,NaN,NaN,NaN,NaN,NaN,NaN,,1.2749305247399758,-0.5602147654291202,0.19775422466000003,2.3483176770831884,0.6296209909191496,-0.7976557159222665,-0.1261016190556636,,NaN,NaN,NaN,NaN,NaN,NaN,NaN,,-0.18467328815352002,-0.3220459719164287,0.10864944584,0.03172731264760842
2.7046751489979215,13:06:35.063884,13:06:33.868764,0,,0.05859278,-0.012554787,0.0080836415,-0.6100569,0.43364134,-0.6631634,0.5653739,-0.3481555,-0.7477566,-0.5551422,-0.8311094,-0.032774836,,NaN,NaN,NaN,NaN,NaN,NaN,NaN,NaN,NaN,NaN,NaN,NaN,,0.17107211,1.320067,0.5392273,0.99031705,-0.016256806,-0.1378688,-0.077027164,-0.89056945,-0.44827765,-0.115494184,0.45455664,-0.8831984,,-0.030951124,0.13185816,-0.110704355,0.6530509,-0.44127193,0.61547023,0.17991646,-0.699033,-0.69208586,0.7356321,0.5627005,-0.37711206,,NaN,NaN,NaN,NaN,NaN,NaN,NaN,NaN,NaN,NaN,NaN,NaN,,1.2749305247399758,-0.5602147654291202,0.19775422466000003,2.3483176770831884,0.6296209909191496,-0.7976557159222665,-0.1261016190556636,,NaN,NaN,NaN,NaN,NaN,NaN,NaN,,-0.18467328815352002,-0.3220459719164287,0.10864944584,0.03172731264760842
2.726724361011293,13:06:35.089665,13:06:33.868764,0,,0.05859278,-0.012554787,0.0080836415,-0.6100569,0.43364134,-0.6631634,0.5653739,-0.3481555,-0.7477566,-0.5551422,-0.8311094,-0.032774836,,NaN,NaN,NaN,NaN,NaN,NaN,NaN,NaN,NaN,NaN,NaN,NaN,,0.17107211,1.320067,0.5392273,0.99031705,-0.016256806,-0.1378688,-0.077027164,-0.89056945,-0.44827765,-0.115494184,0.45455664,-0.8831984,,-0.030951124,0.13185816,-0.110704355,0.6530509,-0.44127193,0.61547023,0.17991646,-0.699033,-0.69208586,0.7356321,0.5627005,-0.37711206,,NaN,NaN,NaN,NaN,NaN,NaN,NaN,NaN,NaN,NaN,NaN,NaN,,1.2749305247399758,-0.5602147654291202,0.19775422466000003,2.3483176770831884,0.6296209909191496,-0.7976557159222665,-0.1261016190556636,,NaN,NaN,NaN,NaN,NaN,NaN,NaN,,-0.18467328815352002,-0.3220459719164287,0.10864944584,0.03172731264760842
2.7524710849975236,13:06:35.116392,13:06:33.868764,0,,0.05859278,-0.012554787,0.0080836415,-0.6100569,0.43364134,-0.6631634,0.5653739,-0.3481555,-0.7477566,-0.5551422,-0.8311094,-0.032774836,,NaN,NaN,NaN,NaN,NaN,NaN,NaN,NaN,NaN,NaN,NaN,NaN,,0.17107211,1.320067,0.5392273,0.99031705,-0.016256806,-0.1378688,-0.077027164,-0.89056945,-0.44827765,-0.115494184,0.45455664,-0.8831984,,-0.030951124,0.13185816,-0.110704355,0.6530509,-0.44127193,0.61547023,0.17991646,-0.699033,-0.69208586,0.7356321,0.5627005,-0.37711206,,NaN,NaN,NaN,NaN,NaN,NaN,NaN,NaN,NaN,NaN,NaN,NaN,,1.2749305247399758,-0.5602147654291202,0.19775422466000003,2.3483176770831884,0.6296209909191496,-0.7976557159222665,-0.1261016190556636,,NaN,NaN,NaN,NaN,NaN,NaN,NaN,,-0.18467328815352002,-0.3220459719164287,0.10864944584,0.03172731264760842
2.779266710014781,13:06:35.142664,13:06:33.868764,0,,0.05859278,-0.012554787,0.0080836415,-0.6100569,0.43364134,-0.6631634,0.5653739,-0.3481555,-0.7477566,-0.5551422,-0.8311094,-0.032774836,,NaN,NaN,NaN,NaN,NaN,NaN,NaN,NaN,NaN,NaN,NaN,NaN,,0.17107211,1.320067,0.5392273,0.99031705,-0.016256806,-0.1378688,-0.077027164,-0.89056945,-0.44827765,-0.115494184,0.45455664,-0.8831984,,-0.030951124,0.13185816,-0.110704355,0.6530509,-0.44127193,0.61547023,0.17991646,-0.699033,-0.69208586,0.7356321,0.5627005,-0.37711206,,NaN,NaN,NaN,NaN,NaN,NaN,NaN,NaN,NaN,NaN,NaN,NaN,,1.2749305247399758,-0.5602147654291202,0.19775422466000003,2.3483176770831884,0.6296209909191496,-0.7976557159222665,-0.1261016190556636,,NaN,NaN,NaN,NaN,NaN,NaN,NaN,,-0.18467328815352002,-0.3220459719164287,0.10864944584,0.03172731264760842
2.805504195013782,13:06:35.163871,13:06:33.868764,0,,0.05859278,-0.012554787,0.0080836415,-0.6100569,0.43364134,-0.6631634,0.5653739,-0.3481555,-0.7477566,-0.5551422,-0.8311094,-0.032774836,,NaN,NaN,NaN,NaN,NaN,NaN,NaN,NaN,NaN,NaN,NaN,NaN,,0.17107211,1.320067,0.5392273,0.99031705,-0.016256806,-0.1378688,-0.077027164,-0.89056945,-0.44827765,-0.115494184,0.45455664,-0.8831984,,-0.030951124,0.13185816,-0.110704355,0.6530509,-0.44127193,0.61547023,0.17991646,-0.699033,-0.69208586,0.7356321,0.5627005,-0.37711206,,NaN,NaN,NaN,NaN,NaN,NaN,NaN,NaN,NaN,NaN,NaN,NaN,,1.2749305247399758,-0.5602147654291202,0.19775422466000003,2.3483176770831884,0.6296209909191496,-0.7976557159222665,-0.1261016190556636,,NaN,NaN,NaN,NaN,NaN,NaN,NaN,,-0.18467328815352002,-0.3220459719164287,0.10864944584,0.03172731264760842
2.8267457300098613,13:06:35.193209,13:06:34.020868,0,,0.058567606,-0.01268715,0.008390218,-0.60504574,0.43817782,-0.6647707,0.5687466,-0.34643283,-0.74599695,-0.55717766,-0.82944834,-0.039604425,,NaN,NaN,NaN,NaN,NaN,NaN,NaN,NaN,NaN,NaN,NaN,NaN,,0.17107211,1.320067,0.5392273,0.99031705,-0.016256806,-0.1378688,-0.077027164,-0.89056945,-0.44827765,-0.115494184,0.45455664,-0.8831984,,-0.03095323,0.13185693,-0.11070417,0.653043,-0.44128338,0.61547047,0.17990738,-0.699034,-0.6920873,0.73564136,0.56269044,-0.37710908,,NaN,NaN,NaN,NaN,NaN,NaN,NaN,NaN,NaN,NaN,NaN,NaN,,1.2749150792742274,-0.5602147654291202,0.19775422466000003,2.3483176770831884,0.6296209909191496,-0.7976557159222665,-0.1261016190556636,,NaN,NaN,NaN,NaN,NaN,NaN,NaN,,-0.18467328815352002,-0.3220459719164287,0.10864944584,0.03172731264760842
2.8560717740037944,13:06:35.215149,13:06:34.020868,0,,0.058566578,-0.0126866065,0.008390576,-0.60504967,0.4381724,-0.6647706,0.5687485,-0.34642944,-0.74599713,-0.55717146,-0.8294526,-0.039602786,,NaN,NaN,NaN,NaN,NaN,NaN,NaN,NaN,NaN,NaN,NaN,NaN,,0.17107211,1.320067,0.5392273,0.99031705,-0.016256806,-0.1378688,-0.077027164,-0.89056945,-0.44827765,-0.115494184,0.45455664,-0.8831984,,-0.030952176,0.13185754,-0.110704266,0.6530469,-0.44127765,0.61547035,0.17991191,-0.6990335,-0.6920866,0.7356368,0.5626955,-0.37711057,,NaN,NaN,NaN,NaN,NaN,NaN,NaN,NaN,NaN,NaN,NaN,NaN,,1.2749228020071017,-0.5602147654291202,0.19775422466000003,2.3483176770831884,0.6296209909191496,-0.7976557159222665,-0.1261016190556636,,NaN,NaN,NaN,NaN,NaN,NaN,NaN,,-0.18467328815352002,-0.3220459719164287,0.10864944584,0.03172731264760842
2.8779901750094723,13:06:35.240390,13:06:34.020868,0,,0.05856555,-0.012686048,0.008390933,-0.6050537,0.43816698,-0.66477054,0.5687503,-0.34642616,-0.7459972,-0.55716527,-0.8294568,-0.039601147,,NaN,NaN,NaN,NaN,NaN,NaN,NaN,NaN,NaN,NaN,NaN,NaN,,0.17107211,1.320067,0.5392273,0.99031705,-0.016256806,-0.1378688,-0.077027164,-0.89056945,-0.44827765,-0.115494184,0.45455664,-0.8831984,,-0.030951124,0.13185816,-0.110704355,0.6530509,-0.44127193,0.61547023,0.17991646,-0.699033,-0.69208586,0.7356321,0.5627005,-0.37711206,,NaN,NaN,NaN,NaN,NaN,NaN,NaN,NaN,NaN,NaN,NaN,NaN,,1.2749305247399758,-0.5602147654291202,0.19775422466000003,2.3483176770831884,0.6296209909191496,-0.7976557159222665,-0.1261016190556636,,NaN,NaN,NaN,NaN,NaN,NaN,NaN,,-0.18467328815352002,-0.3220459719164287,0.10864944584,0.03172731264760842
2.9032540479965974,13:06:35.264810,13:06:34.020868,0,,0.05856555,-0.012686048,0.008390933,-0.6050537,0.43816698,-0.66477054,0.5687503,-0.34642616,-0.7459972,-0.55716527,-0.8294568,-0.039601147,,NaN,NaN,NaN,NaN,NaN,NaN,NaN,NaN,NaN,NaN,NaN,NaN,,0.17107211,1.320067,0.5392273,0.99031705,-0.016256806,-0.1378688,-0.077027164,-0.89056945,-0.44827765,-0.115494184,0.45455664,-0.8831984,,-0.030951124,0.13185816,-0.110704355,0.6530509,-0.44127193,0.61547023,0.17991646,-0.699033,-0.69208586,0.7356321,0.5627005,-0.37711206,,NaN,NaN,NaN,NaN,NaN,NaN,NaN,NaN,NaN,NaN,NaN,NaN,,1.2749305247399758,-0.5602147654291202,0.19775422466000003,2.3483176770831884,0.6296209909191496,-0.7976557159222665,-0.1261016190556636,,NaN,NaN,NaN,NaN,NaN,NaN,NaN,,-0.18467328815352002,-0.3220459719164287,0.10864944584,0.03172731264760842
2.9276436690124683,13:06:35.287954,13:06:34.020868,0,,0.058566578,-0.0126866065,0.008390576,-0.60504967,0.4381724,-0.6647706,0.5687485,-0.34642944,-0.74599713,-0.55717146,-0.8294526,-0.039602786,,NaN,NaN,NaN,NaN,NaN,NaN,NaN,NaN,NaN,NaN,NaN,NaN,,0.17107211,1.320067,0.5392273,0.99031705,-0.016256806,-0.1378688,-0.077027164,-0.89056945,-0.44827765,-0.115494184,0.45455664,-0.8831984,,-0.030952176,0.13185754,-0.110704266,0.6530469,-0.44127765,0.61547035,0.17991191,-0.6990335,-0.6920866,0.7356368,0.5626955,-0.37711057,,NaN,NaN,NaN,NaN,NaN,NaN,NaN,NaN,NaN,NaN,NaN,NaN,,1.2749228020071017,-0.5602147654291202,0.19775422466000003,2.3483176770831884,0.6296209909191496,-0.7976557159222665,-0.1261016190556636,,NaN,NaN,NaN,NaN,NaN,NaN,NaN,,-0.18467328815352002,-0.3220459719164287,0.10864944584,0.03172731264760842
2.9508052929886617,13:06:35.317099,13:06:34.153978,0,,0.058591235,-0.011711918,0.006510645,-0.61321926,0.4291447,-0.66317195,0.5655905,-0.3475354,-0.7478813,-0.5514251,-0.8336989,-0.029604733,,NaN,NaN,NaN,NaN,NaN,NaN,NaN,NaN,NaN,NaN,NaN,NaN,,0.17107211,1.320067,0.5392273,0.99031705,-0.016256806,-0.1378688,-0.077027164,-0.89056945,-0.44827765,-0.115494184,0.45455664,-0.8831984,,-0.030951124,0.13185816,-0.110704355,0.6530509,-0.44127193,0.61547023,0.17991646,-0.699033,-0.69208586,0.7356321,0.5627005,-0.37711206,,NaN,NaN,NaN,NaN,NaN,NaN,NaN,NaN,NaN,NaN,NaN,NaN,,1.2749305247399758,-0.5602147654291202,0.19775422466000003,2.3483176770831884,0.6296209909191496,-0.7976557159222665,-0.1261016190556636,,NaN,NaN,NaN,NaN,NaN,NaN,NaN,,-0.18467328815352002,-0.3220459719164287,0.10864944584,0.03172731264760842
2.9799892680021003,13:06:35.340831,13:06:34.153978,0,,0.05859226,-0.011712458,0.0065102577,-0.61321527,0.4291502,-0.66317207,0.56558865,-0.3475387,-0.7478812,-0.55143136,-0.8336948,-0.029606372,,NaN,NaN,NaN,NaN,NaN,NaN,NaN,NaN,NaN,NaN,NaN,NaN,,0.17107211,1.320067,0.5392273,0.99031705,-0.016256806,-0.1378688,-0.077027164,-0.89056945,-0.44827765,-0.115494184,0.45455664,-0.8831984,,-0.030952176,0.13185754,-0.110704266,0.6530469,-0.44127765,0.61547035,0.17991191,-0.6990335,-0.6920866,0.7356368,0.5626955,-0.37711057,,NaN,NaN,NaN,NaN,NaN,NaN,NaN,NaN,NaN,NaN,NaN,NaN,,1.2749228020071017,-0.5602147654291202,0.19775422466000003,2.3483176770831884,0.6296209909191496,-0.7976557159222665,-0.1261016190556636,,NaN,NaN,NaN,NaN,NaN,NaN,NaN,,-0.18467328815352002,-0.3220459719164287,0.10864944584,0.03172731264760842
3.003703450987814,13:06:35.368624,13:06:34.153978,0,,0.058591235,-0.011711918,0.006510645,-0.61321926,0.4291447,-0.66317195,0.5655905,-0.3475354,-0.7478813,-0.5514251,-0.8336989,-0.029604733,,NaN,NaN,NaN,NaN,NaN,NaN,NaN,NaN,NaN,NaN,NaN,NaN,,0.17107211,1.320067,0.5392273,0.99031705,-0.016256806,-0.1378688,-0.077027164,-0.89056945,-0.44827765,-0.115494184,0.45455664,-0.8831984,,-0.030951124,0.13185816,-0.110704355,0.6530509,-0.44127193,0.61547023,0.17991646,-0.699033,-0.69208586,0.7356321,0.5627005,-0.37711206,,NaN,NaN,NaN,NaN,NaN,NaN,NaN,NaN,NaN,NaN,NaN,NaN,,1.2749305247399758,-0.5602147654291202,0.19775422466000003,2.3483176770831884,0.6296209909191496,-0.7976557159222665,-0.1261016190556636,,NaN,NaN,NaN,NaN,NaN,NaN,NaN,,-0.18467328815352002,-0.3220459719164287,0.10864944584,0.03172731264760842
3.0315103809989523,13:06:35.394992,13:06:34.153978,0,,0.058592,-0.011712622,0.0065113306,-0.61324054,0.4291308,-0.6631612,0.5654851,-0.34767404,-0.74789655,-0.55150944,-0.8336483,-0.029459238,,NaN,NaN,NaN,NaN,NaN,NaN,NaN,NaN,NaN,NaN,NaN,NaN,,0.17107211,1.320067,0.5392273,0.99031705,-0.016256806,-0.1378688,-0.077027164,-0.89056945,-0.44827765,-0.115494184,0.45455664,-0.8831984,,-0.030951936,0.13185793,-0.11070527,0.65306646,-0.44126722,0.61545706,0.17978206,-0.69912773,-0.6920252,0.73565114,0.56258655,-0.37724495,,NaN,NaN,NaN,NaN,NaN,NaN,NaN,NaN,NaN,NaN,NaN,NaN,,1.2749305247399758,-0.5602147654291202,0.19775422466000003,2.3483176770831884,0.6297576274189151,-0.7977671338259629,-0.1261016190556636,,NaN,NaN,NaN,NaN,NaN,NaN,NaN,,-0.18467328815352002,-0.3220459719164287,0.10864944584,0.03172731264760842
3.0578560110006947,13:06:35.415521,13:06:34.153978,0,,0.058593784,-0.01171387,0.0065116286,-0.61325794,0.42912236,-0.6631507,0.56537795,-0.347816,-0.74791163,-0.55160004,-0.8335935,-0.029315412,,NaN,NaN,NaN,NaN,NaN,NaN,NaN,NaN,NaN,NaN,NaN,NaN,,0.17107211,1.320067,0.5392273,0.99031705,-0.016256806,-0.1378688,-0.077027164,-0.89056945,-0.44827765,-0.115494184,0.45455664,-0.8831984,,-0.0309538,0.1318571,-0.11070609,0.6530781,-0.44126824,0.61544406,0.17964311,-0.69922286,-0.6919651,0.7356748,0.5624675,-0.37737632,,NaN,NaN,NaN,NaN,NaN,NaN,NaN,NaN,NaN,NaN,NaN,NaN,,1.2749228020071017,-0.5602147654291202,0.19775422466000003,2.3483176770831884,0.6298942639186805,-0.7978785517296594,-0.1261016190556636,,NaN,NaN,NaN,NaN,NaN,NaN,NaN,,-0.18467328815352002,-0.3220459719164287,0.10864944584,0.03172731264760842
3.078409529000055,13:06:35.442662,13:06:34.153978,0,,0.05859276,-0.011713322,0.006512001,-0.6132618,0.4291169,-0.6631506,0.56537974,-0.34781274,-0.7479118,-0.5515938,-0.83359766,-0.029313684,,NaN,NaN,NaN,NaN,NaN,NaN,NaN,NaN,NaN,NaN,NaN,NaN,,0.17107211,1.320067,0.5392273,0.99031705,-0.016256806,-0.1378688,-0.077027164,-0.89056945,-0.44827765,-0.115494184,0.45455664,-0.8831984,,-0.030952748,0.13185771,-0.11070619,0.653082,-0.4412625,0.61544394,0.17964765,-0.69922245,-0.6919644,0.73567015,0.5624726,-0.3773778,,NaN,NaN,NaN,NaN,NaN,NaN,NaN,NaN,NaN,NaN,NaN,NaN,,1.2749305247399758,-0.5602147654291202,0.19775422466000003,2.3483176770831884,0.6298942639186805,-0.7978785517296594,-0.1261016190556636,,NaN,NaN,NaN,NaN,NaN,NaN,NaN,,-0.18467328815352002,-0.3220459719164287,0.10864944584,0.03172731264760842
