AlexandreBanks6/ExpertPlaybackApp/resources/Motions/PC1/Data_PC1_38.csv
Task Time,PC1 Time,PC2 Time,Gaze Calib,s_T_psm1,Tx,Ty,Tz,R00,R01,R02,R10,R11,R12,R20,R21,R22,s_T_psm3,Tx,Ty,Tz,R00,R01,R02,R10,R11,R12,R20,R21,R22,cart_T_ecm,Tx,Ty,Tz,R00,R01,R02,R10,R11,R12,R20,R21,R22,ecm_T_psm1,Tx,Ty,Tz,R00,R01,R02,R10,R11,R12,R20,R21,R22,ecm_T_psm3,Tx,Ty,Tz,R00,R01,R02,R10,R11,R12,R20,R21,R22,psm1_joints,q1,q2,q3,q4,q5,q6,jaw,psm3_joints,q1,q2,q3,q4,q5,q6,jaw,ecm_joints,q1,q2,q3,q4,ecmi_T_ecm,Tx,Ty,Tz,R00,R01,R02,R10,R11,R12,R20,R21,R22,Sample #,Task Duration (s),Collisions (binary),Collisions (increments),Cumulative Collision Time (s),Clutch Press,MTMR Angle,MTML Angle
""
lci_T_si,,,,,-0.06911255,0.020764593,0.26076955,0.9953428,0.0400677,0.08767717,0.08684432,-0.7674894,-0.63515204,0.041842222,0.6398083,-0.76739466
rci_T_si,,,,,-0.07835912,0.026536781,0.2722765,0.9955334,0.015615062,0.093109466,0.07183176,-0.76526916,-0.63969004,0.061265003,0.643521,-0.76297265
ecm_T_lc,,,,,-4.4061628e-05,-0.00034663224,-0.01840835,-0.99912,0.030754527,0.028518902,-0.031987965,-0.99852574,-0.043852776,0.027128186,-0.04472645,0.9986309
ecm_T_rc,,,,,-0.0043358393,0.01870579,-0.007592615,-0.99555075,-0.052743673,-0.078081585,0.04863213,-0.9973746,0.053654674,-0.08070653,0.04961868,0.9955021
cart_T_ecmi,,,,,0.08746113,1.3322496,0.46482307,0.99604315,0.0028804142,-0.08882411,-0.053876545,-0.77529705,-0.6292947,-0.0706777,0.63159025,-0.7720741
ecmac_T_ecmrep_psm1,,,,,0.08626859,-0.2052861,-0.33370098,0.999004,0.025128257,0.036871605,-0.023534218,0.9987958,-0.04304718,-0.037908904,0.04213656,0.9983924
ecmac_T_ecmrep_psm3,,,,,-0.16209933,-0.49188918,-0.56672233,0.99379694,-0.09876928,0.05111077,0.087427974,0.9779163,0.18983154,-0.068731576,-0.18418549,0.98048544
""
0,11:41:00.005167,NaN,0,,0.0068935463,0.011713229,0.07084869,-0.6359156,-0.16638896,-0.7536085,-0.48161063,0.8485707,0.21904057,0.6030444,0.5022372,-0.6197542,,0.15393418,-0.034173295,0.04610157,-0.62507576,-0.17880523,0.7598086,0.22233677,0.8923002,0.39289537,-0.7482291,0.41452268,-0.51800025,,0.0874437,1.3322517,0.46482038,0.99604225,0.0028675622,-0.08883454,-0.053893056,-0.77529705,-0.62929326,-0.0706777,0.63159025,-0.7720741,,-0.04877949,0.24909405,-0.1253582,0.60658896,0.07941943,0.7910388,0.074258864,0.9849878,-0.1558353,-0.79153997,0.15326962,0.5915851,,0.04475451,0.4316148,-0.37377307,0.692559,-0.018184623,-0.721132,-0.3244759,0.8849871,-0.33393595,0.644265,0.4652603,0.6070053,,0.8265332085967524,-0.35657402226869406,0.16341420627000003,0.6389252577973457,-0.24239315058389135,0.5034605642437167,0.8722573131570512,,-0.6686110440517353,-0.5506617448637044,0.14974482822000001,2.137369593937757,0.35785099288568856,0.6492989541186304,0.8755241944797366,,-0.06956664232292899,-0.09922196797587764,0.1150502548,-0.034016912529394594,,-1.7281622e-05,-3.2782555e-06,2.3841858e-06,1.0,-1.28000975e-05,-1.0468066e-05,1.2796372e-05,1.0,-1.1622906e-06,1.0468066e-05,1.1026859e-06,1.0,1,0.003,0,0,0.0,False,1.0468996424166788,1.0499012289649627
0.02316485900155385,11:41:00.028027,NaN,0,,0.0068935463,0.011713229,0.07084869,-0.6359156,-0.16638896,-0.7536085,-0.48161063,0.8485707,0.21904057,0.6030444,0.5022372,-0.6197542,,0.15393418,-0.034173295,0.04610157,-0.62507576,-0.17880523,0.7598086,0.22233677,0.8923002,0.39289537,-0.7482291,0.41452268,-0.51800025,,0.0874437,1.3322517,0.46482038,0.99604225,0.0028675622,-0.08883454,-0.053893056,-0.77529705,-0.62929326,-0.0706777,0.63159025,-0.7720741,,-0.04877949,0.24909405,-0.1253582,0.60658896,0.07941943,0.7910388,0.074258864,0.9849878,-0.1558353,-0.79153997,0.15326962,0.5915851,,0.04475451,0.4316148,-0.37377307,0.692559,-0.018184623,-0.721132,-0.3244759,0.8849871,-0.33393595,0.644265,0.4652603,0.6070053,,0.8265332085967524,-0.35657402226869406,0.16341420627000003,0.6389252577973457,-0.24239315058389135,0.5034605642437167,0.8722573131570512,,-0.6686110440517353,-0.5506617448637044,0.14974482822000001,2.137369593937757,0.35785099288568856,0.6492989541186304,0.8755241944797366,,-0.06956664232292899,-0.09922196797587764,0.1150502548,-0.034016912529394594,,-1.7281622e-05,-3.2782555e-06,2.3841858e-06,1.0,-1.28000975e-05,-1.0468066e-05,1.2796372e-05,1.0,-1.1622906e-06,1.0468066e-05,1.1026859e-06,1.0,9,0.027,0,0,0.0,False,1.0463634429499895,1.0499495091657423
0.046046844001466525,11:41:00.052091,NaN,0,,0.006892576,0.011713654,0.070849076,-0.63591105,-0.16638611,-0.75361305,-0.48161313,0.8485689,0.2190421,0.6030472,0.50224125,-0.61974823,,0.15393418,-0.034173295,0.04610157,-0.62507576,-0.17880523,0.7598086,0.22233677,0.8923002,0.39289537,-0.7482291,0.41452268,-0.51800025,,0.0874437,1.3322517,0.46482038,0.99604225,0.0028675622,-0.08883454,-0.053893056,-0.77529705,-0.62929326,-0.0706777,0.63159025,-0.7720741,,-0.048778582,0.24909472,-0.12535825,0.6065843,0.07941635,0.7910427,0.07425834,0.9849887,-0.15582997,-0.79154354,0.15326554,0.59158134,,0.04475451,0.4316148,-0.37377307,0.692559,-0.018184623,-0.721132,-0.3244759,0.8849871,-0.33393595,0.644265,0.4652603,0.6070053,,0.8265409313296266,-0.35657402226869406,0.16341420627000003,0.6389252577973457,-0.24239315058389135,0.5034605642437167,0.8722573131570512,,-0.6686110440517353,-0.5506617448637044,0.14974482822000001,2.137369593937757,0.35785099288568856,0.6492989541186304,0.8755241944797366,,-0.06956664232292899,-0.09922196797587764,0.1150502548,-0.034016912529394594,,-1.7281622e-05,-3.2782555e-06,2.3841858e-06,1.0,-1.28000975e-05,-1.0468066e-05,1.2796372e-05,1.0,-1.1622906e-06,1.0468066e-05,1.1026859e-06,1.0,20,0.059,0,0,0.0,False,1.0467209092611154,1.0499977893665218
0.07005914500041399,11:41:00.086375,NaN,0,,0.0068935463,0.011713229,0.07084869,-0.6359156,-0.16638896,-0.7536085,-0.48161063,0.8485707,0.21904057,0.6030444,0.5022372,-0.6197542,,0.15393418,-0.034173295,0.04610157,-0.62507576,-0.17880523,0.7598086,0.22233677,0.8923002,0.39289537,-0.7482291,0.41452268,-0.51800025,,0.0874437,1.3322517,0.46482038,0.99604225,0.0028675622,-0.08883454,-0.053893056,-0.77529705,-0.62929326,-0.0706777,0.63159025,-0.7720741,,-0.04877949,0.24909405,-0.1253582,0.60658896,0.07941943,0.7910388,0.074258864,0.9849878,-0.1558353,-0.79153997,0.15326962,0.5915851,,0.04475451,0.4316148,-0.37377307,0.692559,-0.018184623,-0.721132,-0.3244759,0.8849871,-0.33393595,0.644265,0.4652603,0.6070053,,0.8265332085967524,-0.35657402226869406,0.16341420627000003,0.6389252577973457,-0.24239315058389135,0.5034605642437167,0.8722573131570512,,-0.6686110440517353,-0.5506617448637044,0.14974482822000001,2.137369593937757,0.35785099288568856,0.6492989541186304,0.8755241944797366,,-0.06956664232292899,-0.09922196797587764,0.1150502548,-0.034016912529394594,,-1.7281622e-05,-3.2782555e-06,2.3841858e-06,1.0,-1.28000975e-05,-1.0468066e-05,1.2796372e-05,1.0,-1.1622906e-06,1.0468066e-05,1.1026859e-06,1.0,28,0.084,0,0,0.0,False,1.0468996424166788,1.0499495091657423
0.10440108200054965,11:41:00.113628,NaN,0,,0.0068935463,0.011713229,0.07084869,-0.6359156,-0.16638896,-0.7536085,-0.48161063,0.8485707,0.21904057,0.6030444,0.5022372,-0.6197542,,0.15393418,-0.034173295,0.04610157,-0.62507576,-0.17880523,0.7598086,0.22233677,0.8923002,0.39289537,-0.7482291,0.41452268,-0.51800025,,0.0874437,1.3322517,0.46482038,0.99604225,0.0028675622,-0.08883454,-0.053893056,-0.77529705,-0.62929326,-0.0706777,0.63159025,-0.7720741,,-0.04877949,0.24909405,-0.1253582,0.60658896,0.07941943,0.7910388,0.074258864,0.9849878,-0.1558353,-0.79153997,0.15326962,0.5915851,,0.04475451,0.4316148,-0.37377307,0.692559,-0.018184623,-0.721132,-0.3244759,0.8849871,-0.33393595,0.644265,0.4652603,0.6070053,,0.8265332085967524,-0.35657402226869406,0.16341420627000003,0.6389252577973457,-0.24239315058389135,0.5034605642437167,0.8722573131570512,,-0.6686110440517353,-0.5506617448637044,0.14974482822000001,2.137369593937757,0.35785099288568856,0.6492989541186304,0.8755241944797366,,-0.06956664232292899,-0.09922196797587764,0.1150502548,-0.034016912529394594,,-1.7281622e-05,-3.2782555e-06,2.3841858e-06,1.0,-1.28000975e-05,-1.0468066e-05,1.2796372e-05,1.0,-1.1622906e-06,1.0468066e-05,1.1026859e-06,1.0,39,0.117,0,0,0.0,False,1.0463634429499895,1.049418426957168
0.13165936800032796,11:41:00.142452,NaN,0,,0.0068935463,0.011713229,0.07084869,-0.6359156,-0.16638896,-0.7536085,-0.48161063,0.8485707,0.21904057,0.6030444,0.5022372,-0.6197542,,0.15393418,-0.034173295,0.04610157,-0.62507576,-0.17880523,0.7598086,0.22233677,0.8923002,0.39289537,-0.7482291,0.41452268,-0.51800025,,0.0874437,1.3322517,0.46482038,0.99604225,0.0028675622,-0.08883454,-0.053893056,-0.77529705,-0.62929326,-0.0706777,0.63159025,-0.7720741,,-0.04877949,0.24909405,-0.1253582,0.60658896,0.07941943,0.7910388,0.074258864,0.9849878,-0.1558353,-0.79153997,0.15326962,0.5915851,,0.04475451,0.4316148,-0.37377307,0.692559,-0.018184623,-0.721132,-0.3244759,0.8849871,-0.33393595,0.644265,0.4652603,0.6070053,,0.8265332085967524,-0.35657402226869406,0.16341420627000003,0.6389252577973457,-0.24239315058389135,0.5034605642437167,0.8722573131570512,,-0.6686110440517353,-0.5506617448637044,0.14974482822000001,2.137369593937757,0.35785099288568856,0.6492989541186304,0.8755241944797366,,-0.06956664232292899,-0.09922196797587764,0.1150502548,-0.034016912529394594,,-1.7281622e-05,-3.2782555e-06,2.3841858e-06,1.0,-1.28000975e-05,-1.0468066e-05,1.2796372e-05,1.0,-1.1622906e-06,1.0468066e-05,1.1026859e-06,1.0,47,0.141,0,0,0.0,False,1.0470783755722417,1.0499495091657423
0.16048589100137178,11:41:00.168618,11:40:42.147401,0,,0.0068935463,0.011713229,0.07084869,-0.6359156,-0.16638896,-0.7536085,-0.48161063,0.8485707,0.21904057,0.6030444,0.5022372,-0.6197542,,0.15393418,-0.034173295,0.04610157,-0.62507576,-0.17880523,0.7598086,0.22233677,0.8923002,0.39289537,-0.7482291,0.41452268,-0.51800025,,0.0874437,1.3322517,0.46482038,0.99604225,0.0028675622,-0.08883454,-0.053893056,-0.77529705,-0.62929326,-0.0706777,0.63159025,-0.7720741,,-0.04877949,0.24909405,-0.1253582,0.60658896,0.07941943,0.7910388,0.074258864,0.9849878,-0.1558353,-0.79153997,0.15326962,0.5915851,,0.04475451,0.4316148,-0.37377307,0.692559,-0.018184623,-0.721132,-0.3244759,0.8849871,-0.33393595,0.644265,0.4652603,0.6070053,,0.8265332085967524,-0.35657402226869406,0.16341420627000003,0.6389252577973457,-0.24239315058389135,0.5034605642437167,0.8722573131570512,,-0.6686110440517353,-0.5506617448637044,0.14974482822000001,2.137369593937757,0.35785099288568856,0.6492989541186304,0.8755241944797366,,-0.06956664232292899,-0.09922196797587764,0.1150502548,-0.034016912529394594,,-1.7281622e-05,-3.2782555e-06,2.3841858e-06,1.0,-1.28000975e-05,-1.0468066e-05,1.2796372e-05,1.0,-1.1622906e-06,1.0468066e-05,1.1026859e-06,1.0,58,0.174,0,0,0.0,False,1.047316686446326,1.049418426957168
0.1866117480003595,11:41:00.196968,11:40:42.147401,0,,0.006892576,0.011713654,0.070849076,-0.63591105,-0.16638611,-0.75361305,-0.48161313,0.8485689,0.2190421,0.6030472,0.50224125,-0.61974823,,0.15393418,-0.034173295,0.04610157,-0.62507576,-0.17880523,0.7598086,0.22233677,0.8923002,0.39289537,-0.7482291,0.41452268,-0.51800025,,0.0874437,1.3322517,0.46482038,0.99604225,0.0028675622,-0.08883454,-0.053893056,-0.77529705,-0.62929326,-0.0706777,0.63159025,-0.7720741,,-0.048778582,0.24909472,-0.12535825,0.6065843,0.07941635,0.7910427,0.07425834,0.9849887,-0.15582997,-0.79154354,0.15326554,0.59158134,,0.04475451,0.4316148,-0.37377307,0.692559,-0.018184623,-0.721132,-0.3244759,0.8849871,-0.33393595,0.644265,0.4652603,0.6070053,,0.8265409313296266,-0.35657402226869406,0.16341420627000003,0.6389252577973457,-0.24239315058389135,0.5034605642437167,0.8722573131570512,,-0.6686110440517353,-0.5506617448637044,0.14974482822000001,2.137369593937757,0.35785099288568856,0.6492989541186304,0.8755241944797366,,-0.06956664232292899,-0.09922196797587764,0.1150502548,-0.034016912529394594,,-1.7281622e-05,-3.2782555e-06,2.3841858e-06,1.0,-1.28000975e-05,-1.0468066e-05,1.2796372e-05,1.0,-1.1622906e-06,1.0468066e-05,1.1026859e-06,1.0,66,0.199,0,0,0.0,False,1.0469592201351996,1.05014262996886
0.2149833720013703,11:41:00.227691,11:40:42.147401,0,,0.0068935463,0.011713229,0.07084869,-0.6359156,-0.16638896,-0.7536085,-0.48161063,0.8485707,0.21904057,0.6030444,0.5022372,-0.6197542,,0.15393418,-0.034173295,0.04610157,-0.62507576,-0.17880523,0.7598086,0.22233677,0.8923002,0.39289537,-0.7482291,0.41452268,-0.51800025,,0.0874437,1.3322517,0.46482038,0.99604225,0.0028675622,-0.08883454,-0.053893056,-0.77529705,-0.62929326,-0.0706777,0.63159025,-0.7720741,,-0.04877949,0.24909405,-0.1253582,0.60658896,0.07941943,0.7910388,0.074258864,0.9849878,-0.1558353,-0.79153997,0.15326962,0.5915851,,0.04475451,0.4316148,-0.37377307,0.692559,-0.018184623,-0.721132,-0.3244759,0.8849871,-0.33393595,0.644265,0.4652603,0.6070053,,0.8265332085967524,-0.35657402226869406,0.16341420627000003,0.6389252577973457,-0.24239315058389135,0.5034605642437167,0.8722573131570512,,-0.6686110440517353,-0.5506617448637044,0.14974482822000001,2.137369593937757,0.35785099288568856,0.6492989541186304,0.8755241944797366,,-0.06956664232292899,-0.09922196797587764,0.1150502548,-0.034016912529394594,,-1.7281622e-05,-3.2782555e-06,2.3841858e-06,1.0,-1.28000975e-05,-1.0468066e-05,1.2796372e-05,1.0,-1.1622906e-06,1.0468066e-05,1.1026859e-06,1.0,74,0.223,0,0,0.0,False,1.0467209092611154,1.049708108161845
0.24572479400012526,11:41:00.249213,11:40:42.147401,0,,0.0068935463,0.011713229,0.07084869,-0.6359156,-0.16638896,-0.7536085,-0.48161063,0.8485707,0.21904057,0.6030444,0.5022372,-0.6197542,,0.15393418,-0.034173295,0.04610157,-0.62507576,-0.17880523,0.7598086,0.22233677,0.8923002,0.39289537,-0.7482291,0.41452268,-0.51800025,,0.0874437,1.3322517,0.46482038,0.99604225,0.0028675622,-0.08883454,-0.053893056,-0.77529705,-0.62929326,-0.0706777,0.63159025,-0.7720741,,-0.04877949,0.24909405,-0.1253582,0.60658896,0.07941943,0.7910388,0.074258864,0.9849878,-0.1558353,-0.79153997,0.15326962,0.5915851,,0.04475451,0.4316148,-0.37377307,0.692559,-0.018184623,-0.721132,-0.3244759,0.8849871,-0.33393595,0.644265,0.4652603,0.6070053,,0.8265332085967524,-0.35657402226869406,0.16341420627000003,0.6389252577973457,-0.24239315058389135,0.5034605642437167,0.8722573131570512,,-0.6686110440517353,-0.5506617448637044,0.14974482822000001,2.137369593937757,0.35785099288568856,0.6492989541186304,0.8755241944797366,,-0.06956664232292899,-0.09922196797587764,0.1150502548,-0.034016912529394594,,-1.7281622e-05,-3.2782555e-06,2.3841858e-06,1.0,-1.28000975e-05,-1.0468066e-05,1.2796372e-05,1.0,-1.1622906e-06,1.0468066e-05,1.1026859e-06,1.0,85,0.256,0,0,0.0,False,1.0473762641648467,1.049514987358727
0.2672037910015206,11:41:00.282522,11:40:42.147401,0,,0.0068935463,0.011713229,0.07084869,-0.6359156,-0.16638896,-0.7536085,-0.48161063,0.8485707,0.21904057,0.6030444,0.5022372,-0.6197542,,0.15393418,-0.034173295,0.04610157,-0.62507576,-0.17880523,0.7598086,0.22233677,0.8923002,0.39289537,-0.7482291,0.41452268,-0.51800025,,0.0874437,1.3322517,0.46482038,0.99604225,0.0028675622,-0.08883454,-0.053893056,-0.77529705,-0.62929326,-0.0706777,0.63159025,-0.7720741,,-0.04877949,0.24909405,-0.1253582,0.60658896,0.07941943,0.7910388,0.074258864,0.9849878,-0.1558353,-0.79153997,0.15326962,0.5915851,,0.04475451,0.4316148,-0.37377307,0.692559,-0.018184623,-0.721132,-0.3244759,0.8849871,-0.33393595,0.644265,0.4652603,0.6070053,,0.8265332085967524,-0.35657402226869406,0.16341420627000003,0.6389252577973457,-0.24239315058389135,0.5034605642437167,0.8722573131570512,,-0.6686110440517353,-0.5506617448637044,0.14974482822000001,2.137369593937757,0.35785099288568856,0.6492989541186304,0.8755241944797366,,-0.06956664232292899,-0.09922196797587764,0.1150502548,-0.034016912529394594,,-1.7281622e-05,-3.2782555e-06,2.3841858e-06,1.0,-1.28000975e-05,-1.0468066e-05,1.2796372e-05,1.0,-1.1622906e-06,1.0468066e-05,1.1026859e-06,1.0,97,0.293,0,0,0.0,False,1.0466017538240733,1.0499495091657423
0.3005571110006713,11:41:00.319585,11:40:42.302007,0,,0.006892576,0.011713654,0.070849076,-0.63591105,-0.16638611,-0.75361305,-0.48161313,0.8485689,0.2190421,0.6030472,0.50224125,-0.61974823,,0.15393418,-0.034173295,0.04610157,-0.62507576,-0.17880523,0.7598086,0.22233677,0.8923002,0.39289537,-0.7482291,0.41452268,-0.51800025,,0.0874437,1.3322517,0.46482038,0.99604225,0.0028675622,-0.08883454,-0.053893056,-0.77529705,-0.62929326,-0.0706777,0.63159025,-0.7720741,,-0.048778582,0.24909472,-0.12535825,0.6065843,0.07941635,0.7910427,0.07425834,0.9849887,-0.15582997,-0.79154354,0.15326554,0.59158134,,0.04475451,0.4316148,-0.37377307,0.692559,-0.018184623,-0.721132,-0.3244759,0.8849871,-0.33393595,0.644265,0.4652603,0.6070053,,0.8265409313296266,-0.35657402226869406,0.16341420627000003,0.6389252577973457,-0.24239315058389135,0.5034605642437167,0.8722573131570512,,-0.6686110440517353,-0.5506617448637044,0.14974482822000001,2.137369593937757,0.35785099288568856,0.6492989541186304,0.8755241944797366,,-0.06956664232292899,-0.09922196797587764,0.1150502548,-0.034016912529394594,,-1.7281622e-05,-3.2782555e-06,2.3841858e-06,1.0,-1.28000975e-05,-1.0468066e-05,1.2796372e-05,1.0,-1.1622906e-06,1.0468066e-05,1.1026859e-06,1.0,109,0.33,0,0,0.0,False,1.0464825983870312,1.0499495091657423
0.3375730759998987,11:41:00.356687,11:40:42.302007,0,,0.0068935463,0.011713229,0.07084869,-0.6359156,-0.16638896,-0.7536085,-0.48161063,0.8485707,0.21904057,0.6030444,0.5022372,-0.6197542,,0.15393418,-0.034173295,0.04610157,-0.62507576,-0.17880523,0.7598086,0.22233677,0.8923002,0.39289537,-0.7482291,0.41452268,-0.51800025,,0.0874437,1.3322517,0.46482038,0.99604225,0.0028675622,-0.08883454,-0.053893056,-0.77529705,-0.62929326,-0.0706777,0.63159025,-0.7720741,,-0.04877949,0.24909405,-0.1253582,0.60658896,0.07941943,0.7910388,0.074258864,0.9849878,-0.1558353,-0.79153997,0.15326962,0.5915851,,0.04475451,0.4316148,-0.37377307,0.692559,-0.018184623,-0.721132,-0.3244759,0.8849871,-0.33393595,0.644265,0.4652603,0.6070053,,0.8265332085967524,-0.35657402226869406,0.16341420627000003,0.6389252577973457,-0.24239315058389135,0.5034605642437167,0.8722573131570512,,-0.6686110440517353,-0.5506617448637044,0.14974482822000001,2.137369593937757,0.35785099288568856,0.6492989541186304,0.8755241944797366,,-0.06956664232292899,-0.09922196797587764,0.1150502548,-0.034016912529394594,,-1.7281622e-05,-3.2782555e-06,2.3841858e-06,1.0,-1.28000975e-05,-1.0468066e-05,1.2796372e-05,1.0,-1.1622906e-06,1.0468066e-05,1.1026859e-06,1.0,120,0.363,0,0,0.0,False,1.0466613315425946,1.049804668563404
0.3747043740004301,11:41:00.387191,11:40:42.302007,0,,0.0068935463,0.011713229,0.07084869,-0.6359156,-0.16638896,-0.7536085,-0.48161063,0.8485707,0.21904057,0.6030444,0.5022372,-0.6197542,,0.15393418,-0.034173295,0.04610157,-0.62507576,-0.17880523,0.7598086,0.22233677,0.8923002,0.39289537,-0.7482291,0.41452268,-0.51800025,,0.0874437,1.3322517,0.46482038,0.99604225,0.0028675622,-0.08883454,-0.053893056,-0.77529705,-0.62929326,-0.0706777,0.63159025,-0.7720741,,-0.04877949,0.24909405,-0.1253582,0.60658896,0.07941943,0.7910388,0.074258864,0.9849878,-0.1558353,-0.79153997,0.15326962,0.5915851,,0.04475451,0.4316148,-0.37377307,0.692559,-0.018184623,-0.721132,-0.3244759,0.8849871,-0.33393595,0.644265,0.4652603,0.6070053,,0.8265332085967524,-0.35657402226869406,0.16341420627000003,0.6389252577973457,-0.24239315058389135,0.5034605642437167,0.8722573131570512,,-0.6686110440517353,-0.5506617448637044,0.14974482822000001,2.137369593937757,0.35785099288568856,0.6492989541186304,0.8755241944797366,,-0.06956664232292899,-0.09922196797587764,0.1150502548,-0.034016912529394594,,-1.7281622e-05,-3.2782555e-06,2.3841858e-06,1.0,-1.28000975e-05,-1.0468066e-05,1.2796372e-05,1.0,-1.1622906e-06,1.0468066e-05,1.1026859e-06,1.0,128,0.387,0,0,0.0,False,1.0469592201351996,1.0490321853509326
0.40521994500159053,11:41:00.412469,11:40:42.302007,0,,0.0068935463,0.011713229,0.07084869,-0.6359156,-0.16638896,-0.7536085,-0.48161063,0.8485707,0.21904057,0.6030444,0.5022372,-0.6197542,,0.15393418,-0.034173295,0.04610157,-0.62507576,-0.17880523,0.7598086,0.22233677,0.8923002,0.39289537,-0.7482291,0.41452268,-0.51800025,,0.0874437,1.3322517,0.46482038,0.99604225,0.0028675622,-0.08883454,-0.053893056,-0.77529705,-0.62929326,-0.0706777,0.63159025,-0.7720741,,-0.04877949,0.24909405,-0.1253582,0.60658896,0.07941943,0.7910388,0.074258864,0.9849878,-0.1558353,-0.79153997,0.15326962,0.5915851,,0.04475451,0.4316148,-0.37377307,0.692559,-0.018184623,-0.721132,-0.3244759,0.8849871,-0.33393595,0.644265,0.4652603,0.6070053,,0.8265332085967524,-0.35657402226869406,0.16341420627000003,0.6389252577973457,-0.24239315058389135,0.5034605642437167,0.8722573131570512,,-0.6686110440517353,-0.5506617448637044,0.14974482822000001,2.137369593937757,0.35785099288568856,0.6492989541186304,0.8755241944797366,,-0.06956664232292899,-0.09922196797587764,0.1150502548,-0.034016912529394594,,-1.7281622e-05,-3.2782555e-06,2.3841858e-06,1.0,-1.28000975e-05,-1.0468066e-05,1.2796372e-05,1.0,-1.1622906e-06,1.0468066e-05,1.1026859e-06,1.0,136,0.412,0,0,0.0,False,1.0466613315425946,1.049804668563404
0.4304576110007474,11:41:00.436550,11:40:42.302007,0,,0.006892576,0.011713654,0.070849076,-0.63591105,-0.16638611,-0.75361305,-0.48161313,0.8485689,0.2190421,0.6030472,0.50224125,-0.61974823,,0.15393418,-0.034173295,0.04610157,-0.62507576,-0.17880523,0.7598086,0.22233677,0.8923002,0.39289537,-0.7482291,0.41452268,-0.51800025,,0.0874437,1.3322517,0.46482038,0.99604225,0.0028675622,-0.08883454,-0.053893056,-0.77529705,-0.62929326,-0.0706777,0.63159025,-0.7720741,,-0.048778582,0.24909472,-0.12535825,0.6065843,0.07941635,0.7910427,0.07425834,0.9849887,-0.15582997,-0.79154354,0.15326554,0.59158134,,0.04475451,0.4316148,-0.37377307,0.692559,-0.018184623,-0.721132,-0.3244759,0.8849871,-0.33393595,0.644265,0.4652603,0.6070053,,0.8265409313296266,-0.35657402226869406,0.16341420627000003,0.6389252577973457,-0.24239315058389135,0.5034605642437167,0.8722573131570512,,-0.6686110440517353,-0.5506617448637044,0.14974482822000001,2.137369593937757,0.35785099288568856,0.6492989541186304,0.8755241944797366,,-0.06956664232292899,-0.09922196797587764,0.1150502548,-0.034016912529394594,,-1.7281622e-05,-3.2782555e-06,2.3841858e-06,1.0,-1.28000975e-05,-1.0468066e-05,1.2796372e-05,1.0,-1.1622906e-06,1.0468066e-05,1.1026859e-06,1.0,144,0.436,0,0,0.0,False,1.0470187978537204,1.0493218665556094
0.4545080030002282,11:41:00.465378,11:40:42.457511,0,,0.0068935463,0.011713229,0.07084869,-0.6359156,-0.16638896,-0.7536085,-0.48161063,0.8485707,0.21904057,0.6030444,0.5022372,-0.6197542,,0.15393418,-0.034173295,0.04610157,-0.62507576,-0.17880523,0.7598086,0.22233677,0.8923002,0.39289537,-0.7482291,0.41452268,-0.51800025,,0.0874437,1.3322517,0.46482038,0.99604225,0.0028675622,-0.08883454,-0.053893056,-0.77529705,-0.62929326,-0.0706777,0.63159025,-0.7720741,,-0.04877949,0.24909405,-0.1253582,0.60658896,0.07941943,0.7910388,0.074258864,0.9849878,-0.1558353,-0.79153997,0.15326962,0.5915851,,0.04475451,0.4316148,-0.37377307,0.692559,-0.018184623,-0.721132,-0.3244759,0.8849871,-0.33393595,0.644265,0.4652603,0.6070053,,0.8265332085967524,-0.35657402226869406,0.16341420627000003,0.6389252577973457,-0.24239315058389135,0.5034605642437167,0.8722573131570512,,-0.6686110440517353,-0.5506617448637044,0.14974482822000001,2.137369593937757,0.35785099288568856,0.6492989541186304,0.8755241944797366,,-0.06956664232292899,-0.09922196797587764,0.1150502548,-0.034016912529394594,,-1.7281622e-05,-3.2782555e-06,2.3841858e-06,1.0,-1.28000975e-05,-1.0468066e-05,1.2796372e-05,1.0,-1.1622906e-06,1.0468066e-05,1.1026859e-06,1.0,152,0.461,0,0,0.0,False,1.0466017538240733,1.049514987358727
0.4834107530004985,11:41:00.486246,11:40:42.457511,0,,0.0068935463,0.011713229,0.07084869,-0.6359156,-0.16638896,-0.7536085,-0.48161063,0.8485707,0.21904057,0.6030444,0.5022372,-0.6197542,,0.15393418,-0.034173295,0.04610157,-0.62507576,-0.17880523,0.7598086,0.22233677,0.8923002,0.39289537,-0.7482291,0.41452268,-0.51800025,,0.0874437,1.3322517,0.46482038,0.99604225,0.0028675622,-0.08883454,-0.053893056,-0.77529705,-0.62929326,-0.0706777,0.63159025,-0.7720741,,-0.04877949,0.24909405,-0.1253582,0.60658896,0.07941943,0.7910388,0.074258864,0.9849878,-0.1558353,-0.79153997,0.15326962,0.5915851,,0.04475451,0.4316148,-0.37377307,0.692559,-0.018184623,-0.721132,-0.3244759,0.8849871,-0.33393595,0.644265,0.4652603,0.6070053,,0.8265332085967524,-0.35657402226869406,0.16341420627000003,0.6389252577973457,-0.24239315058389135,0.5034605642437167,0.8722573131570512,,-0.6686110440517353,-0.5506617448637044,0.14974482822000001,2.137369593937757,0.35785099288568856,0.6492989541186304,0.8755241944797366,,-0.06956664232292899,-0.09922196797587764,0.1150502548,-0.034016912529394594,,-1.7281622e-05,-3.2782555e-06,2.3841858e-06,1.0,-1.28000975e-05,-1.0468066e-05,1.2796372e-05,1.0,-1.1622906e-06,1.0468066e-05,1.1026859e-06,1.0,163,0.493,0,0,0.0,False,1.0467209092611154,1.049708108161845
0.5042352050004411,11:41:00.522220,11:40:42.457511,0,,0.0068935463,0.011713229,0.07084869,-0.6359156,-0.16638896,-0.7536085,-0.48161063,0.8485707,0.21904057,0.6030444,0.5022372,-0.6197542,,0.15393397,-0.034173936,0.04610157,-0.6250135,-0.17865165,0.7598959,0.22252303,0.8922943,0.3928034,-0.74822575,0.41460165,-0.51794183,,0.0874437,1.3322517,0.46482038,0.99604225,0.0028675622,-0.08883454,-0.053893056,-0.77529705,-0.62929326,-0.0706777,0.63159025,-0.7720741,,-0.04877949,0.24909405,-0.1253582,0.60658896,0.07941943,0.7910388,0.074258864,0.9849878,-0.1558353,-0.79153997,0.15326962,0.5915851,,0.04475481,0.43161446,-0.37377355,0.6924705,-0.018345928,-0.72121286,-0.32437715,0.88501334,-0.3339624,0.64440984,0.4652041,0.6068946,,0.8265332085967524,-0.35657402226869406,0.16341420627000003,0.6389252577973457,-0.24239315058389135,0.5034605642437167,0.8722573131570512,,-0.6686110440517353,-0.5506617448637044,0.14974482822000001,2.1375792838812413,0.35785099288568856,0.6492989541186304,0.8755241944797366,,-0.06956664232292899,-0.09922196797587764,0.1150502548,-0.034016912529394594,,-1.7281622e-05,-3.2782555e-06,2.3841858e-06,1.0,-1.28000975e-05,-1.0468066e-05,1.2796372e-05,1.0,-1.1622906e-06,1.0468066e-05,1.1026859e-06,1.0,175,0.53,0,0,0.0,False,1.0472571087278046,1.0495632675595068
0.5401778180003021,11:41:00.552407,11:40:42.457511,0,,0.0068935463,0.011713229,0.07084869,-0.6359156,-0.16638896,-0.7536085,-0.48161063,0.8485707,0.21904057,0.6030444,0.5022372,-0.6197542,,0.15393373,-0.034174547,0.04610151,-0.6249511,-0.17849806,0.7599833,0.22270921,0.8922883,0.39271146,-0.7482224,0.4146807,-0.5178834,,0.0874437,1.3322517,0.46482038,0.99604225,0.0028675622,-0.08883454,-0.053893056,-0.77529705,-0.62929326,-0.0706777,0.63159025,-0.7720741,,-0.04877949,0.24909405,-0.1253582,0.60658896,0.07941943,0.7910388,0.074258864,0.9849878,-0.1558353,-0.79153997,0.15326962,0.5915851,,0.044755112,0.43161413,-0.37377405,0.692382,-0.018507224,-0.72129375,-0.32427835,0.8850395,-0.3339889,0.6445547,0.46514782,0.6067839,,0.8265332085967524,-0.35657402226869406,0.16341420627000003,0.6389252577973457,-0.24239315058389135,0.5034605642437167,0.8722573131570512,,-0.6686110440517353,-0.5506617448637044,0.14974482822000001,2.1377889738247258,0.35785099288568856,0.6492989541186304,0.8755241944797366,,-0.06956664232292899,-0.09922196797587764,0.1150502548,-0.034016912529394594,,-1.7281622e-05,-3.2782555e-06,2.3841858e-06,1.0,-1.28000975e-05,-1.0468066e-05,1.2796372e-05,1.0,-1.1622906e-06,1.0468066e-05,1.1026859e-06,1.0,183,0.555,0,0,0.0,False,1.0468996424166788,1.0499977893665218
0.5703981630013004,11:41:00.578543,11:40:42.457511,0,,0.006892576,0.011713654,0.070849076,-0.63591105,-0.16638611,-0.75361305,-0.48161313,0.8485689,0.2190421,0.6030472,0.50224125,-0.61974823,,0.15393373,-0.034174547,0.04610151,-0.6249511,-0.17849806,0.7599833,0.22270921,0.8922883,0.39271146,-0.7482224,0.4146807,-0.5178834,,0.0874437,1.3322517,0.46482038,0.99604225,0.0028675622,-0.08883454,-0.053893056,-0.77529705,-0.62929326,-0.0706777,0.63159025,-0.7720741,,-0.048778582,0.24909472,-0.12535825,0.6065843,0.07941635,0.7910427,0.07425834,0.9849887,-0.15582997,-0.79154354,0.15326554,0.59158134,,0.044755112,0.43161413,-0.37377405,0.692382,-0.018507224,-0.72129375,-0.32427835,0.8850395,-0.3339889,0.6445547,0.46514782,0.6067839,,0.8265409313296266,-0.35657402226869406,0.16341420627000003,0.6389252577973457,-0.24239315058389135,0.5034605642437167,0.8722573131570512,,-0.6686110440517353,-0.5506617448637044,0.14974482822000001,2.1377889738247258,0.35785099288568856,0.6492989541186304,0.8755241944797366,,-0.06956664232292899,-0.09922196797587764,0.1150502548,-0.034016912529394594,,-1.7281622e-05,-3.2782555e-06,2.3841858e-06,1.0,-1.28000975e-05,-1.0468066e-05,1.2796372e-05,1.0,-1.1622906e-06,1.0468066e-05,1.1026859e-06,1.0,191,0.58,0,0,0.0,False,1.0467209092611154,1.049418426957168
0.5965473830001429,11:41:00.601861,11:40:42.457511,0,,0.006893779,0.011712849,0.0708486,-0.6358119,-0.16654028,-0.75366265,-0.48178342,0.84849584,0.21895061,0.6030157,0.5023136,-0.6197202,,0.15393373,-0.034174547,0.04610151,-0.6249511,-0.17849806,0.7599833,0.22270921,0.8922883,0.39271146,-0.7482224,0.4146807,-0.5178834,,0.0874437,1.3322517,0.46482038,0.99604225,0.0028675622,-0.08883454,-0.053893056,-0.77529705,-0.62929326,-0.0706777,0.63159025,-0.7720741,,-0.048779696,0.2490937,-0.12535837,0.6064971,0.079567395,0.79109436,0.07409854,0.98499316,-0.15587759,-0.7916254,0.15315825,0.5914997,,0.044755112,0.43161413,-0.37377405,0.692382,-0.018507224,-0.72129375,-0.32427835,0.8850395,-0.3339889,0.6445547,0.46514782,0.6067839,,0.8265332085967524,-0.35657402226869406,0.16341420627000003,0.6387155678538612,-0.24239315058389135,0.5034605642437167,0.8722573131570512,,-0.6686110440517353,-0.5506617448637044,0.14974482822000001,2.1377889738247258,0.35785099288568856,0.6492989541186304,0.8755241944797366,,-0.06956664232292899,-0.09922196797587764,0.1150502548,-0.034016912529394594,,-1.7281622e-05,-3.2782555e-06,2.3841858e-06,1.0,-1.28000975e-05,-1.0468066e-05,1.2796372e-05,1.0,-1.1622906e-06,1.0468066e-05,1.1026859e-06,1.0,206,0.626,0,0,0.0,False,1.0471379532907625,1.0495632675595068
0.619880528000067,11:41:00.652362,11:40:42.611273,0,,0.0068930434,0.0117128715,0.07084899,-0.6357036,-0.16668871,-0.7537212,-0.4819587,0.8484192,0.21886206,0.6029898,0.50239384,-0.61968035,,0.15393293,-0.0341748,0.046101093,-0.62495667,-0.17849702,0.75997895,0.22270569,0.89228916,0.39271146,-0.7482188,0.4146792,-0.5178898,,0.0874437,1.3322517,0.46482038,0.99604225,0.0028675622,-0.08883454,-0.053893056,-0.77529705,-0.62929326,-0.0706777,0.63159025,-0.7720741,,-0.048778996,0.24909401,-0.12535864,0.60640055,0.07971226,0.7911538,0.07393771,0.9849994,-0.15591456,-0.7917143,0.15304278,0.59141046,,0.044756,0.43161383,-0.37377396,0.69238734,-0.018508144,-0.72128856,-0.32427642,0.8850387,-0.333993,0.64454985,0.4651494,0.60678786,,0.8265409313296266,-0.35657402226869406,0.16341420627000003,0.6385058779103767,-0.24239315058389135,0.5034605642437167,0.8722573131570512,,-0.6686033213188611,-0.5506617448637044,0.14974482822000001,2.1377889738247258,0.35785099288568856,0.6492989541186304,0.8755241944797366,,-0.06956664232292899,-0.09922196797587764,0.1150502548,-0.034016912529394594,,-1.7281622e-05,-3.2782555e-06,2.3841858e-06,1.0,-1.28000975e-05,-1.0468066e-05,1.2796372e-05,1.0,-1.1622906e-06,1.0468066e-05,1.1026859e-06,1.0,218,0.661,0,0,0.0,False,1.0471379532907625,1.049514987358727
0.6703359450002608,11:41:00.691826,11:40:42.611273,0,,0.0068940157,0.011712454,0.07084857,-0.63570815,-0.16669156,-0.75371665,-0.48195618,0.848421,0.21886057,0.602987,0.5023899,-0.61968637,,0.15393373,-0.034174547,0.04610151,-0.6249511,-0.17849806,0.7599833,0.22270921,0.8922883,0.39271146,-0.7482224,0.4146807,-0.5178834,,0.0874437,1.3322517,0.46482038,0.99604225,0.0028675622,-0.08883454,-0.053893056,-0.77529705,-0.62929326,-0.0706777,0.63159025,-0.7720741,,-0.048779905,0.24909334,-0.12535857,0.6064052,0.07971534,0.7911499,0.07393823,0.9849985,-0.15591991,-0.79171073,0.15304686,0.5914142,,0.044755112,0.43161413,-0.37377405,0.692382,-0.018507224,-0.72129375,-0.32427835,0.8850395,-0.3339889,0.6445547,0.46514782,0.6067839,,0.8265332085967524,-0.35657402226869406,0.16341420627000003,0.6385058779103767,-0.24239315058389135,0.5034605642437167,0.8722573131570512,,-0.6686110440517353,-0.5506617448637044,0.14974482822000001,2.1377889738247258,0.35785099288568856,0.6492989541186304,0.8755241944797366,,-0.06956664232292899,-0.09922196797587764,0.1150502548,-0.034016912529394594,,-1.7281622e-05,-3.2782555e-06,2.3841858e-06,1.0,-1.28000975e-05,-1.0468066e-05,1.2796372e-05,1.0,-1.1622906e-06,1.0468066e-05,1.1026859e-06,1.0,234,0.711,0,0,0.0,False,1.0472571087278046,1.0498529487641832
0.7098555370012036,11:41:00.731778,11:40:42.611273,0,,0.0068940157,0.011712454,0.07084857,-0.63570815,-0.16669156,-0.75371665,-0.48195618,0.848421,0.21886057,0.602987,0.5023899,-0.61968637,,0.15393373,-0.034174547,0.04610151,-0.6249511,-0.17849806,0.7599833,0.22270921,0.8922883,0.39271146,-0.7482224,0.4146807,-0.5178834,,0.0874437,1.3322517,0.46482038,0.99604225,0.0028675622,-0.08883454,-0.053893056,-0.77529705,-0.62929326,-0.0706777,0.63159025,-0.7720741,,-0.048779905,0.24909334,-0.12535857,0.6064052,0.07971534,0.7911499,0.07393823,0.9849985,-0.15591991,-0.79171073,0.15304686,0.5914142,,0.044755112,0.43161413,-0.37377405,0.692382,-0.018507224,-0.72129375,-0.32427835,0.8850395,-0.3339889,0.6445547,0.46514782,0.6067839,,0.8265332085967524,-0.35657402226869406,0.16341420627000003,0.6385058779103767,-0.24239315058389135,0.5034605642437167,0.8722573131570512,,-0.6686110440517353,-0.5506617448637044,0.14974482822000001,2.1377889738247258,0.35785099288568856,0.6492989541186304,0.8755241944797366,,-0.06956664232292899,-0.09922196797587764,0.1150502548,-0.034016912529394594,,-1.7281622e-05,-3.2782555e-06,2.3841858e-06,1.0,-1.28000975e-05,-1.0468066e-05,1.2796372e-05,1.0,-1.1622906e-06,1.0468066e-05,1.1026859e-06,1.0,242,0.735,0,0,0.0,False,1.0469592201351996,1.0498529487641832
0.749808156000654,11:41:00.758635,11:40:42.611273,0,,0.0068930434,0.0117128715,0.07084899,-0.6357036,-0.16668871,-0.7537212,-0.4819587,0.8484192,0.21886206,0.6029898,0.50239384,-0.61968035,,0.15393373,-0.034174547,0.04610151,-0.6249511,-0.17849806,0.7599833,0.22270921,0.8922883,0.39271146,-0.7482224,0.4146807,-0.5178834,,0.0874437,1.3322517,0.46482038,0.99604225,0.0028675622,-0.08883454,-0.053893056,-0.77529705,-0.62929326,-0.0706777,0.63159025,-0.7720741,,-0.048778996,0.24909401,-0.12535864,0.60640055,0.07971226,0.7911538,0.07393771,0.9849994,-0.15591456,-0.7917143,0.15304278,0.59141046,,0.044755112,0.43161413,-0.37377405,0.692382,-0.018507224,-0.72129375,-0.32427835,0.8850395,-0.3339889,0.6445547,0.46514782,0.6067839,,0.8265409313296266,-0.35657402226869406,0.16341420627000003,0.6385058779103767,-0.24239315058389135,0.5034605642437167,0.8722573131570512,,-0.6686110440517353,-0.5506617448637044,0.14974482822000001,2.1377889738247258,0.35785099288568856,0.6492989541186304,0.8755241944797366,,-0.06956664232292899,-0.09922196797587764,0.1150502548,-0.034016912529394594,,-1.7281622e-05,-3.2782555e-06,2.3841858e-06,1.0,-1.28000975e-05,-1.0468066e-05,1.2796372e-05,1.0,-1.1622906e-06,1.0468066e-05,1.1026859e-06,1.0,253,0.768,0,0,0.0,False,1.0466613315425946,1.05014262996886
0.7766289780010993,11:41:00.793232,11:40:42.780802,0,,0.0068940157,0.011712454,0.07084857,-0.63570815,-0.16669156,-0.75371665,-0.48195618,0.848421,0.21886057,0.602987,0.5023899,-0.61968637,,0.15393373,-0.034174547,0.04610151,-0.6249511,-0.17849806,0.7599833,0.22270921,0.8922883,0.39271146,-0.7482224,0.4146807,-0.5178834,,0.0874437,1.3322517,0.46482038,0.99604225,0.0028675622,-0.08883454,-0.053893056,-0.77529705,-0.62929326,-0.0706777,0.63159025,-0.7720741,,-0.048779905,0.24909334,-0.12535857,0.6064052,0.07971534,0.7911499,0.07393823,0.9849985,-0.15591991,-0.79171073,0.15304686,0.5914142,,0.044755112,0.43161413,-0.37377405,0.692382,-0.018507224,-0.72129375,-0.32427835,0.8850395,-0.3339889,0.6445547,0.46514782,0.6067839,,0.8265332085967524,-0.35657402226869406,0.16341420627000003,0.6385058779103767,-0.24239315058389135,0.5034605642437167,0.8722573131570512,,-0.6686110440517353,-0.5506617448637044,0.14974482822000001,2.1377889738247258,0.35785099288568856,0.6492989541186304,0.8755241944797366,,-0.06956664232292899,-0.09922196797587764,0.1150502548,-0.034016912529394594,,-1.7281622e-05,-3.2782555e-06,2.3841858e-06,1.0,-1.28000975e-05,-1.0468066e-05,1.2796372e-05,1.0,-1.1622906e-06,1.0468066e-05,1.1026859e-06,1.0,261,0.792,0,0,0.0,False,1.0468996424166788,1.05014262996886
0.811261471000762,11:41:00.817426,11:40:42.780802,0,,0.0068940157,0.011712454,0.07084857,-0.63570815,-0.16669156,-0.75371665,-0.48195618,0.848421,0.21886057,0.602987,0.5023899,-0.61968637,,0.15393373,-0.034174547,0.04610151,-0.6249511,-0.17849806,0.7599833,0.22270921,0.8922883,0.39271146,-0.7482224,0.4146807,-0.5178834,,0.0874437,1.3322517,0.46482038,0.99604225,0.0028675622,-0.08883454,-0.053893056,-0.77529705,-0.62929326,-0.0706777,0.63159025,-0.7720741,,-0.048779905,0.24909334,-0.12535857,0.6064052,0.07971534,0.7911499,0.07393823,0.9849985,-0.15591991,-0.79171073,0.15304686,0.5914142,,0.044755112,0.43161413,-0.37377405,0.692382,-0.018507224,-0.72129375,-0.32427835,0.8850395,-0.3339889,0.6445547,0.46514782,0.6067839,,0.8265332085967524,-0.35657402226869406,0.16341420627000003,0.6385058779103767,-0.24239315058389135,0.5034605642437167,0.8722573131570512,,-0.6686110440517353,-0.5506617448637044,0.14974482822000001,2.1377889738247258,0.35785099288568856,0.6492989541186304,0.8755241944797366,,-0.06956664232292899,-0.09922196797587764,0.1150502548,-0.034016912529394594,,-1.7281622e-05,-3.2782555e-06,2.3841858e-06,1.0,-1.28000975e-05,-1.0468066e-05,1.2796372e-05,1.0,-1.1622906e-06,1.0468066e-05,1.1026859e-06,1.0,269,0.817,0,0,0.0,False,1.0471975310092834,1.0496115477602863
0.8354499220004072,11:41:00.843281,11:40:42.780802,0,,0.0068940157,0.011712454,0.07084857,-0.63570815,-0.16669156,-0.75371665,-0.48195618,0.848421,0.21886057,0.602987,0.5023899,-0.61968637,,0.15393373,-0.034174547,0.04610151,-0.6249511,-0.17849806,0.7599833,0.22270921,0.8922883,0.39271146,-0.7482224,0.4146807,-0.5178834,,0.0874437,1.3322517,0.46482038,0.99604225,0.0028675622,-0.08883454,-0.053893056,-0.77529705,-0.62929326,-0.0706777,0.63159025,-0.7720741,,-0.048779905,0.24909334,-0.12535857,0.6064052,0.07971534,0.7911499,0.07393823,0.9849985,-0.15591991,-0.79171073,0.15304686,0.5914142,,0.044755112,0.43161413,-0.37377405,0.692382,-0.018507224,-0.72129375,-0.32427835,0.8850395,-0.3339889,0.6445547,0.46514782,0.6067839,,0.8265332085967524,-0.35657402226869406,0.16341420627000003,0.6385058779103767,-0.24239315058389135,0.5034605642437167,0.8722573131570512,,-0.6686110440517353,-0.5506617448637044,0.14974482822000001,2.1377889738247258,0.35785099288568856,0.6492989541186304,0.8755241944797366,,-0.06956664232292899,-0.09922196797587764,0.1150502548,-0.034016912529394594,,-1.7281622e-05,-3.2782555e-06,2.3841858e-06,1.0,-1.28000975e-05,-1.0468066e-05,1.2796372e-05,1.0,-1.1622906e-06,1.0468066e-05,1.1026859e-06,1.0,277,0.842,0,0,0.0,False,1.0469592201351996,1.0495632675595068
0.8612308210012998,11:41:00.864183,11:40:42.780802,0,,0.0068940157,0.011712454,0.07084857,-0.63570815,-0.16669156,-0.75371665,-0.48195618,0.848421,0.21886057,0.602987,0.5023899,-0.61968637,,0.15393373,-0.034174547,0.04610151,-0.6249511,-0.17849806,0.7599833,0.22270921,0.8922883,0.39271146,-0.7482224,0.4146807,-0.5178834,,0.0874437,1.3322517,0.46482038,0.99604225,0.0028675622,-0.08883454,-0.053893056,-0.77529705,-0.62929326,-0.0706777,0.63159025,-0.7720741,,-0.048779905,0.24909334,-0.12535857,0.6064052,0.07971534,0.7911499,0.07393823,0.9849985,-0.15591991,-0.79171073,0.15304686,0.5914142,,0.044755112,0.43161413,-0.37377405,0.692382,-0.018507224,-0.72129375,-0.32427835,0.8850395,-0.3339889,0.6445547,0.46514782,0.6067839,,0.8265332085967524,-0.35657402226869406,0.16341420627000003,0.6385058779103767,-0.24239315058389135,0.5034605642437167,0.8722573131570512,,-0.6686110440517353,-0.5506617448637044,0.14974482822000001,2.1377889738247258,0.35785099288568856,0.6492989541186304,0.8755241944797366,,-0.06956664232292899,-0.09922196797587764,0.1150502548,-0.034016912529394594,,-1.7281622e-05,-3.2782555e-06,2.3841858e-06,1.0,-1.28000975e-05,-1.0468066e-05,1.2796372e-05,1.0,-1.1622906e-06,1.0468066e-05,1.1026859e-06,1.0,285,0.866,0,0,0.0,False,1.0470783755722417,1.0500943497680806
0.8822135170012189,11:41:00.892686,11:40:42.780802,0,,0.0068930434,0.0117128715,0.07084899,-0.6357036,-0.16668871,-0.7537212,-0.4819587,0.8484192,0.21886206,0.6029898,0.50239384,-0.61968035,,0.15393373,-0.034174547,0.04610151,-0.6249511,-0.17849806,0.7599833,0.22270921,0.8922883,0.39271146,-0.7482224,0.4146807,-0.5178834,,0.0874437,1.3322517,0.46482038,0.99604225,0.0028675622,-0.08883454,-0.053893056,-0.77529705,-0.62929326,-0.0706777,0.63159025,-0.7720741,,-0.048778996,0.24909401,-0.12535864,0.60640055,0.07971226,0.7911538,0.07393771,0.9849994,-0.15591456,-0.7917143,0.15304278,0.59141046,,0.044755112,0.43161413,-0.37377405,0.692382,-0.018507224,-0.72129375,-0.32427835,0.8850395,-0.3339889,0.6445547,0.46514782,0.6067839,,0.8265409313296266,-0.35657402226869406,0.16341420627000003,0.6385058779103767,-0.24239315058389135,0.5034605642437167,0.8722573131570512,,-0.6686110440517353,-0.5506617448637044,0.14974482822000001,2.1377889738247258,0.35785099288568856,0.6492989541186304,0.8755241944797366,,-0.06956664232292899,-0.09922196797587764,0.1150502548,-0.034016912529394594,,-1.7281622e-05,-3.2782555e-06,2.3841858e-06,1.0,-1.28000975e-05,-1.0468066e-05,1.2796372e-05,1.0,-1.1622906e-06,1.0468066e-05,1.1026859e-06,1.0,300,0.912,0,0,0.0,False,1.0466017538240733,1.0498529487641832
0.9107171150008071,11:41:00.937661,11:40:42.933075,0,,0.0068940157,0.011712454,0.07084857,-0.63570815,-0.16669156,-0.75371665,-0.48195618,0.848421,0.21886057,0.602987,0.5023899,-0.61968637,,0.15393373,-0.034174547,0.04610151,-0.6249511,-0.17849806,0.7599833,0.22270921,0.8922883,0.39271146,-0.7482224,0.4146807,-0.5178834,,0.0874437,1.3322517,0.46482038,0.99604225,0.0028675622,-0.08883454,-0.053893056,-0.77529705,-0.62929326,-0.0706777,0.63159025,-0.7720741,,-0.048779905,0.24909334,-0.12535857,0.6064052,0.07971534,0.7911499,0.07393823,0.9849985,-0.15591991,-0.79171073,0.15304686,0.5914142,,0.044755112,0.43161413,-0.37377405,0.692382,-0.018507224,-0.72129375,-0.32427835,0.8850395,-0.3339889,0.6445547,0.46514782,0.6067839,,0.8265332085967524,-0.35657402226869406,0.16341420627000003,0.6385058779103767,-0.24239315058389135,0.5034605642437167,0.8722573131570512,,-0.6686110440517353,-0.5506617448637044,0.14974482822000001,2.1377889738247258,0.35785099288568856,0.6492989541186304,0.8755241944797366,,-0.06956664232292899,-0.09922196797587764,0.1150502548,-0.034016912529394594,,-1.7281622e-05,-3.2782555e-06,2.3841858e-06,1.0,-1.28000975e-05,-1.0468066e-05,1.2796372e-05,1.0,-1.1622906e-06,1.0468066e-05,1.1026859e-06,1.0,308,0.936,0,0,0.0,False,1.0468996424166788,1.0496115477602863
0.9555755720011803,11:41:00.963681,11:40:42.933075,0,,0.0068940157,0.011712454,0.07084857,-0.63570815,-0.16669156,-0.75371665,-0.48195618,0.848421,0.21886057,0.602987,0.5023899,-0.61968637,,0.15393373,-0.034174547,0.04610151,-0.6249511,-0.17849806,0.7599833,0.22270921,0.8922883,0.39271146,-0.7482224,0.4146807,-0.5178834,,0.0874437,1.3322517,0.46482038,0.99604225,0.0028675622,-0.08883454,-0.053893056,-0.77529705,-0.62929326,-0.0706777,0.63159025,-0.7720741,,-0.048779905,0.24909334,-0.12535857,0.6064052,0.07971534,0.7911499,0.07393823,0.9849985,-0.15591991,-0.79171073,0.15304686,0.5914142,,0.044755112,0.43161413,-0.37377405,0.692382,-0.018507224,-0.72129375,-0.32427835,0.8850395,-0.3339889,0.6445547,0.46514782,0.6067839,,0.8265332085967524,-0.35657402226869406,0.16341420627000003,0.6385058779103767,-0.24239315058389135,0.5034605642437167,0.8722573131570512,,-0.6686110440517353,-0.5506617448637044,0.14974482822000001,2.1377889738247258,0.35785099288568856,0.6492989541186304,0.8755241944797366,,-0.06956664232292899,-0.09922196797587764,0.1150502548,-0.034016912529394594,,-1.7281622e-05,-3.2782555e-06,2.3841858e-06,1.0,-1.28000975e-05,-1.0468066e-05,1.2796372e-05,1.0,-1.1622906e-06,1.0468066e-05,1.1026859e-06,1.0,316,0.96,0,0,0.0,False,1.0468996424166788,1.049418426957168
0.9817122090007615,11:41:00.985599,11:40:42.933075,0,,0.0068940157,0.011712454,0.07084857,-0.63570815,-0.16669156,-0.75371665,-0.48195618,0.848421,0.21886057,0.602987,0.5023899,-0.61968637,,0.15393373,-0.034174547,0.04610151,-0.6249511,-0.17849806,0.7599833,0.22270921,0.8922883,0.39271146,-0.7482224,0.4146807,-0.5178834,,0.0874437,1.3322517,0.46482038,0.99604225,0.0028675622,-0.08883454,-0.053893056,-0.77529705,-0.62929326,-0.0706777,0.63159025,-0.7720741,,-0.048779905,0.24909334,-0.12535857,0.6064052,0.07971534,0.7911499,0.07393823,0.9849985,-0.15591991,-0.79171073,0.15304686,0.5914142,,0.044755112,0.43161413,-0.37377405,0.692382,-0.018507224,-0.72129375,-0.32427835,0.8850395,-0.3339889,0.6445547,0.46514782,0.6067839,,0.8265332085967524,-0.35657402226869406,0.16341420627000003,0.6385058779103767,-0.24239315058389135,0.5034605642437167,0.8722573131570512,,-0.6686110440517353,-0.5506617448637044,0.14974482822000001,2.1377889738247258,0.35785099288568856,0.6492989541186304,0.8755241944797366,,-0.06956664232292899,-0.09922196797587764,0.1150502548,-0.034016912529394594,,-1.7281622e-05,-3.2782555e-06,2.3841858e-06,1.0,-1.28000975e-05,-1.0468066e-05,1.2796372e-05,1.0,-1.1622906e-06,1.0468066e-05,1.1026859e-06,1.0,324,0.985,0,0,0.0,False,1.0464825983870312,1.0499012289649627
1.0035895320015698,11:41:01.003963,11:40:42.933075,0,,0.0068940157,0.011712454,0.07084857,-0.63570815,-0.16669156,-0.75371665,-0.48195618,0.848421,0.21886057,0.602987,0.5023899,-0.61968637,,0.15393373,-0.034174547,0.04610151,-0.6249511,-0.17849806,0.7599833,0.22270921,0.8922883,0.39271146,-0.7482224,0.4146807,-0.5178834,,0.0874437,1.3322517,0.46482038,0.99604225,0.0028675622,-0.08883454,-0.053893056,-0.77529705,-0.62929326,-0.0706777,0.63159025,-0.7720741,,-0.048779905,0.24909334,-0.12535857,0.6064052,0.07971534,0.7911499,0.07393823,0.9849985,-0.15591991,-0.79171073,0.15304686,0.5914142,,0.044755112,0.43161413,-0.37377405,0.692382,-0.018507224,-0.72129375,-0.32427835,0.8850395,-0.3339889,0.6445547,0.46514782,0.6067839,,0.8265332085967524,-0.35657402226869406,0.16341420627000003,0.6385058779103767,-0.24239315058389135,0.5034605642437167,0.8722573131570512,,-0.6686110440517353,-0.5506617448637044,0.14974482822000001,2.1377889738247258,0.35785099288568856,0.6492989541186304,0.8755241944797366,,-0.06956664232292899,-0.09922196797587764,0.1150502548,-0.034016912529394594,,-1.7281622e-05,-3.2782555e-06,2.3841858e-06,1.0,-1.28000975e-05,-1.0468066e-05,1.2796372e-05,1.0,-1.1622906e-06,1.0468066e-05,1.1026859e-06,1.0,332,1.01,0,0,0.0,False,1.0467209092611154,1.0499977893665218
1.021946648001176,11:41:01.041702,11:40:42.933075,0,,0.0068940157,0.011712454,0.07084857,-0.63570815,-0.16669156,-0.75371665,-0.48195618,0.848421,0.21886057,0.602987,0.5023899,-0.61968637,,0.15393373,-0.034174547,0.04610151,-0.6249511,-0.17849806,0.7599833,0.22270921,0.8922883,0.39271146,-0.7482224,0.4146807,-0.5178834,,0.0874437,1.3322517,0.46482038,0.99604225,0.0028675622,-0.08883454,-0.053893056,-0.77529705,-0.62929326,-0.0706777,0.63159025,-0.7720741,,-0.048779905,0.24909334,-0.12535857,0.6064052,0.07971534,0.7911499,0.07393823,0.9849985,-0.15591991,-0.79171073,0.15304686,0.5914142,,0.044755112,0.43161413,-0.37377405,0.692382,-0.018507224,-0.72129375,-0.32427835,0.8850395,-0.3339889,0.6445547,0.46514782,0.6067839,,0.8265332085967524,-0.35657402226869406,0.16341420627000003,0.6385058779103767,-0.24239315058389135,0.5034605642437167,0.8722573131570512,,-0.6686110440517353,-0.5506617448637044,0.14974482822000001,2.1377889738247258,0.35785099288568856,0.6492989541186304,0.8755241944797366,,-0.06956664232292899,-0.09922196797587764,0.1150502548,-0.034016912529394594,,-1.7281622e-05,-3.2782555e-06,2.3841858e-06,1.0,-1.28000975e-05,-1.0468066e-05,1.2796372e-05,1.0,-1.1622906e-06,1.0468066e-05,1.1026859e-06,1.0,340,1.034,0,0,0.0,False,1.0463634429499895,1.049804668563404
1.059726342000431,11:41:01.063110,11:40:42.933075,0,,0.0068940157,0.011712454,0.07084857,-0.63570815,-0.16669156,-0.75371665,-0.48195618,0.848421,0.21886057,0.602987,0.5023899,-0.61968637,,0.15393373,-0.034174547,0.04610151,-0.6249511,-0.17849806,0.7599833,0.22270921,0.8922883,0.39271146,-0.7482224,0.4146807,-0.5178834,,0.0874437,1.3322517,0.46482038,0.99604225,0.0028675622,-0.08883454,-0.053893056,-0.77529705,-0.62929326,-0.0706777,0.63159025,-0.7720741,,-0.048779905,0.24909334,-0.12535857,0.6064052,0.07971534,0.7911499,0.07393823,0.9849985,-0.15591991,-0.79171073,0.15304686,0.5914142,,0.044755112,0.43161413,-0.37377405,0.692382,-0.018507224,-0.72129375,-0.32427835,0.8850395,-0.3339889,0.6445547,0.46514782,0.6067839,,0.8265332085967524,-0.35657402226869406,0.16341420627000003,0.6385058779103767,-0.24239315058389135,0.5034605642437167,0.8722573131570512,,-0.6686110440517353,-0.5506617448637044,0.14974482822000001,2.1377889738247258,0.35785099288568856,0.6492989541186304,0.8755241944797366,,-0.06956664232292899,-0.09922196797587764,0.1150502548,-0.034016912529394594,,-1.7281622e-05,-3.2782555e-06,2.3841858e-06,1.0,-1.28000975e-05,-1.0468066e-05,1.2796372e-05,1.0,-1.1622906e-06,1.0468066e-05,1.1026859e-06,1.0,348,1.059,0,0,0.0,False,1.0468400646981575,1.049514987358727
1.081143706000148,11:41:01.087291,11:40:42.933075,0,,0.006912958,0.011705726,0.0708593,-0.6356619,-0.16670322,-0.75375324,-0.48199,0.84840745,0.21883872,0.60300887,0.502409,-0.61964965,,0.1538826,-0.034187824,0.04610187,-0.6249662,-0.17842153,0.75998896,0.22274897,0.89230156,0.39265886,-0.7481979,0.41468516,-0.517915,,0.08748322,1.3322502,0.46482512,0.9960396,0.00282955,-0.08886539,-0.05394189,-0.7752972,-0.6292889,-0.0706777,0.63159025,-0.7720741,,-0.048832875,0.24909048,-0.12536354,0.60633725,0.079768054,0.7911967,0.07389621,0.9849989,-0.15593779,-0.7917667,0.15301733,0.591347,,0.04477264,0.4316102,-0.37378016,0.69239485,-0.018536752,-0.72128063,-0.32425678,0.8850371,-0.33401626,0.6445517,0.46515128,0.60678446,,0.8265332085967524,-0.35657402226869406,0.16341420627000003,0.6385058779103767,-0.24239315058389135,0.5034605642437167,0.8722573131570512,,-0.6686110440517353,-0.5506617448637044,0.14974482822000001,2.1377889738247258,0.35785099288568856,0.6492989541186304,0.8755241944797366,,-0.06956664232292899,-0.09922196797587764,0.1150502548,-0.034016912529394594,,2.1826476e-05,8.940697e-07,-3.9339066e-06,1.0,-5.0656497e-05,-4.1428953e-05,5.0649047e-05,1.0,-4.61936e-06,4.1436404e-05,4.61936e-06,1.0,360,1.096,0,0,0.0,False,1.0463634429499895,1.0496115477602863
1.1053132890010602,11:41:01.124638,11:40:42.933075,0,,0.006912727,0.011706136,0.07085936,-0.6357656,-0.16655193,-0.7536992,-0.48181716,0.8484824,0.2189287,0.60303754,0.5023326,-0.61968356,,0.15388179,-0.034188032,0.04610145,-0.6249718,-0.1784205,0.75998455,0.22274548,0.8923025,0.39265883,-0.7481944,0.41468367,-0.5179214,,0.08748322,1.3322502,0.46482512,0.9960396,0.00282955,-0.08886539,-0.05394189,-0.7752972,-0.6292889,-0.0706777,0.63159025,-0.7720741,,-0.04883267,0.24909084,-0.12536335,0.60642916,0.079620115,0.79114115,0.07405652,0.9849935,-0.15589549,-0.7916813,0.15312873,0.5914324,,0.044773526,0.4316099,-0.3737801,0.6924003,-0.018537672,-0.7212754,-0.32425487,0.8850363,-0.33402035,0.64454687,0.46515283,0.6067884,,0.8265332085967524,-0.35657402226869406,0.16341420627000003,0.6387155678538612,-0.24239315058389135,0.5034605642437167,0.8722573131570512,,-0.6686033213188611,-0.5506617448637044,0.14974482822000001,2.1377889738247258,0.35785099288568856,0.6492989541186304,0.8755241944797366,,-0.06956664232292899,-0.09922196797587764,0.1150502548,-0.034016912529394594,,2.1826476e-05,8.940697e-07,-3.9339066e-06,1.0,-5.0656497e-05,-4.1428953e-05,5.0649047e-05,1.0,-4.61936e-06,4.1436404e-05,4.61936e-06,1.0,397,1.21,0,0,0.0,False,1.0469592201351996,1.05014262996886
1.1426618870009406,11:41:01.231027,11:40:43.155763,0,,0.006912494,0.011706509,0.07085942,-0.6358693,-0.16640064,-0.7536451,-0.4816444,0.84855723,0.21901873,0.60306615,0.5022563,-0.61971754,,0.1538822,-0.03418678,0.04610151,-0.6250964,-0.17872767,0.75980985,0.22237304,0.89231443,0.39284277,-0.7482011,0.41452566,-0.5180382,,0.08748322,1.3322502,0.46482512,0.9960396,0.00282955,-0.08886539,-0.05394189,-0.7752972,-0.6292889,-0.0706777,0.63159025,-0.7720741,,-0.04883246,0.2490912,-0.12536316,0.60652107,0.07947216,0.7910856,0.07421684,0.98498815,-0.1558532,-0.7915959,0.15324011,0.59151787,,0.044772923,0.43161058,-0.37377912,0.6925773,-0.01821507,-0.7211136,-0.32445243,0.88498384,-0.3339674,0.6442572,0.4652653,0.60700977,,0.8265332085967524,-0.35657402226869406,0.16341420627000003,0.6389252577973457,-0.24239315058389135,0.5034605642437167,0.8722573131570512,,-0.6686033213188611,-0.5506617448637044,0.14974482822000001,2.137369593937757,0.35785099288568856,0.6492989541186304,0.8755241944797366,,-0.06956664232292899,-0.09922196797587764,0.1150502548,-0.034016912529394594,,2.1826476e-05,8.940697e-07,-3.9339066e-06,1.0,-5.0656497e-05,-4.1428953e-05,5.0649047e-05,1.0,-4.61936e-06,4.1436404e-05,4.61936e-06,1.0,405,1.235,0,0,0.0,False,1.0471379532907625,1.0499012289649627
1.2490608640000573,11:41:01.256241,11:40:43.155763,0,,0.0069115236,0.011706941,0.070859835,-0.6358648,-0.16639778,-0.75364953,-0.48164687,0.84855545,0.21902025,0.603069,0.50226027,-0.6197115,,0.15388301,-0.03418657,0.04610187,-0.6250909,-0.1787287,0.75981426,0.2223765,0.8923135,0.39284286,-0.7482047,0.41452715,-0.51803184,,0.08748322,1.3322502,0.46482512,0.9960396,0.00282955,-0.08886539,-0.05394189,-0.7752972,-0.6292889,-0.0706777,0.63159025,-0.7720741,,-0.048831552,0.24909186,-0.12536323,0.6065164,0.07946908,0.7910894,0.07421632,0.98498905,-0.15584785,-0.7915995,0.15323603,0.5915141,,0.044772036,0.43161085,-0.37377918,0.69257194,-0.01821415,-0.72111887,-0.32445437,0.8849847,-0.33396327,0.644262,0.46526375,0.6070059,,0.8265409313296266,-0.35657402226869406,0.16341420627000003,0.6389252577973457,-0.24239315058389135,0.5034605642437167,0.8722573131570512,,-0.6686110440517353,-0.5506617448637044,0.14974482822000001,2.137369593937757,0.35785099288568856,0.6492989541186304,0.8755241944797366,,-0.06956664232292899,-0.09922196797587764,0.1150502548,-0.034016912529394594,,2.1826476e-05,8.940697e-07,-3.9339066e-06,1.0,-5.0656497e-05,-4.1428953e-05,5.0649047e-05,1.0,-4.61936e-06,4.1436404e-05,4.61936e-06,1.0,413,1.259,0,0,0.0,False,1.0469592201351996,1.049804668563404
1.274237780000476,11:41:01.283798,11:40:43.155763,0,,0.006912494,0.011706509,0.07085942,-0.6358693,-0.16640064,-0.7536451,-0.4816444,0.84855723,0.21901873,0.60306615,0.5022563,-0.61971754,,0.15388301,-0.03418657,0.04610187,-0.6250909,-0.1787287,0.75981426,0.2223765,0.8923135,0.39284286,-0.7482047,0.41452715,-0.51803184,,0.08748322,1.3322502,0.46482512,0.9960396,0.00282955,-0.08886539,-0.05394189,-0.7752972,-0.6292889,-0.0706777,0.63159025,-0.7720741,,-0.04883246,0.2490912,-0.12536316,0.60652107,0.07947216,0.7910856,0.07421684,0.98498815,-0.1558532,-0.7915959,0.15324011,0.59151787,,0.044772036,0.43161085,-0.37377918,0.69257194,-0.01821415,-0.72111887,-0.32445437,0.8849847,-0.33396327,0.644262,0.46526375,0.6070059,,0.8265332085967524,-0.35657402226869406,0.16341420627000003,0.6389252577973457,-0.24239315058389135,0.5034605642437167,0.8722573131570512,,-0.6686110440517353,-0.5506617448637044,0.14974482822000001,2.137369593937757,0.35785099288568856,0.6492989541186304,0.8755241944797366,,-0.06956664232292899,-0.09922196797587764,0.1150502548,-0.034016912529394594,,2.1826476e-05,8.940697e-07,-3.9339066e-06,1.0,-5.0656497e-05,-4.1428953e-05,5.0649047e-05,1.0,-4.61936e-06,4.1436404e-05,4.61936e-06,1.0,425,1.296,0,0,0.0,False,1.0468996424166788,1.050046069567301
1.301830410000548,11:41:01.319063,11:40:43.155763,0,,0.006912494,0.011706509,0.07085942,-0.6358693,-0.16640064,-0.7536451,-0.4816444,0.84855723,0.21901873,0.60306615,0.5022563,-0.61971754,,0.15388301,-0.03418657,0.04610187,-0.6250909,-0.1787287,0.75981426,0.2223765,0.8923135,0.39284286,-0.7482047,0.41452715,-0.51803184,,0.08748322,1.3322502,0.46482512,0.9960396,0.00282955,-0.08886539,-0.05394189,-0.7752972,-0.6292889,-0.0706777,0.63159025,-0.7720741,,-0.04883246,0.2490912,-0.12536316,0.60652107,0.07947216,0.7910856,0.07421684,0.98498815,-0.1558532,-0.7915959,0.15324011,0.59151787,,0.044772036,0.43161085,-0.37377918,0.69257194,-0.01821415,-0.72111887,-0.32445437,0.8849847,-0.33396327,0.644262,0.46526375,0.6070059,,0.8265332085967524,-0.35657402226869406,0.16341420627000003,0.6389252577973457,-0.24239315058389135,0.5034605642437167,0.8722573131570512,,-0.6686110440517353,-0.5506617448637044,0.14974482822000001,2.137369593937757,0.35785099288568856,0.6492989541186304,0.8755241944797366,,-0.06956664232292899,-0.09922196797587764,0.1150502548,-0.034016912529394594,,2.1826476e-05,8.940697e-07,-3.9339066e-06,1.0,-5.0656497e-05,-4.1428953e-05,5.0649047e-05,1.0,-4.61936e-06,4.1436404e-05,4.61936e-06,1.0,433,1.321,0,0,0.0,False,1.0467209092611154,1.0499012289649627
1.3370606910011702,11:41:01.345255,11:40:43.155763,0,,0.006912494,0.011706509,0.07085942,-0.6358693,-0.16640064,-0.7536451,-0.4816444,0.84855723,0.21901873,0.60306615,0.5022563,-0.61971754,,0.15388301,-0.03418657,0.04610187,-0.6250909,-0.1787287,0.75981426,0.2223765,0.8923135,0.39284286,-0.7482047,0.41452715,-0.51803184,,0.08748322,1.3322502,0.46482512,0.9960396,0.00282955,-0.08886539,-0.05394189,-0.7752972,-0.6292889,-0.0706777,0.63159025,-0.7720741,,-0.04883246,0.2490912,-0.12536316,0.60652107,0.07947216,0.7910856,0.07421684,0.98498815,-0.1558532,-0.7915959,0.15324011,0.59151787,,0.044772036,0.43161085,-0.37377918,0.69257194,-0.01821415,-0.72111887,-0.32445437,0.8849847,-0.33396327,0.644262,0.46526375,0.6070059,,0.8265332085967524,-0.35657402226869406,0.16341420627000003,0.6389252577973457,-0.24239315058389135,0.5034605642437167,0.8722573131570512,,-0.6686110440517353,-0.5506617448637044,0.14974482822000001,2.137369593937757,0.35785099288568856,0.6492989541186304,0.8755241944797366,,-0.06956664232292899,-0.09922196797587764,0.1150502548,-0.034016912529394594,,2.1826476e-05,8.940697e-07,-3.9339066e-06,1.0,-5.0656497e-05,-4.1428953e-05,5.0649047e-05,1.0,-4.61936e-06,4.1436404e-05,4.61936e-06,1.0,441,1.345,0,0,0.0,False,1.047316686446326,1.0498529487641832
1.3632851430011215,11:41:01.367489,11:40:43.155763,0,,0.006912494,0.011706509,0.07085942,-0.6358693,-0.16640064,-0.7536451,-0.4816444,0.84855723,0.21901873,0.60306615,0.5022563,-0.61971754,,0.15388301,-0.03418657,0.04610187,-0.6250909,-0.1787287,0.75981426,0.2223765,0.8923135,0.39284286,-0.7482047,0.41452715,-0.51803184,,0.08748322,1.3322502,0.46482512,0.9960396,0.00282955,-0.08886539,-0.05394189,-0.7752972,-0.6292889,-0.0706777,0.63159025,-0.7720741,,-0.04883246,0.2490912,-0.12536316,0.60652107,0.07947216,0.7910856,0.07421684,0.98498815,-0.1558532,-0.7915959,0.15324011,0.59151787,,0.044772036,0.43161085,-0.37377918,0.69257194,-0.01821415,-0.72111887,-0.32445437,0.8849847,-0.33396327,0.644262,0.46526375,0.6070059,,0.8265332085967524,-0.35657402226869406,0.16341420627000003,0.6389252577973457,-0.24239315058389135,0.5034605642437167,0.8722573131570512,,-0.6686110440517353,-0.5506617448637044,0.14974482822000001,2.137369593937757,0.35785099288568856,0.6492989541186304,0.8755241944797366,,-0.06956664232292899,-0.09922196797587764,0.1150502548,-0.034016912529394594,,2.1826476e-05,8.940697e-07,-3.9339066e-06,1.0,-5.0656497e-05,-4.1428953e-05,5.0649047e-05,1.0,-4.61936e-06,4.1436404e-05,4.61936e-06,1.0,474,1.448,0,0,0.0,False,1.0468400646981575,1.0499495091657423
1.3855151060015487,11:41:01.468979,11:40:43.363830,0,,0.006912494,0.011706509,0.07085942,-0.6358693,-0.16640064,-0.7536451,-0.4816444,0.84855723,0.21901873,0.60306615,0.5022563,-0.61971754,,0.15388301,-0.03418657,0.04610187,-0.6250909,-0.1787287,0.75981426,0.2223765,0.8923135,0.39284286,-0.7482047,0.41452715,-0.51803184,,0.08748322,1.3322502,0.46482512,0.9960396,0.00282955,-0.08886539,-0.05394189,-0.7752972,-0.6292889,-0.0706777,0.63159025,-0.7720741,,-0.04883246,0.2490912,-0.12536316,0.60652107,0.07947216,0.7910856,0.07421684,0.98498815,-0.1558532,-0.7915959,0.15324011,0.59151787,,0.044772036,0.43161085,-0.37377918,0.69257194,-0.01821415,-0.72111887,-0.32445437,0.8849847,-0.33396327,0.644262,0.46526375,0.6070059,,0.8265332085967524,-0.35657402226869406,0.16341420627000003,0.6389252577973457,-0.24239315058389135,0.5034605642437167,0.8722573131570512,,-0.6686110440517353,-0.5506617448637044,0.14974482822000001,2.137369593937757,0.35785099288568856,0.6492989541186304,0.8755241944797366,,-0.06956664232292899,-0.09922196797587764,0.1150502548,-0.034016912529394594,,2.1826476e-05,8.940697e-07,-3.9339066e-06,1.0,-5.0656497e-05,-4.1428953e-05,5.0649047e-05,1.0,-4.61936e-06,4.1436404e-05,4.61936e-06,1.0,482,1.472,0,0,0.0,False,1.0468996424166788,1.0500943497680806
1.4869884590007132,11:41:01.495372,11:40:43.363830,0,,0.006912494,0.011706509,0.07085942,-0.6358693,-0.16640064,-0.7536451,-0.4816444,0.84855723,0.21901873,0.60306615,0.5022563,-0.61971754,,0.1538822,-0.03418678,0.04610151,-0.6250964,-0.17872767,0.75980985,0.22237304,0.89231443,0.39284277,-0.7482011,0.41452566,-0.5180382,,0.08748322,1.3322502,0.46482512,0.9960396,0.00282955,-0.08886539,-0.05394189,-0.7752972,-0.6292889,-0.0706777,0.63159025,-0.7720741,,-0.04883246,0.2490912,-0.12536316,0.60652107,0.07947216,0.7910856,0.07421684,0.98498815,-0.1558532,-0.7915959,0.15324011,0.59151787,,0.044772923,0.43161058,-0.37377912,0.6925773,-0.01821507,-0.7211136,-0.32445243,0.88498384,-0.3339674,0.6442572,0.4652653,0.60700977,,0.8265332085967524,-0.35657402226869406,0.16341420627000003,0.6389252577973457,-0.24239315058389135,0.5034605642437167,0.8722573131570512,,-0.6686033213188611,-0.5506617448637044,0.14974482822000001,2.137369593937757,0.35785099288568856,0.6492989541186304,0.8755241944797366,,-0.06956664232292899,-0.09922196797587764,0.1150502548,-0.034016912529394594,,2.1826476e-05,8.940697e-07,-3.9339066e-06,1.0,-5.0656497e-05,-4.1428953e-05,5.0649047e-05,1.0,-4.61936e-06,4.1436404e-05,4.61936e-06,1.0,490,1.497,0,0,0.0,False,1.0466017538240733,1.049708108161845
1.5133923320008762,11:41:01.520369,11:40:43.363830,0,,0.006912494,0.011706509,0.07085942,-0.6358693,-0.16640064,-0.7536451,-0.4816444,0.84855723,0.21901873,0.60306615,0.5022563,-0.61971754,,0.15388301,-0.03418657,0.04610187,-0.6250909,-0.1787287,0.75981426,0.2223765,0.8923135,0.39284286,-0.7482047,0.41452715,-0.51803184,,0.08748322,1.3322502,0.46482512,0.9960396,0.00282955,-0.08886539,-0.05394189,-0.7752972,-0.6292889,-0.0706777,0.63159025,-0.7720741,,-0.04883246,0.2490912,-0.12536316,0.60652107,0.07947216,0.7910856,0.07421684,0.98498815,-0.1558532,-0.7915959,0.15324011,0.59151787,,0.044772036,0.43161085,-0.37377918,0.69257194,-0.01821415,-0.72111887,-0.32445437,0.8849847,-0.33396327,0.644262,0.46526375,0.6070059,,0.8265332085967524,-0.35657402226869406,0.16341420627000003,0.6389252577973457,-0.24239315058389135,0.5034605642437167,0.8722573131570512,,-0.6686110440517353,-0.5506617448637044,0.14974482822000001,2.137369593937757,0.35785099288568856,0.6492989541186304,0.8755241944797366,,-0.06956664232292899,-0.09922196797587764,0.1150502548,-0.034016912529394594,,2.1826476e-05,8.940697e-07,-3.9339066e-06,1.0,-5.0656497e-05,-4.1428953e-05,5.0649047e-05,1.0,-4.61936e-06,4.1436404e-05,4.61936e-06,1.0,498,1.522,0,0,0.0,False,1.0464825983870312,1.0503840309727575
1.5383281869999337,11:41:01.540394,11:40:43.363830,0,,0.0069115236,0.011706941,0.070859835,-0.6358648,-0.16639778,-0.75364953,-0.48164687,0.84855545,0.21902025,0.603069,0.50226027,-0.6197115,,0.15388301,-0.03418657,0.04610187,-0.6250909,-0.1787287,0.75981426,0.2223765,0.8923135,0.39284286,-0.7482047,0.41452715,-0.51803184,,0.08748322,1.3322502,0.46482512,0.9960396,0.00282955,-0.08886539,-0.05394189,-0.7752972,-0.6292889,-0.0706777,0.63159025,-0.7720741,,-0.048831552,0.24909186,-0.12536323,0.6065164,0.07946908,0.7910894,0.07421632,0.98498905,-0.15584785,-0.7915995,0.15323603,0.5915141,,0.044772036,0.43161085,-0.37377918,0.69257194,-0.01821415,-0.72111887,-0.32445437,0.8849847,-0.33396327,0.644262,0.46526375,0.6070059,,0.8265409313296266,-0.35657402226869406,0.16341420627000003,0.6389252577973457,-0.24239315058389135,0.5034605642437167,0.8722573131570512,,-0.6686110440517353,-0.5506617448637044,0.14974482822000001,2.137369593937757,0.35785099288568856,0.6492989541186304,0.8755241944797366,,-0.06956664232292899,-0.09922196797587764,0.1150502548,-0.034016912529394594,,2.1826476e-05,8.940697e-07,-3.9339066e-06,1.0,-5.0656497e-05,-4.1428953e-05,5.0649047e-05,1.0,-4.61936e-06,4.1436404e-05,4.61936e-06,1.0,506,1.546,0,0,0.0,False,1.0469592201351996,1.0499977893665218
1.558299361000536,11:41:01.576026,11:40:43.545875,0,,0.006912494,0.011706509,0.07085942,-0.6358693,-0.16640064,-0.7536451,-0.4816444,0.84855723,0.21901873,0.60306615,0.5022563,-0.61971754,,0.15388301,-0.03418657,0.04610187,-0.6250909,-0.1787287,0.75981426,0.2223765,0.8923135,0.39284286,-0.7482047,0.41452715,-0.51803184,,0.08748322,1.3322502,0.46482512,0.9960396,0.00282955,-0.08886539,-0.05394189,-0.7752972,-0.6292889,-0.0706777,0.63159025,-0.7720741,,-0.04883246,0.2490912,-0.12536316,0.60652107,0.07947216,0.7910856,0.07421684,0.98498815,-0.1558532,-0.7915959,0.15324011,0.59151787,,0.044772036,0.43161085,-0.37377918,0.69257194,-0.01821415,-0.72111887,-0.32445437,0.8849847,-0.33396327,0.644262,0.46526375,0.6070059,,0.8265332085967524,-0.35657402226869406,0.16341420627000003,0.6389252577973457,-0.24239315058389135,0.5034605642437167,0.8722573131570512,,-0.6686110440517353,-0.5506617448637044,0.14974482822000001,2.137369593937757,0.35785099288568856,0.6492989541186304,0.8755241944797366,,-0.06956664232292899,-0.09922196797587764,0.1150502548,-0.034016912529394594,,2.1826476e-05,8.940697e-07,-3.9339066e-06,1.0,-5.0656497e-05,-4.1428953e-05,5.0649047e-05,1.0,-4.61936e-06,4.1436404e-05,4.61936e-06,1.0,514,1.571,0,0,0.0,False,1.0466017538240733,1.049708108161845
1.5939989460002835,11:41:01.596664,11:40:43.545875,0,,0.006912494,0.011706509,0.07085942,-0.6358693,-0.16640064,-0.7536451,-0.4816444,0.84855723,0.21901873,0.60306615,0.5022563,-0.61971754,,0.15388301,-0.03418657,0.04610187,-0.6250909,-0.1787287,0.75981426,0.2223765,0.8923135,0.39284286,-0.7482047,0.41452715,-0.51803184,,0.08748322,1.3322502,0.46482512,0.9960396,0.00282955,-0.08886539,-0.05394189,-0.7752972,-0.6292889,-0.0706777,0.63159025,-0.7720741,,-0.04883246,0.2490912,-0.12536316,0.60652107,0.07947216,0.7910856,0.07421684,0.98498815,-0.1558532,-0.7915959,0.15324011,0.59151787,,0.044772036,0.43161085,-0.37377918,0.69257194,-0.01821415,-0.72111887,-0.32445437,0.8849847,-0.33396327,0.644262,0.46526375,0.6070059,,0.8265332085967524,-0.35657402226869406,0.16341420627000003,0.6389252577973457,-0.24239315058389135,0.5034605642437167,0.8722573131570512,,-0.6686110440517353,-0.5506617448637044,0.14974482822000001,2.137369593937757,0.35785099288568856,0.6492989541186304,0.8755241944797366,,-0.06956664232292899,-0.09922196797587764,0.1150502548,-0.034016912529394594,,2.1826476e-05,8.940697e-07,-3.9339066e-06,1.0,-5.0656497e-05,-4.1428953e-05,5.0649047e-05,1.0,-4.61936e-06,4.1436404e-05,4.61936e-06,1.0,522,1.595,0,0,0.0,False,1.0468996424166788,1.049708108161845
1.6146949320009298,11:41:01.620532,11:40:43.545875,0,,0.006912494,0.011706509,0.07085942,-0.6358693,-0.16640064,-0.7536451,-0.4816444,0.84855723,0.21901873,0.60306615,0.5022563,-0.61971754,,0.15388301,-0.03418657,0.04610187,-0.6250909,-0.1787287,0.75981426,0.2223765,0.8923135,0.39284286,-0.7482047,0.41452715,-0.51803184,,0.08748322,1.3322502,0.46482512,0.9960396,0.00282955,-0.08886539,-0.05394189,-0.7752972,-0.6292889,-0.0706777,0.63159025,-0.7720741,,-0.04883246,0.2490912,-0.12536316,0.60652107,0.07947216,0.7910856,0.07421684,0.98498815,-0.1558532,-0.7915959,0.15324011,0.59151787,,0.044772036,0.43161085,-0.37377918,0.69257194,-0.01821415,-0.72111887,-0.32445437,0.8849847,-0.33396327,0.644262,0.46526375,0.6070059,,0.8265332085967524,-0.35657402226869406,0.16341420627000003,0.6389252577973457,-0.24239315058389135,0.5034605642437167,0.8722573131570512,,-0.6686110440517353,-0.5506617448637044,0.14974482822000001,2.137369593937757,0.35785099288568856,0.6492989541186304,0.8755241944797366,,-0.06956664232292899,-0.09922196797587764,0.1150502548,-0.034016912529394594,,2.1826476e-05,8.940697e-07,-3.9339066e-06,1.0,-5.0656497e-05,-4.1428953e-05,5.0649047e-05,1.0,-4.61936e-06,4.1436404e-05,4.61936e-06,1.0,547,1.673,0,0,0.0,False,1.0468400646981575,1.0499012289649627
1.6385181519999605,11:41:01.694268,11:40:43.545875,0,,0.0069115236,0.011706941,0.070859835,-0.6358648,-0.16639778,-0.75364953,-0.48164687,0.84855545,0.21902025,0.603069,0.50226027,-0.6197115,,0.15388301,-0.03418657,0.04610187,-0.6250909,-0.1787287,0.75981426,0.2223765,0.8923135,0.39284286,-0.7482047,0.41452715,-0.51803184,,0.08748322,1.3322502,0.46482512,0.9960396,0.00282955,-0.08886539,-0.05394189,-0.7752972,-0.6292889,-0.0706777,0.63159025,-0.7720741,,-0.048831552,0.24909186,-0.12536323,0.6065164,0.07946908,0.7910894,0.07421632,0.98498905,-0.15584785,-0.7915995,0.15323603,0.5915141,,0.044772036,0.43161085,-0.37377918,0.69257194,-0.01821415,-0.72111887,-0.32445437,0.8849847,-0.33396327,0.644262,0.46526375,0.6070059,,0.8265409313296266,-0.35657402226869406,0.16341420627000003,0.6389252577973457,-0.24239315058389135,0.5034605642437167,0.8722573131570512,,-0.6686110440517353,-0.5506617448637044,0.14974482822000001,2.137369593937757,0.35785099288568856,0.6492989541186304,0.8755241944797366,,-0.06956664232292899,-0.09922196797587764,0.1150502548,-0.034016912529394594,,2.1826476e-05,8.940697e-07,-3.9339066e-06,1.0,-5.0656497e-05,-4.1428953e-05,5.0649047e-05,1.0,-4.61936e-06,4.1436404e-05,4.61936e-06,1.0,555,1.698,0,0,0.0,False,1.0463634429499895,1.049804668563404
1.7122994910005218,11:41:01.724489,11:40:43.713916,0,,0.006912727,0.011706136,0.07085936,-0.6357656,-0.16655193,-0.7536992,-0.48181716,0.8484824,0.2189287,0.60303754,0.5023326,-0.61968356,,0.15388301,-0.03418657,0.04610187,-0.6250909,-0.1787287,0.75981426,0.2223765,0.8923135,0.39284286,-0.7482047,0.41452715,-0.51803184,,0.08748322,1.3322502,0.46482512,0.9960396,0.00282955,-0.08886539,-0.05394189,-0.7752972,-0.6292889,-0.0706777,0.63159025,-0.7720741,,-0.04883267,0.24909084,-0.12536335,0.60642916,0.079620115,0.79114115,0.07405652,0.9849935,-0.15589549,-0.7916813,0.15312873,0.5914324,,0.044772036,0.43161085,-0.37377918,0.69257194,-0.01821415,-0.72111887,-0.32445437,0.8849847,-0.33396327,0.644262,0.46526375,0.6070059,,0.8265332085967524,-0.35657402226869406,0.16341420627000003,0.6387155678538612,-0.24239315058389135,0.5034605642437167,0.8722573131570512,,-0.6686110440517353,-0.5506617448637044,0.14974482822000001,2.137369593937757,0.35785099288568856,0.6492989541186304,0.8755241944797366,,-0.06956664232292899,-0.09922196797587764,0.1150502548,-0.034016912529394594,,2.1826476e-05,8.940697e-07,-3.9339066e-06,1.0,-5.0656497e-05,-4.1428953e-05,5.0649047e-05,1.0,-4.61936e-06,4.1436404e-05,4.61936e-06,1.0,563,1.722,0,0,0.0,False,1.046244287512947,1.0500943497680806
1.7425119700001233,11:41:01.746148,11:40:43.713916,0,,0.006912958,0.011705726,0.0708593,-0.6356619,-0.16670322,-0.75375324,-0.48199,0.84840745,0.21883872,0.60300887,0.502409,-0.61964965,,0.15388301,-0.03418657,0.04610187,-0.6250909,-0.1787287,0.75981426,0.2223765,0.8923135,0.39284286,-0.7482047,0.41452715,-0.51803184,,0.08748322,1.3322502,0.46482512,0.9960396,0.00282955,-0.08886539,-0.05394189,-0.7752972,-0.6292889,-0.0706777,0.63159025,-0.7720741,,-0.048832875,0.24909048,-0.12536354,0.60633725,0.079768054,0.7911967,0.07389621,0.9849989,-0.15593779,-0.7917667,0.15301733,0.591347,,0.044772036,0.43161085,-0.37377918,0.69257194,-0.01821415,-0.72111887,-0.32445437,0.8849847,-0.33396327,0.644262,0.46526375,0.6070059,,0.8265332085967524,-0.35657402226869406,0.16341420627000003,0.6385058779103767,-0.24239315058389135,0.5034605642437167,0.8722573131570512,,-0.6686110440517353,-0.5506617448637044,0.14974482822000001,2.137369593937757,0.35785099288568856,0.6492989541186304,0.8755241944797366,,-0.06956664232292899,-0.09922196797587764,0.1150502548,-0.034016912529394594,,2.1826476e-05,8.940697e-07,-3.9339066e-06,1.0,-5.0656497e-05,-4.1428953e-05,5.0649047e-05,1.0,-4.61936e-06,4.1436404e-05,4.61936e-06,1.0,571,1.747,0,0,0.0,False,1.0467804869796362,1.0497563883626244
1.764118804001555,11:41:01.768161,11:40:43.713916,0,,0.00691217,0.011705145,0.07086007,-0.6355827,-0.16657734,-0.75384784,-0.48196024,0.84841484,0.21887553,0.60311604,0.5024382,-0.6195215,,0.15388301,-0.03418657,0.04610187,-0.6250909,-0.1787287,0.75981426,0.2223765,0.8923135,0.39284286,-0.7482047,0.41452715,-0.51803184,,0.08748322,1.3322502,0.46482512,0.9960396,0.00282955,-0.08886539,-0.05394189,-0.7752972,-0.6292889,-0.0706777,0.63159025,-0.7720741,,-0.048832122,0.24909057,-0.12536453,0.60624784,0.07963993,0.7912781,0.0739798,0.98501134,-0.1558192,-0.7918274,0.15300365,0.59126925,,0.044772036,0.43161085,-0.37377918,0.69257194,-0.01821415,-0.72111887,-0.32445437,0.8849847,-0.33396327,0.644262,0.46526375,0.6070059,,0.8265332085967524,-0.35657402226869406,0.16341420627000003,0.6385058779103767,-0.2425297870836568,0.503571982147413,0.8722573131570512,,-0.6686110440517353,-0.5506617448637044,0.14974482822000001,2.137369593937757,0.35785099288568856,0.6492989541186304,0.8755241944797366,,-0.06956664232292899,-0.09922196797587764,0.1150502548,-0.034016912529394594,,2.1826476e-05,8.940697e-07,-3.9339066e-06,1.0,-5.0656497e-05,-4.1428953e-05,5.0649047e-05,1.0,-4.61936e-06,4.1436404e-05,4.61936e-06,1.0,579,1.771,0,0,0.0,False,1.0469592201351996,1.049804668563404
1.7861474330002238,11:41:01.794603,11:40:43.713916,0,,0.00691217,0.011705145,0.07086007,-0.6355827,-0.16657734,-0.75384784,-0.48196024,0.84841484,0.21887553,0.60311604,0.5024382,-0.6195215,,0.15388301,-0.03418657,0.04610187,-0.6250909,-0.1787287,0.75981426,0.2223765,0.8923135,0.39284286,-0.7482047,0.41452715,-0.51803184,,0.08748322,1.3322502,0.46482512,0.9960396,0.00282955,-0.08886539,-0.05394189,-0.7752972,-0.6292889,-0.0706777,0.63159025,-0.7720741,,-0.048832122,0.24909057,-0.12536453,0.60624784,0.07963993,0.7912781,0.0739798,0.98501134,-0.1558192,-0.7918274,0.15300365,0.59126925,,0.044772036,0.43161085,-0.37377918,0.69257194,-0.01821415,-0.72111887,-0.32445437,0.8849847,-0.33396327,0.644262,0.46526375,0.6070059,,0.8265332085967524,-0.35657402226869406,0.16341420627000003,0.6385058779103767,-0.2425297870836568,0.503571982147413,0.8722573131570512,,-0.6686110440517353,-0.5506617448637044,0.14974482822000001,2.137369593937757,0.35785099288568856,0.6492989541186304,0.8755241944797366,,-0.06956664232292899,-0.09922196797587764,0.1150502548,-0.034016912529394594,,2.1826476e-05,8.940697e-07,-3.9339066e-06,1.0,-5.0656497e-05,-4.1428953e-05,5.0649047e-05,1.0,-4.61936e-06,4.1436404e-05,4.61936e-06,1.0,587,1.796,0,0,0.0,False,1.0466017538240733,1.0499012289649627
1.8125981660014077,11:41:01.824351,11:40:43.713916,0,,0.0069113765,0.011704542,0.07086079,-0.6355034,-0.16645142,-0.75394255,-0.48193046,0.84842217,0.2189124,0.6032233,0.50246745,-0.61939335,,0.15388301,-0.03418657,0.04610187,-0.6250909,-0.1787287,0.75981426,0.2223765,0.8923135,0.39284286,-0.7482047,0.41452715,-0.51803184,,0.08748322,1.3322502,0.46482512,0.9960396,0.00282955,-0.08886539,-0.05394189,-0.7752972,-0.6292889,-0.0706777,0.63159025,-0.7720741,,-0.048831366,0.24909066,-0.12536551,0.6061584,0.079511784,0.79135954,0.0740634,0.9850238,-0.1557006,-0.791888,0.15299,0.59119153,,0.044772036,0.43161085,-0.37377918,0.69257194,-0.01821415,-0.72111887,-0.32445437,0.8849847,-0.33396327,0.644262,0.46526375,0.6070059,,0.8265332085967524,-0.35657402226869406,0.16341420627000003,0.6385058779103767,-0.24266642358342222,0.5036834000511095,0.8722573131570512,,-0.6686110440517353,-0.5506617448637044,0.14974482822000001,2.137369593937757,0.35785099288568856,0.6492989541186304,0.8755241944797366,,-0.06956664232292899,-0.09922196797587764,0.1150502548,-0.034016912529394594,,2.1826476e-05,8.940697e-07,-3.9339066e-06,1.0,-5.0656497e-05,-4.1428953e-05,5.0649047e-05,1.0,-4.61936e-06,4.1436404e-05,4.61936e-06,1.0,595,1.821,0,0,0.0,False,1.0468400646981575,1.0499977893665218
1.842353591000574,11:41:01.847525,11:40:43.713916,0,,0.0069113765,0.011704542,0.07086079,-0.6355034,-0.16645142,-0.75394255,-0.48193046,0.84842217,0.2189124,0.6032233,0.50246745,-0.61939335,,0.15388301,-0.03418657,0.04610187,-0.6250909,-0.1787287,0.75981426,0.2223765,0.8923135,0.39284286,-0.7482047,0.41452715,-0.51803184,,0.08748322,1.3322502,0.46482512,0.9960396,0.00282955,-0.08886539,-0.05394189,-0.7752972,-0.6292889,-0.0706777,0.63159025,-0.7720741,,-0.048831366,0.24909066,-0.12536551,0.6061584,0.079511784,0.79135954,0.0740634,0.9850238,-0.1557006,-0.791888,0.15299,0.59119153,,0.044772036,0.43161085,-0.37377918,0.69257194,-0.01821415,-0.72111887,-0.32445437,0.8849847,-0.33396327,0.644262,0.46526375,0.6070059,,0.8265332085967524,-0.35657402226869406,0.16341420627000003,0.6385058779103767,-0.24266642358342222,0.5036834000511095,0.8722573131570512,,-0.6686110440517353,-0.5506617448637044,0.14974482822000001,2.137369593937757,0.35785099288568856,0.6492989541186304,0.8755241944797366,,-0.06956664232292899,-0.09922196797587764,0.1150502548,-0.034016912529394594,,2.1826476e-05,8.940697e-07,-3.9339066e-06,1.0,-5.0656497e-05,-4.1428953e-05,5.0649047e-05,1.0,-4.61936e-06,4.1436404e-05,4.61936e-06,1.0,624,1.911,0,0,0.0,False,1.0468400646981575,1.0502391903704191
1.8655576960009057,11:41:01.929908,11:40:43.923665,0,,0.0069113765,0.011704542,0.07086079,-0.6355034,-0.16645142,-0.75394255,-0.48193046,0.84842217,0.2189124,0.6032233,0.50246745,-0.61939335,,0.15388301,-0.03418657,0.04610187,-0.6250909,-0.1787287,0.75981426,0.2223765,0.8923135,0.39284286,-0.7482047,0.41452715,-0.51803184,,0.08748322,1.3322502,0.46482512,0.9960396,0.00282955,-0.08886539,-0.05394189,-0.7752972,-0.6292889,-0.0706777,0.63159025,-0.7720741,,-0.048831366,0.24909066,-0.12536551,0.6061584,0.079511784,0.79135954,0.0740634,0.9850238,-0.1557006,-0.791888,0.15299,0.59119153,,0.044772036,0.43161085,-0.37377918,0.69257194,-0.01821415,-0.72111887,-0.32445437,0.8849847,-0.33396327,0.644262,0.46526375,0.6070059,,0.8265332085967524,-0.35657402226869406,0.16341420627000003,0.6385058779103767,-0.24266642358342222,0.5036834000511095,0.8722573131570512,,-0.6686110440517353,-0.5506617448637044,0.14974482822000001,2.137369593937757,0.35785099288568856,0.6492989541186304,0.8755241944797366,,-0.06956664232292899,-0.09922196797587764,0.1150502548,-0.034016912529394594,,2.1826476e-05,8.940697e-07,-3.9339066e-06,1.0,-5.0656497e-05,-4.1428953e-05,5.0649047e-05,1.0,-4.61936e-06,4.1436404e-05,4.61936e-06,1.0,632,1.935,0,0,0.0,False,1.04642302066851,1.0502391903704191
1.9479424220007786,11:41:01.959641,11:40:43.923665,0,,0.0069113765,0.011704542,0.07086079,-0.6355034,-0.16645142,-0.75394255,-0.48193046,0.84842217,0.2189124,0.6032233,0.50246745,-0.61939335,,0.15388301,-0.03418657,0.04610187,-0.6250909,-0.1787287,0.75981426,0.2223765,0.8923135,0.39284286,-0.7482047,0.41452715,-0.51803184,,0.08748322,1.3322502,0.46482512,0.9960396,0.00282955,-0.08886539,-0.05394189,-0.7752972,-0.6292889,-0.0706777,0.63159025,-0.7720741,,-0.048831366,0.24909066,-0.12536551,0.6061584,0.079511784,0.79135954,0.0740634,0.9850238,-0.1557006,-0.791888,0.15299,0.59119153,,0.044772036,0.43161085,-0.37377918,0.69257194,-0.01821415,-0.72111887,-0.32445437,0.8849847,-0.33396327,0.644262,0.46526375,0.6070059,,0.8265332085967524,-0.35657402226869406,0.16341420627000003,0.6385058779103767,-0.24266642358342222,0.5036834000511095,0.8722573131570512,,-0.6686110440517353,-0.5506617448637044,0.14974482822000001,2.137369593937757,0.35785099288568856,0.6492989541186304,0.8755241944797366,,-0.06956664232292899,-0.09922196797587764,0.1150502548,-0.034016912529394594,,2.1826476e-05,8.940697e-07,-3.9339066e-06,1.0,-5.0656497e-05,-4.1428953e-05,5.0649047e-05,1.0,-4.61936e-06,4.1436404e-05,4.61936e-06,1.0,640,1.96,0,0,0.0,False,1.0468400646981575,1.0496115477602863
1.977652012001272,11:41:01.984112,11:40:43.923665,0,,0.0069113765,0.011704542,0.07086079,-0.6355034,-0.16645142,-0.75394255,-0.48193046,0.84842217,0.2189124,0.6032233,0.50246745,-0.61939335,,0.15388301,-0.03418657,0.04610187,-0.6250909,-0.1787287,0.75981426,0.2223765,0.8923135,0.39284286,-0.7482047,0.41452715,-0.51803184,,0.08748322,1.3322502,0.46482512,0.9960396,0.00282955,-0.08886539,-0.05394189,-0.7752972,-0.6292889,-0.0706777,0.63159025,-0.7720741,,-0.048831366,0.24909066,-0.12536551,0.6061584,0.079511784,0.79135954,0.0740634,0.9850238,-0.1557006,-0.791888,0.15299,0.59119153,,0.044772036,0.43161085,-0.37377918,0.69257194,-0.01821415,-0.72111887,-0.32445437,0.8849847,-0.33396327,0.644262,0.46526375,0.6070059,,0.8265332085967524,-0.35657402226869406,0.16341420627000003,0.6385058779103767,-0.24266642358342222,0.5036834000511095,0.8722573131570512,,-0.6686110440517353,-0.5506617448637044,0.14974482822000001,2.137369593937757,0.35785099288568856,0.6492989541186304,0.8755241944797366,,-0.06956664232292899,-0.09922196797587764,0.1150502548,-0.034016912529394594,,2.1826476e-05,8.940697e-07,-3.9339066e-06,1.0,-5.0656497e-05,-4.1428953e-05,5.0649047e-05,1.0,-4.61936e-06,4.1436404e-05,4.61936e-06,1.0,648,1.984,0,0,0.0,False,1.0464825983870312,1.0499012289649627
2.0021429650005302,11:41:02.005025,11:40:43.923665,0,,0.0069113765,0.011704542,0.07086079,-0.6355034,-0.16645142,-0.75394255,-0.48193046,0.84842217,0.2189124,0.6032233,0.50246745,-0.61939335,,0.15388301,-0.03418657,0.04610187,-0.6250909,-0.1787287,0.75981426,0.2223765,0.8923135,0.39284286,-0.7482047,0.41452715,-0.51803184,,0.08748322,1.3322502,0.46482512,0.9960396,0.00282955,-0.08886539,-0.05394189,-0.7752972,-0.6292889,-0.0706777,0.63159025,-0.7720741,,-0.048831366,0.24909066,-0.12536551,0.6061584,0.079511784,0.79135954,0.0740634,0.9850238,-0.1557006,-0.791888,0.15299,0.59119153,,0.044772036,0.43161085,-0.37377918,0.69257194,-0.01821415,-0.72111887,-0.32445437,0.8849847,-0.33396327,0.644262,0.46526375,0.6070059,,0.8265332085967524,-0.35657402226869406,0.16341420627000003,0.6385058779103767,-0.24266642358342222,0.5036834000511095,0.8722573131570512,,-0.6686110440517353,-0.5506617448637044,0.14974482822000001,2.137369593937757,0.35785099288568856,0.6492989541186304,0.8755241944797366,,-0.06956664232292899,-0.09922196797587764,0.1150502548,-0.034016912529394594,,2.1826476e-05,8.940697e-07,-3.9339066e-06,1.0,-5.0656497e-05,-4.1428953e-05,5.0649047e-05,1.0,-4.61936e-06,4.1436404e-05,4.61936e-06,1.0,656,2.009,0,0,0.0,False,1.0471379532907625,1.0497563883626244
2.022974895000516,11:41:02.034237,11:40:43.923665,0,,0.00691041,0.011704959,0.070861205,-0.6354989,-0.16644856,-0.75394696,-0.48193297,0.84842044,0.21891387,0.6032261,0.50247145,-0.6193874,,0.15388301,-0.03418657,0.04610187,-0.6250909,-0.1787287,0.75981426,0.2223765,0.8923135,0.39284286,-0.7482047,0.41452715,-0.51803184,,0.08748322,1.3322502,0.46482512,0.9960396,0.00282955,-0.08886539,-0.05394189,-0.7752972,-0.6292889,-0.0706777,0.63159025,-0.7720741,,-0.04883046,0.24909133,-0.12536559,0.6061537,0.0795087,0.7913634,0.07406288,0.9850247,-0.15569526,-0.79189163,0.1529859,0.5911878,,0.044772036,0.43161085,-0.37377918,0.69257194,-0.01821415,-0.72111887,-0.32445437,0.8849847,-0.33396327,0.644262,0.46526375,0.6070059,,0.8265409313296266,-0.35657402226869406,0.16341420627000003,0.6385058779103767,-0.24266642358342222,0.5036834000511095,0.8722573131570512,,-0.6686110440517353,-0.5506617448637044,0.14974482822000001,2.137369593937757,0.35785099288568856,0.6492989541186304,0.8755241944797366,,-0.06956664232292899,-0.09922196797587764,0.1150502548,-0.034016912529394594,,2.1826476e-05,8.940697e-07,-3.9339066e-06,1.0,-5.0656497e-05,-4.1428953e-05,5.0649047e-05,1.0,-4.61936e-06,4.1436404e-05,4.61936e-06,1.0,668,2.046,0,0,0.0,False,1.0473762641648467,1.0497563883626244
2.0522158990006574,11:41:02.067577,11:40:43.923665,0,,0.0069113765,0.011704542,0.07086079,-0.6355034,-0.16645142,-0.75394255,-0.48193046,0.84842217,0.2189124,0.6032233,0.50246745,-0.61939335,,0.15388301,-0.03418657,0.04610187,-0.6250909,-0.1787287,0.75981426,0.2223765,0.8923135,0.39284286,-0.7482047,0.41452715,-0.51803184,,0.08748322,1.3322502,0.46482512,0.9960396,0.00282955,-0.08886539,-0.05394189,-0.7752972,-0.6292889,-0.0706777,0.63159025,-0.7720741,,-0.048831366,0.24909066,-0.12536551,0.6061584,0.079511784,0.79135954,0.0740634,0.9850238,-0.1557006,-0.791888,0.15299,0.59119153,,0.044772036,0.43161085,-0.37377918,0.69257194,-0.01821415,-0.72111887,-0.32445437,0.8849847,-0.33396327,0.644262,0.46526375,0.6070059,,0.8265332085967524,-0.35657402226869406,0.16341420627000003,0.6385058779103767,-0.24266642358342222,0.5036834000511095,0.8722573131570512,,-0.6686110440517353,-0.5506617448637044,0.14974482822000001,2.137369593937757,0.35785099288568856,0.6492989541186304,0.8755241944797366,,-0.06956664232292899,-0.09922196797587764,0.1150502548,-0.034016912529394594,,2.1826476e-05,8.940697e-07,-3.9339066e-06,1.0,-5.0656497e-05,-4.1428953e-05,5.0649047e-05,1.0,-4.61936e-06,4.1436404e-05,4.61936e-06,1.0,693,2.124,0,0,0.0,False,1.0463634429499895,1.050046069567301
2.0856105530001514,11:41:02.146455,11:40:44.112551,0,,0.0069113765,0.011704542,0.07086079,-0.6355034,-0.16645142,-0.75394255,-0.48193046,0.84842217,0.2189124,0.6032233,0.50246745,-0.61939335,,0.15388301,-0.03418657,0.04610187,-0.6250909,-0.1787287,0.75981426,0.2223765,0.8923135,0.39284286,-0.7482047,0.41452715,-0.51803184,,0.08748322,1.3322502,0.46482512,0.9960396,0.00282955,-0.08886539,-0.05394189,-0.7752972,-0.6292889,-0.0706777,0.63159025,-0.7720741,,-0.048831366,0.24909066,-0.12536551,0.6061584,0.079511784,0.79135954,0.0740634,0.9850238,-0.1557006,-0.791888,0.15299,0.59119153,,0.044772036,0.43161085,-0.37377918,0.69257194,-0.01821415,-0.72111887,-0.32445437,0.8849847,-0.33396327,0.644262,0.46526375,0.6070059,,0.8265332085967524,-0.35657402226869406,0.16341420627000003,0.6385058779103767,-0.24266642358342222,0.5036834000511095,0.8722573131570512,,-0.6686110440517353,-0.5506617448637044,0.14974482822000001,2.137369593937757,0.35785099288568856,0.6492989541186304,0.8755241944797366,,-0.06956664232292899,-0.09922196797587764,0.1150502548,-0.034016912529394594,,2.1826476e-05,8.940697e-07,-3.9339066e-06,1.0,-5.0656497e-05,-4.1428953e-05,5.0649047e-05,1.0,-4.61936e-06,4.1436404e-05,4.61936e-06,1.0,701,2.148,0,0,0.0,False,1.0469592201351996,1.0497563883626244
2.164468763001423,11:41:02.167934,11:40:44.112551,0,,0.00691041,0.011704959,0.070861205,-0.6354989,-0.16644856,-0.75394696,-0.48193297,0.84842044,0.21891387,0.6032261,0.50247145,-0.6193874,,0.15388301,-0.03418657,0.04610187,-0.6250909,-0.1787287,0.75981426,0.2223765,0.8923135,0.39284286,-0.7482047,0.41452715,-0.51803184,,0.08748322,1.3322502,0.46482512,0.9960396,0.00282955,-0.08886539,-0.05394189,-0.7752972,-0.6292889,-0.0706777,0.63159025,-0.7720741,,-0.04883046,0.24909133,-0.12536559,0.6061537,0.0795087,0.7913634,0.07406288,0.9850247,-0.15569526,-0.79189163,0.1529859,0.5911878,,0.044772036,0.43161085,-0.37377918,0.69257194,-0.01821415,-0.72111887,-0.32445437,0.8849847,-0.33396327,0.644262,0.46526375,0.6070059,,0.8265409313296266,-0.35657402226869406,0.16341420627000003,0.6385058779103767,-0.24266642358342222,0.5036834000511095,0.8722573131570512,,-0.6686110440517353,-0.5506617448637044,0.14974482822000001,2.137369593937757,0.35785099288568856,0.6492989541186304,0.8755241944797366,,-0.06956664232292899,-0.09922196797587764,0.1150502548,-0.034016912529394594,,2.1826476e-05,8.940697e-07,-3.9339066e-06,1.0,-5.0656497e-05,-4.1428953e-05,5.0649047e-05,1.0,-4.61936e-06,4.1436404e-05,4.61936e-06,1.0,709,2.173,0,0,0.0,False,1.0467804869796362,1.0499012289649627
2.185967602999881,11:41:02.195875,11:40:44.112551,0,,0.0069113765,0.011704542,0.07086079,-0.6355034,-0.16645142,-0.75394255,-0.48193046,0.84842217,0.2189124,0.6032233,0.50246745,-0.61939335,,0.15388301,-0.03418657,0.04610187,-0.6250909,-0.1787287,0.75981426,0.2223765,0.8923135,0.39284286,-0.7482047,0.41452715,-0.51803184,,0.08748322,1.3322502,0.46482512,0.9960396,0.00282955,-0.08886539,-0.05394189,-0.7752972,-0.6292889,-0.0706777,0.63159025,-0.7720741,,-0.048831366,0.24909066,-0.12536551,0.6061584,0.079511784,0.79135954,0.0740634,0.9850238,-0.1557006,-0.791888,0.15299,0.59119153,,0.044772036,0.43161085,-0.37377918,0.69257194,-0.01821415,-0.72111887,-0.32445437,0.8849847,-0.33396327,0.644262,0.46526375,0.6070059,,0.8265332085967524,-0.35657402226869406,0.16341420627000003,0.6385058779103767,-0.24266642358342222,0.5036834000511095,0.8722573131570512,,-0.6686110440517353,-0.5506617448637044,0.14974482822000001,2.137369593937757,0.35785099288568856,0.6492989541186304,0.8755241944797366,,-0.06956664232292899,-0.09922196797587764,0.1150502548,-0.034016912529394594,,2.1826476e-05,8.940697e-07,-3.9339066e-06,1.0,-5.0656497e-05,-4.1428953e-05,5.0649047e-05,1.0,-4.61936e-06,4.1436404e-05,4.61936e-06,1.0,721,2.21,0,0,0.0,False,1.0467209092611154,1.0499977893665218
2.2139079270000366,11:41:02.230918,11:40:44.112551,0,,0.006903501,0.011692107,0.07086189,-0.63553256,-0.16646184,-0.7539156,-0.48191196,0.84843355,0.2189089,0.6032074,0.50244474,-0.61942714,,0.15391546,-0.034172695,0.04610747,-0.62509185,-0.17876504,0.7598048,0.222348,0.89231014,0.39286643,-0.7482122,0.41451868,-0.51802766,,0.08743214,1.3322518,0.4648269,0.9960437,0.0028881822,-0.088817805,-0.053866565,-0.775297,-0.6292956,-0.0706777,0.63159025,-0.7720741,,-0.048780464,0.24908054,-0.12537773,0.6062212,0.07945866,0.79131675,0.07410985,0.9850229,-0.15568426,-0.7918356,0.15302347,0.5912531,,0.044781197,0.43162128,-0.37377,0.6925664,-0.018250749,-0.7211232,-0.32443976,0.88498014,-0.33398956,0.64427525,0.465271,0.6069862,,0.8265332085967524,-0.35657402226869406,0.16341420627000003,0.6385058779103767,-0.24266642358342222,0.5036834000511095,0.8722573131570512,,-0.6686110440517353,-0.5506617448637044,0.14974482822000001,2.137369593937757,0.35785099288568856,0.6492989541186304,0.8755241944797366,,-0.06956664232292899,-0.09922196797587764,0.1150502548,-0.034016912529394594,,-2.9254705e-05,7.748604e-07,-1.7881393e-06,1.0,7.733703e-06,6.325543e-06,-7.737428e-06,1.0,7.1525574e-07,-6.329268e-06,-7.4505806e-07,0.99999994,729,2.234,0,0,0.0,False,1.0467804869796362,1.0498529487641832
2.2489263140014373,11:41:02.252000,11:40:44.112551,0,,0.006903032,0.011692889,0.07086201,-0.63573986,-0.16615924,-0.7538075,-0.48156643,0.84858334,0.21908903,0.60326487,0.5022921,-0.619495,,0.15391546,-0.034172695,0.04610747,-0.62509185,-0.17876504,0.7598048,0.222348,0.89231014,0.39286643,-0.7482122,0.41451868,-0.51802766,,0.08743214,1.3322518,0.4648269,0.9960437,0.0028881822,-0.088817805,-0.053866565,-0.775297,-0.6292956,-0.0706777,0.63159025,-0.7720741,,-0.04878005,0.24908125,-0.12537734,0.6064049,0.079162754,0.79120564,0.074430466,0.9850121,-0.1555996,-0.79166484,0.15324616,0.59142405,,0.044781197,0.43162128,-0.37377,0.6925664,-0.018250749,-0.7211232,-0.32443976,0.88498014,-0.33398956,0.64427525,0.465271,0.6069862,,0.8265332085967524,-0.35657402226869406,0.16341420627000003,0.6389252577973457,-0.24266642358342222,0.5036834000511095,0.8722573131570512,,-0.6686110440517353,-0.5506617448637044,0.14974482822000001,2.137369593937757,0.35785099288568856,0.6492989541186304,0.8755241944797366,,-0.06956664232292899,-0.09922196797587764,0.1150502548,-0.034016912529394594,,-2.9254705e-05,7.748604e-07,-1.7881393e-06,1.0,7.733703e-06,6.325543e-06,-7.737428e-06,1.0,7.1525574e-07,-6.329268e-06,-7.4505806e-07,0.99999994,737,2.259,0,0,0.0,False,1.0466613315425946,1.0498529487641832
2.270024491001095,11:41:02.284050,11:40:44.269578,0,,0.006902065,0.011693306,0.07086243,-0.6357354,-0.1661564,-0.75381196,-0.48156884,0.8485815,0.21909052,0.60326767,0.50229615,-0.619489,,0.15391546,-0.034172695,0.04610747,-0.62509185,-0.17876504,0.7598048,0.222348,0.89231014,0.39286643,-0.7482122,0.41451868,-0.51802766,,0.08743214,1.3322518,0.4648269,0.9960437,0.0028881822,-0.088817805,-0.053866565,-0.775297,-0.6292956,-0.0706777,0.63159025,-0.7720741,,-0.04877914,0.24908192,-0.12537742,0.6064003,0.07915967,0.79120946,0.074429944,0.985013,-0.15559424,-0.7916684,0.15324208,0.5914203,,0.044781197,0.43162128,-0.37377,0.6925664,-0.018250749,-0.7211232,-0.32443976,0.88498014,-0.33398956,0.64427525,0.465271,0.6069862,,0.8265409313296266,-0.35657402226869406,0.16341420627000003,0.6389252577973457,-0.24266642358342222,0.5036834000511095,0.8722573131570512,,-0.6686110440517353,-0.5506617448637044,0.14974482822000001,2.137369593937757,0.35785099288568856,0.6492989541186304,0.8755241944797366,,-0.06956664232292899,-0.09922196797587764,0.1150502548,-0.034016912529394594,,-2.9254705e-05,7.748604e-07,-1.7881393e-06,1.0,7.733703e-06,6.325543e-06,-7.737428e-06,1.0,7.1525574e-07,-6.329268e-06,-7.4505806e-07,0.99999994,758,2.324,0,0,0.0,False,1.0467209092611154,1.0501909101696396
2.3020175310011837,11:41:02.343994,11:40:44.269578,0,,0.006903032,0.011692889,0.07086201,-0.63573986,-0.16615924,-0.7538075,-0.48156643,0.84858334,0.21908903,0.60326487,0.5022921,-0.619495,,0.15391526,-0.034173336,0.04610741,-0.62502956,-0.17861141,0.7598921,0.22253433,0.8923042,0.3927745,-0.7482089,0.4145977,-0.5179693,,0.08743214,1.3322518,0.4648269,0.9960437,0.0028881822,-0.088817805,-0.053866565,-0.775297,-0.6292956,-0.0706777,0.63159025,-0.7720741,,-0.04878005,0.24908125,-0.12537734,0.6064049,0.079162754,0.79120564,0.074430466,0.9850121,-0.1555996,-0.79166484,0.15324616,0.59142405,,0.0447815,0.43162093,-0.3737705,0.6924779,-0.018412052,-0.7212041,-0.32434097,0.8850063,-0.33401605,0.64442015,0.46521476,0.60687554,,0.8265332085967524,-0.35657402226869406,0.16341420627000003,0.6389252577973457,-0.24266642358342222,0.5036834000511095,0.8722573131570512,,-0.6686110440517353,-0.5506617448637044,0.14974482822000001,2.1375792838812413,0.35785099288568856,0.6492989541186304,0.8755241944797366,,-0.06956664232292899,-0.09922196797587764,0.1150502548,-0.034016912529394594,,-2.9254705e-05,7.748604e-07,-1.7881393e-06,1.0,7.733703e-06,6.325543e-06,-7.737428e-06,1.0,7.1525574e-07,-6.329268e-06,-7.4505806e-07,0.99999994,770,2.361,0,0,0.0,False,1.0466017538240733,1.0502874705711984
2.3620283620002738,11:41:02.383860,11:40:44.269578,0,,0.006903032,0.011692889,0.07086201,-0.63573986,-0.16615924,-0.7538075,-0.48156643,0.84858334,0.21908903,0.60326487,0.5022921,-0.619495,,0.15391505,-0.034173977,0.04610741,-0.6249673,-0.17845784,0.7599795,0.22272047,0.8922982,0.39268255,-0.7482055,0.4146767,-0.5179109,,0.08743214,1.3322518,0.4648269,0.9960437,0.0028881822,-0.088817805,-0.053866565,-0.775297,-0.6292956,-0.0706777,0.63159025,-0.7720741,,-0.04878005,0.24908125,-0.12537734,0.6064049,0.079162754,0.79120564,0.074430466,0.9850121,-0.1555996,-0.79166484,0.15324616,0.59142405,,0.044781797,0.4316206,-0.37377098,0.69238937,-0.01857335,-0.721285,-0.32424217,0.88503253,-0.33404252,0.6445649,0.46515852,0.60676485,,0.8265332085967524,-0.35657402226869406,0.16341420627000003,0.6389252577973457,-0.24266642358342222,0.5036834000511095,0.8722573131570512,,-0.6686110440517353,-0.5506617448637044,0.14974482822000001,2.1377889738247258,0.35785099288568856,0.6492989541186304,0.8755241944797366,,-0.06956664232292899,-0.09922196797587764,0.1150502548,-0.034016912529394594,,-2.9254705e-05,7.748604e-07,-1.7881393e-06,1.0,7.733703e-06,6.325543e-06,-7.737428e-06,1.0,7.1525574e-07,-6.329268e-06,-7.4505806e-07,0.99999994,778,2.386,0,0,0.0,False,1.0467209092611154,1.0499012289649627
2.401893635000306,11:41:02.409213,11:40:44.269578,0,,0.006903032,0.011692889,0.07086201,-0.63573986,-0.16615924,-0.7538075,-0.48156643,0.84858334,0.21908903,0.60326487,0.5022921,-0.619495,,0.15391505,-0.034173977,0.04610741,-0.6249673,-0.17845784,0.7599795,0.22272047,0.8922982,0.39268255,-0.7482055,0.4146767,-0.5179109,,0.08743214,1.3322518,0.4648269,0.9960437,0.0028881822,-0.088817805,-0.053866565,-0.775297,-0.6292956,-0.0706777,0.63159025,-0.7720741,,-0.04878005,0.24908125,-0.12537734,0.6064049,0.079162754,0.79120564,0.074430466,0.9850121,-0.1555996,-0.79166484,0.15324616,0.59142405,,0.044781797,0.4316206,-0.37377098,0.69238937,-0.01857335,-0.721285,-0.32424217,0.88503253,-0.33404252,0.6445649,0.46515852,0.60676485,,0.8265332085967524,-0.35657402226869406,0.16341420627000003,0.6389252577973457,-0.24266642358342222,0.5036834000511095,0.8722573131570512,,-0.6686110440517353,-0.5506617448637044,0.14974482822000001,2.1377889738247258,0.35785099288568856,0.6492989541186304,0.8755241944797366,,-0.06956664232292899,-0.09922196797587764,0.1150502548,-0.034016912529394594,,-2.9254705e-05,7.748604e-07,-1.7881393e-06,1.0,7.733703e-06,6.325543e-06,-7.737428e-06,1.0,7.1525574e-07,-6.329268e-06,-7.4505806e-07,0.99999994,786,2.41,0,0,0.0,False,1.0464825983870312,1.05014262996886
2.4272004539998306,11:41:02.434506,11:40:44.269578,0,,0.006903032,0.011692889,0.07086201,-0.63573986,-0.16615924,-0.7538075,-0.48156643,0.84858334,0.21908903,0.60326487,0.5022921,-0.619495,,0.15391505,-0.034173977,0.04610741,-0.6249673,-0.17845784,0.7599795,0.22272047,0.8922982,0.39268255,-0.7482055,0.4146767,-0.5179109,,0.08743214,1.3322518,0.4648269,0.9960437,0.0028881822,-0.088817805,-0.053866565,-0.775297,-0.6292956,-0.0706777,0.63159025,-0.7720741,,-0.04878005,0.24908125,-0.12537734,0.6064049,0.079162754,0.79120564,0.074430466,0.9850121,-0.1555996,-0.79166484,0.15324616,0.59142405,,0.044781797,0.4316206,-0.37377098,0.69238937,-0.01857335,-0.721285,-0.32424217,0.88503253,-0.33404252,0.6445649,0.46515852,0.60676485,,0.8265332085967524,-0.35657402226869406,0.16341420627000003,0.6389252577973457,-0.24266642358342222,0.5036834000511095,0.8722573131570512,,-0.6686110440517353,-0.5506617448637044,0.14974482822000001,2.1377889738247258,0.35785099288568856,0.6492989541186304,0.8755241944797366,,-0.06956664232292899,-0.09922196797587764,0.1150502548,-0.034016912529394594,,-2.9254705e-05,7.748604e-07,-1.7881393e-06,1.0,7.733703e-06,6.325543e-06,-7.737428e-06,1.0,7.1525574e-07,-6.329268e-06,-7.4505806e-07,0.99999994,798,2.447,0,0,0.0,False,1.0468400646981575,1.049804668563404
2.452540605001559,11:41:02.467725,11:40:44.451325,0,,0.006903032,0.011692889,0.07086201,-0.63573986,-0.16628239,-0.7537803,-0.48156643,0.84861904,0.21895044,0.60326487,0.5021909,-0.61957705,,0.15391505,-0.034173977,0.04610741,-0.6249673,-0.17845784,0.7599795,0.22272047,0.8922982,0.39268255,-0.7482055,0.4146767,-0.5179109,,0.08743214,1.3322518,0.4648269,0.9960437,0.0028881822,-0.088817805,-0.053866565,-0.775297,-0.6292956,-0.0706777,0.63159025,-0.7720741,,-0.04878005,0.24908125,-0.12537734,0.6064049,0.079292,0.79119265,0.074430466,0.98498666,-0.1557605,-0.79166484,0.15334277,0.591399,,0.044781797,0.4316206,-0.37377098,0.69238937,-0.01857335,-0.721285,-0.32424217,0.88503253,-0.33404252,0.6445649,0.46515852,0.60676485,,0.8265332085967524,-0.35657402226869406,0.16341420627000003,0.6389252577973457,-0.24266642358342222,0.5035200425708283,0.8719306250247827,,-0.6686110440517353,-0.5506617448637044,0.14974482822000001,2.1377889738247258,0.35785099288568856,0.6492989541186304,0.8755241944797366,,-0.06956664232292899,-0.09922196797587764,0.1150502548,-0.034016912529394594,,-2.9254705e-05,7.748604e-07,-1.7881393e-06,1.0,7.733703e-06,6.325543e-06,-7.737428e-06,1.0,7.1525574e-07,-6.329268e-06,-7.4505806e-07,0.99999994,823,2.525,0,0,0.0,False,1.0464825983870312,1.0500943497680806
