AlexandreBanks6/ExpertPlaybackApp/resources/Motions/PC1/Data_PC1_20.csv
Task Time,PC1 Time,PC2 Time,Gaze Calib,s_T_psm1,Tx,Ty,Tz,R00,R01,R02,R10,R11,R12,R20,R21,R22,s_T_psm3,Tx,Ty,Tz,R00,R01,R02,R10,R11,R12,R20,R21,R22,cart_T_ecm,Tx,Ty,Tz,R00,R01,R02,R10,R11,R12,R20,R21,R22,ecm_T_psm1,Tx,Ty,Tz,R00,R01,R02,R10,R11,R12,R20,R21,R22,ecm_T_psm3,Tx,Ty,Tz,R00,R01,R02,R10,R11,R12,R20,R21,R22,psm1_joints,q1,q2,q3,q4,q5,q6,jaw,psm3_joints,q1,q2,q3,q4,q5,q6,jaw,ecm_joints,q1,q2,q3,q4,ecmi_T_ecm,Tx,Ty,Tz,R00,R01,R02,R10,R11,R12,R20,R21,R22,Sample #,Task Duration (s),Collisions (binary),Collisions (increments),Cumulative Collision Time (s)
""
lci_T_si,,,,,-0.0686377,0.020352567,0.28901482,0.9953832,0.03963277,0.08741549,0.086206354,-0.769586,-0.6326972,0.04219819,0.637312,-0.76944965
rci_T_si,,,,,-0.078992814,0.025353318,0.29909697,0.9952994,0.022317246,0.094239384,0.07839776,-0.75697154,-0.6487279,0.056858715,0.65306664,-0.75516295
ecm_T_lc,,,,,-4.4061628e-05,-0.00034663224,-0.01840835,-0.99912,0.030754527,0.028518902,-0.031987965,-0.99852574,-0.043852776,0.027128186,-0.04472645,0.9986309
ecm_T_rc,,,,,-0.0043358393,0.01870579,-0.007592615,-0.99555075,-0.052743673,-0.078081585,0.04863213,-0.9973746,0.053654674,-0.08070653,0.04961868,0.9955021
cart_T_ecmi,,,,,0.08979881,1.3490111,0.48508984,0.9960491,0.002693784,-0.08876298,-0.05383719,-0.776592,-0.62769926,-0.07062352,0.629998,-0.7733788
ecmac_T_ecmrep_psm1,,,,,0.08626859,-0.2052861,-0.33370098,0.999004,0.025128257,0.036871605,-0.023534218,0.9987958,-0.04304718,-0.037908904,0.04213656,0.9983924
ecmac_T_ecmrep_psm3,,,,,-0.16209933,-0.49188918,-0.56672233,0.99379694,-0.09876928,0.05111077,0.087427974,0.9779163,0.18983154,-0.068731576,-0.18418549,0.98048544
""
0,10:15:13.677392,NaN,0,,0.02757542,0.049134247,0.07541357,-0.8672088,-0.36971858,-0.33355173,-0.49151716,0.7428612,0.45449752,0.079746544,0.5580906,-0.82593906,,0.1396755,-0.04416004,0.07334447,-0.74264,-0.6177307,0.25863937,-0.44416285,0.7433714,0.50011814,-0.50120336,0.25652966,-0.82643056,,0.08977588,1.3490111,0.4850896,0.9960517,0.0027313088,-0.08873265,-0.053789064,-0.7765919,-0.62770355,-0.07062352,0.629998,-0.7733788,,-0.07238546,0.27900508,-0.07624449,0.881383,0.28293404,0.37830192,-0.24624667,0.9585694,-0.1432038,-0.40314585,0.03306181,0.9145383,,0.055007156,0.4436114,-0.370324,0.866642,0.45695525,-0.20030849,-0.49794993,0.76701343,-0.40464345,-0.03126466,0.4504246,0.89226687,,0.8198067082633028,-0.08604668968460949,0.15336925506000001,0.637038048305985,0.1186004817964023,0.30441355242180734,0.8707872165618427,,-0.6228615745048294,-0.6842264099234173,0.12753160278,1.4491671994215478,0.22722649910992745,0.789629468470602,0.8676836793052913,,-0.06956664232292899,-0.10125745821601603,0.0886362022,-0.034016912529394594,,-2.2813678e-05,-1.1920929e-07,2.1457672e-06,0.99999994,3.736466e-05,3.0446798e-05,-3.7372112e-05,0.9999999,3.427267e-06,-3.0435622e-05,-3.3974648e-06,1.0,NaN,NaN,NaN,NaN,NaN
0.019716017000064312,10:15:13.706330,NaN,0,,0.02757444,0.04913468,0.07541396,-0.8672079,-0.36971524,-0.33355775,-0.49151805,0.74285907,0.4545,0.079750955,0.55809563,-0.82593524,,0.1396755,-0.04416004,0.07334447,-0.74264,-0.6177307,0.25863937,-0.44416285,0.7433714,0.50011814,-0.50120336,0.25652966,-0.82643056,,0.08977588,1.3490111,0.4850896,0.9960517,0.0027313088,-0.08873265,-0.053789064,-0.7765919,-0.62770355,-0.07062352,0.629998,-0.7733788,,-0.07238454,0.27900574,-0.07624455,0.88138175,0.2829304,0.3783075,-0.24624465,0.9585706,-0.1431989,-0.40314978,0.033056702,0.9145368,,0.055007156,0.4436114,-0.370324,0.866642,0.45695525,-0.20030849,-0.49794993,0.76701343,-0.40464345,-0.03126466,0.4504246,0.89226687,,0.819814430996177,-0.08604668968460949,0.15336925506000001,0.637038048305985,0.1186004817964023,0.30441355242180734,0.8707872165618427,,-0.6228615745048294,-0.6842264099234173,0.12753160278,1.4491671994215478,0.22722649910992745,0.789629468470602,0.8676836793052913,,-0.06956664232292899,-0.10125745821601603,0.0886362022,-0.034016912529394594,,-2.2813678e-05,-1.1920929e-07,2.1457672e-06,0.99999994,3.736466e-05,3.0446798e-05,-3.7372112e-05,0.9999999,3.427267e-06,-3.0435622e-05,-3.3974648e-06,1.0,NaN,NaN,NaN,NaN,NaN
0.04867343099977006,10:15:13.732550,NaN,0,,0.027573975,0.04913362,0.07541393,-0.86720634,-0.3697156,-0.3335614,-0.4915198,0.7428618,0.45449358,0.07975671,0.5580917,-0.8259373,,0.1396755,-0.04416004,0.07334447,-0.74264,-0.6177307,0.25863937,-0.44416285,0.7433714,0.50011814,-0.50120336,0.25652966,-0.82643056,,0.08977588,1.3490111,0.4850896,0.9960517,0.0027313088,-0.08873265,-0.053789064,-0.7765919,-0.62770355,-0.07062352,0.629998,-0.7733788,,-0.07238403,0.27900496,-0.0762452,0.88137984,0.28293094,0.37831157,-0.24624251,0.9585703,-0.14320478,-0.4031553,0.033061415,0.91453415,,0.055007156,0.4436114,-0.370324,0.866642,0.45695525,-0.20030849,-0.49794993,0.76701343,-0.40464345,-0.03126466,0.4504246,0.89226687,,0.819814430996177,-0.08605441241748371,0.15336925506000001,0.637038048305985,0.1186004817964023,0.30441355242180734,0.8707872165618427,,-0.6228615745048294,-0.6842264099234173,0.12753160278,1.4491671994215478,0.22722649910992745,0.789629468470602,0.8676836793052913,,-0.06956664232292899,-0.10125745821601603,0.0886362022,-0.034016912529394594,,-2.2813678e-05,-1.1920929e-07,2.1457672e-06,0.99999994,3.736466e-05,3.0446798e-05,-3.7372112e-05,0.9999999,3.427267e-06,-3.0435622e-05,-3.3974648e-06,1.0,NaN,NaN,NaN,NaN,NaN
0.07494126099936693,10:15:13.747936,NaN,0,,0.02757444,0.04913468,0.07541396,-0.8672079,-0.36971524,-0.33355775,-0.49151805,0.74285907,0.4545,0.079750955,0.55809563,-0.82593524,,0.1396755,-0.04416004,0.07334447,-0.74264,-0.6177307,0.25863937,-0.44416285,0.7433714,0.50011814,-0.50120336,0.25652966,-0.82643056,,0.08977588,1.3490111,0.4850896,0.9960517,0.0027313088,-0.08873265,-0.053789064,-0.7765919,-0.62770355,-0.07062352,0.629998,-0.7733788,,-0.07238454,0.27900574,-0.07624455,0.88138175,0.2829304,0.3783075,-0.24624465,0.9585706,-0.1431989,-0.40314978,0.033056702,0.9145368,,0.055007156,0.4436114,-0.370324,0.866642,0.45695525,-0.20030849,-0.49794993,0.76701343,-0.40464345,-0.03126466,0.4504246,0.89226687,,0.819814430996177,-0.08604668968460949,0.15336925506000001,0.637038048305985,0.1186004817964023,0.30441355242180734,0.8707872165618427,,-0.6228615745048294,-0.6842264099234173,0.12753160278,1.4491671994215478,0.22722649910992745,0.789629468470602,0.8676836793052913,,-0.06956664232292899,-0.10125745821601603,0.0886362022,-0.034016912529394594,,-2.2813678e-05,-1.1920929e-07,2.1457672e-06,0.99999994,3.736466e-05,3.0446798e-05,-3.7372112e-05,0.9999999,3.427267e-06,-3.0435622e-05,-3.3974648e-06,1.0,NaN,NaN,NaN,NaN,NaN
0.09026494299996557,10:15:13.767444,NaN,0,,0.02757444,0.04913468,0.07541396,-0.8672079,-0.36971524,-0.33355775,-0.49151805,0.74285907,0.4545,0.079750955,0.55809563,-0.82593524,,0.1396755,-0.04416004,0.07334447,-0.74264,-0.6177307,0.25863937,-0.44416285,0.7433714,0.50011814,-0.50120336,0.25652966,-0.82643056,,0.08977588,1.3490111,0.4850896,0.9960517,0.0027313088,-0.08873265,-0.053789064,-0.7765919,-0.62770355,-0.07062352,0.629998,-0.7733788,,-0.07238454,0.27900574,-0.07624455,0.88138175,0.2829304,0.3783075,-0.24624465,0.9585706,-0.1431989,-0.40314978,0.033056702,0.9145368,,0.055007156,0.4436114,-0.370324,0.866642,0.45695525,-0.20030849,-0.49794993,0.76701343,-0.40464345,-0.03126466,0.4504246,0.89226687,,0.819814430996177,-0.08604668968460949,0.15336925506000001,0.637038048305985,0.1186004817964023,0.30441355242180734,0.8707872165618427,,-0.6228615745048294,-0.6842264099234173,0.12753160278,1.4491671994215478,0.22722649910992745,0.789629468470602,0.8676836793052913,,-0.06956664232292899,-0.10125745821601603,0.0886362022,-0.034016912529394594,,-2.2813678e-05,-1.1920929e-07,2.1457672e-06,0.99999994,3.736466e-05,3.0446798e-05,-3.7372112e-05,0.9999999,3.427267e-06,-3.0435622e-05,-3.3974648e-06,1.0,NaN,NaN,NaN,NaN,NaN
0.10983416299950477,10:15:13.786512,NaN,0,,0.027574958,0.049133204,0.07541354,-0.8672073,-0.36971894,-0.33355534,-0.4915189,0.74286395,0.45449114,0.079752356,0.5580867,-0.8259411,,0.1396755,-0.04416004,0.07334447,-0.74264,-0.6177307,0.25863937,-0.44416285,0.7433714,0.50011814,-0.50120336,0.25652966,-0.82643056,,0.08977588,1.3490111,0.4850896,0.9960517,0.0027313088,-0.08873265,-0.053789064,-0.7765919,-0.62770355,-0.07062352,0.629998,-0.7733788,,-0.072384946,0.2790043,-0.07624515,0.8813811,0.28293458,0.37830597,-0.2462445,0.95856905,-0.14320967,-0.40315136,0.033066526,0.9145357,,0.055007156,0.4436114,-0.370324,0.866642,0.45695525,-0.20030849,-0.49794993,0.76701343,-0.40464345,-0.03126466,0.4504246,0.89226687,,0.8198067082633028,-0.08605441241748371,0.15336925506000001,0.637038048305985,0.1186004817964023,0.30441355242180734,0.8707872165618427,,-0.6228615745048294,-0.6842264099234173,0.12753160278,1.4491671994215478,0.22722649910992745,0.789629468470602,0.8676836793052913,,-0.06956664232292899,-0.10125745821601603,0.0886362022,-0.034016912529394594,,-2.2813678e-05,-1.1920929e-07,2.1457672e-06,0.99999994,3.736466e-05,3.0446798e-05,-3.7372112e-05,0.9999999,3.427267e-06,-3.0435622e-05,-3.3974648e-06,1.0,NaN,NaN,NaN,NaN,NaN
0.1288338139993357,10:15:13.803065,NaN,0,,0.027574958,0.049133204,0.07541354,-0.8672073,-0.36971894,-0.33355534,-0.4915189,0.74286395,0.45449114,0.079752356,0.5580867,-0.8259411,,0.1396755,-0.04416004,0.07334447,-0.74264,-0.6177307,0.25863937,-0.44416285,0.7433714,0.50011814,-0.50120336,0.25652966,-0.82643056,,0.08977588,1.3490111,0.4850896,0.9960517,0.0027313088,-0.08873265,-0.053789064,-0.7765919,-0.62770355,-0.07062352,0.629998,-0.7733788,,-0.072384946,0.2790043,-0.07624515,0.8813811,0.28293458,0.37830597,-0.2462445,0.95856905,-0.14320967,-0.40315136,0.033066526,0.9145357,,0.055007156,0.4436114,-0.370324,0.866642,0.45695525,-0.20030849,-0.49794993,0.76701343,-0.40464345,-0.03126466,0.4504246,0.89226687,,0.8198067082633028,-0.08605441241748371,0.15336925506000001,0.637038048305985,0.1186004817964023,0.30441355242180734,0.8707872165618427,,-0.6228615745048294,-0.6842264099234173,0.12753160278,1.4491671994215478,0.22722649910992745,0.789629468470602,0.8676836793052913,,-0.06956664232292899,-0.10125745821601603,0.0886362022,-0.034016912529394594,,-2.2813678e-05,-1.1920929e-07,2.1457672e-06,0.99999994,3.736466e-05,3.0446798e-05,-3.7372112e-05,0.9999999,3.427267e-06,-3.0435622e-05,-3.3974648e-06,1.0,NaN,NaN,NaN,NaN,NaN
0.14545823199932784,10:15:13.822958,NaN,0,,0.027574958,0.049133204,0.07541354,-0.8672073,-0.36971894,-0.33355534,-0.4915189,0.74286395,0.45449114,0.079752356,0.5580867,-0.8259411,,0.1396755,-0.04416004,0.07334447,-0.74264,-0.6177307,0.25863937,-0.44416285,0.7433714,0.50011814,-0.50120336,0.25652966,-0.82643056,,0.08977588,1.3490111,0.4850896,0.9960517,0.0027313088,-0.08873265,-0.053789064,-0.7765919,-0.62770355,-0.07062352,0.629998,-0.7733788,,-0.072384946,0.2790043,-0.07624515,0.8813811,0.28293458,0.37830597,-0.2462445,0.95856905,-0.14320967,-0.40315136,0.033066526,0.9145357,,0.055007156,0.4436114,-0.370324,0.866642,0.45695525,-0.20030849,-0.49794993,0.76701343,-0.40464345,-0.03126466,0.4504246,0.89226687,,0.8198067082633028,-0.08605441241748371,0.15336925506000001,0.637038048305985,0.1186004817964023,0.30441355242180734,0.8707872165618427,,-0.6228615745048294,-0.6842264099234173,0.12753160278,1.4491671994215478,0.22722649910992745,0.789629468470602,0.8676836793052913,,-0.06956664232292899,-0.10125745821601603,0.0886362022,-0.034016912529394594,,-2.2813678e-05,-1.1920929e-07,2.1457672e-06,0.99999994,3.736466e-05,3.0446798e-05,-3.7372112e-05,0.9999999,3.427267e-06,-3.0435622e-05,-3.3974648e-06,1.0,NaN,NaN,NaN,NaN,NaN
0.16496590199949424,10:15:13.845173,NaN,0,,0.027573975,0.04913362,0.07541393,-0.86720634,-0.3697156,-0.3335614,-0.4915198,0.7428618,0.45449358,0.07975671,0.5580917,-0.8259373,,0.1396755,-0.04416004,0.07334447,-0.74264,-0.6177307,0.25863937,-0.44416285,0.7433714,0.50011814,-0.50120336,0.25652966,-0.82643056,,0.08977588,1.3490111,0.4850896,0.9960517,0.0027313088,-0.08873265,-0.053789064,-0.7765919,-0.62770355,-0.07062352,0.629998,-0.7733788,,-0.07238403,0.27900496,-0.0762452,0.88137984,0.28293094,0.37831157,-0.24624251,0.9585703,-0.14320478,-0.4031553,0.033061415,0.91453415,,0.055007156,0.4436114,-0.370324,0.866642,0.45695525,-0.20030849,-0.49794993,0.76701343,-0.40464345,-0.03126466,0.4504246,0.89226687,,0.819814430996177,-0.08605441241748371,0.15336925506000001,0.637038048305985,0.1186004817964023,0.30441355242180734,0.8707872165618427,,-0.6228615745048294,-0.6842264099234173,0.12753160278,1.4491671994215478,0.22722649910992745,0.789629468470602,0.8676836793052913,,-0.06956664232292899,-0.10125745821601603,0.0886362022,-0.034016912529394594,,-2.2813678e-05,-1.1920929e-07,2.1457672e-06,0.99999994,3.736466e-05,3.0446798e-05,-3.7372112e-05,0.9999999,3.427267e-06,-3.0435622e-05,-3.3974648e-06,1.0,NaN,NaN,NaN,NaN,NaN
0.1874727599997641,10:15:13.867740,NaN,0,,0.02757444,0.04913468,0.07541396,-0.8672079,-0.36971524,-0.33355775,-0.49151805,0.74285907,0.4545,0.079750955,0.55809563,-0.82593524,,0.1396755,-0.04416004,0.07334447,-0.74264,-0.6177307,0.25863937,-0.44416285,0.7433714,0.50011814,-0.50120336,0.25652966,-0.82643056,,0.08977588,1.3490111,0.4850896,0.9960517,0.0027313088,-0.08873265,-0.053789064,-0.7765919,-0.62770355,-0.07062352,0.629998,-0.7733788,,-0.07238454,0.27900574,-0.07624455,0.88138175,0.2829304,0.3783075,-0.24624465,0.9585706,-0.1431989,-0.40314978,0.033056702,0.9145368,,0.055007156,0.4436114,-0.370324,0.866642,0.45695525,-0.20030849,-0.49794993,0.76701343,-0.40464345,-0.03126466,0.4504246,0.89226687,,0.819814430996177,-0.08604668968460949,0.15336925506000001,0.637038048305985,0.1186004817964023,0.30441355242180734,0.8707872165618427,,-0.6228615745048294,-0.6842264099234173,0.12753160278,1.4491671994215478,0.22722649910992745,0.789629468470602,0.8676836793052913,,-0.06956664232292899,-0.10125745821601603,0.0886362022,-0.034016912529394594,,-2.2813678e-05,-1.1920929e-07,2.1457672e-06,0.99999994,3.736466e-05,3.0446798e-05,-3.7372112e-05,0.9999999,3.427267e-06,-3.0435622e-05,-3.3974648e-06,1.0,NaN,NaN,NaN,NaN,NaN
0.21011809699939477,10:15:13.886832,NaN,0,,0.027573975,0.04913362,0.07541393,-0.86720634,-0.3697156,-0.3335614,-0.4915198,0.7428618,0.45449358,0.07975671,0.5580917,-0.8259373,,0.1396755,-0.04416004,0.07334447,-0.74264,-0.6177307,0.25863937,-0.44416285,0.7433714,0.50011814,-0.50120336,0.25652966,-0.82643056,,0.08977588,1.3490111,0.4850896,0.9960517,0.0027313088,-0.08873265,-0.053789064,-0.7765919,-0.62770355,-0.07062352,0.629998,-0.7733788,,-0.07238403,0.27900496,-0.0762452,0.88137984,0.28293094,0.37831157,-0.24624251,0.9585703,-0.14320478,-0.4031553,0.033061415,0.91453415,,0.055007156,0.4436114,-0.370324,0.866642,0.45695525,-0.20030849,-0.49794993,0.76701343,-0.40464345,-0.03126466,0.4504246,0.89226687,,0.819814430996177,-0.08605441241748371,0.15336925506000001,0.637038048305985,0.1186004817964023,0.30441355242180734,0.8707872165618427,,-0.6228615745048294,-0.6842264099234173,0.12753160278,1.4491671994215478,0.22722649910992745,0.789629468470602,0.8676836793052913,,-0.06956664232292899,-0.10125745821601603,0.0886362022,-0.034016912529394594,,-2.2813678e-05,-1.1920929e-07,2.1457672e-06,0.99999994,3.736466e-05,3.0446798e-05,-3.7372112e-05,0.9999999,3.427267e-06,-3.0435622e-05,-3.3974648e-06,1.0,NaN,NaN,NaN,NaN,NaN
0.22922421200019016,10:15:13.903927,NaN,0,,0.027573975,0.04913362,0.07541393,-0.86720634,-0.3697156,-0.3335614,-0.4915198,0.7428618,0.45449358,0.07975671,0.5580917,-0.8259373,,0.1396755,-0.04416004,0.07334447,-0.74264,-0.6177307,0.25863937,-0.44416285,0.7433714,0.50011814,-0.50120336,0.25652966,-0.82643056,,0.08977588,1.3490111,0.4850896,0.9960517,0.0027313088,-0.08873265,-0.053789064,-0.7765919,-0.62770355,-0.07062352,0.629998,-0.7733788,,-0.07238403,0.27900496,-0.0762452,0.88137984,0.28293094,0.37831157,-0.24624251,0.9585703,-0.14320478,-0.4031553,0.033061415,0.91453415,,0.055007156,0.4436114,-0.370324,0.866642,0.45695525,-0.20030849,-0.49794993,0.76701343,-0.40464345,-0.03126466,0.4504246,0.89226687,,0.819814430996177,-0.08605441241748371,0.15336925506000001,0.637038048305985,0.1186004817964023,0.30441355242180734,0.8707872165618427,,-0.6228615745048294,-0.6842264099234173,0.12753160278,1.4491671994215478,0.22722649910992745,0.789629468470602,0.8676836793052913,,-0.06956664232292899,-0.10125745821601603,0.0886362022,-0.034016912529394594,,-2.2813678e-05,-1.1920929e-07,2.1457672e-06,0.99999994,3.736466e-05,3.0446798e-05,-3.7372112e-05,0.9999999,3.427267e-06,-3.0435622e-05,-3.3974648e-06,1.0,NaN,NaN,NaN,NaN,NaN
0.24632119099987904,10:15:13.920100,NaN,0,,0.027573975,0.04913362,0.07541393,-0.86720634,-0.3697156,-0.3335614,-0.4915198,0.7428618,0.45449358,0.07975671,0.5580917,-0.8259373,,0.1396755,-0.04416004,0.07334447,-0.74264,-0.6177307,0.25863937,-0.44416285,0.7433714,0.50011814,-0.50120336,0.25652966,-0.82643056,,0.08977588,1.3490111,0.4850896,0.9960517,0.0027313088,-0.08873265,-0.053789064,-0.7765919,-0.62770355,-0.07062352,0.629998,-0.7733788,,-0.07238403,0.27900496,-0.0762452,0.88137984,0.28293094,0.37831157,-0.24624251,0.9585703,-0.14320478,-0.4031553,0.033061415,0.91453415,,0.055007156,0.4436114,-0.370324,0.866642,0.45695525,-0.20030849,-0.49794993,0.76701343,-0.40464345,-0.03126466,0.4504246,0.89226687,,0.819814430996177,-0.08605441241748371,0.15336925506000001,0.637038048305985,0.1186004817964023,0.30441355242180734,0.8707872165618427,,-0.6228615745048294,-0.6842264099234173,0.12753160278,1.4491671994215478,0.22722649910992745,0.789629468470602,0.8676836793052913,,-0.06956664232292899,-0.10125745821601603,0.0886362022,-0.034016912529394594,,-2.2813678e-05,-1.1920929e-07,2.1457672e-06,0.99999994,3.736466e-05,3.0446798e-05,-3.7372112e-05,0.9999999,3.427267e-06,-3.0435622e-05,-3.3974648e-06,1.0,NaN,NaN,NaN,NaN,NaN
0.2624806979993082,10:15:13.937456,NaN,0,,0.02757542,0.049134247,0.07541357,-0.8672088,-0.36971858,-0.33355173,-0.49151716,0.7428612,0.45449752,0.079746544,0.5580906,-0.82593906,,0.1396755,-0.04416004,0.07334447,-0.74264,-0.6177307,0.25863937,-0.44416285,0.7433714,0.50011814,-0.50120336,0.25652966,-0.82643056,,0.08977588,1.3490111,0.4850896,0.9960517,0.0027313088,-0.08873265,-0.053789064,-0.7765919,-0.62770355,-0.07062352,0.629998,-0.7733788,,-0.07238546,0.27900508,-0.07624449,0.881383,0.28293404,0.37830192,-0.24624667,0.9585694,-0.1432038,-0.40314585,0.03306181,0.9145383,,0.055007156,0.4436114,-0.370324,0.866642,0.45695525,-0.20030849,-0.49794993,0.76701343,-0.40464345,-0.03126466,0.4504246,0.89226687,,0.8198067082633028,-0.08604668968460949,0.15336925506000001,0.637038048305985,0.1186004817964023,0.30441355242180734,0.8707872165618427,,-0.6228615745048294,-0.6842264099234173,0.12753160278,1.4491671994215478,0.22722649910992745,0.789629468470602,0.8676836793052913,,-0.06956664232292899,-0.10125745821601603,0.0886362022,-0.034016912529394594,,-2.2813678e-05,-1.1920929e-07,2.1457672e-06,0.99999994,3.736466e-05,3.0446798e-05,-3.7372112e-05,0.9999999,3.427267e-06,-3.0435622e-05,-3.3974648e-06,1.0,NaN,NaN,NaN,NaN,NaN
0.2795770769998853,10:15:13.959657,NaN,0,,0.02757542,0.049134247,0.07541357,-0.8672088,-0.36971858,-0.33355173,-0.49151716,0.7428612,0.45449752,0.079746544,0.5580906,-0.82593906,,0.1396755,-0.04416004,0.07334447,-0.74264,-0.6177307,0.25863937,-0.44416285,0.7433714,0.50011814,-0.50120336,0.25652966,-0.82643056,,0.08977588,1.3490111,0.4850896,0.9960517,0.0027313088,-0.08873265,-0.053789064,-0.7765919,-0.62770355,-0.07062352,0.629998,-0.7733788,,-0.07238546,0.27900508,-0.07624449,0.881383,0.28293404,0.37830192,-0.24624667,0.9585694,-0.1432038,-0.40314585,0.03306181,0.9145383,,0.055007156,0.4436114,-0.370324,0.866642,0.45695525,-0.20030849,-0.49794993,0.76701343,-0.40464345,-0.03126466,0.4504246,0.89226687,,0.8198067082633028,-0.08604668968460949,0.15336925506000001,0.637038048305985,0.1186004817964023,0.30441355242180734,0.8707872165618427,,-0.6228615745048294,-0.6842264099234173,0.12753160278,1.4491671994215478,0.22722649910992745,0.789629468470602,0.8676836793052913,,-0.06956664232292899,-0.10125745821601603,0.0886362022,-0.034016912529394594,,-2.2813678e-05,-1.1920929e-07,2.1457672e-06,0.99999994,3.736466e-05,3.0446798e-05,-3.7372112e-05,0.9999999,3.427267e-06,-3.0435622e-05,-3.3974648e-06,1.0,NaN,NaN,NaN,NaN,NaN
0.30204083699936746,10:15:13.981601,NaN,0,,0.02757542,0.049134247,0.07541357,-0.8672088,-0.36971858,-0.33355173,-0.49151716,0.7428612,0.45449752,0.079746544,0.5580906,-0.82593906,,0.1396755,-0.04416004,0.07334447,-0.74264,-0.6177307,0.25863937,-0.44416285,0.7433714,0.50011814,-0.50120336,0.25652966,-0.82643056,,0.08977588,1.3490111,0.4850896,0.9960517,0.0027313088,-0.08873265,-0.053789064,-0.7765919,-0.62770355,-0.07062352,0.629998,-0.7733788,,-0.07238546,0.27900508,-0.07624449,0.881383,0.28293404,0.37830192,-0.24624667,0.9585694,-0.1432038,-0.40314585,0.03306181,0.9145383,,0.055007156,0.4436114,-0.370324,0.866642,0.45695525,-0.20030849,-0.49794993,0.76701343,-0.40464345,-0.03126466,0.4504246,0.89226687,,0.8198067082633028,-0.08604668968460949,0.15336925506000001,0.637038048305985,0.1186004817964023,0.30441355242180734,0.8707872165618427,,-0.6228615745048294,-0.6842264099234173,0.12753160278,1.4491671994215478,0.22722649910992745,0.789629468470602,0.8676836793052913,,-0.06956664232292899,-0.10125745821601603,0.0886362022,-0.034016912529394594,,-2.2813678e-05,-1.1920929e-07,2.1457672e-06,0.99999994,3.736466e-05,3.0446798e-05,-3.7372112e-05,0.9999999,3.427267e-06,-3.0435622e-05,-3.3974648e-06,1.0,NaN,NaN,NaN,NaN,NaN
0.32390771100017446,10:15:13.995844,NaN,0,,0.027573975,0.04913362,0.07541393,-0.86720634,-0.3697156,-0.3335614,-0.4915198,0.7428618,0.45449358,0.07975671,0.5580917,-0.8259373,,0.1396755,-0.04416004,0.07334447,-0.74264,-0.6177307,0.25863937,-0.44416285,0.7433714,0.50011814,-0.50120336,0.25652966,-0.82643056,,0.08977588,1.3490111,0.4850896,0.9960517,0.0027313088,-0.08873265,-0.053789064,-0.7765919,-0.62770355,-0.07062352,0.629998,-0.7733788,,-0.07238403,0.27900496,-0.0762452,0.88137984,0.28293094,0.37831157,-0.24624251,0.9585703,-0.14320478,-0.4031553,0.033061415,0.91453415,,0.055007156,0.4436114,-0.370324,0.866642,0.45695525,-0.20030849,-0.49794993,0.76701343,-0.40464345,-0.03126466,0.4504246,0.89226687,,0.819814430996177,-0.08605441241748371,0.15336925506000001,0.637038048305985,0.1186004817964023,0.30441355242180734,0.8707872165618427,,-0.6228615745048294,-0.6842264099234173,0.12753160278,1.4491671994215478,0.22722649910992745,0.789629468470602,0.8676836793052913,,-0.06956664232292899,-0.10125745821601603,0.0886362022,-0.034016912529394594,,-2.2813678e-05,-1.1920929e-07,2.1457672e-06,0.99999994,3.736466e-05,3.0446798e-05,-3.7372112e-05,0.9999999,3.427267e-06,-3.0435622e-05,-3.3974648e-06,1.0,NaN,NaN,NaN,NaN,NaN
0.33823347199995624,10:15:14.009651,NaN,0,,0.027573975,0.04913362,0.07541393,-0.86720634,-0.3697156,-0.3335614,-0.4915198,0.7428618,0.45449358,0.07975671,0.5580917,-0.8259373,,0.1396755,-0.04416004,0.07334447,-0.74264,-0.6177307,0.25863937,-0.44416285,0.7433714,0.50011814,-0.50120336,0.25652966,-0.82643056,,0.08977588,1.3490111,0.4850896,0.9960517,0.0027313088,-0.08873265,-0.053789064,-0.7765919,-0.62770355,-0.07062352,0.629998,-0.7733788,,-0.07238403,0.27900496,-0.0762452,0.88137984,0.28293094,0.37831157,-0.24624251,0.9585703,-0.14320478,-0.4031553,0.033061415,0.91453415,,0.055007156,0.4436114,-0.370324,0.866642,0.45695525,-0.20030849,-0.49794993,0.76701343,-0.40464345,-0.03126466,0.4504246,0.89226687,,0.819814430996177,-0.08605441241748371,0.15336925506000001,0.637038048305985,0.1186004817964023,0.30441355242180734,0.8707872165618427,,-0.6228615745048294,-0.6842264099234173,0.12753160278,1.4491671994215478,0.22722649910992745,0.789629468470602,0.8676836793052913,,-0.06956664232292899,-0.10125745821601603,0.0886362022,-0.034016912529394594,,-2.2813678e-05,-1.1920929e-07,2.1457672e-06,0.99999994,3.736466e-05,3.0446798e-05,-3.7372112e-05,0.9999999,3.427267e-06,-3.0435622e-05,-3.3974648e-06,1.0,NaN,NaN,NaN,NaN,NaN
0.351982835999479,10:15:14.027532,NaN,0,,0.027573975,0.04913362,0.07541393,-0.86720634,-0.3697156,-0.3335614,-0.4915198,0.7428618,0.45449358,0.07975671,0.5580917,-0.8259373,,0.1396755,-0.04416004,0.07334447,-0.74264,-0.6177307,0.25863937,-0.44416285,0.7433714,0.50011814,-0.50120336,0.25652966,-0.82643056,,0.08977588,1.3490111,0.4850896,0.9960517,0.0027313088,-0.08873265,-0.053789064,-0.7765919,-0.62770355,-0.07062352,0.629998,-0.7733788,,-0.07238403,0.27900496,-0.0762452,0.88137984,0.28293094,0.37831157,-0.24624251,0.9585703,-0.14320478,-0.4031553,0.033061415,0.91453415,,0.055007156,0.4436114,-0.370324,0.866642,0.45695525,-0.20030849,-0.49794993,0.76701343,-0.40464345,-0.03126466,0.4504246,0.89226687,,0.819814430996177,-0.08605441241748371,0.15336925506000001,0.637038048305985,0.1186004817964023,0.30441355242180734,0.8707872165618427,,-0.6228615745048294,-0.6842264099234173,0.12753160278,1.4491671994215478,0.22722649910992745,0.789629468470602,0.8676836793052913,,-0.06956664232292899,-0.10125745821601603,0.0886362022,-0.034016912529394594,,-2.2813678e-05,-1.1920929e-07,2.1457672e-06,0.99999994,3.736466e-05,3.0446798e-05,-3.7372112e-05,0.9999999,3.427267e-06,-3.0435622e-05,-3.3974648e-06,1.0,NaN,NaN,NaN,NaN,NaN
0.36990728999990097,10:15:14.048846,NaN,0,,0.02757444,0.04913468,0.07541396,-0.8672079,-0.36971524,-0.33355775,-0.49151805,0.74285907,0.4545,0.079750955,0.55809563,-0.82593524,,0.1396755,-0.04416004,0.07334447,-0.74264,-0.6177307,0.25863937,-0.44416285,0.7433714,0.50011814,-0.50120336,0.25652966,-0.82643056,,0.08977588,1.3490111,0.4850896,0.9960517,0.0027313088,-0.08873265,-0.053789064,-0.7765919,-0.62770355,-0.07062352,0.629998,-0.7733788,,-0.07238454,0.27900574,-0.07624455,0.88138175,0.2829304,0.3783075,-0.24624465,0.9585706,-0.1431989,-0.40314978,0.033056702,0.9145368,,0.055007156,0.4436114,-0.370324,0.866642,0.45695525,-0.20030849,-0.49794993,0.76701343,-0.40464345,-0.03126466,0.4504246,0.89226687,,0.819814430996177,-0.08604668968460949,0.15336925506000001,0.637038048305985,0.1186004817964023,0.30441355242180734,0.8707872165618427,,-0.6228615745048294,-0.6842264099234173,0.12753160278,1.4491671994215478,0.22722649910992745,0.789629468470602,0.8676836793052913,,-0.06956664232292899,-0.10125745821601603,0.0886362022,-0.034016912529394594,,-2.2813678e-05,-1.1920929e-07,2.1457672e-06,0.99999994,3.736466e-05,3.0446798e-05,-3.7372112e-05,0.9999999,3.427267e-06,-3.0435622e-05,-3.3974648e-06,1.0,NaN,NaN,NaN,NaN,NaN
0.3912246439995215,10:15:14.060717,NaN,0,,0.02757542,0.049134247,0.07541357,-0.8672088,-0.36971858,-0.33355173,-0.49151716,0.7428612,0.45449752,0.079746544,0.5580906,-0.82593906,,0.1396755,-0.04416004,0.07334447,-0.74264,-0.6177307,0.25863937,-0.44416285,0.7433714,0.50011814,-0.50120336,0.25652966,-0.82643056,,0.08977588,1.3490111,0.4850896,0.9960517,0.0027313088,-0.08873265,-0.053789064,-0.7765919,-0.62770355,-0.07062352,0.629998,-0.7733788,,-0.07238546,0.27900508,-0.07624449,0.881383,0.28293404,0.37830192,-0.24624667,0.9585694,-0.1432038,-0.40314585,0.03306181,0.9145383,,0.055007156,0.4436114,-0.370324,0.866642,0.45695525,-0.20030849,-0.49794993,0.76701343,-0.40464345,-0.03126466,0.4504246,0.89226687,,0.8198067082633028,-0.08604668968460949,0.15336925506000001,0.637038048305985,0.1186004817964023,0.30441355242180734,0.8707872165618427,,-0.6228615745048294,-0.6842264099234173,0.12753160278,1.4491671994215478,0.22722649910992745,0.789629468470602,0.8676836793052913,,-0.06956664232292899,-0.10125745821601603,0.0886362022,-0.034016912529394594,,-2.2813678e-05,-1.1920929e-07,2.1457672e-06,0.99999994,3.736466e-05,3.0446798e-05,-3.7372112e-05,0.9999999,3.427267e-06,-3.0435622e-05,-3.3974648e-06,1.0,NaN,NaN,NaN,NaN,NaN
0.40304214600018895,10:15:14.081939,NaN,0,,0.027575927,0.049132787,0.07541315,-0.86720824,-0.36972225,-0.33354923,-0.49151802,0.742866,0.4544887,0.07974796,0.5580817,-0.8259449,,0.13967422,-0.044160426,0.07334393,-0.74264514,-0.6177302,0.25862604,-0.44416884,0.74337053,0.5001142,-0.5011906,0.25653362,-0.8264371,,0.08977588,1.3490111,0.4850896,0.9960517,0.0027313088,-0.08873265,-0.053789064,-0.7765919,-0.62770355,-0.07062352,0.629998,-0.7733788,,-0.07238586,0.27900365,-0.07624509,0.88138235,0.28293818,0.3783004,-0.2462465,0.9585678,-0.14321457,-0.40314746,0.033071633,0.91453725,,0.055008546,0.44361103,-0.37032393,0.86664593,0.45695427,-0.20029393,-0.4979424,0.7670159,-0.40464807,-0.031277053,0.45042142,0.89226806,,0.8197989855304286,-0.08605441241748371,0.15336925506000001,0.637038048305985,0.1186004817964023,0.30441355242180734,0.8707872165618427,,-0.6228461290390809,-0.6842264099234173,0.12753160278,1.4491671994215478,0.22722649910992745,0.789629468470602,0.8676836793052913,,-0.06956664232292899,-0.10125745821601603,0.0886362022,-0.034016912529394594,,-2.2813678e-05,-1.1920929e-07,2.1457672e-06,0.99999994,3.736466e-05,3.0446798e-05,-3.7372112e-05,0.9999999,3.427267e-06,-3.0435622e-05,-3.3974648e-06,1.0,NaN,NaN,NaN,NaN,NaN
0.424243693999415,10:15:14.100543,NaN,0,,0.027574958,0.049133204,0.07541354,-0.8672073,-0.36971894,-0.33355534,-0.4915189,0.74286395,0.45449114,0.079752356,0.5580867,-0.8259411,,0.13967422,-0.044160426,0.07334393,-0.74264514,-0.6177302,0.25862604,-0.44416884,0.74337053,0.5001142,-0.5011906,0.25653362,-0.8264371,,0.08977588,1.3490111,0.4850896,0.9960517,0.0027313088,-0.08873265,-0.053789064,-0.7765919,-0.62770355,-0.07062352,0.629998,-0.7733788,,-0.072384946,0.2790043,-0.07624515,0.8813811,0.28293458,0.37830597,-0.2462445,0.95856905,-0.14320967,-0.40315136,0.033066526,0.9145357,,0.055008546,0.44361103,-0.37032393,0.86664593,0.45695427,-0.20029393,-0.4979424,0.7670159,-0.40464807,-0.031277053,0.45042142,0.89226806,,0.8198067082633028,-0.08605441241748371,0.15336925506000001,0.637038048305985,0.1186004817964023,0.30441355242180734,0.8707872165618427,,-0.6228461290390809,-0.6842264099234173,0.12753160278,1.4491671994215478,0.22722649910992745,0.789629468470602,0.8676836793052913,,-0.06956664232292899,-0.10125745821601603,0.0886362022,-0.034016912529394594,,-2.2813678e-05,-1.1920929e-07,2.1457672e-06,0.99999994,3.736466e-05,3.0446798e-05,-3.7372112e-05,0.9999999,3.427267e-06,-3.0435622e-05,-3.3974648e-06,1.0,NaN,NaN,NaN,NaN,NaN
0.44293109299997013,10:15:14.120038,NaN,0,,0.027573975,0.04913362,0.07541393,-0.86720634,-0.3697156,-0.3335614,-0.4915198,0.7428618,0.45449358,0.07975671,0.5580917,-0.8259373,,0.13967422,-0.044160426,0.07334393,-0.74264514,-0.6177302,0.25862604,-0.44416884,0.74337053,0.5001142,-0.5011906,0.25653362,-0.8264371,,0.08977588,1.3490111,0.4850896,0.9960517,0.0027313088,-0.08873265,-0.053789064,-0.7765919,-0.62770355,-0.07062352,0.629998,-0.7733788,,-0.07238403,0.27900496,-0.0762452,0.88137984,0.28293094,0.37831157,-0.24624251,0.9585703,-0.14320478,-0.4031553,0.033061415,0.91453415,,0.055008546,0.44361103,-0.37032393,0.86664593,0.45695427,-0.20029393,-0.4979424,0.7670159,-0.40464807,-0.031277053,0.45042142,0.89226806,,0.819814430996177,-0.08605441241748371,0.15336925506000001,0.637038048305985,0.1186004817964023,0.30441355242180734,0.8707872165618427,,-0.6228461290390809,-0.6842264099234173,0.12753160278,1.4491671994215478,0.22722649910992745,0.789629468470602,0.8676836793052913,,-0.06956664232292899,-0.10125745821601603,0.0886362022,-0.034016912529394594,,-2.2813678e-05,-1.1920929e-07,2.1457672e-06,0.99999994,3.736466e-05,3.0446798e-05,-3.7372112e-05,0.9999999,3.427267e-06,-3.0435622e-05,-3.3974648e-06,1.0,NaN,NaN,NaN,NaN,NaN
0.4624254820000715,10:15:14.143167,NaN,0,,0.027574958,0.049133204,0.07541354,-0.8672073,-0.36971894,-0.33355534,-0.4915189,0.74286395,0.45449114,0.079752356,0.5580867,-0.8259411,,0.1396755,-0.04416004,0.07334447,-0.74264,-0.6177307,0.25863937,-0.44416285,0.7433714,0.50011814,-0.50120336,0.25652966,-0.82643056,,0.08977588,1.3490111,0.4850896,0.9960517,0.0027313088,-0.08873265,-0.053789064,-0.7765919,-0.62770355,-0.07062352,0.629998,-0.7733788,,-0.072384946,0.2790043,-0.07624515,0.8813811,0.28293458,0.37830597,-0.2462445,0.95856905,-0.14320967,-0.40315136,0.033066526,0.9145357,,0.055007156,0.4436114,-0.370324,0.866642,0.45695525,-0.20030849,-0.49794993,0.76701343,-0.40464345,-0.03126466,0.4504246,0.89226687,,0.8198067082633028,-0.08605441241748371,0.15336925506000001,0.637038048305985,0.1186004817964023,0.30441355242180734,0.8707872165618427,,-0.6228615745048294,-0.6842264099234173,0.12753160278,1.4491671994215478,0.22722649910992745,0.789629468470602,0.8676836793052913,,-0.06956664232292899,-0.10125745821601603,0.0886362022,-0.034016912529394594,,-2.2813678e-05,-1.1920929e-07,2.1457672e-06,0.99999994,3.736466e-05,3.0446798e-05,-3.7372112e-05,0.9999999,3.427267e-06,-3.0435622e-05,-3.3974648e-06,1.0,NaN,NaN,NaN,NaN,NaN
0.4855300039998838,10:15:14.159682,NaN,0,,0.027574958,0.049133204,0.07541354,-0.8672073,-0.36971894,-0.33355534,-0.4915189,0.74286395,0.45449114,0.079752356,0.5580867,-0.8259411,,0.1396755,-0.04416004,0.07334447,-0.74264,-0.6177307,0.25863937,-0.44416285,0.7433714,0.50011814,-0.50120336,0.25652966,-0.82643056,,0.08977588,1.3490111,0.4850896,0.9960517,0.0027313088,-0.08873265,-0.053789064,-0.7765919,-0.62770355,-0.07062352,0.629998,-0.7733788,,-0.072384946,0.2790043,-0.07624515,0.8813811,0.28293458,0.37830597,-0.2462445,0.95856905,-0.14320967,-0.40315136,0.033066526,0.9145357,,0.055007156,0.4436114,-0.370324,0.866642,0.45695525,-0.20030849,-0.49794993,0.76701343,-0.40464345,-0.03126466,0.4504246,0.89226687,,0.8198067082633028,-0.08605441241748371,0.15336925506000001,0.637038048305985,0.1186004817964023,0.30441355242180734,0.8707872165618427,,-0.6228615745048294,-0.6842264099234173,0.12753160278,1.4491671994215478,0.22722649910992745,0.789629468470602,0.8676836793052913,,-0.06956664232292899,-0.10125745821601603,0.0886362022,-0.034016912529394594,,-2.2813678e-05,-1.1920929e-07,2.1457672e-06,0.99999994,3.736466e-05,3.0446798e-05,-3.7372112e-05,0.9999999,3.427267e-06,-3.0435622e-05,-3.3974648e-06,1.0,NaN,NaN,NaN,NaN,NaN
0.5020449359999475,10:15:14.177526,NaN,0,,0.02757444,0.04913468,0.07541396,-0.8672079,-0.36971524,-0.33355775,-0.49151805,0.74285907,0.4545,0.079750955,0.55809563,-0.82593524,,0.1396755,-0.04416004,0.07334447,-0.74264,-0.6177307,0.25863937,-0.44416285,0.7433714,0.50011814,-0.50120336,0.25652966,-0.82643056,,0.08977588,1.3490111,0.4850896,0.9960517,0.0027313088,-0.08873265,-0.053789064,-0.7765919,-0.62770355,-0.07062352,0.629998,-0.7733788,,-0.07238454,0.27900574,-0.07624455,0.88138175,0.2829304,0.3783075,-0.24624465,0.9585706,-0.1431989,-0.40314978,0.033056702,0.9145368,,0.055007156,0.4436114,-0.370324,0.866642,0.45695525,-0.20030849,-0.49794993,0.76701343,-0.40464345,-0.03126466,0.4504246,0.89226687,,0.819814430996177,-0.08604668968460949,0.15336925506000001,0.637038048305985,0.1186004817964023,0.30441355242180734,0.8707872165618427,,-0.6228615745048294,-0.6842264099234173,0.12753160278,1.4491671994215478,0.22722649910992745,0.789629468470602,0.8676836793052913,,-0.06956664232292899,-0.10125745821601603,0.0886362022,-0.034016912529394594,,-2.2813678e-05,-1.1920929e-07,2.1457672e-06,0.99999994,3.736466e-05,3.0446798e-05,-3.7372112e-05,0.9999999,3.427267e-06,-3.0435622e-05,-3.3974648e-06,1.0,NaN,NaN,NaN,NaN,NaN
0.5187089699993521,10:15:14.193209,NaN,0,,0.02757444,0.04913468,0.07541396,-0.8672079,-0.36971524,-0.33355775,-0.49151805,0.74285907,0.4545,0.079750955,0.55809563,-0.82593524,,0.1396755,-0.04416004,0.07334447,-0.74264,-0.6177307,0.25863937,-0.44416285,0.7433714,0.50011814,-0.50120336,0.25652966,-0.82643056,,0.08977588,1.3490111,0.4850896,0.9960517,0.0027313088,-0.08873265,-0.053789064,-0.7765919,-0.62770355,-0.07062352,0.629998,-0.7733788,,-0.07238454,0.27900574,-0.07624455,0.88138175,0.2829304,0.3783075,-0.24624465,0.9585706,-0.1431989,-0.40314978,0.033056702,0.9145368,,0.055007156,0.4436114,-0.370324,0.866642,0.45695525,-0.20030849,-0.49794993,0.76701343,-0.40464345,-0.03126466,0.4504246,0.89226687,,0.819814430996177,-0.08604668968460949,0.15336925506000001,0.637038048305985,0.1186004817964023,0.30441355242180734,0.8707872165618427,,-0.6228615745048294,-0.6842264099234173,0.12753160278,1.4491671994215478,0.22722649910992745,0.789629468470602,0.8676836793052913,,-0.06956664232292899,-0.10125745821601603,0.0886362022,-0.034016912529394594,,-2.2813678e-05,-1.1920929e-07,2.1457672e-06,0.99999994,3.736466e-05,3.0446798e-05,-3.7372112e-05,0.9999999,3.427267e-06,-3.0435622e-05,-3.3974648e-06,1.0,NaN,NaN,NaN,NaN,NaN
0.535564198999964,10:15:14.211208,NaN,0,,0.027573975,0.04913362,0.07541393,-0.86720634,-0.3697156,-0.3335614,-0.4915198,0.7428618,0.45449358,0.07975671,0.5580917,-0.8259373,,0.1396755,-0.04416004,0.07334447,-0.74264,-0.6177307,0.25863937,-0.44416285,0.7433714,0.50011814,-0.50120336,0.25652966,-0.82643056,,0.08977588,1.3490111,0.4850896,0.9960517,0.0027313088,-0.08873265,-0.053789064,-0.7765919,-0.62770355,-0.07062352,0.629998,-0.7733788,,-0.07238403,0.27900496,-0.0762452,0.88137984,0.28293094,0.37831157,-0.24624251,0.9585703,-0.14320478,-0.4031553,0.033061415,0.91453415,,0.055007156,0.4436114,-0.370324,0.866642,0.45695525,-0.20030849,-0.49794993,0.76701343,-0.40464345,-0.03126466,0.4504246,0.89226687,,0.819814430996177,-0.08605441241748371,0.15336925506000001,0.637038048305985,0.1186004817964023,0.30441355242180734,0.8707872165618427,,-0.6228615745048294,-0.6842264099234173,0.12753160278,1.4491671994215478,0.22722649910992745,0.789629468470602,0.8676836793052913,,-0.06956664232292899,-0.10125745821601603,0.0886362022,-0.034016912529394594,,-2.2813678e-05,-1.1920929e-07,2.1457672e-06,0.99999994,3.736466e-05,3.0446798e-05,-3.7372112e-05,0.9999999,3.427267e-06,-3.0435622e-05,-3.3974648e-06,1.0,NaN,NaN,NaN,NaN,NaN
0.5535821149996991,10:15:14.230096,NaN,0,,0.027573975,0.04913362,0.07541393,-0.86720634,-0.3697156,-0.3335614,-0.4915198,0.7428618,0.45449358,0.07975671,0.5580917,-0.8259373,,0.1396755,-0.04416004,0.07334447,-0.74264,-0.6177307,0.25863937,-0.44416285,0.7433714,0.50011814,-0.50120336,0.25652966,-0.82643056,,0.08977588,1.3490111,0.4850896,0.9960517,0.0027313088,-0.08873265,-0.053789064,-0.7765919,-0.62770355,-0.07062352,0.629998,-0.7733788,,-0.07238403,0.27900496,-0.0762452,0.88137984,0.28293094,0.37831157,-0.24624251,0.9585703,-0.14320478,-0.4031553,0.033061415,0.91453415,,0.055007156,0.4436114,-0.370324,0.866642,0.45695525,-0.20030849,-0.49794993,0.76701343,-0.40464345,-0.03126466,0.4504246,0.89226687,,0.819814430996177,-0.08605441241748371,0.15336925506000001,0.637038048305985,0.1186004817964023,0.30441355242180734,0.8707872165618427,,-0.6228615745048294,-0.6842264099234173,0.12753160278,1.4491671994215478,0.22722649910992745,0.789629468470602,0.8676836793052913,,-0.06956664232292899,-0.10125745821601603,0.0886362022,-0.034016912529394594,,-2.2813678e-05,-1.1920929e-07,2.1457672e-06,0.99999994,3.736466e-05,3.0446798e-05,-3.7372112e-05,0.9999999,3.427267e-06,-3.0435622e-05,-3.3974648e-06,1.0,NaN,NaN,NaN,NaN,NaN
0.5724590299996635,10:15:14.249850,NaN,0,,0.02757444,0.04913468,0.07541396,-0.8672079,-0.36971524,-0.33355775,-0.49151805,0.74285907,0.4545,0.079750955,0.55809563,-0.82593524,,0.1396755,-0.04416004,0.07334447,-0.74264,-0.6177307,0.25863937,-0.44416285,0.7433714,0.50011814,-0.50120336,0.25652966,-0.82643056,,0.08977588,1.3490111,0.4850896,0.9960517,0.0027313088,-0.08873265,-0.053789064,-0.7765919,-0.62770355,-0.07062352,0.629998,-0.7733788,,-0.07238454,0.27900574,-0.07624455,0.88138175,0.2829304,0.3783075,-0.24624465,0.9585706,-0.1431989,-0.40314978,0.033056702,0.9145368,,0.055007156,0.4436114,-0.370324,0.866642,0.45695525,-0.20030849,-0.49794993,0.76701343,-0.40464345,-0.03126466,0.4504246,0.89226687,,0.819814430996177,-0.08604668968460949,0.15336925506000001,0.637038048305985,0.1186004817964023,0.30441355242180734,0.8707872165618427,,-0.6228615745048294,-0.6842264099234173,0.12753160278,1.4491671994215478,0.22722649910992745,0.789629468470602,0.8676836793052913,,-0.06956664232292899,-0.10125745821601603,0.0886362022,-0.034016912529394594,,-2.2813678e-05,-1.1920929e-07,2.1457672e-06,0.99999994,3.736466e-05,3.0446798e-05,-3.7372112e-05,0.9999999,3.427267e-06,-3.0435622e-05,-3.3974648e-06,1.0,NaN,NaN,NaN,NaN,NaN
0.5921973369995612,10:15:14.261624,NaN,0,,0.027576393,0.0491338,0.07541317,-0.86720973,-0.3697219,-0.33354566,-0.49151623,0.7428633,0.45449507,0.07974216,0.5580856,-0.8259429,,0.1396755,-0.04416004,0.07334447,-0.74264,-0.6177307,0.25863937,-0.44416285,0.7433714,0.50011814,-0.50120336,0.25652966,-0.82643056,,0.08977588,1.3490111,0.4850896,0.9960517,0.0027313088,-0.08873265,-0.053789064,-0.7765919,-0.62770355,-0.07062352,0.629998,-0.7733788,,-0.07238638,0.2790044,-0.076244436,0.88138425,0.28293765,0.37829632,-0.24624866,0.95856816,-0.1432087,-0.40314192,0.03306692,0.9145399,,0.055007156,0.4436114,-0.370324,0.866642,0.45695525,-0.20030849,-0.49794993,0.76701343,-0.40464345,-0.03126466,0.4504246,0.89226687,,0.8197989855304286,-0.08604668968460949,0.15336925506000001,0.637038048305985,0.1186004817964023,0.30441355242180734,0.8707872165618427,,-0.6228615745048294,-0.6842264099234173,0.12753160278,1.4491671994215478,0.22722649910992745,0.789629468470602,0.8676836793052913,,-0.06956664232292899,-0.10125745821601603,0.0886362022,-0.034016912529394594,,-2.2813678e-05,-1.1920929e-07,2.1457672e-06,0.99999994,3.736466e-05,3.0446798e-05,-3.7372112e-05,0.9999999,3.427267e-06,-3.0435622e-05,-3.3974648e-06,1.0,NaN,NaN,NaN,NaN,NaN
0.6039806339995266,10:15:14.282048,NaN,0,,0.02757542,0.049134247,0.07541357,-0.8672088,-0.36971858,-0.33355173,-0.49151716,0.7428612,0.45449752,0.079746544,0.5580906,-0.82593906,,0.1396755,-0.04416004,0.07334447,-0.74264,-0.6177307,0.25863937,-0.44416285,0.7433714,0.50011814,-0.50120336,0.25652966,-0.82643056,,0.08977588,1.3490111,0.4850896,0.9960517,0.0027313088,-0.08873265,-0.053789064,-0.7765919,-0.62770355,-0.07062352,0.629998,-0.7733788,,-0.07238546,0.27900508,-0.07624449,0.881383,0.28293404,0.37830192,-0.24624667,0.9585694,-0.1432038,-0.40314585,0.03306181,0.9145383,,0.055007156,0.4436114,-0.370324,0.866642,0.45695525,-0.20030849,-0.49794993,0.76701343,-0.40464345,-0.03126466,0.4504246,0.89226687,,0.8198067082633028,-0.08604668968460949,0.15336925506000001,0.637038048305985,0.1186004817964023,0.30441355242180734,0.8707872165618427,,-0.6228615745048294,-0.6842264099234173,0.12753160278,1.4491671994215478,0.22722649910992745,0.789629468470602,0.8676836793052913,,-0.06956664232292899,-0.10125745821601603,0.0886362022,-0.034016912529394594,,-2.2813678e-05,-1.1920929e-07,2.1457672e-06,0.99999994,3.736466e-05,3.0446798e-05,-3.7372112e-05,0.9999999,3.427267e-06,-3.0435622e-05,-3.3974648e-06,1.0,NaN,NaN,NaN,NaN,NaN
0.6244335479996153,10:15:14.300754,NaN,0,,0.027574958,0.049133204,0.07541354,-0.8672073,-0.36971894,-0.33355534,-0.4915189,0.74286395,0.45449114,0.079752356,0.5580867,-0.8259411,,0.1396755,-0.04416004,0.07334447,-0.74264,-0.6177307,0.25863937,-0.44416285,0.7433714,0.50011814,-0.50120336,0.25652966,-0.82643056,,0.08977588,1.3490111,0.4850896,0.9960517,0.0027313088,-0.08873265,-0.053789064,-0.7765919,-0.62770355,-0.07062352,0.629998,-0.7733788,,-0.072384946,0.2790043,-0.07624515,0.8813811,0.28293458,0.37830597,-0.2462445,0.95856905,-0.14320967,-0.40315136,0.033066526,0.9145357,,0.055007156,0.4436114,-0.370324,0.866642,0.45695525,-0.20030849,-0.49794993,0.76701343,-0.40464345,-0.03126466,0.4504246,0.89226687,,0.8198067082633028,-0.08605441241748371,0.15336925506000001,0.637038048305985,0.1186004817964023,0.30441355242180734,0.8707872165618427,,-0.6228615745048294,-0.6842264099234173,0.12753160278,1.4491671994215478,0.22722649910992745,0.789629468470602,0.8676836793052913,,-0.06956664232292899,-0.10125745821601603,0.0886362022,-0.034016912529394594,,-2.2813678e-05,-1.1920929e-07,2.1457672e-06,0.99999994,3.736466e-05,3.0446798e-05,-3.7372112e-05,0.9999999,3.427267e-06,-3.0435622e-05,-3.3974648e-06,1.0,NaN,NaN,NaN,NaN,NaN
0.6431404249997286,10:15:14.320296,NaN,0,,0.02757542,0.049134247,0.07541357,-0.8672088,-0.36971858,-0.33355173,-0.49151716,0.7428612,0.45449752,0.079746544,0.5580906,-0.82593906,,0.1396755,-0.04416004,0.07334447,-0.74264,-0.6177307,0.25863937,-0.44416285,0.7433714,0.50011814,-0.50120336,0.25652966,-0.82643056,,0.08977588,1.3490111,0.4850896,0.9960517,0.0027313088,-0.08873265,-0.053789064,-0.7765919,-0.62770355,-0.07062352,0.629998,-0.7733788,,-0.07238546,0.27900508,-0.07624449,0.881383,0.28293404,0.37830192,-0.24624667,0.9585694,-0.1432038,-0.40314585,0.03306181,0.9145383,,0.055007156,0.4436114,-0.370324,0.866642,0.45695525,-0.20030849,-0.49794993,0.76701343,-0.40464345,-0.03126466,0.4504246,0.89226687,,0.8198067082633028,-0.08604668968460949,0.15336925506000001,0.637038048305985,0.1186004817964023,0.30441355242180734,0.8707872165618427,,-0.6228615745048294,-0.6842264099234173,0.12753160278,1.4491671994215478,0.22722649910992745,0.789629468470602,0.8676836793052913,,-0.06956664232292899,-0.10125745821601603,0.0886362022,-0.034016912529394594,,-2.2813678e-05,-1.1920929e-07,2.1457672e-06,0.99999994,3.736466e-05,3.0446798e-05,-3.7372112e-05,0.9999999,3.427267e-06,-3.0435622e-05,-3.3974648e-06,1.0,NaN,NaN,NaN,NaN,NaN
0.6626895119998153,10:15:14.336390,NaN,0,,0.02757542,0.049134247,0.07541357,-0.8672088,-0.36971858,-0.33355173,-0.49151716,0.7428612,0.45449752,0.079746544,0.5580906,-0.82593906,,0.1396755,-0.04416004,0.07334447,-0.74264,-0.6177307,0.25863937,-0.44416285,0.7433714,0.50011814,-0.50120336,0.25652966,-0.82643056,,0.08977588,1.3490111,0.4850896,0.9960517,0.0027313088,-0.08873265,-0.053789064,-0.7765919,-0.62770355,-0.07062352,0.629998,-0.7733788,,-0.07238546,0.27900508,-0.07624449,0.881383,0.28293404,0.37830192,-0.24624667,0.9585694,-0.1432038,-0.40314585,0.03306181,0.9145383,,0.055007156,0.4436114,-0.370324,0.866642,0.45695525,-0.20030849,-0.49794993,0.76701343,-0.40464345,-0.03126466,0.4504246,0.89226687,,0.8198067082633028,-0.08604668968460949,0.15336925506000001,0.637038048305985,0.1186004817964023,0.30441355242180734,0.8707872165618427,,-0.6228615745048294,-0.6842264099234173,0.12753160278,1.4491671994215478,0.22722649910992745,0.789629468470602,0.8676836793052913,,-0.06956664232292899,-0.10125745821601603,0.0886362022,-0.034016912529394594,,-2.2813678e-05,-1.1920929e-07,2.1457672e-06,0.99999994,3.736466e-05,3.0446798e-05,-3.7372112e-05,0.9999999,3.427267e-06,-3.0435622e-05,-3.3974648e-06,1.0,NaN,NaN,NaN,NaN,NaN
0.6787024739996923,10:15:14.354067,NaN,0,,0.027574958,0.049133204,0.07541354,-0.8672073,-0.36971894,-0.33355534,-0.4915189,0.74286395,0.45449114,0.079752356,0.5580867,-0.8259411,,0.1396755,-0.04416004,0.07334447,-0.74264,-0.6177307,0.25863937,-0.44416285,0.7433714,0.50011814,-0.50120336,0.25652966,-0.82643056,,0.08977588,1.3490111,0.4850896,0.9960517,0.0027313088,-0.08873265,-0.053789064,-0.7765919,-0.62770355,-0.07062352,0.629998,-0.7733788,,-0.072384946,0.2790043,-0.07624515,0.8813811,0.28293458,0.37830597,-0.2462445,0.95856905,-0.14320967,-0.40315136,0.033066526,0.9145357,,0.055007156,0.4436114,-0.370324,0.866642,0.45695525,-0.20030849,-0.49794993,0.76701343,-0.40464345,-0.03126466,0.4504246,0.89226687,,0.8198067082633028,-0.08605441241748371,0.15336925506000001,0.637038048305985,0.1186004817964023,0.30441355242180734,0.8707872165618427,,-0.6228615745048294,-0.6842264099234173,0.12753160278,1.4491671994215478,0.22722649910992745,0.789629468470602,0.8676836793052913,,-0.06956664232292899,-0.10125745821601603,0.0886362022,-0.034016912529394594,,-2.2813678e-05,-1.1920929e-07,2.1457672e-06,0.99999994,3.736466e-05,3.0446798e-05,-3.7372112e-05,0.9999999,3.427267e-06,-3.0435622e-05,-3.3974648e-06,1.0,NaN,NaN,NaN,NaN,NaN
0.6962876249999681,10:15:14.372351,NaN,0,,0.02757444,0.04913468,0.07541396,-0.8672079,-0.36971524,-0.33355775,-0.49151805,0.74285907,0.4545,0.079750955,0.55809563,-0.82593524,,0.1396755,-0.04416004,0.07334447,-0.74264,-0.6177307,0.25863937,-0.44416285,0.7433714,0.50011814,-0.50120336,0.25652966,-0.82643056,,0.08977588,1.3490111,0.4850896,0.9960517,0.0027313088,-0.08873265,-0.053789064,-0.7765919,-0.62770355,-0.07062352,0.629998,-0.7733788,,-0.07238454,0.27900574,-0.07624455,0.88138175,0.2829304,0.3783075,-0.24624465,0.9585706,-0.1431989,-0.40314978,0.033056702,0.9145368,,0.055007156,0.4436114,-0.370324,0.866642,0.45695525,-0.20030849,-0.49794993,0.76701343,-0.40464345,-0.03126466,0.4504246,0.89226687,,0.819814430996177,-0.08604668968460949,0.15336925506000001,0.637038048305985,0.1186004817964023,0.30441355242180734,0.8707872165618427,,-0.6228615745048294,-0.6842264099234173,0.12753160278,1.4491671994215478,0.22722649910992745,0.789629468470602,0.8676836793052913,,-0.06956664232292899,-0.10125745821601603,0.0886362022,-0.034016912529394594,,-2.2813678e-05,-1.1920929e-07,2.1457672e-06,0.99999994,3.736466e-05,3.0446798e-05,-3.7372112e-05,0.9999999,3.427267e-06,-3.0435622e-05,-3.3974648e-06,1.0,NaN,NaN,NaN,NaN,NaN
0.7147381159993529,10:15:14.389913,NaN,0,,0.027576393,0.0491338,0.07541317,-0.86720973,-0.3697219,-0.33354566,-0.49151623,0.7428633,0.45449507,0.07974216,0.5580856,-0.8259429,,0.1396755,-0.04416004,0.07334447,-0.74264,-0.6177307,0.25863937,-0.44416285,0.7433714,0.50011814,-0.50120336,0.25652966,-0.82643056,,0.08977588,1.3490111,0.4850896,0.9960517,0.0027313088,-0.08873265,-0.053789064,-0.7765919,-0.62770355,-0.07062352,0.629998,-0.7733788,,-0.07238638,0.2790044,-0.076244436,0.88138425,0.28293765,0.37829632,-0.24624866,0.95856816,-0.1432087,-0.40314192,0.03306692,0.9145399,,0.055007156,0.4436114,-0.370324,0.866642,0.45695525,-0.20030849,-0.49794993,0.76701343,-0.40464345,-0.03126466,0.4504246,0.89226687,,0.8197989855304286,-0.08604668968460949,0.15336925506000001,0.637038048305985,0.1186004817964023,0.30441355242180734,0.8707872165618427,,-0.6228615745048294,-0.6842264099234173,0.12753160278,1.4491671994215478,0.22722649910992745,0.789629468470602,0.8676836793052913,,-0.06956664232292899,-0.10125745821601603,0.0886362022,-0.034016912529394594,,-2.2813678e-05,-1.1920929e-07,2.1457672e-06,0.99999994,3.736466e-05,3.0446798e-05,-3.7372112e-05,0.9999999,3.427267e-06,-3.0435622e-05,-3.3974648e-06,1.0,NaN,NaN,NaN,NaN,NaN
0.7322933129999001,10:15:14.403939,NaN,0,,0.027575927,0.049132787,0.07541315,-0.86720824,-0.36972225,-0.33354923,-0.49151802,0.742866,0.4544887,0.07974796,0.5580817,-0.8259449,,0.1396755,-0.04416004,0.07334447,-0.74264,-0.6177307,0.25863937,-0.44416285,0.7433714,0.50011814,-0.50120336,0.25652966,-0.82643056,,0.08977588,1.3490111,0.4850896,0.9960517,0.0027313088,-0.08873265,-0.053789064,-0.7765919,-0.62770355,-0.07062352,0.629998,-0.7733788,,-0.07238586,0.27900365,-0.07624509,0.88138235,0.28293818,0.3783004,-0.2462465,0.9585678,-0.14321457,-0.40314746,0.033071633,0.91453725,,0.055007156,0.4436114,-0.370324,0.866642,0.45695525,-0.20030849,-0.49794993,0.76701343,-0.40464345,-0.03126466,0.4504246,0.89226687,,0.8197989855304286,-0.08605441241748371,0.15336925506000001,0.637038048305985,0.1186004817964023,0.30441355242180734,0.8707872165618427,,-0.6228615745048294,-0.6842264099234173,0.12753160278,1.4491671994215478,0.22722649910992745,0.789629468470602,0.8676836793052913,,-0.06956664232292899,-0.10125745821601603,0.0886362022,-0.034016912529394594,,-2.2813678e-05,-1.1920929e-07,2.1457672e-06,0.99999994,3.736466e-05,3.0446798e-05,-3.7372112e-05,0.9999999,3.427267e-06,-3.0435622e-05,-3.3974648e-06,1.0,NaN,NaN,NaN,NaN,NaN
0.7463322479998169,10:15:14.424959,NaN,0,,0.027576393,0.0491338,0.07541317,-0.86720973,-0.3697219,-0.33354566,-0.49151623,0.7428633,0.45449507,0.07974216,0.5580856,-0.8259429,,0.1396755,-0.04416004,0.07334447,-0.74264,-0.6177307,0.25863937,-0.44416285,0.7433714,0.50011814,-0.50120336,0.25652966,-0.82643056,,0.08977588,1.3490111,0.4850896,0.9960517,0.0027313088,-0.08873265,-0.053789064,-0.7765919,-0.62770355,-0.07062352,0.629998,-0.7733788,,-0.07238638,0.2790044,-0.076244436,0.88138425,0.28293765,0.37829632,-0.24624866,0.95856816,-0.1432087,-0.40314192,0.03306692,0.9145399,,0.055007156,0.4436114,-0.370324,0.866642,0.45695525,-0.20030849,-0.49794993,0.76701343,-0.40464345,-0.03126466,0.4504246,0.89226687,,0.8197989855304286,-0.08604668968460949,0.15336925506000001,0.637038048305985,0.1186004817964023,0.30441355242180734,0.8707872165618427,,-0.6228615745048294,-0.6842264099234173,0.12753160278,1.4491671994215478,0.22722649910992745,0.789629468470602,0.8676836793052913,,-0.06956664232292899,-0.10125745821601603,0.0886362022,-0.034016912529394594,,-2.2813678e-05,-1.1920929e-07,2.1457672e-06,0.99999994,3.736466e-05,3.0446798e-05,-3.7372112e-05,0.9999999,3.427267e-06,-3.0435622e-05,-3.3974648e-06,1.0,NaN,NaN,NaN,NaN,NaN
0.7673067629993966,10:15:14.443379,NaN,0,,0.027576393,0.0491338,0.07541317,-0.86720973,-0.3697219,-0.33354566,-0.49151623,0.7428633,0.45449507,0.07974216,0.5580856,-0.8259429,,0.1396755,-0.04416004,0.07334447,-0.74264,-0.6177307,0.25863937,-0.44416285,0.7433714,0.50011814,-0.50120336,0.25652966,-0.82643056,,0.08977588,1.3490111,0.4850896,0.9960517,0.0027313088,-0.08873265,-0.053789064,-0.7765919,-0.62770355,-0.07062352,0.629998,-0.7733788,,-0.07238638,0.2790044,-0.076244436,0.88138425,0.28293765,0.37829632,-0.24624866,0.95856816,-0.1432087,-0.40314192,0.03306692,0.9145399,,0.055007156,0.4436114,-0.370324,0.866642,0.45695525,-0.20030849,-0.49794993,0.76701343,-0.40464345,-0.03126466,0.4504246,0.89226687,,0.8197989855304286,-0.08604668968460949,0.15336925506000001,0.637038048305985,0.1186004817964023,0.30441355242180734,0.8707872165618427,,-0.6228615745048294,-0.6842264099234173,0.12753160278,1.4491671994215478,0.22722649910992745,0.789629468470602,0.8676836793052913,,-0.06956664232292899,-0.10125745821601603,0.0886362022,-0.034016912529394594,,-2.2813678e-05,-1.1920929e-07,2.1457672e-06,0.99999994,3.736466e-05,3.0446798e-05,-3.7372112e-05,0.9999999,3.427267e-06,-3.0435622e-05,-3.3974648e-06,1.0,NaN,NaN,NaN,NaN,NaN
0.7857468100000915,10:15:14.460176,NaN,0,,0.027575927,0.049132787,0.07541315,-0.86720824,-0.36972225,-0.33354923,-0.49151802,0.742866,0.4544887,0.07974796,0.5580817,-0.8259449,,0.1396755,-0.04416004,0.07334447,-0.74264,-0.6177307,0.25863937,-0.44416285,0.7433714,0.50011814,-0.50120336,0.25652966,-0.82643056,,0.08977588,1.3490111,0.4850896,0.9960517,0.0027313088,-0.08873265,-0.053789064,-0.7765919,-0.62770355,-0.07062352,0.629998,-0.7733788,,-0.07238586,0.27900365,-0.07624509,0.88138235,0.28293818,0.3783004,-0.2462465,0.9585678,-0.14321457,-0.40314746,0.033071633,0.91453725,,0.055007156,0.4436114,-0.370324,0.866642,0.45695525,-0.20030849,-0.49794993,0.76701343,-0.40464345,-0.03126466,0.4504246,0.89226687,,0.8197989855304286,-0.08605441241748371,0.15336925506000001,0.637038048305985,0.1186004817964023,0.30441355242180734,0.8707872165618427,,-0.6228615745048294,-0.6842264099234173,0.12753160278,1.4491671994215478,0.22722649910992745,0.789629468470602,0.8676836793052913,,-0.06956664232292899,-0.10125745821601603,0.0886362022,-0.034016912529394594,,-2.2813678e-05,-1.1920929e-07,2.1457672e-06,0.99999994,3.736466e-05,3.0446798e-05,-3.7372112e-05,0.9999999,3.427267e-06,-3.0435622e-05,-3.3974648e-06,1.0,NaN,NaN,NaN,NaN,NaN
0.8025521399995341,10:15:14.480246,NaN,0,,0.027574958,0.049133204,0.07541354,-0.8672073,-0.36971894,-0.33355534,-0.4915189,0.74286395,0.45449114,0.079752356,0.5580867,-0.8259411,,0.1396755,-0.04416004,0.07334447,-0.74264,-0.6177307,0.25863937,-0.44416285,0.7433714,0.50011814,-0.50120336,0.25652966,-0.82643056,,0.08977588,1.3490111,0.4850896,0.9960517,0.0027313088,-0.08873265,-0.053789064,-0.7765919,-0.62770355,-0.07062352,0.629998,-0.7733788,,-0.072384946,0.2790043,-0.07624515,0.8813811,0.28293458,0.37830597,-0.2462445,0.95856905,-0.14320967,-0.40315136,0.033066526,0.9145357,,0.055007156,0.4436114,-0.370324,0.866642,0.45695525,-0.20030849,-0.49794993,0.76701343,-0.40464345,-0.03126466,0.4504246,0.89226687,,0.8198067082633028,-0.08605441241748371,0.15336925506000001,0.637038048305985,0.1186004817964023,0.30441355242180734,0.8707872165618427,,-0.6228615745048294,-0.6842264099234173,0.12753160278,1.4491671994215478,0.22722649910992745,0.789629468470602,0.8676836793052913,,-0.06956664232292899,-0.10125745821601603,0.0886362022,-0.034016912529394594,,-2.2813678e-05,-1.1920929e-07,2.1457672e-06,0.99999994,3.736466e-05,3.0446798e-05,-3.7372112e-05,0.9999999,3.427267e-06,-3.0435622e-05,-3.3974648e-06,1.0,NaN,NaN,NaN,NaN,NaN
0.8226175859999785,10:15:14.494623,NaN,0,,0.027574958,0.049133204,0.07541354,-0.8672073,-0.36971894,-0.33355534,-0.4915189,0.74286395,0.45449114,0.079752356,0.5580867,-0.8259411,,0.1396755,-0.04416004,0.07334447,-0.74264,-0.6177307,0.25863937,-0.44416285,0.7433714,0.50011814,-0.50120336,0.25652966,-0.82643056,,0.08977588,1.3490111,0.4850896,0.9960517,0.0027313088,-0.08873265,-0.053789064,-0.7765919,-0.62770355,-0.07062352,0.629998,-0.7733788,,-0.072384946,0.2790043,-0.07624515,0.8813811,0.28293458,0.37830597,-0.2462445,0.95856905,-0.14320967,-0.40315136,0.033066526,0.9145357,,0.055007156,0.4436114,-0.370324,0.866642,0.45695525,-0.20030849,-0.49794993,0.76701343,-0.40464345,-0.03126466,0.4504246,0.89226687,,0.8198067082633028,-0.08605441241748371,0.15336925506000001,0.637038048305985,0.1186004817964023,0.30441355242180734,0.8707872165618427,,-0.6228615745048294,-0.6842264099234173,0.12753160278,1.4491671994215478,0.22722649910992745,0.789629468470602,0.8676836793052913,,-0.06956664232292899,-0.10125745821601603,0.0886362022,-0.034016912529394594,,-2.2813678e-05,-1.1920929e-07,2.1457672e-06,0.99999994,3.736466e-05,3.0446798e-05,-3.7372112e-05,0.9999999,3.427267e-06,-3.0435622e-05,-3.3974648e-06,1.0,NaN,NaN,NaN,NaN,NaN
0.8369789079997645,10:15:14.513709,NaN,0,,0.02757444,0.04913468,0.07541396,-0.8672079,-0.36971524,-0.33355775,-0.49151805,0.74285907,0.4545,0.079750955,0.55809563,-0.82593524,,0.1396755,-0.04416004,0.07334447,-0.74264,-0.6177307,0.25863937,-0.44416285,0.7433714,0.50011814,-0.50120336,0.25652966,-0.82643056,,0.08977588,1.3490111,0.4850896,0.9960517,0.0027313088,-0.08873265,-0.053789064,-0.7765919,-0.62770355,-0.07062352,0.629998,-0.7733788,,-0.07238454,0.27900574,-0.07624455,0.88138175,0.2829304,0.3783075,-0.24624465,0.9585706,-0.1431989,-0.40314978,0.033056702,0.9145368,,0.055007156,0.4436114,-0.370324,0.866642,0.45695525,-0.20030849,-0.49794993,0.76701343,-0.40464345,-0.03126466,0.4504246,0.89226687,,0.819814430996177,-0.08604668968460949,0.15336925506000001,0.637038048305985,0.1186004817964023,0.30441355242180734,0.8707872165618427,,-0.6228615745048294,-0.6842264099234173,0.12753160278,1.4491671994215478,0.22722649910992745,0.789629468470602,0.8676836793052913,,-0.06956664232292899,-0.10125745821601603,0.0886362022,-0.034016912529394594,,-2.2813678e-05,-1.1920929e-07,2.1457672e-06,0.99999994,3.736466e-05,3.0446798e-05,-3.7372112e-05,0.9999999,3.427267e-06,-3.0435622e-05,-3.3974648e-06,1.0,NaN,NaN,NaN,NaN,NaN
0.8560475289996248,10:15:14.528101,NaN,0,,0.02757444,0.04913468,0.07541396,-0.8672079,-0.36971524,-0.33355775,-0.49151805,0.74285907,0.4545,0.079750955,0.55809563,-0.82593524,,0.1396755,-0.04416004,0.07334447,-0.74264,-0.6177307,0.25863937,-0.44416285,0.7433714,0.50011814,-0.50120336,0.25652966,-0.82643056,,0.08977588,1.3490111,0.4850896,0.9960517,0.0027313088,-0.08873265,-0.053789064,-0.7765919,-0.62770355,-0.07062352,0.629998,-0.7733788,,-0.07238454,0.27900574,-0.07624455,0.88138175,0.2829304,0.3783075,-0.24624465,0.9585706,-0.1431989,-0.40314978,0.033056702,0.9145368,,0.055007156,0.4436114,-0.370324,0.866642,0.45695525,-0.20030849,-0.49794993,0.76701343,-0.40464345,-0.03126466,0.4504246,0.89226687,,0.819814430996177,-0.08604668968460949,0.15336925506000001,0.637038048305985,0.1186004817964023,0.30441355242180734,0.8707872165618427,,-0.6228615745048294,-0.6842264099234173,0.12753160278,1.4491671994215478,0.22722649910992745,0.789629468470602,0.8676836793052913,,-0.06956664232292899,-0.10125745821601603,0.0886362022,-0.034016912529394594,,-2.2813678e-05,-1.1920929e-07,2.1457672e-06,0.99999994,3.736466e-05,3.0446798e-05,-3.7372112e-05,0.9999999,3.427267e-06,-3.0435622e-05,-3.3974648e-06,1.0,NaN,NaN,NaN,NaN,NaN
0.8704837389996101,10:15:14.544820,NaN,0,,0.027574958,0.049133204,0.07541354,-0.8672073,-0.36971894,-0.33355534,-0.4915189,0.74286395,0.45449114,0.079752356,0.5580867,-0.8259411,,0.1396755,-0.04416004,0.07334447,-0.74264,-0.6177307,0.25863937,-0.44416285,0.7433714,0.50011814,-0.50120336,0.25652966,-0.82643056,,0.08977588,1.3490111,0.4850896,0.9960517,0.0027313088,-0.08873265,-0.053789064,-0.7765919,-0.62770355,-0.07062352,0.629998,-0.7733788,,-0.072384946,0.2790043,-0.07624515,0.8813811,0.28293458,0.37830597,-0.2462445,0.95856905,-0.14320967,-0.40315136,0.033066526,0.9145357,,0.055007156,0.4436114,-0.370324,0.866642,0.45695525,-0.20030849,-0.49794993,0.76701343,-0.40464345,-0.03126466,0.4504246,0.89226687,,0.8198067082633028,-0.08605441241748371,0.15336925506000001,0.637038048305985,0.1186004817964023,0.30441355242180734,0.8707872165618427,,-0.6228615745048294,-0.6842264099234173,0.12753160278,1.4491671994215478,0.22722649910992745,0.789629468470602,0.8676836793052913,,-0.06956664232292899,-0.10125745821601603,0.0886362022,-0.034016912529394594,,-2.2813678e-05,-1.1920929e-07,2.1457672e-06,0.99999994,3.736466e-05,3.0446798e-05,-3.7372112e-05,0.9999999,3.427267e-06,-3.0435622e-05,-3.3974648e-06,1.0,NaN,NaN,NaN,NaN,NaN
0.8871682539993344,10:15:14.565035,NaN,0,,0.027573975,0.04913362,0.07541393,-0.86720634,-0.3697156,-0.3335614,-0.4915198,0.7428618,0.45449358,0.07975671,0.5580917,-0.8259373,,0.1396755,-0.04416004,0.07334447,-0.74264,-0.6177095,0.2586898,-0.44416285,0.74341226,0.50005746,-0.50120336,0.25646213,-0.82645154,,0.08977588,1.3490111,0.4850896,0.9960517,0.0027313088,-0.08873265,-0.053789064,-0.7765919,-0.62770355,-0.07062352,0.629998,-0.7733788,,-0.07238403,0.27900496,-0.0762452,0.88137984,0.28293094,0.37831157,-0.24624251,0.9585703,-0.14320478,-0.4031553,0.033061415,0.91453415,,0.055007156,0.4436114,-0.370324,0.866642,0.4569389,-0.2003458,-0.49794993,0.76698035,-0.4047061,-0.03126466,0.45049748,0.8922301,,0.819814430996177,-0.08605441241748371,0.15336925506000001,0.637038048305985,0.1186004817964023,0.30441355242180734,0.8707872165618427,,-0.6228615745048294,-0.6842264099234173,0.12753160278,1.4491671994215478,0.22722649910992745,0.7895477897304615,0.8675203352391572,,-0.06956664232292899,-0.10125745821601603,0.0886362022,-0.034016912529394594,,-2.2813678e-05,-1.1920929e-07,2.1457672e-06,0.99999994,3.736466e-05,3.0446798e-05,-3.7372112e-05,0.9999999,3.427267e-06,-3.0435622e-05,-3.3974648e-06,1.0,NaN,NaN,NaN,NaN,NaN
0.9073551889996452,10:15:14.578500,NaN,0,,0.027573975,0.04913362,0.07541393,-0.86720634,-0.3697156,-0.3335614,-0.4915198,0.7428618,0.45449358,0.07975671,0.5580917,-0.8259373,,0.1396755,-0.04416004,0.07334447,-0.74264,-0.6177095,0.2586898,-0.44416285,0.74341226,0.50005746,-0.50120336,0.25646213,-0.82645154,,0.08977588,1.3490111,0.4850896,0.9960517,0.0027313088,-0.08873265,-0.053789064,-0.7765919,-0.62770355,-0.07062352,0.629998,-0.7733788,,-0.07238403,0.27900496,-0.0762452,0.88137984,0.28293094,0.37831157,-0.24624251,0.9585703,-0.14320478,-0.4031553,0.033061415,0.91453415,,0.055007156,0.4436114,-0.370324,0.866642,0.4569389,-0.2003458,-0.49794993,0.76698035,-0.4047061,-0.03126466,0.45049748,0.8922301,,0.819814430996177,-0.08605441241748371,0.15336925506000001,0.637038048305985,0.1186004817964023,0.30441355242180734,0.8707872165618427,,-0.6228615745048294,-0.6842264099234173,0.12753160278,1.4491671994215478,0.22722649910992745,0.7895477897304615,0.8675203352391572,,-0.06956664232292899,-0.10125745821601603,0.0886362022,-0.034016912529394594,,-2.2813678e-05,-1.1920929e-07,2.1457672e-06,0.99999994,3.736466e-05,3.0446798e-05,-3.7372112e-05,0.9999999,3.427267e-06,-3.0435622e-05,-3.3974648e-06,1.0,NaN,NaN,NaN,NaN,NaN
0.9208578050001961,10:15:14.594005,NaN,0,,0.02757444,0.04913468,0.07541396,-0.8672079,-0.36971524,-0.33355775,-0.49151805,0.74285907,0.4545,0.079750955,0.55809563,-0.82593524,,0.1396755,-0.04416004,0.07334447,-0.74264,-0.6176884,0.25874025,-0.44416285,0.7434531,0.49999672,-0.50120336,0.25639462,-0.8264725,,0.08977588,1.3490111,0.4850896,0.9960517,0.0027313088,-0.08873265,-0.053789064,-0.7765919,-0.62770355,-0.07062352,0.629998,-0.7733788,,-0.07238454,0.27900574,-0.07624455,0.88138175,0.2829304,0.3783075,-0.24624465,0.9585706,-0.1431989,-0.40314978,0.033056702,0.9145368,,0.055007156,0.4436114,-0.370324,0.866642,0.45692253,-0.20038313,-0.49794993,0.76694727,-0.40476874,-0.03126466,0.45057034,0.8921933,,0.819814430996177,-0.08604668968460949,0.15336925506000001,0.637038048305985,0.1186004817964023,0.30441355242180734,0.8707872165618427,,-0.6228615745048294,-0.6842264099234173,0.12753160278,1.4491671994215478,0.22722649910992745,0.7894661109903209,0.8673569911730228,,-0.06956664232292899,-0.10125745821601603,0.0886362022,-0.034016912529394594,,-2.2813678e-05,-1.1920929e-07,2.1457672e-06,0.99999994,3.736466e-05,3.0446798e-05,-3.7372112e-05,0.9999999,3.427267e-06,-3.0435622e-05,-3.3974648e-06,1.0,NaN,NaN,NaN,NaN,NaN
0.9363456539995241,10:15:14.613206,NaN,0,,0.02757542,0.049134247,0.07541357,-0.8672088,-0.36971858,-0.33355173,-0.49151716,0.7428612,0.45449752,0.079746544,0.5580906,-0.82593906,,0.1396755,-0.04416004,0.07334447,-0.74264,-0.6176884,0.25874025,-0.44416285,0.7434531,0.49999672,-0.50120336,0.25639462,-0.8264725,,0.08977588,1.3490111,0.4850896,0.9960517,0.0027313088,-0.08873265,-0.053789064,-0.7765919,-0.62770355,-0.07062352,0.629998,-0.7733788,,-0.07238546,0.27900508,-0.07624449,0.881383,0.28293404,0.37830192,-0.24624667,0.9585694,-0.1432038,-0.40314585,0.03306181,0.9145383,,0.055007156,0.4436114,-0.370324,0.866642,0.45692253,-0.20038313,-0.49794993,0.76694727,-0.40476874,-0.03126466,0.45057034,0.8921933,,0.8198067082633028,-0.08604668968460949,0.15336925506000001,0.637038048305985,0.1186004817964023,0.30441355242180734,0.8707872165618427,,-0.6228615745048294,-0.6842264099234173,0.12753160278,1.4491671994215478,0.22722649910992745,0.7894661109903209,0.8673569911730228,,-0.06956664232292899,-0.10125745821601603,0.0886362022,-0.034016912529394594,,-2.2813678e-05,-1.1920929e-07,2.1457672e-06,0.99999994,3.736466e-05,3.0446798e-05,-3.7372112e-05,0.9999999,3.427267e-06,-3.0435622e-05,-3.3974648e-06,1.0,NaN,NaN,NaN,NaN,NaN
0.9555748229995515,10:15:14.627236,NaN,0,,0.02757444,0.04913468,0.07541396,-0.8672079,-0.36971524,-0.33355775,-0.49151805,0.74285907,0.4545,0.079750955,0.55809563,-0.82593524,,0.1396755,-0.04416004,0.07334447,-0.74264,-0.6176884,0.25874025,-0.44416285,0.7434531,0.49999672,-0.50120336,0.25639462,-0.8264725,,0.08977588,1.3490111,0.4850896,0.9960517,0.0027313088,-0.08873265,-0.053789064,-0.7765919,-0.62770355,-0.07062352,0.629998,-0.7733788,,-0.07238454,0.27900574,-0.07624455,0.88138175,0.2829304,0.3783075,-0.24624465,0.9585706,-0.1431989,-0.40314978,0.033056702,0.9145368,,0.055007156,0.4436114,-0.370324,0.866642,0.45692253,-0.20038313,-0.49794993,0.76694727,-0.40476874,-0.03126466,0.45057034,0.8921933,,0.819814430996177,-0.08604668968460949,0.15336925506000001,0.637038048305985,0.1186004817964023,0.30441355242180734,0.8707872165618427,,-0.6228615745048294,-0.6842264099234173,0.12753160278,1.4491671994215478,0.22722649910992745,0.7894661109903209,0.8673569911730228,,-0.06956664232292899,-0.10125745821601603,0.0886362022,-0.034016912529394594,,-2.2813678e-05,-1.1920929e-07,2.1457672e-06,0.99999994,3.736466e-05,3.0446798e-05,-3.7372112e-05,0.9999999,3.427267e-06,-3.0435622e-05,-3.3974648e-06,1.0,NaN,NaN,NaN,NaN,NaN
0.969606470999679,10:15:14.644250,NaN,0,,0.027573975,0.04913362,0.07541393,-0.86720634,-0.3697156,-0.3335614,-0.4915198,0.7428618,0.45449358,0.07975671,0.5580917,-0.8259373,,0.1396755,-0.04416004,0.07334447,-0.74264,-0.6176884,0.25874025,-0.44416285,0.7434531,0.49999672,-0.50120336,0.25639462,-0.8264725,,0.08977588,1.3490111,0.4850896,0.9960517,0.0027313088,-0.08873265,-0.053789064,-0.7765919,-0.62770355,-0.07062352,0.629998,-0.7733788,,-0.07238403,0.27900496,-0.0762452,0.88137984,0.28293094,0.37831157,-0.24624251,0.9585703,-0.14320478,-0.4031553,0.033061415,0.91453415,,0.055007156,0.4436114,-0.370324,0.866642,0.45692253,-0.20038313,-0.49794993,0.76694727,-0.40476874,-0.03126466,0.45057034,0.8921933,,0.819814430996177,-0.08605441241748371,0.15336925506000001,0.637038048305985,0.1186004817964023,0.30441355242180734,0.8707872165618427,,-0.6228615745048294,-0.6842264099234173,0.12753160278,1.4491671994215478,0.22722649910992745,0.7894661109903209,0.8673569911730228,,-0.06956664232292899,-0.10125745821601603,0.0886362022,-0.034016912529394594,,-2.2813678e-05,-1.1920929e-07,2.1457672e-06,0.99999994,3.736466e-05,3.0446798e-05,-3.7372112e-05,0.9999999,3.427267e-06,-3.0435622e-05,-3.3974648e-06,1.0,NaN,NaN,NaN,NaN,NaN
0.986591578000116,10:15:14.663201,NaN,0,,0.027688764,0.049091935,0.07542266,-0.8671599,-0.36980432,-0.33358395,-0.49160388,0.7428384,0.4544413,0.07974464,0.55806434,-0.825957,,0.13960269,-0.044206895,0.0733439,-0.74265975,-0.6176545,0.25876483,-0.44412267,0.74347866,0.49999437,-0.50121,0.25640228,-0.8264662,,0.089798085,1.3490093,0.48509827,0.99605113,0.0027223998,-0.08873986,-0.05380049,-0.77659196,-0.62770253,-0.07062352,0.629998,-0.7733788,,-0.07251652,0.27896148,-0.07626702,0.88133377,0.28303146,0.37834367,-0.24632712,0.9585406,-0.14325798,-0.4032043,0.033061795,0.9145126,,0.05506487,0.44359082,-0.3703524,0.8666517,0.45689455,-0.2004049,-0.4979349,0.7669575,-0.40476778,-0.031234149,0.45058128,0.89218885,,0.8198067082633028,-0.08605441241748371,0.15336925506000001,0.637038048305985,0.1186004817964023,0.30441355242180734,0.8707872165618427,,-0.6228615745048294,-0.6842264099234173,0.12753160278,1.4491671994215478,0.22722649910992745,0.7894661109903209,0.8673569911730228,,-0.06956664232292899,-0.10125745821601603,0.0886362022,-0.034016912529394594,,-1.2218952e-06,6.735325e-06,-5.364418e-06,1.0,2.8494745e-05,2.321601e-05,-2.849847e-05,1.0,2.6226044e-06,-2.3212284e-05,-2.5629997e-06,1.0,NaN,NaN,NaN,NaN,NaN
1.0055592429998796,10:15:14.679137,NaN,0,,0.027688764,0.049091935,0.07542266,-0.8671599,-0.36980432,-0.33358395,-0.49160388,0.7428384,0.4544413,0.07974464,0.55806434,-0.825957,,0.13960269,-0.044206895,0.0733439,-0.74265975,-0.6176545,0.25876483,-0.44412267,0.74347866,0.49999437,-0.50121,0.25640228,-0.8264662,,0.089798085,1.3490093,0.48509827,0.99605113,0.0027223998,-0.08873986,-0.05380049,-0.77659196,-0.62770253,-0.07062352,0.629998,-0.7733788,,-0.07251652,0.27896148,-0.07626702,0.88133377,0.28303146,0.37834367,-0.24632712,0.9585406,-0.14325798,-0.4032043,0.033061795,0.9145126,,0.05506487,0.44359082,-0.3703524,0.8666517,0.45689455,-0.2004049,-0.4979349,0.7669575,-0.40476778,-0.031234149,0.45058128,0.89218885,,0.8198067082633028,-0.08605441241748371,0.15336925506000001,0.637038048305985,0.1186004817964023,0.30441355242180734,0.8707872165618427,,-0.6228615745048294,-0.6842264099234173,0.12753160278,1.4491671994215478,0.22722649910992745,0.7894661109903209,0.8673569911730228,,-0.06956664232292899,-0.10125745821601603,0.0886362022,-0.034016912529394594,,-1.2218952e-06,6.735325e-06,-5.364418e-06,1.0,2.8494745e-05,2.321601e-05,-2.849847e-05,1.0,2.6226044e-06,-2.3212284e-05,-2.5629997e-06,1.0,NaN,NaN,NaN,NaN,NaN
1.0214712689994485,10:15:14.702172,NaN,0,,0.027688246,0.04909341,0.07542308,-0.86716056,-0.36980066,-0.3335864,-0.49160296,0.7428335,0.45445013,0.07974324,0.5580732,-0.8259511,,0.13960269,-0.044206895,0.0733439,-0.74265975,-0.6176545,0.25876483,-0.44412267,0.74347866,0.49999437,-0.50121,0.25640228,-0.8264662,,0.089798085,1.3490093,0.48509827,0.99605113,0.0027223998,-0.08873986,-0.05380049,-0.77659196,-0.62770253,-0.07062352,0.629998,-0.7733788,,-0.07251611,0.2789629,-0.07626642,0.8813345,0.2830273,0.3783452,-0.24632727,0.95854217,-0.14324722,-0.40320268,0.033051975,0.91451365,,0.05506487,0.44359082,-0.3703524,0.8666517,0.45689455,-0.2004049,-0.4979349,0.7669575,-0.40476778,-0.031234149,0.45058128,0.89218885,,0.819814430996177,-0.08604668968460949,0.15336925506000001,0.637038048305985,0.1186004817964023,0.30441355242180734,0.8707872165618427,,-0.6228615745048294,-0.6842264099234173,0.12753160278,1.4491671994215478,0.22722649910992745,0.7894661109903209,0.8673569911730228,,-0.06956664232292899,-0.10125745821601603,0.0886362022,-0.034016912529394594,,-1.2218952e-06,6.735325e-06,-5.364418e-06,1.0,2.8494745e-05,2.321601e-05,-2.849847e-05,1.0,2.6226044e-06,-2.3212284e-05,-2.5629997e-06,1.0,NaN,NaN,NaN,NaN,NaN
1.0413869529993462,10:15:14.717073,NaN,0,,0.027688246,0.04909341,0.07542308,-0.86716056,-0.36980066,-0.3335864,-0.49160296,0.7428335,0.45445013,0.07974324,0.5580732,-0.8259511,,0.13960269,-0.044206895,0.0733439,-0.74265975,-0.6176545,0.25876483,-0.44412267,0.74347866,0.49999437,-0.50121,0.25640228,-0.8264662,,0.089798085,1.3490093,0.48509827,0.99605113,0.0027223998,-0.08873986,-0.05380049,-0.77659196,-0.62770253,-0.07062352,0.629998,-0.7733788,,-0.07251611,0.2789629,-0.07626642,0.8813345,0.2830273,0.3783452,-0.24632727,0.95854217,-0.14324722,-0.40320268,0.033051975,0.91451365,,0.05506487,0.44359082,-0.3703524,0.8666517,0.45689455,-0.2004049,-0.4979349,0.7669575,-0.40476778,-0.031234149,0.45058128,0.89218885,,0.819814430996177,-0.08604668968460949,0.15336925506000001,0.637038048305985,0.1186004817964023,0.30441355242180734,0.8707872165618427,,-0.6228615745048294,-0.6842264099234173,0.12753160278,1.4491671994215478,0.22722649910992745,0.7894661109903209,0.8673569911730228,,-0.06956664232292899,-0.10125745821601603,0.0886362022,-0.034016912529394594,,-1.2218952e-06,6.735325e-06,-5.364418e-06,1.0,2.8494745e-05,2.321601e-05,-2.849847e-05,1.0,2.6226044e-06,-2.3212284e-05,-2.5629997e-06,1.0,NaN,NaN,NaN,NaN,NaN
1.0594542159997218,10:15:14.735612,NaN,0,,0.027687792,0.049092367,0.07542305,-0.867159,-0.36980104,-0.33359,-0.49160475,0.74283636,0.45444375,0.07974902,0.55806935,-0.8259531,,0.13960269,-0.044206895,0.0733439,-0.74265975,-0.6176545,0.25876483,-0.44412267,0.74347866,0.49999437,-0.50121,0.25640228,-0.8264662,,0.089798085,1.3490093,0.48509827,0.99605113,0.0027223998,-0.08873986,-0.05380049,-0.77659196,-0.62770253,-0.07062352,0.629998,-0.7733788,,-0.07251561,0.27896214,-0.07626708,0.8813326,0.28302786,0.37834924,-0.2463251,0.95854187,-0.14325309,-0.4032082,0.033056688,0.914511,,0.05506487,0.44359082,-0.3703524,0.8666517,0.45689455,-0.2004049,-0.4979349,0.7669575,-0.40476778,-0.031234149,0.45058128,0.89218885,,0.819814430996177,-0.08605441241748371,0.15336925506000001,0.637038048305985,0.1186004817964023,0.30441355242180734,0.8707872165618427,,-0.6228615745048294,-0.6842264099234173,0.12753160278,1.4491671994215478,0.22722649910992745,0.7894661109903209,0.8673569911730228,,-0.06956664232292899,-0.10125745821601603,0.0886362022,-0.034016912529394594,,-1.2218952e-06,6.735325e-06,-5.364418e-06,1.0,2.8494745e-05,2.321601e-05,-2.849847e-05,1.0,2.6226044e-06,-2.3212284e-05,-2.5629997e-06,1.0,NaN,NaN,NaN,NaN,NaN
1.0779885980000472,10:15:14.753250,NaN,0,,0.027687792,0.049092367,0.07542305,-0.867159,-0.36980104,-0.33359,-0.49160475,0.74283636,0.45444375,0.07974902,0.55806935,-0.8259531,,0.13960269,-0.044206895,0.0733439,-0.74265975,-0.6176545,0.25876483,-0.44412267,0.74347866,0.49999437,-0.50121,0.25640228,-0.8264662,,0.089798085,1.3490093,0.48509827,0.99605113,0.0027223998,-0.08873986,-0.05380049,-0.77659196,-0.62770253,-0.07062352,0.629998,-0.7733788,,-0.07251561,0.27896214,-0.07626708,0.8813326,0.28302786,0.37834924,-0.2463251,0.95854187,-0.14325309,-0.4032082,0.033056688,0.914511,,0.05506487,0.44359082,-0.3703524,0.8666517,0.45689455,-0.2004049,-0.4979349,0.7669575,-0.40476778,-0.031234149,0.45058128,0.89218885,,0.819814430996177,-0.08605441241748371,0.15336925506000001,0.637038048305985,0.1186004817964023,0.30441355242180734,0.8707872165618427,,-0.6228615745048294,-0.6842264099234173,0.12753160278,1.4491671994215478,0.22722649910992745,0.7894661109903209,0.8673569911730228,,-0.06956664232292899,-0.10125745821601603,0.0886362022,-0.034016912529394594,,-1.2218952e-06,6.735325e-06,-5.364418e-06,1.0,2.8494745e-05,2.321601e-05,-2.849847e-05,1.0,2.6226044e-06,-2.3212284e-05,-2.5629997e-06,1.0,NaN,NaN,NaN,NaN,NaN
1.0956143429993972,10:15:14.769652,NaN,0,,0.027687792,0.049092367,0.07542305,-0.867159,-0.36980104,-0.33359,-0.49160475,0.74283636,0.45444375,0.07974902,0.55806935,-0.8259531,,0.13960269,-0.044206895,0.0733439,-0.74265975,-0.6176545,0.25876483,-0.44412267,0.74347866,0.49999437,-0.50121,0.25640228,-0.8264662,,0.089798085,1.3490093,0.48509827,0.99605113,0.0027223998,-0.08873986,-0.05380049,-0.77659196,-0.62770253,-0.07062352,0.629998,-0.7733788,,-0.07251561,0.27896214,-0.07626708,0.8813326,0.28302786,0.37834924,-0.2463251,0.95854187,-0.14325309,-0.4032082,0.033056688,0.914511,,0.05506487,0.44359082,-0.3703524,0.8666517,0.45689455,-0.2004049,-0.4979349,0.7669575,-0.40476778,-0.031234149,0.45058128,0.89218885,,0.819814430996177,-0.08605441241748371,0.15336925506000001,0.637038048305985,0.1186004817964023,0.30441355242180734,0.8707872165618427,,-0.6228615745048294,-0.6842264099234173,0.12753160278,1.4491671994215478,0.22722649910992745,0.7894661109903209,0.8673569911730228,,-0.06956664232292899,-0.10125745821601603,0.0886362022,-0.034016912529394594,,-1.2218952e-06,6.735325e-06,-5.364418e-06,1.0,2.8494745e-05,2.321601e-05,-2.849847e-05,1.0,2.6226044e-06,-2.3212284e-05,-2.5629997e-06,1.0,NaN,NaN,NaN,NaN,NaN
1.1120446269997046,10:15:14.793222,NaN,0,,0.027687792,0.049092367,0.07542305,-0.867159,-0.36980104,-0.33359,-0.49160475,0.74283636,0.45444375,0.07974902,0.55806935,-0.8259531,,0.13960269,-0.044206895,0.0733439,-0.74265975,-0.6176545,0.25876483,-0.44412267,0.74347866,0.49999437,-0.50121,0.25640228,-0.8264662,,0.089798085,1.3490093,0.48509827,0.99605113,0.0027223998,-0.08873986,-0.05380049,-0.77659196,-0.62770253,-0.07062352,0.629998,-0.7733788,,-0.07251561,0.27896214,-0.07626708,0.8813326,0.28302786,0.37834924,-0.2463251,0.95854187,-0.14325309,-0.4032082,0.033056688,0.914511,,0.05506487,0.44359082,-0.3703524,0.8666517,0.45689455,-0.2004049,-0.4979349,0.7669575,-0.40476778,-0.031234149,0.45058128,0.89218885,,0.819814430996177,-0.08605441241748371,0.15336925506000001,0.637038048305985,0.1186004817964023,0.30441355242180734,0.8707872165618427,,-0.6228615745048294,-0.6842264099234173,0.12753160278,1.4491671994215478,0.22722649910992745,0.7894661109903209,0.8673569911730228,,-0.06956664232292899,-0.10125745821601603,0.0886362022,-0.034016912529394594,,-1.2218952e-06,6.735325e-06,-5.364418e-06,1.0,2.8494745e-05,2.321601e-05,-2.849847e-05,1.0,2.6226044e-06,-2.3212284e-05,-2.5629997e-06,1.0,NaN,NaN,NaN,NaN,NaN
1.135189418999289,10:15:14.807232,NaN,0,,0.027689219,0.04909295,0.07542266,-0.8671615,-0.36980397,-0.33358034,-0.49160206,0.74283564,0.45444763,0.079738855,0.5580682,-0.82595485,,0.13960269,-0.044206895,0.0733439,-0.74265975,-0.6176545,0.25876483,-0.44412267,0.74347866,0.49999437,-0.50121,0.25640228,-0.8264662,,0.089798085,1.3490093,0.48509827,0.99605113,0.0027223998,-0.08873986,-0.05380049,-0.77659196,-0.62770253,-0.07062352,0.629998,-0.7733788,,-0.07251703,0.27896222,-0.07626636,0.88133574,0.28303093,0.3783396,-0.24632926,0.9585409,-0.1432521,-0.40319875,0.033057082,0.91451514,,0.05506487,0.44359082,-0.3703524,0.8666517,0.45689455,-0.2004049,-0.4979349,0.7669575,-0.40476778,-0.031234149,0.45058128,0.89218885,,0.8198067082633028,-0.08604668968460949,0.15336925506000001,0.637038048305985,0.1186004817964023,0.30441355242180734,0.8707872165618427,,-0.6228615745048294,-0.6842264099234173,0.12753160278,1.4491671994215478,0.22722649910992745,0.7894661109903209,0.8673569911730228,,-0.06956664232292899,-0.10125745821601603,0.0886362022,-0.034016912529394594,,-1.2218952e-06,6.735325e-06,-5.364418e-06,1.0,2.8494745e-05,2.321601e-05,-2.849847e-05,1.0,2.6226044e-06,-2.3212284e-05,-2.5629997e-06,1.0,NaN,NaN,NaN,NaN,NaN
1.1496221959996547,10:15:14.825989,NaN,0,,0.027688764,0.049091935,0.07542266,-0.8671599,-0.36980432,-0.33358395,-0.49160388,0.7428384,0.4544413,0.07974464,0.55806434,-0.825957,,0.13960269,-0.044206895,0.0733439,-0.74265975,-0.6176545,0.25876483,-0.44412267,0.74347866,0.49999437,-0.50121,0.25640228,-0.8264662,,0.089798085,1.3490093,0.48509827,0.99605113,0.0027223998,-0.08873986,-0.05380049,-0.77659196,-0.62770253,-0.07062352,0.629998,-0.7733788,,-0.07251652,0.27896148,-0.07626702,0.88133377,0.28303146,0.37834367,-0.24632712,0.9585406,-0.14325798,-0.4032043,0.033061795,0.9145126,,0.05506487,0.44359082,-0.3703524,0.8666517,0.45689455,-0.2004049,-0.4979349,0.7669575,-0.40476778,-0.031234149,0.45058128,0.89218885,,0.8198067082633028,-0.08605441241748371,0.15336925506000001,0.637038048305985,0.1186004817964023,0.30441355242180734,0.8707872165618427,,-0.6228615745048294,-0.6842264099234173,0.12753160278,1.4491671994215478,0.22722649910992745,0.7894661109903209,0.8673569911730228,,-0.06956664232292899,-0.10125745821601603,0.0886362022,-0.034016912529394594,,-1.2218952e-06,6.735325e-06,-5.364418e-06,1.0,2.8494745e-05,2.321601e-05,-2.849847e-05,1.0,2.6226044e-06,-2.3212284e-05,-2.5629997e-06,1.0,NaN,NaN,NaN,NaN,NaN
1.1683120759998928,10:15:14.847152,NaN,0,,0.027688246,0.04909341,0.07542308,-0.86716056,-0.36980066,-0.3335864,-0.49160296,0.7428335,0.45445013,0.07974324,0.5580732,-0.8259511,,0.13960269,-0.044206895,0.0733439,-0.74265975,-0.6176545,0.25876483,-0.44412267,0.74347866,0.49999437,-0.50121,0.25640228,-0.8264662,,0.089798085,1.3490093,0.48509827,0.99605113,0.0027223998,-0.08873986,-0.05380049,-0.77659196,-0.62770253,-0.07062352,0.629998,-0.7733788,,-0.07251611,0.2789629,-0.07626642,0.8813345,0.2830273,0.3783452,-0.24632727,0.95854217,-0.14324722,-0.40320268,0.033051975,0.91451365,,0.05506487,0.44359082,-0.3703524,0.8666517,0.45689455,-0.2004049,-0.4979349,0.7669575,-0.40476778,-0.031234149,0.45058128,0.89218885,,0.819814430996177,-0.08604668968460949,0.15336925506000001,0.637038048305985,0.1186004817964023,0.30441355242180734,0.8707872165618427,,-0.6228615745048294,-0.6842264099234173,0.12753160278,1.4491671994215478,0.22722649910992745,0.7894661109903209,0.8673569911730228,,-0.06956664232292899,-0.10125745821601603,0.0886362022,-0.034016912529394594,,-1.2218952e-06,6.735325e-06,-5.364418e-06,1.0,2.8494745e-05,2.321601e-05,-2.849847e-05,1.0,2.6226044e-06,-2.3212284e-05,-2.5629997e-06,1.0,NaN,NaN,NaN,NaN,NaN
1.1894863339994117,10:15:14.861416,NaN,0,,0.027688246,0.04909341,0.07542308,-0.86716056,-0.36980066,-0.3335864,-0.49160296,0.7428335,0.45445013,0.07974324,0.5580732,-0.8259511,,0.13960269,-0.044206895,0.0733439,-0.74265975,-0.6176545,0.25876483,-0.44412267,0.74347866,0.49999437,-0.50121,0.25640228,-0.8264662,,0.089798085,1.3490093,0.48509827,0.99605113,0.0027223998,-0.08873986,-0.05380049,-0.77659196,-0.62770253,-0.07062352,0.629998,-0.7733788,,-0.07251611,0.2789629,-0.07626642,0.8813345,0.2830273,0.3783452,-0.24632727,0.95854217,-0.14324722,-0.40320268,0.033051975,0.91451365,,0.05506487,0.44359082,-0.3703524,0.8666517,0.45689455,-0.2004049,-0.4979349,0.7669575,-0.40476778,-0.031234149,0.45058128,0.89218885,,0.819814430996177,-0.08604668968460949,0.15336925506000001,0.637038048305985,0.1186004817964023,0.30441355242180734,0.8707872165618427,,-0.6228615745048294,-0.6842264099234173,0.12753160278,1.4491671994215478,0.22722649910992745,0.7894661109903209,0.8673569911730228,,-0.06956664232292899,-0.10125745821601603,0.0886362022,-0.034016912529394594,,-1.2218952e-06,6.735325e-06,-5.364418e-06,1.0,2.8494745e-05,2.321601e-05,-2.849847e-05,1.0,2.6226044e-06,-2.3212284e-05,-2.5629997e-06,1.0,NaN,NaN,NaN,NaN,NaN
1.2037642839995897,10:15:14.880803,NaN,0,,0.027687792,0.049092367,0.07542305,-0.867159,-0.36980104,-0.33359,-0.49160475,0.74283636,0.45444375,0.07974902,0.55806935,-0.8259531,,0.13960269,-0.044206895,0.0733439,-0.74265975,-0.6176545,0.25876483,-0.44412267,0.74347866,0.49999437,-0.50121,0.25640228,-0.8264662,,0.089798085,1.3490093,0.48509827,0.99605113,0.0027223998,-0.08873986,-0.05380049,-0.77659196,-0.62770253,-0.07062352,0.629998,-0.7733788,,-0.07251561,0.27896214,-0.07626708,0.8813326,0.28302786,0.37834924,-0.2463251,0.95854187,-0.14325309,-0.4032082,0.033056688,0.914511,,0.05506487,0.44359082,-0.3703524,0.8666517,0.45689455,-0.2004049,-0.4979349,0.7669575,-0.40476778,-0.031234149,0.45058128,0.89218885,,0.819814430996177,-0.08605441241748371,0.15336925506000001,0.637038048305985,0.1186004817964023,0.30441355242180734,0.8707872165618427,,-0.6228615745048294,-0.6842264099234173,0.12753160278,1.4491671994215478,0.22722649910992745,0.7894661109903209,0.8673569911730228,,-0.06956664232292899,-0.10125745821601603,0.0886362022,-0.034016912529394594,,-1.2218952e-06,6.735325e-06,-5.364418e-06,1.0,2.8494745e-05,2.321601e-05,-2.849847e-05,1.0,2.6226044e-06,-2.3212284e-05,-2.5629997e-06,1.0,NaN,NaN,NaN,NaN,NaN
