AlexandreBanks6/ExpertPlaybackApp/resources/Motions/PC1/Data_PC1_23.csv
Task Time,PC1 Time,PC2 Time,Gaze Calib,s_T_psm1,Tx,Ty,Tz,R00,R01,R02,R10,R11,R12,R20,R21,R22,s_T_psm3,Tx,Ty,Tz,R00,R01,R02,R10,R11,R12,R20,R21,R22,cart_T_ecm,Tx,Ty,Tz,R00,R01,R02,R10,R11,R12,R20,R21,R22,ecm_T_psm1,Tx,Ty,Tz,R00,R01,R02,R10,R11,R12,R20,R21,R22,ecm_T_psm3,Tx,Ty,Tz,R00,R01,R02,R10,R11,R12,R20,R21,R22,psm1_joints,q1,q2,q3,q4,q5,q6,jaw,psm3_joints,q1,q2,q3,q4,q5,q6,jaw,ecm_joints,q1,q2,q3,q4,ecmi_T_ecm,Tx,Ty,Tz,R00,R01,R02,R10,R11,R12,R20,R21,R22,Sample #,Task Duration (s),Collisions (binary),Collisions (increments),Cumulative Collision Time (s)
""
lci_T_si,,,,,-0.06862863,0.020405926,0.28918043,0.9954184,0.039422706,0.08710944,0.08589885,-0.7688544,-0.6336279,0.04199515,0.6382075,-0.7687182
rci_T_si,,,,,-0.07923411,0.025602402,0.29942667,0.9958235,0.024024375,0.08808153,0.07553092,-0.75875914,-0.6469773,0.051289447,0.6509281,-0.7574048
ecm_T_lc,,,,,-4.4061628e-05,-0.00034663224,-0.01840835,-0.99912,0.030754527,0.028518902,-0.031987965,-0.99852574,-0.043852776,0.027128186,-0.04472645,0.9986309
ecm_T_rc,,,,,-0.0043358393,0.01870579,-0.007592615,-0.99555075,-0.052743673,-0.078081585,0.04863213,-0.9973746,0.053654674,-0.08070653,0.04961868,0.9955021
cart_T_ecmi,,,,,0.0898298,1.3490088,0.48508802,0.99604857,0.0026859348,-0.08876933,-0.05384726,-0.7765921,-0.62769836,-0.07062352,0.629998,-0.7733788
ecmac_T_ecmrep_psm1,,,,,0.08626859,-0.2052861,-0.33370098,0.999004,0.025128257,0.036871605,-0.023534218,0.9987958,-0.04304718,-0.037908904,0.04213656,0.9983924
ecmac_T_ecmrep_psm3,,,,,-0.16209933,-0.49188918,-0.56672233,0.99379694,-0.09876928,0.05111077,0.087427974,0.9779163,0.18983154,-0.068731576,-0.18418549,0.98048544
""
0,10:16:27.409950,NaN,0,,0.027647074,0.048971348,0.07563409,-0.86721164,-0.36946094,-0.33383006,-0.49155164,0.7422424,0.45547032,0.07950427,0.5590838,-0.8252903,,0.13971251,-0.04433469,0.073411256,-0.7428456,-0.6175876,0.25839102,-0.4435202,0.74311507,0.50106865,-0.501468,0.257615,-0.82593226,,0.08982539,1.349011,0.48509192,0.99604714,0.0026646727,-0.08878651,-0.05387453,-0.77659214,-0.6276959,-0.07062352,0.629998,-0.7733788,,-0.07245139,0.27900517,-0.076248355,0.8813267,0.28301302,0.37837404,-0.24631305,0.95854664,-0.14324167,-0.40322843,0.033044245,0.91450256,,0.05496191,0.44359845,-0.37033537,0.8665965,0.45705318,-0.20028189,-0.49802572,0.7669793,-0.40461484,-0.031318452,0.45038337,0.8922858,,0.819814430996177,-0.08605441241748371,0.15336925506000001,0.637038048305985,0.1186004817964023,0.30441355242180734,0.8707872165618427,,-0.6228615745048294,-0.6842264099234173,0.12753160278,1.4491671994215478,0.22722649910992745,0.789629468470602,0.8676836793052913,,-0.06956664232292899,-0.10125745821601603,0.0886362022,-0.034016912529394594,,-4.7907233e-06,8.34465e-07,-3.9339066e-06,1.0,-2.117455e-05,-1.7244369e-05,2.117455e-05,1.0,-1.9073486e-06,1.7248094e-05,1.9669533e-06,0.99999994,NaN,NaN,NaN,NaN,NaN
0.019487030999698618,10:16:27.429086,NaN,0,,0.027647536,0.04897239,0.07563412,-0.86721313,-0.36946064,-0.33382645,-0.49154988,0.7422398,0.4554767,0.0794985,0.55908775,-0.8252883,,0.13971251,-0.04433469,0.073411256,-0.7428456,-0.6175876,0.25839102,-0.4435202,0.74311507,0.50106865,-0.501468,0.257615,-0.82593226,,0.08982539,1.349011,0.48509192,0.99604714,0.0026646727,-0.08878651,-0.05387453,-0.77659214,-0.6276959,-0.07062352,0.629998,-0.7733788,,-0.072451904,0.27900594,-0.0762477,0.8813286,0.28301248,0.37836996,-0.24631521,0.958547,-0.1432358,-0.40322292,0.033039533,0.9145051,,0.05496191,0.44359845,-0.37033537,0.8665965,0.45705318,-0.20028189,-0.49802572,0.7669793,-0.40461484,-0.031318452,0.45038337,0.8922858,,0.819814430996177,-0.08604668968460949,0.15336925506000001,0.637038048305985,0.1186004817964023,0.30441355242180734,0.8707872165618427,,-0.6228615745048294,-0.6842264099234173,0.12753160278,1.4491671994215478,0.22722649910992745,0.789629468470602,0.8676836793052913,,-0.06956664232292899,-0.10125745821601603,0.0886362022,-0.034016912529394594,,-4.7907233e-06,8.34465e-07,-3.9339066e-06,1.0,-2.117455e-05,-1.7244369e-05,2.117455e-05,1.0,-1.9073486e-06,1.7248094e-05,1.9669533e-06,0.99999994,NaN,NaN,NaN,NaN,NaN
0.03857967499970982,10:16:27.444228,NaN,0,,0.027648505,0.048971973,0.075633734,-0.8672141,-0.36946395,-0.33382037,-0.49154896,0.74224186,0.4554742,0.07949412,0.55908275,-0.82529205,,0.13971251,-0.04433469,0.073411256,-0.7428456,-0.6175876,0.25839102,-0.4435202,0.74311507,0.50106865,-0.501468,0.257615,-0.82593226,,0.08982539,1.349011,0.48509192,0.99604714,0.0026646727,-0.08878651,-0.05387453,-0.77659214,-0.6276959,-0.07062352,0.629998,-0.7733788,,-0.07245282,0.2790053,-0.07624764,0.88132983,0.28301612,0.37836438,-0.24631721,0.95854574,-0.14324069,-0.40321898,0.03304464,0.9145067,,0.05496191,0.44359845,-0.37033537,0.8665965,0.45705318,-0.20028189,-0.49802572,0.7669793,-0.40461484,-0.031318452,0.45038337,0.8922858,,0.8198067082633028,-0.08604668968460949,0.15336925506000001,0.637038048305985,0.1186004817964023,0.30441355242180734,0.8707872165618427,,-0.6228615745048294,-0.6842264099234173,0.12753160278,1.4491671994215478,0.22722649910992745,0.789629468470602,0.8676836793052913,,-0.06956664232292899,-0.10125745821601603,0.0886362022,-0.034016912529394594,,-4.7907233e-06,8.34465e-07,-3.9339066e-06,1.0,-2.117455e-05,-1.7244369e-05,2.117455e-05,1.0,-1.9073486e-06,1.7248094e-05,1.9669533e-06,0.99999994,NaN,NaN,NaN,NaN,NaN
0.053770999000334996,10:16:27.464863,NaN,0,,0.027647536,0.04897239,0.07563412,-0.86721313,-0.36946064,-0.33382645,-0.49154988,0.7422398,0.4554767,0.0794985,0.55908775,-0.8252883,,0.13971251,-0.04433469,0.073411256,-0.7428456,-0.6175876,0.25839102,-0.4435202,0.74311507,0.50106865,-0.501468,0.257615,-0.82593226,,0.08982539,1.349011,0.48509192,0.99604714,0.0026646727,-0.08878651,-0.05387453,-0.77659214,-0.6276959,-0.07062352,0.629998,-0.7733788,,-0.072451904,0.27900594,-0.0762477,0.8813286,0.28301248,0.37836996,-0.24631521,0.958547,-0.1432358,-0.40322292,0.033039533,0.9145051,,0.05496191,0.44359845,-0.37033537,0.8665965,0.45705318,-0.20028189,-0.49802572,0.7669793,-0.40461484,-0.031318452,0.45038337,0.8922858,,0.819814430996177,-0.08604668968460949,0.15336925506000001,0.637038048305985,0.1186004817964023,0.30441355242180734,0.8707872165618427,,-0.6228615745048294,-0.6842264099234173,0.12753160278,1.4491671994215478,0.22722649910992745,0.789629468470602,0.8676836793052913,,-0.06956664232292899,-0.10125745821601603,0.0886362022,-0.034016912529394594,,-4.7907233e-06,8.34465e-07,-3.9339066e-06,1.0,-2.117455e-05,-1.7244369e-05,2.117455e-05,1.0,-1.9073486e-06,1.7248094e-05,1.9669533e-06,0.99999994,NaN,NaN,NaN,NaN,NaN
0.07441055399976904,10:16:27.480804,NaN,0,,0.027647074,0.048971348,0.07563409,-0.86721164,-0.36946094,-0.33383006,-0.49155164,0.7422424,0.45547032,0.07950427,0.5590838,-0.8252903,,0.13971251,-0.04433469,0.073411256,-0.7428456,-0.6175876,0.25839102,-0.4435202,0.74311507,0.50106865,-0.501468,0.257615,-0.82593226,,0.08982539,1.349011,0.48509192,0.99604714,0.0026646727,-0.08878651,-0.05387453,-0.77659214,-0.6276959,-0.07062352,0.629998,-0.7733788,,-0.07245139,0.27900517,-0.076248355,0.8813267,0.28301302,0.37837404,-0.24631305,0.95854664,-0.14324167,-0.40322843,0.033044245,0.91450256,,0.05496191,0.44359845,-0.37033537,0.8665965,0.45705318,-0.20028189,-0.49802572,0.7669793,-0.40461484,-0.031318452,0.45038337,0.8922858,,0.819814430996177,-0.08605441241748371,0.15336925506000001,0.637038048305985,0.1186004817964023,0.30441355242180734,0.8707872165618427,,-0.6228615745048294,-0.6842264099234173,0.12753160278,1.4491671994215478,0.22722649910992745,0.789629468470602,0.8676836793052913,,-0.06956664232292899,-0.10125745821601603,0.0886362022,-0.034016912529394594,,-4.7907233e-06,8.34465e-07,-3.9339066e-06,1.0,-2.117455e-05,-1.7244369e-05,2.117455e-05,1.0,-1.9073486e-06,1.7248094e-05,1.9669533e-06,0.99999994,NaN,NaN,NaN,NaN,NaN
0.09034152999993239,10:16:27.496773,10:16:09.374113,0,,0.027647074,0.048971348,0.07563409,-0.86721164,-0.36946094,-0.33383006,-0.49155164,0.7422424,0.45547032,0.07950427,0.5590838,-0.8252903,,0.13971251,-0.04433469,0.073411256,-0.7428456,-0.6175876,0.25839102,-0.4435202,0.74311507,0.50106865,-0.501468,0.257615,-0.82593226,,0.08982539,1.349011,0.48509192,0.99604714,0.0026646727,-0.08878651,-0.05387453,-0.77659214,-0.6276959,-0.07062352,0.629998,-0.7733788,,-0.07245139,0.27900517,-0.076248355,0.8813267,0.28301302,0.37837404,-0.24631305,0.95854664,-0.14324167,-0.40322843,0.033044245,0.91450256,,0.05496191,0.44359845,-0.37033537,0.8665965,0.45705318,-0.20028189,-0.49802572,0.7669793,-0.40461484,-0.031318452,0.45038337,0.8922858,,0.819814430996177,-0.08605441241748371,0.15336925506000001,0.637038048305985,0.1186004817964023,0.30441355242180734,0.8707872165618427,,-0.6228615745048294,-0.6842264099234173,0.12753160278,1.4491671994215478,0.22722649910992745,0.789629468470602,0.8676836793052913,,-0.06956664232292899,-0.10125745821601603,0.0886362022,-0.034016912529394594,,-4.7907233e-06,8.34465e-07,-3.9339066e-06,1.0,-2.117455e-05,-1.7244369e-05,2.117455e-05,1.0,-1.9073486e-06,1.7248094e-05,1.9669533e-06,0.99999994,NaN,NaN,NaN,NaN,NaN
0.10612712100009958,10:16:27.517583,10:16:09.374113,0,,0.027647536,0.04897239,0.07563412,-0.86721313,-0.36946064,-0.33382645,-0.49154988,0.7422398,0.4554767,0.0794985,0.55908775,-0.8252883,,0.13971251,-0.04433469,0.073411256,-0.7428456,-0.6175876,0.25839102,-0.4435202,0.74311507,0.50106865,-0.501468,0.257615,-0.82593226,,0.08982539,1.349011,0.48509192,0.99604714,0.0026646727,-0.08878651,-0.05387453,-0.77659214,-0.6276959,-0.07062352,0.629998,-0.7733788,,-0.072451904,0.27900594,-0.0762477,0.8813286,0.28301248,0.37836996,-0.24631521,0.958547,-0.1432358,-0.40322292,0.033039533,0.9145051,,0.05496191,0.44359845,-0.37033537,0.8665965,0.45705318,-0.20028189,-0.49802572,0.7669793,-0.40461484,-0.031318452,0.45038337,0.8922858,,0.819814430996177,-0.08604668968460949,0.15336925506000001,0.637038048305985,0.1186004817964023,0.30441355242180734,0.8707872165618427,,-0.6228615745048294,-0.6842264099234173,0.12753160278,1.4491671994215478,0.22722649910992745,0.789629468470602,0.8676836793052913,,-0.06956664232292899,-0.10125745821601603,0.0886362022,-0.034016912529394594,,-4.7907233e-06,8.34465e-07,-3.9339066e-06,1.0,-2.117455e-05,-1.7244369e-05,2.117455e-05,1.0,-1.9073486e-06,1.7248094e-05,1.9669533e-06,0.99999994,NaN,NaN,NaN,NaN,NaN
0.127095566999742,10:16:27.533219,10:16:09.374113,0,,0.027647536,0.04897239,0.07563412,-0.86721313,-0.36946064,-0.33382645,-0.49154988,0.7422398,0.4554767,0.0794985,0.55908775,-0.8252883,,0.13971251,-0.04433469,0.073411256,-0.7428456,-0.6175876,0.25839102,-0.4435202,0.74311507,0.50106865,-0.501468,0.257615,-0.82593226,,0.08982539,1.349011,0.48509192,0.99604714,0.0026646727,-0.08878651,-0.05387453,-0.77659214,-0.6276959,-0.07062352,0.629998,-0.7733788,,-0.072451904,0.27900594,-0.0762477,0.8813286,0.28301248,0.37836996,-0.24631521,0.958547,-0.1432358,-0.40322292,0.033039533,0.9145051,,0.05496191,0.44359845,-0.37033537,0.8665965,0.45705318,-0.20028189,-0.49802572,0.7669793,-0.40461484,-0.031318452,0.45038337,0.8922858,,0.819814430996177,-0.08604668968460949,0.15336925506000001,0.637038048305985,0.1186004817964023,0.30441355242180734,0.8707872165618427,,-0.6228615745048294,-0.6842264099234173,0.12753160278,1.4491671994215478,0.22722649910992745,0.789629468470602,0.8676836793052913,,-0.06956664232292899,-0.10125745821601603,0.0886362022,-0.034016912529394594,,-4.7907233e-06,8.34465e-07,-3.9339066e-06,1.0,-2.117455e-05,-1.7244369e-05,2.117455e-05,1.0,-1.9073486e-06,1.7248094e-05,1.9669533e-06,0.99999994,NaN,NaN,NaN,NaN,NaN
0.14272201299991139,10:16:27.551424,10:16:09.374113,0,,0.027648505,0.048971973,0.075633734,-0.8672141,-0.36946395,-0.33382037,-0.49154896,0.74224186,0.4554742,0.07949412,0.55908275,-0.82529205,,0.13971251,-0.04433469,0.073411256,-0.7428456,-0.6175876,0.25839102,-0.4435202,0.74311507,0.50106865,-0.501468,0.257615,-0.82593226,,0.08982539,1.349011,0.48509192,0.99604714,0.0026646727,-0.08878651,-0.05387453,-0.77659214,-0.6276959,-0.07062352,0.629998,-0.7733788,,-0.07245282,0.2790053,-0.07624764,0.88132983,0.28301612,0.37836438,-0.24631721,0.95854574,-0.14324069,-0.40321898,0.03304464,0.9145067,,0.05496191,0.44359845,-0.37033537,0.8665965,0.45705318,-0.20028189,-0.49802572,0.7669793,-0.40461484,-0.031318452,0.45038337,0.8922858,,0.8198067082633028,-0.08604668968460949,0.15336925506000001,0.637038048305985,0.1186004817964023,0.30441355242180734,0.8707872165618427,,-0.6228615745048294,-0.6842264099234173,0.12753160278,1.4491671994215478,0.22722649910992745,0.789629468470602,0.8676836793052913,,-0.06956664232292899,-0.10125745821601603,0.0886362022,-0.034016912529394594,,-4.7907233e-06,8.34465e-07,-3.9339066e-06,1.0,-2.117455e-05,-1.7244369e-05,2.117455e-05,1.0,-1.9073486e-06,1.7248094e-05,1.9669533e-06,0.99999994,NaN,NaN,NaN,NaN,NaN
0.1609272690002399,10:16:27.567047,10:16:09.457625,0,,0.027647074,0.048971348,0.07563409,-0.86721164,-0.36946094,-0.33383006,-0.49155164,0.7422424,0.45547032,0.07950427,0.5590838,-0.8252903,,0.13971251,-0.04433469,0.073411256,-0.7428456,-0.6175876,0.25839102,-0.4435202,0.74311507,0.50106865,-0.501468,0.257615,-0.82593226,,0.08982539,1.349011,0.48509192,0.99604714,0.0026646727,-0.08878651,-0.05387453,-0.77659214,-0.6276959,-0.07062352,0.629998,-0.7733788,,-0.07245139,0.27900517,-0.076248355,0.8813267,0.28301302,0.37837404,-0.24631305,0.95854664,-0.14324167,-0.40322843,0.033044245,0.91450256,,0.05496191,0.44359845,-0.37033537,0.8665965,0.45705318,-0.20028189,-0.49802572,0.7669793,-0.40461484,-0.031318452,0.45038337,0.8922858,,0.819814430996177,-0.08605441241748371,0.15336925506000001,0.637038048305985,0.1186004817964023,0.30441355242180734,0.8707872165618427,,-0.6228615745048294,-0.6842264099234173,0.12753160278,1.4491671994215478,0.22722649910992745,0.789629468470602,0.8676836793052913,,-0.06956664232292899,-0.10125745821601603,0.0886362022,-0.034016912529394594,,-4.7907233e-06,8.34465e-07,-3.9339066e-06,1.0,-2.117455e-05,-1.7244369e-05,2.117455e-05,1.0,-1.9073486e-06,1.7248094e-05,1.9669533e-06,0.99999994,NaN,NaN,NaN,NaN,NaN
0.1765794820003066,10:16:27.584343,10:16:09.457625,0,,0.027647074,0.048971348,0.07563409,-0.86721164,-0.36946094,-0.33383006,-0.49155164,0.7422424,0.45547032,0.07950427,0.5590838,-0.8252903,,0.13971251,-0.04433469,0.073411256,-0.7428456,-0.6175876,0.25839102,-0.4435202,0.74311507,0.50106865,-0.501468,0.257615,-0.82593226,,0.08982539,1.349011,0.48509192,0.99604714,0.0026646727,-0.08878651,-0.05387453,-0.77659214,-0.6276959,-0.07062352,0.629998,-0.7733788,,-0.07245139,0.27900517,-0.076248355,0.8813267,0.28301302,0.37837404,-0.24631305,0.95854664,-0.14324167,-0.40322843,0.033044245,0.91450256,,0.05496191,0.44359845,-0.37033537,0.8665965,0.45705318,-0.20028189,-0.49802572,0.7669793,-0.40461484,-0.031318452,0.45038337,0.8922858,,0.819814430996177,-0.08605441241748371,0.15336925506000001,0.637038048305985,0.1186004817964023,0.30441355242180734,0.8707872165618427,,-0.6228615745048294,-0.6842264099234173,0.12753160278,1.4491671994215478,0.22722649910992745,0.789629468470602,0.8676836793052913,,-0.06956664232292899,-0.10125745821601603,0.0886362022,-0.034016912529394594,,-4.7907233e-06,8.34465e-07,-3.9339066e-06,1.0,-2.117455e-05,-1.7244369e-05,2.117455e-05,1.0,-1.9073486e-06,1.7248094e-05,1.9669533e-06,0.99999994,NaN,NaN,NaN,NaN,NaN
0.1938351689996125,10:16:27.602764,10:16:09.457625,0,,0.027647074,0.048971348,0.07563409,-0.86721164,-0.36946094,-0.33383006,-0.49155164,0.7422424,0.45547032,0.07950427,0.5590838,-0.8252903,,0.13971251,-0.04433469,0.073411256,-0.7428456,-0.6175876,0.25839102,-0.4435202,0.74311507,0.50106865,-0.501468,0.257615,-0.82593226,,0.08982539,1.349011,0.48509192,0.99604714,0.0026646727,-0.08878651,-0.05387453,-0.77659214,-0.6276959,-0.07062352,0.629998,-0.7733788,,-0.07245139,0.27900517,-0.076248355,0.8813267,0.28301302,0.37837404,-0.24631305,0.95854664,-0.14324167,-0.40322843,0.033044245,0.91450256,,0.05496191,0.44359845,-0.37033537,0.8665965,0.45705318,-0.20028189,-0.49802572,0.7669793,-0.40461484,-0.031318452,0.45038337,0.8922858,,0.819814430996177,-0.08605441241748371,0.15336925506000001,0.637038048305985,0.1186004817964023,0.30441355242180734,0.8707872165618427,,-0.6228615745048294,-0.6842264099234173,0.12753160278,1.4491671994215478,0.22722649910992745,0.789629468470602,0.8676836793052913,,-0.06956664232292899,-0.10125745821601603,0.0886362022,-0.034016912529394594,,-4.7907233e-06,8.34465e-07,-3.9339066e-06,1.0,-2.117455e-05,-1.7244369e-05,2.117455e-05,1.0,-1.9073486e-06,1.7248094e-05,1.9669533e-06,0.99999994,NaN,NaN,NaN,NaN,NaN
0.21230919400022685,10:16:27.615147,10:16:09.457625,0,,0.027647074,0.048971348,0.07563409,-0.86721164,-0.36946094,-0.33383006,-0.49155164,0.7422424,0.45547032,0.07950427,0.5590838,-0.8252903,,0.13971251,-0.04433469,0.073411256,-0.7428456,-0.6175876,0.25839102,-0.4435202,0.74311507,0.50106865,-0.501468,0.257615,-0.82593226,,0.08982539,1.349011,0.48509192,0.99604714,0.0026646727,-0.08878651,-0.05387453,-0.77659214,-0.6276959,-0.07062352,0.629998,-0.7733788,,-0.07245139,0.27900517,-0.076248355,0.8813267,0.28301302,0.37837404,-0.24631305,0.95854664,-0.14324167,-0.40322843,0.033044245,0.91450256,,0.05496191,0.44359845,-0.37033537,0.8665965,0.45705318,-0.20028189,-0.49802572,0.7669793,-0.40461484,-0.031318452,0.45038337,0.8922858,,0.819814430996177,-0.08605441241748371,0.15336925506000001,0.637038048305985,0.1186004817964023,0.30441355242180734,0.8707872165618427,,-0.6228615745048294,-0.6842264099234173,0.12753160278,1.4491671994215478,0.22722649910992745,0.789629468470602,0.8676836793052913,,-0.06956664232292899,-0.10125745821601603,0.0886362022,-0.034016912529394594,,-4.7907233e-06,8.34465e-07,-3.9339066e-06,1.0,-2.117455e-05,-1.7244369e-05,2.117455e-05,1.0,-1.9073486e-06,1.7248094e-05,1.9669533e-06,0.99999994,NaN,NaN,NaN,NaN,NaN
0.2246934449995024,10:16:27.632936,10:16:09.457625,0,,0.027648505,0.048971973,0.075633734,-0.8672141,-0.36946395,-0.33382037,-0.49154896,0.74224186,0.4554742,0.07949412,0.55908275,-0.82529205,,0.13971251,-0.04433469,0.073411256,-0.7428456,-0.6175876,0.25839102,-0.4435202,0.74311507,0.50106865,-0.501468,0.257615,-0.82593226,,0.08982539,1.349011,0.48509192,0.99604714,0.0026646727,-0.08878651,-0.05387453,-0.77659214,-0.6276959,-0.07062352,0.629998,-0.7733788,,-0.07245282,0.2790053,-0.07624764,0.88132983,0.28301612,0.37836438,-0.24631721,0.95854574,-0.14324069,-0.40321898,0.03304464,0.9145067,,0.05496191,0.44359845,-0.37033537,0.8665965,0.45705318,-0.20028189,-0.49802572,0.7669793,-0.40461484,-0.031318452,0.45038337,0.8922858,,0.8198067082633028,-0.08604668968460949,0.15336925506000001,0.637038048305985,0.1186004817964023,0.30441355242180734,0.8707872165618427,,-0.6228615745048294,-0.6842264099234173,0.12753160278,1.4491671994215478,0.22722649910992745,0.789629468470602,0.8676836793052913,,-0.06956664232292899,-0.10125745821601603,0.0886362022,-0.034016912529394594,,-4.7907233e-06,8.34465e-07,-3.9339066e-06,1.0,-2.117455e-05,-1.7244369e-05,2.117455e-05,1.0,-1.9073486e-06,1.7248094e-05,1.9669533e-06,0.99999994,NaN,NaN,NaN,NaN,NaN
0.24247312100033014,10:16:27.653376,10:16:09.527466,0,,0.027647536,0.04897239,0.07563412,-0.86721313,-0.36946064,-0.33382645,-0.49154988,0.7422398,0.4554767,0.0794985,0.55908775,-0.8252883,,0.13971251,-0.04433469,0.073411256,-0.7428456,-0.6175876,0.25839102,-0.4435202,0.74311507,0.50106865,-0.501468,0.257615,-0.82593226,,0.08982539,1.349011,0.48509192,0.99604714,0.0026646727,-0.08878651,-0.05387453,-0.77659214,-0.6276959,-0.07062352,0.629998,-0.7733788,,-0.072451904,0.27900594,-0.0762477,0.8813286,0.28301248,0.37836996,-0.24631521,0.958547,-0.1432358,-0.40322292,0.033039533,0.9145051,,0.05496191,0.44359845,-0.37033537,0.8665965,0.45705318,-0.20028189,-0.49802572,0.7669793,-0.40461484,-0.031318452,0.45038337,0.8922858,,0.819814430996177,-0.08604668968460949,0.15336925506000001,0.637038048305985,0.1186004817964023,0.30441355242180734,0.8707872165618427,,-0.6228615745048294,-0.6842264099234173,0.12753160278,1.4491671994215478,0.22722649910992745,0.789629468470602,0.8676836793052913,,-0.06956664232292899,-0.10125745821601603,0.0886362022,-0.034016912529394594,,-4.7907233e-06,8.34465e-07,-3.9339066e-06,1.0,-2.117455e-05,-1.7244369e-05,2.117455e-05,1.0,-1.9073486e-06,1.7248094e-05,1.9669533e-06,0.99999994,NaN,NaN,NaN,NaN,NaN
0.2629189179997411,10:16:27.665328,10:16:09.527466,0,,0.027647074,0.048971348,0.07563409,-0.86721164,-0.36946094,-0.33383006,-0.49155164,0.7422424,0.45547032,0.07950427,0.5590838,-0.8252903,,0.13971251,-0.04433469,0.073411256,-0.7428456,-0.6175876,0.25839102,-0.4435202,0.74311507,0.50106865,-0.501468,0.257615,-0.82593226,,0.08982539,1.349011,0.48509192,0.99604714,0.0026646727,-0.08878651,-0.05387453,-0.77659214,-0.6276959,-0.07062352,0.629998,-0.7733788,,-0.07245139,0.27900517,-0.076248355,0.8813267,0.28301302,0.37837404,-0.24631305,0.95854664,-0.14324167,-0.40322843,0.033044245,0.91450256,,0.05496191,0.44359845,-0.37033537,0.8665965,0.45705318,-0.20028189,-0.49802572,0.7669793,-0.40461484,-0.031318452,0.45038337,0.8922858,,0.819814430996177,-0.08605441241748371,0.15336925506000001,0.637038048305985,0.1186004817964023,0.30441355242180734,0.8707872165618427,,-0.6228615745048294,-0.6842264099234173,0.12753160278,1.4491671994215478,0.22722649910992745,0.789629468470602,0.8676836793052913,,-0.06956664232292899,-0.10125745821601603,0.0886362022,-0.034016912529394594,,-4.7907233e-06,8.34465e-07,-3.9339066e-06,1.0,-2.117455e-05,-1.7244369e-05,2.117455e-05,1.0,-1.9073486e-06,1.7248094e-05,1.9669533e-06,0.99999994,NaN,NaN,NaN,NaN,NaN
0.27487295500031905,10:16:27.681315,10:16:09.527466,0,,0.027647074,0.048971348,0.07563409,-0.86721164,-0.36946094,-0.33383006,-0.49155164,0.7422424,0.45547032,0.07950427,0.5590838,-0.8252903,,0.13971251,-0.04433469,0.073411256,-0.7428456,-0.6175876,0.25839102,-0.4435202,0.74311507,0.50106865,-0.501468,0.257615,-0.82593226,,0.08982539,1.349011,0.48509192,0.99604714,0.0026646727,-0.08878651,-0.05387453,-0.77659214,-0.6276959,-0.07062352,0.629998,-0.7733788,,-0.07245139,0.27900517,-0.076248355,0.8813267,0.28301302,0.37837404,-0.24631305,0.95854664,-0.14324167,-0.40322843,0.033044245,0.91450256,,0.05496191,0.44359845,-0.37033537,0.8665965,0.45705318,-0.20028189,-0.49802572,0.7669793,-0.40461484,-0.031318452,0.45038337,0.8922858,,0.819814430996177,-0.08605441241748371,0.15336925506000001,0.637038048305985,0.1186004817964023,0.30441355242180734,0.8707872165618427,,-0.6228615745048294,-0.6842264099234173,0.12753160278,1.4491671994215478,0.22722649910992745,0.789629468470602,0.8676836793052913,,-0.06956664232292899,-0.10125745821601603,0.0886362022,-0.034016912529394594,,-4.7907233e-06,8.34465e-07,-3.9339066e-06,1.0,-2.117455e-05,-1.7244369e-05,2.117455e-05,1.0,-1.9073486e-06,1.7248094e-05,1.9669533e-06,0.99999994,NaN,NaN,NaN,NaN,NaN
0.29084182399947167,10:16:27.697342,10:16:09.527466,0,,0.027647074,0.048971348,0.07563409,-0.86721164,-0.36946094,-0.33383006,-0.49155164,0.7422424,0.45547032,0.07950427,0.5590838,-0.8252903,,0.13971251,-0.04433469,0.073411256,-0.7428456,-0.6175876,0.25839102,-0.4435202,0.74311507,0.50106865,-0.501468,0.257615,-0.82593226,,0.08982539,1.349011,0.48509192,0.99604714,0.0026646727,-0.08878651,-0.05387453,-0.77659214,-0.6276959,-0.07062352,0.629998,-0.7733788,,-0.07245139,0.27900517,-0.076248355,0.8813267,0.28301302,0.37837404,-0.24631305,0.95854664,-0.14324167,-0.40322843,0.033044245,0.91450256,,0.05496191,0.44359845,-0.37033537,0.8665965,0.45705318,-0.20028189,-0.49802572,0.7669793,-0.40461484,-0.031318452,0.45038337,0.8922858,,0.819814430996177,-0.08605441241748371,0.15336925506000001,0.637038048305985,0.1186004817964023,0.30441355242180734,0.8707872165618427,,-0.6228615745048294,-0.6842264099234173,0.12753160278,1.4491671994215478,0.22722649910992745,0.789629468470602,0.8676836793052913,,-0.06956664232292899,-0.10125745821601603,0.0886362022,-0.034016912529394594,,-4.7907233e-06,8.34465e-07,-3.9339066e-06,1.0,-2.117455e-05,-1.7244369e-05,2.117455e-05,1.0,-1.9073486e-06,1.7248094e-05,1.9669533e-06,0.99999994,NaN,NaN,NaN,NaN,NaN
0.30681435499991494,10:16:27.715254,10:16:09.603779,0,,0.027647074,0.048971348,0.07563409,-0.86721164,-0.36946094,-0.33383006,-0.49155164,0.7422424,0.45547032,0.07950427,0.5590838,-0.8252903,,0.13971251,-0.04433469,0.073411256,-0.7428456,-0.6175876,0.25839102,-0.4435202,0.74311507,0.50106865,-0.501468,0.257615,-0.82593226,,0.08982539,1.349011,0.48509192,0.99604714,0.0026646727,-0.08878651,-0.05387453,-0.77659214,-0.6276959,-0.07062352,0.629998,-0.7733788,,-0.07245139,0.27900517,-0.076248355,0.8813267,0.28301302,0.37837404,-0.24631305,0.95854664,-0.14324167,-0.40322843,0.033044245,0.91450256,,0.05496191,0.44359845,-0.37033537,0.8665965,0.45705318,-0.20028189,-0.49802572,0.7669793,-0.40461484,-0.031318452,0.45038337,0.8922858,,0.819814430996177,-0.08605441241748371,0.15336925506000001,0.637038048305985,0.1186004817964023,0.30441355242180734,0.8707872165618427,,-0.6228615745048294,-0.6842264099234173,0.12753160278,1.4491671994215478,0.22722649910992745,0.789629468470602,0.8676836793052913,,-0.06956664232292899,-0.10125745821601603,0.0886362022,-0.034016912529394594,,-4.7907233e-06,8.34465e-07,-3.9339066e-06,1.0,-2.117455e-05,-1.7244369e-05,2.117455e-05,1.0,-1.9073486e-06,1.7248094e-05,1.9669533e-06,0.99999994,NaN,NaN,NaN,NaN,NaN
0.3245932379995793,10:16:27.731941,10:16:09.603779,0,,0.027647536,0.04897239,0.07563412,-0.86721313,-0.36946064,-0.33382645,-0.49154988,0.7422398,0.4554767,0.0794985,0.55908775,-0.8252883,,0.13971251,-0.04433469,0.073411256,-0.7428456,-0.6175876,0.25839102,-0.4435202,0.74311507,0.50106865,-0.501468,0.257615,-0.82593226,,0.08982539,1.349011,0.48509192,0.99604714,0.0026646727,-0.08878651,-0.05387453,-0.77659214,-0.6276959,-0.07062352,0.629998,-0.7733788,,-0.072451904,0.27900594,-0.0762477,0.8813286,0.28301248,0.37836996,-0.24631521,0.958547,-0.1432358,-0.40322292,0.033039533,0.9145051,,0.05496191,0.44359845,-0.37033537,0.8665965,0.45705318,-0.20028189,-0.49802572,0.7669793,-0.40461484,-0.031318452,0.45038337,0.8922858,,0.819814430996177,-0.08604668968460949,0.15336925506000001,0.637038048305985,0.1186004817964023,0.30441355242180734,0.8707872165618427,,-0.6228615745048294,-0.6842264099234173,0.12753160278,1.4491671994215478,0.22722649910992745,0.789629468470602,0.8676836793052913,,-0.06956664232292899,-0.10125745821601603,0.0886362022,-0.034016912529394594,,-4.7907233e-06,8.34465e-07,-3.9339066e-06,1.0,-2.117455e-05,-1.7244369e-05,2.117455e-05,1.0,-1.9073486e-06,1.7248094e-05,1.9669533e-06,0.99999994,NaN,NaN,NaN,NaN,NaN
0.34148419800021657,10:16:27.747939,10:16:09.603779,0,,0.027647536,0.04897239,0.07563412,-0.86721313,-0.36946064,-0.33382645,-0.49154988,0.7422398,0.4554767,0.0794985,0.55908775,-0.8252883,,0.13971251,-0.04433469,0.073411256,-0.7428456,-0.6175876,0.25839102,-0.4435202,0.74311507,0.50106865,-0.501468,0.257615,-0.82593226,,0.08982539,1.349011,0.48509192,0.99604714,0.0026646727,-0.08878651,-0.05387453,-0.77659214,-0.6276959,-0.07062352,0.629998,-0.7733788,,-0.072451904,0.27900594,-0.0762477,0.8813286,0.28301248,0.37836996,-0.24631521,0.958547,-0.1432358,-0.40322292,0.033039533,0.9145051,,0.05496191,0.44359845,-0.37033537,0.8665965,0.45705318,-0.20028189,-0.49802572,0.7669793,-0.40461484,-0.031318452,0.45038337,0.8922858,,0.819814430996177,-0.08604668968460949,0.15336925506000001,0.637038048305985,0.1186004817964023,0.30441355242180734,0.8707872165618427,,-0.6228615745048294,-0.6842264099234173,0.12753160278,1.4491671994215478,0.22722649910992745,0.789629468470602,0.8676836793052913,,-0.06956664232292899,-0.10125745821601603,0.0886362022,-0.034016912529394594,,-4.7907233e-06,8.34465e-07,-3.9339066e-06,1.0,-2.117455e-05,-1.7244369e-05,2.117455e-05,1.0,-1.9073486e-06,1.7248094e-05,1.9669533e-06,0.99999994,NaN,NaN,NaN,NaN,NaN
0.3574860489998173,10:16:27.765600,10:16:09.603779,0,,0.027648043,0.04897093,0.075633705,-0.86721253,-0.36946434,-0.33382398,-0.49155068,0.7422446,0.45546788,0.07949987,0.5590789,-0.82529414,,0.13971251,-0.04433469,0.073411256,-0.7428456,-0.6175876,0.25839102,-0.4435202,0.74311507,0.50106865,-0.501468,0.257615,-0.82593226,,0.08982539,1.349011,0.48509192,0.99604714,0.0026646727,-0.08878651,-0.05387453,-0.77659214,-0.6276959,-0.07062352,0.629998,-0.7733788,,-0.07245231,0.2790045,-0.076248296,0.8813279,0.28301665,0.37836844,-0.24631505,0.95854545,-0.14324656,-0.4032245,0.033049352,0.9145041,,0.05496191,0.44359845,-0.37033537,0.8665965,0.45705318,-0.20028189,-0.49802572,0.7669793,-0.40461484,-0.031318452,0.45038337,0.8922858,,0.8198067082633028,-0.08605441241748371,0.15336925506000001,0.637038048305985,0.1186004817964023,0.30441355242180734,0.8707872165618427,,-0.6228615745048294,-0.6842264099234173,0.12753160278,1.4491671994215478,0.22722649910992745,0.789629468470602,0.8676836793052913,,-0.06956664232292899,-0.10125745821601603,0.0886362022,-0.034016912529394594,,-4.7907233e-06,8.34465e-07,-3.9339066e-06,1.0,-2.117455e-05,-1.7244369e-05,2.117455e-05,1.0,-1.9073486e-06,1.7248094e-05,1.9669533e-06,0.99999994,NaN,NaN,NaN,NaN,NaN
0.37498482599949057,10:16:27.782622,10:16:09.603779,0,,0.027648043,0.04897093,0.075633705,-0.86721253,-0.36946434,-0.33382398,-0.49155068,0.7422446,0.45546788,0.07949987,0.5590789,-0.82529414,,0.13971251,-0.04433469,0.073411256,-0.7428456,-0.6175876,0.25839102,-0.4435202,0.74311507,0.50106865,-0.501468,0.257615,-0.82593226,,0.08982539,1.349011,0.48509192,0.99604714,0.0026646727,-0.08878651,-0.05387453,-0.77659214,-0.6276959,-0.07062352,0.629998,-0.7733788,,-0.07245231,0.2790045,-0.076248296,0.8813279,0.28301665,0.37836844,-0.24631505,0.95854545,-0.14324656,-0.4032245,0.033049352,0.9145041,,0.05496191,0.44359845,-0.37033537,0.8665965,0.45705318,-0.20028189,-0.49802572,0.7669793,-0.40461484,-0.031318452,0.45038337,0.8922858,,0.8198067082633028,-0.08605441241748371,0.15336925506000001,0.637038048305985,0.1186004817964023,0.30441355242180734,0.8707872165618427,,-0.6228615745048294,-0.6842264099234173,0.12753160278,1.4491671994215478,0.22722649910992745,0.789629468470602,0.8676836793052913,,-0.06956664232292899,-0.10125745821601603,0.0886362022,-0.034016912529394594,,-4.7907233e-06,8.34465e-07,-3.9339066e-06,1.0,-2.117455e-05,-1.7244369e-05,2.117455e-05,1.0,-1.9073486e-06,1.7248094e-05,1.9669533e-06,0.99999994,NaN,NaN,NaN,NaN,NaN
0.3921687399997609,10:16:27.798193,10:16:09.678600,0,,0.027647074,0.048971348,0.07563409,-0.86721164,-0.36946094,-0.33383006,-0.49155164,0.7422424,0.45547032,0.07950427,0.5590838,-0.8252903,,0.13971251,-0.04433469,0.073411256,-0.7428456,-0.6175876,0.25839102,-0.4435202,0.74311507,0.50106865,-0.501468,0.257615,-0.82593226,,0.08982539,1.349011,0.48509192,0.99604714,0.0026646727,-0.08878651,-0.05387453,-0.77659214,-0.6276959,-0.07062352,0.629998,-0.7733788,,-0.07245139,0.27900517,-0.076248355,0.8813267,0.28301302,0.37837404,-0.24631305,0.95854664,-0.14324167,-0.40322843,0.033044245,0.91450256,,0.05496191,0.44359845,-0.37033537,0.8665965,0.45705318,-0.20028189,-0.49802572,0.7669793,-0.40461484,-0.031318452,0.45038337,0.8922858,,0.819814430996177,-0.08605441241748371,0.15336925506000001,0.637038048305985,0.1186004817964023,0.30441355242180734,0.8707872165618427,,-0.6228615745048294,-0.6842264099234173,0.12753160278,1.4491671994215478,0.22722649910992745,0.789629468470602,0.8676836793052913,,-0.06956664232292899,-0.10125745821601603,0.0886362022,-0.034016912529394594,,-4.7907233e-06,8.34465e-07,-3.9339066e-06,1.0,-2.117455e-05,-1.7244369e-05,2.117455e-05,1.0,-1.9073486e-06,1.7248094e-05,1.9669533e-06,0.99999994,NaN,NaN,NaN,NaN,NaN
0.40774014799990255,10:16:27.816228,10:16:09.678600,0,,0.027647536,0.04897239,0.07563412,-0.86721313,-0.36946064,-0.33382645,-0.49154988,0.7422398,0.4554767,0.0794985,0.55908775,-0.8252883,,0.13971251,-0.04433469,0.073411256,-0.7428456,-0.6175876,0.25839102,-0.4435202,0.74311507,0.50106865,-0.501468,0.257615,-0.82593226,,0.08982539,1.349011,0.48509192,0.99604714,0.0026646727,-0.08878651,-0.05387453,-0.77659214,-0.6276959,-0.07062352,0.629998,-0.7733788,,-0.072451904,0.27900594,-0.0762477,0.8813286,0.28301248,0.37836996,-0.24631521,0.958547,-0.1432358,-0.40322292,0.033039533,0.9145051,,0.05496191,0.44359845,-0.37033537,0.8665965,0.45705318,-0.20028189,-0.49802572,0.7669793,-0.40461484,-0.031318452,0.45038337,0.8922858,,0.819814430996177,-0.08604668968460949,0.15336925506000001,0.637038048305985,0.1186004817964023,0.30441355242180734,0.8707872165618427,,-0.6228615745048294,-0.6842264099234173,0.12753160278,1.4491671994215478,0.22722649910992745,0.789629468470602,0.8676836793052913,,-0.06956664232292899,-0.10125745821601603,0.0886362022,-0.034016912529394594,,-4.7907233e-06,8.34465e-07,-3.9339066e-06,1.0,-2.117455e-05,-1.7244369e-05,2.117455e-05,1.0,-1.9073486e-06,1.7248094e-05,1.9669533e-06,0.99999994,NaN,NaN,NaN,NaN,NaN
0.4257644419994904,10:16:27.832292,10:16:09.678600,0,,0.027647074,0.048971348,0.07563409,-0.86721164,-0.36946094,-0.33383006,-0.49155164,0.7422424,0.45547032,0.07950427,0.5590838,-0.8252903,,0.13971251,-0.04433469,0.073411256,-0.7428456,-0.6175876,0.25839102,-0.4435202,0.74311507,0.50106865,-0.501468,0.257615,-0.82593226,,0.08982539,1.349011,0.48509192,0.99604714,0.0026646727,-0.08878651,-0.05387453,-0.77659214,-0.6276959,-0.07062352,0.629998,-0.7733788,,-0.07245139,0.27900517,-0.076248355,0.8813267,0.28301302,0.37837404,-0.24631305,0.95854664,-0.14324167,-0.40322843,0.033044245,0.91450256,,0.05496191,0.44359845,-0.37033537,0.8665965,0.45705318,-0.20028189,-0.49802572,0.7669793,-0.40461484,-0.031318452,0.45038337,0.8922858,,0.819814430996177,-0.08605441241748371,0.15336925506000001,0.637038048305985,0.1186004817964023,0.30441355242180734,0.8707872165618427,,-0.6228615745048294,-0.6842264099234173,0.12753160278,1.4491671994215478,0.22722649910992745,0.789629468470602,0.8676836793052913,,-0.06956664232292899,-0.10125745821601603,0.0886362022,-0.034016912529394594,,-4.7907233e-06,8.34465e-07,-3.9339066e-06,1.0,-2.117455e-05,-1.7244369e-05,2.117455e-05,1.0,-1.9073486e-06,1.7248094e-05,1.9669533e-06,0.99999994,NaN,NaN,NaN,NaN,NaN
0.4418169170003239,10:16:27.848453,10:16:09.678600,0,,0.027647536,0.04897239,0.07563412,-0.86721313,-0.36946064,-0.33382645,-0.49154988,0.7422398,0.4554767,0.0794985,0.55908775,-0.8252883,,0.13971251,-0.04433469,0.073411256,-0.7428456,-0.6175876,0.25839102,-0.4435202,0.74311507,0.50106865,-0.501468,0.257615,-0.82593226,,0.08982539,1.349011,0.48509192,0.99604714,0.0026646727,-0.08878651,-0.05387453,-0.77659214,-0.6276959,-0.07062352,0.629998,-0.7733788,,-0.072451904,0.27900594,-0.0762477,0.8813286,0.28301248,0.37836996,-0.24631521,0.958547,-0.1432358,-0.40322292,0.033039533,0.9145051,,0.05496191,0.44359845,-0.37033537,0.8665965,0.45705318,-0.20028189,-0.49802572,0.7669793,-0.40461484,-0.031318452,0.45038337,0.8922858,,0.819814430996177,-0.08604668968460949,0.15336925506000001,0.637038048305985,0.1186004817964023,0.30441355242180734,0.8707872165618427,,-0.6228615745048294,-0.6842264099234173,0.12753160278,1.4491671994215478,0.22722649910992745,0.789629468470602,0.8676836793052913,,-0.06956664232292899,-0.10125745821601603,0.0886362022,-0.034016912529394594,,-4.7907233e-06,8.34465e-07,-3.9339066e-06,1.0,-2.117455e-05,-1.7244369e-05,2.117455e-05,1.0,-1.9073486e-06,1.7248094e-05,1.9669533e-06,0.99999994,NaN,NaN,NaN,NaN,NaN
0.4578054260000499,10:16:27.865551,10:16:09.749032,0,,0.027647536,0.04897239,0.07563412,-0.86721313,-0.36946064,-0.33382645,-0.49154988,0.7422398,0.4554767,0.0794985,0.55908775,-0.8252883,,0.13971251,-0.04433469,0.073411256,-0.7428456,-0.6175876,0.25839102,-0.4435202,0.74311507,0.50106865,-0.501468,0.257615,-0.82593226,,0.08982539,1.349011,0.48509192,0.99604714,0.0026646727,-0.08878651,-0.05387453,-0.77659214,-0.6276959,-0.07062352,0.629998,-0.7733788,,-0.072451904,0.27900594,-0.0762477,0.8813286,0.28301248,0.37836996,-0.24631521,0.958547,-0.1432358,-0.40322292,0.033039533,0.9145051,,0.05496191,0.44359845,-0.37033537,0.8665965,0.45705318,-0.20028189,-0.49802572,0.7669793,-0.40461484,-0.031318452,0.45038337,0.8922858,,0.819814430996177,-0.08604668968460949,0.15336925506000001,0.637038048305985,0.1186004817964023,0.30441355242180734,0.8707872165618427,,-0.6228615745048294,-0.6842264099234173,0.12753160278,1.4491671994215478,0.22722649910992745,0.789629468470602,0.8676836793052913,,-0.06956664232292899,-0.10125745821601603,0.0886362022,-0.034016912529394594,,-4.7907233e-06,8.34465e-07,-3.9339066e-06,1.0,-2.117455e-05,-1.7244369e-05,2.117455e-05,1.0,-1.9073486e-06,1.7248094e-05,1.9669533e-06,0.99999994,NaN,NaN,NaN,NaN,NaN
0.4750983450003332,10:16:27.880357,10:16:09.749032,0,,0.027647536,0.04897239,0.07563412,-0.86721313,-0.36946064,-0.33382645,-0.49154988,0.7422398,0.4554767,0.0794985,0.55908775,-0.8252883,,0.13971251,-0.04433469,0.073411256,-0.7428456,-0.6175876,0.25839102,-0.4435202,0.74311507,0.50106865,-0.501468,0.257615,-0.82593226,,0.08982539,1.349011,0.48509192,0.99604714,0.0026646727,-0.08878651,-0.05387453,-0.77659214,-0.6276959,-0.07062352,0.629998,-0.7733788,,-0.072451904,0.27900594,-0.0762477,0.8813286,0.28301248,0.37836996,-0.24631521,0.958547,-0.1432358,-0.40322292,0.033039533,0.9145051,,0.05496191,0.44359845,-0.37033537,0.8665965,0.45705318,-0.20028189,-0.49802572,0.7669793,-0.40461484,-0.031318452,0.45038337,0.8922858,,0.819814430996177,-0.08604668968460949,0.15336925506000001,0.637038048305985,0.1186004817964023,0.30441355242180734,0.8707872165618427,,-0.6228615745048294,-0.6842264099234173,0.12753160278,1.4491671994215478,0.22722649910992745,0.789629468470602,0.8676836793052913,,-0.06956664232292899,-0.10125745821601603,0.0886362022,-0.034016912529394594,,-4.7907233e-06,8.34465e-07,-3.9339066e-06,1.0,-2.117455e-05,-1.7244369e-05,2.117455e-05,1.0,-1.9073486e-06,1.7248094e-05,1.9669533e-06,0.99999994,NaN,NaN,NaN,NaN,NaN
0.48985296599948924,10:16:27.898356,10:16:09.749032,0,,0.027647074,0.048971348,0.07563409,-0.86721164,-0.36946094,-0.33383006,-0.49155164,0.7422424,0.45547032,0.07950427,0.5590838,-0.8252903,,0.13971251,-0.04433469,0.073411256,-0.7428456,-0.6175876,0.25839102,-0.4435202,0.74311507,0.50106865,-0.501468,0.257615,-0.82593226,,0.08982539,1.349011,0.48509192,0.99604714,0.0026646727,-0.08878651,-0.05387453,-0.77659214,-0.6276959,-0.07062352,0.629998,-0.7733788,,-0.07245139,0.27900517,-0.076248355,0.8813267,0.28301302,0.37837404,-0.24631305,0.95854664,-0.14324167,-0.40322843,0.033044245,0.91450256,,0.05496191,0.44359845,-0.37033537,0.8665965,0.45705318,-0.20028189,-0.49802572,0.7669793,-0.40461484,-0.031318452,0.45038337,0.8922858,,0.819814430996177,-0.08605441241748371,0.15336925506000001,0.637038048305985,0.1186004817964023,0.30441355242180734,0.8707872165618427,,-0.6228615745048294,-0.6842264099234173,0.12753160278,1.4491671994215478,0.22722649910992745,0.789629468470602,0.8676836793052913,,-0.06956664232292899,-0.10125745821601603,0.0886362022,-0.034016912529394594,,-4.7907233e-06,8.34465e-07,-3.9339066e-06,1.0,-2.117455e-05,-1.7244369e-05,2.117455e-05,1.0,-1.9073486e-06,1.7248094e-05,1.9669533e-06,0.99999994,NaN,NaN,NaN,NaN,NaN
0.5079012149999471,10:16:27.915727,10:16:09.749032,0,,0.027647074,0.048971348,0.07563409,-0.86721164,-0.36946094,-0.33383006,-0.49155164,0.7422424,0.45547032,0.07950427,0.5590838,-0.8252903,,0.13971251,-0.04433469,0.073411256,-0.7428456,-0.6175876,0.25839102,-0.4435202,0.74311507,0.50106865,-0.501468,0.257615,-0.82593226,,0.08982539,1.349011,0.48509192,0.99604714,0.0026646727,-0.08878651,-0.05387453,-0.77659214,-0.6276959,-0.07062352,0.629998,-0.7733788,,-0.07245139,0.27900517,-0.076248355,0.8813267,0.28301302,0.37837404,-0.24631305,0.95854664,-0.14324167,-0.40322843,0.033044245,0.91450256,,0.05496191,0.44359845,-0.37033537,0.8665965,0.45705318,-0.20028189,-0.49802572,0.7669793,-0.40461484,-0.031318452,0.45038337,0.8922858,,0.819814430996177,-0.08605441241748371,0.15336925506000001,0.637038048305985,0.1186004817964023,0.30441355242180734,0.8707872165618427,,-0.6228615745048294,-0.6842264099234173,0.12753160278,1.4491671994215478,0.22722649910992745,0.789629468470602,0.8676836793052913,,-0.06956664232292899,-0.10125745821601603,0.0886362022,-0.034016912529394594,,-4.7907233e-06,8.34465e-07,-3.9339066e-06,1.0,-2.117455e-05,-1.7244369e-05,2.117455e-05,1.0,-1.9073486e-06,1.7248094e-05,1.9669533e-06,0.99999994,NaN,NaN,NaN,NaN,NaN
0.5252747920003458,10:16:27.935490,10:16:09.821140,0,,0.027648043,0.04897093,0.075633705,-0.86721253,-0.36946434,-0.33382398,-0.49155068,0.7422446,0.45546788,0.07949987,0.5590789,-0.82529414,,0.13971251,-0.04433469,0.073411256,-0.7428456,-0.6175876,0.25839102,-0.4435202,0.74311507,0.50106865,-0.501468,0.257615,-0.82593226,,0.08982539,1.349011,0.48509192,0.99604714,0.0026646727,-0.08878651,-0.05387453,-0.77659214,-0.6276959,-0.07062352,0.629998,-0.7733788,,-0.07245231,0.2790045,-0.076248296,0.8813279,0.28301665,0.37836844,-0.24631505,0.95854545,-0.14324656,-0.4032245,0.033049352,0.9145041,,0.05496191,0.44359845,-0.37033537,0.8665965,0.45705318,-0.20028189,-0.49802572,0.7669793,-0.40461484,-0.031318452,0.45038337,0.8922858,,0.8198067082633028,-0.08605441241748371,0.15336925506000001,0.637038048305985,0.1186004817964023,0.30441355242180734,0.8707872165618427,,-0.6228615745048294,-0.6842264099234173,0.12753160278,1.4491671994215478,0.22722649910992745,0.789629468470602,0.8676836793052913,,-0.06956664232292899,-0.10125745821601603,0.0886362022,-0.034016912529394594,,-4.7907233e-06,8.34465e-07,-3.9339066e-06,1.0,-2.117455e-05,-1.7244369e-05,2.117455e-05,1.0,-1.9073486e-06,1.7248094e-05,1.9669533e-06,0.99999994,NaN,NaN,NaN,NaN,NaN
0.5450369720001618,10:16:27.958451,10:16:09.821140,0,,0.027648043,0.04897093,0.075633705,-0.86721253,-0.36946434,-0.33382398,-0.49155068,0.7422446,0.45546788,0.07949987,0.5590789,-0.82529414,,0.13971251,-0.04433469,0.073411256,-0.7428456,-0.6175876,0.25839102,-0.4435202,0.74311507,0.50106865,-0.501468,0.257615,-0.82593226,,0.08982539,1.349011,0.48509192,0.99604714,0.0026646727,-0.08878651,-0.05387453,-0.77659214,-0.6276959,-0.07062352,0.629998,-0.7733788,,-0.07245231,0.2790045,-0.076248296,0.8813279,0.28301665,0.37836844,-0.24631505,0.95854545,-0.14324656,-0.4032245,0.033049352,0.9145041,,0.05496191,0.44359845,-0.37033537,0.8665965,0.45705318,-0.20028189,-0.49802572,0.7669793,-0.40461484,-0.031318452,0.45038337,0.8922858,,0.8198067082633028,-0.08605441241748371,0.15336925506000001,0.637038048305985,0.1186004817964023,0.30441355242180734,0.8707872165618427,,-0.6228615745048294,-0.6842264099234173,0.12753160278,1.4491671994215478,0.22722649910992745,0.789629468470602,0.8676836793052913,,-0.06956664232292899,-0.10125745821601603,0.0886362022,-0.034016912529394594,,-4.7907233e-06,8.34465e-07,-3.9339066e-06,1.0,-2.117455e-05,-1.7244369e-05,2.117455e-05,1.0,-1.9073486e-06,1.7248094e-05,1.9669533e-06,0.99999994,NaN,NaN,NaN,NaN,NaN
0.5679414129999714,10:16:27.974980,10:16:09.821140,0,,0.027647536,0.04897239,0.07563412,-0.86721313,-0.36946064,-0.33382645,-0.49154988,0.7422398,0.4554767,0.0794985,0.55908775,-0.8252883,,0.13971251,-0.04433469,0.073411256,-0.7428456,-0.6175876,0.25839102,-0.4435202,0.74311507,0.50106865,-0.501468,0.257615,-0.82593226,,0.08982539,1.349011,0.48509192,0.99604714,0.0026646727,-0.08878651,-0.05387453,-0.77659214,-0.6276959,-0.07062352,0.629998,-0.7733788,,-0.072451904,0.27900594,-0.0762477,0.8813286,0.28301248,0.37836996,-0.24631521,0.958547,-0.1432358,-0.40322292,0.033039533,0.9145051,,0.05496191,0.44359845,-0.37033537,0.8665965,0.45705318,-0.20028189,-0.49802572,0.7669793,-0.40461484,-0.031318452,0.45038337,0.8922858,,0.819814430996177,-0.08604668968460949,0.15336925506000001,0.637038048305985,0.1186004817964023,0.30441355242180734,0.8707872165618427,,-0.6228615745048294,-0.6842264099234173,0.12753160278,1.4491671994215478,0.22722649910992745,0.789629468470602,0.8676836793052913,,-0.06956664232292899,-0.10125745821601603,0.0886362022,-0.034016912529394594,,-4.7907233e-06,8.34465e-07,-3.9339066e-06,1.0,-2.117455e-05,-1.7244369e-05,2.117455e-05,1.0,-1.9073486e-06,1.7248094e-05,1.9669533e-06,0.99999994,NaN,NaN,NaN,NaN,NaN
0.5845203379994928,10:16:27.996153,10:16:09.821140,0,,0.027647074,0.048971348,0.07563409,-0.86721164,-0.36946094,-0.33383006,-0.49155164,0.7422424,0.45547032,0.07950427,0.5590838,-0.8252903,,0.13971251,-0.04433469,0.073411256,-0.7428456,-0.6175876,0.25839102,-0.4435202,0.74311507,0.50106865,-0.501468,0.257615,-0.82593226,,0.08982539,1.349011,0.48509192,0.99604714,0.0026646727,-0.08878651,-0.05387453,-0.77659214,-0.6276959,-0.07062352,0.629998,-0.7733788,,-0.07245139,0.27900517,-0.076248355,0.8813267,0.28301302,0.37837404,-0.24631305,0.95854664,-0.14324167,-0.40322843,0.033044245,0.91450256,,0.05496191,0.44359845,-0.37033537,0.8665965,0.45705318,-0.20028189,-0.49802572,0.7669793,-0.40461484,-0.031318452,0.45038337,0.8922858,,0.819814430996177,-0.08605441241748371,0.15336925506000001,0.637038048305985,0.1186004817964023,0.30441355242180734,0.8707872165618427,,-0.6228615745048294,-0.6842264099234173,0.12753160278,1.4491671994215478,0.22722649910992745,0.789629468470602,0.8676836793052913,,-0.06956664232292899,-0.10125745821601603,0.0886362022,-0.034016912529394594,,-4.7907233e-06,8.34465e-07,-3.9339066e-06,1.0,-2.117455e-05,-1.7244369e-05,2.117455e-05,1.0,-1.9073486e-06,1.7248094e-05,1.9669533e-06,0.99999994,NaN,NaN,NaN,NaN,NaN
0.6052677309999126,10:16:28.011302,10:16:09.893489,0,,0.027647074,0.048971348,0.07563409,-0.86721164,-0.36946094,-0.33383006,-0.49155164,0.7422424,0.45547032,0.07950427,0.5590838,-0.8252903,,0.13971251,-0.04433469,0.073411256,-0.7428456,-0.6175876,0.25839102,-0.4435202,0.74311507,0.50106865,-0.501468,0.257615,-0.82593226,,0.08982539,1.349011,0.48509192,0.99604714,0.0026646727,-0.08878651,-0.05387453,-0.77659214,-0.6276959,-0.07062352,0.629998,-0.7733788,,-0.07245139,0.27900517,-0.076248355,0.8813267,0.28301302,0.37837404,-0.24631305,0.95854664,-0.14324167,-0.40322843,0.033044245,0.91450256,,0.05496191,0.44359845,-0.37033537,0.8665965,0.45705318,-0.20028189,-0.49802572,0.7669793,-0.40461484,-0.031318452,0.45038337,0.8922858,,0.819814430996177,-0.08605441241748371,0.15336925506000001,0.637038048305985,0.1186004817964023,0.30441355242180734,0.8707872165618427,,-0.6228615745048294,-0.6842264099234173,0.12753160278,1.4491671994215478,0.22722649910992745,0.789629468470602,0.8676836793052913,,-0.06956664232292899,-0.10125745821601603,0.0886362022,-0.034016912529394594,,-4.7907233e-06,8.34465e-07,-3.9339066e-06,1.0,-2.117455e-05,-1.7244369e-05,2.117455e-05,1.0,-1.9073486e-06,1.7248094e-05,1.9669533e-06,0.99999994,NaN,NaN,NaN,NaN,NaN
0.6208451089996743,10:16:28.030340,10:16:09.893489,0,,0.027647074,0.048971348,0.07563409,-0.86721164,-0.36946094,-0.33383006,-0.49155164,0.7422424,0.45547032,0.07950427,0.5590838,-0.8252903,,0.13971251,-0.04433469,0.073411256,-0.7428456,-0.6175876,0.25839102,-0.4435202,0.74311507,0.50106865,-0.501468,0.257615,-0.82593226,,0.08982539,1.349011,0.48509192,0.99604714,0.0026646727,-0.08878651,-0.05387453,-0.77659214,-0.6276959,-0.07062352,0.629998,-0.7733788,,-0.07245139,0.27900517,-0.076248355,0.8813267,0.28301302,0.37837404,-0.24631305,0.95854664,-0.14324167,-0.40322843,0.033044245,0.91450256,,0.05496191,0.44359845,-0.37033537,0.8665965,0.45705318,-0.20028189,-0.49802572,0.7669793,-0.40461484,-0.031318452,0.45038337,0.8922858,,0.819814430996177,-0.08605441241748371,0.15336925506000001,0.637038048305985,0.1186004817964023,0.30441355242180734,0.8707872165618427,,-0.6228615745048294,-0.6842264099234173,0.12753160278,1.4491671994215478,0.22722649910992745,0.789629468470602,0.8676836793052913,,-0.06956664232292899,-0.10125745821601603,0.0886362022,-0.034016912529394594,,-4.7907233e-06,8.34465e-07,-3.9339066e-06,1.0,-2.117455e-05,-1.7244369e-05,2.117455e-05,1.0,-1.9073486e-06,1.7248094e-05,1.9669533e-06,0.99999994,NaN,NaN,NaN,NaN,NaN
0.6398838269997214,10:16:28.047007,10:16:09.893489,0,,0.027648505,0.048971973,0.075633734,-0.8672141,-0.36946395,-0.33382037,-0.49154896,0.74224186,0.4554742,0.07949412,0.55908275,-0.82529205,,0.13971251,-0.04433469,0.073411256,-0.7428456,-0.6175876,0.25839102,-0.4435202,0.74311507,0.50106865,-0.501468,0.257615,-0.82593226,,0.08982539,1.349011,0.48509192,0.99604714,0.0026646727,-0.08878651,-0.05387453,-0.77659214,-0.6276959,-0.07062352,0.629998,-0.7733788,,-0.07245282,0.2790053,-0.07624764,0.88132983,0.28301612,0.37836438,-0.24631721,0.95854574,-0.14324069,-0.40321898,0.03304464,0.9145067,,0.05496191,0.44359845,-0.37033537,0.8665965,0.45705318,-0.20028189,-0.49802572,0.7669793,-0.40461484,-0.031318452,0.45038337,0.8922858,,0.8198067082633028,-0.08604668968460949,0.15336925506000001,0.637038048305985,0.1186004817964023,0.30441355242180734,0.8707872165618427,,-0.6228615745048294,-0.6842264099234173,0.12753160278,1.4491671994215478,0.22722649910992745,0.789629468470602,0.8676836793052913,,-0.06956664232292899,-0.10125745821601603,0.0886362022,-0.034016912529394594,,-4.7907233e-06,8.34465e-07,-3.9339066e-06,1.0,-2.117455e-05,-1.7244369e-05,2.117455e-05,1.0,-1.9073486e-06,1.7248094e-05,1.9669533e-06,0.99999994,NaN,NaN,NaN,NaN,NaN
0.6565549010001632,10:16:28.064872,10:16:09.893489,0,,0.027649485,0.04897154,0.07563336,-0.86721504,-0.36946726,-0.33381432,-0.49154803,0.74224395,0.45547175,0.07948969,0.55907774,-0.8252959,,0.13971251,-0.04433469,0.073411256,-0.7428456,-0.6175876,0.25839102,-0.4435202,0.74311507,0.50106865,-0.501468,0.257615,-0.82593226,,0.08982539,1.349011,0.48509192,0.99604714,0.0026646727,-0.08878651,-0.05387453,-0.77659214,-0.6276959,-0.07062352,0.629998,-0.7733788,,-0.07245374,0.27900463,-0.07624759,0.8813311,0.28301972,0.37835878,-0.24631922,0.9585445,-0.1432456,-0.40321505,0.033049747,0.9145082,,0.05496191,0.44359845,-0.37033537,0.8665965,0.45705318,-0.20028189,-0.49802572,0.7669793,-0.40461484,-0.031318452,0.45038337,0.8922858,,0.8197989855304286,-0.08604668968460949,0.15336925506000001,0.637038048305985,0.1186004817964023,0.30441355242180734,0.8707872165618427,,-0.6228615745048294,-0.6842264099234173,0.12753160278,1.4491671994215478,0.22722649910992745,0.789629468470602,0.8676836793052913,,-0.06956664232292899,-0.10125745821601603,0.0886362022,-0.034016912529394594,,-4.7907233e-06,8.34465e-07,-3.9339066e-06,1.0,-2.117455e-05,-1.7244369e-05,2.117455e-05,1.0,-1.9073486e-06,1.7248094e-05,1.9669533e-06,0.99999994,NaN,NaN,NaN,NaN,NaN
0.6744135019998794,10:16:28.081199,10:16:09.966055,0,,0.027648043,0.04897093,0.075633705,-0.86721253,-0.36946434,-0.33382398,-0.49155068,0.7422446,0.45546788,0.07949987,0.5590789,-0.82529414,,0.13971251,-0.04433469,0.073411256,-0.7428456,-0.6175876,0.25839102,-0.4435202,0.74311507,0.50106865,-0.501468,0.257615,-0.82593226,,0.08982539,1.349011,0.48509192,0.99604714,0.0026646727,-0.08878651,-0.05387453,-0.77659214,-0.6276959,-0.07062352,0.629998,-0.7733788,,-0.07245231,0.2790045,-0.076248296,0.8813279,0.28301665,0.37836844,-0.24631505,0.95854545,-0.14324656,-0.4032245,0.033049352,0.9145041,,0.05496191,0.44359845,-0.37033537,0.8665965,0.45705318,-0.20028189,-0.49802572,0.7669793,-0.40461484,-0.031318452,0.45038337,0.8922858,,0.8198067082633028,-0.08605441241748371,0.15336925506000001,0.637038048305985,0.1186004817964023,0.30441355242180734,0.8707872165618427,,-0.6228615745048294,-0.6842264099234173,0.12753160278,1.4491671994215478,0.22722649910992745,0.789629468470602,0.8676836793052913,,-0.06956664232292899,-0.10125745821601603,0.0886362022,-0.034016912529394594,,-4.7907233e-06,8.34465e-07,-3.9339066e-06,1.0,-2.117455e-05,-1.7244369e-05,2.117455e-05,1.0,-1.9073486e-06,1.7248094e-05,1.9669533e-06,0.99999994,NaN,NaN,NaN,NaN,NaN
0.6907474070003445,10:16:28.098426,10:16:09.966055,0,,0.027648043,0.04897093,0.075633705,-0.86721253,-0.36946434,-0.33382398,-0.49155068,0.7422446,0.45546788,0.07949987,0.5590789,-0.82529414,,0.13971251,-0.04433469,0.073411256,-0.7428456,-0.6175876,0.25839102,-0.4435202,0.74311507,0.50106865,-0.501468,0.257615,-0.82593226,,0.08982539,1.349011,0.48509192,0.99604714,0.0026646727,-0.08878651,-0.05387453,-0.77659214,-0.6276959,-0.07062352,0.629998,-0.7733788,,-0.07245231,0.2790045,-0.076248296,0.8813279,0.28301665,0.37836844,-0.24631505,0.95854545,-0.14324656,-0.4032245,0.033049352,0.9145041,,0.05496191,0.44359845,-0.37033537,0.8665965,0.45705318,-0.20028189,-0.49802572,0.7669793,-0.40461484,-0.031318452,0.45038337,0.8922858,,0.8198067082633028,-0.08605441241748371,0.15336925506000001,0.637038048305985,0.1186004817964023,0.30441355242180734,0.8707872165618427,,-0.6228615745048294,-0.6842264099234173,0.12753160278,1.4491671994215478,0.22722649910992745,0.789629468470602,0.8676836793052913,,-0.06956664232292899,-0.10125745821601603,0.0886362022,-0.034016912529394594,,-4.7907233e-06,8.34465e-07,-3.9339066e-06,1.0,-2.117455e-05,-1.7244369e-05,2.117455e-05,1.0,-1.9073486e-06,1.7248094e-05,1.9669533e-06,0.99999994,NaN,NaN,NaN,NaN,NaN
0.7077991890000703,10:16:28.115574,10:16:09.966055,0,,0.027647536,0.04897239,0.07563412,-0.86721313,-0.36946064,-0.33382645,-0.49154988,0.7422398,0.4554767,0.0794985,0.55908775,-0.8252883,,0.13971251,-0.04433469,0.073411256,-0.7428456,-0.6175876,0.25839102,-0.4435202,0.74311507,0.50106865,-0.501468,0.257615,-0.82593226,,0.08982539,1.349011,0.48509192,0.99604714,0.0026646727,-0.08878651,-0.05387453,-0.77659214,-0.6276959,-0.07062352,0.629998,-0.7733788,,-0.072451904,0.27900594,-0.0762477,0.8813286,0.28301248,0.37836996,-0.24631521,0.958547,-0.1432358,-0.40322292,0.033039533,0.9145051,,0.05496191,0.44359845,-0.37033537,0.8665965,0.45705318,-0.20028189,-0.49802572,0.7669793,-0.40461484,-0.031318452,0.45038337,0.8922858,,0.819814430996177,-0.08604668968460949,0.15336925506000001,0.637038048305985,0.1186004817964023,0.30441355242180734,0.8707872165618427,,-0.6228615745048294,-0.6842264099234173,0.12753160278,1.4491671994215478,0.22722649910992745,0.789629468470602,0.8676836793052913,,-0.06956664232292899,-0.10125745821601603,0.0886362022,-0.034016912529394594,,-4.7907233e-06,8.34465e-07,-3.9339066e-06,1.0,-2.117455e-05,-1.7244369e-05,2.117455e-05,1.0,-1.9073486e-06,1.7248094e-05,1.9669533e-06,0.99999994,NaN,NaN,NaN,NaN,NaN
0.7251155109997853,10:16:28.130979,10:16:09.966055,0,,0.027648043,0.04897093,0.075633705,-0.86721253,-0.36946434,-0.33382398,-0.49155068,0.7422446,0.45546788,0.07949987,0.5590789,-0.82529414,,0.13971251,-0.04433469,0.073411256,-0.7428456,-0.6175876,0.25839102,-0.4435202,0.74311507,0.50106865,-0.501468,0.257615,-0.82593226,,0.08982539,1.349011,0.48509192,0.99604714,0.0026646727,-0.08878651,-0.05387453,-0.77659214,-0.6276959,-0.07062352,0.629998,-0.7733788,,-0.07245231,0.2790045,-0.076248296,0.8813279,0.28301665,0.37836844,-0.24631505,0.95854545,-0.14324656,-0.4032245,0.033049352,0.9145041,,0.05496191,0.44359845,-0.37033537,0.8665965,0.45705318,-0.20028189,-0.49802572,0.7669793,-0.40461484,-0.031318452,0.45038337,0.8922858,,0.8198067082633028,-0.08605441241748371,0.15336925506000001,0.637038048305985,0.1186004817964023,0.30441355242180734,0.8707872165618427,,-0.6228615745048294,-0.6842264099234173,0.12753160278,1.4491671994215478,0.22722649910992745,0.789629468470602,0.8676836793052913,,-0.06956664232292899,-0.10125745821601603,0.0886362022,-0.034016912529394594,,-4.7907233e-06,8.34465e-07,-3.9339066e-06,1.0,-2.117455e-05,-1.7244369e-05,2.117455e-05,1.0,-1.9073486e-06,1.7248094e-05,1.9669533e-06,0.99999994,NaN,NaN,NaN,NaN,NaN
0.740527414999633,10:16:28.148019,10:16:09.966055,0,,0.027648505,0.048971973,0.075633734,-0.8672141,-0.36946395,-0.33382037,-0.49154896,0.74224186,0.4554742,0.07949412,0.55908275,-0.82529205,,0.13971251,-0.04433469,0.073411256,-0.7428456,-0.6175876,0.25839102,-0.4435202,0.74311507,0.50106865,-0.501468,0.257615,-0.82593226,,0.08982539,1.349011,0.48509192,0.99604714,0.0026646727,-0.08878651,-0.05387453,-0.77659214,-0.6276959,-0.07062352,0.629998,-0.7733788,,-0.07245282,0.2790053,-0.07624764,0.88132983,0.28301612,0.37836438,-0.24631721,0.95854574,-0.14324069,-0.40321898,0.03304464,0.9145067,,0.05496191,0.44359845,-0.37033537,0.8665965,0.45705318,-0.20028189,-0.49802572,0.7669793,-0.40461484,-0.031318452,0.45038337,0.8922858,,0.8198067082633028,-0.08604668968460949,0.15336925506000001,0.637038048305985,0.1186004817964023,0.30441355242180734,0.8707872165618427,,-0.6228615745048294,-0.6842264099234173,0.12753160278,1.4491671994215478,0.22722649910992745,0.789629468470602,0.8676836793052913,,-0.06956664232292899,-0.10125745821601603,0.0886362022,-0.034016912529394594,,-4.7907233e-06,8.34465e-07,-3.9339066e-06,1.0,-2.117455e-05,-1.7244369e-05,2.117455e-05,1.0,-1.9073486e-06,1.7248094e-05,1.9669533e-06,0.99999994,NaN,NaN,NaN,NaN,NaN
0.7575640029999704,10:16:28.165526,10:16:09.966055,0,,0.027647536,0.04897239,0.07563412,-0.86721313,-0.36946064,-0.33382645,-0.49154988,0.7422398,0.4554767,0.0794985,0.55908775,-0.8252883,,0.13971251,-0.04433469,0.073411256,-0.7428456,-0.6175876,0.25839102,-0.4435202,0.74311507,0.50106865,-0.501468,0.257615,-0.82593226,,0.08982539,1.349011,0.48509192,0.99604714,0.0026646727,-0.08878651,-0.05387453,-0.77659214,-0.6276959,-0.07062352,0.629998,-0.7733788,,-0.072451904,0.27900594,-0.0762477,0.8813286,0.28301248,0.37836996,-0.24631521,0.958547,-0.1432358,-0.40322292,0.033039533,0.9145051,,0.05496191,0.44359845,-0.37033537,0.8665965,0.45705318,-0.20028189,-0.49802572,0.7669793,-0.40461484,-0.031318452,0.45038337,0.8922858,,0.819814430996177,-0.08604668968460949,0.15336925506000001,0.637038048305985,0.1186004817964023,0.30441355242180734,0.8707872165618427,,-0.6228615745048294,-0.6842264099234173,0.12753160278,1.4491671994215478,0.22722649910992745,0.789629468470602,0.8676836793052913,,-0.06956664232292899,-0.10125745821601603,0.0886362022,-0.034016912529394594,,-4.7907233e-06,8.34465e-07,-3.9339066e-06,1.0,-2.117455e-05,-1.7244369e-05,2.117455e-05,1.0,-1.9073486e-06,1.7248094e-05,1.9669533e-06,0.99999994,NaN,NaN,NaN,NaN,NaN
0.775072180999814,10:16:28.180411,10:16:09.966055,0,,0.027647536,0.04897239,0.07563412,-0.86721313,-0.36946064,-0.33382645,-0.49154988,0.7422398,0.4554767,0.0794985,0.55908775,-0.8252883,,0.13971251,-0.04433469,0.073411256,-0.7428456,-0.6175876,0.25839102,-0.4435202,0.74311507,0.50106865,-0.501468,0.257615,-0.82593226,,0.08982539,1.349011,0.48509192,0.99604714,0.0026646727,-0.08878651,-0.05387453,-0.77659214,-0.6276959,-0.07062352,0.629998,-0.7733788,,-0.072451904,0.27900594,-0.0762477,0.8813286,0.28301248,0.37836996,-0.24631521,0.958547,-0.1432358,-0.40322292,0.033039533,0.9145051,,0.05496191,0.44359845,-0.37033537,0.8665965,0.45705318,-0.20028189,-0.49802572,0.7669793,-0.40461484,-0.031318452,0.45038337,0.8922858,,0.819814430996177,-0.08604668968460949,0.15336925506000001,0.637038048305985,0.1186004817964023,0.30441355242180734,0.8707872165618427,,-0.6228615745048294,-0.6842264099234173,0.12753160278,1.4491671994215478,0.22722649910992745,0.789629468470602,0.8676836793052913,,-0.06956664232292899,-0.10125745821601603,0.0886362022,-0.034016912529394594,,-4.7907233e-06,8.34465e-07,-3.9339066e-06,1.0,-2.117455e-05,-1.7244369e-05,2.117455e-05,1.0,-1.9073486e-06,1.7248094e-05,1.9669533e-06,0.99999994,NaN,NaN,NaN,NaN,NaN
0.7899591949999376,10:16:28.197629,10:16:10.076641,0,,0.027716331,0.048933424,0.07563558,-0.867183,-0.36952463,-0.33383405,-0.4916053,0.7422267,0.45543805,0.07948494,0.55906266,-0.82530653,,0.13959509,-0.044383466,0.07339418,-0.7428832,-0.6175126,0.2584626,-0.44342637,0.743175,0.5010627,-0.5014954,0.2576218,-0.82591355,,0.08977358,1.3490118,0.4850986,0.9960508,0.0027173725,-0.08874392,-0.05380694,-0.77659196,-0.62770194,-0.07062352,0.629998,-0.7733788,,-0.072477765,0.27896369,-0.076272205,0.8813327,0.28302723,0.37834945,-0.24632098,0.95854175,-0.1432609,-0.40321046,0.03306511,0.9145097,,0.055131044,0.4435821,-0.37035543,0.8666512,0.45691058,-0.2003708,-0.49793854,0.76702607,-0.4046334,-0.031191649,0.45044836,0.89225745,,0.819814430996177,-0.08605441241748371,0.15336925506000001,0.637038048305985,0.1186004817964023,0.30441355242180734,0.8707872165618427,,-0.6228615745048294,-0.6842264099234173,0.12753160278,1.4491671994215478,0.22722649910992745,0.789629468470602,0.8676836793052913,,-0.06956664232292899,-0.10125745821601603,0.0886362022,-0.034016912529394594,,-5.6914985e-05,4.2915344e-06,-5.00679e-06,1.0,3.130734e-05,2.5510788e-05,-3.130734e-05,1.0,2.8908253e-06,-2.5499612e-05,-2.8312206e-06,0.99999994,NaN,NaN,NaN,NaN,NaN
0.8071765080003388,10:16:28.212572,10:16:10.076641,0,,0.027716331,0.048933424,0.07563558,-0.867183,-0.36952463,-0.33383405,-0.4916053,0.7422267,0.45543805,0.07948494,0.55906266,-0.82530653,,0.13959509,-0.044383466,0.07339418,-0.7428832,-0.6175126,0.2584626,-0.44342637,0.743175,0.5010627,-0.5014954,0.2576218,-0.82591355,,0.08977358,1.3490118,0.4850986,0.9960508,0.0027173725,-0.08874392,-0.05380694,-0.77659196,-0.62770194,-0.07062352,0.629998,-0.7733788,,-0.072477765,0.27896369,-0.076272205,0.8813327,0.28302723,0.37834945,-0.24632098,0.95854175,-0.1432609,-0.40321046,0.03306511,0.9145097,,0.055131044,0.4435821,-0.37035543,0.8666512,0.45691058,-0.2003708,-0.49793854,0.76702607,-0.4046334,-0.031191649,0.45044836,0.89225745,,0.819814430996177,-0.08605441241748371,0.15336925506000001,0.637038048305985,0.1186004817964023,0.30441355242180734,0.8707872165618427,,-0.6228615745048294,-0.6842264099234173,0.12753160278,1.4491671994215478,0.22722649910992745,0.789629468470602,0.8676836793052913,,-0.06956664232292899,-0.10125745821601603,0.0886362022,-0.034016912529394594,,-5.6914985e-05,4.2915344e-06,-5.00679e-06,1.0,3.130734e-05,2.5510788e-05,-3.130734e-05,1.0,2.8908253e-06,-2.5499612e-05,-2.8312206e-06,0.99999994,NaN,NaN,NaN,NaN,NaN
0.8220981269996628,10:16:28.230711,10:16:10.076641,0,,0.027717303,0.048933007,0.075635195,-0.8671839,-0.36952794,-0.33382797,-0.4916044,0.74222887,0.4554355,0.07948056,0.55905765,-0.82531035,,0.13959509,-0.044383466,0.07339418,-0.7428832,-0.6175126,0.2584626,-0.44342637,0.743175,0.5010627,-0.5014954,0.2576218,-0.82591355,,0.08977358,1.3490118,0.4850986,0.9960508,0.0027173725,-0.08874392,-0.05380694,-0.77659196,-0.62770194,-0.07062352,0.629998,-0.7733788,,-0.07247868,0.27896303,-0.076272145,0.8813339,0.28303084,0.37834385,-0.24632297,0.9585405,-0.1432658,-0.40320656,0.033070218,0.91451126,,0.055131044,0.4435821,-0.37035543,0.8666512,0.45691058,-0.2003708,-0.49793854,0.76702607,-0.4046334,-0.031191649,0.45044836,0.89225745,,0.8198067082633028,-0.08605441241748371,0.15336925506000001,0.637038048305985,0.1186004817964023,0.30441355242180734,0.8707872165618427,,-0.6228615745048294,-0.6842264099234173,0.12753160278,1.4491671994215478,0.22722649910992745,0.789629468470602,0.8676836793052913,,-0.06956664232292899,-0.10125745821601603,0.0886362022,-0.034016912529394594,,-5.6914985e-05,4.2915344e-06,-5.00679e-06,1.0,3.130734e-05,2.5510788e-05,-3.130734e-05,1.0,2.8908253e-06,-2.5499612e-05,-2.8312206e-06,0.99999994,NaN,NaN,NaN,NaN,NaN
0.8402449229997728,10:16:28.248201,10:16:10.076641,0,,0.027716786,0.048934452,0.0756356,-0.8671845,-0.36952424,-0.33383045,-0.4916035,0.7422239,0.45544443,0.07947916,0.55906653,-0.8253045,,0.13959509,-0.044383466,0.07339418,-0.7428832,-0.6175126,0.2584626,-0.44342637,0.743175,0.5010627,-0.5014954,0.2576218,-0.82591355,,0.08977358,1.3490118,0.4850986,0.9960508,0.0027173725,-0.08874392,-0.05380694,-0.77659196,-0.62770194,-0.07062352,0.629998,-0.7733788,,-0.07247828,0.27896446,-0.07627154,0.8813346,0.28302667,0.37834537,-0.24632314,0.95854205,-0.14325503,-0.40320495,0.033060398,0.91451234,,0.055131044,0.4435821,-0.37035543,0.8666512,0.45691058,-0.2003708,-0.49793854,0.76702607,-0.4046334,-0.031191649,0.45044836,0.89225745,,0.819814430996177,-0.08604668968460949,0.15336925506000001,0.637038048305985,0.1186004817964023,0.30441355242180734,0.8707872165618427,,-0.6228615745048294,-0.6842264099234173,0.12753160278,1.4491671994215478,0.22722649910992745,0.789629468470602,0.8676836793052913,,-0.06956664232292899,-0.10125745821601603,0.0886362022,-0.034016912529394594,,-5.6914985e-05,4.2915344e-06,-5.00679e-06,1.0,3.130734e-05,2.5510788e-05,-3.130734e-05,1.0,2.8908253e-06,-2.5499612e-05,-2.8312206e-06,0.99999994,NaN,NaN,NaN,NaN,NaN
0.8577240049999091,10:16:28.264701,10:16:10.145698,0,,0.027717303,0.048933007,0.075635195,-0.8671839,-0.36952794,-0.33382797,-0.4916044,0.74222887,0.4554355,0.07948056,0.55905765,-0.82531035,,0.13959381,-0.044383854,0.07339364,-0.7428882,-0.6175121,0.25844932,-0.4434324,0.7431741,0.50105876,-0.50148267,0.2576258,-0.82592,,0.08977358,1.3490118,0.4850986,0.9960508,0.0027173725,-0.08874392,-0.05380694,-0.77659196,-0.62770194,-0.07062352,0.629998,-0.7733788,,-0.07247868,0.27896303,-0.076272145,0.8813339,0.28303084,0.37834385,-0.24632297,0.9585405,-0.1432658,-0.40320656,0.033070218,0.91451126,,0.055132434,0.4435817,-0.37035537,0.86665505,0.4569096,-0.20035625,-0.49793103,0.7670285,-0.40463805,-0.031204045,0.4504452,0.8922586,,0.8198067082633028,-0.08605441241748371,0.15336925506000001,0.637038048305985,0.1186004817964023,0.30441355242180734,0.8707872165618427,,-0.6228461290390809,-0.6842264099234173,0.12753160278,1.4491671994215478,0.22722649910992745,0.789629468470602,0.8676836793052913,,-0.06956664232292899,-0.10125745821601603,0.0886362022,-0.034016912529394594,,-5.6914985e-05,4.2915344e-06,-5.00679e-06,1.0,3.130734e-05,2.5510788e-05,-3.130734e-05,1.0,2.8908253e-06,-2.5499612e-05,-2.8312206e-06,0.99999994,NaN,NaN,NaN,NaN,NaN
0.8742399630000364,10:16:28.281606,10:16:10.145698,0,,0.027717303,0.048933007,0.075635195,-0.8671839,-0.36952794,-0.33382797,-0.4916044,0.74222887,0.4554355,0.07948056,0.55905765,-0.82531035,,0.13959381,-0.044383854,0.07339364,-0.7428882,-0.6175121,0.25844932,-0.4434324,0.7431741,0.50105876,-0.50148267,0.2576258,-0.82592,,0.08977358,1.3490118,0.4850986,0.9960508,0.0027173725,-0.08874392,-0.05380694,-0.77659196,-0.62770194,-0.07062352,0.629998,-0.7733788,,-0.07247868,0.27896303,-0.076272145,0.8813339,0.28303084,0.37834385,-0.24632297,0.9585405,-0.1432658,-0.40320656,0.033070218,0.91451126,,0.055132434,0.4435817,-0.37035537,0.86665505,0.4569096,-0.20035625,-0.49793103,0.7670285,-0.40463805,-0.031204045,0.4504452,0.8922586,,0.8198067082633028,-0.08605441241748371,0.15336925506000001,0.637038048305985,0.1186004817964023,0.30441355242180734,0.8707872165618427,,-0.6228461290390809,-0.6842264099234173,0.12753160278,1.4491671994215478,0.22722649910992745,0.789629468470602,0.8676836793052913,,-0.06956664232292899,-0.10125745821601603,0.0886362022,-0.034016912529394594,,-5.6914985e-05,4.2915344e-06,-5.00679e-06,1.0,3.130734e-05,2.5510788e-05,-3.130734e-05,1.0,2.8908253e-06,-2.5499612e-05,-2.8312206e-06,0.99999994,NaN,NaN,NaN,NaN,NaN
0.8909871089999797,10:16:28.298953,10:16:10.145698,0,,0.027717765,0.048934035,0.075635225,-0.8671855,-0.36952758,-0.3338244,-0.4916026,0.7422261,0.4554419,0.07947475,0.5590615,-0.8253083,,0.13959381,-0.044383854,0.07339364,-0.7428882,-0.6175121,0.25844932,-0.4434324,0.7431741,0.50105876,-0.50148267,0.2576258,-0.82592,,0.08977358,1.3490118,0.4850986,0.9960508,0.0027173725,-0.08874392,-0.05380694,-0.77659196,-0.62770194,-0.07062352,0.629998,-0.7733788,,-0.072479196,0.2789638,-0.07627149,0.88133585,0.2830303,0.37833977,-0.24632514,0.95854086,-0.14325993,-0.403201,0.033065505,0.9145139,,0.055132434,0.4435817,-0.37035537,0.86665505,0.4569096,-0.20035625,-0.49793103,0.7670285,-0.40463805,-0.031204045,0.4504452,0.8922586,,0.8198067082633028,-0.08604668968460949,0.15336925506000001,0.637038048305985,0.1186004817964023,0.30441355242180734,0.8707872165618427,,-0.6228461290390809,-0.6842264099234173,0.12753160278,1.4491671994215478,0.22722649910992745,0.789629468470602,0.8676836793052913,,-0.06956664232292899,-0.10125745821601603,0.0886362022,-0.034016912529394594,,-5.6914985e-05,4.2915344e-06,-5.00679e-06,1.0,3.130734e-05,2.5510788e-05,-3.130734e-05,1.0,2.8908253e-06,-2.5499612e-05,-2.8312206e-06,0.99999994,NaN,NaN,NaN,NaN,NaN
0.9084993970000141,10:16:28.317650,10:16:10.145698,0,,0.027716786,0.048934452,0.0756356,-0.8671845,-0.36952424,-0.33383045,-0.4916035,0.7422239,0.45544443,0.07947916,0.55906653,-0.8253045,,0.13959381,-0.044383854,0.07339364,-0.7428882,-0.6175121,0.25844932,-0.4434324,0.7431741,0.50105876,-0.50148267,0.2576258,-0.82592,,0.08977358,1.3490118,0.4850986,0.9960508,0.0027173725,-0.08874392,-0.05380694,-0.77659196,-0.62770194,-0.07062352,0.629998,-0.7733788,,-0.07247828,0.27896446,-0.07627154,0.8813346,0.28302667,0.37834537,-0.24632314,0.95854205,-0.14325503,-0.40320495,0.033060398,0.91451234,,0.055132434,0.4435817,-0.37035537,0.86665505,0.4569096,-0.20035625,-0.49793103,0.7670285,-0.40463805,-0.031204045,0.4504452,0.8922586,,0.819814430996177,-0.08604668968460949,0.15336925506000001,0.637038048305985,0.1186004817964023,0.30441355242180734,0.8707872165618427,,-0.6228461290390809,-0.6842264099234173,0.12753160278,1.4491671994215478,0.22722649910992745,0.789629468470602,0.8676836793052913,,-0.06956664232292899,-0.10125745821601603,0.0886362022,-0.034016912529394594,,-5.6914985e-05,4.2915344e-06,-5.00679e-06,1.0,3.130734e-05,2.5510788e-05,-3.130734e-05,1.0,2.8908253e-06,-2.5499612e-05,-2.8312206e-06,0.99999994,NaN,NaN,NaN,NaN,NaN
0.9271497529998669,10:16:28.332883,10:16:10.224813,0,,0.027716331,0.048933424,0.07563558,-0.867183,-0.36952463,-0.33383405,-0.4916053,0.7422267,0.45543805,0.07948494,0.55906266,-0.82530653,,0.13959381,-0.044383854,0.07339364,-0.7428882,-0.6175121,0.25844932,-0.4434324,0.7431741,0.50105876,-0.50148267,0.2576258,-0.82592,,0.08977358,1.3490118,0.4850986,0.9960508,0.0027173725,-0.08874392,-0.05380694,-0.77659196,-0.62770194,-0.07062352,0.629998,-0.7733788,,-0.072477765,0.27896369,-0.076272205,0.8813327,0.28302723,0.37834945,-0.24632098,0.95854175,-0.1432609,-0.40321046,0.03306511,0.9145097,,0.055132434,0.4435817,-0.37035537,0.86665505,0.4569096,-0.20035625,-0.49793103,0.7670285,-0.40463805,-0.031204045,0.4504452,0.8922586,,0.819814430996177,-0.08605441241748371,0.15336925506000001,0.637038048305985,0.1186004817964023,0.30441355242180734,0.8707872165618427,,-0.6228461290390809,-0.6842264099234173,0.12753160278,1.4491671994215478,0.22722649910992745,0.789629468470602,0.8676836793052913,,-0.06956664232292899,-0.10125745821601603,0.0886362022,-0.034016912529394594,,-5.6914985e-05,4.2915344e-06,-5.00679e-06,1.0,3.130734e-05,2.5510788e-05,-3.130734e-05,1.0,2.8908253e-06,-2.5499612e-05,-2.8312206e-06,0.99999994,NaN,NaN,NaN,NaN,NaN
0.9424277589996564,10:16:28.355771,10:16:10.224813,0,,0.027717765,0.048934035,0.075635225,-0.8671855,-0.36952758,-0.3338244,-0.4916026,0.7422261,0.4554419,0.07947475,0.5590615,-0.8253083,,0.13959381,-0.044383854,0.07339364,-0.7428882,-0.6175121,0.25844932,-0.4434324,0.7431741,0.50105876,-0.50148267,0.2576258,-0.82592,,0.08977358,1.3490118,0.4850986,0.9960508,0.0027173725,-0.08874392,-0.05380694,-0.77659196,-0.62770194,-0.07062352,0.629998,-0.7733788,,-0.072479196,0.2789638,-0.07627149,0.88133585,0.2830303,0.37833977,-0.24632514,0.95854086,-0.14325993,-0.403201,0.033065505,0.9145139,,0.055132434,0.4435817,-0.37035537,0.86665505,0.4569096,-0.20035625,-0.49793103,0.7670285,-0.40463805,-0.031204045,0.4504452,0.8922586,,0.8198067082633028,-0.08604668968460949,0.15336925506000001,0.637038048305985,0.1186004817964023,0.30441355242180734,0.8707872165618427,,-0.6228461290390809,-0.6842264099234173,0.12753160278,1.4491671994215478,0.22722649910992745,0.789629468470602,0.8676836793052913,,-0.06956664232292899,-0.10125745821601603,0.0886362022,-0.034016912529394594,,-5.6914985e-05,4.2915344e-06,-5.00679e-06,1.0,3.130734e-05,2.5510788e-05,-3.130734e-05,1.0,2.8908253e-06,-2.5499612e-05,-2.8312206e-06,0.99999994,NaN,NaN,NaN,NaN,NaN
0.9652233150000029,10:16:28.369346,10:16:10.224813,0,,0.027718741,0.048933633,0.07563484,-0.8671863,-0.36953092,-0.33381832,-0.4916017,0.74222827,0.45543945,0.079470396,0.5590565,-0.82531214,,0.13959381,-0.044383854,0.07339364,-0.7428882,-0.6175121,0.25844932,-0.4434324,0.7431741,0.50105876,-0.50148267,0.2576258,-0.82592,,0.08977358,1.3490118,0.4850986,0.9960508,0.0027173725,-0.08874392,-0.05380694,-0.77659196,-0.62770194,-0.07062352,0.629998,-0.7733788,,-0.07248011,0.27896315,-0.07627143,0.88133705,0.28303394,0.3783342,-0.24632715,0.9585396,-0.14326482,-0.4031971,0.033070613,0.91451544,,0.055132434,0.4435817,-0.37035537,0.86665505,0.4569096,-0.20035625,-0.49793103,0.7670285,-0.40463805,-0.031204045,0.4504452,0.8922586,,0.8197989855304286,-0.08604668968460949,0.15336925506000001,0.637038048305985,0.1186004817964023,0.30441355242180734,0.8707872165618427,,-0.6228461290390809,-0.6842264099234173,0.12753160278,1.4491671994215478,0.22722649910992745,0.789629468470602,0.8676836793052913,,-0.06956664232292899,-0.10125745821601603,0.0886362022,-0.034016912529394594,,-5.6914985e-05,4.2915344e-06,-5.00679e-06,1.0,3.130734e-05,2.5510788e-05,-3.130734e-05,1.0,2.8908253e-06,-2.5499612e-05,-2.8312206e-06,0.99999994,NaN,NaN,NaN,NaN,NaN
0.9788804339996204,10:16:28.382468,10:16:10.224813,0,,0.027718741,0.048933633,0.07563484,-0.8671863,-0.36953092,-0.33381832,-0.4916017,0.74222827,0.45543945,0.079470396,0.5590565,-0.82531214,,0.13959381,-0.044383854,0.07339364,-0.7428882,-0.6175121,0.25844932,-0.4434324,0.7431741,0.50105876,-0.50148267,0.2576258,-0.82592,,0.08977358,1.3490118,0.4850986,0.9960508,0.0027173725,-0.08874392,-0.05380694,-0.77659196,-0.62770194,-0.07062352,0.629998,-0.7733788,,-0.07248011,0.27896315,-0.07627143,0.88133705,0.28303394,0.3783342,-0.24632715,0.9585396,-0.14326482,-0.4031971,0.033070613,0.91451544,,0.055132434,0.4435817,-0.37035537,0.86665505,0.4569096,-0.20035625,-0.49793103,0.7670285,-0.40463805,-0.031204045,0.4504452,0.8922586,,0.8197989855304286,-0.08604668968460949,0.15336925506000001,0.637038048305985,0.1186004817964023,0.30441355242180734,0.8707872165618427,,-0.6228461290390809,-0.6842264099234173,0.12753160278,1.4491671994215478,0.22722649910992745,0.789629468470602,0.8676836793052913,,-0.06956664232292899,-0.10125745821601603,0.0886362022,-0.034016912529394594,,-5.6914985e-05,4.2915344e-06,-5.00679e-06,1.0,3.130734e-05,2.5510788e-05,-3.130734e-05,1.0,2.8908253e-06,-2.5499612e-05,-2.8312206e-06,0.99999994,NaN,NaN,NaN,NaN,NaN
0.9920140340000216,10:16:28.405083,10:16:10.295236,0,,0.027717303,0.048933007,0.075635195,-0.8671839,-0.36952794,-0.33382797,-0.4916044,0.74222887,0.4554355,0.07948056,0.55905765,-0.82531035,,0.13959381,-0.044383854,0.07339364,-0.7428882,-0.6175121,0.25844932,-0.4434324,0.7431741,0.50105876,-0.50148267,0.2576258,-0.82592,,0.08977358,1.3490118,0.4850986,0.9960508,0.0027173725,-0.08874392,-0.05380694,-0.77659196,-0.62770194,-0.07062352,0.629998,-0.7733788,,-0.07247868,0.27896303,-0.076272145,0.8813339,0.28303084,0.37834385,-0.24632297,0.9585405,-0.1432658,-0.40320656,0.033070218,0.91451126,,0.055132434,0.4435817,-0.37035537,0.86665505,0.4569096,-0.20035625,-0.49793103,0.7670285,-0.40463805,-0.031204045,0.4504452,0.8922586,,0.8198067082633028,-0.08605441241748371,0.15336925506000001,0.637038048305985,0.1186004817964023,0.30441355242180734,0.8707872165618427,,-0.6228461290390809,-0.6842264099234173,0.12753160278,1.4491671994215478,0.22722649910992745,0.789629468470602,0.8676836793052913,,-0.06956664232292899,-0.10125745821601603,0.0886362022,-0.034016912529394594,,-5.6914985e-05,4.2915344e-06,-5.00679e-06,1.0,3.130734e-05,2.5510788e-05,-3.130734e-05,1.0,2.8908253e-06,-2.5499612e-05,-2.8312206e-06,0.99999994,NaN,NaN,NaN,NaN,NaN
1.0146089520003443,10:16:28.427117,10:16:10.295236,0,,0.027717765,0.048934035,0.075635225,-0.8671855,-0.36952758,-0.3338244,-0.4916026,0.7422261,0.4554419,0.07947475,0.5590615,-0.8253083,,0.13959381,-0.044383854,0.07339364,-0.7428882,-0.6175121,0.25844932,-0.4434324,0.7431741,0.50105876,-0.50148267,0.2576258,-0.82592,,0.08977358,1.3490118,0.4850986,0.9960508,0.0027173725,-0.08874392,-0.05380694,-0.77659196,-0.62770194,-0.07062352,0.629998,-0.7733788,,-0.072479196,0.2789638,-0.07627149,0.88133585,0.2830303,0.37833977,-0.24632514,0.95854086,-0.14325993,-0.403201,0.033065505,0.9145139,,0.055132434,0.4435817,-0.37035537,0.86665505,0.4569096,-0.20035625,-0.49793103,0.7670285,-0.40463805,-0.031204045,0.4504452,0.8922586,,0.8198067082633028,-0.08604668968460949,0.15336925506000001,0.637038048305985,0.1186004817964023,0.30441355242180734,0.8707872165618427,,-0.6228461290390809,-0.6842264099234173,0.12753160278,1.4491671994215478,0.22722649910992745,0.789629468470602,0.8676836793052913,,-0.06956664232292899,-0.10125745821601603,0.0886362022,-0.034016912529394594,,-5.6914985e-05,4.2915344e-06,-5.00679e-06,1.0,3.130734e-05,2.5510788e-05,-3.130734e-05,1.0,2.8908253e-06,-2.5499612e-05,-2.8312206e-06,0.99999994,NaN,NaN,NaN,NaN,NaN
1.0366108769994753,10:16:28.442848,10:16:10.295236,0,,0.027716786,0.048934452,0.0756356,-0.8671845,-0.36952424,-0.33383045,-0.4916035,0.7422239,0.45544443,0.07947916,0.55906653,-0.8253045,,0.13959381,-0.044383854,0.07339364,-0.7428882,-0.6175121,0.25844932,-0.4434324,0.7431741,0.50105876,-0.50148267,0.2576258,-0.82592,,0.08977358,1.3490118,0.4850986,0.9960508,0.0027173725,-0.08874392,-0.05380694,-0.77659196,-0.62770194,-0.07062352,0.629998,-0.7733788,,-0.07247828,0.27896446,-0.07627154,0.8813346,0.28302667,0.37834537,-0.24632314,0.95854205,-0.14325503,-0.40320495,0.033060398,0.91451234,,0.055132434,0.4435817,-0.37035537,0.86665505,0.4569096,-0.20035625,-0.49793103,0.7670285,-0.40463805,-0.031204045,0.4504452,0.8922586,,0.819814430996177,-0.08604668968460949,0.15336925506000001,0.637038048305985,0.1186004817964023,0.30441355242180734,0.8707872165618427,,-0.6228461290390809,-0.6842264099234173,0.12753160278,1.4491671994215478,0.22722649910992745,0.789629468470602,0.8676836793052913,,-0.06956664232292899,-0.10125745821601603,0.0886362022,-0.034016912529394594,,-5.6914985e-05,4.2915344e-06,-5.00679e-06,1.0,3.130734e-05,2.5510788e-05,-3.130734e-05,1.0,2.8908253e-06,-2.5499612e-05,-2.8312206e-06,0.99999994,NaN,NaN,NaN,NaN,NaN
1.0523928029997478,10:16:28.462616,10:16:10.295236,0,,0.027716331,0.048933424,0.07563558,-0.867183,-0.36952463,-0.33383405,-0.4916053,0.7422267,0.45543805,0.07948494,0.55906266,-0.82530653,,0.13959381,-0.044383854,0.07339364,-0.7428882,-0.6175121,0.25844932,-0.4434324,0.7431741,0.50105876,-0.50148267,0.2576258,-0.82592,,0.08977358,1.3490118,0.4850986,0.9960508,0.0027173725,-0.08874392,-0.05380694,-0.77659196,-0.62770194,-0.07062352,0.629998,-0.7733788,,-0.072477765,0.27896369,-0.076272205,0.8813327,0.28302723,0.37834945,-0.24632098,0.95854175,-0.1432609,-0.40321046,0.03306511,0.9145097,,0.055132434,0.4435817,-0.37035537,0.86665505,0.4569096,-0.20035625,-0.49793103,0.7670285,-0.40463805,-0.031204045,0.4504452,0.8922586,,0.819814430996177,-0.08605441241748371,0.15336925506000001,0.637038048305985,0.1186004817964023,0.30441355242180734,0.8707872165618427,,-0.6228461290390809,-0.6842264099234173,0.12753160278,1.4491671994215478,0.22722649910992745,0.789629468470602,0.8676836793052913,,-0.06956664232292899,-0.10125745821601603,0.0886362022,-0.034016912529394594,,-5.6914985e-05,4.2915344e-06,-5.00679e-06,1.0,3.130734e-05,2.5510788e-05,-3.130734e-05,1.0,2.8908253e-06,-2.5499612e-05,-2.8312206e-06,0.99999994,NaN,NaN,NaN,NaN,NaN
1.071695145999911,10:16:28.474653,10:16:10.367879,0,,0.027716331,0.048933424,0.07563558,-0.867183,-0.36952463,-0.33383405,-0.4916053,0.7422267,0.45543805,0.07948494,0.55906266,-0.82530653,,0.13959381,-0.044383854,0.07339364,-0.7428882,-0.6175121,0.25844932,-0.4434324,0.7431741,0.50105876,-0.50148267,0.2576258,-0.82592,,0.08977358,1.3490118,0.4850986,0.9960508,0.0027173725,-0.08874392,-0.05380694,-0.77659196,-0.62770194,-0.07062352,0.629998,-0.7733788,,-0.072477765,0.27896369,-0.076272205,0.8813327,0.28302723,0.37834945,-0.24632098,0.95854175,-0.1432609,-0.40321046,0.03306511,0.9145097,,0.055132434,0.4435817,-0.37035537,0.86665505,0.4569096,-0.20035625,-0.49793103,0.7670285,-0.40463805,-0.031204045,0.4504452,0.8922586,,0.819814430996177,-0.08605441241748371,0.15336925506000001,0.637038048305985,0.1186004817964023,0.30441355242180734,0.8707872165618427,,-0.6228461290390809,-0.6842264099234173,0.12753160278,1.4491671994215478,0.22722649910992745,0.789629468470602,0.8676836793052913,,-0.06956664232292899,-0.10125745821601603,0.0886362022,-0.034016912529394594,,-5.6914985e-05,4.2915344e-06,-5.00679e-06,1.0,3.130734e-05,2.5510788e-05,-3.130734e-05,1.0,2.8908253e-06,-2.5499612e-05,-2.8312206e-06,0.99999994,NaN,NaN,NaN,NaN,NaN
1.0841498620002312,10:16:28.494019,10:16:10.367879,0,,0.027716786,0.048934452,0.0756356,-0.8671845,-0.36952424,-0.33383045,-0.4916035,0.7422239,0.45544443,0.07947916,0.55906653,-0.8253045,,0.13959381,-0.044383854,0.07339364,-0.7428882,-0.6175121,0.25844932,-0.4434324,0.7431741,0.50105876,-0.50148267,0.2576258,-0.82592,,0.08977358,1.3490118,0.4850986,0.9960508,0.0027173725,-0.08874392,-0.05380694,-0.77659196,-0.62770194,-0.07062352,0.629998,-0.7733788,,-0.07247828,0.27896446,-0.07627154,0.8813346,0.28302667,0.37834537,-0.24632314,0.95854205,-0.14325503,-0.40320495,0.033060398,0.91451234,,0.055132434,0.4435817,-0.37035537,0.86665505,0.4569096,-0.20035625,-0.49793103,0.7670285,-0.40463805,-0.031204045,0.4504452,0.8922586,,0.819814430996177,-0.08604668968460949,0.15336925506000001,0.637038048305985,0.1186004817964023,0.30441355242180734,0.8707872165618427,,-0.6228461290390809,-0.6842264099234173,0.12753160278,1.4491671994215478,0.22722649910992745,0.789629468470602,0.8676836793052913,,-0.06956664232292899,-0.10125745821601603,0.0886362022,-0.034016912529394594,,-5.6914985e-05,4.2915344e-06,-5.00679e-06,1.0,3.130734e-05,2.5510788e-05,-3.130734e-05,1.0,2.8908253e-06,-2.5499612e-05,-2.8312206e-06,0.99999994,NaN,NaN,NaN,NaN,NaN
1.1035641600001327,10:16:28.511259,10:16:10.367879,0,,0.027716786,0.048934452,0.0756356,-0.8671845,-0.36952424,-0.33383045,-0.4916035,0.7422239,0.45544443,0.07947916,0.55906653,-0.8253045,,0.13959381,-0.044383854,0.07339364,-0.7428882,-0.6175121,0.25844932,-0.4434324,0.7431741,0.50105876,-0.50148267,0.2576258,-0.82592,,0.08977358,1.3490118,0.4850986,0.9960508,0.0027173725,-0.08874392,-0.05380694,-0.77659196,-0.62770194,-0.07062352,0.629998,-0.7733788,,-0.07247828,0.27896446,-0.07627154,0.8813346,0.28302667,0.37834537,-0.24632314,0.95854205,-0.14325503,-0.40320495,0.033060398,0.91451234,,0.055132434,0.4435817,-0.37035537,0.86665505,0.4569096,-0.20035625,-0.49793103,0.7670285,-0.40463805,-0.031204045,0.4504452,0.8922586,,0.819814430996177,-0.08604668968460949,0.15336925506000001,0.637038048305985,0.1186004817964023,0.30441355242180734,0.8707872165618427,,-0.6228461290390809,-0.6842264099234173,0.12753160278,1.4491671994215478,0.22722649910992745,0.789629468470602,0.8676836793052913,,-0.06956664232292899,-0.10125745821601603,0.0886362022,-0.034016912529394594,,-5.6914985e-05,4.2915344e-06,-5.00679e-06,1.0,3.130734e-05,2.5510788e-05,-3.130734e-05,1.0,2.8908253e-06,-2.5499612e-05,-2.8312206e-06,0.99999994,NaN,NaN,NaN,NaN,NaN
1.1208040009996694,10:16:28.527454,10:16:10.367879,0,,0.027716786,0.048934452,0.0756356,-0.8671845,-0.36952424,-0.33383045,-0.4916035,0.7422239,0.45544443,0.07947916,0.55906653,-0.8253045,,0.13959381,-0.044383854,0.07339364,-0.7428882,-0.6175121,0.25844932,-0.4434324,0.7431741,0.50105876,-0.50148267,0.2576258,-0.82592,,0.08977358,1.3490118,0.4850986,0.9960508,0.0027173725,-0.08874392,-0.05380694,-0.77659196,-0.62770194,-0.07062352,0.629998,-0.7733788,,-0.07247828,0.27896446,-0.07627154,0.8813346,0.28302667,0.37834537,-0.24632314,0.95854205,-0.14325503,-0.40320495,0.033060398,0.91451234,,0.055132434,0.4435817,-0.37035537,0.86665505,0.4569096,-0.20035625,-0.49793103,0.7670285,-0.40463805,-0.031204045,0.4504452,0.8922586,,0.819814430996177,-0.08604668968460949,0.15336925506000001,0.637038048305985,0.1186004817964023,0.30441355242180734,0.8707872165618427,,-0.6228461290390809,-0.6842264099234173,0.12753160278,1.4491671994215478,0.22722649910992745,0.789629468470602,0.8676836793052913,,-0.06956664232292899,-0.10125745821601603,0.0886362022,-0.034016912529394594,,-5.6914985e-05,4.2915344e-06,-5.00679e-06,1.0,3.130734e-05,2.5510788e-05,-3.130734e-05,1.0,2.8908253e-06,-2.5499612e-05,-2.8312206e-06,0.99999994,NaN,NaN,NaN,NaN,NaN
1.1369795079999676,10:16:28.543910,10:16:10.367879,0,,0.027716331,0.048933424,0.07563558,-0.867183,-0.36952463,-0.33383405,-0.4916053,0.7422267,0.45543805,0.07948494,0.55906266,-0.82530653,,0.13959381,-0.044383854,0.07339364,-0.7428882,-0.6175121,0.25844932,-0.4434324,0.7431741,0.50105876,-0.50148267,0.2576258,-0.82592,,0.08977358,1.3490118,0.4850986,0.9960508,0.0027173725,-0.08874392,-0.05380694,-0.77659196,-0.62770194,-0.07062352,0.629998,-0.7733788,,-0.072477765,0.27896369,-0.076272205,0.8813327,0.28302723,0.37834945,-0.24632098,0.95854175,-0.1432609,-0.40321046,0.03306511,0.9145097,,0.055132434,0.4435817,-0.37035537,0.86665505,0.4569096,-0.20035625,-0.49793103,0.7670285,-0.40463805,-0.031204045,0.4504452,0.8922586,,0.819814430996177,-0.08605441241748371,0.15336925506000001,0.637038048305985,0.1186004817964023,0.30441355242180734,0.8707872165618427,,-0.6228461290390809,-0.6842264099234173,0.12753160278,1.4491671994215478,0.22722649910992745,0.789629468470602,0.8676836793052913,,-0.06956664232292899,-0.10125745821601603,0.0886362022,-0.034016912529394594,,-5.6914985e-05,4.2915344e-06,-5.00679e-06,1.0,3.130734e-05,2.5510788e-05,-3.130734e-05,1.0,2.8908253e-06,-2.5499612e-05,-2.8312206e-06,0.99999994,NaN,NaN,NaN,NaN,NaN
1.14762102900022,10:16:28.563102,10:16:10.447167,0,,0.027716331,0.048933424,0.07563558,-0.867183,-0.36952463,-0.33383405,-0.4916053,0.7422267,0.45543805,0.07948494,0.55906266,-0.82530653,,0.13959381,-0.044383854,0.07339364,-0.7428882,-0.6175121,0.25844932,-0.4434324,0.7431741,0.50105876,-0.50148267,0.2576258,-0.82592,,0.08977358,1.3490118,0.4850986,0.9960508,0.0027173725,-0.08874392,-0.05380694,-0.77659196,-0.62770194,-0.07062352,0.629998,-0.7733788,,-0.072477765,0.27896369,-0.076272205,0.8813327,0.28302723,0.37834945,-0.24632098,0.95854175,-0.1432609,-0.40321046,0.03306511,0.9145097,,0.055132434,0.4435817,-0.37035537,0.86665505,0.4569096,-0.20035625,-0.49793103,0.7670285,-0.40463805,-0.031204045,0.4504452,0.8922586,,0.819814430996177,-0.08605441241748371,0.15336925506000001,0.637038048305985,0.1186004817964023,0.30441355242180734,0.8707872165618427,,-0.6228461290390809,-0.6842264099234173,0.12753160278,1.4491671994215478,0.22722649910992745,0.789629468470602,0.8676836793052913,,-0.06956664232292899,-0.10125745821601603,0.0886362022,-0.034016912529394594,,-5.6914985e-05,4.2915344e-06,-5.00679e-06,1.0,3.130734e-05,2.5510788e-05,-3.130734e-05,1.0,2.8908253e-06,-2.5499612e-05,-2.8312206e-06,0.99999994,NaN,NaN,NaN,NaN,NaN
1.1726476869998805,10:16:28.577138,10:16:10.447167,0,,0.027717303,0.048933007,0.075635195,-0.8671839,-0.36952794,-0.33382797,-0.4916044,0.74222887,0.4554355,0.07948056,0.55905765,-0.82531035,,0.13959381,-0.044383854,0.07339364,-0.7428882,-0.6175121,0.25844932,-0.4434324,0.7431741,0.50105876,-0.50148267,0.2576258,-0.82592,,0.08977358,1.3490118,0.4850986,0.9960508,0.0027173725,-0.08874392,-0.05380694,-0.77659196,-0.62770194,-0.07062352,0.629998,-0.7733788,,-0.07247868,0.27896303,-0.076272145,0.8813339,0.28303084,0.37834385,-0.24632297,0.9585405,-0.1432658,-0.40320656,0.033070218,0.91451126,,0.055132434,0.4435817,-0.37035537,0.86665505,0.4569096,-0.20035625,-0.49793103,0.7670285,-0.40463805,-0.031204045,0.4504452,0.8922586,,0.8198067082633028,-0.08605441241748371,0.15336925506000001,0.637038048305985,0.1186004817964023,0.30441355242180734,0.8707872165618427,,-0.6228461290390809,-0.6842264099234173,0.12753160278,1.4491671994215478,0.22722649910992745,0.789629468470602,0.8676836793052913,,-0.06956664232292899,-0.10125745821601603,0.0886362022,-0.034016912529394594,,-5.6914985e-05,4.2915344e-06,-5.00679e-06,1.0,3.130734e-05,2.5510788e-05,-3.130734e-05,1.0,2.8908253e-06,-2.5499612e-05,-2.8312206e-06,0.99999994,NaN,NaN,NaN,NaN,NaN
1.1866823709997334,10:16:28.596602,10:16:10.447167,0,,0.027717303,0.048933007,0.075635195,-0.8671839,-0.36952794,-0.33382797,-0.4916044,0.74222887,0.4554355,0.07948056,0.55905765,-0.82531035,,0.13959381,-0.044383854,0.07339364,-0.7428882,-0.6175121,0.25844932,-0.4434324,0.7431741,0.50105876,-0.50148267,0.2576258,-0.82592,,0.08977358,1.3490118,0.4850986,0.9960508,0.0027173725,-0.08874392,-0.05380694,-0.77659196,-0.62770194,-0.07062352,0.629998,-0.7733788,,-0.07247868,0.27896303,-0.076272145,0.8813339,0.28303084,0.37834385,-0.24632297,0.9585405,-0.1432658,-0.40320656,0.033070218,0.91451126,,0.055132434,0.4435817,-0.37035537,0.86665505,0.4569096,-0.20035625,-0.49793103,0.7670285,-0.40463805,-0.031204045,0.4504452,0.8922586,,0.8198067082633028,-0.08605441241748371,0.15336925506000001,0.637038048305985,0.1186004817964023,0.30441355242180734,0.8707872165618427,,-0.6228461290390809,-0.6842264099234173,0.12753160278,1.4491671994215478,0.22722649910992745,0.789629468470602,0.8676836793052913,,-0.06956664232292899,-0.10125745821601603,0.0886362022,-0.034016912529394594,,-5.6914985e-05,4.2915344e-06,-5.00679e-06,1.0,3.130734e-05,2.5510788e-05,-3.130734e-05,1.0,2.8908253e-06,-2.5499612e-05,-2.8312206e-06,0.99999994,NaN,NaN,NaN,NaN,NaN
1.206147076999514,10:16:28.613548,10:16:10.447167,0,,0.027717765,0.048934035,0.075635225,-0.8671855,-0.36952758,-0.3338244,-0.4916026,0.7422261,0.4554419,0.07947475,0.5590615,-0.8253083,,0.13959381,-0.044383854,0.07339364,-0.7428882,-0.6175121,0.25844932,-0.4434324,0.7431741,0.50105876,-0.50148267,0.2576258,-0.82592,,0.08977358,1.3490118,0.4850986,0.9960508,0.0027173725,-0.08874392,-0.05380694,-0.77659196,-0.62770194,-0.07062352,0.629998,-0.7733788,,-0.072479196,0.2789638,-0.07627149,0.88133585,0.2830303,0.37833977,-0.24632514,0.95854086,-0.14325993,-0.403201,0.033065505,0.9145139,,0.055132434,0.4435817,-0.37035537,0.86665505,0.4569096,-0.20035625,-0.49793103,0.7670285,-0.40463805,-0.031204045,0.4504452,0.8922586,,0.8198067082633028,-0.08604668968460949,0.15336925506000001,0.637038048305985,0.1186004817964023,0.30441355242180734,0.8707872165618427,,-0.6228461290390809,-0.6842264099234173,0.12753160278,1.4491671994215478,0.22722649910992745,0.789629468470602,0.8676836793052913,,-0.06956664232292899,-0.10125745821601603,0.0886362022,-0.034016912529394594,,-5.6914985e-05,4.2915344e-06,-5.00679e-06,1.0,3.130734e-05,2.5510788e-05,-3.130734e-05,1.0,2.8908253e-06,-2.5499612e-05,-2.8312206e-06,0.99999994,NaN,NaN,NaN,NaN,NaN
1.223094349999883,10:16:28.632551,10:16:10.519653,0,,0.027716786,0.048934452,0.0756356,-0.8671845,-0.36952424,-0.33383045,-0.4916035,0.7422239,0.45544443,0.07947916,0.55906653,-0.8253045,,0.13959381,-0.044383854,0.07339364,-0.7428882,-0.6175121,0.25844932,-0.4434324,0.7431741,0.50105876,-0.50148267,0.2576258,-0.82592,,0.08977358,1.3490118,0.4850986,0.9960508,0.0027173725,-0.08874392,-0.05380694,-0.77659196,-0.62770194,-0.07062352,0.629998,-0.7733788,,-0.07247828,0.27896446,-0.07627154,0.8813346,0.28302667,0.37834537,-0.24632314,0.95854205,-0.14325503,-0.40320495,0.033060398,0.91451234,,0.055132434,0.4435817,-0.37035537,0.86665505,0.4569096,-0.20035625,-0.49793103,0.7670285,-0.40463805,-0.031204045,0.4504452,0.8922586,,0.819814430996177,-0.08604668968460949,0.15336925506000001,0.637038048305985,0.1186004817964023,0.30441355242180734,0.8707872165618427,,-0.6228461290390809,-0.6842264099234173,0.12753160278,1.4491671994215478,0.22722649910992745,0.789629468470602,0.8676836793052913,,-0.06956664232292899,-0.10125745821601603,0.0886362022,-0.034016912529394594,,-5.6914985e-05,4.2915344e-06,-5.00679e-06,1.0,3.130734e-05,2.5510788e-05,-3.130734e-05,1.0,2.8908253e-06,-2.5499612e-05,-2.8312206e-06,0.99999994,NaN,NaN,NaN,NaN,NaN
1.2420990969994818,10:16:28.647707,10:16:10.519653,0,,0.027716786,0.048934452,0.0756356,-0.8671845,-0.36952424,-0.33383045,-0.4916035,0.7422239,0.45544443,0.07947916,0.55906653,-0.8253045,,0.13959381,-0.044383854,0.07339364,-0.7428882,-0.6175121,0.25844932,-0.4434324,0.7431741,0.50105876,-0.50148267,0.2576258,-0.82592,,0.08977358,1.3490118,0.4850986,0.9960508,0.0027173725,-0.08874392,-0.05380694,-0.77659196,-0.62770194,-0.07062352,0.629998,-0.7733788,,-0.07247828,0.27896446,-0.07627154,0.8813346,0.28302667,0.37834537,-0.24632314,0.95854205,-0.14325503,-0.40320495,0.033060398,0.91451234,,0.055132434,0.4435817,-0.37035537,0.86665505,0.4569096,-0.20035625,-0.49793103,0.7670285,-0.40463805,-0.031204045,0.4504452,0.8922586,,0.819814430996177,-0.08604668968460949,0.15336925506000001,0.637038048305985,0.1186004817964023,0.30441355242180734,0.8707872165618427,,-0.6228461290390809,-0.6842264099234173,0.12753160278,1.4491671994215478,0.22722649910992745,0.789629468470602,0.8676836793052913,,-0.06956664232292899,-0.10125745821601603,0.0886362022,-0.034016912529394594,,-5.6914985e-05,4.2915344e-06,-5.00679e-06,1.0,3.130734e-05,2.5510788e-05,-3.130734e-05,1.0,2.8908253e-06,-2.5499612e-05,-2.8312206e-06,0.99999994,NaN,NaN,NaN,NaN,NaN
1.257249240999954,10:16:28.665276,10:16:10.519653,0,,0.027716331,0.048933424,0.07563558,-0.867183,-0.36952463,-0.33383405,-0.4916053,0.7422267,0.45543805,0.07948494,0.55906266,-0.82530653,,0.13959381,-0.044383854,0.07339364,-0.7428882,-0.6175121,0.25844932,-0.4434324,0.7431741,0.50105876,-0.50148267,0.2576258,-0.82592,,0.08977358,1.3490118,0.4850986,0.9960508,0.0027173725,-0.08874392,-0.05380694,-0.77659196,-0.62770194,-0.07062352,0.629998,-0.7733788,,-0.072477765,0.27896369,-0.076272205,0.8813327,0.28302723,0.37834945,-0.24632098,0.95854175,-0.1432609,-0.40321046,0.03306511,0.9145097,,0.055132434,0.4435817,-0.37035537,0.86665505,0.4569096,-0.20035625,-0.49793103,0.7670285,-0.40463805,-0.031204045,0.4504452,0.8922586,,0.819814430996177,-0.08605441241748371,0.15336925506000001,0.637038048305985,0.1186004817964023,0.30441355242180734,0.8707872165618427,,-0.6228461290390809,-0.6842264099234173,0.12753160278,1.4491671994215478,0.22722649910992745,0.789629468470602,0.8676836793052913,,-0.06956664232292899,-0.10125745821601603,0.0886362022,-0.034016912529394594,,-5.6914985e-05,4.2915344e-06,-5.00679e-06,1.0,3.130734e-05,2.5510788e-05,-3.130734e-05,1.0,2.8908253e-06,-2.5499612e-05,-2.8312206e-06,0.99999994,NaN,NaN,NaN,NaN,NaN
1.2748124049994658,10:16:28.680995,10:16:10.519653,0,,0.027717303,0.048933007,0.075635195,-0.8671839,-0.36952794,-0.33382797,-0.4916044,0.74222887,0.4554355,0.07948056,0.55905765,-0.82531035,,0.13959381,-0.044383854,0.07339364,-0.7428882,-0.6175121,0.25844932,-0.4434324,0.7431741,0.50105876,-0.50148267,0.2576258,-0.82592,,0.08977358,1.3490118,0.4850986,0.9960508,0.0027173725,-0.08874392,-0.05380694,-0.77659196,-0.62770194,-0.07062352,0.629998,-0.7733788,,-0.07247868,0.27896303,-0.076272145,0.8813339,0.28303084,0.37834385,-0.24632297,0.9585405,-0.1432658,-0.40320656,0.033070218,0.91451126,,0.055132434,0.4435817,-0.37035537,0.86665505,0.4569096,-0.20035625,-0.49793103,0.7670285,-0.40463805,-0.031204045,0.4504452,0.8922586,,0.8198067082633028,-0.08605441241748371,0.15336925506000001,0.637038048305985,0.1186004817964023,0.30441355242180734,0.8707872165618427,,-0.6228461290390809,-0.6842264099234173,0.12753160278,1.4491671994215478,0.22722649910992745,0.789629468470602,0.8676836793052913,,-0.06956664232292899,-0.10125745821601603,0.0886362022,-0.034016912529394594,,-5.6914985e-05,4.2915344e-06,-5.00679e-06,1.0,3.130734e-05,2.5510788e-05,-3.130734e-05,1.0,2.8908253e-06,-2.5499612e-05,-2.8312206e-06,0.99999994,NaN,NaN,NaN,NaN,NaN
1.2905206409996026,10:16:28.699399,10:16:10.589610,0,,0.027718741,0.048933633,0.07563484,-0.8671863,-0.36953092,-0.33381832,-0.4916017,0.74222827,0.45543945,0.079470396,0.5590565,-0.82531214,,0.13959381,-0.044383854,0.07339364,-0.7428882,-0.6175121,0.25844932,-0.4434324,0.7431741,0.50105876,-0.50148267,0.2576258,-0.82592,,0.08977358,1.3490118,0.4850986,0.9960508,0.0027173725,-0.08874392,-0.05380694,-0.77659196,-0.62770194,-0.07062352,0.629998,-0.7733788,,-0.07248011,0.27896315,-0.07627143,0.88133705,0.28303394,0.3783342,-0.24632715,0.9585396,-0.14326482,-0.4031971,0.033070613,0.91451544,,0.055132434,0.4435817,-0.37035537,0.86665505,0.4569096,-0.20035625,-0.49793103,0.7670285,-0.40463805,-0.031204045,0.4504452,0.8922586,,0.8197989855304286,-0.08604668968460949,0.15336925506000001,0.637038048305985,0.1186004817964023,0.30441355242180734,0.8707872165618427,,-0.6228461290390809,-0.6842264099234173,0.12753160278,1.4491671994215478,0.22722649910992745,0.789629468470602,0.8676836793052913,,-0.06956664232292899,-0.10125745821601603,0.0886362022,-0.034016912529394594,,-5.6914985e-05,4.2915344e-06,-5.00679e-06,1.0,3.130734e-05,2.5510788e-05,-3.130734e-05,1.0,2.8908253e-06,-2.5499612e-05,-2.8312206e-06,0.99999994,NaN,NaN,NaN,NaN,NaN
1.3087679800000842,10:16:28.716498,10:16:10.589610,0,,0.027718741,0.048933633,0.07563484,-0.8671863,-0.36953092,-0.33381832,-0.4916017,0.74222827,0.45543945,0.079470396,0.5590565,-0.82531214,,0.13959381,-0.044383854,0.07339364,-0.7428882,-0.6175121,0.25844932,-0.4434324,0.7431741,0.50105876,-0.50148267,0.2576258,-0.82592,,0.08977358,1.3490118,0.4850986,0.9960508,0.0027173725,-0.08874392,-0.05380694,-0.77659196,-0.62770194,-0.07062352,0.629998,-0.7733788,,-0.07248011,0.27896315,-0.07627143,0.88133705,0.28303394,0.3783342,-0.24632715,0.9585396,-0.14326482,-0.4031971,0.033070613,0.91451544,,0.055132434,0.4435817,-0.37035537,0.86665505,0.4569096,-0.20035625,-0.49793103,0.7670285,-0.40463805,-0.031204045,0.4504452,0.8922586,,0.8197989855304286,-0.08604668968460949,0.15336925506000001,0.637038048305985,0.1186004817964023,0.30441355242180734,0.8707872165618427,,-0.6228461290390809,-0.6842264099234173,0.12753160278,1.4491671994215478,0.22722649910992745,0.789629468470602,0.8676836793052913,,-0.06956664232292899,-0.10125745821601603,0.0886362022,-0.034016912529394594,,-5.6914985e-05,4.2915344e-06,-5.00679e-06,1.0,3.130734e-05,2.5510788e-05,-3.130734e-05,1.0,2.8908253e-06,-2.5499612e-05,-2.8312206e-06,0.99999994,NaN,NaN,NaN,NaN,NaN
1.3260381259997303,10:16:28.732518,10:16:10.589610,0,,0.027716786,0.048934452,0.0756356,-0.8671845,-0.36952424,-0.33383045,-0.4916035,0.7422239,0.45544443,0.07947916,0.55906653,-0.8253045,,0.13959381,-0.044383854,0.07339364,-0.7428882,-0.6175121,0.25844932,-0.4434324,0.7431741,0.50105876,-0.50148267,0.2576258,-0.82592,,0.08977358,1.3490118,0.4850986,0.9960508,0.0027173725,-0.08874392,-0.05380694,-0.77659196,-0.62770194,-0.07062352,0.629998,-0.7733788,,-0.07247828,0.27896446,-0.07627154,0.8813346,0.28302667,0.37834537,-0.24632314,0.95854205,-0.14325503,-0.40320495,0.033060398,0.91451234,,0.055132434,0.4435817,-0.37035537,0.86665505,0.4569096,-0.20035625,-0.49793103,0.7670285,-0.40463805,-0.031204045,0.4504452,0.8922586,,0.819814430996177,-0.08604668968460949,0.15336925506000001,0.637038048305985,0.1186004817964023,0.30441355242180734,0.8707872165618427,,-0.6228461290390809,-0.6842264099234173,0.12753160278,1.4491671994215478,0.22722649910992745,0.789629468470602,0.8676836793052913,,-0.06956664232292899,-0.10125745821601603,0.0886362022,-0.034016912529394594,,-5.6914985e-05,4.2915344e-06,-5.00679e-06,1.0,3.130734e-05,2.5510788e-05,-3.130734e-05,1.0,2.8908253e-06,-2.5499612e-05,-2.8312206e-06,0.99999994,NaN,NaN,NaN,NaN,NaN
1.3420653249995667,10:16:28.748439,10:16:10.589610,0,,0.027717765,0.048934035,0.075635225,-0.8671855,-0.36952758,-0.3338244,-0.4916026,0.7422261,0.4554419,0.07947475,0.5590615,-0.8253083,,0.13959381,-0.044383854,0.07339364,-0.7428882,-0.6175121,0.25844932,-0.4434324,0.7431741,0.50105876,-0.50148267,0.2576258,-0.82592,,0.08977358,1.3490118,0.4850986,0.9960508,0.0027173725,-0.08874392,-0.05380694,-0.77659196,-0.62770194,-0.07062352,0.629998,-0.7733788,,-0.072479196,0.2789638,-0.07627149,0.88133585,0.2830303,0.37833977,-0.24632514,0.95854086,-0.14325993,-0.403201,0.033065505,0.9145139,,0.055132434,0.4435817,-0.37035537,0.86665505,0.4569096,-0.20035625,-0.49793103,0.7670285,-0.40463805,-0.031204045,0.4504452,0.8922586,,0.8198067082633028,-0.08604668968460949,0.15336925506000001,0.637038048305985,0.1186004817964023,0.30441355242180734,0.8707872165618427,,-0.6228461290390809,-0.6842264099234173,0.12753160278,1.4491671994215478,0.22722649910992745,0.789629468470602,0.8676836793052913,,-0.06956664232292899,-0.10125745821601603,0.0886362022,-0.034016912529394594,,-5.6914985e-05,4.2915344e-06,-5.00679e-06,1.0,3.130734e-05,2.5510788e-05,-3.130734e-05,1.0,2.8908253e-06,-2.5499612e-05,-2.8312206e-06,0.99999994,NaN,NaN,NaN,NaN,NaN
