AlexandreBanks6/ExpertPlaybackApp/resources/Motions/PC1/Data_PC1_6.csv
Task Time,PC1 Time,PC2 Time,Gaze Calib,s_T_psm1,Tx,Ty,Tz,R00,R01,R02,R10,R11,R12,R20,R21,R22,s_T_psm3,Tx,Ty,Tz,R00,R01,R02,R10,R11,R12,R20,R21,R22,cart_T_ecm,Tx,Ty,Tz,R00,R01,R02,R10,R11,R12,R20,R21,R22,ecm_T_psm1,Tx,Ty,Tz,R00,R01,R02,R10,R11,R12,R20,R21,R22,ecm_T_psm3,Tx,Ty,Tz,R00,R01,R02,R10,R11,R12,R20,R21,R22,psm1_joints,q1,q2,q3,q4,q5,q6,jaw,psm3_joints,q1,q2,q3,q4,q5,q6,jaw,ecm_joints,q1,q2,q3,q4
""
lci_T_si,,,,,-0.059193056,0.05743593,0.5176609,0.9963552,-0.024019377,0.081849754,0.020475492,-0.8641396,-0.50283545,0.08280741,0.50267863,-0.8604982
rci_T_si,,,,,-0.05063641,0.038468003,0.6849322,0.9999979,-0.0007868036,-0.0018883237,-0.0016241734,-0.86657953,-0.4990363,-0.0012437392,0.4990383,-0.866579
ecm_T_lc,,,,,-0.010503502,0.0353613,-0.35674977,-0.9933329,0.103684954,0.050389625,-0.112544216,-0.96688193,-0.22907005,0.024969695,-0.2332139,0.9721048
ecm_T_rc,,,,,-0.045470465,0.07002666,-0.40169618,-0.98767287,0.15394595,0.028337218,-0.15650986,-0.96815085,-0.19541891,-0.0026492458,-0.19744499,0.9803104
cart_T_ecmi,,,,,0.17635037,1.3281137,0.5574724,0.9922778,-0.056576427,-0.110380545,-0.101520255,-0.8817385,-0.4606852,-0.07126285,0.46833354,-0.8806732
ecmac_T_ecmrep_psm1,,,,,-0.040727746,0.23137592,-0.21310239,0.98627466,0.1643199,0.016164957,-0.16233762,0.9471621,0.2766415,0.03014687,-0.27546868,0.96083724
ecmac_T_ecmrep_psm3,,,,,-0.03207139,0.39064074,-0.46404764,0.9917923,0.12441902,0.029460106,-0.1278581,0.9641174,0.23265849,0.00054414105,-0.23451562,0.9721122
""
0,11:17:10.605125,NaN,0,,0.053875856,-0.00050700456,0.07017386,-0.31403378,0.3897975,-0.86570233,0.59271115,-0.63182163,-0.4994948,-0.7416713,-0.6699697,-0.032623947,,0.032051757,0.044723198,0.049491078,0.046188943,-0.62045854,0.78287774,0.17148212,-0.76715535,-0.61811537,0.9841038,0.16279972,0.07096347,,0.1762944,1.3281275,0.55747277,0.99228036,-0.056551706,-0.11037032,-0.101488166,-0.8817764,-0.46061975,-0.07127311,0.4682652,-0.8807087,,-0.038471118,0.16651106,-0.11249236,0.39214417,-0.4142601,0.82134736,0.14251648,-0.8547231,-0.49913678,0.908797,0.3127891,-0.2761358,,0.0011117259,0.34885097,-0.32786456,-0.11152612,0.55494857,-0.8243749,0.65982145,-0.5789569,-0.47900373,-0.7431,-0.5973617,-0.30159816,,1.3102002457765591,-0.5456110775639617,0.15559498499000002,2.7387603518513726,0.6296209909191496,-0.7976557159222665,-0.1261016190556636,,-0.9284037779406479,-0.31779045777433856,0.18932185821000003,-1.2950450909604225,-1.2342375023812235,1.0198332374728267,0.02188810486199342,,-0.15580336066396883,-0.3093683365622549,0.088225436,0.08275268144170031
0.07713646799675189,11:17:10.710722,NaN,0,,0.053875856,-0.00050700456,0.07017386,-0.31403378,0.3897975,-0.86570233,0.59271115,-0.63182163,-0.4994948,-0.7416713,-0.6699697,-0.032623947,,0.032050762,0.044722423,0.04949078,0.04619465,-0.62045693,0.78287864,0.17148685,-0.76715505,-0.6181143,0.9841027,0.1628071,0.07096182,,0.1762944,1.3281275,0.55747277,0.99228036,-0.056551706,-0.11037032,-0.101488166,-0.8817764,-0.46061975,-0.07127311,0.4682652,-0.8807087,,-0.038471118,0.16651106,-0.11249236,0.39214417,-0.4142601,0.82134736,0.14251648,-0.8547231,-0.49913678,0.908797,0.3127891,-0.2761358,,0.0011126882,0.34885013,-0.3278648,-0.1115314,0.5549464,-0.8243756,0.659825,-0.5789528,-0.4790037,-0.743096,-0.59736764,-0.30159613,,1.3102002457765591,-0.5456110775639617,0.15559498499000002,2.7387603518513726,0.6296209909191496,-0.7976557159222665,-0.1261016190556636,,-0.9283960552077737,-0.31779045777433856,0.18932185821000003,-1.2950450909604225,-1.2342375023812235,1.0198332374728267,0.02188810486199342,,-0.15580336066396883,-0.3093683365622549,0.088225436,0.08275268144170031
0.18273345299530774,11:17:10.798089,11:17:09.609683,0,,0.05386383,-0.00045510381,0.07047024,-0.31422704,0.39019734,-0.8654522,0.5907845,-0.6332269,-0.49999738,-0.7431252,-0.6684084,-0.03154552,,0.032022424,0.044710964,0.049676627,0.0460148,-0.62041736,0.7829207,0.17372829,-0.7668373,-0.6178827,0.983718,0.16444731,0.07249825,,0.1762944,1.3281275,0.55747277,0.99228036,-0.056551706,-0.11037032,-0.101488166,-0.8817764,-0.46061975,-0.07127311,0.4682652,-0.8807087,,-0.038470287,0.16651152,-0.11249245,0.39214945,-0.4142554,0.82134724,0.1425206,-0.8547234,-0.49913502,0.9087941,0.31279442,-0.27613938,,0.001110243,0.3488484,-0.3278666,-0.111583136,0.55528295,-0.824142,0.6597229,-0.5788151,-0.47931072,-0.7431789,-0.59718835,-0.3017469,,1.3102079685094334,-0.5456110775639617,0.15559498499000002,2.7387603518513726,0.6296209909191496,-0.7976557159222665,-0.1261016190556636,,-0.9284037779406479,-0.31779045777433856,0.18932185821000003,-1.2946257110734534,-1.2342375023812235,1.0198332374728267,0.02188810486199342,,-0.15580336066396883,-0.3093683365622549,0.088225436,0.08275268144170031
0.27010088600218296,11:17:10.879632,11:17:09.609683,0,,0.053865835,-0.00045529753,0.070469245,-0.31452936,0.39033657,-0.86527956,0.59081304,-0.63296354,-0.500297,-0.7429746,-0.66857654,-0.03153032,,0.032021426,0.04471019,0.0496763,0.0460205,-0.62041575,0.78292173,0.17373314,-0.76683694,-0.6178818,0.9837169,0.16445476,0.07249658,,0.1762944,1.3281275,0.55747277,0.99228036,-0.056551706,-0.11037032,-0.101488166,-0.8817764,-0.46061975,-0.07127311,0.4682652,-0.8807087,,-0.038472258,0.16651098,-0.11249151,0.39244676,-0.41436535,0.82114977,0.1426018,-0.8545664,-0.49938065,0.908653,0.31307775,-0.27628255,,0.0011112053,0.34884757,-0.32786685,-0.11158841,0.5552808,-0.82414275,0.65972656,-0.57881093,-0.47931072,-0.7431749,-0.5971944,-0.30174488,,1.3102079685094334,-0.5456110775639617,0.15559498499000002,2.7383409719644036,0.6296209909191496,-0.7976557159222665,-0.1261016190556636,,-0.9283960552077737,-0.31779045777433856,0.18932185821000003,-1.2946257110734534,-1.2342375023812235,1.0198332374728267,0.02188810486199342,,-0.15580336066396883,-0.3093683365622549,0.088225436,0.08275268144170031
0.3516441969841253,11:17:10.959656,11:17:09.750475,0,,0.054011974,-0.00036168098,0.07030958,-0.31666204,0.38922203,-0.86500365,0.5900606,-0.6331748,-0.5009174,-0.7426666,-0.6690261,-0.029162154,,0.032087132,0.044774294,0.049535573,0.048189834,-0.6194997,0.7835162,0.17446944,-0.76714766,-0.6172883,0.9834827,0.16644663,0.07111496,,0.1762944,1.3281275,0.55747277,0.99228036,-0.056551706,-0.11037032,-0.101488166,-0.8817764,-0.46061975,-0.07127311,0.4682652,-0.8807087,,-0.03847309,0.16651052,-0.11249143,0.3924415,-0.41437003,0.8211499,0.14259768,-0.85456604,-0.4993824,0.90865594,0.31307244,-0.27627897,,0.0011112053,0.34884757,-0.32786685,-0.11158841,0.5552808,-0.82414275,0.65972656,-0.57881093,-0.47931072,-0.7431749,-0.5971944,-0.30174488,,1.3102002457765591,-0.5456110775639617,0.15559498499000002,2.7383409719644036,0.6296209909191496,-0.7976557159222665,-0.1261016190556636,,-0.9283960552077737,-0.31779045777433856,0.18932185821000003,-1.2946257110734534,-1.2342375023812235,1.0198332374728267,0.02188810486199342,,-0.15580336066396883,-0.3093683365622549,0.088225436,0.08275268144170031
0.43163995098439045,11:17:11.033640,11:17:09.904436,0,,0.05395118,-0.00034676492,0.07031953,-0.31663036,0.38914838,-0.8650484,0.5901063,-0.6331928,-0.5008408,-0.7426437,-0.6690519,-0.029150873,,0.03206473,0.04476586,0.049541682,0.048249,-0.6195254,0.78349227,0.17453843,-0.76710784,-0.6173183,0.9834675,0.16653454,0.07111874,,0.17628975,1.3281254,0.5574605,0.99228364,-0.056523316,-0.11035549,-0.10145622,-0.8817782,-0.46062332,-0.07127311,0.4682652,-0.8807087,,-0.03841169,0.16652507,-0.11249748,0.39241284,-0.41429716,0.8212004,0.14265041,-0.85459816,-0.49931234,0.90866,0.31308115,-0.27625564,,0.0011325023,0.34884322,-0.3278786,-0.111641765,0.55530226,-0.82412106,0.6597786,-0.5787317,-0.47933477,-0.7431207,-0.59725124,-0.3017659,,1.3102002457765591,-0.5456110775639617,0.15559498499000002,2.7383409719644036,0.6296209909191496,-0.7976557159222665,-0.1261016190556636,,-0.9283960552077737,-0.31779045777433856,0.18932185821000003,-1.2946257110734534,-1.2342375023812235,1.0198332374728267,0.02188810486199342,,-0.15580336066396883,-0.3093683365622549,0.088225436,0.08275268144170031
0.5056351819948759,11:17:11.110315,11:17:09.904436,0,,0.053856503,-0.00042731315,0.07033606,-0.31506634,0.38978451,-0.865333,0.5912254,-0.6326317,-0.5002297,-0.7424187,-0.6692124,-0.031129628,,0.032032777,0.044725165,0.049578965,0.046811864,-0.62029576,0.7829698,0.1733022,-0.7668993,-0.61792547,0.9837555,0.16461653,0.071598515,,0.17628975,1.3281254,0.5574605,0.99228364,-0.056523316,-0.11035549,-0.10145622,-0.8817782,-0.46062332,-0.07127311,0.4682652,-0.8807087,,-0.03841169,0.16652507,-0.11249748,0.39241284,-0.41429716,0.8212004,0.14265041,-0.85459816,-0.49931234,0.90866,0.31308115,-0.27625564,,0.0011325023,0.34884322,-0.3278786,-0.111641765,0.55530226,-0.82412106,0.6597786,-0.5787317,-0.47933477,-0.7431207,-0.59725124,-0.3017659,,1.3102002457765591,-0.5456110775639617,0.15559498499000002,2.7383409719644036,0.6296209909191496,-0.7976557159222665,-0.1261016190556636,,-0.9283960552077737,-0.31779045777433856,0.18932185821000003,-1.2946257110734534,-1.2342375023812235,1.0198332374728267,0.02188810486199342,,-0.15580336066396883,-0.3093683365622549,0.088225436,0.08275268144170031
0.5823091479833238,11:17:11.183824,11:17:10.049290,0,,0.053801045,-0.00051049143,0.07054573,-0.31434166,0.39018753,-0.86541504,0.5912074,-0.63279235,-0.50004774,-0.74274033,-0.6688255,-0.03176874,,0.0320025,0.044647634,0.04976538,0.04600954,-0.6202794,0.7830304,0.17353398,-0.7669794,-0.6177611,0.98375255,0.16430521,0.0723511,,0.17628975,1.3281254,0.5574605,0.99228364,-0.056523316,-0.11035549,-0.10145622,-0.8817782,-0.46062332,-0.07127311,0.4682652,-0.8807087,,-0.03841169,0.16652507,-0.11249748,0.39241284,-0.41429716,0.8212004,0.14265041,-0.85459816,-0.49931234,0.90866,0.31308115,-0.27625564,,0.0011339851,0.34884578,-0.32787657,-0.11158476,0.5549679,-0.824354,0.6598771,-0.5788736,-0.47902778,-0.74304175,-0.5974245,-0.30161712,,1.3102002457765591,-0.5456110775639617,0.15559498499000002,2.7383409719644036,0.6296209909191496,-0.7976557159222665,-0.1261016190556636,,-0.9283960552077737,-0.31779045777433856,0.18932185821000003,-1.2950450909604225,-1.2342375023812235,1.0198332374728267,0.02188810486199342,,-0.15580336066396883,-0.3093683365622549,0.088225436,0.08275268144170031
0.6558363759831991,11:17:11.261810,11:17:10.049290,0,,0.05380024,-0.00051006675,0.070546,-0.3143469,0.3901833,-0.865415,0.59121007,-0.63278985,-0.5000479,-0.742736,-0.6688305,-0.031764776,,0.0320025,0.044647634,0.04976538,0.04600954,-0.6202794,0.7830304,0.17353398,-0.7669794,-0.6177611,0.98375255,0.16430521,0.0723511,,0.17628975,1.3281254,0.5574605,0.99228364,-0.056523316,-0.11035549,-0.10145622,-0.8817782,-0.46062332,-0.07127311,0.4682652,-0.8807087,,-0.03841086,0.16652553,-0.11249756,0.3924181,-0.41429248,0.8212002,0.14265454,-0.8545985,-0.49931058,0.9086571,0.31308645,-0.2762592,,0.0011339851,0.34884578,-0.32787657,-0.11158476,0.5549679,-0.824354,0.6598771,-0.5788736,-0.47902778,-0.74304175,-0.5974245,-0.30161712,,1.3102079685094334,-0.5456110775639617,0.15559498499000002,2.7383409719644036,0.6296209909191496,-0.7976557159222665,-0.1261016190556636,,-0.9283960552077737,-0.31779045777433856,0.18932185821000003,-1.2950450909604225,-1.2342375023812235,1.0198332374728267,0.02188810486199342,,-0.15580336066396883,-0.3093683365622549,0.088225436,0.08275268144170031
0.7338131349824835,11:17:11.335740,11:17:10.198378,0,,0.053855695,-0.00042688102,0.07033631,-0.31507158,0.38978022,-0.86533296,0.591228,-0.6326291,-0.5002299,-0.7424144,-0.6692174,-0.031125635,,0.032031544,0.044728532,0.049578488,0.046764426,-0.61998236,0.78322077,0.17343068,-0.76713127,-0.6176014,0.9837351,0.16471615,0.07164943,,0.17628975,1.3281254,0.5574605,0.99228364,-0.056523316,-0.11035549,-0.10145622,-0.8817782,-0.46062332,-0.07127311,0.4682652,-0.8807087,,-0.03841086,0.16652553,-0.11249756,0.3924181,-0.41429248,0.8212002,0.14265454,-0.8545985,-0.49931058,0.9086571,0.31308645,-0.2762592,,0.0011339851,0.34884578,-0.32787657,-0.11158476,0.5549679,-0.824354,0.6598771,-0.5788736,-0.47902778,-0.74304175,-0.5974245,-0.30161712,,1.3102079685094334,-0.5456110775639617,0.15559498499000002,2.7383409719644036,0.6296209909191496,-0.7976557159222665,-0.1261016190556636,,-0.9283960552077737,-0.31779045777433856,0.18932185821000003,-1.2950450909604225,-1.2342375023812235,1.0198332374728267,0.02188810486199342,,-0.15580336066396883,-0.3093683365622549,0.088225436,0.08275268144170031
0.8077519430080429,11:17:11.412878,11:17:10.198378,0,,0.053855695,-0.00042688102,0.07033631,-0.31507158,0.38978022,-0.86533296,0.591228,-0.6326291,-0.5002299,-0.7424144,-0.6692174,-0.031125635,,0.032031544,0.044728532,0.049578488,0.046764426,-0.61998236,0.78322077,0.17343068,-0.76713127,-0.6176014,0.9837351,0.16471615,0.07164943,,0.17628975,1.3281254,0.5574605,0.99228364,-0.056523316,-0.11035549,-0.10145622,-0.8817782,-0.46062332,-0.07127311,0.4682652,-0.8807087,,-0.03841086,0.16652553,-0.11249756,0.3924181,-0.41429248,0.8212002,0.14265454,-0.8545985,-0.49931058,0.9086571,0.31308645,-0.2762592,,0.0011339851,0.34884578,-0.32787657,-0.11158476,0.5549679,-0.824354,0.6598771,-0.5788736,-0.47902778,-0.74304175,-0.5974245,-0.30161712,,1.3102079685094334,-0.5456110775639617,0.15559498499000002,2.7383409719644036,0.6296209909191496,-0.7976557159222665,-0.1261016190556636,,-0.9283960552077737,-0.31779045777433856,0.18932185821000003,-1.2950450909604225,-1.2342375023812235,1.0198332374728267,0.02188810486199342,,-0.15580336066396883,-0.3093683365622549,0.088225436,0.08275268144170031
0.884890989982523,11:17:11.486469,11:17:10.347176,0,,0.053861395,-0.00036849082,0.070311815,-0.3153103,0.38989744,-0.8651933,0.59070563,-0.6329075,-0.50049454,-0.74272877,-0.66888577,-0.03075245,,0.032022405,0.044768646,0.04952976,0.046807908,-0.61974806,0.7834037,0.1740169,-0.7672118,-0.61733615,0.9836296,0.16522163,0.07193497,,0.17628975,1.3281254,0.5574605,0.99228364,-0.056523316,-0.11035549,-0.10145622,-0.8817782,-0.46062332,-0.07127311,0.4682652,-0.8807087,,-0.03841086,0.16652553,-0.11249756,0.3924181,-0.41429248,0.8212002,0.14265454,-0.8545985,-0.49931058,0.9086571,0.31308645,-0.2762592,,0.0011339851,0.34884578,-0.32787657,-0.11158476,0.5549679,-0.824354,0.6598771,-0.5788736,-0.47902778,-0.74304175,-0.5974245,-0.30161712,,1.3102079685094334,-0.5456110775639617,0.15559498499000002,2.7383409719644036,0.6296209909191496,-0.7976557159222665,-0.1261016190556636,,-0.9283960552077737,-0.31779045777433856,0.18932185821000003,-1.2950450909604225,-1.2342375023812235,1.0198332374728267,0.02188810486199342,,-0.15580336066396883,-0.3093683365622549,0.088225436,0.08275268144170031
0.9584820439922623,11:17:11.562729,11:17:10.347176,0,,0.05385939,-0.000368312,0.07031283,-0.3150081,0.38975835,-0.86536604,0.5906772,-0.63317084,-0.5001949,-0.7428797,-0.6687175,-0.030767485,,0.032022405,0.044768646,0.04952976,0.046807908,-0.61974806,0.7834037,0.1740169,-0.7672118,-0.61733615,0.9836296,0.16522163,0.07193497,,0.17628975,1.3281254,0.5574605,0.99228364,-0.056523316,-0.11035549,-0.10145622,-0.8817782,-0.46062332,-0.07127311,0.4682652,-0.8807087,,-0.03840889,0.16652606,-0.1124985,0.39212078,-0.4141825,0.82139766,0.14257331,-0.8547555,-0.49906492,0.9087982,0.31280312,-0.27611604,,0.0011339851,0.34884578,-0.32787657,-0.11158476,0.5549679,-0.824354,0.6598771,-0.5788736,-0.47902778,-0.74304175,-0.5974245,-0.30161712,,1.3102079685094334,-0.5456110775639617,0.15559498499000002,2.7387603518513726,0.6296209909191496,-0.7976557159222665,-0.1261016190556636,,-0.9283960552077737,-0.31779045777433856,0.18932185821000003,-1.2950450909604225,-1.2342375023812235,1.0198332374728267,0.02188810486199342,,-0.15580336066396883,-0.3093683365622549,0.088225436,0.08275268144170031
1.0347117769997567,11:17:11.643650,11:17:10.482926,0,,0.054930292,0.0014568418,0.06924605,-0.33110368,0.37384307,-0.86637855,0.5642048,-0.65751857,-0.49934185,-0.7563354,-0.65414894,0.0067826957,,0.032677446,0.04585646,0.04735303,0.06929813,-0.6169895,0.7839144,0.20901763,-0.7593819,-0.61615807,0.9754535,0.20655042,0.076337844,,0.17628975,1.3281254,0.5574605,0.99228364,-0.056523316,-0.11035549,-0.10145622,-0.8817782,-0.46062332,-0.07127311,0.4682652,-0.8807087,,-0.03840972,0.1665256,-0.11249842,0.3921155,-0.41418722,0.82139784,0.1425692,-0.8547552,-0.49906668,0.9088011,0.3127978,-0.27611244,,0.0011325023,0.34884322,-0.3278786,-0.111641765,0.55530226,-0.82412106,0.6597786,-0.5787317,-0.47933477,-0.7431207,-0.59725124,-0.3017659,,1.3102002457765591,-0.5456110775639617,0.15559498499000002,2.7387603518513726,0.6296209909191496,-0.7976557159222665,-0.1261016190556636,,-0.9283960552077737,-0.31779045777433856,0.18932185821000003,-1.2946257110734534,-1.2342375023812235,1.0198332374728267,0.02188810486199342,,-0.15580336066396883,-0.3093683365622549,0.088225436,0.08275268144170031
1.1156581300019752,11:17:11.725375,11:17:10.482926,0,,0.05492948,0.0014573038,0.06924631,-0.3311088,0.3738387,-0.8663784,0.5642077,-0.657516,-0.4993419,-0.7563311,-0.65415394,0.006786704,,0.032677446,0.04585646,0.04735303,0.06929813,-0.6169895,0.7839144,0.20901763,-0.7593819,-0.61615807,0.9754535,0.20655042,0.076337844,,0.17628975,1.3281254,0.5574605,0.99228364,-0.056523316,-0.11035549,-0.10145622,-0.8817782,-0.46062332,-0.07127311,0.4682652,-0.8807087,,-0.03840889,0.16652606,-0.1124985,0.39212078,-0.4141825,0.82139766,0.14257331,-0.8547555,-0.49906492,0.9087982,0.31280312,-0.27611604,,0.0011325023,0.34884322,-0.3278786,-0.111641765,0.55530226,-0.82412106,0.6597786,-0.5787317,-0.47933477,-0.7431207,-0.59725124,-0.3017659,,1.3102079685094334,-0.5456110775639617,0.15559498499000002,2.7387603518513726,0.6296209909191496,-0.7976557159222665,-0.1261016190556636,,-0.9283960552077737,-0.31779045777433856,0.18932185821000003,-1.2946257110734534,-1.2342375023812235,1.0198332374728267,0.02188810486199342,,-0.15580336066396883,-0.3093683365622549,0.088225436,0.08275268144170031
1.1973620409844443,11:17:11.806813,11:17:10.646267,0,,0.054893844,0.0014465228,0.06916711,-0.3303888,0.3738825,-0.8666345,0.56475663,-0.65737474,-0.4989072,-0.7562362,-0.6542708,0.0060366243,,0.03267587,0.04586853,0.047284067,0.068849444,-0.6174904,0.7835595,0.20848662,-0.7591749,-0.61659306,0.9755988,0.20581377,0.07646966,,0.17628975,1.3281254,0.5574605,0.99228364,-0.056523316,-0.11035549,-0.10145622,-0.8817782,-0.46062332,-0.07127311,0.4682652,-0.8807087,,-0.03840972,0.1665256,-0.11249842,0.3921155,-0.41418722,0.82139784,0.1425692,-0.8547552,-0.49906668,0.9088011,0.3127978,-0.27611244,,0.0011325023,0.34884322,-0.3278786,-0.111641765,0.55530226,-0.82412106,0.6597786,-0.5787317,-0.47933477,-0.7431207,-0.59725124,-0.3017659,,1.3102002457765591,-0.5456110775639617,0.15559498499000002,2.7387603518513726,0.6296209909191496,-0.7976557159222665,-0.1261016190556636,,-0.9283960552077737,-0.31779045777433856,0.18932185821000003,-1.2946257110734534,-1.2342375023812235,1.0198332374728267,0.02188810486199342,,-0.15580336066396883,-0.3093683365622549,0.088225436,0.08275268144170031
1.2788096480071545,11:17:11.880698,11:17:10.646267,0,,0.054893043,0.0014469698,0.069167376,-0.33039394,0.3738781,-0.86663437,0.5647595,-0.65737224,-0.49890724,-0.7562319,-0.6542758,0.0060406327,,0.032677874,0.04587011,0.047284573,0.068838075,-0.61749387,0.7835577,0.20847708,-0.7591759,-0.6165949,0.97560155,0.20579901,0.07647309,,0.17628975,1.3281254,0.5574605,0.99228364,-0.056523316,-0.11035549,-0.10145622,-0.8817782,-0.46062332,-0.07127311,0.4682652,-0.8807087,,-0.03840889,0.16652606,-0.1124985,0.39212078,-0.4141825,0.82139766,0.14257331,-0.8547555,-0.49906492,0.9087982,0.31280312,-0.27611604,,0.0011305776,0.3488449,-0.32787812,-0.11163121,0.55530655,-0.82411957,0.6597713,-0.57873994,-0.47933477,-0.74312866,-0.5972392,-0.3017699,,1.3102079685094334,-0.5456110775639617,0.15559498499000002,2.7387603518513726,0.6296209909191496,-0.7976557159222665,-0.1261016190556636,,-0.9284115006735221,-0.31779045777433856,0.18932185821000003,-1.2946257110734534,-1.2342375023812235,1.0198332374728267,0.02188810486199342,,-0.15580336066396883,-0.3093683365622549,0.088225436,0.08275268144170031
1.352708652993897,11:17:11.961016,11:17:10.785777,0,,0.054849602,0.0014025792,0.06910358,-0.32981467,0.37409526,-0.8667612,0.5656147,-0.6567954,-0.498698,-0.7558454,-0.6547308,0.005026996,,0.032657154,0.04585281,0.04725316,0.06832865,-0.6177996,0.78336126,0.20746669,-0.75923216,-0.61686635,0.97585285,0.20467094,0.076295465,,0.17628975,1.3281254,0.5574605,0.99228364,-0.056523316,-0.11035549,-0.10145622,-0.8817782,-0.46062332,-0.07127311,0.4682652,-0.8807087,,-0.03840889,0.16652606,-0.1124985,0.39212078,-0.4141825,0.82139766,0.14257331,-0.8547555,-0.49906492,0.9087982,0.31280312,-0.27611604,,0.0011315399,0.34884405,-0.32787836,-0.11163649,0.5553044,-0.82412034,0.65977496,-0.5787358,-0.47933477,-0.74312466,-0.5972452,-0.30176792,,1.3102079685094334,-0.5456110775639617,0.15559498499000002,2.7387603518513726,0.6296209909191496,-0.7976557159222665,-0.1261016190556636,,-0.9284037779406479,-0.31779045777433856,0.18932185821000003,-1.2946257110734534,-1.2342375023812235,1.0198332374728267,0.02188810486199342,,-0.15580336066396883,-0.3093683365622549,0.088225436,0.08275268144170031
1.4329912079847418,11:17:12.044243,11:17:10.785777,0,,0.054849602,0.0014025792,0.06910358,-0.32981467,0.37409526,-0.8667612,0.5656147,-0.6567954,-0.498698,-0.7558454,-0.6547308,0.005026996,,0.032657154,0.04585281,0.04725316,0.06832865,-0.6177996,0.78336126,0.20746669,-0.75923216,-0.61686635,0.97585285,0.20467094,0.076295465,,0.17628975,1.3281254,0.5574605,0.99228364,-0.056523316,-0.11035549,-0.10145622,-0.8817782,-0.46062332,-0.07127311,0.4682652,-0.8807087,,-0.03840889,0.16652606,-0.1124985,0.39212078,-0.4141825,0.82139766,0.14257331,-0.8547555,-0.49906492,0.9087982,0.31280312,-0.27611604,,0.0011315399,0.34884405,-0.32787836,-0.11163649,0.5553044,-0.82412034,0.65977496,-0.5787358,-0.47933477,-0.74312466,-0.5972452,-0.30176792,,1.3102079685094334,-0.5456110775639617,0.15559498499000002,2.7387603518513726,0.6296209909191496,-0.7976557159222665,-0.1261016190556636,,-0.9284037779406479,-0.31779045777433856,0.18932185821000003,-1.2946257110734534,-1.2342375023812235,1.0198332374728267,0.02188810486199342,,-0.15580336066396883,-0.3093683365622549,0.088225436,0.08275268144170031
1.5162526220083237,11:17:12.120040,11:17:10.944393,0,,0.054777257,0.0013295189,0.06929028,-0.32858482,0.37436783,-0.8671106,0.5660665,-0.65685976,-0.49810025,-0.75604284,-0.6545104,0.003917098,,0.032589298,0.045772806,0.047442228,0.06734922,-0.6182671,0.7830771,0.20723724,-0.75907326,-0.61713886,0.9759697,0.20384651,0.07700494,,0.17630854,1.3281269,0.55746007,0.99227977,-0.05655657,-0.11037286,-0.101493634,-0.8817761,-0.46061915,-0.07127311,0.4682652,-0.8807087,,-0.038379215,0.16654247,-0.112476945,0.39210314,-0.41419244,0.8214011,0.14257662,-0.85475206,-0.49906993,0.9088053,0.31279945,-0.27609682,,0.0012081134,0.34884092,-0.32788655,-0.111570634,0.55501246,-0.82432586,0.6598544,-0.5788725,-0.47906032,-0.74306405,-0.59738415,-0.30164227,,1.3102079685094334,-0.5456110775639617,0.15559498499000002,2.7387603518513726,0.6296209909191496,-0.7976557159222665,-0.1261016190556636,,-0.9284037779406479,-0.31779045777433856,0.18932185821000003,-1.2950450909604225,-1.2342375023812235,1.0198332374728267,0.02188810486199342,,-0.15580336066396883,-0.3093683365622549,0.088225436,0.08275268144170031
1.5920505590038374,11:17:12.196822,11:17:10.944393,0,,0.054778244,0.0013294071,0.06928977,-0.3287343,0.374436,-0.8670245,0.5660838,-0.65673125,-0.49825,-0.7559648,-0.6546003,0.003927991,,0.032588296,0.045772,0.04744196,0.06735492,-0.6182654,0.7830781,0.20724204,-0.7590728,-0.6171379,0.9759681,0.20385385,0.07700324,,0.17630854,1.3281269,0.55746007,0.99227977,-0.05655657,-0.11037286,-0.101493634,-0.8817761,-0.46061915,-0.07127311,0.4682652,-0.8807087,,-0.0383802,0.1665422,-0.11247648,0.3922518,-0.41424742,0.82130235,0.14261724,-0.85467356,-0.49919274,0.90873474,0.31294113,-0.2761684,,0.0012090758,0.3488401,-0.3278868,-0.11157592,0.5550103,-0.82432663,0.65985805,-0.5788684,-0.47906032,-0.74306,-0.5973901,-0.30164024,,1.3102079685094334,-0.5456110775639617,0.15559498499000002,2.738550661907888,0.6296209909191496,-0.7976557159222665,-0.1261016190556636,,-0.9283960552077737,-0.31779045777433856,0.18932185821000003,-1.2950450909604225,-1.2342375023812235,1.0198332374728267,0.02188810486199342,,-0.15580336066396883,-0.3093683365622549,0.088225436,0.08275268144170031
1.6688137399905827,11:17:12.276045,11:17:11.083279,0,,0.05476395,0.0013321713,0.069306225,-0.32834408,0.37449485,-0.8671469,0.5660027,-0.6569617,-0.4980383,-0.7561952,-0.6543354,0.0037444532,,0.03260033,0.045778647,0.04743707,0.067048885,-0.6186631,0.78279006,0.20750889,-0.75875384,-0.6174404,0.97593266,0.20383462,0.077504486,,0.17630854,1.3281269,0.55746007,0.99227977,-0.05655657,-0.11037286,-0.101493634,-0.8817761,-0.46061915,-0.07127311,0.4682652,-0.8807087,,-0.038382016,0.16654147,-0.11247593,0.3923952,-0.4143071,0.82120377,0.14265372,-0.8545947,-0.49931732,0.90866715,0.31307748,-0.27623641,,0.0012081134,0.34884092,-0.32788655,-0.111570634,0.55501246,-0.82432586,0.6598544,-0.5788725,-0.47906032,-0.74306405,-0.59738415,-0.30164227,,1.3102002457765591,-0.5456110775639617,0.15559498499000002,2.7383409719644036,0.6296209909191496,-0.7976557159222665,-0.1261016190556636,,-0.9284037779406479,-0.31779045777433856,0.18932185821000003,-1.2950450909604225,-1.2342375023812235,1.0198332374728267,0.02188810486199342,,-0.15580336066396883,-0.3093683365622549,0.088225436,0.08275268144170031
1.7480419369821902,11:17:12.353239,11:17:11.083279,0,,0.05476395,0.0013321713,0.069306225,-0.32834408,0.37449485,-0.8671469,0.5660027,-0.6569617,-0.4980383,-0.7561952,-0.6543354,0.0037444532,,0.032599322,0.045777842,0.047436833,0.067054585,-0.6186614,0.782791,0.20751366,-0.7587533,-0.6174395,0.9759312,0.20384195,0.07750279,,0.17630854,1.3281269,0.55746007,0.99227977,-0.05655657,-0.11037286,-0.101493634,-0.8817761,-0.46061915,-0.07127311,0.4682652,-0.8807087,,-0.038382016,0.16654147,-0.11247593,0.3923952,-0.4143071,0.82120377,0.14265372,-0.8545947,-0.49931732,0.90866715,0.31307748,-0.27623641,,0.0012090758,0.3488401,-0.3278868,-0.11157592,0.5550103,-0.82432663,0.65985805,-0.5788684,-0.47906032,-0.74306,-0.5973901,-0.30164024,,1.3102002457765591,-0.5456110775639617,0.15559498499000002,2.7383409719644036,0.6296209909191496,-0.7976557159222665,-0.1261016190556636,,-0.9283960552077737,-0.31779045777433856,0.18932185821000003,-1.2950450909604225,-1.2342375023812235,1.0198332374728267,0.02188810486199342,,-0.15580336066396883,-0.3093683365622549,0.088225436,0.08275268144170031
1.825250428984873,11:17:12.436657,11:17:11.249543,0,,0.05480681,0.0013790578,0.069373846,-0.32891867,0.3742868,-0.86701894,0.5651053,-0.6575718,-0.4982522,-0.75661653,-0.65384144,0.0047761947,,0.03261849,0.04579559,0.04746923,0.067559525,-0.6183534,0.78299093,0.2085815,-0.7586889,-0.6171586,0.97566867,0.20501232,0.077720374,,0.17630854,1.3281269,0.55746007,0.99227977,-0.05655657,-0.11037286,-0.101493634,-0.8817761,-0.46061915,-0.07127311,0.4682652,-0.8807087,,-0.038382016,0.16654147,-0.11247593,0.3923952,-0.4143071,0.82120377,0.14265372,-0.8545947,-0.49931732,0.90866715,0.31307748,-0.27623641,,0.0012090758,0.3488401,-0.3278868,-0.11157592,0.5550103,-0.82432663,0.65985805,-0.5788684,-0.47906032,-0.74306,-0.5973901,-0.30164024,,1.3102002457765591,-0.5456110775639617,0.15559498499000002,2.7383409719644036,0.6296209909191496,-0.7976557159222665,-0.1261016190556636,,-0.9283960552077737,-0.31779045777433856,0.18932185821000003,-1.2950450909604225,-1.2342375023812235,1.0198332374728267,0.02188810486199342,,-0.15580336066396883,-0.3093683365622549,0.088225436,0.08275268144170031
1.9086684839858208,11:17:12.512186,11:17:11.249543,0,,0.05480681,0.0013790578,0.069373846,-0.32891867,0.3742868,-0.86701894,0.5651053,-0.6575718,-0.4982522,-0.75661653,-0.65384144,0.0047761947,,0.03261849,0.04579559,0.04746923,0.067559525,-0.6183534,0.78299093,0.2085815,-0.7586889,-0.6171586,0.97566867,0.20501232,0.077720374,,0.17630854,1.3281269,0.55746007,0.99227977,-0.05655657,-0.11037286,-0.101493634,-0.8817761,-0.46061915,-0.07127311,0.4682652,-0.8807087,,-0.038382016,0.16654147,-0.11247593,0.3923952,-0.4143071,0.82120377,0.14265372,-0.8545947,-0.49931732,0.90866715,0.31307748,-0.27623641,,0.0012090758,0.3488401,-0.3278868,-0.11157592,0.5550103,-0.82432663,0.65985805,-0.5788684,-0.47906032,-0.74306,-0.5973901,-0.30164024,,1.3102002457765591,-0.5456110775639617,0.15559498499000002,2.7383409719644036,0.6296209909191496,-0.7976557159222665,-0.1261016190556636,,-0.9283960552077737,-0.31779045777433856,0.18932185821000003,-1.2950450909604225,-1.2342375023812235,1.0198332374728267,0.02188810486199342,,-0.15580336066396883,-0.3093683365622549,0.088225436,0.08275268144170031
1.9841980779892765,11:17:12.594973,11:17:11.389447,0,,0.05471396,0.0013348684,0.06959313,-0.32746333,0.37511644,-0.8672113,0.5649327,-0.65796584,-0.4979277,-0.7573763,-0.6529691,0.0035441667,,0.03258244,0.0457488,0.047635347,0.06606222,-0.6192919,0.7823766,0.20880288,-0.75814986,-0.617746,0.975724,0.20417216,0.079224885,,0.17630854,1.3281269,0.55746007,0.99227977,-0.05655657,-0.11037286,-0.101493634,-0.8817761,-0.46061915,-0.07127311,0.4682652,-0.8807087,,-0.038381185,0.16654193,-0.11247601,0.39240044,-0.4143024,0.82120365,0.14265783,-0.85459507,-0.4993156,0.9086642,0.31308278,-0.27624,,0.0012056683,0.3488392,-0.32788834,-0.111622356,0.555349,-0.8240922,0.6597523,-0.57873476,-0.47936732,-0.74314696,-0.5972048,-0.30179304,,1.3102079685094334,-0.5456110775639617,0.15559498499000002,2.7383409719644036,0.6296209909191496,-0.7976557159222665,-0.1261016190556636,,-0.9284115006735221,-0.31779045777433856,0.18932185821000003,-1.2946257110734534,-1.2342375023812235,1.0198332374728267,0.02188810486199342,,-0.15580336066396883,-0.3093683365622549,0.088225436,0.08275268144170031
2.066975811001612,11:17:12.679430,11:17:11.544089,0,,0.054758884,0.0014090091,0.0696321,-0.32814595,0.37485114,-0.8670678,0.5637227,-0.65882266,-0.498166,-0.7579821,-0.6522571,0.00487788,,0.0325967,0.045783207,0.04762423,0.06669514,-0.61893153,0.782608,0.21026638,-0.75802183,-0.6174066,0.9753665,0.20573413,0.07958411,,0.17630854,1.3281269,0.55746007,0.99227977,-0.05655657,-0.11037286,-0.101493634,-0.8817761,-0.46061915,-0.07127311,0.4682652,-0.8807087,,-0.038382016,0.16654147,-0.11247593,0.3923952,-0.4143071,0.82120377,0.14265372,-0.8545947,-0.49931732,0.90866715,0.31307748,-0.27623641,,0.0012075931,0.34883752,-0.32788885,-0.11163292,0.55534464,-0.8240937,0.6597595,-0.57872653,-0.4793673,-0.7431389,-0.59721684,-0.30178902,,1.3102002457765591,-0.5456110775639617,0.15559498499000002,2.7383409719644036,0.6296209909191496,-0.7976557159222665,-0.1261016190556636,,-0.9283960552077737,-0.31779045777433856,0.18932185821000003,-1.2946257110734534,-1.2342375023812235,1.0198332374728267,0.02188810486199342,,-0.15580336066396883,-0.3093683365622549,0.088225436,0.08275268144170031
2.1514376089908183,11:17:12.754722,11:17:11.544089,0,,0.05475808,0.0014094561,0.06963235,-0.32815108,0.37484676,-0.8670678,0.56372553,-0.6588202,-0.49816602,-0.7579777,-0.6522621,0.004881859,,0.032597702,0.04578401,0.0476245,0.06668944,-0.6189334,0.7826071,0.21026161,-0.7580223,-0.61740756,0.9753678,0.20572677,0.07958582,,0.17630854,1.3281269,0.55746007,0.99227977,-0.05655657,-0.11037286,-0.101493634,-0.8817761,-0.46061915,-0.07127311,0.4682652,-0.8807087,,-0.038381185,0.16654193,-0.11247601,0.39240044,-0.4143024,0.82120365,0.14265783,-0.85459507,-0.4993156,0.9086642,0.31308278,-0.27624,,0.0012066307,0.34883836,-0.3278886,-0.11162764,0.55534685,-0.8240929,0.6597559,-0.57873064,-0.4793673,-0.7431429,-0.5972108,-0.301791,,1.3102079685094334,-0.5456110775639617,0.15559498499000002,2.7383409719644036,0.6296209909191496,-0.7976557159222665,-0.1261016190556636,,-0.9284037779406479,-0.31779045777433856,0.18932185821000003,-1.2946257110734534,-1.2342375023812235,1.0198332374728267,0.02188810486199342,,-0.15580336066396883,-0.3093683365622549,0.088225436,0.08275268144170031
2.2267321039980743,11:17:12.834360,11:17:11.680653,0,,0.05478515,0.0013581216,0.069523275,-0.3279654,0.37420297,-0.8674162,0.5647001,-0.65844214,-0.4975617,-0.7573324,-0.653013,0.0046337694,,0.032632545,0.045766786,0.047576398,0.06717698,-0.6191178,0.7824195,0.20908523,-0.7580435,-0.617781,0.9755872,0.20509294,0.078525275,,0.17630854,1.3281269,0.55746007,0.99227977,-0.05655657,-0.11037286,-0.101493634,-0.8817761,-0.46061915,-0.07127311,0.4682652,-0.8807087,,-0.038380045,0.16654201,-0.11247686,0.39209786,-0.41419712,0.82140124,0.14257249,-0.85475177,-0.49907166,0.9088082,0.31279415,-0.2760932,,0.0012066307,0.34883836,-0.3278886,-0.11162764,0.55534685,-0.8240929,0.6597559,-0.57873064,-0.4793673,-0.7431429,-0.5972108,-0.301791,,1.3102002457765591,-0.5456110775639617,0.15559498499000002,2.7387603518513726,0.6296209909191496,-0.7976557159222665,-0.1261016190556636,,-0.9284037779406479,-0.31779045777433856,0.18932185821000003,-1.2946257110734534,-1.2342375023812235,1.0198332374728267,0.02188810486199342,,-0.15580336066396883,-0.3093683365622549,0.088225436,0.08275268144170031
2.306364058982581,11:17:12.914776,11:17:11.680653,0,,0.05478515,0.0013581216,0.069523275,-0.3279654,0.37420297,-0.8674162,0.5647001,-0.65844214,-0.4975617,-0.7573324,-0.653013,0.0046337694,,0.03263355,0.045767605,0.047576636,0.067171276,-0.6191195,0.7824186,0.20908046,-0.758044,-0.61778194,0.9755887,0.20508555,0.07852699,,0.17630854,1.3281269,0.55746007,0.99227977,-0.05655657,-0.11037286,-0.101493634,-0.8817761,-0.46061915,-0.07127311,0.4682652,-0.8807087,,-0.038380045,0.16654201,-0.11247686,0.39209786,-0.41419712,0.82140124,0.14257249,-0.85475177,-0.49907166,0.9088082,0.31279415,-0.2760932,,0.0012056683,0.3488392,-0.32788834,-0.111622356,0.555349,-0.8240922,0.6597523,-0.57873476,-0.47936732,-0.74314696,-0.5972048,-0.30179304,,1.3102002457765591,-0.5456110775639617,0.15559498499000002,2.7387603518513726,0.6296209909191496,-0.7976557159222665,-0.1261016190556636,,-0.9284115006735221,-0.31779045777433856,0.18932185821000003,-1.2946257110734534,-1.2342375023812235,1.0198332374728267,0.02188810486199342,,-0.15580336066396883,-0.3093683365622549,0.088225436,0.08275268144170031
2.386788581003202,11:17:12.987611,11:17:11.828215,0,,0.054821853,0.0014134124,0.06958565,-0.32869336,0.3741592,-0.8671595,0.56373644,-0.65893763,-0.4979983,-0.75773466,-0.6525382,0.0056612045,,0.032631613,0.045790225,0.047604173,0.067595415,-0.6182954,0.7830338,0.21027756,-0.7583711,-0.61697364,0.9753021,0.20635882,0.07875115,,0.17630854,1.3281269,0.55746007,0.99227977,-0.05655657,-0.11037286,-0.101493634,-0.8817761,-0.46061915,-0.07127311,0.4682652,-0.8807087,,-0.038380045,0.16654201,-0.11247686,0.39209786,-0.41419712,0.82140124,0.14257249,-0.85475177,-0.49907166,0.9088082,0.31279415,-0.2760932,,0.0012090758,0.3488401,-0.3278868,-0.11157592,0.5550103,-0.82432663,0.65985805,-0.5788684,-0.47906032,-0.74306,-0.5973901,-0.30164024,,1.3102002457765591,-0.5456110775639617,0.15559498499000002,2.7387603518513726,0.6296209909191496,-0.7976557159222665,-0.1261016190556636,,-0.9283960552077737,-0.31779045777433856,0.18932185821000003,-1.2950450909604225,-1.2342375023812235,1.0198332374728267,0.02188810486199342,,-0.15580336066396883,-0.3093683365622549,0.088225436,0.08275268144170031
2.459622820984805,11:17:13.067159,11:17:11.828215,0,,0.054821048,0.0014138743,0.069585904,-0.3286985,0.37415478,-0.86715955,0.5637393,-0.6589352,-0.49799836,-0.75773036,-0.6525432,0.005665228,,0.03263261,0.045791015,0.04760441,0.067589715,-0.6182971,0.7830328,0.21027273,-0.7583718,-0.61697453,0.97530353,0.20635152,0.078752846,,0.17630854,1.3281269,0.55746007,0.99227977,-0.05655657,-0.11037286,-0.101493634,-0.8817761,-0.46061915,-0.07127311,0.4682652,-0.8807087,,-0.038379215,0.16654247,-0.112476945,0.39210314,-0.41419244,0.8214011,0.14257662,-0.85475206,-0.49906993,0.9088053,0.31279945,-0.27609682,,0.0012081134,0.34884092,-0.32788655,-0.111570634,0.55501246,-0.82432586,0.6598544,-0.5788725,-0.47906032,-0.74306405,-0.59738415,-0.30164227,,1.3102079685094334,-0.5456110775639617,0.15559498499000002,2.7387603518513726,0.6296209909191496,-0.7976557159222665,-0.1261016190556636,,-0.9284037779406479,-0.31779045777433856,0.18932185821000003,-1.2950450909604225,-1.2342375023812235,1.0198332374728267,0.02188810486199342,,-0.15580336066396883,-0.3093683365622549,0.088225436,0.08275268144170031
2.539170906995423,11:17:13.144497,11:17:11.980750,0,,0.054762766,0.0013613701,0.06965345,-0.32746255,0.37442318,-0.86751103,0.56412005,-0.659064,-0.49739653,-0.757982,-0.652259,0.004599184,,0.03262867,0.04575759,0.04765594,0.066655345,-0.6190516,0.78251654,0.2100344,-0.7579826,-0.6175336,0.97541916,0.2055172,0.079498485,,0.17630854,1.3281269,0.55746007,0.99227977,-0.05655657,-0.11037286,-0.101493634,-0.8817761,-0.46061915,-0.07127311,0.4682652,-0.8807087,,-0.038379215,0.16654247,-0.112476945,0.39210314,-0.41419244,0.8214011,0.14257662,-0.85475206,-0.49906993,0.9088053,0.31279945,-0.27609682,,0.0012090758,0.3488401,-0.3278868,-0.11157592,0.5550103,-0.82432663,0.65985805,-0.5788684,-0.47906032,-0.74306,-0.5973901,-0.30164024,,1.3102079685094334,-0.5456110775639617,0.15559498499000002,2.7387603518513726,0.6296209909191496,-0.7976557159222665,-0.1261016190556636,,-0.9283960552077737,-0.31779045777433856,0.18932185821000003,-1.2950450909604225,-1.2342375023812235,1.0198332374728267,0.02188810486199342,,-0.15580336066396883,-0.3093683365622549,0.088225436,0.08275268144170031
2.6164931590028573,11:17:13.218346,11:17:11.980750,0,,0.054762766,0.0013613701,0.06965345,-0.32746255,0.37442318,-0.86751103,0.56412005,-0.659064,-0.49739653,-0.757982,-0.652259,0.004599184,,0.03262867,0.04575759,0.04765594,0.066655345,-0.6190516,0.78251654,0.2100344,-0.7579826,-0.6175336,0.97541916,0.2055172,0.079498485,,0.17630854,1.3281269,0.55746007,0.99227977,-0.05655657,-0.11037286,-0.101493634,-0.8817761,-0.46061915,-0.07127311,0.4682652,-0.8807087,,-0.038379215,0.16654247,-0.112476945,0.39210314,-0.41419244,0.8214011,0.14257662,-0.85475206,-0.49906993,0.9088053,0.31279945,-0.27609682,,0.0012090758,0.3488401,-0.3278868,-0.11157592,0.5550103,-0.82432663,0.65985805,-0.5788684,-0.47906032,-0.74306,-0.5973901,-0.30164024,,1.3102079685094334,-0.5456110775639617,0.15559498499000002,2.7387603518513726,0.6296209909191496,-0.7976557159222665,-0.1261016190556636,,-0.9283960552077737,-0.31779045777433856,0.18932185821000003,-1.2950450909604225,-1.2342375023812235,1.0198332374728267,0.02188810486199342,,-0.15580336066396883,-0.3093683365622549,0.088225436,0.08275268144170031
2.6903570639842656,11:17:13.299760,11:17:12.116891,0,,0.054691322,0.0011937618,0.070074275,-0.32532325,0.3756805,-0.8677724,0.56391585,-0.659572,-0.4969544,-0.75905436,-0.6510214,0.0027219206,,0.032593668,0.045587167,0.048015684,0.064402215,-0.61999696,0.7819565,0.21053648,-0.75750446,-0.6179493,0.9754622,0.2044276,0.081746936,,0.1762679,1.3281294,0.5574628,0.9922842,-0.056518476,-0.11035296,-0.10145077,-0.88177854,-0.46062392,-0.07127311,0.4682652,-0.8807087,,-0.038456563,0.16649975,-0.11248299,0.39215472,-0.41421556,0.8213648,0.1425816,-0.85472554,-0.49911398,0.90878224,0.31284142,-0.27612516,,0.0011748994,0.348798,-0.3279129,-0.11160398,0.5550161,-0.8243189,0.65988785,-0.57882786,-0.47906813,-0.7430293,-0.597424,-0.3016489,,1.3102079685094334,-0.5456110775639617,0.15559498499000002,2.7387603518513726,0.6296209909191496,-0.7976557159222665,-0.1261016190556636,,-0.9283960552077737,-0.31779045777433856,0.18932185821000003,-1.2950450909604225,-1.2342375023812235,1.0198332374728267,0.02188810486199342,,-0.15580336066396883,-0.3093683365622549,0.088225436,0.08275268144170031
2.7717713360034395,11:17:13.380304,11:17:12.116891,0,,0.054692123,0.0011932999,0.07007402,-0.32531813,0.3756849,-0.8677724,0.563913,-0.65957445,-0.4969544,-0.75905865,-0.65101635,0.0027179122,,0.032594286,0.04558547,0.048015982,0.06442587,-0.620154,0.78183,0.21047255,-0.75738984,-0.61811167,0.9754745,0.20437598,0.08172983,,0.1762679,1.3281294,0.5574628,0.9922842,-0.056518476,-0.11035296,-0.10145077,-0.88177854,-0.46062392,-0.07127311,0.4682652,-0.8807087,,-0.038457394,0.16649929,-0.112482905,0.39214948,-0.41422024,0.82136494,0.14257748,-0.8547252,-0.49911574,0.90878516,0.3128361,-0.27612156,,0.001174158,0.34879673,-0.32791394,-0.11163249,0.5551833,-0.8242025,0.6598386,-0.578757,-0.4792216,-0.74306875,-0.5973373,-0.3017233,,1.3102002457765591,-0.5456110775639617,0.15559498499000002,2.7387603518513726,0.6296209909191496,-0.7976557159222665,-0.1261016190556636,,-0.9283960552077737,-0.31779045777433856,0.18932185821000003,-1.2948354010169378,-1.2342375023812235,1.0198332374728267,0.02188810486199342,,-0.15580336066396883,-0.3093683365622549,0.088225436,0.08275268144170031
2.8523152339912485,11:17:13.455277,11:17:12.264478,0,,0.054687772,0.0010721982,0.07027519,-0.32509816,0.37563533,-0.86787635,0.5643419,-0.65934294,-0.49677467,-0.7588343,-0.65127945,0.0023645014,,0.032602772,0.045477822,0.048235595,0.064361684,-0.6204965,0.7815636,0.2099312,-0.7572428,-0.6184757,0.9755955,0.20388058,0.081524044,,0.1762679,1.3281294,0.5574628,0.9922842,-0.056518476,-0.11035296,-0.10145077,-0.88177854,-0.46062392,-0.07127311,0.4682652,-0.8807087,,-0.038457394,0.16649929,-0.112482905,0.39214948,-0.41422024,0.82136494,0.14257748,-0.8547252,-0.49911574,0.90878516,0.3128361,-0.27612156,,0.0011734167,0.34879544,-0.32791495,-0.11166098,0.5553505,-0.82408595,0.6597894,-0.578686,-0.4793751,-0.7431082,-0.59725064,-0.3017977,,1.3102002457765591,-0.5456110775639617,0.15559498499000002,2.7387603518513726,0.6296209909191496,-0.7976557159222665,-0.1261016190556636,,-0.9283960552077737,-0.31779045777433856,0.18932185821000003,-1.2946257110734534,-1.2342375023812235,1.0198332374728267,0.02188810486199342,,-0.15580336066396883,-0.3093683365622549,0.088225436,0.08275268144170031
2.9272889730054885,11:17:13.535716,11:17:12.264478,0,,0.054688953,0.0010724068,0.07027441,-0.3254028,0.37576827,-0.86770463,0.56438017,-0.6590842,-0.49707443,-0.7586752,-0.65146464,0.0023917109,,0.032602772,0.045477822,0.048235595,0.064361684,-0.6204965,0.7815636,0.2099312,-0.7572428,-0.6184757,0.9755955,0.20388058,0.081524044,,0.1762679,1.3281294,0.5574628,0.9922842,-0.056518476,-0.11035296,-0.10145077,-0.88177854,-0.46062392,-0.07127311,0.4682652,-0.8807087,,-0.038458534,0.16649921,-0.11248205,0.39245206,-0.4143255,0.82116735,0.1426628,-0.8545685,-0.49935964,0.90864116,0.31312475,-0.2762683,,0.0011734167,0.34879544,-0.32791495,-0.11166098,0.5553505,-0.82408595,0.6597894,-0.578686,-0.4793751,-0.7431082,-0.59725064,-0.3017977,,1.3102079685094334,-0.5456110775639617,0.15559498499000002,2.7383409719644036,0.6296209909191496,-0.7976557159222665,-0.1261016190556636,,-0.9283960552077737,-0.31779045777433856,0.18932185821000003,-1.2946257110734534,-1.2342375023812235,1.0198332374728267,0.02188810486199342,,-0.15580336066396883,-0.3093683365622549,0.088225436,0.08275268144170031
3.0077144450042397,11:17:13.615688,11:17:12.410824,0,,0.05469441,0.0011306405,0.07024859,-0.32564354,0.37589312,-0.86756015,0.5638432,-0.6593551,-0.49732447,-0.7589711,-0.6511185,0.002769947,,0.032593124,0.04551673,0.048186064,0.0644,-0.6202561,0.7817512,0.21051875,-0.7573036,-0.6182014,0.97546625,0.20438543,0.08180514,,0.1762679,1.3281294,0.5574628,0.9922842,-0.056518476,-0.11035296,-0.10145077,-0.88177854,-0.46062392,-0.07127311,0.4682652,-0.8807087,,-0.038458534,0.16649921,-0.11248205,0.39245206,-0.4143255,0.82116735,0.1426628,-0.8545685,-0.49935964,0.90864116,0.31312475,-0.2762683,,0.0011734167,0.34879544,-0.32791495,-0.11166098,0.5553505,-0.82408595,0.6597894,-0.578686,-0.4793751,-0.7431082,-0.59725064,-0.3017977,,1.3102079685094334,-0.5456110775639617,0.15559498499000002,2.7383409719644036,0.6296209909191496,-0.7976557159222665,-0.1261016190556636,,-0.9283960552077737,-0.31779045777433856,0.18932185821000003,-1.2946257110734534,-1.2342375023812235,1.0198332374728267,0.02188810486199342,,-0.15580336066396883,-0.3093683365622549,0.088225436,0.08275268144170031
3.0876787760062143,11:17:13.691437,11:17:12.547429,0,,0.054603163,0.0010319129,0.0704782,-0.32405698,0.37652853,-0.8678786,0.564208,-0.65945745,-0.4967746,-0.7593789,-0.6506474,0.001261428,,0.032565765,0.045436665,0.048389286,0.06295434,-0.6210662,0.7812256,0.21027425,-0.75695264,-0.6187142,0.97561324,0.20322233,0.08294076,,0.1762679,1.3281294,0.5574628,0.9922842,-0.056518476,-0.11035296,-0.10145077,-0.88177854,-0.46062392,-0.07127311,0.4682652,-0.8807087,,-0.038458534,0.16649921,-0.11248205,0.39245206,-0.4143255,0.82116735,0.1426628,-0.8545685,-0.49935964,0.90864116,0.31312475,-0.2762683,,0.0011734167,0.34879544,-0.32791495,-0.11166098,0.5553505,-0.82408595,0.6597894,-0.578686,-0.4793751,-0.7431082,-0.59725064,-0.3017977,,1.3102079685094334,-0.5456110775639617,0.15559498499000002,2.7383409719644036,0.6296209909191496,-0.7976557159222665,-0.1261016190556636,,-0.9283960552077737,-0.31779045777433856,0.18932185821000003,-1.2946257110734534,-1.2342375023812235,1.0198332374728267,0.02188810486199342,,-0.15580336066396883,-0.3093683365622549,0.088225436,0.08275268144170031
3.163386216998333,11:17:13.771501,11:17:12.547429,0,,0.054603163,0.0010319129,0.0704782,-0.32405698,0.37652853,-0.8678786,0.564208,-0.65945745,-0.4967746,-0.7593789,-0.6506474,0.001261428,,0.032567766,0.045438215,0.048389792,0.06294292,-0.62106967,0.7812238,0.2102648,-0.75695384,-0.618716,0.975616,0.20320758,0.08294417,,0.1762679,1.3281294,0.5574628,0.9922842,-0.056518476,-0.11035296,-0.10145077,-0.88177854,-0.46062392,-0.07127311,0.4682652,-0.8807087,,-0.038458534,0.16649921,-0.11248205,0.39245206,-0.4143255,0.82116735,0.1426628,-0.8545685,-0.49935964,0.90864116,0.31312475,-0.2762683,,0.001171492,0.34879708,-0.32791448,-0.11165042,0.5553548,-0.82408446,0.6597821,-0.5786943,-0.4793751,-0.7431162,-0.59723866,-0.3018017,,1.3102079685094334,-0.5456110775639617,0.15559498499000002,2.7383409719644036,0.6296209909191496,-0.7976557159222665,-0.1261016190556636,,-0.9284115006735221,-0.31779045777433856,0.18932185821000003,-1.2946257110734534,-1.2342375023812235,1.0198332374728267,0.02188810486199342,,-0.15580336066396883,-0.3093683365622549,0.088225436,0.08275268144170031
3.243511729000602,11:17:13.863403,11:17:12.693015,0,,0.054496508,0.00094923377,0.070613444,-0.32297984,0.3776767,-0.8677812,0.56492937,-0.6587106,-0.49694595,-0.7593016,-0.6507386,-0.00061042607,,0.03248468,0.045376584,0.048535526,0.061333038,-0.6209217,0.7814694,0.20940092,-0.7575145,-0.61832285,0.97590435,0.20156398,0.083560884,,0.1762679,1.3281294,0.5574628,0.9922842,-0.056518476,-0.11035296,-0.10145077,-0.88177854,-0.46062392,-0.07127311,0.4682652,-0.8807087,,-0.038458534,0.16649921,-0.11248205,0.39245206,-0.4143255,0.82116735,0.1426628,-0.8545685,-0.49935964,0.90864116,0.31312475,-0.2762683,,0.001173937,0.3487988,-0.32791266,-0.1115987,0.5550183,-0.8243182,0.6598843,-0.57883203,-0.47906813,-0.7430333,-0.59741795,-0.3016509,,1.3102079685094334,-0.5456110775639617,0.15559498499000002,2.7383409719644036,0.6296209909191496,-0.7976557159222665,-0.1261016190556636,,-0.9284037779406479,-0.31779045777433856,0.18932185821000003,-1.2950450909604225,-1.2342375023812235,1.0198332374728267,0.02188810486199342,,-0.15580336066396883,-0.3093683365622549,0.088225436,0.08275268144170031
3.33537721898756,11:17:13.945583,11:17:12.693015,0,,0.054496508,0.00094923377,0.070613444,-0.32297984,0.3776767,-0.8677812,0.56492937,-0.6587106,-0.49694595,-0.7593016,-0.6507386,-0.00061042607,,0.032483682,0.04537584,0.048535287,0.061338745,-0.62092,0.7814703,0.20940566,-0.7575139,-0.6183219,0.97590303,0.20157135,0.0835592,,0.1762679,1.3281294,0.5574628,0.9922842,-0.056518476,-0.11035296,-0.10145077,-0.88177854,-0.46062392,-0.07127311,0.4682652,-0.8807087,,-0.038458534,0.16649921,-0.11248205,0.39245206,-0.4143255,0.82116735,0.1426628,-0.8545685,-0.49935964,0.90864116,0.31312475,-0.2762683,,0.0011748994,0.348798,-0.3279129,-0.11160398,0.5550161,-0.8243189,0.65988785,-0.57882786,-0.47906813,-0.7430293,-0.597424,-0.3016489,,1.3102079685094334,-0.5456110775639617,0.15559498499000002,2.7383409719644036,0.6296209909191496,-0.7976557159222665,-0.1261016190556636,,-0.9283960552077737,-0.31779045777433856,0.18932185821000003,-1.2950450909604225,-1.2342375023812235,1.0198332374728267,0.02188810486199342,,-0.15580336066396883,-0.3093683365622549,0.088225436,0.08275268144170031
3.4175900899863336,11:17:14.025255,11:17:12.848264,0,,0.054502185,0.0008559078,0.07053287,-0.32291585,0.37743902,-0.8679086,0.5662812,-0.6577177,-0.49672225,-0.7583212,-0.6518798,-0.0013491511,,0.032498393,0.04532495,0.048531413,0.061495952,-0.62109244,0.78132087,0.20775717,-0.7576911,-0.6186606,0.9762454,0.20037022,0.08244151,,0.1762679,1.3281294,0.5574628,0.9922842,-0.056518476,-0.11035296,-0.10145077,-0.88177854,-0.46062392,-0.07127311,0.4682652,-0.8807087,,-0.038458534,0.16649921,-0.11248205,0.39245206,-0.4143255,0.82116735,0.1426628,-0.8545685,-0.49935964,0.90864116,0.31312475,-0.2762683,,0.0011748994,0.348798,-0.3279129,-0.11160398,0.5550161,-0.8243189,0.65988785,-0.57882786,-0.47906813,-0.7430293,-0.597424,-0.3016489,,1.3102079685094334,-0.5456110775639617,0.15559498499000002,2.7383409719644036,0.6296209909191496,-0.7976557159222665,-0.1261016190556636,,-0.9283960552077737,-0.31779045777433856,0.18932185821000003,-1.2950450909604225,-1.2342375023812235,1.0198332374728267,0.02188810486199342,,-0.15580336066396883,-0.3093683365622549,0.088225436,0.08275268144170031
3.4972641229978763,11:17:14.102451,11:17:12.848264,0,,0.054502185,0.0008559078,0.07053287,-0.32291585,0.37743902,-0.8679086,0.5662812,-0.6577177,-0.49672225,-0.7583212,-0.6518798,-0.0013491511,,0.032500394,0.045326486,0.04853192,0.06148453,-0.6210959,0.7813191,0.20774773,-0.7576922,-0.6186625,0.97624826,0.20035547,0.082444936,,0.1762679,1.3281294,0.5574628,0.9922842,-0.056518476,-0.11035296,-0.10145077,-0.88177854,-0.46062392,-0.07127311,0.4682652,-0.8807087,,-0.038458534,0.16649921,-0.11248205,0.39245206,-0.4143255,0.82116735,0.1426628,-0.8545685,-0.49935964,0.90864116,0.31312475,-0.2762683,,0.0011729746,0.34879965,-0.32791242,-0.11159342,0.55502045,-0.82431746,0.65988064,-0.57883614,-0.47906813,-0.74303734,-0.597412,-0.30165294,,1.3102079685094334,-0.5456110775639617,0.15559498499000002,2.7383409719644036,0.6296209909191496,-0.7976557159222665,-0.1261016190556636,,-0.9284115006735221,-0.31779045777433856,0.18932185821000003,-1.2950450909604225,-1.2342375023812235,1.0198332374728267,0.02188810486199342,,-0.15580336066396883,-0.3093683365622549,0.088225436,0.08275268144170031
3.5744478009874,11:17:14.181569,11:17:13.005844,0,,0.05444623,0.0008340329,0.070735335,-0.32230318,0.3780349,-0.86787677,0.5657106,-0.6581677,-0.49677634,-0.75900733,-0.6510798,-0.0017288029,,0.03245856,0.045287073,0.048683733,0.060651347,-0.62121737,0.78128755,0.20846155,-0.7575849,-0.6185539,0.9761481,0.20038447,0.0835513,,0.1762679,1.3281294,0.5574628,0.9922842,-0.056518476,-0.11035296,-0.10145077,-0.88177854,-0.46062392,-0.07127311,0.4682652,-0.8807087,,-0.038459364,0.16649875,-0.11248197,0.3924468,-0.41433018,0.82116747,0.14265868,-0.8545681,-0.49936137,0.9086441,0.31311944,-0.27626473,,0.001173937,0.3487988,-0.32791266,-0.1115987,0.5550183,-0.8243182,0.6598843,-0.57883203,-0.47906813,-0.7430333,-0.59741795,-0.3016509,,1.3102002457765591,-0.5456110775639617,0.15559498499000002,2.7383409719644036,0.6296209909191496,-0.7976557159222665,-0.1261016190556636,,-0.9284037779406479,-0.31779045777433856,0.18932185821000003,-1.2950450909604225,-1.2342375023812235,1.0198332374728267,0.02188810486199342,,-0.15580336066396883,-0.3093683365622549,0.088225436,0.08275268144170031
3.6535582979850005,11:17:14.254920,11:17:13.005844,0,,0.054444242,0.0008342564,0.07073636,-0.32200313,0.37789685,-0.8680482,0.56567526,-0.6584243,-0.4964766,-0.75916094,-0.6509005,-0.0017522126,,0.03245817,0.045284644,0.048683822,0.060680628,-0.62137246,0.7811619,0.20840222,-0.75746953,-0.61871517,0.976159,0.20033988,0.08353168,,0.1762679,1.3281294,0.5574628,0.9922842,-0.056518476,-0.11035296,-0.10145077,-0.88177854,-0.46062392,-0.07127311,0.4682652,-0.8807087,,-0.038457394,0.16649929,-0.112482905,0.39214948,-0.41422024,0.82136494,0.14257748,-0.8547252,-0.49911574,0.90878516,0.3128361,-0.27612156,,0.001174158,0.34879673,-0.32791394,-0.11163249,0.5551833,-0.8242025,0.6598386,-0.578757,-0.4792216,-0.74306875,-0.5973373,-0.3017233,,1.3102002457765591,-0.5456110775639617,0.15559498499000002,2.7387603518513726,0.6296209909191496,-0.7976557159222665,-0.1261016190556636,,-0.9283960552077737,-0.31779045777433856,0.18932185821000003,-1.2948354010169378,-1.2342375023812235,1.0198332374728267,0.02188810486199342,,-0.15580336066396883,-0.3093683365622549,0.088225436,0.08275268144170031
3.7269323710061144,11:17:14.338881,11:17:13.152107,0,,0.054486964,0.0008911714,0.07066399,-0.32271534,0.3776034,-0.86791164,0.5652089,-0.65864265,-0.49671787,-0.75920594,-0.6508498,-0.00087073445,,0.032473043,0.045322806,0.0486058,0.061360292,-0.6211725,0.78126794,0.2088398,-0.75742716,-0.61861926,0.97602284,0.20111847,0.08324957,,0.1762679,1.3281294,0.5574628,0.9922842,-0.056518476,-0.11035296,-0.10145077,-0.88177854,-0.46062392,-0.07127311,0.4682652,-0.8807087,,-0.038457394,0.16649929,-0.112482905,0.39214948,-0.41422024,0.82136494,0.14257748,-0.8547252,-0.49911574,0.90878516,0.3128361,-0.27612156,,0.0011734167,0.34879544,-0.32791495,-0.11166098,0.5553505,-0.82408595,0.6597894,-0.578686,-0.4793751,-0.7431082,-0.59725064,-0.3017977,,1.3102002457765591,-0.5456110775639617,0.15559498499000002,2.7387603518513726,0.6296209909191496,-0.7976557159222665,-0.1261016190556636,,-0.9283960552077737,-0.31779045777433856,0.18932185821000003,-1.2946257110734534,-1.2342375023812235,1.0198332374728267,0.02188810486199342,,-0.15580336066396883,-0.3093683365622549,0.088225436,0.08275268144170031
3.810891786008142,11:17:14.415834,11:17:13.152107,0,,0.054464214,0.00089966506,0.070693985,-0.32270792,0.37760994,-0.8679116,0.5651636,-0.6586813,-0.4967181,-0.7592427,-0.65080684,-0.0008497536,,0.032511093,0.045407414,0.048591554,0.061300762,-0.621103,0.78132784,0.20875826,-0.75750875,-0.61854696,0.976044,0.20102611,0.08322455,,0.17627658,1.3281302,0.55746603,0.9922824,-0.056534015,-0.11036108,-0.10146825,-0.8817775,-0.46062198,-0.07127311,0.4682652,-0.8807087,,-0.03843487,0.16651884,-0.11250739,0.39213926,-0.41423133,0.8213642,0.14252113,-0.85473996,-0.4991065,0.9087984,0.312781,-0.2761404,,0.0011420427,0.3488633,-0.3278582,-0.11160847,0.555282,-0.82413924,0.65972704,-0.5788005,-0.47932264,-0.7431714,-0.59720343,-0.30173552,,1.3102079685094334,-0.5456110775639617,0.15559498499000002,2.7387603518513726,0.6296209909191496,-0.7976557159222665,-0.1261016190556636,,-0.9284037779406479,-0.31779045777433856,0.18932185821000003,-1.2946257110734534,-1.2342375023812235,1.0198332374728267,0.02188810486199342,,-0.15580336066396883,-0.3093683365622549,0.088225436,0.08275268144170031
3.887818630988477,11:17:14.490516,11:17:13.304219,0,,0.05453707,0.00088219345,0.07064219,-0.3237163,0.37695765,-0.8678194,0.5653906,-0.6583646,-0.49687964,-0.7586443,-0.6515051,-4.9471855e-06,,0.03254838,0.045393452,0.048582524,0.062429152,-0.62072057,0.7815423,0.20840526,-0.7577,-0.61843175,0.976048,0.2014857,0.08205886,,0.17627658,1.3281302,0.55746603,0.9922824,-0.056534015,-0.11036108,-0.10146825,-0.8817775,-0.46062198,-0.07127311,0.4682652,-0.8807087,,-0.03843487,0.16651884,-0.11250739,0.39213926,-0.41423133,0.8213642,0.14252113,-0.85473996,-0.4991065,0.9087984,0.312781,-0.2761404,,0.001143005,0.3488625,-0.32785845,-0.11161375,0.5552798,-0.82413995,0.6597307,-0.5787964,-0.47932264,-0.7431674,-0.5972094,-0.3017335,,1.3102079685094334,-0.5456110775639617,0.15559498499000002,2.7387603518513726,0.6296209909191496,-0.7976557159222665,-0.1261016190556636,,-0.9283960552077737,-0.31779045777433856,0.18932185821000003,-1.2946257110734534,-1.2342375023812235,1.0198332374728267,0.02188810486199342,,-0.15580336066396883,-0.3093683365622549,0.088225436,0.08275268144170031
3.96249807998538,11:17:14.579299,11:17:13.443688,0,,0.054570857,0.0008833483,0.07050526,-0.3241306,0.3765472,-0.86784303,0.56583333,-0.65801543,-0.4968384,-0.75813717,-0.6520951,0.00021992624,,0.032571517,0.045409337,0.048484206,0.06300775,-0.6206399,0.7815602,0.20784393,-0.7577854,-0.61851615,0.9761306,0.20141375,0.08124988,,0.17627658,1.3281302,0.55746603,0.9922824,-0.056534015,-0.11036108,-0.10146825,-0.8817775,-0.46062198,-0.07127311,0.4682652,-0.8807087,,-0.038435705,0.16651839,-0.112507306,0.392134,-0.414236,0.8213644,0.142517,-0.85473967,-0.49910823,0.9088013,0.3127757,-0.27613682,,0.0011420427,0.3488633,-0.3278582,-0.11160847,0.555282,-0.82413924,0.65972704,-0.5788005,-0.47932264,-0.7431714,-0.59720343,-0.30173552,,1.3102002457765591,-0.5456110775639617,0.15559498499000002,2.7387603518513726,0.6296209909191496,-0.7976557159222665,-0.1261016190556636,,-0.9284037779406479,-0.31779045777433856,0.18932185821000003,-1.2946257110734534,-1.2342375023812235,1.0198332374728267,0.02188810486199342,,-0.15580336066396883,-0.3093683365622549,0.088225436,0.08275268144170031
4.0513126449950505,11:17:14.656050,11:17:13.443688,0,,0.05457005,0.00088378787,0.0705055,-0.32413572,0.37654284,-0.86784303,0.5658362,-0.65801287,-0.49683842,-0.7581328,-0.6521001,0.00022390485,,0.032570515,0.045408607,0.048483968,0.06301345,-0.6206382,0.7815611,0.20784873,-0.7577848,-0.61851525,0.9761292,0.20142108,0.081248164,,0.17627658,1.3281302,0.55746603,0.9922824,-0.056534015,-0.11036108,-0.10146825,-0.8817775,-0.46062198,-0.07127311,0.4682652,-0.8807087,,-0.03843487,0.16651884,-0.11250739,0.39213926,-0.41423133,0.8213642,0.14252113,-0.85473996,-0.4991065,0.9087984,0.312781,-0.2761404,,0.001143005,0.3488625,-0.32785845,-0.11161375,0.5552798,-0.82413995,0.6597307,-0.5787964,-0.47932264,-0.7431674,-0.5972094,-0.3017335,,1.3102079685094334,-0.5456110775639617,0.15559498499000002,2.7387603518513726,0.6296209909191496,-0.7976557159222665,-0.1261016190556636,,-0.9283960552077737,-0.31779045777433856,0.18932185821000003,-1.2946257110734534,-1.2342375023812235,1.0198332374728267,0.02188810486199342,,-0.15580336066396883,-0.3093683365622549,0.088225436,0.08275268144170031
4.128060907998588,11:17:14.747243,11:17:13.590577,1,,0.054468736,0.0007931441,0.070640266,-0.32244766,0.37721965,-0.8681779,0.5666274,-0.65777576,-0.4962504,-0.7582617,-0.6519482,-0.00164482,,0.03253602,0.045352787,0.048613995,0.061426625,-0.6211825,0.78125477,0.20719749,-0.75774586,-0.6187814,0.9763688,0.19988367,0.08216165,,0.17627658,1.3281302,0.55746603,0.9922824,-0.056534015,-0.11036108,-0.10146825,-0.8817775,-0.46062198,-0.07127311,0.4682652,-0.8807087,,-0.03843487,0.16651884,-0.11250739,0.39213926,-0.41423133,0.8213642,0.14252113,-0.85473996,-0.4991065,0.9087984,0.312781,-0.2761404,,0.001144488,0.34886506,-0.3278564,-0.11155673,0.55494547,-0.8243729,0.6598292,-0.5789382,-0.47901565,-0.7430885,-0.5973827,-0.30158475,,1.3102079685094334,-0.5456110775639617,0.15559498499000002,2.7387603518513726,0.6296209909191496,-0.7976557159222665,-0.1261016190556636,,-0.9283960552077737,-0.31779045777433856,0.18932185821000003,-1.2950450909604225,-1.2342375023812235,1.0198332374728267,0.02188810486199342,,-0.15580336066396883,-0.3093683365622549,0.088225436,0.08275268144170031
4.219240050006192,11:17:14.829173,11:17:13.590577,0,,0.054468736,0.0007931441,0.070640266,-0.32244766,0.37721965,-0.8681779,0.5666274,-0.65777576,-0.4962504,-0.7582617,-0.6519482,-0.00164482,,0.03253602,0.045352787,0.048613995,0.061426625,-0.6211825,0.78125477,0.20719749,-0.75774586,-0.6187814,0.9763688,0.19988367,0.08216165,,0.17627658,1.3281302,0.55746603,0.9922824,-0.056534015,-0.11036108,-0.10146825,-0.8817775,-0.46062198,-0.07127311,0.4682652,-0.8807087,,-0.03843487,0.16651884,-0.11250739,0.39213926,-0.41423133,0.8213642,0.14252113,-0.85473996,-0.4991065,0.9087984,0.312781,-0.2761404,,0.001144488,0.34886506,-0.3278564,-0.11155673,0.55494547,-0.8243729,0.6598292,-0.5789382,-0.47901565,-0.7430885,-0.5973827,-0.30158475,,1.3102079685094334,-0.5456110775639617,0.15559498499000002,2.7387603518513726,0.6296209909191496,-0.7976557159222665,-0.1261016190556636,,-0.9283960552077737,-0.31779045777433856,0.18932185821000003,-1.2950450909604225,-1.2342375023812235,1.0198332374728267,0.02188810486199342,,-0.15580336066396883,-0.3093683365622549,0.088225436,0.08275268144170031
4.301166696008295,11:17:14.912373,11:17:13.745212,0,,0.05447135,0.00083150715,0.07084015,-0.32256076,0.37743565,-0.86804205,0.5653095,-0.6587281,-0.49649,-0.7591967,-0.6508606,-0.0008881092,,0.032526705,0.045349926,0.048741013,0.06132251,-0.62098473,0.7814201,0.20879275,-0.7575917,-0.61843383,0.97603536,0.20107871,0.08319965,,0.17627658,1.3281302,0.55746603,0.9922824,-0.056534015,-0.11036108,-0.10146825,-0.8817775,-0.46062198,-0.07127311,0.4682652,-0.8807087,,-0.038435705,0.16651839,-0.112507306,0.392134,-0.414236,0.8213644,0.142517,-0.85473967,-0.49910823,0.9088013,0.3127757,-0.27613682,,0.001144488,0.34886506,-0.3278564,-0.11155673,0.55494547,-0.8243729,0.6598292,-0.5789382,-0.47901565,-0.7430885,-0.5973827,-0.30158475,,1.3102002457765591,-0.5456110775639617,0.15559498499000002,2.7387603518513726,0.6296209909191496,-0.7976557159222665,-0.1261016190556636,,-0.9283960552077737,-0.31779045777433856,0.18932185821000003,-1.2950450909604225,-1.2342375023812235,1.0198332374728267,0.02188810486199342,,-0.15580336066396883,-0.3093683365622549,0.088225436,0.08275268144170031
4.384353262983495,11:17:14.991592,11:17:13.745212,0,,0.054471537,0.0008318126,0.0708399,-0.32271594,0.3775003,-0.8679562,0.5653301,-0.6585974,-0.49663997,-0.7591155,-0.6509553,-0.0008724034,,0.032526705,0.045349926,0.048741013,0.06132251,-0.62098473,0.7814201,0.20879275,-0.7575917,-0.61843383,0.97603536,0.20107871,0.08319965,,0.17627658,1.3281302,0.55746603,0.9922824,-0.056534015,-0.11036108,-0.10146825,-0.8817775,-0.46062198,-0.07127311,0.4682652,-0.8807087,,-0.038435858,0.16651857,-0.11250692,0.39228794,-0.41428632,0.8212655,0.14256173,-0.85466146,-0.4992293,0.9087279,0.31292266,-0.276212,,0.001144488,0.34886506,-0.3278564,-0.11155673,0.55494547,-0.8243729,0.6598292,-0.5789382,-0.47901565,-0.7430885,-0.5973827,-0.30158475,,1.3102079685094334,-0.5456110775639617,0.15559498499000002,2.738550661907888,0.6296209909191496,-0.7976557159222665,-0.1261016190556636,,-0.9283960552077737,-0.31779045777433856,0.18932185821000003,-1.2950450909604225,-1.2342375023812235,1.0198332374728267,0.02188810486199342,,-0.15580336066396883,-0.3093683365622549,0.088225436,0.08275268144170031
4.463564283010783,11:17:15.073261,11:17:13.888235,0,,0.05467331,0.0010535493,0.070305586,-0.325908,0.37598234,-0.86742216,0.56462395,-0.65850323,-0.4975674,-0.75827676,-0.6519285,0.002322808,,0.03261284,0.04553993,0.04825598,0.0644031,-0.6196277,0.7822492,0.20940238,-0.75803316,-0.6176862,0.97570634,0.20358571,0.08093174,,0.17627658,1.3281302,0.55746603,0.9922824,-0.056534015,-0.11036108,-0.10146825,-0.8817775,-0.46062198,-0.07127311,0.4682652,-0.8807087,,-0.038437676,0.16651785,-0.11250637,0.39243132,-0.41434598,0.8211669,0.14259821,-0.8545826,-0.49935386,0.90866023,0.31305903,-0.27628,,0.001144488,0.34886506,-0.3278564,-0.11155673,0.55494547,-0.8243729,0.6598292,-0.5789382,-0.47901565,-0.7430885,-0.5973827,-0.30158475,,1.3102002457765591,-0.5456110775639617,0.15559498499000002,2.7383409719644036,0.6296209909191496,-0.7976557159222665,-0.1261016190556636,,-0.9283960552077737,-0.31779045777433856,0.18932185821000003,-1.2950450909604225,-1.2342375023812235,1.0198332374728267,0.02188810486199342,,-0.15580336066396883,-0.3093683365622549,0.088225436,0.08275268144170031
4.545272864983417,11:17:15.153067,11:17:13.888235,0,,0.054672502,0.0010539815,0.070305824,-0.32591316,0.37597796,-0.8674222,0.56462675,-0.65850073,-0.49756745,-0.75827247,-0.65193355,0.0023268014,,0.032614455,0.045539007,0.048256576,0.06442108,-0.6197866,0.7821219,0.20933372,-0.75791913,-0.6178495,0.9757199,0.20352694,0.08091617,,0.17627658,1.3281302,0.55746603,0.9922824,-0.056534015,-0.11036108,-0.10146825,-0.8817775,-0.46062198,-0.07127311,0.4682652,-0.8807087,,-0.038436845,0.1665183,-0.11250645,0.3924366,-0.41434127,0.82116675,0.14260232,-0.85458297,-0.49935213,0.9086573,0.31306434,-0.2762836,,0.001142784,0.3488646,-0.3278572,-0.11157997,0.5551148,-0.8242557,0.65977633,-0.5788714,-0.47916916,-0.743132,-0.5972901,-0.30166113,,1.3102079685094334,-0.5456110775639617,0.15559498499000002,2.7383409719644036,0.6296209909191496,-0.7976557159222665,-0.1261016190556636,,-0.9284037779406479,-0.31779045777433856,0.18932185821000003,-1.2948354010169378,-1.2342375023812235,1.0198332374728267,0.02188810486199342,,-0.15580336066396883,-0.3093683365622549,0.088225436,0.08275268144170031
4.625077467004303,11:17:15.231139,11:17:14.051319,0,,0.05467004,0.0010157898,0.07010597,-0.32579404,0.375764,-0.86755955,0.56594175,-0.65755,-0.49733075,-0.75734293,-0.65301555,0.001565367,,0.032622837,0.04554011,0.048129648,0.06455595,-0.6201415,0.78182924,0.2076793,-0.7579603,-0.618357,0.9760643,0.20228839,0.07985969,,0.17627658,1.3281302,0.55746603,0.9922824,-0.056534015,-0.11036108,-0.10146825,-0.8817775,-0.46062198,-0.07127311,0.4682652,-0.8807087,,-0.038436845,0.1665183,-0.11250645,0.3924366,-0.41434127,0.82116675,0.14260232,-0.85458297,-0.49935213,0.9086573,0.31306434,-0.2762836,,0.001143005,0.3488625,-0.32785845,-0.11161375,0.5552798,-0.82413995,0.6597307,-0.5787964,-0.47932264,-0.7431674,-0.5972094,-0.3017335,,1.3102079685094334,-0.5456110775639617,0.15559498499000002,2.7383409719644036,0.6296209909191496,-0.7976557159222665,-0.1261016190556636,,-0.9283960552077737,-0.31779045777433856,0.18932185821000003,-1.2946257110734534,-1.2342375023812235,1.0198332374728267,0.02188810486199342,,-0.15580336066396883,-0.3093683365622549,0.088225436,0.08275268144170031
4.7031186939857434,11:17:15.313009,11:17:14.051319,0,,0.05467004,0.0010157898,0.07010597,-0.32579404,0.375764,-0.86755955,0.56594175,-0.65755,-0.49733075,-0.75734293,-0.65301555,0.001565367,,0.032622837,0.04554011,0.048129648,0.06455595,-0.6201415,0.78182924,0.2076793,-0.7579603,-0.618357,0.9760643,0.20228839,0.07985969,,0.17627658,1.3281302,0.55746603,0.9922824,-0.056534015,-0.11036108,-0.10146825,-0.8817775,-0.46062198,-0.07127311,0.4682652,-0.8807087,,-0.038436845,0.1665183,-0.11250645,0.3924366,-0.41434127,0.82116675,0.14260232,-0.85458297,-0.49935213,0.9086573,0.31306434,-0.2762836,,0.001143005,0.3488625,-0.32785845,-0.11161375,0.5552798,-0.82413995,0.6597307,-0.5787964,-0.47932264,-0.7431674,-0.5972094,-0.3017335,,1.3102079685094334,-0.5456110775639617,0.15559498499000002,2.7383409719644036,0.6296209909191496,-0.7976557159222665,-0.1261016190556636,,-0.9283960552077737,-0.31779045777433856,0.18932185821000003,-1.2946257110734534,-1.2342375023812235,1.0198332374728267,0.02188810486199342,,-0.15580336066396883,-0.3093683365622549,0.088225436,0.08275268144170031
4.785020279989112,11:17:15.386860,11:17:14.207758,0,,0.054570656,0.00091314316,0.07035056,-0.3240907,0.3764713,-0.8678909,0.5663011,-0.657676,-0.49675488,-0.7578048,-0.6524812,-4.9501657e-05,,0.03259255,0.04545702,0.048344404,0.0629775,-0.62099975,0.78127664,0.20744705,-0.7575872,-0.6188921,0.9762169,0.20104975,0.08111353,,0.17627658,1.3281302,0.55746603,0.9922824,-0.056534015,-0.11036108,-0.10146825,-0.8817775,-0.46062198,-0.07127311,0.4682652,-0.8807087,,-0.038436845,0.1665183,-0.11250645,0.3924366,-0.41434127,0.82116675,0.14260232,-0.85458297,-0.49935213,0.9086573,0.31306434,-0.2762836,,0.0011420427,0.3488633,-0.3278582,-0.11160847,0.555282,-0.82413924,0.65972704,-0.5788005,-0.47932264,-0.7431714,-0.59720343,-0.30173552,,1.3102079685094334,-0.5456110775639617,0.15559498499000002,2.7383409719644036,0.6296209909191496,-0.7976557159222665,-0.1261016190556636,,-0.9284037779406479,-0.31779045777433856,0.18932185821000003,-1.2946257110734534,-1.2342375023812235,1.0198332374728267,0.02188810486199342,,-0.15580336066396883,-0.3093683365622549,0.088225436,0.08275268144170031
4.858872360986425,11:17:15.470428,11:17:14.207758,0,,0.054614738,0.00090593845,0.07033703,-0.32412803,0.37649179,-0.86786807,0.5663137,-0.65763503,-0.49679476,-0.75777954,-0.65251064,-5.4478645e-05,,0.032586552,0.045422316,0.04836771,0.062955566,-0.62102574,0.7812576,0.20748228,-0.7575628,-0.6189101,0.9762109,0.20106092,0.08115898,,0.17630921,1.3281285,0.55746925,0.99227816,-0.056570977,-0.11038039,-0.10150985,-0.88177514,-0.46061733,-0.07127311,0.4682652,-0.8807087,,-0.038481005,0.16650867,-0.1124948,0.39247417,-0.4143573,0.8211407,0.14262243,-0.8545584,-0.4993884,0.90863794,0.31311014,-0.27629548,,0.0011442209,0.34884426,-0.32789585,-0.1115839,0.5553088,-0.82412446,0.6597542,-0.5787745,-0.47931662,-0.743151,-0.5972036,-0.30178544,,1.3102002457765591,-0.5456110775639617,0.15559498499000002,2.7383409719644036,0.6296209909191496,-0.7976557159222665,-0.1261016190556636,,-0.9284115006735221,-0.31779045777433856,0.18932185821000003,-1.2946257110734534,-1.2342375023812235,1.0198332374728267,0.02188810486199342,,-0.15580336066396883,-0.3093683365622549,0.088225436,0.08275268144170031
4.942439868988004,11:17:15.549300,11:17:14.374278,0,,0.05354474,-0.0009042844,0.07134576,-0.3086756,0.39245036,-0.8664307,0.5924206,-0.6333318,-0.49792445,-0.7441488,-0.66698855,-0.03700161,,0.031897612,0.04432918,0.050491065,0.040839188,-0.62345624,0.78079104,0.17266661,-0.76528233,-0.620104,0.98413336,0.16014096,0.07639645,,0.17630921,1.3281285,0.55746925,0.99227816,-0.056570977,-0.11038039,-0.10150985,-0.88177514,-0.46061733,-0.07127311,0.4682652,-0.8807087,,-0.038481005,0.16650867,-0.1124948,0.39247417,-0.4143573,0.8211407,0.14262243,-0.8545584,-0.4993884,0.90863794,0.31311014,-0.27629548,,0.0011451832,0.34884346,-0.3278961,-0.11158918,0.5553067,-0.82412523,0.65975785,-0.5787704,-0.47931662,-0.74314696,-0.59720963,-0.3017834,,1.3102002457765591,-0.5456110775639617,0.15559498499000002,2.7383409719644036,0.6296209909191496,-0.7976557159222665,-0.1261016190556636,,-0.9284037779406479,-0.31779045777433856,0.18932185821000003,-1.2946257110734534,-1.2342375023812235,1.0198332374728267,0.02188810486199342,,-0.15580336066396883,-0.3093683365622549,0.088225436,0.08275268144170031
5.021311272983439,11:17:15.626689,11:17:14.374278,0,,0.053543933,-0.00090384483,0.071346015,-0.30868083,0.3924461,-0.8664307,0.5924232,-0.63332915,-0.4979247,-0.74414444,-0.6669936,-0.036997646,,0.031896394,0.04433255,0.05049056,0.040792234,-0.62314415,0.7810425,0.1727952,-0.76551527,-0.61978066,0.9841128,0.16024253,0.076449186,,0.17630921,1.3281285,0.55746925,0.99227816,-0.056570977,-0.11038039,-0.10150985,-0.88177514,-0.46061733,-0.07127311,0.4682652,-0.8807087,,-0.038480174,0.16650914,-0.11249488,0.39247945,-0.4143526,0.8211405,0.14262654,-0.85455877,-0.49938664,0.908635,0.31311545,-0.27629906,,0.0011466661,0.34884602,-0.32789403,-0.111532174,0.5549723,-0.8243581,0.6598564,-0.57891226,-0.47900963,-0.7430681,-0.5973829,-0.30163467,,1.3102079685094334,-0.5456110775639617,0.15559498499000002,2.7383409719644036,0.6296209909191496,-0.7976557159222665,-0.1261016190556636,,-0.9284037779406479,-0.31779045777433856,0.18932185821000003,-1.2950450909604225,-1.2342375023812235,1.0198332374728267,0.02188810486199342,,-0.15580336066396883,-0.3093683365622549,0.088225436,0.08275268144170031
5.098689384001773,11:17:15.714577,11:17:14.522107,0,,0.053690985,-0.00075691193,0.07116327,-0.31076545,0.3913113,-0.8661988,0.5911213,-0.6340741,-0.49852344,-0.744312,-0.6669524,-0.034264177,,0.031948403,0.04443057,0.050300956,0.04302048,-0.62199587,0.78183776,0.1741173,-0.76591843,-0.6189119,0.98378456,0.16275728,0.07535003,,0.17630921,1.3281285,0.55746925,0.99227816,-0.056570977,-0.11038039,-0.10150985,-0.88177514,-0.46061733,-0.07127311,0.4682652,-0.8807087,,-0.038479034,0.16650923,-0.112495735,0.39217687,-0.41424736,0.8213382,0.14254123,-0.85471547,-0.49914274,0.908779,0.3128268,-0.2761523,,0.0011476284,0.34884518,-0.32789427,-0.11153745,0.55497015,-0.8243589,0.65985996,-0.57890815,-0.4790096,-0.74306405,-0.5973889,-0.30163264,,1.3102002457765591,-0.5456110775639617,0.15559498499000002,2.7387603518513726,0.6296209909191496,-0.7976557159222665,-0.1261016190556636,,-0.9283960552077737,-0.31779045777433856,0.18932185821000003,-1.2950450909604225,-1.2342375023812235,1.0198332374728267,0.02188810486199342,,-0.15580336066396883,-0.3093683365622549,0.088225436,0.08275268144170031
5.186586978990817,11:17:15.797867,11:17:14.522107,0,,0.053690985,-0.00075691193,0.07116327,-0.31076545,0.3913113,-0.8661988,0.5911213,-0.6340741,-0.49852344,-0.744312,-0.6669524,-0.034264177,,0.03195039,0.04443209,0.050301522,0.043009043,-0.62199897,0.78183585,0.17410773,-0.76591897,-0.61891395,0.9837868,0.16274247,0.075353324,,0.17630921,1.3281285,0.55746925,0.99227816,-0.056570977,-0.11038039,-0.10150985,-0.88177514,-0.46061733,-0.07127311,0.4682652,-0.8807087,,-0.038479034,0.16650923,-0.112495735,0.39217687,-0.41424736,0.8213382,0.14254123,-0.85471547,-0.49914274,0.908779,0.3128268,-0.2761523,,0.0011457037,0.34884682,-0.3278938,-0.11152689,0.55497444,-0.8243574,0.65985274,-0.5789164,-0.47900963,-0.7430721,-0.59737694,-0.30163667,,1.3102002457765591,-0.5456110775639617,0.15559498499000002,2.7387603518513726,0.6296209909191496,-0.7976557159222665,-0.1261016190556636,,-0.9284115006735221,-0.31779045777433856,0.18932185821000003,-1.2950450909604225,-1.2342375023812235,1.0198332374728267,0.02188810486199342,,-0.15580336066396883,-0.3093683365622549,0.088225436,0.08275268144170031
5.269870157004334,11:17:15.876834,11:17:14.687589,0,,0.05379668,-0.00061914325,0.07111466,-0.3126522,0.39077783,-0.86576056,0.58955044,-0.6348146,-0.49944025,-0.74476767,-0.66656065,-0.031907007,,0.03197474,0.04451281,0.05021447,0.044552475,-0.62095135,0.782582,0.17581713,-0.7662591,-0.6180091,0.9834142,0.16512516,0.075035125,,0.17630921,1.3281285,0.55746925,0.99227816,-0.056570977,-0.11038039,-0.10150985,-0.88177514,-0.46061733,-0.07127311,0.4682652,-0.8807087,,-0.038479034,0.16650923,-0.112495735,0.39217687,-0.41424736,0.8213382,0.14254123,-0.85471547,-0.49914274,0.908779,0.3128268,-0.2761523,,0.0011457037,0.34884682,-0.3278938,-0.11152689,0.55497444,-0.8243574,0.65985274,-0.5789164,-0.47900963,-0.7430721,-0.59737694,-0.30163667,,1.3102002457765591,-0.5456110775639617,0.15559498499000002,2.7387603518513726,0.6296209909191496,-0.7976557159222665,-0.1261016190556636,,-0.9284115006735221,-0.31779045777433856,0.18932185821000003,-1.2950450909604225,-1.2342375023812235,1.0198332374728267,0.02188810486199342,,-0.15580336066396883,-0.3093683365622549,0.088225436,0.08275268144170031
5.348820707993582,11:17:15.966107,11:17:14.687589,0,,0.053795867,-0.000618726,0.07111491,-0.31265748,0.3907736,-0.8657607,0.5895531,-0.634812,-0.4994405,-0.7447634,-0.6665656,-0.03190303,,0.031974975,0.04450871,0.050214708,0.044605486,-0.6212627,0.7823319,0.17569351,-0.7660268,-0.6183321,0.98343384,0.16503155,0.07498276,,0.17630921,1.3281285,0.55746925,0.99227816,-0.056570977,-0.11038039,-0.10150985,-0.88177514,-0.46061733,-0.07127311,0.4682652,-0.8807087,,-0.038478203,0.16650967,-0.11249582,0.39218214,-0.41424268,0.82133806,0.14254536,-0.85471576,-0.499141,0.9087761,0.31283212,-0.2761559,,0.0011451832,0.34884346,-0.3278961,-0.11158918,0.5553067,-0.82412523,0.65975785,-0.5787704,-0.47931662,-0.74314696,-0.59720963,-0.3017834,,1.3102079685094334,-0.5456110775639617,0.15559498499000002,2.7387603518513726,0.6296209909191496,-0.7976557159222665,-0.1261016190556636,,-0.9284037779406479,-0.31779045777433856,0.18932185821000003,-1.2946257110734534,-1.2342375023812235,1.0198332374728267,0.02188810486199342,,-0.15580336066396883,-0.3093683365622549,0.088225436,0.08275268144170031
5.438092686992604,11:17:16.047852,11:17:14.841420,0,,0.053891987,-0.00056639314,0.070902765,-0.31410658,0.38994744,-0.8656086,0.58967215,-0.6344328,-0.49978167,-0.744059,-0.66740996,-0.030661643,,0.032017846,0.04455827,0.050052732,0.04613796,-0.62068117,0.78270435,0.17539129,-0.7663336,-0.6180379,0.9834171,0.16579449,0.073504984,,0.17630921,1.3281285,0.55746925,0.99227816,-0.056570977,-0.11038039,-0.10150985,-0.88177514,-0.46061733,-0.07127311,0.4682652,-0.8807087,,-0.038478203,0.16650967,-0.11249582,0.39218214,-0.41424268,0.82133806,0.14254536,-0.85471576,-0.499141,0.9087761,0.31283212,-0.2761559,,0.0011461455,0.34884262,-0.32789633,-0.11159446,0.5553045,-0.82412595,0.6597615,-0.5787663,-0.4793166,-0.74314296,-0.59721565,-0.30178142,,1.3102079685094334,-0.5456110775639617,0.15559498499000002,2.7387603518513726,0.6296209909191496,-0.7976557159222665,-0.1261016190556636,,-0.9283960552077737,-0.31779045777433856,0.18932185821000003,-1.2946257110734534,-1.2342375023812235,1.0198332374728267,0.02188810486199342,,-0.15580336066396883,-0.3093683365622549,0.088225436,0.08275268144170031
5.519859574007569,11:17:16.122612,11:17:14.990370,0,,0.053862706,-0.00043028593,0.07099621,-0.31417415,0.3905194,-0.8653261,0.58784175,-0.6357057,-0.5003201,-0.7454775,-0.66586244,-0.029841349,,0.03197112,0.04463592,0.05003822,0.045708083,-0.6203207,0.7830154,0.17760712,-0.7663002,-0.6174462,0.98303944,0.16729125,0.07514718,,0.17630921,1.3281285,0.55746925,0.99227816,-0.056570977,-0.11038039,-0.10150985,-0.88177514,-0.46061733,-0.07127311,0.4682652,-0.8807087,,-0.038478203,0.16650967,-0.11249582,0.39218214,-0.41424268,0.82133806,0.14254536,-0.85471576,-0.499141,0.9087761,0.31283212,-0.2761559,,0.0011461455,0.34884262,-0.32789633,-0.11159446,0.5553045,-0.82412595,0.6597615,-0.5787663,-0.4793166,-0.74314296,-0.59721565,-0.30178142,,1.3102079685094334,-0.5456110775639617,0.15559498499000002,2.7387603518513726,0.6296209909191496,-0.7976557159222665,-0.1261016190556636,,-0.9283960552077737,-0.31779045777433856,0.18932185821000003,-1.2946257110734534,-1.2342375023812235,1.0198332374728267,0.02188810486199342,,-0.15580336066396883,-0.3093683365622549,0.088225436,0.08275268144170031
5.594622081000125,11:17:16.203636,11:17:14.990370,0,,0.053862706,-0.00043028593,0.07099621,-0.31417415,0.3905194,-0.8653261,0.58784175,-0.6357057,-0.5003201,-0.7454775,-0.66586244,-0.029841349,,0.03197112,0.04463592,0.05003822,0.045708083,-0.6203207,0.7830154,0.17760712,-0.7663002,-0.6174462,0.98303944,0.16729125,0.07514718,,0.17630921,1.3281285,0.55746925,0.99227816,-0.056570977,-0.11038039,-0.10150985,-0.88177514,-0.46061733,-0.07127311,0.4682652,-0.8807087,,-0.038478203,0.16650967,-0.11249582,0.39218214,-0.41424268,0.82133806,0.14254536,-0.85471576,-0.499141,0.9087761,0.31283212,-0.2761559,,0.0011461455,0.34884262,-0.32789633,-0.11159446,0.5553045,-0.82412595,0.6597615,-0.5787663,-0.4793166,-0.74314296,-0.59721565,-0.30178142,,1.3102079685094334,-0.5456110775639617,0.15559498499000002,2.7387603518513726,0.6296209909191496,-0.7976557159222665,-0.1261016190556636,,-0.9283960552077737,-0.31779045777433856,0.18932185821000003,-1.2946257110734534,-1.2342375023812235,1.0198332374728267,0.02188810486199342,,-0.15580336066396883,-0.3093683365622549,0.088225436,0.08275268144170031
5.675648932985496,11:17:16.286574,11:17:15.150536,0,,0.053944703,-0.00035859644,0.070683375,-0.31594074,0.39005205,-0.86489356,0.58834034,-0.63461524,-0.50111794,-0.7443367,-0.6671753,-0.028982505,,0.03199172,0.044713587,0.04979953,0.047069438,-0.61960566,0.7835006,0.17675966,-0.7668252,-0.6170374,0.98312783,0.16753495,0.07342729,,0.17630921,1.3281285,0.55746925,0.99227816,-0.056570977,-0.11038039,-0.10150985,-0.88177514,-0.46061733,-0.07127311,0.4682652,-0.8807087,,-0.038481005,0.16650867,-0.1124948,0.39247417,-0.4143573,0.8211407,0.14262243,-0.8545584,-0.4993884,0.90863794,0.31311014,-0.27629548,,0.0011461455,0.34884262,-0.32789633,-0.11159446,0.5553045,-0.82412595,0.6597615,-0.5787663,-0.4793166,-0.74314296,-0.59721565,-0.30178142,,1.3102002457765591,-0.5456110775639617,0.15559498499000002,2.7383409719644036,0.6296209909191496,-0.7976557159222665,-0.1261016190556636,,-0.9283960552077737,-0.31779045777433856,0.18932185821000003,-1.2946257110734534,-1.2342375023812235,1.0198332374728267,0.02188810486199342,,-0.15580336066396883,-0.3093683365622549,0.088225436,0.08275268144170031
5.758561241993448,11:17:16.365148,11:17:15.150536,0,,0.053944703,-0.00035859644,0.070683375,-0.31594074,0.39005205,-0.86489356,0.58834034,-0.63461524,-0.50111794,-0.7443367,-0.6671753,-0.028982505,,0.031990483,0.04471694,0.049798995,0.04702188,-0.61929196,0.78375137,0.17688811,-0.7670566,-0.6167129,0.983107,0.16763523,0.07347694,,0.17630921,1.3281285,0.55746925,0.99227816,-0.056570977,-0.11038039,-0.10150985,-0.88177514,-0.46061733,-0.07127311,0.4682652,-0.8807087,,-0.038481005,0.16650867,-0.1124948,0.39247417,-0.4143573,0.8211407,0.14262243,-0.8545584,-0.4993884,0.90863794,0.31311014,-0.27629548,,0.0011476284,0.34884518,-0.32789427,-0.11153745,0.55497015,-0.8243589,0.65985996,-0.57890815,-0.4790096,-0.74306405,-0.5973889,-0.30163264,,1.3102002457765591,-0.5456110775639617,0.15559498499000002,2.7383409719644036,0.6296209909191496,-0.7976557159222665,-0.1261016190556636,,-0.9283960552077737,-0.31779045777433856,0.18932185821000003,-1.2950450909604225,-1.2342375023812235,1.0198332374728267,0.02188810486199342,,-0.15580336066396883,-0.3093683365622549,0.088225436,0.08275268144170031
5.83714697000687,11:17:16.444963,11:17:15.288421,0,,0.054089844,-0.00018953532,0.07036525,-0.31837386,0.389006,-0.8644724,0.58752346,-0.6346889,-0.50198233,-0.7439451,-0.6677158,-0.026481763,,0.032040413,0.044849724,0.04950452,0.049296603,-0.618122,0.784535,0.17760816,-0.7675459,-0.6158966,0.9828657,0.1697014,0.0719461,,0.17630921,1.3281285,0.55746925,0.99227816,-0.056570977,-0.11038039,-0.10150985,-0.88177514,-0.46061733,-0.07127311,0.4682652,-0.8807087,,-0.038480174,0.16650914,-0.11249488,0.39247945,-0.4143526,0.8211405,0.14262654,-0.85455877,-0.49938664,0.908635,0.31311545,-0.27629906,,0.0011476284,0.34884518,-0.32789427,-0.11153745,0.55497015,-0.8243589,0.65985996,-0.57890815,-0.4790096,-0.74306405,-0.5973889,-0.30163264,,1.3102079685094334,-0.5456110775639617,0.15559498499000002,2.7383409719644036,0.6296209909191496,-0.7976557159222665,-0.1261016190556636,,-0.9283960552077737,-0.31779045777433856,0.18932185821000003,-1.2950450909604225,-1.2342375023812235,1.0198332374728267,0.02188810486199342,,-0.15580336066396883,-0.3093683365622549,0.088225436,0.08275268144170031
5.916970842983574,11:17:16.523207,11:17:15.288421,0,,0.054090656,-0.00018996,0.07036498,-0.3183686,0.3890103,-0.8644724,0.58752084,-0.6346915,-0.5019822,-0.7439495,-0.6677108,-0.026485726,,0.032040413,0.044849724,0.04950452,0.049296603,-0.618122,0.784535,0.17760816,-0.7675459,-0.6158966,0.9828657,0.1697014,0.0719461,,0.17630921,1.3281285,0.55746925,0.99227816,-0.056570977,-0.11038039,-0.10150985,-0.88177514,-0.46061733,-0.07127311,0.4682652,-0.8807087,,-0.038481005,0.16650867,-0.1124948,0.39247417,-0.4143573,0.8211407,0.14262243,-0.8545584,-0.4993884,0.90863794,0.31311014,-0.27629548,,0.0011476284,0.34884518,-0.32789427,-0.11153745,0.55497015,-0.8243589,0.65985996,-0.57890815,-0.4790096,-0.74306405,-0.5973889,-0.30163264,,1.3102002457765591,-0.5456110775639617,0.15559498499000002,2.7383409719644036,0.6296209909191496,-0.7976557159222665,-0.1261016190556636,,-0.9283960552077737,-0.31779045777433856,0.18932185821000003,-1.2950450909604225,-1.2342375023812235,1.0198332374728267,0.02188810486199342,,-0.15580336066396883,-0.3093683365622549,0.088225436,0.08275268144170031
5.995218500989722,11:17:16.603636,11:17:15.430261,0,,0.054070413,-0.00022877753,0.070269585,-0.31814477,0.38909784,-0.86451536,0.5884425,-0.63392943,-0.50186545,-0.7433165,-0.6683835,-0.02728042,,0.03208616,0.04485616,0.04946333,0.04916545,-0.61817855,0.7844987,0.17646387,-0.7677163,-0.6160133,0.9830785,0.16872212,0.07134093,,0.17631994,1.3281205,0.5574618,0.9922798,-0.056556493,-0.11037283,-0.10149355,-0.8817761,-0.46061915,-0.07127311,0.4682652,-0.8807087,,-0.038479853,0.16650186,-0.11247651,0.39243832,-0.4143661,0.8211534,0.14262868,-0.8545584,-0.49938658,0.9086524,0.31309846,-0.27626097,,0.0010919577,0.34885672,-0.32786506,-0.111577936,0.55493116,-0.8243796,0.6598849,-0.5788918,-0.47899497,-0.74303585,-0.59744096,-0.30159914,,1.3102079685094334,-0.5456110775639617,0.15559498499000002,2.7383409719644036,0.6296209909191496,-0.7976557159222665,-0.1261016190556636,,-0.9283960552077737,-0.31779045777433856,0.18932185821000003,-1.2950450909604225,-1.2342375023812235,1.0198332374728267,0.02188810486199342,,-0.15580336066396883,-0.3093683365622549,0.088225436,0.08275268144170031
6.075647268007742,11:17:16.683221,11:17:15.430261,0,,0.054070413,-0.00022877753,0.070269585,-0.31814477,0.38909784,-0.86451536,0.5884425,-0.63392943,-0.50186545,-0.7433165,-0.6683835,-0.02728042,,0.03208616,0.04485616,0.04946333,0.04916545,-0.61817855,0.7844987,0.17646387,-0.7677163,-0.6160133,0.9830785,0.16872212,0.07134093,,0.17631994,1.3281205,0.5574618,0.9922798,-0.056556493,-0.11037283,-0.10149355,-0.8817761,-0.46061915,-0.07127311,0.4682652,-0.8807087,,-0.038479853,0.16650186,-0.11247651,0.39243832,-0.4143661,0.8211534,0.14262868,-0.8545584,-0.49938658,0.9086524,0.31309846,-0.27626097,,0.0010919577,0.34885672,-0.32786506,-0.111577936,0.55493116,-0.8243796,0.6598849,-0.5788918,-0.47899497,-0.74303585,-0.59744096,-0.30159914,,1.3102079685094334,-0.5456110775639617,0.15559498499000002,2.7383409719644036,0.6296209909191496,-0.7976557159222665,-0.1261016190556636,,-0.9283960552077737,-0.31779045777433856,0.18932185821000003,-1.2950450909604225,-1.2342375023812235,1.0198332374728267,0.02188810486199342,,-0.15580336066396883,-0.3093683365622549,0.088225436,0.08275268144170031
6.155209599994123,11:17:16.768265,11:17:15.582011,0,,0.0539331,-0.0002797395,0.07040605,-0.31610695,0.39016885,-0.86478007,0.588751,-0.63409275,-0.5012969,-0.7439412,-0.6676036,-0.029271156,,0.032024633,0.0448236,0.049558014,0.047095716,-0.6190535,0.7839354,0.1762898,-0.76733613,-0.61653626,0.98321104,0.16723597,0.0729945,,0.17631994,1.3281205,0.5574618,0.9922798,-0.056556493,-0.11037283,-0.10149355,-0.8817761,-0.46061915,-0.07127311,0.4682652,-0.8807087,,-0.038480688,0.1665014,-0.11247643,0.39243305,-0.41437078,0.8211535,0.14262457,-0.8545581,-0.49938834,0.90865535,0.31309316,-0.2762574,,0.0010909953,0.34885752,-0.32786483,-0.11157265,0.5549333,-0.8243789,0.6598813,-0.5788959,-0.47899497,-0.74303985,-0.59743494,-0.30160114,,1.3102002457765591,-0.5456110775639617,0.15559498499000002,2.7383409719644036,0.6296209909191496,-0.7976557159222665,-0.1261016190556636,,-0.9284037779406479,-0.31779045777433856,0.18932185821000003,-1.2950450909604225,-1.2342375023812235,1.0198332374728267,0.02188810486199342,,-0.15580336066396883,-0.3093683365622549,0.088225436,0.08275268144170031
6.24027757399017,11:17:16.852964,11:17:15.719974,0,,0.05394794,-0.00027426332,0.07028401,-0.31665653,0.39016256,-0.8645819,0.58926046,-0.6333526,-0.50163394,-0.7433039,-0.66830957,-0.029352173,,0.032013316,0.044833273,0.049483478,0.047469035,-0.6189774,0.783973,0.17534077,-0.7675073,-0.61659396,0.9833627,0.16673142,0.07209909,,0.17631994,1.3281205,0.5574618,0.9922798,-0.056556493,-0.11037283,-0.10149355,-0.8817761,-0.46061915,-0.07127311,0.4682652,-0.8807087,,-0.038479853,0.16650186,-0.11247651,0.39243832,-0.4143661,0.8211534,0.14262868,-0.8545584,-0.49938658,0.9086524,0.31309846,-0.27626097,,0.0010904747,0.34885415,-0.32786712,-0.11163495,0.55526555,-0.82414675,0.6597864,-0.57874995,-0.47930196,-0.74311477,-0.5972676,-0.30174792,,1.3102079685094334,-0.5456110775639617,0.15559498499000002,2.7383409719644036,0.6296209909191496,-0.7976557159222665,-0.1261016190556636,,-0.9283960552077737,-0.31779045777433856,0.18932185821000003,-1.2946257110734534,-1.2342375023812235,1.0198332374728267,0.02188810486199342,,-0.15580336066396883,-0.3093683365622549,0.088225436,0.08275268144170031
6.324971085996367,11:17:16.933016,11:17:15.719974,0,,0.05394794,-0.00027426332,0.07028401,-0.31665653,0.39016256,-0.8645819,0.58926046,-0.6333526,-0.50163394,-0.7433039,-0.66830957,-0.029352173,,0.0320153,0.044834822,0.049484044,0.04745765,-0.6189807,0.78397113,0.17533118,-0.7675079,-0.6165959,0.98336494,0.1667166,0.0721024,,0.17631994,1.3281205,0.5574618,0.9922798,-0.056556493,-0.11037283,-0.10149355,-0.8817761,-0.46061915,-0.07127311,0.4682652,-0.8807087,,-0.038479853,0.16650186,-0.11247651,0.39243832,-0.4143661,0.8211534,0.14262868,-0.8545584,-0.49938658,0.9086524,0.31309846,-0.27626097,,0.00108855,0.3488558,-0.3278666,-0.11162439,0.55526984,-0.82414526,0.6597792,-0.57875824,-0.47930196,-0.74312276,-0.59725565,-0.30175194,,1.3102079685094334,-0.5456110775639617,0.15559498499000002,2.7383409719644036,0.6296209909191496,-0.7976557159222665,-0.1261016190556636,,-0.9284115006735221,-0.31779045777433856,0.18932185821000003,-1.2946257110734534,-1.2342375023812235,1.0198332374728267,0.02188810486199342,,-0.15580336066396883,-0.3093683365622549,0.088225436,0.08275268144170031
6.404974175005918,11:17:17.008766,11:17:15.862425,0,,0.05398337,-0.00026346743,0.07025918,-0.31696805,0.38977388,-0.86464304,0.5891542,-0.6335112,-0.50155854,-0.7432554,-0.6683861,-0.02883415,,0.032028146,0.04483986,0.049472034,0.048021883,-0.6186783,0.7841755,0.17533815,-0.76766926,-0.6163931,0.9833363,0.16709611,0.071612924,,0.17631994,1.3281205,0.5574618,0.9922798,-0.056556493,-0.11037283,-0.10149355,-0.8817761,-0.46061915,-0.07127311,0.4682652,-0.8807087,,-0.038477883,0.1665024,-0.11247745,0.392141,-0.41425616,0.8213509,0.1425475,-0.85471547,-0.49914095,0.9087935,0.31281513,-0.2761178,,0.00108855,0.3488558,-0.3278666,-0.11162439,0.55526984,-0.82414526,0.6597792,-0.57875824,-0.47930196,-0.74312276,-0.59725565,-0.30175194,,1.3102079685094334,-0.5456110775639617,0.15559498499000002,2.7387603518513726,0.6296209909191496,-0.7976557159222665,-0.1261016190556636,,-0.9284115006735221,-0.31779045777433856,0.18932185821000003,-1.2946257110734534,-1.2342375023812235,1.0198332374728267,0.02188810486199342,,-0.15580336066396883,-0.3093683365622549,0.088225436,0.08275268144170031
6.480777589982608,11:17:17.100504,11:17:15.862425,0,,0.05398418,-0.00026390702,0.070258915,-0.3169628,0.38977817,-0.8646431,0.5891515,-0.63351375,-0.50155836,-0.7432597,-0.6683811,-0.028838128,,0.032028146,0.04483986,0.049472034,0.048021883,-0.6186783,0.7841755,0.17533815,-0.76766926,-0.6163931,0.9833363,0.16709611,0.071612924,,0.17631994,1.3281205,0.5574618,0.9922798,-0.056556493,-0.11037283,-0.10149355,-0.8817761,-0.46061915,-0.07127311,0.4682652,-0.8807087,,-0.038478713,0.16650194,-0.11247737,0.39213574,-0.41426083,0.82135105,0.14254338,-0.8547151,-0.49914268,0.9087964,0.31280982,-0.27611423,,0.00108855,0.3488558,-0.3278666,-0.11162439,0.55526984,-0.82414526,0.6597792,-0.57875824,-0.47930196,-0.74312276,-0.59725565,-0.30175194,,1.3102002457765591,-0.5456110775639617,0.15559498499000002,2.7387603518513726,0.6296209909191496,-0.7976557159222665,-0.1261016190556636,,-0.9284115006735221,-0.31779045777433856,0.18932185821000003,-1.2946257110734534,-1.2342375023812235,1.0198332374728267,0.02188810486199342,,-0.15580336066396883,-0.3093683365622549,0.088225436,0.08275268144170031
6.572511662001489,11:17:17.185425,11:17:15.998665,0,,0.054060116,-0.00013805181,0.07000917,-0.31830412,0.3893426,-0.86434656,0.5888662,-0.6333227,-0.5021343,-0.7429127,-0.6688158,-0.02768138,,0.032045618,0.04494746,0.049245387,0.04917515,-0.6179515,0.7846768,0.17547888,-0.7680617,-0.6158639,0.9832543,0.16797939,0.07066786,,0.17631994,1.3281205,0.5574618,0.9922798,-0.056556493,-0.11037283,-0.10149355,-0.8817761,-0.46061915,-0.07127311,0.4682652,-0.8807087,,-0.038478713,0.16650194,-0.11247737,0.39213574,-0.41426083,0.82135105,0.14254338,-0.8547151,-0.49914268,0.9087964,0.31280982,-0.27611423,,0.0010904747,0.34885415,-0.32786712,-0.11163495,0.55526555,-0.82414675,0.6597864,-0.57874995,-0.47930196,-0.74311477,-0.5972676,-0.30174792,,1.3102002457765591,-0.5456110775639617,0.15559498499000002,2.7387603518513726,0.6296209909191496,-0.7976557159222665,-0.1261016190556636,,-0.9283960552077737,-0.31779045777433856,0.18932185821000003,-1.2946257110734534,-1.2342375023812235,1.0198332374728267,0.02188810486199342,,-0.15580336066396883,-0.3093683365622549,0.088225436,0.08275268144170031
6.657437672984088,11:17:17.266008,11:17:15.998665,0,,0.054059308,-0.00013762712,0.07000944,-0.31830937,0.38933825,-0.8643465,0.58886886,-0.63332015,-0.50213456,-0.74290836,-0.6688208,-0.027677417,,0.032044377,0.044950813,0.04924485,0.049127348,-0.6176373,0.7849271,0.1756072,-0.7682928,-0.6155391,0.9832337,0.16807869,0.07071741,,0.17631994,1.3281205,0.5574618,0.9922798,-0.056556493,-0.11037283,-0.10149355,-0.8817761,-0.46061915,-0.07127311,0.4682652,-0.8807087,,-0.038477883,0.1665024,-0.11247745,0.392141,-0.41425616,0.8213509,0.1425475,-0.85471547,-0.49914095,0.9087935,0.31281513,-0.2761178,,0.0010919577,0.34885672,-0.32786506,-0.111577936,0.55493116,-0.8243796,0.6598849,-0.5788918,-0.47899497,-0.74303585,-0.59744096,-0.30159914,,1.3102079685094334,-0.5456110775639617,0.15559498499000002,2.7387603518513726,0.6296209909191496,-0.7976557159222665,-0.1261016190556636,,-0.9283960552077737,-0.31779045777433856,0.18932185821000003,-1.2950450909604225,-1.2342375023812235,1.0198332374728267,0.02188810486199342,,-0.15580336066396883,-0.3093683365622549,0.088225436,0.08275268144170031
6.737994269991759,11:17:17.340565,11:17:16.143349,0,,0.05411341,-8.3722174e-05,0.06960046,-0.31892174,0.38872924,-0.86439496,0.5901635,-0.6321852,-0.5020446,-0.7416171,-0.6702473,-0.027796239,,0.032082777,0.04504153,0.04893264,0.04998517,-0.6175299,0.78495747,0.17391011,-0.7685517,-0.61569774,0.98349214,0.16728774,0.06897852,,0.17631994,1.3281205,0.5574618,0.9922798,-0.056556493,-0.11037283,-0.10149355,-0.8817761,-0.46061915,-0.07127311,0.4682652,-0.8807087,,-0.038477883,0.1665024,-0.11247745,0.392141,-0.41425616,0.8213509,0.1425475,-0.85471547,-0.49914095,0.9087935,0.31281513,-0.2761178,,0.0010919577,0.34885672,-0.32786506,-0.111577936,0.55493116,-0.8243796,0.6598849,-0.5788918,-0.47899497,-0.74303585,-0.59744096,-0.30159914,,1.3102079685094334,-0.5456110775639617,0.15559498499000002,2.7387603518513726,0.6296209909191496,-0.7976557159222665,-0.1261016190556636,,-0.9283960552077737,-0.31779045777433856,0.18932185821000003,-1.2950450909604225,-1.2342375023812235,1.0198332374728267,0.02188810486199342,,-0.15580336066396883,-0.3093683365622549,0.088225436,0.08275268144170031
6.812522970983991,11:17:17.419917,11:17:16.286923,0,,0.05405304,2.5555491e-05,0.068719834,-0.31454685,0.39122507,-0.86487174,0.5943436,-0.62925017,-0.5007994,-0.74014586,-0.6715559,-0.034593523,,0.03218015,0.045283556,0.048175097,0.045377642,-0.61929804,0.7838436,0.16882673,-0.76861113,-0.6170368,0.98460054,0.16033328,0.069676206,,0.17631994,1.3281205,0.5574618,0.9922798,-0.056556493,-0.11037283,-0.10149355,-0.8817761,-0.46061915,-0.07127311,0.4682652,-0.8807087,,-0.038477883,0.1665024,-0.11247745,0.392141,-0.41425616,0.8213509,0.1425475,-0.85471547,-0.49914095,0.9087935,0.31281513,-0.2761178,,0.0010919577,0.34885672,-0.32786506,-0.111577936,0.55493116,-0.8243796,0.6598849,-0.5788918,-0.47899497,-0.74303585,-0.59744096,-0.30159914,,1.3102079685094334,-0.5456110775639617,0.15559498499000002,2.7387603518513726,0.6296209909191496,-0.7976557159222665,-0.1261016190556636,,-0.9283960552077737,-0.31779045777433856,0.18932185821000003,-1.2950450909604225,-1.2342375023812235,1.0198332374728267,0.02188810486199342,,-0.15580336066396883,-0.3093683365622549,0.088225436,0.08275268144170031
6.891890295984922,11:17:17.498696,11:17:16.286923,0,,0.05405304,2.5555491e-05,0.068719834,-0.31454685,0.39122507,-0.86487174,0.5943436,-0.62925017,-0.5007994,-0.74014586,-0.6715559,-0.034593523,,0.03218015,0.045283556,0.048175097,0.045377642,-0.61929804,0.7838436,0.16882673,-0.76861113,-0.6170368,0.98460054,0.16033328,0.069676206,,0.17631994,1.3281205,0.5574618,0.9922798,-0.056556493,-0.11037283,-0.10149355,-0.8817761,-0.46061915,-0.07127311,0.4682652,-0.8807087,,-0.038477883,0.1665024,-0.11247745,0.392141,-0.41425616,0.8213509,0.1425475,-0.85471547,-0.49914095,0.9087935,0.31281513,-0.2761178,,0.0010919577,0.34885672,-0.32786506,-0.111577936,0.55493116,-0.8243796,0.6598849,-0.5788918,-0.47899497,-0.74303585,-0.59744096,-0.30159914,,1.3102079685094334,-0.5456110775639617,0.15559498499000002,2.7387603518513726,0.6296209909191496,-0.7976557159222665,-0.1261016190556636,,-0.9283960552077737,-0.31779045777433856,0.18932185821000003,-1.2950450909604225,-1.2342375023812235,1.0198332374728267,0.02188810486199342,,-0.15580336066396883,-0.3093683365622549,0.088225436,0.08275268144170031
6.970681331993546,11:17:17.583726,11:17:16.420893,0,,0.054156974,0.00021846592,0.06844601,-0.31634444,0.3904592,-0.86456215,0.59308267,-0.6298927,-0.50148594,-0.74039125,-0.6713991,-0.03231159,,0.032212894,0.04543172,0.047878653,0.04705818,-0.6184328,0.78442746,0.1702272,-0.76884526,-0.61636007,0.9842806,0.16253561,0.06909357,,0.17631994,1.3281205,0.5574618,0.9922798,-0.056556493,-0.11037283,-0.10149355,-0.8817761,-0.46061915,-0.07127311,0.4682652,-0.8807087,,-0.038477883,0.1665024,-0.11247745,0.392141,-0.41425616,0.8213509,0.1425475,-0.85471547,-0.49914095,0.9087935,0.31281513,-0.2761178,,0.0010919577,0.34885672,-0.32786506,-0.111577936,0.55493116,-0.8243796,0.6598849,-0.5788918,-0.47899497,-0.74303585,-0.59744096,-0.30159914,,1.3102079685094334,-0.5456110775639617,0.15559498499000002,2.7387603518513726,0.6296209909191496,-0.7976557159222665,-0.1261016190556636,,-0.9283960552077737,-0.31779045777433856,0.18932185821000003,-1.2950450909604225,-1.2342375023812235,1.0198332374728267,0.02188810486199342,,-0.15580336066396883,-0.3093683365622549,0.088225436,0.08275268144170031
7.0557382100087125,11:17:17.667690,11:17:16.420893,0,,0.054156974,0.00021846592,0.06844601,-0.31634444,0.3904592,-0.86456215,0.59308267,-0.6298927,-0.50148594,-0.74039125,-0.6713991,-0.03231159,,0.032214135,0.045428395,0.04787916,0.04710588,-0.6187467,0.78417706,0.17009869,-0.7686135,-0.61668444,0.98430043,0.16243684,0.06904173,,0.17631994,1.3281205,0.5574618,0.9922798,-0.056556493,-0.11037283,-0.10149355,-0.8817761,-0.46061915,-0.07127311,0.4682652,-0.8807087,,-0.038477883,0.1665024,-0.11247745,0.392141,-0.41425616,0.8213509,0.1425475,-0.85471547,-0.49914095,0.9087935,0.31281513,-0.2761178,,0.0010904747,0.34885415,-0.32786712,-0.11163495,0.55526555,-0.82414675,0.6597864,-0.57874995,-0.47930196,-0.74311477,-0.5972676,-0.30174792,,1.3102079685094334,-0.5456110775639617,0.15559498499000002,2.7387603518513726,0.6296209909191496,-0.7976557159222665,-0.1261016190556636,,-0.9283960552077737,-0.31779045777433856,0.18932185821000003,-1.2946257110734534,-1.2342375023812235,1.0198332374728267,0.02188810486199342,,-0.15580336066396883,-0.3093683365622549,0.088225436,0.08275268144170031
7.13970221800264,11:17:17.751750,11:17:16.569442,0,,0.054138064,0.00018392503,0.06836435,-0.31676847,0.3900607,-0.86458695,0.5940276,-0.6290425,-0.5014347,-0.73945177,-0.672427,-0.032445952,,0.03217364,0.045437634,0.047831804,0.047598496,-0.61895984,0.78397906,0.16898909,-0.7685647,-0.61705005,0.98446786,0.16185457,0.068014964,,0.17627865,1.3281301,0.55746084,0.9922824,-0.056534037,-0.11036109,-0.10146828,-0.8817775,-0.46062198,-0.07127311,0.4682652,-0.8807087,,-0.03843017,0.1665167,-0.112502165,0.39243498,-0.41433182,0.8211723,0.14263332,-0.8545784,-0.49935114,0.90865314,0.31308937,-0.27626893,,0.0011673202,0.34886995,-0.32786655,-0.11164394,0.55529654,-0.8241246,0.65977246,-0.5787389,-0.47933447,-0.7431258,-0.5972495,-0.30175668,,1.3102002457765591,-0.5456110775639617,0.15559498499000002,2.7383409719644036,0.6296209909191496,-0.7976557159222665,-0.1261016190556636,,-0.9283960552077737,-0.31779045777433856,0.18932185821000003,-1.2946257110734534,-1.2342375023812235,1.0198332374728267,0.02188810486199342,,-0.15580336066396883,-0.3093683365622549,0.088225436,0.08275268144170031
