AlexandreBanks6/ExpertPlaybackApp/resources/Motions/PC1/Data_PC1_35.csv
Task Time,PC1 Time,PC2 Time,Gaze Calib,s_T_psm1,Tx,Ty,Tz,R00,R01,R02,R10,R11,R12,R20,R21,R22,s_T_psm3,Tx,Ty,Tz,R00,R01,R02,R10,R11,R12,R20,R21,R22,cart_T_ecm,Tx,Ty,Tz,R00,R01,R02,R10,R11,R12,R20,R21,R22,ecm_T_psm1,Tx,Ty,Tz,R00,R01,R02,R10,R11,R12,R20,R21,R22,ecm_T_psm3,Tx,Ty,Tz,R00,R01,R02,R10,R11,R12,R20,R21,R22,psm1_joints,q1,q2,q3,q4,q5,q6,jaw,psm3_joints,q1,q2,q3,q4,q5,q6,jaw,ecm_joints,q1,q2,q3,q4,ecmi_T_ecm,Tx,Ty,Tz,R00,R01,R02,R10,R11,R12,R20,R21,R22,Sample #,Task Duration (s),Collisions (binary),Collisions (increments),Cumulative Collision Time (s),Clutch Press,MTMR Angle,MTML Angle
""
lci_T_si,,,,,-0.06911255,0.020764593,0.26076955,0.9953428,0.0400677,0.08767717,0.08684432,-0.7674894,-0.63515204,0.041842222,0.6398083,-0.76739466
rci_T_si,,,,,-0.07835912,0.026536781,0.2722765,0.9955334,0.015615062,0.093109466,0.07183176,-0.76526916,-0.63969004,0.061265003,0.643521,-0.76297265
ecm_T_lc,,,,,-4.4061628e-05,-0.00034663224,-0.01840835,-0.99912,0.030754527,0.028518902,-0.031987965,-0.99852574,-0.043852776,0.027128186,-0.04472645,0.9986309
ecm_T_rc,,,,,-0.0043358393,0.01870579,-0.007592615,-0.99555075,-0.052743673,-0.078081585,0.04863213,-0.9973746,0.053654674,-0.08070653,0.04961868,0.9955021
cart_T_ecmi,,,,,0.08746113,1.3322496,0.46482307,0.99604315,0.0028804142,-0.08882411,-0.053876545,-0.77529705,-0.6292947,-0.0706777,0.63159025,-0.7720741
ecmac_T_ecmrep_psm1,,,,,0.08626859,-0.2052861,-0.33370098,0.999004,0.025128257,0.036871605,-0.023534218,0.9987958,-0.04304718,-0.037908904,0.04213656,0.9983924
ecmac_T_ecmrep_psm3,,,,,-0.16209933,-0.49188918,-0.56672233,0.99379694,-0.09876928,0.05111077,0.087427974,0.9779163,0.18983154,-0.068731576,-0.18418549,0.98048544
""
0,11:40:15.942237,NaN,0,,0.006918871,0.01169306,0.07085505,-0.6354941,-0.16671504,-0.75389206,-0.48193678,0.8484957,0.2186135,0.60322803,0.502256,-0.6195602,,0.1538357,-0.03421445,0.04609573,-0.62510043,-0.17855003,0.7598483,0.22240168,0.8923891,0.39265668,-0.7481891,0.41444126,-0.518123,,0.08742359,1.332252,0.46482176,0.99604535,0.0029118597,-0.08879858,-0.05383615,-0.7752969,-0.6292983,-0.0706777,0.63159025,-0.7720741,,-0.048790514,0.24907811,-0.12537642,0.60619605,0.0796972,0.791312,0.07411634,0.98497564,-0.15597999,-0.7918542,0.1532036,0.59118146,,0.044872228,0.43160966,-0.37379703,0.6925587,-0.01849049,-0.7211245,-0.32437348,0.88491946,-0.33421454,0.6443169,0.46537685,0.6068609,,0.8265332085967524,-0.35657402226869406,0.16341420627000003,0.6385058779103767,-0.24266642358342222,0.5033566850905471,0.8722573131570512,,-0.6686033213188611,-0.550646299397956,0.14974482822000001,2.137369593937757,0.35785099288568856,0.6491355966383492,0.8758508826120052,,-0.06956664232292899,-0.09922196797587764,0.1150502548,-0.034016912529394594,,-3.742054e-05,-2.7418137e-06,2.861023e-06,1.0,3.1311065e-05,2.5618821e-05,-3.131479e-05,1.0,2.8908253e-06,-2.5618821e-05,-2.8908253e-06,1.0,NaN,NaN,NaN,NaN,NaN,False,1.0469592201351996,1.0502874705711984
0.026739105000160635,11:40:15.962308,11:39:57.940922,0,,0.006918871,0.01169306,0.07085505,-0.6354941,-0.16671504,-0.75389206,-0.48193678,0.8484957,0.2186135,0.60322803,0.502256,-0.6195602,,0.1538357,-0.03421445,0.04609573,-0.62510043,-0.17855003,0.7598483,0.22240168,0.8923891,0.39265668,-0.7481891,0.41444126,-0.518123,,0.08742359,1.332252,0.46482176,0.99604535,0.0029118597,-0.08879858,-0.05383615,-0.7752969,-0.6292983,-0.0706777,0.63159025,-0.7720741,,-0.048790514,0.24907811,-0.12537642,0.60619605,0.0796972,0.791312,0.07411634,0.98497564,-0.15597999,-0.7918542,0.1532036,0.59118146,,0.044872228,0.43160966,-0.37379703,0.6925587,-0.01849049,-0.7211245,-0.32437348,0.88491946,-0.33421454,0.6443169,0.46537685,0.6068609,,0.8265332085967524,-0.35657402226869406,0.16341420627000003,0.6385058779103767,-0.24266642358342222,0.5033566850905471,0.8722573131570512,,-0.6686033213188611,-0.550646299397956,0.14974482822000001,2.137369593937757,0.35785099288568856,0.6491355966383492,0.8758508826120052,,-0.06956664232292899,-0.09922196797587764,0.1150502548,-0.034016912529394594,,-3.742054e-05,-2.7418137e-06,2.861023e-06,1.0,3.1311065e-05,2.5618821e-05,-3.131479e-05,1.0,2.8908253e-06,-2.5618821e-05,-2.8908253e-06,1.0,8,0.024,0,0,0.0,False,1.0466613315425946,1.0503840309727575
0.046801934999166406,11:40:15.983378,11:39:57.940922,0,,0.006918871,0.01169306,0.07085505,-0.6354941,-0.16671504,-0.75389206,-0.48193678,0.8484957,0.2186135,0.60322803,0.502256,-0.6195602,,0.15383652,-0.034214195,0.046096087,-0.62509495,-0.17855106,0.7598525,0.2224052,0.8923883,0.3926567,-0.74819267,0.41444272,-0.5181166,,0.08742359,1.332252,0.46482176,0.99604535,0.0029118597,-0.08879858,-0.05383615,-0.7752969,-0.6292983,-0.0706777,0.63159025,-0.7720741,,-0.048790514,0.24907811,-0.12537642,0.60619605,0.0796972,0.791312,0.07411634,0.98497564,-0.15597999,-0.7918542,0.1532036,0.59118146,,0.04487134,0.43160993,-0.3737971,0.69255334,-0.01848957,-0.72112966,-0.32437542,0.8849203,-0.33421046,0.64432174,0.4653753,0.60685694,,0.8265332085967524,-0.35657402226869406,0.16341420627000003,0.6385058779103767,-0.24266642358342222,0.5033566850905471,0.8722573131570512,,-0.6686110440517353,-0.550646299397956,0.14974482822000001,2.137369593937757,0.35785099288568856,0.6491355966383492,0.8758508826120052,,-0.06956664232292899,-0.09922196797587764,0.1150502548,-0.034016912529394594,,-3.742054e-05,-2.7418137e-06,2.861023e-06,1.0,3.1311065e-05,2.5618821e-05,-3.131479e-05,1.0,2.8908253e-06,-2.5618821e-05,-2.8908253e-06,1.0,12,0.036,0,0,0.0,False,1.0467209092611154,1.0501909101696396
0.06786630699934904,11:40:16.006825,11:39:57.940922,0,,0.006918871,0.01169306,0.07085505,-0.6354941,-0.16671504,-0.75389206,-0.48193678,0.8484957,0.2186135,0.60322803,0.502256,-0.6195602,,0.1538357,-0.03421445,0.04609573,-0.62510043,-0.17855003,0.7598483,0.22240168,0.8923891,0.39265668,-0.7481891,0.41444126,-0.518123,,0.08742359,1.332252,0.46482176,0.99604535,0.0029118597,-0.08879858,-0.05383615,-0.7752969,-0.6292983,-0.0706777,0.63159025,-0.7720741,,-0.048790514,0.24907811,-0.12537642,0.60619605,0.0796972,0.791312,0.07411634,0.98497564,-0.15597999,-0.7918542,0.1532036,0.59118146,,0.044872228,0.43160966,-0.37379703,0.6925587,-0.01849049,-0.7211245,-0.32437348,0.88491946,-0.33421454,0.6443169,0.46537685,0.6068609,,0.8265332085967524,-0.35657402226869406,0.16341420627000003,0.6385058779103767,-0.24266642358342222,0.5033566850905471,0.8722573131570512,,-0.6686033213188611,-0.550646299397956,0.14974482822000001,2.137369593937757,0.35785099288568856,0.6491355966383492,0.8758508826120052,,-0.06956664232292899,-0.09922196797587764,0.1150502548,-0.034016912529394594,,-3.742054e-05,-2.7418137e-06,2.861023e-06,1.0,3.1311065e-05,2.5618821e-05,-3.131479e-05,1.0,2.8908253e-06,-2.5618821e-05,-2.8908253e-06,1.0,23,0.069,0,0,0.0,False,1.0468400646981575,1.05014262996886
0.0913252200007264,11:40:16.037179,11:39:57.940922,0,,0.006918871,0.01169306,0.07085505,-0.6354941,-0.16671504,-0.75389206,-0.48193678,0.8484957,0.2186135,0.60322803,0.502256,-0.6195602,,0.1538357,-0.03421445,0.04609573,-0.62510043,-0.17855003,0.7598483,0.22240168,0.8923891,0.39265668,-0.7481891,0.41444126,-0.518123,,0.08742359,1.332252,0.46482176,0.99604535,0.0029118597,-0.08879858,-0.05383615,-0.7752969,-0.6292983,-0.0706777,0.63159025,-0.7720741,,-0.048790514,0.24907811,-0.12537642,0.60619605,0.0796972,0.791312,0.07411634,0.98497564,-0.15597999,-0.7918542,0.1532036,0.59118146,,0.044872228,0.43160966,-0.37379703,0.6925587,-0.01849049,-0.7211245,-0.32437348,0.88491946,-0.33421454,0.6443169,0.46537685,0.6068609,,0.8265332085967524,-0.35657402226869406,0.16341420627000003,0.6385058779103767,-0.24266642358342222,0.5033566850905471,0.8722573131570512,,-0.6686033213188611,-0.550646299397956,0.14974482822000001,2.137369593937757,0.35785099288568856,0.6491355966383492,0.8758508826120052,,-0.06956664232292899,-0.09922196797587764,0.1150502548,-0.034016912529394594,,-3.742054e-05,-2.7418137e-06,2.861023e-06,1.0,3.1311065e-05,2.5618821e-05,-3.131479e-05,1.0,2.8908253e-06,-2.5618821e-05,-2.8908253e-06,1.0,34,0.102,0,0,0.0,False,1.0468400646981575,1.0502391903704191
0.12168131299949891,11:40:16.074624,11:39:58.055376,0,,0.006918871,0.01169306,0.07085505,-0.6354941,-0.16671504,-0.75389206,-0.48193678,0.8484957,0.2186135,0.60322803,0.502256,-0.6195602,,0.1538357,-0.03421445,0.04609573,-0.62510043,-0.17855003,0.7598483,0.22240168,0.8923891,0.39265668,-0.7481891,0.41444126,-0.518123,,0.08742359,1.332252,0.46482176,0.99604535,0.0029118597,-0.08879858,-0.05383615,-0.7752969,-0.6292983,-0.0706777,0.63159025,-0.7720741,,-0.048790514,0.24907811,-0.12537642,0.60619605,0.0796972,0.791312,0.07411634,0.98497564,-0.15597999,-0.7918542,0.1532036,0.59118146,,0.044872228,0.43160966,-0.37379703,0.6925587,-0.01849049,-0.7211245,-0.32437348,0.88491946,-0.33421454,0.6443169,0.46537685,0.6068609,,0.8265332085967524,-0.35657402226869406,0.16341420627000003,0.6385058779103767,-0.24266642358342222,0.5033566850905471,0.8722573131570512,,-0.6686033213188611,-0.550646299397956,0.14974482822000001,2.137369593937757,0.35785099288568856,0.6491355966383492,0.8758508826120052,,-0.06956664232292899,-0.09922196797587764,0.1150502548,-0.034016912529394594,,-3.742054e-05,-2.7418137e-06,2.861023e-06,1.0,3.1311065e-05,2.5618821e-05,-3.131479e-05,1.0,2.8908253e-06,-2.5618821e-05,-2.8908253e-06,1.0,46,0.138,0,0,0.0,False,1.046244287512947,1.0504805913743163
0.15912429300078657,11:40:16.107801,11:39:58.055376,0,,0.0069184033,0.011693843,0.07085517,-0.63570154,-0.16641241,-0.75378406,-0.48159125,0.84864545,0.21879363,0.60328543,0.5021033,-0.619628,,0.1538357,-0.03421445,0.04609573,-0.62510043,-0.17855003,0.7598483,0.22240168,0.8923891,0.39265668,-0.7481891,0.41444126,-0.518123,,0.08742359,1.332252,0.46482176,0.99604535,0.0029118597,-0.08879858,-0.05383615,-0.7752969,-0.6292983,-0.0706777,0.63159025,-0.7720741,,-0.048790097,0.24907883,-0.12537603,0.6063798,0.07940126,0.791201,0.07443696,0.98496485,-0.15589531,-0.79168344,0.15342636,0.5913524,,0.044872228,0.43160966,-0.37379703,0.6925587,-0.01849049,-0.7211245,-0.32437348,0.88491946,-0.33421454,0.6443169,0.46537685,0.6068609,,0.8265332085967524,-0.35657402226869406,0.16341420627000003,0.6389252577973457,-0.24266642358342222,0.5033566850905471,0.8722573131570512,,-0.6686033213188611,-0.550646299397956,0.14974482822000001,2.137369593937757,0.35785099288568856,0.6491355966383492,0.8758508826120052,,-0.06956664232292899,-0.09922196797587764,0.1150502548,-0.034016912529394594,,-3.742054e-05,-2.7418137e-06,2.861023e-06,1.0,3.1311065e-05,2.5618821e-05,-3.131479e-05,1.0,2.8908253e-06,-2.5618821e-05,-2.8908253e-06,1.0,57,0.171,0,0,0.0,False,1.0464825983870312,1.050046069567301
0.1922555649998685,11:40:16.134535,11:39:58.055376,0,,0.0069184033,0.011693843,0.07085517,-0.63570154,-0.16641241,-0.75378406,-0.48159125,0.84864545,0.21879363,0.60328543,0.5021033,-0.619628,,0.15383652,-0.034214195,0.046096087,-0.62509495,-0.17855106,0.7598525,0.2224052,0.8923883,0.3926567,-0.74819267,0.41444272,-0.5181166,,0.08742359,1.332252,0.46482176,0.99604535,0.0029118597,-0.08879858,-0.05383615,-0.7752969,-0.6292983,-0.0706777,0.63159025,-0.7720741,,-0.048790097,0.24907883,-0.12537603,0.6063798,0.07940126,0.791201,0.07443696,0.98496485,-0.15589531,-0.79168344,0.15342636,0.5913524,,0.04487134,0.43160993,-0.3737971,0.69255334,-0.01848957,-0.72112966,-0.32437542,0.8849203,-0.33421046,0.64432174,0.4653753,0.60685694,,0.8265332085967524,-0.35657402226869406,0.16341420627000003,0.6389252577973457,-0.24266642358342222,0.5033566850905471,0.8722573131570512,,-0.6686110440517353,-0.550646299397956,0.14974482822000001,2.137369593937757,0.35785099288568856,0.6491355966383492,0.8758508826120052,,-0.06956664232292899,-0.09922196797587764,0.1150502548,-0.034016912529394594,,-3.742054e-05,-2.7418137e-06,2.861023e-06,1.0,3.1311065e-05,2.5618821e-05,-3.131479e-05,1.0,2.8908253e-06,-2.5618821e-05,-2.8908253e-06,1.0,65,0.196,0,0,0.0,False,1.04642302066851,1.049804668563404
0.2189978059996065,11:40:16.161936,11:39:58.055376,0,,0.0069174366,0.011694275,0.07085559,-0.63569695,-0.16640955,-0.7537885,-0.48159373,0.84864366,0.21879512,0.6032883,0.5021072,-0.61962205,,0.1538357,-0.03421445,0.04609573,-0.62510043,-0.17855003,0.7598483,0.22240168,0.8923891,0.39265668,-0.7481891,0.41444126,-0.518123,,0.08742359,1.332252,0.46482176,0.99604535,0.0029118597,-0.08879858,-0.05383615,-0.7752969,-0.6292983,-0.0706777,0.63159025,-0.7720741,,-0.048789192,0.2490795,-0.1253761,0.60637516,0.07939818,0.7912048,0.07443644,0.98496574,-0.15588997,-0.7916871,0.15342228,0.59134865,,0.044872228,0.43160966,-0.37379703,0.6925587,-0.01849049,-0.7211245,-0.32437348,0.88491946,-0.33421454,0.6443169,0.46537685,0.6068609,,0.8265409313296266,-0.35657402226869406,0.16341420627000003,0.6389252577973457,-0.24266642358342222,0.5033566850905471,0.8722573131570512,,-0.6686033213188611,-0.550646299397956,0.14974482822000001,2.137369593937757,0.35785099288568856,0.6491355966383492,0.8758508826120052,,-0.06956664232292899,-0.09922196797587764,0.1150502548,-0.034016912529394594,,-3.742054e-05,-2.7418137e-06,2.861023e-06,1.0,3.1311065e-05,2.5618821e-05,-3.131479e-05,1.0,2.8908253e-06,-2.5618821e-05,-2.8908253e-06,1.0,73,0.22,0,0,0.0,False,1.0466613315425946,1.0499495091657423
0.24643805300001986,11:40:16.184597,11:39:58.055376,0,,0.0069184033,0.011693843,0.07085517,-0.63570154,-0.16641241,-0.75378406,-0.48159125,0.84864545,0.21879363,0.60328543,0.5021033,-0.619628,,0.1538357,-0.03421445,0.04609573,-0.62510043,-0.17855003,0.7598483,0.22240168,0.8923891,0.39265668,-0.7481891,0.41444126,-0.518123,,0.08742359,1.332252,0.46482176,0.99604535,0.0029118597,-0.08879858,-0.05383615,-0.7752969,-0.6292983,-0.0706777,0.63159025,-0.7720741,,-0.048790097,0.24907883,-0.12537603,0.6063798,0.07940126,0.791201,0.07443696,0.98496485,-0.15589531,-0.79168344,0.15342636,0.5913524,,0.044872228,0.43160966,-0.37379703,0.6925587,-0.01849049,-0.7211245,-0.32437348,0.88491946,-0.33421454,0.6443169,0.46537685,0.6068609,,0.8265332085967524,-0.35657402226869406,0.16341420627000003,0.6389252577973457,-0.24266642358342222,0.5033566850905471,0.8722573131570512,,-0.6686033213188611,-0.550646299397956,0.14974482822000001,2.137369593937757,0.35785099288568856,0.6491355966383492,0.8758508826120052,,-0.06956664232292899,-0.09922196797587764,0.1150502548,-0.034016912529394594,,-3.742054e-05,-2.7418137e-06,2.861023e-06,1.0,3.1311065e-05,2.5618821e-05,-3.131479e-05,1.0,2.8908253e-06,-2.5618821e-05,-2.8908253e-06,1.0,80,0.242,0,0,0.0,False,1.04642302066851,1.0499977893665218
0.269045331999223,11:40:16.199496,11:39:58.199634,0,,0.0069184033,0.011693843,0.07085517,-0.63570154,-0.16641241,-0.75378406,-0.48159125,0.84864545,0.21879363,0.60328543,0.5021033,-0.619628,,0.1538357,-0.03421445,0.04609573,-0.62510043,-0.17855003,0.7598483,0.22240168,0.8923891,0.39265668,-0.7481891,0.41444126,-0.518123,,0.08742359,1.332252,0.46482176,0.99604535,0.0029118597,-0.08879858,-0.05383615,-0.7752969,-0.6292983,-0.0706777,0.63159025,-0.7720741,,-0.048790097,0.24907883,-0.12537603,0.6063798,0.07940126,0.791201,0.07443696,0.98496485,-0.15589531,-0.79168344,0.15342636,0.5913524,,0.044872228,0.43160966,-0.37379703,0.6925587,-0.01849049,-0.7211245,-0.32437348,0.88491946,-0.33421454,0.6443169,0.46537685,0.6068609,,0.8265332085967524,-0.35657402226869406,0.16341420627000003,0.6389252577973457,-0.24266642358342222,0.5033566850905471,0.8722573131570512,,-0.6686033213188611,-0.550646299397956,0.14974482822000001,2.137369593937757,0.35785099288568856,0.6491355966383492,0.8758508826120052,,-0.06956664232292899,-0.09922196797587764,0.1150502548,-0.034016912529394594,,-3.742054e-05,-2.7418137e-06,2.861023e-06,1.0,3.1311065e-05,2.5618821e-05,-3.131479e-05,1.0,2.8908253e-06,-2.5618821e-05,-2.8908253e-06,1.0,88,0.265,0,0,0.0,False,1.0468400646981575,1.0498529487641832
0.28392977499970584,11:40:16.226700,11:39:58.199634,0,,0.0069184033,0.011693843,0.07085517,-0.63570154,-0.16641241,-0.75378406,-0.48159125,0.84864545,0.21879363,0.60328543,0.5021033,-0.619628,,0.1538357,-0.03421445,0.04609573,-0.62510043,-0.17855003,0.7598483,0.22240168,0.8923891,0.39265668,-0.7481891,0.41444126,-0.518123,,0.08742359,1.332252,0.46482176,0.99604535,0.0029118597,-0.08879858,-0.05383615,-0.7752969,-0.6292983,-0.0706777,0.63159025,-0.7720741,,-0.048790097,0.24907883,-0.12537603,0.6063798,0.07940126,0.791201,0.07443696,0.98496485,-0.15589531,-0.79168344,0.15342636,0.5913524,,0.044872228,0.43160966,-0.37379703,0.6925587,-0.01849049,-0.7211245,-0.32437348,0.88491946,-0.33421454,0.6443169,0.46537685,0.6068609,,0.8265332085967524,-0.35657402226869406,0.16341420627000003,0.6389252577973457,-0.24266642358342222,0.5033566850905471,0.8722573131570512,,-0.6686033213188611,-0.550646299397956,0.14974482822000001,2.137369593937757,0.35785099288568856,0.6491355966383492,0.8758508826120052,,-0.06956664232292899,-0.09922196797587764,0.1150502548,-0.034016912529394594,,-3.742054e-05,-2.7418137e-06,2.861023e-06,1.0,3.1311065e-05,2.5618821e-05,-3.131479e-05,1.0,2.8908253e-06,-2.5618821e-05,-2.8908253e-06,1.0,96,0.29,0,0,0.0,False,1.04642302066851,1.0499495091657423
0.3111981649999507,11:40:16.256198,11:39:58.199634,0,,0.0069184033,0.011693843,0.07085517,-0.63570154,-0.16641241,-0.75378406,-0.48159125,0.84864545,0.21879363,0.60328543,0.5021033,-0.619628,,0.15383652,-0.034214195,0.046096087,-0.62509495,-0.17855106,0.7598525,0.2224052,0.8923883,0.3926567,-0.74819267,0.41444272,-0.5181166,,0.08742359,1.332252,0.46482176,0.99604535,0.0029118597,-0.08879858,-0.05383615,-0.7752969,-0.6292983,-0.0706777,0.63159025,-0.7720741,,-0.048790097,0.24907883,-0.12537603,0.6063798,0.07940126,0.791201,0.07443696,0.98496485,-0.15589531,-0.79168344,0.15342636,0.5913524,,0.04487134,0.43160993,-0.3737971,0.69255334,-0.01848957,-0.72112966,-0.32437542,0.8849203,-0.33421046,0.64432174,0.4653753,0.60685694,,0.8265332085967524,-0.35657402226869406,0.16341420627000003,0.6389252577973457,-0.24266642358342222,0.5033566850905471,0.8722573131570512,,-0.6686110440517353,-0.550646299397956,0.14974482822000001,2.137369593937757,0.35785099288568856,0.6491355966383492,0.8758508826120052,,-0.06956664232292899,-0.09922196797587764,0.1150502548,-0.034016912529394594,,-3.742054e-05,-2.7418137e-06,2.861023e-06,1.0,3.1311065e-05,2.5618821e-05,-3.131479e-05,1.0,2.8908253e-06,-2.5618821e-05,-2.8908253e-06,1.0,107,0.323,0,0,0.0,False,1.0468400646981575,1.0499495091657423
0.3407002759995521,11:40:16.286218,11:39:58.199634,0,,0.0069184033,0.011693843,0.07085517,-0.63570154,-0.16641241,-0.75378406,-0.48159125,0.84864545,0.21879363,0.60328543,0.5021033,-0.619628,,0.1538357,-0.03421445,0.04609573,-0.62510043,-0.17855003,0.7598483,0.22240168,0.8923891,0.39265668,-0.7481891,0.41444126,-0.518123,,0.08742359,1.332252,0.46482176,0.99604535,0.0029118597,-0.08879858,-0.05383615,-0.7752969,-0.6292983,-0.0706777,0.63159025,-0.7720741,,-0.048790097,0.24907883,-0.12537603,0.6063798,0.07940126,0.791201,0.07443696,0.98496485,-0.15589531,-0.79168344,0.15342636,0.5913524,,0.044872228,0.43160966,-0.37379703,0.6925587,-0.01849049,-0.7211245,-0.32437348,0.88491946,-0.33421454,0.6443169,0.46537685,0.6068609,,0.8265332085967524,-0.35657402226869406,0.16341420627000003,0.6389252577973457,-0.24266642358342222,0.5033566850905471,0.8722573131570512,,-0.6686033213188611,-0.550646299397956,0.14974482822000001,2.137369593937757,0.35785099288568856,0.6491355966383492,0.8758508826120052,,-0.06956664232292899,-0.09922196797587764,0.1150502548,-0.034016912529394594,,-3.742054e-05,-2.7418137e-06,2.861023e-06,1.0,3.1311065e-05,2.5618821e-05,-3.131479e-05,1.0,2.8908253e-06,-2.5618821e-05,-2.8908253e-06,1.0,118,0.356,0,0,0.0,False,1.0467804869796362,1.0500943497680806
0.3706813169992529,11:40:16.325308,11:39:58.199634,0,,0.0069184033,0.011693843,0.07085517,-0.63570154,-0.16641241,-0.75378406,-0.48159125,0.84864545,0.21879363,0.60328543,0.5021033,-0.619628,,0.1538357,-0.03421445,0.04609573,-0.62510043,-0.17855003,0.7598483,0.22240168,0.8923891,0.39265668,-0.7481891,0.41444126,-0.518123,,0.08742359,1.332252,0.46482176,0.99604535,0.0029118597,-0.08879858,-0.05383615,-0.7752969,-0.6292983,-0.0706777,0.63159025,-0.7720741,,-0.048790097,0.24907883,-0.12537603,0.6063798,0.07940126,0.791201,0.07443696,0.98496485,-0.15589531,-0.79168344,0.15342636,0.5913524,,0.044872228,0.43160966,-0.37379703,0.6925587,-0.01849049,-0.7211245,-0.32437348,0.88491946,-0.33421454,0.6443169,0.46537685,0.6068609,,0.8265332085967524,-0.35657402226869406,0.16341420627000003,0.6389252577973457,-0.24266642358342222,0.5033566850905471,0.8722573131570512,,-0.6686033213188611,-0.550646299397956,0.14974482822000001,2.137369593937757,0.35785099288568856,0.6491355966383492,0.8758508826120052,,-0.06956664232292899,-0.09922196797587764,0.1150502548,-0.034016912529394594,,-3.742054e-05,-2.7418137e-06,2.861023e-06,1.0,3.1311065e-05,2.5618821e-05,-3.131479e-05,1.0,2.8908253e-06,-2.5618821e-05,-2.8908253e-06,1.0,129,0.388,0,0,0.0,False,1.0469592201351996,1.0499012289649627
0.4097986979995767,11:40:16.347027,11:39:58.199634,0,,0.0069184033,0.011693843,0.07085517,-0.63570154,-0.16641241,-0.75378406,-0.48159125,0.84864545,0.21879363,0.60328543,0.5021033,-0.619628,,0.15383652,-0.034214195,0.046096087,-0.62509495,-0.17855106,0.7598525,0.2224052,0.8923883,0.3926567,-0.74819267,0.41444272,-0.5181166,,0.08742359,1.332252,0.46482176,0.99604535,0.0029118597,-0.08879858,-0.05383615,-0.7752969,-0.6292983,-0.0706777,0.63159025,-0.7720741,,-0.048790097,0.24907883,-0.12537603,0.6063798,0.07940126,0.791201,0.07443696,0.98496485,-0.15589531,-0.79168344,0.15342636,0.5913524,,0.04487134,0.43160993,-0.3737971,0.69255334,-0.01848957,-0.72112966,-0.32437542,0.8849203,-0.33421046,0.64432174,0.4653753,0.60685694,,0.8265332085967524,-0.35657402226869406,0.16341420627000003,0.6389252577973457,-0.24266642358342222,0.5033566850905471,0.8722573131570512,,-0.6686110440517353,-0.550646299397956,0.14974482822000001,2.137369593937757,0.35785099288568856,0.6491355966383492,0.8758508826120052,,-0.06956664232292899,-0.09922196797587764,0.1150502548,-0.034016912529394594,,-3.742054e-05,-2.7418137e-06,2.861023e-06,1.0,3.1311065e-05,2.5618821e-05,-3.131479e-05,1.0,2.8908253e-06,-2.5618821e-05,-2.8908253e-06,1.0,133,0.401,0,0,0.0,False,1.0468400646981575,1.0502391903704191
0.43151471899909666,11:40:16.369365,11:39:58.199634,0,,0.0069184033,0.011693843,0.07085517,-0.63570154,-0.16641241,-0.75378406,-0.48159125,0.84864545,0.21879363,0.60328543,0.5021033,-0.619628,,0.1538357,-0.03421445,0.04609573,-0.62510043,-0.17855003,0.7598483,0.22240168,0.8923891,0.39265668,-0.7481891,0.41444126,-0.518123,,0.08742359,1.332252,0.46482176,0.99604535,0.0029118597,-0.08879858,-0.05383615,-0.7752969,-0.6292983,-0.0706777,0.63159025,-0.7720741,,-0.048790097,0.24907883,-0.12537603,0.6063798,0.07940126,0.791201,0.07443696,0.98496485,-0.15589531,-0.79168344,0.15342636,0.5913524,,0.044872228,0.43160966,-0.37379703,0.6925587,-0.01849049,-0.7211245,-0.32437348,0.88491946,-0.33421454,0.6443169,0.46537685,0.6068609,,0.8265332085967524,-0.35657402226869406,0.16341420627000003,0.6389252577973457,-0.24266642358342222,0.5033566850905471,0.8722573131570512,,-0.6686033213188611,-0.550646299397956,0.14974482822000001,2.137369593937757,0.35785099288568856,0.6491355966383492,0.8758508826120052,,-0.06956664232292899,-0.09922196797587764,0.1150502548,-0.034016912529394594,,-3.742054e-05,-2.7418137e-06,2.861023e-06,1.0,3.1311065e-05,2.5618821e-05,-3.131479e-05,1.0,2.8908253e-06,-2.5618821e-05,-2.8908253e-06,1.0,144,0.433,0,0,0.0,False,1.0468996424166788,1.049514987358727
0.4538303369990899,11:40:16.395887,11:39:58.199634,0,,0.0069184033,0.011693843,0.07085517,-0.63570154,-0.16641241,-0.75378406,-0.48159125,0.84864545,0.21879363,0.60328543,0.5021033,-0.619628,,0.15383652,-0.034214195,0.046096087,-0.62509495,-0.17855106,0.7598525,0.2224052,0.8923883,0.3926567,-0.74819267,0.41444272,-0.5181166,,0.08742359,1.332252,0.46482176,0.99604535,0.0029118597,-0.08879858,-0.05383615,-0.7752969,-0.6292983,-0.0706777,0.63159025,-0.7720741,,-0.048790097,0.24907883,-0.12537603,0.6063798,0.07940126,0.791201,0.07443696,0.98496485,-0.15589531,-0.79168344,0.15342636,0.5913524,,0.04487134,0.43160993,-0.3737971,0.69255334,-0.01848957,-0.72112966,-0.32437542,0.8849203,-0.33421046,0.64432174,0.4653753,0.60685694,,0.8265332085967524,-0.35657402226869406,0.16341420627000003,0.6389252577973457,-0.24266642358342222,0.5033566850905471,0.8722573131570512,,-0.6686110440517353,-0.550646299397956,0.14974482822000001,2.137369593937757,0.35785099288568856,0.6491355966383492,0.8758508826120052,,-0.06956664232292899,-0.09922196797587764,0.1150502548,-0.034016912529394594,,-3.742054e-05,-2.7418137e-06,2.861023e-06,1.0,3.1311065e-05,2.5618821e-05,-3.131479e-05,1.0,2.8908253e-06,-2.5618821e-05,-2.8908253e-06,1.0,151,0.454,0,0,0.0,False,1.0468996424166788,1.0497563883626244
0.4803844340003707,11:40:16.423095,11:39:58.199634,0,,0.0069187647,0.011694945,0.07085487,-0.6357046,-0.16641156,-0.7537817,-0.48159358,0.8486426,0.21879978,0.6032804,0.5021084,-0.6196287,,0.15383609,-0.034216534,0.046096206,-0.625096,-0.17854616,0.7598528,0.22239542,0.89239585,0.39264494,-0.74819463,0.41442853,-0.5181252,,0.08742359,1.332252,0.46482176,0.99604535,0.0029118597,-0.08879858,-0.05383615,-0.7752969,-0.6292983,-0.0706777,0.63159025,-0.7720741,,-0.048790492,0.24907945,-0.12537508,0.6063834,0.07940012,0.7911984,0.0744323,0.98496586,-0.15589127,-0.7916812,0.1534206,0.591357,,0.04487207,0.43160877,-0.37379903,0.6925561,-0.018493302,-0.7211269,-0.32438242,0.8849126,-0.3342241,0.6443152,0.46538985,0.6068527,,0.8265332085967524,-0.35656629953581986,0.16341420627000003,0.6389252577973457,-0.24266642358342222,0.5033566850905471,0.8722573131570512,,-0.6686033213188611,-0.5506617448637044,0.14974482822000001,2.137369593937757,0.35785099288568856,0.6491355966383492,0.8758508826120052,,-0.06956664232292899,-0.09922196797587764,0.1150502548,-0.034016912529394594,,-3.742054e-05,-2.7418137e-06,2.861023e-06,1.0,3.1311065e-05,2.5618821e-05,-3.131479e-05,1.0,2.8908253e-06,-2.5618821e-05,-2.8908253e-06,1.0,166,0.499,0,0,0.0,False,1.0468996424166788,1.0498529487641832
0.5075893899993389,11:40:16.458685,11:39:58.420002,0,,0.0069184033,0.011693843,0.07085517,-0.63570154,-0.16641241,-0.75378406,-0.48159125,0.84864545,0.21879363,0.60328543,0.5021033,-0.619628,,0.1538369,-0.034216326,0.046096623,-0.6250905,-0.1785472,0.7598572,0.22239894,0.8923949,0.392645,-0.7481983,0.41442996,-0.51811874,,0.08742359,1.332252,0.46482176,0.99604535,0.0029118597,-0.08879858,-0.05383615,-0.7752969,-0.6292983,-0.0706777,0.63159025,-0.7720741,,-0.048790097,0.24907883,-0.12537603,0.6063798,0.07940126,0.791201,0.07443696,0.98496485,-0.15589531,-0.79168344,0.15342636,0.5913524,,0.044871185,0.43160903,-0.37379912,0.6925507,-0.018492384,-0.7211321,-0.32438436,0.88491344,-0.33422,0.64432,0.46538827,0.6068488,,0.8265332085967524,-0.35657402226869406,0.16341420627000003,0.6389252577973457,-0.24266642358342222,0.5033566850905471,0.8722573131570512,,-0.6686110440517353,-0.5506617448637044,0.14974482822000001,2.137369593937757,0.35785099288568856,0.6491355966383492,0.8758508826120052,,-0.06956664232292899,-0.09922196797587764,0.1150502548,-0.034016912529394594,,-3.742054e-05,-2.7418137e-06,2.861023e-06,1.0,3.1311065e-05,2.5618821e-05,-3.131479e-05,1.0,2.8908253e-06,-2.5618821e-05,-2.8908253e-06,1.0,173,0.519,0,0,0.0,False,1.0471379532907625,1.0496115477602863
0.5431655939992197,11:40:16.487902,11:39:58.420002,0,,0.0069174366,0.011694275,0.07085559,-0.63569695,-0.16640955,-0.7537885,-0.48159373,0.84864366,0.21879512,0.6032883,0.5021072,-0.61962205,,0.1538369,-0.034216326,0.046096623,-0.6250905,-0.1785472,0.7598572,0.22239894,0.8923949,0.392645,-0.7481983,0.41442996,-0.51811874,,0.08742359,1.332252,0.46482176,0.99604535,0.0029118597,-0.08879858,-0.05383615,-0.7752969,-0.6292983,-0.0706777,0.63159025,-0.7720741,,-0.048789192,0.2490795,-0.1253761,0.60637516,0.07939818,0.7912048,0.07443644,0.98496574,-0.15588997,-0.7916871,0.15342228,0.59134865,,0.044871185,0.43160903,-0.37379912,0.6925507,-0.018492384,-0.7211321,-0.32438436,0.88491344,-0.33422,0.64432,0.46538827,0.6068488,,0.8265409313296266,-0.35657402226869406,0.16341420627000003,0.6389252577973457,-0.24266642358342222,0.5033566850905471,0.8722573131570512,,-0.6686110440517353,-0.5506617448637044,0.14974482822000001,2.137369593937757,0.35785099288568856,0.6491355966383492,0.8758508826120052,,-0.06956664232292899,-0.09922196797587764,0.1150502548,-0.034016912529394594,,-3.742054e-05,-2.7418137e-06,2.861023e-06,1.0,3.1311065e-05,2.5618821e-05,-3.131479e-05,1.0,2.8908253e-06,-2.5618821e-05,-2.8908253e-06,1.0,184,0.552,0,0,0.0,False,1.0464825983870312,1.0495632675595068
0.5724038820007991,11:40:16.519696,11:39:58.420002,0,,0.0069164643,0.011694685,0.070856005,-0.63569236,-0.16640672,-0.75379294,-0.4815962,0.8486419,0.21879661,0.6032911,0.5021112,-0.61961615,,0.15383609,-0.034216534,0.046096206,-0.625096,-0.17854616,0.7598528,0.22239542,0.89239585,0.39264494,-0.74819463,0.41442853,-0.5181252,,0.08742359,1.332252,0.46482176,0.99604535,0.0029118597,-0.08879858,-0.05383615,-0.7752969,-0.6292983,-0.0706777,0.63159025,-0.7720741,,-0.048788283,0.24908017,-0.12537618,0.6063705,0.0793951,0.7912087,0.07443593,0.98496664,-0.15588462,-0.79169065,0.1534182,0.5913449,,0.04487207,0.43160877,-0.37379903,0.6925561,-0.018493302,-0.7211269,-0.32438242,0.8849126,-0.3342241,0.6443152,0.46538985,0.6068527,,0.8265486540625008,-0.35657402226869406,0.16341420627000003,0.6389252577973457,-0.24266642358342222,0.5033566850905471,0.8722573131570512,,-0.6686033213188611,-0.5506617448637044,0.14974482822000001,2.137369593937757,0.35785099288568856,0.6491355966383492,0.8758508826120052,,-0.06956664232292899,-0.09922196797587764,0.1150502548,-0.034016912529394594,,-3.742054e-05,-2.7418137e-06,2.861023e-06,1.0,3.1311065e-05,2.5618821e-05,-3.131479e-05,1.0,2.8908253e-06,-2.5618821e-05,-2.8908253e-06,1.0,195,0.585,0,0,0.0,False,1.0468400646981575,1.0495632675595068
0.6041605730006268,11:40:16.548856,11:39:58.420002,0,,0.0069184033,0.011693843,0.07085517,-0.63570154,-0.16641241,-0.75378406,-0.48159125,0.84864545,0.21879363,0.60328543,0.5021033,-0.619628,,0.1538369,-0.034216326,0.046096623,-0.6250905,-0.1785472,0.7598572,0.22239894,0.8923949,0.392645,-0.7481983,0.41442996,-0.51811874,,0.08742359,1.332252,0.46482176,0.99604535,0.0029118597,-0.08879858,-0.05383615,-0.7752969,-0.6292983,-0.0706777,0.63159025,-0.7720741,,-0.048790097,0.24907883,-0.12537603,0.6063798,0.07940126,0.791201,0.07443696,0.98496485,-0.15589531,-0.79168344,0.15342636,0.5913524,,0.044871185,0.43160903,-0.37379912,0.6925507,-0.018492384,-0.7211321,-0.32438436,0.88491344,-0.33422,0.64432,0.46538827,0.6068488,,0.8265332085967524,-0.35657402226869406,0.16341420627000003,0.6389252577973457,-0.24266642358342222,0.5033566850905471,0.8722573131570512,,-0.6686110440517353,-0.5506617448637044,0.14974482822000001,2.137369593937757,0.35785099288568856,0.6491355966383492,0.8758508826120052,,-0.06956664232292899,-0.09922196797587764,0.1150502548,-0.034016912529394594,,-3.742054e-05,-2.7418137e-06,2.861023e-06,1.0,3.1311065e-05,2.5618821e-05,-3.131479e-05,1.0,2.8908253e-06,-2.5618821e-05,-2.8908253e-06,1.0,206,0.618,0,0,0.0,False,1.0461847097944261,1.049708108161845
0.6333005659998889,11:40:16.579330,11:39:58.420002,0,,0.0069184033,0.011693843,0.07085517,-0.63570154,-0.16641241,-0.75378406,-0.48159125,0.84864545,0.21879363,0.60328543,0.5021033,-0.619628,,0.15383609,-0.034216534,0.046096206,-0.625096,-0.17854616,0.7598528,0.22239542,0.89239585,0.39264494,-0.74819463,0.41442853,-0.5181252,,0.08742359,1.332252,0.46482176,0.99604535,0.0029118597,-0.08879858,-0.05383615,-0.7752969,-0.6292983,-0.0706777,0.63159025,-0.7720741,,-0.048790097,0.24907883,-0.12537603,0.6063798,0.07940126,0.791201,0.07443696,0.98496485,-0.15589531,-0.79168344,0.15342636,0.5913524,,0.04487207,0.43160877,-0.37379903,0.6925561,-0.018493302,-0.7211269,-0.32438242,0.8849126,-0.3342241,0.6443152,0.46538985,0.6068527,,0.8265332085967524,-0.35657402226869406,0.16341420627000003,0.6389252577973457,-0.24266642358342222,0.5033566850905471,0.8722573131570512,,-0.6686033213188611,-0.5506617448637044,0.14974482822000001,2.137369593937757,0.35785099288568856,0.6491355966383492,0.8758508826120052,,-0.06956664232292899,-0.09922196797587764,0.1150502548,-0.034016912529394594,,-3.742054e-05,-2.7418137e-06,2.861023e-06,1.0,3.1311065e-05,2.5618821e-05,-3.131479e-05,1.0,2.8908253e-06,-2.5618821e-05,-2.8908253e-06,1.0,217,0.65,0,0,0.0,False,1.0472571087278046,1.0499977893665218
0.6638235219998023,11:40:16.610003,11:39:58.420002,0,,0.0069164643,0.011694685,0.070856005,-0.63569236,-0.16640672,-0.75379294,-0.4815962,0.8486419,0.21879661,0.6032911,0.5021112,-0.61961615,,0.15383609,-0.034216534,0.046096206,-0.625096,-0.17854616,0.7598528,0.22239542,0.89239585,0.39264494,-0.74819463,0.41442853,-0.5181252,,0.08742359,1.332252,0.46482176,0.99604535,0.0029118597,-0.08879858,-0.05383615,-0.7752969,-0.6292983,-0.0706777,0.63159025,-0.7720741,,-0.048788283,0.24908017,-0.12537618,0.6063705,0.0793951,0.7912087,0.07443593,0.98496664,-0.15588462,-0.79169065,0.1534182,0.5913449,,0.04487207,0.43160877,-0.37379903,0.6925561,-0.018493302,-0.7211269,-0.32438242,0.8849126,-0.3342241,0.6443152,0.46538985,0.6068527,,0.8265486540625008,-0.35657402226869406,0.16341420627000003,0.6389252577973457,-0.24266642358342222,0.5033566850905471,0.8722573131570512,,-0.6686033213188611,-0.5506617448637044,0.14974482822000001,2.137369593937757,0.35785099288568856,0.6491355966383492,0.8758508826120052,,-0.06956664232292899,-0.09922196797587764,0.1150502548,-0.034016912529394594,,-3.742054e-05,-2.7418137e-06,2.861023e-06,1.0,3.1311065e-05,2.5618821e-05,-3.131479e-05,1.0,2.8908253e-06,-2.5618821e-05,-2.8908253e-06,1.0,221,0.663,0,0,0.0,False,1.0472571087278046,1.0496115477602863
0.694503655000517,11:40:16.630098,11:39:58.420002,0,,0.0069174366,0.011694275,0.07085559,-0.63569695,-0.16640955,-0.7537885,-0.48159373,0.84864366,0.21879512,0.6032883,0.5021072,-0.61962205,,0.15383609,-0.034216534,0.046096206,-0.625096,-0.17854616,0.7598528,0.22239542,0.89239585,0.39264494,-0.74819463,0.41442853,-0.5181252,,0.08742359,1.332252,0.46482176,0.99604535,0.0029118597,-0.08879858,-0.05383615,-0.7752969,-0.6292983,-0.0706777,0.63159025,-0.7720741,,-0.048789192,0.2490795,-0.1253761,0.60637516,0.07939818,0.7912048,0.07443644,0.98496574,-0.15588997,-0.7916871,0.15342228,0.59134865,,0.04487207,0.43160877,-0.37379903,0.6925561,-0.018493302,-0.7211269,-0.32438242,0.8849126,-0.3342241,0.6443152,0.46538985,0.6068527,,0.8265409313296266,-0.35657402226869406,0.16341420627000003,0.6389252577973457,-0.24266642358342222,0.5033566850905471,0.8722573131570512,,-0.6686033213188611,-0.5506617448637044,0.14974482822000001,2.137369593937757,0.35785099288568856,0.6491355966383492,0.8758508826120052,,-0.06956664232292899,-0.09922196797587764,0.1150502548,-0.034016912529394594,,-3.742054e-05,-2.7418137e-06,2.861023e-06,1.0,3.1311065e-05,2.5618821e-05,-3.131479e-05,1.0,2.8908253e-06,-2.5618821e-05,-2.8908253e-06,1.0,228,0.684,0,0,0.0,False,1.0467209092611154,1.0491287457524916
0.714601039999252,11:40:16.647352,11:39:58.420002,0,,0.0069184033,0.011693843,0.07085517,-0.63570154,-0.16641241,-0.75378406,-0.48159125,0.84864545,0.21879363,0.60328543,0.5021033,-0.619628,,0.15383652,-0.034214195,0.046096087,-0.62509495,-0.17855106,0.7598525,0.2224052,0.8923883,0.3926567,-0.74819267,0.41444272,-0.5181166,,0.08742359,1.332252,0.46482176,0.99604535,0.0029118597,-0.08879858,-0.05383615,-0.7752969,-0.6292983,-0.0706777,0.63159025,-0.7720741,,-0.048790097,0.24907883,-0.12537603,0.6063798,0.07940126,0.791201,0.07443696,0.98496485,-0.15589531,-0.79168344,0.15342636,0.5913524,,0.04487134,0.43160993,-0.3737971,0.69255334,-0.01848957,-0.72112966,-0.32437542,0.8849203,-0.33421046,0.64432174,0.4653753,0.60685694,,0.8265332085967524,-0.35657402226869406,0.16341420627000003,0.6389252577973457,-0.24266642358342222,0.5033566850905471,0.8722573131570512,,-0.6686110440517353,-0.550646299397956,0.14974482822000001,2.137369593937757,0.35785099288568856,0.6491355966383492,0.8758508826120052,,-0.06956664232292899,-0.09922196797587764,0.1150502548,-0.034016912529394594,,-3.742054e-05,-2.7418137e-06,2.861023e-06,1.0,3.1311065e-05,2.5618821e-05,-3.131479e-05,1.0,2.8908253e-06,-2.5618821e-05,-2.8908253e-06,1.0,239,0.717,0,0,0.0,False,1.0464825983870312,1.0496115477602863
0.7318445090004388,11:40:16.680487,11:39:58.656475,0,,0.0069184033,0.011693843,0.07085517,-0.63570154,-0.16641241,-0.75378406,-0.48159125,0.84864545,0.21879363,0.60328543,0.5021033,-0.619628,,0.15383652,-0.034214195,0.046096087,-0.62509495,-0.17855106,0.7598525,0.2224052,0.8923883,0.3926567,-0.74819267,0.41444272,-0.5181166,,0.08742359,1.332252,0.46482176,0.99604535,0.0029118597,-0.08879858,-0.05383615,-0.7752969,-0.6292983,-0.0706777,0.63159025,-0.7720741,,-0.048790097,0.24907883,-0.12537603,0.6063798,0.07940126,0.791201,0.07443696,0.98496485,-0.15589531,-0.79168344,0.15342636,0.5913524,,0.04487134,0.43160993,-0.3737971,0.69255334,-0.01848957,-0.72112966,-0.32437542,0.8849203,-0.33421046,0.64432174,0.4653753,0.60685694,,0.8265332085967524,-0.35657402226869406,0.16341420627000003,0.6389252577973457,-0.24266642358342222,0.5033566850905471,0.8722573131570512,,-0.6686110440517353,-0.550646299397956,0.14974482822000001,2.137369593937757,0.35785099288568856,0.6491355966383492,0.8758508826120052,,-0.06956664232292899,-0.09922196797587764,0.1150502548,-0.034016912529394594,,-3.742054e-05,-2.7418137e-06,2.861023e-06,1.0,3.1311065e-05,2.5618821e-05,-3.131479e-05,1.0,2.8908253e-06,-2.5618821e-05,-2.8908253e-06,1.0,247,0.741,0,0,0.0,False,1.0467804869796362,1.0497563883626244
0.7649875490005797,11:40:16.704274,11:39:58.656475,0,,0.0069184033,0.011693843,0.07085517,-0.63570154,-0.16641241,-0.75378406,-0.48159125,0.84864545,0.21879363,0.60328543,0.5021033,-0.619628,,0.1538357,-0.03421445,0.04609573,-0.62510043,-0.17855003,0.7598483,0.22240168,0.8923891,0.39265668,-0.7481891,0.41444126,-0.518123,,0.08742359,1.332252,0.46482176,0.99604535,0.0029118597,-0.08879858,-0.05383615,-0.7752969,-0.6292983,-0.0706777,0.63159025,-0.7720741,,-0.048790097,0.24907883,-0.12537603,0.6063798,0.07940126,0.791201,0.07443696,0.98496485,-0.15589531,-0.79168344,0.15342636,0.5913524,,0.044872228,0.43160966,-0.37379703,0.6925587,-0.01849049,-0.7211245,-0.32437348,0.88491946,-0.33421454,0.6443169,0.46537685,0.6068609,,0.8265332085967524,-0.35657402226869406,0.16341420627000003,0.6389252577973457,-0.24266642358342222,0.5033566850905471,0.8722573131570512,,-0.6686033213188611,-0.550646299397956,0.14974482822000001,2.137369593937757,0.35785099288568856,0.6491355966383492,0.8758508826120052,,-0.06956664232292899,-0.09922196797587764,0.1150502548,-0.034016912529394594,,-3.742054e-05,-2.7418137e-06,2.861023e-06,1.0,3.1311065e-05,2.5618821e-05,-3.131479e-05,1.0,2.8908253e-06,-2.5618821e-05,-2.8908253e-06,1.0,254,0.761,0,0,0.0,False,1.0466613315425946,1.0496115477602863
0.7887307450000662,11:40:16.724407,11:39:58.656475,0,,0.006880355,0.011720315,0.07084659,-0.63552016,-0.16669494,-0.75387454,-0.48192313,0.84849495,0.2186465,0.6032115,0.5022639,-0.61956984,,0.15381962,-0.03420579,0.046090484,-0.62512326,-0.17856066,0.759827,0.22238314,0.8923874,0.39267117,-0.7481755,0.4144405,-0.5181432,,0.08742359,1.332252,0.46482176,0.99604535,0.0029118597,-0.08879858,-0.05383615,-0.7752969,-0.6292983,-0.0706777,0.63159025,-0.7720741,,-0.048752874,0.24909721,-0.1253537,0.6062226,0.07967656,0.79129374,0.07411875,0.98497826,-0.1559625,-0.79183364,0.15319769,0.5912106,,0.0448875,0.431614,-0.3737866,0.69258165,-0.018479722,-0.7211027,-0.32436898,0.88492006,-0.33421743,0.6442945,0.4653762,0.60688514,,0.8265332085967524,-0.35657402226869406,0.16341420627000003,0.6385058779103767,-0.24266642358342222,0.5033566850905471,0.8722573131570512,,-0.6686033213188611,-0.550646299397956,0.14974482822000001,2.137369593937757,0.35785099288568856,0.6491355966383492,0.8758508826120052,,-0.06956664232292899,-0.09922196797587764,0.1150502548,-0.034016912529394594,,-3.742054e-05,-2.7418137e-06,2.861023e-06,1.0,3.1311065e-05,2.5618821e-05,-3.131479e-05,1.0,2.8908253e-06,-2.5618821e-05,-2.8908253e-06,1.0,261,0.783,0,0,0.0,False,1.0468996424166788,1.049418426957168
0.8089081369998894,11:40:16.744630,11:39:58.656475,0,,0.0068528373,0.011716835,0.070849165,-0.63554466,-0.166651,-0.75386345,-0.4818908,0.8485032,0.2186858,0.60321146,0.5022645,-0.6195694,,0.15379164,-0.03420712,0.046092212,-0.62511575,-0.178512,0.7598447,0.22241959,0.89239454,0.39263433,-0.7481711,0.41444612,-0.51814514,,0.08745703,1.3322506,0.4648247,0.99604255,0.0028718829,-0.08883103,-0.053887505,-0.77529705,-0.62929374,-0.0706777,0.63159025,-0.7720741,,-0.048752874,0.24909721,-0.1253537,0.6062226,0.07967656,0.79129374,0.07411875,0.98497826,-0.1559625,-0.79183364,0.15319769,0.5912106,,0.044886615,0.43161428,-0.37378666,0.6925763,-0.018478803,-0.7211079,-0.3243709,0.8849209,-0.33421332,0.6442993,0.46537465,0.60688126,,0.8265332085967524,-0.35657402226869406,0.16341420627000003,0.6385058779103767,-0.24266642358342222,0.5033566850905471,0.8722573131570512,,-0.6686110440517353,-0.550646299397956,0.14974482822000001,2.137369593937757,0.35785099288568856,0.6491355966383492,0.8758508826120052,,-0.06956664232292899,-0.09922196797587764,0.1150502548,-0.034016912529394594,,-4.2505562e-06,2.9802322e-07,-1.5497208e-06,1.0,-8.497387e-06,-6.9476664e-06,8.493662e-06,1.0,-7.748604e-07,6.9513917e-06,7.4505806e-07,1.0,269,0.806,0,0,0.0,False,1.0464825983870312,1.0493218665556094
0.8291287760002888,11:40:16.763068,11:39:58.656475,0,,0.0068528373,0.011716835,0.070849165,-0.63554466,-0.166651,-0.75386345,-0.4818908,0.8485032,0.2186858,0.60321146,0.5022645,-0.6195694,,0.15379164,-0.03420712,0.046092212,-0.62511575,-0.178512,0.7598447,0.22241959,0.89239454,0.39263433,-0.7481711,0.41444612,-0.51814514,,0.08745703,1.3322506,0.4648247,0.99604255,0.0028718829,-0.08883103,-0.053887505,-0.77529705,-0.62929374,-0.0706777,0.63159025,-0.7720741,,-0.048752874,0.24909721,-0.1253537,0.6062226,0.07967656,0.79129374,0.07411875,0.98497826,-0.1559625,-0.79183364,0.15319769,0.5912106,,0.044886615,0.43161428,-0.37378666,0.6925763,-0.018478803,-0.7211079,-0.3243709,0.8849209,-0.33421332,0.6442993,0.46537465,0.60688126,,0.8265332085967524,-0.35657402226869406,0.16341420627000003,0.6385058779103767,-0.24266642358342222,0.5033566850905471,0.8722573131570512,,-0.6686110440517353,-0.550646299397956,0.14974482822000001,2.137369593937757,0.35785099288568856,0.6491355966383492,0.8758508826120052,,-0.06956664232292899,-0.09922196797587764,0.1150502548,-0.034016912529394594,,-4.2505562e-06,2.9802322e-07,-1.5497208e-06,1.0,-8.497387e-06,-6.9476664e-06,8.493662e-06,1.0,-7.748604e-07,6.9513917e-06,7.4505806e-07,1.0,276,0.827,0,0,0.0,False,1.0470783755722417,1.049514987358727
0.8475710120001168,11:40:16.791790,11:39:58.656475,0,,0.0068528373,0.011716835,0.070849165,-0.63554466,-0.166651,-0.75386345,-0.4818908,0.8485032,0.2186858,0.60321146,0.5022645,-0.6195694,,0.15379083,-0.034207344,0.046091795,-0.6251213,-0.17851096,0.75984037,0.22241604,0.8923953,0.39263427,-0.7481675,0.41444466,-0.51815146,,0.08745703,1.3322506,0.4648247,0.99604255,0.0028718829,-0.08883103,-0.053887505,-0.77529705,-0.62929374,-0.0706777,0.63159025,-0.7720741,,-0.048752874,0.24909721,-0.1253537,0.6062226,0.07967656,0.79129374,0.07411875,0.98497826,-0.1559625,-0.79183364,0.15319769,0.5912106,,0.0448875,0.431614,-0.3737866,0.69258165,-0.018479722,-0.7211027,-0.32436898,0.88492006,-0.33421743,0.6442945,0.4653762,0.60688514,,0.8265332085967524,-0.35657402226869406,0.16341420627000003,0.6385058779103767,-0.24266642358342222,0.5033566850905471,0.8722573131570512,,-0.6686033213188611,-0.550646299397956,0.14974482822000001,2.137369593937757,0.35785099288568856,0.6491355966383492,0.8758508826120052,,-0.06956664232292899,-0.09922196797587764,0.1150502548,-0.034016912529394594,,-4.2505562e-06,2.9802322e-07,-1.5497208e-06,1.0,-8.497387e-06,-6.9476664e-06,8.493662e-06,1.0,-7.748604e-07,6.9513917e-06,7.4505806e-07,1.0,287,0.859,0,0,0.0,False,1.0470187978537204,1.0501909101696396
0.8762918539996463,11:40:16.822891,11:39:58.656475,0,,0.006851867,0.011717252,0.07084958,-0.63554025,-0.16664813,-0.7538679,-0.48189327,0.8485013,0.2186873,0.60321426,0.5022685,-0.61956346,,0.15379083,-0.034207344,0.046091795,-0.6251213,-0.17851096,0.75984037,0.22241604,0.8923953,0.39263427,-0.7481675,0.41444466,-0.51815146,,0.08745703,1.3322506,0.4648247,0.99604255,0.0028718829,-0.08883103,-0.053887505,-0.77529705,-0.62929374,-0.0706777,0.63159025,-0.7720741,,-0.048751965,0.24909788,-0.12535377,0.60621804,0.07967348,0.79129755,0.07411822,0.9849791,-0.15595715,-0.7918372,0.15319361,0.59120685,,0.0448875,0.431614,-0.3737866,0.69258165,-0.018479722,-0.7211027,-0.32436898,0.88492006,-0.33421743,0.6442945,0.4653762,0.60688514,,0.8265409313296266,-0.35657402226869406,0.16341420627000003,0.6385058779103767,-0.24266642358342222,0.5033566850905471,0.8722573131570512,,-0.6686033213188611,-0.550646299397956,0.14974482822000001,2.137369593937757,0.35785099288568856,0.6491355966383492,0.8758508826120052,,-0.06956664232292899,-0.09922196797587764,0.1150502548,-0.034016912529394594,,-4.2505562e-06,2.9802322e-07,-1.5497208e-06,1.0,-8.497387e-06,-6.9476664e-06,8.493662e-06,1.0,-7.748604e-07,6.9513917e-06,7.4505806e-07,1.0,298,0.892,0,0,0.0,False,1.0466613315425946,1.049708108161845
0.9073928569996497,11:40:16.853782,11:39:58.656475,0,,0.0068528373,0.011716835,0.070849165,-0.63554466,-0.166651,-0.75386345,-0.4818908,0.8485032,0.2186858,0.60321146,0.5022645,-0.6195694,,0.15379164,-0.03420712,0.046092212,-0.62511575,-0.17857409,0.7598301,0.22241959,0.89236236,0.39270723,-0.7481711,0.41448852,-0.5181113,,0.08745703,1.3322506,0.4648247,0.99604255,0.0028718829,-0.08883103,-0.053887505,-0.77529705,-0.62929374,-0.0706777,0.63159025,-0.7720741,,-0.048752874,0.24909721,-0.1253537,0.6062226,0.07967656,0.79129374,0.07411875,0.98497826,-0.1559625,-0.79183364,0.15319769,0.5912106,,0.044886615,0.43161428,-0.37378666,0.6925763,-0.018419905,-0.72110945,-0.3243709,0.8849482,-0.33414105,0.6442993,0.46532506,0.6069192,,0.8265332085967524,-0.35657402226869406,0.16341420627000003,0.6385058779103767,-0.24266642358342222,0.5033566850905471,0.8722573131570512,,-0.6686110440517353,-0.550646299397956,0.14974482822000001,2.137369593937757,0.35785099288568856,0.6492172753784897,0.875687538545871,,-0.06956664232292899,-0.09922196797587764,0.1150502548,-0.034016912529394594,,-4.2505562e-06,2.9802322e-07,-1.5497208e-06,1.0,-8.497387e-06,-6.9476664e-06,8.493662e-06,1.0,-7.748604e-07,6.9513917e-06,7.4505806e-07,1.0,309,0.925,0,0,0.0,False,1.0470783755722417,1.049418426957168
0.9382839360005164,11:40:16.884571,11:39:58.656475,0,,0.0068528373,0.011716835,0.070849165,-0.63554466,-0.166651,-0.75386345,-0.4818908,0.8485032,0.2186858,0.60321146,0.5022645,-0.6195694,,0.15379041,-0.03420861,0.046091795,-0.62499666,-0.17832789,0.7599859,0.22278851,0.8923192,0.39259613,-0.7481608,0.41468725,-0.517967,,0.08745703,1.3322506,0.4648247,0.99604255,0.0028718829,-0.08883103,-0.053887505,-0.77529705,-0.62929374,-0.0706777,0.63159025,-0.7720741,,-0.048752874,0.24909721,-0.1253537,0.6062226,0.07967656,0.79129374,0.07411875,0.98497826,-0.1559625,-0.79183364,0.15319769,0.5912106,,0.044888105,0.43161333,-0.37378758,0.69240457,-0.018684529,-0.72126746,-0.32417142,0.885027,-0.33412585,0.6445842,0.46516457,0.60673976,,0.8265332085967524,-0.35657402226869406,0.16341420627000003,0.6385058779103767,-0.24266642358342222,0.5033566850905471,0.8722573131570512,,-0.6686033213188611,-0.550646299397956,0.14974482822000001,2.1377889738247258,0.35785099288568856,0.6492989541186304,0.8755241944797366,,-0.06956664232292899,-0.09922196797587764,0.1150502548,-0.034016912529394594,,-4.2505562e-06,2.9802322e-07,-1.5497208e-06,1.0,-8.497387e-06,-6.9476664e-06,8.493662e-06,1.0,-7.748604e-07,6.9513917e-06,7.4505806e-07,1.0,320,0.958,0,0,0.0,False,1.0464825983870312,1.0499495091657423
0.9690651769997203,11:40:16.914574,11:39:58.877757,0,,0.0068528373,0.011716835,0.070849165,-0.63554466,-0.166651,-0.75386345,-0.4818908,0.8485032,0.2186858,0.60321146,0.5022645,-0.6195694,,0.15379122,-0.034208402,0.046092153,-0.6249911,-0.17832893,0.75999016,0.22279206,0.89231825,0.39259616,-0.7481644,0.41468874,-0.5179606,,0.08745703,1.3322506,0.4648247,0.99604255,0.0028718829,-0.08883103,-0.053887505,-0.77529705,-0.62929374,-0.0706777,0.63159025,-0.7720741,,-0.048752874,0.24909721,-0.1253537,0.6062226,0.07967656,0.79129374,0.07411875,0.98497826,-0.1559625,-0.79183364,0.15319769,0.5912106,,0.04488722,0.4316136,-0.37378764,0.6923992,-0.018683607,-0.72127265,-0.32417336,0.8850278,-0.33412173,0.644589,0.465163,0.6067358,,0.8265332085967524,-0.35657402226869406,0.16341420627000003,0.6385058779103767,-0.24266642358342222,0.5033566850905471,0.8722573131570512,,-0.6686110440517353,-0.550646299397956,0.14974482822000001,2.1377889738247258,0.35785099288568856,0.6492989541186304,0.8755241944797366,,-0.06956664232292899,-0.09922196797587764,0.1150502548,-0.034016912529394594,,-4.2505562e-06,2.9802322e-07,-1.5497208e-06,1.0,-8.497387e-06,-6.9476664e-06,8.493662e-06,1.0,-7.748604e-07,6.9513917e-06,7.4505806e-07,1.0,331,0.99,0,0,0.0,False,1.0464825983870312,1.049708108161845
0.9990755759990861,11:40:16.953759,11:39:58.877757,0,,0.006851867,0.011717252,0.07084958,-0.63554025,-0.16664813,-0.7538679,-0.48189327,0.8485013,0.2186873,0.60321426,0.5022685,-0.61956346,,0.15379122,-0.034208402,0.046092153,-0.6249911,-0.17832893,0.75999016,0.22279206,0.89231825,0.39259616,-0.7481644,0.41468874,-0.5179606,,0.08745703,1.3322506,0.4648247,0.99604255,0.0028718829,-0.08883103,-0.053887505,-0.77529705,-0.62929374,-0.0706777,0.63159025,-0.7720741,,-0.048751965,0.24909788,-0.12535377,0.60621804,0.07967348,0.79129755,0.07411822,0.9849791,-0.15595715,-0.7918372,0.15319361,0.59120685,,0.04488722,0.4316136,-0.37378764,0.6923992,-0.018683607,-0.72127265,-0.32417336,0.8850278,-0.33412173,0.644589,0.465163,0.6067358,,0.8265409313296266,-0.35657402226869406,0.16341420627000003,0.6385058779103767,-0.24266642358342222,0.5033566850905471,0.8722573131570512,,-0.6686110440517353,-0.550646299397956,0.14974482822000001,2.1377889738247258,0.35785099288568856,0.6492989541186304,0.8755241944797366,,-0.06956664232292899,-0.09922196797587764,0.1150502548,-0.034016912529394594,,-4.2505562e-06,2.9802322e-07,-1.5497208e-06,1.0,-8.497387e-06,-6.9476664e-06,8.493662e-06,1.0,-7.748604e-07,6.9513917e-06,7.4505806e-07,1.0,339,1.015,0,0,0.0,False,1.0471975310092834,1.0496115477602863
1.0382535739991,11:40:16.980285,11:39:58.877757,0,,0.0068528373,0.011716835,0.070849165,-0.63554466,-0.166651,-0.75386345,-0.4818908,0.8485032,0.2186858,0.60321146,0.5022645,-0.6195694,,0.15379041,-0.03420861,0.046091795,-0.62499666,-0.17832789,0.7599859,0.22278851,0.8923192,0.39259613,-0.7481608,0.41468725,-0.517967,,0.08745703,1.3322506,0.4648247,0.99604255,0.0028718829,-0.08883103,-0.053887505,-0.77529705,-0.62929374,-0.0706777,0.63159025,-0.7720741,,-0.048752874,0.24909721,-0.1253537,0.6062226,0.07967656,0.79129374,0.07411875,0.98497826,-0.1559625,-0.79183364,0.15319769,0.5912106,,0.044888105,0.43161333,-0.37378758,0.69240457,-0.018684529,-0.72126746,-0.32417142,0.885027,-0.33412585,0.6445842,0.46516457,0.60673976,,0.8265332085967524,-0.35657402226869406,0.16341420627000003,0.6385058779103767,-0.24266642358342222,0.5033566850905471,0.8722573131570512,,-0.6686033213188611,-0.550646299397956,0.14974482822000001,2.1377889738247258,0.35785099288568856,0.6492989541186304,0.8755241944797366,,-0.06956664232292899,-0.09922196797587764,0.1150502548,-0.034016912529394594,,-4.2505562e-06,2.9802322e-07,-1.5497208e-06,1.0,-8.497387e-06,-6.9476664e-06,8.493662e-06,1.0,-7.748604e-07,6.9513917e-06,7.4505806e-07,1.0,372,1.117,0,0,0.0,False,1.0469592201351996,1.049418426957168
1.0647575879993383,11:40:17.074804,11:39:59.008378,0,,0.0068528373,0.011716835,0.070849165,-0.63554466,-0.166651,-0.75386345,-0.4818908,0.8485032,0.2186858,0.60321146,0.5022645,-0.6195694,,0.15379041,-0.03420861,0.046091795,-0.62499666,-0.17832789,0.7599859,0.22278851,0.8923192,0.39259613,-0.7481608,0.41468725,-0.517967,,0.08745703,1.3322506,0.4648247,0.99604255,0.0028718829,-0.08883103,-0.053887505,-0.77529705,-0.62929374,-0.0706777,0.63159025,-0.7720741,,-0.048752874,0.24909721,-0.1253537,0.6062226,0.07967656,0.79129374,0.07411875,0.98497826,-0.1559625,-0.79183364,0.15319769,0.5912106,,0.044888105,0.43161333,-0.37378758,0.69240457,-0.018684529,-0.72126746,-0.32417142,0.885027,-0.33412585,0.6445842,0.46516457,0.60673976,,0.8265332085967524,-0.35657402226869406,0.16341420627000003,0.6385058779103767,-0.24266642358342222,0.5033566850905471,0.8722573131570512,,-0.6686033213188611,-0.550646299397956,0.14974482822000001,2.1377889738247258,0.35785099288568856,0.6492989541186304,0.8755241944797366,,-0.06956664232292899,-0.09922196797587764,0.1150502548,-0.034016912529394594,,-4.2505562e-06,2.9802322e-07,-1.5497208e-06,1.0,-8.497387e-06,-6.9476664e-06,8.493662e-06,1.0,-7.748604e-07,6.9513917e-06,7.4505806e-07,1.0,376,1.13,0,0,0.0,False,1.0468400646981575,1.049514987358727
1.1593046950001735,11:40:17.094519,11:39:59.008378,0,,0.006851867,0.011717252,0.07084958,-0.63554025,-0.16664813,-0.7538679,-0.48189327,0.8485013,0.2186873,0.60321426,0.5022685,-0.61956346,,0.15379122,-0.034208402,0.046092153,-0.6249911,-0.17832893,0.75999016,0.22279206,0.89231825,0.39259616,-0.7481644,0.41468874,-0.5179606,,0.08745703,1.3322506,0.4648247,0.99604255,0.0028718829,-0.08883103,-0.053887505,-0.77529705,-0.62929374,-0.0706777,0.63159025,-0.7720741,,-0.048751965,0.24909788,-0.12535377,0.60621804,0.07967348,0.79129755,0.07411822,0.9849791,-0.15595715,-0.7918372,0.15319361,0.59120685,,0.04488722,0.4316136,-0.37378764,0.6923992,-0.018683607,-0.72127265,-0.32417336,0.8850278,-0.33412173,0.644589,0.465163,0.6067358,,0.8265409313296266,-0.35657402226869406,0.16341420627000003,0.6385058779103767,-0.24266642358342222,0.5033566850905471,0.8722573131570512,,-0.6686110440517353,-0.550646299397956,0.14974482822000001,2.1377889738247258,0.35785099288568856,0.6492989541186304,0.8755241944797366,,-0.06956664232292899,-0.09922196797587764,0.1150502548,-0.034016912529394594,,-4.2505562e-06,2.9802322e-07,-1.5497208e-06,1.0,-8.497387e-06,-6.9476664e-06,8.493662e-06,1.0,-7.748604e-07,6.9513917e-06,7.4505806e-07,1.0,388,1.167,0,0,0.0,False,1.047435841883368,1.05014262996886
1.178995116999431,11:40:17.125956,11:39:59.008378,0,,0.0068528373,0.011716835,0.070849165,-0.63554466,-0.166651,-0.75386345,-0.4818908,0.8485032,0.2186858,0.60321146,0.5022645,-0.6195694,,0.15379122,-0.034208402,0.046092153,-0.6249911,-0.17832893,0.75999016,0.22279206,0.89231825,0.39259616,-0.7481644,0.41468874,-0.5179606,,0.08745703,1.3322506,0.4648247,0.99604255,0.0028718829,-0.08883103,-0.053887505,-0.77529705,-0.62929374,-0.0706777,0.63159025,-0.7720741,,-0.048752874,0.24909721,-0.1253537,0.6062226,0.07967656,0.79129374,0.07411875,0.98497826,-0.1559625,-0.79183364,0.15319769,0.5912106,,0.04488722,0.4316136,-0.37378764,0.6923992,-0.018683607,-0.72127265,-0.32417336,0.8850278,-0.33412173,0.644589,0.465163,0.6067358,,0.8265332085967524,-0.35657402226869406,0.16341420627000003,0.6385058779103767,-0.24266642358342222,0.5033566850905471,0.8722573131570512,,-0.6686110440517353,-0.550646299397956,0.14974482822000001,2.1377889738247258,0.35785099288568856,0.6492989541186304,0.8755241944797366,,-0.06956664232292899,-0.09922196797587764,0.1150502548,-0.034016912529394594,,-4.2505562e-06,2.9802322e-07,-1.5497208e-06,1.0,-8.497387e-06,-6.9476664e-06,8.493662e-06,1.0,-7.748604e-07,6.9513917e-06,7.4505806e-07,1.0,392,1.179,0,0,0.0,False,1.0470783755722417,1.049514987358727
1.2104582140000275,11:40:17.145161,11:39:59.008378,0,,0.0068528373,0.011716835,0.070849165,-0.63554466,-0.166651,-0.75386345,-0.4818908,0.8485032,0.2186858,0.60321146,0.5022645,-0.6195694,,0.15379041,-0.03420861,0.046091795,-0.62499666,-0.17832789,0.7599859,0.22278851,0.8923192,0.39259613,-0.7481608,0.41468725,-0.517967,,0.08745703,1.3322506,0.4648247,0.99604255,0.0028718829,-0.08883103,-0.053887505,-0.77529705,-0.62929374,-0.0706777,0.63159025,-0.7720741,,-0.048752874,0.24909721,-0.1253537,0.6062226,0.07967656,0.79129374,0.07411875,0.98497826,-0.1559625,-0.79183364,0.15319769,0.5912106,,0.044888105,0.43161333,-0.37378758,0.69240457,-0.018684529,-0.72126746,-0.32417142,0.885027,-0.33412585,0.6445842,0.46516457,0.60673976,,0.8265332085967524,-0.35657402226869406,0.16341420627000003,0.6385058779103767,-0.24266642358342222,0.5033566850905471,0.8722573131570512,,-0.6686033213188611,-0.550646299397956,0.14974482822000001,2.1377889738247258,0.35785099288568856,0.6492989541186304,0.8755241944797366,,-0.06956664232292899,-0.09922196797587764,0.1150502548,-0.034016912529394594,,-4.2505562e-06,2.9802322e-07,-1.5497208e-06,1.0,-8.497387e-06,-6.9476664e-06,8.493662e-06,1.0,-7.748604e-07,6.9513917e-06,7.4505806e-07,1.0,404,1.216,0,0,0.0,False,1.04642302066851,1.049514987358727
1.2296419630001765,11:40:17.185925,11:39:59.171064,0,,0.0068528373,0.011716835,0.070849165,-0.63554466,-0.166651,-0.75386345,-0.4818908,0.8485032,0.2186858,0.60321146,0.5022645,-0.6195694,,0.15379122,-0.034208402,0.046092153,-0.6249911,-0.17832893,0.75999016,0.22279206,0.89231825,0.39259616,-0.7481644,0.41468874,-0.5179606,,0.08745703,1.3322506,0.4648247,0.99604255,0.0028718829,-0.08883103,-0.053887505,-0.77529705,-0.62929374,-0.0706777,0.63159025,-0.7720741,,-0.048752874,0.24909721,-0.1253537,0.6062226,0.07967656,0.79129374,0.07411875,0.98497826,-0.1559625,-0.79183364,0.15319769,0.5912106,,0.04488722,0.4316136,-0.37378764,0.6923992,-0.018683607,-0.72127265,-0.32417336,0.8850278,-0.33412173,0.644589,0.465163,0.6067358,,0.8265332085967524,-0.35657402226869406,0.16341420627000003,0.6385058779103767,-0.24266642358342222,0.5033566850905471,0.8722573131570512,,-0.6686110440517353,-0.550646299397956,0.14974482822000001,2.1377889738247258,0.35785099288568856,0.6492989541186304,0.8755241944797366,,-0.06956664232292899,-0.09922196797587764,0.1150502548,-0.034016912529394594,,-4.2505562e-06,2.9802322e-07,-1.5497208e-06,1.0,-8.497387e-06,-6.9476664e-06,8.493662e-06,1.0,-7.748604e-07,6.9513917e-06,7.4505806e-07,1.0,412,1.24,0,0,0.0,False,1.0466613315425946,1.049514987358727
1.270409765000295,11:40:17.197360,11:39:59.171064,0,,0.006851634,0.011717647,0.07084964,-0.63564384,-0.16649683,-0.7538139,-0.4817205,0.84857625,0.21877734,0.603243,0.5021921,-0.6195973,,0.15379122,-0.034208402,0.046092153,-0.6249911,-0.17832893,0.75999016,0.22279206,0.89231825,0.39259616,-0.7481644,0.41468874,-0.5179606,,0.08745703,1.3322506,0.4648247,0.99604255,0.0028718829,-0.08883103,-0.053887505,-0.77529705,-0.62929374,-0.0706777,0.63159025,-0.7720741,,-0.048751757,0.24909824,-0.12535357,0.6063099,0.07952551,0.79124206,0.07427853,0.9849737,-0.1559148,-0.79175186,0.153305,0.59129226,,0.04488722,0.4316136,-0.37378764,0.6923992,-0.018683607,-0.72127265,-0.32417336,0.8850278,-0.33412173,0.644589,0.465163,0.6067358,,0.8265409313296266,-0.35657402226869406,0.16341420627000003,0.6387155678538612,-0.24266642358342222,0.5033566850905471,0.8722573131570512,,-0.6686110440517353,-0.550646299397956,0.14974482822000001,2.1377889738247258,0.35785099288568856,0.6492989541186304,0.8755241944797366,,-0.06956664232292899,-0.09922196797587764,0.1150502548,-0.034016912529394594,,-4.2505562e-06,2.9802322e-07,-1.5497208e-06,1.0,-8.497387e-06,-6.9476664e-06,8.493662e-06,1.0,-7.748604e-07,6.9513917e-06,7.4505806e-07,1.0,420,1.265,0,0,0.0,False,1.0464825983870312,1.0498529487641832
1.2818617569992057,11:40:17.224965,11:39:59.171064,0,,0.006852368,0.011717625,0.070849314,-0.6357521,-0.16634835,-0.75375545,-0.48154524,0.8486529,0.21886592,0.60326886,0.50211185,-0.61963725,,0.15379122,-0.034208402,0.046092153,-0.6249911,-0.17832893,0.75999016,0.22279206,0.89231825,0.39259616,-0.7481644,0.41468874,-0.5179606,,0.08745703,1.3322506,0.4648247,0.99604255,0.0028718829,-0.08883103,-0.053887505,-0.77529705,-0.62929374,-0.0706777,0.63159025,-0.7720741,,-0.048752457,0.24909794,-0.1253533,0.6064064,0.07938061,0.7911827,0.07443937,0.98496747,-0.15587781,-0.7916629,0.15342045,0.5913815,,0.04488722,0.4316136,-0.37378764,0.6923992,-0.018683607,-0.72127265,-0.32417336,0.8850278,-0.33412173,0.644589,0.465163,0.6067358,,0.8265332085967524,-0.35657402226869406,0.16341420627000003,0.6389252577973457,-0.24266642358342222,0.5033566850905471,0.8722573131570512,,-0.6686110440517353,-0.550646299397956,0.14974482822000001,2.1377889738247258,0.35785099288568856,0.6492989541186304,0.8755241944797366,,-0.06956664232292899,-0.09922196797587764,0.1150502548,-0.034016912529394594,,-4.2505562e-06,2.9802322e-07,-1.5497208e-06,1.0,-8.497387e-06,-6.9476664e-06,8.493662e-06,1.0,-7.748604e-07,6.9513917e-06,7.4505806e-07,1.0,424,1.277,0,0,0.0,False,1.0468400646981575,1.049708108161845
1.309459052999955,11:40:17.244737,11:39:59.171064,0,,0.006852368,0.011717625,0.070849314,-0.6357521,-0.16634835,-0.75375545,-0.48154524,0.8486529,0.21886592,0.60326886,0.50211185,-0.61963725,,0.15379122,-0.034208402,0.046092153,-0.6249911,-0.17832893,0.75999016,0.22279206,0.89231825,0.39259616,-0.7481644,0.41468874,-0.5179606,,0.08745703,1.3322506,0.4648247,0.99604255,0.0028718829,-0.08883103,-0.053887505,-0.77529705,-0.62929374,-0.0706777,0.63159025,-0.7720741,,-0.048752457,0.24909794,-0.1253533,0.6064064,0.07938061,0.7911827,0.07443937,0.98496747,-0.15587781,-0.7916629,0.15342045,0.5913815,,0.04488722,0.4316136,-0.37378764,0.6923992,-0.018683607,-0.72127265,-0.32417336,0.8850278,-0.33412173,0.644589,0.465163,0.6067358,,0.8265332085967524,-0.35657402226869406,0.16341420627000003,0.6389252577973457,-0.24266642358342222,0.5033566850905471,0.8722573131570512,,-0.6686110440517353,-0.550646299397956,0.14974482822000001,2.1377889738247258,0.35785099288568856,0.6492989541186304,0.8755241944797366,,-0.06956664232292899,-0.09922196797587764,0.1150502548,-0.034016912529394594,,-4.2505562e-06,2.9802322e-07,-1.5497208e-06,1.0,-8.497387e-06,-6.9476664e-06,8.493662e-06,1.0,-7.748604e-07,6.9513917e-06,7.4505806e-07,1.0,453,1.367,0,0,0.0,False,1.0468996424166788,1.0498529487641832
1.3292284599992854,11:40:17.327208,11:39:59.171064,0,,0.006852368,0.011717625,0.070849314,-0.6357521,-0.16634835,-0.75375545,-0.48154524,0.8486529,0.21886592,0.60326886,0.50211185,-0.61963725,,0.15379122,-0.034208402,0.046092153,-0.6249911,-0.17832893,0.75999016,0.22279206,0.89231825,0.39259616,-0.7481644,0.41468874,-0.5179606,,0.08745703,1.3322506,0.4648247,0.99604255,0.0028718829,-0.08883103,-0.053887505,-0.77529705,-0.62929374,-0.0706777,0.63159025,-0.7720741,,-0.048752457,0.24909794,-0.1253533,0.6064064,0.07938061,0.7911827,0.07443937,0.98496747,-0.15587781,-0.7916629,0.15342045,0.5913815,,0.04488722,0.4316136,-0.37378764,0.6923992,-0.018683607,-0.72127265,-0.32417336,0.8850278,-0.33412173,0.644589,0.465163,0.6067358,,0.8265332085967524,-0.35657402226869406,0.16341420627000003,0.6389252577973457,-0.24266642358342222,0.5033566850905471,0.8722573131570512,,-0.6686110440517353,-0.550646299397956,0.14974482822000001,2.1377889738247258,0.35785099288568856,0.6492989541186304,0.8755241944797366,,-0.06956664232292899,-0.09922196797587764,0.1150502548,-0.034016912529394594,,-4.2505562e-06,2.9802322e-07,-1.5497208e-06,1.0,-8.497387e-06,-6.9476664e-06,8.493662e-06,1.0,-7.748604e-07,6.9513917e-06,7.4505806e-07,1.0,457,1.38,0,0,0.0,False,1.0468996424166788,1.0496115477602863
1.411691716999485,11:40:17.355689,11:39:59.330605,0,,0.006852368,0.011717625,0.070849314,-0.6357521,-0.16634835,-0.75375545,-0.48154524,0.8486529,0.21886592,0.60326886,0.50211185,-0.61963725,,0.15379041,-0.03420861,0.046091795,-0.62499666,-0.17832789,0.7599859,0.22278851,0.8923192,0.39259613,-0.7481608,0.41468725,-0.517967,,0.08745703,1.3322506,0.4648247,0.99604255,0.0028718829,-0.08883103,-0.053887505,-0.77529705,-0.62929374,-0.0706777,0.63159025,-0.7720741,,-0.048752457,0.24909794,-0.1253533,0.6064064,0.07938061,0.7911827,0.07443937,0.98496747,-0.15587781,-0.7916629,0.15342045,0.5913815,,0.044888105,0.43161333,-0.37378758,0.69240457,-0.018684529,-0.72126746,-0.32417142,0.885027,-0.33412585,0.6445842,0.46516457,0.60673976,,0.8265332085967524,-0.35657402226869406,0.16341420627000003,0.6389252577973457,-0.24266642358342222,0.5033566850905471,0.8722573131570512,,-0.6686033213188611,-0.550646299397956,0.14974482822000001,2.1377889738247258,0.35785099288568856,0.6492989541186304,0.8755241944797366,,-0.06956664232292899,-0.09922196797587764,0.1150502548,-0.034016912529394594,,-4.2505562e-06,2.9802322e-07,-1.5497208e-06,1.0,-8.497387e-06,-6.9476664e-06,8.493662e-06,1.0,-7.748604e-07,6.9513917e-06,7.4505806e-07,1.0,469,1.416,0,0,0.0,False,1.0473762641648467,1.0499495091657423
1.4401911250006378,11:40:17.377562,11:39:59.330605,0,,0.006852368,0.011717625,0.070849314,-0.6357521,-0.16634835,-0.75375545,-0.48154524,0.8486529,0.21886592,0.60326886,0.50211185,-0.61963725,,0.15379041,-0.03420861,0.046091795,-0.62499666,-0.17832789,0.7599859,0.22278851,0.8923192,0.39259613,-0.7481608,0.41468725,-0.517967,,0.08745703,1.3322506,0.4648247,0.99604255,0.0028718829,-0.08883103,-0.053887505,-0.77529705,-0.62929374,-0.0706777,0.63159025,-0.7720741,,-0.048752457,0.24909794,-0.1253533,0.6064064,0.07938061,0.7911827,0.07443937,0.98496747,-0.15587781,-0.7916629,0.15342045,0.5913815,,0.044888105,0.43161333,-0.37378758,0.69240457,-0.018684529,-0.72126746,-0.32417142,0.885027,-0.33412585,0.6445842,0.46516457,0.60673976,,0.8265332085967524,-0.35657402226869406,0.16341420627000003,0.6389252577973457,-0.24266642358342222,0.5033566850905471,0.8722573131570512,,-0.6686033213188611,-0.550646299397956,0.14974482822000001,2.1377889738247258,0.35785099288568856,0.6492989541186304,0.8755241944797366,,-0.06956664232292899,-0.09922196797587764,0.1150502548,-0.034016912529394594,,-4.2505562e-06,2.9802322e-07,-1.5497208e-06,1.0,-8.497387e-06,-6.9476664e-06,8.493662e-06,1.0,-7.748604e-07,6.9513917e-06,7.4505806e-07,1.0,477,1.441,0,0,0.0,False,1.0468996424166788,1.0502391903704191
1.4620521519991598,11:40:17.398211,11:39:59.330605,0,,0.006851401,0.01171805,0.0708497,-0.63574755,-0.1663455,-0.7537599,-0.4815477,0.8486511,0.21886739,0.60327166,0.5021158,-0.6196313,,0.15379122,-0.034208402,0.046092153,-0.6249911,-0.17832893,0.75999016,0.22279206,0.89231825,0.39259616,-0.7481644,0.41468874,-0.5179606,,0.08745703,1.3322506,0.4648247,0.99604255,0.0028718829,-0.08883103,-0.053887505,-0.77529705,-0.62929374,-0.0706777,0.63159025,-0.7720741,,-0.04875155,0.24909861,-0.12535338,0.60640174,0.07937753,0.7911865,0.07443885,0.98496836,-0.15587248,-0.79166645,0.15341635,0.59137774,,0.04488722,0.4316136,-0.37378764,0.6923992,-0.018683607,-0.72127265,-0.32417336,0.8850278,-0.33412173,0.644589,0.465163,0.6067358,,0.8265409313296266,-0.35657402226869406,0.16341420627000003,0.6389252577973457,-0.24266642358342222,0.5033566850905471,0.8722573131570512,,-0.6686110440517353,-0.550646299397956,0.14974482822000001,2.1377889738247258,0.35785099288568856,0.6492989541186304,0.8755241944797366,,-0.06956664232292899,-0.09922196797587764,0.1150502548,-0.034016912529394594,,-4.2505562e-06,2.9802322e-07,-1.5497208e-06,1.0,-8.497387e-06,-6.9476664e-06,8.493662e-06,1.0,-7.748604e-07,6.9513917e-06,7.4505806e-07,1.0,485,1.466,0,0,0.0,False,1.04642302066851,1.0500943497680806
1.4827099590002035,11:40:17.427564,11:39:59.330605,0,,0.006852368,0.011717625,0.070849314,-0.6357521,-0.16634835,-0.75375545,-0.48154524,0.8486529,0.21886592,0.60326886,0.50211185,-0.61963725,,0.15379062,-0.034208,0.046091855,-0.62505895,-0.17848149,0.75989854,0.22260234,0.8923253,0.3926881,-0.7481641,0.41460827,-0.5180254,,0.08745703,1.3322506,0.4648247,0.99604255,0.0028718829,-0.08883103,-0.053887505,-0.77529705,-0.62929374,-0.0706777,0.63159025,-0.7720741,,-0.048752457,0.24909794,-0.1253533,0.6064064,0.07938061,0.7911827,0.07443937,0.98496747,-0.15587781,-0.7916629,0.15342045,0.5913815,,0.044887803,0.43161365,-0.3737871,0.69249314,-0.018523231,-0.7211866,-0.3242702,0.8850008,-0.33409935,0.64443934,0.46522084,0.6068505,,0.8265332085967524,-0.35657402226869406,0.16341420627000003,0.6389252577973457,-0.24266642358342222,0.5033566850905471,0.8722573131570512,,-0.6686033213188611,-0.550646299397956,0.14974482822000001,2.1375792838812413,0.35785099288568856,0.6492989541186304,0.8755241944797366,,-0.06956664232292899,-0.09922196797587764,0.1150502548,-0.034016912529394594,,-4.2505562e-06,2.9802322e-07,-1.5497208e-06,1.0,-8.497387e-06,-6.9476664e-06,8.493662e-06,1.0,-7.748604e-07,6.9513917e-06,7.4505806e-07,1.0,493,1.49,0,0,0.0,False,1.0470187978537204,1.0502391903704191
1.5120640029999777,11:40:17.450048,11:39:59.330605,0,,0.006852368,0.011717625,0.070849314,-0.6357521,-0.16634835,-0.75375545,-0.48154524,0.8486529,0.21886592,0.60326886,0.50211185,-0.61963725,,0.15379184,-0.03420818,0.04609251,-0.6251134,-0.1786342,0.7598178,0.22241652,0.89233375,0.3927742,-0.7481739,0.4145244,-0.5180785,,0.08745703,1.3322506,0.4648247,0.99604255,0.0028718829,-0.08883103,-0.053887505,-0.77529705,-0.62929374,-0.0706777,0.63159025,-0.7720741,,-0.048752457,0.24909794,-0.1253533,0.6064064,0.07938061,0.7911827,0.07443937,0.98496747,-0.15587781,-0.7916629,0.15342045,0.5913815,,0.044886537,0.43161383,-0.37378767,0.692575,-0.01836241,-0.72111213,-0.32437536,0.88497204,-0.33407354,0.6442985,0.465282,0.60695314,,0.8265332085967524,-0.35657402226869406,0.16341420627000003,0.6389252577973457,-0.24266642358342222,0.5033566850905471,0.8722573131570512,,-0.6686110440517353,-0.5506540221308303,0.14974482822000001,2.137369593937757,0.35785099288568856,0.6492989541186304,0.8755241944797366,,-0.06956664232292899,-0.09922196797587764,0.1150502548,-0.034016912529394594,,-4.2505562e-06,2.9802322e-07,-1.5497208e-06,1.0,-8.497387e-06,-6.9476664e-06,8.493662e-06,1.0,-7.748604e-07,6.9513917e-06,7.4505806e-07,1.0,501,1.515,0,0,0.0,False,1.0470187978537204,1.0499012289649627
1.5344911379997939,11:40:17.477703,11:39:59.330605,0,,0.006852368,0.011717625,0.070849314,-0.6357521,-0.16634835,-0.75375545,-0.48154524,0.8486529,0.21886592,0.60326886,0.50211185,-0.61963725,,0.15379122,-0.03420946,0.04609239,-0.6251168,-0.17863122,0.75981575,0.22240984,0.8923379,0.39276832,-0.74817306,0.4145165,-0.51808596,,0.08745703,1.3322506,0.4648247,0.99604255,0.0028718829,-0.08883103,-0.053887505,-0.77529705,-0.62929374,-0.0706777,0.63159025,-0.7720741,,-0.048752457,0.24909794,-0.1253533,0.6064064,0.07938061,0.7911827,0.07443937,0.98496747,-0.15587781,-0.7916629,0.15342045,0.5913815,,0.044887345,0.43161312,-0.37378863,0.6925791,-0.018364737,-0.72110814,-0.32437792,0.88496774,-0.3340824,0.6442928,0.46529004,0.606953,,0.8265332085967524,-0.35657402226869406,0.16341420627000003,0.6389252577973457,-0.24266642358342222,0.5033566850905471,0.8722573131570512,,-0.6686033213188611,-0.5506617448637044,0.14974482822000001,2.137369593937757,0.35785099288568856,0.6492989541186304,0.8755241944797366,,-0.06956664232292899,-0.09922196797587764,0.1150502548,-0.034016912529394594,,-4.2505562e-06,2.9802322e-07,-1.5497208e-06,1.0,-8.497387e-06,-6.9476664e-06,8.493662e-06,1.0,-7.748604e-07,6.9513917e-06,7.4505806e-07,1.0,534,1.617,0,0,0.0,False,1.0475549973204097,1.049804668563404
1.5621917009993922,11:40:17.577829,11:39:59.483315,0,,0.006852368,0.011717625,0.070849314,-0.6357521,-0.16634835,-0.75375545,-0.48154524,0.8486529,0.21886592,0.60326886,0.50211185,-0.61963725,,0.15379202,-0.034209237,0.04609275,-0.6251113,-0.17863226,0.75982016,0.22241336,0.8923371,0.39276835,-0.74817663,0.4145179,-0.51807964,,0.08745703,1.3322506,0.4648247,0.99604255,0.0028718829,-0.08883103,-0.053887505,-0.77529705,-0.62929374,-0.0706777,0.63159025,-0.7720741,,-0.048752457,0.24909794,-0.1253533,0.6064064,0.07938061,0.7911827,0.07443937,0.98496747,-0.15587781,-0.7916629,0.15342045,0.5913815,,0.04488646,0.4316134,-0.37378868,0.69257367,-0.018363817,-0.7211134,-0.32437983,0.8849686,-0.3340783,0.6442976,0.4652885,0.6069491,,0.8265332085967524,-0.35657402226869406,0.16341420627000003,0.6389252577973457,-0.24266642358342222,0.5033566850905471,0.8722573131570512,,-0.6686110440517353,-0.5506617448637044,0.14974482822000001,2.137369593937757,0.35785099288568856,0.6492989541186304,0.8755241944797366,,-0.06956664232292899,-0.09922196797587764,0.1150502548,-0.034016912529394594,,-4.2505562e-06,2.9802322e-07,-1.5497208e-06,1.0,-8.497387e-06,-6.9476664e-06,8.493662e-06,1.0,-7.748604e-07,6.9513917e-06,7.4505806e-07,1.0,542,1.642,0,0,0.0,False,1.0468400646981575,1.0499977893665218
1.6623120629992627,11:40:17.597032,11:39:59.483315,0,,0.006852368,0.011717625,0.070849314,-0.6357521,-0.16634835,-0.75375545,-0.48154524,0.8486529,0.21886592,0.60326886,0.50211185,-0.61963725,,0.15379202,-0.034209237,0.04609275,-0.6251113,-0.17863226,0.75982016,0.22241336,0.8923371,0.39276835,-0.74817663,0.4145179,-0.51807964,,0.08745703,1.3322506,0.4648247,0.99604255,0.0028718829,-0.08883103,-0.053887505,-0.77529705,-0.62929374,-0.0706777,0.63159025,-0.7720741,,-0.048752457,0.24909794,-0.1253533,0.6064064,0.07938061,0.7911827,0.07443937,0.98496747,-0.15587781,-0.7916629,0.15342045,0.5913815,,0.04488646,0.4316134,-0.37378868,0.69257367,-0.018363817,-0.7211134,-0.32437983,0.8849686,-0.3340783,0.6442976,0.4652885,0.6069491,,0.8265332085967524,-0.35657402226869406,0.16341420627000003,0.6389252577973457,-0.24266642358342222,0.5033566850905471,0.8722573131570512,,-0.6686110440517353,-0.5506617448637044,0.14974482822000001,2.137369593937757,0.35785099288568856,0.6492989541186304,0.8755241944797366,,-0.06956664232292899,-0.09922196797587764,0.1150502548,-0.034016912529394594,,-4.2505562e-06,2.9802322e-07,-1.5497208e-06,1.0,-8.497387e-06,-6.9476664e-06,8.493662e-06,1.0,-7.748604e-07,6.9513917e-06,7.4505806e-07,1.0,546,1.654,0,0,0.0,False,1.0468996424166788,1.0498529487641832
1.6815351139994164,11:40:17.625987,11:39:59.483315,0,,0.006852368,0.011717625,0.070849314,-0.6357521,-0.16634835,-0.75375545,-0.48154524,0.8486529,0.21886592,0.60326886,0.50211185,-0.61963725,,0.15379122,-0.03420946,0.04609239,-0.6251168,-0.17863122,0.75981575,0.22240984,0.8923379,0.39276832,-0.74817306,0.4145165,-0.51808596,,0.08745703,1.3322506,0.4648247,0.99604255,0.0028718829,-0.08883103,-0.053887505,-0.77529705,-0.62929374,-0.0706777,0.63159025,-0.7720741,,-0.048752457,0.24909794,-0.1253533,0.6064064,0.07938061,0.7911827,0.07443937,0.98496747,-0.15587781,-0.7916629,0.15342045,0.5913815,,0.044887345,0.43161312,-0.37378863,0.6925791,-0.018364737,-0.72110814,-0.32437792,0.88496774,-0.3340824,0.6442928,0.46529004,0.606953,,0.8265332085967524,-0.35657402226869406,0.16341420627000003,0.6389252577973457,-0.24266642358342222,0.5033566850905471,0.8722573131570512,,-0.6686033213188611,-0.5506617448637044,0.14974482822000001,2.137369593937757,0.35785099288568856,0.6492989541186304,0.8755241944797366,,-0.06956664232292899,-0.09922196797587764,0.1150502548,-0.034016912529394594,,-4.2505562e-06,2.9802322e-07,-1.5497208e-06,1.0,-8.497387e-06,-6.9476664e-06,8.493662e-06,1.0,-7.748604e-07,6.9513917e-06,7.4505806e-07,1.0,554,1.679,0,0,0.0,False,1.0467209092611154,1.0499495091657423
1.7104750229991623,11:40:17.642948,11:39:59.483315,0,,0.006852368,0.011717625,0.070849314,-0.6357521,-0.16634835,-0.75375545,-0.48154524,0.8486529,0.21886592,0.60326886,0.50211185,-0.61963725,,0.15379122,-0.03420946,0.04609239,-0.6251168,-0.17863122,0.75981575,0.22240984,0.8923379,0.39276832,-0.74817306,0.4145165,-0.51808596,,0.08745703,1.3322506,0.4648247,0.99604255,0.0028718829,-0.08883103,-0.053887505,-0.77529705,-0.62929374,-0.0706777,0.63159025,-0.7720741,,-0.048752457,0.24909794,-0.1253533,0.6064064,0.07938061,0.7911827,0.07443937,0.98496747,-0.15587781,-0.7916629,0.15342045,0.5913815,,0.044887345,0.43161312,-0.37378863,0.6925791,-0.018364737,-0.72110814,-0.32437792,0.88496774,-0.3340824,0.6442928,0.46529004,0.606953,,0.8265332085967524,-0.35657402226869406,0.16341420627000003,0.6389252577973457,-0.24266642358342222,0.5033566850905471,0.8722573131570512,,-0.6686033213188611,-0.5506617448637044,0.14974482822000001,2.137369593937757,0.35785099288568856,0.6492989541186304,0.8755241944797366,,-0.06956664232292899,-0.09922196797587764,0.1150502548,-0.034016912529394594,,-4.2505562e-06,2.9802322e-07,-1.5497208e-06,1.0,-8.497387e-06,-6.9476664e-06,8.493662e-06,1.0,-7.748604e-07,6.9513917e-06,7.4505806e-07,1.0,562,1.703,0,0,0.0,False,1.0470187978537204,1.0501909101696396
1.7274100600006932,11:40:17.667857,11:39:59.483315,0,,0.006851401,0.01171805,0.0708497,-0.63574755,-0.1663455,-0.7537599,-0.4815477,0.8486511,0.21886739,0.60327166,0.5021158,-0.6196313,,0.15379202,-0.034209237,0.04609275,-0.6251113,-0.17863226,0.75982016,0.22241336,0.8923371,0.39276835,-0.74817663,0.4145179,-0.51807964,,0.08745703,1.3322506,0.4648247,0.99604255,0.0028718829,-0.08883103,-0.053887505,-0.77529705,-0.62929374,-0.0706777,0.63159025,-0.7720741,,-0.04875155,0.24909861,-0.12535338,0.60640174,0.07937753,0.7911865,0.07443885,0.98496836,-0.15587248,-0.79166645,0.15341635,0.59137774,,0.04488646,0.4316134,-0.37378868,0.69257367,-0.018363817,-0.7211134,-0.32437983,0.8849686,-0.3340783,0.6442976,0.4652885,0.6069491,,0.8265409313296266,-0.35657402226869406,0.16341420627000003,0.6389252577973457,-0.24266642358342222,0.5033566850905471,0.8722573131570512,,-0.6686110440517353,-0.5506617448637044,0.14974482822000001,2.137369593937757,0.35785099288568856,0.6492989541186304,0.8755241944797366,,-0.06956664232292899,-0.09922196797587764,0.1150502548,-0.034016912529394594,,-4.2505562e-06,2.9802322e-07,-1.5497208e-06,1.0,-8.497387e-06,-6.9476664e-06,8.493662e-06,1.0,-7.748604e-07,6.9513917e-06,7.4505806e-07,1.0,574,1.74,0,0,0.0,False,1.0472571087278046,1.05014262996886
1.752357994000704,11:40:17.697820,11:39:59.483315,0,,0.006852368,0.011717625,0.070849314,-0.6357521,-0.16634835,-0.75375545,-0.48154524,0.8486529,0.21886592,0.60326886,0.50211185,-0.61963725,,0.15379122,-0.03420946,0.04609239,-0.6251168,-0.17863122,0.75981575,0.22240984,0.8923379,0.39276832,-0.74817306,0.4145165,-0.51808596,,0.08745703,1.3322506,0.4648247,0.99604255,0.0028718829,-0.08883103,-0.053887505,-0.77529705,-0.62929374,-0.0706777,0.63159025,-0.7720741,,-0.048752457,0.24909794,-0.1253533,0.6064064,0.07938061,0.7911827,0.07443937,0.98496747,-0.15587781,-0.7916629,0.15342045,0.5913815,,0.044887345,0.43161312,-0.37378863,0.6925791,-0.018364737,-0.72110814,-0.32437792,0.88496774,-0.3340824,0.6442928,0.46529004,0.606953,,0.8265332085967524,-0.35657402226869406,0.16341420627000003,0.6389252577973457,-0.24266642358342222,0.5033566850905471,0.8722573131570512,,-0.6686033213188611,-0.5506617448637044,0.14974482822000001,2.137369593937757,0.35785099288568856,0.6492989541186304,0.8755241944797366,,-0.06956664232292899,-0.09922196797587764,0.1150502548,-0.034016912529394594,,-4.2505562e-06,2.9802322e-07,-1.5497208e-06,1.0,-8.497387e-06,-6.9476664e-06,8.493662e-06,1.0,-7.748604e-07,6.9513917e-06,7.4505806e-07,1.0,578,1.752,0,0,0.0,False,1.0464825983870312,1.049804668563404
1.7822774880005454,11:40:17.723864,11:39:59.714965,0,,0.006852368,0.011717625,0.070849314,-0.6357521,-0.16634835,-0.75375545,-0.48154524,0.8486529,0.21886592,0.60326886,0.50211185,-0.61963725,,0.15379202,-0.034209237,0.04609275,-0.6251113,-0.17863226,0.75982016,0.22241336,0.8923371,0.39276835,-0.74817663,0.4145179,-0.51807964,,0.08745703,1.3322506,0.4648247,0.99604255,0.0028718829,-0.08883103,-0.053887505,-0.77529705,-0.62929374,-0.0706777,0.63159025,-0.7720741,,-0.048752457,0.24909794,-0.1253533,0.6064064,0.07938061,0.7911827,0.07443937,0.98496747,-0.15587781,-0.7916629,0.15342045,0.5913815,,0.04488646,0.4316134,-0.37378868,0.69257367,-0.018363817,-0.7211134,-0.32437983,0.8849686,-0.3340783,0.6442976,0.4652885,0.6069491,,0.8265332085967524,-0.35657402226869406,0.16341420627000003,0.6389252577973457,-0.24266642358342222,0.5033566850905471,0.8722573131570512,,-0.6686110440517353,-0.5506617448637044,0.14974482822000001,2.137369593937757,0.35785099288568856,0.6492989541186304,0.8755241944797366,,-0.06956664232292899,-0.09922196797587764,0.1150502548,-0.034016912529394594,,-4.2505562e-06,2.9802322e-07,-1.5497208e-06,1.0,-8.497387e-06,-6.9476664e-06,8.493662e-06,1.0,-7.748604e-07,6.9513917e-06,7.4505806e-07,1.0,611,1.855,0,0,0.0,False,1.0469592201351996,1.049708108161845
1.808335289999377,11:40:17.818457,11:39:59.714965,0,,0.0068528373,0.011716835,0.070849165,-0.63554466,-0.166651,-0.75386345,-0.4818908,0.8485032,0.2186858,0.60321146,0.5022645,-0.6195694,,0.15379122,-0.03420946,0.04609239,-0.6251168,-0.17863122,0.75981575,0.22240984,0.8923379,0.39276832,-0.74817306,0.4145165,-0.51808596,,0.08745703,1.3322506,0.4648247,0.99604255,0.0028718829,-0.08883103,-0.053887505,-0.77529705,-0.62929374,-0.0706777,0.63159025,-0.7720741,,-0.048752874,0.24909721,-0.1253537,0.6062226,0.07967656,0.79129374,0.07411875,0.98497826,-0.1559625,-0.79183364,0.15319769,0.5912106,,0.044887345,0.43161312,-0.37378863,0.6925791,-0.018364737,-0.72110814,-0.32437792,0.88496774,-0.3340824,0.6442928,0.46529004,0.606953,,0.8265332085967524,-0.35657402226869406,0.16341420627000003,0.6385058779103767,-0.24266642358342222,0.5033566850905471,0.8722573131570512,,-0.6686033213188611,-0.5506617448637044,0.14974482822000001,2.137369593937757,0.35785099288568856,0.6492989541186304,0.8755241944797366,,-0.06956664232292899,-0.09922196797587764,0.1150502548,-0.034016912529394594,,-4.2505562e-06,2.9802322e-07,-1.5497208e-06,1.0,-8.497387e-06,-6.9476664e-06,8.493662e-06,1.0,-7.748604e-07,6.9513917e-06,7.4505806e-07,1.0,619,1.879,0,0,0.0,False,1.0466613315425946,1.0495632675595068
1.9029515340007492,11:40:17.841859,11:39:59.714965,0,,0.0068528373,0.011716835,0.070849165,-0.63554466,-0.166651,-0.75386345,-0.4818908,0.8485032,0.2186858,0.60321146,0.5022645,-0.6195694,,0.15379122,-0.03420946,0.04609239,-0.6251168,-0.17863122,0.75981575,0.22240984,0.8923379,0.39276832,-0.74817306,0.4145165,-0.51808596,,0.08745703,1.3322506,0.4648247,0.99604255,0.0028718829,-0.08883103,-0.053887505,-0.77529705,-0.62929374,-0.0706777,0.63159025,-0.7720741,,-0.048752874,0.24909721,-0.1253537,0.6062226,0.07967656,0.79129374,0.07411875,0.98497826,-0.1559625,-0.79183364,0.15319769,0.5912106,,0.044887345,0.43161312,-0.37378863,0.6925791,-0.018364737,-0.72110814,-0.32437792,0.88496774,-0.3340824,0.6442928,0.46529004,0.606953,,0.8265332085967524,-0.35657402226869406,0.16341420627000003,0.6385058779103767,-0.24266642358342222,0.5033566850905471,0.8722573131570512,,-0.6686033213188611,-0.5506617448637044,0.14974482822000001,2.137369593937757,0.35785099288568856,0.6492989541186304,0.8755241944797366,,-0.06956664232292899,-0.09922196797587764,0.1150502548,-0.034016912529394594,,-4.2505562e-06,2.9802322e-07,-1.5497208e-06,1.0,-8.497387e-06,-6.9476664e-06,8.493662e-06,1.0,-7.748604e-07,6.9513917e-06,7.4505806e-07,1.0,627,1.904,0,0,0.0,False,1.0471379532907625,1.0499012289649627
1.9263224009991973,11:40:17.864101,11:39:59.714965,0,,0.006906084,0.011701338,0.07085514,-0.6355167,-0.16667987,-0.75388056,-0.48191702,0.84849644,0.21865405,0.6032199,0.5022663,-0.6195597,,0.15388206,-0.034195036,0.046101272,-0.6250804,-0.17872512,0.75982356,0.22237265,0.8923205,0.39282915,-0.74821454,0.41451362,-0.5180284,,0.08742462,1.3322511,0.46482766,0.9960452,0.0029089716,-0.08880093,-0.05383986,-0.7752969,-0.629298,-0.0706777,0.63159025,-0.7720741,,-0.048778467,0.24908131,-0.12536748,0.60621667,0.079664506,0.7912995,0.07412648,0.98497933,-0.15595183,-0.79183745,0.15319686,0.59120566,,0.044822957,0.431611,-0.37378225,0.69254774,-0.018316694,-0.72113943,-0.32441646,0.88497263,-0.334032,0.6443071,0.46528262,0.6069436,,0.8265332085967524,-0.35657402226869406,0.16341420627000003,0.6385058779103767,-0.24266642358342222,0.5033566850905471,0.8722573131570512,,-0.6686110440517353,-0.5506617448637044,0.14974482822000001,2.137369593937757,0.35785099288568856,0.6492989541186304,0.8755241944797366,,-0.06956664232292899,-0.09922196797587764,0.1150502548,-0.034016912529394594,,-3.675744e-05,1.7285347e-06,-1.1920929e-06,1.0,2.843514e-05,2.3260713e-05,-2.8442591e-05,1.0,2.592802e-06,-2.3260713e-05,-2.6226044e-06,1.0,635,1.928,0,0,0.0,False,1.0468400646981575,1.0499495091657423
1.9486023779991228,11:40:17.892709,11:39:59.863433,0,,0.006906084,0.011701338,0.07085514,-0.6355167,-0.16667987,-0.75388056,-0.48191702,0.84849644,0.21865405,0.6032199,0.5022663,-0.6195597,,0.15388206,-0.034195036,0.046101272,-0.6250804,-0.17872512,0.75982356,0.22237265,0.8923205,0.39282915,-0.74821454,0.41451362,-0.5180284,,0.08742462,1.3322511,0.46482766,0.9960452,0.0029089716,-0.08880093,-0.05383986,-0.7752969,-0.629298,-0.0706777,0.63159025,-0.7720741,,-0.048778467,0.24908131,-0.12536748,0.60621667,0.079664506,0.7912995,0.07412648,0.98497933,-0.15595183,-0.79183745,0.15319686,0.59120566,,0.044822957,0.431611,-0.37378225,0.69254774,-0.018316694,-0.72113943,-0.32441646,0.88497263,-0.334032,0.6443071,0.46528262,0.6069436,,0.8265332085967524,-0.35657402226869406,0.16341420627000003,0.6385058779103767,-0.24266642358342222,0.5033566850905471,0.8722573131570512,,-0.6686110440517353,-0.5506617448637044,0.14974482822000001,2.137369593937757,0.35785099288568856,0.6492989541186304,0.8755241944797366,,-0.06956664232292899,-0.09922196797587764,0.1150502548,-0.034016912529394594,,-3.675744e-05,1.7285347e-06,-1.1920929e-06,1.0,2.843514e-05,2.3260713e-05,-2.8442591e-05,1.0,2.592802e-06,-2.3260713e-05,-2.6226044e-06,1.0,643,1.953,0,0,0.0,False,1.0471975310092834,1.0495632675595068
1.9772110979993158,11:40:17.921820,11:39:59.863433,0,,0.006906084,0.011701338,0.07085514,-0.6355167,-0.16667987,-0.75388056,-0.48191702,0.84849644,0.21865405,0.6032199,0.5022663,-0.6195597,,0.15388125,-0.034195274,0.046100855,-0.625086,-0.1787241,0.7598193,0.2223691,0.89232135,0.3928291,-0.7482109,0.4145122,-0.5180347,,0.08742462,1.3322511,0.46482766,0.9960452,0.0029089716,-0.08880093,-0.05383986,-0.7752969,-0.629298,-0.0706777,0.63159025,-0.7720741,,-0.048778467,0.24908131,-0.12536748,0.60621667,0.079664506,0.7912995,0.07412648,0.98497933,-0.15595183,-0.79183745,0.15319686,0.59120566,,0.044823844,0.4316107,-0.3737822,0.69255316,-0.018317614,-0.72113425,-0.32441452,0.8849718,-0.3340361,0.64430225,0.4652842,0.6069475,,0.8265332085967524,-0.35657402226869406,0.16341420627000003,0.6385058779103767,-0.24266642358342222,0.5033566850905471,0.8722573131570512,,-0.6686033213188611,-0.5506617448637044,0.14974482822000001,2.137369593937757,0.35785099288568856,0.6492989541186304,0.8755241944797366,,-0.06956664232292899,-0.09922196797587764,0.1150502548,-0.034016912529394594,,-3.675744e-05,1.7285347e-06,-1.1920929e-06,1.0,2.843514e-05,2.3260713e-05,-2.8442591e-05,1.0,2.592802e-06,-2.3260713e-05,-2.6226044e-06,1.0,651,1.978,0,0,0.0,False,1.0470187978537204,1.0500943497680806
2.006312412000625,11:40:17.943794,11:39:59.863433,0,,0.006906084,0.011701338,0.07085514,-0.6355167,-0.16667987,-0.75388056,-0.48191702,0.84849644,0.21865405,0.6032199,0.5022663,-0.6195597,,0.15388125,-0.034195274,0.046100855,-0.625086,-0.1787241,0.7598193,0.2223691,0.89232135,0.3928291,-0.7482109,0.4145122,-0.5180347,,0.08742462,1.3322511,0.46482766,0.9960452,0.0029089716,-0.08880093,-0.05383986,-0.7752969,-0.629298,-0.0706777,0.63159025,-0.7720741,,-0.048778467,0.24908131,-0.12536748,0.60621667,0.079664506,0.7912995,0.07412648,0.98497933,-0.15595183,-0.79183745,0.15319686,0.59120566,,0.044823844,0.4316107,-0.3737822,0.69255316,-0.018317614,-0.72113425,-0.32441452,0.8849718,-0.3340361,0.64430225,0.4652842,0.6069475,,0.8265332085967524,-0.35657402226869406,0.16341420627000003,0.6385058779103767,-0.24266642358342222,0.5033566850905471,0.8722573131570512,,-0.6686033213188611,-0.5506617448637044,0.14974482822000001,2.137369593937757,0.35785099288568856,0.6492989541186304,0.8755241944797366,,-0.06956664232292899,-0.09922196797587764,0.1150502548,-0.034016912529394594,,-3.675744e-05,1.7285347e-06,-1.1920929e-06,1.0,2.843514e-05,2.3260713e-05,-2.8442591e-05,1.0,2.592802e-06,-2.3260713e-05,-2.6226044e-06,1.0,680,2.068,0,0,0.0,False,1.0466017538240733,1.0500943497680806
2.0282720859995607,11:40:18.026870,11:39:59.863433,0,,0.006906084,0.011701338,0.07085514,-0.6355167,-0.16655673,-0.7539078,-0.48191702,0.8484607,0.21879265,0.6032199,0.5023675,-0.6194777,,0.15388206,-0.034195036,0.046101272,-0.6250804,-0.17872512,0.75982356,0.22237265,0.8923205,0.39282915,-0.74821454,0.41451362,-0.5180284,,0.08742462,1.3322511,0.46482766,0.9960452,0.0029089716,-0.08880093,-0.05383986,-0.7752969,-0.629298,-0.0706777,0.63159025,-0.7720741,,-0.048778467,0.24908131,-0.12536748,0.60621667,0.07953524,0.7913125,0.07412648,0.9850048,-0.15579093,-0.79183745,0.15310027,0.5912307,,0.044822957,0.431611,-0.37378225,0.69254774,-0.018316694,-0.72113943,-0.32441646,0.88497263,-0.334032,0.6443071,0.46528262,0.6069436,,0.8265332085967524,-0.35657402226869406,0.16341420627000003,0.6385058779103767,-0.24266642358342222,0.5035200425708283,0.8719306250247827,,-0.6686110440517353,-0.5506617448637044,0.14974482822000001,2.137369593937757,0.35785099288568856,0.6492989541186304,0.8755241944797366,,-0.06956664232292899,-0.09922196797587764,0.1150502548,-0.034016912529394594,,-3.675744e-05,1.7285347e-06,-1.1920929e-06,1.0,2.843514e-05,2.3260713e-05,-2.8442591e-05,1.0,2.592802e-06,-2.3260713e-05,-2.6226044e-06,1.0,688,2.092,0,0,0.0,False,1.0469592201351996,1.0495632675595068
2.1113653049997083,11:40:18.060305,11:40:00.027837,0,,0.006906084,0.011701338,0.07085514,-0.6355167,-0.16655673,-0.7539078,-0.48191702,0.8484607,0.21879265,0.6032199,0.5023675,-0.6194777,,0.15388125,-0.034195274,0.046100855,-0.625086,-0.1787241,0.7598193,0.2223691,0.89232135,0.3928291,-0.7482109,0.4145122,-0.5180347,,0.08742462,1.3322511,0.46482766,0.9960452,0.0029089716,-0.08880093,-0.05383986,-0.7752969,-0.629298,-0.0706777,0.63159025,-0.7720741,,-0.048778467,0.24908131,-0.12536748,0.60621667,0.07953524,0.7913125,0.07412648,0.9850048,-0.15579093,-0.79183745,0.15310027,0.5912307,,0.044823844,0.4316107,-0.3737822,0.69255316,-0.018317614,-0.72113425,-0.32441452,0.8849718,-0.3340361,0.64430225,0.4652842,0.6069475,,0.8265332085967524,-0.35657402226869406,0.16341420627000003,0.6385058779103767,-0.24266642358342222,0.5035200425708283,0.8719306250247827,,-0.6686033213188611,-0.5506617448637044,0.14974482822000001,2.137369593937757,0.35785099288568856,0.6492989541186304,0.8755241944797366,,-0.06956664232292899,-0.09922196797587764,0.1150502548,-0.034016912529394594,,-3.675744e-05,1.7285347e-06,-1.1920929e-06,1.0,2.843514e-05,2.3260713e-05,-2.8442591e-05,1.0,2.592802e-06,-2.3260713e-05,-2.6226044e-06,1.0,696,2.117,0,0,0.0,False,1.0467209092611154,1.0501909101696396
2.1448031260006246,11:40:18.081795,11:40:00.027837,0,,0.006906084,0.011701338,0.07085514,-0.6355167,-0.16655673,-0.7539078,-0.48191702,0.8484607,0.21879265,0.6032199,0.5023675,-0.6194777,,0.15388206,-0.034195036,0.046101272,-0.6250804,-0.17872512,0.75982356,0.22237265,0.8923205,0.39282915,-0.74821454,0.41451362,-0.5180284,,0.08742462,1.3322511,0.46482766,0.9960452,0.0029089716,-0.08880093,-0.05383986,-0.7752969,-0.629298,-0.0706777,0.63159025,-0.7720741,,-0.048778467,0.24908131,-0.12536748,0.60621667,0.07953524,0.7913125,0.07412648,0.9850048,-0.15579093,-0.79183745,0.15310027,0.5912307,,0.044822957,0.431611,-0.37378225,0.69254774,-0.018316694,-0.72113943,-0.32441646,0.88497263,-0.334032,0.6443071,0.46528262,0.6069436,,0.8265332085967524,-0.35657402226869406,0.16341420627000003,0.6385058779103767,-0.24266642358342222,0.5035200425708283,0.8719306250247827,,-0.6686110440517353,-0.5506617448637044,0.14974482822000001,2.137369593937757,0.35785099288568856,0.6492989541186304,0.8755241944797366,,-0.06956664232292899,-0.09922196797587764,0.1150502548,-0.034016912529394594,,-3.675744e-05,1.7285347e-06,-1.1920929e-06,1.0,2.843514e-05,2.3260713e-05,-2.8442591e-05,1.0,2.592802e-06,-2.3260713e-05,-2.6226044e-06,1.0,704,2.141,0,0,0.0,False,1.0468400646981575,1.049708108161845
2.1662900850005826,11:40:18.100809,11:40:00.027837,0,,0.006906084,0.011701338,0.07085514,-0.6355167,-0.16655673,-0.7539078,-0.48191702,0.8484607,0.21879265,0.6032199,0.5023675,-0.6194777,,0.15388206,-0.034195036,0.046101272,-0.6250804,-0.17872512,0.75982356,0.22237265,0.8923205,0.39282915,-0.74821454,0.41451362,-0.5180284,,0.08742462,1.3322511,0.46482766,0.9960452,0.0029089716,-0.08880093,-0.05383986,-0.7752969,-0.629298,-0.0706777,0.63159025,-0.7720741,,-0.048778467,0.24908131,-0.12536748,0.60621667,0.07953524,0.7913125,0.07412648,0.9850048,-0.15579093,-0.79183745,0.15310027,0.5912307,,0.044822957,0.431611,-0.37378225,0.69254774,-0.018316694,-0.72113943,-0.32441646,0.88497263,-0.334032,0.6443071,0.46528262,0.6069436,,0.8265332085967524,-0.35657402226869406,0.16341420627000003,0.6385058779103767,-0.24266642358342222,0.5035200425708283,0.8719306250247827,,-0.6686110440517353,-0.5506617448637044,0.14974482822000001,2.137369593937757,0.35785099288568856,0.6492989541186304,0.8755241944797366,,-0.06956664232292899,-0.09922196797587764,0.1150502548,-0.034016912529394594,,-3.675744e-05,1.7285347e-06,-1.1920929e-06,1.0,2.843514e-05,2.3260713e-05,-2.8442591e-05,1.0,2.592802e-06,-2.3260713e-05,-2.6226044e-06,1.0,712,2.166,0,0,0.0,False,1.0468400646981575,1.050046069567301
2.185288746999504,11:40:18.129891,11:40:00.027837,0,,0.006906084,0.011701338,0.07085514,-0.6355167,-0.16655673,-0.7539078,-0.48191702,0.8484607,0.21879265,0.6032199,0.5023675,-0.6194777,,0.15388206,-0.034195036,0.046101272,-0.6250804,-0.17872512,0.75982356,0.22237265,0.8923205,0.39282915,-0.74821454,0.41451362,-0.5180284,,0.08742462,1.3322511,0.46482766,0.9960452,0.0029089716,-0.08880093,-0.05383986,-0.7752969,-0.629298,-0.0706777,0.63159025,-0.7720741,,-0.048778467,0.24908131,-0.12536748,0.60621667,0.07953524,0.7913125,0.07412648,0.9850048,-0.15579093,-0.79183745,0.15310027,0.5912307,,0.044822957,0.431611,-0.37378225,0.69254774,-0.018316694,-0.72113943,-0.32441646,0.88497263,-0.334032,0.6443071,0.46528262,0.6069436,,0.8265332085967524,-0.35657402226869406,0.16341420627000003,0.6385058779103767,-0.24266642358342222,0.5035200425708283,0.8719306250247827,,-0.6686110440517353,-0.5506617448637044,0.14974482822000001,2.137369593937757,0.35785099288568856,0.6492989541186304,0.8755241944797366,,-0.06956664232292899,-0.09922196797587764,0.1150502548,-0.034016912529394594,,-3.675744e-05,1.7285347e-06,-1.1920929e-06,1.0,2.843514e-05,2.3260713e-05,-2.8442591e-05,1.0,2.592802e-06,-2.3260713e-05,-2.6226044e-06,1.0,720,2.191,0,0,0.0,False,1.0466017538240733,1.049804668563404
2.2143804080005793,11:40:18.162747,11:40:00.027837,0,,0.006906084,0.011701338,0.07085514,-0.6355167,-0.16655673,-0.7539078,-0.48191702,0.8484607,0.21879265,0.6032199,0.5023675,-0.6194777,,0.15388125,-0.034195274,0.046100855,-0.625086,-0.1787241,0.7598193,0.2223691,0.89232135,0.3928291,-0.7482109,0.4145122,-0.5180347,,0.08742462,1.3322511,0.46482766,0.9960452,0.0029089716,-0.08880093,-0.05383986,-0.7752969,-0.629298,-0.0706777,0.63159025,-0.7720741,,-0.048778467,0.24908131,-0.12536748,0.60621667,0.07953524,0.7913125,0.07412648,0.9850048,-0.15579093,-0.79183745,0.15310027,0.5912307,,0.044823844,0.4316107,-0.3737822,0.69255316,-0.018317614,-0.72113425,-0.32441452,0.8849718,-0.3340361,0.64430225,0.4652842,0.6069475,,0.8265332085967524,-0.35657402226869406,0.16341420627000003,0.6385058779103767,-0.24266642358342222,0.5035200425708283,0.8719306250247827,,-0.6686033213188611,-0.5506617448637044,0.14974482822000001,2.137369593937757,0.35785099288568856,0.6492989541186304,0.8755241944797366,,-0.06956664232292899,-0.09922196797587764,0.1150502548,-0.034016912529394594,,-3.675744e-05,1.7285347e-06,-1.1920929e-06,1.0,2.843514e-05,2.3260713e-05,-2.8442591e-05,1.0,2.592802e-06,-2.3260713e-05,-2.6226044e-06,1.0,728,2.215,0,0,0.0,False,1.0464825983870312,1.0503840309727575
2.247243141000581,11:40:18.182682,11:40:00.027837,0,,0.006906084,0.011701338,0.07085514,-0.6355167,-0.16655673,-0.7539078,-0.48191702,0.8484607,0.21879265,0.6032199,0.5023675,-0.6194777,,0.15388125,-0.034195274,0.046100855,-0.625086,-0.1787241,0.7598193,0.2223691,0.89232135,0.3928291,-0.7482109,0.4145122,-0.5180347,,0.08742462,1.3322511,0.46482766,0.9960452,0.0029089716,-0.08880093,-0.05383986,-0.7752969,-0.629298,-0.0706777,0.63159025,-0.7720741,,-0.048778467,0.24908131,-0.12536748,0.60621667,0.07953524,0.7913125,0.07412648,0.9850048,-0.15579093,-0.79183745,0.15310027,0.5912307,,0.044823844,0.4316107,-0.3737822,0.69255316,-0.018317614,-0.72113425,-0.32441452,0.8849718,-0.3340361,0.64430225,0.4652842,0.6069475,,0.8265332085967524,-0.35657402226869406,0.16341420627000003,0.6385058779103767,-0.24266642358342222,0.5035200425708283,0.8719306250247827,,-0.6686033213188611,-0.5506617448637044,0.14974482822000001,2.137369593937757,0.35785099288568856,0.6492989541186304,0.8755241944797366,,-0.06956664232292899,-0.09922196797587764,0.1150502548,-0.034016912529394594,,-3.675744e-05,1.7285347e-06,-1.1920929e-06,1.0,2.843514e-05,2.3260713e-05,-2.8442591e-05,1.0,2.592802e-06,-2.3260713e-05,-2.6226044e-06,1.0,749,2.281,0,0,0.0,False,1.0464825983870312,1.0496115477602863
2.2671672149990627,11:40:18.244783,11:40:00.027837,0,,0.006906084,0.011701338,0.07085514,-0.6355167,-0.16655673,-0.7539078,-0.48191702,0.8484607,0.21879265,0.6032199,0.5023675,-0.6194777,,0.15388125,-0.034195274,0.046100855,-0.625086,-0.1787241,0.7598193,0.2223691,0.89232135,0.3928291,-0.7482109,0.4145122,-0.5180347,,0.08742462,1.3322511,0.46482766,0.9960452,0.0029089716,-0.08880093,-0.05383986,-0.7752969,-0.629298,-0.0706777,0.63159025,-0.7720741,,-0.048778467,0.24908131,-0.12536748,0.60621667,0.07953524,0.7913125,0.07412648,0.9850048,-0.15579093,-0.79183745,0.15310027,0.5912307,,0.044823844,0.4316107,-0.3737822,0.69255316,-0.018317614,-0.72113425,-0.32441452,0.8849718,-0.3340361,0.64430225,0.4652842,0.6069475,,0.8265332085967524,-0.35657402226869406,0.16341420627000003,0.6385058779103767,-0.24266642358342222,0.5035200425708283,0.8719306250247827,,-0.6686033213188611,-0.5506617448637044,0.14974482822000001,2.137369593937757,0.35785099288568856,0.6492989541186304,0.8755241944797366,,-0.06956664232292899,-0.09922196797587764,0.1150502548,-0.034016912529394594,,-3.675744e-05,1.7285347e-06,-1.1920929e-06,1.0,2.843514e-05,2.3260713e-05,-2.8442591e-05,1.0,2.592802e-06,-2.3260713e-05,-2.6226044e-06,1.0,757,2.305,0,0,0.0,False,1.0469592201351996,1.0502391903704191
2.3292847419997997,11:40:18.273486,11:40:00.259952,0,,0.0069058454,0.011701725,0.07085523,-0.63562053,-0.16640544,-0.7538538,-0.48174426,0.8485356,0.21888272,0.60324866,0.5022912,-0.6195116,,0.15388206,-0.034195036,0.046101272,-0.6250804,-0.17872512,0.75982356,0.22237265,0.8923205,0.39282915,-0.74821454,0.41451362,-0.5180284,,0.08742462,1.3322511,0.46482766,0.9960452,0.0029089716,-0.08880093,-0.05383986,-0.7752969,-0.629298,-0.0706777,0.63159025,-0.7720741,,-0.04877826,0.24908169,-0.12536728,0.6063086,0.07938728,0.79125696,0.074286796,0.9849994,-0.15574858,-0.7917521,0.15321164,0.59131616,,0.044822957,0.431611,-0.37378225,0.69254774,-0.018316694,-0.72113943,-0.32441646,0.88497263,-0.334032,0.6443071,0.46528262,0.6069436,,0.8265332085967524,-0.35657402226869406,0.16341420627000003,0.6387155678538612,-0.24266642358342222,0.5035200425708283,0.8719306250247827,,-0.6686110440517353,-0.5506617448637044,0.14974482822000001,2.137369593937757,0.35785099288568856,0.6492989541186304,0.8755241944797366,,-0.06956664232292899,-0.09922196797587764,0.1150502548,-0.034016912529394594,,-3.675744e-05,1.7285347e-06,-1.1920929e-06,1.0,2.843514e-05,2.3260713e-05,-2.8442591e-05,1.0,2.592802e-06,-2.3260713e-05,-2.6226044e-06,1.0,765,2.33,0,0,0.0,False,1.0468996424166788,1.0502391903704191
