AlexandreBanks6/ExpertPlaybackApp/resources/Motions/PC1/Data_PC1_2.csv
Task Time,PC1 Time,PC2 Time,Gaze Calib,s_T_psm1,Tx,Ty,Tz,R00,R01,R02,R10,R11,R12,R20,R21,R22,s_T_psm3,Tx,Ty,Tz,R00,R01,R02,R10,R11,R12,R20,R21,R22,cart_T_ecm,Tx,Ty,Tz,R00,R01,R02,R10,R11,R12,R20,R21,R22,ecm_T_psm1,Tx,Ty,Tz,R00,R01,R02,R10,R11,R12,R20,R21,R22,ecm_T_psm3,Tx,Ty,Tz,R00,R01,R02,R10,R11,R12,R20,R21,R22,psm1_joints,q1,q2,q3,q4,q5,q6,jaw,psm3_joints,q1,q2,q3,q4,q5,q6,jaw,ecm_joints,q1,q2,q3,q4,ecmi_T_ecm,Tx,Ty,Tz,R00,R01,R02,R10,R11,R12,R20,R21,R22
""
lci_T_si,,,,,-0.07810864,0.0047268975,0.33658686,0.99634534,-0.04999341,0.06925772,-0.02077827,-0.92832446,-0.37118998,0.08285069,0.36839435,-0.9259705
rci_T_si,,,,,-0.08909067,0.009950163,0.34867883,0.9945985,-0.062360853,0.082975335,-0.022699432,-0.9107305,-0.41237688,0.10128435,0.40826592,-0.90722674
ecm_T_lc,,,,,-4.4071905e-05,-0.000346569,-0.018408367,-0.99912006,0.03075457,0.028518898,-0.03198801,-0.99852574,-0.04385276,0.027128182,-0.044726435,0.9986309
ecm_T_rc,,,,,0.00057554984,0.029174112,-0.0048684436,-0.9955508,-0.052743625,-0.07808159,0.04863208,-0.9973746,0.053654663,-0.080706544,0.04961867,0.9955021
cart_T_ecmi,,,,,0.20682392,1.3430053,0.5593755,0.99419594,-0.047310717,-0.09662361,-0.0800823,-0.9251759,-0.3709938,-0.07184185,0.37657836,-0.9235949
ecmac_T_ecmrep_psm1,,,,,0.023358302,-0.14379282,-0.3755157,0.9999625,0.00411225,0.007622192,-0.0040185633,0.9999167,-0.01226611,-0.007671999,0.012235019,0.9998957
ecmac_T_ecmrep_psm3,,,,,-0.013221607,-0.27445275,-0.65629,0.99739635,-0.07101346,0.012556174,0.0696691,0.9938116,0.08651434,-0.018622153,-0.085414305,0.9961715
""
0,09:34:31.848770,NaN,0,,0.08413049,-0.030287318,0.04439348,-0.58656955,0.08599298,-0.80532056,-0.07386485,0.98452294,0.15892917,0.80652344,0.15270789,-0.57113945,,0.042897545,-0.028251432,0.04900977,0.27854216,0.23616989,0.93093395,0.1102525,-0.9707498,0.21328244,0.95407474,0.04322964,-0.29643303,,0.2068382,1.3430042,0.5593837,0.9941944,-0.047328927,-0.09663091,-0.08010186,-0.92517495,-0.37099192,-0.07184185,0.37657836,-0.9235949,,-0.042449787,0.13478728,-0.09552397,0.5017881,-0.06854903,0.8622701,0.25911236,0.9629904,-0.07423132,-0.82526934,0.26067325,0.500979,,0.022846013,0.25716826,-0.3817297,-0.39735198,-0.20518284,-0.89443356,0.5288926,-0.8477222,-0.040493205,-0.7499227,-0.48914933,0.4453638,,0.5291384883432407,-0.6650740323953406,0.17547488843000003,0.4965457861713537,-0.6662395728562877,0.7183929172851162,1.1489621611885203,,-0.6461533368534905,-0.6120729166795378,0.16998769286,-1.281205554690444,-0.6799032228328317,-0.43152858344333384,1.3389313101026872,,-0.12960378692996893,-0.40635846475714477,0.08491787512,0.05233371158368399,,1.3709068e-05,3.33786e-06,-8.583069e-06,0.99999994,-1.8175691e-05,-7.405877e-06,1.8175691e-05,1.0,-1.4007092e-06,7.4207783e-06,1.3709068e-06,1.0
0.02253182901768014,09:34:31.866559,NaN,0,,0.08413049,-0.030287318,0.04439348,-0.58656955,0.08599298,-0.80532056,-0.07386485,0.98452294,0.15892917,0.80652344,0.15270789,-0.57113945,,0.042897545,-0.028251432,0.04900977,0.27854216,0.23616989,0.93093395,0.1102525,-0.9707498,0.21328244,0.95407474,0.04322964,-0.29643303,,0.2068382,1.3430042,0.5593837,0.9941944,-0.047328927,-0.09663091,-0.08010186,-0.92517495,-0.37099192,-0.07184185,0.37657836,-0.9235949,,-0.042449787,0.13478728,-0.09552397,0.5017881,-0.06854903,0.8622701,0.25911236,0.9629904,-0.07423132,-0.82526934,0.26067325,0.500979,,0.022846013,0.25716826,-0.3817297,-0.39735198,-0.20518284,-0.89443356,0.5288926,-0.8477222,-0.040493205,-0.7499227,-0.48914933,0.4453638,,0.5291384883432407,-0.6650817551282148,0.17547488843000003,0.4965457861713537,-0.6662395728562877,0.7183929172851162,1.1489621611885203,,-0.6461456141206163,-0.6120574712137893,0.16998639657,-1.281205554690444,-0.6799032228328317,-0.43152858344333384,1.3389313101026872,,-0.12960378692996893,-0.40635846475714477,0.08491787512,0.05233371158368399,,1.3709068e-05,3.33786e-06,-8.583069e-06,0.99999994,-1.8175691e-05,-7.405877e-06,1.8175691e-05,1.0,-1.4007092e-06,7.4207783e-06,1.3709068e-06,1.0
0.04032424703473225,09:34:31.897500,NaN,0,,0.08412402,-0.030289628,0.044394508,-0.5865686,0.08599705,-0.80532086,-0.0738633,0.98452246,0.15893283,0.8065243,0.15270868,-0.571138,,0.042897545,-0.028251432,0.04900977,0.27854216,0.23616989,0.93093395,0.1102525,-0.9707498,0.21328244,0.95407474,0.04322964,-0.29643303,,0.2068382,1.3430042,0.5593837,0.9941944,-0.047328927,-0.09663091,-0.08010186,-0.92517495,-0.37099192,-0.07184185,0.37657836,-0.9235949,,-0.04244353,0.13478562,-0.09552649,0.5017871,-0.06855317,0.86227036,0.2591141,0.9629902,-0.07422739,-0.8252694,0.26067275,0.5009792,,0.022846013,0.25716826,-0.3817297,-0.39735198,-0.20518284,-0.89443356,0.5288926,-0.8477222,-0.040493205,-0.7499227,-0.48914933,0.4453638,,0.5291462110761149,-0.6650740323953406,0.17547488843000003,0.4965457861713537,-0.6662395728562877,0.7183929172851162,1.1489621611885203,,-0.6461456141206163,-0.6120574712137893,0.16998510028000002,-1.281205554690444,-0.6799032228328317,-0.43152858344333384,1.3389313101026872,,-0.12960378692996893,-0.40635846475714477,0.08491787512,0.05233371158368399,,1.3709068e-05,3.33786e-06,-8.583069e-06,0.99999994,-1.8175691e-05,-7.405877e-06,1.8175691e-05,1.0,-1.4007092e-06,7.4207783e-06,1.3709068e-06,1.0
0.07122601702576503,09:34:31.927338,NaN,0,,0.084127784,-0.030294977,0.044396847,-0.58655953,0.08595376,-0.805332,-0.07388675,0.9845269,0.15889442,0.80652875,0.15270443,-0.57113284,,0.042897545,-0.028251432,0.04900977,0.27854216,0.23616989,0.93093395,0.1102525,-0.9707498,0.21328244,0.95407474,0.04322964,-0.29643303,,0.2068382,1.3430042,0.5593837,0.9941944,-0.047328927,-0.09663091,-0.08010186,-0.92517495,-0.37099192,-0.07184185,0.37657836,-0.9235949,,-0.042447675,0.13478161,-0.09553036,0.5017769,-0.06850955,0.8622798,0.25909427,0.962993,-0.07426046,-0.82528186,0.26067394,0.500958,,0.022846013,0.25716826,-0.3817297,-0.39735198,-0.20518284,-0.89443356,0.5288926,-0.8477222,-0.040493205,-0.7499227,-0.48914933,0.4453638,,0.5291384883432407,-0.6650740323953406,0.17547488843000003,0.4965457861713537,-0.6662395728562877,0.7184745960252568,1.148798817122386,,-0.6461533368534905,-0.6120574712137893,0.16998380399000002,-1.281205554690444,-0.6799032228328317,-0.43152858344333384,1.3389313101026872,,-0.12960378692996893,-0.40635846475714477,0.08491787512,0.05233371158368399,,1.3709068e-05,3.33786e-06,-8.583069e-06,0.99999994,-1.8175691e-05,-7.405877e-06,1.8175691e-05,1.0,-1.4007092e-06,7.4207783e-06,1.3709068e-06,1.0
0.10104842600412667,09:34:31.958458,NaN,0,,0.0841329,-0.030296497,0.044397518,-0.5865554,0.08593007,-0.80533755,-0.07389924,0.9845293,0.15887335,0.8065306,0.15270191,-0.57113093,,0.042892687,-0.02825325,0.049009204,0.2785609,0.23628558,0.93089896,0.110310584,-0.9707209,0.21338418,0.9540626,0.04324755,-0.2964696,,0.2068382,1.3430042,0.5593837,0.9941944,-0.047328927,-0.09663091,-0.08010186,-0.92517495,-0.37099192,-0.07184185,0.37657836,-0.9235949,,-0.04245288,0.13478044,-0.09553104,0.5017722,-0.06848566,0.8622844,0.2590835,0.96299446,-0.07427896,-0.82528806,0.26067477,0.50094736,,0.022850968,0.25716683,-0.38173053,-0.3973711,-0.20530082,-0.894398,0.52893573,-0.8476988,-0.040418826,-0.7498821,-0.48914036,0.44544196,,0.5291462110761149,-0.6650740323953406,0.17547488843000003,0.4965457861713537,-0.6662395728562877,0.7184745960252568,1.148798817122386,,-0.6461533368534905,-0.6120574712137893,0.16998380399000002,-1.281205554690444,-0.6799032228328317,-0.43152858344333384,1.3389313101026872,,-0.12960378692996893,-0.40635846475714477,0.08491787512,0.05233371158368399,,1.3709068e-05,3.33786e-06,-8.583069e-06,0.99999994,-1.8175691e-05,-7.405877e-06,1.8175691e-05,1.0,-1.4007092e-06,7.4207783e-06,1.3709068e-06,1.0
0.13216303999070078,09:34:31.982853,NaN,0,,0.0841329,-0.030296497,0.044397518,-0.5865554,0.08593007,-0.80533755,-0.07389924,0.9845293,0.15887335,0.8065306,0.15270191,-0.57113093,,0.042892687,-0.02825325,0.049009204,0.2785609,0.23628558,0.93089896,0.110310584,-0.9707209,0.21338418,0.9540626,0.04324755,-0.2964696,,0.2068382,1.3430042,0.5593837,0.9941944,-0.047328927,-0.09663091,-0.08010186,-0.92517495,-0.37099192,-0.07184185,0.37657836,-0.9235949,,-0.04245288,0.13478044,-0.09553104,0.5017722,-0.06848566,0.8622844,0.2590835,0.96299446,-0.07427896,-0.82528806,0.26067477,0.50094736,,0.022850968,0.25716683,-0.38173053,-0.3973711,-0.20530082,-0.894398,0.52893573,-0.8476988,-0.040418826,-0.7498821,-0.48914036,0.44544196,,0.5291462110761149,-0.6650740323953406,0.17547488843000003,0.4965457861713537,-0.6662395728562877,0.7185562747653973,1.1486354730562516,,-0.6461456141206163,-0.6120574712137893,0.16998380399000002,-1.281205554690444,-0.6799032228328317,-0.43152858344333384,1.3389313101026872,,-0.12960378692996893,-0.40635846475714477,0.08491787512,0.05233371158368399,,1.3709068e-05,3.33786e-06,-8.583069e-06,0.99999994,-1.8175691e-05,-7.405877e-06,1.8175691e-05,1.0,-1.4007092e-06,7.4207783e-06,1.3709068e-06,1.0
0.15659606602275744,09:34:32.004361,09:34:25.161125,0,,0.0841329,-0.030296497,0.044397518,-0.5865554,0.08593007,-0.80533755,-0.07389924,0.9845293,0.15887335,0.8065306,0.15270191,-0.57113093,,0.042892687,-0.02825325,0.049009204,0.2785609,0.23628558,0.93089896,0.110310584,-0.9707209,0.21338418,0.9540626,0.04324755,-0.2964696,,0.2068382,1.3430042,0.5593837,0.9941944,-0.047328927,-0.09663091,-0.08010186,-0.92517495,-0.37099192,-0.07184185,0.37657836,-0.9235949,,-0.04245288,0.13478044,-0.09553104,0.5017722,-0.06848566,0.8622844,0.2590835,0.96299446,-0.07427896,-0.82528806,0.26067477,0.50094736,,0.022850968,0.25716683,-0.38173053,-0.3973711,-0.20530082,-0.894398,0.52893573,-0.8476988,-0.040418826,-0.7498821,-0.48914036,0.44544196,,0.5291462110761149,-0.6650740323953406,0.17547488843000003,0.4965457861713537,-0.6662395728562877,0.7185562747653973,1.1486354730562516,,-0.6461533368534905,-0.6120574712137893,0.1699825077,-1.281205554690444,-0.6799032228328317,-0.43152858344333384,1.3389313101026872,,-0.12960378692996893,-0.40635846475714477,0.08491787512,0.05233371158368399,,1.3709068e-05,3.33786e-06,-8.583069e-06,0.99999994,-1.8175691e-05,-7.405877e-06,1.8175691e-05,1.0,-1.4007092e-06,7.4207783e-06,1.3709068e-06,1.0
0.1781255989917554,09:34:32.026610,09:34:25.161125,0,,0.0841329,-0.030296497,0.044397518,-0.5865554,0.08593007,-0.80533755,-0.07389924,0.9845293,0.15887335,0.8065306,0.15270191,-0.57113093,,0.042892687,-0.02825325,0.049009204,0.2785609,0.23628558,0.93089896,0.110310584,-0.9707209,0.21338418,0.9540626,0.04324755,-0.2964696,,0.2068382,1.3430042,0.5593837,0.9941944,-0.047328927,-0.09663091,-0.08010186,-0.92517495,-0.37099192,-0.07184185,0.37657836,-0.9235949,,-0.04245288,0.13478044,-0.09553104,0.5017722,-0.06848566,0.8622844,0.2590835,0.96299446,-0.07427896,-0.82528806,0.26067477,0.50094736,,0.022850968,0.25716683,-0.38173053,-0.3973711,-0.20530082,-0.894398,0.52893573,-0.8476988,-0.040418826,-0.7498821,-0.48914036,0.44544196,,0.5291462110761149,-0.6650740323953406,0.17547488843000003,0.4965457861713537,-0.6662395728562877,0.7185562747653973,1.1486354730562516,,-0.6461456141206163,-0.6120574712137893,0.1699825077,-1.281205554690444,-0.6799032228328317,-0.43152858344333384,1.3389313101026872,,-0.12960378692996893,-0.40635846475714477,0.08491787512,0.05233371158368399,,1.3709068e-05,3.33786e-06,-8.583069e-06,0.99999994,-1.8175691e-05,-7.405877e-06,1.8175691e-05,1.0,-1.4007092e-06,7.4207783e-06,1.3709068e-06,1.0
0.20034625299740583,09:34:32.046857,09:34:25.161125,0,,0.0841329,-0.030296497,0.044397518,-0.5865554,0.08593007,-0.80533755,-0.07389924,0.9845293,0.15887335,0.8065306,0.15270191,-0.57113093,,0.042892687,-0.02825325,0.049009204,0.2785609,0.23628558,0.93089896,0.110310584,-0.9707209,0.21338418,0.9540626,0.04324755,-0.2964696,,0.2068382,1.3430042,0.5593837,0.9941944,-0.047328927,-0.09663091,-0.08010186,-0.92517495,-0.37099192,-0.07184185,0.37657836,-0.9235949,,-0.04245288,0.13478044,-0.09553104,0.5017722,-0.06848566,0.8622844,0.2590835,0.96299446,-0.07427896,-0.82528806,0.26067477,0.50094736,,0.022850968,0.25716683,-0.38173053,-0.3973711,-0.20530082,-0.894398,0.52893573,-0.8476988,-0.040418826,-0.7498821,-0.48914036,0.44544196,,0.5291462110761149,-0.6650740323953406,0.17547488843000003,0.4965457861713537,-0.6662395728562877,0.7185562747653973,1.1486354730562516,,-0.646137891387742,-0.6120574712137893,0.1699825077,-1.281205554690444,-0.6799032228328317,-0.43152858344333384,1.3389313101026872,,-0.12960378692996893,-0.40635846475714477,0.08491787512,0.05233371158368399,,1.3709068e-05,3.33786e-06,-8.583069e-06,0.99999994,-1.8175691e-05,-7.405877e-06,1.8175691e-05,1.0,-1.4007092e-06,7.4207783e-06,1.3709068e-06,1.0
0.22062233102042228,09:34:32.066282,09:34:25.161125,0,,0.0841329,-0.030296497,0.044397518,-0.5865554,0.08593007,-0.80533755,-0.07389924,0.9845293,0.15887335,0.8065306,0.15270191,-0.57113093,,0.042892687,-0.02825325,0.049009204,0.2785609,0.23628558,0.93089896,0.110310584,-0.9707209,0.21338418,0.9540626,0.04324755,-0.2964696,,0.2068382,1.3430042,0.5593837,0.9941944,-0.047328927,-0.09663091,-0.08010186,-0.92517495,-0.37099192,-0.07184185,0.37657836,-0.9235949,,-0.04245288,0.13478044,-0.09553104,0.5017722,-0.06848566,0.8622844,0.2590835,0.96299446,-0.07427896,-0.82528806,0.26067477,0.50094736,,0.022850968,0.25716683,-0.38173053,-0.3973711,-0.20530082,-0.894398,0.52893573,-0.8476988,-0.040418826,-0.7498821,-0.48914036,0.44544196,,0.5291462110761149,-0.6650740323953406,0.17547488843000003,0.4965457861713537,-0.6662395728562877,0.7185562747653973,1.1486354730562516,,-0.646137891387742,-0.6120574712137893,0.1699825077,-1.281205554690444,-0.6799032228328317,-0.43152858344333384,1.3389313101026872,,-0.12960378692996893,-0.40635846475714477,0.08491787512,0.05233371158368399,,1.3709068e-05,3.33786e-06,-8.583069e-06,0.99999994,-1.8175691e-05,-7.405877e-06,1.8175691e-05,1.0,-1.4007092e-06,7.4207783e-06,1.3709068e-06,1.0
0.24001344403950498,09:34:32.087118,09:34:25.263377,0,,0.0841329,-0.030296497,0.044397518,-0.5865554,0.08593007,-0.80533755,-0.07389924,0.9845293,0.15887335,0.8065306,0.15270191,-0.57113093,,0.042886265,-0.028252192,0.04901263,0.27856916,0.23638159,0.93087214,0.11038324,-0.9706956,0.21346134,0.95405173,0.043288916,-0.2964984,,0.2068382,1.3430042,0.5593837,0.9941944,-0.047328927,-0.09663091,-0.08010186,-0.92517495,-0.37099192,-0.07184185,0.37657836,-0.9235949,,-0.04245288,0.13478044,-0.09553104,0.5017722,-0.06848566,0.8622844,0.2590835,0.96299446,-0.07427896,-0.82528806,0.26067477,0.50094736,,0.022856878,0.25717,-0.38173357,-0.39738056,-0.20540202,-0.89437056,0.5289932,-0.84766567,-0.040362872,-0.74983656,-0.48915535,0.44550213,,0.5291462110761149,-0.6650740323953406,0.17547488843000003,0.4965457861713537,-0.6662395728562877,0.7185562747653973,1.1486354730562516,,-0.646137891387742,-0.6120574712137893,0.16998121141000003,-1.281205554690444,-0.6799032228328317,-0.43152858344333384,1.3389313101026872,,-0.12960378692996893,-0.40635846475714477,0.08491787512,0.05233371158368399,,1.3709068e-05,3.33786e-06,-8.583069e-06,0.99999994,-1.8175691e-05,-7.405877e-06,1.8175691e-05,1.0,-1.4007092e-06,7.4207783e-06,1.3709068e-06,1.0
0.26086730003589764,09:34:32.115311,09:34:25.263377,0,,0.0841329,-0.030296497,0.044397518,-0.5865554,0.08593007,-0.80533755,-0.07389924,0.9845293,0.15887335,0.8065306,0.15270191,-0.57113093,,0.042886265,-0.028252192,0.04901263,0.27856916,0.23638159,0.93087214,0.11038324,-0.9706956,0.21346134,0.95405173,0.043288916,-0.2964984,,0.2068382,1.3430042,0.5593837,0.9941944,-0.047328927,-0.09663091,-0.08010186,-0.92517495,-0.37099192,-0.07184185,0.37657836,-0.9235949,,-0.04245288,0.13478044,-0.09553104,0.5017722,-0.06848566,0.8622844,0.2590835,0.96299446,-0.07427896,-0.82528806,0.26067477,0.50094736,,0.022856878,0.25717,-0.38173357,-0.39738056,-0.20540202,-0.89437056,0.5289932,-0.84766567,-0.040362872,-0.74983656,-0.48915535,0.44550213,,0.5291307656103665,-0.6650740323953406,0.17547488843000003,0.4965457861713537,-0.6662395728562877,0.7185562747653973,1.1486354730562516,,-0.646137891387742,-0.6120574712137893,0.16997991512000002,-1.281205554690444,-0.6799032228328317,-0.43152858344333384,1.3389313101026872,,-0.12960378692996893,-0.40635846475714477,0.08491787512,0.05233371158368399,,1.3709068e-05,3.33786e-06,-8.583069e-06,0.99999994,-1.8175691e-05,-7.405877e-06,1.8175691e-05,1.0,-1.4007092e-06,7.4207783e-06,1.3709068e-06,1.0
0.28906785300932825,09:34:32.132466,09:34:25.263377,0,,0.0841329,-0.030296497,0.044397518,-0.5865554,0.08593007,-0.80533755,-0.07389924,0.9845293,0.15887335,0.8065306,0.15270191,-0.57113093,,0.042886265,-0.028252192,0.04901263,0.27856916,0.23638159,0.93087214,0.11038324,-0.9706956,0.21346134,0.95405173,0.043288916,-0.2964984,,0.2068382,1.3430042,0.5593837,0.9941944,-0.047328927,-0.09663091,-0.08010186,-0.92517495,-0.37099192,-0.07184185,0.37657836,-0.9235949,,-0.04245288,0.13478044,-0.09553104,0.5017722,-0.06848566,0.8622844,0.2590835,0.96299446,-0.07427896,-0.82528806,0.26067477,0.50094736,,0.022856878,0.25717,-0.38173357,-0.39738056,-0.20540202,-0.89437056,0.5289932,-0.84766567,-0.040362872,-0.74983656,-0.48915535,0.44550213,,0.5291307656103665,-0.6650740323953406,0.17547488843000003,0.4965457861713537,-0.6662395728562877,0.7185562747653973,1.1486354730562516,,-0.646137891387742,-0.6120574712137893,0.16997861883,-1.281205554690444,-0.6799032228328317,-0.43152858344333384,1.3389313101026872,,-0.12960378692996893,-0.40635846475714477,0.08491787512,0.05233371158368399,,1.3709068e-05,3.33786e-06,-8.583069e-06,0.99999994,-1.8175691e-05,-7.405877e-06,1.8175691e-05,1.0,-1.4007092e-06,7.4207783e-06,1.3709068e-06,1.0
0.30622907500946894,09:34:32.149201,09:34:25.263377,0,,0.0841329,-0.030296497,0.044397518,-0.5865554,0.08593007,-0.80533755,-0.07389924,0.9845293,0.15887335,0.8065306,0.15270191,-0.57113093,,0.042886265,-0.028252192,0.04901263,0.27856916,0.23638159,0.93087214,0.11038324,-0.9706956,0.21346134,0.95405173,0.043288916,-0.2964984,,0.2068382,1.3430042,0.5593837,0.9941944,-0.047328927,-0.09663091,-0.08010186,-0.92517495,-0.37099192,-0.07184185,0.37657836,-0.9235949,,-0.04245288,0.13478044,-0.09553104,0.5017722,-0.06848566,0.8622844,0.2590835,0.96299446,-0.07427896,-0.82528806,0.26067477,0.50094736,,0.022856878,0.25717,-0.38173357,-0.39738056,-0.20540202,-0.89437056,0.5289932,-0.84766567,-0.040362872,-0.74983656,-0.48915535,0.44550213,,0.5291307656103665,-0.6650740323953406,0.17547488843000003,0.4965457861713537,-0.6662395728562877,0.7185562747653973,1.1486354730562516,,-0.646137891387742,-0.6120574712137893,0.16997861883,-1.281205554690444,-0.6799032228328317,-0.43152858344333384,1.3389313101026872,,-0.12960378692996893,-0.40635846475714477,0.08491787512,0.05233371158368399,,1.3709068e-05,3.33786e-06,-8.583069e-06,0.99999994,-1.8175691e-05,-7.405877e-06,1.8175691e-05,1.0,-1.4007092e-06,7.4207783e-06,1.3709068e-06,1.0
0.322925815009512,09:34:32.167206,09:34:25.263377,0,,0.0841329,-0.030296497,0.044397518,-0.5865554,0.08593007,-0.80533755,-0.07389924,0.9845293,0.15887335,0.8065306,0.15270191,-0.57113093,,0.042886265,-0.028252192,0.04901263,0.27856916,0.23638159,0.93087214,0.11038324,-0.9706956,0.21346134,0.95405173,0.043288916,-0.2964984,,0.2068382,1.3430042,0.5593837,0.9941944,-0.047328927,-0.09663091,-0.08010186,-0.92517495,-0.37099192,-0.07184185,0.37657836,-0.9235949,,-0.04245288,0.13478044,-0.09553104,0.5017722,-0.06848566,0.8622844,0.2590835,0.96299446,-0.07427896,-0.82528806,0.26067477,0.50094736,,0.022856878,0.25717,-0.38173357,-0.39738056,-0.20540202,-0.89437056,0.5289932,-0.84766567,-0.040362872,-0.74983656,-0.48915535,0.44550213,,0.5291307656103665,-0.6650740323953406,0.17547488843000003,0.4965457861713537,-0.6662395728562877,0.7185562747653973,1.1486354730562516,,-0.646137891387742,-0.6120574712137893,0.16997861883,-1.281205554690444,-0.6799032228328317,-0.43152858344333384,1.3389313101026872,,-0.12960378692996893,-0.40635846475714477,0.08491787512,0.05233371158368399,,1.3709068e-05,3.33786e-06,-8.583069e-06,0.99999994,-1.8175691e-05,-7.405877e-06,1.8175691e-05,1.0,-1.4007092e-06,7.4207783e-06,1.3709068e-06,1.0
0.34097175201168284,09:34:32.187468,09:34:25.263377,0,,0.0841329,-0.030296497,0.044397518,-0.5865554,0.08593007,-0.80533755,-0.07389924,0.9845293,0.15887335,0.8065306,0.15270191,-0.57113093,,0.042886265,-0.028252192,0.04901263,0.27856916,0.23638159,0.93087214,0.11038324,-0.9706956,0.21346134,0.95405173,0.043288916,-0.2964984,,0.2068382,1.3430042,0.5593837,0.9941944,-0.047328927,-0.09663091,-0.08010186,-0.92517495,-0.37099192,-0.07184185,0.37657836,-0.9235949,,-0.04245288,0.13478044,-0.09553104,0.5017722,-0.06848566,0.8622844,0.2590835,0.96299446,-0.07427896,-0.82528806,0.26067477,0.50094736,,0.022856878,0.25717,-0.38173357,-0.39738056,-0.20540202,-0.89437056,0.5289932,-0.84766567,-0.040362872,-0.74983656,-0.48915535,0.44550213,,0.5291307656103665,-0.6650740323953406,0.17547488843000003,0.4965457861713537,-0.6662395728562877,0.7185562747653973,1.1486354730562516,,-0.6461456141206163,-0.6120574712137893,0.16997861883,-1.281205554690444,-0.6799032228328317,-0.43152858344333384,1.3389313101026872,,-0.12960378692996893,-0.40635846475714477,0.08491787512,0.05233371158368399,,1.3709068e-05,3.33786e-06,-8.583069e-06,0.99999994,-1.8175691e-05,-7.405877e-06,1.8175691e-05,1.0,-1.4007092e-06,7.4207783e-06,1.3709068e-06,1.0
0.36121480801375583,09:34:32.205760,09:34:25.263377,0,,0.084131554,-0.030300327,0.044399187,-0.58655035,0.08591046,-0.80534333,-0.07391021,0.9845313,0.15885599,0.8065332,0.15270013,-0.57112765,,0.042886265,-0.028252192,0.04901263,0.27856916,0.23638159,0.93087214,0.11038324,-0.9706956,0.21346134,0.95405173,0.043288916,-0.2964984,,0.2068382,1.3430042,0.5593837,0.9941944,-0.047328927,-0.09663091,-0.08010186,-0.92517495,-0.37099192,-0.07184185,0.37657836,-0.9235949,,-0.042451825,0.1347776,-0.095534235,0.50176656,-0.06846592,0.86228925,0.25907445,0.96299577,-0.07429353,-0.8252943,0.26067513,0.50093687,,0.022856878,0.25717,-0.38173357,-0.39738056,-0.20540202,-0.89437056,0.5289932,-0.84766567,-0.040362872,-0.74983656,-0.48915535,0.44550213,,0.5291384883432407,-0.6650740323953406,0.17547488843000003,0.4965457861713537,-0.6662395728562877,0.7185562747653973,1.1486354730562516,,-0.646137891387742,-0.6120574712137893,0.16997861883,-1.281205554690444,-0.6799032228328317,-0.43152858344333384,1.3389313101026872,,-0.12960378692996893,-0.40635846475714477,0.08491787512,0.05233371158368399,,1.3709068e-05,3.33786e-06,-8.583069e-06,0.99999994,-1.8175691e-05,-7.405877e-06,1.8175691e-05,1.0,-1.4007092e-06,7.4207783e-06,1.3709068e-06,1.0
0.3795231330441311,09:34:32.224797,09:34:25.263377,0,,0.084131554,-0.030300327,0.044399187,-0.58655035,0.08591046,-0.80534333,-0.07391021,0.9845313,0.15885599,0.8065332,0.15270013,-0.57112765,,0.042886265,-0.028252192,0.04901263,0.27856916,0.23638159,0.93087214,0.11038324,-0.9706956,0.21346134,0.95405173,0.043288916,-0.2964984,,0.2068382,1.3430042,0.5593837,0.9941944,-0.047328927,-0.09663091,-0.08010186,-0.92517495,-0.37099192,-0.07184185,0.37657836,-0.9235949,,-0.042451825,0.1347776,-0.095534235,0.50176656,-0.06846592,0.86228925,0.25907445,0.96299577,-0.07429353,-0.8252943,0.26067513,0.50093687,,0.022856878,0.25717,-0.38173357,-0.39738056,-0.20540202,-0.89437056,0.5289932,-0.84766567,-0.040362872,-0.74983656,-0.48915535,0.44550213,,0.5291307656103665,-0.6650740323953406,0.17547488843000003,0.4965457861713537,-0.6662395728562877,0.7185562747653973,1.1486354730562516,,-0.646137891387742,-0.6120574712137893,0.16997732254,-1.281205554690444,-0.6799032228328317,-0.43152858344333384,1.3389313101026872,,-0.12960378692996893,-0.40635846475714477,0.08491787512,0.05233371158368399,,1.3709068e-05,3.33786e-06,-8.583069e-06,0.99999994,-1.8175691e-05,-7.405877e-06,1.8175691e-05,1.0,-1.4007092e-06,7.4207783e-06,1.3709068e-06,1.0
0.3985290570417419,09:34:32.246624,09:34:25.424510,0,,0.08413019,-0.030304104,0.04440088,-0.58654535,0.08589085,-0.80534905,-0.073921144,0.9845333,0.15883863,0.80653584,0.15269841,-0.5711244,,0.042886257,-0.028252162,0.04901266,0.27858546,0.23652115,0.93083185,0.11045113,-0.9706607,0.213585,0.9540392,0.04330972,-0.29653597,,0.20681234,1.3430022,0.5593759,0.994199,-0.047275368,-0.096609436,-0.080044314,-0.9251777,-0.3709975,-0.07184185,0.37657836,-0.9235949,,-0.042430893,0.13477272,-0.09554827,0.50176513,-0.06850335,0.8622871,0.25909567,0.96299237,-0.07426408,-0.82528853,0.26067796,0.5009449,,0.022876447,0.25717258,-0.38174248,-0.39740953,-0.20548826,-0.8943379,0.52902675,-0.84764683,-0.040318985,-0.7497976,-0.48915178,0.44557172,,0.5291307656103665,-0.6650740323953406,0.17547488843000003,0.4965457861713537,-0.6662395728562877,0.7185562747653973,1.1486354730562516,,-0.646137891387742,-0.6120574712137893,0.16997732254,-1.281205554690444,-0.6799032228328317,-0.43152858344333384,1.3389313101026872,,-0.12960378692996893,-0.40635846475714477,0.08491787512,0.05233371158368399,,-1.1283904e-05,3.5762787e-06,1.9073486e-06,0.99999994,3.5289675e-05,1.4394522e-05,-3.528595e-05,0.99999994,2.7418137e-06,-1.4379621e-05,-2.7418137e-06,1.0
0.4203446140163578,09:34:32.258701,09:34:25.424510,0,,0.08413019,-0.030304104,0.04440088,-0.58654535,0.08589085,-0.80534905,-0.073921144,0.9845333,0.15883863,0.80653584,0.15269841,-0.5711244,,0.042886257,-0.028252162,0.04901266,0.27858546,0.23652115,0.93083185,0.11045113,-0.9706607,0.213585,0.9540392,0.04330972,-0.29653597,,0.20681234,1.3430022,0.5593759,0.994199,-0.047275368,-0.096609436,-0.080044314,-0.9251777,-0.3709975,-0.07184185,0.37657836,-0.9235949,,-0.042430893,0.13477272,-0.09554827,0.50176513,-0.06850335,0.8622871,0.25909567,0.96299237,-0.07426408,-0.82528853,0.26067796,0.5009449,,0.022876447,0.25717258,-0.38174248,-0.39740953,-0.20548826,-0.8943379,0.52902675,-0.84764683,-0.040318985,-0.7497976,-0.48915178,0.44557172,,0.5291384883432407,-0.6650817551282148,0.17547488843000003,0.4965457861713537,-0.6662395728562877,0.7185562747653973,1.1486354730562516,,-0.6461456141206163,-0.6120651939466635,0.16997732254,-1.281205554690444,-0.6799032228328317,-0.43152858344333384,1.3389313101026872,,-0.12960378692996893,-0.40635846475714477,0.08491787512,0.05233371158368399,,-1.1283904e-05,3.5762787e-06,1.9073486e-06,0.99999994,3.5289675e-05,1.4394522e-05,-3.528595e-05,0.99999994,2.7418137e-06,-1.4379621e-05,-2.7418137e-06,1.0
0.4323902160394937,09:34:32.278824,09:34:25.424510,0,,0.08413019,-0.030304104,0.04440088,-0.58654535,0.08589085,-0.80534905,-0.073921144,0.9845333,0.15883863,0.80653584,0.15269841,-0.5711244,,0.042886257,-0.028252162,0.04901266,0.27858546,0.23652115,0.93083185,0.11045113,-0.9706607,0.213585,0.9540392,0.04330972,-0.29653597,,0.20681234,1.3430022,0.5593759,0.994199,-0.047275368,-0.096609436,-0.080044314,-0.9251777,-0.3709975,-0.07184185,0.37657836,-0.9235949,,-0.042430893,0.13477272,-0.09554827,0.50176513,-0.06850335,0.8622871,0.25909567,0.96299237,-0.07426408,-0.82528853,0.26067796,0.5009449,,0.022876447,0.25717258,-0.38174248,-0.39740953,-0.20548826,-0.8943379,0.52902675,-0.84764683,-0.040318985,-0.7497976,-0.48915178,0.44557172,,0.5291462110761149,-0.6650817551282148,0.17547488843000003,0.4965457861713537,-0.6662395728562877,0.7185562747653973,1.1486354730562516,,-0.646137891387742,-0.6120651939466635,0.16997602625000002,-1.281205554690444,-0.6799032228328317,-0.43152858344333384,1.3389313101026872,,-0.12960378692996893,-0.40635846475714477,0.08491787512,0.05233371158368399,,-1.1283904e-05,3.5762787e-06,1.9073486e-06,0.99999994,3.5289675e-05,1.4394522e-05,-3.528595e-05,0.99999994,2.7418137e-06,-1.4379621e-05,-2.7418137e-06,1.0
0.4525357329985127,09:34:32.297327,09:34:25.424510,0,,0.08413019,-0.030304104,0.04440088,-0.58654535,0.08589085,-0.80534905,-0.073921144,0.9845333,0.15883863,0.80653584,0.15269841,-0.5711244,,0.0428814,-0.028253995,0.049012095,0.27858785,0.23649728,0.93083715,0.11044136,-0.97066665,0.21356302,0.9540396,0.043306887,-0.29653496,,0.20681234,1.3430022,0.5593759,0.994199,-0.047275368,-0.096609436,-0.080044314,-0.9251777,-0.3709975,-0.07184185,0.37657836,-0.9235949,,-0.042430893,0.13477272,-0.09554827,0.50176513,-0.06850335,0.8622871,0.25909567,0.96299237,-0.07426408,-0.82528853,0.26067796,0.5009449,,0.022881402,0.25717115,-0.3817433,-0.3974116,-0.20546402,-0.89434254,0.5290182,-0.8476512,-0.040338174,-0.7498025,-0.48915434,0.44556063,,0.5291462110761149,-0.6650817551282148,0.17547488843000003,0.4965457861713537,-0.6662395728562877,0.7185562747653973,1.1486354730562516,,-0.646137891387742,-0.6120651939466635,0.16997472996000001,-1.281205554690444,-0.6799032228328317,-0.43152858344333384,1.3389313101026872,,-0.12960378692996893,-0.40635846475714477,0.08491787512,0.05233371158368399,,-1.1283904e-05,3.5762787e-06,1.9073486e-06,0.99999994,3.5289675e-05,1.4394522e-05,-3.528595e-05,0.99999994,2.7418137e-06,-1.4379621e-05,-2.7418137e-06,1.0
0.47104894602671266,09:34:32.316470,09:34:25.424510,0,,0.08413155,-0.030300282,0.044399194,-0.5865504,0.08591047,-0.8053433,-0.07391021,0.98453134,0.15885599,0.8065332,0.15270011,-0.57112765,,0.0428814,-0.028253995,0.049012095,0.27858785,0.23649728,0.93083715,0.11044136,-0.97066665,0.21356302,0.9540396,0.043306887,-0.29653496,,0.20681234,1.3430022,0.5593759,0.994199,-0.047275368,-0.096609436,-0.080044314,-0.9251777,-0.3709975,-0.07184185,0.37657836,-0.9235949,,-0.04243195,0.13477553,-0.095545076,0.50177073,-0.06852309,0.8622823,0.2591047,0.96299106,-0.074249506,-0.82528234,0.26067764,0.50095534,,0.022881402,0.25717115,-0.3817433,-0.3974116,-0.20546402,-0.89434254,0.5290182,-0.8476512,-0.040338174,-0.7498025,-0.48915434,0.44556063,,0.5291384883432407,-0.6650817551282148,0.17547488843000003,0.4965457861713537,-0.6662395728562877,0.7185562747653973,1.1486354730562516,,-0.646137891387742,-0.6120497484809151,0.16997343367,-1.281205554690444,-0.6799032228328317,-0.43152858344333384,1.3389313101026872,,-0.12960378692996893,-0.40635846475714477,0.08491787512,0.05233371158368399,,-1.1283904e-05,3.5762787e-06,1.9073486e-06,0.99999994,3.5289675e-05,1.4394522e-05,-3.528595e-05,0.99999994,2.7418137e-06,-1.4379621e-05,-2.7418137e-06,1.0
0.4901832939940505,09:34:32.337421,09:34:25.424510,0,,0.08413019,-0.030304104,0.04440088,-0.58654535,0.08589085,-0.80534905,-0.073921144,0.9845333,0.15883863,0.80653584,0.15269841,-0.5711244,,0.0428814,-0.028253995,0.049012095,0.27858785,0.23649728,0.93083715,0.11044136,-0.97066665,0.21356302,0.9540396,0.043306887,-0.29653496,,0.20681234,1.3430022,0.5593759,0.994199,-0.047275368,-0.096609436,-0.080044314,-0.9251777,-0.3709975,-0.07184185,0.37657836,-0.9235949,,-0.042430893,0.13477272,-0.09554827,0.50176513,-0.06850335,0.8622871,0.25909567,0.96299237,-0.07426408,-0.82528853,0.26067796,0.5009449,,0.022881402,0.25717115,-0.3817433,-0.3974116,-0.20546402,-0.89434254,0.5290182,-0.8476512,-0.040338174,-0.7498025,-0.48915434,0.44556063,,0.5291462110761149,-0.6650817551282148,0.17547359214000002,0.4965457861713537,-0.6662395728562877,0.7185562747653973,1.1486354730562516,,-0.646137891387742,-0.6120497484809151,0.16997343367,-1.281205554690444,-0.6799032228328317,-0.43152858344333384,1.3389313101026872,,-0.12960378692996893,-0.40635846475714477,0.08491787512,0.05233371158368399,,-1.1283904e-05,3.5762787e-06,1.9073486e-06,0.99999994,3.5289675e-05,1.4394522e-05,-3.528595e-05,0.99999994,2.7418137e-06,-1.4379621e-05,-2.7418137e-06,1.0
0.5111839130404405,09:34:32.359383,09:34:25.527480,0,,0.08413019,-0.030304104,0.04440088,-0.58654535,0.08589085,-0.80534905,-0.073921144,0.9845333,0.15883863,0.80653584,0.15269841,-0.5711244,,0.042886257,-0.028252162,0.04901266,0.27858546,0.23652115,0.93083185,0.11045113,-0.9706607,0.213585,0.9540392,0.04330972,-0.29653597,,0.20681234,1.3430022,0.5593759,0.994199,-0.047275368,-0.096609436,-0.080044314,-0.9251777,-0.3709975,-0.07184185,0.37657836,-0.9235949,,-0.042430893,0.13477272,-0.09554827,0.50176513,-0.06850335,0.8622871,0.25909567,0.96299237,-0.07426408,-0.82528853,0.26067796,0.5009449,,0.022876447,0.25717258,-0.38174248,-0.39740953,-0.20548826,-0.8943379,0.52902675,-0.84764683,-0.040318985,-0.7497976,-0.48915178,0.44557172,,0.5291462110761149,-0.6650817551282148,0.17547359214000002,0.4965457861713537,-0.6662395728562877,0.7185562747653973,1.1486354730562516,,-0.646137891387742,-0.6120497484809151,0.16997343367,-1.281205554690444,-0.6799032228328317,-0.43152858344333384,1.3389313101026872,,-0.12960378692996893,-0.40635846475714477,0.08491787512,0.05233371158368399,,-1.1283904e-05,3.5762787e-06,1.9073486e-06,0.99999994,3.5289675e-05,1.4394522e-05,-3.528595e-05,0.99999994,2.7418137e-06,-1.4379621e-05,-2.7418137e-06,1.0
0.533107616007328,09:34:32.376911,09:34:25.527480,0,,0.08412884,-0.030307926,0.044402562,-0.5865403,0.08587125,-0.80535483,-0.07393214,0.9845353,0.15882125,0.8065385,0.15269665,-0.5711211,,0.042886257,-0.028252162,0.04901266,0.27858546,0.23652115,0.93083185,0.11045113,-0.9706607,0.213585,0.9540392,0.04330972,-0.29653597,,0.20681234,1.3430022,0.5593759,0.994199,-0.047275368,-0.096609436,-0.080044314,-0.9251777,-0.3709975,-0.07184185,0.37657836,-0.9235949,,-0.04242984,0.13476989,-0.09555147,0.50175947,-0.06848361,0.86229193,0.2590866,0.9629937,-0.07427865,-0.8252948,0.26067832,0.5009344,,0.022876447,0.25717258,-0.38174248,-0.39740953,-0.20548826,-0.8943379,0.52902675,-0.84764683,-0.040318985,-0.7497976,-0.48915178,0.44557172,,0.5291384883432407,-0.6650740323953406,0.17547359214000002,0.4965457861713537,-0.6662395728562877,0.7185562747653973,1.1486354730562516,,-0.6461301686548678,-0.6120497484809151,0.16997213738000003,-1.281205554690444,-0.6799032228328317,-0.43152858344333384,1.3389313101026872,,-0.12960378692996893,-0.40635846475714477,0.08491787512,0.05233371158368399,,-1.1283904e-05,3.5762787e-06,1.9073486e-06,0.99999994,3.5289675e-05,1.4394522e-05,-3.528595e-05,0.99999994,2.7418137e-06,-1.4379621e-05,-2.7418137e-06,1.0
0.550632152997423,09:34:32.396964,09:34:25.527480,0,,0.08412884,-0.030307926,0.044402562,-0.5865403,0.08587125,-0.80535483,-0.07393214,0.9845353,0.15882125,0.8065385,0.15269665,-0.5711211,,0.042886257,-0.028252162,0.04901266,0.27858546,0.23652115,0.93083185,0.11045113,-0.9706607,0.213585,0.9540392,0.04330972,-0.29653597,,0.20681234,1.3430022,0.5593759,0.994199,-0.047275368,-0.096609436,-0.080044314,-0.9251777,-0.3709975,-0.07184185,0.37657836,-0.9235949,,-0.04242984,0.13476989,-0.09555147,0.50175947,-0.06848361,0.86229193,0.2590866,0.9629937,-0.07427865,-0.8252948,0.26067832,0.5009344,,0.022876447,0.25717258,-0.38174248,-0.39740953,-0.20548826,-0.8943379,0.52902675,-0.84764683,-0.040318985,-0.7497976,-0.48915178,0.44557172,,0.5291384883432407,-0.6650740323953406,0.17547359214000002,0.4965457861713537,-0.6662395728562877,0.7185562747653973,1.1486354730562516,,-0.646137891387742,-0.6120497484809151,0.16997213738000003,-1.281205554690444,-0.6799032228328317,-0.43152858344333384,1.3389313101026872,,-0.12960378692996893,-0.40635846475714477,0.08491787512,0.05233371158368399,,-1.1283904e-05,3.5762787e-06,1.9073486e-06,0.99999994,3.5289675e-05,1.4394522e-05,-3.528595e-05,0.99999994,2.7418137e-06,-1.4379621e-05,-2.7418137e-06,1.0
0.570700153009966,09:34:32.415804,09:34:25.527480,0,,0.084123716,-0.030306429,0.04440189,-0.58654445,0.08589493,-0.8053493,-0.073919654,0.98453283,0.15884231,0.8065367,0.1526992,-0.571123,,0.042886257,-0.028252162,0.04901266,0.27858546,0.23652115,0.93083185,0.11045113,-0.9706607,0.213585,0.9540392,0.04330972,-0.29653597,,0.20681234,1.3430022,0.5593759,0.994199,-0.047275368,-0.096609436,-0.080044314,-0.9251777,-0.3709975,-0.07184185,0.37657836,-0.9235949,,-0.04242463,0.13477105,-0.09555079,0.5017642,-0.0685075,0.86228734,0.25909737,0.9629922,-0.07426015,-0.8252886,0.26067746,0.5009451,,0.022876447,0.25717258,-0.38174248,-0.39740953,-0.20548826,-0.8943379,0.52902675,-0.84764683,-0.040318985,-0.7497976,-0.48915178,0.44557172,,0.5291462110761149,-0.6650817551282148,0.17547359214000002,0.4965457861713537,-0.6662395728562877,0.7185562747653973,1.1486354730562516,,-0.6461301686548678,-0.6120497484809151,0.16997213738000003,-1.281205554690444,-0.6799032228328317,-0.43152858344333384,1.3389313101026872,,-0.12960378692996893,-0.40635846475714477,0.08491787512,0.05233371158368399,,-1.1283904e-05,3.5762787e-06,1.9073486e-06,0.99999994,3.5289675e-05,1.4394522e-05,-3.528595e-05,0.99999994,2.7418137e-06,-1.4379621e-05,-2.7418137e-06,1.0
0.5895697009982541,09:34:32.432498,09:34:25.527480,0,,0.08411995,-0.030301087,0.044399552,-0.5865536,0.08593823,-0.805338,-0.0738962,0.9845284,0.15888074,0.8065322,0.15270351,-0.5711282,,0.042886257,-0.028252162,0.04901266,0.27860177,0.23666075,0.93079144,0.11051899,-0.97062576,0.21370867,0.9540265,0.04333049,-0.29657352,,0.20681234,1.3430022,0.5593759,0.994199,-0.047275368,-0.096609436,-0.080044314,-0.9251777,-0.3709975,-0.07184185,0.37657836,-0.9235949,,-0.042420484,0.13477506,-0.095546916,0.50177443,-0.06855112,0.86227787,0.2591172,0.96298945,-0.07422708,-0.82527614,0.26067626,0.50096625,,0.022876447,0.25717258,-0.38174248,-0.39742658,-0.2056305,-0.8942976,0.5290784,-0.847619,-0.040225435,-0.74975204,-0.4891402,0.44566095,,0.5291384883432407,-0.6650817551282148,0.17547359214000002,0.4965457861713537,-0.6662395728562877,0.7185562747653973,1.1486354730562516,,-0.6461301686548678,-0.6120497484809151,0.16997213738000003,-1.2809958647469593,-0.6799032228328317,-0.43152858344333384,1.3389313101026872,,-0.12960378692996893,-0.40635846475714477,0.08491787512,0.05233371158368399,,-1.1283904e-05,3.5762787e-06,1.9073486e-06,0.99999994,3.5289675e-05,1.4394522e-05,-3.528595e-05,0.99999994,2.7418137e-06,-1.4379621e-05,-2.7418137e-06,1.0
0.6062632820103317,09:34:32.456379,09:34:25.613723,0,,0.08411995,-0.030301087,0.044399552,-0.5865536,0.08593823,-0.805338,-0.0738962,0.9845284,0.15888074,0.8065322,0.15270351,-0.5711282,,0.042886257,-0.028252162,0.04901266,0.27860177,0.23666075,0.93079144,0.11051899,-0.97062576,0.21370867,0.9540265,0.04333049,-0.29657352,,0.20681234,1.3430022,0.5593759,0.994199,-0.047275368,-0.096609436,-0.080044314,-0.9251777,-0.3709975,-0.07184185,0.37657836,-0.9235949,,-0.042420484,0.13477506,-0.095546916,0.50177443,-0.06855112,0.86227787,0.2591172,0.96298945,-0.07422708,-0.82527614,0.26067626,0.50096625,,0.022876447,0.25717258,-0.38174248,-0.39742658,-0.2056305,-0.8942976,0.5290784,-0.847619,-0.040225435,-0.74975204,-0.4891402,0.44566095,,0.5291384883432407,-0.6650817551282148,0.17547359214000002,0.49675547611483817,-0.6662395728562877,0.7185562747653973,1.1486354730562516,,-0.646137891387742,-0.6120497484809151,0.16997213738000003,-1.2809958647469593,-0.6799032228328317,-0.43152858344333384,1.3389313101026872,,-0.12960378692996893,-0.40635846475714477,0.08491787512,0.05233371158368399,,-1.1283904e-05,3.5762787e-06,1.9073486e-06,0.99999994,3.5289675e-05,1.4394522e-05,-3.528595e-05,0.99999994,2.7418137e-06,-1.4379621e-05,-2.7418137e-06,1.0
0.6301371190347709,09:34:32.472058,09:34:25.613723,0,,0.08411995,-0.030301087,0.044399552,-0.5865536,0.08593823,-0.805338,-0.0738962,0.9845284,0.15888074,0.8065322,0.15270351,-0.5711282,,0.042886257,-0.028252162,0.04901266,0.27860177,0.23666075,0.93079144,0.11051899,-0.97062576,0.21370867,0.9540265,0.04333049,-0.29657352,,0.20681234,1.3430022,0.5593759,0.994199,-0.047275368,-0.096609436,-0.080044314,-0.9251777,-0.3709975,-0.07184185,0.37657836,-0.9235949,,-0.042420484,0.13477506,-0.095546916,0.50177443,-0.06855112,0.86227787,0.2591172,0.96298945,-0.07422708,-0.82527614,0.26067626,0.50096625,,0.022876447,0.25717258,-0.38174248,-0.39742658,-0.2056305,-0.8942976,0.5290784,-0.847619,-0.040225435,-0.74975204,-0.4891402,0.44566095,,0.5291384883432407,-0.6650817551282148,0.17547359214000002,0.49675547611483817,-0.6662395728562877,0.7185562747653973,1.1486354730562516,,-0.646137891387742,-0.6120497484809151,0.16997213738000003,-1.2809958647469593,-0.6799032228328317,-0.43144690470319325,1.3390946541688213,,-0.12960378692996893,-0.40635846475714477,0.08491787512,0.05233371158368399,,-1.1283904e-05,3.5762787e-06,1.9073486e-06,0.99999994,3.5289675e-05,1.4394522e-05,-3.528595e-05,0.99999994,2.7418137e-06,-1.4379621e-05,-2.7418137e-06,1.0
0.6458055560360663,09:34:32.492810,09:34:25.613723,0,,0.08411995,-0.030301087,0.044399552,-0.5865536,0.08593823,-0.805338,-0.0738962,0.9845284,0.15888074,0.8065322,0.15270351,-0.5711282,,0.042886257,-0.028252162,0.04901266,0.27860177,0.23666075,0.93079144,0.11051899,-0.97062576,0.21370867,0.9540265,0.04333049,-0.29657352,,0.20681234,1.3430022,0.5593759,0.994199,-0.047275368,-0.096609436,-0.080044314,-0.9251777,-0.3709975,-0.07184185,0.37657836,-0.9235949,,-0.042420484,0.13477506,-0.095546916,0.50177443,-0.06855112,0.86227787,0.2591172,0.96298945,-0.07422708,-0.82527614,0.26067626,0.50096625,,0.022876447,0.25717258,-0.38174248,-0.39742658,-0.2056305,-0.8942976,0.5290784,-0.847619,-0.040225435,-0.74975204,-0.4891402,0.44566095,,0.5291384883432407,-0.6650817551282148,0.17547359214000002,0.49696516605832275,-0.6662395728562877,0.7185562747653973,1.1486354730562516,,-0.6461301686548678,-0.6120497484809151,0.16997213738000003,-1.2809958647469593,-0.6799032228328317,-0.43144690470319325,1.3390946541688213,,-0.12960378692996893,-0.40635846475714477,0.08491787512,0.05233371158368399,,-1.1283904e-05,3.5762787e-06,1.9073486e-06,0.99999994,3.5289675e-05,1.4394522e-05,-3.528595e-05,0.99999994,2.7418137e-06,-1.4379621e-05,-2.7418137e-06,1.0
0.6659942960250191,09:34:32.513323,09:34:25.613723,0,,0.08411995,-0.030301087,0.044399552,-0.5865536,0.08593823,-0.805338,-0.0738962,0.9845284,0.15888074,0.8065322,0.15270351,-0.5711282,,0.042886257,-0.028252162,0.04901266,0.27860177,0.23666075,0.93079144,0.11051899,-0.97062576,0.21370867,0.9540265,0.04333049,-0.29657352,,0.20681234,1.3430022,0.5593759,0.994199,-0.047275368,-0.096609436,-0.080044314,-0.9251777,-0.3709975,-0.07184185,0.37657836,-0.9235949,,-0.042420484,0.13477506,-0.095546916,0.50177443,-0.06855112,0.86227787,0.2591172,0.96298945,-0.07422708,-0.82527614,0.26067626,0.50096625,,0.022876447,0.25717258,-0.38174248,-0.39742658,-0.2056305,-0.8942976,0.5290784,-0.847619,-0.040225435,-0.74975204,-0.4891402,0.44566095,,0.5291462110761149,-0.6650817551282148,0.17547359214000002,0.49696516605832275,-0.6662395728562877,0.7185562747653973,1.1486354730562516,,-0.6461301686548678,-0.6120497484809151,0.16997213738000003,-1.2809958647469593,-0.6799032228328317,-0.43144690470319325,1.3390946541688213,,-0.12960378692996893,-0.40635846475714477,0.08491787512,0.05233371158368399,,-1.1283904e-05,3.5762787e-06,1.9073486e-06,0.99999994,3.5289675e-05,1.4394522e-05,-3.528595e-05,0.99999994,2.7418137e-06,-1.4379621e-05,-2.7418137e-06,1.0
0.687078706047032,09:34:32.531555,09:34:25.696184,0,,0.08411995,-0.030301087,0.044399552,-0.5865536,0.08593823,-0.805338,-0.0738962,0.9845284,0.15888074,0.8065322,0.15270351,-0.5711282,,0.042886257,-0.028252162,0.04901266,0.27860177,0.23666075,0.93079144,0.11051899,-0.97062576,0.21370867,0.9540265,0.04333049,-0.29657352,,0.20681234,1.3430022,0.5593759,0.994199,-0.047275368,-0.096609436,-0.080044314,-0.9251777,-0.3709975,-0.07184185,0.37657836,-0.9235949,,-0.042420484,0.13477506,-0.095546916,0.50177443,-0.06855112,0.86227787,0.2591172,0.96298945,-0.07422708,-0.82527614,0.26067626,0.50096625,,0.022876447,0.25717258,-0.38174248,-0.39742658,-0.2056305,-0.8942976,0.5290784,-0.847619,-0.040225435,-0.74975204,-0.4891402,0.44566095,,0.5291462110761149,-0.6650817551282148,0.17547359214000002,0.49696516605832275,-0.6662395728562877,0.7185562747653973,1.1486354730562516,,-0.646137891387742,-0.6120497484809151,0.16997213738000003,-1.2809958647469593,-0.6799032228328317,-0.43144690470319325,1.3390946541688213,,-0.12960378692996893,-0.40635846475714477,0.08491787512,0.05233371158368399,,-1.1283904e-05,3.5762787e-06,1.9073486e-06,0.99999994,3.5289675e-05,1.4394522e-05,-3.528595e-05,0.99999994,2.7418137e-06,-1.4379621e-05,-2.7418137e-06,1.0
0.7053147740080021,09:34:32.551046,09:34:25.696184,0,,0.08411995,-0.030301087,0.044399552,-0.5865536,0.08593823,-0.805338,-0.0738962,0.9845284,0.15888074,0.8065322,0.15270351,-0.5711282,,0.042886257,-0.028252162,0.04901266,0.27860177,0.23666075,0.93079144,0.11051899,-0.97062576,0.21370867,0.9540265,0.04333049,-0.29657352,,0.20681234,1.3430022,0.5593759,0.994199,-0.047275368,-0.096609436,-0.080044314,-0.9251777,-0.3709975,-0.07184185,0.37657836,-0.9235949,,-0.042420484,0.13477506,-0.095546916,0.50177443,-0.06855112,0.86227787,0.2591172,0.96298945,-0.07422708,-0.82527614,0.26067626,0.50096625,,0.022876447,0.25717258,-0.38174248,-0.39742658,-0.2056305,-0.8942976,0.5290784,-0.847619,-0.040225435,-0.74975204,-0.4891402,0.44566095,,0.5291539338089892,-0.6650817551282148,0.17547359214000002,0.49696516605832275,-0.6662395728562877,0.7185562747653973,1.1486354730562516,,-0.646137891387742,-0.6120497484809151,0.16997084109000002,-1.281205554690444,-0.6799032228328317,-0.43144690470319325,1.3390946541688213,,-0.12960378692996893,-0.40635846475714477,0.08491787512,0.05233371158368399,,-1.1283904e-05,3.5762787e-06,1.9073486e-06,0.99999994,3.5289675e-05,1.4394522e-05,-3.528595e-05,0.99999994,2.7418137e-06,-1.4379621e-05,-2.7418137e-06,1.0
0.7247967090224847,09:34:32.568705,09:34:25.696184,0,,0.08411995,-0.030301087,0.044399552,-0.5865536,0.08593823,-0.805338,-0.0738962,0.9845284,0.15888074,0.8065322,0.15270351,-0.5711282,,0.042886257,-0.028252162,0.04901266,0.27860177,0.23666075,0.93079144,0.11051899,-0.97062576,0.21370867,0.9540265,0.04333049,-0.29657352,,0.20681234,1.3430022,0.5593759,0.994199,-0.047275368,-0.096609436,-0.080044314,-0.9251777,-0.3709975,-0.07184185,0.37657836,-0.9235949,,-0.042420484,0.13477506,-0.095546916,0.50177443,-0.06855112,0.86227787,0.2591172,0.96298945,-0.07422708,-0.82527614,0.26067626,0.50096625,,0.022876447,0.25717258,-0.38174248,-0.39742658,-0.2056305,-0.8942976,0.5290784,-0.847619,-0.040225435,-0.74975204,-0.4891402,0.44566095,,0.5291462110761149,-0.6650740323953406,0.17547359214000002,0.49696516605832275,-0.6662395728562877,0.7185562747653973,1.1486354730562516,,-0.6461301686548678,-0.6120497484809151,0.16997084109000002,-1.2814152446339282,-0.6799032228328317,-0.43144690470319325,1.3390946541688213,,-0.12960378692996893,-0.40635846475714477,0.08491787512,0.05233371158368399,,-1.1283904e-05,3.5762787e-06,1.9073486e-06,0.99999994,3.5289675e-05,1.4394522e-05,-3.528595e-05,0.99999994,2.7418137e-06,-1.4379621e-05,-2.7418137e-06,1.0
0.7424487660173327,09:34:32.588800,09:34:25.696184,0,,0.08411995,-0.030301087,0.044399552,-0.5865536,0.08593823,-0.805338,-0.0738962,0.9845284,0.15888074,0.8065322,0.15270351,-0.5711282,,0.042886257,-0.028252162,0.04901266,0.27860177,0.23666075,0.93079144,0.11051899,-0.97062576,0.21370867,0.9540265,0.04333049,-0.29657352,,0.20681234,1.3430022,0.5593759,0.994199,-0.047275368,-0.096609436,-0.080044314,-0.9251777,-0.3709975,-0.07184185,0.37657836,-0.9235949,,-0.042420484,0.13477506,-0.095546916,0.50177443,-0.06855112,0.86227787,0.2591172,0.96298945,-0.07422708,-0.82527614,0.26067626,0.50096625,,0.022876447,0.25717258,-0.38174248,-0.39742658,-0.2056305,-0.8942976,0.5290784,-0.847619,-0.040225435,-0.74975204,-0.4891402,0.44566095,,0.5291462110761149,-0.6650817551282148,0.17547359214000002,0.49696516605832275,-0.6662395728562877,0.7185562747653973,1.1486354730562516,,-0.6461301686548678,-0.6120497484809151,0.16997084109000002,-1.2814152446339282,-0.6799032228328317,-0.43144690470319325,1.3390946541688213,,-0.12960378692996893,-0.40635846475714477,0.08491787512,0.05233371158368399,,-1.1283904e-05,3.5762787e-06,1.9073486e-06,0.99999994,3.5289675e-05,1.4394522e-05,-3.528595e-05,0.99999994,2.7418137e-06,-1.4379621e-05,-2.7418137e-06,1.0
0.7625665169907734,09:34:32.609553,09:34:25.696184,0,,0.08411995,-0.030301087,0.044399552,-0.5865536,0.08593823,-0.805338,-0.0738962,0.9845284,0.15888074,0.8065322,0.15270351,-0.5711282,,0.042886257,-0.028252162,0.04901266,0.27860177,0.23666075,0.93079144,0.11051899,-0.97062576,0.21370867,0.9540265,0.04333049,-0.29657352,,0.20681234,1.3430022,0.5593759,0.994199,-0.047275368,-0.096609436,-0.080044314,-0.9251777,-0.3709975,-0.07184185,0.37657836,-0.9235949,,-0.042420484,0.13477506,-0.095546916,0.50177443,-0.06855112,0.86227787,0.2591172,0.96298945,-0.07422708,-0.82527614,0.26067626,0.50096625,,0.022876447,0.25717258,-0.38174248,-0.39742658,-0.2056305,-0.8942976,0.5290784,-0.847619,-0.040225435,-0.74975204,-0.4891402,0.44566095,,0.5291539338089892,-0.6650817551282148,0.17547359214000002,0.49696516605832275,-0.6662395728562877,0.7185562747653973,1.1486354730562516,,-0.646137891387742,-0.6120497484809151,0.16997084109000002,-1.281205554690444,-0.6799032228328317,-0.43144690470319325,1.3390946541688213,,-0.12960378692996893,-0.40635846475714477,0.08491787512,0.05233371158368399,,-1.1283904e-05,3.5762787e-06,1.9073486e-06,0.99999994,3.5289675e-05,1.4394522e-05,-3.528595e-05,0.99999994,2.7418137e-06,-1.4379621e-05,-2.7418137e-06,1.0
0.7832558830268681,09:34:32.631696,09:34:25.696184,0,,0.08411995,-0.030301087,0.044399552,-0.5865536,0.08593823,-0.805338,-0.0738962,0.9845284,0.15888074,0.8065322,0.15270351,-0.5711282,,0.042886257,-0.028252162,0.04901266,0.27860177,0.23666075,0.93079144,0.11051899,-0.97062576,0.21370867,0.9540265,0.04333049,-0.29657352,,0.20681234,1.3430022,0.5593759,0.994199,-0.047275368,-0.096609436,-0.080044314,-0.9251777,-0.3709975,-0.07184185,0.37657836,-0.9235949,,-0.042420484,0.13477506,-0.095546916,0.50177443,-0.06855112,0.86227787,0.2591172,0.96298945,-0.07422708,-0.82527614,0.26067626,0.50096625,,0.022876447,0.25717258,-0.38174248,-0.39742658,-0.2056305,-0.8942976,0.5290784,-0.847619,-0.040225435,-0.74975204,-0.4891402,0.44566095,,0.5291539338089892,-0.6650740323953406,0.17547359214000002,0.49696516605832275,-0.6662395728562877,0.7185562747653973,1.1486354730562516,,-0.6461301686548678,-0.6120497484809151,0.16997084109000002,-1.2809958647469593,-0.6799032228328317,-0.43144690470319325,1.3390946541688213,,-0.12960378692996893,-0.40635846475714477,0.08491787512,0.05233371158368399,,-1.1283904e-05,3.5762787e-06,1.9073486e-06,0.99999994,3.5289675e-05,1.4394522e-05,-3.528595e-05,0.99999994,2.7418137e-06,-1.4379621e-05,-2.7418137e-06,1.0
0.8054433140205219,09:34:32.654601,09:34:25.831465,0,,0.08412507,-0.030302592,0.044400223,-0.58654946,0.08591454,-0.8053435,-0.07390866,0.9845308,0.15885969,0.806534,0.15270093,-0.57112634,,0.042886257,-0.028252162,0.04901266,0.27861807,0.23680034,0.9307511,0.11058682,-0.9705908,0.21383235,0.9540139,0.043351293,-0.29661107,,0.20681234,1.3430022,0.5593759,0.994199,-0.047275368,-0.096609436,-0.080044314,-0.9251777,-0.3709975,-0.07184185,0.37657836,-0.9235949,,-0.04242569,0.13477388,-0.095547594,0.5017698,-0.06852724,0.8622825,0.25910643,0.9629909,-0.07424558,-0.82528234,0.26067713,0.5009556,,0.022876447,0.25717258,-0.38174248,-0.3974436,-0.20577271,-0.89425737,0.5291301,-0.84759116,-0.04013189,-0.74970657,-0.48912865,0.4457502,,0.5291462110761149,-0.6650817551282148,0.17547359214000002,0.49696516605832275,-0.6662395728562877,0.7185562747653973,1.1486354730562516,,-0.6461301686548678,-0.6120497484809151,0.1699695448,-1.2809958647469593,-0.6799032228328317,-0.43144690470319325,1.3390946541688213,,-0.12960378692996893,-0.40635846475714477,0.08491787512,0.05233371158368399,,-1.1283904e-05,3.5762787e-06,1.9073486e-06,0.99999994,3.5289675e-05,1.4394522e-05,-3.528595e-05,0.99999994,2.7418137e-06,-1.4379621e-05,-2.7418137e-06,1.0
0.8283646880299784,09:34:32.673473,09:34:25.831465,0,,0.08412884,-0.030307926,0.044402562,-0.5865403,0.08587125,-0.80535483,-0.07393214,0.9845353,0.15882125,0.8065385,0.15269665,-0.5711211,,0.042886257,-0.028252162,0.04901266,0.27861807,0.23680034,0.9307511,0.11058682,-0.9705908,0.21383235,0.9540139,0.043351293,-0.29661107,,0.20681234,1.3430022,0.5593759,0.994199,-0.047275368,-0.096609436,-0.080044314,-0.9251777,-0.3709975,-0.07184185,0.37657836,-0.9235949,,-0.04242984,0.13476989,-0.09555147,0.50175947,-0.06848361,0.86229193,0.2590866,0.9629937,-0.07427865,-0.8252948,0.26067832,0.5009344,,0.022876447,0.25717258,-0.38174248,-0.3974436,-0.20577271,-0.89425737,0.5291301,-0.84759116,-0.04013189,-0.74970657,-0.48912865,0.4457502,,0.5291539338089892,-0.6650817551282148,0.17547359214000002,0.49696516605832275,-0.6662395728562877,0.7185562747653973,1.1486354730562516,,-0.646137891387742,-0.6120497484809151,0.1699695448,-1.281205554690444,-0.6799032228328317,-0.43144690470319325,1.3390946541688213,,-0.12960378692996893,-0.40635846475714477,0.08491787512,0.05233371158368399,,-1.1283904e-05,3.5762787e-06,1.9073486e-06,0.99999994,3.5289675e-05,1.4394522e-05,-3.528595e-05,0.99999994,2.7418137e-06,-1.4379621e-05,-2.7418137e-06,1.0
0.8471781790140085,09:34:32.692917,09:34:25.831465,0,,0.08412884,-0.030307926,0.044402562,-0.5865403,0.08587125,-0.80535483,-0.07393214,0.9845353,0.15882125,0.8065385,0.15269665,-0.5711211,,0.042886257,-0.028252162,0.04901266,0.27861807,0.23680034,0.9307511,0.11058682,-0.9705908,0.21383235,0.9540139,0.043351293,-0.29661107,,0.20681234,1.3430022,0.5593759,0.994199,-0.047275368,-0.096609436,-0.080044314,-0.9251777,-0.3709975,-0.07184185,0.37657836,-0.9235949,,-0.04242984,0.13476989,-0.09555147,0.50175947,-0.06848361,0.86229193,0.2590866,0.9629937,-0.07427865,-0.8252948,0.26067832,0.5009344,,0.022876447,0.25717258,-0.38174248,-0.3974436,-0.20577271,-0.89425737,0.5291301,-0.84759116,-0.04013189,-0.74970657,-0.48912865,0.4457502,,0.5291539338089892,-0.6650817551282148,0.17547359214000002,0.49696516605832275,-0.6662395728562877,0.7185562747653973,1.1486354730562516,,-0.6461301686548678,-0.6120497484809151,0.1699695448,-1.2814152446339282,-0.6799032228328317,-0.43144690470319325,1.3390946541688213,,-0.12960378692996893,-0.40635846475714477,0.08491787512,0.05233371158368399,,-1.1283904e-05,3.5762787e-06,1.9073486e-06,0.99999994,3.5289675e-05,1.4394522e-05,-3.528595e-05,0.99999994,2.7418137e-06,-1.4379621e-05,-2.7418137e-06,1.0
0.8666431040037423,09:34:32.718890,09:34:25.831465,0,,0.08412236,-0.030310266,0.04440359,-0.5865394,0.08587532,-0.805355,-0.07393062,0.98453474,0.15882494,0.80653936,0.15269747,-0.5711197,,0.042886257,-0.028252162,0.04901266,0.27861807,0.23680034,0.9307511,0.11058682,-0.9705908,0.21383235,0.9540139,0.043351293,-0.29661107,,0.20681234,1.3430022,0.5593759,0.994199,-0.047275368,-0.096609436,-0.080044314,-0.9251777,-0.3709975,-0.07184185,0.37657836,-0.9235949,,-0.042423576,0.13476822,-0.09555399,0.5017586,-0.068487756,0.8622922,0.2590883,0.9629935,-0.074274726,-0.82529485,0.2606778,0.5009346,,0.022876447,0.25717258,-0.38174248,-0.3974436,-0.20577271,-0.89425737,0.5291301,-0.84759116,-0.04013189,-0.74970657,-0.48912865,0.4457502,,0.5291539338089892,-0.6650740323953406,0.17547359214000002,0.49696516605832275,-0.6662395728562877,0.7185562747653973,1.1486354730562516,,-0.646137891387742,-0.6120497484809151,0.1699695448,-1.2814152446339282,-0.6799032228328317,-0.43144690470319325,1.3390946541688213,,-0.12960378692996893,-0.40635846475714477,0.08491787512,0.05233371158368399,,-1.1283904e-05,3.5762787e-06,1.9073486e-06,0.99999994,3.5289675e-05,1.4394522e-05,-3.528595e-05,0.99999994,2.7418137e-06,-1.4379621e-05,-2.7418137e-06,1.0
0.8926395730231889,09:34:32.737729,09:34:25.831465,0,,0.08411589,-0.030312575,0.044404604,-0.58653855,0.08587939,-0.8053553,-0.0739291,0.9845343,0.15882863,0.8065402,0.15269826,-0.57111835,,0.042886257,-0.028252162,0.04901266,0.27861807,0.23680034,0.9307511,0.11058682,-0.9705908,0.21383235,0.9540139,0.043351293,-0.29661107,,0.20681234,1.3430022,0.5593759,0.994199,-0.047275368,-0.096609436,-0.080044314,-0.9251777,-0.3709975,-0.07184185,0.37657836,-0.9235949,,-0.042417314,0.13476656,-0.095556505,0.5017576,-0.068491906,0.8622924,0.25909004,0.9629934,-0.07427079,-0.8252949,0.2606773,0.5009348,,0.022876447,0.25717258,-0.38174248,-0.3974436,-0.20577271,-0.89425737,0.5291301,-0.84759116,-0.04013189,-0.74970657,-0.48912865,0.4457502,,0.5291539338089892,-0.6650817551282148,0.17547359214000002,0.49696516605832275,-0.6662395728562877,0.7185562747653973,1.1486354730562516,,-0.646137891387742,-0.6120497484809151,0.1699695448,-1.2814152446339282,-0.6799032228328317,-0.43144690470319325,1.3390946541688213,,-0.12960378692996893,-0.40635846475714477,0.08491787512,0.05233371158368399,,-1.1283904e-05,3.5762787e-06,1.9073486e-06,0.99999994,3.5289675e-05,1.4394522e-05,-3.528595e-05,0.99999994,2.7418137e-06,-1.4379621e-05,-2.7418137e-06,1.0
0.9114919640123844,09:34:32.754693,09:34:25.831465,0,,0.08411589,-0.030312575,0.044404604,-0.58653855,0.08587939,-0.8053553,-0.0739291,0.9845343,0.15882863,0.8065402,0.15269826,-0.57111835,,0.042886257,-0.028252162,0.04901266,0.27861807,0.23680034,0.9307511,0.11058682,-0.9705908,0.21383235,0.9540139,0.043351293,-0.29661107,,0.20681234,1.3430022,0.5593759,0.994199,-0.047275368,-0.096609436,-0.080044314,-0.9251777,-0.3709975,-0.07184185,0.37657836,-0.9235949,,-0.042417314,0.13476656,-0.095556505,0.5017576,-0.068491906,0.8622924,0.25909004,0.9629934,-0.07427079,-0.8252949,0.2606773,0.5009348,,0.022876447,0.25717258,-0.38174248,-0.3974436,-0.20577271,-0.89425737,0.5291301,-0.84759116,-0.04013189,-0.74970657,-0.48912865,0.4457502,,0.5291462110761149,-0.6650740323953406,0.17547359214000002,0.49696516605832275,-0.6662395728562877,0.7185562747653973,1.1486354730562516,,-0.6461301686548678,-0.6120497484809151,0.1699695448,-1.2814152446339282,-0.6799032228328317,-0.43144690470319325,1.3390946541688213,,-0.12960378692996893,-0.40635846475714477,0.08491787512,0.05233371158368399,,-1.1283904e-05,3.5762787e-06,1.9073486e-06,0.99999994,3.5289675e-05,1.4394522e-05,-3.528595e-05,0.99999994,2.7418137e-06,-1.4379621e-05,-2.7418137e-06,1.0
0.9284541270462796,09:34:32.771451,09:34:25.831465,0,,0.08411966,-0.03031791,0.044406958,-0.5865293,0.0858361,-0.8053666,-0.073952556,0.98453873,0.15879019,0.8065446,0.15269402,-0.57111317,,0.042884693,-0.028249301,0.049016684,0.27860767,0.23678063,0.9307592,0.110601336,-0.9705945,0.2138078,0.95401525,0.043374777,-0.29660332,,0.20681234,1.3430022,0.5593759,0.994199,-0.047275368,-0.096609436,-0.080044314,-0.9251777,-0.3709975,-0.07184185,0.37657836,-0.9235949,,-0.042421464,0.13476257,-0.09556039,0.5017473,-0.068448275,0.8623018,0.25907022,0.9629961,-0.074303865,-0.82530737,0.2606785,0.5009136,,0.022877403,0.25717717,-0.3817447,-0.39743394,-0.20575592,-0.8942655,0.52914435,-0.8475814,-0.040150315,-0.7497016,-0.48915264,0.4457322,,0.5291462110761149,-0.6650740323953406,0.17547359214000002,0.49696516605832275,-0.6662395728562877,0.7185562747653973,1.1486354730562516,,-0.6461301686548678,-0.6120497484809151,0.1699695448,-1.2814152446339282,-0.6799032228328317,-0.43144690470319325,1.3390946541688213,,-0.12960378692996893,-0.40635846475714477,0.08491787512,0.05233371158368399,,-1.1283904e-05,3.5762787e-06,1.9073486e-06,0.99999994,3.5289675e-05,1.4394522e-05,-3.528595e-05,0.99999994,2.7418137e-06,-1.4379621e-05,-2.7418137e-06,1.0
0.9452118800254539,09:34:32.789580,09:34:25.963016,0,,0.08411831,-0.030321747,0.04440864,-0.5865599,0.0859552,-0.80533165,-0.07388595,0.9845268,0.15889567,0.80652857,0.15270454,-0.5711331,,0.042884693,-0.028249301,0.049016684,0.27860767,0.23678063,0.9307592,0.110601336,-0.9705945,0.2138078,0.95401525,0.043374777,-0.29660332,,0.20681234,1.3430022,0.5593759,0.994199,-0.047275368,-0.096609436,-0.080044314,-0.9251777,-0.3709975,-0.07184185,0.37657836,-0.9235949,,-0.042420406,0.13475974,-0.09556358,0.5017814,-0.06856816,0.8622725,0.2591252,0.9629882,-0.074215375,-0.8252694,0.2606764,0.5009773,,0.022877403,0.25717717,-0.3817447,-0.39743394,-0.20575592,-0.8942655,0.52914435,-0.8475814,-0.040150315,-0.7497016,-0.48915264,0.4457322,,0.5291539338089892,-0.6650740323953406,0.17547359214000002,0.49696516605832275,-0.6662395728562877,0.7185562747653973,1.1486354730562516,,-0.6461301686548678,-0.6120497484809151,0.1699695448,-1.2814152446339282,-0.6799032228328317,-0.43144690470319325,1.3390946541688213,,-0.12960378692996893,-0.40635846475714477,0.08491787512,0.05233371158368399,,-1.1283904e-05,3.5762787e-06,1.9073486e-06,0.99999994,3.5289675e-05,1.4394522e-05,-3.528595e-05,0.99999994,2.7418137e-06,-1.4379621e-05,-2.7418137e-06,1.0
0.9633471940178424,09:34:32.813099,09:34:25.963016,0,,0.08412342,-0.03032326,0.044409297,-0.5865558,0.08593151,-0.80533713,-0.073898464,0.9845292,0.15887463,0.80653036,0.15270199,-0.57113117,,0.042884693,-0.028249301,0.049016684,0.27860767,0.23678063,0.9307592,0.110601336,-0.9705945,0.2138078,0.95401525,0.043374777,-0.29660332,,0.20681234,1.3430022,0.5593759,0.994199,-0.047275368,-0.096609436,-0.080044314,-0.9251777,-0.3709975,-0.07184185,0.37657836,-0.9235949,,-0.04242561,0.13475856,-0.09556426,0.50177675,-0.068544276,0.8622771,0.2591144,0.9629896,-0.074233875,-0.8252756,0.26067725,0.5009666,,0.022877403,0.25717717,-0.3817447,-0.39743394,-0.20575592,-0.8942655,0.52914435,-0.8475814,-0.040150315,-0.7497016,-0.48915264,0.4457322,,0.5291462110761149,-0.6650740323953406,0.17547359214000002,0.49696516605832275,-0.6662395728562877,0.7185562747653973,1.1486354730562516,,-0.6461301686548678,-0.6120497484809151,0.16996824851000003,-1.2814152446339282,-0.6799032228328317,-0.43144690470319325,1.3390946541688213,,-0.12960378692996893,-0.40635846475714477,0.08491787512,0.05233371158368399,,-1.1283904e-05,3.5762787e-06,1.9073486e-06,0.99999994,3.5289675e-05,1.4394522e-05,-3.528595e-05,0.99999994,2.7418137e-06,-1.4379621e-05,-2.7418137e-06,1.0
0.9868648870033212,09:34:32.832017,09:34:25.963016,0,,0.08412342,-0.03032326,0.044409297,-0.5865558,0.08593151,-0.80533713,-0.073898464,0.9845292,0.15887463,0.80653036,0.15270199,-0.57113117,,0.042879835,-0.028251119,0.049016118,0.27861002,0.23675674,0.93076456,0.11059159,-0.9706004,0.21378583,0.95401573,0.043371856,-0.29660234,,0.20681234,1.3430022,0.5593759,0.994199,-0.047275368,-0.096609436,-0.080044314,-0.9251777,-0.3709975,-0.07184185,0.37657836,-0.9235949,,-0.04242561,0.13475856,-0.09556426,0.50177675,-0.068544276,0.8622771,0.2591144,0.9629896,-0.074233875,-0.8252756,0.26067725,0.5009666,,0.022882357,0.25717574,-0.38174555,-0.39743602,-0.20573168,-0.8942701,0.5291358,-0.8475858,-0.0401695,-0.7497065,-0.48915517,0.44572112,,0.5291462110761149,-0.6650740323953406,0.17547359214000002,0.49696516605832275,-0.6662395728562877,0.7185562747653973,1.1486354730562516,,-0.6461301686548678,-0.6120574712137893,0.16996824851000003,-1.2814152446339282,-0.6799032228328317,-0.43144690470319325,1.3390946541688213,,-0.12960378692996893,-0.40635846475714477,0.08491787512,0.05233371158368399,,-1.1283904e-05,3.5762787e-06,1.9073486e-06,0.99999994,3.5289675e-05,1.4394522e-05,-3.528595e-05,0.99999994,2.7418137e-06,-1.4379621e-05,-2.7418137e-06,1.0
1.0057810500147752,09:34:32.853680,09:34:25.963016,0,,0.08412342,-0.03032326,0.044409297,-0.5865558,0.08593151,-0.80533713,-0.073898464,0.9845292,0.15887463,0.80653036,0.15270199,-0.57113117,,0.042879835,-0.028251119,0.049016118,0.27861002,0.23675674,0.93076456,0.11059159,-0.9706004,0.21378583,0.95401573,0.043371856,-0.29660234,,0.20681234,1.3430022,0.5593759,0.994199,-0.047275368,-0.096609436,-0.080044314,-0.9251777,-0.3709975,-0.07184185,0.37657836,-0.9235949,,-0.04242561,0.13475856,-0.09556426,0.50177675,-0.068544276,0.8622771,0.2591144,0.9629896,-0.074233875,-0.8252756,0.26067725,0.5009666,,0.022882357,0.25717574,-0.38174555,-0.39743602,-0.20573168,-0.8942701,0.5291358,-0.8475858,-0.0401695,-0.7497065,-0.48915517,0.44572112,,0.5291384883432407,-0.6650740323953406,0.17547359214000002,0.49696516605832275,-0.6662395728562877,0.7185562747653973,1.1486354730562516,,-0.646137891387742,-0.6120574712137893,0.16996824851000003,-1.2814152446339282,-0.6799032228328317,-0.43144690470319325,1.3390946541688213,,-0.12960378692996893,-0.40635846475714477,0.08491787512,0.05233371158368399,,-1.1283904e-05,3.5762787e-06,1.9073486e-06,0.99999994,3.5289675e-05,1.4394522e-05,-3.528595e-05,0.99999994,2.7418137e-06,-1.4379621e-05,-2.7418137e-06,1.0
1.0274394869920798,09:34:32.873711,09:34:26.039637,0,,0.084123135,-0.030326106,0.04440496,-0.5865573,0.08591081,-0.80533814,-0.0739297,0.98452723,0.1588718,0.8065264,0.1527258,-0.5711304,,0.042879835,-0.028251119,0.049016118,0.27861002,0.23675674,0.93076456,0.11059159,-0.9706004,0.21378583,0.95401573,0.043371856,-0.29660234,,0.20681234,1.3430022,0.5593759,0.994199,-0.047275368,-0.096609436,-0.080044314,-0.9251777,-0.3709975,-0.07184185,0.37657836,-0.9235949,,-0.042424995,0.13475423,-0.09556147,0.50177765,-0.06852609,0.862278,0.2590842,0.9629976,-0.074236155,-0.82528454,0.26065266,0.5009647,,0.022882357,0.25717574,-0.38174555,-0.39743602,-0.20573168,-0.8942701,0.5291358,-0.8475858,-0.0401695,-0.7497065,-0.48915517,0.44572112,,0.5291462110761149,-0.6650740323953406,0.17547359214000002,0.49696516605832275,-0.6662395728562877,0.7185562747653973,1.1486354730562516,,-0.646137891387742,-0.6120497484809151,0.16996695222000002,-1.2814152446339282,-0.6799032228328317,-0.43144690470319325,1.3390946541688213,,-0.12960378692996893,-0.40635846475714477,0.08491787512,0.05233371158368399,,-1.1283904e-05,3.5762787e-06,1.9073486e-06,0.99999994,3.5289675e-05,1.4394522e-05,-3.528595e-05,0.99999994,2.7418137e-06,-1.4379621e-05,-2.7418137e-06,1.0
1.047445250034798,09:34:32.894049,09:34:26.039637,0,,0.084123135,-0.030326106,0.04440496,-0.5865573,0.08591081,-0.80533814,-0.0739297,0.98452723,0.1588718,0.8065264,0.1527258,-0.5711304,,0.042879835,-0.028251119,0.049016118,0.27861002,0.23675674,0.93076456,0.11059159,-0.9706004,0.21378583,0.95401573,0.043371856,-0.29660234,,0.20681234,1.3430022,0.5593759,0.994199,-0.047275368,-0.096609436,-0.080044314,-0.9251777,-0.3709975,-0.07184185,0.37657836,-0.9235949,,-0.042424995,0.13475423,-0.09556147,0.50177765,-0.06852609,0.862278,0.2590842,0.9629976,-0.074236155,-0.82528454,0.26065266,0.5009647,,0.022882357,0.25717574,-0.38174555,-0.39743602,-0.20573168,-0.8942701,0.5291358,-0.8475858,-0.0401695,-0.7497065,-0.48915517,0.44572112,,0.5291384883432407,-0.6650740323953406,0.17547488843000003,0.49675547611483817,-0.6662395728562877,0.7185562747653973,1.1486354730562516,,-0.6461301686548678,-0.6120497484809151,0.16996695222000002,-1.2814152446339282,-0.6799032228328317,-0.43144690470319325,1.3390946541688213,,-0.12960378692996893,-0.40635846475714477,0.08491787512,0.05233371158368399,,-1.1283904e-05,3.5762787e-06,1.9073486e-06,0.99999994,3.5289675e-05,1.4394522e-05,-3.528595e-05,0.99999994,2.7418137e-06,-1.4379621e-05,-2.7418137e-06,1.0
1.067779696022626,09:34:32.914998,09:34:26.039637,0,,0.08412342,-0.03032326,0.044409297,-0.5865558,0.08593151,-0.80533713,-0.073898464,0.9845292,0.15887463,0.80653036,0.15270199,-0.57113117,,0.042879835,-0.028251119,0.049016118,0.27861002,0.23675674,0.93076456,0.11059159,-0.9706004,0.21378583,0.95401573,0.043371856,-0.29660234,,0.20681234,1.3430022,0.5593759,0.994199,-0.047275368,-0.096609436,-0.080044314,-0.9251777,-0.3709975,-0.07184185,0.37657836,-0.9235949,,-0.04242561,0.13475856,-0.09556426,0.50177675,-0.068544276,0.8622771,0.2591144,0.9629896,-0.074233875,-0.8252756,0.26067725,0.5009666,,0.022882357,0.25717574,-0.38174555,-0.39743602,-0.20573168,-0.8942701,0.5291358,-0.8475858,-0.0401695,-0.7497065,-0.48915517,0.44572112,,0.5291384883432407,-0.665089477861089,0.17547488843000003,0.4965457861713537,-0.6662395728562877,0.7185562747653973,1.1486354730562516,,-0.646137891387742,-0.6120497484809151,0.16996695222000002,-1.2814152446339282,-0.6799032228328317,-0.43144690470319325,1.3390946541688213,,-0.12960378692996893,-0.40635846475714477,0.08491787512,0.05233371158368399,,-1.1283904e-05,3.5762787e-06,1.9073486e-06,0.99999994,3.5289675e-05,1.4394522e-05,-3.528595e-05,0.99999994,2.7418137e-06,-1.4379621e-05,-2.7418137e-06,1.0
1.0887640760047361,09:34:32.935595,09:34:26.039637,0,,0.08412342,-0.03032326,0.044409297,-0.5865558,0.08593151,-0.80533713,-0.073898464,0.9845292,0.15887463,0.80653036,0.15270199,-0.57113117,,0.042879835,-0.028251119,0.049016118,0.27862635,0.23689634,0.93072414,0.11065945,-0.9705655,0.2139095,0.9540031,0.04339263,-0.2966399,,0.20681234,1.3430022,0.5593759,0.994199,-0.047275368,-0.096609436,-0.080044314,-0.9251777,-0.3709975,-0.07184185,0.37657836,-0.9235949,,-0.04242561,0.13475856,-0.09556426,0.50177675,-0.068544276,0.8622771,0.2591144,0.9629896,-0.074233875,-0.8252756,0.26067725,0.5009666,,0.022882357,0.25717574,-0.38174555,-0.39745304,-0.2058739,-0.8942298,0.5291875,-0.84755796,-0.04007596,-0.749661,-0.48914358,0.44581038,,0.5291462110761149,-0.665089477861089,0.17547488843000003,0.4965457861713537,-0.6662395728562877,0.7185562747653973,1.1486354730562516,,-0.646137891387742,-0.6120497484809151,0.16996695222000002,-1.2814152446339282,-0.6799032228328317,-0.43144690470319325,1.3390946541688213,,-0.12960378692996893,-0.40635846475714477,0.08491787512,0.05233371158368399,,-1.1283904e-05,3.5762787e-06,1.9073486e-06,0.99999994,3.5289675e-05,1.4394522e-05,-3.528595e-05,0.99999994,2.7418137e-06,-1.4379621e-05,-2.7418137e-06,1.0
1.1093246320378967,09:34:32.956473,09:34:26.123314,0,,0.08412342,-0.03032326,0.044409297,-0.5865558,0.08593151,-0.80533713,-0.073898464,0.9845292,0.15887463,0.80653036,0.15270199,-0.57113117,,0.042879835,-0.028251119,0.049016118,0.27862635,0.23689634,0.93072414,0.11065945,-0.9705655,0.2139095,0.9540031,0.04339263,-0.2966399,,0.20681234,1.3430022,0.5593759,0.994199,-0.047275368,-0.096609436,-0.080044314,-0.9251777,-0.3709975,-0.07184185,0.37657836,-0.9235949,,-0.04242561,0.13475856,-0.09556426,0.50177675,-0.068544276,0.8622771,0.2591144,0.9629896,-0.074233875,-0.8252756,0.26067725,0.5009666,,0.022882357,0.25717574,-0.38174555,-0.39745304,-0.2058739,-0.8942298,0.5291875,-0.84755796,-0.04007596,-0.749661,-0.48914358,0.44581038,,0.5291462110761149,-0.665089477861089,0.17547488843000003,0.4965457861713537,-0.6662395728562877,0.7185562747653973,1.1486354730562516,,-0.6461301686548678,-0.6120497484809151,0.16996695222000002,-1.2814152446339282,-0.6799032228328317,-0.43144690470319325,1.3390946541688213,,-0.12960378692996893,-0.40635846475714477,0.08491787512,0.05233371158368399,,-1.1283904e-05,3.5762787e-06,1.9073486e-06,0.99999994,3.5289675e-05,1.4394522e-05,-3.528595e-05,0.99999994,2.7418137e-06,-1.4379621e-05,-2.7418137e-06,1.0
1.1302382250432856,09:34:32.975336,09:34:26.123314,0,,0.08412342,-0.03032326,0.044409297,-0.5865558,0.08593151,-0.80533713,-0.073898464,0.9845292,0.15887463,0.80653036,0.15270199,-0.57113117,,0.042879835,-0.028251119,0.049016118,0.27862635,0.23689634,0.93072414,0.11065945,-0.9705655,0.2139095,0.9540031,0.04339263,-0.2966399,,0.20681234,1.3430022,0.5593759,0.994199,-0.047275368,-0.096609436,-0.080044314,-0.9251777,-0.3709975,-0.07184185,0.37657836,-0.9235949,,-0.04242561,0.13475856,-0.09556426,0.50177675,-0.068544276,0.8622771,0.2591144,0.9629896,-0.074233875,-0.8252756,0.26067725,0.5009666,,0.022882357,0.25717574,-0.38174555,-0.39745304,-0.2058739,-0.8942298,0.5291875,-0.84755796,-0.04007596,-0.749661,-0.48914358,0.44581038,,0.5291384883432407,-0.665089477861089,0.17547488843000003,0.4965457861713537,-0.6662395728562877,0.7185562747653973,1.1486354730562516,,-0.646137891387742,-0.6120497484809151,0.16996565593000001,-1.2814152446339282,-0.6799032228328317,-0.43144690470319325,1.3390946541688213,,-0.12960378692996893,-0.40635846475714477,0.08491787512,0.05233371158368399,,-1.1283904e-05,3.5762787e-06,1.9073486e-06,0.99999994,3.5289675e-05,1.4394522e-05,-3.528595e-05,0.99999994,2.7418137e-06,-1.4379621e-05,-2.7418137e-06,1.0
1.1490342360339127,09:34:32.994843,09:34:26.123314,0,,0.08412342,-0.03032326,0.044409297,-0.5865558,0.08593151,-0.80533713,-0.073898464,0.9845292,0.15887463,0.80653036,0.15270199,-0.57113117,,0.042879835,-0.028251119,0.049016118,0.27862635,0.23689634,0.93072414,0.11065945,-0.9705655,0.2139095,0.9540031,0.04339263,-0.2966399,,0.20681234,1.3430022,0.5593759,0.994199,-0.047275368,-0.096609436,-0.080044314,-0.9251777,-0.3709975,-0.07184185,0.37657836,-0.9235949,,-0.04242561,0.13475856,-0.09556426,0.50177675,-0.068544276,0.8622771,0.2591144,0.9629896,-0.074233875,-0.8252756,0.26067725,0.5009666,,0.022882357,0.25717574,-0.38174555,-0.39745304,-0.2058739,-0.8942298,0.5291875,-0.84755796,-0.04007596,-0.749661,-0.48914358,0.44581038,,0.5291462110761149,-0.665089477861089,0.17547488843000003,0.4965457861713537,-0.6662395728562877,0.7185562747653973,1.1486354730562516,,-0.646137891387742,-0.6120497484809151,0.16996565593000001,-1.2814152446339282,-0.6799032228328317,-0.43144690470319325,1.3390946541688213,,-0.12960378692996893,-0.40635846475714477,0.08491787512,0.05233371158368399,,-1.1283904e-05,3.5762787e-06,1.9073486e-06,0.99999994,3.5289675e-05,1.4394522e-05,-3.528595e-05,0.99999994,2.7418137e-06,-1.4379621e-05,-2.7418137e-06,1.0
1.1686075020115823,09:34:33.013944,09:34:26.123314,0,,0.08412342,-0.03032326,0.044409297,-0.5865558,0.08593151,-0.80533713,-0.073898464,0.9845292,0.15887463,0.80653036,0.15270199,-0.57113117,,0.042879835,-0.028251119,0.049016118,0.27862635,0.23689634,0.93072414,0.11065945,-0.9705655,0.2139095,0.9540031,0.04339263,-0.2966399,,0.20681234,1.3430022,0.5593759,0.994199,-0.047275368,-0.096609436,-0.080044314,-0.9251777,-0.3709975,-0.07184185,0.37657836,-0.9235949,,-0.04242561,0.13475856,-0.09556426,0.50177675,-0.068544276,0.8622771,0.2591144,0.9629896,-0.074233875,-0.8252756,0.26067725,0.5009666,,0.022882357,0.25717574,-0.38174555,-0.39745304,-0.2058739,-0.8942298,0.5291875,-0.84755796,-0.04007596,-0.749661,-0.48914358,0.44581038,,0.5291462110761149,-0.665089477861089,0.17547488843000003,0.4965457861713537,-0.6662395728562877,0.7185562747653973,1.1486354730562516,,-0.646137891387742,-0.6120497484809151,0.16996565593000001,-1.2814152446339282,-0.6799032228328317,-0.43144690470319325,1.3390946541688213,,-0.12960378692996893,-0.40635846475714477,0.08491787512,0.05233371158368399,,-1.1283904e-05,3.5762787e-06,1.9073486e-06,0.99999994,3.5289675e-05,1.4394522e-05,-3.528595e-05,0.99999994,2.7418137e-06,-1.4379621e-05,-2.7418137e-06,1.0
1.1876837440067902,09:34:33.026578,09:34:26.123314,0,,0.08412342,-0.03032326,0.044409297,-0.5865558,0.08593151,-0.80533713,-0.073898464,0.9845292,0.15887463,0.80653036,0.15270199,-0.57113117,,0.042879835,-0.028251119,0.049016118,0.27862635,0.23689634,0.93072414,0.11065945,-0.9705655,0.2139095,0.9540031,0.04339263,-0.2966399,,0.20681234,1.3430022,0.5593759,0.994199,-0.047275368,-0.096609436,-0.080044314,-0.9251777,-0.3709975,-0.07184185,0.37657836,-0.9235949,,-0.04242561,0.13475856,-0.09556426,0.50177675,-0.068544276,0.8622771,0.2591144,0.9629896,-0.074233875,-0.8252756,0.26067725,0.5009666,,0.022882357,0.25717574,-0.38174555,-0.39745304,-0.2058739,-0.8942298,0.5291875,-0.84755796,-0.04007596,-0.749661,-0.48914358,0.44581038,,0.5291462110761149,-0.665089477861089,0.17547488843000003,0.4965457861713537,-0.6662395728562877,0.7185562747653973,1.1486354730562516,,-0.6461301686548678,-0.6120497484809151,0.16996565593000001,-1.2814152446339282,-0.6799032228328317,-0.43144690470319325,1.3390946541688213,,-0.12960378692996893,-0.40635846475714477,0.08491787512,0.05233371158368399,,-1.1283904e-05,3.5762787e-06,1.9073486e-06,0.99999994,3.5289675e-05,1.4394522e-05,-3.528595e-05,0.99999994,2.7418137e-06,-1.4379621e-05,-2.7418137e-06,1.0
1.2003133830148727,09:34:33.048962,09:34:26.215397,0,,0.08412071,-0.030330926,0.04441268,-0.58654577,0.08589229,-0.8053486,-0.07392037,0.98453313,0.15883988,0.8065357,0.15269853,-0.57112455,,0.042879835,-0.028251119,0.049016118,0.27862635,0.23689634,0.93072414,0.11065945,-0.9705655,0.2139095,0.9540031,0.04339263,-0.2966399,,0.20681234,1.3430022,0.5593759,0.994199,-0.047275368,-0.096609436,-0.080044314,-0.9251777,-0.3709975,-0.07184185,0.37657836,-0.9235949,,-0.042423498,0.1347529,-0.09557065,0.50176555,-0.068504795,0.86228675,0.25909632,0.96299225,-0.074263014,-0.8252881,0.26067793,0.5009456,,0.022882357,0.25717574,-0.38174555,-0.39745304,-0.2058739,-0.8942298,0.5291875,-0.84755796,-0.04007596,-0.749661,-0.48914358,0.44581038,,0.5291462110761149,-0.665089477861089,0.17547488843000003,0.4965457861713537,-0.6662395728562877,0.7185562747653973,1.1486354730562516,,-0.646137891387742,-0.6120497484809151,0.16996565593000001,-1.2814152446339282,-0.6799032228328317,-0.43144690470319325,1.3390946541688213,,-0.12960378692996893,-0.40635846475714477,0.08491787512,0.05233371158368399,,-1.1283904e-05,3.5762787e-06,1.9073486e-06,0.99999994,3.5289675e-05,1.4394522e-05,-3.528595e-05,0.99999994,2.7418137e-06,-1.4379621e-05,-2.7418137e-06,1.0
1.2227220730273984,09:34:33.066946,09:34:26.215397,0,,0.08412071,-0.030330926,0.04441268,-0.58654577,0.08589229,-0.8053486,-0.07392037,0.98453313,0.15883988,0.8065357,0.15269853,-0.57112455,,0.042879835,-0.028251119,0.049016118,0.27862635,0.23689634,0.93072414,0.11065945,-0.9705655,0.2139095,0.9540031,0.04339263,-0.2966399,,0.20681234,1.3430022,0.5593759,0.994199,-0.047275368,-0.096609436,-0.080044314,-0.9251777,-0.3709975,-0.07184185,0.37657836,-0.9235949,,-0.042423498,0.1347529,-0.09557065,0.50176555,-0.068504795,0.86228675,0.25909632,0.96299225,-0.074263014,-0.8252881,0.26067793,0.5009456,,0.022882357,0.25717574,-0.38174555,-0.39745304,-0.2058739,-0.8942298,0.5291875,-0.84755796,-0.04007596,-0.749661,-0.48914358,0.44581038,,0.5291462110761149,-0.665089477861089,0.17547488843000003,0.4965457861713537,-0.6662395728562877,0.7185562747653973,1.1486354730562516,,-0.646137891387742,-0.6120497484809151,0.16996565593000001,-1.2814152446339282,-0.6799032228328317,-0.43144690470319325,1.3390946541688213,,-0.12960378692996893,-0.40635846475714477,0.08491787512,0.05233371158368399,,-1.1283904e-05,3.5762787e-06,1.9073486e-06,0.99999994,3.5289675e-05,1.4394522e-05,-3.528595e-05,0.99999994,2.7418137e-06,-1.4379621e-05,-2.7418137e-06,1.0
1.2406933649908751,09:34:33.089382,09:34:26.215397,0,,0.08412071,-0.030330926,0.04441268,-0.58654577,0.08589229,-0.8053486,-0.07392037,0.98453313,0.15883988,0.8065357,0.15269853,-0.57112455,,0.042879835,-0.028251119,0.049016118,0.27862635,0.23689634,0.93072414,0.11065945,-0.9705655,0.2139095,0.9540031,0.04339263,-0.2966399,,0.20681234,1.3430022,0.5593759,0.994199,-0.047275368,-0.096609436,-0.080044314,-0.9251777,-0.3709975,-0.07184185,0.37657836,-0.9235949,,-0.042423498,0.1347529,-0.09557065,0.50176555,-0.068504795,0.86228675,0.25909632,0.96299225,-0.074263014,-0.8252881,0.26067793,0.5009456,,0.022882357,0.25717574,-0.38174555,-0.39745304,-0.2058739,-0.8942298,0.5291875,-0.84755796,-0.04007596,-0.749661,-0.48914358,0.44581038,,0.5291462110761149,-0.6650817551282148,0.17547488843000003,0.4965457861713537,-0.6662395728562877,0.7185562747653973,1.1486354730562516,,-0.646137891387742,-0.6120497484809151,0.16996435964,-1.2814152446339282,-0.6799032228328317,-0.43144690470319325,1.3390946541688213,,-0.12960378692996893,-0.40635846475714477,0.08491787512,0.05233371158368399,,-1.1283904e-05,3.5762787e-06,1.9073486e-06,0.99999994,3.5289675e-05,1.4394522e-05,-3.528595e-05,0.99999994,2.7418137e-06,-1.4379621e-05,-2.7418137e-06,1.0
1.2631451280321926,09:34:33.111669,09:34:26.215397,0,,0.08411936,-0.030334763,0.044414364,-0.5865407,0.08587268,-0.80535436,-0.07393134,0.9845351,0.15882254,0.80653834,0.1526968,-0.57112134,,0.042879835,-0.028251119,0.049016118,0.27862635,0.23689634,0.93072414,0.11065945,-0.9705655,0.2139095,0.9540031,0.04339263,-0.2966399,,0.20681234,1.3430022,0.5593759,0.994199,-0.047275368,-0.096609436,-0.080044314,-0.9251777,-0.3709975,-0.07184185,0.37657836,-0.9235949,,-0.04242244,0.13475007,-0.09557386,0.5017599,-0.06848506,0.8622916,0.25908726,0.96299356,-0.07427759,-0.8252944,0.2606783,0.5009352,,0.022882357,0.25717574,-0.38174555,-0.39745304,-0.2058739,-0.8942298,0.5291875,-0.84755796,-0.04007596,-0.749661,-0.48914358,0.44581038,,0.5291462110761149,-0.6650817551282148,0.17547488843000003,0.4965457861713537,-0.6662395728562877,0.7185562747653973,1.1486354730562516,,-0.646137891387742,-0.6120497484809151,0.16996435964,-1.2814152446339282,-0.6799032228328317,-0.43144690470319325,1.3390946541688213,,-0.12960378692996893,-0.40635846475714477,0.08491787512,0.05233371158368399,,-1.1283904e-05,3.5762787e-06,1.9073486e-06,0.99999994,3.5289675e-05,1.4394522e-05,-3.528595e-05,0.99999994,2.7418137e-06,-1.4379621e-05,-2.7418137e-06,1.0
1.285391100042034,09:34:33.128646,09:34:26.296161,0,,0.08412071,-0.030330926,0.04441268,-0.58654577,0.08589229,-0.8053486,-0.07392037,0.98453313,0.15883988,0.8065357,0.15269853,-0.57112455,,0.042879835,-0.028251119,0.049016118,0.27862635,0.23689634,0.93072414,0.11065945,-0.9705655,0.2139095,0.9540031,0.04339263,-0.2966399,,0.20681234,1.3430022,0.5593759,0.994199,-0.047275368,-0.096609436,-0.080044314,-0.9251777,-0.3709975,-0.07184185,0.37657836,-0.9235949,,-0.042423498,0.1347529,-0.09557065,0.50176555,-0.068504795,0.86228675,0.25909632,0.96299225,-0.074263014,-0.8252881,0.26067793,0.5009456,,0.022882357,0.25717574,-0.38174555,-0.39745304,-0.2058739,-0.8942298,0.5291875,-0.84755796,-0.04007596,-0.749661,-0.48914358,0.44581038,,0.5291462110761149,-0.6650817551282148,0.17547488843000003,0.4965457861713537,-0.6662395728562877,0.7185562747653973,1.1486354730562516,,-0.646137891387742,-0.6120497484809151,0.16996435964,-1.2814152446339282,-0.6799032228328317,-0.43144690470319325,1.3390946541688213,,-0.12960378692996893,-0.40635846475714477,0.08491787512,0.05233371158368399,,-1.1283904e-05,3.5762787e-06,1.9073486e-06,0.99999994,3.5289675e-05,1.4394522e-05,-3.528595e-05,0.99999994,2.7418137e-06,-1.4379621e-05,-2.7418137e-06,1.0
1.3023984670289792,09:34:33.148789,09:34:26.296161,0,,0.08412071,-0.030330926,0.04441268,-0.58654577,0.08589229,-0.8053486,-0.07392037,0.98453313,0.15883988,0.8065357,0.15269853,-0.57112455,,0.042879835,-0.028251119,0.049016118,0.27862635,0.23689634,0.93072414,0.11065945,-0.9705655,0.2139095,0.9540031,0.04339263,-0.2966399,,0.20681234,1.3430022,0.5593759,0.994199,-0.047275368,-0.096609436,-0.080044314,-0.9251777,-0.3709975,-0.07184185,0.37657836,-0.9235949,,-0.042423498,0.1347529,-0.09557065,0.50176555,-0.068504795,0.86228675,0.25909632,0.96299225,-0.074263014,-0.8252881,0.26067793,0.5009456,,0.022882357,0.25717574,-0.38174555,-0.39745304,-0.2058739,-0.8942298,0.5291875,-0.84755796,-0.04007596,-0.749661,-0.48914358,0.44581038,,0.5291462110761149,-0.6650817551282148,0.17547488843000003,0.4965457861713537,-0.6662395728562877,0.7185562747653973,1.1486354730562516,,-0.646137891387742,-0.6120497484809151,0.16996435964,-1.2814152446339282,-0.6799032228328317,-0.43144690470319325,1.3390946541688213,,-0.12960378692996893,-0.40635846475714477,0.08491787512,0.05233371158368399,,-1.1283904e-05,3.5762787e-06,1.9073486e-06,0.99999994,3.5289675e-05,1.4394522e-05,-3.528595e-05,0.99999994,2.7418137e-06,-1.4379621e-05,-2.7418137e-06,1.0
1.3225248720264062,09:34:33.167930,09:34:26.296161,0,,0.08412071,-0.030330926,0.04441268,-0.58654577,0.08589229,-0.8053486,-0.07392037,0.98453313,0.15883988,0.8065357,0.15269853,-0.57112455,,0.042879835,-0.028251119,0.049016118,0.27862635,0.23689634,0.93072414,0.11065945,-0.9705655,0.2139095,0.9540031,0.04339263,-0.2966399,,0.20681234,1.3430022,0.5593759,0.994199,-0.047275368,-0.096609436,-0.080044314,-0.9251777,-0.3709975,-0.07184185,0.37657836,-0.9235949,,-0.042423498,0.1347529,-0.09557065,0.50176555,-0.068504795,0.86228675,0.25909632,0.96299225,-0.074263014,-0.8252881,0.26067793,0.5009456,,0.022882357,0.25717574,-0.38174555,-0.39745304,-0.2058739,-0.8942298,0.5291875,-0.84755796,-0.04007596,-0.749661,-0.48914358,0.44581038,,0.5291462110761149,-0.6650817551282148,0.17547488843000003,0.4965457861713537,-0.6662395728562877,0.7185562747653973,1.1486354730562516,,-0.6461301686548678,-0.6120497484809151,0.16996435964,-1.2814152446339282,-0.6799032228328317,-0.43144690470319325,1.3390946541688213,,-0.12960378692996893,-0.40635846475714477,0.08491787512,0.05233371158368399,,-1.1283904e-05,3.5762787e-06,1.9073486e-06,0.99999994,3.5289675e-05,1.4394522e-05,-3.528595e-05,0.99999994,2.7418137e-06,-1.4379621e-05,-2.7418137e-06,1.0
1.3416586610255763,09:34:33.185424,09:34:26.296161,0,,0.08412071,-0.030330926,0.04441268,-0.58654577,0.08589229,-0.8053486,-0.07392037,0.98453313,0.15883988,0.8065357,0.15269853,-0.57112455,,0.042879835,-0.028251119,0.049016118,0.27862635,0.23689634,0.93072414,0.11065945,-0.9705655,0.2139095,0.9540031,0.04339263,-0.2966399,,0.20681234,1.3430022,0.5593759,0.994199,-0.047275368,-0.096609436,-0.080044314,-0.9251777,-0.3709975,-0.07184185,0.37657836,-0.9235949,,-0.042423498,0.1347529,-0.09557065,0.50176555,-0.068504795,0.86228675,0.25909632,0.96299225,-0.074263014,-0.8252881,0.26067793,0.5009456,,0.022882357,0.25717574,-0.38174555,-0.39745304,-0.2058739,-0.8942298,0.5291875,-0.84755796,-0.04007596,-0.749661,-0.48914358,0.44581038,,0.5291462110761149,-0.665089477861089,0.17547488843000003,0.4965457861713537,-0.6662395728562877,0.7185562747653973,1.1486354730562516,,-0.646137891387742,-0.6120497484809151,0.16996435964,-1.2814152446339282,-0.6799032228328317,-0.43144690470319325,1.3390946541688213,,-0.12960378692996893,-0.40635846475714477,0.08491787512,0.05233371158368399,,-1.1283904e-05,3.5762787e-06,1.9073486e-06,0.99999994,3.5289675e-05,1.4394522e-05,-3.528595e-05,0.99999994,2.7418137e-06,-1.4379621e-05,-2.7418137e-06,1.0
1.3591905300272629,09:34:33.205720,09:34:26.296161,0,,0.08412071,-0.030330926,0.04441268,-0.58654577,0.08589229,-0.8053486,-0.07392037,0.98453313,0.15883988,0.8065357,0.15269853,-0.57112455,,0.042879835,-0.028251119,0.049016118,0.27862635,0.23689634,0.93072414,0.11065945,-0.9705655,0.2139095,0.9540031,0.04339263,-0.2966399,,0.20681234,1.3430022,0.5593759,0.994199,-0.047275368,-0.096609436,-0.080044314,-0.9251777,-0.3709975,-0.07184185,0.37657836,-0.9235949,,-0.042423498,0.1347529,-0.09557065,0.50176555,-0.068504795,0.86228675,0.25909632,0.96299225,-0.074263014,-0.8252881,0.26067793,0.5009456,,0.022882357,0.25717574,-0.38174555,-0.39745304,-0.2058739,-0.8942298,0.5291875,-0.84755796,-0.04007596,-0.749661,-0.48914358,0.44581038,,0.5291462110761149,-0.665089477861089,0.17547488843000003,0.4965457861713537,-0.6662395728562877,0.7185562747653973,1.1486354730562516,,-0.646137891387742,-0.6120497484809151,0.16996435964,-1.2814152446339282,-0.6799032228328317,-0.43144690470319325,1.3390946541688213,,-0.12960378692996893,-0.40635846475714477,0.08491787512,0.05233371158368399,,-1.1283904e-05,3.5762787e-06,1.9073486e-06,0.99999994,3.5289675e-05,1.4394522e-05,-3.528595e-05,0.99999994,2.7418137e-06,-1.4379621e-05,-2.7418137e-06,1.0
1.379487524041906,09:34:33.223450,09:34:26.296161,0,,0.08411936,-0.030334763,0.044414364,-0.5865407,0.08587268,-0.80535436,-0.07393134,0.9845351,0.15882254,0.80653834,0.1526968,-0.57112134,,0.042879835,-0.028251119,0.049016118,0.2786426,0.2370359,0.93068373,0.11072737,-0.9705304,0.21403316,0.95399046,0.04341343,-0.29667747,,0.20681234,1.3430022,0.5593759,0.994199,-0.047275368,-0.096609436,-0.080044314,-0.9251777,-0.3709975,-0.07184185,0.37657836,-0.9235949,,-0.04242244,0.13475007,-0.09557386,0.5017599,-0.06848506,0.8622916,0.25908726,0.96299356,-0.07427759,-0.8252944,0.2606783,0.5009352,,0.022882357,0.25717574,-0.38174555,-0.39747003,-0.20601611,-0.89418954,0.52923924,-0.84753007,-0.039982427,-0.74961555,-0.489132,0.4458996,,0.5291462110761149,-0.6650817551282148,0.17547488843000003,0.4965457861713537,-0.6662395728562877,0.7185562747653973,1.1486354730562516,,-0.646137891387742,-0.6120497484809151,0.16996435964,-1.2814152446339282,-0.6799032228328317,-0.43144690470319325,1.3390946541688213,,-0.12960378692996893,-0.40635846475714477,0.08491787512,0.05233371158368399,,-1.1283904e-05,3.5762787e-06,1.9073486e-06,0.99999994,3.5289675e-05,1.4394522e-05,-3.528595e-05,0.99999994,2.7418137e-06,-1.4379621e-05,-2.7418137e-06,1.0
1.3972118680248968,09:34:33.241249,09:34:26.296161,0,,0.08411936,-0.030334763,0.044414364,-0.5865407,0.08587268,-0.80535436,-0.07393134,0.9845351,0.15882254,0.80653834,0.1526968,-0.57112134,,0.042879835,-0.028251119,0.049016118,0.2786426,0.2370359,0.93068373,0.11072737,-0.9705304,0.21403316,0.95399046,0.04341343,-0.29667747,,0.20681234,1.3430022,0.5593759,0.994199,-0.047275368,-0.096609436,-0.080044314,-0.9251777,-0.3709975,-0.07184185,0.37657836,-0.9235949,,-0.04242244,0.13475007,-0.09557386,0.5017599,-0.06848506,0.8622916,0.25908726,0.96299356,-0.07427759,-0.8252944,0.2606783,0.5009352,,0.022882357,0.25717574,-0.38174555,-0.39747003,-0.20601611,-0.89418954,0.52923924,-0.84753007,-0.039982427,-0.74961555,-0.489132,0.4458996,,0.5291462110761149,-0.6650817551282148,0.17547488843000003,0.4965457861713537,-0.6662395728562877,0.7185562747653973,1.1486354730562516,,-0.646137891387742,-0.6120497484809151,0.16996435964,-1.2814152446339282,-0.6799032228328317,-0.43144690470319325,1.3390946541688213,,-0.12960378692996893,-0.40635846475714477,0.08491787512,0.05233371158368399,,-1.1283904e-05,3.5762787e-06,1.9073486e-06,0.99999994,3.5289675e-05,1.4394522e-05,-3.528595e-05,0.99999994,2.7418137e-06,-1.4379621e-05,-2.7418137e-06,1.0
1.414986273040995,09:34:33.263845,09:34:26.296161,0,,0.08412071,-0.030330926,0.04441268,-0.58654577,0.08589229,-0.8053486,-0.07392037,0.98453313,0.15883988,0.8065357,0.15269853,-0.57112455,,0.042878605,-0.02824729,0.0490143,0.2786403,0.23701617,0.93068945,0.11071774,-0.9705354,0.21401569,0.95399225,0.04341045,-0.29667217,,0.20681234,1.3430022,0.5593759,0.994199,-0.047275368,-0.096609436,-0.080044314,-0.9251777,-0.3709975,-0.07184185,0.37657836,-0.9235949,,-0.042423498,0.1347529,-0.09557065,0.50176555,-0.068504795,0.86228675,0.25909632,0.96299225,-0.074263014,-0.8252881,0.26067793,0.5009456,,0.022883661,0.25717834,-0.3817422,-0.3974676,-0.205996,-0.89419526,0.5292319,-0.84753406,-0.03999565,-0.749622,-0.48913363,0.445887,,0.5291462110761149,-0.6650817551282148,0.17547488843000003,0.4965457861713537,-0.6662395728562877,0.7185562747653973,1.1486354730562516,,-0.646137891387742,-0.6120497484809151,0.16996435964,-1.2814152446339282,-0.6799032228328317,-0.43144690470319325,1.3390946541688213,,-0.12960378692996893,-0.40635846475714477,0.08491787512,0.05233371158368399,,-1.1283904e-05,3.5762787e-06,1.9073486e-06,0.99999994,3.5289675e-05,1.4394522e-05,-3.528595e-05,0.99999994,2.7418137e-06,-1.4379621e-05,-2.7418137e-06,1.0
1.4375694860354997,09:34:33.277853,09:34:26.296161,0,,0.08412071,-0.030330926,0.04441268,-0.58654577,0.08589229,-0.8053486,-0.07392037,0.98453313,0.15883988,0.8065357,0.15269853,-0.57112455,,0.042878605,-0.02824729,0.0490143,0.2786403,0.23701617,0.93068945,0.11071774,-0.9705354,0.21401569,0.95399225,0.04341045,-0.29667217,,0.20681234,1.3430022,0.5593759,0.994199,-0.047275368,-0.096609436,-0.080044314,-0.9251777,-0.3709975,-0.07184185,0.37657836,-0.9235949,,-0.042423498,0.1347529,-0.09557065,0.50176555,-0.068504795,0.86228675,0.25909632,0.96299225,-0.074263014,-0.8252881,0.26067793,0.5009456,,0.022883661,0.25717834,-0.3817422,-0.3974676,-0.205996,-0.89419526,0.5292319,-0.84753406,-0.03999565,-0.749622,-0.48913363,0.445887,,0.5291462110761149,-0.6650817551282148,0.17547488843000003,0.4965457861713537,-0.6662395728562877,0.7185562747653973,1.1486354730562516,,-0.646137891387742,-0.6120497484809151,0.16996306335000003,-1.2814152446339282,-0.6799032228328317,-0.43144690470319325,1.3390946541688213,,-0.12960378692996893,-0.40635846475714477,0.08491787512,0.05233371158368399,,-1.1283904e-05,3.5762787e-06,1.9073486e-06,0.99999994,3.5289675e-05,1.4394522e-05,-3.528595e-05,0.99999994,2.7418137e-06,-1.4379621e-05,-2.7418137e-06,1.0
1.451597853039857,09:34:33.290905,09:34:26.296161,0,,0.08412071,-0.030330926,0.04441268,-0.58654577,0.08589229,-0.8053486,-0.07392037,0.98453313,0.15883988,0.8065357,0.15269853,-0.57112455,,0.04287739,-0.02824349,0.049012512,0.278638,0.23699644,0.9306952,0.11070815,-0.97054034,0.2139982,0.953994,0.04340753,-0.29666686,,0.20681234,1.3430022,0.5593759,0.994199,-0.047275368,-0.096609436,-0.080044314,-0.9251777,-0.3709975,-0.07184185,0.37657836,-0.9235949,,-0.042423498,0.1347529,-0.09557065,0.50176555,-0.068504795,0.86228675,0.25909632,0.96299225,-0.074263014,-0.8252881,0.26067793,0.5009456,,0.022884963,0.2571809,-0.3817389,-0.39746523,-0.2059759,-0.8942009,0.5292246,-0.847538,-0.040008873,-0.74962837,-0.48913527,0.4458744,,0.5291384883432407,-0.6650817551282148,0.17547488843000003,0.4965457861713537,-0.6662395728562877,0.7185562747653973,1.1486354730562516,,-0.646137891387742,-0.6120574712137893,0.16996306335000003,-1.2814152446339282,-0.6799032228328317,-0.43144690470319325,1.3390946541688213,,-0.12960378692996893,-0.40635846475714477,0.08491787512,0.05233371158368399,,-1.1283904e-05,3.5762787e-06,1.9073486e-06,0.99999994,3.5289675e-05,1.4394522e-05,-3.528595e-05,0.99999994,2.7418137e-06,-1.4379621e-05,-2.7418137e-06,1.0
1.4645986510440707,09:34:33.311739,09:34:26.296161,0,,0.08412071,-0.030330926,0.04441268,-0.58654577,0.08589229,-0.8053486,-0.07392037,0.98453313,0.15883988,0.8065357,0.15269853,-0.57112455,,0.04287739,-0.02824349,0.049012512,0.278638,0.23699644,0.9306952,0.11070815,-0.97054034,0.2139982,0.953994,0.04340753,-0.29666686,,0.20681234,1.3430022,0.5593759,0.994199,-0.047275368,-0.096609436,-0.080044314,-0.9251777,-0.3709975,-0.07184185,0.37657836,-0.9235949,,-0.042423498,0.1347529,-0.09557065,0.50176555,-0.068504795,0.86228675,0.25909632,0.96299225,-0.074263014,-0.8252881,0.26067793,0.5009456,,0.022884963,0.2571809,-0.3817389,-0.39746523,-0.2059759,-0.8942009,0.5292246,-0.847538,-0.040008873,-0.74962837,-0.48913527,0.4458744,,0.5291462110761149,-0.665089477861089,0.17547488843000003,0.4965457861713537,-0.6662395728562877,0.7185562747653973,1.1486354730562516,,-0.646137891387742,-0.6120574712137893,0.16996306335000003,-1.2814152446339282,-0.6799032228328317,-0.43144690470319325,1.3390946541688213,,-0.12960378692996893,-0.40635846475714477,0.08491787512,0.05233371158368399,,-1.1283904e-05,3.5762787e-06,1.9073486e-06,0.99999994,3.5289675e-05,1.4394522e-05,-3.528595e-05,0.99999994,2.7418137e-06,-1.4379621e-05,-2.7418137e-06,1.0
1.4854861680069007,09:34:33.331731,09:34:26.502428,0,,0.08412071,-0.030330926,0.04441268,-0.58654577,0.08589229,-0.8053486,-0.07392037,0.98453313,0.15883988,0.8065357,0.15269853,-0.57112455,,0.04287739,-0.02824349,0.049012512,0.278638,0.23699644,0.9306952,0.11070815,-0.97054034,0.2139982,0.953994,0.04340753,-0.29666686,,0.20681234,1.3430022,0.5593759,0.994199,-0.047275368,-0.096609436,-0.080044314,-0.9251777,-0.3709975,-0.07184185,0.37657836,-0.9235949,,-0.042423498,0.1347529,-0.09557065,0.50176555,-0.068504795,0.86228675,0.25909632,0.96299225,-0.074263014,-0.8252881,0.26067793,0.5009456,,0.022884963,0.2571809,-0.3817389,-0.39746523,-0.2059759,-0.8942009,0.5292246,-0.847538,-0.040008873,-0.74962837,-0.48913527,0.4458744,,0.5291462110761149,-0.665089477861089,0.17547488843000003,0.4965457861713537,-0.6662395728562877,0.7185562747653973,1.1486354730562516,,-0.646137891387742,-0.6120574712137893,0.16996306335000003,-1.2814152446339282,-0.6799032228328317,-0.43144690470319325,1.3390946541688213,,-0.12960378692996893,-0.40635846475714477,0.08491787512,0.05233371158368399,,-1.1283904e-05,3.5762787e-06,1.9073486e-06,0.99999994,3.5289675e-05,1.4394522e-05,-3.528595e-05,0.99999994,2.7418137e-06,-1.4379621e-05,-2.7418137e-06,1.0
1.5054628730285913,09:34:33.351665,09:34:26.502428,0,,0.08412071,-0.030330926,0.04441268,-0.58654577,0.08589229,-0.8053486,-0.07392037,0.98453313,0.15883988,0.8065357,0.15269853,-0.57112455,,0.04287739,-0.02824349,0.049012512,0.278638,0.23699644,0.9306952,0.11070815,-0.97054034,0.2139982,0.953994,0.04340753,-0.29666686,,0.20681234,1.3430022,0.5593759,0.994199,-0.047275368,-0.096609436,-0.080044314,-0.9251777,-0.3709975,-0.07184185,0.37657836,-0.9235949,,-0.042423498,0.1347529,-0.09557065,0.50176555,-0.068504795,0.86228675,0.25909632,0.96299225,-0.074263014,-0.8252881,0.26067793,0.5009456,,0.022884963,0.2571809,-0.3817389,-0.39746523,-0.2059759,-0.8942009,0.5292246,-0.847538,-0.040008873,-0.74962837,-0.48913527,0.4458744,,0.5291462110761149,-0.6650817551282148,0.17547488843000003,0.4965457861713537,-0.6662395728562877,0.7185562747653973,1.1486354730562516,,-0.646137891387742,-0.6120574712137893,0.16996306335000003,-1.2814152446339282,-0.6799032228328317,-0.43144690470319325,1.3390946541688213,,-0.12960378692996893,-0.40635846475714477,0.08491787512,0.05233371158368399,,-1.1283904e-05,3.5762787e-06,1.9073486e-06,0.99999994,3.5289675e-05,1.4394522e-05,-3.528595e-05,0.99999994,2.7418137e-06,-1.4379621e-05,-2.7418137e-06,1.0
1.5254091630340554,09:34:33.372364,09:34:26.502428,0,,0.08412071,-0.030330926,0.04441268,-0.58654577,0.08589229,-0.8053486,-0.07392037,0.98453313,0.15883988,0.8065357,0.15269853,-0.57112455,,0.04287739,-0.02824349,0.049012512,0.278638,0.23699644,0.9306952,0.11070815,-0.97054034,0.2139982,0.953994,0.04340753,-0.29666686,,0.20681234,1.3430022,0.5593759,0.994199,-0.047275368,-0.096609436,-0.080044314,-0.9251777,-0.3709975,-0.07184185,0.37657836,-0.9235949,,-0.042423498,0.1347529,-0.09557065,0.50176555,-0.068504795,0.86228675,0.25909632,0.96299225,-0.074263014,-0.8252881,0.26067793,0.5009456,,0.022884963,0.2571809,-0.3817389,-0.39746523,-0.2059759,-0.8942009,0.5292246,-0.847538,-0.040008873,-0.74962837,-0.48913527,0.4458744,,0.5291462110761149,-0.6650817551282148,0.17547488843000003,0.4965457861713537,-0.6662395728562877,0.7185562747653973,1.1486354730562516,,-0.646137891387742,-0.6120574712137893,0.16996306335000003,-1.2814152446339282,-0.6799032228328317,-0.43144690470319325,1.3390946541688213,,-0.12960378692996893,-0.40635846475714477,0.08491787512,0.05233371158368399,,-1.1283904e-05,3.5762787e-06,1.9073486e-06,0.99999994,3.5289675e-05,1.4394522e-05,-3.528595e-05,0.99999994,2.7418137e-06,-1.4379621e-05,-2.7418137e-06,1.0
1.546107436006423,09:34:33.390425,09:34:26.502428,0,,0.08412073,-0.030330904,0.044412628,-0.5865457,0.08589229,-0.8053486,-0.07392037,0.98453325,0.15883988,0.8065357,0.15269859,-0.5711246,,0.04287739,-0.02824346,0.049012452,0.27863804,0.23699644,0.93069524,0.11070815,-0.97054034,0.21399823,0.95399404,0.0434075,-0.29666683,,0.2068757,1.3429924,0.55938613,0.9941945,-0.04732743,-0.096630305,-0.08010025,-0.925175,-0.37099206,-0.07184185,0.37657836,-0.9235949,,-0.042481557,0.13474482,-0.09555833,0.5017615,-0.06844922,0.8622935,0.2590669,0.9629969,-0.0743058,-0.8252998,0.26067552,0.5009277,,0.022827202,0.25716826,-0.38172844,-0.3974536,-0.20603031,-0.8941936,0.5292422,-0.84752923,-0.0399606,-0.7496221,-0.4891275,0.4458935,,0.5291462110761149,-0.6650817551282148,0.17547488843000003,0.4965457861713537,-0.6662395728562877,0.7185562747653973,1.1486354730562516,,-0.6461533368534905,-0.6120497484809151,0.16996306335000003,-1.281205554690444,-0.6799032228328317,-0.43144690470319325,1.3390946541688213,,-0.12960378692996893,-0.40635846475714477,0.08491787512,0.05233371158368399,,5.1748008e-05,1.347065e-05,-1.001358e-05,0.99999994,-1.6685575e-05,-6.787479e-06,1.6685575e-05,1.0,-1.2814999e-06,6.8098307e-06,1.2814999e-06,1.0
1.5641709790215828,09:34:33.409665,09:34:26.587738,0,,0.08411561,-0.030329376,0.044411957,-0.5865498,0.08591598,-0.80534315,-0.07390785,0.98453075,0.15886095,0.8065338,0.15270111,-0.5711265,,0.04287739,-0.02824346,0.049012452,0.27863804,0.23699644,0.93069524,0.11070815,-0.97054034,0.21399823,0.95399404,0.0434075,-0.29666683,,0.2068757,1.3429924,0.55938613,0.9941945,-0.04732743,-0.096630305,-0.08010025,-0.925175,-0.37099206,-0.07184185,0.37657836,-0.9235949,,-0.042476352,0.134746,-0.095557645,0.50176615,-0.068473116,0.8622889,0.25907767,0.9629954,-0.0742873,-0.82529354,0.26067466,0.50093836,,0.022827202,0.25716826,-0.38172844,-0.3974536,-0.20603031,-0.8941936,0.5292422,-0.84752923,-0.0399606,-0.7496221,-0.4891275,0.4458935,,0.5291462110761149,-0.6650817551282148,0.17547488843000003,0.4965457861713537,-0.6662395728562877,0.7185562747653973,1.1486354730562516,,-0.6464313552369626,-0.6120343030151666,0.1699695448,-1.283721834012258,-0.6800398593325971,-0.43133548679949685,1.3390946541688213,,-0.12960378692996893,-0.40635846475714477,0.08491787512,0.05233371158368399,,5.1748008e-05,1.347065e-05,-1.001358e-05,0.99999994,-1.6685575e-05,-6.787479e-06,1.6685575e-05,1.0,-1.2814999e-06,6.8098307e-06,1.2814999e-06,1.0
