AlexandreBanks6/ExpertPlaybackApp/resources/Motions/PC1/Data_PC1_1.csv
Task Time,PC1 Time,PC2 Time,Gaze Calib,s_T_psm1,Tx,Ty,Tz,R00,R01,R02,R10,R11,R12,R20,R21,R22,s_T_psm3,Tx,Ty,Tz,R00,R01,R02,R10,R11,R12,R20,R21,R22,cart_T_ecm,Tx,Ty,Tz,R00,R01,R02,R10,R11,R12,R20,R21,R22,ecm_T_psm1,Tx,Ty,Tz,R00,R01,R02,R10,R11,R12,R20,R21,R22,ecm_T_psm3,Tx,Ty,Tz,R00,R01,R02,R10,R11,R12,R20,R21,R22,psm1_joints,q1,q2,q3,q4,q5,q6,jaw,psm3_joints,q1,q2,q3,q4,q5,q6,jaw,ecm_joints,q1,q2,q3,q4
""
lci_T_si,,,,,-0.059203263,0.058063876,0.53250974,0.9971566,-0.026387317,0.07058614,0.010666671,-0.87783325,-0.47884762,0.074598365,0.478239,-0.87505573
rci_T_si,,,,,-0.050464753,0.03837551,0.7044127,0.9996976,-0.0074718576,0.023426421,0.004971784,-0.87161434,-0.49016702,0.024081262,0.49013528,-0.87131363
ecm_T_lc,,,,,-0.010503502,0.0353613,-0.35674977,-0.9933329,0.103684954,0.050389625,-0.112544216,-0.96688193,-0.22907005,0.024969695,-0.2332139,0.9721048
ecm_T_rc,,,,,-0.045470465,0.07002666,-0.40169618,-0.98767287,0.15394595,0.028337218,-0.15650986,-0.96815085,-0.19541891,-0.0026492458,-0.19744499,0.9803104
cart_T_ecmi,,,,,0.17719544,1.3318359,0.5644658,0.99200714,-0.061144885,-0.110377274,-0.105542004,-0.88150376,-0.4602304,-0.06915724,0.46820128,-0.88091135
ecmac_T_ecmrep_psm1,,,,,-0.040727746,0.23137592,-0.21310239,0.98627466,0.1643199,0.016164957,-0.16233762,0.9471621,0.2766415,0.03014687,-0.27546868,0.96083724
ecmac_T_ecmrep_psm3,,,,,-0.03207139,0.39064074,-0.46404764,0.9917923,0.12441902,0.029460106,-0.1278581,0.9641174,0.23265849,0.00054414105,-0.23451562,0.9721122
""
0,09:08:46.620947,NaN,0,,0.040530033,-0.02298548,0.059671372,-0.22124872,-0.8676327,-0.4452665,-0.8197626,0.41277763,-0.39699352,0.5282407,0.27717856,-0.8025794,,0.0383014,0.02577278,0.047080904,0.5207868,-0.7754524,0.35700795,-0.802759,-0.5871203,-0.104248375,0.29044607,-0.23230024,-0.9282658,,0.17723174,1.3318381,0.56446654,0.9919986,-0.061212488,-0.1104163,-0.1056167,-0.8815201,-0.46018198,-0.0691653,0.4681617,-0.8809318,,-0.0280521,0.14196843,-0.10119395,0.10168491,0.8842395,0.45582968,-0.46342853,0.44755435,-0.76480657,-0.88028073,-0.13347518,0.45529133,,-0.006078979,0.33136132,-0.3209235,-0.6123236,0.74490887,-0.26489738,-0.519773,-0.6317624,-0.5750759,-0.5957313,-0.21444605,0.7740265,,1.2665204686399454,-0.6444775038197837,0.17827357854,-0.07276241038912995,-0.025277752456606482,0.016283338956388164,-0.00016334406613427964,,-0.9491624839065633,-0.4149501600649571,0.19452257369,0.0052422485871131096,0.011067556481000676,-0.0006119399649322232,0.00669710671150545,,-0.15580336066396883,-0.3098526654296833,0.08023514044,0.08733188120527266
0.025536116008879617,09:08:46.651278,NaN,0,,0.040528227,-0.022984482,0.05967185,-0.22124073,-0.8676294,-0.44527683,-0.81976676,0.41277456,-0.39698792,0.5282374,0.2771933,-0.8025765,,0.0383014,0.02577278,0.047080904,0.5207868,-0.7754524,0.35700795,-0.802759,-0.5871203,-0.104248375,0.29044607,-0.23230024,-0.9282658,,0.17723174,1.3318381,0.56446654,0.9919986,-0.061212488,-0.1104163,-0.1056167,-0.8815201,-0.46018198,-0.0691653,0.4681617,-0.8809318,,-0.028050235,0.14196943,-0.101194076,0.10167676,0.88423496,0.4558403,-0.46343338,0.44755912,-0.76480085,-0.8802791,-0.13348913,0.45529038,,-0.006078979,0.33136132,-0.3209235,-0.6123236,0.74490887,-0.26489738,-0.519773,-0.6317624,-0.5750759,-0.5957313,-0.21444605,0.7740265,,1.2665359141056938,-0.6444775038197837,0.17827357854,-0.07276241038912995,-0.025277752456606482,0.016283338956388164,-0.00016334406613427964,,-0.9491624839065633,-0.4149501600649571,0.19452257369,0.0052422485871131096,0.011067556481000676,-0.0006119399649322232,0.00669710671150545,,-0.15580336066396883,-0.3098526654296833,0.08023514044,0.08733188120527266
0.05586535402107984,09:08:46.683105,NaN,0,,0.040529005,-0.022982366,0.05967045,-0.22124739,-0.86763,-0.44527245,-0.8197731,0.41277394,-0.3969757,0.528225,0.27719253,-0.8025849,,0.038301133,0.025770828,0.047081023,0.5207865,-0.7754533,0.3570065,-0.8027564,-0.58712196,-0.10425869,0.290454,-0.23229277,-0.9282652,,0.17723174,1.3318381,0.56446654,0.9919986,-0.061212488,-0.1104163,-0.1056167,-0.8815201,-0.46018198,-0.0691653,0.4681617,-0.8809318,,-0.028050704,0.14197062,-0.10119176,0.10168359,0.8842355,0.45583773,-0.46344528,0.44755816,-0.7647942,-0.8802721,-0.13348882,0.4553041,,-0.0060788835,0.33135974,-0.32092467,-0.6123238,0.74490887,-0.26489687,-0.5197666,-0.6317599,-0.5750844,-0.5957367,-0.21445332,0.7740204,,1.2665359141056938,-0.6444620583540354,0.17827357854,-0.07276241038912995,-0.025277752456606482,0.016283338956388164,-0.00016334406613427964,,-0.9491547611736891,-0.41495788279783136,0.19452257369,0.0052422485871131096,0.011067556481000676,-0.0006119399649322232,0.00669710671150545,,-0.15580336066396883,-0.3098526654296833,0.08023514044,0.08733188120527266
0.0876867110200692,09:08:46.723983,09:08:45.585004,0,,0.042387072,-0.022516526,0.06196806,-0.19071925,-0.8669604,-0.46044093,-0.8132975,0.40221116,-0.4204441,0.5497028,0.2942887,-0.78180623,,0.038889002,0.025940418,0.04853329,0.54378915,-0.77062505,0.33231074,-0.7874006,-0.60549647,-0.115647316,0.2903337,-0.1987739,-0.93605304,,0.17723174,1.3318381,0.56446654,0.9919986,-0.061212488,-0.1104163,-0.1056167,-0.8815201,-0.46018198,-0.0691653,0.4681617,-0.8809318,,-0.028051168,0.14196892,-0.10119402,0.10168084,0.88423723,0.45583498,-0.46343097,0.44755673,-0.7648037,-0.8802799,-0.13348216,0.45529085,,-0.006078979,0.33136132,-0.3209235,-0.6123236,0.74490887,-0.26489738,-0.519773,-0.6317624,-0.5750759,-0.5957313,-0.21444605,0.7740265,,1.2665281913728197,-0.6444775038197837,0.17827357854,-0.07276241038912995,-0.025277752456606482,0.016283338956388164,-0.00016334406613427964,,-0.9491624839065633,-0.4149501600649571,0.19452257369,0.0052422485871131096,0.011067556481000676,-0.0006119399649322232,0.00669710671150545,,-0.15580336066396883,-0.3098526654296833,0.08023514044,0.08733188120527266
0.12851340702036396,09:08:46.771226,09:08:45.585004,0,,0.042386167,-0.022516035,0.061968327,-0.19071525,-0.86695856,-0.4604461,-0.81329966,0.4022098,-0.4204414,0.5497012,0.29429606,-0.7818047,,0.038888775,0.025938496,0.04853347,0.5437889,-0.77062577,0.3323095,-0.78739786,-0.605498,-0.11565769,0.29034147,-0.19876641,-0.9360521,,0.17723174,1.3318381,0.56446654,0.9919986,-0.061212488,-0.1104163,-0.1056167,-0.8815201,-0.46018198,-0.0691653,0.4681617,-0.8809318,,-0.028050235,0.14196943,-0.101194076,0.10167676,0.88423496,0.4558403,-0.46343338,0.44755912,-0.76480085,-0.8802791,-0.13348913,0.45529038,,-0.0060788835,0.33135974,-0.32092467,-0.6123238,0.74490887,-0.26489687,-0.5197666,-0.6317599,-0.5750844,-0.5957367,-0.21445332,0.7740204,,1.2665359141056938,-0.6444775038197837,0.17827357854,-0.07276241038912995,-0.025277752456606482,0.016283338956388164,-0.00016334406613427964,,-0.9491547611736891,-0.41495788279783136,0.19452257369,0.0052422485871131096,0.011067556481000676,-0.0006119399649322232,0.00669710671150545,,-0.15580336066396883,-0.3098526654296833,0.08023514044,0.08733188120527266
0.1757740990142338,09:08:46.791023,09:08:45.585004,0,,0.042387072,-0.022516526,0.06196806,-0.19071925,-0.8669604,-0.46044093,-0.8132975,0.40221116,-0.4204441,0.5497028,0.2942887,-0.78180623,,0.038888775,0.025938496,0.04853347,0.5437889,-0.77062577,0.3323095,-0.78739786,-0.605498,-0.11565769,0.29034147,-0.19876641,-0.9360521,,0.17723174,1.3318381,0.56446654,0.9919986,-0.061212488,-0.1104163,-0.1056167,-0.8815201,-0.46018198,-0.0691653,0.4681617,-0.8809318,,-0.028051168,0.14196892,-0.10119402,0.10168084,0.88423723,0.45583498,-0.46343097,0.44755673,-0.7648037,-0.8802799,-0.13348216,0.45529085,,-0.0060788835,0.33135974,-0.32092467,-0.6123238,0.74490887,-0.26489687,-0.5197666,-0.6317599,-0.5750844,-0.5957367,-0.21445332,0.7740204,,1.2665281913728197,-0.6444775038197837,0.17827357854,-0.07276241038912995,-0.025277752456606482,0.016283338956388164,-0.00016334406613427964,,-0.9491547611736891,-0.41495788279783136,0.19452257369,0.0052422485871131096,0.011067556481000676,-0.0006119399649322232,0.00669710671150545,,-0.15580336066396883,-0.3098526654296833,0.08023514044,0.08733188120527266
0.1956090040039271,09:08:46.817321,09:08:45.585004,0,,0.042386167,-0.022516035,0.061968327,-0.19071525,-0.86695856,-0.4604461,-0.81329966,0.4022098,-0.4204414,0.5497012,0.29429606,-0.7818047,,0.038889002,0.025940418,0.04853329,0.54378915,-0.77062505,0.33231074,-0.7874006,-0.60549647,-0.115647316,0.2903337,-0.1987739,-0.93605304,,0.17723174,1.3318381,0.56446654,0.9919986,-0.061212488,-0.1104163,-0.1056167,-0.8815201,-0.46018198,-0.0691653,0.4681617,-0.8809318,,-0.028050235,0.14196943,-0.101194076,0.10167676,0.88423496,0.4558403,-0.46343338,0.44755912,-0.76480085,-0.8802791,-0.13348913,0.45529038,,-0.006078979,0.33136132,-0.3209235,-0.6123236,0.74490887,-0.26489738,-0.519773,-0.6317624,-0.5750759,-0.5957313,-0.21444605,0.7740265,,1.2665359141056938,-0.6444775038197837,0.17827357854,-0.07276241038912995,-0.025277752456606482,0.016283338956388164,-0.00016334406613427964,,-0.9491624839065633,-0.4149501600649571,0.19452257369,0.0052422485871131096,0.011067556481000676,-0.0006119399649322232,0.00669710671150545,,-0.15580336066396883,-0.3098526654296833,0.08023514044,0.08733188120527266
0.22190889602643438,09:08:46.846565,09:08:45.739220,0,,0.040528227,-0.022984482,0.05967185,-0.22124073,-0.8676294,-0.44527683,-0.81976676,0.41277456,-0.39698792,0.5282374,0.2771933,-0.8025765,,0.038302153,0.025771633,0.04708138,0.5207841,-0.7754524,0.357012,-0.8027582,-0.58712023,-0.104254544,0.29045326,-0.23230025,-0.92826355,,0.17723174,1.3318381,0.56446654,0.9919986,-0.061212488,-0.1104163,-0.1056167,-0.8815201,-0.46018198,-0.0691653,0.4681617,-0.8809318,,-0.028050235,0.14196943,-0.101194076,0.10167676,0.88423496,0.4558403,-0.46343338,0.44755912,-0.76480085,-0.8802791,-0.13348913,0.45529038,,-0.00607987,0.3313606,-0.3209244,-0.61232156,0.74490887,-0.26490214,-0.5197686,-0.6317624,-0.5750799,-0.59573734,-0.21444602,0.7740219,,1.2665359141056938,-0.6444775038197837,0.17827357854,-0.07276241038912995,-0.025277752456606482,0.016283338956388164,-0.00016334406613427964,,-0.9491624839065633,-0.41495788279783136,0.19452257369,0.0052422485871131096,0.011067556481000676,-0.0006119399649322232,0.00669710671150545,,-0.15580336066396883,-0.3098526654296833,0.08023514044,0.08733188120527266
0.2511128780024592,09:08:46.870589,09:08:45.739220,0,,0.040528268,-0.022984512,0.05967185,-0.22105736,-0.86767817,-0.44527295,-0.81985193,0.41260064,-0.39699292,0.528182,0.2772998,-0.8025762,,0.038302153,0.025771633,0.04708138,0.5207841,-0.7754524,0.357012,-0.8027582,-0.58712023,-0.104254544,0.29045326,-0.23230025,-0.92826355,,0.17723174,1.3318381,0.56446654,0.9919986,-0.061212488,-0.1104163,-0.1056167,-0.8815201,-0.46018198,-0.0691653,0.4681617,-0.8809318,,-0.028050277,0.1419694,-0.101194076,0.10148987,0.8842587,0.45583594,-0.46352458,0.44745794,-0.7648048,-0.88025266,-0.13367122,0.45528808,,-0.00607987,0.3313606,-0.3209244,-0.61232156,0.74490887,-0.26490214,-0.5197686,-0.6317624,-0.5750799,-0.59573734,-0.21444602,0.7740219,,1.2665359141056938,-0.6444775038197837,0.17827357854,-0.07297210033261448,-0.025277752456606482,0.016283338956388164,-0.00016334406613427964,,-0.9491624839065633,-0.41495788279783136,0.19452257369,0.0052422485871131096,0.011067556481000676,-0.0006119399649322232,0.00669710671150545,,-0.15580336066396883,-0.3098526654296833,0.08023514044,0.08733188120527266
0.2751689620199613,09:08:46.890539,09:08:45.739220,0,,0.04052831,-0.022984535,0.05967182,-0.22087397,-0.8677268,-0.4452691,-0.8199371,0.4124267,-0.39699784,0.52812666,0.27740622,-0.8025758,,0.0383014,0.02577278,0.047080904,0.5207868,-0.7754524,0.35700795,-0.802759,-0.5871203,-0.104248375,0.29044607,-0.23230024,-0.9282658,,0.17723174,1.3318381,0.56446654,0.9919986,-0.061212488,-0.1104163,-0.1056167,-0.8815201,-0.46018198,-0.0691653,0.4681617,-0.8809318,,-0.02805032,0.14196938,-0.10119407,0.10130298,0.88428235,0.4558316,-0.46361575,0.44735673,-0.7648087,-0.8802262,-0.1338533,0.4552858,,-0.006078979,0.33136132,-0.3209235,-0.6123236,0.74490887,-0.26489738,-0.519773,-0.6317624,-0.5750759,-0.5957313,-0.21444605,0.7740265,,1.2665359141056938,-0.6444775038197837,0.17827357854,-0.073181790276099,-0.025277752456606482,0.016283338956388164,-0.00016334406613427964,,-0.9491624839065633,-0.4149501600649571,0.19452257369,0.0052422485871131096,0.011067556481000676,-0.0006119399649322232,0.00669710671150545,,-0.15580336066396883,-0.3098526654296833,0.08023514044,0.08733188120527266
0.29511990200262517,09:08:46.916277,09:08:45.739220,0,,0.04053012,-0.022985525,0.059671342,-0.22088197,-0.86773014,-0.44525883,-0.8199328,0.41242975,-0.39700344,0.5281299,0.27739143,-0.8025788,,0.038300373,0.025772005,0.047080606,0.5207892,-0.7754533,0.35700244,-0.80275726,-0.587122,-0.10425258,0.29044685,-0.23229274,-0.9282675,,0.17723174,1.3318381,0.56446654,0.9919986,-0.061212488,-0.1104163,-0.1056167,-0.8815201,-0.46018198,-0.0691653,0.4681617,-0.8809318,,-0.028052187,0.14196838,-0.101193935,0.10131113,0.8842869,0.455821,-0.4636109,0.44735193,-0.7648145,-0.8802278,-0.13383935,0.45528674,,-0.006077993,0.3313605,-0.3209238,-0.61232585,0.74490887,-0.2648921,-0.5197711,-0.6317599,-0.57508045,-0.5957307,-0.21445335,0.77402496,,1.2665204686399454,-0.6444775038197837,0.17827357854,-0.073181790276099,-0.025277752456606482,0.016283338956388164,-0.00016334406613427964,,-0.9491547611736891,-0.4149501600649571,0.19452257369,0.0052422485871131096,0.011067556481000676,-0.0006119399649322232,0.00669710671150545,,-0.15580336066396883,-0.3098526654296833,0.08023514044,0.08733188120527266
0.32085267701768316,09:08:46.939132,09:08:45.739220,0,,0.04052831,-0.022984535,0.05967182,-0.22087397,-0.8677268,-0.4452691,-0.8199371,0.4124267,-0.39699784,0.52812666,0.27740622,-0.8025758,,0.0383014,0.02577278,0.047080904,0.5207868,-0.7754524,0.35700795,-0.802759,-0.5871203,-0.104248375,0.29044607,-0.23230024,-0.9282658,,0.17723174,1.3318381,0.56446654,0.9919986,-0.061212488,-0.1104163,-0.1056167,-0.8815201,-0.46018198,-0.0691653,0.4681617,-0.8809318,,-0.02805032,0.14196938,-0.10119407,0.10130298,0.88428235,0.4558316,-0.46361575,0.44735673,-0.7648087,-0.8802262,-0.1338533,0.4552858,,-0.006078979,0.33136132,-0.3209235,-0.6123236,0.74490887,-0.26489738,-0.519773,-0.6317624,-0.5750759,-0.5957313,-0.21444605,0.7740265,,1.2665359141056938,-0.6444775038197837,0.17827357854,-0.073181790276099,-0.025277752456606482,0.016283338956388164,-0.00016334406613427964,,-0.9491624839065633,-0.4149501600649571,0.19452257369,0.0052422485871131096,0.011067556481000676,-0.0006119399649322232,0.00669710671150545,,-0.15580336066396883,-0.3098526654296833,0.08023514044,0.08733188120527266
0.34366594901075587,09:08:46.958108,09:08:45.739220,0,,0.04052831,-0.022984535,0.05967182,-0.22087397,-0.8677268,-0.4452691,-0.8199371,0.4124267,-0.39699784,0.52812666,0.27740622,-0.8025758,,0.038299344,0.025771216,0.04708031,0.52079153,-0.7754543,0.35699692,-0.8027554,-0.58712363,-0.10425675,0.29044753,-0.23228529,-0.928269,,0.17723174,1.3318381,0.56446654,0.9919986,-0.061212488,-0.1104163,-0.1056167,-0.8815201,-0.46018198,-0.0691653,0.4681617,-0.8809318,,-0.02805032,0.14196938,-0.10119407,0.10130298,0.88428235,0.4558316,-0.46361575,0.44735673,-0.7648087,-0.8802262,-0.1338533,0.4552858,,-0.006077007,0.33135965,-0.3209241,-0.6123281,0.7449089,-0.26488683,-0.51976913,-0.6317574,-0.5750849,-0.59573007,-0.21446066,0.7740234,,1.2665359141056938,-0.6444775038197837,0.17827357854,-0.073181790276099,-0.025277752456606482,0.016283338956388164,-0.00016334406613427964,,-0.9491470384408149,-0.4149501600649571,0.19452257369,0.0052422485871131096,0.011067556481000676,-0.0006119399649322232,0.00669710671150545,,-0.15580336066396883,-0.3098526654296833,0.08023514044,0.08733188120527266
0.36268597500748,09:08:46.986209,09:08:45.739220,0,,0.040529214,-0.022985019,0.05967158,-0.22087798,-0.8677285,-0.44526398,-0.81993496,0.4124282,-0.3970007,0.52812827,0.27739882,-0.80257726,,0.038300373,0.025772005,0.047080606,0.5207892,-0.7754533,0.35700244,-0.80275726,-0.587122,-0.10425258,0.29044685,-0.23229274,-0.9282675,,0.17723174,1.3318381,0.56446654,0.9919986,-0.061212488,-0.1104163,-0.1056167,-0.8815201,-0.46018198,-0.0691653,0.4681617,-0.8809318,,-0.028051253,0.14196889,-0.101194,0.10130706,0.8842846,0.45582628,-0.4636133,0.44735432,-0.76481164,-0.880227,-0.13384633,0.45528626,,-0.006077993,0.3313605,-0.3209238,-0.61232585,0.74490887,-0.2648921,-0.5197711,-0.6317599,-0.57508045,-0.5957307,-0.21445335,0.77402496,,1.2665281913728197,-0.6444775038197837,0.17827357854,-0.073181790276099,-0.025277752456606482,0.016283338956388164,-0.00016334406613427964,,-0.9491547611736891,-0.4149501600649571,0.19452257369,0.0052422485871131096,0.011067556481000676,-0.0006119399649322232,0.00669710671150545,,-0.15580336066396883,-0.3098526654296833,0.08023514044,0.08733188120527266
0.39079067000420764,09:08:47.008783,09:08:45.899864,0,,0.042294793,-0.022796161,0.06211412,-0.19539124,-0.8640704,-0.46390137,-0.81146276,0.40808463,-0.41832417,0.5507726,0.29470184,-0.7808972,,0.039113957,0.025667086,0.04862082,0.5386949,-0.7748578,0.3307614,-0.7906889,-0.6005279,-0.11906955,0.29089335,-0.19738717,-0.93617266,,0.17723174,1.3318381,0.56446654,0.9919986,-0.061212488,-0.1104163,-0.1056167,-0.8815201,-0.46018198,-0.0691653,0.4681617,-0.8809318,,-0.028051253,0.14196889,-0.101194,0.10130706,0.8842846,0.45582628,-0.4636133,0.44735432,-0.76481164,-0.880227,-0.13384633,0.45528626,,-0.0060799653,0.3313622,-0.3209232,-0.6123213,0.7449088,-0.26490265,-0.519775,-0.6317649,-0.5750714,-0.595732,-0.21443874,0.77402806,,1.2665281913728197,-0.6444775038197837,0.17827357854,-0.073181790276099,-0.025277752456606482,0.016283338956388164,-0.00016334406613427964,,-0.9491702066394376,-0.4149501600649571,0.19452257369,0.0052422485871131096,0.011067556481000676,-0.0006119399649322232,0.00669710671150545,,-0.15580336066396883,-0.3098526654296833,0.08023514044,0.08733188120527266
0.41336988101829775,09:08:47.030124,09:08:45.899864,0,,0.042293888,-0.022795677,0.062114388,-0.19538726,-0.86406857,-0.46390653,-0.81146485,0.40808332,-0.41832143,0.5507709,0.2947092,-0.7808956,,0.039114736,0.025665924,0.048621267,0.5386924,-0.7748578,0.33076555,-0.79068786,-0.6005278,-0.119075626,0.2909006,-0.19738719,-0.9361704,,0.17723174,1.3318381,0.56446654,0.9919986,-0.061212488,-0.1104163,-0.1056167,-0.8815201,-0.46018198,-0.0691653,0.4681617,-0.8809318,,-0.02805032,0.14196938,-0.10119407,0.10130298,0.88428235,0.4558316,-0.46361575,0.44735673,-0.7648087,-0.8802262,-0.1338533,0.4552858,,-0.0060808556,0.33136144,-0.3209241,-0.6123193,0.7449088,-0.2649074,-0.5197705,-0.6317649,-0.5750754,-0.59573793,-0.21443872,0.7740235,,1.2665359141056938,-0.6444775038197837,0.17827357854,-0.073181790276099,-0.025277752456606482,0.016283338956388164,-0.00016334406613427964,,-0.9491702066394376,-0.41495788279783136,0.19452257369,0.0052422485871131096,0.011067556481000676,-0.0006119399649322232,0.00669710671150545,,-0.15580336066396883,-0.3098526654296833,0.08023514044,0.08733188120527266
0.43462468701181933,09:08:47.055937,09:08:45.899864,0,,0.042293888,-0.022795677,0.062114388,-0.19538726,-0.86406857,-0.46390653,-0.81146485,0.40808332,-0.41832143,0.5507709,0.2947092,-0.7808956,,0.039114736,0.025665924,0.048621267,0.5386924,-0.7748578,0.33076555,-0.79068786,-0.6005278,-0.119075626,0.2909006,-0.19738719,-0.9361704,,0.17723174,1.3318381,0.56446654,0.9919986,-0.061212488,-0.1104163,-0.1056167,-0.8815201,-0.46018198,-0.0691653,0.4681617,-0.8809318,,-0.02805032,0.14196938,-0.10119407,0.10130298,0.88428235,0.4558316,-0.46361575,0.44735673,-0.7648087,-0.8802262,-0.1338533,0.4552858,,-0.0060808556,0.33136144,-0.3209241,-0.6123193,0.7449088,-0.2649074,-0.5197705,-0.6317649,-0.5750754,-0.59573793,-0.21443872,0.7740235,,1.2665359141056938,-0.6444775038197837,0.17827357854,-0.073181790276099,-0.025277752456606482,0.016283338956388164,-0.00016334406613427964,,-0.9491702066394376,-0.41495788279783136,0.19452257369,0.0052422485871131096,0.011067556481000676,-0.0006119399649322232,0.00669710671150545,,-0.15580336066396883,-0.3098526654296833,0.08023514044,0.08733188120527266
0.46052409600815736,09:08:47.082688,09:08:45.899864,0,,0.042293888,-0.022795677,0.062114388,-0.19538726,-0.86406857,-0.46390653,-0.81146485,0.40808332,-0.41832143,0.5507709,0.2947092,-0.7808956,,0.039112926,0.025666252,0.04862055,0.5386973,-0.77485853,0.33075592,-0.79068696,-0.60052943,-0.11907387,0.290894,-0.19737963,-0.93617404,,0.17723174,1.3318381,0.56446654,0.9919986,-0.061212488,-0.1104163,-0.1056167,-0.8815201,-0.46018198,-0.0691653,0.4681617,-0.8809318,,-0.02805032,0.14196938,-0.10119407,0.10130298,0.88428235,0.4558316,-0.46361575,0.44735673,-0.7648087,-0.8802262,-0.1338533,0.4552858,,-0.006078979,0.33136132,-0.3209235,-0.6123236,0.74490887,-0.26489738,-0.519773,-0.6317624,-0.5750759,-0.5957313,-0.21444605,0.7740265,,1.2665359141056938,-0.6444775038197837,0.17827357854,-0.073181790276099,-0.025277752456606482,0.016283338956388164,-0.00016334406613427964,,-0.9491624839065633,-0.4149501600649571,0.19452257369,0.0052422485871131096,0.011067556481000676,-0.0006119399649322232,0.00669710671150545,,-0.15580336066396883,-0.3098526654296833,0.08023514044,0.08733188120527266
0.48723648602026515,09:08:47.105599,09:08:45.899864,0,,0.042293888,-0.022795677,0.062114388,-0.19538726,-0.86406857,-0.46390653,-0.81146485,0.40808332,-0.41832143,0.5507709,0.2947092,-0.7808956,,0.0391119,0.025665477,0.048620284,0.5386996,-0.7748592,0.3307504,-0.7906852,-0.600531,-0.11907816,0.29089463,-0.19737211,-0.9361754,,0.17723174,1.3318381,0.56446654,0.9919986,-0.061212488,-0.1104163,-0.1056167,-0.8815201,-0.46018198,-0.0691653,0.4681617,-0.8809318,,-0.02805032,0.14196938,-0.10119407,0.10130298,0.88428235,0.4558316,-0.46361575,0.44735673,-0.7648087,-0.8802262,-0.1338533,0.4552858,,-0.006077993,0.3313605,-0.3209238,-0.61232585,0.74490887,-0.2648921,-0.5197711,-0.6317599,-0.57508045,-0.5957307,-0.21445335,0.77402496,,1.2665359141056938,-0.6444775038197837,0.17827357854,-0.073181790276099,-0.025277752456606482,0.016283338956388164,-0.00016334406613427964,,-0.9491547611736891,-0.4149501600649571,0.19452257369,0.0052422485871131096,0.011067556481000676,-0.0006119399649322232,0.00669710671150545,,-0.15580336066396883,-0.3098526654296833,0.08023514044,0.08733188120527266
0.5101857130066492,09:08:47.126598,09:08:45.899864,0,,0.042294793,-0.022796161,0.06211412,-0.19539124,-0.8640704,-0.46390137,-0.81146276,0.40808463,-0.41832417,0.5507726,0.29470184,-0.7808972,,0.039114736,0.025665924,0.048621267,0.5386924,-0.7748578,0.33076555,-0.79068786,-0.6005278,-0.119075626,0.2909006,-0.19738719,-0.9361704,,0.17723174,1.3318381,0.56446654,0.9919986,-0.061212488,-0.1104163,-0.1056167,-0.8815201,-0.46018198,-0.0691653,0.4681617,-0.8809318,,-0.028051253,0.14196889,-0.101194,0.10130706,0.8842846,0.45582628,-0.4636133,0.44735432,-0.76481164,-0.880227,-0.13384633,0.45528626,,-0.0060808556,0.33136144,-0.3209241,-0.6123193,0.7449088,-0.2649074,-0.5197705,-0.6317649,-0.5750754,-0.59573793,-0.21443872,0.7740235,,1.2665281913728197,-0.6444775038197837,0.17827357854,-0.073181790276099,-0.025277752456606482,0.016283338956388164,-0.00016334406613427964,,-0.9491702066394376,-0.41495788279783136,0.19452257369,0.0052422485871131096,0.011067556481000676,-0.0006119399649322232,0.00669710671150545,,-0.15580336066396883,-0.3098526654296833,0.08023514044,0.08733188120527266
0.5311474240152165,09:08:47.158780,09:08:46.042982,0,,0.041486055,-0.023730285,0.059081703,-0.20659658,-0.86588717,-0.4555846,-0.8303508,0.40145367,-0.38646156,0.51752806,0.2984534,-0.801929,,0.038716722,0.02521713,0.047365427,0.530956,-0.7751039,0.34249017,-0.80384654,-0.5886016,-0.08590138,0.26817262,-0.2296998,-0.9355861,,0.17723174,1.3318381,0.56446654,0.9919986,-0.061212488,-0.1104163,-0.1056167,-0.8815201,-0.46018198,-0.0691653,0.4681617,-0.8809318,,-0.028052187,0.14196838,-0.101193935,0.10131113,0.8842869,0.455821,-0.4636109,0.44735193,-0.7648145,-0.8802278,-0.13383935,0.45528674,,-0.006077993,0.3313605,-0.3209238,-0.61232585,0.74490887,-0.2648921,-0.5197711,-0.6317599,-0.57508045,-0.5957307,-0.21445335,0.77402496,,1.2665204686399454,-0.6444775038197837,0.17827357854,-0.073181790276099,-0.025277752456606482,0.016283338956388164,-0.00016334406613427964,,-0.9491547611736891,-0.4149501600649571,0.19452257369,0.0052422485871131096,0.011067556481000676,-0.0006119399649322232,0.00669710671150545,,-0.15580336066396883,-0.3098526654296833,0.08023514044,0.08733188120527266
0.5633496130176354,09:08:47.202200,09:08:46.042982,0,,0.041456014,-0.023709245,0.059052885,-0.20671615,-0.8659007,-0.45550457,-0.8304187,0.4014615,-0.38630742,0.5173713,0.29840356,-0.8020488,,0.038679227,0.025201976,0.047388762,0.5308775,-0.77516276,0.34247893,-0.80388296,-0.5885388,-0.08599079,0.26821887,-0.2296625,-0.935582,,0.1772037,1.3318373,0.5644771,0.99200463,-0.06116225,-0.11039007,-0.10556017,-0.88152355,-0.46018827,-0.0691653,0.4681617,-0.8809318,,-0.028018905,0.14197016,-0.10116128,0.1014313,0.88430357,0.4557619,-0.46375558,0.4473326,-0.7647381,-0.88013774,-0.13379374,0.45547423,,-0.0060439496,0.33135986,-0.32095575,-0.61225474,0.7449688,-0.26488814,-0.5197778,-0.6316879,-0.5751534,-0.59579796,-0.21445742,0.7739721,,1.2665281913728197,-0.6444775038197837,0.17827357854,-0.073181790276099,-0.02514111595684104,0.01617192105269174,-0.00016334406613427964,,-0.9491624839065633,-0.4149501600649571,0.19452257369,0.0052422485871131096,0.011067556481000676,-0.0006119399649322232,0.00669710671150545,,-0.15580336066396883,-0.3098526654296833,0.08023514044,0.08733188120527266
0.60673310700804,09:08:47.238700,09:08:46.042982,0,,0.041457176,-0.023708701,0.05905196,-0.20678046,-0.8659536,-0.45537463,-0.8304703,0.40141827,-0.3862415,0.5172628,0.29830799,-0.8021543,,0.03867897,0.025200069,0.04738888,0.5308771,-0.77516353,0.34247762,-0.80388045,-0.5885406,-0.08600119,0.2682268,-0.22965507,-0.9355815,,0.1772037,1.3318373,0.5644771,0.99200463,-0.06116225,-0.11039007,-0.10556017,-0.88152355,-0.46018827,-0.0691653,0.4681617,-0.8809318,,-0.028019965,0.14197023,-0.10116012,0.10149568,0.8843568,0.4556442,-0.4638586,0.44724396,-0.7647274,-0.88007605,-0.13373795,0.45560986,,-0.006043854,0.33135828,-0.32095692,-0.6122549,0.7449688,-0.26488763,-0.5197714,-0.6316854,-0.57516193,-0.5958033,-0.21446471,0.77396595,,1.2665204686399454,-0.6444775038197837,0.17827357854,-0.073181790276099,-0.025004479457075603,0.01606050314899532,-0.00016334406613427964,,-0.9491547611736891,-0.41495788279783136,0.19452257369,0.0052422485871131096,0.011067556481000676,-0.0006119399649322232,0.00669710671150545,,-0.15580336066396883,-0.3098526654296833,0.08023514044,0.08733188120527266
0.6432586620212533,09:08:47.275543,09:08:46.042982,0,,0.041455362,-0.023707725,0.059052497,-0.20677248,-0.86595005,-0.45538497,-0.8304745,0.40141496,-0.386236,0.5172593,0.29832265,-0.8021511,,0.038679227,0.025201976,0.047388762,0.5308775,-0.77516276,0.34247893,-0.80388296,-0.5885388,-0.08599079,0.26821887,-0.2296625,-0.935582,,0.1772037,1.3318373,0.5644771,0.99200463,-0.06116225,-0.11039007,-0.10556017,-0.88152355,-0.46018827,-0.0691653,0.4681617,-0.8809318,,-0.028018096,0.14197123,-0.10116025,0.10148754,0.88435227,0.4556548,-0.4638635,0.44724876,-0.7647217,-0.8800744,-0.1337519,0.4556089,,-0.0060439496,0.33135986,-0.32095575,-0.61225474,0.7449688,-0.26488814,-0.5197778,-0.6316879,-0.5751534,-0.59579796,-0.21445742,0.7739721,,1.2665359141056938,-0.6444775038197837,0.17827357854,-0.073181790276099,-0.025004479457075603,0.01606050314899532,-0.00016334406613427964,,-0.9491624839065633,-0.4149501600649571,0.19452257369,0.0052422485871131096,0.011067556481000676,-0.0006119399649322232,0.00669710671150545,,-0.15580336066396883,-0.3098526654296833,0.08023514044,0.08733188120527266
0.6800994510122109,09:08:47.319057,09:08:46.187628,0,,0.040925622,-0.023174971,0.059260815,-0.20251435,-0.8726343,-0.44440666,-0.83065593,0.39342126,-0.39399305,0.5186507,0.2893598,-0.8045323,,0.037737183,0.02565752,0.047387004,0.536933,-0.76696324,0.3513834,-0.797257,-0.5974966,-0.08590138,0.27583358,-0.23401958,-0.93228245,,0.1772037,1.3318373,0.5644771,0.99200463,-0.06116225,-0.11039007,-0.10556017,-0.88152355,-0.46018827,-0.0691653,0.4681617,-0.8809318,,-0.02801903,0.14197072,-0.10116018,0.101491615,0.88435453,0.4556495,-0.46386105,0.44724637,-0.76472455,-0.8800752,-0.13374493,0.45560938,,-0.006043854,0.33135828,-0.32095692,-0.6122549,0.7449688,-0.26488763,-0.5197714,-0.6316854,-0.57516193,-0.5958033,-0.21446471,0.77396595,,1.2665281913728197,-0.6444775038197837,0.17827357854,-0.073181790276099,-0.025004479457075603,0.01606050314899532,-0.00016334406613427964,,-0.9491547611736891,-0.41495788279783136,0.19452257369,0.0052422485871131096,0.011067556481000676,-0.0006119399649322232,0.00669710671150545,,-0.15580336066396883,-0.3098526654296833,0.08023514044,0.08733188120527266
0.7235923390253447,09:08:47.351704,09:08:46.187628,0,,0.040924713,-0.02317448,0.059261084,-0.20251031,-0.8726326,-0.44441184,-0.83065796,0.39341962,-0.39399037,0.518649,0.28936717,-0.8045308,,0.037737414,0.025659442,0.047386885,0.5369334,-0.7669624,0.35138464,-0.79725945,-0.5974948,-0.08589098,0.27582565,-0.23402703,-0.9322829,,0.1772037,1.3318373,0.5644771,0.99200463,-0.06116225,-0.11039007,-0.10556017,-0.88152355,-0.46018827,-0.0691653,0.4681617,-0.8809318,,-0.028018096,0.14197123,-0.10116025,0.10148754,0.88435227,0.4556548,-0.4638635,0.44724876,-0.7647217,-0.8800744,-0.1337519,0.4556089,,-0.0060439496,0.33135986,-0.32095575,-0.61225474,0.7449688,-0.26488814,-0.5197778,-0.6316879,-0.5751534,-0.59579796,-0.21445742,0.7739721,,1.2665359141056938,-0.6444775038197837,0.17827357854,-0.073181790276099,-0.025004479457075603,0.01606050314899532,-0.00016334406613427964,,-0.9491624839065633,-0.4149501600649571,0.19452257369,0.0052422485871131096,0.011067556481000676,-0.0006119399649322232,0.00669710671150545,,-0.15580336066396883,-0.3098526654296833,0.08023514044,0.08733188120527266
0.7562560610240325,09:08:47.389812,09:08:46.187628,0,,0.040925622,-0.023174971,0.059260815,-0.20251435,-0.8726343,-0.44440666,-0.83065593,0.39342126,-0.39399305,0.5186507,0.2893598,-0.8045323,,0.037738193,0.02565828,0.047387302,0.5369307,-0.76696235,0.3513888,-0.79725885,-0.5974948,-0.08589709,0.2758328,-0.23402706,-0.93228084,,0.1772037,1.3318373,0.5644771,0.99200463,-0.06116225,-0.11039007,-0.10556017,-0.88152355,-0.46018827,-0.0691653,0.4681617,-0.8809318,,-0.02801903,0.14197072,-0.10116018,0.101491615,0.88435453,0.4556495,-0.46386105,0.44724637,-0.76472455,-0.8800752,-0.13374493,0.45560938,,-0.00604484,0.33135912,-0.32095665,-0.61225265,0.7449687,-0.2648929,-0.51977336,-0.6316879,-0.5751574,-0.5958039,-0.2144574,0.7739675,,1.2665281913728197,-0.6444775038197837,0.17827357854,-0.073181790276099,-0.025004479457075603,0.01606050314899532,-0.00016334406613427964,,-0.9491624839065633,-0.41495788279783136,0.19452257369,0.0052422485871131096,0.011067556481000676,-0.0006119399649322232,0.00669710671150545,,-0.15580336066396883,-0.3098526654296833,0.08023514044,0.08733188120527266
0.7943510120094288,09:08:47.423994,09:08:46.187628,0,,0.040924713,-0.02317448,0.059261084,-0.20251031,-0.8726326,-0.44441184,-0.83065796,0.39341962,-0.39399037,0.518649,0.28936717,-0.8045308,,0.037737414,0.025659442,0.047386885,0.5369334,-0.7669624,0.35138464,-0.79725945,-0.5974948,-0.08589098,0.27582565,-0.23402703,-0.9322829,,0.1772037,1.3318373,0.5644771,0.99200463,-0.06116225,-0.11039007,-0.10556017,-0.88152355,-0.46018827,-0.0691653,0.4681617,-0.8809318,,-0.028018096,0.14197123,-0.10116025,0.10148754,0.88435227,0.4556548,-0.4638635,0.44724876,-0.7647217,-0.8800744,-0.1337519,0.4556089,,-0.0060439496,0.33135986,-0.32095575,-0.61225474,0.7449688,-0.26488814,-0.5197778,-0.6316879,-0.5751534,-0.59579796,-0.21445742,0.7739721,,1.2665359141056938,-0.6444775038197837,0.17827357854,-0.073181790276099,-0.025004479457075603,0.01606050314899532,-0.00016334406613427964,,-0.9491624839065633,-0.4149501600649571,0.19452257369,0.0052422485871131096,0.011067556481000676,-0.0006119399649322232,0.00669710671150545,,-0.15580336066396883,-0.3098526654296833,0.08023514044,0.08733188120527266
0.8285690790216904,09:08:47.459365,09:08:46.338405,0,,0.04145627,-0.023708217,0.059052214,-0.20677647,-0.86595184,-0.4553798,-0.83047247,0.4014166,-0.38623875,0.5172611,0.29831532,-0.8021527,,0.0386782,0.025201216,0.047388464,0.53087974,-0.77516353,0.34247348,-0.80388117,-0.5885406,-0.08599502,0.2682196,-0.22965506,-0.9355836,,0.1772037,1.3318373,0.5644771,0.99200463,-0.06116225,-0.11039007,-0.10556017,-0.88152355,-0.46018827,-0.0691653,0.4681617,-0.8809318,,-0.02801903,0.14197072,-0.10116018,0.101491615,0.88435453,0.4556495,-0.46386105,0.44724637,-0.76472455,-0.8800752,-0.13374493,0.45560938,,-0.0060429634,0.33135903,-0.32095605,-0.61225694,0.7449688,-0.26488286,-0.51977587,-0.6316854,-0.57515794,-0.59579736,-0.21446472,0.77397054,,1.2665281913728197,-0.6444775038197837,0.17827357854,-0.073181790276099,-0.025004479457075603,0.01606050314899532,-0.00016334406613427964,,-0.9491547611736891,-0.4149501600649571,0.19452257369,0.0052422485871131096,0.011067556481000676,-0.0006119399649322232,0.00669710671150545,,-0.15580336066396883,-0.3098526654296833,0.08023514044,0.08733188120527266
0.8639193940034602,09:08:47.504012,09:08:46.338405,0,,0.041457176,-0.023708701,0.05905196,-0.20678046,-0.8659536,-0.45537463,-0.8304703,0.40141827,-0.3862415,0.5172628,0.29830799,-0.8021543,,0.038679995,0.025200844,0.04738918,0.5308748,-0.7751627,0.3424831,-0.80388224,-0.5885388,-0.085996956,0.26822606,-0.2296625,-0.9355799,,0.1772037,1.3318373,0.5644771,0.99200463,-0.06116225,-0.11039007,-0.10556017,-0.88152355,-0.46018827,-0.0691653,0.4681617,-0.8809318,,-0.028019965,0.14197023,-0.10116012,0.10149568,0.8843568,0.4556442,-0.4638586,0.44724396,-0.7647274,-0.88007605,-0.13373795,0.45560986,,-0.00604484,0.33135912,-0.32095665,-0.61225265,0.7449687,-0.2648929,-0.51977336,-0.6316879,-0.5751574,-0.5958039,-0.2144574,0.7739675,,1.2665204686399454,-0.6444775038197837,0.17827357854,-0.073181790276099,-0.025004479457075603,0.01606050314899532,-0.00016334406613427964,,-0.9491624839065633,-0.41495788279783136,0.19452257369,0.0052422485871131096,0.011067556481000676,-0.0006119399649322232,0.00669710671150545,,-0.15580336066396883,-0.3098526654296833,0.08023514044,0.08733188120527266
0.9085641120036598,09:08:47.544851,09:08:46.338405,0,,0.041455362,-0.023707725,0.059052497,-0.20677248,-0.86595005,-0.45538497,-0.8304745,0.40141496,-0.386236,0.5172593,0.29832265,-0.8021511,,0.038679227,0.025201976,0.047388762,0.5308775,-0.77516276,0.34247893,-0.80388296,-0.5885388,-0.08599079,0.26821887,-0.2296625,-0.935582,,0.1772037,1.3318373,0.5644771,0.99200463,-0.06116225,-0.11039007,-0.10556017,-0.88152355,-0.46018827,-0.0691653,0.4681617,-0.8809318,,-0.028018096,0.14197123,-0.10116025,0.10148754,0.88435227,0.4556548,-0.4638635,0.44724876,-0.7647217,-0.8800744,-0.1337519,0.4556089,,-0.0060439496,0.33135986,-0.32095575,-0.61225474,0.7449688,-0.26488814,-0.5197778,-0.6316879,-0.5751534,-0.59579796,-0.21445742,0.7739721,,1.2665359141056938,-0.6444775038197837,0.17827357854,-0.073181790276099,-0.025004479457075603,0.01606050314899532,-0.00016334406613427964,,-0.9491624839065633,-0.4149501600649571,0.19452257369,0.0052422485871131096,0.011067556481000676,-0.0006119399649322232,0.00669710671150545,,-0.15580336066396883,-0.3098526654296833,0.08023514044,0.08733188120527266
0.9493981700215954,09:08:47.580353,09:08:46.338405,0,,0.04145713,-0.023708679,0.059051976,-0.20696348,-0.86590785,-0.45537847,-0.8303875,0.40159434,-0.38623655,0.5173226,0.29820377,-0.8021544,,0.03867897,0.025200069,0.04738888,0.5308771,-0.77516353,0.34247762,-0.80388045,-0.5885406,-0.08600119,0.2682268,-0.22965507,-0.9355815,,0.1772037,1.3318373,0.5644771,0.99200463,-0.06116225,-0.11039007,-0.10556017,-0.88152355,-0.46018827,-0.0691653,0.4681617,-0.8809318,,-0.028019922,0.14197025,-0.101160124,0.10168257,0.88433313,0.45564848,-0.46376744,0.4473452,-0.7647235,-0.8801025,-0.13355587,0.45561212,,-0.006043854,0.33135828,-0.32095692,-0.6122549,0.7449688,-0.26488763,-0.5197714,-0.6316854,-0.57516193,-0.5958033,-0.21446471,0.77396595,,1.2665204686399454,-0.6444775038197837,0.17827357854,-0.07297210033261448,-0.025004479457075603,0.01606050314899532,-0.00016334406613427964,,-0.9491547611736891,-0.41495788279783136,0.19452257369,0.0052422485871131096,0.011067556481000676,-0.0006119399649322232,0.00669710671150545,,-0.15580336066396883,-0.3098526654296833,0.08023514044,0.08733188120527266
0.9848871160065755,09:08:47.622296,09:08:46.498034,0,,0.04240877,-0.022755198,0.05840218,-0.1985763,-0.86095935,-0.46831232,-0.8231999,0.4058341,-0.39703983,0.53189224,0.30667198,-0.7893307,,0.039436117,0.025991976,0.04612276,0.5352884,-0.77870435,0.32723975,-0.8002075,-0.59154606,-0.098697335,0.2704335,-0.20902817,-0.9397728,,0.1772037,1.3318373,0.5644771,0.99200463,-0.06116225,-0.11039007,-0.10556017,-0.88152355,-0.46018827,-0.0691653,0.4681617,-0.8809318,,-0.028018013,0.14197126,-0.101160266,0.10186131,0.8843049,0.45566338,-0.4636811,0.44745117,-0.7647138,-0.8801273,-0.13338774,0.45561343,,-0.0060439496,0.33135986,-0.32095575,-0.61225474,0.7449688,-0.26488814,-0.5197778,-0.6316879,-0.5751534,-0.59579796,-0.21445742,0.7739721,,1.2665359141056938,-0.6444775038197837,0.17827357854,-0.07276241038912995,-0.025004479457075603,0.01606050314899532,-0.00016334406613427964,,-0.9491624839065633,-0.4149501600649571,0.19452257369,0.0052422485871131096,0.011067556481000676,-0.0006119399649322232,0.00669710671150545,,-0.15580336066396883,-0.3098526654296833,0.08023514044,0.08733188120527266
1.0268829640117474,09:08:47.663955,09:08:46.498034,0,,0.042409673,-0.022755682,0.058401912,-0.19858027,-0.86096126,-0.46830723,-0.82319784,0.40583563,-0.39704257,0.531894,0.30666468,-0.7893324,,0.039436117,0.025991976,0.04612276,0.5352884,-0.77870435,0.32723975,-0.8002075,-0.59154606,-0.098697335,0.2704335,-0.20902817,-0.9397728,,0.1772037,1.3318373,0.5644771,0.99200463,-0.06116225,-0.11039007,-0.10556017,-0.88152355,-0.46018827,-0.0691653,0.4681617,-0.8809318,,-0.028018946,0.14197077,-0.1011602,0.10186539,0.88430715,0.45565808,-0.46367866,0.4474488,-0.76471674,-0.88012815,-0.13338077,0.4556139,,-0.0060439496,0.33135986,-0.32095575,-0.61225474,0.7449688,-0.26488814,-0.5197778,-0.6316879,-0.5751534,-0.59579796,-0.21445742,0.7739721,,1.2665281913728197,-0.6444775038197837,0.17827357854,-0.07276241038912995,-0.025004479457075603,0.01606050314899532,-0.00016334406613427964,,-0.9491624839065633,-0.4149501600649571,0.19452257369,0.0052422485871131096,0.011067556481000676,-0.0006119399649322232,0.00669710671150545,,-0.15580336066396883,-0.3098526654296833,0.08023514044,0.08733188120527266
1.0685004770057276,09:08:47.706138,09:08:46.498034,0,,0.04240877,-0.022755198,0.05840218,-0.1985763,-0.86095935,-0.46831232,-0.8231999,0.4058341,-0.39703983,0.53189224,0.30667198,-0.7893307,,0.03943509,0.025991172,0.04612252,0.53529066,-0.778705,0.3272342,-0.8002057,-0.5915477,-0.098701626,0.27043414,-0.2090207,-0.9397743,,0.1772037,1.3318373,0.5644771,0.99200463,-0.06116225,-0.11039007,-0.10556017,-0.88152355,-0.46018827,-0.0691653,0.4681617,-0.8809318,,-0.028018013,0.14197126,-0.101160266,0.10186131,0.8843049,0.45566338,-0.4636811,0.44745117,-0.7647138,-0.8801273,-0.13338774,0.45561343,,-0.0060429634,0.33135903,-0.32095605,-0.61225694,0.7449688,-0.26488286,-0.51977587,-0.6316854,-0.57515794,-0.59579736,-0.21446472,0.77397054,,1.2665359141056938,-0.6444775038197837,0.17827357854,-0.07276241038912995,-0.025004479457075603,0.01606050314899532,-0.00016334406613427964,,-0.9491547611736891,-0.4149501600649571,0.19452257369,0.0052422485871131096,0.011067556481000676,-0.0006119399649322232,0.00669710671150545,,-0.15580336066396883,-0.3098526654296833,0.08023514044,0.08733188120527266
1.1106831670040265,09:08:47.753226,09:08:46.641359,0,,0.04353896,-0.021224879,0.05438146,-0.17296176,-0.860309,-0.4795337,-0.8294407,0.3897826,-0.40012205,0.5311425,0.32853895,-0.78099275,,0.03949091,0.027535126,0.042473942,0.55430925,-0.77345955,0.30741093,-0.79282,-0.6030935,-0.087833256,0.253333,-0.19503474,-0.94751453,,0.1772037,1.3318373,0.5644771,0.99200463,-0.06116225,-0.11039007,-0.10556017,-0.88152355,-0.46018827,-0.0691653,0.4681617,-0.8809318,,-0.028018013,0.14197126,-0.101160266,0.10186131,0.8843049,0.45566338,-0.4636811,0.44745117,-0.7647138,-0.8801273,-0.13338774,0.45561343,,-0.006043854,0.33135828,-0.32095692,-0.6122549,0.7449688,-0.26488763,-0.5197714,-0.6316854,-0.57516193,-0.5958033,-0.21446471,0.77396595,,1.2665359141056938,-0.6444775038197837,0.17827357854,-0.07276241038912995,-0.025004479457075603,0.01606050314899532,-0.00016334406613427964,,-0.9491547611736891,-0.41495788279783136,0.19452257369,0.0052422485871131096,0.011067556481000676,-0.0006119399649322232,0.00669710671150545,,-0.15580336066396883,-0.3098526654296833,0.08023514044,0.08733188120527266
1.1578155670140404,09:08:47.792821,09:08:46.641359,0,,0.04353986,-0.02122534,0.054381162,-0.1729657,-0.8603111,-0.47952855,-0.8294387,0.38978422,-0.4001248,0.5311444,0.32853168,-0.7809946,,0.03949091,0.027535126,0.042473942,0.55430925,-0.77345955,0.30741093,-0.79282,-0.6030935,-0.087833256,0.253333,-0.19503474,-0.94751453,,0.1772037,1.3318373,0.5644771,0.99200463,-0.06116225,-0.11039007,-0.10556017,-0.88152355,-0.46018827,-0.0691653,0.4681617,-0.8809318,,-0.028018946,0.14197077,-0.1011602,0.10186539,0.88430715,0.45565808,-0.46367866,0.4474488,-0.76471674,-0.88012815,-0.13338077,0.4556139,,-0.006043854,0.33135828,-0.32095692,-0.6122549,0.7449688,-0.26488763,-0.5197714,-0.6316854,-0.57516193,-0.5958033,-0.21446471,0.77396595,,1.2665281913728197,-0.6444775038197837,0.17827357854,-0.07276241038912995,-0.025004479457075603,0.01606050314899532,-0.00016334406613427964,,-0.9491547611736891,-0.41495788279783136,0.19452257369,0.0052422485871131096,0.011067556481000676,-0.0006119399649322232,0.00669710671150545,,-0.15580336066396883,-0.3098526654296833,0.08023514044,0.08733188120527266
1.1973544010252226,09:08:47.825598,09:08:46.641359,0,,0.04353896,-0.021224879,0.05438146,-0.17296176,-0.860309,-0.4795337,-0.8294407,0.3897826,-0.40012205,0.5311425,0.32853895,-0.78099275,,0.0394901,0.027536273,0.042473584,0.55431163,-0.77345955,0.30740663,-0.7928207,-0.6030935,-0.087827176,0.2533257,-0.19503473,-0.94751644,,0.1772037,1.3318373,0.5644771,0.99200463,-0.06116225,-0.11039007,-0.10556017,-0.88152355,-0.46018827,-0.0691653,0.4681617,-0.8809318,,-0.028018013,0.14197126,-0.101160266,0.10186131,0.8843049,0.45566338,-0.4636811,0.44745117,-0.7647138,-0.8801273,-0.13338774,0.45561343,,-0.0060429634,0.33135903,-0.32095605,-0.61225694,0.7449688,-0.26488286,-0.51977587,-0.6316854,-0.57515794,-0.59579736,-0.21446472,0.77397054,,1.2665359141056938,-0.6444775038197837,0.17827357854,-0.07276241038912995,-0.025004479457075603,0.01606050314899532,-0.00016334406613427964,,-0.9491547611736891,-0.4149501600649571,0.19452257369,0.0052422485871131096,0.011067556481000676,-0.0006119399649322232,0.00669710671150545,,-0.15580336066396883,-0.3098526654296833,0.08023514044,0.08733188120527266
1.230185820022598,09:08:47.873985,09:08:46.641359,0,,0.04353986,-0.02122534,0.054381162,-0.1729657,-0.8603111,-0.47952855,-0.8294387,0.38978422,-0.4001248,0.5311444,0.32853168,-0.7809946,,0.0394901,0.027536273,0.042473584,0.55431163,-0.77345955,0.30740663,-0.7928207,-0.6030935,-0.087827176,0.2533257,-0.19503473,-0.94751644,,0.1772037,1.3318373,0.5644771,0.99200463,-0.06116225,-0.11039007,-0.10556017,-0.88152355,-0.46018827,-0.0691653,0.4681617,-0.8809318,,-0.028018946,0.14197077,-0.1011602,0.10186539,0.88430715,0.45565808,-0.46367866,0.4474488,-0.76471674,-0.88012815,-0.13338077,0.4556139,,-0.0060429634,0.33135903,-0.32095605,-0.61225694,0.7449688,-0.26488286,-0.51977587,-0.6316854,-0.57515794,-0.59579736,-0.21446472,0.77397054,,1.2665281913728197,-0.6444775038197837,0.17827357854,-0.07276241038912995,-0.025004479457075603,0.01606050314899532,-0.00016334406613427964,,-0.9491547611736891,-0.4149501600649571,0.19452257369,0.0052422485871131096,0.011067556481000676,-0.0006119399649322232,0.00669710671150545,,-0.15580336066396883,-0.3098526654296833,0.08023514044,0.08733188120527266
1.2785030740196817,09:08:47.907766,09:08:46.793196,0,,0.040499985,-0.022963226,0.05964127,-0.22142112,-0.8676938,-0.44506162,-0.81988955,0.41273713,-0.39677322,0.5279712,0.27704746,-0.80280197,,0.038262397,0.025757506,0.047103584,0.5207097,-0.7755122,0.3569905,-0.8027923,-0.5870581,-0.104341775,0.29049242,-0.2322575,-0.928262,,0.1772037,1.3318373,0.5644771,0.99200463,-0.06116225,-0.11039007,-0.10556017,-0.88152355,-0.46018827,-0.0691653,0.4681617,-0.8809318,,-0.028018013,0.14197126,-0.101160266,0.10186131,0.8843049,0.45566338,-0.4636811,0.44745117,-0.7647138,-0.8801273,-0.13338774,0.45561343,,-0.0060439496,0.33135986,-0.32095575,-0.61225474,0.7449688,-0.26488814,-0.5197778,-0.6316879,-0.5751534,-0.59579796,-0.21445742,0.7739721,,1.2665359141056938,-0.6444775038197837,0.17827357854,-0.07276241038912995,-0.025004479457075603,0.01606050314899532,-0.00016334406613427964,,-0.9491624839065633,-0.4149501600649571,0.19452257369,0.0052422485871131096,0.011067556481000676,-0.0006119399649322232,0.00669710671150545,,-0.15580336066396883,-0.3098526654296833,0.08023514044,0.08733188120527266
1.3122346000163816,09:08:47.952842,09:08:46.793196,0,,0.040499985,-0.022963226,0.05964127,-0.22142112,-0.8676938,-0.44506162,-0.81988955,0.41273713,-0.39677322,0.5279712,0.27704746,-0.80280197,,0.038262125,0.0257556,0.047103733,0.5207093,-0.7755132,0.35698906,-0.8027897,-0.5870598,-0.104352206,0.2905003,-0.23225002,-0.9282614,,0.1772037,1.3318373,0.5644771,0.99200463,-0.06116225,-0.11039007,-0.10556017,-0.88152355,-0.46018827,-0.0691653,0.4681617,-0.8809318,,-0.028018013,0.14197126,-0.101160266,0.10186131,0.8843049,0.45566338,-0.4636811,0.44745117,-0.7647138,-0.8801273,-0.13338774,0.45561343,,-0.006043854,0.33135828,-0.32095692,-0.6122549,0.7449688,-0.26488763,-0.5197714,-0.6316854,-0.57516193,-0.5958033,-0.21446471,0.77396595,,1.2665359141056938,-0.6444775038197837,0.17827357854,-0.07276241038912995,-0.025004479457075603,0.01606050314899532,-0.00016334406613427964,,-0.9491547611736891,-0.41495788279783136,0.19452257369,0.0052422485871131096,0.011067556481000676,-0.0006119399649322232,0.00669710671150545,,-0.15580336066396883,-0.3098526654296833,0.08023514044,0.08733188120527266
1.3574148309999146,09:08:47.983497,09:08:46.793196,0,,0.040501796,-0.022964202,0.059640795,-0.22142911,-0.8676971,-0.44505134,-0.8198853,0.4127402,-0.39677882,0.5279744,0.27703267,-0.80280495,,0.038262397,0.025757506,0.047103584,0.5207097,-0.7755122,0.3569905,-0.8027923,-0.5870581,-0.104341775,0.29049242,-0.2322575,-0.928262,,0.1772037,1.3318373,0.5644771,0.99200463,-0.06116225,-0.11039007,-0.10556017,-0.88152355,-0.46018827,-0.0691653,0.4681617,-0.8809318,,-0.028019879,0.14197028,-0.10116013,0.10186946,0.8843094,0.4556528,-0.46367624,0.4474464,-0.7647196,-0.8801289,-0.1333738,0.4556144,,-0.0060439496,0.33135986,-0.32095575,-0.61225474,0.7449688,-0.26488814,-0.5197778,-0.6316879,-0.5751534,-0.59579796,-0.21445742,0.7739721,,1.2665204686399454,-0.6444775038197837,0.17827357854,-0.07276241038912995,-0.025004479457075603,0.01606050314899532,-0.00016334406613427964,,-0.9491624839065633,-0.4149501600649571,0.19452257369,0.0052422485871131096,0.011067556481000676,-0.0006119399649322232,0.00669710671150545,,-0.15580336066396883,-0.3098526654296833,0.08023514044,0.08733188120527266
1.3880727000068873,09:08:48.007732,09:08:46.793196,0,,0.040500894,-0.02296371,0.059641033,-0.22142512,-0.86769545,-0.44505644,-0.81988746,0.41273868,-0.39677608,0.5279729,0.27704006,-0.8028034,,0.03826137,0.025756732,0.047103316,0.5207121,-0.7755132,0.35698497,-0.8027905,-0.5870598,-0.10434604,0.29049316,-0.23225,-0.92826366,,0.1772037,1.3318373,0.5644771,0.99200463,-0.06116225,-0.11039007,-0.10556017,-0.88152355,-0.46018827,-0.0691653,0.4681617,-0.8809318,,-0.028018946,0.14197077,-0.1011602,0.10186539,0.88430715,0.45565808,-0.46367866,0.4474488,-0.76471674,-0.88012815,-0.13338077,0.4556139,,-0.0060429634,0.33135903,-0.32095605,-0.61225694,0.7449688,-0.26488286,-0.51977587,-0.6316854,-0.57515794,-0.59579736,-0.21446472,0.77397054,,1.2665281913728197,-0.6444775038197837,0.17827357854,-0.07276241038912995,-0.025004479457075603,0.01606050314899532,-0.00016334406613427964,,-0.9491547611736891,-0.4149501600649571,0.19452257369,0.0052422485871131096,0.011067556481000676,-0.0006119399649322232,0.00669710671150545,,-0.15580336066396883,-0.3098526654296833,0.08023514044,0.08733188120527266
1.412318219023291,09:08:48.026534,09:08:46.793196,0,,0.040499985,-0.022963226,0.05964127,-0.22142112,-0.8676938,-0.44506162,-0.81988955,0.41273713,-0.39677322,0.5279712,0.27704746,-0.80280197,,0.038264178,0.025757134,0.04710436,0.5207047,-0.77551126,0.35700005,-0.80279326,-0.5870564,-0.10434377,0.29049885,-0.23226498,-0.9282581,,0.1772037,1.3318373,0.5644771,0.99200463,-0.06116225,-0.11039007,-0.10556017,-0.88152355,-0.46018827,-0.0691653,0.4681617,-0.8809318,,-0.028018013,0.14197126,-0.101160266,0.10186131,0.8843049,0.45566338,-0.4636811,0.44745117,-0.7647138,-0.8801273,-0.13338774,0.45561343,,-0.0060458262,0.33135998,-0.32095635,-0.61225045,0.7449687,-0.26489815,-0.5197753,-0.6316904,-0.57515293,-0.5958046,-0.21445009,0.77396905,,1.2665359141056938,-0.6444775038197837,0.17827357854,-0.07276241038912995,-0.025004479457075603,0.01606050314899532,-0.00016334406613427964,,-0.9491702066394376,-0.41495788279783136,0.19452257369,0.0052422485871131096,0.011067556481000676,-0.0006119399649322232,0.00669710671150545,,-0.15580336066396883,-0.3098526654296833,0.08023514044,0.08733188120527266
1.4310756400227547,09:08:48.054990,09:08:46.948935,0,,0.040144652,-0.024682239,0.06528489,-0.2178554,-0.871348,-0.43964943,-0.8167127,0.4093871,-0.4066725,0.53434,0.2704715,-0.8008282,,0.03763015,0.02391173,0.052315265,0.5249676,-0.77082133,0.3608925,-0.7967768,-0.59416837,-0.11004862,0.29925874,-0.22977887,-0.9260917,,0.1772037,1.3318373,0.5644771,0.99200463,-0.06116225,-0.11039007,-0.10556017,-0.88152355,-0.46018827,-0.0691653,0.4681617,-0.8809318,,-0.028018013,0.14197126,-0.101160266,0.10186131,0.8843049,0.45566338,-0.4636811,0.44745117,-0.7647138,-0.8801273,-0.13338774,0.45561343,,-0.0060439496,0.33135986,-0.32095575,-0.61225474,0.7449688,-0.26488814,-0.5197778,-0.6316879,-0.5751534,-0.59579796,-0.21445742,0.7739721,,1.2665359141056938,-0.6444775038197837,0.17827357854,-0.07276241038912995,-0.025004479457075603,0.01606050314899532,-0.00016334406613427964,,-0.9491624839065633,-0.4149501600649571,0.19452257369,0.0052422485871131096,0.011067556481000676,-0.0006119399649322232,0.00669710671150545,,-0.15580336066396883,-0.3098526654296833,0.08023514044,0.08733188120527266
1.4595489050261676,09:08:48.080018,09:08:46.948935,0,,0.040144652,-0.024682239,0.06528489,-0.2178554,-0.871348,-0.43964943,-0.8167127,0.4093871,-0.4066725,0.53434,0.2704715,-0.8008282,,0.037629124,0.023910925,0.052314997,0.5249699,-0.7708223,0.36088705,-0.796775,-0.59417003,-0.110052854,0.29925945,-0.22977138,-0.9260933,,0.1772037,1.3318373,0.5644771,0.99200463,-0.06116225,-0.11039007,-0.10556017,-0.88152355,-0.46018827,-0.0691653,0.4681617,-0.8809318,,-0.028018013,0.14197126,-0.101160266,0.10186131,0.8843049,0.45566338,-0.4636811,0.44745117,-0.7647138,-0.8801273,-0.13338774,0.45561343,,-0.0060429634,0.33135903,-0.32095605,-0.61225694,0.7449688,-0.26488286,-0.51977587,-0.6316854,-0.57515794,-0.59579736,-0.21446472,0.77397054,,1.2665359141056938,-0.6444775038197837,0.17827357854,-0.07276241038912995,-0.025004479457075603,0.01606050314899532,-0.00016334406613427964,,-0.9491547611736891,-0.4149501600649571,0.19452257369,0.0052422485871131096,0.011067556481000676,-0.0006119399649322232,0.00669710671150545,,-0.15580336066396883,-0.3098526654296833,0.08023514044,0.08733188120527266
1.4845859020133503,09:08:48.105675,09:08:46.948935,0,,0.040144652,-0.024682239,0.06528489,-0.2178554,-0.871348,-0.43964943,-0.8167127,0.4093871,-0.4066725,0.53434,0.2704715,-0.8008282,,0.03763015,0.02391173,0.052315265,0.5249676,-0.77082133,0.3608925,-0.7967768,-0.59416837,-0.11004862,0.29925874,-0.22977887,-0.9260917,,0.1772037,1.3318373,0.5644771,0.99200463,-0.06116225,-0.11039007,-0.10556017,-0.88152355,-0.46018827,-0.0691653,0.4681617,-0.8809318,,-0.028018013,0.14197126,-0.101160266,0.10186131,0.8843049,0.45566338,-0.4636811,0.44745117,-0.7647138,-0.8801273,-0.13338774,0.45561343,,-0.0060439496,0.33135986,-0.32095575,-0.61225474,0.7449688,-0.26488814,-0.5197778,-0.6316879,-0.5751534,-0.59579796,-0.21445742,0.7739721,,1.2665359141056938,-0.6444775038197837,0.17827357854,-0.07276241038912995,-0.025004479457075603,0.01606050314899532,-0.00016334406613427964,,-0.9491624839065633,-0.4149501600649571,0.19452257369,0.0052422485871131096,0.011067556481000676,-0.0006119399649322232,0.00669710671150545,,-0.15580336066396883,-0.3098526654296833,0.08023514044,0.08733188120527266
1.5102357060241047,09:08:48.124726,09:08:46.948935,0,,0.040144652,-0.024682239,0.06528489,-0.2178554,-0.871348,-0.43964943,-0.8167127,0.4093871,-0.4066725,0.53434,0.2704715,-0.8008282,,0.037629124,0.023910925,0.052314997,0.5249699,-0.7708223,0.36088705,-0.796775,-0.59417003,-0.110052854,0.29925945,-0.22977138,-0.9260933,,0.1772037,1.3318373,0.5644771,0.99200463,-0.06116225,-0.11039007,-0.10556017,-0.88152355,-0.46018827,-0.0691653,0.4681617,-0.8809318,,-0.028018013,0.14197126,-0.101160266,0.10186131,0.8843049,0.45566338,-0.4636811,0.44745117,-0.7647138,-0.8801273,-0.13338774,0.45561343,,-0.0060429634,0.33135903,-0.32095605,-0.61225694,0.7449688,-0.26488286,-0.51977587,-0.6316854,-0.57515794,-0.59579736,-0.21446472,0.77397054,,1.2665359141056938,-0.6444775038197837,0.17827357854,-0.07276241038912995,-0.025004479457075603,0.01606050314899532,-0.00016334406613427964,,-0.9491547611736891,-0.4149501600649571,0.19452257369,0.0052422485871131096,0.011067556481000676,-0.0006119399649322232,0.00669710671150545,,-0.15580336066396883,-0.3098526654296833,0.08023514044,0.08733188120527266
1.5293153570091818,09:08:48.152555,09:08:46.948935,0,,0.040145565,-0.024682723,0.065284654,-0.21785942,-0.87134963,-0.43964425,-0.8167106,0.40938857,-0.40667537,0.5343417,0.27046412,-0.80082965,,0.03762989,0.023909792,0.052315414,0.5249671,-0.7708223,0.36089113,-0.7967741,-0.59417,-0.11005899,0.29926664,-0.22977139,-0.92609096,,0.1772037,1.3318373,0.5644771,0.99200463,-0.06116225,-0.11039007,-0.10556017,-0.88152355,-0.46018827,-0.0691653,0.4681617,-0.8809318,,-0.028018946,0.14197077,-0.1011602,0.10186539,0.88430715,0.45565808,-0.46367866,0.4474488,-0.76471674,-0.88012815,-0.13338077,0.4556139,,-0.006043854,0.33135828,-0.32095692,-0.6122549,0.7449688,-0.26488763,-0.5197714,-0.6316854,-0.57516193,-0.5958033,-0.21446471,0.77396595,,1.2665281913728197,-0.6444775038197837,0.17827357854,-0.07276241038912995,-0.025004479457075603,0.01606050314899532,-0.00016334406613427964,,-0.9491547611736891,-0.41495788279783136,0.19452257369,0.0052422485871131096,0.011067556481000676,-0.0006119399649322232,0.00669710671150545,,-0.15580336066396883,-0.3098526654296833,0.08023514044,0.08733188120527266
1.5571432260039728,09:08:48.178949,09:08:46.948935,0,,0.040144652,-0.024682239,0.06528489,-0.2178554,-0.871348,-0.43964943,-0.8167127,0.4093871,-0.4066725,0.53434,0.2704715,-0.8008282,,0.03763015,0.02391173,0.052315265,0.5249676,-0.77082133,0.3608925,-0.7967768,-0.59416837,-0.11004862,0.29925874,-0.22977887,-0.9260917,,0.1772037,1.3318373,0.5644771,0.99200463,-0.06116225,-0.11039007,-0.10556017,-0.88152355,-0.46018827,-0.0691653,0.4681617,-0.8809318,,-0.028018013,0.14197126,-0.101160266,0.10186131,0.8843049,0.45566338,-0.4636811,0.44745117,-0.7647138,-0.8801273,-0.13338774,0.45561343,,-0.0060439496,0.33135986,-0.32095575,-0.61225474,0.7449688,-0.26488814,-0.5197778,-0.6316879,-0.5751534,-0.59579796,-0.21445742,0.7739721,,1.2665359141056938,-0.6444775038197837,0.17827357854,-0.07276241038912995,-0.025004479457075603,0.01606050314899532,-0.00016334406613427964,,-0.9491624839065633,-0.4149501600649571,0.19452257369,0.0052422485871131096,0.011067556481000676,-0.0006119399649322232,0.00669710671150545,,-0.15580336066396883,-0.3098526654296833,0.08023514044,0.08733188120527266
1.583513045014115,09:08:48.201457,09:08:46.948935,0,,0.040146474,-0.024683207,0.06528443,-0.21786344,-0.87135124,-0.43963912,-0.81670845,0.40939006,-0.40667814,0.53434324,0.2704567,-0.8008311,,0.037629124,0.023910925,0.052314997,0.5249699,-0.7708223,0.36088705,-0.796775,-0.59417003,-0.110052854,0.29925945,-0.22977138,-0.9260933,,0.1772037,1.3318373,0.5644771,0.99200463,-0.06116225,-0.11039007,-0.10556017,-0.88152355,-0.46018827,-0.0691653,0.4681617,-0.8809318,,-0.028019879,0.14197028,-0.10116013,0.10186946,0.8843094,0.4556528,-0.46367624,0.4474464,-0.7647196,-0.8801289,-0.1333738,0.4556144,,-0.0060429634,0.33135903,-0.32095605,-0.61225694,0.7449688,-0.26488286,-0.51977587,-0.6316854,-0.57515794,-0.59579736,-0.21446472,0.77397054,,1.2665204686399454,-0.6444775038197837,0.17827357854,-0.07276241038912995,-0.025004479457075603,0.01606050314899532,-0.00016334406613427964,,-0.9491547611736891,-0.4149501600649571,0.19452257369,0.0052422485871131096,0.011067556481000676,-0.0006119399649322232,0.00669710671150545,,-0.15580336066396883,-0.3098526654296833,0.08023514044,0.08733188120527266
1.606033242016565,09:08:48.221737,09:08:47.111926,0,,0.040500894,-0.02296371,0.059641033,-0.22142512,-0.86769545,-0.44505644,-0.81988746,0.41273868,-0.39677608,0.5279729,0.27704006,-0.8028034,,0.038262125,0.0257556,0.047103733,0.5207093,-0.7755132,0.35698906,-0.8027897,-0.5870598,-0.104352206,0.2905003,-0.23225002,-0.9282614,,0.1772037,1.3318373,0.5644771,0.99200463,-0.06116225,-0.11039007,-0.10556017,-0.88152355,-0.46018827,-0.0691653,0.4681617,-0.8809318,,-0.028018946,0.14197077,-0.1011602,0.10186539,0.88430715,0.45565808,-0.46367866,0.4474488,-0.76471674,-0.88012815,-0.13338077,0.4556139,,-0.006043854,0.33135828,-0.32095692,-0.6122549,0.7449688,-0.26488763,-0.5197714,-0.6316854,-0.57516193,-0.5958033,-0.21446471,0.77396595,,1.2665281913728197,-0.6444775038197837,0.17827357854,-0.07276241038912995,-0.025004479457075603,0.01606050314899532,-0.00016334406613427964,,-0.9491547611736891,-0.41495788279783136,0.19452257369,0.0052422485871131096,0.011067556481000676,-0.0006119399649322232,0.00669710671150545,,-0.15580336066396883,-0.3098526654296833,0.08023514044,0.08733188120527266
1.6263257630052976,09:08:48.250253,09:08:47.111926,0,,0.040499985,-0.022963226,0.05964127,-0.22142112,-0.8676938,-0.44506162,-0.81988955,0.41273713,-0.39677322,0.5279712,0.27704746,-0.80280197,,0.03826315,0.02575636,0.04710406,0.5207069,-0.77551216,0.35699457,-0.8027915,-0.5870581,-0.104347974,0.2904995,-0.23225752,-0.92825973,,0.1772037,1.3318373,0.5644771,0.99200463,-0.06116225,-0.11039007,-0.10556017,-0.88152355,-0.46018827,-0.0691653,0.4681617,-0.8809318,,-0.028018013,0.14197126,-0.101160266,0.10186131,0.8843049,0.45566338,-0.4636811,0.44745117,-0.7647138,-0.8801273,-0.13338774,0.45561343,,-0.00604484,0.33135912,-0.32095665,-0.61225265,0.7449687,-0.2648929,-0.51977336,-0.6316879,-0.5751574,-0.5958039,-0.2144574,0.7739675,,1.2665359141056938,-0.6444775038197837,0.17827357854,-0.07276241038912995,-0.025004479457075603,0.01606050314899532,-0.00016334406613427964,,-0.9491624839065633,-0.41495788279783136,0.19452257369,0.0052422485871131096,0.011067556481000676,-0.0006119399649322232,0.00669710671150545,,-0.15580336066396883,-0.3098526654296833,0.08023514044,0.08733188120527266
1.6548401650215965,09:08:48.272378,09:08:47.111926,0,,0.040501885,-0.022964247,0.059640765,-0.22106236,-0.8677945,-0.4450437,-0.8200556,0.4123923,-0.39678872,0.52786374,0.27724558,-0.80280423,,0.03826137,0.025756732,0.047103316,0.5207121,-0.7755132,0.35698497,-0.8027905,-0.5870598,-0.10434604,0.29049316,-0.23225,-0.92826366,,0.1772037,1.3318373,0.5644771,0.99200463,-0.06116225,-0.11039007,-0.10556017,-0.88152355,-0.46018827,-0.0691653,0.4681617,-0.8809318,,-0.028019965,0.14197023,-0.10116012,0.10149568,0.8843568,0.4556442,-0.4638586,0.44724396,-0.7647274,-0.88007605,-0.13373795,0.45560986,,-0.0060429634,0.33135903,-0.32095605,-0.61225694,0.7449688,-0.26488286,-0.51977587,-0.6316854,-0.57515794,-0.59579736,-0.21446472,0.77397054,,1.2665204686399454,-0.6444775038197837,0.17827357854,-0.073181790276099,-0.025004479457075603,0.01606050314899532,-0.00016334406613427964,,-0.9491547611736891,-0.4149501600649571,0.19452257369,0.0052422485871131096,0.011067556481000676,-0.0006119399649322232,0.00669710671150545,,-0.15580336066396883,-0.3098526654296833,0.08023514044,0.08733188120527266
1.6769278780266177,09:08:48.293806,09:08:47.111926,0,,0.040500067,-0.022963248,0.059641242,-0.22105436,-0.8677912,-0.44505402,-0.82005984,0.41238925,-0.3967831,0.52786046,0.27726033,-0.80280125,,0.03826137,0.025756732,0.047103316,0.5207121,-0.7755132,0.35698497,-0.8027905,-0.5870598,-0.10434604,0.29049316,-0.23225,-0.92826366,,0.1772037,1.3318373,0.5644771,0.99200463,-0.06116225,-0.11039007,-0.10556017,-0.88152355,-0.46018827,-0.0691653,0.4681617,-0.8809318,,-0.028018096,0.14197123,-0.10116025,0.10148754,0.88435227,0.4556548,-0.4638635,0.44724876,-0.7647217,-0.8800744,-0.1337519,0.4556089,,-0.0060429634,0.33135903,-0.32095605,-0.61225694,0.7449688,-0.26488286,-0.51977587,-0.6316854,-0.57515794,-0.59579736,-0.21446472,0.77397054,,1.2665359141056938,-0.6444775038197837,0.17827357854,-0.073181790276099,-0.025004479457075603,0.01606050314899532,-0.00016334406613427964,,-0.9491547611736891,-0.4149501600649571,0.19452257369,0.0052422485871131096,0.011067556481000676,-0.0006119399649322232,0.00669710671150545,,-0.15580336066396883,-0.3098526654296833,0.08023514044,0.08733188120527266
1.6983843850030098,09:08:48.319697,09:08:47.111926,0,,0.040500067,-0.022963248,0.059641242,-0.22105436,-0.8677912,-0.44505402,-0.82005984,0.41238925,-0.3967831,0.52786046,0.27726033,-0.80280125,,0.038262397,0.025757506,0.047103584,0.5207097,-0.7755122,0.3569905,-0.8027923,-0.5870581,-0.104341775,0.29049242,-0.2322575,-0.928262,,0.1772037,1.3318373,0.5644771,0.99200463,-0.06116225,-0.11039007,-0.10556017,-0.88152355,-0.46018827,-0.0691653,0.4681617,-0.8809318,,-0.028018096,0.14197123,-0.10116025,0.10148754,0.88435227,0.4556548,-0.4638635,0.44724876,-0.7647217,-0.8800744,-0.1337519,0.4556089,,-0.0060439496,0.33135986,-0.32095575,-0.61225474,0.7449688,-0.26488814,-0.5197778,-0.6316879,-0.5751534,-0.59579796,-0.21445742,0.7739721,,1.2665359141056938,-0.6444775038197837,0.17827357854,-0.073181790276099,-0.025004479457075603,0.01606050314899532,-0.00016334406613427964,,-0.9491624839065633,-0.4149501600649571,0.19452257369,0.0052422485871131096,0.011067556481000676,-0.0006119399649322232,0.00669710671150545,,-0.15580336066396883,-0.3098526654296833,0.08023514044,0.08733188120527266
1.7242854440119117,09:08:48.349142,09:08:47.111926,0,,0.040534772,-0.022996388,0.05965486,-0.22103354,-0.867815,-0.44501808,-0.8200461,0.41236556,-0.39683613,0.52789044,0.27722132,-0.80279505,,0.03820812,0.025716335,0.047112346,0.52063656,-0.77556115,0.35699072,-0.8028395,-0.586989,-0.10436788,0.2904932,-0.23226859,-0.92825896,,0.1772014,1.3318383,0.56446755,0.9920056,-0.061154593,-0.11038607,-0.105551556,-0.8815241,-0.46018922,-0.0691653,0.4681617,-0.8809318,,-0.028056797,0.14195107,-0.10118441,0.10146623,0.8843761,0.45561337,-0.46383563,0.44720763,-0.76476264,-0.88009155,-0.13373213,0.4555816,,-0.0059944424,0.3313288,-0.32099184,-0.61218613,0.74502414,-0.26489082,-0.5198184,-0.6316358,-0.5751739,-0.595833,-0.21441837,0.77395594,,1.2665359141056938,-0.6444775038197837,0.17827357854,-0.073181790276099,-0.025004479457075603,0.01606050314899532,-0.00016334406613427964,,-0.9491547611736891,-0.41495788279783136,0.19452257369,0.0052422485871131096,0.011067556481000676,-0.0006119399649322232,0.00669710671150545,,-0.15580336066396883,-0.3098526654296833,0.08023514044,0.08733188120527266
1.7537152910081204,09:08:48.372728,09:08:47.265589,0,,0.040249042,-0.025792077,0.06484443,-0.21663663,-0.8713942,-0.44015983,-0.8258134,0.40403515,-0.39343083,0.5206733,0.27825838,-0.80713797,,0.037613496,0.023004934,0.052689224,0.525503,-0.7708268,0.3601006,-0.801507,-0.5904952,-0.094349265,0.28536454,-0.23904245,-0.92813027,,0.1772014,1.3318383,0.56446755,0.9920056,-0.061154593,-0.11038607,-0.105551556,-0.8815241,-0.46018922,-0.0691653,0.4681617,-0.8809318,,-0.028056797,0.14195107,-0.10118441,0.10146623,0.8843761,0.45561337,-0.46383563,0.44720763,-0.76476264,-0.88009155,-0.13373213,0.4555816,,-0.005994538,0.3313304,-0.32099068,-0.6121859,0.74502414,-0.26489133,-0.5198248,-0.6316383,-0.57516545,-0.59582764,-0.21441108,0.7739621,,1.2665359141056938,-0.6444775038197837,0.17827357854,-0.073181790276099,-0.025004479457075603,0.01606050314899532,-0.00016334406613427964,,-0.9491624839065633,-0.4149501600649571,0.19452257369,0.0052422485871131096,0.011067556481000676,-0.0006119399649322232,0.00669710671150545,,-0.15580336066396883,-0.3098526654296833,0.08023514044,0.08733188120527266
1.777312840014929,09:08:48.391537,09:08:47.265589,0,,0.040249947,-0.025792569,0.06484419,-0.21664065,-0.8713958,-0.4401546,-0.82581127,0.40403673,-0.39343357,0.52067494,0.278251,-0.8071394,,0.03761247,0.02300416,0.052688926,0.52550536,-0.77082783,0.36009514,-0.8015052,-0.59049696,-0.0943535,0.2853653,-0.23903495,-0.92813194,,0.1772014,1.3318383,0.56446755,0.9920056,-0.061154593,-0.11038607,-0.105551556,-0.8815241,-0.46018922,-0.0691653,0.4681617,-0.8809318,,-0.02805773,0.14195058,-0.10118435,0.1014703,0.8843784,0.45560807,-0.46383318,0.44720522,-0.7647655,-0.8800924,-0.13372515,0.45558208,,-0.005993552,0.33132955,-0.32099098,-0.61218816,0.7450242,-0.26488605,-0.5198229,-0.6316357,-0.5751699,-0.59582704,-0.2144184,0.77396053,,1.2665281913728197,-0.6444775038197837,0.17827357854,-0.073181790276099,-0.025004479457075603,0.01606050314899532,-0.00016334406613427964,,-0.9491547611736891,-0.4149501600649571,0.19452257369,0.0052422485871131096,0.011067556481000676,-0.0006119399649322232,0.00669710671150545,,-0.15580336066396883,-0.3098526654296833,0.08023514044,0.08733188120527266
1.796122555009788,09:08:48.419434,09:08:47.265589,0,,0.040249947,-0.025792569,0.06484419,-0.21664065,-0.8713958,-0.4401546,-0.82581127,0.40403673,-0.39343357,0.52067494,0.278251,-0.8071394,,0.03761247,0.02300416,0.052688926,0.52550536,-0.77082783,0.36009514,-0.8015052,-0.59049696,-0.0943535,0.2853653,-0.23903495,-0.92813194,,0.1772014,1.3318383,0.56446755,0.9920056,-0.061154593,-0.11038607,-0.105551556,-0.8815241,-0.46018922,-0.0691653,0.4681617,-0.8809318,,-0.02805773,0.14195058,-0.10118435,0.1014703,0.8843784,0.45560807,-0.46383318,0.44720522,-0.7647655,-0.8800924,-0.13372515,0.45558208,,-0.005993552,0.33132955,-0.32099098,-0.61218816,0.7450242,-0.26488605,-0.5198229,-0.6316357,-0.5751699,-0.59582704,-0.2144184,0.77396053,,1.2665281913728197,-0.6444775038197837,0.17827357854,-0.073181790276099,-0.025004479457075603,0.01606050314899532,-0.00016334406613427964,,-0.9491547611736891,-0.4149501600649571,0.19452257369,0.0052422485871131096,0.011067556481000676,-0.0006119399649322232,0.00669710671150545,,-0.15580336066396883,-0.3098526654296833,0.08023514044,0.08733188120527266
1.824022385000717,09:08:48.442013,09:08:47.265589,0,,0.040249947,-0.025792569,0.06484419,-0.21664065,-0.8713958,-0.4401546,-0.82581127,0.40403673,-0.39343357,0.52067494,0.278251,-0.8071394,,0.03761247,0.02300416,0.052688926,0.52550536,-0.77082783,0.36009514,-0.8015052,-0.59049696,-0.0943535,0.2853653,-0.23903495,-0.92813194,,0.1772014,1.3318383,0.56446755,0.9920056,-0.061154593,-0.11038607,-0.105551556,-0.8815241,-0.46018922,-0.0691653,0.4681617,-0.8809318,,-0.02805773,0.14195058,-0.10118435,0.1014703,0.8843784,0.45560807,-0.46383318,0.44720522,-0.7647655,-0.8800924,-0.13372515,0.45558208,,-0.005993552,0.33132955,-0.32099098,-0.61218816,0.7450242,-0.26488605,-0.5198229,-0.6316357,-0.5751699,-0.59582704,-0.2144184,0.77396053,,1.2665281913728197,-0.6444775038197837,0.17827357854,-0.073181790276099,-0.025004479457075603,0.01606050314899532,-0.00016334406613427964,,-0.9491547611736891,-0.4149501600649571,0.19452257369,0.0052422485871131096,0.011067556481000676,-0.0006119399649322232,0.00669710671150545,,-0.15580336066396883,-0.3098526654296833,0.08023514044,0.08733188120527266
1.8466013260185719,09:08:48.467323,09:08:47.265589,0,,0.040249042,-0.025792077,0.06484443,-0.21663663,-0.8713942,-0.44015983,-0.8258134,0.40403515,-0.39343083,0.5206733,0.27825838,-0.80713797,,0.03761247,0.02300416,0.052688926,0.52550536,-0.77082783,0.36009514,-0.8015052,-0.59049696,-0.0943535,0.2853653,-0.23903495,-0.92813194,,0.1772014,1.3318383,0.56446755,0.9920056,-0.061154593,-0.11038607,-0.105551556,-0.8815241,-0.46018922,-0.0691653,0.4681617,-0.8809318,,-0.028056797,0.14195107,-0.10118441,0.10146623,0.8843761,0.45561337,-0.46383563,0.44720763,-0.76476264,-0.88009155,-0.13373213,0.4555816,,-0.005993552,0.33132955,-0.32099098,-0.61218816,0.7450242,-0.26488605,-0.5198229,-0.6316357,-0.5751699,-0.59582704,-0.2144184,0.77396053,,1.2665359141056938,-0.6444775038197837,0.17827357854,-0.073181790276099,-0.025004479457075603,0.01606050314899532,-0.00016334406613427964,,-0.9491547611736891,-0.4149501600649571,0.19452257369,0.0052422485871131096,0.011067556481000676,-0.0006119399649322232,0.00669710671150545,,-0.15580336066396883,-0.3098526654296833,0.08023514044,0.08733188120527266
1.8718957290111575,09:08:48.489752,09:08:47.265589,0,,0.040249947,-0.025792569,0.06484419,-0.21664065,-0.8713958,-0.4401546,-0.82581127,0.40403673,-0.39343357,0.52067494,0.278251,-0.8071394,,0.03761247,0.02300416,0.052688926,0.52550536,-0.77082783,0.36009514,-0.8015052,-0.59049696,-0.0943535,0.2853653,-0.23903495,-0.92813194,,0.1772014,1.3318383,0.56446755,0.9920056,-0.061154593,-0.11038607,-0.105551556,-0.8815241,-0.46018922,-0.0691653,0.4681617,-0.8809318,,-0.02805773,0.14195058,-0.10118435,0.1014703,0.8843784,0.45560807,-0.46383318,0.44720522,-0.7647655,-0.8800924,-0.13372515,0.45558208,,-0.005993552,0.33132955,-0.32099098,-0.61218816,0.7450242,-0.26488605,-0.5198229,-0.6316357,-0.5751699,-0.59582704,-0.2144184,0.77396053,,1.2665281913728197,-0.6444775038197837,0.17827357854,-0.073181790276099,-0.025004479457075603,0.01606050314899532,-0.00016334406613427964,,-0.9491547611736891,-0.4149501600649571,0.19452257369,0.0052422485871131096,0.011067556481000676,-0.0006119399649322232,0.00669710671150545,,-0.15580336066396883,-0.3098526654296833,0.08023514044,0.08733188120527266
1.8943127900129184,09:08:48.512537,09:08:47.411979,0,,0.040249042,-0.025792077,0.06484443,-0.21663663,-0.8713942,-0.44015983,-0.8258134,0.40403515,-0.39343083,0.5206733,0.27825838,-0.80713797,,0.038208388,0.025718272,0.047112197,0.52063686,-0.77556026,0.3569922,-0.8028421,-0.58698726,-0.10435751,0.29048523,-0.23227602,-0.9282596,,0.1772014,1.3318383,0.56446755,0.9920056,-0.061154593,-0.11038607,-0.105551556,-0.8815241,-0.46018922,-0.0691653,0.4681617,-0.8809318,,-0.028056797,0.14195107,-0.10118441,0.10146623,0.8843761,0.45561337,-0.46383563,0.44720763,-0.76476264,-0.88009155,-0.13373213,0.4555816,,-0.005994538,0.3313304,-0.32099068,-0.6121859,0.74502414,-0.26489133,-0.5198248,-0.6316383,-0.57516545,-0.59582764,-0.21441108,0.7739621,,1.2665359141056938,-0.6444775038197837,0.17827357854,-0.073181790276099,-0.025004479457075603,0.01606050314899532,-0.00016334406613427964,,-0.9491624839065633,-0.4149501600649571,0.19452257369,0.0052422485871131096,0.011067556481000676,-0.0006119399649322232,0.00669710671150545,,-0.15580336066396883,-0.3098526654296833,0.08023514044,0.08733188120527266
1.9171152080234606,09:08:48.538403,09:08:47.411979,0,,0.040534772,-0.022996388,0.05965486,-0.22103354,-0.867815,-0.44501808,-0.8200461,0.41236556,-0.39683613,0.52789044,0.27722132,-0.80279505,,0.03820736,0.025717527,0.0471119,0.5206393,-0.7755612,0.35698664,-0.80284035,-0.5869889,-0.10436171,0.290486,-0.23226853,-0.9282613,,0.1772014,1.3318383,0.56446755,0.9920056,-0.061154593,-0.11038607,-0.105551556,-0.8815241,-0.46018922,-0.0691653,0.4681617,-0.8809318,,-0.028056797,0.14195107,-0.10118441,0.10146623,0.8843761,0.45561337,-0.46383563,0.44720763,-0.76476264,-0.88009155,-0.13373213,0.4555816,,-0.005993552,0.33132955,-0.32099098,-0.61218816,0.7450242,-0.26488605,-0.5198229,-0.6316357,-0.5751699,-0.59582704,-0.2144184,0.77396053,,1.2665359141056938,-0.6444775038197837,0.17827357854,-0.073181790276099,-0.025004479457075603,0.01606050314899532,-0.00016334406613427964,,-0.9491547611736891,-0.4149501600649571,0.19452257369,0.0052422485871131096,0.011067556481000676,-0.0006119399649322232,0.00669710671150545,,-0.15580336066396883,-0.3098526654296833,0.08023514044,0.08733188120527266
1.9429910690232646,09:08:48.557998,09:08:47.411979,0,,0.04053568,-0.02299688,0.059654623,-0.22103754,-0.86781657,-0.44501293,-0.82004404,0.41236705,-0.39683893,0.5278922,0.27721393,-0.8027965,,0.03820812,0.025716335,0.047112346,0.52063656,-0.77556115,0.35699072,-0.8028395,-0.586989,-0.10436788,0.2904932,-0.23226859,-0.92825896,,0.1772014,1.3318383,0.56446755,0.9920056,-0.061154593,-0.11038607,-0.105551556,-0.8815241,-0.46018922,-0.0691653,0.4681617,-0.8809318,,-0.02805773,0.14195058,-0.10118435,0.1014703,0.8843784,0.45560807,-0.46383318,0.44720522,-0.7647655,-0.8800924,-0.13372515,0.45558208,,-0.0059944424,0.3313288,-0.32099184,-0.61218613,0.74502414,-0.26489082,-0.5198184,-0.6316358,-0.5751739,-0.595833,-0.21441837,0.77395594,,1.2665281913728197,-0.6444775038197837,0.17827357854,-0.073181790276099,-0.025004479457075603,0.01606050314899532,-0.00016334406613427964,,-0.9491547611736891,-0.41495788279783136,0.19452257369,0.0052422485871131096,0.011067556481000676,-0.0006119399649322232,0.00669710671150545,,-0.15580336066396883,-0.3098526654296833,0.08023514044,0.08733188120527266
1.9625604680040851,09:08:48.585220,09:08:47.411979,0,,0.040534772,-0.022996388,0.05965486,-0.22103354,-0.867815,-0.44501808,-0.8200461,0.41236556,-0.39683613,0.52789044,0.27722132,-0.80279505,,0.03820736,0.025717527,0.0471119,0.5206393,-0.7755612,0.35698664,-0.80284035,-0.5869889,-0.10436171,0.290486,-0.23226853,-0.9282613,,0.1772014,1.3318383,0.56446755,0.9920056,-0.061154593,-0.11038607,-0.105551556,-0.8815241,-0.46018922,-0.0691653,0.4681617,-0.8809318,,-0.028056797,0.14195107,-0.10118441,0.10146623,0.8843761,0.45561337,-0.46383563,0.44720763,-0.76476264,-0.88009155,-0.13373213,0.4555816,,-0.005993552,0.33132955,-0.32099098,-0.61218816,0.7450242,-0.26488605,-0.5198229,-0.6316357,-0.5751699,-0.59582704,-0.2144184,0.77396053,,1.2665359141056938,-0.6444775038197837,0.17827357854,-0.073181790276099,-0.025004479457075603,0.01606050314899532,-0.00016334406613427964,,-0.9491547611736891,-0.4149501600649571,0.19452257369,0.0052422485871131096,0.011067556481000676,-0.0006119399649322232,0.00669710671150545,,-0.15580336066396883,-0.3098526654296833,0.08023514044,0.08733188120527266
1.9897850150009617,09:08:48.609243,09:08:47.411979,0,,0.04053659,-0.022997372,0.059654385,-0.22104153,-0.86781824,-0.44500777,-0.8200419,0.4123686,-0.3968417,0.5278937,0.27720654,-0.8027979,,0.03820736,0.025717527,0.0471119,0.5206393,-0.7755612,0.35698664,-0.80284035,-0.5869889,-0.10436171,0.290486,-0.23226853,-0.9282613,,0.1772014,1.3318383,0.56446755,0.9920056,-0.061154593,-0.11038607,-0.105551556,-0.8815241,-0.46018922,-0.0691653,0.4681617,-0.8809318,,-0.028058663,0.14195009,-0.101184286,0.101474375,0.88438064,0.45560277,-0.46383077,0.44720283,-0.76476836,-0.88009316,-0.13371818,0.45558256,,-0.005993552,0.33132955,-0.32099098,-0.61218816,0.7450242,-0.26488605,-0.5198229,-0.6316357,-0.5751699,-0.59582704,-0.2144184,0.77396053,,1.2665204686399454,-0.6444775038197837,0.17827357854,-0.073181790276099,-0.025004479457075603,0.01606050314899532,-0.00016334406613427964,,-0.9491547611736891,-0.4149501600649571,0.19452257369,0.0052422485871131096,0.011067556481000676,-0.0006119399649322232,0.00669710671150545,,-0.15580336066396883,-0.3098526654296833,0.08023514044,0.08733188120527266
2.0138250710151624,09:08:48.633279,09:08:47.411979,0,,0.040534772,-0.022996388,0.05965486,-0.22103354,-0.867815,-0.44501808,-0.8200461,0.41236556,-0.39683613,0.52789044,0.27722132,-0.80279505,,0.038208388,0.025718272,0.047112197,0.52063686,-0.77556026,0.3569922,-0.8028421,-0.58698726,-0.10435751,0.29048523,-0.23227602,-0.9282596,,0.1772014,1.3318383,0.56446755,0.9920056,-0.061154593,-0.11038607,-0.105551556,-0.8815241,-0.46018922,-0.0691653,0.4681617,-0.8809318,,-0.028056797,0.14195107,-0.10118441,0.10146623,0.8843761,0.45561337,-0.46383563,0.44720763,-0.76476264,-0.88009155,-0.13373213,0.4555816,,-0.005994538,0.3313304,-0.32099068,-0.6121859,0.74502414,-0.26489133,-0.5198248,-0.6316383,-0.57516545,-0.59582764,-0.21441108,0.7739621,,1.2665359141056938,-0.6444775038197837,0.17827357854,-0.073181790276099,-0.025004479457075603,0.01606050314899532,-0.00016334406613427964,,-0.9491624839065633,-0.4149501600649571,0.19452257369,0.0052422485871131096,0.011067556481000676,-0.0006119399649322232,0.00669710671150545,,-0.15580336066396883,-0.3098526654296833,0.08023514044,0.08733188120527266
2.037832091009477,09:08:48.655016,09:08:47.411979,0,,0.040534772,-0.022996388,0.05965486,-0.22103354,-0.867815,-0.44501808,-0.8200461,0.41236556,-0.39683613,0.52789044,0.27722132,-0.80279505,,0.038208388,0.025718272,0.047112197,0.52063686,-0.77556026,0.3569922,-0.8028421,-0.58698726,-0.10435751,0.29048523,-0.23227602,-0.9282596,,0.1772014,1.3318383,0.56446755,0.9920056,-0.061154593,-0.11038607,-0.105551556,-0.8815241,-0.46018922,-0.0691653,0.4681617,-0.8809318,,-0.028056797,0.14195107,-0.10118441,0.10146623,0.8843761,0.45561337,-0.46383563,0.44720763,-0.76476264,-0.88009155,-0.13373213,0.4555816,,-0.005994538,0.3313304,-0.32099068,-0.6121859,0.74502414,-0.26489133,-0.5198248,-0.6316383,-0.57516545,-0.59582764,-0.21441108,0.7739621,,1.2665359141056938,-0.6444775038197837,0.17827357854,-0.073181790276099,-0.025004479457075603,0.01606050314899532,-0.00016334406613427964,,-0.9491624839065633,-0.4149501600649571,0.19452257369,0.0052422485871131096,0.011067556481000676,-0.0006119399649322232,0.00669710671150545,,-0.15580336066396883,-0.3098526654296833,0.08023514044,0.08733188120527266
2.059604936017422,09:08:48.683650,09:08:47.562786,0,,0.068963766,0.024085343,0.05151318,0.2745139,-0.6759556,-0.68390524,-0.0015955269,0.7109072,-0.703284,0.9615818,0.19415247,0.19407547,,0.049354866,0.043188214,0.009249374,0.76605046,-0.6251397,-0.14955619,-0.39752322,-0.27791712,-0.87449265,0.5051158,0.72935754,-0.46140605,,0.1772014,1.3318383,0.56446755,0.9920056,-0.061154593,-0.11038607,-0.105551556,-0.8815241,-0.46018922,-0.0691653,0.4681617,-0.8809318,,-0.028056797,0.14195107,-0.10118441,0.10146623,0.8843761,0.45561337,-0.46383563,0.44720763,-0.76476264,-0.88009155,-0.13373213,0.4555816,,-0.0059944424,0.3313288,-0.32099184,-0.61218613,0.74502414,-0.26489082,-0.5198184,-0.6316358,-0.5751739,-0.595833,-0.21441837,0.77395594,,1.2665359141056938,-0.6444775038197837,0.17827357854,-0.073181790276099,-0.025004479457075603,0.01606050314899532,-0.00016334406613427964,,-0.9491547611736891,-0.41495788279783136,0.19452257369,0.0052422485871131096,0.011067556481000676,-0.0006119399649322232,0.00669710671150545,,-0.15580336066396883,-0.3098526654296833,0.08023514044,0.08733188120527266
2.0881974320218433,09:08:48.708387,09:08:47.562786,0,,0.068963766,0.024085343,0.05151318,0.2745139,-0.6759556,-0.68390524,-0.0015955269,0.7109072,-0.703284,0.9615818,0.19415247,0.19407547,,0.049354568,0.043189168,0.00924769,0.7660473,-0.6251432,-0.14955771,-0.39753082,-0.27792215,-0.87448764,0.50511444,0.7293527,-0.4614151,,0.1772014,1.3318383,0.56446755,0.9920056,-0.061154593,-0.11038607,-0.105551556,-0.8815241,-0.46018922,-0.0691653,0.4681617,-0.8809318,,-0.028056797,0.14195107,-0.10118441,0.10146623,0.8843761,0.45561337,-0.46383563,0.44720763,-0.76476264,-0.88009155,-0.13373213,0.4555816,,-0.005994538,0.3313304,-0.32099068,-0.6121859,0.74502414,-0.26489133,-0.5198248,-0.6316383,-0.57516545,-0.59582764,-0.21441108,0.7739621,,1.2665359141056938,-0.6444775038197837,0.17827357854,-0.073181790276099,-0.025004479457075603,0.01606050314899532,-0.00016334406613427964,,-0.9491624839065633,-0.4149501600649571,0.19452257369,0.0052422485871131096,0.011067556481000676,-0.0006119399649322232,0.00669710671150545,,-0.15580336066396883,-0.3098526654296833,0.08023514044,0.08733188120527266
2.1129735610156786,09:08:48.733387,09:08:47.562786,0,,0.068963766,0.024085343,0.05151318,0.2745139,-0.6759556,-0.68390524,-0.0015955269,0.7109072,-0.703284,0.9615818,0.19415247,0.19407547,,0.04935375,0.04318878,0.009248659,0.76604927,-0.6251398,-0.14956212,-0.39752996,-0.27791703,-0.8744896,0.5051123,0.7293576,-0.46140996,,0.1772014,1.3318383,0.56446755,0.9920056,-0.061154593,-0.11038607,-0.105551556,-0.8815241,-0.46018922,-0.0691653,0.4681617,-0.8809318,,-0.028056797,0.14195107,-0.10118441,0.10146623,0.8843761,0.45561337,-0.46383563,0.44720763,-0.76476264,-0.88009155,-0.13373213,0.4555816,,-0.005993552,0.33132955,-0.32099098,-0.61218816,0.7450242,-0.26488605,-0.5198229,-0.6316357,-0.5751699,-0.59582704,-0.2144184,0.77396053,,1.2665359141056938,-0.6444775038197837,0.17827357854,-0.073181790276099,-0.025004479457075603,0.01606050314899532,-0.00016334406613427964,,-0.9491547611736891,-0.4149501600649571,0.19452257369,0.0052422485871131096,0.011067556481000676,-0.0006119399649322232,0.00669710671150545,,-0.15580336066396883,-0.3098526654296833,0.08023514044,0.08733188120527266
2.1379262790142093,09:08:48.755548,09:08:47.562786,0,,0.068963766,0.024085343,0.05151318,0.2745139,-0.6759556,-0.68390524,-0.0015955269,0.7109072,-0.703284,0.9615818,0.19415247,0.19407547,,0.04935375,0.04318878,0.009248659,0.76604927,-0.6251398,-0.14956212,-0.39752996,-0.27791703,-0.8744896,0.5051123,0.7293576,-0.46140996,,0.1772014,1.3318383,0.56446755,0.9920056,-0.061154593,-0.11038607,-0.105551556,-0.8815241,-0.46018922,-0.0691653,0.4681617,-0.8809318,,-0.028056797,0.14195107,-0.10118441,0.10146623,0.8843761,0.45561337,-0.46383563,0.44720763,-0.76476264,-0.88009155,-0.13373213,0.4555816,,-0.005993552,0.33132955,-0.32099098,-0.61218816,0.7450242,-0.26488605,-0.5198229,-0.6316357,-0.5751699,-0.59582704,-0.2144184,0.77396053,,1.2665359141056938,-0.6444775038197837,0.17827357854,-0.073181790276099,-0.025004479457075603,0.01606050314899532,-0.00016334406613427964,,-0.9491547611736891,-0.4149501600649571,0.19452257369,0.0052422485871131096,0.011067556481000676,-0.0006119399649322232,0.00669710671150545,,-0.15580336066396883,-0.3098526654296833,0.08023514044,0.08733188120527266
2.160112398007186,09:08:48.782720,09:08:47.562786,0,,0.068963766,0.024085343,0.05151318,0.2745139,-0.6759556,-0.68390524,-0.0015955269,0.7109072,-0.703284,0.9615818,0.19415247,0.19407547,,0.049354568,0.043189168,0.00924769,0.7660473,-0.6251432,-0.14955771,-0.39753082,-0.27792215,-0.87448764,0.50511444,0.7293527,-0.4614151,,0.1772014,1.3318383,0.56446755,0.9920056,-0.061154593,-0.11038607,-0.105551556,-0.8815241,-0.46018922,-0.0691653,0.4681617,-0.8809318,,-0.028056797,0.14195107,-0.10118441,0.10146623,0.8843761,0.45561337,-0.46383563,0.44720763,-0.76476264,-0.88009155,-0.13373213,0.4555816,,-0.005994538,0.3313304,-0.32099068,-0.6121859,0.74502414,-0.26489133,-0.5198248,-0.6316383,-0.57516545,-0.59582764,-0.21441108,0.7739621,,1.2665359141056938,-0.6444775038197837,0.17827357854,-0.073181790276099,-0.025004479457075603,0.01606050314899532,-0.00016334406613427964,,-0.9491624839065633,-0.4149501600649571,0.19452257369,0.0052422485871131096,0.011067556481000676,-0.0006119399649322232,0.00669710671150545,,-0.15580336066396883,-0.3098526654296833,0.08023514044,0.08733188120527266
2.187281497026561,09:08:48.802882,09:08:47.562786,0,,0.068963766,0.024085343,0.05151318,0.2745139,-0.6759556,-0.68390524,-0.0015955269,0.7109072,-0.703284,0.9615818,0.19415247,0.19407547,,0.04935375,0.04318878,0.009248659,0.76604927,-0.6251398,-0.14956212,-0.39752996,-0.27791703,-0.8744896,0.5051123,0.7293576,-0.46140996,,0.1772014,1.3318383,0.56446755,0.9920056,-0.061154593,-0.11038607,-0.105551556,-0.8815241,-0.46018922,-0.0691653,0.4681617,-0.8809318,,-0.028056797,0.14195107,-0.10118441,0.10146623,0.8843761,0.45561337,-0.46383563,0.44720763,-0.76476264,-0.88009155,-0.13373213,0.4555816,,-0.005993552,0.33132955,-0.32099098,-0.61218816,0.7450242,-0.26488605,-0.5198229,-0.6316357,-0.5751699,-0.59582704,-0.2144184,0.77396053,,1.2665359141056938,-0.6444775038197837,0.17827357854,-0.073181790276099,-0.025004479457075603,0.01606050314899532,-0.00016334406613427964,,-0.9491547611736891,-0.4149501600649571,0.19452257369,0.0052422485871131096,0.011067556481000676,-0.0006119399649322232,0.00669710671150545,,-0.15580336066396883,-0.3098526654296833,0.08023514044,0.08733188120527266
2.207433187024435,09:08:48.824494,09:08:47.713177,0,,0.038739316,-0.025795452,0.0724131,-0.23301864,-0.8729767,-0.42850193,-0.7996694,0.42274794,-0.42639542,0.5533816,0.2433018,-0.79660094,,0.03672137,0.022417948,0.05801797,0.51366544,-0.7710997,0.37623546,-0.7915546,-0.59509045,-0.13895524,0.33104253,-0.22643436,-0.91604483,,0.1772014,1.3318383,0.56446755,0.9920056,-0.061154593,-0.11038607,-0.105551556,-0.8815241,-0.46018922,-0.0691653,0.4681617,-0.8809318,,-0.028057687,0.14195059,-0.10118435,0.1016572,0.88435465,0.45561236,-0.46374202,0.44730645,-0.76476157,-0.88011885,-0.13354307,0.45558435,,-0.005993552,0.33132955,-0.32099098,-0.61218816,0.7450242,-0.26488605,-0.5198229,-0.6316357,-0.5751699,-0.59582704,-0.2144184,0.77396053,,1.2665281913728197,-0.6444775038197837,0.17827357854,-0.07297210033261448,-0.025004479457075603,0.01606050314899532,-0.00016334406613427964,,-0.9491547611736891,-0.4149501600649571,0.19452257369,0.0052422485871131096,0.011067556481000676,-0.0006119399649322232,0.00669710671150545,,-0.15580336066396883,-0.3098526654296833,0.08023514044,0.08733188120527266
2.2290764750214294,09:08:48.848409,09:08:47.713177,0,,0.03873836,-0.02579493,0.072413325,-0.23319902,-0.8729242,-0.42851093,-0.7995844,0.4229165,-0.42638767,0.5534284,0.24319744,-0.7966002,,0.036722396,0.022418752,0.058018208,0.51366305,-0.77109855,0.37624094,-0.79155636,-0.5950891,-0.13895103,0.3310418,-0.22644193,-0.9160433,,0.1772014,1.3318383,0.56446755,0.9920056,-0.061154593,-0.11038607,-0.105551556,-0.8815241,-0.46018922,-0.0691653,0.4681617,-0.8809318,,-0.028056711,0.14195111,-0.10118443,0.10184001,0.8843287,0.45562196,-0.46365327,0.44741005,-0.76475483,-0.8801445,-0.13336797,0.45558614,,-0.005994538,0.3313304,-0.32099068,-0.6121859,0.74502414,-0.26489133,-0.5198248,-0.6316383,-0.57516545,-0.59582764,-0.21441108,0.7739621,,1.2665359141056938,-0.6444775038197837,0.17827357854,-0.07276241038912995,-0.025004479457075603,0.01606050314899532,-0.00016334406613427964,,-0.9491624839065633,-0.4149501600649571,0.19452257369,0.0052422485871131096,0.011067556481000676,-0.0006119399649322232,0.00669710671150545,,-0.15580336066396883,-0.3098526654296833,0.08023514044,0.08733188120527266
2.25299199501751,09:08:48.873543,09:08:47.713177,0,,0.03874018,-0.025795914,0.07241291,-0.23320708,-0.8729271,-0.42850053,-0.79958,0.42291903,-0.4263934,0.55343133,0.24318251,-0.7966027,,0.03672137,0.022417948,0.05801797,0.51366544,-0.7710997,0.37623546,-0.7915546,-0.59509045,-0.13895524,0.33104253,-0.22643436,-0.91604483,,0.1772014,1.3318383,0.56446755,0.9920056,-0.061154593,-0.11038607,-0.105551556,-0.8815241,-0.46018922,-0.0691653,0.4681617,-0.8809318,,-0.02805858,0.14195013,-0.10118429,0.10184816,0.8843332,0.45561135,-0.4636484,0.44740525,-0.76476055,-0.8801461,-0.13335402,0.4555871,,-0.005993552,0.33132955,-0.32099098,-0.61218816,0.7450242,-0.26488605,-0.5198229,-0.6316357,-0.5751699,-0.59582704,-0.2144184,0.77396053,,1.2665204686399454,-0.6444775038197837,0.17827357854,-0.07276241038912995,-0.025004479457075603,0.01606050314899532,-0.00016334406613427964,,-0.9491547611736891,-0.4149501600649571,0.19452257369,0.0052422485871131096,0.011067556481000676,-0.0006119399649322232,0.00669710671150545,,-0.15580336066396883,-0.3098526654296833,0.08023514044,0.08733188120527266
2.2781223080237396,09:08:48.898777,09:08:47.713177,0,,0.03873927,-0.025795422,0.07241312,-0.23320305,-0.87292564,-0.42850575,-0.7995821,0.42291775,-0.42639056,0.5534299,0.24318996,-0.79660153,,0.036722396,0.022418752,0.058018208,0.51366305,-0.77109855,0.37624094,-0.79155636,-0.5950891,-0.13895103,0.3310418,-0.22644193,-0.9160433,,0.1772014,1.3318383,0.56446755,0.9920056,-0.061154593,-0.11038607,-0.105551556,-0.8815241,-0.46018922,-0.0691653,0.4681617,-0.8809318,,-0.028057644,0.14195062,-0.10118436,0.10184409,0.8843309,0.45561665,-0.46365082,0.44740763,-0.7647577,-0.88014525,-0.133361,0.4555866,,-0.005994538,0.3313304,-0.32099068,-0.6121859,0.74502414,-0.26489133,-0.5198248,-0.6316383,-0.57516545,-0.59582764,-0.21441108,0.7739621,,1.2665281913728197,-0.6444775038197837,0.17827357854,-0.07276241038912995,-0.025004479457075603,0.01606050314899532,-0.00016334406613427964,,-0.9491624839065633,-0.4149501600649571,0.19452257369,0.0052422485871131096,0.011067556481000676,-0.0006119399649322232,0.00669710671150545,,-0.15580336066396883,-0.3098526654296833,0.08023514044,0.08733188120527266
2.3033587430254556,09:08:48.920972,09:08:47.713177,0,,0.03873836,-0.02579493,0.072413325,-0.23319902,-0.8729242,-0.42851093,-0.7995844,0.4229165,-0.42638767,0.5534284,0.24319744,-0.7966002,,0.036722396,0.022418752,0.058018208,0.51366305,-0.77109855,0.37624094,-0.79155636,-0.5950891,-0.13895103,0.3310418,-0.22644193,-0.9160433,,0.1772014,1.3318383,0.56446755,0.9920056,-0.061154593,-0.11038607,-0.105551556,-0.8815241,-0.46018922,-0.0691653,0.4681617,-0.8809318,,-0.028056711,0.14195111,-0.10118443,0.10184001,0.8843287,0.45562196,-0.46365327,0.44741005,-0.76475483,-0.8801445,-0.13336797,0.45558614,,-0.005994538,0.3313304,-0.32099068,-0.6121859,0.74502414,-0.26489133,-0.5198248,-0.6316383,-0.57516545,-0.59582764,-0.21441108,0.7739621,,1.2665359141056938,-0.6444775038197837,0.17827357854,-0.07276241038912995,-0.025004479457075603,0.01606050314899532,-0.00016334406613427964,,-0.9491624839065633,-0.4149501600649571,0.19452257369,0.0052422485871131096,0.011067556481000676,-0.0006119399649322232,0.00669710671150545,,-0.15580336066396883,-0.3098526654296833,0.08023514044,0.08733188120527266
2.3255339810275473,09:08:48.941360,09:08:47.713177,0,,0.03873836,-0.02579493,0.072413325,-0.23319902,-0.8729242,-0.42851093,-0.7995844,0.4229165,-0.42638767,0.5534284,0.24319744,-0.7966002,,0.03672137,0.022417948,0.05801797,0.51366544,-0.7710997,0.37623546,-0.7915546,-0.59509045,-0.13895524,0.33104253,-0.22643436,-0.91604483,,0.1772014,1.3318383,0.56446755,0.9920056,-0.061154593,-0.11038607,-0.105551556,-0.8815241,-0.46018922,-0.0691653,0.4681617,-0.8809318,,-0.028056711,0.14195111,-0.10118443,0.10184001,0.8843287,0.45562196,-0.46365327,0.44741005,-0.76475483,-0.8801445,-0.13336797,0.45558614,,-0.005993552,0.33132955,-0.32099098,-0.61218816,0.7450242,-0.26488605,-0.5198229,-0.6316357,-0.5751699,-0.59582704,-0.2144184,0.77396053,,1.2665359141056938,-0.6444775038197837,0.17827357854,-0.07276241038912995,-0.025004479457075603,0.01606050314899532,-0.00016334406613427964,,-0.9491547611736891,-0.4149501600649571,0.19452257369,0.0052422485871131096,0.011067556481000676,-0.0006119399649322232,0.00669710671150545,,-0.15580336066396883,-0.3098526654296833,0.08023514044,0.08733188120527266
2.3459480160090607,09:08:48.968504,09:08:47.864947,0,,0.04047269,-0.02224812,0.06277858,-0.21782488,-0.8708046,-0.44073996,-0.8055018,0.4153944,-0.4226278,0.5511071,0.26295805,-0.7919179,,0.037888926,0.02606684,0.048820376,0.5246685,-0.7715183,0.35983634,-0.7909416,-0.5981086,-0.1291408,0.31485566,-0.21685354,-0.92403483,,0.1772014,1.3318383,0.56446755,0.9920056,-0.061154593,-0.11038607,-0.105551556,-0.8815241,-0.46018922,-0.0691653,0.4681617,-0.8809318,,-0.028056711,0.14195111,-0.10118443,0.10184001,0.8843287,0.45562196,-0.46365327,0.44741005,-0.76475483,-0.8801445,-0.13336797,0.45558614,,-0.005994538,0.3313304,-0.32099068,-0.6121859,0.74502414,-0.26489133,-0.5198248,-0.6316383,-0.57516545,-0.59582764,-0.21441108,0.7739621,,1.2665359141056938,-0.6444775038197837,0.17827357854,-0.07276241038912995,-0.025004479457075603,0.01606050314899532,-0.00016334406613427964,,-0.9491624839065633,-0.4149501600649571,0.19452257369,0.0052422485871131096,0.011067556481000676,-0.0006119399649322232,0.00669710671150545,,-0.15580336066396883,-0.3098526654296833,0.08023514044,0.08733188120527266
2.3730410330172163,09:08:48.991414,09:08:47.864947,0,,0.04047269,-0.02224812,0.06277858,-0.21782488,-0.8708046,-0.44073996,-0.8055018,0.4153944,-0.4226278,0.5511071,0.26295805,-0.7919179,,0.037887905,0.026066035,0.04882011,0.52467084,-0.7715193,0.35983086,-0.7909398,-0.59811,-0.12914509,0.31485638,-0.216846,-0.9240364,,0.1772014,1.3318383,0.56446755,0.9920056,-0.061154593,-0.11038607,-0.105551556,-0.8815241,-0.46018922,-0.0691653,0.4681617,-0.8809318,,-0.028056711,0.14195111,-0.10118443,0.10184001,0.8843287,0.45562196,-0.46365327,0.44741005,-0.76475483,-0.8801445,-0.13336797,0.45558614,,-0.005993552,0.33132955,-0.32099098,-0.61218816,0.7450242,-0.26488605,-0.5198229,-0.6316357,-0.5751699,-0.59582704,-0.2144184,0.77396053,,1.2665359141056938,-0.6444775038197837,0.17827357854,-0.07276241038912995,-0.025004479457075603,0.01606050314899532,-0.00016334406613427964,,-0.9491547611736891,-0.4149501600649571,0.19452257369,0.0052422485871131096,0.011067556481000676,-0.0006119399649322232,0.00669710671150545,,-0.15580336066396883,-0.3098526654296833,0.08023514044,0.08733188120527266
2.3959798680152744,09:08:49.016992,09:08:47.864947,0,,0.04047269,-0.02224812,0.06277858,-0.21782488,-0.8708046,-0.44073996,-0.8055018,0.4153944,-0.4226278,0.5511071,0.26295805,-0.7919179,,0.03788867,0.026064888,0.048820585,0.5246681,-0.77151924,0.35983497,-0.7909388,-0.59811,-0.12915114,0.3148635,-0.21684606,-0.92403394,,0.1772014,1.3318383,0.56446755,0.9920056,-0.061154593,-0.11038607,-0.105551556,-0.8815241,-0.46018922,-0.0691653,0.4681617,-0.8809318,,-0.028056711,0.14195111,-0.10118443,0.10184001,0.8843287,0.45562196,-0.46365327,0.44741005,-0.76475483,-0.8801445,-0.13336797,0.45558614,,-0.0059944424,0.3313288,-0.32099184,-0.61218613,0.74502414,-0.26489082,-0.5198184,-0.6316358,-0.5751739,-0.595833,-0.21441837,0.77395594,,1.2665359141056938,-0.6444775038197837,0.17827357854,-0.07276241038912995,-0.025004479457075603,0.01606050314899532,-0.00016334406613427964,,-0.9491547611736891,-0.41495788279783136,0.19452257369,0.0052422485871131096,0.011067556481000676,-0.0006119399649322232,0.00669710671150545,,-0.15580336066396883,-0.3098526654296833,0.08023514044,0.08733188120527266
2.4215755840123165,09:08:49.038681,09:08:47.864947,0,,0.040473603,-0.022248596,0.06277835,-0.2178289,-0.8708061,-0.4407348,-0.8054997,0.4153957,-0.42263064,0.55110866,0.2629506,-0.7919193,,0.037887905,0.026066035,0.04882011,0.52467084,-0.7715193,0.35983086,-0.7909398,-0.59811,-0.12914509,0.31485638,-0.216846,-0.9240364,,0.1772014,1.3318383,0.56446755,0.9920056,-0.061154593,-0.11038607,-0.105551556,-0.8815241,-0.46018922,-0.0691653,0.4681617,-0.8809318,,-0.028057644,0.14195062,-0.10118436,0.10184409,0.8843309,0.45561665,-0.46365082,0.44740763,-0.7647577,-0.88014525,-0.133361,0.4555866,,-0.005993552,0.33132955,-0.32099098,-0.61218816,0.7450242,-0.26488605,-0.5198229,-0.6316357,-0.5751699,-0.59582704,-0.2144184,0.77396053,,1.2665281913728197,-0.6444775038197837,0.17827357854,-0.07276241038912995,-0.025004479457075603,0.01606050314899532,-0.00016334406613427964,,-0.9491547611736891,-0.4149501600649571,0.19452257369,0.0052422485871131096,0.011067556481000676,-0.0006119399649322232,0.00669710671150545,,-0.15580336066396883,-0.3098526654296833,0.08023514044,0.08733188120527266
2.4432465020217933,09:08:49.059448,09:08:47.864947,0,,0.04047269,-0.02224812,0.06277858,-0.21782488,-0.8708046,-0.44073996,-0.8055018,0.4153944,-0.4226278,0.5511071,0.26295805,-0.7919179,,0.037887905,0.026066035,0.04882011,0.52467084,-0.7715193,0.35983086,-0.7909398,-0.59811,-0.12914509,0.31485638,-0.216846,-0.9240364,,0.1772014,1.3318383,0.56446755,0.9920056,-0.061154593,-0.11038607,-0.105551556,-0.8815241,-0.46018922,-0.0691653,0.4681617,-0.8809318,,-0.028056711,0.14195111,-0.10118443,0.10184001,0.8843287,0.45562196,-0.46365327,0.44741005,-0.76475483,-0.8801445,-0.13336797,0.45558614,,-0.005993552,0.33132955,-0.32099098,-0.61218816,0.7450242,-0.26488605,-0.5198229,-0.6316357,-0.5751699,-0.59582704,-0.2144184,0.77396053,,1.2665359141056938,-0.6444775038197837,0.17827357854,-0.07276241038912995,-0.025004479457075603,0.01606050314899532,-0.00016334406613427964,,-0.9491547611736891,-0.4149501600649571,0.19452257369,0.0052422485871131096,0.011067556481000676,-0.0006119399649322232,0.00669710671150545,,-0.15580336066396883,-0.3098526654296833,0.08023514044,0.08733188120527266
2.464035106007941,09:08:49.087245,09:08:47.864947,0,,0.04047269,-0.02224812,0.06277858,-0.21782488,-0.8708046,-0.44073996,-0.8055018,0.4153944,-0.4226278,0.5511071,0.26295805,-0.7919179,,0.037887905,0.026066035,0.04882011,0.52467084,-0.7715193,0.35983086,-0.7909398,-0.59811,-0.12914509,0.31485638,-0.216846,-0.9240364,,0.1772014,1.3318383,0.56446755,0.9920056,-0.061154593,-0.11038607,-0.105551556,-0.8815241,-0.46018922,-0.0691653,0.4681617,-0.8809318,,-0.028056711,0.14195111,-0.10118443,0.10184001,0.8843287,0.45562196,-0.46365327,0.44741005,-0.76475483,-0.8801445,-0.13336797,0.45558614,,-0.005993552,0.33132955,-0.32099098,-0.61218816,0.7450242,-0.26488605,-0.5198229,-0.6316357,-0.5751699,-0.59582704,-0.2144184,0.77396053,,1.2665359141056938,-0.6444775038197837,0.17827357854,-0.07276241038912995,-0.025004479457075603,0.01606050314899532,-0.00016334406613427964,,-0.9491547611736891,-0.4149501600649571,0.19452257369,0.0052422485871131096,0.011067556481000676,-0.0006119399649322232,0.00669710671150545,,-0.15580336066396883,-0.3098526654296833,0.08023514044,0.08733188120527266
2.4918264760053717,09:08:49.108716,09:08:47.864947,0,,0.04047269,-0.02224812,0.06277858,-0.21782488,-0.8708046,-0.44073996,-0.8055018,0.4153944,-0.4226278,0.5511071,0.26295805,-0.7919179,,0.03788867,0.026064888,0.048820585,0.5246681,-0.77151924,0.35983497,-0.7909388,-0.59811,-0.12915114,0.3148635,-0.21684606,-0.92403394,,0.1772014,1.3318383,0.56446755,0.9920056,-0.061154593,-0.11038607,-0.105551556,-0.8815241,-0.46018922,-0.0691653,0.4681617,-0.8809318,,-0.028056711,0.14195111,-0.10118443,0.10184001,0.8843287,0.45562196,-0.46365327,0.44741005,-0.76475483,-0.8801445,-0.13336797,0.45558614,,-0.0059944424,0.3313288,-0.32099184,-0.61218613,0.74502414,-0.26489082,-0.5198184,-0.6316358,-0.5751739,-0.595833,-0.21441837,0.77395594,,1.2665359141056938,-0.6444775038197837,0.17827357854,-0.07276241038912995,-0.025004479457075603,0.01606050314899532,-0.00016334406613427964,,-0.9491547611736891,-0.41495788279783136,0.19452257369,0.0052422485871131096,0.011067556481000676,-0.0006119399649322232,0.00669710671150545,,-0.15580336066396883,-0.3098526654296833,0.08023514044,0.08733188120527266
2.5132654430053663,09:08:49.131104,09:08:48.023546,0,,0.042028062,-0.022146486,0.058558807,-0.1927529,-0.86747783,-0.45861623,-0.822697,0.39760476,-0.40630072,0.5348046,0.2989865,-0.79031074,,0.038497865,0.0264934,0.04600969,0.5424074,-0.77067125,0.33445513,-0.7928025,-0.60126394,-0.09972903,0.27795416,-0.21106307,-0.93711996,,0.1772014,1.3318383,0.56446755,0.9920056,-0.061154593,-0.11038607,-0.105551556,-0.8815241,-0.46018922,-0.0691653,0.4681617,-0.8809318,,-0.028056711,0.14195111,-0.10118443,0.10184001,0.8843287,0.45562196,-0.46365327,0.44741005,-0.76475483,-0.8801445,-0.13336797,0.45558614,,-0.005993552,0.33132955,-0.32099098,-0.61218816,0.7450242,-0.26488605,-0.5198229,-0.6316357,-0.5751699,-0.59582704,-0.2144184,0.77396053,,1.2665359141056938,-0.6444775038197837,0.17827357854,-0.07276241038912995,-0.025004479457075603,0.01606050314899532,-0.00016334406613427964,,-0.9491547611736891,-0.4149501600649571,0.19452257369,0.0052422485871131096,0.011067556481000676,-0.0006119399649322232,0.00669710671150545,,-0.15580336066396883,-0.3098526654296833,0.08023514044,0.08733188120527266
