AlexandreBanks6/ExpertPlaybackApp/resources/Motions/PC1/Data_PC1_40.csv
Task Time,PC1 Time,PC2 Time,Gaze Calib,s_T_psm1,Tx,Ty,Tz,R00,R01,R02,R10,R11,R12,R20,R21,R22,s_T_psm3,Tx,Ty,Tz,R00,R01,R02,R10,R11,R12,R20,R21,R22,cart_T_ecm,Tx,Ty,Tz,R00,R01,R02,R10,R11,R12,R20,R21,R22,ecm_T_psm1,Tx,Ty,Tz,R00,R01,R02,R10,R11,R12,R20,R21,R22,ecm_T_psm3,Tx,Ty,Tz,R00,R01,R02,R10,R11,R12,R20,R21,R22,psm1_joints,q1,q2,q3,q4,q5,q6,jaw,psm3_joints,q1,q2,q3,q4,q5,q6,jaw,ecm_joints,q1,q2,q3,q4,ecmi_T_ecm,Tx,Ty,Tz,R00,R01,R02,R10,R11,R12,R20,R21,R22,Sample #,Task Duration (s),Collisions (binary),Collisions (increments),Cumulative Collision Time (s),Clutch Press,MTMR Angle,MTML Angle
""
lci_T_si,,,,,-0.06911255,0.020764593,0.26076955,0.9953428,0.0400677,0.08767717,0.08684432,-0.7674894,-0.63515204,0.041842222,0.6398083,-0.76739466
rci_T_si,,,,,-0.07835912,0.026536781,0.2722765,0.9955334,0.015615062,0.093109466,0.07183176,-0.76526916,-0.63969004,0.061265003,0.643521,-0.76297265
ecm_T_lc,,,,,-4.4061628e-05,-0.00034663224,-0.01840835,-0.99912,0.030754527,0.028518902,-0.031987965,-0.99852574,-0.043852776,0.027128186,-0.04472645,0.9986309
ecm_T_rc,,,,,-0.0043358393,0.01870579,-0.007592615,-0.99555075,-0.052743673,-0.078081585,0.04863213,-0.9973746,0.053654674,-0.08070653,0.04961868,0.9955021
cart_T_ecmi,,,,,0.08746113,1.3322496,0.46482307,0.99604315,0.0028804142,-0.08882411,-0.053876545,-0.77529705,-0.6292947,-0.0706777,0.63159025,-0.7720741
ecmac_T_ecmrep_psm1,,,,,0.08626859,-0.2052861,-0.33370098,0.999004,0.025128257,0.036871605,-0.023534218,0.9987958,-0.04304718,-0.037908904,0.04213656,0.9983924
ecmac_T_ecmrep_psm3,,,,,-0.16209933,-0.49188918,-0.56672233,0.99379694,-0.09876928,0.05111077,0.087427974,0.9779163,0.18983154,-0.068731576,-0.18418549,0.98048544
""
0,11:41:12.363576,NaN,0,,0.006901576,0.011689052,0.07086143,-0.6355138,-0.16671067,-0.7538763,-0.48191857,0.84850484,0.21861818,0.60322183,0.5022419,-0.61957765,,0.15386619,-0.034196086,0.04610187,-0.6250714,-0.17871734,0.7598328,0.22238755,0.8923187,0.3928246,-0.7482176,0.41452065,-0.51801836,,0.08740197,1.3322527,0.4648253,0.9960462,0.0029235356,-0.088789105,-0.053821146,-0.77529687,-0.62929964,-0.0706777,0.63159025,-0.7720741,,-0.048753522,0.24907866,-0.12538335,0.606222,0.07968067,0.7912938,0.07413604,0.9849741,-0.15598036,-0.7918325,0.15322211,0.5912057,,0.044859175,0.4316182,-0.3737847,0.6925343,-0.018343475,-0.72115165,-0.32440275,0.88497466,-0.33404005,0.64432836,0.4652778,0.60692465,,0.8265332085967524,-0.35657402226869406,0.16341420627000003,0.6385058779103767,-0.24266642358342222,0.5033566850905471,0.8722573131570512,,-0.6686110440517353,-0.5506617448637044,0.14974482822000001,2.137369593937757,0.35785099288568856,0.6492989541186304,0.8755241944797366,,-0.06956664232292899,-0.09922196797587764,0.1150502548,-0.034016912529394594,,-5.924329e-05,-1.1324883e-06,1.5497208e-06,1.0,4.2937696e-05,3.5129488e-05,-4.2945147e-05,1.0,3.9041042e-06,-3.5133213e-05,-3.9339066e-06,1.0,2,0.006,0,0,0.0,False,1.0467209092611154,1.049708108161845
0.022998573000222677,11:41:12.388160,NaN,0,,0.006899844,0.011695065,0.07086408,-0.6355215,-0.16670534,-0.7538711,-0.48191515,0.8485043,0.21862788,0.6032165,0.5022446,-0.6195806,,0.15378615,-0.034201816,0.046100616,-0.62506706,-0.17861456,0.7598606,0.2224558,0.8923353,0.39274827,-0.7482009,0.41452935,-0.51803553,,0.08749199,1.3322484,0.4648289,0.9960404,0.002840842,-0.08885623,-0.053927384,-0.77529716,-0.62929016,-0.0706777,0.63159025,-0.7720741,,-0.0488299,0.24908234,-0.12537201,0.60618263,0.07976657,0.7913153,0.07408017,0.9849695,-0.1560361,-0.79186785,0.15320715,0.59116226,,0.044859175,0.4316182,-0.3737847,0.6925343,-0.018343475,-0.72115165,-0.32440275,0.88497466,-0.33404005,0.64432836,0.4652778,0.60692465,,0.8265332085967524,-0.35657402226869406,0.16341420627000003,0.6385058779103767,-0.24266642358342222,0.5033566850905471,0.8722573131570512,,-0.6686110440517353,-0.5506617448637044,0.14974482822000001,2.137369593937757,0.35785099288568856,0.6492989541186304,0.8755241944797366,,-0.06956664232292899,-0.09922196797587764,0.1150502548,-0.034016912529394594,,3.0394644e-05,4.708767e-06,-6.556511e-06,1.0,-3.941357e-05,-3.2234937e-05,3.940612e-05,1.0,-3.606081e-06,3.2234937e-05,3.5762787e-06,1.0,10,0.029,0,0,0.0,False,1.046244287512947,1.0499012289649627
0.047634511000069324,11:41:12.415442,NaN,0,,0.0068988735,0.011695497,0.07086444,-0.635517,-0.16670246,-0.75387555,-0.48191762,0.84850246,0.21862936,0.6032194,0.5022485,-0.61957467,,0.15390387,-0.03416182,0.046113253,-0.62508804,-0.17876764,0.7598073,0.22235498,0.8923061,0.3928718,-0.7482134,0.41452634,-0.51801986,,0.08749199,1.3322484,0.4648289,0.9960404,0.002840842,-0.08885623,-0.053927384,-0.77529716,-0.62929016,-0.0706777,0.63159025,-0.7720741,,-0.04882899,0.24908301,-0.12537208,0.606178,0.07976349,0.79131913,0.07407965,0.98497033,-0.15603076,-0.7918715,0.15320306,0.5911585,,0.044736348,0.43162692,-0.37376332,0.69257134,-0.01818909,-0.72112006,-0.3244673,0.8849871,-0.3339442,0.6442561,0.46526006,0.60701495,,0.8265409313296266,-0.35657402226869406,0.16341420627000003,0.6385058779103767,-0.24266642358342222,0.5033566850905471,0.8722573131570512,,-0.6686110440517353,-0.5506617448637044,0.14974482822000001,2.137369593937757,0.35785099288568856,0.6492989541186304,0.8755241944797366,,-0.06956664232292899,-0.09922196797587764,0.1150502548,-0.034016912529394594,,3.0394644e-05,4.708767e-06,-6.556511e-06,1.0,-3.941357e-05,-3.2234937e-05,3.940612e-05,1.0,-3.606081e-06,3.2234937e-05,3.5762787e-06,1.0,21,0.062,0,0,0.0,False,1.0470783755722417,1.0496115477602863
0.07488551099959295,11:41:12.443482,NaN,0,,0.006899844,0.011695065,0.07086408,-0.6355215,-0.16670534,-0.7538711,-0.48191515,0.8485043,0.21862788,0.6032165,0.5022446,-0.6195806,,0.15390387,-0.03416182,0.046113253,-0.62508804,-0.17876764,0.7598073,0.22235498,0.8923061,0.3928718,-0.7482134,0.41452634,-0.51801986,,0.08749199,1.3322484,0.4648289,0.9960404,0.002840842,-0.08885623,-0.053927384,-0.77529716,-0.62929016,-0.0706777,0.63159025,-0.7720741,,-0.0488299,0.24908234,-0.12537201,0.60618263,0.07976657,0.7913153,0.07408017,0.9849695,-0.1560361,-0.79186785,0.15320715,0.59116226,,0.044736348,0.43162692,-0.37376332,0.69257134,-0.01818909,-0.72112006,-0.3244673,0.8849871,-0.3339442,0.6442561,0.46526006,0.60701495,,0.8265332085967524,-0.35657402226869406,0.16341420627000003,0.6385058779103767,-0.24266642358342222,0.5033566850905471,0.8722573131570512,,-0.6686110440517353,-0.5506617448637044,0.14974482822000001,2.137369593937757,0.35785099288568856,0.6492989541186304,0.8755241944797366,,-0.06956664232292899,-0.09922196797587764,0.1150502548,-0.034016912529394594,,3.0394644e-05,4.708767e-06,-6.556511e-06,1.0,-3.941357e-05,-3.2234937e-05,3.940612e-05,1.0,-3.606081e-06,3.2234937e-05,3.5762787e-06,1.0,28,0.084,0,0,0.0,False,1.0471379532907625,1.05014262996886
0.10294527199948789,11:41:12.467120,11:40:54.455948,0,,0.006899844,0.011695065,0.07086408,-0.6355215,-0.16670534,-0.7538711,-0.48191515,0.8485043,0.21862788,0.6032165,0.5022446,-0.6195806,,0.15390387,-0.03416182,0.046113253,-0.62508804,-0.17876764,0.7598073,0.22235498,0.8923061,0.3928718,-0.7482134,0.41452634,-0.51801986,,0.08749199,1.3322484,0.4648289,0.9960404,0.002840842,-0.08885623,-0.053927384,-0.77529716,-0.62929016,-0.0706777,0.63159025,-0.7720741,,-0.0488299,0.24908234,-0.12537201,0.60618263,0.07976657,0.7913153,0.07408017,0.9849695,-0.1560361,-0.79186785,0.15320715,0.59116226,,0.044736348,0.43162692,-0.37376332,0.69257134,-0.01818909,-0.72112006,-0.3244673,0.8849871,-0.3339442,0.6442561,0.46526006,0.60701495,,0.8265332085967524,-0.35657402226869406,0.16341420627000003,0.6385058779103767,-0.24266642358342222,0.5033566850905471,0.8722573131570512,,-0.6686110440517353,-0.5506617448637044,0.14974482822000001,2.137369593937757,0.35785099288568856,0.6492989541186304,0.8755241944797366,,-0.06956664232292899,-0.09922196797587764,0.1150502548,-0.034016912529394594,,3.0394644e-05,4.708767e-06,-6.556511e-06,1.0,-3.941357e-05,-3.2234937e-05,3.940612e-05,1.0,-3.606081e-06,3.2234937e-05,3.5762787e-06,1.0,36,0.107,0,0,0.0,False,1.0466613315425946,1.049804668563404
0.12656658900050388,11:41:12.491027,11:40:54.455948,0,,0.006899844,0.011695065,0.07086408,-0.6355215,-0.16670534,-0.7538711,-0.48191515,0.8485043,0.21862788,0.6032165,0.5022446,-0.6195806,,0.15390387,-0.03416182,0.046113253,-0.62508804,-0.17876764,0.7598073,0.22235498,0.8923061,0.3928718,-0.7482134,0.41452634,-0.51801986,,0.08749199,1.3322484,0.4648289,0.9960404,0.002840842,-0.08885623,-0.053927384,-0.77529716,-0.62929016,-0.0706777,0.63159025,-0.7720741,,-0.0488299,0.24908234,-0.12537201,0.60618263,0.07976657,0.7913153,0.07408017,0.9849695,-0.1560361,-0.79186785,0.15320715,0.59116226,,0.044736348,0.43162692,-0.37376332,0.69257134,-0.01818909,-0.72112006,-0.3244673,0.8849871,-0.3339442,0.6442561,0.46526006,0.60701495,,0.8265332085967524,-0.35657402226869406,0.16341420627000003,0.6385058779103767,-0.24266642358342222,0.5033566850905471,0.8722573131570512,,-0.6686110440517353,-0.5506617448637044,0.14974482822000001,2.137369593937757,0.35785099288568856,0.6492989541186304,0.8755241944797366,,-0.06956664232292899,-0.09922196797587764,0.1150502548,-0.034016912529394594,,3.0394644e-05,4.708767e-06,-6.556511e-06,1.0,-3.941357e-05,-3.2234937e-05,3.940612e-05,1.0,-3.606081e-06,3.2234937e-05,3.5762787e-06,1.0,44,0.132,0,0,0.0,False,1.0470783755722417,1.0499495091657423
0.1504813869996724,11:41:12.518579,11:40:54.455948,0,,0.006899844,0.011695065,0.07086408,-0.6355215,-0.16670534,-0.7538711,-0.48191515,0.8485043,0.21862788,0.6032165,0.5022446,-0.6195806,,0.15390387,-0.03416182,0.046113253,-0.62508804,-0.17876764,0.7598073,0.22235498,0.8923061,0.3928718,-0.7482134,0.41452634,-0.51801986,,0.08749199,1.3322484,0.4648289,0.9960404,0.002840842,-0.08885623,-0.053927384,-0.77529716,-0.62929016,-0.0706777,0.63159025,-0.7720741,,-0.0488299,0.24908234,-0.12537201,0.60618263,0.07976657,0.7913153,0.07408017,0.9849695,-0.1560361,-0.79186785,0.15320715,0.59116226,,0.044736348,0.43162692,-0.37376332,0.69257134,-0.01818909,-0.72112006,-0.3244673,0.8849871,-0.3339442,0.6442561,0.46526006,0.60701495,,0.8265332085967524,-0.35657402226869406,0.16341420627000003,0.6385058779103767,-0.24266642358342222,0.5033566850905471,0.8722573131570512,,-0.6686110440517353,-0.5506617448637044,0.14974482822000001,2.137369593937757,0.35785099288568856,0.6492989541186304,0.8755241944797366,,-0.06956664232292899,-0.09922196797587764,0.1150502548,-0.034016912529394594,,3.0394644e-05,4.708767e-06,-6.556511e-06,1.0,-3.941357e-05,-3.2234937e-05,3.940612e-05,1.0,-3.606081e-06,3.2234937e-05,3.5762787e-06,1.0,52,0.155,0,0,0.0,False,1.0467804869796362,1.0499495091657423
0.17804334900029062,11:41:12.541872,11:40:54.455948,0,,0.0068988735,0.011695497,0.07086444,-0.635517,-0.16670246,-0.75387555,-0.48191762,0.84850246,0.21862936,0.6032194,0.5022485,-0.61957467,,0.15390387,-0.03416182,0.046113253,-0.62508804,-0.17876764,0.7598073,0.22235498,0.8923061,0.3928718,-0.7482134,0.41452634,-0.51801986,,0.08749199,1.3322484,0.4648289,0.9960404,0.002840842,-0.08885623,-0.053927384,-0.77529716,-0.62929016,-0.0706777,0.63159025,-0.7720741,,-0.04882899,0.24908301,-0.12537208,0.606178,0.07976349,0.79131913,0.07407965,0.98497033,-0.15603076,-0.7918715,0.15320306,0.5911585,,0.044736348,0.43162692,-0.37376332,0.69257134,-0.01818909,-0.72112006,-0.3244673,0.8849871,-0.3339442,0.6442561,0.46526006,0.60701495,,0.8265409313296266,-0.35657402226869406,0.16341420627000003,0.6385058779103767,-0.24266642358342222,0.5033566850905471,0.8722573131570512,,-0.6686110440517353,-0.5506617448637044,0.14974482822000001,2.137369593937757,0.35785099288568856,0.6492989541186304,0.8755241944797366,,-0.06956664232292899,-0.09922196797587764,0.1150502548,-0.034016912529394594,,3.0394644e-05,4.708767e-06,-6.556511e-06,1.0,-3.941357e-05,-3.2234937e-05,3.940612e-05,1.0,-3.606081e-06,3.2234937e-05,3.5762787e-06,1.0,59,0.177,0,0,0.0,False,1.0467209092611154,1.0500943497680806
0.2012782479996531,11:41:12.565430,11:40:54.455948,0,,0.006899844,0.011695065,0.07086408,-0.6355215,-0.16670534,-0.7538711,-0.48191515,0.8485043,0.21862788,0.6032165,0.5022446,-0.6195806,,0.15390387,-0.03416182,0.046113253,-0.62508804,-0.17876764,0.7598073,0.22235498,0.8923061,0.3928718,-0.7482134,0.41452634,-0.51801986,,0.08749199,1.3322484,0.4648289,0.9960404,0.002840842,-0.08885623,-0.053927384,-0.77529716,-0.62929016,-0.0706777,0.63159025,-0.7720741,,-0.0488299,0.24908234,-0.12537201,0.60618263,0.07976657,0.7913153,0.07408017,0.9849695,-0.1560361,-0.79186785,0.15320715,0.59116226,,0.044736348,0.43162692,-0.37376332,0.69257134,-0.01818909,-0.72112006,-0.3244673,0.8849871,-0.3339442,0.6442561,0.46526006,0.60701495,,0.8265332085967524,-0.35657402226869406,0.16341420627000003,0.6385058779103767,-0.24266642358342222,0.5033566850905471,0.8722573131570512,,-0.6686110440517353,-0.5506617448637044,0.14974482822000001,2.137369593937757,0.35785099288568856,0.6492989541186304,0.8755241944797366,,-0.06956664232292899,-0.09922196797587764,0.1150502548,-0.034016912529394594,,3.0394644e-05,4.708767e-06,-6.556511e-06,1.0,-3.941357e-05,-3.2234937e-05,3.940612e-05,1.0,-3.606081e-06,3.2234937e-05,3.5762787e-06,1.0,67,0.201,0,0,0.0,False,1.0468400646981575,1.049804668563404
0.22490183700028865,11:41:12.586148,11:40:54.455948,0,,0.0068996074,0.0116954595,0.07086411,-0.63562524,-0.16655403,-0.753817,-0.48174235,0.84857917,0.21871796,0.60324526,0.5021683,-0.6196146,,0.15390387,-0.03416182,0.046113253,-0.62508804,-0.17876764,0.7598073,0.22235498,0.8923061,0.3928718,-0.7482134,0.41452634,-0.51801986,,0.08749199,1.3322484,0.4648289,0.9960404,0.002840842,-0.08885623,-0.053927384,-0.77529716,-0.62929016,-0.0706777,0.63159025,-0.7720741,,-0.04882969,0.2490827,-0.12537181,0.60627455,0.07961861,0.79125977,0.074240476,0.98496413,-0.15599374,-0.7917825,0.15331854,0.59124774,,0.044736348,0.43162692,-0.37376332,0.69257134,-0.01818909,-0.72112006,-0.3244673,0.8849871,-0.3339442,0.6442561,0.46526006,0.60701495,,0.8265332085967524,-0.35657402226869406,0.16341420627000003,0.6387155678538612,-0.24266642358342222,0.5033566850905471,0.8722573131570512,,-0.6686110440517353,-0.5506617448637044,0.14974482822000001,2.137369593937757,0.35785099288568856,0.6492989541186304,0.8755241944797366,,-0.06956664232292899,-0.09922196797587764,0.1150502548,-0.034016912529394594,,3.0394644e-05,4.708767e-06,-6.556511e-06,1.0,-3.941357e-05,-3.2234937e-05,3.940612e-05,1.0,-3.606081e-06,3.2234937e-05,3.5762787e-06,1.0,75,0.226,0,0,0.0,False,1.0468996424166788,1.0499977893665218
0.24560299000040686,11:41:12.607510,11:40:54.610282,0,,0.006898408,0.011696264,0.07086459,-0.6357244,-0.16639984,-0.75376755,-0.48157206,0.84865224,0.21880949,0.6032767,0.5020958,-0.61964256,,0.15390387,-0.03416182,0.046113253,-0.62508804,-0.17876764,0.7598073,0.22235498,0.8923061,0.3928718,-0.7482134,0.41452634,-0.51801986,,0.08749199,1.3322484,0.4648289,0.9960404,0.002840842,-0.08885623,-0.053927384,-0.77529716,-0.62929016,-0.0706777,0.63159025,-0.7720741,,-0.048828576,0.24908373,-0.1253717,0.6063618,0.07946755,0.79120815,0.07440025,0.9849596,-0.15594608,-0.7917007,0.15342583,0.59132946,,0.044736348,0.43162692,-0.37376332,0.69257134,-0.01818909,-0.72112006,-0.3244673,0.8849871,-0.3339442,0.6442561,0.46526006,0.60701495,,0.8265409313296266,-0.35657402226869406,0.16341420627000003,0.6389252577973457,-0.24266642358342222,0.5033566850905471,0.8722573131570512,,-0.6686110440517353,-0.5506617448637044,0.14974482822000001,2.137369593937757,0.35785099288568856,0.6492989541186304,0.8755241944797366,,-0.06956664232292899,-0.09922196797587764,0.1150502548,-0.034016912529394594,,3.0394644e-05,4.708767e-06,-6.556511e-06,1.0,-3.941357e-05,-3.2234937e-05,3.940612e-05,1.0,-3.606081e-06,3.2234937e-05,3.5762787e-06,1.0,86,0.259,0,0,0.0,False,1.0464825983870312,1.0501909101696396
0.2669685910004773,11:41:12.636976,11:40:54.610282,0,,0.0068993764,0.011695832,0.07086417,-0.6357289,-0.16640268,-0.753763,-0.4815696,0.84865403,0.21880801,0.60327387,0.50209194,-0.6196485,,0.15390305,-0.034162045,0.046112835,-0.62509346,-0.17876661,0.75980306,0.22235149,0.8923069,0.3928718,-0.74820983,0.41452485,-0.51802623,,0.08749199,1.3322484,0.4648289,0.9960404,0.002840842,-0.08885623,-0.053927384,-0.77529716,-0.62929016,-0.0706777,0.63159025,-0.7720741,,-0.048829485,0.24908306,-0.12537162,0.6063664,0.079470634,0.7912043,0.074400775,0.9849587,-0.15595141,-0.7916971,0.15342991,0.5913332,,0.044737235,0.43162665,-0.37376323,0.6925767,-0.01819001,-0.7211149,-0.3244654,0.8849863,-0.3339483,0.6442513,0.46526164,0.6070189,,0.8265332085967524,-0.35657402226869406,0.16341420627000003,0.6389252577973457,-0.24266642358342222,0.5033566850905471,0.8722573131570512,,-0.6686033213188611,-0.5506617448637044,0.14974482822000001,2.137369593937757,0.35785099288568856,0.6492989541186304,0.8755241944797366,,-0.06956664232292899,-0.09922196797587764,0.1150502548,-0.034016912529394594,,3.0394644e-05,4.708767e-06,-6.556511e-06,1.0,-3.941357e-05,-3.2234937e-05,3.940612e-05,1.0,-3.606081e-06,3.2234937e-05,3.5762787e-06,1.0,94,0.283,0,0,0.0,False,1.0464825983870312,1.0497563883626244
0.29641957599960733,11:41:12.658794,11:40:54.610282,0,,0.0068993764,0.011695832,0.07086417,-0.6357289,-0.16640268,-0.753763,-0.4815696,0.84865403,0.21880801,0.60327387,0.50209194,-0.6196485,,0.15390387,-0.03416182,0.046113253,-0.62508804,-0.17876764,0.7598073,0.22235498,0.8923061,0.3928718,-0.7482134,0.41452634,-0.51801986,,0.08749199,1.3322484,0.4648289,0.9960404,0.002840842,-0.08885623,-0.053927384,-0.77529716,-0.62929016,-0.0706777,0.63159025,-0.7720741,,-0.048829485,0.24908306,-0.12537162,0.6063664,0.079470634,0.7912043,0.074400775,0.9849587,-0.15595141,-0.7916971,0.15342991,0.5913332,,0.044736348,0.43162692,-0.37376332,0.69257134,-0.01818909,-0.72112006,-0.3244673,0.8849871,-0.3339442,0.6442561,0.46526006,0.60701495,,0.8265332085967524,-0.35657402226869406,0.16341420627000003,0.6389252577973457,-0.24266642358342222,0.5033566850905471,0.8722573131570512,,-0.6686110440517353,-0.5506617448637044,0.14974482822000001,2.137369593937757,0.35785099288568856,0.6492989541186304,0.8755241944797366,,-0.06956664232292899,-0.09922196797587764,0.1150502548,-0.034016912529394594,,3.0394644e-05,4.708767e-06,-6.556511e-06,1.0,-3.941357e-05,-3.2234937e-05,3.940612e-05,1.0,-3.606081e-06,3.2234937e-05,3.5762787e-06,1.0,102,0.308,0,0,0.0,False,1.0468996424166788,1.049804668563404
0.31826745199941797,11:41:12.685497,11:40:54.610282,0,,0.006898408,0.011696264,0.07086459,-0.6357244,-0.16639984,-0.75376755,-0.48157206,0.84865224,0.21880949,0.6032767,0.5020958,-0.61964256,,0.15390387,-0.03416182,0.046113253,-0.62508804,-0.17876764,0.7598073,0.22235498,0.8923061,0.3928718,-0.7482134,0.41452634,-0.51801986,,0.08749199,1.3322484,0.4648289,0.9960404,0.002840842,-0.08885623,-0.053927384,-0.77529716,-0.62929016,-0.0706777,0.63159025,-0.7720741,,-0.048828576,0.24908373,-0.1253717,0.6063618,0.07946755,0.79120815,0.07440025,0.9849596,-0.15594608,-0.7917007,0.15342583,0.59132946,,0.044736348,0.43162692,-0.37376332,0.69257134,-0.01818909,-0.72112006,-0.3244673,0.8849871,-0.3339442,0.6442561,0.46526006,0.60701495,,0.8265409313296266,-0.35657402226869406,0.16341420627000003,0.6389252577973457,-0.24266642358342222,0.5033566850905471,0.8722573131570512,,-0.6686110440517353,-0.5506617448637044,0.14974482822000001,2.137369593937757,0.35785099288568856,0.6492989541186304,0.8755241944797366,,-0.06956664232292899,-0.09922196797587764,0.1150502548,-0.034016912529394594,,3.0394644e-05,4.708767e-06,-6.556511e-06,1.0,-3.941357e-05,-3.2234937e-05,3.940612e-05,1.0,-3.606081e-06,3.2234937e-05,3.5762787e-06,1.0,106,0.32,0,0,0.0,False,1.0464825983870312,1.0500943497680806
0.34496772599959513,11:41:12.706299,11:40:54.610282,0,,0.0068993764,0.011695832,0.07086417,-0.6357289,-0.16640268,-0.753763,-0.4815696,0.84865403,0.21880801,0.60327387,0.50209194,-0.6196485,,0.15390387,-0.03416182,0.046113253,-0.62508804,-0.17876764,0.7598073,0.22235498,0.8923061,0.3928718,-0.7482134,0.41452634,-0.51801986,,0.08749199,1.3322484,0.4648289,0.9960404,0.002840842,-0.08885623,-0.053927384,-0.77529716,-0.62929016,-0.0706777,0.63159025,-0.7720741,,-0.048829485,0.24908306,-0.12537162,0.6063664,0.079470634,0.7912043,0.074400775,0.9849587,-0.15595141,-0.7916971,0.15342991,0.5913332,,0.044736348,0.43162692,-0.37376332,0.69257134,-0.01818909,-0.72112006,-0.3244673,0.8849871,-0.3339442,0.6442561,0.46526006,0.60701495,,0.8265332085967524,-0.35657402226869406,0.16341420627000003,0.6389252577973457,-0.24266642358342222,0.5033566850905471,0.8722573131570512,,-0.6686110440517353,-0.5506617448637044,0.14974482822000001,2.137369593937757,0.35785099288568856,0.6492989541186304,0.8755241944797366,,-0.06956664232292899,-0.09922196797587764,0.1150502548,-0.034016912529394594,,3.0394644e-05,4.708767e-06,-6.556511e-06,1.0,-3.941357e-05,-3.2234937e-05,3.940612e-05,1.0,-3.606081e-06,3.2234937e-05,3.5762787e-06,1.0,114,0.344,0,0,0.0,False,1.0464825983870312,1.0498529487641832
0.3657721939998737,11:41:12.725736,11:40:54.610282,0,,0.0068993764,0.011695832,0.07086417,-0.6357289,-0.16640268,-0.753763,-0.4815696,0.84865403,0.21880801,0.60327387,0.50209194,-0.6196485,,0.15390387,-0.03416182,0.046113253,-0.62508804,-0.17876764,0.7598073,0.22235498,0.8923061,0.3928718,-0.7482134,0.41452634,-0.51801986,,0.08749199,1.3322484,0.4648289,0.9960404,0.002840842,-0.08885623,-0.053927384,-0.77529716,-0.62929016,-0.0706777,0.63159025,-0.7720741,,-0.048829485,0.24908306,-0.12537162,0.6063664,0.079470634,0.7912043,0.074400775,0.9849587,-0.15595141,-0.7916971,0.15342991,0.5913332,,0.044736348,0.43162692,-0.37376332,0.69257134,-0.01818909,-0.72112006,-0.3244673,0.8849871,-0.3339442,0.6442561,0.46526006,0.60701495,,0.8265332085967524,-0.35657402226869406,0.16341420627000003,0.6389252577973457,-0.24266642358342222,0.5033566850905471,0.8722573131570512,,-0.6686110440517353,-0.5506617448637044,0.14974482822000001,2.137369593937757,0.35785099288568856,0.6492989541186304,0.8755241944797366,,-0.06956664232292899,-0.09922196797587764,0.1150502548,-0.034016912529394594,,3.0394644e-05,4.708767e-06,-6.556511e-06,1.0,-3.941357e-05,-3.2234937e-05,3.940612e-05,1.0,-3.606081e-06,3.2234937e-05,3.5762787e-06,1.0,125,0.377,0,0,0.0,False,1.0466613315425946,1.0499495091657423
0.38520757900005265,11:41:12.756799,11:40:54.610282,0,,0.0068993764,0.011695832,0.07086417,-0.6357289,-0.16640268,-0.753763,-0.4815696,0.84865403,0.21880801,0.60327387,0.50209194,-0.6196485,,0.15390387,-0.03416182,0.046113253,-0.62508804,-0.17876764,0.7598073,0.22235498,0.8923061,0.3928718,-0.7482134,0.41452634,-0.51801986,,0.08749199,1.3322484,0.4648289,0.9960404,0.002840842,-0.08885623,-0.053927384,-0.77529716,-0.62929016,-0.0706777,0.63159025,-0.7720741,,-0.048829485,0.24908306,-0.12537162,0.6063664,0.079470634,0.7912043,0.074400775,0.9849587,-0.15595141,-0.7916971,0.15342991,0.5913332,,0.044736348,0.43162692,-0.37376332,0.69257134,-0.01818909,-0.72112006,-0.3244673,0.8849871,-0.3339442,0.6442561,0.46526006,0.60701495,,0.8265332085967524,-0.35657402226869406,0.16341420627000003,0.6389252577973457,-0.24266642358342222,0.5033566850905471,0.8722573131570512,,-0.6686110440517353,-0.5506617448637044,0.14974482822000001,2.137369593937757,0.35785099288568856,0.6492989541186304,0.8755241944797366,,-0.06956664232292899,-0.09922196797587764,0.1150502548,-0.034016912529394594,,3.0394644e-05,4.708767e-06,-6.556511e-06,1.0,-3.941357e-05,-3.2234937e-05,3.940612e-05,1.0,-3.606081e-06,3.2234937e-05,3.5762787e-06,1.0,133,0.402,0,0,0.0,False,1.0467804869796362,1.0498529487641832
0.4162713999994594,11:41:12.785423,11:40:54.774095,0,,0.0068993764,0.011695832,0.07086417,-0.6357289,-0.16640268,-0.753763,-0.4815696,0.84865403,0.21880801,0.60327387,0.50209194,-0.6196485,,0.15390387,-0.03416182,0.046113253,-0.62508804,-0.17876764,0.7598073,0.22235498,0.8923061,0.3928718,-0.7482134,0.41452634,-0.51801986,,0.08749199,1.3322484,0.4648289,0.9960404,0.002840842,-0.08885623,-0.053927384,-0.77529716,-0.62929016,-0.0706777,0.63159025,-0.7720741,,-0.048829485,0.24908306,-0.12537162,0.6063664,0.079470634,0.7912043,0.074400775,0.9849587,-0.15595141,-0.7916971,0.15342991,0.5913332,,0.044736348,0.43162692,-0.37376332,0.69257134,-0.01818909,-0.72112006,-0.3244673,0.8849871,-0.3339442,0.6442561,0.46526006,0.60701495,,0.8265332085967524,-0.35657402226869406,0.16341420627000003,0.6389252577973457,-0.24266642358342222,0.5033566850905471,0.8722573131570512,,-0.6686110440517353,-0.5506617448637044,0.14974482822000001,2.137369593937757,0.35785099288568856,0.6492989541186304,0.8755241944797366,,-0.06956664232292899,-0.09922196797587764,0.1150502548,-0.034016912529394594,,3.0394644e-05,4.708767e-06,-6.556511e-06,1.0,-3.941357e-05,-3.2234937e-05,3.940612e-05,1.0,-3.606081e-06,3.2234937e-05,3.5762787e-06,1.0,141,0.427,0,0,0.0,False,1.0466613315425946,1.050046069567301
0.44489389099908294,11:41:12.809447,11:40:54.774095,0,,0.006898408,0.011696264,0.07086459,-0.6357244,-0.16639984,-0.75376755,-0.48157206,0.84865224,0.21880949,0.6032767,0.5020958,-0.61964256,,0.15390387,-0.03416182,0.046113253,-0.62508804,-0.17876764,0.7598073,0.22235498,0.8923061,0.3928718,-0.7482134,0.41452634,-0.51801986,,0.08749199,1.3322484,0.4648289,0.9960404,0.002840842,-0.08885623,-0.053927384,-0.77529716,-0.62929016,-0.0706777,0.63159025,-0.7720741,,-0.048828576,0.24908373,-0.1253717,0.6063618,0.07946755,0.79120815,0.07440025,0.9849596,-0.15594608,-0.7917007,0.15342583,0.59132946,,0.044736348,0.43162692,-0.37376332,0.69257134,-0.01818909,-0.72112006,-0.3244673,0.8849871,-0.3339442,0.6442561,0.46526006,0.60701495,,0.8265409313296266,-0.35657402226869406,0.16341420627000003,0.6389252577973457,-0.24266642358342222,0.5033566850905471,0.8722573131570512,,-0.6686110440517353,-0.5506617448637044,0.14974482822000001,2.137369593937757,0.35785099288568856,0.6492989541186304,0.8755241944797366,,-0.06956664232292899,-0.09922196797587764,0.1150502548,-0.034016912529394594,,3.0394644e-05,4.708767e-06,-6.556511e-06,1.0,-3.941357e-05,-3.2234937e-05,3.940612e-05,1.0,-3.606081e-06,3.2234937e-05,3.5762787e-06,1.0,149,0.451,0,0,0.0,False,1.0466017538240733,1.0496598279610654
0.4689217840004858,11:41:12.829331,11:40:54.774095,0,,0.006898408,0.011696264,0.07086459,-0.6357244,-0.16639984,-0.75376755,-0.48157206,0.84865224,0.21880949,0.6032767,0.5020958,-0.61964256,,0.15390225,-0.034162253,0.04611242,-0.62509906,-0.17876558,0.75979865,0.22234797,0.8923078,0.3928718,-0.74820626,0.4145234,-0.5180326,,0.08749199,1.3322484,0.4648289,0.9960404,0.002840842,-0.08885623,-0.053927384,-0.77529716,-0.62929016,-0.0706777,0.63159025,-0.7720741,,-0.048828576,0.24908373,-0.1253717,0.6063618,0.07946755,0.79120815,0.07440025,0.9849596,-0.15594608,-0.7917007,0.15342583,0.59132946,,0.04473812,0.43162638,-0.37376317,0.69258213,-0.01819093,-0.7211096,-0.32446346,0.88498545,-0.3339524,0.64424646,0.4652632,0.6070228,,0.8265409313296266,-0.35657402226869406,0.16341420627000003,0.6389252577973457,-0.24266642358342222,0.5033566850905471,0.8722573131570512,,-0.6685955985859869,-0.5506617448637044,0.14974482822000001,2.137369593937757,0.35785099288568856,0.6492989541186304,0.8755241944797366,,-0.06956664232292899,-0.09922196797587764,0.1150502548,-0.034016912529394594,,3.0394644e-05,4.708767e-06,-6.556511e-06,1.0,-3.941357e-05,-3.2234937e-05,3.940612e-05,1.0,-3.606081e-06,3.2234937e-05,3.5762787e-06,1.0,157,0.475,0,0,0.0,False,1.0467209092611154,1.0502391903704191
0.4888021699989622,11:41:12.857403,11:40:54.774095,0,,0.0068993764,0.011695832,0.07086417,-0.6357289,-0.16640268,-0.753763,-0.4815696,0.84865403,0.21880801,0.60327387,0.50209194,-0.6196485,,0.15390225,-0.034162253,0.04611242,-0.62509906,-0.17876558,0.75979865,0.22234797,0.8923078,0.3928718,-0.74820626,0.4145234,-0.5180326,,0.08749199,1.3322484,0.4648289,0.9960404,0.002840842,-0.08885623,-0.053927384,-0.77529716,-0.62929016,-0.0706777,0.63159025,-0.7720741,,-0.048829485,0.24908306,-0.12537162,0.6063664,0.079470634,0.7912043,0.074400775,0.9849587,-0.15595141,-0.7916971,0.15342991,0.5913332,,0.04473812,0.43162638,-0.37376317,0.69258213,-0.01819093,-0.7211096,-0.32446346,0.88498545,-0.3339524,0.64424646,0.4652632,0.6070228,,0.8265332085967524,-0.35657402226869406,0.16341420627000003,0.6389252577973457,-0.24266642358342222,0.5033566850905471,0.8722573131570512,,-0.6685955985859869,-0.5506617448637044,0.14974482822000001,2.137369593937757,0.35785099288568856,0.6492989541186304,0.8755241944797366,,-0.06956664232292899,-0.09922196797587764,0.1150502548,-0.034016912529394594,,3.0394644e-05,4.708767e-06,-6.556511e-06,1.0,-3.941357e-05,-3.2234937e-05,3.940612e-05,1.0,-3.606081e-06,3.2234937e-05,3.5762787e-06,1.0,168,0.509,0,0,0.0,False,1.046244287512947,1.049708108161845
0.5168735000006563,11:41:12.887235,11:40:54.774095,0,,0.0068993764,0.011695832,0.07086417,-0.6357289,-0.16640268,-0.753763,-0.4815696,0.84865403,0.21880801,0.60327387,0.50209194,-0.6196485,,0.15390225,-0.034162253,0.04611242,-0.62509906,-0.17876558,0.75979865,0.22234797,0.8923078,0.3928718,-0.74820626,0.4145234,-0.5180326,,0.08749199,1.3322484,0.4648289,0.9960404,0.002840842,-0.08885623,-0.053927384,-0.77529716,-0.62929016,-0.0706777,0.63159025,-0.7720741,,-0.048829485,0.24908306,-0.12537162,0.6063664,0.079470634,0.7912043,0.074400775,0.9849587,-0.15595141,-0.7916971,0.15342991,0.5913332,,0.04473812,0.43162638,-0.37376317,0.69258213,-0.01819093,-0.7211096,-0.32446346,0.88498545,-0.3339524,0.64424646,0.4652632,0.6070228,,0.8265332085967524,-0.35657402226869406,0.16341420627000003,0.6389252577973457,-0.24266642358342222,0.5033566850905471,0.8722573131570512,,-0.6685955985859869,-0.5506617448637044,0.14974482822000001,2.137369593937757,0.35785099288568856,0.6492989541186304,0.8755241944797366,,-0.06956664232292899,-0.09922196797587764,0.1150502548,-0.034016912529394594,,3.0394644e-05,4.708767e-06,-6.556511e-06,1.0,-3.941357e-05,-3.2234937e-05,3.940612e-05,1.0,-3.606081e-06,3.2234937e-05,3.5762787e-06,1.0,172,0.521,0,0,0.0,False,1.0467804869796362,1.0502391903704191
0.5467090010006359,11:41:12.907539,11:40:54.774095,0,,0.0068993764,0.011695832,0.07086417,-0.6357289,-0.16640268,-0.753763,-0.4815696,0.84865403,0.21880801,0.60327387,0.50209194,-0.6196485,,0.15390225,-0.034162253,0.04611242,-0.62509906,-0.17876558,0.75979865,0.22234797,0.8923078,0.3928718,-0.74820626,0.4145234,-0.5180326,,0.08749199,1.3322484,0.4648289,0.9960404,0.002840842,-0.08885623,-0.053927384,-0.77529716,-0.62929016,-0.0706777,0.63159025,-0.7720741,,-0.048829485,0.24908306,-0.12537162,0.6063664,0.079470634,0.7912043,0.074400775,0.9849587,-0.15595141,-0.7916971,0.15342991,0.5913332,,0.04473812,0.43162638,-0.37376317,0.69258213,-0.01819093,-0.7211096,-0.32446346,0.88498545,-0.3339524,0.64424646,0.4652632,0.6070228,,0.8265332085967524,-0.35657402226869406,0.16341420627000003,0.6389252577973457,-0.24266642358342222,0.5033566850905471,0.8722573131570512,,-0.6685955985859869,-0.5506617448637044,0.14974482822000001,2.137369593937757,0.35785099288568856,0.6492989541186304,0.8755241944797366,,-0.06956664232292899,-0.09922196797587764,0.1150502548,-0.034016912529394594,,3.0394644e-05,4.708767e-06,-6.556511e-06,1.0,-3.941357e-05,-3.2234937e-05,3.940612e-05,1.0,-3.606081e-06,3.2234937e-05,3.5762787e-06,1.0,180,0.545,0,0,0.0,False,1.0468400646981575,1.049708108161845
0.5670115079992684,11:41:12.926963,11:40:54.774095,0,,0.0068993764,0.011695832,0.07086417,-0.6357289,-0.16640268,-0.753763,-0.4815696,0.84865403,0.21880801,0.60327387,0.50209194,-0.6196485,,0.15390225,-0.034162253,0.04611242,-0.62509906,-0.17876558,0.75979865,0.22234797,0.8923078,0.3928718,-0.74820626,0.4145234,-0.5180326,,0.08749199,1.3322484,0.4648289,0.9960404,0.002840842,-0.08885623,-0.053927384,-0.77529716,-0.62929016,-0.0706777,0.63159025,-0.7720741,,-0.048829485,0.24908306,-0.12537162,0.6063664,0.079470634,0.7912043,0.074400775,0.9849587,-0.15595141,-0.7916971,0.15342991,0.5913332,,0.04473812,0.43162638,-0.37376317,0.69258213,-0.01819093,-0.7211096,-0.32446346,0.88498545,-0.3339524,0.64424646,0.4652632,0.6070228,,0.8265332085967524,-0.35657402226869406,0.16341420627000003,0.6389252577973457,-0.24266642358342222,0.5033566850905471,0.8722573131570512,,-0.6685955985859869,-0.5506617448637044,0.14974482822000001,2.137369593937757,0.35785099288568856,0.6492989541186304,0.8755241944797366,,-0.06956664232292899,-0.09922196797587764,0.1150502548,-0.034016912529394594,,3.0394644e-05,4.708767e-06,-6.556511e-06,1.0,-3.941357e-05,-3.2234937e-05,3.940612e-05,1.0,-3.606081e-06,3.2234937e-05,3.5762787e-06,1.0,188,0.57,0,0,0.0,False,1.0466613315425946,1.0497563883626244
0.5863976139989973,11:41:12.950027,11:40:54.774095,0,,0.006898408,0.011696264,0.07086459,-0.6357244,-0.16639984,-0.75376755,-0.48157206,0.84865224,0.21880949,0.6032767,0.5020958,-0.61964256,,0.15390225,-0.034162253,0.04611242,-0.62509906,-0.17876558,0.75979865,0.22234797,0.8923078,0.3928718,-0.74820626,0.4145234,-0.5180326,,0.08749199,1.3322484,0.4648289,0.9960404,0.002840842,-0.08885623,-0.053927384,-0.77529716,-0.62929016,-0.0706777,0.63159025,-0.7720741,,-0.048828576,0.24908373,-0.1253717,0.6063618,0.07946755,0.79120815,0.07440025,0.9849596,-0.15594608,-0.7917007,0.15342583,0.59132946,,0.04473812,0.43162638,-0.37376317,0.69258213,-0.01819093,-0.7211096,-0.32446346,0.88498545,-0.3339524,0.64424646,0.4652632,0.6070228,,0.8265409313296266,-0.35657402226869406,0.16341420627000003,0.6389252577973457,-0.24266642358342222,0.5033566850905471,0.8722573131570512,,-0.6685955985859869,-0.5506617448637044,0.14974482822000001,2.137369593937757,0.35785099288568856,0.6492989541186304,0.8755241944797366,,-0.06956664232292899,-0.09922196797587764,0.1150502548,-0.034016912529394594,,3.0394644e-05,4.708767e-06,-6.556511e-06,1.0,-3.941357e-05,-3.2234937e-05,3.940612e-05,1.0,-3.606081e-06,3.2234937e-05,3.5762787e-06,1.0,196,0.595,0,0,0.0,False,1.0471379532907625,1.0499977893665218
0.6094963439991261,11:41:12.981006,11:40:54.972950,0,,0.0068993764,0.011695832,0.07086417,-0.6357289,-0.16640268,-0.753763,-0.4815696,0.84865403,0.21880801,0.60327387,0.50209194,-0.6196485,,0.15390387,-0.03416182,0.046113253,-0.62508804,-0.17876764,0.7598073,0.22235498,0.8923061,0.3928718,-0.7482134,0.41452634,-0.51801986,,0.08749199,1.3322484,0.4648289,0.9960404,0.002840842,-0.08885623,-0.053927384,-0.77529716,-0.62929016,-0.0706777,0.63159025,-0.7720741,,-0.048829485,0.24908306,-0.12537162,0.6063664,0.079470634,0.7912043,0.074400775,0.9849587,-0.15595141,-0.7916971,0.15342991,0.5913332,,0.044736348,0.43162692,-0.37376332,0.69257134,-0.01818909,-0.72112006,-0.3244673,0.8849871,-0.3339442,0.6442561,0.46526006,0.60701495,,0.8265332085967524,-0.35657402226869406,0.16341420627000003,0.6389252577973457,-0.24266642358342222,0.5033566850905471,0.8722573131570512,,-0.6686110440517353,-0.5506617448637044,0.14974482822000001,2.137369593937757,0.35785099288568856,0.6492989541186304,0.8755241944797366,,-0.06956664232292899,-0.09922196797587764,0.1150502548,-0.034016912529394594,,3.0394644e-05,4.708767e-06,-6.556511e-06,1.0,-3.941357e-05,-3.2234937e-05,3.940612e-05,1.0,-3.606081e-06,3.2234937e-05,3.5762787e-06,1.0,215,0.652,0,0,0.0,False,1.0468400646981575,1.0502874705711984
0.6404655749993253,11:41:13.028837,11:40:54.972950,0,,0.006898408,0.011696264,0.07086459,-0.6357244,-0.16639984,-0.75376755,-0.48157206,0.84865224,0.21880949,0.6032767,0.5020958,-0.61964256,,0.15390387,-0.03416182,0.046113253,-0.62508804,-0.17876764,0.7598073,0.22235498,0.8923061,0.3928718,-0.7482134,0.41452634,-0.51801986,,0.08749199,1.3322484,0.4648289,0.9960404,0.002840842,-0.08885623,-0.053927384,-0.77529716,-0.62929016,-0.0706777,0.63159025,-0.7720741,,-0.048828576,0.24908373,-0.1253717,0.6063618,0.07946755,0.79120815,0.07440025,0.9849596,-0.15594608,-0.7917007,0.15342583,0.59132946,,0.044736348,0.43162692,-0.37376332,0.69257134,-0.01818909,-0.72112006,-0.3244673,0.8849871,-0.3339442,0.6442561,0.46526006,0.60701495,,0.8265409313296266,-0.35657402226869406,0.16341420627000003,0.6389252577973457,-0.24266642358342222,0.5033566850905471,0.8722573131570512,,-0.6686110440517353,-0.5506617448637044,0.14974482822000001,2.137369593937757,0.35785099288568856,0.6492989541186304,0.8755241944797366,,-0.06956664232292899,-0.09922196797587764,0.1150502548,-0.034016912529394594,,3.0394644e-05,4.708767e-06,-6.556511e-06,1.0,-3.941357e-05,-3.2234937e-05,3.940612e-05,1.0,-3.606081e-06,3.2234937e-05,3.5762787e-06,1.0,223,0.676,0,0,0.0,False,1.0470187978537204,1.049708108161845
0.6882152159996622,11:41:13.057844,11:40:54.972950,0,,0.0068993764,0.011695832,0.07086417,-0.6357289,-0.16640268,-0.753763,-0.4815696,0.84865403,0.21880801,0.60327387,0.50209194,-0.6196485,,0.15390387,-0.03416182,0.046113253,-0.62508804,-0.17876764,0.7598073,0.22235498,0.8923061,0.3928718,-0.7482134,0.41452634,-0.51801986,,0.08749199,1.3322484,0.4648289,0.9960404,0.002840842,-0.08885623,-0.053927384,-0.77529716,-0.62929016,-0.0706777,0.63159025,-0.7720741,,-0.048829485,0.24908306,-0.12537162,0.6063664,0.079470634,0.7912043,0.074400775,0.9849587,-0.15595141,-0.7916971,0.15342991,0.5913332,,0.044736348,0.43162692,-0.37376332,0.69257134,-0.01818909,-0.72112006,-0.3244673,0.8849871,-0.3339442,0.6442561,0.46526006,0.60701495,,0.8265332085967524,-0.35657402226869406,0.16341420627000003,0.6389252577973457,-0.24266642358342222,0.5033566850905471,0.8722573131570512,,-0.6686110440517353,-0.5506617448637044,0.14974482822000001,2.137369593937757,0.35785099288568856,0.6492989541186304,0.8755241944797366,,-0.06956664232292899,-0.09922196797587764,0.1150502548,-0.034016912529394594,,3.0394644e-05,4.708767e-06,-6.556511e-06,1.0,-3.941357e-05,-3.2234937e-05,3.940612e-05,1.0,-3.606081e-06,3.2234937e-05,3.5762787e-06,1.0,231,0.701,0,0,0.0,False,1.0470187978537204,1.05014262996886
0.7173041999994894,11:41:13.080456,11:40:54.972950,0,,0.0068993764,0.011695832,0.07086417,-0.6357289,-0.16640268,-0.753763,-0.4815696,0.84865403,0.21880801,0.60327387,0.50209194,-0.6196485,,0.15390387,-0.03416182,0.046113253,-0.62508804,-0.17876764,0.7598073,0.22235498,0.8923061,0.3928718,-0.7482134,0.41452634,-0.51801986,,0.08749199,1.3322484,0.4648289,0.9960404,0.002840842,-0.08885623,-0.053927384,-0.77529716,-0.62929016,-0.0706777,0.63159025,-0.7720741,,-0.048829485,0.24908306,-0.12537162,0.6063664,0.079470634,0.7912043,0.074400775,0.9849587,-0.15595141,-0.7916971,0.15342991,0.5913332,,0.044736348,0.43162692,-0.37376332,0.69257134,-0.01818909,-0.72112006,-0.3244673,0.8849871,-0.3339442,0.6442561,0.46526006,0.60701495,,0.8265332085967524,-0.35657402226869406,0.16341420627000003,0.6389252577973457,-0.24266642358342222,0.5033566850905471,0.8722573131570512,,-0.6686110440517353,-0.5506617448637044,0.14974482822000001,2.137369593937757,0.35785099288568856,0.6492989541186304,0.8755241944797366,,-0.06956664232292899,-0.09922196797587764,0.1150502548,-0.034016912529394594,,3.0394644e-05,4.708767e-06,-6.556511e-06,1.0,-3.941357e-05,-3.2234937e-05,3.940612e-05,1.0,-3.606081e-06,3.2234937e-05,3.5762787e-06,1.0,239,0.726,0,0,0.0,False,1.0465421761055524,1.0496115477602863
0.7399116609994962,11:41:13.107151,11:40:54.972950,0,,0.0068993764,0.011695832,0.07086417,-0.6357289,-0.16640268,-0.753763,-0.4815696,0.84865403,0.21880801,0.60327387,0.50209194,-0.6196485,,0.15390344,-0.034163073,0.046113253,-0.6249634,-0.17846046,0.75998205,0.22272742,0.89229405,0.39268792,-0.74820673,0.41468436,-0.5179031,,0.08749199,1.3322484,0.4648289,0.9960404,0.002840842,-0.08885623,-0.053927384,-0.77529716,-0.62929016,-0.0706777,0.63159025,-0.7720741,,-0.048829485,0.24908306,-0.12537162,0.6063664,0.079470634,0.7912043,0.074400775,0.9849587,-0.15595141,-0.7916971,0.15342991,0.5913332,,0.04473695,0.43162626,-0.3737643,0.6923943,-0.018511692,-0.7212818,-0.32426974,0.88503957,-0.33399716,0.6445458,0.46514758,0.6067936,,0.8265332085967524,-0.35657402226869406,0.16341420627000003,0.6389252577973457,-0.24266642358342222,0.5033566850905471,0.8722573131570512,,-0.6686110440517353,-0.5506617448637044,0.14974482822000001,2.1377889738247258,0.35785099288568856,0.6492989541186304,0.8755241944797366,,-0.06956664232292899,-0.09922196797587764,0.1150502548,-0.034016912529394594,,3.0394644e-05,4.708767e-06,-6.556511e-06,1.0,-3.941357e-05,-3.2234937e-05,3.940612e-05,1.0,-3.606081e-06,3.2234937e-05,3.5762787e-06,1.0,247,0.749,0,0,0.0,False,1.0468400646981575,1.049804668563404
0.7666071759995248,11:41:13.131551,11:40:54.972950,0,,0.0068974392,0.011696681,0.070864975,-0.63571984,-0.16639699,-0.7537719,-0.4815745,0.84865046,0.21881098,0.6032796,0.5020999,-0.61963665,,0.15390344,-0.034163073,0.046113253,-0.6249634,-0.17846046,0.75998205,0.22272742,0.89229405,0.39268792,-0.74820673,0.41468436,-0.5179031,,0.08749199,1.3322484,0.4648289,0.9960404,0.002840842,-0.08885623,-0.053927384,-0.77529716,-0.62929016,-0.0706777,0.63159025,-0.7720741,,-0.048827667,0.2490844,-0.12537177,0.60635716,0.07946447,0.79121196,0.07439974,0.9849605,-0.15594073,-0.7917043,0.15342174,0.5913257,,0.04473695,0.43162626,-0.3737643,0.6923943,-0.018511692,-0.7212818,-0.32426974,0.88503957,-0.33399716,0.6445458,0.46514758,0.6067936,,0.8265486540625008,-0.35657402226869406,0.16341420627000003,0.6389252577973457,-0.24266642358342222,0.5033566850905471,0.8722573131570512,,-0.6686110440517353,-0.5506617448637044,0.14974482822000001,2.1377889738247258,0.35785099288568856,0.6492989541186304,0.8755241944797366,,-0.06956664232292899,-0.09922196797587764,0.1150502548,-0.034016912529394594,,3.0394644e-05,4.708767e-06,-6.556511e-06,1.0,-3.941357e-05,-3.2234937e-05,3.940612e-05,1.0,-3.606081e-06,3.2234937e-05,3.5762787e-06,1.0,258,0.783,0,0,0.0,False,1.0463634429499895,1.05014262996886
0.7910101149991533,11:41:13.159589,11:40:54.972950,0,,0.006898408,0.011696264,0.07086459,-0.6357244,-0.16639984,-0.75376755,-0.48157206,0.84865224,0.21880949,0.6032767,0.5020958,-0.61964256,,0.15390344,-0.034163073,0.046113253,-0.6249634,-0.17846046,0.75998205,0.22272742,0.89229405,0.39268792,-0.74820673,0.41468436,-0.5179031,,0.08749199,1.3322484,0.4648289,0.9960404,0.002840842,-0.08885623,-0.053927384,-0.77529716,-0.62929016,-0.0706777,0.63159025,-0.7720741,,-0.048828576,0.24908373,-0.1253717,0.6063618,0.07946755,0.79120815,0.07440025,0.9849596,-0.15594608,-0.7917007,0.15342583,0.59132946,,0.04473695,0.43162626,-0.3737643,0.6923943,-0.018511692,-0.7212818,-0.32426974,0.88503957,-0.33399716,0.6445458,0.46514758,0.6067936,,0.8265409313296266,-0.35657402226869406,0.16341420627000003,0.6389252577973457,-0.24266642358342222,0.5033566850905471,0.8722573131570512,,-0.6686110440517353,-0.5506617448637044,0.14974482822000001,2.1377889738247258,0.35785099288568856,0.6492989541186304,0.8755241944797366,,-0.06956664232292899,-0.09922196797587764,0.1150502548,-0.034016912529394594,,3.0394644e-05,4.708767e-06,-6.556511e-06,1.0,-3.941357e-05,-3.2234937e-05,3.940612e-05,1.0,-3.606081e-06,3.2234937e-05,3.5762787e-06,1.0,262,0.795,0,0,0.0,False,1.0468400646981575,1.0497563883626244
0.8190622999991319,11:41:13.187618,11:40:55.163644,0,,0.0068993764,0.011695832,0.07086417,-0.6357289,-0.16640268,-0.753763,-0.4815696,0.84865403,0.21880801,0.60327387,0.50209194,-0.6196485,,0.15390344,-0.034163073,0.046113253,-0.6249634,-0.17846046,0.75998205,0.22272742,0.89229405,0.39268792,-0.74820673,0.41468436,-0.5179031,,0.08749199,1.3322484,0.4648289,0.9960404,0.002840842,-0.08885623,-0.053927384,-0.77529716,-0.62929016,-0.0706777,0.63159025,-0.7720741,,-0.048829485,0.24908306,-0.12537162,0.6063664,0.079470634,0.7912043,0.074400775,0.9849587,-0.15595141,-0.7916971,0.15342991,0.5913332,,0.04473695,0.43162626,-0.3737643,0.6923943,-0.018511692,-0.7212818,-0.32426974,0.88503957,-0.33399716,0.6445458,0.46514758,0.6067936,,0.8265332085967524,-0.35657402226869406,0.16341420627000003,0.6389252577973457,-0.24266642358342222,0.5033566850905471,0.8722573131570512,,-0.6686110440517353,-0.5506617448637044,0.14974482822000001,2.1377889738247258,0.35785099288568856,0.6492989541186304,0.8755241944797366,,-0.06956664232292899,-0.09922196797587764,0.1150502548,-0.034016912529394594,,3.0394644e-05,4.708767e-06,-6.556511e-06,1.0,-3.941357e-05,-3.2234937e-05,3.940612e-05,1.0,-3.606081e-06,3.2234937e-05,3.5762787e-06,1.0,274,0.832,0,0,0.0,False,1.0468996424166788,1.0498529487641832
0.8470734860002267,11:41:13.210417,11:40:55.163644,0,,0.0068993764,0.011695832,0.07086417,-0.6357289,-0.16640268,-0.753763,-0.4815696,0.84865403,0.21880801,0.60327387,0.50209194,-0.6196485,,0.15390344,-0.034163073,0.046113253,-0.6249634,-0.17846046,0.75998205,0.22272742,0.89229405,0.39268792,-0.74820673,0.41468436,-0.5179031,,0.08749199,1.3322484,0.4648289,0.9960404,0.002840842,-0.08885623,-0.053927384,-0.77529716,-0.62929016,-0.0706777,0.63159025,-0.7720741,,-0.048829485,0.24908306,-0.12537162,0.6063664,0.079470634,0.7912043,0.074400775,0.9849587,-0.15595141,-0.7916971,0.15342991,0.5913332,,0.04473695,0.43162626,-0.3737643,0.6923943,-0.018511692,-0.7212818,-0.32426974,0.88503957,-0.33399716,0.6445458,0.46514758,0.6067936,,0.8265332085967524,-0.35657402226869406,0.16341420627000003,0.6389252577973457,-0.24266642358342222,0.5033566850905471,0.8722573131570512,,-0.6686110440517353,-0.5506617448637044,0.14974482822000001,2.1377889738247258,0.35785099288568856,0.6492989541186304,0.8755241944797366,,-0.06956664232292899,-0.09922196797587764,0.1150502548,-0.034016912529394594,,3.0394644e-05,4.708767e-06,-6.556511e-06,1.0,-3.941357e-05,-3.2234937e-05,3.940612e-05,1.0,-3.606081e-06,3.2234937e-05,3.5762787e-06,1.0,278,0.844,0,0,0.0,False,1.0464825983870312,1.0499977893665218
0.8698840510005539,11:41:13.237325,11:40:55.163644,0,,0.0068996074,0.0116954595,0.07086411,-0.63562524,-0.16655403,-0.753817,-0.48174235,0.84857917,0.21871796,0.60324526,0.5021683,-0.6196146,,0.15390344,-0.034163073,0.046113253,-0.6249634,-0.17846046,0.75998205,0.22272742,0.89229405,0.39268792,-0.74820673,0.41468436,-0.5179031,,0.08749199,1.3322484,0.4648289,0.9960404,0.002840842,-0.08885623,-0.053927384,-0.77529716,-0.62929016,-0.0706777,0.63159025,-0.7720741,,-0.04882969,0.2490827,-0.12537181,0.60627455,0.07961861,0.79125977,0.074240476,0.98496413,-0.15599374,-0.7917825,0.15331854,0.59124774,,0.04473695,0.43162626,-0.3737643,0.6923943,-0.018511692,-0.7212818,-0.32426974,0.88503957,-0.33399716,0.6445458,0.46514758,0.6067936,,0.8265332085967524,-0.35657402226869406,0.16341420627000003,0.6387155678538612,-0.24266642358342222,0.5033566850905471,0.8722573131570512,,-0.6686110440517353,-0.5506617448637044,0.14974482822000001,2.1377889738247258,0.35785099288568856,0.6492989541186304,0.8755241944797366,,-0.06956664232292899,-0.09922196797587764,0.1150502548,-0.034016912529394594,,3.0394644e-05,4.708767e-06,-6.556511e-06,1.0,-3.941357e-05,-3.2234937e-05,3.940612e-05,1.0,-3.606081e-06,3.2234937e-05,3.5762787e-06,1.0,294,0.893,0,0,0.0,False,1.047316686446326,1.0501909101696396
0.8967888659990422,11:41:13.271453,11:40:55.163644,0,,0.006899844,0.011695065,0.07086408,-0.6355215,-0.16670534,-0.7538711,-0.48191515,0.8485043,0.21862788,0.6032165,0.5022446,-0.6195806,,0.15390344,-0.034163073,0.046113253,-0.6249634,-0.17846046,0.75998205,0.22272742,0.89229405,0.39268792,-0.74820673,0.41468436,-0.5179031,,0.08749199,1.3322484,0.4648289,0.9960404,0.002840842,-0.08885623,-0.053927384,-0.77529716,-0.62929016,-0.0706777,0.63159025,-0.7720741,,-0.0488299,0.24908234,-0.12537201,0.60618263,0.07976657,0.7913153,0.07408017,0.9849695,-0.1560361,-0.79186785,0.15320715,0.59116226,,0.04473695,0.43162626,-0.3737643,0.6923943,-0.018511692,-0.7212818,-0.32426974,0.88503957,-0.33399716,0.6445458,0.46514758,0.6067936,,0.8265332085967524,-0.35657402226869406,0.16341420627000003,0.6385058779103767,-0.24266642358342222,0.5033566850905471,0.8722573131570512,,-0.6686110440517353,-0.5506617448637044,0.14974482822000001,2.1377889738247258,0.35785099288568856,0.6492989541186304,0.8755241944797366,,-0.06956664232292899,-0.09922196797587764,0.1150502548,-0.034016912529394594,,3.0394644e-05,4.708767e-06,-6.556511e-06,1.0,-3.941357e-05,-3.2234937e-05,3.940612e-05,1.0,-3.606081e-06,3.2234937e-05,3.5762787e-06,1.0,305,0.926,0,0,0.0,False,1.0468996424166788,1.0500943497680806
0.9309270190005918,11:41:13.304093,11:40:55.163644,0,,0.006899844,0.011695065,0.07086408,-0.6355215,-0.16670534,-0.7538711,-0.48191515,0.8485043,0.21862788,0.6032165,0.5022446,-0.6195806,,0.15390344,-0.034163073,0.046113253,-0.6249634,-0.17846046,0.75998205,0.22272742,0.89229405,0.39268792,-0.74820673,0.41468436,-0.5179031,,0.08749199,1.3322484,0.4648289,0.9960404,0.002840842,-0.08885623,-0.053927384,-0.77529716,-0.62929016,-0.0706777,0.63159025,-0.7720741,,-0.0488299,0.24908234,-0.12537201,0.60618263,0.07976657,0.7913153,0.07408017,0.9849695,-0.1560361,-0.79186785,0.15320715,0.59116226,,0.04473695,0.43162626,-0.3737643,0.6923943,-0.018511692,-0.7212818,-0.32426974,0.88503957,-0.33399716,0.6445458,0.46514758,0.6067936,,0.8265332085967524,-0.35657402226869406,0.16341420627000003,0.6385058779103767,-0.24266642358342222,0.5033566850905471,0.8722573131570512,,-0.6686110440517353,-0.5506617448637044,0.14974482822000001,2.1377889738247258,0.35785099288568856,0.6492989541186304,0.8755241944797366,,-0.06956664232292899,-0.09922196797587764,0.1150502548,-0.034016912529394594,,3.0394644e-05,4.708767e-06,-6.556511e-06,1.0,-3.941357e-05,-3.2234937e-05,3.940612e-05,1.0,-3.606081e-06,3.2234937e-05,3.5762787e-06,1.0,313,0.951,0,0,0.0,False,1.0470783755722417,1.0499495091657423
0.9635530270006711,11:41:13.331061,11:40:55.163644,0,,0.006899844,0.011695065,0.07086408,-0.6355215,-0.16670534,-0.7538711,-0.48191515,0.8485043,0.21862788,0.6032165,0.5022446,-0.6195806,,0.15390344,-0.034163073,0.046113253,-0.6249634,-0.17846046,0.75998205,0.22272742,0.89229405,0.39268792,-0.74820673,0.41468436,-0.5179031,,0.08749199,1.3322484,0.4648289,0.9960404,0.002840842,-0.08885623,-0.053927384,-0.77529716,-0.62929016,-0.0706777,0.63159025,-0.7720741,,-0.0488299,0.24908234,-0.12537201,0.60618263,0.07976657,0.7913153,0.07408017,0.9849695,-0.1560361,-0.79186785,0.15320715,0.59116226,,0.04473695,0.43162626,-0.3737643,0.6923943,-0.018511692,-0.7212818,-0.32426974,0.88503957,-0.33399716,0.6445458,0.46514758,0.6067936,,0.8265332085967524,-0.35657402226869406,0.16341420627000003,0.6385058779103767,-0.24266642358342222,0.5033566850905471,0.8722573131570512,,-0.6686110440517353,-0.5506617448637044,0.14974482822000001,2.1377889738247258,0.35785099288568856,0.6492989541186304,0.8755241944797366,,-0.06956664232292899,-0.09922196797587764,0.1150502548,-0.034016912529394594,,3.0394644e-05,4.708767e-06,-6.556511e-06,1.0,-3.941357e-05,-3.2234937e-05,3.940612e-05,1.0,-3.606081e-06,3.2234937e-05,3.5762787e-06,1.0,321,0.975,0,0,0.0,False,1.0463634429499895,1.0500943497680806
0.9905050599991228,11:41:13.353670,11:40:55.163644,0,,0.006899844,0.011695065,0.07086408,-0.6355215,-0.16670534,-0.7538711,-0.48191515,0.8485043,0.21862788,0.6032165,0.5022446,-0.6195806,,0.15390344,-0.034163073,0.046113253,-0.6249634,-0.17846046,0.75998205,0.22272742,0.89229405,0.39268792,-0.74820673,0.41468436,-0.5179031,,0.08749199,1.3322484,0.4648289,0.9960404,0.002840842,-0.08885623,-0.053927384,-0.77529716,-0.62929016,-0.0706777,0.63159025,-0.7720741,,-0.0488299,0.24908234,-0.12537201,0.60618263,0.07976657,0.7913153,0.07408017,0.9849695,-0.1560361,-0.79186785,0.15320715,0.59116226,,0.04473695,0.43162626,-0.3737643,0.6923943,-0.018511692,-0.7212818,-0.32426974,0.88503957,-0.33399716,0.6445458,0.46514758,0.6067936,,0.8265332085967524,-0.35657402226869406,0.16341420627000003,0.6385058779103767,-0.24266642358342222,0.5033566850905471,0.8722573131570512,,-0.6686110440517353,-0.5506617448637044,0.14974482822000001,2.1377889738247258,0.35785099288568856,0.6492989541186304,0.8755241944797366,,-0.06956664232292899,-0.09922196797587764,0.1150502548,-0.034016912529394594,,3.0394644e-05,4.708767e-06,-6.556511e-06,1.0,-3.941357e-05,-3.2234937e-05,3.940612e-05,1.0,-3.606081e-06,3.2234937e-05,3.5762787e-06,1.0,329,1.0,0,0,0.0,False,1.0466017538240733,1.0498529487641832
1.0131406620002963,11:41:13.385786,11:40:55.353901,0,,0.006899844,0.011695065,0.07086408,-0.6355215,-0.16670534,-0.7538711,-0.48191515,0.8485043,0.21862788,0.6032165,0.5022446,-0.6195806,,0.15390344,-0.034163073,0.046113253,-0.6249634,-0.17846046,0.75998205,0.22272742,0.89229405,0.39268792,-0.74820673,0.41468436,-0.5179031,,0.08749199,1.3322484,0.4648289,0.9960404,0.002840842,-0.08885623,-0.053927384,-0.77529716,-0.62929016,-0.0706777,0.63159025,-0.7720741,,-0.0488299,0.24908234,-0.12537201,0.60618263,0.07976657,0.7913153,0.07408017,0.9849695,-0.1560361,-0.79186785,0.15320715,0.59116226,,0.04473695,0.43162626,-0.3737643,0.6923943,-0.018511692,-0.7212818,-0.32426974,0.88503957,-0.33399716,0.6445458,0.46514758,0.6067936,,0.8265332085967524,-0.35657402226869406,0.16341420627000003,0.6385058779103767,-0.24266642358342222,0.5033566850905471,0.8722573131570512,,-0.6686110440517353,-0.5506617448637044,0.14974482822000001,2.1377889738247258,0.35785099288568856,0.6492989541186304,0.8755241944797366,,-0.06956664232292899,-0.09922196797587764,0.1150502548,-0.034016912529394594,,3.0394644e-05,4.708767e-06,-6.556511e-06,1.0,-3.941357e-05,-3.2234937e-05,3.940612e-05,1.0,-3.606081e-06,3.2234937e-05,3.5762787e-06,1.0,337,1.025,0,0,0.0,False,1.0471975310092834,1.0499977893665218
1.0451878149997356,11:41:13.405751,11:40:55.353901,0,,0.0068988735,0.011695497,0.07086444,-0.635517,-0.16670246,-0.75387555,-0.48191762,0.84850246,0.21862936,0.6032194,0.5022485,-0.61957467,,0.15390344,-0.034163073,0.046113253,-0.6249634,-0.17846046,0.75998205,0.22272742,0.89229405,0.39268792,-0.74820673,0.41468436,-0.5179031,,0.08749199,1.3322484,0.4648289,0.9960404,0.002840842,-0.08885623,-0.053927384,-0.77529716,-0.62929016,-0.0706777,0.63159025,-0.7720741,,-0.04882899,0.24908301,-0.12537208,0.606178,0.07976349,0.79131913,0.07407965,0.98497033,-0.15603076,-0.7918715,0.15320306,0.5911585,,0.04473695,0.43162626,-0.3737643,0.6923943,-0.018511692,-0.7212818,-0.32426974,0.88503957,-0.33399716,0.6445458,0.46514758,0.6067936,,0.8265409313296266,-0.35657402226869406,0.16341420627000003,0.6385058779103767,-0.24266642358342222,0.5033566850905471,0.8722573131570512,,-0.6686110440517353,-0.5506617448637044,0.14974482822000001,2.1377889738247258,0.35785099288568856,0.6492989541186304,0.8755241944797366,,-0.06956664232292899,-0.09922196797587764,0.1150502548,-0.034016912529394594,,3.0394644e-05,4.708767e-06,-6.556511e-06,1.0,-3.941357e-05,-3.2234937e-05,3.940612e-05,1.0,-3.606081e-06,3.2234937e-05,3.5762787e-06,1.0,345,1.049,0,0,0.0,False,1.0463634429499895,1.0499977893665218
1.0652186819988856,11:41:13.431821,11:40:55.353901,0,,0.006899844,0.011695065,0.07086408,-0.6355215,-0.16670534,-0.7538711,-0.48191515,0.8485043,0.21862788,0.6032165,0.5022446,-0.6195806,,0.15390344,-0.034163073,0.046113253,-0.6249634,-0.17846046,0.75998205,0.22272742,0.89229405,0.39268792,-0.74820673,0.41468436,-0.5179031,,0.08749199,1.3322484,0.4648289,0.9960404,0.002840842,-0.08885623,-0.053927384,-0.77529716,-0.62929016,-0.0706777,0.63159025,-0.7720741,,-0.0488299,0.24908234,-0.12537201,0.60618263,0.07976657,0.7913153,0.07408017,0.9849695,-0.1560361,-0.79186785,0.15320715,0.59116226,,0.04473695,0.43162626,-0.3737643,0.6923943,-0.018511692,-0.7212818,-0.32426974,0.88503957,-0.33399716,0.6445458,0.46514758,0.6067936,,0.8265332085967524,-0.35657402226869406,0.16341420627000003,0.6385058779103767,-0.24266642358342222,0.5033566850905471,0.8722573131570512,,-0.6686110440517353,-0.5506617448637044,0.14974482822000001,2.1377889738247258,0.35785099288568856,0.6492989541186304,0.8755241944797366,,-0.06956664232292899,-0.09922196797587764,0.1150502548,-0.034016912529394594,,3.0394644e-05,4.708767e-06,-6.556511e-06,1.0,-3.941357e-05,-3.2234937e-05,3.940612e-05,1.0,-3.606081e-06,3.2234937e-05,3.5762787e-06,1.0,353,1.074,0,0,0.0,False,1.0469592201351996,1.0504805913743163
1.0912831799996638,11:41:13.454150,11:40:55.353901,0,,0.006899844,0.011695065,0.07086408,-0.6355215,-0.16670534,-0.7538711,-0.48191515,0.8485043,0.21862788,0.6032165,0.5022446,-0.6195806,,0.15390344,-0.034163073,0.046113253,-0.6249634,-0.17846046,0.75998205,0.22272742,0.89229405,0.39268792,-0.74820673,0.41468436,-0.5179031,,0.08749199,1.3322484,0.4648289,0.9960404,0.002840842,-0.08885623,-0.053927384,-0.77529716,-0.62929016,-0.0706777,0.63159025,-0.7720741,,-0.0488299,0.24908234,-0.12537201,0.60618263,0.07976657,0.7913153,0.07408017,0.9849695,-0.1560361,-0.79186785,0.15320715,0.59116226,,0.04473695,0.43162626,-0.3737643,0.6923943,-0.018511692,-0.7212818,-0.32426974,0.88503957,-0.33399716,0.6445458,0.46514758,0.6067936,,0.8265332085967524,-0.35657402226869406,0.16341420627000003,0.6385058779103767,-0.24266642358342222,0.5033566850905471,0.8722573131570512,,-0.6686110440517353,-0.5506617448637044,0.14974482822000001,2.1377889738247258,0.35785099288568856,0.6492989541186304,0.8755241944797366,,-0.06956664232292899,-0.09922196797587764,0.1150502548,-0.034016912529394594,,3.0394644e-05,4.708767e-06,-6.556511e-06,1.0,-3.941357e-05,-3.2234937e-05,3.940612e-05,1.0,-3.606081e-06,3.2234937e-05,3.5762787e-06,1.0,386,1.175,0,0,0.0,False,1.0470187978537204,1.0499495091657423
1.1136215179994906,11:41:13.555087,11:40:55.353901,0,,0.0069538904,0.011678703,0.07087442,-0.6354795,-0.166739,-0.753899,-0.48194957,0.84849554,0.21858598,0.6032332,0.50224817,-0.6195614,,0.15393494,-0.03416931,0.046087027,-0.6249986,-0.17851008,0.75994146,0.22268528,0.8922818,0.39273992,-0.7481898,0.4146896,-0.51792324,,0.08746301,1.3322504,0.46483386,0.9960411,0.002851062,-0.088847935,-0.053914256,-0.77529716,-0.62929136,-0.0706777,0.63159025,-0.7720741,,-0.048855886,0.24906938,-0.12538654,0.60614705,0.07978892,0.7913403,0.074067414,0.9849689,-0.15604582,-0.79189634,0.15319924,0.5911262,,0.044739105,0.43159473,-0.3737511,0.6924302,-0.018475063,-0.72124827,-0.32426742,0.8850462,-0.33398184,0.64450836,0.46513644,0.60684186,,0.8265409313296266,-0.35657402226869406,0.16341420627000003,0.6385058779103767,-0.24266642358342222,0.5033566850905471,0.8722573131570512,,-0.6686110440517353,-0.5506617448637044,0.14974482822000001,2.1377889738247258,0.35785099288568856,0.6492989541186304,0.8755241944797366,,-0.06956664232292899,-0.09922196797587764,0.1150502548,-0.034016912529394594,,1.0691583e-06,6.3180923e-06,-8.940697e-06,1.0,-2.9232353e-05,-2.3912638e-05,2.9228628e-05,1.0,-2.6524067e-06,2.3912638e-05,2.682209e-06,1.0,398,1.213,0,0,0.0,False,1.0464825983870312,1.0503840309727575
1.2145605599998817,11:41:13.593085,11:40:55.559973,0,,0.006954859,0.011678308,0.070874035,-0.6354841,-0.16674185,-0.7538946,-0.4819471,0.8484974,0.2185845,0.60323036,0.5022442,-0.61956733,,0.15393494,-0.03416931,0.046087027,-0.6249986,-0.17851008,0.75994146,0.22268528,0.8922818,0.39273992,-0.7481898,0.4146896,-0.51792324,,0.08746301,1.3322504,0.46483386,0.9960411,0.002851062,-0.088847935,-0.053914256,-0.77529716,-0.62929136,-0.0706777,0.63159025,-0.7720741,,-0.04885679,0.2490687,-0.12538646,0.6061517,0.07979201,0.7913365,0.074067935,0.984968,-0.15605117,-0.7918927,0.15320334,0.59112996,,0.044739105,0.43159473,-0.3737511,0.6924302,-0.018475063,-0.72124827,-0.32426742,0.8850462,-0.33398184,0.64450836,0.46513644,0.60684186,,0.8265332085967524,-0.35657402226869406,0.16341420627000003,0.6385058779103767,-0.24266642358342222,0.5033566850905471,0.8722573131570512,,-0.6686110440517353,-0.5506617448637044,0.14974482822000001,2.1377889738247258,0.35785099288568856,0.6492989541186304,0.8755241944797366,,-0.06956664232292899,-0.09922196797587764,0.1150502548,-0.034016912529394594,,1.0691583e-06,6.3180923e-06,-8.940697e-06,1.0,-2.9232353e-05,-2.3912638e-05,2.9228628e-05,1.0,-2.6524067e-06,2.3912638e-05,2.682209e-06,1.0,406,1.238,0,0,0.0,False,1.0466017538240733,1.0505771517758753
1.2525590189998184,11:41:13.616262,11:40:55.559973,0,,0.006954859,0.011678308,0.070874035,-0.6354841,-0.16674185,-0.7538946,-0.4819471,0.8484974,0.2185845,0.60323036,0.5022442,-0.61956733,,0.15393494,-0.03416931,0.046087027,-0.6249986,-0.17851008,0.75994146,0.22268528,0.8922818,0.39273992,-0.7481898,0.4146896,-0.51792324,,0.08746301,1.3322504,0.46483386,0.9960411,0.002851062,-0.088847935,-0.053914256,-0.77529716,-0.62929136,-0.0706777,0.63159025,-0.7720741,,-0.04885679,0.2490687,-0.12538646,0.6061517,0.07979201,0.7913365,0.074067935,0.984968,-0.15605117,-0.7918927,0.15320334,0.59112996,,0.044739105,0.43159473,-0.3737511,0.6924302,-0.018475063,-0.72124827,-0.32426742,0.8850462,-0.33398184,0.64450836,0.46513644,0.60684186,,0.8265332085967524,-0.35657402226869406,0.16341420627000003,0.6385058779103767,-0.24266642358342222,0.5033566850905471,0.8722573131570512,,-0.6686110440517353,-0.5506617448637044,0.14974482822000001,2.1377889738247258,0.35785099288568856,0.6492989541186304,0.8755241944797366,,-0.06956664232292899,-0.09922196797587764,0.1150502548,-0.034016912529394594,,1.0691583e-06,6.3180923e-06,-8.940697e-06,1.0,-2.9232353e-05,-2.3912638e-05,2.9228628e-05,1.0,-2.6524067e-06,2.3912638e-05,2.682209e-06,1.0,414,1.262,0,0,0.0,False,1.0471975310092834,1.0499977893665218
1.2757301969995751,11:41:13.643769,11:40:55.559973,0,,0.0069538904,0.011678703,0.07087442,-0.6354795,-0.166739,-0.753899,-0.48194957,0.84849554,0.21858598,0.6032332,0.50224817,-0.6195614,,0.15393515,-0.034168698,0.046087027,-0.6250609,-0.17866367,0.7598541,0.22249907,0.89228773,0.39283186,-0.74819326,0.4146106,-0.51798165,,0.08746301,1.3322504,0.46483386,0.9960411,0.002851062,-0.088847935,-0.053914256,-0.77529716,-0.62929136,-0.0706777,0.63159025,-0.7720741,,-0.048855886,0.24906938,-0.12538654,0.60614705,0.07978892,0.7913403,0.074067414,0.9849689,-0.15604582,-0.79189634,0.15319924,0.5911262,,0.044738803,0.43159506,-0.3737506,0.6925187,-0.018313764,-0.7211674,-0.3243662,0.88501996,-0.33395538,0.6443635,0.46519268,0.60695255,,0.8265409313296266,-0.35657402226869406,0.16341420627000003,0.6385058779103767,-0.24266642358342222,0.5033566850905471,0.8722573131570512,,-0.6686110440517353,-0.5506617448637044,0.14974482822000001,2.1375792838812413,0.35785099288568856,0.6492989541186304,0.8755241944797366,,-0.06956664232292899,-0.09922196797587764,0.1150502548,-0.034016912529394594,,1.0691583e-06,6.3180923e-06,-8.940697e-06,1.0,-2.9232353e-05,-2.3912638e-05,2.9228628e-05,1.0,-2.6524067e-06,2.3912638e-05,2.682209e-06,1.0,422,1.287,0,0,0.0,False,1.0466613315425946,1.0502391903704191
1.303240105000441,11:41:13.671594,11:40:55.559973,0,,0.006954859,0.011678308,0.070874035,-0.6354841,-0.16674185,-0.7538946,-0.4819471,0.8484974,0.2185845,0.60323036,0.5022442,-0.61956733,,0.15393537,-0.034168057,0.046087027,-0.62512326,-0.17881726,0.7597668,0.22231287,0.89229363,0.39292383,-0.7481966,0.4145316,-0.51804,,0.08746301,1.3322504,0.46483386,0.9960411,0.002851062,-0.088847935,-0.053914256,-0.77529716,-0.62929136,-0.0706777,0.63159025,-0.7720741,,-0.04885679,0.2490687,-0.12538646,0.6061517,0.07979201,0.7913365,0.074067935,0.984968,-0.15605117,-0.7918927,0.15320334,0.59112996,,0.0447385,0.43159539,-0.37375012,0.6926072,-0.018152455,-0.7210865,-0.324465,0.88499373,-0.33392888,0.6442187,0.46524888,0.60706323,,0.8265332085967524,-0.35657402226869406,0.16341420627000003,0.6385058779103767,-0.24266642358342222,0.5033566850905471,0.8722573131570512,,-0.6686110440517353,-0.5506617448637044,0.14974482822000001,2.137369593937757,0.35785099288568856,0.6492989541186304,0.8755241944797366,,-0.06956664232292899,-0.09922196797587764,0.1150502548,-0.034016912529394594,,1.0691583e-06,6.3180923e-06,-8.940697e-06,1.0,-2.9232353e-05,-2.3912638e-05,2.9228628e-05,1.0,-2.6524067e-06,2.3912638e-05,2.682209e-06,1.0,430,1.311,0,0,0.0,False,1.0470187978537204,1.0506254319766548
