AlexandreBanks6/ExpertPlaybackApp/resources/Motions/PC1/Data_PC1_3.csv
Task Time,PC1 Time,PC2 Time,Gaze Calib,s_T_psm1,Tx,Ty,Tz,R00,R01,R02,R10,R11,R12,R20,R21,R22,s_T_psm3,Tx,Ty,Tz,R00,R01,R02,R10,R11,R12,R20,R21,R22,cart_T_ecm,Tx,Ty,Tz,R00,R01,R02,R10,R11,R12,R20,R21,R22,ecm_T_psm1,Tx,Ty,Tz,R00,R01,R02,R10,R11,R12,R20,R21,R22,ecm_T_psm3,Tx,Ty,Tz,R00,R01,R02,R10,R11,R12,R20,R21,R22,psm1_joints,q1,q2,q3,q4,q5,q6,jaw,psm3_joints,q1,q2,q3,q4,q5,q6,jaw,ecm_joints,q1,q2,q3,q4,ecmi_T_ecm,Tx,Ty,Tz,R00,R01,R02,R10,R11,R12,R20,R21,R22
""
lci_T_si,,,,,-0.07810864,0.0047268975,0.33658686,0.99634534,-0.04999341,0.06925772,-0.02077827,-0.92832446,-0.37118998,0.08285069,0.36839435,-0.9259705
rci_T_si,,,,,-0.08909067,0.009950163,0.34867883,0.9945985,-0.062360853,0.082975335,-0.022699432,-0.9107305,-0.41237688,0.10128435,0.40826592,-0.90722674
ecm_T_lc,,,,,-4.4071905e-05,-0.000346569,-0.018408367,-0.99912006,0.03075457,0.028518898,-0.03198801,-0.99852574,-0.04385276,0.027128182,-0.044726435,0.9986309
ecm_T_rc,,,,,0.00057554984,0.029174112,-0.0048684436,-0.9955508,-0.052743625,-0.07808159,0.04863208,-0.9973746,0.053654663,-0.080706544,0.04961867,0.9955021
cart_T_ecmi,,,,,0.20682392,1.3430053,0.5593755,0.99419594,-0.047310717,-0.09662361,-0.0800823,-0.9251759,-0.3709938,-0.07184185,0.37657836,-0.9235949
ecmac_T_ecmrep_psm1,,,,,0.023358302,-0.14379282,-0.3755157,0.9999625,0.00411225,0.007622192,-0.0040185633,0.9999167,-0.01226611,-0.007671999,0.012235019,0.9998957
ecmac_T_ecmrep_psm3,,,,,-0.013221607,-0.27445275,-0.65629,0.99739635,-0.07101346,0.012556174,0.0696691,0.9938116,0.08651434,-0.018622153,-0.085414305,0.9961715
""
0,09:36:06.733390,NaN,0,,0.09482849,-0.025662728,0.032157235,-0.75002813,0.11369237,-0.6515612,-0.03206092,0.97770756,0.20750853,0.66062856,0.17652687,-0.72966313,,0.018479742,-0.037315793,0.024383515,-0.8048246,-0.40702555,0.4319578,-0.19427077,0.8683696,0.45628214,-0.5608175,0.2833103,-0.7779583,,0.20687565,1.3429981,0.55937517,0.9941917,-0.047359508,-0.09664317,-0.08013473,-0.9251734,-0.3709887,-0.07184185,0.37657836,-0.9235949,,-0.051773265,0.13405354,-0.081432246,0.6800588,-0.09862866,0.7264933,0.24083705,0.9659733,-0.094303265,-0.6924721,0.23909825,0.68067205,,0.05037368,0.2396478,-0.36696386,0.8739781,0.33818048,-0.34899318,-0.36581242,0.93057793,-0.014351985,0.3199118,0.14020936,0.93701535,,0.4895980960272112,-0.5906037192891936,0.18289225981,0.6567489029935303,-0.5729168435164919,0.6375571221323079,1.2695100819956182,,-0.4240707075894163,-0.6031299920111858,0.1787713539,1.742313740412913,0.21028357313901283,0.738020617676368,1.3519988353934294,,-0.12960378692996893,-0.40635846475714477,0.08491787512,0.05233371158368399,,5.203858e-05,4.053116e-06,-2.1457672e-06,1.0,-4.8704445e-05,-1.9848347e-05,4.870817e-05,1.0,-3.784895e-06,1.9863248e-05,3.784895e-06,1.0
0.01884811802301556,09:36:06.753672,NaN,0,,0.09480856,-0.025660105,0.032150246,-0.75004077,0.113765344,-0.6515338,-0.032024637,0.977693,0.20758308,0.66061586,0.17656094,-0.7296664,,0.01856099,-0.037369765,0.024249017,-0.80062217,-0.38126126,0.46221656,-0.1676024,0.88313866,0.43815032,-0.575251,0.27332425,-0.77096057,,0.20687565,1.3429981,0.55937517,0.9941917,-0.047359508,-0.09664317,-0.08013473,-0.9251734,-0.3709887,-0.07184185,0.37657836,-0.9235949,,-0.051752687,0.13405335,-0.08142688,0.68007386,-0.098705076,0.72646874,0.24086538,0.9659728,-0.09423644,-0.6924474,0.23906891,0.68070745,,0.050311524,0.23952879,-0.366866,0.87063986,0.31333187,-0.3792221,-0.3498496,0.93633956,-0.029555244,0.34582004,0.15840268,0.92483354,,0.48968304608882773,-0.5906037192891936,0.18290263013000002,0.6567489029935303,-0.5719603880181336,0.6381657353888224,1.2615062227550387,,-0.4240475393907936,-0.6030218737509466,0.17878820567,1.7637021146483343,0.2232640406167297,0.7209832963541035,1.348895298136878,,-0.12960378692996893,-0.40635846475714477,0.08491787512,0.05233371158368399,,5.203858e-05,4.053116e-06,-2.1457672e-06,1.0,-4.8704445e-05,-1.9848347e-05,4.870817e-05,1.0,-3.784895e-06,1.9863248e-05,3.784895e-06,1.0
0.03908333199797198,09:36:06.783989,09:35:59.939885,0,,0.094777435,-0.025661483,0.032138757,-0.75005835,0.1138446,-0.65149975,-0.03200017,0.9776728,0.20768201,0.6605971,0.17662172,-0.72966874,,0.018710718,-0.037457876,0.024035811,-0.7894208,-0.34344223,0.50878525,-0.12811558,0.9027668,0.41060767,-0.6003344,0.25895882,-0.7566631,,0.20687565,1.3429981,0.55937517,0.9941917,-0.047359508,-0.09664317,-0.08013473,-0.9251734,-0.3709887,-0.07184185,0.37657836,-0.9235949,,-0.051720634,0.13404779,-0.08142015,0.68009394,-0.09879053,0.72643834,0.24088053,0.9659777,-0.09414695,-0.6924224,0.23901363,0.68075234,,0.050192334,0.23933603,-0.36671022,0.861215,0.27689347,-0.426191,-0.32844666,0.94314766,-0.050943784,0.38785502,0.18385457,0.90319765,,0.48978344161619264,-0.5906114420220678,0.18292077819000002,0.6569585929370148,-0.571413842019072,0.6378834212543179,1.2644464159454556,,-0.4236382345484597,-0.602828805429091,0.17892431612,1.8169633602934034,0.243212969582484,0.6985903769038838,1.334357676250927,,-0.12960378692996893,-0.40635846475714477,0.08491787512,0.05233371158368399,,5.203858e-05,4.053116e-06,-2.1457672e-06,1.0,-4.8704445e-05,-1.9848347e-05,4.870817e-05,1.0,-3.784895e-06,1.9863248e-05,3.784895e-06,1.0
0.06940418598242104,09:36:06.807016,09:35:59.939885,0,,0.09475741,-0.025661401,0.032127254,-0.7500732,0.113896765,-0.6514735,-0.031994954,0.97765625,0.20776048,0.6605805,0.17667943,-0.7296697,,0.018848881,-0.037501775,0.023894131,-0.7781284,-0.3123508,0.54493415,-0.09498192,0.91612244,0.38948464,-0.6208822,0.2513101,-0.7425285,,0.20687565,1.3429981,0.55937517,0.9941917,-0.047359508,-0.09664317,-0.08013473,-0.9251734,-0.3709887,-0.07184185,0.37657836,-0.9235949,,-0.05169959,0.13404347,-0.0814117,0.6801105,-0.09884861,0.7264149,0.24087884,0.96598506,-0.09407564,-0.6924067,0.23895982,0.68078715,,0.050074257,0.23921719,-0.36659604,0.8513675,0.24652429,-0.46303257,-0.3104188,0.9483153,-0.06586519,0.4228635,0.1998095,0.8838906,,0.4898452234791864,-0.590619164754942,0.18292985222000002,0.6571682828804993,-0.571413842019072,0.6378834212543179,1.2641197278131873,,-0.42323665243900005,-0.6026434598401096,0.1790824635,1.850723441194412,0.2560568005604354,0.6792141112810989,1.3217801831585878,,-0.12960378692996893,-0.40635846475714477,0.08491787512,0.05233371158368399,,5.203858e-05,4.053116e-06,-2.1457672e-06,1.0,-4.8704445e-05,-1.9848347e-05,4.870817e-05,1.0,-3.784895e-06,1.9863248e-05,3.784895e-06,1.0
0.09244114602915943,09:36:06.829044,09:35:59.939885,0,,0.09472364,-0.02565594,0.03210815,-0.7501007,0.11401826,-0.6514206,-0.031955913,0.9776256,0.20791075,0.6605511,0.17677076,-0.72967416,,0.019158587,-0.037582614,0.023720145,-0.7575335,-0.2820667,0.5887117,-0.06146437,0.92864347,0.36584643,-0.64989626,0.24095608,-0.72081554,,0.20687565,1.3429981,0.55937517,0.9941917,-0.047359508,-0.09664317,-0.08013473,-0.9251734,-0.3709887,-0.07184185,0.37657836,-0.9235949,,-0.051663954,0.13404118,-0.08139559,0.68014205,-0.09897943,0.7263676,0.2409032,0.9659922,-0.0939401,-0.69236726,0.2388769,0.68085635,,0.049791317,0.23903511,-0.36645636,0.8333201,0.21731758,-0.5082821,-0.2969619,0.9515293,-0.0800348,0.4662524,0.21763505,0.85746354,,0.48993017354080287,-0.590619164754942,0.1829454077,0.6571682828804993,-0.571413842019072,0.6378834212543179,1.2641197278131873,,-0.4227578430007981,-0.6022341549977757,0.17937023988,1.9046137566699346,0.2728630900315846,0.6544830792074632,1.3072425612726366,,-0.12960378692996893,-0.40635846475714477,0.08491787512,0.05233371158368399,,5.203858e-05,4.053116e-06,-2.1457672e-06,1.0,-4.8704445e-05,-1.9848347e-05,4.870817e-05,1.0,-3.784895e-06,1.9863248e-05,3.784895e-06,1.0
0.11449588602408767,09:36:06.850950,09:35:59.939885,0,,0.094704956,-0.025649272,0.032099925,-0.75011605,0.11411106,-0.6513867,-0.031905234,0.9776082,0.20800018,0.66053617,0.17680694,-0.729679,,0.01938501,-0.037640773,0.02364561,-0.7414503,-0.28170758,0.60900927,-0.05852911,0.9312964,0.35952953,-0.6684503,0.23092851,-0.70699805,,0.20687565,1.3429981,0.55937517,0.9941917,-0.047359508,-0.09664317,-0.08013473,-0.9251734,-0.3709887,-0.07184185,0.37657836,-0.9235949,,-0.051644336,0.1340442,-0.081387356,0.6801604,-0.09907585,0.72633725,0.24094386,0.9659898,-0.09386029,-0.69233507,0.23884656,0.68089974,,0.04957797,0.2389281,-0.36639953,0.819544,0.2180993,-0.529887,-0.30476215,0.9489989,-0.08075308,0.48525006,0.22767024,0.8442148,,0.4900228463352936,-0.590619164754942,0.18295966689,0.6573779728239838,-0.571413842019072,0.6378834212543179,1.2641197278131873,,-0.4226033883433136,-0.6018943547513098,0.17956857225000003,1.9188726728268826,0.2861168305088323,0.642777076407364,1.2940116919157603,,-0.12960378692996893,-0.40635846475714477,0.08491787512,0.05233371158368399,,5.203858e-05,4.053116e-06,-2.1457672e-06,1.0,-4.8704445e-05,-1.9848347e-05,4.870817e-05,1.0,-3.784895e-06,1.9863248e-05,3.784895e-06,1.0
0.13640563801163808,09:36:06.874480,09:35:59.939885,0,,0.09468626,-0.025642581,0.032091685,-0.7501314,0.114203855,-0.6513527,-0.031854555,0.97759086,0.20808965,0.66052115,0.17684308,-0.72968376,,0.019604936,-0.03767831,0.023617655,-0.7201493,-0.29842934,0.62635857,-0.07874842,0.9320926,0.3535565,-0.6893357,0.20528872,-0.69474655,,0.20687565,1.3429981,0.55937517,0.9941917,-0.047359508,-0.09664317,-0.08013473,-0.9251734,-0.3709887,-0.07184185,0.37657836,-0.9235949,,-0.051624715,0.13404723,-0.08137912,0.6801788,-0.099172264,0.72630686,0.24098453,0.9659874,-0.09378048,-0.6923029,0.23881622,0.68094313,,0.049364604,0.238862,-0.3663737,0.801698,0.23780505,-0.54838765,-0.3343587,0.9389018,-0.081655964,0.49546394,0.2488216,0.8322279,,0.4901464100612812,-0.5906268874878163,0.18296614834000002,0.6577973527109529,-0.571413842019072,0.6378834212543179,1.2641197278131873,,-0.4225647746789425,-0.6015236635733471,0.17977727494,1.9161467035615838,0.3138540399612167,0.6269385773886573,1.2922149071882831,,-0.12960378692996893,-0.40635846475714477,0.08491787512,0.05233371158368399,,5.203858e-05,4.053116e-06,-2.1457672e-06,1.0,-4.8704445e-05,-1.9848347e-05,4.870817e-05,1.0,-3.784895e-06,1.9863248e-05,3.784895e-06,1.0
0.15992891398491338,09:36:06.888597,09:35:59.939885,0,,0.09467636,-0.025639981,0.032090448,-0.7501367,0.11425075,-0.6513384,-0.031820863,0.9775845,0.20812494,0.66051674,0.17684826,-0.7296865,,0.019802794,-0.03767977,0.02363497,-0.7053675,-0.30515593,0.63979423,-0.08629517,0.93284535,0.3497898,-0.70356935,0.1915192,-0.68433225,,0.20687565,1.3429981,0.55937517,0.9941917,-0.047359508,-0.09664317,-0.08013473,-0.9251734,-0.3709887,-0.07184185,0.37657836,-0.9235949,,-0.05161466,0.1340492,-0.081377976,0.6801856,-0.09921963,0.72629404,0.2410137,0.96598315,-0.093749315,-0.692286,0.23881376,0.68096113,,0.0491663,0.23885112,-0.3663716,0.7890527,0.24614115,-0.56285906,-0.34911412,0.9335589,-0.08116098,0.505485,0.26054233,0.8225586,,0.49020819192427495,-0.5906268874878163,0.18296874092,0.6582167325979219,-0.571413842019072,0.6378834212543179,1.2641197278131873,,-0.4225570519460683,-0.6011606951282585,0.18000412569000002,1.9041943767829654,0.34801316490257683,0.6163999943743512,1.2915615309237463,,-0.12960378692996893,-0.40635846475714477,0.08491787512,0.05233371158368399,,5.203858e-05,4.053116e-06,-2.1457672e-06,1.0,-4.8704445e-05,-1.9848347e-05,4.870817e-05,1.0,-3.784895e-06,1.9863248e-05,3.784895e-06,1.0
0.17403152002952993,09:36:06.905151,09:35:59.939885,0,,0.094666354,-0.025639944,0.032084696,-0.7501441,0.11427682,-0.6513253,-0.03181824,0.97757614,0.20816416,0.66050845,0.17687716,-0.729687,,0.020019546,-0.037624933,0.023706079,-0.6957529,-0.3027266,0.65137136,-0.081769705,0.9343336,0.3468929,-0.7136118,0.18808925,-0.67481905,,0.20687565,1.3429981,0.55937517,0.9941917,-0.047359508,-0.09664317,-0.08013473,-0.9251734,-0.3709887,-0.07184185,0.37657836,-0.9235949,,-0.05160414,0.13404705,-0.08137374,0.6801939,-0.09924866,0.7262823,0.24101286,0.96598685,-0.09371367,-0.69227815,0.23878685,0.68097854,,0.048940644,0.23891346,-0.3663871,0.7805904,0.24410044,-0.5754073,-0.35085583,0.9329913,-0.08017121,0.5172802,0.2644659,0.8139281,,0.49033175565026255,-0.5906268874878163,0.18297911124000002,0.6582167325979219,-0.5715504785188374,0.6379948391580142,1.2641197278131873,,-0.4225956656104394,-0.6008208948817926,0.18017523597000001,1.9096463153135634,0.3697383683652819,0.6217179524062586,1.2935216597173573,,-0.12960378692996893,-0.40635846475714477,0.08491787512,0.05233371158368399,,5.203858e-05,4.053116e-06,-2.1457672e-06,1.0,-4.8704445e-05,-1.9848347e-05,4.870817e-05,1.0,-3.784895e-06,1.9863248e-05,3.784895e-06,1.0
0.19054926402168348,09:36:06.926012,09:36:00.095497,0,,0.0946614,-0.02563864,0.03208407,-0.7501468,0.114300266,-0.6513181,-0.031801403,0.9775729,0.20818181,0.66050625,0.17687975,-0.72968835,,0.020137101,-0.03756582,0.023783416,-0.69167316,-0.29804716,0.65784216,-0.07488996,0.9355618,0.34513173,-0.7183174,0.18945256,-0.6694235,,0.20687565,1.3429981,0.55937517,0.9941917,-0.047359508,-0.09664317,-0.08013473,-0.9251734,-0.3709887,-0.07184185,0.37657836,-0.9235949,,-0.05159911,0.13404803,-0.08137317,0.6801973,-0.09927234,0.72627586,0.24102746,0.9659847,-0.093698084,-0.69226974,0.23878561,0.68098754,,0.048812468,0.23899151,-0.36641487,0.77687883,0.23924851,-0.5824255,-0.34748048,0.9342936,-0.07970435,0.52508724,0.2643021,0.8089671,,0.4904707648419986,-0.5906346102206905,0.18298429640000002,0.6582167325979219,-0.5715504785188374,0.6379948391580142,1.2641197278131873,,-0.4226574474734332,-0.6006509947585597,0.18022968015000002,1.916356393505068,0.37657019335355385,0.6258668272981645,1.2933583156512232,,-0.12960378692996893,-0.40635846475714477,0.08491787512,0.05233371158368399,,5.203858e-05,4.053116e-06,-2.1457672e-06,1.0,-4.8704445e-05,-1.9848347e-05,4.870817e-05,1.0,-3.784895e-06,1.9863248e-05,3.784895e-06,1.0
0.21145458903629333,09:36:06.944957,09:36:00.095497,0,,0.09466262,-0.02563461,0.03208282,-0.75014937,0.114320084,-0.65131164,-0.031787023,0.9775702,0.20819673,0.660504,0.17688186,-0.7296899,,0.020299822,-0.037481256,0.02391088,-0.6816785,-0.30043834,0.66712165,-0.077080816,0.9362178,0.34286305,-0.72758025,0.18230006,-0.66135746,,0.20687565,1.3429981,0.55937517,0.9941917,-0.047359508,-0.09664317,-0.08013473,-0.9251734,-0.3709887,-0.07184185,0.37657836,-0.9235949,,-0.05160007,0.13405123,-0.08137031,0.6802006,-0.09929235,0.7262701,0.24103978,0.96598285,-0.09368509,-0.69226223,0.23878463,0.6809955,,0.04863243,0.23911175,-0.3664697,0.76818144,0.2424754,-0.5925394,-0.3547431,0.9316496,-0.07865289,0.53296775,0.27061895,0.8016924,,0.4905557149036151,-0.5906346102206905,0.18298688898,0.6582167325979219,-0.5715504785188374,0.6379948391580142,1.2641197278131873,,-0.4228273475966661,-0.6003806991079619,0.18028282804,1.9232761616400575,0.38517829283877664,0.6235031875533019,1.2905814665269404,,-0.12960378692996893,-0.40635846475714477,0.08491787512,0.05233371158368399,,5.203858e-05,4.053116e-06,-2.1457672e-06,1.0,-4.8704445e-05,-1.9848347e-05,4.870817e-05,1.0,-3.784895e-06,1.9863248e-05,3.784895e-06,1.0
0.2303807280259207,09:36:06.965073,09:36:00.095497,0,,0.094663836,-0.025630563,0.032081597,-0.75015193,0.11433992,-0.6513052,-0.031772643,0.9775675,0.20821162,0.6605017,0.17688403,-0.7296914,,0.02047278,-0.037406392,0.024068743,-0.6750293,-0.29132247,0.67783976,-0.06381753,0.93835413,0.3397336,-0.7350257,0.18607213,-0.65200794,,0.20687565,1.3429981,0.55937517,0.9941917,-0.047359508,-0.09664317,-0.08013473,-0.9251734,-0.3709887,-0.07184185,0.37657836,-0.9235949,,-0.05160103,0.13405444,-0.08136745,0.6802038,-0.09931237,0.7262643,0.2410521,0.96598107,-0.0936721,-0.6922547,0.23878366,0.68100345,,0.048438862,0.23923719,-0.36655477,0.7620323,0.23289545,-0.60420734,-0.34734514,0.93449885,-0.07786679,0.5464962,0.26920548,0.7930134,,0.49057116036936355,-0.5906346102206905,0.18299207414000002,0.6582167325979219,-0.5715504785188374,0.6379948391580142,1.2641197278131873,,-0.42316714784313203,-0.6001953535189805,0.18029449465000003,1.9262118208488406,0.39132693532822144,0.6162840559031679,1.2917248749898804,,-0.12960378692996893,-0.40635846475714477,0.08491787512,0.05233371158368399,,5.203858e-05,4.053116e-06,-2.1457672e-06,1.0,-4.8704445e-05,-1.9848347e-05,4.870817e-05,1.0,-3.784895e-06,1.9863248e-05,3.784895e-06,1.0
0.25049787701573223,09:36:06.990161,09:36:00.095497,0,,0.09466395,-0.025628008,0.032086097,-0.75014985,0.114360735,-0.65130395,-0.03174156,0.9775694,0.20820768,0.66050565,0.17686039,-0.72969365,,0.020717487,-0.037390493,0.024327487,-0.6614625,-0.27883035,0.69621915,-0.045758307,0.941594,0.33362713,-0.7485811,0.18882398,-0.6355878,,0.20687565,1.3429981,0.55937517,0.9941917,-0.047359508,-0.09664317,-0.08013473,-0.9251734,-0.3709887,-0.07184185,0.37657836,-0.9235949,,-0.051601496,0.13405858,-0.08137053,0.68020236,-0.09933069,0.72626317,0.24108215,0.96597314,-0.09367658,-0.6922457,0.23880811,0.68100405,,0.048163816,0.23935309,-0.3667497,0.7496031,0.22005323,-0.62423694,-0.3393212,0.93751556,-0.076978624,0.56829244,0.26952025,0.7774333,,0.49057116036936355,-0.5906346102206905,0.18299466672,0.6582167325979219,-0.571413842019072,0.6378834212543179,1.2641197278131873,,-0.4241711031167812,-0.600010007929999,0.18029319836000002,1.9597622118063647,0.39296657332540674,0.6164172583813408,1.2917248749898802,,-0.12960378692996893,-0.40635846475714477,0.08491787512,0.05233371158368399,,5.203858e-05,4.053116e-06,-2.1457672e-06,1.0,-4.8704445e-05,-1.9848347e-05,4.870817e-05,1.0,-3.784895e-06,1.9863248e-05,3.784895e-06,1.0
0.27560255501884967,09:36:07.009839,09:36:00.095497,0,,0.09466416,-0.025622882,0.032095112,-0.7501456,0.11440238,-0.6513015,-0.031679407,0.9775731,0.20819984,0.66051346,0.17681305,-0.729698,,0.020839475,-0.037413947,0.024545431,-0.6503425,-0.27559462,0.7078858,-0.041101575,0.94326967,0.32947397,-0.7585284,0.1851757,-0.62477565,,0.20687565,1.3429981,0.55937517,0.9941917,-0.047359508,-0.09664317,-0.08013473,-0.9251734,-0.3709887,-0.07184185,0.37657836,-0.9235949,,-0.051602427,0.13406686,-0.0813767,0.6801994,-0.09936735,0.7262609,0.2411422,0.9659573,-0.09368556,-0.6922277,0.23885702,0.6810052,,0.048016883,0.2394262,-0.36693949,0.73963153,0.21723288,-0.63698906,-0.341039,0.9369337,-0.07646972,0.5802048,0.2737975,0.7670706,,0.49057116036936355,-0.5906423329535647,0.18299466672,0.6582167325979219,-0.571413842019072,0.6378834212543179,1.2641197278131873,,-0.4251518901918077,-0.5999559487998795,0.18028542062000003,1.9620688011846945,0.4045806758054692,0.609560456251643,1.2936850037834917,,-0.12960378692996893,-0.40635846475714477,0.08491787512,0.05233371158368399,,5.203858e-05,4.053116e-06,-2.1457672e-06,1.0,-4.8704445e-05,-1.9848347e-05,4.870817e-05,1.0,-3.784895e-06,1.9863248e-05,3.784895e-06,1.0
0.2952775150188245,09:36:07.032335,09:36:00.095497,0,,0.094664805,-0.025607504,0.032122172,-0.7501329,0.11452731,-0.6512943,-0.031493008,0.9775841,0.20817631,0.6605369,0.17667109,-0.72971123,,0.020982325,-0.037469216,0.024811774,-0.6385192,-0.26888105,0.7211077,-0.031704754,0.9453778,0.32443148,-0.76895267,0.18429315,-0.6121665,,0.20687565,1.3429981,0.55937517,0.9941917,-0.047359508,-0.09664317,-0.08013473,-0.9251734,-0.3709887,-0.07184185,0.37657836,-0.9235949,,-0.05160523,0.13409173,-0.0813952,0.6801905,-0.099477306,0.7262542,0.24132237,0.96590966,-0.09371249,-0.6921737,0.23900373,0.68100864,,0.047844443,0.23949285,-0.36718485,0.7288533,0.21060824,-0.651473,-0.33891317,0.9377417,-0.076015204,0.594904,0.27619672,0.754854,,0.49057116036936355,-0.5906423329535647,0.18299466672,0.6580070426544374,-0.571413842019072,0.6378834212543179,1.2641197278131873,,-0.4262485182599476,-0.5999559487998795,0.18025690224000002,1.979053686606941,0.41797105278248237,0.6105665977499157,1.3080592816033079,,-0.12960378692996893,-0.40635846475714477,0.08491787512,0.05233371158368399,,5.203858e-05,4.053116e-06,-2.1457672e-06,1.0,-4.8704445e-05,-1.9848347e-05,4.870817e-05,1.0,-3.784895e-06,1.9863248e-05,3.784895e-06,1.0
0.31777414499083534,09:36:07.048749,09:36:00.095497,0,,0.0946638,-0.025606431,0.03213241,-0.75012594,0.11454913,-0.6512983,-0.03144525,0.97759044,0.20815356,0.6605469,0.17662163,-0.72971416,,0.021078989,-0.03751882,0.024952471,-0.63142556,-0.2661335,0.728337,-0.02765569,0.946392,0.32183462,-0.77494323,0.18307196,-0.6049361,,0.20687565,1.3429981,0.55937517,0.9941917,-0.047359508,-0.09664317,-0.08013473,-0.9251734,-0.3709887,-0.07184185,0.37657836,-0.9235949,,-0.051605202,0.13409682,-0.081404224,0.68018425,-0.09949394,0.72625774,0.24137011,0.9658956,-0.09373446,-0.69216317,0.23905362,0.68100184,,0.04773305,0.23950835,-0.3673225,0.7224105,0.20799734,-0.65943927,-0.33889753,0.93779176,-0.07546556,0.6027201,0.27799946,0.7479604,,0.49057116036936355,-0.5906423329535647,0.18299337043000002,0.6584264225414065,-0.571413842019072,0.6378834212543179,1.2641197278131873,,-0.426881782355634,-0.5999791169985021,0.18022968015000002,1.992264153046466,0.4230266032738036,0.6151020817680479,1.3129596035873368,,-0.12960378692996893,-0.40635846475714477,0.08491787512,0.05233371158368399,,5.203858e-05,4.053116e-06,-2.1457672e-06,1.0,-4.8704445e-05,-1.9848347e-05,4.870817e-05,1.0,-3.784895e-06,1.9863248e-05,3.784895e-06,1.0
0.3342066060286015,09:36:07.065602,09:36:00.095497,0,,0.094661795,-0.02560427,0.03215293,-0.75011235,0.11459277,-0.65130633,-0.03134972,0.9776032,0.20810807,0.660567,0.1765227,-0.7297199,,0.021273911,-0.03763943,0.025144994,-0.6123547,-0.2735375,0.74175406,-0.039180577,0.94758385,0.31709608,-0.7896117,0.16511288,-0.5909747,,0.20687565,1.3429981,0.55937517,0.9941917,-0.047359508,-0.09664317,-0.08013473,-0.9251734,-0.3709887,-0.07184185,0.37657836,-0.9235949,,-0.051605154,0.134107,-0.08142228,0.6801718,-0.09952722,0.7262649,0.24146557,0.96586746,-0.0937784,-0.6921421,0.23915339,0.6809882,,0.04752034,0.23947786,-0.3675309,0.70570534,0.2175044,-0.6742936,-0.35772145,0.9308826,-0.07411445,0.6115679,0.29351225,0.73473483,,0.490586605835112,-0.5906346102206905,0.18299077785,0.6588458024283755,-0.571413842019072,0.6378834212543179,1.2641197278131873,,-0.428017024088145,-0.6001181261902382,0.18018042113000002,1.9941513625378269,0.4411992577426072,0.6132704202587732,1.3212901509601847,,-0.12960378692996893,-0.40635846475714477,0.08491787512,0.05233371158368399,,5.203858e-05,4.053116e-06,-2.1457672e-06,1.0,-4.8704445e-05,-1.9848347e-05,4.870817e-05,1.0,-3.784895e-06,1.9863248e-05,3.784895e-06,1.0
0.3504424720304087,09:36:07.083673,09:36:00.095497,0,,0.09465395,-0.025597163,0.032187574,-0.7501106,0.1148427,-0.6512643,-0.031056792,0.9776018,0.20815891,0.6605827,0.17636839,-0.72974294,,0.021535777,-0.037810333,0.025326252,-0.59109265,-0.27625683,0.75782037,-0.047807008,0.94986737,0.3089769,-0.8051857,0.14640483,-0.5746666,,0.20687565,1.3429981,0.55937517,0.9941917,-0.047359508,-0.09664317,-0.08013473,-0.9251734,-0.3709887,-0.07184185,0.37657836,-0.9235949,,-0.05160052,0.1341274,-0.081451856,0.68017805,-0.09976069,0.726227,0.24174052,0.9658023,-0.09374135,-0.69203997,0.23931931,0.68103373,,0.047244404,0.23939201,-0.367748,0.6868357,0.22241858,-0.6919441,-0.37464917,0.9241423,-0.07482687,0.6228119,0.31063005,0.7180629,,0.4905943285679862,-0.5906346102206905,0.18298688898,0.6590554923718601,-0.571413842019072,0.6378834212543179,1.2644464159454556,,-0.4290595930261653,-0.6004115900394588,0.18016875452000003,1.9845056251375386,0.47276228918842395,0.6002747679668275,1.3363178050445386,,-0.12960378692996893,-0.40635846475714477,0.08491787512,0.05233371158368399,,5.203858e-05,4.053116e-06,-2.1457672e-06,1.0,-4.8704445e-05,-1.9848347e-05,4.870817e-05,1.0,-3.784895e-06,1.9863248e-05,3.784895e-06,1.0
0.36912984802620485,09:36:07.104453,09:36:00.095497,0,,0.094654575,-0.025601812,0.032215707,-0.750087,0.114844054,-0.65129125,-0.030975834,0.97762495,0.20806202,0.6606133,0.17623891,-0.72974646,,0.021754637,-0.03797362,0.025487363,-0.5759627,-0.26915884,0.77189416,-0.037761033,0.95199275,0.30378303,-0.8166034,0.14582017,-0.558476,,0.20687565,1.3429981,0.55937517,0.9941917,-0.047359508,-0.09664317,-0.08013473,-0.9251734,-0.3709887,-0.07184185,0.37657836,-0.9235949,,-0.05160405,0.13413432,-0.08147928,0.6801542,-0.09974857,0.726251,0.24182676,0.965772,-0.09383135,-0.6920333,0.23944671,0.6809957,,0.04701332,0.23930702,-0.36794773,0.6728771,0.21537547,-0.70770746,-0.37273315,0.92507356,-0.072862625,0.6389887,0.3128136,0.70273834,,0.49060205130086043,-0.5906346102206905,0.18297911124000002,0.6590554923718601,-0.571413842019072,0.6378834212543179,1.2644464159454556,,-0.42971602532047437,-0.6007822812174215,0.18017653226000002,1.9954095021987337,0.49530731164972164,0.5988799918061549,1.3402380626317612,,-0.12960378692996893,-0.40635846475714477,0.08491787512,0.05233371158368399,,5.203858e-05,4.053116e-06,-2.1457672e-06,1.0,-4.8704445e-05,-1.9848347e-05,4.870817e-05,1.0,-3.784895e-06,1.9863248e-05,3.784895e-06,1.0
0.38974651001626626,09:36:07.127122,09:36:00.095497,0,,0.09465641,-0.025602423,0.03224256,-0.750066,0.11486523,-0.6513117,-0.030880496,0.9776454,0.2079801,0.6606417,0.17611158,-0.7297516,,0.021946788,-0.038100608,0.025729865,-0.5580232,-0.26298591,0.78705055,-0.029176533,0.95408475,0.2981126,-0.8293123,0.14339036,-0.54007435,,0.20687565,1.3429981,0.55937517,0.9941917,-0.047359508,-0.09664317,-0.08013473,-0.9251734,-0.3709887,-0.07184185,0.37657836,-0.9235949,,-0.05160854,0.13414446,-0.08150384,0.6801336,-0.09975645,0.7262692,0.2419253,0.9657398,-0.09390836,-0.6920191,0.23957314,0.6809657,,0.046797454,0.23929521,-0.36820292,0.65634215,0.20947766,-0.72479934,-0.37296656,0.9251739,-0.07035107,0.6558284,0.31650028,0.68535876,,0.49060205130086043,-0.5906500556864389,0.18297003721000002,0.6590554923718601,-0.571413842019072,0.6378834212543179,1.2644464159454556,,-0.43010988469705985,-0.601245645189875,0.18018819887,2.013862217225372,0.5100640536243892,0.604489466077303,1.3444850083512527,,-0.12960378692996893,-0.40635846475714477,0.08491787512,0.05233371158368399,,5.203858e-05,4.053116e-06,-2.1457672e-06,1.0,-4.8704445e-05,-1.9848347e-05,4.870817e-05,1.0,-3.784895e-06,1.9863248e-05,3.784895e-06,1.0
0.41255372803425416,09:36:07.140069,09:36:00.304039,0,,0.09465419,-0.025605388,0.032254063,-0.75005656,0.11486721,-0.6513223,-0.030847102,0.97765446,0.20794244,0.66065395,0.17605999,-0.7297529,,0.022012286,-0.038150527,0.025865704,-0.54830515,-0.26290923,0.79387677,-0.029912472,0.95485544,0.2955612,-0.83574325,0.13831088,-0.5314164,,0.20687565,1.3429981,0.55937517,0.9941917,-0.047359508,-0.09664317,-0.08013473,-0.9251734,-0.3709887,-0.07184185,0.37657836,-0.9235949,,-0.051607557,0.13414633,-0.08151572,0.6801241,-0.09975307,0.72627854,0.2419607,0.9657275,-0.09394332,-0.69201607,0.239624,0.6809509,,0.046717577,0.2393109,-0.36833933,0.64751977,0.20999825,-0.73254275,-0.37757534,0.9234015,-0.06904007,0.66193277,0.32129487,0.6772109,,0.49060205130086043,-0.5906577784193132,0.18296485205000002,0.6590554923718601,-0.571413842019072,0.6378834212543179,1.2644464159454556,,-0.4302566166216701,-0.6015236635733471,0.18019208774,2.022040125021268,0.5175790611114884,0.6054675317662286,1.342524879557641,,-0.12960378692996893,-0.40635846475714477,0.08491787512,0.05233371158368399,,5.203858e-05,4.053116e-06,-2.1457672e-06,1.0,-4.8704445e-05,-1.9848347e-05,4.870817e-05,1.0,-3.784895e-06,1.9863248e-05,3.784895e-06,1.0
0.4255095790140331,09:36:07.160462,09:36:00.304039,0,,0.094648644,-0.025612764,0.032282792,-0.750033,0.114872195,-0.65134853,-0.030763656,0.9776771,0.20784831,0.6606846,0.17593099,-0.7297563,,0.022167519,-0.038302355,0.026398152,-0.5210489,-0.25388598,0.8148927,-0.017078608,0.95764595,0.28744167,-0.853356,0.13585389,-0.5033163,,0.20687565,1.3429981,0.55937517,0.9941917,-0.047359508,-0.09664317,-0.08013473,-0.9251734,-0.3709887,-0.07184185,0.37657836,-0.9235949,,-0.051605105,0.13415107,-0.081545435,0.6801004,-0.09974461,0.7263019,0.2420492,0.9656969,-0.09403072,-0.69200844,0.23975113,0.68091387,,0.04650358,0.23941992,-0.3688618,0.6221966,0.20125215,-0.7565507,-0.3772981,0.9238401,-0.0645413,0.6859428,0.3256025,0.65074223,,0.49060205130086043,-0.5906655011521874,0.18295318544000003,0.6590554923718601,-0.571413842019072,0.6378017425141773,1.2642830718793214,,-0.43065819873112976,-0.6024658369840025,0.18018690258000003,2.042589739482752,0.5409439025713787,0.6040576781045021,1.3433415998883125,,-0.12960378692996893,-0.40635846475714477,0.08491787512,0.05233371158368399,,5.203858e-05,4.053116e-06,-2.1457672e-06,1.0,-4.8704445e-05,-1.9848347e-05,4.870817e-05,1.0,-3.784895e-06,1.9863248e-05,3.784895e-06,1.0
0.4459155009826645,09:36:07.177125,09:36:00.304039,0,,0.09464743,-0.025616802,0.032284044,-0.7500304,0.114852384,-0.651355,-0.03077808,0.9776798,0.20783347,0.66068685,0.17592885,-0.7297548,,0.02221182,-0.0383467,0.026560515,-0.513235,-0.25337988,0.819993,-0.016829222,0.95821404,0.28555706,-0.8580832,0.13275796,-0.496053,,0.20687565,1.3429981,0.55937517,0.9941917,-0.047359508,-0.09664317,-0.08013473,-0.9251734,-0.3709887,-0.07184185,0.37657836,-0.9235949,,-0.051604148,0.13414787,-0.081548296,0.6800971,-0.0997246,0.72630775,0.24203688,0.96569866,-0.0940437,-0.69201595,0.23975211,0.68090594,,0.046441276,0.23945515,-0.36902043,0.61501855,0.20111038,-0.7624348,-0.38005692,0.92280406,-0.06316157,0.6908755,0.32861415,0.643975,,0.4905943285679862,-0.5906732238850616,0.18295059286,0.6590554923718601,-0.571413842019072,0.6378017425141773,1.2642830718793214,,-0.43080493065574005,-0.6027901917647199,0.18017264339000003,2.0501385774481946,0.5483222735587124,0.6050654829569837,1.343014911756044,,-0.12960378692996893,-0.40635846475714477,0.08491787512,0.05233371158368399,,5.203858e-05,4.053116e-06,-2.1457672e-06,1.0,-4.8704445e-05,-1.9848347e-05,4.870817e-05,1.0,-3.784895e-06,1.9863248e-05,3.784895e-06,1.0
0.46257765899645165,09:36:07.196274,09:36:00.304039,0,,0.09464994,-0.02562619,0.032287143,-0.7500043,0.11464908,-0.65142083,-0.030925453,0.97770756,0.2076807,0.66070956,0.17590687,-0.7297395,,0.022330552,-0.038431115,0.02689594,-0.4911304,-0.25697866,0.83231777,-0.02462703,0.9592087,0.2816245,-0.8707379,0.117816836,-0.47742513,,0.20687565,1.3429981,0.55937517,0.9941917,-0.047359508,-0.09664317,-0.08013473,-0.9251734,-0.3709887,-0.07184185,0.37657836,-0.9235949,,-0.051607262,0.13414048,-0.0815546,0.68006414,-0.09951933,0.72636676,0.2419105,0.9657173,-0.09417711,-0.69209254,0.23976223,0.6808245,,0.0462853,0.23953171,-0.3693422,0.59492546,0.20647967,-0.7768074,-0.3949367,0.9168267,-0.05876852,0.70006335,0.34175265,0.62699,,0.4905943285679862,-0.5906732238850616,0.18294281512000002,0.6590554923718601,-0.571413842019072,0.6378017425141773,1.2642830718793214,,-0.4311678991008286,-0.6034929604562743,0.18008968083000002,2.057058345583184,0.5710039325197757,0.6020890715700845,1.3433415998883125,,-0.12960378692996893,-0.40635846475714477,0.08491787512,0.05233371158368399,,5.203858e-05,4.053116e-06,-2.1457672e-06,1.0,-4.8704445e-05,-1.9848347e-05,4.870817e-05,1.0,-3.784895e-06,1.9863248e-05,3.784895e-06,1.0
0.48136586701730266,09:36:07.217268,09:36:00.304039,0,,0.09465256,-0.025633007,0.032294743,-0.7499944,0.11460679,-0.65143967,-0.030940026,0.97771806,0.20762932,0.6607202,0.1758764,-0.7297373,,0.02250737,-0.038547285,0.027246177,-0.47438842,-0.25523442,0.84250283,-0.020720392,0.96001875,0.27916852,-0.88007176,0.1149773,-0.4607103,,0.20687565,1.3429981,0.55937517,0.9941917,-0.047359508,-0.09664317,-0.08013473,-0.9251734,-0.3709887,-0.07184185,0.37657836,-0.9235949,,-0.05161084,0.13413723,-0.08156397,0.68005276,-0.09947393,0.7263836,0.2419013,0.96571517,-0.09422316,-0.69210696,0.23978986,0.68080014,,0.04607102,0.23958246,-0.3696871,0.5793292,0.20506987,-0.78887516,-0.3975237,0.9160127,-0.053811412,0.71158457,0.34477112,0.61219305,,0.4905943285679862,-0.5906886693508101,0.18293892625000002,0.6590554923718601,-0.571413842019072,0.6378017425141773,1.2642830718793214,,-0.4316080948746594,-0.6042652337436968,0.17997431102000003,2.0604133846789363,0.5986045054723946,0.6022893447824837,1.3431782558221783,,-0.12960378692996893,-0.40635846475714477,0.08491787512,0.05233371158368399,,5.203858e-05,4.053116e-06,-2.1457672e-06,1.0,-4.8704445e-05,-1.9848347e-05,4.870817e-05,1.0,-3.784895e-06,1.9863248e-05,3.784895e-06,1.0
0.5027142059989274,09:36:07.241902,09:36:00.304039,0,,0.094658926,-0.025645174,0.03230422,-0.74997926,0.11452124,-0.6514722,-0.030985773,0.97773445,0.2075454,0.66073525,0.1758411,-0.7297321,,0.022829384,-0.038766183,0.027769417,-0.45170438,-0.26316205,0.8524723,-0.031776965,0.9596463,0.2794093,-0.8916017,0.09912139,-0.44183874,,0.20687565,1.3429981,0.55937517,0.9941917,-0.047359508,-0.09664317,-0.08013473,-0.9251734,-0.3709887,-0.07184185,0.37657836,-0.9235949,,-0.05161849,0.13412979,-0.08157679,0.6800347,-0.09938484,0.7264127,0.24186519,0.9657169,-0.094297774,-0.6921373,0.2398197,0.6807588,,0.045695115,0.23961343,-0.3702192,0.55863833,0.21489324,-0.80108935,-0.41475973,0.90879536,-0.045446508,0.7182601,0.35764775,0.59681696,,0.49057116036936355,-0.5906963920836843,0.18293503738000003,0.6588458024283755,-0.571413842019072,0.6378017425141773,1.2642830718793214,,-0.4325888819496859,-0.6054236436748305,0.17986023750000002,2.0713172617401314,0.6252486229266555,0.6158480693024044,1.323740311952199,,-0.12960378692996893,-0.40635846475714477,0.08491787512,0.05233371158368399,,5.203858e-05,4.053116e-06,-2.1457672e-06,1.0,-4.8704445e-05,-1.9848347e-05,4.870817e-05,1.0,-3.784895e-06,1.9863248e-05,3.784895e-06,1.0
0.5273143150261603,09:36:07.261783,09:36:00.304039,0,,0.09466388,-0.025646478,0.032304846,-0.74997663,0.11449779,-0.65147936,-0.031002596,0.97773767,0.20752773,0.6607374,0.1758385,-0.7297307,,0.022979826,-0.038864143,0.02815932,-0.4483587,-0.26700932,0.853042,-0.03325379,0.9586639,0.2825917,-0.89323497,0.098335564,-0.4387043,,0.20687565,1.3429981,0.55937517,0.9941917,-0.047359508,-0.09664317,-0.08013473,-0.9251734,-0.3709887,-0.07184185,0.37657836,-0.9235949,,-0.05162352,0.1341288,-0.08157736,0.68003136,-0.09936115,0.72641915,0.2418506,0.96571904,-0.09431336,-0.6921457,0.23982093,0.6807498,,0.045501478,0.23970143,-0.37059203,0.555573,0.21884021,-0.80215186,-0.4171353,0.90790933,-0.04121668,0.7192613,0.35750473,0.5956959,,0.4905634376364893,-0.5907041148165585,0.18293374109000002,0.6588458024283755,-0.571413842019072,0.6378017425141773,1.2642830718793214,,-0.43354650082608975,-0.606304035222492,0.17976560833000002,2.0616715243398436,0.6408251838999157,0.6169501353647674,1.271633554855364,,-0.12960378692996893,-0.40635846475714477,0.08491787512,0.05233371158368399,,5.203858e-05,4.053116e-06,-2.1457672e-06,1.0,-4.8704445e-05,-1.9848347e-05,4.870817e-05,1.0,-3.784895e-06,1.9863248e-05,3.784895e-06,1.0
0.5472401059814729,09:36:07.283854,09:36:00.304039,0,,0.09469259,-0.025653183,0.032318823,-0.749954,0.11437887,-0.6515263,-0.031055868,0.9777633,0.20739903,0.66076064,0.17577343,-0.72972536,,0.023131356,-0.038886257,0.028604746,-0.44218057,-0.27960816,0.85222983,-0.051437944,0.95650893,0.28713244,-0.8954499,0.08312744,-0.43733203,,0.20687565,1.3429981,0.55937517,0.9941917,-0.047359508,-0.09664317,-0.08013473,-0.9251734,-0.3709887,-0.07184185,0.37657836,-0.9235949,,-0.05165367,0.13412794,-0.08158982,0.6800048,-0.09923565,0.7264611,0.24181078,0.96571773,-0.09442883,-0.6921857,0.23987819,0.6806889,,0.04529726,0.23988223,-0.37097606,0.5503606,0.23327991,-0.80167556,-0.4346254,0.8998705,-0.03652225,0.71288425,0.36852896,0.5966427,,0.4905634376364893,-0.5907041148165585,0.18292855593000001,0.6588458024283755,-0.571413842019072,0.6378017425141773,1.2642830718793214,,-0.43475896988734297,-0.6072693768317701,0.17960746095000002,2.059784314848483,0.6449242788928788,0.6227556171496178,1.1785274371588246,,-0.12960378692996893,-0.40635846475714477,0.08491787512,0.05233371158368399,,5.203858e-05,4.053116e-06,-2.1457672e-06,1.0,-4.8704445e-05,-1.9848347e-05,4.870817e-05,1.0,-3.784895e-06,1.9863248e-05,3.784895e-06,1.0
0.5693120310315862,09:36:07.301948,09:36:00.304039,0,,0.09471756,-0.025654547,0.032330915,-0.7499365,0.11430322,-0.6515596,-0.031077892,0.97778296,0.20730291,0.66077936,0.17571312,-0.72972304,,0.02329959,-0.038888603,0.028948039,-0.43831658,-0.29146427,0.8502512,-0.06789568,0.95399714,0.292027,-0.89625263,0.07027191,-0.4379419,,0.20680779,1.3430077,0.5593808,0.99419713,-0.04729714,-0.09661816,-0.08006771,-0.92517656,-0.37099522,-0.07184185,0.37657836,-0.9235949,,-0.051617388,0.13413191,-0.08159732,0.67998743,-0.09922005,0.72647953,0.24184357,0.9657051,-0.094473794,-0.6921913,0.2399354,0.6806631,,0.04515144,0.24003778,-0.37125576,0.547219,0.24664153,-0.79982454,-0.44969103,0.8925957,-0.032417472,0.70592445,0.37741336,0.59935784,,0.4905634376364893,-0.5907041148165585,0.18292596335000003,0.6584264225414065,-0.571413842019072,0.6378017425141773,1.2642830718793214,,-0.4360872799417096,-0.6084046185642811,0.17939227681000003,2.033153692025948,0.6538056513776326,0.6146966660079448,1.0955486515626112,,-0.12960378692996893,-0.40635846475714477,0.08491787512,0.05233371158368399,,-1.6592443e-05,5.9604645e-07,-4.2915344e-06,1.0,1.3556331e-05,5.5357814e-06,-1.3552606e-05,1.0,1.0728836e-06,-5.52088e-06,-1.1026859e-06,1.0
0.5873666690313257,09:36:07.322744,09:36:00.304039,0,,0.09475133,-0.025659978,0.032350034,-0.7499275,0.11432186,-0.65156674,-0.031015128,0.9777945,0.20725794,0.6607926,0.17563689,-0.72972935,,0.023550645,-0.038873926,0.029240638,-0.43041754,-0.3099736,0.8477365,-0.09606448,0.949582,0.29843885,-0.89750344,0.047015905,-0.43849412,,0.20680779,1.3430077,0.5593808,0.99419713,-0.04729714,-0.09661816,-0.08006771,-0.92517656,-0.37099522,-0.07184185,0.37657836,-0.9235949,,-0.05165303,0.13413422,-0.08161343,0.67997915,-0.09923073,0.7264858,0.24190632,0.9656851,-0.0945175,-0.6921775,0.24001144,0.6806503,,0.044865973,0.24016829,-0.37148014,0.5405364,0.26801208,-0.79748976,-0.47558722,0.8792584,-0.026859675,0.6940009,0.39379457,0.60273427,,0.49057116036936355,-0.5907041148165585,0.1829194819,0.6582167325979219,-0.571413842019072,0.6378017425141773,1.2642830718793214,,-0.4375700446535607,-0.6098333241460127,0.1791991296,2.0094587284121967,0.6628236603621516,0.6044026497189205,1.0970187481578195,,-0.12960378692996893,-0.40635846475714477,0.08491787512,0.05233371158368399,,-1.6592443e-05,5.9604645e-07,-4.2915344e-06,1.0,1.3556331e-05,5.5357814e-06,-1.3552606e-05,1.0,1.0728836e-06,-5.52088e-06,-1.1026859e-06,1.0
0.6081504790345207,09:36:07.345023,09:36:00.304039,0,,0.09478247,-0.0256586,0.032361522,-0.7499101,0.11424256,-0.6516008,-0.03103958,0.97781473,0.20715904,0.6608112,0.17557609,-0.72972715,,0.02375342,-0.038849562,0.029451907,-0.41902903,-0.32554376,0.84760606,-0.11989701,0.945179,0.30374584,-0.9000219,0.025652885,-0.43508914,,0.20680779,1.3430077,0.5593808,0.99419713,-0.04729714,-0.09661816,-0.08006771,-0.92517656,-0.37099522,-0.07184185,0.37657836,-0.9235949,,-0.05168509,0.13413978,-0.08162015,0.6799592,-0.09914523,0.7265162,0.24189115,0.9656802,-0.09460701,-0.6922024,0.24006674,0.6806055,,0.04463806,0.24027254,-0.37163347,0.5303951,0.28623465,-0.79796666,-0.49862415,0.86657387,-0.020582732,0.6856056,0.40880242,0.60235006,,0.4905402694378666,-0.5907118375494328,0.18291170416000002,0.6582167325979219,-0.571413842019072,0.6378017425141773,1.2642830718793214,,-0.43896013657092114,-0.6112311387962472,0.17907857463000001,1.9845056251375386,0.6734813073438559,0.594731908348913,1.0988155328852964,,-0.12960378692996893,-0.40635846475714477,0.08491787512,0.05233371158368399,,-1.6592443e-05,5.9604645e-07,-4.2915344e-06,1.0,1.3556331e-05,5.5357814e-06,-1.3552606e-05,1.0,1.0728836e-06,-5.52088e-06,-1.1026859e-06,1.0
0.6304364739917219,09:36:07.365322,09:36:00.304039,0,,0.09480756,-0.025657386,0.032378137,-0.7498905,0.11418771,-0.65163285,-0.031030506,0.97783625,0.20705894,0.6608338,0.17549206,-0.7297269,,0.023879007,-0.038861886,0.029678017,-0.40326434,-0.3474513,0.846555,-0.15882954,0.9376471,0.30917823,-0.9011942,-0.009777397,-0.43330514,,0.20680779,1.3430077,0.5593808,0.99419713,-0.04729714,-0.09661816,-0.08006771,-0.92517656,-0.37099522,-0.07184185,0.37657836,-0.9235949,,-0.05171163,0.13414727,-0.081632234,0.67993784,-0.099081725,0.7265448,0.24190827,0.96566695,-0.09469842,-0.69221735,0.24014623,0.6805622,,0.044486158,0.24035896,-0.3718246,0.5162831,0.31258145,-0.7973359,-0.53458786,0.84498173,-0.014890933,0.66907966,0.43393406,0.603352,,0.49047848757487283,-0.5907118375494328,0.18290263013000002,0.6582167325979219,-0.5712772055193065,0.6376903246104808,1.2642830718793214,,-0.44017260563217436,-0.612767962638218,0.17903320448,1.9505358542930458,0.6934302363096103,0.5780565007085328,1.0859113516606884,,-0.12960378692996893,-0.40635846475714477,0.08491787512,0.05233371158368399,,-1.6592443e-05,5.9604645e-07,-4.2915344e-06,1.0,1.3556331e-05,5.5357814e-06,-1.3552606e-05,1.0,1.0728836e-06,-5.52088e-06,-1.1026859e-06,1.0
0.6507366960286163,09:36:07.385307,09:36:00.304039,0,,0.094821416,-0.025660187,0.03239025,-0.74987584,0.11413913,-0.65165824,-0.031033278,0.9778521,0.2069832,0.66085035,0.17543478,-0.72972566,,0.023981899,-0.038915098,0.029889196,-0.3819724,-0.3725363,0.84576225,-0.20768458,0.9263493,0.31423602,-0.9005356,-0.05562231,-0.43120986,,0.20680779,1.3430077,0.5593808,0.99419713,-0.04729714,-0.09661816,-0.08006771,-0.92517656,-0.37099522,-0.07184185,0.37657836,-0.9235949,,-0.051726695,0.1341494,-0.08164297,0.6799215,-0.09902726,0.7265675,0.24191222,0.9656592,-0.09476715,-0.6922321,0.24019979,0.68052834,,0.044360064,0.24040453,-0.37202466,0.49681583,0.3434924,-0.7969862,-0.578832,0.8153927,-0.00940003,0.6466279,0.46599117,0.60392433,,0.49042442844475326,-0.5907041148165585,0.18289225981,0.6584264225414065,-0.5712772055193065,0.6376903246104808,1.2642830718793214,,-0.4409294334538484,-0.6145287457335411,0.1790046861,1.890354840512987,0.7285458167493284,0.5470534159944761,1.0694136009811261,,-0.12960378692996893,-0.40635846475714477,0.08491787512,0.05233371158368399,,-1.6592443e-05,5.9604645e-07,-4.2915344e-06,1.0,1.3556331e-05,5.5357814e-06,-1.3552606e-05,1.0,1.0728836e-06,-5.52088e-06,-1.1026859e-06,1.0
0.6707538409973495,09:36:07.401061,09:36:00.566552,0,,0.09482637,-0.025661476,0.032390878,-0.7498732,0.11411568,-0.6516654,-0.031050116,0.9778553,0.20696552,0.66085255,0.17543219,-0.7297243,,0.02405227,-0.038939685,0.029968977,-0.3719785,-0.38189203,0.846044,-0.22655079,0.9212363,0.31622562,-0.90017045,-0.0740428,-0.42919803,,0.20680779,1.3430077,0.5593808,0.99419713,-0.04729714,-0.09661816,-0.08006771,-0.92517656,-0.37099522,-0.07184185,0.37657836,-0.9235949,,-0.051731724,0.13414842,-0.08164354,0.6799181,-0.099003576,0.7265739,0.24189763,0.9656613,-0.09478274,-0.6922405,0.24020101,0.68051934,,0.04428133,0.24041502,-0.3720996,0.48752752,0.3552152,-0.7975833,-0.59602493,0.8029378,-0.006723858,0.63802135,0.47865757,0.6031714,,0.49040126024613057,-0.5907041148165585,0.18288707465,0.6584264225414065,-0.5712772055193065,0.6376903246104808,1.2642830718793214,,-0.44103755171408754,-0.6153241872195863,0.17900338981000002,1.8683373964471122,0.7439857412228232,0.5344631928767805,1.0677801603197834,,-0.12960378692996893,-0.40635846475714477,0.08491787512,0.05233371158368399,,-1.6592443e-05,5.9604645e-07,-4.2915344e-06,1.0,1.3556331e-05,5.5357814e-06,-1.3552606e-05,1.0,1.0728836e-06,-5.52088e-06,-1.1026859e-06,1.0
0.6864579970133491,09:36:07.418099,09:36:00.566552,0,,0.09482779,-0.025652304,0.03239864,-0.7498716,0.11417713,-0.65165645,-0.030973539,0.9778563,0.20697257,0.6608579,0.17538701,-0.72973025,,0.024300203,-0.038952067,0.030141532,-0.3646504,-0.38878697,0.84609383,-0.24181616,0.91702425,0.31716186,-0.89919686,-0.088945985,-0.42840824,,0.20680779,1.3430077,0.5593808,0.99419713,-0.04729714,-0.09661816,-0.08006771,-0.92517656,-0.37099522,-0.07184185,0.37657836,-0.9235949,,-0.05173361,0.13415991,-0.08164683,0.67991847,-0.099060215,0.72656584,0.24196999,0.9656436,-0.09477875,-0.69221485,0.24024895,0.6805285,,0.044014685,0.24046455,-0.37223318,0.4806808,0.3640335,-0.7977629,-0.6095423,0.7927342,-0.005532333,0.6304,0.4889295,0.6029459,,0.49035492384888524,-0.5906886693508101,0.18287411175,0.6582167325979219,-0.5712772055193065,0.6376903246104808,1.2642830718793214,,-0.4409448789195968,-0.6172780386367651,0.17900598239,1.824721888202331,0.7683070381810716,0.5144674485385363,1.067126784055246,,-0.12960378692996893,-0.40635846475714477,0.08491787512,0.05233371158368399,,-1.6592443e-05,5.9604645e-07,-4.2915344e-06,1.0,1.3556331e-05,5.5357814e-06,-1.3552606e-05,1.0,1.0728836e-06,-5.52088e-06,-1.1026859e-06,1.0
0.7033287310041487,09:36:07.438691,09:36:00.566552,0,,0.09483396,-0.025649548,0.03239803,-0.7498716,0.11417348,-0.6516572,-0.030975983,0.9778568,0.20696978,0.66085786,0.1753865,-0.7297304,,0.024518952,-0.038920864,0.030296534,-0.36238822,-0.39223382,0.84547466,-0.25001422,0.91479844,0.31723323,-0.89786845,-0.096419066,-0.42957616,,0.20680779,1.3430077,0.5593808,0.99419713,-0.04729714,-0.09661816,-0.08006771,-0.92517656,-0.37099522,-0.07184185,0.37657836,-0.9235949,,-0.051739592,0.13416213,-0.081644535,0.67991835,-0.099056534,0.7265665,0.24196771,0.9656439,-0.09478135,-0.69221574,0.2402492,0.6805275,,0.04377757,0.24054635,-0.37233287,0.47856444,0.36844885,-0.79700786,-0.6162633,0.78751755,-0.005974509,0.6254564,0.49402586,0.6039394,,0.49033175565026255,-0.5906886693508101,0.18286633401000002,0.6582167325979219,-0.5712772055193065,0.6376903246104808,1.2642830718793214,,-0.4407054742004959,-0.6189924853348429,0.17900727868000002,1.8284963071850524,0.7685803111806025,0.5145713276917057,1.0674534721875149,,-0.12960378692996893,-0.40635846475714477,0.08491787512,0.05233371158368399,,-1.6592443e-05,5.9604645e-07,-4.2915344e-06,1.0,1.3556331e-05,5.5357814e-06,-1.3552606e-05,1.0,1.0728836e-06,-5.52088e-06,-1.1026859e-06,1.0
0.7241124520078301,09:36:07.458362,09:36:00.566552,0,,0.09483396,-0.025649548,0.03239803,-0.7498716,0.11417348,-0.6516572,-0.030975983,0.9778568,0.20696978,0.66085786,0.1753865,-0.7297304,,0.024711907,-0.038896963,0.030458778,-0.3711013,-0.38054568,0.8470353,-0.24419668,0.9200587,0.30636585,-0.8959085,-0.09315044,-0.43436298,,0.20680779,1.3430077,0.5593808,0.99419713,-0.04729714,-0.09661816,-0.08006771,-0.92517656,-0.37099522,-0.07184185,0.37657836,-0.9235949,,-0.051739592,0.13416213,-0.081644535,0.67991835,-0.099056534,0.7265665,0.24196771,0.9656439,-0.09478135,-0.69221574,0.2402492,0.6805275,,0.043565433,0.2406276,-0.37244475,0.48675913,0.35626876,-0.7975827,-0.60945666,0.7926174,-0.017896265,0.62580204,0.49480322,0.60294414,,0.49033175565026255,-0.5906963920836843,0.18286114885000002,0.6582167325979219,-0.5712772055193065,0.6376903246104808,1.2642830718793214,,-0.44069775146762163,-0.6206065365055559,0.17900338981000002,1.8125598714802285,0.7685803111806025,0.5082003859607418,1.0668000959229775,,-0.12960378692996893,-0.40635846475714477,0.08491787512,0.05233371158368399,,-1.6592443e-05,5.9604645e-07,-4.2915344e-06,1.0,1.3556331e-05,5.5357814e-06,-1.3552606e-05,1.0,1.0728836e-06,-5.52088e-06,-1.1026859e-06,1.0
0.7438013560022227,09:36:07.473863,09:36:00.566552,0,,0.094840124,-0.025646813,0.03239739,-0.7498715,0.11416986,-0.6516578,-0.030978441,0.97785735,0.20696703,0.6608578,0.17538604,-0.72973055,,0.024836436,-0.03889948,0.03062439,-0.3760094,-0.37057978,0.8492865,-0.24930108,0.9232095,0.29246104,-0.8924494,-0.10175991,-0.4395213,,0.20680779,1.3430077,0.5593808,0.99419713,-0.04729714,-0.09661816,-0.08006771,-0.92517656,-0.37099522,-0.07184185,0.37657836,-0.9235949,,-0.051745575,0.13416433,-0.08164224,0.6799182,-0.09905286,0.7265671,0.24196544,0.9656442,-0.09478395,-0.69221663,0.24024945,0.6805265,,0.043421667,0.2406936,-0.37257862,0.4913829,0.3473306,-0.7986891,-0.6118058,0.7903314,-0.032709375,0.61986816,0.50471544,0.6008542,,0.49032403291738835,-0.5906963920836843,0.18285725998000002,0.6582167325979219,-0.571413842019072,0.6378017425141773,1.2642830718793214,,-0.4412151745701947,-0.6220738557516585,0.17896838998000003,1.8194796396152177,0.7627049416906886,0.49894261251551136,1.0664734077907094,,-0.12960378692996893,-0.40635846475714477,0.08491787512,0.05233371158368399,,-1.6592443e-05,5.9604645e-07,-4.2915344e-06,1.0,1.3556331e-05,5.5357814e-06,-1.3552606e-05,1.0,1.0728836e-06,-5.52088e-06,-1.1026859e-06,1.0
0.7592559630284086,09:36:07.492208,09:36:00.566552,0,,0.09483902,-0.025648281,0.032403156,-0.74986684,0.114170834,-0.65166306,-0.030961767,0.97786176,0.20694819,0.66086394,0.17536023,-0.7297312,,0.024887696,-0.03889242,0.030729324,-0.37841323,-0.3656828,0.8503407,-0.2519904,0.92465633,0.2855025,-0.8906764,-0.106239796,-0.4420507,,0.20680779,1.3430077,0.5593808,0.99419713,-0.04729714,-0.09661816,-0.08006771,-0.92517656,-0.37099522,-0.07184185,0.37657836,-0.9235949,,-0.051745087,0.13416529,-0.081648186,0.6799135,-0.099051155,0.72657174,0.24198313,0.96563804,-0.09480143,-0.69221514,0.24027488,0.68051904,,0.043357696,0.24074548,-0.3726617,0.4936445,0.34297284,-0.7991775,-0.61308366,0.7890001,-0.040090904,0.6168011,0.50975335,0.5997566,,0.49033175565026255,-0.5906963920836843,0.18285596369,0.6582167325979219,-0.5715504785188374,0.6379131604178737,1.2642830718793214,,-0.44167853854264816,-0.6227689017103387,0.17892431612,1.8182214999543107,0.7601088481951452,0.4894611715857834,1.0668000959229778,,-0.12960378692996893,-0.40635846475714477,0.08491787512,0.05233371158368399,,-1.6592443e-05,5.9604645e-07,-4.2915344e-06,1.0,1.3556331e-05,5.5357814e-06,-1.3552606e-05,1.0,1.0728836e-06,-5.52088e-06,-1.1026859e-06,1.0
0.7776592199807055,09:36:07.508231,09:36:00.566552,0,,0.094836816,-0.025651231,0.03241463,-0.7498574,0.1141728,-0.65167356,-0.030928373,0.9778708,0.20691057,0.6608762,0.17530861,-0.7297326,,0.024948567,-0.038832814,0.030971408,-0.3822837,-0.35760483,0.8520434,-0.25684607,0.92686594,0.27376968,-0.88763136,-0.11418629,-0.44617504,,0.20680779,1.3430077,0.5593808,0.99419713,-0.04729714,-0.09661816,-0.08006771,-0.92517656,-0.37099522,-0.07184185,0.37657836,-0.9235949,,-0.05174411,0.13416718,-0.08166006,0.67990404,-0.09904775,0.72658104,0.24201854,0.96562576,-0.09483639,-0.69221205,0.24032573,0.68050426,,0.043265466,0.24090816,-0.37283748,0.4972812,0.33585897,-0.79994386,-0.6155085,0.7863822,-0.052462757,0.61144155,0.518461,0.5977771,,0.4903394783831368,-0.5906963920836843,0.18285337111000002,0.6582167325979219,-0.5715504785188374,0.6377498029375925,1.2642830718793214,,-0.44299140313126634,-0.6238964207099754,0.17879209454000003,1.7989300251537346,0.7539602057057003,0.46564238198250396,1.0705570094440662,,-0.12960378692996893,-0.40635846475714477,0.08491787512,0.05233371158368399,,-1.6592443e-05,5.9604645e-07,-4.2915344e-06,1.0,1.3556331e-05,5.5357814e-06,-1.3552606e-05,1.0,1.0728836e-06,-5.52088e-06,-1.1026859e-06,1.0
0.79361027298728,09:36:07.520703,09:36:00.566552,0,,0.0948357,-0.025652707,0.032420382,-0.7498528,0.11417379,-0.6516788,-0.03091167,0.97787535,0.2068917,0.6608823,0.17528284,-0.7297332,,0.024983972,-0.038755715,0.031144649,-0.3848191,-0.35510024,0.8519496,-0.25375426,0.9281647,0.27224854,-0.88742507,-0.11141941,-0.4472837,,0.20680779,1.3430077,0.5593808,0.99419713,-0.04729714,-0.09661816,-0.08006771,-0.92517656,-0.37099522,-0.07184185,0.37657836,-0.9235949,,-0.051743623,0.13416813,-0.08166601,0.67989933,-0.09904605,0.7265857,0.24203624,0.9656196,-0.09485387,-0.6922105,0.24035116,0.6804968,,0.043206345,0.2410554,-0.37294722,0.4996609,0.33298907,-0.7996607,-0.61248183,0.78861654,-0.05431369,0.6125398,0.5169161,0.59799063,,0.49033175565026255,-0.5906886693508101,0.18285077853,0.6582167325979219,-0.5715504785188374,0.6377498029375925,1.2642830718793214,,-0.44384862648030526,-0.6243443392166805,0.17870394682000001,1.7989300251537346,0.7480848362157865,0.45711971719853844,1.0756206754942288,,-0.12960378692996893,-0.40635846475714477,0.08491787512,0.05233371158368399,,-1.6592443e-05,5.9604645e-07,-4.2915344e-06,1.0,1.3556331e-05,5.5357814e-06,-1.3552606e-05,1.0,1.0728836e-06,-5.52088e-06,-1.1026859e-06,1.0
0.8053350360132754,09:36:07.544865,09:36:00.566552,0,,0.09485473,-0.025651664,0.032442123,-0.74983114,0.11414336,-0.6517089,-0.030869067,0.9778981,0.20679045,0.6609087,0.17517562,-0.729735,,0.025121473,-0.038407117,0.031612694,-0.37673616,-0.3599573,0.8535224,-0.2664773,0.9245763,0.27230257,-0.8871639,-0.12485811,-0.44424176,,0.20680779,1.3430077,0.5593808,0.99419713,-0.04729714,-0.09661816,-0.08006771,-0.92517656,-0.37099522,-0.07184185,0.37657836,-0.9235949,,-0.05176465,0.13417757,-0.08168346,0.6798767,-0.09900451,0.72661257,0.24208564,0.96559805,-0.09494719,-0.69221544,0.24045484,0.68045515,,0.043000124,0.24157175,-0.37317154,0.492063,0.3395842,-0.8015963,-0.62419105,0.7794754,-0.052949067,0.6068439,0.5264035,0.59551644,,0.49030086471876566,-0.5906963920836843,0.18283781563,0.6582167325979219,-0.5715504785188374,0.6377498029375925,1.2642830718793214,,-0.44693771962999507,-0.6249776033123668,0.17838376319000002,1.7949459162275283,0.7382470082326748,0.44398701256827505,1.031844465770242,,-0.12960378692996893,-0.40635846475714477,0.08491787512,0.05233371158368399,,-1.6592443e-05,5.9604645e-07,-4.2915344e-06,1.0,1.3556331e-05,5.5357814e-06,-1.3552606e-05,1.0,1.0728836e-06,-5.52088e-06,-1.1026859e-06,1.0
0.8302289060084149,09:36:07.561746,09:36:00.566552,0,,0.09486352,-0.025655732,0.03244911,-0.74982125,0.11409742,-0.65172845,-0.03088604,0.977909,0.20673633,0.6609192,0.1751446,-0.729733,,0.02526164,-0.03810498,0.031864643,-0.36517748,-0.3638696,0.85688066,-0.27383524,0.9217128,0.2746996,-0.8897526,-0.13432994,-0.43622902,,0.20680779,1.3430077,0.5593808,0.99419713,-0.04729714,-0.09661816,-0.08006771,-0.92517656,-0.37099522,-0.07184185,0.37657836,-0.9235949,,-0.051774215,0.13417654,-0.081690535,0.6798652,-0.098955415,0.72663,0.24207416,0.96559614,-0.09499584,-0.69223076,0.24048272,0.68042976,,0.042819448,0.24194361,-0.37323058,0.4811778,0.3447293,-0.80599606,-0.6329015,0.7727852,-0.04731596,0.6065506,0.53288347,0.59002674,,0.4902854192530172,-0.5906963920836843,0.18283392676000002,0.6582167325979219,-0.5715504785188374,0.6377498029375925,1.2642830718793214,,-0.44921592582789127,-0.6250084942438638,0.17814006067000002,1.776283511257406,0.74767492671649,0.4326236339068968,1.009956360908249,,-0.12960378692996893,-0.40635846475714477,0.08491787512,0.05233371158368399,,-1.6592443e-05,5.9604645e-07,-4.2915344e-06,1.0,1.3556331e-05,5.5357814e-06,-1.3552606e-05,1.0,1.0728836e-06,-5.52088e-06,-1.1026859e-06,1.0
0.8471659740316682,09:36:07.582294,09:36:00.754797,0,,0.09489246,-0.025657251,0.03247209,-0.7497944,0.11402006,-0.6517728,-0.030877084,0.9779382,0.20659968,0.66095,0.17503217,-0.7297321,,0.025346696,-0.037968576,0.03195256,-0.35682037,-0.3658116,0.85957026,-0.27828157,0.9199893,0.27600563,-0.89176154,-0.1407181,-0.43006957,,0.20680779,1.3430077,0.5593808,0.99419713,-0.04729714,-0.09661816,-0.08006771,-0.92517656,-0.37099522,-0.07184185,0.37657836,-0.9235949,,-0.0518053,0.13418402,-0.081709124,0.6798358,-0.09886648,0.7266696,0.2420944,0.9655788,-0.09512034,-0.6922525,0.24058884,0.6803701,,0.042719472,0.24209712,-0.3732328,0.4732936,0.34750116,-0.80946654,-0.63850284,0.7683912,-0.043463755,0.6068833,0.53741777,0.58555514,,0.4902699737872688,-0.5906963920836843,0.18282485273000001,0.6582167325979219,-0.5715504785188374,0.6377498029375925,1.2642830718793214,,-0.45023532656728893,-0.6249621578466185,0.17804672779000003,1.7741866118225607,0.7517740217094534,0.4312413865593776,1.0145299947600086,,-0.12960378692996893,-0.40635846475714477,0.08491787512,0.05233371158368399,,-1.6592443e-05,5.9604645e-07,-4.2915344e-06,1.0,1.3556331e-05,5.5357814e-06,-1.3552606e-05,1.0,1.0728836e-06,-5.52088e-06,-1.1026859e-06,1.0
0.8677031230181456,09:36:07.604781,09:36:00.754797,0,,0.094946474,-0.025657557,0.032511696,-0.74974823,0.11388777,-0.6518491,-0.030859053,0.9779887,0.20636296,0.6610033,0.17483573,-0.7297309,,0.025671206,-0.03746155,0.032215655,-0.32846808,-0.3730585,0.8677189,-0.2932898,0.91356456,0.28174636,-0.89782506,-0.16194838,-0.40949094,,0.20680779,1.3430077,0.5593808,0.99419713,-0.04729714,-0.09661816,-0.08006771,-0.92517656,-0.37099522,-0.07184185,0.37657836,-0.9235949,,-0.05186292,0.13419901,-0.08173978,0.6797852,-0.098713964,0.7267377,0.24213172,0.96554816,-0.095336296,-0.6922892,0.24077445,0.6802671,,0.042347338,0.24263643,-0.3731851,0.4464505,0.35752407,-0.82027954,-0.6570784,0.75325197,-0.029315928,0.607396,0.55207604,0.57121104,,0.4901850237256523,-0.5906886693508101,0.18279763064000001,0.6575876627674684,-0.571413842019072,0.6376383850338961,1.2642830718793214,,-0.453092737730752,-0.6242593891550641,0.17783672881,1.7548951370219843,0.774319044170751,0.4187383017395886,1.011263113437323,,-0.12960378692996893,-0.40635846475714477,0.08491787512,0.05233371158368399,,-1.6592443e-05,5.9604645e-07,-4.2915344e-06,1.0,1.3556331e-05,5.5357814e-06,-1.3552606e-05,1.0,1.0728836e-06,-5.52088e-06,-1.1026859e-06,1.0
0.8902129839989357,09:36:07.627706,09:36:00.754797,0,,0.09497671,-0.025652468,0.032537922,-0.74972194,0.113850996,-0.6518856,-0.030804604,0.978017,0.20623729,0.6610356,0.1747017,-0.7297337,,0.025859825,-0.0370875,0.032384694,-0.3063415,-0.37705183,0.87406343,-0.30564806,0.9085512,0.28480566,-0.9015177,-0.17990795,-0.393572,,0.20680779,1.3430077,0.5593808,0.99419713,-0.04729714,-0.09661816,-0.08006771,-0.92517656,-0.37099522,-0.07184185,0.37657836,-0.9235949,,-0.051895417,0.13421385,-0.081758566,0.67975765,-0.09866331,0.7267703,0.24219428,0.965521,-0.09545234,-0.6922943,0.24090406,0.680216,,0.042126246,0.24302688,-0.3731327,0.42539692,0.3638684,-0.8286358,-0.6716395,0.7406193,-0.019580891,0.60657877,0.5648742,0.55944556,,0.4900460145339163,-0.5906886693508101,0.18277170484000002,0.6575876627674684,-0.5715504785188374,0.6377498029375925,1.2642830718793214,,-0.45452916604535776,-0.6234407794703962,0.17779524753,1.7418943605259438,0.797273976131345,0.4067994293502565,0.994438674625492,,-0.12960378692996893,-0.40635846475714477,0.08491787512,0.05233371158368399,,-1.6592443e-05,5.9604645e-07,-4.2915344e-06,1.0,1.3556331e-05,5.5357814e-06,-1.3552606e-05,1.0,1.0728836e-06,-5.52088e-06,-1.1026859e-06,1.0
0.9131479460047558,09:36:07.641771,09:36:00.754797,0,,0.094991684,-0.025653765,0.0325443,-0.749712,0.113801405,-0.6519058,-0.030824035,0.9780283,0.20618033,0.661046,0.17467025,-0.7297318,,0.025936447,-0.036880508,0.032462925,-0.292164,-0.38254392,0.8765274,-0.31712502,0.903414,0.288574,-0.90225935,-0.19365779,-0.38525924,,0.20680779,1.3430077,0.5593808,0.99419713,-0.04729714,-0.09661816,-0.08006771,-0.92517656,-0.37099522,-0.07184185,0.37657836,-0.9235949,,-0.05191097,0.13421506,-0.08176335,0.6797461,-0.09861052,0.7267883,0.24218054,0.96551937,-0.095503606,-0.6923105,0.24093218,0.68018955,,0.042033307,0.2432381,-0.37309292,0.4118335,0.3711864,-0.83223426,-0.68329495,0.730035,-0.012526136,0.6029106,0.5738201,0.55428267,,0.489968787205174,-0.5906809466179358,0.18276263081000002,0.6575876627674684,-0.5715504785188374,0.6377498029375925,1.2642830718793214,,-0.4551855983396668,-0.6229388018335716,0.17777969205000002,1.7330873828995936,0.810937626107889,0.40014996968834515,1.048832248648207,,-0.12960378692996893,-0.40635846475714477,0.08491787512,0.05233371158368399,,-1.6592443e-05,5.9604645e-07,-4.2915344e-06,1.0,1.3556331e-05,5.5357814e-06,-1.3552606e-05,1.0,1.0728836e-06,-5.52088e-06,-1.1026859e-06,1.0
0.9272069840226322,09:36:07.664601,09:36:00.754797,0,,0.095010385,-0.02566041,0.03255251,-0.7496968,0.113708526,-0.6519396,-0.03087464,0.9780456,0.20609084,0.6610609,0.17463404,-0.729727,,0.02623704,-0.03622806,0.03264159,-0.252082,-0.39875636,0.88173014,-0.33812365,0.89002013,0.3058377,-0.9067123,-0.22103763,-0.35918698,,0.20680779,1.3430077,0.5593808,0.99419713,-0.04729714,-0.09661816,-0.08006771,-0.92517656,-0.37099522,-0.07184185,0.37657836,-0.9235949,,-0.0519306,0.13421206,-0.08177156,0.67972785,-0.09851402,0.72681844,0.2421399,0.96552163,-0.09558346,-0.69234264,0.24096248,0.68014616,,0.041690122,0.24386592,-0.37290314,0.37337133,0.39110363,-0.8412085,-0.7073876,0.7066754,0.014580301,0.6001638,0.58961666,0.54051423,,0.48980660981481533,-0.5906809466179358,0.18274318646,0.6575876627674684,-0.5716871150186029,0.6377795421011484,1.2642830718793214,,-0.4567533131131344,-0.6215255417175886,0.17774080335,1.6892621847113283,0.8531583045354102,0.3738897114602072,1.0870547601236284,,-0.12960378692996893,-0.40635846475714477,0.08491787512,0.05233371158368399,,-1.6592443e-05,5.9604645e-07,-4.2915344e-06,1.0,1.3556331e-05,5.5357814e-06,-1.3552606e-05,1.0,1.0728836e-06,-5.52088e-06,-1.1026859e-06,1.0
0.9500555249978788,09:36:07.685422,09:36:00.754797,0,,0.09502766,-0.025656193,0.032551885,-0.7496941,0.11367778,-0.651948,-0.03089635,0.9780498,0.20606762,0.66106296,0.17463052,-0.729726,,0.026467726,-0.035849914,0.032650292,-0.22386365,-0.4099047,0.8842303,-0.35127974,0.88021207,0.31910726,-0.9091137,-0.23917565,-0.34103864,,0.20680779,1.3430077,0.5593808,0.99419713,-0.04729714,-0.09661816,-0.08006771,-0.92517656,-0.37099522,-0.07184185,0.37657836,-0.9235949,,-0.051947586,0.13421552,-0.08176753,0.6797243,-0.09848296,0.726826,0.24212077,0.9655244,-0.09560427,-0.69235283,0.24096422,0.68013513,,0.04144687,0.24417919,-0.3727057,0.3461456,0.40473598,-0.8463876,-0.7225772,0.69042164,0.034643207,0.5983857,0.5995888,0.5314394,,0.4896135414929597,-0.5906732238850616,0.18272633469000002,0.6571682828804993,-0.5716871150186029,0.6376978633610079,1.2642830718793214,,-0.45774182292103516,-0.6205833683069332,0.17774598851,1.6714385395151437,0.8762498729957696,0.36330963848970876,1.1104129615808302,,-0.12960378692996893,-0.40635846475714477,0.08491787512,0.05233371158368399,,-1.6592443e-05,5.9604645e-07,-4.2915344e-06,1.0,1.3556331e-05,5.5357814e-06,-1.3552606e-05,1.0,1.0728836e-06,-5.52088e-06,-1.1026859e-06,1.0
0.9708766500116326,09:36:07.702077,09:36:00.754797,0,,0.09502766,-0.025656193,0.032551885,-0.7496941,0.11367778,-0.651948,-0.03089635,0.9780498,0.20606762,0.66106296,0.17463052,-0.729726,,0.026607513,-0.035649553,0.032665133,-0.2084645,-0.41412014,0.88602877,-0.35754225,0.8754945,0.32507414,-0.91033304,-0.2490263,-0.33057487,,0.20680779,1.3430077,0.5593808,0.99419713,-0.04729714,-0.09661816,-0.08006771,-0.92517656,-0.37099522,-0.07184185,0.37657836,-0.9235949,,-0.051947586,0.13421552,-0.08176753,0.6797243,-0.09848296,0.726826,0.24212077,0.9655244,-0.09560427,-0.69235283,0.24096422,0.68013513,,0.041299302,0.24434847,-0.37260836,0.3312445,0.41029403,-0.8496681,-0.7300225,0.68195915,0.04470906,0.5977828,0.6054672,0.52541906,,0.48956720509571433,-0.5906732238850616,0.18272374211000003,0.6571682828804993,-0.5716871150186029,0.6376978633610079,1.2642830718793214,,-0.45825152329073393,-0.6200813906701086,0.1777602477,1.6559214836972889,0.8908699784706717,0.3566970409033284,1.1344245393025694,,-0.12960378692996893,-0.40635846475714477,0.08491787512,0.05233371158368399,,-1.6592443e-05,5.9604645e-07,-4.2915344e-06,1.0,1.3556331e-05,5.5357814e-06,-1.3552606e-05,1.0,1.0728836e-06,-5.52088e-06,-1.1026859e-06,1.0
0.9875333909876645,09:36:07.725964,09:36:00.754797,0,,0.09503503,-0.025649399,0.032550022,-0.7496967,0.11369397,-0.65194225,-0.03088443,0.9780476,0.20607974,0.6610606,0.17463216,-0.7297277,,0.027007237,-0.035006344,0.03268513,-0.17056853,-0.42522338,0.8888709,-0.37229878,0.8630327,0.34142107,-0.91230476,-0.2726898,-0.30551633,,0.20680779,1.3430077,0.5593808,0.99419713,-0.04729714,-0.09661816,-0.08006771,-0.92517656,-0.37099522,-0.07184185,0.37657836,-0.9235949,,-0.05195451,0.13422093,-0.08176237,0.67972744,-0.09849929,0.7268208,0.2421308,0.9655229,-0.0955939,-0.6923462,0.2409635,0.6801421,,0.04087762,0.2448831,-0.37227637,0.2944245,0.42465445,-0.85614413,-0.7472794,0.66073364,0.07074291,0.5957245,0.6189504,0.5118717,,0.4894977004998463,-0.5906655011521874,0.18271596437,0.6569585929370148,-0.5718237515183683,0.6378092812647043,1.2642830718793214,,-0.459664783406717,-0.6186912987527482,0.17788080267,1.618386983813559,0.9355501138939708,0.33300526985652623,1.1559859560322943,,-0.12960378692996893,-0.40635846475714477,0.08491787512,0.05233371158368399,,-1.6592443e-05,5.9604645e-07,-4.2915344e-06,1.0,1.3556331e-05,5.5357814e-06,-1.3552606e-05,1.0,1.0728836e-06,-5.52088e-06,-1.1026859e-06,1.0
1.0085652970010415,09:36:07.742610,09:36:00.754797,0,,0.09503503,-0.025649399,0.032550022,-0.7496967,0.11369397,-0.65194225,-0.03088443,0.9780476,0.20607974,0.6610606,0.17463216,-0.7297277,,0.027173921,-0.03474897,0.032702476,-0.15387496,-0.4310107,0.8891301,-0.3772546,0.8573054,0.35029492,-0.91323686,-0.2815268,-0.29451856,,0.20680779,1.3430077,0.5593808,0.99419713,-0.04729714,-0.09661816,-0.08006771,-0.92517656,-0.37099522,-0.07184185,0.37657836,-0.9235949,,-0.05195451,0.13422093,-0.08176237,0.67972744,-0.09849929,0.7268208,0.2421308,0.9655229,-0.0955939,-0.6923462,0.2409635,0.6801421,,0.04070105,0.2451009,-0.37215102,0.278158,0.43168268,-0.85806656,-0.7535639,0.6520191,0.0837412,0.5956254,0.6233147,0.5066648,,0.4894977004998463,-0.5906577784193132,0.18271337179000002,0.6569585929370148,-0.5718237515183683,0.6377276025245636,1.264119727813187,,-0.46039072029689415,-0.6179962527940679,0.17796506152000002,1.6068540369219102,0.9493504003702803,0.3279596458338703,1.1742804914393337,,-0.12960378692996893,-0.40635846475714477,0.08491787512,0.05233371158368399,,-1.6592443e-05,5.9604645e-07,-4.2915344e-06,1.0,1.3556331e-05,5.5357814e-06,-1.3552606e-05,1.0,1.0728836e-06,-5.52088e-06,-1.1026859e-06,1.0
1.02803494699765,09:36:07.765089,09:36:00.754797,0,,0.09503503,-0.025649399,0.032550022,-0.7496967,0.11369397,-0.65194225,-0.03088443,0.9780476,0.20607974,0.6610606,0.17463216,-0.7297277,,0.027606994,-0.0340607,0.032773465,-0.11785339,-0.43375432,0.8932904,-0.39052516,0.847322,0.3599108,-0.9130174,-0.30643564,-0.26925173,,0.20680779,1.3430077,0.5593808,0.99419713,-0.04729714,-0.09661816,-0.08006771,-0.92517656,-0.37099522,-0.07184185,0.37657836,-0.9235949,,-0.05195451,0.13422093,-0.08176237,0.67972744,-0.09849929,0.7268208,0.2421308,0.9655229,-0.0955939,-0.6923462,0.2409635,0.6801421,,0.040238433,0.24569632,-0.37183833,0.24287522,0.43781725,-0.8656371,-0.76830256,0.6316009,0.10388203,0.5922186,0.63984084,0.48977634,,0.4894899777669721,-0.5906577784193132,0.18271337179000002,0.6569585929370148,-0.5718237515183683,0.6376459237844231,1.2642830718793214,,-0.4626534810290419,-0.6163976470891035,0.17818672711000003,1.5749811655122625,0.9867888013060109,0.3100913449428381,1.220670206221469,,-0.12960378692996893,-0.40635846475714477,0.08491787512,0.05233371158368399,,-1.6592443e-05,5.9604645e-07,-4.2915344e-06,1.0,1.3556331e-05,5.5357814e-06,-1.3552606e-05,1.0,1.0728836e-06,-5.52088e-06,-1.1026859e-06,1.0
1.0505136559950188,09:36:07.786726,09:36:00.754797,0,,0.095035136,-0.02564682,0.032554522,-0.7496945,0.113714755,-0.651941,-0.030853316,0.97804946,0.20607582,0.6610644,0.17460851,-0.72972995,,0.027856603,-0.033577204,0.032842517,-0.099546656,-0.42779994,0.898375,-0.399206,0.84418213,0.35775864,-0.9114412,-0.32302302,-0.2548158,,0.20680779,1.3430077,0.5593808,0.99419713,-0.04729714,-0.09661816,-0.08006771,-0.92517656,-0.37099522,-0.07184185,0.37657836,-0.9235949,,-0.051954977,0.13422509,-0.08176544,0.679726,-0.09851759,0.7268197,0.24216081,0.96551496,-0.0955984,-0.6923371,0.24098796,0.6801427,,0.03996525,0.24612875,-0.37164026,0.22483265,0.43406054,-0.87237704,-0.77677983,0.6203603,0.10847196,0.5882715,0.6532569,0.47664672,,0.48950542323272056,-0.5906500556864389,0.18271077921,0.6569585929370148,-0.5718237515183683,0.6376459237844231,1.2642830718793214,,-0.46455327331610113,-0.6153550781510831,0.17830987466,1.553592791276841,1.0089239142680122,0.2899996760405036,1.280454134426615,,-0.12960378692996893,-0.40635846475714477,0.08491787512,0.05233371158368399,,-1.6592443e-05,5.9604645e-07,-4.2915344e-06,1.0,1.3556331e-05,5.5357814e-06,-1.3552606e-05,1.0,1.0728836e-06,-5.52088e-06,-1.1026859e-06,1.0
1.0720937569858506,09:36:07.803195,09:36:00.754797,0,,0.095040195,-0.025645554,0.032559633,-0.7496898,0.113712095,-0.6519468,-0.0308391,0.97805446,0.20605421,0.6610704,0.17458221,-0.7297308,,0.028115466,-0.032996356,0.032927275,-0.084211394,-0.41398215,0.90638137,-0.40901497,0.84381175,0.34740263,-0.9086337,-0.34146833,-0.24038345,,0.20680779,1.3430077,0.5593808,0.99419713,-0.04729714,-0.09661816,-0.08006771,-0.92517656,-0.37099522,-0.07184185,0.37657836,-0.9235949,,-0.05196047,0.13422824,-0.08176909,0.6797212,-0.098512195,0.7268249,0.24217623,0.96550906,-0.095618494,-0.69233644,0.24101363,0.6801343,,0.039677523,0.24665283,-0.3714076,0.20962588,0.42263502,-0.88172364,-0.78538126,0.60993207,0.105636746,0.58243734,0.67034507,0.4597872,,0.48950542323272056,-0.5906500556864389,0.18270818663000002,0.6569585929370148,-0.5718237515183683,0.6376459237844231,1.2642830718793214,,-0.4669782114386076,-0.6142275591514463,0.17837728174,1.5269621684543064,1.0228608372440873,0.25862375852903086,1.3302740745975703,,-0.12960378692996893,-0.40635846475714477,0.08491787512,0.05233371158368399,,-1.6592443e-05,5.9604645e-07,-4.2915344e-06,1.0,1.3556331e-05,5.5357814e-06,-1.3552606e-05,1.0,1.0728836e-06,-5.52088e-06,-1.1026859e-06,1.0
1.088603520009201,09:36:07.828526,09:36:00.754797,0,,0.09503403,-0.02564831,0.03256026,-0.7496899,0.113715746,-0.6519462,-0.030836642,0.9780539,0.20605698,0.66107047,0.17458268,-0.7297306,,0.028342985,-0.03243932,0.03301254,-0.07327689,-0.3962182,0.91522765,-0.41792744,0.84543085,0.33254093,-0.9055204,-0.35813123,-0.22754098,,0.20680779,1.3430077,0.5593808,0.99419713,-0.04729714,-0.09661816,-0.08006771,-0.92517656,-0.37099522,-0.07184185,0.37657836,-0.9235949,,-0.051954493,0.13422602,-0.08177138,0.6797213,-0.09851588,0.7268243,0.24217851,0.96550876,-0.09561588,-0.69233555,0.24101338,0.6801353,,0.039421666,0.2471592,-0.37118977,0.19871444,0.40700632,-0.89154834,-0.7926549,0.6017377,0.09803067,0.57637733,0.68721,0.4421895,,0.48950542323272056,-0.5906577784193132,0.18270689034,0.6569585929370148,-0.5718237515183683,0.6376459237844231,1.2642830718793214,,-0.4695730496843471,-0.6130768719531869,0.17839283722000002,1.4984443361404112,1.0305124812309518,0.21677242522074613,1.3678432098084543,,-0.12960378692996893,-0.40635846475714477,0.08491787512,0.05233371158368399,,-1.6592443e-05,5.9604645e-07,-4.2915344e-06,1.0,1.3556331e-05,5.5357814e-06,-1.3552606e-05,1.0,1.0728836e-06,-5.52088e-06,-1.1026859e-06,1.0
1.112102113023866,09:36:07.844463,09:36:00.754797,0,,0.09502038,-0.025640398,0.03255716,-0.74970037,0.11380596,-0.65191835,-0.030771762,0.97804165,0.20612487,0.66106164,0.17459261,-0.72973627,,0.028572433,-0.031785697,0.033123314,-0.061793167,-0.37172955,0.9262822,-0.42785716,0.84832525,0.3119016,-0.9017316,-0.37704307,-0.2114678,,0.20680779,1.3430077,0.5593808,0.99419713,-0.04729714,-0.09661816,-0.08006771,-0.92517656,-0.37099522,-0.07184185,0.37657836,-0.9235949,,-0.051940355,0.13423218,-0.081766814,0.6797347,-0.09860699,0.7267994,0.24223457,0.9655006,-0.095556125,-0.69230276,0.24100876,0.6801703,,0.039157335,0.24776192,-0.37094688,0.18721132,0.38493916,-0.90375537,-0.80054164,0.5929674,0.08673355,0.5692846,0.7072563,0.41917002,,0.48950542323272056,-0.5906577784193132,0.18270559405000003,0.6569585929370148,-0.5718237515183683,0.6376459237844231,1.2642830718793214,,-0.4725154109094266,-0.6117408391659461,0.1783954298,1.4703458837134846,1.0351581222229769,0.1639769724107304,1.3782972300410483,,-0.12960378692996893,-0.40635846475714477,0.08491787512,0.05233371158368399,,-1.6592443e-05,5.9604645e-07,-4.2915344e-06,1.0,1.3556331e-05,5.5357814e-06,-1.3552606e-05,1.0,1.0728836e-06,-5.52088e-06,-1.1026859e-06,1.0
1.1298863799893297,09:36:07.866858,09:36:01.042158,0,,0.09501654,-0.025637627,0.032550797,-0.74970764,0.11382845,-0.651906,-0.030771628,0.97803396,0.20616141,0.66105336,0.174621,-0.72973704,,0.028750136,-0.031084001,0.03326571,-0.05608143,-0.34767306,0.9359371,-0.43653494,0.85160327,0.29018828,-0.89793766,-0.39229506,-0.19953056,,0.20680779,1.3430077,0.5593808,0.99419713,-0.04729714,-0.09661816,-0.08006771,-0.92517656,-0.37099522,-0.07184185,0.37657836,-0.9235949,,-0.051935814,0.13423222,-0.08176031,0.6797428,-0.0986324,0.7267884,0.24223146,0.96550465,-0.09552305,-0.6922959,0.24098212,0.68018675,,0.038938735,0.24842644,-0.37071273,0.18138786,0.36283746,-0.9140281,-0.80681056,0.58632755,0.072641045,0.5622767,0.72427136,0.3990938,,0.48950542323272056,-0.5906577784193132,0.18270429776000002,0.6569585929370148,-0.5718237515183683,0.6376459237844231,1.26346635154865,,-0.47551183126462576,-0.6102349062554723,0.17837209658000003,1.440779601682167,1.0365244872206312,0.11107847212464983,1.3952850129190133,,-0.12960378692996893,-0.40635846475714477,0.08491787512,0.05233371158368399,,-1.6592443e-05,5.9604645e-07,-4.2915344e-06,1.0,1.3556331e-05,5.5357814e-06,-1.3552606e-05,1.0,1.0728836e-06,-5.52088e-06,-1.1026859e-06,1.0
1.152310638979543,09:36:07.885007,09:36:01.042158,0,,0.09498419,-0.025603034,0.03253837,-0.74972594,0.1139949,-0.65185595,-0.030652463,0.9780113,0.20628674,0.66103816,0.17463952,-0.7297463,,0.028852358,-0.030391634,0.03345877,-0.051845957,-0.32397938,0.9446424,-0.4393924,0.85683703,0.26974946,-0.8967979,-0.40108332,-0.1867776,,0.20680779,1.3430077,0.5593808,0.99419713,-0.04729714,-0.09661816,-0.08006771,-0.92517656,-0.37099522,-0.07184185,0.37657836,-0.9235949,,-0.051901296,0.1342593,-0.08173858,0.6797663,-0.0988005,0.7267436,0.2423349,0.9654897,-0.095412254,-0.69223666,0.24097337,0.68025017,,0.0387891,0.24911402,-0.3705339,0.17714837,0.3402323,-0.9235044,-0.8091407,0.5845295,0.06013819,0.56027657,0.73659164,0.37884426,,0.48950542323272056,-0.5906577784193132,0.18270429776000002,0.6571682828804993,-0.5720970245178991,0.6359084698284425,1.2525222991176534,,-0.47875537907180005,-0.6084586776944007,0.17829302289,1.4229559564859822,1.0339283937250878,0.0636980957697012,1.3970817976464907,,-0.12960378692996893,-0.40635846475714477,0.08491787512,0.05233371158368399,,-1.6592443e-05,5.9604645e-07,-4.2915344e-06,1.0,1.3556331e-05,5.5357814e-06,-1.3552606e-05,1.0,1.0728836e-06,-5.52088e-06,-1.1026859e-06,1.0
1.1703996270080097,09:36:07.910107,09:36:01.042158,0,,0.09496418,-0.025582977,0.032525808,-0.7497515,0.11417071,-0.65179574,-0.030541837,0.9779827,0.20643857,0.66101426,0.17468473,-0.72975713,,0.028880015,-0.02974604,0.03368491,-0.0513472,-0.30211428,0.95188785,-0.4360211,0.8642857,0.25079066,-0.8984704,-0.40216574,-0.17610684,,0.20680779,1.3430077,0.5593808,0.99419713,-0.04729714,-0.09661816,-0.08006771,-0.92517656,-0.37099522,-0.07184185,0.37657836,-0.9235949,,-0.0518795,0.13427287,-0.08172121,0.6797977,-0.09898074,0.7266897,0.24242705,0.9654798,-0.09527788,-0.69217354,0.24093892,0.6803266,,0.038711026,0.2497834,-0.37041336,0.17673972,0.3184157,-0.9313294,-0.80704683,0.5885284,0.048059735,0.5634168,0.7431324,0.36099273,,0.4895285914313432,-0.5906577784193132,0.18270429776000002,0.6575876627674684,-0.5731901165160227,0.6364730980974516,1.2557891804403387,,-0.4820066496118485,-0.6063735398183601,0.17810635713000003,1.41960091739023,1.0305124812309518,0.030789933920685852,1.3964284213819531,,-0.12960378692996893,-0.40635846475714477,0.08491787512,0.05233371158368399,,-1.6592443e-05,5.9604645e-07,-4.2915344e-06,1.0,1.3556331e-05,5.5357814e-06,-1.3552606e-05,1.0,1.0728836e-06,-5.52088e-06,-1.1026859e-06,1.0
1.195559845014941,09:36:07.927410,09:36:01.042158,0,,0.09495285,-0.025569528,0.03251572,-0.74975103,0.11413955,-0.65180194,-0.030581057,0.9779823,0.20643488,0.6610131,0.17470752,-0.7297527,,0.028879836,-0.029090136,0.033961117,-0.053174354,-0.28434408,0.9572466,-0.43646893,0.86880374,0.23382714,-0.8981466,-0.4053747,-0.1703054,,0.20680779,1.3430077,0.5593808,0.99419713,-0.04729714,-0.09661816,-0.08006771,-0.92517656,-0.37099522,-0.07184185,0.37657836,-0.9235949,,-0.051866807,0.1342813,-0.081707835,0.679796,-0.098952,0.72669524,0.24239066,0.9654888,-0.09527948,-0.692188,0.24091475,0.68032044,,0.03865404,0.2504883,-0.3703338,0.17852798,0.30102542,-0.93675584,-0.8071166,0.58932036,0.03555623,0.5627526,0.74972343,0.3481728,,0.4895749278285886,-0.5906500556864389,0.18270300147000001,0.6580070426544374,-0.5733267530157882,0.6365028372610075,1.255952524506473,,-0.48515752462453215,-0.6039099880314824,0.17780950672,1.4139392889161477,1.0301025717316556,0.010051072675510087,1.3967551095142217,,-0.12960378692996893,-0.40635846475714477,0.08491787512,0.05233371158368399,,-1.6592443e-05,5.9604645e-07,-4.2915344e-06,1.0,1.3556331e-05,5.5357814e-06,-1.3552606e-05,1.0,1.0728836e-06,-5.52088e-06,-1.1026859e-06,1.0
1.2127755070105195,09:36:07.951576,09:36:01.042158,0,,0.09495416,-0.02556292,0.032518968,-0.7497514,0.11418018,-0.6517942,-0.030535564,0.97798145,0.2064458,0.6610147,0.17468596,-0.7297564,,0.028808035,-0.02841036,0.034295797,-0.054263946,-0.26362902,0.9630967,-0.44237605,0.8710445,0.21350662,-0.8951865,-0.4144652,-0.16388947,,0.20680779,1.3430077,0.5593808,0.99419713,-0.04729714,-0.09661816,-0.08006771,-0.92517656,-0.37099522,-0.07184185,0.37657836,-0.9235949,,-0.051868226,0.13428864,-0.081708044,0.67979777,-0.09899032,0.7266883,0.24243298,0.965479,-0.095271,-0.6921714,0.24093823,0.68032897,,0.038660057,0.25124863,-0.37029985,0.1794543,0.28151762,-0.9426261,-0.81075174,0.5850355,0.02037385,0.5572053,0.7605796,0.33322805,,0.4896135414929597,-0.5906500556864389,0.18270300147000001,0.6580070426544374,-0.5730534800162572,0.6362800014536145,1.255952524506473,,-0.48790681752775605,-0.6012688133884977,0.17745561955000003,1.4066001408941895,1.0318788462286064,-0.007896465580936929,1.387607841810702,,-0.12960378692996893,-0.40635846475714477,0.08491787512,0.05233371158368399,,-1.6592443e-05,5.9604645e-07,-4.2915344e-06,1.0,1.3556331e-05,5.5357814e-06,-1.3552606e-05,1.0,1.0728836e-06,-5.52088e-06,-1.1026859e-06,1.0
1.2370309340185486,09:36:07.972084,09:36:01.042158,0,,0.09495416,-0.02556292,0.032518968,-0.7497514,0.11418018,-0.6517942,-0.030535564,0.97798145,0.2064458,0.6610147,0.17468596,-0.7297564,,0.028703585,-0.02787517,0.03459978,-0.058076974,-0.252058,0.9659678,-0.44615617,0.87214863,0.20075265,-0.8930688,-0.4193133,-0.16310896,,0.20680779,1.3430077,0.5593808,0.99419713,-0.04729714,-0.09661816,-0.08006771,-0.92517656,-0.37099522,-0.07184185,0.37657836,-0.9235949,,-0.051868226,0.13428864,-0.081708044,0.67979777,-0.09899032,0.7266883,0.24243298,0.965479,-0.095271,-0.6921714,0.24093823,0.68032897,,0.038707342,0.251871,-0.3703126,0.18310982,0.27059796,-0.9451177,-0.8126883,0.58262354,0.009359177,0.5531804,0.7663723,0.32659587,,0.48965987789020504,-0.5906423329535647,0.18270300147000001,0.6580070426544374,-0.5729168435164919,0.6362502622900588,1.2557891804403387,,-0.49017730099277806,-0.5984191249579088,0.17701747353000002,1.3891958755849738,1.0322887557279026,-0.03575645471939559,1.3776438537765112,,-0.12960378692996893,-0.40635846475714477,0.08491787512,0.05233371158368399,,-1.6592443e-05,5.9604645e-07,-4.2915344e-06,1.0,1.3556331e-05,5.5357814e-06,-1.3552606e-05,1.0,1.0728836e-06,-5.52088e-06,-1.1026859e-06,1.0
1.2575279020238668,09:36:07.991929,09:36:01.042158,0,,0.09496528,-0.025561467,0.032518983,-0.7497488,0.11415307,-0.651802,-0.03055486,0.97798514,0.20642537,0.66101676,0.17468292,-0.7297553,,0.028577276,-0.027391478,0.034890354,-0.06319952,-0.23730373,0.96937746,-0.4499346,0.8737813,0.18456784,-0.8908225,-0.42449182,-0.16199371,,0.20680779,1.3430077,0.5593808,0.99419713,-0.04729714,-0.09661816,-0.08006771,-0.92517656,-0.37099522,-0.07184185,0.37657836,-0.9235949,,-0.05187923,0.13428988,-0.08170632,0.6797943,-0.09896294,0.7266953,0.24241611,0.96548146,-0.0952892,-0.6921807,0.2409397,0.680319,,0.038779788,0.25244397,-0.37034076,0.18804827,0.25654307,-0.948063,-0.81444305,0.58022577,-0.004537372,0.5489266,0.7729966,0.31805018,,0.4896753233559535,-0.5906423329535647,0.18270300147000001,0.6580070426544374,-0.5729168435164919,0.6362502622900588,1.2557891804403387,,-0.4919921432182208,-0.5956003274588169,0.17656895719000001,1.3845826968283144,1.0247737482408033,-0.061483178670911576,1.3796039825701225,,-0.12960378692996893,-0.40635846475714477,0.08491787512,0.05233371158368399,,-1.6592443e-05,5.9604645e-07,-4.2915344e-06,1.0,1.3556331e-05,5.5357814e-06,-1.3552606e-05,1.0,1.0728836e-06,-5.52088e-06,-1.1026859e-06,1.0
1.2773509820108302,09:36:08.012281,09:36:01.042158,0,,0.09497397,-0.025568083,0.03252147,-0.74974096,0.114086315,-0.6518227,-0.030602887,0.9779942,0.20637512,0.6610235,0.1746756,-0.729751,,0.028461099,-0.02696988,0.03516072,-0.07018036,-0.22445631,0.9719537,-0.44293016,0.88004905,0.17125049,-0.89380515,-0.4184891,-0.16118059,,0.20680779,1.3430077,0.5593808,0.99419713,-0.04729714,-0.09661816,-0.08006771,-0.92517656,-0.37099522,-0.07184185,0.37657836,-0.9235949,,-0.05188833,0.1342847,-0.08171032,0.6797843,-0.098895535,0.72671384,0.24237464,0.9654875,-0.09533336,-0.6922051,0.24094312,0.68029296,,0.038846865,0.25295216,-0.3703807,0.19509004,0.24284165,-0.95024616,-0.80912995,0.5874119,-0.016001247,0.5543001,0.7719943,0.31108865,,0.4896753233559535,-0.5906346102206905,0.18270300147000001,0.6580070426544374,-0.5729168435164919,0.6362502622900588,1.2557891804403387,,-0.49344401699857504,-0.5926039071036178,0.17609970021000002,1.3785016884672632,1.0139794647593336,-0.08380076427244865,1.3784605741071825,,-0.12960378692996893,-0.40635846475714477,0.08491787512,0.05233371158368399,,-1.6592443e-05,5.9604645e-07,-4.2915344e-06,1.0,1.3556331e-05,5.5357814e-06,-1.3552606e-05,1.0,1.0728836e-06,-5.52088e-06,-1.1026859e-06,1.0
1.2977175780106336,09:36:08.033650,09:36:01.042158,0,,0.09498387,-0.025570668,0.032522693,-0.7497357,0.11403939,-0.65183693,-0.030636549,0.97800064,0.20633979,0.6610278,0.17467035,-0.7297482,,0.028293505,-0.0265885,0.035455108,-0.08315642,-0.20357972,0.97552055,-0.4203836,0.8947137,0.15088145,-0.9035279,-0.397546,-0.15998274,,0.20680779,1.3430077,0.5593808,0.99419713,-0.04729714,-0.09661816,-0.08006771,-0.92517656,-0.37099522,-0.07184185,0.37657836,-0.9235949,,-0.051898383,0.13428274,-0.081711456,0.67977756,-0.09884814,0.7267266,0.24234547,0.9654917,-0.09536454,-0.6922219,0.24094558,0.68027496,,0.0389634,0.25344142,-0.37046576,0.20835516,0.21904421,-0.9532092,-0.7929465,0.6083683,-0.033523556,0.5725591,0.7628287,0.30044702,,0.48965987789020504,-0.5906346102206905,0.18270300147000001,0.6582167325979219,-0.5727802070167264,0.6360571656462217,1.2556258363742046,,-0.49448658593659534,-0.5894684775566826,0.17564210984,1.416455568237962,0.9959434467902953,-0.07905840728166957,1.3791139503717196,,-0.12960378692996893,-0.40635846475714477,0.08491787512,0.05233371158368399,,-1.6592443e-05,5.9604645e-07,-4.2915344e-06,1.0,1.3556331e-05,5.5357814e-06,-1.3552606e-05,1.0,1.0728836e-06,-5.52088e-06,-1.1026859e-06,1.0
1.3191067019943148,09:36:08.054024,09:36:01.219268,0,,0.094982654,-0.025574721,0.032523945,-0.7497331,0.11401956,-0.65184337,-0.030650944,0.9780033,0.2063249,0.6610302,0.17466824,-0.7297467,,0.02809441,-0.026346788,0.035711586,-0.09411104,-0.18219559,0.9787482,-0.4021447,0.9062942,0.13004015,-0.91072655,-0.38136017,-0.15856126,,0.20680779,1.3430077,0.5593808,0.99419713,-0.04729714,-0.09661816,-0.08006771,-0.92517656,-0.37099522,-0.07184185,0.37657836,-0.9235949,,-0.051897433,0.13427953,-0.081714325,0.6797743,-0.09882812,0.7267324,0.24233316,0.96549356,-0.09537752,-0.69222945,0.24094655,0.680267,,0.039120805,0.25379348,-0.37058875,0.21945795,0.19543701,-0.95584655,-0.7794937,0.6243043,-0.05131987,0.5867093,0.7563389,0.28935048,,0.4896521551573308,-0.5906268874878163,0.18270429776000002,0.6582167325979219,-0.5727802070167264,0.6360571656462217,1.2556258363742046,,-0.495058068169288,-0.5865106708658546,0.17520914898,1.4565063474435063,0.9893848948015543,-0.06644094003173129,1.379277294437854,,-0.12960378692996893,-0.40635846475714477,0.08491787512,0.05233371158368399,,-1.6592443e-05,5.9604645e-07,-4.2915344e-06,1.0,1.3556331e-05,5.5357814e-06,-1.3552606e-05,1.0,1.0728836e-06,-5.52088e-06,-1.1026859e-06,1.0
1.3394644710351713,09:36:08.074529,09:36:01.219268,0,,0.09498508,-0.025566638,0.032521456,-0.7497382,0.11405922,-0.6518305,-0.030622154,0.9779979,0.20635472,0.6610255,0.17467248,-0.7297498,,0.027876124,-0.026154384,0.035979778,-0.10198054,-0.17063884,0.980042,-0.37740546,0.9181626,0.12059298,-0.92041576,-0.35757503,-0.15803473,,0.20680779,1.3430077,0.5593808,0.99419713,-0.04729714,-0.09661816,-0.08006771,-0.92517656,-0.37099522,-0.07184185,0.37657836,-0.9235949,,-0.051899336,0.13428593,-0.081708595,0.6797808,-0.098868154,0.7267208,0.24235779,0.9654899,-0.09535156,-0.69221437,0.24094461,0.680283,,0.039297532,0.25410986,-0.37074766,0.2275766,0.18063292,-0.95685977,-0.76184356,0.64502925,-0.059427984,0.6064679,0.74250185,0.2844076,,0.4896444324244566,-0.5906268874878163,0.18270429776000002,0.6582167325979219,-0.5727802070167264,0.6360571656462217,1.2556258363742046,,-0.49524341375826936,-0.5837459324968822,0.17479303989000003,1.4919439478923908,0.9900680773003815,-0.054501182308707374,1.3784605741071827,,-0.12960378692996893,-0.40635846475714477,0.08491787512,0.05233371158368399,,-1.6592443e-05,5.9604645e-07,-4.2915344e-06,1.0,1.3556331e-05,5.5357814e-06,-1.3552606e-05,1.0,1.0728836e-06,-5.52088e-06,-1.1026859e-06,1.0
1.359968489035964,09:36:08.093498,09:36:01.219268,0,,0.09499124,-0.02556388,0.032520846,-0.7497383,0.11405558,-0.65183115,-0.030624613,0.97799844,0.20635194,0.66102546,0.17467201,-0.72975004,,0.02769439,-0.026025027,0.036237895,-0.10578372,-0.16513664,0.9805813,-0.3625969,0.92462367,0.11659655,-0.925923,-0.34322172,-0.15768814,,0.20680779,1.3430077,0.5593808,0.99419713,-0.04729714,-0.09661816,-0.08006771,-0.92517656,-0.37099522,-0.07184185,0.37657836,-0.9235949,,-0.05190531,0.13428815,-0.0817063,0.6797807,-0.09886447,0.7267214,0.24235551,0.9654902,-0.09535417,-0.69221526,0.24094486,0.680282,,0.039441492,0.25436312,-0.37092525,0.23150042,0.17318383,-0.95729566,-0.7512202,0.6570575,-0.06279779,0.61812276,0.73367757,0.2822083,,0.4896521551573308,-0.5906268874878163,0.18270429776000002,0.6582167325979219,-0.5727802070167264,0.6360571656462217,1.2556258363742046,,-0.49515074096377865,-0.5810506987237779,0.17436396790000003,1.5422695343286767,0.9859689823074183,-0.02248940740847738,1.3773171656442427,,-0.12960378692996893,-0.40635846475714477,0.08491787512,0.05233371158368399,,-1.6592443e-05,5.9604645e-07,-4.2915344e-06,1.0,1.3556331e-05,5.5357814e-06,-1.3552606e-05,1.0,1.0728836e-06,-5.52088e-06,-1.1026859e-06,1.0
1.3789526160107926,09:36:08.117338,09:36:01.219268,0,,0.09498387,-0.025550634,0.03252162,-0.74974656,0.11416295,-0.6518028,-0.030531093,0.9779885,0.20641312,0.66102034,0.17465779,-0.729758,,0.027527139,-0.02592957,0.036664724,-0.11012521,-0.15924297,0.981078,-0.34303173,0.93251956,0.112856194,-0.93284607,-0.32411253,-0.15731929,,0.20680779,1.3430077,0.5593808,0.99419713,-0.04729714,-0.09661816,-0.08006771,-0.92517656,-0.37099522,-0.07184185,0.37657836,-0.9235949,,-0.051897626,0.13430068,-0.081702515,0.6797925,-0.0989702,0.72669595,0.2424393,0.96547437,-0.09530153,-0.6921743,0.24096493,0.68031657,,0.03955156,0.25466642,-0.37126458,0.23596352,0.16471145,-0.9577011,-0.73707706,0.67258507,-0.0659296,0.6332761,0.72145647,0.28011057,,0.48966760062307924,-0.590619164754942,0.18270429776000002,0.6582167325979219,-0.5727802070167264,0.6360571656462217,1.2556258363742046,,-0.4947877725186901,-0.5776526962591191,0.17382471126000001,1.5745617856252934,0.9907512597992087,0.009958005324698038,1.3470985134094011,,-0.12960378692996893,-0.40635846475714477,0.08491787512,0.05233371158368399,,-1.6592443e-05,5.9604645e-07,-4.2915344e-06,1.0,1.3556331e-05,5.5357814e-06,-1.3552606e-05,1.0,1.0728836e-06,-5.52088e-06,-1.1026859e-06,1.0
1.4027918979991227,09:36:08.135458,09:36:01.219268,0,,0.09497881,-0.025551915,0.032516494,-0.74975127,0.11416561,-0.6517969,-0.030545369,0.9779835,0.20643473,0.6610143,0.1746841,-0.7297572,,0.027518623,-0.025921509,0.03679943,-0.111949965,-0.15808082,0.98105943,-0.33274186,0.93623674,0.11288876,-0.9363494,-0.3138016,-0.15741171,,0.20680779,1.3430077,0.5593808,0.99419713,-0.04729714,-0.09661816,-0.08006771,-0.92517656,-0.37099522,-0.07184185,0.37657836,-0.9235949,,-0.051892135,0.1342975,-0.08169887,0.67979735,-0.09897559,0.7266907,0.24242388,0.96548027,-0.09528144,-0.692175,0.24093924,0.680325,,0.039543167,0.25473887,-0.37137845,0.23783909,0.16216053,-0.9576725,-0.7296142,0.68067217,-0.06594385,0.64116746,0.71441543,0.28020504,,0.48965987789020504,-0.590619164754942,0.18270429776000002,0.6582167325979219,-0.5727802070167264,0.6360571656462217,1.2556258363742046,,-0.4946950997241994,-0.5766564637183441,0.17366656388,1.5938532604258697,0.9904779867996778,0.019410538767974383,1.3420348473592383,,-0.12960378692996893,-0.40635846475714477,0.08491787512,0.05233371158368399,,-1.6592443e-05,5.9604645e-07,-4.2915344e-06,1.0,1.3556331e-05,5.5357814e-06,-1.3552606e-05,1.0,1.0728836e-06,-5.52088e-06,-1.1026859e-06,1.0
1.420911037013866,09:36:08.152563,09:36:01.219268,0,,0.094968915,-0.025549337,0.032515258,-0.74975663,0.11421254,-0.65178263,-0.030511707,0.977977,0.20647004,0.66100997,0.1746893,-0.72975993,,0.027581207,-0.02592513,0.037043214,-0.112822354,-0.16023558,0.9806099,-0.3228471,0.9392741,0.11633652,-0.9397026,-0.3034617,-0.15770267,,0.20680779,1.3430077,0.5593808,0.99419713,-0.04729714,-0.09661816,-0.08006771,-0.92517656,-0.37099522,-0.07184185,0.37657836,-0.9235949,,-0.051882084,0.13429949,-0.08169773,0.67980415,-0.099022985,0.72667795,0.24245305,0.965476,-0.095250264,-0.69215816,0.2409368,0.680343,,0.039451282,0.25484705,-0.37158632,0.23876566,0.16291988,-0.95731294,-0.7225104,0.6884805,-0.06303425,0.6488218,0.706719,0.2820968,,0.48966760062307924,-0.590619164754942,0.18270429776000002,0.6582167325979219,-0.5727802070167264,0.6360571656462217,1.2556258363742046,,-0.49464876332695407,-0.5749188488216436,0.17337100976000003,1.6093703162437245,0.9891116218020234,0.036207035911926644,1.3123062273227992,,-0.12960378692996893,-0.40635846475714477,0.08491787512,0.05233371158368399,,-1.6592443e-05,5.9604645e-07,-4.2915344e-06,1.0,1.3556331e-05,5.5357814e-06,-1.3552606e-05,1.0,1.0728836e-06,-5.52088e-06,-1.1026859e-06,1.0
1.4380049940082245,09:36:08.168783,09:36:01.219268,0,,0.094965175,-0.025543988,0.032513395,-0.7497618,0.11425583,-0.651769,-0.03048049,0.9779711,0.20650259,0.6610055,0.17469402,-0.72976285,,0.027688935,-0.02593249,0.037276626,-0.11369422,-0.16285194,0.98007804,-0.3129523,0.94212675,0.12024176,-0.9429393,-0.29304683,-0.15807924,,0.20680779,1.3430077,0.5593808,0.99419713,-0.04729714,-0.09661816,-0.08006771,-0.92517656,-0.37099522,-0.07184185,0.37657836,-0.9235949,,-0.05187801,0.13430367,-0.081694305,0.67981076,-0.0990667,0.72666574,0.24247994,0.96547204,-0.09522169,-0.6921422,0.2409346,0.68035996,,0.03931602,0.2549429,-0.37178296,0.2396774,0.16413438,-0.9568775,-0.7153507,0.69620556,-0.059759084,0.656375,0.69882596,0.2842784,,0.48965987789020504,-0.590619164754942,0.18270429776000002,0.6582167325979219,-0.5727802070167264,0.6360571656462217,1.2556258363742046,,-0.49483410891593543,-0.5737681616233842,0.17315582562,1.6326458999705067,0.9862422553069492,0.05831306700356753,1.2606895024243674,,-0.12960378692996893,-0.40635846475714477,0.08491787512,0.05233371158368399,,-1.6592443e-05,5.9604645e-07,-4.2915344e-06,1.0,1.3556331e-05,5.5357814e-06,-1.3552606e-05,1.0,1.0728836e-06,-5.52088e-06,-1.1026859e-06,1.0
1.4542184459860437,09:36:08.187170,09:36:01.219268,0,,0.09496528,-0.025541425,0.032517895,-0.74975973,0.11427663,-0.6517678,-0.030449405,0.97797287,0.20649867,0.6610093,0.17467031,-0.72976506,,0.02776441,-0.025937125,0.03741598,-0.11329034,-0.16362542,0.97999585,-0.31373808,0.9417716,0.120974265,-0.94272673,-0.29375678,-0.15802914,,0.20680779,1.3430077,0.5593808,0.99419713,-0.04729714,-0.09661816,-0.08006771,-0.92517656,-0.37099522,-0.07184185,0.37657836,-0.9235949,,-0.051878475,0.13430782,-0.081697375,0.67980933,-0.099085,0.7266646,0.24250995,0.96546406,-0.0952262,-0.6921331,0.24095905,0.68036056,,0.039224222,0.2549989,-0.37189946,0.23927857,0.16500132,-0.95682824,-0.71597093,0.695625,-0.059088416,0.655844,0.69919986,0.2845843,,0.48966760062307924,-0.590619164754942,0.18270429776000002,0.6582167325979219,-0.5727802070167264,0.6360571656462217,1.2556258363742046,,-0.49511985003228176,-0.5733279658495534,0.17305471500000003,1.6441788468621554,0.98651552830648,0.0705053996975401,1.2293274417265856,,-0.12960378692996893,-0.40635846475714477,0.08491787512,0.05233371158368399,,-1.6592443e-05,5.9604645e-07,-4.2915344e-06,1.0,1.3556331e-05,5.5357814e-06,-1.3552606e-05,1.0,1.0728836e-06,-5.52088e-06,-1.1026859e-06,1.0
1.4718109529931098,09:36:08.204970,09:36:01.219268,0,,0.09496528,-0.025541425,0.032517895,-0.74975973,0.11427663,-0.6517678,-0.030449405,0.97797287,0.20649867,0.6610093,0.17467031,-0.72976506,,0.02792342,-0.025921836,0.037680805,-0.11246948,-0.16978061,0.979043,-0.30935112,0.94231117,0.12787344,-0.94427353,-0.28848624,-0.15850306,,0.20680779,1.3430077,0.5593808,0.99419713,-0.04729714,-0.09661816,-0.08006771,-0.92517656,-0.37099522,-0.07184185,0.37657836,-0.9235949,,-0.051878475,0.13430782,-0.081697375,0.67980933,-0.099085,0.7266646,0.24250995,0.96546406,-0.0952262,-0.6921331,0.24095905,0.68036056,,0.039033435,0.25512493,-0.37210768,0.23849903,0.17043944,-0.95606935,-0.7129597,0.6991832,-0.05320932,0.65939873,0.6943293,0.28827098,,0.48966760062307924,-0.590619164754942,0.18270429776000002,0.6580070426544374,-0.5727802070167264,0.6360571656462217,1.2556258363742046,,-0.49596162791557225,-0.5728800473428484,0.17289138246000002,1.6418722574838258,0.990204713800147,0.08448629424697363,1.1969853166319984,,-0.12960378692996893,-0.40635846475714477,0.08491787512,0.05233371158368399,,-1.6592443e-05,5.9604645e-07,-4.2915344e-06,1.0,1.3556331e-05,5.5357814e-06,-1.3552606e-05,1.0,1.0728836e-06,-5.52088e-06,-1.1026859e-06,1.0
1.4904181819874793,09:36:08.226933,09:36:01.399124,0,,0.09496023,-0.025542699,0.03251277,-0.74976444,0.1142793,-0.6517619,-0.03046365,0.9779679,0.20652026,0.66100323,0.17469661,-0.7297642,,0.02813267,-0.025882155,0.037935317,-0.10986635,-0.18006513,0.97749984,-0.31045103,0.9404678,0.1383502,-0.944219,-0.28826573,-0.15922713,,0.20680779,1.3430077,0.5593808,0.99419713,-0.04729714,-0.09661816,-0.08006771,-0.92517656,-0.37099522,-0.07184185,0.37657836,-0.9235949,,-0.051872984,0.13430466,-0.08169373,0.67981416,-0.0990904,0.72665936,0.24249452,0.96546996,-0.095206104,-0.6921338,0.24093337,0.68036896,,0.03879323,0.25526276,-0.3722906,0.23594955,0.18067779,-0.9548211,-0.71412915,0.6986124,-0.04427501,0.65905035,0.69231224,0.29386455,,0.4896753233559535,-0.590619164754942,0.18270429776000002,0.6580070426544374,-0.5727802070167264,0.6361388443863623,1.2554624923080704,,-0.49739033349730377,-0.5729109382743452,0.17274101282,1.6431303971447329,0.9911611692985051,0.0887704508098136,1.2077660249968607,,-0.12960378692996893,-0.40635846475714477,0.08491787512,0.05233371158368399,,-1.6592443e-05,5.9604645e-07,-4.2915344e-06,1.0,1.3556331e-05,5.5357814e-06,-1.3552606e-05,1.0,1.0728836e-06,-5.52088e-06,-1.1026859e-06,1.0
1.5123864050256088,09:36:08.237195,09:36:01.399124,0,,0.09496023,-0.025542699,0.03251277,-0.74976444,0.1142793,-0.6517619,-0.03046365,0.9779679,0.20652026,0.66100323,0.17469661,-0.7297642,,0.028249592,-0.025860101,0.03804165,-0.108898625,-0.18374276,0.9769236,-0.31093857,0.9397488,0.14209017,-0.94417083,-0.2882897,-0.15947004,,0.20680779,1.3430077,0.5593808,0.99419713,-0.04729714,-0.09661816,-0.08006771,-0.92517656,-0.37099522,-0.07184185,0.37657836,-0.9235949,,-0.051872984,0.13430466,-0.08169373,0.67981416,-0.0990904,0.72665936,0.24249452,0.96546996,-0.095206104,-0.6921338,0.24093337,0.68036896,,0.03866343,0.25532246,-0.37236166,0.23500109,0.18435366,-0.95435226,-0.7146191,0.6983068,-0.041075863,0.6588582,0.69165117,0.2958455,,0.4896753233559535,-0.590619164754942,0.18270429776000002,0.6580070426544374,-0.5727802070167264,0.6361388443863623,1.2554624923080704,,-0.49833250690795916,-0.5731194520619494,0.17266712429000003,1.6412431876533722,0.9892482583017889,0.09016694398128244,1.2028657030128325,,-0.12960378692996893,-0.40635846475714477,0.08491787512,0.05233371158368399,,-1.6592443e-05,5.9604645e-07,-4.2915344e-06,1.0,1.3556331e-05,5.5357814e-06,-1.3552606e-05,1.0,1.0728836e-06,-5.52088e-06,-1.1026859e-06,1.0
1.522603658027947,09:36:08.258814,09:36:01.399124,0,,0.09496023,-0.025542699,0.03251277,-0.74976444,0.1142793,-0.6517619,-0.03046365,0.9779679,0.20652026,0.66100323,0.17469661,-0.7297642,,0.028486654,-0.025825888,0.038216263,-0.10828301,-0.19045979,0.9757047,-0.3061988,0.9401494,0.14953756,-0.94578916,-0.28256726,-0.16012076,,0.20680779,1.3430077,0.5593808,0.99419713,-0.04729714,-0.09661816,-0.08006771,-0.92517656,-0.37099522,-0.07184185,0.37657836,-0.9235949,,-0.051872984,0.13430466,-0.08169373,0.67981416,-0.0990904,0.72665936,0.24249452,0.96546996,-0.095206104,-0.6921338,0.24093337,0.68036896,,0.038405653,0.25541463,-0.3724753,0.2344214,0.19029845,-0.95332736,-0.7113158,0.7020116,-0.034779157,0.6626285,0.6862698,0.29992884,,0.4896753233559535,-0.590619164754942,0.18270429776000002,0.6580070426544374,-0.5727802070167264,0.6361388443863623,1.2554624923080704,,-0.5004871493798678,-0.5737681616233842,0.17253231013,1.645227296579578,0.9841927078104675,0.09919013082648365,1.1946984997061185,,-0.12960378692996893,-0.40635846475714477,0.08491787512,0.05233371158368399,,-1.6592443e-05,5.9604645e-07,-4.2915344e-06,1.0,1.3556331e-05,5.5357814e-06,-1.3552606e-05,1.0,1.0728836e-06,-5.52088e-06,-1.1026859e-06,1.0
1.5442618490196764,09:36:08.284857,09:36:01.399124,0,,0.09496023,-0.025542699,0.03251277,-0.74976444,0.1142793,-0.6517619,-0.03046365,0.9779679,0.20652026,0.66100323,0.17469661,-0.7297642,,0.028835118,-0.025805295,0.038396657,-0.106795505,-0.19626555,0.97471774,-0.30735943,0.93882525,0.15536237,-0.9455818,-0.28299665,-0.16058636,,0.20680779,1.3430077,0.5593808,0.99419713,-0.04729714,-0.09661816,-0.08006771,-0.92517656,-0.37099522,-0.07184185,0.37657836,-0.9235949,,-0.051872984,0.13430466,-0.08169373,0.67981416,-0.0990904,0.72665936,0.24249452,0.96546996,-0.095206104,-0.6921338,0.24093337,0.68036896,,0.038037162,0.2554876,-0.37259054,0.23296174,0.19615622,-0.95249754,-0.7123638,0.7011761,-0.029830478,0.6620171,0.6854741,0.3030818,,0.4896907688217019,-0.590619164754942,0.18270429776000002,0.6580070426544374,-0.5727802070167264,0.6361388443863623,1.2554624923080704,,-0.5041940611594956,-0.5750424125476312,0.17243508838000002,1.6385172183880734,0.9862422553069492,0.10846381344987277,1.1960052522351925,,-0.12960378692996893,-0.40635846475714477,0.08491787512,0.05233371158368399,,-1.6592443e-05,5.9604645e-07,-4.2915344e-06,1.0,1.3556331e-05,5.5357814e-06,-1.3552606e-05,1.0,1.0728836e-06,-5.52088e-06,-1.1026859e-06,1.0
1.57031141303014,09:36:08.301084,09:36:01.399124,0,,0.094965175,-0.025543988,0.032513395,-0.7497618,0.11425583,-0.651769,-0.03048049,0.9779711,0.20650259,0.6610055,0.17469402,-0.72976285,,0.029048346,-0.02582781,0.03847164,-0.11400588,-0.19403793,0.97434694,-0.27468196,0.9486668,0.15678395,-0.9547526,-0.24976122,-0.16145226,,0.20680779,1.3430077,0.5593808,0.99419713,-0.04729714,-0.09661816,-0.08006771,-0.92517656,-0.37099522,-0.07184185,0.37657836,-0.9235949,,-0.05187801,0.13430367,-0.081694305,0.67981076,-0.0990667,0.72666574,0.24247994,0.96547204,-0.09522169,-0.6921422,0.2409346,0.68035996,,0.037817266,0.2554846,-0.3726474,0.24008174,0.18951562,-0.9520738,-0.6875977,0.72551364,-0.028972004,0.6852519,0.6615994,0.30449307,,0.4896907688217019,-0.590619164754942,0.18270429776000002,0.6580070426544374,-0.5727802070167264,0.6361388443863623,1.2554624923080704,,-0.506788899405235,-0.575691122109066,0.1724195329,1.6607443523974328,0.9810500683158624,0.12127396150509584,1.1811409422169732,,-0.12960378692996893,-0.40635846475714477,0.08491787512,0.05233371158368399,,-1.6592443e-05,5.9604645e-07,-4.2915344e-06,1.0,1.3556331e-05,5.5357814e-06,-1.3552606e-05,1.0,1.0728836e-06,-5.52088e-06,-1.1026859e-06,1.0
