AlexandreBanks6/ExpertPlaybackApp/resources/Motions/PC1/Data_PC1_2.csv
Task Time,PC1 Time,PC2 Time,Gaze Calib,s_T_psm1,Tx,Ty,Tz,R00,R01,R02,R10,R11,R12,R20,R21,R22,s_T_psm3,Tx,Ty,Tz,R00,R01,R02,R10,R11,R12,R20,R21,R22,cart_T_ecm,Tx,Ty,Tz,R00,R01,R02,R10,R11,R12,R20,R21,R22,ecm_T_psm1,Tx,Ty,Tz,R00,R01,R02,R10,R11,R12,R20,R21,R22,ecm_T_psm3,Tx,Ty,Tz,R00,R01,R02,R10,R11,R12,R20,R21,R22,psm1_joints,q1,q2,q3,q4,q5,q6,jaw,psm3_joints,q1,q2,q3,q4,q5,q6,jaw,ecm_joints,q1,q2,q3,q4
""
lci_T_si,,,,,-0.0591664,0.057439808,0.51780415,0.99644756,-0.023395203,0.080901,0.020452302,-0.86465377,-0.50195175,0.08169462,0.5018232,-0.86110365
rci_T_si,,,,,-0.0507035,0.03842518,0.6848318,0.9999868,-0.0005291419,-0.005102156,-0.0029838972,-0.8690627,-0.49469292,-0.0041723307,0.49470162,-0.8690529
ecm_T_lc,,,,,-0.010503502,0.0353613,-0.35674977,-0.9933329,0.103684954,0.050389625,-0.112544216,-0.96688193,-0.22907005,0.024969695,-0.2332139,0.9721048
ecm_T_rc,,,,,-0.045470465,0.07002666,-0.40169618,-0.98767287,0.15394595,0.028337218,-0.15650986,-0.96815085,-0.19541891,-0.0026492458,-0.19744499,0.9803104
cart_T_ecmi,,,,,0.17632194,1.3281375,0.5574785,0.9922776,-0.056580693,-0.11038027,-0.101518326,-0.88177484,-0.46061608,-0.07126857,0.4682646,-0.8807094
ecmac_T_ecmrep_psm1,,,,,-0.040727746,0.23137592,-0.21310239,0.98627466,0.1643199,0.016164957,-0.16233762,0.9471621,0.2766415,0.03014687,-0.27546868,0.96083724
ecmac_T_ecmrep_psm3,,,,,-0.03207139,0.39064074,-0.46404764,0.9917923,0.12441902,0.029460106,-0.1278581,0.9641174,0.23265849,0.00054414105,-0.23451562,0.9721122
""
0,10:57:55.561604,NaN,0,,0.063285515,0.0017046258,0.028614163,-0.9494431,0.2983791,0.09761002,0.03557635,0.41117764,-0.9108607,-0.31191686,-0.86133784,-0.40100503,,0.03199477,0.04534778,0.047932,0.033052176,-0.62575364,0.7793202,0.16947609,-0.76494515,-0.62139904,0.98497987,0.1526146,0.080767125,,0.17628025,1.3281391,0.55747455,0.99228555,-0.056512475,-0.1103436,-0.10143875,-0.88179445,-0.46059602,-0.07127096,0.4682359,-0.8807245,,-0.0460144,0.14895965,-0.07566879,0.9643345,-0.21413471,-0.15558068,-0.16870452,-0.044327516,-0.9846694,0.2039554,0.97579783,-0.07887205,,0.0011362381,0.34883055,-0.32784697,-0.11158527,0.5549557,-0.8243621,0.6598714,-0.57888496,-0.47902185,-0.74304676,-0.59742475,-0.30160436,,1.2119670836164234,-0.4515250229572844,0.18695612896000002,1.3051102082476795,0.6296209909191496,-0.7976557159222665,-0.1261016190556636,,-0.9283651642762768,-0.3178599623702066,0.18932445079000002,-1.2950450909604225,-1.2342375023812235,1.0198332374728267,0.02188810486199342,,-0.15579681567927384,-0.3094010614857298,0.0882075766,0.08275268144170031
0.024727809999603778,10:57:55.592401,NaN,0,,0.06328496,0.001706399,0.028613836,-0.94944406,0.2983768,0.09760788,0.03558051,0.4111863,-0.91085666,-0.31191355,-0.86133444,-0.4010148,,0.03199477,0.04534778,0.047932,0.033052176,-0.62575364,0.7793202,0.16947609,-0.76494515,-0.62139904,0.98497987,0.1526146,0.080767125,,0.17628025,1.3281391,0.55747455,0.99228555,-0.056512475,-0.1103436,-0.10143875,-0.88179445,-0.46059602,-0.07127096,0.4682359,-0.8807245,,-0.046013676,0.148961,-0.07566772,0.9643356,-0.21413185,-0.15557767,-0.16869932,-0.044318423,-0.9846707,0.2039544,0.97579885,-0.07886173,,0.0011362381,0.34883055,-0.32784697,-0.11158527,0.5549557,-0.8243621,0.6598714,-0.57888496,-0.47902185,-0.74304676,-0.59742475,-0.30160436,,1.2119748063492977,-0.45151730022441017,0.18695612896000002,1.3051102082476795,0.6296209909191496,-0.7976557159222665,-0.1261016190556636,,-0.9283651642762768,-0.3178599623702066,0.18932445079000002,-1.2950450909604225,-1.2342375023812235,1.0198332374728267,0.02188810486199342,,-0.15579681567927384,-0.3094010614857298,0.0882075766,0.08275268144170031
0.05552325799362734,10:57:55.629694,10:57:54.502018,0,,0.063285515,0.0017046258,0.028614163,-0.9494431,0.2983791,0.09761002,0.03557635,0.41117764,-0.9108607,-0.31191686,-0.86133784,-0.40100503,,0.03199477,0.04534778,0.047932,0.033052176,-0.62575364,0.7793202,0.16947609,-0.76494515,-0.62139904,0.98497987,0.1526146,0.080767125,,0.17628025,1.3281391,0.55747455,0.99228555,-0.056512475,-0.1103436,-0.10143875,-0.88179445,-0.46059602,-0.07127096,0.4682359,-0.8807245,,-0.0460144,0.14895965,-0.07566879,0.9643345,-0.21413471,-0.15558068,-0.16870452,-0.044327516,-0.9846694,0.2039554,0.97579783,-0.07887205,,0.0011362381,0.34883055,-0.32784697,-0.11158527,0.5549557,-0.8243621,0.6598714,-0.57888496,-0.47902185,-0.74304676,-0.59742475,-0.30160436,,1.2119670836164234,-0.4515250229572844,0.18695612896000002,1.3051102082476795,0.6296209909191496,-0.7976557159222665,-0.1261016190556636,,-0.9283651642762768,-0.3178599623702066,0.18932445079000002,-1.2950450909604225,-1.2342375023812235,1.0198332374728267,0.02188810486199342,,-0.15579681567927384,-0.3094010614857298,0.0882075766,0.08275268144170031
0.09282053599599749,10:57:55.652061,10:57:54.502018,0,,0.06322858,0.0015930235,0.028917909,-0.9485394,0.30114192,0.097911656,0.036481082,0.41106552,-0.91087544,-0.31455094,-0.86042947,-0.40089777,,0.031924177,0.04526013,0.048156023,0.030456133,-0.62686044,0.7785361,0.16927311,-0.76441205,-0.62210995,0.9850986,0.15073225,0.082829565,,0.17628025,1.3281391,0.55747455,0.99228555,-0.056512475,-0.1103436,-0.10143875,-0.88179445,-0.46059602,-0.07127096,0.4682359,-0.8807245,,-0.04601328,0.1489602,-0.075668775,0.9643363,-0.21412843,-0.15557805,-0.16870081,-0.044325117,-0.98467016,0.20394987,0.9757993,-0.07886796,,0.0011362381,0.34883055,-0.32784697,-0.11158527,0.5549557,-0.8243621,0.6598714,-0.57888496,-0.47902185,-0.74304676,-0.59742475,-0.30160436,,1.2119748063492977,-0.4515250229572844,0.18695612896000002,1.3051102082476795,0.6296209909191496,-0.7976557159222665,-0.1261016190556636,,-0.9283651642762768,-0.3178599623702066,0.18932445079000002,-1.2950450909604225,-1.2342375023812235,1.0198332374728267,0.02188810486199342,,-0.15579681567927384,-0.3094010614857298,0.0882075766,0.08275268144170031
0.1150976869976148,10:57:55.680521,10:57:54.502018,0,,0.06322858,0.0015930235,0.028917909,-0.9485394,0.30114192,0.097911656,0.036481082,0.41106552,-0.91087544,-0.31455094,-0.86042947,-0.40089777,,0.031923186,0.045259356,0.048155695,0.030461885,-0.62685895,0.7785371,0.1692779,-0.7644118,-0.62210894,0.9850976,0.15073973,0.082827926,,0.17628025,1.3281391,0.55747455,0.99228555,-0.056512475,-0.1103436,-0.10143875,-0.88179445,-0.46059602,-0.07127096,0.4682359,-0.8807245,,-0.04601328,0.1489602,-0.075668775,0.9643363,-0.21412843,-0.15557805,-0.16870081,-0.044325117,-0.98467016,0.20394987,0.9757993,-0.07886796,,0.0011372004,0.34882972,-0.3278472,-0.11159055,0.5549536,-0.8243629,0.65987504,-0.57888085,-0.47902185,-0.74304277,-0.59743077,-0.30160233,,1.2119748063492977,-0.4515250229572844,0.18695612896000002,1.3051102082476795,0.6296209909191496,-0.7976557159222665,-0.1261016190556636,,-0.9283574415434025,-0.3178599623702066,0.18932445079000002,-1.2950450909604225,-1.2342375023812235,1.0198332374728267,0.02188810486199342,,-0.15579681567927384,-0.3094010614857298,0.0882075766,0.08275268144170031
0.14357354800449684,10:57:55.709257,10:57:54.502018,0,,0.063229665,0.001592435,0.0289177,-0.9485373,0.30114788,0.097913936,0.036480345,0.41106212,-0.910877,-0.31455743,-0.860429,-0.40089372,,0.031924784,0.045258448,0.04815629,0.030479342,-0.6270156,0.77841026,0.1692087,-0.7642951,-0.6222712,0.9851089,0.15068018,0.08280128,,0.17628025,1.3281391,0.55747455,0.99228555,-0.056512475,-0.1103436,-0.10143875,-0.88179445,-0.46059602,-0.07127096,0.4682359,-0.8807245,,-0.0460144,0.14895965,-0.07566879,0.9643345,-0.21413471,-0.15558068,-0.16870452,-0.044327516,-0.9846694,0.2039554,0.97579783,-0.07887205,,0.0011354964,0.34882927,-0.327848,-0.11161378,0.5551229,-0.8242457,0.65982217,-0.5788141,-0.47917533,-0.7430862,-0.59733814,-0.30167875,,1.2119670836164234,-0.4515250229572844,0.18695612896000002,1.3051102082476795,0.6296209909191496,-0.7976557159222665,-0.1261016190556636,,-0.9283651642762768,-0.3178599623702066,0.18932445079000002,-1.2948354010169378,-1.2342375023812235,1.0198332374728267,0.02188810486199342,,-0.15579681567927384,-0.3094010614857298,0.0882075766,0.08275268144170031
0.17236897299881093,10:57:55.735078,10:57:54.502018,0,,0.06316608,0.0016050935,0.02893132,-0.94853854,0.30115265,0.097886674,0.03649976,0.41103777,-0.9108873,-0.3145513,-0.86043894,-0.40087715,,0.03185976,0.045245066,0.048171043,0.030496582,-0.6272215,0.77824366,0.16913694,-0.76413924,-0.62248206,0.9851208,0.15061328,0.082782686,,0.17627545,1.3281393,0.5574746,0.9922849,-0.056518372,-0.11034668,-0.10144539,-0.8817941,-0.46059528,-0.07127096,0.4682359,-0.8807245,,-0.045950823,0.14897412,-0.07568047,0.9643371,-0.21414107,-0.15555541,-0.16868466,-0.044353355,-0.98467165,0.20395924,0.97579527,-0.0788939,,0.0011977361,0.34882492,-0.32787505,-0.111637026,0.55534464,-0.82409316,0.6597673,-0.57871836,-0.47936642,-0.7431314,-0.5972248,-0.30179185,,1.2119748063492977,-0.4515250229572844,0.18695612896000002,1.3051102082476795,0.6296209909191496,-0.7976557159222665,-0.1261016190556636,,-0.9283651642762768,-0.3178599623702066,0.18932445079000002,-1.2946257110734534,-1.2342375023812235,1.0198332374728267,0.02188810486199342,,-0.15579681567927384,-0.3094010614857298,0.0882075766,0.08275268144170031
0.19816934497794136,10:57:55.762739,10:57:54.502018,0,,0.06316717,0.0016045123,0.02893114,-0.9485364,0.30115867,0.097888954,0.036499016,0.4110344,-0.91088885,-0.31455782,-0.86043847,-0.40087312,,0.03185976,0.045245066,0.048171043,0.030496582,-0.6272215,0.77824366,0.16913694,-0.76413924,-0.62248206,0.9851208,0.15061328,0.082782686,,0.17627545,1.3281393,0.5574746,0.9922849,-0.056518372,-0.11034668,-0.10144539,-0.8817941,-0.46059528,-0.07127096,0.4682359,-0.8807245,,-0.04595194,0.14897357,-0.075680494,0.9643353,-0.21414734,-0.15555805,-0.16868837,-0.044355754,-0.98467094,0.20396477,0.9757938,-0.07889799,,0.0011977361,0.34882492,-0.32787505,-0.111637026,0.55534464,-0.82409316,0.6597673,-0.57871836,-0.47936642,-0.7431314,-0.5972248,-0.30179185,,1.2119670836164234,-0.4515250229572844,0.18695612896000002,1.3051102082476795,0.6296209909191496,-0.7976557159222665,-0.1261016190556636,,-0.9283651642762768,-0.3178599623702066,0.18932445079000002,-1.2946257110734534,-1.2342375023812235,1.0198332374728267,0.02188810486199342,,-0.15579681567927384,-0.3094010614857298,0.0882075766,0.08275268144170031
0.22585780298686586,10:57:55.787651,10:57:54.652869,0,,0.063227504,0.0018263832,0.027811766,-0.95549023,0.2818298,0.087237336,0.027608223,0.37981573,-0.92465013,-0.29372808,-0.8810857,-0.37069094,,0.032439284,0.046188563,0.0462178,0.05348126,-0.6247267,0.7790098,0.20361644,-0.7569133,-0.6209852,0.9775889,0.19183022,0.08672397,,0.17627545,1.3281393,0.5574746,0.9922849,-0.056518372,-0.11034668,-0.10144539,-0.8817941,-0.46059528,-0.07127096,0.4682359,-0.8807245,,-0.045950823,0.14897412,-0.07568047,0.9643371,-0.21414107,-0.15555541,-0.16868466,-0.044353355,-0.98467165,0.20395924,0.97579527,-0.0788939,,0.0011977361,0.34882492,-0.32787505,-0.111637026,0.55534464,-0.82409316,0.6597673,-0.57871836,-0.47936642,-0.7431314,-0.5972248,-0.30179185,,1.2119748063492977,-0.4515250229572844,0.18695612896000002,1.3051102082476795,0.6296209909191496,-0.7976557159222665,-0.1261016190556636,,-0.9283651642762768,-0.3178599623702066,0.18932445079000002,-1.2946257110734534,-1.2342375023812235,1.0198332374728267,0.02188810486199342,,-0.15579681567927384,-0.3094010614857298,0.0882075766,0.08275268144170031
0.2507778729777783,10:57:55.813406,10:57:54.652869,0,,0.063227504,0.0018263832,0.027811766,-0.95549023,0.2818298,0.087237336,0.027608223,0.37981573,-0.92465013,-0.29372808,-0.8810857,-0.37069094,,0.032439284,0.046188563,0.0462178,0.05348126,-0.6247267,0.7790098,0.20361644,-0.7569133,-0.6209852,0.9775889,0.19183022,0.08672397,,0.17627545,1.3281393,0.5574746,0.9922849,-0.056518372,-0.11034668,-0.10144539,-0.8817941,-0.46059528,-0.07127096,0.4682359,-0.8807245,,-0.045950823,0.14897412,-0.07568047,0.9643371,-0.21414107,-0.15555541,-0.16868466,-0.044353355,-0.98467165,0.20395924,0.97579527,-0.0788939,,0.0011977361,0.34882492,-0.32787505,-0.111637026,0.55534464,-0.82409316,0.6597673,-0.57871836,-0.47936642,-0.7431314,-0.5972248,-0.30179185,,1.2119748063492977,-0.4515250229572844,0.18695612896000002,1.3051102082476795,0.6296209909191496,-0.7976557159222665,-0.1261016190556636,,-0.9283651642762768,-0.3178599623702066,0.18932445079000002,-1.2946257110734534,-1.2342375023812235,1.0198332374728267,0.02188810486199342,,-0.15579681567927384,-0.3094010614857298,0.0882075766,0.08275268144170031
0.27652643498731777,10:57:55.833462,10:57:54.652869,0,,0.06322858,0.0018257946,0.027811572,-0.9554883,0.2818358,0.087239705,0.027607247,0.37981236,-0.92465156,-0.2937346,-0.8810852,-0.3706869,,0.032438286,0.04618779,0.04621753,0.053486988,-0.624725,0.7790108,0.20362118,-0.7569128,-0.62098426,0.9775876,0.19183767,0.086722255,,0.17627545,1.3281393,0.5574746,0.9922849,-0.056518372,-0.11034668,-0.10144539,-0.8817941,-0.46059528,-0.07127096,0.4682359,-0.8807245,,-0.04595194,0.14897357,-0.075680494,0.9643353,-0.21414734,-0.15555805,-0.16868837,-0.044355754,-0.98467094,0.20396477,0.9757938,-0.07889799,,0.0011986985,0.34882408,-0.3278753,-0.11164231,0.55534244,-0.8240939,0.65977097,-0.57871425,-0.47936642,-0.7431274,-0.5972308,-0.30178982,,1.2119670836164234,-0.4515250229572844,0.18695612896000002,1.3051102082476795,0.6296209909191496,-0.7976557159222665,-0.1261016190556636,,-0.9283574415434025,-0.3178599623702066,0.18932445079000002,-1.2946257110734534,-1.2342375023812235,1.0198332374728267,0.02188810486199342,,-0.15579681567927384,-0.3094010614857298,0.0882075766,0.08275268144170031
0.29658677498809993,10:57:55.854667,10:57:54.652869,0,,0.063227504,0.0018263832,0.027811766,-0.95549023,0.2818298,0.087237336,0.027608223,0.37981573,-0.92465013,-0.29372808,-0.8810857,-0.37069094,,0.032438286,0.04618779,0.04621753,0.053486988,-0.624725,0.7790108,0.20362118,-0.7569128,-0.62098426,0.9775876,0.19183767,0.086722255,,0.17627545,1.3281393,0.5574746,0.9922849,-0.056518372,-0.11034668,-0.10144539,-0.8817941,-0.46059528,-0.07127096,0.4682359,-0.8807245,,-0.045950823,0.14897412,-0.07568047,0.9643371,-0.21414107,-0.15555541,-0.16868466,-0.044353355,-0.98467165,0.20395924,0.97579527,-0.0788939,,0.0011986985,0.34882408,-0.3278753,-0.11164231,0.55534244,-0.8240939,0.65977097,-0.57871425,-0.47936642,-0.7431274,-0.5972308,-0.30178982,,1.2119748063492977,-0.4515250229572844,0.18695612896000002,1.3051102082476795,0.6296209909191496,-0.7976557159222665,-0.1261016190556636,,-0.9283574415434025,-0.3178599623702066,0.18932445079000002,-1.2946257110734534,-1.2342375023812235,1.0198332374728267,0.02188810486199342,,-0.15579681567927384,-0.3094010614857298,0.0882075766,0.08275268144170031
0.3177934839914087,10:57:55.880751,10:57:54.652869,0,,0.063227504,0.0018263832,0.027811766,-0.95549023,0.2818298,0.087237336,0.027608223,0.37981573,-0.92465013,-0.29372808,-0.8810857,-0.37069094,,0.032439284,0.046188563,0.0462178,0.05348126,-0.6247267,0.7790098,0.20361644,-0.7569133,-0.6209852,0.9775889,0.19183022,0.08672397,,0.17627545,1.3281393,0.5574746,0.9922849,-0.056518372,-0.11034668,-0.10144539,-0.8817941,-0.46059528,-0.07127096,0.4682359,-0.8807245,,-0.045950823,0.14897412,-0.07568047,0.9643371,-0.21414107,-0.15555541,-0.16868466,-0.044353355,-0.98467165,0.20395924,0.97579527,-0.0788939,,0.0011977361,0.34882492,-0.32787505,-0.111637026,0.55534464,-0.82409316,0.6597673,-0.57871836,-0.47936642,-0.7431314,-0.5972248,-0.30179185,,1.2119748063492977,-0.4515250229572844,0.18695612896000002,1.3051102082476795,0.6296209909191496,-0.7976557159222665,-0.1261016190556636,,-0.9283651642762768,-0.3178599623702066,0.18932445079000002,-1.2946257110734534,-1.2342375023812235,1.0198332374728267,0.02188810486199342,,-0.15579681567927384,-0.3094010614857298,0.0882075766,0.08275268144170031
0.34387451500515454,10:57:55.902306,10:57:54.652869,0,,0.06322858,0.0018257946,0.027811572,-0.9554883,0.2818358,0.087239705,0.027607247,0.37981236,-0.92465156,-0.2937346,-0.8810852,-0.3706869,,0.032439284,0.046188563,0.0462178,0.05348126,-0.6247267,0.7790098,0.20361644,-0.7569133,-0.6209852,0.9775889,0.19183022,0.08672397,,0.17627545,1.3281393,0.5574746,0.9922849,-0.056518372,-0.11034668,-0.10144539,-0.8817941,-0.46059528,-0.07127096,0.4682359,-0.8807245,,-0.04595194,0.14897357,-0.075680494,0.9643353,-0.21414734,-0.15555805,-0.16868837,-0.044355754,-0.98467094,0.20396477,0.9757938,-0.07889799,,0.0011977361,0.34882492,-0.32787505,-0.111637026,0.55534464,-0.82409316,0.6597673,-0.57871836,-0.47936642,-0.7431314,-0.5972248,-0.30179185,,1.2119670836164234,-0.4515250229572844,0.18695612896000002,1.3051102082476795,0.6296209909191496,-0.7976557159222665,-0.1261016190556636,,-0.9283651642762768,-0.3178599623702066,0.18932445079000002,-1.2946257110734534,-1.2342375023812235,1.0198332374728267,0.02188810486199342,,-0.15579681567927384,-0.3094010614857298,0.0882075766,0.08275268144170031
0.3654305919772014,10:57:55.929710,10:57:54.652869,0,,0.063227504,0.0018263832,0.027811766,-0.95549023,0.2818298,0.087237336,0.027608223,0.37981573,-0.92465013,-0.29372808,-0.8810857,-0.37069094,,0.032439284,0.046188563,0.0462178,0.05348126,-0.6247267,0.7790098,0.20361644,-0.7569133,-0.6209852,0.9775889,0.19183022,0.08672397,,0.17627545,1.3281393,0.5574746,0.9922849,-0.056518372,-0.11034668,-0.10144539,-0.8817941,-0.46059528,-0.07127096,0.4682359,-0.8807245,,-0.045950823,0.14897412,-0.07568047,0.9643371,-0.21414107,-0.15555541,-0.16868466,-0.044353355,-0.98467165,0.20395924,0.97579527,-0.0788939,,0.0011977361,0.34882492,-0.32787505,-0.111637026,0.55534464,-0.82409316,0.6597673,-0.57871836,-0.47936642,-0.7431314,-0.5972248,-0.30179185,,1.2119748063492977,-0.4515250229572844,0.18695612896000002,1.3051102082476795,0.6296209909191496,-0.7976557159222665,-0.1261016190556636,,-0.9283651642762768,-0.3178599623702066,0.18932445079000002,-1.2946257110734534,-1.2342375023812235,1.0198332374728267,0.02188810486199342,,-0.15579681567927384,-0.3094010614857298,0.0882075766,0.08275268144170031
0.39276489298208617,10:57:55.953653,10:57:54.809220,0,,0.06321989,0.0019234791,0.027638316,-0.95567083,0.2810693,0.0877114,0.026815161,0.37974104,-0.9247041,-0.29321358,-0.88136077,-0.37044436,,0.032409288,0.04626897,0.04604712,0.053867258,-0.62406725,0.7795116,0.20396715,-0.7573092,-0.6203871,0.9774946,0.1924133,0.08649504,,0.17627545,1.3281393,0.5574746,0.9922849,-0.056518372,-0.11034668,-0.10144539,-0.8817941,-0.46059528,-0.07127096,0.4682359,-0.8807245,,-0.045950823,0.14897412,-0.07568047,0.9643371,-0.21414107,-0.15555541,-0.16868466,-0.044353355,-0.98467165,0.20395924,0.97579527,-0.0788939,,0.0011977361,0.34882492,-0.32787505,-0.111637026,0.55534464,-0.82409316,0.6597673,-0.57871836,-0.47936642,-0.7431314,-0.5972248,-0.30179185,,1.2119748063492977,-0.4515250229572844,0.18695612896000002,1.3051102082476795,0.6296209909191496,-0.7976557159222665,-0.1261016190556636,,-0.9283651642762768,-0.3178599623702066,0.18932445079000002,-1.2946257110734534,-1.2342375023812235,1.0198332374728267,0.02188810486199342,,-0.15579681567927384,-0.3094010614857298,0.0882075766,0.08275268144170031
0.41674539298401214,10:57:55.978260,10:57:54.809220,0,,0.06322096,0.001922898,0.027638122,-0.95566887,0.2810753,0.08771378,0.026814185,0.37973768,-0.9247055,-0.2932201,-0.8813603,-0.3704403,,0.03240829,0.04626821,0.046046853,0.05387298,-0.6240655,0.7795125,0.20397195,-0.7573086,-0.6203861,0.9774933,0.19242069,0.08649334,,0.17627545,1.3281393,0.5574746,0.9922849,-0.056518372,-0.11034668,-0.10144539,-0.8817941,-0.46059528,-0.07127096,0.4682359,-0.8807245,,-0.04595194,0.14897357,-0.075680494,0.9643353,-0.21414734,-0.15555805,-0.16868837,-0.044355754,-0.98467094,0.20396477,0.9757938,-0.07889799,,0.0011986985,0.34882408,-0.3278753,-0.11164231,0.55534244,-0.8240939,0.65977097,-0.57871425,-0.47936642,-0.7431274,-0.5972308,-0.30178982,,1.2119670836164234,-0.4515250229572844,0.18695612896000002,1.3051102082476795,0.6296209909191496,-0.7976557159222665,-0.1261016190556636,,-0.9283574415434025,-0.3178599623702066,0.18932445079000002,-1.2946257110734534,-1.2342375023812235,1.0198332374728267,0.02188810486199342,,-0.15579681567927384,-0.3094010614857298,0.0882075766,0.08275268144170031
0.44138181197922677,10:57:56.003379,10:57:54.809220,0,,0.06321989,0.0019234791,0.027638316,-0.95567083,0.2810693,0.0877114,0.026815161,0.37974104,-0.9247041,-0.29321358,-0.88136077,-0.37044436,,0.032409288,0.04626897,0.04604712,0.053867258,-0.62406725,0.7795116,0.20396715,-0.7573092,-0.6203871,0.9774946,0.1924133,0.08649504,,0.17627545,1.3281393,0.5574746,0.9922849,-0.056518372,-0.11034668,-0.10144539,-0.8817941,-0.46059528,-0.07127096,0.4682359,-0.8807245,,-0.045950823,0.14897412,-0.07568047,0.9643371,-0.21414107,-0.15555541,-0.16868466,-0.044353355,-0.98467165,0.20395924,0.97579527,-0.0788939,,0.0011977361,0.34882492,-0.32787505,-0.111637026,0.55534464,-0.82409316,0.6597673,-0.57871836,-0.47936642,-0.7431314,-0.5972248,-0.30179185,,1.2119748063492977,-0.4515250229572844,0.18695612896000002,1.3051102082476795,0.6296209909191496,-0.7976557159222665,-0.1261016190556636,,-0.9283651642762768,-0.3178599623702066,0.18932445079000002,-1.2946257110734534,-1.2342375023812235,1.0198332374728267,0.02188810486199342,,-0.15579681567927384,-0.3094010614857298,0.0882075766,0.08275268144170031
0.46649633199558593,10:57:56.024336,10:57:54.809220,0,,0.06321989,0.0019234791,0.027638316,-0.95567083,0.2810693,0.0877114,0.026815161,0.37974104,-0.9247041,-0.29321358,-0.88136077,-0.37044436,,0.032409288,0.04626897,0.04604712,0.053867258,-0.62406725,0.7795116,0.20396715,-0.7573092,-0.6203871,0.9774946,0.1924133,0.08649504,,0.17627545,1.3281393,0.5574746,0.9922849,-0.056518372,-0.11034668,-0.10144539,-0.8817941,-0.46059528,-0.07127096,0.4682359,-0.8807245,,-0.045950823,0.14897412,-0.07568047,0.9643371,-0.21414107,-0.15555541,-0.16868466,-0.044353355,-0.98467165,0.20395924,0.97579527,-0.0788939,,0.0011977361,0.34882492,-0.32787505,-0.111637026,0.55534464,-0.82409316,0.6597673,-0.57871836,-0.47936642,-0.7431314,-0.5972248,-0.30179185,,1.2119748063492977,-0.4515250229572844,0.18695612896000002,1.3051102082476795,0.6296209909191496,-0.7976557159222665,-0.1261016190556636,,-0.9283651642762768,-0.3178599623702066,0.18932445079000002,-1.2946257110734534,-1.2342375023812235,1.0198332374728267,0.02188810486199342,,-0.15579681567927384,-0.3094010614857298,0.0882075766,0.08275268144170031
0.48724562500137836,10:57:56.048564,10:57:54.809220,0,,0.06322096,0.001922898,0.027638122,-0.95566887,0.2810753,0.08771378,0.026814185,0.37973768,-0.9247055,-0.2932201,-0.8813603,-0.3704403,,0.032409288,0.04626897,0.04604712,0.053867258,-0.62406725,0.7795116,0.20396715,-0.7573092,-0.6203871,0.9774946,0.1924133,0.08649504,,0.17627545,1.3281393,0.5574746,0.9922849,-0.056518372,-0.11034668,-0.10144539,-0.8817941,-0.46059528,-0.07127096,0.4682359,-0.8807245,,-0.04595194,0.14897357,-0.075680494,0.9643353,-0.21414734,-0.15555805,-0.16868837,-0.044355754,-0.98467094,0.20396477,0.9757938,-0.07889799,,0.0011977361,0.34882492,-0.32787505,-0.111637026,0.55534464,-0.82409316,0.6597673,-0.57871836,-0.47936642,-0.7431314,-0.5972248,-0.30179185,,1.2119670836164234,-0.4515250229572844,0.18695612896000002,1.3051102082476795,0.6296209909191496,-0.7976557159222665,-0.1261016190556636,,-0.9283651642762768,-0.3178599623702066,0.18932445079000002,-1.2946257110734534,-1.2342375023812235,1.0198332374728267,0.02188810486199342,,-0.15579681567927384,-0.3094010614857298,0.0882075766,0.08275268144170031
0.511690422979882,10:57:56.072170,10:57:54.809220,0,,0.06321989,0.0019234791,0.027638316,-0.95567083,0.2810693,0.0877114,0.026815161,0.37974104,-0.9247041,-0.29321358,-0.88136077,-0.37044436,,0.032409288,0.04626897,0.04604712,0.053867258,-0.62406725,0.7795116,0.20396715,-0.7573092,-0.6203871,0.9774946,0.1924133,0.08649504,,0.17627545,1.3281393,0.5574746,0.9922849,-0.056518372,-0.11034668,-0.10144539,-0.8817941,-0.46059528,-0.07127096,0.4682359,-0.8807245,,-0.045950823,0.14897412,-0.07568047,0.9643371,-0.21414107,-0.15555541,-0.16868466,-0.044353355,-0.98467165,0.20395924,0.97579527,-0.0788939,,0.0011977361,0.34882492,-0.32787505,-0.111637026,0.55534464,-0.82409316,0.6597673,-0.57871836,-0.47936642,-0.7431314,-0.5972248,-0.30179185,,1.2119748063492977,-0.4515250229572844,0.18695612896000002,1.3051102082476795,0.6296209909191496,-0.7976557159222665,-0.1261016190556636,,-0.9283651642762768,-0.3178599623702066,0.18932445079000002,-1.2946257110734534,-1.2342375023812235,1.0198332374728267,0.02188810486199342,,-0.15579681567927384,-0.3094010614857298,0.0882075766,0.08275268144170031
0.5352723099931609,10:57:56.097787,10:57:54.967718,0,,0.06322086,0.001861006,0.027694508,-0.95552075,0.28172958,0.08722727,0.027735211,0.38028994,-0.9244514,-0.29361695,-0.8809131,-0.37118876,,0.032433182,0.046212584,0.04612711,0.053573936,-0.6246849,0.77903694,0.2031011,-0.7570332,-0.6210079,0.97769105,0.19149303,0.0863169,,0.17627545,1.3281393,0.5574746,0.9922849,-0.056518372,-0.11034668,-0.10144539,-0.8817941,-0.46059528,-0.07127096,0.4682359,-0.8807245,,-0.045950823,0.14897412,-0.07568047,0.9643371,-0.21414107,-0.15555541,-0.16868466,-0.044353355,-0.98467165,0.20395924,0.97579527,-0.0788939,,0.0011977361,0.34882492,-0.32787505,-0.111637026,0.55534464,-0.82409316,0.6597673,-0.57871836,-0.47936642,-0.7431314,-0.5972248,-0.30179185,,1.2119748063492977,-0.4515250229572844,0.18695612896000002,1.3051102082476795,0.6296209909191496,-0.7976557159222665,-0.1261016190556636,,-0.9283651642762768,-0.3178599623702066,0.18932445079000002,-1.2946257110734534,-1.2342375023812235,1.0198332374728267,0.02188810486199342,,-0.15579681567927384,-0.3094010614857298,0.0882075766,0.08275268144170031
0.5609011659980752,10:57:56.120649,10:57:54.967718,0,,0.06322086,0.001861006,0.027694508,-0.95552075,0.28172958,0.08722727,0.027735211,0.38028994,-0.9244514,-0.29361695,-0.8809131,-0.37118876,,0.032431968,0.046215937,0.046126455,0.05352728,-0.62437254,0.7792905,0.20322931,-0.75726426,-0.6206842,0.977667,0.19159812,0.08635643,,0.17627545,1.3281393,0.5574746,0.9922849,-0.056518372,-0.11034668,-0.10144539,-0.8817941,-0.46059528,-0.07127096,0.4682359,-0.8807245,,-0.045950823,0.14897412,-0.07568047,0.9643371,-0.21414107,-0.15555541,-0.16868466,-0.044353355,-0.98467165,0.20395924,0.97579527,-0.0788939,,0.0011992188,0.34882748,-0.327873,-0.11158002,0.55501026,-0.8243261,0.65986586,-0.5788602,-0.47905946,-0.7430525,-0.5973981,-0.30164307,,1.2119748063492977,-0.4515250229572844,0.18695612896000002,1.3051102082476795,0.6296209909191496,-0.7976557159222665,-0.1261016190556636,,-0.9283651642762768,-0.3178599623702066,0.18932445079000002,-1.2950450909604225,-1.2342375023812235,1.0198332374728267,0.02188810486199342,,-0.15579681567927384,-0.3094010614857298,0.0882075766,0.08275268144170031
0.5837431649852078,10:57:56.146622,10:57:54.967718,0,,0.06322086,0.001861006,0.027694508,-0.95552075,0.28172958,0.08722727,0.027735211,0.38028994,-0.9244514,-0.29361695,-0.8809131,-0.37118876,,0.032431968,0.046215937,0.046126455,0.05352728,-0.62437254,0.7792905,0.20322931,-0.75726426,-0.6206842,0.977667,0.19159812,0.08635643,,0.17627545,1.3281393,0.5574746,0.9922849,-0.056518372,-0.11034668,-0.10144539,-0.8817941,-0.46059528,-0.07127096,0.4682359,-0.8807245,,-0.045950823,0.14897412,-0.07568047,0.9643371,-0.21414107,-0.15555541,-0.16868466,-0.044353355,-0.98467165,0.20395924,0.97579527,-0.0788939,,0.0011992188,0.34882748,-0.327873,-0.11158002,0.55501026,-0.8243261,0.65986586,-0.5788602,-0.47905946,-0.7430525,-0.5973981,-0.30164307,,1.2119748063492977,-0.4515250229572844,0.18695612896000002,1.3051102082476795,0.6296209909191496,-0.7976557159222665,-0.1261016190556636,,-0.9283651642762768,-0.3178599623702066,0.18932445079000002,-1.2950450909604225,-1.2342375023812235,1.0198332374728267,0.02188810486199342,,-0.15579681567927384,-0.3094010614857298,0.0882075766,0.08275268144170031
0.6096777859784197,10:57:56.169896,10:57:54.967718,0,,0.06322193,0.0018604025,0.027694315,-0.9555188,0.2817356,0.087229654,0.027734242,0.3802866,-0.9244528,-0.2936235,-0.8809126,-0.3711847,,0.032431968,0.046215937,0.046126455,0.05352728,-0.62437254,0.7792905,0.20322931,-0.75726426,-0.6206842,0.977667,0.19159812,0.08635643,,0.17627545,1.3281393,0.5574746,0.9922849,-0.056518372,-0.11034668,-0.10144539,-0.8817941,-0.46059528,-0.07127096,0.4682359,-0.8807245,,-0.04595194,0.14897357,-0.075680494,0.9643353,-0.21414734,-0.15555805,-0.16868837,-0.044355754,-0.98467094,0.20396477,0.9757938,-0.07889799,,0.0011992188,0.34882748,-0.327873,-0.11158002,0.55501026,-0.8243261,0.65986586,-0.5788602,-0.47905946,-0.7430525,-0.5973981,-0.30164307,,1.2119670836164234,-0.4515250229572844,0.18695612896000002,1.3051102082476795,0.6296209909191496,-0.7976557159222665,-0.1261016190556636,,-0.9283651642762768,-0.3178599623702066,0.18932445079000002,-1.2950450909604225,-1.2342375023812235,1.0198332374728267,0.02188810486199342,,-0.15579681567927384,-0.3094010614857298,0.0882075766,0.08275268144170031
0.6330229689774569,10:57:56.196475,10:57:54.967718,0,,0.06322193,0.0018604025,0.027694315,-0.9555188,0.2817356,0.087229654,0.027734242,0.3802866,-0.9244528,-0.2936235,-0.8809126,-0.3711847,,0.032431968,0.046215937,0.046126455,0.05352728,-0.62437254,0.7792905,0.20322931,-0.75726426,-0.6206842,0.977667,0.19159812,0.08635643,,0.17627545,1.3281393,0.5574746,0.9922849,-0.056518372,-0.11034668,-0.10144539,-0.8817941,-0.46059528,-0.07127096,0.4682359,-0.8807245,,-0.04595194,0.14897357,-0.075680494,0.9643353,-0.21414734,-0.15555805,-0.16868837,-0.044355754,-0.98467094,0.20396477,0.9757938,-0.07889799,,0.0011992188,0.34882748,-0.327873,-0.11158002,0.55501026,-0.8243261,0.65986586,-0.5788602,-0.47905946,-0.7430525,-0.5973981,-0.30164307,,1.2119670836164234,-0.4515250229572844,0.18695612896000002,1.3051102082476795,0.6296209909191496,-0.7976557159222665,-0.1261016190556636,,-0.9283651642762768,-0.3178599623702066,0.18932445079000002,-1.2950450909604225,-1.2342375023812235,1.0198332374728267,0.02188810486199342,,-0.15579681567927384,-0.3094010614857298,0.0882075766,0.08275268144170031
0.6595912750053685,10:57:56.217637,10:57:54.967718,0,,0.06322086,0.001861006,0.027694508,-0.95552075,0.28172958,0.08722727,0.027735211,0.38028994,-0.9244514,-0.29361695,-0.8809131,-0.37118876,,0.032431968,0.046215937,0.046126455,0.05352728,-0.62437254,0.7792905,0.20322931,-0.75726426,-0.6206842,0.977667,0.19159812,0.08635643,,0.17627545,1.3281393,0.5574746,0.9922849,-0.056518372,-0.11034668,-0.10144539,-0.8817941,-0.46059528,-0.07127096,0.4682359,-0.8807245,,-0.045950823,0.14897412,-0.07568047,0.9643371,-0.21414107,-0.15555541,-0.16868466,-0.044353355,-0.98467165,0.20395924,0.97579527,-0.0788939,,0.0011992188,0.34882748,-0.327873,-0.11158002,0.55501026,-0.8243261,0.65986586,-0.5788602,-0.47905946,-0.7430525,-0.5973981,-0.30164307,,1.2119748063492977,-0.4515250229572844,0.18695612896000002,1.3051102082476795,0.6296209909191496,-0.7976557159222665,-0.1261016190556636,,-0.9283651642762768,-0.3178599623702066,0.18932445079000002,-1.2950450909604225,-1.2342375023812235,1.0198332374728267,0.02188810486199342,,-0.15579681567927384,-0.3094010614857298,0.0882075766,0.08275268144170031
0.6807645479857456,10:57:56.238535,10:57:54.967718,0,,0.06322086,0.001861006,0.027694508,-0.95552075,0.28172958,0.08722727,0.027735211,0.38028994,-0.9244514,-0.29361695,-0.8809131,-0.37118876,,0.032430965,0.046215132,0.046126187,0.053533003,-0.62437093,0.7792914,0.20323402,-0.7572637,-0.62068325,0.97766566,0.19160548,0.08635475,,0.17627545,1.3281393,0.5574746,0.9922849,-0.056518372,-0.11034668,-0.10144539,-0.8817941,-0.46059528,-0.07127096,0.4682359,-0.8807245,,-0.045950823,0.14897412,-0.07568047,0.9643371,-0.21414107,-0.15555541,-0.16868466,-0.044353355,-0.98467165,0.20395924,0.97579527,-0.0788939,,0.0012001812,0.34882665,-0.32787323,-0.111585304,0.5550081,-0.8243268,0.65986943,-0.5788561,-0.47905943,-0.7430485,-0.59740406,-0.30164105,,1.2119748063492977,-0.4515250229572844,0.18695612896000002,1.3051102082476795,0.6296209909191496,-0.7976557159222665,-0.1261016190556636,,-0.9283574415434025,-0.3178599623702066,0.18932445079000002,-1.2950450909604225,-1.2342375023812235,1.0198332374728267,0.02188810486199342,,-0.15579681567927384,-0.3094010614857298,0.0882075766,0.08275268144170031
0.7016625569958705,10:57:56.264061,10:57:55.136208,0,,0.063228816,0.0018516555,0.027785897,-0.955519,0.28173408,0.08723189,0.027415723,0.37933916,-0.92485154,-0.29365262,-0.88132155,-0.37018976,,0.0324397,0.046226293,0.046169817,0.053520754,-0.6243718,0.77929157,0.20428497,-0.7570584,-0.6205886,0.9774472,0.1924119,0.087031424,,0.17627545,1.3281393,0.5574746,0.9922849,-0.056518372,-0.11034668,-0.10144539,-0.8817941,-0.46059528,-0.07127096,0.4682359,-0.8807245,,-0.045950823,0.14897412,-0.07568047,0.9643371,-0.21414107,-0.15555541,-0.16868466,-0.044353355,-0.98467165,0.20395924,0.97579527,-0.0788939,,0.0011992188,0.34882748,-0.327873,-0.11158002,0.55501026,-0.8243261,0.65986586,-0.5788602,-0.47905946,-0.7430525,-0.5973981,-0.30164307,,1.2119748063492977,-0.4515250229572844,0.18695612896000002,1.3051102082476795,0.6296209909191496,-0.7976557159222665,-0.1261016190556636,,-0.9283651642762768,-0.3178599623702066,0.18932445079000002,-1.2950450909604225,-1.2342375023812235,1.0198332374728267,0.02188810486199342,,-0.15579681567927384,-0.3094010614857298,0.0882075766,0.08275268144170031
0.7271494919841643,10:57:56.288504,10:57:55.136208,0,,0.063228816,0.0018516555,0.027785897,-0.955519,0.28173408,0.08723189,0.027415723,0.37933916,-0.92485154,-0.29365262,-0.88132155,-0.37018976,,0.0324397,0.046226293,0.046169817,0.053520754,-0.6243718,0.77929157,0.20428497,-0.7570584,-0.6205886,0.9774472,0.1924119,0.087031424,,0.17627545,1.3281393,0.5574746,0.9922849,-0.056518372,-0.11034668,-0.10144539,-0.8817941,-0.46059528,-0.07127096,0.4682359,-0.8807245,,-0.045950823,0.14897412,-0.07568047,0.9643371,-0.21414107,-0.15555541,-0.16868466,-0.044353355,-0.98467165,0.20395924,0.97579527,-0.0788939,,0.0011992188,0.34882748,-0.327873,-0.11158002,0.55501026,-0.8243261,0.65986586,-0.5788602,-0.47905946,-0.7430525,-0.5973981,-0.30164307,,1.2119748063492977,-0.4515250229572844,0.18695612896000002,1.3051102082476795,0.6296209909191496,-0.7976557159222665,-0.1261016190556636,,-0.9283651642762768,-0.3178599623702066,0.18932445079000002,-1.2950450909604225,-1.2342375023812235,1.0198332374728267,0.02188810486199342,,-0.15579681567927384,-0.3094010614857298,0.0882075766,0.08275268144170031
0.7516294489905704,10:57:56.315479,10:57:55.136208,0,,0.06322988,0.0018510595,0.027785718,-0.955517,0.28174007,0.08723427,0.027414732,0.37933582,-0.92485297,-0.29365915,-0.8813211,-0.37018567,,0.0324397,0.046226293,0.046169817,0.053520754,-0.6243718,0.77929157,0.20428497,-0.7570584,-0.6205886,0.9774472,0.1924119,0.087031424,,0.17627545,1.3281393,0.5574746,0.9922849,-0.056518372,-0.11034668,-0.10144539,-0.8817941,-0.46059528,-0.07127096,0.4682359,-0.8807245,,-0.04595194,0.14897357,-0.075680494,0.9643353,-0.21414734,-0.15555805,-0.16868837,-0.044355754,-0.98467094,0.20396477,0.9757938,-0.07889799,,0.0011992188,0.34882748,-0.327873,-0.11158002,0.55501026,-0.8243261,0.65986586,-0.5788602,-0.47905946,-0.7430525,-0.5973981,-0.30164307,,1.2119670836164234,-0.4515250229572844,0.18695612896000002,1.3051102082476795,0.6296209909191496,-0.7976557159222665,-0.1261016190556636,,-0.9283651642762768,-0.3178599623702066,0.18932445079000002,-1.2950450909604225,-1.2342375023812235,1.0198332374728267,0.02188810486199342,,-0.15579681567927384,-0.3094010614857298,0.0882075766,0.08275268144170031
0.7786050509894267,10:57:56.337754,10:57:55.136208,0,,0.063228816,0.0018516555,0.027785897,-0.955519,0.28173408,0.08723189,0.027415723,0.37933916,-0.92485154,-0.29365262,-0.88132155,-0.37018976,,0.032438703,0.046225518,0.04616955,0.0535265,-0.6243702,0.77929246,0.20428964,-0.7570579,-0.62058765,0.97744596,0.19241926,0.087029725,,0.17627545,1.3281393,0.5574746,0.9922849,-0.056518372,-0.11034668,-0.10144539,-0.8817941,-0.46059528,-0.07127096,0.4682359,-0.8807245,,-0.045950823,0.14897412,-0.07568047,0.9643371,-0.21414107,-0.15555541,-0.16868466,-0.044353355,-0.98467165,0.20395924,0.97579527,-0.0788939,,0.0012001812,0.34882665,-0.32787323,-0.111585304,0.5550081,-0.8243268,0.65986943,-0.5788561,-0.47905943,-0.7430485,-0.59740406,-0.30164105,,1.2119748063492977,-0.4515250229572844,0.18695612896000002,1.3051102082476795,0.6296209909191496,-0.7976557159222665,-0.1261016190556636,,-0.9283574415434025,-0.3178599623702066,0.18932445079000002,-1.2950450909604225,-1.2342375023812235,1.0198332374728267,0.02188810486199342,,-0.15579681567927384,-0.3094010614857298,0.0882075766,0.08275268144170031
0.8008523790049367,10:57:56.360643,10:57:55.136208,0,,0.06323041,0.001852192,0.027785152,-0.95551586,0.28174385,0.08723432,0.027418055,0.37934124,-0.9248506,-0.2936625,-0.88131744,-0.37019148,,0.0324397,0.046226293,0.046169817,0.053520754,-0.6243718,0.77929157,0.20428497,-0.7570584,-0.6205886,0.9774472,0.1924119,0.087031424,,0.17627545,1.3281393,0.5574746,0.9922849,-0.056518372,-0.11034668,-0.10144539,-0.8817941,-0.46059528,-0.07127096,0.4682359,-0.8807245,,-0.045952335,0.14897436,-0.07567944,0.9643346,-0.21415076,-0.15555768,-0.16868687,-0.044349063,-0.9846715,0.20396931,0.9757933,-0.07889176,,0.0011992188,0.34882748,-0.327873,-0.11158002,0.55501026,-0.8243261,0.65986586,-0.5788602,-0.47905946,-0.7430525,-0.5973981,-0.30164307,,1.2119670836164234,-0.45151730022441017,0.18695612896000002,1.3051102082476795,0.6296209909191496,-0.7976557159222665,-0.1261016190556636,,-0.9283651642762768,-0.3178599623702066,0.18932445079000002,-1.2950450909604225,-1.2342375023812235,1.0198332374728267,0.02188810486199342,,-0.15579681567927384,-0.3094010614857298,0.0882075766,0.08275268144170031
0.8237595399841666,10:57:56.387643,10:57:55.136208,0,,0.063228816,0.0018516555,0.027785897,-0.955519,0.28173408,0.08723189,0.027415723,0.37933916,-0.92485154,-0.29365262,-0.88132155,-0.37018976,,0.0324397,0.046226293,0.046169817,0.053520754,-0.6243718,0.77929157,0.20428497,-0.7570584,-0.6205886,0.9774472,0.1924119,0.087031424,,0.17627545,1.3281393,0.5574746,0.9922849,-0.056518372,-0.11034668,-0.10144539,-0.8817941,-0.46059528,-0.07127096,0.4682359,-0.8807245,,-0.045950823,0.14897412,-0.07568047,0.9643371,-0.21414107,-0.15555541,-0.16868466,-0.044353355,-0.98467165,0.20395924,0.97579527,-0.0788939,,0.0011992188,0.34882748,-0.327873,-0.11158002,0.55501026,-0.8243261,0.65986586,-0.5788602,-0.47905946,-0.7430525,-0.5973981,-0.30164307,,1.2119748063492977,-0.4515250229572844,0.18695612896000002,1.3051102082476795,0.6296209909191496,-0.7976557159222665,-0.1261016190556636,,-0.9283651642762768,-0.3178599623702066,0.18932445079000002,-1.2950450909604225,-1.2342375023812235,1.0198332374728267,0.02188810486199342,,-0.15579681567927384,-0.3094010614857298,0.0882075766,0.08275268144170031
0.8507384959957562,10:57:56.415896,10:57:55.283807,0,,0.06325519,0.0019366369,0.027522832,-0.9560472,0.28001854,0.08696693,0.026976086,0.37934244,-0.92486304,-0.29196906,-0.88186675,-0.3702231,,0.032478943,0.04629995,0.045954973,0.055165894,-0.62371147,0.7797056,0.20443973,-0.7572949,-0.620249,0.9773234,0.19361934,0.085734546,,0.17627545,1.3281393,0.5574746,0.9922849,-0.056518372,-0.11034668,-0.10144539,-0.8817941,-0.46059528,-0.07127096,0.4682359,-0.8807245,,-0.045950823,0.14897412,-0.07568047,0.9643371,-0.21414107,-0.15555541,-0.16868466,-0.044353355,-0.98467165,0.20395924,0.97579527,-0.0788939,,0.0012001812,0.34882665,-0.32787323,-0.111585304,0.5550081,-0.8243268,0.65986943,-0.5788561,-0.47905943,-0.7430485,-0.59740406,-0.30164105,,1.2119748063492977,-0.4515250229572844,0.18695612896000002,1.3051102082476795,0.6296209909191496,-0.7976557159222665,-0.1261016190556636,,-0.9283574415434025,-0.3178599623702066,0.18932445079000002,-1.2950450909604225,-1.2342375023812235,1.0198332374728267,0.02188810486199342,,-0.15579681567927384,-0.3094010614857298,0.0882075766,0.08275268144170031
0.8790214629843831,10:57:56.433427,10:57:55.283807,0,,0.06325519,0.0019366369,0.027522832,-0.9560472,0.28001854,0.08696693,0.026976086,0.37934244,-0.92486304,-0.29196906,-0.88186675,-0.3702231,,0.03247994,0.046300754,0.04595524,0.05516018,-0.62371314,0.7797047,0.20443505,-0.7572955,-0.6202499,0.9773247,0.19361201,0.085736245,,0.17627545,1.3281393,0.5574746,0.9922849,-0.056518372,-0.11034668,-0.10144539,-0.8817941,-0.46059528,-0.07127096,0.4682359,-0.8807245,,-0.045950823,0.14897412,-0.07568047,0.9643371,-0.21414107,-0.15555541,-0.16868466,-0.044353355,-0.98467165,0.20395924,0.97579527,-0.0788939,,0.0011992188,0.34882748,-0.327873,-0.11158002,0.55501026,-0.8243261,0.65986586,-0.5788602,-0.47905946,-0.7430525,-0.5973981,-0.30164307,,1.2119748063492977,-0.4515250229572844,0.18695612896000002,1.3051102082476795,0.6296209909191496,-0.7976557159222665,-0.1261016190556636,,-0.9283651642762768,-0.3178599623702066,0.18932445079000002,-1.2950450909604225,-1.2342375023812235,1.0198332374728267,0.02188810486199342,,-0.15579681567927384,-0.3094010614857298,0.0882075766,0.08275268144170031
0.8965535089955665,10:57:56.456371,10:57:55.283807,0,,0.06325519,0.0019366369,0.027522832,-0.9560472,0.28001854,0.08696693,0.026976086,0.37934244,-0.92486304,-0.29196906,-0.88186675,-0.3702231,,0.03247994,0.046300754,0.04595524,0.05516018,-0.62371314,0.7797047,0.20443505,-0.7572955,-0.6202499,0.9773247,0.19361201,0.085736245,,0.17627545,1.3281393,0.5574746,0.9922849,-0.056518372,-0.11034668,-0.10144539,-0.8817941,-0.46059528,-0.07127096,0.4682359,-0.8807245,,-0.045950823,0.14897412,-0.07568047,0.9643371,-0.21414107,-0.15555541,-0.16868466,-0.044353355,-0.98467165,0.20395924,0.97579527,-0.0788939,,0.0011992188,0.34882748,-0.327873,-0.11158002,0.55501026,-0.8243261,0.65986586,-0.5788602,-0.47905946,-0.7430525,-0.5973981,-0.30164307,,1.2119748063492977,-0.4515250229572844,0.18695612896000002,1.3051102082476795,0.6296209909191496,-0.7976557159222665,-0.1261016190556636,,-0.9283651642762768,-0.3178599623702066,0.18932445079000002,-1.2950450909604225,-1.2342375023812235,1.0198332374728267,0.02188810486199342,,-0.15579681567927384,-0.3094010614857298,0.0882075766,0.08275268144170031
0.9194978339946829,10:57:56.481171,10:57:55.283807,0,,0.063256264,0.0019360557,0.027522624,-0.95604527,0.28002453,0.08696931,0.026975118,0.37933907,-0.9248645,-0.2919756,-0.8818663,-0.37021902,,0.032478943,0.04629995,0.045954973,0.055165894,-0.62371147,0.7797056,0.20443973,-0.7572949,-0.620249,0.9773234,0.19361934,0.085734546,,0.17627545,1.3281393,0.5574746,0.9922849,-0.056518372,-0.11034668,-0.10144539,-0.8817941,-0.46059528,-0.07127096,0.4682359,-0.8807245,,-0.04595194,0.14897357,-0.075680494,0.9643353,-0.21414734,-0.15555805,-0.16868837,-0.044355754,-0.98467094,0.20396477,0.9757938,-0.07889799,,0.0012001812,0.34882665,-0.32787323,-0.111585304,0.5550081,-0.8243268,0.65986943,-0.5788561,-0.47905943,-0.7430485,-0.59740406,-0.30164105,,1.2119670836164234,-0.4515250229572844,0.18695612896000002,1.3051102082476795,0.6296209909191496,-0.7976557159222665,-0.1261016190556636,,-0.9283574415434025,-0.3178599623702066,0.18932445079000002,-1.2950450909604225,-1.2342375023812235,1.0198332374728267,0.02188810486199342,,-0.15579681567927384,-0.3094010614857298,0.0882075766,0.08275268144170031
0.9442665310052689,10:57:56.507835,10:57:55.283807,0,,0.06325519,0.0019366369,0.027522832,-0.9560472,0.28001854,0.08696693,0.026976086,0.37934244,-0.92486304,-0.29196906,-0.88186675,-0.3702231,,0.032481156,0.04629743,0.045955896,0.055206925,-0.6240257,0.7794512,0.20430684,-0.7570647,-0.62057376,0.9773489,0.1935072,0.08569753,,0.17627545,1.3281393,0.5574746,0.9922849,-0.056518372,-0.11034668,-0.10144539,-0.8817941,-0.46059528,-0.07127096,0.4682359,-0.8807245,,-0.045950823,0.14897412,-0.07568047,0.9643371,-0.21414107,-0.15555541,-0.16868466,-0.044353355,-0.98467165,0.20395924,0.97579527,-0.0788939,,0.0011977361,0.34882492,-0.32787505,-0.111637026,0.55534464,-0.82409316,0.6597673,-0.57871836,-0.47936642,-0.7431314,-0.5972248,-0.30179185,,1.2119748063492977,-0.4515250229572844,0.18695612896000002,1.3051102082476795,0.6296209909191496,-0.7976557159222665,-0.1261016190556636,,-0.9283651642762768,-0.3178599623702066,0.18932445079000002,-1.2946257110734534,-1.2342375023812235,1.0198332374728267,0.02188810486199342,,-0.15579681567927384,-0.3094010614857298,0.0882075766,0.08275268144170031
0.9709262029791716,10:57:56.531757,10:57:55.283807,0,,0.06325519,0.0019366369,0.027522832,-0.9560472,0.28001854,0.08696693,0.026976086,0.37934244,-0.92486304,-0.29196906,-0.88186675,-0.3702231,,0.032481156,0.04629743,0.045955896,0.055206925,-0.6240257,0.7794512,0.20430684,-0.7570647,-0.62057376,0.9773489,0.1935072,0.08569753,,0.17627545,1.3281393,0.5574746,0.9922849,-0.056518372,-0.11034668,-0.10144539,-0.8817941,-0.46059528,-0.07127096,0.4682359,-0.8807245,,-0.045950823,0.14897412,-0.07568047,0.9643371,-0.21414107,-0.15555541,-0.16868466,-0.044353355,-0.98467165,0.20395924,0.97579527,-0.0788939,,0.0011977361,0.34882492,-0.32787505,-0.111637026,0.55534464,-0.82409316,0.6597673,-0.57871836,-0.47936642,-0.7431314,-0.5972248,-0.30179185,,1.2119748063492977,-0.4515250229572844,0.18695612896000002,1.3051102082476795,0.6296209909191496,-0.7976557159222665,-0.1261016190556636,,-0.9283651642762768,-0.3178599623702066,0.18932445079000002,-1.2946257110734534,-1.2342375023812235,1.0198332374728267,0.02188810486199342,,-0.15579681567927384,-0.3094010614857298,0.0882075766,0.08275268144170031
0.9948681370005943,10:57:56.553744,10:57:55.283807,0,,0.06325519,0.0019366369,0.027522832,-0.9560472,0.28001854,0.08696693,0.026976086,0.37934244,-0.92486304,-0.29196906,-0.88186675,-0.3702231,,0.032480158,0.046296626,0.04595563,0.055212647,-0.62402403,0.77945215,0.20431161,-0.7570642,-0.6205728,0.9773476,0.19351459,0.08569583,,0.17627545,1.3281393,0.5574746,0.9922849,-0.056518372,-0.11034668,-0.10144539,-0.8817941,-0.46059528,-0.07127096,0.4682359,-0.8807245,,-0.045950823,0.14897412,-0.07568047,0.9643371,-0.21414107,-0.15555541,-0.16868466,-0.044353355,-0.98467165,0.20395924,0.97579527,-0.0788939,,0.0011986985,0.34882408,-0.3278753,-0.11164231,0.55534244,-0.8240939,0.65977097,-0.57871425,-0.47936642,-0.7431274,-0.5972308,-0.30178982,,1.2119748063492977,-0.4515250229572844,0.18695612896000002,1.3051102082476795,0.6296209909191496,-0.7976557159222665,-0.1261016190556636,,-0.9283574415434025,-0.3178599623702066,0.18932445079000002,-1.2946257110734534,-1.2342375023812235,1.0198332374728267,0.02188810486199342,,-0.15579681567927384,-0.3094010614857298,0.0882075766,0.08275268144170031
1.0168710949947126,10:57:56.582537,10:57:55.435607,0,,0.063287616,0.001980953,0.027479634,-0.9565188,0.27834013,0.08716984,0.025867425,0.37863994,-0.92518246,-0.2905214,-0.8826996,-0.36937618,,0.03250492,0.046335533,0.04591313,0.05654358,-0.6230926,0.7801018,0.20539024,-0.7573799,-0.619831,0.9770453,0.19527268,0.085152134,,0.17627545,1.3281393,0.5574746,0.9922849,-0.056518372,-0.11034668,-0.10144539,-0.8817941,-0.46059528,-0.07127096,0.4682359,-0.8807245,,-0.045950823,0.14897412,-0.07568047,0.9643371,-0.21414107,-0.15555541,-0.16868466,-0.044353355,-0.98467165,0.20395924,0.97579527,-0.0788939,,0.0011977361,0.34882492,-0.32787505,-0.111637026,0.55534464,-0.82409316,0.6597673,-0.57871836,-0.47936642,-0.7431314,-0.5972248,-0.30179185,,1.2119748063492977,-0.4515250229572844,0.18695612896000002,1.3051102082476795,0.6296209909191496,-0.7976557159222665,-0.1261016190556636,,-0.9283651642762768,-0.3178599623702066,0.18932445079000002,-1.2946257110734534,-1.2342375023812235,1.0198332374728267,0.02188810486199342,,-0.15579681567927384,-0.3094010614857298,0.0882075766,0.08275268144170031
1.0456609499815386,10:57:56.605462,10:57:55.435607,0,,0.063287616,0.001980953,0.027479634,-0.9565188,0.27834013,0.08716984,0.025867425,0.37863994,-0.92518246,-0.2905214,-0.8826996,-0.36937618,,0.03250492,0.046335533,0.04591313,0.05654358,-0.6230926,0.7801018,0.20539024,-0.7573799,-0.619831,0.9770453,0.19527268,0.085152134,,0.17627545,1.3281393,0.5574746,0.9922849,-0.056518372,-0.11034668,-0.10144539,-0.8817941,-0.46059528,-0.07127096,0.4682359,-0.8807245,,-0.045950823,0.14897412,-0.07568047,0.9643371,-0.21414107,-0.15555541,-0.16868466,-0.044353355,-0.98467165,0.20395924,0.97579527,-0.0788939,,0.0011977361,0.34882492,-0.32787505,-0.111637026,0.55534464,-0.82409316,0.6597673,-0.57871836,-0.47936642,-0.7431314,-0.5972248,-0.30179185,,1.2119748063492977,-0.4515250229572844,0.18695612896000002,1.3051102082476795,0.6296209909191496,-0.7976557159222665,-0.1261016190556636,,-0.9283651642762768,-0.3178599623702066,0.18932445079000002,-1.2946257110734534,-1.2342375023812235,1.0198332374728267,0.02188810486199342,,-0.15579681567927384,-0.3094010614857298,0.0882075766,0.08275268144170031
1.0685779239865951,10:57:56.633095,10:57:55.435607,0,,0.06328869,0.0019803494,0.02747944,-0.9565169,0.27834615,0.087172225,0.025866441,0.37863657,-0.9251839,-0.29052794,-0.88269913,-0.3693721,,0.03250392,0.046334743,0.04591289,0.05654931,-0.62309086,0.78010267,0.20539498,-0.7573794,-0.61983013,0.97704405,0.19528008,0.085150436,,0.17627545,1.3281393,0.5574746,0.9922849,-0.056518372,-0.11034668,-0.10144539,-0.8817941,-0.46059528,-0.07127096,0.4682359,-0.8807245,,-0.04595194,0.14897357,-0.075680494,0.9643353,-0.21414734,-0.15555805,-0.16868837,-0.044355754,-0.98467094,0.20396477,0.9757938,-0.07889799,,0.0011986985,0.34882408,-0.3278753,-0.11164231,0.55534244,-0.8240939,0.65977097,-0.57871425,-0.47936642,-0.7431274,-0.5972308,-0.30178982,,1.2119670836164234,-0.4515250229572844,0.18695612896000002,1.3051102082476795,0.6296209909191496,-0.7976557159222665,-0.1261016190556636,,-0.9283574415434025,-0.3178599623702066,0.18932445079000002,-1.2946257110734534,-1.2342375023812235,1.0198332374728267,0.02188810486199342,,-0.15579681567927384,-0.3094010614857298,0.0882075766,0.08275268144170031
1.0962078649899922,10:57:56.655153,10:57:55.435607,0,,0.063287616,0.001980953,0.027479634,-0.9565188,0.27834013,0.08716984,0.025867425,0.37863994,-0.92518246,-0.2905214,-0.8826996,-0.36937618,,0.03250492,0.046335533,0.04591313,0.05654358,-0.6230926,0.7801018,0.20539024,-0.7573799,-0.619831,0.9770453,0.19527268,0.085152134,,0.17627545,1.3281393,0.5574746,0.9922849,-0.056518372,-0.11034668,-0.10144539,-0.8817941,-0.46059528,-0.07127096,0.4682359,-0.8807245,,-0.045950823,0.14897412,-0.07568047,0.9643371,-0.21414107,-0.15555541,-0.16868466,-0.044353355,-0.98467165,0.20395924,0.97579527,-0.0788939,,0.0011977361,0.34882492,-0.32787505,-0.111637026,0.55534464,-0.82409316,0.6597673,-0.57871836,-0.47936642,-0.7431314,-0.5972248,-0.30179185,,1.2119748063492977,-0.4515250229572844,0.18695612896000002,1.3051102082476795,0.6296209909191496,-0.7976557159222665,-0.1261016190556636,,-0.9283651642762768,-0.3178599623702066,0.18932445079000002,-1.2946257110734534,-1.2342375023812235,1.0198332374728267,0.02188810486199342,,-0.15579681567927384,-0.3094010614857298,0.0882075766,0.08275268144170031
1.1182808009907603,10:57:56.681456,10:57:55.435607,0,,0.063287616,0.001980953,0.027479634,-0.9565188,0.27834013,0.08716984,0.025867425,0.37863994,-0.92518246,-0.2905214,-0.8826996,-0.36937618,,0.03250392,0.046334743,0.04591289,0.05654931,-0.62309086,0.78010267,0.20539498,-0.7573794,-0.61983013,0.97704405,0.19528008,0.085150436,,0.17627545,1.3281393,0.5574746,0.9922849,-0.056518372,-0.11034668,-0.10144539,-0.8817941,-0.46059528,-0.07127096,0.4682359,-0.8807245,,-0.045950823,0.14897412,-0.07568047,0.9643371,-0.21414107,-0.15555541,-0.16868466,-0.044353355,-0.98467165,0.20395924,0.97579527,-0.0788939,,0.0011986985,0.34882408,-0.3278753,-0.11164231,0.55534244,-0.8240939,0.65977097,-0.57871425,-0.47936642,-0.7431274,-0.5972308,-0.30178982,,1.2119748063492977,-0.4515250229572844,0.18695612896000002,1.3051102082476795,0.6296209909191496,-0.7976557159222665,-0.1261016190556636,,-0.9283574415434025,-0.3178599623702066,0.18932445079000002,-1.2946257110734534,-1.2342375023812235,1.0198332374728267,0.02188810486199342,,-0.15579681567927384,-0.3094010614857298,0.0882075766,0.08275268144170031
1.1445726199890487,10:57:56.703106,10:57:55.435607,0,,0.063287616,0.001980953,0.027479634,-0.9565188,0.27834013,0.08716984,0.025867425,0.37863994,-0.92518246,-0.2905214,-0.8826996,-0.36937618,,0.03250492,0.046335533,0.04591313,0.05654358,-0.6230926,0.7801018,0.20539024,-0.7573799,-0.619831,0.9770453,0.19527268,0.085152134,,0.17627545,1.3281393,0.5574746,0.9922849,-0.056518372,-0.11034668,-0.10144539,-0.8817941,-0.46059528,-0.07127096,0.4682359,-0.8807245,,-0.045950823,0.14897412,-0.07568047,0.9643371,-0.21414107,-0.15555541,-0.16868466,-0.044353355,-0.98467165,0.20395924,0.97579527,-0.0788939,,0.0011977361,0.34882492,-0.32787505,-0.111637026,0.55534464,-0.82409316,0.6597673,-0.57871836,-0.47936642,-0.7431314,-0.5972248,-0.30179185,,1.2119748063492977,-0.4515250229572844,0.18695612896000002,1.3051102082476795,0.6296209909191496,-0.7976557159222665,-0.1261016190556636,,-0.9283651642762768,-0.3178599623702066,0.18932445079000002,-1.2946257110734534,-1.2342375023812235,1.0198332374728267,0.02188810486199342,,-0.15579681567927384,-0.3094010614857298,0.0882075766,0.08275268144170031
1.166233112977352,10:57:56.730088,10:57:55.595378,0,,0.06324441,0.0020426437,0.027623028,-0.9551643,0.2831034,0.08668128,0.027895316,0.37751365,-0.9255838,-0.29475924,-0.88166654,-0.3684848,,0.032482266,0.046477795,0.04589629,0.052697152,-0.6256823,0.77829605,0.20580101,-0.75584406,-0.62156725,0.9771739,0.19292885,0.08893512,,0.17627545,1.3281393,0.5574746,0.9922849,-0.056518372,-0.11034668,-0.10144539,-0.8817941,-0.46059528,-0.07127096,0.4682359,-0.8807245,,-0.045950823,0.14897412,-0.07568047,0.9643371,-0.21414107,-0.15555541,-0.16868466,-0.044353355,-0.98467165,0.20395924,0.97579527,-0.0788939,,0.0011977361,0.34882492,-0.32787505,-0.111637026,0.55534464,-0.82409316,0.6597673,-0.57871836,-0.47936642,-0.7431314,-0.5972248,-0.30179185,,1.2119748063492977,-0.4515250229572844,0.18695612896000002,1.3051102082476795,0.6296209909191496,-0.7976557159222665,-0.1261016190556636,,-0.9283651642762768,-0.3178599623702066,0.18932445079000002,-1.2946257110734534,-1.2342375023812235,1.0198332374728267,0.02188810486199342,,-0.15579681567927384,-0.3094010614857298,0.0882075766,0.08275268144170031
1.1932014479825739,10:57:56.753253,10:57:55.595378,0,,0.06324441,0.0020426437,0.027623028,-0.9551643,0.2831034,0.08668128,0.027895316,0.37751365,-0.9255838,-0.29475924,-0.88166654,-0.3684848,,0.032481268,0.04647699,0.045896053,0.052702904,-0.62568057,0.77829695,0.20580575,-0.7558435,-0.6215663,0.9771726,0.19293627,0.08893341,,0.17627545,1.3281393,0.5574746,0.9922849,-0.056518372,-0.11034668,-0.10144539,-0.8817941,-0.46059528,-0.07127096,0.4682359,-0.8807245,,-0.045950823,0.14897412,-0.07568047,0.9643371,-0.21414107,-0.15555541,-0.16868466,-0.044353355,-0.98467165,0.20395924,0.97579527,-0.0788939,,0.0011986985,0.34882408,-0.3278753,-0.11164231,0.55534244,-0.8240939,0.65977097,-0.57871425,-0.47936642,-0.7431274,-0.5972308,-0.30178982,,1.2119748063492977,-0.4515250229572844,0.18695612896000002,1.3051102082476795,0.6296209909191496,-0.7976557159222665,-0.1261016190556636,,-0.9283574415434025,-0.3178599623702066,0.18932445079000002,-1.2946257110734534,-1.2342375023812235,1.0198332374728267,0.02188810486199342,,-0.15579681567927384,-0.3094010614857298,0.0882075766,0.08275268144170031
1.2163760619878303,10:57:56.772990,10:57:55.595378,0,,0.06324549,0.0020420477,0.027622834,-0.95516235,0.28310937,0.08668365,0.027894318,0.37751025,-0.9255852,-0.29476577,-0.88166606,-0.36848074,,0.032482266,0.046477795,0.04589629,0.052697152,-0.6256823,0.77829605,0.20580101,-0.75584406,-0.62156725,0.9771739,0.19292885,0.08893512,,0.17627545,1.3281393,0.5574746,0.9922849,-0.056518372,-0.11034668,-0.10144539,-0.8817941,-0.46059528,-0.07127096,0.4682359,-0.8807245,,-0.04595194,0.14897357,-0.075680494,0.9643353,-0.21414734,-0.15555805,-0.16868837,-0.044355754,-0.98467094,0.20396477,0.9757938,-0.07889799,,0.0011977361,0.34882492,-0.32787505,-0.111637026,0.55534464,-0.82409316,0.6597673,-0.57871836,-0.47936642,-0.7431314,-0.5972248,-0.30179185,,1.2119670836164234,-0.4515250229572844,0.18695612896000002,1.3051102082476795,0.6296209909191496,-0.7976557159222665,-0.1261016190556636,,-0.9283651642762768,-0.3178599623702066,0.18932445079000002,-1.2946257110734534,-1.2342375023812235,1.0198332374728267,0.02188810486199342,,-0.15579681567927384,-0.3094010614857298,0.0882075766,0.08275268144170031
1.2361160430009477,10:57:56.799759,10:57:55.595378,0,,0.06324441,0.0020426437,0.027623028,-0.9551643,0.2831034,0.08668128,0.027895316,0.37751365,-0.9255838,-0.29475924,-0.88166654,-0.3684848,,0.032481268,0.04647699,0.045896053,0.052702904,-0.62568057,0.77829695,0.20580575,-0.7558435,-0.6215663,0.9771726,0.19293627,0.08893341,,0.17627545,1.3281393,0.5574746,0.9922849,-0.056518372,-0.11034668,-0.10144539,-0.8817941,-0.46059528,-0.07127096,0.4682359,-0.8807245,,-0.045950823,0.14897412,-0.07568047,0.9643371,-0.21414107,-0.15555541,-0.16868466,-0.044353355,-0.98467165,0.20395924,0.97579527,-0.0788939,,0.0011986985,0.34882408,-0.3278753,-0.11164231,0.55534244,-0.8240939,0.65977097,-0.57871425,-0.47936642,-0.7431274,-0.5972308,-0.30178982,,1.2119748063492977,-0.4515250229572844,0.18695612896000002,1.3051102082476795,0.6296209909191496,-0.7976557159222665,-0.1261016190556636,,-0.9283574415434025,-0.3178599623702066,0.18932445079000002,-1.2946257110734534,-1.2342375023812235,1.0198332374728267,0.02188810486199342,,-0.15579681567927384,-0.3094010614857298,0.0882075766,0.08275268144170031
1.2628849979955703,10:57:56.820831,10:57:55.595378,0,,0.06324549,0.0020420477,0.027622834,-0.95516235,0.28310937,0.08668365,0.027894318,0.37751025,-0.9255852,-0.29476577,-0.88166606,-0.36848074,,0.032481268,0.04647699,0.045896053,0.052702904,-0.62568057,0.77829695,0.20580575,-0.7558435,-0.6215663,0.9771726,0.19293627,0.08893341,,0.17627545,1.3281393,0.5574746,0.9922849,-0.056518372,-0.11034668,-0.10144539,-0.8817941,-0.46059528,-0.07127096,0.4682359,-0.8807245,,-0.04595194,0.14897357,-0.075680494,0.9643353,-0.21414734,-0.15555805,-0.16868837,-0.044355754,-0.98467094,0.20396477,0.9757938,-0.07889799,,0.0011986985,0.34882408,-0.3278753,-0.11164231,0.55534244,-0.8240939,0.65977097,-0.57871425,-0.47936642,-0.7431274,-0.5972308,-0.30178982,,1.2119670836164234,-0.4515250229572844,0.18695612896000002,1.3051102082476795,0.6296209909191496,-0.7976557159222665,-0.1261016190556636,,-0.9283574415434025,-0.3178599623702066,0.18932445079000002,-1.2946257110734534,-1.2342375023812235,1.0198332374728267,0.02188810486199342,,-0.15579681567927384,-0.3094010614857298,0.0882075766,0.08275268144170031
1.283956978993956,10:57:56.845635,10:57:55.595378,0,,0.06324549,0.0020420477,0.027622834,-0.95516235,0.28310937,0.08668365,0.027894318,0.37751025,-0.9255852,-0.29476577,-0.88166606,-0.36848074,,0.032482266,0.046477795,0.04589629,0.052697152,-0.6256823,0.77829605,0.20580101,-0.75584406,-0.62156725,0.9771739,0.19292885,0.08893512,,0.17627545,1.3281393,0.5574746,0.9922849,-0.056518372,-0.11034668,-0.10144539,-0.8817941,-0.46059528,-0.07127096,0.4682359,-0.8807245,,-0.04595194,0.14897357,-0.075680494,0.9643353,-0.21414734,-0.15555805,-0.16868837,-0.044355754,-0.98467094,0.20396477,0.9757938,-0.07889799,,0.0011977361,0.34882492,-0.32787505,-0.111637026,0.55534464,-0.82409316,0.6597673,-0.57871836,-0.47936642,-0.7431314,-0.5972248,-0.30179185,,1.2119670836164234,-0.4515250229572844,0.18695612896000002,1.3051102082476795,0.6296209909191496,-0.7976557159222665,-0.1261016190556636,,-0.9283651642762768,-0.3178599623702066,0.18932445079000002,-1.2946257110734534,-1.2342375023812235,1.0198332374728267,0.02188810486199342,,-0.15579681567927384,-0.3094010614857298,0.0882075766,0.08275268144170031
1.3086919719935395,10:57:56.871140,10:57:55.595378,0,,0.06330834,0.002010934,0.02759841,-0.95515466,0.28312445,0.08671914,0.027876906,0.3775428,-0.9255725,-0.29479235,-0.8816473,-0.36850438,,0.032525018,0.046494752,0.045900583,0.052674957,-0.6256599,0.77831554,0.20579365,-0.7558669,-0.6215419,0.97717667,0.19291201,0.088941455,,0.17623289,1.3281459,0.55748004,0.99228907,-0.056481805,-0.11032758,-0.10140424,-0.8817964,-0.46059987,-0.07127096,0.4682359,-0.8807245,,-0.04601637,0.14893882,-0.07566793,0.9643271,-0.21416013,-0.15559132,-0.16871539,-0.044317365,-0.984668,0.20398124,0.9757927,-0.078868546,,0.0011560655,0.34884283,-0.3278663,-0.11161566,0.55532205,-0.8241113,0.6597617,-0.57874596,-0.4793408,-0.74313956,-0.597219,-0.30178308,,1.2119748063492977,-0.4515250229572844,0.18695612896000002,1.3051102082476795,0.6296209909191496,-0.7976557159222665,-0.1261016190556636,,-0.9283651642762768,-0.3178599623702066,0.18932445079000002,-1.2946257110734534,-1.2342375023812235,1.0198332374728267,0.02188810486199342,,-0.15579681567927384,-0.3094010614857298,0.0882075766,0.08275268144170031
1.3342541070014704,10:57:56.896760,10:57:55.754441,0,,0.06331512,0.002045177,0.027479768,-0.95515203,0.28320754,0.08647517,0.028100818,0.37740475,-0.925622,-0.29477927,-0.8816797,-0.36843726,,0.032541584,0.046537995,0.045779437,0.0527557,-0.62584823,0.77815855,0.20585322,-0.7556919,-0.6217348,0.97715974,0.19298658,0.08896582,,0.17623289,1.3281459,0.55748004,0.99228907,-0.056481805,-0.11032758,-0.10140424,-0.8817964,-0.46059987,-0.07127096,0.4682359,-0.8807245,,-0.046017487,0.14893825,-0.075667955,0.9643253,-0.2141664,-0.15559396,-0.1687191,-0.044319768,-0.98466724,0.20398676,0.9757912,-0.078872636,,0.0011570278,0.348842,-0.32786655,-0.11162093,0.5553199,-0.824112,0.6597653,-0.57874185,-0.47934076,-0.7431356,-0.597225,-0.3017811,,1.2119670836164234,-0.4515250229572844,0.18695612896000002,1.3051102082476795,0.6296209909191496,-0.7976557159222665,-0.1261016190556636,,-0.9283574415434025,-0.3178599623702066,0.18932445079000002,-1.2946257110734534,-1.2342375023812235,1.0198332374728267,0.02188810486199342,,-0.15579681567927384,-0.3094010614857298,0.0882075766,0.08275268144170031
1.3598791319818702,10:57:56.918228,10:57:55.754441,0,,0.06331405,0.0020457879,0.027479962,-0.955154,0.28320158,0.0864728,0.028101817,0.3774081,-0.9256206,-0.29477274,-0.8816802,-0.36844137,,0.03254138,0.046542093,0.04577905,0.052703492,-0.6255379,0.77841157,0.20597664,-0.7559235,-0.6214123,0.9771365,0.19308522,0.08900641,,0.17623289,1.3281459,0.55748004,0.99228907,-0.056481805,-0.11032758,-0.10140424,-0.8817964,-0.46059987,-0.07127096,0.4682359,-0.8807245,,-0.04601637,0.14893882,-0.07566793,0.9643271,-0.21416013,-0.15559132,-0.16871539,-0.044317365,-0.984668,0.20398124,0.9757927,-0.078868546,,0.0011575483,0.3488454,-0.32786426,-0.111558646,0.55498767,-0.8243442,0.6598602,-0.5788878,-0.4790338,-0.74306065,-0.5973923,-0.30163434,,1.2119748063492977,-0.4515250229572844,0.18695612896000002,1.3051102082476795,0.6296209909191496,-0.7976557159222665,-0.1261016190556636,,-0.9283651642762768,-0.3178599623702066,0.18932445079000002,-1.2950450909604225,-1.2342375023812235,1.0198332374728267,0.02188810486199342,,-0.15579681567927384,-0.3094010614857298,0.0882075766,0.08275268144170031
1.3813266649958678,10:57:56.938890,10:57:55.754441,0,,0.06331457,0.0020469278,0.027479395,-0.9551529,0.28320536,0.086472854,0.028105132,0.37741357,-0.92561823,-0.29477608,-0.8816767,-0.36844715,,0.032540374,0.046541333,0.04577881,0.052709244,-0.62553626,0.77841246,0.2059814,-0.75592303,-0.6214113,0.97713524,0.19309261,0.08900471,,0.17623289,1.3281459,0.55748004,0.99228907,-0.056481805,-0.11032758,-0.10140424,-0.8817964,-0.46059987,-0.07127096,0.4682359,-0.8807245,,-0.046016764,0.14893961,-0.07566688,0.96432644,-0.21416356,-0.15559095,-0.16871388,-0.04431067,-0.98466855,0.20398578,0.9757923,-0.07886232,,0.0011585106,0.34884456,-0.3278645,-0.11156393,0.5549855,-0.82434493,0.6598638,-0.5788837,-0.4790338,-0.74305665,-0.5973983,-0.30163231,,1.2119748063492977,-0.45151730022441017,0.18695612896000002,1.3051102082476795,0.6296209909191496,-0.7976557159222665,-0.1261016190556636,,-0.9283574415434025,-0.3178599623702066,0.18932445079000002,-1.2950450909604225,-1.2342375023812235,1.0198332374728267,0.02188810486199342,,-0.15579681567927384,-0.3094010614857298,0.0882075766,0.08275268144170031
1.4019965949992184,10:57:56.963901,10:57:55.754441,0,,0.06331405,0.0020457879,0.027479962,-0.955154,0.28320158,0.0864728,0.028101817,0.3774081,-0.9256206,-0.29477274,-0.8816802,-0.36844137,,0.03254138,0.046542093,0.04577905,0.052703492,-0.6255379,0.77841157,0.20597664,-0.7559235,-0.6214123,0.9771365,0.19308522,0.08900641,,0.17623289,1.3281459,0.55748004,0.99228907,-0.056481805,-0.11032758,-0.10140424,-0.8817964,-0.46059987,-0.07127096,0.4682359,-0.8807245,,-0.04601637,0.14893882,-0.07566793,0.9643271,-0.21416013,-0.15559132,-0.16871539,-0.044317365,-0.984668,0.20398124,0.9757927,-0.078868546,,0.0011575483,0.3488454,-0.32786426,-0.111558646,0.55498767,-0.8243442,0.6598602,-0.5788878,-0.4790338,-0.74306065,-0.5973923,-0.30163434,,1.2119748063492977,-0.4515250229572844,0.18695612896000002,1.3051102082476795,0.6296209909191496,-0.7976557159222665,-0.1261016190556636,,-0.9283651642762768,-0.3178599623702066,0.18932445079000002,-1.2950450909604225,-1.2342375023812235,1.0198332374728267,0.02188810486199342,,-0.15579681567927384,-0.3094010614857298,0.0882075766,0.08275268144170031
1.4270024709985591,10:57:56.986639,10:57:55.754441,0,,0.06331405,0.0020457879,0.027479962,-0.955154,0.28320158,0.0864728,0.028101817,0.3774081,-0.9256206,-0.29477274,-0.8816802,-0.36844137,,0.03254138,0.046542093,0.04577905,0.052703492,-0.6255379,0.77841157,0.20597664,-0.7559235,-0.6214123,0.9771365,0.19308522,0.08900641,,0.17623289,1.3281459,0.55748004,0.99228907,-0.056481805,-0.11032758,-0.10140424,-0.8817964,-0.46059987,-0.07127096,0.4682359,-0.8807245,,-0.04601637,0.14893882,-0.07566793,0.9643271,-0.21416013,-0.15559132,-0.16871539,-0.044317365,-0.984668,0.20398124,0.9757927,-0.078868546,,0.0011575483,0.3488454,-0.32786426,-0.111558646,0.55498767,-0.8243442,0.6598602,-0.5788878,-0.4790338,-0.74306065,-0.5973923,-0.30163434,,1.2119748063492977,-0.4515250229572844,0.18695612896000002,1.3051102082476795,0.6296209909191496,-0.7976557159222665,-0.1261016190556636,,-0.9283651642762768,-0.3178599623702066,0.18932445079000002,-1.2950450909604225,-1.2342375023812235,1.0198332374728267,0.02188810486199342,,-0.15579681567927384,-0.3094010614857298,0.0882075766,0.08275268144170031
1.4497657629835885,10:57:57.008640,10:57:55.754441,0,,0.06331405,0.0020457879,0.027479962,-0.955154,0.28320158,0.0864728,0.028101817,0.3774081,-0.9256206,-0.29477274,-0.8816802,-0.36844137,,0.03254138,0.046542093,0.04577905,0.052703492,-0.6255379,0.77841157,0.20597664,-0.7559235,-0.6214123,0.9771365,0.19308522,0.08900641,,0.17623289,1.3281459,0.55748004,0.99228907,-0.056481805,-0.11032758,-0.10140424,-0.8817964,-0.46059987,-0.07127096,0.4682359,-0.8807245,,-0.04601637,0.14893882,-0.07566793,0.9643271,-0.21416013,-0.15559132,-0.16871539,-0.044317365,-0.984668,0.20398124,0.9757927,-0.078868546,,0.0011575483,0.3488454,-0.32786426,-0.111558646,0.55498767,-0.8243442,0.6598602,-0.5788878,-0.4790338,-0.74306065,-0.5973923,-0.30163434,,1.2119748063492977,-0.4515250229572844,0.18695612896000002,1.3051102082476795,0.6296209909191496,-0.7976557159222665,-0.1261016190556636,,-0.9283651642762768,-0.3178599623702066,0.18932445079000002,-1.2950450909604225,-1.2342375023812235,1.0198332374728267,0.02188810486199342,,-0.15579681567927384,-0.3094010614857298,0.0882075766,0.08275268144170031
1.4717085939773824,10:57:57.036752,10:57:55.895490,0,,0.06334878,0.002192676,0.02716431,-0.95585406,0.2808341,0.08645981,0.026855372,0.37649968,-0.92602736,-0.2926122,-0.8828251,-0.36742058,,0.0325772,0.04668598,0.04547608,0.054770194,-0.6244097,0.7791745,0.20730817,-0.7562306,-0.6205953,0.9767412,0.19551936,0.088026345,,0.17623289,1.3281459,0.55748004,0.99228907,-0.056481805,-0.11032758,-0.10140424,-0.8817964,-0.46059987,-0.07127096,0.4682359,-0.8807245,,-0.046017487,0.14893825,-0.075667955,0.9643253,-0.2141664,-0.15559396,-0.1687191,-0.044319768,-0.98466724,0.20398676,0.9757912,-0.078872636,,0.0011575483,0.3488454,-0.32786426,-0.111558646,0.55498767,-0.8243442,0.6598602,-0.5788878,-0.4790338,-0.74306065,-0.5973923,-0.30163434,,1.2119670836164234,-0.4515250229572844,0.18695612896000002,1.3051102082476795,0.6296209909191496,-0.7976557159222665,-0.1261016190556636,,-0.9283651642762768,-0.3178599623702066,0.18932445079000002,-1.2950450909604225,-1.2342375023812235,1.0198332374728267,0.02188810486199342,,-0.15579681567927384,-0.3094010614857298,0.0882075766,0.08275268144170031
1.499874759989325,10:57:57.056398,10:57:55.895490,0,,0.06334878,0.002192676,0.02716431,-0.95585406,0.2808341,0.08645981,0.026855372,0.37649968,-0.92602736,-0.2926122,-0.8828251,-0.36742058,,0.0325772,0.04668598,0.04547608,0.054770194,-0.6244097,0.7791745,0.20730817,-0.7562306,-0.6205953,0.9767412,0.19551936,0.088026345,,0.17623289,1.3281459,0.55748004,0.99228907,-0.056481805,-0.11032758,-0.10140424,-0.8817964,-0.46059987,-0.07127096,0.4682359,-0.8807245,,-0.046017487,0.14893825,-0.075667955,0.9643253,-0.2141664,-0.15559396,-0.1687191,-0.044319768,-0.98466724,0.20398676,0.9757912,-0.078872636,,0.0011575483,0.3488454,-0.32786426,-0.111558646,0.55498767,-0.8243442,0.6598602,-0.5788878,-0.4790338,-0.74306065,-0.5973923,-0.30163434,,1.2119670836164234,-0.4515250229572844,0.18695612896000002,1.3051102082476795,0.6296209909191496,-0.7976557159222665,-0.1261016190556636,,-0.9283651642762768,-0.3178599623702066,0.18932445079000002,-1.2950450909604225,-1.2342375023812235,1.0198332374728267,0.02188810486199342,,-0.15579681567927384,-0.3094010614857298,0.0882075766,0.08275268144170031
1.5195253730053082,10:57:57.081321,10:57:55.895490,0,,0.0633477,0.002193287,0.027164504,-0.955856,0.28082812,0.08645743,0.026856378,0.37650305,-0.926026,-0.29260564,-0.88282555,-0.36742467,,0.0325772,0.04668598,0.04547608,0.054770194,-0.6244097,0.7791745,0.20730817,-0.7562306,-0.6205953,0.9767412,0.19551936,0.088026345,,0.17623289,1.3281459,0.55748004,0.99228907,-0.056481805,-0.11032758,-0.10140424,-0.8817964,-0.46059987,-0.07127096,0.4682359,-0.8807245,,-0.04601637,0.14893882,-0.07566793,0.9643271,-0.21416013,-0.15559132,-0.16871539,-0.044317365,-0.984668,0.20398124,0.9757927,-0.078868546,,0.0011575483,0.3488454,-0.32786426,-0.111558646,0.55498767,-0.8243442,0.6598602,-0.5788878,-0.4790338,-0.74306065,-0.5973923,-0.30163434,,1.2119748063492977,-0.4515250229572844,0.18695612896000002,1.3051102082476795,0.6296209909191496,-0.7976557159222665,-0.1261016190556636,,-0.9283651642762768,-0.3178599623702066,0.18932445079000002,-1.2950450909604225,-1.2342375023812235,1.0198332374728267,0.02188810486199342,,-0.15579681567927384,-0.3094010614857298,0.0882075766,0.08275268144170031
1.5443749550031498,10:57:57.107809,10:57:55.895490,0,,0.0633477,0.002193287,0.027164504,-0.955856,0.28082812,0.08645743,0.026856378,0.37650305,-0.926026,-0.29260564,-0.88282555,-0.36742467,,0.0325772,0.04668598,0.04547608,0.054770194,-0.6244097,0.7791745,0.20730817,-0.7562306,-0.6205953,0.9767412,0.19551936,0.088026345,,0.17623289,1.3281459,0.55748004,0.99228907,-0.056481805,-0.11032758,-0.10140424,-0.8817964,-0.46059987,-0.07127096,0.4682359,-0.8807245,,-0.04601637,0.14893882,-0.07566793,0.9643271,-0.21416013,-0.15559132,-0.16871539,-0.044317365,-0.984668,0.20398124,0.9757927,-0.078868546,,0.0011575483,0.3488454,-0.32786426,-0.111558646,0.55498767,-0.8243442,0.6598602,-0.5788878,-0.4790338,-0.74306065,-0.5973923,-0.30163434,,1.2119748063492977,-0.4515250229572844,0.18695612896000002,1.3051102082476795,0.6296209909191496,-0.7976557159222665,-0.1261016190556636,,-0.9283651642762768,-0.3178599623702066,0.18932445079000002,-1.2950450909604225,-1.2342375023812235,1.0198332374728267,0.02188810486199342,,-0.15579681567927384,-0.3094010614857298,0.0882075766,0.08275268144170031
1.5709019549831282,10:57:57.135347,10:57:55.895490,0,,0.0633477,0.002193287,0.027164504,-0.955856,0.28082812,0.08645743,0.026856378,0.37650305,-0.926026,-0.29260564,-0.88282555,-0.36742467,,0.0325772,0.04668598,0.04547608,0.054770194,-0.6244097,0.7791745,0.20730817,-0.7562306,-0.6205953,0.9767412,0.19551936,0.088026345,,0.17623289,1.3281459,0.55748004,0.99228907,-0.056481805,-0.11032758,-0.10140424,-0.8817964,-0.46059987,-0.07127096,0.4682359,-0.8807245,,-0.04601637,0.14893882,-0.07566793,0.9643271,-0.21416013,-0.15559132,-0.16871539,-0.044317365,-0.984668,0.20398124,0.9757927,-0.078868546,,0.0011575483,0.3488454,-0.32786426,-0.111558646,0.55498767,-0.8243442,0.6598602,-0.5788878,-0.4790338,-0.74306065,-0.5973923,-0.30163434,,1.2119748063492977,-0.4515250229572844,0.18695612896000002,1.3051102082476795,0.6296209909191496,-0.7976557159222665,-0.1261016190556636,,-0.9283651642762768,-0.3178599623702066,0.18932445079000002,-1.2950450909604225,-1.2342375023812235,1.0198332374728267,0.02188810486199342,,-0.15579681567927384,-0.3094010614857298,0.0882075766,0.08275268144170031
1.5984406679926906,10:57:57.155909,10:57:55.895490,0,,0.0633477,0.002193287,0.027164504,-0.955856,0.28082812,0.08645743,0.026856378,0.37650305,-0.926026,-0.29260564,-0.88282555,-0.36742467,,0.0325772,0.04668598,0.04547608,0.054770194,-0.6244097,0.7791745,0.20730817,-0.7562306,-0.6205953,0.9767412,0.19551936,0.088026345,,0.17623289,1.3281459,0.55748004,0.99228907,-0.056481805,-0.11032758,-0.10140424,-0.8817964,-0.46059987,-0.07127096,0.4682359,-0.8807245,,-0.04601637,0.14893882,-0.07566793,0.9643271,-0.21416013,-0.15559132,-0.16871539,-0.044317365,-0.984668,0.20398124,0.9757927,-0.078868546,,0.0011575483,0.3488454,-0.32786426,-0.111558646,0.55498767,-0.8243442,0.6598602,-0.5788878,-0.4790338,-0.74306065,-0.5973923,-0.30163434,,1.2119748063492977,-0.4515250229572844,0.18695612896000002,1.3051102082476795,0.6296209909191496,-0.7976557159222665,-0.1261016190556636,,-0.9283651642762768,-0.3178599623702066,0.18932445079000002,-1.2950450909604225,-1.2342375023812235,1.0198332374728267,0.02188810486199342,,-0.15579681567927384,-0.3094010614857298,0.0882075766,0.08275268144170031
1.619017138989875,10:57:57.180881,10:57:56.035196,0,,0.0633501,0.0022227317,0.027220577,-0.95595026,0.28038788,0.08684168,0.025934346,0.37537822,-0.9265088,-0.29238036,-0.88344425,-0.36611468,,0.032560367,0.046726122,0.045477122,0.054936714,-0.62395793,0.77952445,0.20873967,-0.7562759,-0.62005997,0.97642696,0.19678167,0.0886974,,0.17623289,1.3281459,0.55748004,0.99228907,-0.056481805,-0.11032758,-0.10140424,-0.8817964,-0.46059987,-0.07127096,0.4682359,-0.8807245,,-0.046017487,0.14893825,-0.075667955,0.9643253,-0.2141664,-0.15559396,-0.1687191,-0.044319768,-0.98466724,0.20398676,0.9757912,-0.078872636,,0.0011575483,0.3488454,-0.32786426,-0.111558646,0.55498767,-0.8243442,0.6598602,-0.5788878,-0.4790338,-0.74306065,-0.5973923,-0.30163434,,1.2119670836164234,-0.4515250229572844,0.18695612896000002,1.3051102082476795,0.6296209909191496,-0.7976557159222665,-0.1261016190556636,,-0.9283651642762768,-0.3178599623702066,0.18932445079000002,-1.2950450909604225,-1.2342375023812235,1.0198332374728267,0.02188810486199342,,-0.15579681567927384,-0.3094010614857298,0.0882075766,0.08275268144170031
1.6440063059853856,10:57:57.203918,10:57:56.035196,0,,0.06334902,0.00222335,0.027220756,-0.95595217,0.28038192,0.0868393,0.025935352,0.37538156,-0.92650735,-0.29237384,-0.8834447,-0.36611876,,0.03255937,0.046725377,0.045476824,0.054942444,-0.6239563,0.77952534,0.2087444,-0.75627536,-0.6200591,0.9764256,0.19678903,0.08869569,,0.17623289,1.3281459,0.55748004,0.99228907,-0.056481805,-0.11032758,-0.10140424,-0.8817964,-0.46059987,-0.07127096,0.4682359,-0.8807245,,-0.04601637,0.14893882,-0.07566793,0.9643271,-0.21416013,-0.15559132,-0.16871539,-0.044317365,-0.984668,0.20398124,0.9757927,-0.078868546,,0.0011585106,0.34884456,-0.3278645,-0.11156393,0.5549855,-0.82434493,0.6598638,-0.5788837,-0.4790338,-0.74305665,-0.5973983,-0.30163231,,1.2119748063492977,-0.4515250229572844,0.18695612896000002,1.3051102082476795,0.6296209909191496,-0.7976557159222665,-0.1261016190556636,,-0.9283574415434025,-0.3178599623702066,0.18932445079000002,-1.2950450909604225,-1.2342375023812235,1.0198332374728267,0.02188810486199342,,-0.15579681567927384,-0.3094010614857298,0.0882075766,0.08275268144170031
1.6670446999778505,10:57:57.230072,10:57:56.035196,0,,0.06334902,0.00222335,0.027220756,-0.95595217,0.28038192,0.0868393,0.025935352,0.37538156,-0.92650735,-0.29237384,-0.8834447,-0.36611876,,0.032560367,0.046726122,0.045477122,0.054936714,-0.62395793,0.77952445,0.20873967,-0.7562759,-0.62005997,0.97642696,0.19678167,0.0886974,,0.17623289,1.3281459,0.55748004,0.99228907,-0.056481805,-0.11032758,-0.10140424,-0.8817964,-0.46059987,-0.07127096,0.4682359,-0.8807245,,-0.04601637,0.14893882,-0.07566793,0.9643271,-0.21416013,-0.15559132,-0.16871539,-0.044317365,-0.984668,0.20398124,0.9757927,-0.078868546,,0.0011575483,0.3488454,-0.32786426,-0.111558646,0.55498767,-0.8243442,0.6598602,-0.5788878,-0.4790338,-0.74306065,-0.5973923,-0.30163434,,1.2119748063492977,-0.4515250229572844,0.18695612896000002,1.3051102082476795,0.6296209909191496,-0.7976557159222665,-0.1261016190556636,,-0.9283651642762768,-0.3178599623702066,0.18932445079000002,-1.2950450909604225,-1.2342375023812235,1.0198332374728267,0.02188810486199342,,-0.15579681567927384,-0.3094010614857298,0.0882075766,0.08275268144170031
1.6931900839845184,10:57:57.254345,10:57:56.035196,0,,0.06334902,0.00222335,0.027220756,-0.95595217,0.28038192,0.0868393,0.025935352,0.37538156,-0.92650735,-0.29237384,-0.8834447,-0.36611876,,0.032560367,0.046726122,0.045477122,0.054936714,-0.62395793,0.77952445,0.20873967,-0.7562759,-0.62005997,0.97642696,0.19678167,0.0886974,,0.17623289,1.3281459,0.55748004,0.99228907,-0.056481805,-0.11032758,-0.10140424,-0.8817964,-0.46059987,-0.07127096,0.4682359,-0.8807245,,-0.04601637,0.14893882,-0.07566793,0.9643271,-0.21416013,-0.15559132,-0.16871539,-0.044317365,-0.984668,0.20398124,0.9757927,-0.078868546,,0.0011575483,0.3488454,-0.32786426,-0.111558646,0.55498767,-0.8243442,0.6598602,-0.5788878,-0.4790338,-0.74306065,-0.5973923,-0.30163434,,1.2119748063492977,-0.4515250229572844,0.18695612896000002,1.3051102082476795,0.6296209909191496,-0.7976557159222665,-0.1261016190556636,,-0.9283651642762768,-0.3178599623702066,0.18932445079000002,-1.2950450909604225,-1.2342375023812235,1.0198332374728267,0.02188810486199342,,-0.15579681567927384,-0.3094010614857298,0.0882075766,0.08275268144170031
1.7174682639888488,10:57:57.273811,10:57:56.035196,0,,0.06334902,0.00222335,0.027220756,-0.95595217,0.28038192,0.0868393,0.025935352,0.37538156,-0.92650735,-0.29237384,-0.8834447,-0.36611876,,0.032560367,0.046726122,0.045477122,0.054936714,-0.62395793,0.77952445,0.20873967,-0.7562759,-0.62005997,0.97642696,0.19678167,0.0886974,,0.17623289,1.3281459,0.55748004,0.99228907,-0.056481805,-0.11032758,-0.10140424,-0.8817964,-0.46059987,-0.07127096,0.4682359,-0.8807245,,-0.04601637,0.14893882,-0.07566793,0.9643271,-0.21416013,-0.15559132,-0.16871539,-0.044317365,-0.984668,0.20398124,0.9757927,-0.078868546,,0.0011575483,0.3488454,-0.32786426,-0.111558646,0.55498767,-0.8243442,0.6598602,-0.5788878,-0.4790338,-0.74306065,-0.5973923,-0.30163434,,1.2119748063492977,-0.4515250229572844,0.18695612896000002,1.3051102082476795,0.6296209909191496,-0.7976557159222665,-0.1261016190556636,,-0.9283651642762768,-0.3178599623702066,0.18932445079000002,-1.2950450909604225,-1.2342375023812235,1.0198332374728267,0.02188810486199342,,-0.15579681567927384,-0.3094010614857298,0.0882075766,0.08275268144170031
1.7369348439970054,10:57:57.300370,10:57:56.172317,0,,0.0633719,0.0022673085,0.027116865,-0.9564073,0.27882338,0.08684746,0.025309429,0.3754047,-0.92651534,-0.2909371,-0.883928,-0.3660968,,0.032583885,0.046754584,0.045412272,0.056281917,-0.6232036,0.78003186,0.20893437,-0.75662017,-0.61957425,0.97630864,0.1978462,0.08762452,,0.17623289,1.3281459,0.55748004,0.99228907,-0.056481805,-0.11032758,-0.10140424,-0.8817964,-0.46059987,-0.07127096,0.4682359,-0.8807245,,-0.04601637,0.14893882,-0.07566793,0.9643271,-0.21416013,-0.15559132,-0.16871539,-0.044317365,-0.984668,0.20398124,0.9757927,-0.078868546,,0.0011575483,0.3488454,-0.32786426,-0.111558646,0.55498767,-0.8243442,0.6598602,-0.5788878,-0.4790338,-0.74306065,-0.5973923,-0.30163434,,1.2119748063492977,-0.4515250229572844,0.18695612896000002,1.3051102082476795,0.6296209909191496,-0.7976557159222665,-0.1261016190556636,,-0.9283651642762768,-0.3178599623702066,0.18932445079000002,-1.2950450909604225,-1.2342375023812235,1.0198332374728267,0.02188810486199342,,-0.15579681567927384,-0.3094010614857298,0.0882075766,0.08275268144170031
1.7634755699837115,10:57:57.322108,10:57:56.172317,0,,0.06337297,0.0022666901,0.027116656,-0.95640534,0.2788294,0.08684985,0.025308423,0.37540132,-0.9265167,-0.29094362,-0.8839276,-0.3660927,,0.0325841,0.046750426,0.04541263,0.05633448,-0.62351465,0.7797793,0.2088111,-0.7563895,-0.6198974,0.976332,0.19774806,0.087585926,,0.17623289,1.3281459,0.55748004,0.99228907,-0.056481805,-0.11032758,-0.10140424,-0.8817964,-0.46059987,-0.07127096,0.4682359,-0.8807245,,-0.046017487,0.14893825,-0.075667955,0.9643253,-0.2141664,-0.15559396,-0.1687191,-0.044319768,-0.98466724,0.20398676,0.9757912,-0.078872636,,0.0011570278,0.348842,-0.32786655,-0.11162093,0.5553199,-0.824112,0.6597653,-0.57874185,-0.47934076,-0.7431356,-0.597225,-0.3017811,,1.2119670836164234,-0.4515250229572844,0.18695612896000002,1.3051102082476795,0.6296209909191496,-0.7976557159222665,-0.1261016190556636,,-0.9283574415434025,-0.3178599623702066,0.18932445079000002,-1.2946257110734534,-1.2342375023812235,1.0198332374728267,0.02188810486199342,,-0.15579681567927384,-0.3094010614857298,0.0882075766,0.08275268144170031
1.7852055599796586,10:57:57.348662,10:57:56.172317,0,,0.0633719,0.0022673085,0.027116865,-0.9564073,0.27882338,0.08684746,0.025309429,0.3754047,-0.92651534,-0.2909371,-0.883928,-0.3660968,,0.0325841,0.046750426,0.04541263,0.05633448,-0.62351465,0.7797793,0.2088111,-0.7563895,-0.6198974,0.976332,0.19774806,0.087585926,,0.17623289,1.3281459,0.55748004,0.99228907,-0.056481805,-0.11032758,-0.10140424,-0.8817964,-0.46059987,-0.07127096,0.4682359,-0.8807245,,-0.04601637,0.14893882,-0.07566793,0.9643271,-0.21416013,-0.15559132,-0.16871539,-0.044317365,-0.984668,0.20398124,0.9757927,-0.078868546,,0.0011570278,0.348842,-0.32786655,-0.11162093,0.5553199,-0.824112,0.6597653,-0.57874185,-0.47934076,-0.7431356,-0.597225,-0.3017811,,1.2119748063492977,-0.4515250229572844,0.18695612896000002,1.3051102082476795,0.6296209909191496,-0.7976557159222665,-0.1261016190556636,,-0.9283574415434025,-0.3178599623702066,0.18932445079000002,-1.2946257110734534,-1.2342375023812235,1.0198332374728267,0.02188810486199342,,-0.15579681567927384,-0.3094010614857298,0.0882075766,0.08275268144170031
1.811788720980985,10:57:57.369367,10:57:56.172317,0,,0.0633719,0.0022673085,0.027116865,-0.9564073,0.27882338,0.08684746,0.025309429,0.3754047,-0.92651534,-0.2909371,-0.883928,-0.3660968,,0.032585107,0.046751246,0.045412898,0.05632875,-0.6235164,0.7797784,0.20880643,-0.75639,-0.6198984,0.9763334,0.19774067,0.08758758,,0.17623289,1.3281459,0.55748004,0.99228907,-0.056481805,-0.11032758,-0.10140424,-0.8817964,-0.46059987,-0.07127096,0.4682359,-0.8807245,,-0.04601637,0.14893882,-0.07566793,0.9643271,-0.21416013,-0.15559132,-0.16871539,-0.044317365,-0.984668,0.20398124,0.9757927,-0.078868546,,0.0011560655,0.34884283,-0.3278663,-0.11161566,0.55532205,-0.8241113,0.6597617,-0.57874596,-0.4793408,-0.74313956,-0.597219,-0.30178308,,1.2119748063492977,-0.4515250229572844,0.18695612896000002,1.3051102082476795,0.6296209909191496,-0.7976557159222665,-0.1261016190556636,,-0.9283651642762768,-0.3178599623702066,0.18932445079000002,-1.2946257110734534,-1.2342375023812235,1.0198332374728267,0.02188810486199342,,-0.15579681567927384,-0.3094010614857298,0.0882075766,0.08275268144170031
1.8324939479934983,10:57:57.391015,10:57:56.172317,0,,0.0633719,0.0022673085,0.027116865,-0.9564073,0.27882338,0.08684746,0.025309429,0.3754047,-0.92651534,-0.2909371,-0.883928,-0.3660968,,0.0325841,0.046750426,0.04541263,0.05633448,-0.62351465,0.7797793,0.2088111,-0.7563895,-0.6198974,0.976332,0.19774806,0.087585926,,0.17623289,1.3281459,0.55748004,0.99228907,-0.056481805,-0.11032758,-0.10140424,-0.8817964,-0.46059987,-0.07127096,0.4682359,-0.8807245,,-0.04601637,0.14893882,-0.07566793,0.9643271,-0.21416013,-0.15559132,-0.16871539,-0.044317365,-0.984668,0.20398124,0.9757927,-0.078868546,,0.0011570278,0.348842,-0.32786655,-0.11162093,0.5553199,-0.824112,0.6597653,-0.57874185,-0.47934076,-0.7431356,-0.597225,-0.3017811,,1.2119748063492977,-0.4515250229572844,0.18695612896000002,1.3051102082476795,0.6296209909191496,-0.7976557159222665,-0.1261016190556636,,-0.9283574415434025,-0.3178599623702066,0.18932445079000002,-1.2946257110734534,-1.2342375023812235,1.0198332374728267,0.02188810486199342,,-0.15579681567927384,-0.3094010614857298,0.0882075766,0.08275268144170031
1.8541398969828151,10:57:57.418863,10:57:56.172317,0,,0.0633719,0.0022673085,0.027116865,-0.9564073,0.27882338,0.08684746,0.025309429,0.3754047,-0.92651534,-0.2909371,-0.883928,-0.3660968,,0.032585107,0.046751246,0.045412898,0.05632875,-0.6235164,0.7797784,0.20880643,-0.75639,-0.6198984,0.9763334,0.19774067,0.08758758,,0.17623289,1.3281459,0.55748004,0.99228907,-0.056481805,-0.11032758,-0.10140424,-0.8817964,-0.46059987,-0.07127096,0.4682359,-0.8807245,,-0.04601637,0.14893882,-0.07566793,0.9643271,-0.21416013,-0.15559132,-0.16871539,-0.044317365,-0.984668,0.20398124,0.9757927,-0.078868546,,0.0011560655,0.34884283,-0.3278663,-0.11161566,0.55532205,-0.8241113,0.6597617,-0.57874596,-0.4793408,-0.74313956,-0.597219,-0.30178308,,1.2119748063492977,-0.4515250229572844,0.18695612896000002,1.3051102082476795,0.6296209909191496,-0.7976557159222665,-0.1261016190556636,,-0.9283651642762768,-0.3178599623702066,0.18932445079000002,-1.2946257110734534,-1.2342375023812235,1.0198332374728267,0.02188810486199342,,-0.15579681567927384,-0.3094010614857298,0.0882075766,0.08275268144170031
1.8819715169956908,10:57:57.439024,10:57:56.172317,0,,0.0633719,0.0022673085,0.027116865,-0.9564073,0.27882338,0.08684746,0.025309429,0.3754047,-0.92651534,-0.2909371,-0.883928,-0.3660968,,0.032585107,0.046751246,0.045412898,0.05632875,-0.6235164,0.7797784,0.20880643,-0.75639,-0.6198984,0.9763334,0.19774067,0.08758758,,0.17623289,1.3281459,0.55748004,0.99228907,-0.056481805,-0.11032758,-0.10140424,-0.8817964,-0.46059987,-0.07127096,0.4682359,-0.8807245,,-0.04601637,0.14893882,-0.07566793,0.9643271,-0.21416013,-0.15559132,-0.16871539,-0.044317365,-0.984668,0.20398124,0.9757927,-0.078868546,,0.0011560655,0.34884283,-0.3278663,-0.11161566,0.55532205,-0.8241113,0.6597617,-0.57874596,-0.4793408,-0.74313956,-0.597219,-0.30178308,,1.2119748063492977,-0.4515250229572844,0.18695612896000002,1.3051102082476795,0.6296209909191496,-0.7976557159222665,-0.1261016190556636,,-0.9283651642762768,-0.3178599623702066,0.18932445079000002,-1.2946257110734534,-1.2342375023812235,1.0198332374728267,0.02188810486199342,,-0.15579681567927384,-0.3094010614857298,0.0882075766,0.08275268144170031
1.9021455309994053,10:57:57.466738,10:57:56.332142,0,,0.06334739,0.0021837056,0.027371615,-0.95588225,0.28053802,0.08710695,0.025776759,0.3754966,-0.92646515,-0.29261708,-0.8833463,-0.36616182,,0.032544967,0.04667586,0.045624197,0.054706275,-0.624176,0.779366,0.20855394,-0.7561767,-0.6202434,0.97647953,0.19647112,0.08880681,,0.17623289,1.3281459,0.55748004,0.99228907,-0.056481805,-0.11032758,-0.10140424,-0.8817964,-0.46059987,-0.07127096,0.4682359,-0.8807245,,-0.046017487,0.14893825,-0.075667955,0.9643253,-0.2141664,-0.15559396,-0.1687191,-0.044319768,-0.98466724,0.20398676,0.9757912,-0.078872636,,0.0011570278,0.348842,-0.32786655,-0.11162093,0.5553199,-0.824112,0.6597653,-0.57874185,-0.47934076,-0.7431356,-0.597225,-0.3017811,,1.2119670836164234,-0.4515250229572844,0.18695612896000002,1.3051102082476795,0.6296209909191496,-0.7976557159222665,-0.1261016190556636,,-0.9283574415434025,-0.3178599623702066,0.18932445079000002,-1.2946257110734534,-1.2342375023812235,1.0198332374728267,0.02188810486199342,,-0.15579681567927384,-0.3094010614857298,0.0882075766,0.08275268144170031
1.9298457569966558,10:57:57.488136,10:57:56.332142,0,,0.06334631,0.0021843165,0.027371794,-0.95588416,0.28053203,0.087104544,0.02577775,0.37549993,-0.9264639,-0.29261053,-0.8833468,-0.3661659,,0.03254597,0.04667668,0.045624435,0.05470057,-0.62417775,0.7793651,0.20854926,-0.7561773,-0.6202443,0.9764809,0.19646373,0.08880848,,0.17623289,1.3281459,0.55748004,0.99228907,-0.056481805,-0.11032758,-0.10140424,-0.8817964,-0.46059987,-0.07127096,0.4682359,-0.8807245,,-0.04601637,0.14893882,-0.07566793,0.9643271,-0.21416013,-0.15559132,-0.16871539,-0.044317365,-0.984668,0.20398124,0.9757927,-0.078868546,,0.0011560655,0.34884283,-0.3278663,-0.11161566,0.55532205,-0.8241113,0.6597617,-0.57874596,-0.4793408,-0.74313956,-0.597219,-0.30178308,,1.2119748063492977,-0.4515250229572844,0.18695612896000002,1.3051102082476795,0.6296209909191496,-0.7976557159222665,-0.1261016190556636,,-0.9283651642762768,-0.3178599623702066,0.18932445079000002,-1.2946257110734534,-1.2342375023812235,1.0198332374728267,0.02188810486199342,,-0.15579681567927384,-0.3094010614857298,0.0882075766,0.08275268144170031
1.9512635289866012,10:57:57.513687,10:57:56.332142,0,,0.06334631,0.0021843165,0.027371794,-0.95588416,0.28053203,0.087104544,0.02577775,0.37549993,-0.9264639,-0.29261053,-0.8833468,-0.3661659,,0.03254597,0.04667668,0.045624435,0.05470057,-0.62417775,0.7793651,0.20854926,-0.7561773,-0.6202443,0.9764809,0.19646373,0.08880848,,0.17623289,1.3281459,0.55748004,0.99228907,-0.056481805,-0.11032758,-0.10140424,-0.8817964,-0.46059987,-0.07127096,0.4682359,-0.8807245,,-0.04601637,0.14893882,-0.07566793,0.9643271,-0.21416013,-0.15559132,-0.16871539,-0.044317365,-0.984668,0.20398124,0.9757927,-0.078868546,,0.0011560655,0.34884283,-0.3278663,-0.11161566,0.55532205,-0.8241113,0.6597617,-0.57874596,-0.4793408,-0.74313956,-0.597219,-0.30178308,,1.2119748063492977,-0.4515250229572844,0.18695612896000002,1.3051102082476795,0.6296209909191496,-0.7976557159222665,-0.1261016190556636,,-0.9283651642762768,-0.3178599623702066,0.18932445079000002,-1.2946257110734534,-1.2342375023812235,1.0198332374728267,0.02188810486199342,,-0.15579681567927384,-0.3094010614857298,0.0882075766,0.08275268144170031
1.9767693979956675,10:57:57.538282,10:57:56.332142,0,,0.06334631,0.0021843165,0.027371794,-0.95588416,0.28053203,0.087104544,0.02577775,0.37549993,-0.9264639,-0.29261053,-0.8833468,-0.3661659,,0.03254597,0.04667668,0.045624435,0.05470057,-0.62417775,0.7793651,0.20854926,-0.7561773,-0.6202443,0.9764809,0.19646373,0.08880848,,0.17623289,1.3281459,0.55748004,0.99228907,-0.056481805,-0.11032758,-0.10140424,-0.8817964,-0.46059987,-0.07127096,0.4682359,-0.8807245,,-0.04601637,0.14893882,-0.07566793,0.9643271,-0.21416013,-0.15559132,-0.16871539,-0.044317365,-0.984668,0.20398124,0.9757927,-0.078868546,,0.0011560655,0.34884283,-0.3278663,-0.11161566,0.55532205,-0.8241113,0.6597617,-0.57874596,-0.4793408,-0.74313956,-0.597219,-0.30178308,,1.2119748063492977,-0.4515250229572844,0.18695612896000002,1.3051102082476795,0.6296209909191496,-0.7976557159222665,-0.1261016190556636,,-0.9283651642762768,-0.3178599623702066,0.18932445079000002,-1.2946257110734534,-1.2342375023812235,1.0198332374728267,0.02188810486199342,,-0.15579681567927384,-0.3094010614857298,0.0882075766,0.08275268144170031
2.0013939749915153,10:57:57.557820,10:57:56.332142,0,,0.06334739,0.0021837056,0.027371615,-0.95588225,0.28053802,0.08710695,0.025776759,0.3754966,-0.92646515,-0.29261708,-0.8833463,-0.36616182,,0.03254597,0.04667668,0.045624435,0.05470057,-0.62417775,0.7793651,0.20854926,-0.7561773,-0.6202443,0.9764809,0.19646373,0.08880848,,0.17623289,1.3281459,0.55748004,0.99228907,-0.056481805,-0.11032758,-0.10140424,-0.8817964,-0.46059987,-0.07127096,0.4682359,-0.8807245,,-0.046017487,0.14893825,-0.075667955,0.9643253,-0.2141664,-0.15559396,-0.1687191,-0.044319768,-0.98466724,0.20398676,0.9757912,-0.078872636,,0.0011560655,0.34884283,-0.3278663,-0.11161566,0.55532205,-0.8241113,0.6597617,-0.57874596,-0.4793408,-0.74313956,-0.597219,-0.30178308,,1.2119670836164234,-0.4515250229572844,0.18695612896000002,1.3051102082476795,0.6296209909191496,-0.7976557159222665,-0.1261016190556636,,-0.9283651642762768,-0.3178599623702066,0.18932445079000002,-1.2946257110734534,-1.2342375023812235,1.0198332374728267,0.02188810486199342,,-0.15579681567927384,-0.3094010614857298,0.0882075766,0.08275268144170031
2.0209383969777264,10:57:57.583288,10:57:56.332142,0,,0.06334631,0.0021843165,0.027371794,-0.95588416,0.28053203,0.087104544,0.02577775,0.37549993,-0.9264639,-0.29261053,-0.8833468,-0.3661659,,0.03254597,0.04667668,0.045624435,0.05470057,-0.62417775,0.7793651,0.20854926,-0.7561773,-0.6202443,0.9764809,0.19646373,0.08880848,,0.17623289,1.3281459,0.55748004,0.99228907,-0.056481805,-0.11032758,-0.10140424,-0.8817964,-0.46059987,-0.07127096,0.4682359,-0.8807245,,-0.04601637,0.14893882,-0.07566793,0.9643271,-0.21416013,-0.15559132,-0.16871539,-0.044317365,-0.984668,0.20398124,0.9757927,-0.078868546,,0.0011560655,0.34884283,-0.3278663,-0.11161566,0.55532205,-0.8241113,0.6597617,-0.57874596,-0.4793408,-0.74313956,-0.597219,-0.30178308,,1.2119748063492977,-0.4515250229572844,0.18695612896000002,1.3051102082476795,0.6296209909191496,-0.7976557159222665,-0.1261016190556636,,-0.9283651642762768,-0.3178599623702066,0.18932445079000002,-1.2946257110734534,-1.2342375023812235,1.0198332374728267,0.02188810486199342,,-0.15579681567927384,-0.3094010614857298,0.0882075766,0.08275268144170031
2.0463528590044007,10:57:57.612578,10:57:56.483805,0,,0.06335685,0.0022349432,0.02711165,-0.9561636,0.27965602,0.08685515,0.026200302,0.37711316,-0.92579645,-0.2916588,-0.8829372,-0.367909,,0.032569103,0.046691254,0.04547319,0.055603243,-0.623912,0.77951413,0.20680395,-0.756595,-0.62031937,0.97680104,0.1956982,0.0869582,,0.17623289,1.3281459,0.55748004,0.99228907,-0.056481805,-0.11032758,-0.10140424,-0.8817964,-0.46059987,-0.07127096,0.4682359,-0.8807245,,-0.04601637,0.14893882,-0.07566793,0.9643271,-0.21416013,-0.15559132,-0.16871539,-0.044317365,-0.984668,0.20398124,0.9757927,-0.078868546,,0.0011560655,0.34884283,-0.3278663,-0.11161566,0.55532205,-0.8241113,0.6597617,-0.57874596,-0.4793408,-0.74313956,-0.597219,-0.30178308,,1.2119748063492977,-0.4515250229572844,0.18695612896000002,1.3051102082476795,0.6296209909191496,-0.7976557159222665,-0.1261016190556636,,-0.9283651642762768,-0.3178599623702066,0.18932445079000002,-1.2946257110734534,-1.2342375023812235,1.0198332374728267,0.02188810486199342,,-0.15579681567927384,-0.3094010614857298,0.0882075766,0.08275268144170031
2.0756895849772263,10:57:57.635797,10:57:56.483805,0,,0.06335792,0.0022343546,0.02711147,-0.95616174,0.279662,0.08685755,0.026199304,0.37710983,-0.9257979,-0.29166532,-0.8829367,-0.3679049,,0.032569103,0.046691254,0.04547319,0.055603243,-0.623912,0.77951413,0.20680395,-0.756595,-0.62031937,0.97680104,0.1956982,0.0869582,,0.17623289,1.3281459,0.55748004,0.99228907,-0.056481805,-0.11032758,-0.10140424,-0.8817964,-0.46059987,-0.07127096,0.4682359,-0.8807245,,-0.046017487,0.14893825,-0.075667955,0.9643253,-0.2141664,-0.15559396,-0.1687191,-0.044319768,-0.98466724,0.20398676,0.9757912,-0.078872636,,0.0011560655,0.34884283,-0.3278663,-0.11161566,0.55532205,-0.8241113,0.6597617,-0.57874596,-0.4793408,-0.74313956,-0.597219,-0.30178308,,1.2119670836164234,-0.4515250229572844,0.18695612896000002,1.3051102082476795,0.6296209909191496,-0.7976557159222665,-0.1261016190556636,,-0.9283651642762768,-0.3178599623702066,0.18932445079000002,-1.2946257110734534,-1.2342375023812235,1.0198332374728267,0.02188810486199342,,-0.15579681567927384,-0.3094010614857298,0.0882075766,0.08275268144170031
2.0988880189834163,10:57:57.658272,10:57:56.483805,0,,0.06335685,0.0022349432,0.02711165,-0.9561636,0.27965602,0.08685515,0.026200302,0.37711316,-0.92579645,-0.2916588,-0.8829372,-0.367909,,0.032568097,0.046690464,0.04547295,0.055608965,-0.62391025,0.779515,0.20680869,-0.75659454,-0.6203184,0.9767997,0.1957056,0.08695653,,0.17623289,1.3281459,0.55748004,0.99228907,-0.056481805,-0.11032758,-0.10140424,-0.8817964,-0.46059987,-0.07127096,0.4682359,-0.8807245,,-0.04601637,0.14893882,-0.07566793,0.9643271,-0.21416013,-0.15559132,-0.16871539,-0.044317365,-0.984668,0.20398124,0.9757927,-0.078868546,,0.0011570278,0.348842,-0.32786655,-0.11162093,0.5553199,-0.824112,0.6597653,-0.57874185,-0.47934076,-0.7431356,-0.597225,-0.3017811,,1.2119748063492977,-0.4515250229572844,0.18695612896000002,1.3051102082476795,0.6296209909191496,-0.7976557159222665,-0.1261016190556636,,-0.9283574415434025,-0.3178599623702066,0.18932445079000002,-1.2946257110734534,-1.2342375023812235,1.0198332374728267,0.02188810486199342,,-0.15579681567927384,-0.3094010614857298,0.0882075766,0.08275268144170031
2.121373814996332,10:57:57.682859,10:57:56.483805,0,,0.06335685,0.0022349432,0.02711165,-0.9561636,0.27965602,0.08685515,0.026200302,0.37711316,-0.92579645,-0.2916588,-0.8829372,-0.367909,,0.032569103,0.046691254,0.04547319,0.055603243,-0.623912,0.77951413,0.20680395,-0.756595,-0.62031937,0.97680104,0.1956982,0.0869582,,0.17623289,1.3281459,0.55748004,0.99228907,-0.056481805,-0.11032758,-0.10140424,-0.8817964,-0.46059987,-0.07127096,0.4682359,-0.8807245,,-0.04601637,0.14893882,-0.07566793,0.9643271,-0.21416013,-0.15559132,-0.16871539,-0.044317365,-0.984668,0.20398124,0.9757927,-0.078868546,,0.0011560655,0.34884283,-0.3278663,-0.11161566,0.55532205,-0.8241113,0.6597617,-0.57874596,-0.4793408,-0.74313956,-0.597219,-0.30178308,,1.2119748063492977,-0.4515250229572844,0.18695612896000002,1.3051102082476795,0.6296209909191496,-0.7976557159222665,-0.1261016190556636,,-0.9283651642762768,-0.3178599623702066,0.18932445079000002,-1.2946257110734534,-1.2342375023812235,1.0198332374728267,0.02188810486199342,,-0.15579681567927384,-0.3094010614857298,0.0882075766,0.08275268144170031
2.145925955992425,10:57:57.706728,10:57:56.483805,0,,0.06335792,0.0022343546,0.02711147,-0.95616174,0.279662,0.08685755,0.026199304,0.37710983,-0.9257979,-0.29166532,-0.8829367,-0.3679049,,0.032569103,0.046691254,0.04547319,0.055603243,-0.623912,0.77951413,0.20680395,-0.756595,-0.62031937,0.97680104,0.1956982,0.0869582,,0.17623289,1.3281459,0.55748004,0.99228907,-0.056481805,-0.11032758,-0.10140424,-0.8817964,-0.46059987,-0.07127096,0.4682359,-0.8807245,,-0.046017487,0.14893825,-0.075667955,0.9643253,-0.2141664,-0.15559396,-0.1687191,-0.044319768,-0.98466724,0.20398676,0.9757912,-0.078872636,,0.0011560655,0.34884283,-0.3278663,-0.11161566,0.55532205,-0.8241113,0.6597617,-0.57874596,-0.4793408,-0.74313956,-0.597219,-0.30178308,,1.2119670836164234,-0.4515250229572844,0.18695612896000002,1.3051102082476795,0.6296209909191496,-0.7976557159222665,-0.1261016190556636,,-0.9283651642762768,-0.3178599623702066,0.18932445079000002,-1.2946257110734534,-1.2342375023812235,1.0198332374728267,0.02188810486199342,,-0.15579681567927384,-0.3094010614857298,0.0882075766,0.08275268144170031
2.169780488999095,10:57:57.731643,10:57:56.483805,0,,0.06335792,0.0022343546,0.02711147,-0.95616174,0.279662,0.08685755,0.026199304,0.37710983,-0.9257979,-0.29166532,-0.8829367,-0.3679049,,0.032568097,0.046690464,0.04547295,0.055608965,-0.62391025,0.779515,0.20680869,-0.75659454,-0.6203184,0.9767997,0.1957056,0.08695653,,0.17623289,1.3281459,0.55748004,0.99228907,-0.056481805,-0.11032758,-0.10140424,-0.8817964,-0.46059987,-0.07127096,0.4682359,-0.8807245,,-0.046017487,0.14893825,-0.075667955,0.9643253,-0.2141664,-0.15559396,-0.1687191,-0.044319768,-0.98466724,0.20398676,0.9757912,-0.078872636,,0.0011570278,0.348842,-0.32786655,-0.11162093,0.5553199,-0.824112,0.6597653,-0.57874185,-0.47934076,-0.7431356,-0.597225,-0.3017811,,1.2119670836164234,-0.4515250229572844,0.18695612896000002,1.3051102082476795,0.6296209909191496,-0.7976557159222665,-0.1261016190556636,,-0.9283574415434025,-0.3178599623702066,0.18932445079000002,-1.2946257110734534,-1.2342375023812235,1.0198332374728267,0.02188810486199342,,-0.15579681567927384,-0.3094010614857298,0.0882075766,0.08275268144170031
