AlexandreBanks6/ExpertPlaybackApp/resources/Motions/PC1/Data_PC1_26.csv
Task Time,PC1 Time,PC2 Time,Gaze Calib,s_T_psm1,Tx,Ty,Tz,R00,R01,R02,R10,R11,R12,R20,R21,R22,s_T_psm3,Tx,Ty,Tz,R00,R01,R02,R10,R11,R12,R20,R21,R22,cart_T_ecm,Tx,Ty,Tz,R00,R01,R02,R10,R11,R12,R20,R21,R22,ecm_T_psm1,Tx,Ty,Tz,R00,R01,R02,R10,R11,R12,R20,R21,R22,ecm_T_psm3,Tx,Ty,Tz,R00,R01,R02,R10,R11,R12,R20,R21,R22,psm1_joints,q1,q2,q3,q4,q5,q6,jaw,psm3_joints,q1,q2,q3,q4,q5,q6,jaw,ecm_joints,q1,q2,q3,q4,ecmi_T_ecm,Tx,Ty,Tz,R00,R01,R02,R10,R11,R12,R20,R21,R22,Sample #,Task Duration (s),Collisions (binary),Collisions (increments),Cumulative Collision Time (s)
""
lci_T_si,,,,,-0.06872824,0.020488411,0.28347856,0.9955044,0.040020403,0.08584546,0.08549299,-0.7697877,-0.63254863,0.040767934,0.63704413,-0.7697485
rci_T_si,,,,,-0.07892798,0.02531897,0.2938694,0.99532354,0.021085678,0.09426811,0.07746176,-0.7572718,-0.64848983,0.057712737,0.6527594,-0.75536376
ecm_T_lc,,,,,-4.4061628e-05,-0.00034663224,-0.01840835,-0.99912,0.030754527,0.028518902,-0.031987965,-0.99852574,-0.043852776,0.027128186,-0.04472645,0.9986309
ecm_T_rc,,,,,-0.0043358393,0.01870579,-0.007592615,-0.99555075,-0.052743673,-0.078081585,0.04863213,-0.9973746,0.053654674,-0.08070653,0.04961868,0.9955021
cart_T_ecmi,,,,,0.08932657,1.3456689,0.48102748,0.99604726,0.0027154682,-0.08878317,-0.053858917,-0.7763621,-0.6279818,-0.07063315,0.6302813,-0.7731471
ecmac_T_ecmrep_psm1,,,,,0.08626859,-0.2052861,-0.33370098,0.999004,0.025128257,0.036871605,-0.023534218,0.9987958,-0.04304718,-0.037908904,0.04213656,0.9983924
ecmac_T_ecmrep_psm3,,,,,-0.16209933,-0.49188918,-0.56672233,0.99379694,-0.09876928,0.05111077,0.087427974,0.9779163,0.18983154,-0.068731576,-0.18418549,0.98048544
""
0,10:27:43.350123,NaN,0,,0.028034719,0.04941243,0.07515034,-0.86696047,-0.36962315,-0.33430228,-0.49175417,0.74342984,0.4533099,0.080976516,0.5573964,-0.8262881,,0.14026147,-0.044518918,0.07220137,-0.7432052,-0.617576,0.25738275,-0.44480875,0.7434412,0.49944013,-0.49979106,0.2567003,-0.8272327,,0.089294754,1.3456697,0.48103744,0.9960495,0.0027479164,-0.08875693,-0.053817287,-0.776362,-0.6279855,-0.07063315,0.6302813,-0.7731471,,-0.07258254,0.2788991,-0.08145212,0.8814561,0.28350493,0.37770382,-0.24640654,0.9583633,-0.144304,-0.4028884,0.034128945,0.9146126,,0.05497879,0.44369498,-0.37551275,0.8665979,0.45699197,-0.20041563,-0.4980132,0.7667157,-0.4051295,-0.03147913,0.450894,0.89202225,,0.8189803758457608,-0.08605441241748371,0.15336536619000002,0.637038048305985,0.1186004817964023,0.30416851620138563,0.8702971843634397,,-0.6228924654363263,-0.684488982841141,0.12752382504,1.4491671994215478,0.22722649910992745,0.789629468470602,0.8676836793052913,,-0.06956664232292899,-0.10093020898126709,0.09392615648,-0.034016912529394594,,-3.2432377e-05,5.6028366e-06,-5.364418e-06,0.99999994,3.2316893e-05,2.6341528e-05,-3.2313168e-05,1.0,2.95043e-06,-2.6337802e-05,-2.95043e-06,1.0,NaN,NaN,NaN,NaN,NaN
0.017244138000023668,10:27:43.372723,NaN,0,,0.028034719,0.04941243,0.07515034,-0.86696047,-0.36962315,-0.33430228,-0.49175417,0.74342984,0.4533099,0.080976516,0.5573964,-0.8262881,,0.14026147,-0.044518918,0.07220137,-0.7432052,-0.617576,0.25738275,-0.44480875,0.7434412,0.49944013,-0.49979106,0.2567003,-0.8272327,,0.089294754,1.3456697,0.48103744,0.9960495,0.0027479164,-0.08875693,-0.053817287,-0.776362,-0.6279855,-0.07063315,0.6302813,-0.7731471,,-0.07258254,0.2788991,-0.08145212,0.8814561,0.28350493,0.37770382,-0.24640654,0.9583633,-0.144304,-0.4028884,0.034128945,0.9146126,,0.05497879,0.44369498,-0.37551275,0.8665979,0.45699197,-0.20041563,-0.4980132,0.7667157,-0.4051295,-0.03147913,0.450894,0.89202225,,0.8189803758457608,-0.08605441241748371,0.15336536619000002,0.637038048305985,0.1186004817964023,0.30416851620138563,0.8702971843634397,,-0.6228924654363263,-0.684488982841141,0.12752382504,1.4491671994215478,0.22722649910992745,0.789629468470602,0.8676836793052913,,-0.06956664232292899,-0.10093020898126709,0.09392615648,-0.034016912529394594,,-3.2432377e-05,5.6028366e-06,-5.364418e-06,0.99999994,3.2316893e-05,2.6341528e-05,-3.2313168e-05,1.0,2.95043e-06,-2.6337802e-05,-2.95043e-06,1.0,NaN,NaN,NaN,NaN,NaN
0.03982241799985786,10:27:43.383159,NaN,0,,0.02803518,0.049413472,0.07515037,-0.8669621,-0.3696228,-0.3342987,-0.49175242,0.7434271,0.4533163,0.08097072,0.5574002,-0.8262861,,0.14026211,-0.04451868,0.07220167,-0.7432027,-0.6175763,0.25738937,-0.4448058,0.7434416,0.4994421,-0.4997975,0.25669828,-0.82722944,,0.089294754,1.3456697,0.48103744,0.9960495,0.0027479164,-0.08875693,-0.053817287,-0.776362,-0.6279855,-0.07063315,0.6302813,-0.7731471,,-0.07258306,0.27889988,-0.08145145,0.881458,0.2835044,0.37769976,-0.2464087,0.9583636,-0.14429814,-0.40288284,0.034124233,0.9146152,,0.0549781,0.44369516,-0.37551278,0.866596,0.45699248,-0.2004229,-0.49801698,0.76671445,-0.4051272,-0.031472936,0.45089558,0.89202166,,0.8189803758457608,-0.08604668968460949,0.15336536619000002,0.637038048305985,0.1186004817964023,0.30416851620138563,0.8702971843634397,,-0.6229001881692005,-0.684488982841141,0.12752382504,1.4491671994215478,0.22722649910992745,0.789629468470602,0.8676836793052913,,-0.06956664232292899,-0.10093020898126709,0.09392615648,-0.034016912529394594,,-3.2432377e-05,5.6028366e-06,-5.364418e-06,0.99999994,3.2316893e-05,2.6341528e-05,-3.2313168e-05,1.0,2.95043e-06,-2.6337802e-05,-2.95043e-06,1.0,NaN,NaN,NaN,NaN,NaN
0.05027933600013057,10:27:43.406942,NaN,0,,0.028034719,0.04941243,0.07515034,-0.86696047,-0.36962315,-0.33430228,-0.49175417,0.74342984,0.4533099,0.080976516,0.5573964,-0.8262881,,0.14026158,-0.044519275,0.07220155,-0.7432566,-0.6174569,0.25751972,-0.44462934,0.7435287,0.4994695,-0.49987411,0.2567331,-0.8271723,,0.089294754,1.3456697,0.48103744,0.9960495,0.0027479164,-0.08875693,-0.053817287,-0.776362,-0.6279855,-0.07063315,0.6302813,-0.7731471,,-0.07258254,0.2788991,-0.08145212,0.8814561,0.28350493,0.37770382,-0.24640654,0.9583633,-0.144304,-0.4028884,0.034128945,0.9146126,,0.054978717,0.44369486,-0.37551317,0.86663455,0.45685783,-0.20056292,-0.49796167,0.76676816,-0.4050935,-0.03128486,0.45094067,0.8920055,,0.8189803758457608,-0.08605441241748371,0.15336536619000002,0.637038048305985,0.1186004817964023,0.30416851620138563,0.8702971843634397,,-0.6228924654363263,-0.684488982841141,0.12752382504,1.4493768893650323,0.22722649910992745,0.789629468470602,0.8676836793052913,,-0.06956664232292899,-0.10093020898126709,0.09392615648,-0.034016912529394594,,-3.2432377e-05,5.6028366e-06,-5.364418e-06,0.99999994,3.2316893e-05,2.6341528e-05,-3.2313168e-05,1.0,2.95043e-06,-2.6337802e-05,-2.95043e-06,1.0,NaN,NaN,NaN,NaN,NaN
0.07405274899974756,10:27:43.423715,NaN,0,,0.028034719,0.04941243,0.07515034,-0.86696047,-0.36962315,-0.33430228,-0.49175417,0.74342984,0.4533099,0.080976516,0.5573964,-0.8262881,,0.14026232,-0.044519484,0.07220203,-0.74330556,-0.6173381,0.25766337,-0.44444692,0.74361676,0.4995008,-0.49996364,0.25676396,-0.8271086,,0.089294754,1.3456697,0.48103744,0.9960495,0.0027479164,-0.08875693,-0.053817287,-0.776362,-0.6279855,-0.07063315,0.6302813,-0.7731471,,-0.07258254,0.2788991,-0.08145212,0.8814561,0.28350493,0.37770382,-0.24640654,0.9583633,-0.144304,-0.4028884,0.034128945,0.9146126,,0.054977942,0.44369495,-0.37551358,0.8666692,0.4567242,-0.20071751,-0.4979139,0.7668195,-0.40505514,-0.03108439,0.45098886,0.8919881,,0.8189803758457608,-0.08605441241748371,0.15336536619000002,0.637038048305985,0.1186004817964023,0.30416851620138563,0.8702971843634397,,-0.6229001881692005,-0.684488982841141,0.12752382504,1.4495865793085168,0.22722649910992745,0.789629468470602,0.8676836793052913,,-0.06956664232292899,-0.10093020898126709,0.09392615648,-0.034016912529394594,,-3.2432377e-05,5.6028366e-06,-5.364418e-06,0.99999994,3.2316893e-05,2.6341528e-05,-3.2313168e-05,1.0,2.95043e-06,-2.6337802e-05,-2.95043e-06,1.0,NaN,NaN,NaN,NaN,NaN
0.09078536000015447,10:27:43.442275,NaN,0,,0.028034719,0.04941243,0.07515034,-0.86696047,-0.36962315,-0.33430228,-0.49175417,0.74342984,0.4533099,0.080976516,0.5573964,-0.8262881,,0.14026232,-0.044519484,0.07220203,-0.74330556,-0.6173381,0.25766337,-0.44444692,0.74361676,0.4995008,-0.49996364,0.25676396,-0.8271086,,0.089294754,1.3456697,0.48103744,0.9960495,0.0027479164,-0.08875693,-0.053817287,-0.776362,-0.6279855,-0.07063315,0.6302813,-0.7731471,,-0.07258254,0.2788991,-0.08145212,0.8814561,0.28350493,0.37770382,-0.24640654,0.9583633,-0.144304,-0.4028884,0.034128945,0.9146126,,0.054977942,0.44369495,-0.37551358,0.8666692,0.4567242,-0.20071751,-0.4979139,0.7668195,-0.40505514,-0.03108439,0.45098886,0.8919881,,0.8189803758457608,-0.08605441241748371,0.15336536619000002,0.637038048305985,0.1186004817964023,0.30416851620138563,0.8702971843634397,,-0.6229001881692005,-0.684488982841141,0.12752382504,1.4495865793085168,0.22722649910992745,0.789629468470602,0.8676836793052913,,-0.06956664232292899,-0.10093020898126709,0.09392615648,-0.034016912529394594,,-3.2432377e-05,5.6028366e-06,-5.364418e-06,0.99999994,3.2316893e-05,2.6341528e-05,-3.2313168e-05,1.0,2.95043e-06,-2.6337802e-05,-2.95043e-06,1.0,NaN,NaN,NaN,NaN,NaN
0.10939586400036205,10:27:43.460517,NaN,0,,0.02803518,0.049413472,0.07515037,-0.8669621,-0.3696228,-0.3342987,-0.49175242,0.7434271,0.4533163,0.08097072,0.5574002,-0.8262861,,0.14026232,-0.044519484,0.07220203,-0.74330556,-0.6173381,0.25766337,-0.44444692,0.74361676,0.4995008,-0.49996364,0.25676396,-0.8271086,,0.089294754,1.3456697,0.48103744,0.9960495,0.0027479164,-0.08875693,-0.053817287,-0.776362,-0.6279855,-0.07063315,0.6302813,-0.7731471,,-0.07258306,0.27889988,-0.08145145,0.881458,0.2835044,0.37769976,-0.2464087,0.9583636,-0.14429814,-0.40288284,0.034124233,0.9146152,,0.054977942,0.44369495,-0.37551358,0.8666692,0.4567242,-0.20071751,-0.4979139,0.7668195,-0.40505514,-0.03108439,0.45098886,0.8919881,,0.8189803758457608,-0.08604668968460949,0.15336536619000002,0.637038048305985,0.1186004817964023,0.30416851620138563,0.8702971843634397,,-0.6229001881692005,-0.684488982841141,0.12752382504,1.4495865793085168,0.22722649910992745,0.789629468470602,0.8676836793052913,,-0.06956664232292899,-0.10093020898126709,0.09392615648,-0.034016912529394594,,-3.2432377e-05,5.6028366e-06,-5.364418e-06,0.99999994,3.2316893e-05,2.6341528e-05,-3.2313168e-05,1.0,2.95043e-06,-2.6337802e-05,-2.95043e-06,1.0,NaN,NaN,NaN,NaN,NaN
0.12761574799969821,10:27:43.478023,NaN,0,,0.02803518,0.049413472,0.07515037,-0.8669621,-0.3696228,-0.3342987,-0.49175242,0.7434271,0.4533163,0.08097072,0.5574002,-0.8262861,,0.14026168,-0.044519693,0.07220173,-0.74330807,-0.6173378,0.2576567,-0.44444993,0.7436163,0.49949884,-0.49995717,0.256766,-0.82711184,,0.089294754,1.3456697,0.48103744,0.9960495,0.0027479164,-0.08875693,-0.053817287,-0.776362,-0.6279855,-0.07063315,0.6302813,-0.7731471,,-0.07258306,0.27889988,-0.08145145,0.881458,0.2835044,0.37769976,-0.2464087,0.9583636,-0.14429814,-0.40288284,0.034124233,0.9146152,,0.05497864,0.44369474,-0.37551358,0.86667114,0.4567237,-0.20071024,-0.49791014,0.76682067,-0.40505746,-0.031090587,0.45098728,0.8919887,,0.8189803758457608,-0.08604668968460949,0.15336536619000002,0.637038048305985,0.1186004817964023,0.30416851620138563,0.8702971843634397,,-0.6228924654363263,-0.684488982841141,0.12752382504,1.4495865793085168,0.22722649910992745,0.789629468470602,0.8676836793052913,,-0.06956664232292899,-0.10093020898126709,0.09392615648,-0.034016912529394594,,-3.2432377e-05,5.6028366e-06,-5.364418e-06,0.99999994,3.2316893e-05,2.6341528e-05,-3.2313168e-05,1.0,2.95043e-06,-2.6337802e-05,-2.95043e-06,1.0,NaN,NaN,NaN,NaN,NaN
0.14513469699977577,10:27:43.497141,NaN,0,,0.028034719,0.04941243,0.07515034,-0.86696047,-0.36962315,-0.33430228,-0.49175417,0.74342984,0.4533099,0.080976516,0.5573964,-0.8262881,,0.14026232,-0.044519484,0.07220203,-0.74330556,-0.6173381,0.25766337,-0.44444692,0.74361676,0.4995008,-0.49996364,0.25676396,-0.8271086,,0.089294754,1.3456697,0.48103744,0.9960495,0.0027479164,-0.08875693,-0.053817287,-0.776362,-0.6279855,-0.07063315,0.6302813,-0.7731471,,-0.07258254,0.2788991,-0.08145212,0.8814561,0.28350493,0.37770382,-0.24640654,0.9583633,-0.144304,-0.4028884,0.034128945,0.9146126,,0.054977942,0.44369495,-0.37551358,0.8666692,0.4567242,-0.20071751,-0.4979139,0.7668195,-0.40505514,-0.03108439,0.45098886,0.8919881,,0.8189803758457608,-0.08605441241748371,0.15336536619000002,0.637038048305985,0.1186004817964023,0.30416851620138563,0.8702971843634397,,-0.6229001881692005,-0.684488982841141,0.12752382504,1.4495865793085168,0.22722649910992745,0.789629468470602,0.8676836793052913,,-0.06956664232292899,-0.10093020898126709,0.09392615648,-0.034016912529394594,,-3.2432377e-05,5.6028366e-06,-5.364418e-06,0.99999994,3.2316893e-05,2.6341528e-05,-3.2313168e-05,1.0,2.95043e-06,-2.6337802e-05,-2.95043e-06,1.0,NaN,NaN,NaN,NaN,NaN
0.16424915399966267,10:27:43.525485,NaN,0,,0.02803518,0.049413472,0.07515037,-0.8669621,-0.3696228,-0.3342987,-0.49175242,0.7434271,0.4533163,0.08097072,0.5574002,-0.8262861,,0.14026232,-0.044519484,0.07220203,-0.74330556,-0.6173381,0.25766337,-0.44444692,0.74361676,0.4995008,-0.49996364,0.25676396,-0.8271086,,0.089294754,1.3456697,0.48103744,0.9960495,0.0027479164,-0.08875693,-0.053817287,-0.776362,-0.6279855,-0.07063315,0.6302813,-0.7731471,,-0.07258306,0.27889988,-0.08145145,0.881458,0.2835044,0.37769976,-0.2464087,0.9583636,-0.14429814,-0.40288284,0.034124233,0.9146152,,0.054977942,0.44369495,-0.37551358,0.8666692,0.4567242,-0.20071751,-0.4979139,0.7668195,-0.40505514,-0.03108439,0.45098886,0.8919881,,0.8189803758457608,-0.08604668968460949,0.15336536619000002,0.637038048305985,0.1186004817964023,0.30416851620138563,0.8702971843634397,,-0.6229001881692005,-0.684488982841141,0.12752382504,1.4495865793085168,0.22722649910992745,0.789629468470602,0.8676836793052913,,-0.06956664232292899,-0.10093020898126709,0.09392615648,-0.034016912529394594,,-3.2432377e-05,5.6028366e-06,-5.364418e-06,0.99999994,3.2316893e-05,2.6341528e-05,-3.2313168e-05,1.0,2.95043e-06,-2.6337802e-05,-2.95043e-06,1.0,NaN,NaN,NaN,NaN,NaN
0.19256057599977794,10:27:43.544569,NaN,0,,0.028034719,0.04941243,0.07515034,-0.86696047,-0.36962315,-0.33430228,-0.49175417,0.74342984,0.4533099,0.080976516,0.5573964,-0.8262881,,0.14026168,-0.044519693,0.07220173,-0.74330807,-0.6173378,0.2576567,-0.44444993,0.7436163,0.49949884,-0.49995717,0.256766,-0.82711184,,0.089294754,1.3456697,0.48103744,0.9960495,0.0027479164,-0.08875693,-0.053817287,-0.776362,-0.6279855,-0.07063315,0.6302813,-0.7731471,,-0.07258254,0.2788991,-0.08145212,0.8814561,0.28350493,0.37770382,-0.24640654,0.9583633,-0.144304,-0.4028884,0.034128945,0.9146126,,0.05497864,0.44369474,-0.37551358,0.86667114,0.4567237,-0.20071024,-0.49791014,0.76682067,-0.40505746,-0.031090587,0.45098728,0.8919887,,0.8189803758457608,-0.08605441241748371,0.15336536619000002,0.637038048305985,0.1186004817964023,0.30416851620138563,0.8702971843634397,,-0.6228924654363263,-0.684488982841141,0.12752382504,1.4495865793085168,0.22722649910992745,0.789629468470602,0.8676836793052913,,-0.06956664232292899,-0.10093020898126709,0.09392615648,-0.034016912529394594,,-3.2432377e-05,5.6028366e-06,-5.364418e-06,0.99999994,3.2316893e-05,2.6341528e-05,-3.2313168e-05,1.0,2.95043e-06,-2.6337802e-05,-2.95043e-06,1.0,NaN,NaN,NaN,NaN,NaN
0.21167957600027876,10:27:43.562469,NaN,0,,0.028034719,0.04941243,0.07515034,-0.86696047,-0.36962315,-0.33430228,-0.49175417,0.74342984,0.4533099,0.080976516,0.5573964,-0.8262881,,0.14026168,-0.044519693,0.07220173,-0.74330807,-0.6173378,0.2576567,-0.44444993,0.7436163,0.49949884,-0.49995717,0.256766,-0.82711184,,0.089294754,1.3456697,0.48103744,0.9960495,0.0027479164,-0.08875693,-0.053817287,-0.776362,-0.6279855,-0.07063315,0.6302813,-0.7731471,,-0.07258254,0.2788991,-0.08145212,0.8814561,0.28350493,0.37770382,-0.24640654,0.9583633,-0.144304,-0.4028884,0.034128945,0.9146126,,0.05497864,0.44369474,-0.37551358,0.86667114,0.4567237,-0.20071024,-0.49791014,0.76682067,-0.40505746,-0.031090587,0.45098728,0.8919887,,0.8189803758457608,-0.08605441241748371,0.15336536619000002,0.637038048305985,0.1186004817964023,0.30416851620138563,0.8702971843634397,,-0.6228924654363263,-0.684488982841141,0.12752382504,1.4495865793085168,0.22722649910992745,0.789629468470602,0.8676836793052913,,-0.06956664232292899,-0.10093020898126709,0.09392615648,-0.034016912529394594,,-3.2432377e-05,5.6028366e-06,-5.364418e-06,0.99999994,3.2316893e-05,2.6341528e-05,-3.2313168e-05,1.0,2.95043e-06,-2.6337802e-05,-2.95043e-06,1.0,NaN,NaN,NaN,NaN,NaN
0.22955220699986967,10:27:43.581618,NaN,0,,0.028034719,0.04941243,0.07515034,-0.86696047,-0.36962315,-0.33430228,-0.49175417,0.74342984,0.4533099,0.080976516,0.5573964,-0.8262881,,0.14026232,-0.044519484,0.07220203,-0.74330556,-0.6173381,0.25766337,-0.44444692,0.74361676,0.4995008,-0.49996364,0.25676396,-0.8271086,,0.089294754,1.3456697,0.48103744,0.9960495,0.0027479164,-0.08875693,-0.053817287,-0.776362,-0.6279855,-0.07063315,0.6302813,-0.7731471,,-0.07258254,0.2788991,-0.08145212,0.8814561,0.28350493,0.37770382,-0.24640654,0.9583633,-0.144304,-0.4028884,0.034128945,0.9146126,,0.054977942,0.44369495,-0.37551358,0.8666692,0.4567242,-0.20071751,-0.4979139,0.7668195,-0.40505514,-0.03108439,0.45098886,0.8919881,,0.8189803758457608,-0.08605441241748371,0.15336536619000002,0.637038048305985,0.1186004817964023,0.30416851620138563,0.8702971843634397,,-0.6229001881692005,-0.684488982841141,0.12752382504,1.4495865793085168,0.22722649910992745,0.789629468470602,0.8676836793052913,,-0.06956664232292899,-0.10093020898126709,0.09392615648,-0.034016912529394594,,-3.2432377e-05,5.6028366e-06,-5.364418e-06,0.99999994,3.2316893e-05,2.6341528e-05,-3.2313168e-05,1.0,2.95043e-06,-2.6337802e-05,-2.95043e-06,1.0,NaN,NaN,NaN,NaN,NaN
0.24873626199951104,10:27:43.602835,NaN,0,,0.02803518,0.049413472,0.07515037,-0.8669621,-0.3696228,-0.3342987,-0.49175242,0.7434271,0.4533163,0.08097072,0.5574002,-0.8262861,,0.14026168,-0.044519693,0.07220173,-0.74330807,-0.6173378,0.2576567,-0.44444993,0.7436163,0.49949884,-0.49995717,0.256766,-0.82711184,,0.089294754,1.3456697,0.48103744,0.9960495,0.0027479164,-0.08875693,-0.053817287,-0.776362,-0.6279855,-0.07063315,0.6302813,-0.7731471,,-0.07258306,0.27889988,-0.08145145,0.881458,0.2835044,0.37769976,-0.2464087,0.9583636,-0.14429814,-0.40288284,0.034124233,0.9146152,,0.05497864,0.44369474,-0.37551358,0.86667114,0.4567237,-0.20071024,-0.49791014,0.76682067,-0.40505746,-0.031090587,0.45098728,0.8919887,,0.8189803758457608,-0.08604668968460949,0.15336536619000002,0.637038048305985,0.1186004817964023,0.30416851620138563,0.8702971843634397,,-0.6228924654363263,-0.684488982841141,0.12752382504,1.4495865793085168,0.22722649910992745,0.789629468470602,0.8676836793052913,,-0.06956664232292899,-0.10093020898126709,0.09392615648,-0.034016912529394594,,-3.2432377e-05,5.6028366e-06,-5.364418e-06,0.99999994,3.2316893e-05,2.6341528e-05,-3.2313168e-05,1.0,2.95043e-06,-2.6337802e-05,-2.95043e-06,1.0,NaN,NaN,NaN,NaN,NaN
0.2699533639997753,10:27:43.615508,NaN,0,,0.028034719,0.04941243,0.07515034,-0.86696047,-0.36962315,-0.33430228,-0.49175417,0.74342984,0.4533099,0.080976516,0.5573964,-0.8262881,,0.14026232,-0.044519484,0.07220203,-0.74330556,-0.6173381,0.25766337,-0.44444692,0.74361676,0.4995008,-0.49996364,0.25676396,-0.8271086,,0.089294754,1.3456697,0.48103744,0.9960495,0.0027479164,-0.08875693,-0.053817287,-0.776362,-0.6279855,-0.07063315,0.6302813,-0.7731471,,-0.07258254,0.2788991,-0.08145212,0.8814561,0.28350493,0.37770382,-0.24640654,0.9583633,-0.144304,-0.4028884,0.034128945,0.9146126,,0.054977942,0.44369495,-0.37551358,0.8666692,0.4567242,-0.20071751,-0.4979139,0.7668195,-0.40505514,-0.03108439,0.45098886,0.8919881,,0.8189803758457608,-0.08605441241748371,0.15336536619000002,0.637038048305985,0.1186004817964023,0.30416851620138563,0.8702971843634397,,-0.6229001881692005,-0.684488982841141,0.12752382504,1.4495865793085168,0.22722649910992745,0.789629468470602,0.8676836793052913,,-0.06956664232292899,-0.10093020898126709,0.09392615648,-0.034016912529394594,,-3.2432377e-05,5.6028366e-06,-5.364418e-06,0.99999994,3.2316893e-05,2.6341528e-05,-3.2313168e-05,1.0,2.95043e-06,-2.6337802e-05,-2.95043e-06,1.0,NaN,NaN,NaN,NaN,NaN
0.2826236949995291,10:27:43.639606,NaN,0,,0.02803518,0.049413472,0.07515037,-0.8669621,-0.3696228,-0.3342987,-0.49175242,0.7434271,0.4533163,0.08097072,0.5574002,-0.8262861,,0.14026168,-0.044519693,0.07220173,-0.74330807,-0.6173378,0.2576567,-0.44444993,0.7436163,0.49949884,-0.49995717,0.256766,-0.82711184,,0.089294754,1.3456697,0.48103744,0.9960495,0.0027479164,-0.08875693,-0.053817287,-0.776362,-0.6279855,-0.07063315,0.6302813,-0.7731471,,-0.07258306,0.27889988,-0.08145145,0.881458,0.2835044,0.37769976,-0.2464087,0.9583636,-0.14429814,-0.40288284,0.034124233,0.9146152,,0.05497864,0.44369474,-0.37551358,0.86667114,0.4567237,-0.20071024,-0.49791014,0.76682067,-0.40505746,-0.031090587,0.45098728,0.8919887,,0.8189803758457608,-0.08604668968460949,0.15336536619000002,0.637038048305985,0.1186004817964023,0.30416851620138563,0.8702971843634397,,-0.6228924654363263,-0.684488982841141,0.12752382504,1.4495865793085168,0.22722649910992745,0.789629468470602,0.8676836793052913,,-0.06956664232292899,-0.10093020898126709,0.09392615648,-0.034016912529394594,,-3.2432377e-05,5.6028366e-06,-5.364418e-06,0.99999994,3.2316893e-05,2.6341528e-05,-3.2313168e-05,1.0,2.95043e-06,-2.6337802e-05,-2.95043e-06,1.0,NaN,NaN,NaN,NaN,NaN
0.30671070799962763,10:27:43.652434,NaN,0,,0.02803518,0.049413472,0.07515037,-0.8669621,-0.3696228,-0.3342987,-0.49175242,0.7434271,0.4533163,0.08097072,0.5574002,-0.8262861,,0.14026232,-0.044519484,0.07220203,-0.74330556,-0.6173381,0.25766337,-0.44444692,0.74361676,0.4995008,-0.49996364,0.25676396,-0.8271086,,0.089294754,1.3456697,0.48103744,0.9960495,0.0027479164,-0.08875693,-0.053817287,-0.776362,-0.6279855,-0.07063315,0.6302813,-0.7731471,,-0.07258306,0.27889988,-0.08145145,0.881458,0.2835044,0.37769976,-0.2464087,0.9583636,-0.14429814,-0.40288284,0.034124233,0.9146152,,0.054977942,0.44369495,-0.37551358,0.8666692,0.4567242,-0.20071751,-0.4979139,0.7668195,-0.40505514,-0.03108439,0.45098886,0.8919881,,0.8189803758457608,-0.08604668968460949,0.15336536619000002,0.637038048305985,0.1186004817964023,0.30416851620138563,0.8702971843634397,,-0.6229001881692005,-0.684488982841141,0.12752382504,1.4495865793085168,0.22722649910992745,0.789629468470602,0.8676836793052913,,-0.06956664232292899,-0.10093020898126709,0.09392615648,-0.034016912529394594,,-3.2432377e-05,5.6028366e-06,-5.364418e-06,0.99999994,3.2316893e-05,2.6341528e-05,-3.2313168e-05,1.0,2.95043e-06,-2.6337802e-05,-2.95043e-06,1.0,NaN,NaN,NaN,NaN,NaN
0.3195197659997575,10:27:43.674230,NaN,0,,0.028012494,0.049422525,0.07515156,-0.8669828,-0.36960527,-0.33426413,-0.49171835,0.7434443,0.45332533,0.08095524,0.55738914,-0.826295,,0.14013277,-0.04458339,0.07218337,-0.743353,-0.6172545,0.25772697,-0.4443529,0.74368346,0.49948522,-0.49997675,0.25677213,-0.82709825,,0.089357376,1.3456668,0.4810356,0.99604607,0.002698273,-0.08879708,-0.05388098,-0.7763622,-0.6279798,-0.07063315,0.6302813,-0.7731471,,-0.07261319,0.27891165,-0.08144336,0.88144976,0.28353578,0.37769535,-0.24643575,0.9583542,-0.14431463,-0.40288427,0.03412847,0.9146144,,0.05506086,0.44366395,-0.37555176,0.86667794,0.45668754,-0.20076308,-0.49790186,0.7668271,-0.40505543,-0.03103319,0.4510129,0.8919777,,0.8189803758457608,-0.08605441241748371,0.15336536619000002,0.637038048305985,0.1186004817964023,0.30416851620138563,0.8702971843634397,,-0.6229001881692005,-0.684488982841141,0.12752382504,1.4495865793085168,0.22722649910992745,0.789629468470602,0.8676836793052913,,-0.06956664232292899,-0.10093020898126709,0.09392615648,-0.034016912529394594,,3.022328e-05,6.7949295e-06,-7.6293945e-06,0.99999994,-1.712516e-05,-1.3958663e-05,1.712516e-05,1.0000001,-1.5795231e-06,1.3962388e-05,1.5795231e-06,1.0,NaN,NaN,NaN,NaN,NaN
0.34134331099994597,10:27:43.684716,NaN,0,,0.028012494,0.049422525,0.07515156,-0.8669828,-0.36960527,-0.33426413,-0.49171835,0.7434443,0.45332533,0.08095524,0.55738914,-0.826295,,0.14013214,-0.04458363,0.07218307,-0.7433556,-0.6172542,0.25772032,-0.44435588,0.743683,0.4994833,-0.49997038,0.2567741,-0.82710147,,0.089357376,1.3456668,0.4810356,0.99604607,0.002698273,-0.08879708,-0.05388098,-0.7763622,-0.6279798,-0.07063315,0.6302813,-0.7731471,,-0.07261319,0.27891165,-0.08144336,0.88144976,0.28353578,0.37769535,-0.24643575,0.9583542,-0.14431463,-0.40288427,0.03412847,0.9146144,,0.055061556,0.44366375,-0.37555173,0.8666799,0.45668703,-0.2007558,-0.49789807,0.76682836,-0.40505776,-0.031039387,0.45101133,0.8919783,,0.8189803758457608,-0.08605441241748371,0.15336536619000002,0.637038048305985,0.1186004817964023,0.30416851620138563,0.8702971843634397,,-0.6228924654363263,-0.684488982841141,0.12752382504,1.4495865793085168,0.22722649910992745,0.789629468470602,0.8676836793052913,,-0.06956664232292899,-0.10093020898126709,0.09392615648,-0.034016912529394594,,3.022328e-05,6.7949295e-06,-7.6293945e-06,0.99999994,-1.712516e-05,-1.3958663e-05,1.712516e-05,1.0000001,-1.5795231e-06,1.3962388e-05,1.5795231e-06,1.0,NaN,NaN,NaN,NaN,NaN
0.3518329939997784,10:27:43.708724,NaN,0,,0.028011987,0.049424,0.07515195,-0.8669834,-0.36960164,-0.3342666,-0.49171746,0.7434395,0.4533342,0.080953866,0.5573981,-0.8262892,,0.14013277,-0.04458339,0.07218337,-0.743353,-0.6172545,0.25772697,-0.4443529,0.74368346,0.49948522,-0.49997675,0.25677213,-0.82709825,,0.089357376,1.3456668,0.4810356,0.99604607,0.002698273,-0.08879708,-0.05388098,-0.7763622,-0.6279798,-0.07063315,0.6302813,-0.7731471,,-0.072612785,0.27891308,-0.08144276,0.8814505,0.28353164,0.37769687,-0.2464359,0.9583557,-0.14430387,-0.40288267,0.034118645,0.91461545,,0.05506086,0.44366395,-0.37555176,0.86667794,0.45668754,-0.20076308,-0.49790186,0.7668271,-0.40505543,-0.03103319,0.4510129,0.8919777,,0.8189880985786351,-0.08604668968460949,0.15336536619000002,0.637038048305985,0.1186004817964023,0.30416851620138563,0.8702971843634397,,-0.6229001881692005,-0.684488982841141,0.12752382504,1.4495865793085168,0.22722649910992745,0.789629468470602,0.8676836793052913,,-0.06956664232292899,-0.10093020898126709,0.09392615648,-0.034016912529394594,,3.022328e-05,6.7949295e-06,-7.6293945e-06,0.99999994,-1.712516e-05,-1.3958663e-05,1.712516e-05,1.0000001,-1.5795231e-06,1.3962388e-05,1.5795231e-06,1.0,NaN,NaN,NaN,NaN,NaN
0.3758385259998249,10:27:43.725254,NaN,0,,0.028011987,0.049424,0.07515195,-0.8669834,-0.36960164,-0.3342666,-0.49171746,0.7434395,0.4533342,0.080953866,0.5573981,-0.8262892,,0.14013277,-0.04458339,0.07218337,-0.743353,-0.6172545,0.25772697,-0.4443529,0.74368346,0.49948522,-0.49997675,0.25677213,-0.82709825,,0.089357376,1.3456668,0.4810356,0.99604607,0.002698273,-0.08879708,-0.05388098,-0.7763622,-0.6279798,-0.07063315,0.6302813,-0.7731471,,-0.072612785,0.27891308,-0.08144276,0.8814505,0.28353164,0.37769687,-0.2464359,0.9583557,-0.14430387,-0.40288267,0.034118645,0.91461545,,0.05506086,0.44366395,-0.37555176,0.86667794,0.45668754,-0.20076308,-0.49790186,0.7668271,-0.40505543,-0.03103319,0.4510129,0.8919777,,0.8189880985786351,-0.08604668968460949,0.15336536619000002,0.637038048305985,0.1186004817964023,0.30416851620138563,0.8702971843634397,,-0.6229001881692005,-0.684488982841141,0.12752382504,1.4495865793085168,0.22722649910992745,0.789629468470602,0.8676836793052913,,-0.06956664232292899,-0.10093020898126709,0.09392615648,-0.034016912529394594,,3.022328e-05,6.7949295e-06,-7.6293945e-06,0.99999994,-1.712516e-05,-1.3958663e-05,1.712516e-05,1.0000001,-1.5795231e-06,1.3962388e-05,1.5795231e-06,1.0,NaN,NaN,NaN,NaN,NaN
0.3923301819995686,10:27:43.743639,NaN,0,,0.028012494,0.049422525,0.07515156,-0.8669828,-0.36960527,-0.33426413,-0.49171835,0.7434443,0.45332533,0.08095524,0.55738914,-0.826295,,0.14013214,-0.04458363,0.07218307,-0.7433556,-0.6172542,0.25772032,-0.44435588,0.743683,0.4994833,-0.49997038,0.2567741,-0.82710147,,0.089357376,1.3456668,0.4810356,0.99604607,0.002698273,-0.08879708,-0.05388098,-0.7763622,-0.6279798,-0.07063315,0.6302813,-0.7731471,,-0.07261319,0.27891165,-0.08144336,0.88144976,0.28353578,0.37769535,-0.24643575,0.9583542,-0.14431463,-0.40288427,0.03412847,0.9146144,,0.055061556,0.44366375,-0.37555173,0.8666799,0.45668703,-0.2007558,-0.49789807,0.76682836,-0.40505776,-0.031039387,0.45101133,0.8919783,,0.8189803758457608,-0.08605441241748371,0.15336536619000002,0.637038048305985,0.1186004817964023,0.30416851620138563,0.8702971843634397,,-0.6228924654363263,-0.684488982841141,0.12752382504,1.4495865793085168,0.22722649910992745,0.789629468470602,0.8676836793052913,,-0.06956664232292899,-0.10093020898126709,0.09392615648,-0.034016912529394594,,3.022328e-05,6.7949295e-06,-7.6293945e-06,0.99999994,-1.712516e-05,-1.3958663e-05,1.712516e-05,1.0000001,-1.5795231e-06,1.3962388e-05,1.5795231e-06,1.0,NaN,NaN,NaN,NaN,NaN
0.4103286299996398,10:27:43.760879,NaN,0,,0.028012494,0.049422525,0.07515156,-0.8669828,-0.36960527,-0.33426413,-0.49171835,0.7434443,0.45332533,0.08095524,0.55738914,-0.826295,,0.14013277,-0.04458339,0.07218337,-0.743353,-0.6172545,0.25772697,-0.4443529,0.74368346,0.49948522,-0.49997675,0.25677213,-0.82709825,,0.089357376,1.3456668,0.4810356,0.99604607,0.002698273,-0.08879708,-0.05388098,-0.7763622,-0.6279798,-0.07063315,0.6302813,-0.7731471,,-0.07261319,0.27891165,-0.08144336,0.88144976,0.28353578,0.37769535,-0.24643575,0.9583542,-0.14431463,-0.40288427,0.03412847,0.9146144,,0.05506086,0.44366395,-0.37555176,0.86667794,0.45668754,-0.20076308,-0.49790186,0.7668271,-0.40505543,-0.03103319,0.4510129,0.8919777,,0.8189803758457608,-0.08605441241748371,0.15336536619000002,0.637038048305985,0.1186004817964023,0.30416851620138563,0.8702971843634397,,-0.6229001881692005,-0.684488982841141,0.12752382504,1.4495865793085168,0.22722649910992745,0.789629468470602,0.8676836793052913,,-0.06956664232292899,-0.10093020898126709,0.09392615648,-0.034016912529394594,,3.022328e-05,6.7949295e-06,-7.6293945e-06,0.99999994,-1.712516e-05,-1.3958663e-05,1.712516e-05,1.0000001,-1.5795231e-06,1.3962388e-05,1.5795231e-06,1.0,NaN,NaN,NaN,NaN,NaN
0.4279876049995437,10:27:43.777982,NaN,0,,0.028012494,0.049422525,0.07515156,-0.8669828,-0.36960527,-0.33426413,-0.49171835,0.7434443,0.45332533,0.08095524,0.55738914,-0.826295,,0.14013214,-0.04458363,0.07218307,-0.7433556,-0.6172542,0.25772032,-0.44435588,0.743683,0.4994833,-0.49997038,0.2567741,-0.82710147,,0.089357376,1.3456668,0.4810356,0.99604607,0.002698273,-0.08879708,-0.05388098,-0.7763622,-0.6279798,-0.07063315,0.6302813,-0.7731471,,-0.07261319,0.27891165,-0.08144336,0.88144976,0.28353578,0.37769535,-0.24643575,0.9583542,-0.14431463,-0.40288427,0.03412847,0.9146144,,0.055061556,0.44366375,-0.37555173,0.8666799,0.45668703,-0.2007558,-0.49789807,0.76682836,-0.40505776,-0.031039387,0.45101133,0.8919783,,0.8189803758457608,-0.08605441241748371,0.15336536619000002,0.637038048305985,0.1186004817964023,0.30416851620138563,0.8702971843634397,,-0.6228924654363263,-0.684488982841141,0.12752382504,1.4495865793085168,0.22722649910992745,0.789629468470602,0.8676836793052913,,-0.06956664232292899,-0.10093020898126709,0.09392615648,-0.034016912529394594,,3.022328e-05,6.7949295e-06,-7.6293945e-06,0.99999994,-1.712516e-05,-1.3958663e-05,1.712516e-05,1.0000001,-1.5795231e-06,1.3962388e-05,1.5795231e-06,1.0,NaN,NaN,NaN,NaN,NaN
0.4451014930000383,10:27:43.796085,NaN,0,,0.028012963,0.049423568,0.07515158,-0.8669843,-0.36960492,-0.33426055,-0.4917166,0.74344164,0.4533317,0.080949485,0.557393,-0.826293,,0.14013214,-0.04458363,0.07218307,-0.7433556,-0.6172542,0.25772032,-0.44435588,0.743683,0.4994833,-0.49997038,0.2567741,-0.82710147,,0.089357376,1.3456668,0.4810356,0.99604607,0.002698273,-0.08879708,-0.05388098,-0.7763622,-0.6279798,-0.07063315,0.6302813,-0.7731471,,-0.0726137,0.27891243,-0.08144271,0.88145167,0.28353524,0.37769127,-0.2464379,0.9583545,-0.14430876,-0.40287876,0.034123756,0.914617,,0.055061556,0.44366375,-0.37555173,0.8666799,0.45668703,-0.2007558,-0.49789807,0.76682836,-0.40505776,-0.031039387,0.45101133,0.8919783,,0.8189803758457608,-0.08604668968460949,0.15336536619000002,0.637038048305985,0.1186004817964023,0.30416851620138563,0.8702971843634397,,-0.6228924654363263,-0.684488982841141,0.12752382504,1.4495865793085168,0.22722649910992745,0.789629468470602,0.8676836793052913,,-0.06956664232292899,-0.10093020898126709,0.09392615648,-0.034016912529394594,,3.022328e-05,6.7949295e-06,-7.6293945e-06,0.99999994,-1.712516e-05,-1.3958663e-05,1.712516e-05,1.0000001,-1.5795231e-06,1.3962388e-05,1.5795231e-06,1.0,NaN,NaN,NaN,NaN,NaN
0.4631183589999637,10:27:43.813729,NaN,0,,0.028012494,0.049422525,0.07515156,-0.8669828,-0.36960527,-0.33426413,-0.49171835,0.7434443,0.45332533,0.08095524,0.55738914,-0.826295,,0.14013214,-0.04458363,0.07218307,-0.7433556,-0.6172542,0.25772032,-0.44435588,0.743683,0.4994833,-0.49997038,0.2567741,-0.82710147,,0.089357376,1.3456668,0.4810356,0.99604607,0.002698273,-0.08879708,-0.05388098,-0.7763622,-0.6279798,-0.07063315,0.6302813,-0.7731471,,-0.07261319,0.27891165,-0.08144336,0.88144976,0.28353578,0.37769535,-0.24643575,0.9583542,-0.14431463,-0.40288427,0.03412847,0.9146144,,0.055061556,0.44366375,-0.37555173,0.8666799,0.45668703,-0.2007558,-0.49789807,0.76682836,-0.40505776,-0.031039387,0.45101133,0.8919783,,0.8189803758457608,-0.08605441241748371,0.15336536619000002,0.637038048305985,0.1186004817964023,0.30416851620138563,0.8702971843634397,,-0.6228924654363263,-0.684488982841141,0.12752382504,1.4495865793085168,0.22722649910992745,0.789629468470602,0.8676836793052913,,-0.06956664232292899,-0.10093020898126709,0.09392615648,-0.034016912529394594,,3.022328e-05,6.7949295e-06,-7.6293945e-06,0.99999994,-1.712516e-05,-1.3958663e-05,1.712516e-05,1.0000001,-1.5795231e-06,1.3962388e-05,1.5795231e-06,1.0,NaN,NaN,NaN,NaN,NaN
0.48084987299989734,10:27:43.829516,NaN,0,,0.028012494,0.049422525,0.07515156,-0.8669828,-0.36960527,-0.33426413,-0.49171835,0.7434443,0.45332533,0.08095524,0.55738914,-0.826295,,0.14013214,-0.04458363,0.07218307,-0.7433556,-0.6172542,0.25772032,-0.44435588,0.743683,0.4994833,-0.49997038,0.2567741,-0.82710147,,0.089357376,1.3456668,0.4810356,0.99604607,0.002698273,-0.08879708,-0.05388098,-0.7763622,-0.6279798,-0.07063315,0.6302813,-0.7731471,,-0.07261319,0.27891165,-0.08144336,0.88144976,0.28353578,0.37769535,-0.24643575,0.9583542,-0.14431463,-0.40288427,0.03412847,0.9146144,,0.055061556,0.44366375,-0.37555173,0.8666799,0.45668703,-0.2007558,-0.49789807,0.76682836,-0.40505776,-0.031039387,0.45101133,0.8919783,,0.8189803758457608,-0.08605441241748371,0.15336536619000002,0.637038048305985,0.1186004817964023,0.30416851620138563,0.8702971843634397,,-0.6228924654363263,-0.684488982841141,0.12752382504,1.4495865793085168,0.22722649910992745,0.789629468470602,0.8676836793052913,,-0.06956664232292899,-0.10093020898126709,0.09392615648,-0.034016912529394594,,3.022328e-05,6.7949295e-06,-7.6293945e-06,0.99999994,-1.712516e-05,-1.3958663e-05,1.712516e-05,1.0000001,-1.5795231e-06,1.3962388e-05,1.5795231e-06,1.0,NaN,NaN,NaN,NaN,NaN
0.49662400000033813,10:27:43.847174,NaN,0,,0.028011987,0.049424,0.07515195,-0.8669834,-0.36960164,-0.3342666,-0.49171746,0.7434395,0.4533342,0.080953866,0.5573981,-0.8262892,,0.14013277,-0.04458339,0.07218337,-0.743353,-0.6172545,0.25772697,-0.4443529,0.74368346,0.49948522,-0.49997675,0.25677213,-0.82709825,,0.089357376,1.3456668,0.4810356,0.99604607,0.002698273,-0.08879708,-0.05388098,-0.7763622,-0.6279798,-0.07063315,0.6302813,-0.7731471,,-0.072612785,0.27891308,-0.08144276,0.8814505,0.28353164,0.37769687,-0.2464359,0.9583557,-0.14430387,-0.40288267,0.034118645,0.91461545,,0.05506086,0.44366395,-0.37555176,0.86667794,0.45668754,-0.20076308,-0.49790186,0.7668271,-0.40505543,-0.03103319,0.4510129,0.8919777,,0.8189880985786351,-0.08604668968460949,0.15336536619000002,0.637038048305985,0.1186004817964023,0.30416851620138563,0.8702971843634397,,-0.6229001881692005,-0.684488982841141,0.12752382504,1.4495865793085168,0.22722649910992745,0.789629468470602,0.8676836793052913,,-0.06956664232292899,-0.10093020898126709,0.09392615648,-0.034016912529394594,,3.022328e-05,6.7949295e-06,-7.6293945e-06,0.99999994,-1.712516e-05,-1.3958663e-05,1.712516e-05,1.0000001,-1.5795231e-06,1.3962388e-05,1.5795231e-06,1.0,NaN,NaN,NaN,NaN,NaN
0.5141056769998613,10:27:43.866230,NaN,0,,0.028011987,0.049424,0.07515195,-0.8669834,-0.36960164,-0.3342666,-0.49171746,0.7434395,0.4533342,0.080953866,0.5573981,-0.8262892,,0.14013277,-0.04458339,0.07218337,-0.743353,-0.6172545,0.25772697,-0.4443529,0.74368346,0.49948522,-0.49997675,0.25677213,-0.82709825,,0.089357376,1.3456668,0.4810356,0.99604607,0.002698273,-0.08879708,-0.05388098,-0.7763622,-0.6279798,-0.07063315,0.6302813,-0.7731471,,-0.072612785,0.27891308,-0.08144276,0.8814505,0.28353164,0.37769687,-0.2464359,0.9583557,-0.14430387,-0.40288267,0.034118645,0.91461545,,0.05506086,0.44366395,-0.37555176,0.86667794,0.45668754,-0.20076308,-0.49790186,0.7668271,-0.40505543,-0.03103319,0.4510129,0.8919777,,0.8189880985786351,-0.08604668968460949,0.15336536619000002,0.637038048305985,0.1186004817964023,0.30416851620138563,0.8702971843634397,,-0.6229001881692005,-0.684488982841141,0.12752382504,1.4495865793085168,0.22722649910992745,0.789629468470602,0.8676836793052913,,-0.06956664232292899,-0.10093020898126709,0.09392615648,-0.034016912529394594,,3.022328e-05,6.7949295e-06,-7.6293945e-06,0.99999994,-1.712516e-05,-1.3958663e-05,1.712516e-05,1.0000001,-1.5795231e-06,1.3962388e-05,1.5795231e-06,1.0,NaN,NaN,NaN,NaN,NaN
0.5333502359999329,10:27:43.881256,NaN,0,,0.028011987,0.049424,0.07515195,-0.8669834,-0.36960164,-0.3342666,-0.49171746,0.7434395,0.4533342,0.080953866,0.5573981,-0.8262892,,0.14013277,-0.04458339,0.07218337,-0.743353,-0.6172545,0.25772697,-0.4443529,0.74368346,0.49948522,-0.49997675,0.25677213,-0.82709825,,0.089357376,1.3456668,0.4810356,0.99604607,0.002698273,-0.08879708,-0.05388098,-0.7763622,-0.6279798,-0.07063315,0.6302813,-0.7731471,,-0.072612785,0.27891308,-0.08144276,0.8814505,0.28353164,0.37769687,-0.2464359,0.9583557,-0.14430387,-0.40288267,0.034118645,0.91461545,,0.05506086,0.44366395,-0.37555176,0.86667794,0.45668754,-0.20076308,-0.49790186,0.7668271,-0.40505543,-0.03103319,0.4510129,0.8919777,,0.8189880985786351,-0.08604668968460949,0.15336536619000002,0.637038048305985,0.1186004817964023,0.30416851620138563,0.8702971843634397,,-0.6229001881692005,-0.684488982841141,0.12752382504,1.4495865793085168,0.22722649910992745,0.789629468470602,0.8676836793052913,,-0.06956664232292899,-0.10093020898126709,0.09392615648,-0.034016912529394594,,3.022328e-05,6.7949295e-06,-7.6293945e-06,0.99999994,-1.712516e-05,-1.3958663e-05,1.712516e-05,1.0000001,-1.5795231e-06,1.3962388e-05,1.5795231e-06,1.0,NaN,NaN,NaN,NaN,NaN
0.5483746829995653,10:27:43.900971,NaN,0,,0.028012963,0.049423568,0.07515158,-0.8669843,-0.36960492,-0.33426055,-0.4917166,0.74344164,0.4533317,0.080949485,0.557393,-0.826293,,0.14013277,-0.04458339,0.07218337,-0.743353,-0.6172545,0.25772697,-0.4443529,0.74368346,0.49948522,-0.49997675,0.25677213,-0.82709825,,0.089357376,1.3456668,0.4810356,0.99604607,0.002698273,-0.08879708,-0.05388098,-0.7763622,-0.6279798,-0.07063315,0.6302813,-0.7731471,,-0.0726137,0.27891243,-0.08144271,0.88145167,0.28353524,0.37769127,-0.2464379,0.9583545,-0.14430876,-0.40287876,0.034123756,0.914617,,0.05506086,0.44366395,-0.37555176,0.86667794,0.45668754,-0.20076308,-0.49790186,0.7668271,-0.40505543,-0.03103319,0.4510129,0.8919777,,0.8189803758457608,-0.08604668968460949,0.15336536619000002,0.637038048305985,0.1186004817964023,0.30416851620138563,0.8702971843634397,,-0.6229001881692005,-0.684488982841141,0.12752382504,1.4495865793085168,0.22722649910992745,0.789629468470602,0.8676836793052913,,-0.06956664232292899,-0.10093020898126709,0.09392615648,-0.034016912529394594,,3.022328e-05,6.7949295e-06,-7.6293945e-06,0.99999994,-1.712516e-05,-1.3958663e-05,1.712516e-05,1.0000001,-1.5795231e-06,1.3962388e-05,1.5795231e-06,1.0,NaN,NaN,NaN,NaN,NaN
0.5680894179995448,10:27:43.915545,NaN,0,,0.028012494,0.049422525,0.07515156,-0.8669828,-0.36960527,-0.33426413,-0.49171835,0.7434443,0.45332533,0.08095524,0.55738914,-0.826295,,0.14013214,-0.04458363,0.07218307,-0.7433556,-0.6172542,0.25772032,-0.44435588,0.743683,0.4994833,-0.49997038,0.2567741,-0.82710147,,0.089357376,1.3456668,0.4810356,0.99604607,0.002698273,-0.08879708,-0.05388098,-0.7763622,-0.6279798,-0.07063315,0.6302813,-0.7731471,,-0.07261319,0.27891165,-0.08144336,0.88144976,0.28353578,0.37769535,-0.24643575,0.9583542,-0.14431463,-0.40288427,0.03412847,0.9146144,,0.055061556,0.44366375,-0.37555173,0.8666799,0.45668703,-0.2007558,-0.49789807,0.76682836,-0.40505776,-0.031039387,0.45101133,0.8919783,,0.8189803758457608,-0.08605441241748371,0.15336536619000002,0.637038048305985,0.1186004817964023,0.30416851620138563,0.8702971843634397,,-0.6228924654363263,-0.684488982841141,0.12752382504,1.4495865793085168,0.22722649910992745,0.789629468470602,0.8676836793052913,,-0.06956664232292899,-0.10093020898126709,0.09392615648,-0.034016912529394594,,3.022328e-05,6.7949295e-06,-7.6293945e-06,0.99999994,-1.712516e-05,-1.3958663e-05,1.712516e-05,1.0000001,-1.5795231e-06,1.3962388e-05,1.5795231e-06,1.0,NaN,NaN,NaN,NaN,NaN
0.5826656119998006,10:27:43.934074,NaN,0,,0.028012494,0.049422525,0.07515156,-0.8669828,-0.36960527,-0.33426413,-0.49171835,0.7434443,0.45332533,0.08095524,0.55738914,-0.826295,,0.14013277,-0.04458339,0.07218337,-0.743353,-0.6172545,0.25772697,-0.4443529,0.74368346,0.49948522,-0.49997675,0.25677213,-0.82709825,,0.089357376,1.3456668,0.4810356,0.99604607,0.002698273,-0.08879708,-0.05388098,-0.7763622,-0.6279798,-0.07063315,0.6302813,-0.7731471,,-0.07261319,0.27891165,-0.08144336,0.88144976,0.28353578,0.37769535,-0.24643575,0.9583542,-0.14431463,-0.40288427,0.03412847,0.9146144,,0.05506086,0.44366395,-0.37555176,0.86667794,0.45668754,-0.20076308,-0.49790186,0.7668271,-0.40505543,-0.03103319,0.4510129,0.8919777,,0.8189803758457608,-0.08605441241748371,0.15336536619000002,0.637038048305985,0.1186004817964023,0.30416851620138563,0.8702971843634397,,-0.6229001881692005,-0.684488982841141,0.12752382504,1.4495865793085168,0.22722649910992745,0.789629468470602,0.8676836793052913,,-0.06956664232292899,-0.10093020898126709,0.09392615648,-0.034016912529394594,,3.022328e-05,6.7949295e-06,-7.6293945e-06,0.99999994,-1.712516e-05,-1.3958663e-05,1.712516e-05,1.0000001,-1.5795231e-06,1.3962388e-05,1.5795231e-06,1.0,NaN,NaN,NaN,NaN,NaN
0.601190360000146,10:27:43.949157,NaN,0,,0.028012963,0.049423568,0.07515158,-0.8669843,-0.36960492,-0.33426055,-0.4917166,0.74344164,0.4533317,0.080949485,0.557393,-0.826293,,0.14013277,-0.04458339,0.07218337,-0.743353,-0.6172545,0.25772697,-0.4443529,0.74368346,0.49948522,-0.49997675,0.25677213,-0.82709825,,0.089357376,1.3456668,0.4810356,0.99604607,0.002698273,-0.08879708,-0.05388098,-0.7763622,-0.6279798,-0.07063315,0.6302813,-0.7731471,,-0.0726137,0.27891243,-0.08144271,0.88145167,0.28353524,0.37769127,-0.2464379,0.9583545,-0.14430876,-0.40287876,0.034123756,0.914617,,0.05506086,0.44366395,-0.37555176,0.86667794,0.45668754,-0.20076308,-0.49790186,0.7668271,-0.40505543,-0.03103319,0.4510129,0.8919777,,0.8189803758457608,-0.08604668968460949,0.15336536619000002,0.637038048305985,0.1186004817964023,0.30416851620138563,0.8702971843634397,,-0.6229001881692005,-0.684488982841141,0.12752382504,1.4495865793085168,0.22722649910992745,0.789629468470602,0.8676836793052913,,-0.06956664232292899,-0.10093020898126709,0.09392615648,-0.034016912529394594,,3.022328e-05,6.7949295e-06,-7.6293945e-06,0.99999994,-1.712516e-05,-1.3958663e-05,1.712516e-05,1.0000001,-1.5795231e-06,1.3962388e-05,1.5795231e-06,1.0,NaN,NaN,NaN,NaN,NaN
0.6162771749995954,10:27:43.974318,NaN,0,,0.028012494,0.049422525,0.07515156,-0.8669828,-0.36960527,-0.33426413,-0.49171835,0.7434443,0.45332533,0.08095524,0.55738914,-0.826295,,0.14013277,-0.04458339,0.07218337,-0.743353,-0.6172545,0.25772697,-0.4443529,0.74368346,0.49948522,-0.49997675,0.25677213,-0.82709825,,0.089357376,1.3456668,0.4810356,0.99604607,0.002698273,-0.08879708,-0.05388098,-0.7763622,-0.6279798,-0.07063315,0.6302813,-0.7731471,,-0.07261319,0.27891165,-0.08144336,0.88144976,0.28353578,0.37769535,-0.24643575,0.9583542,-0.14431463,-0.40288427,0.03412847,0.9146144,,0.05506086,0.44366395,-0.37555176,0.86667794,0.45668754,-0.20076308,-0.49790186,0.7668271,-0.40505543,-0.03103319,0.4510129,0.8919777,,0.8189803758457608,-0.08605441241748371,0.15336536619000002,0.637038048305985,0.1186004817964023,0.30416851620138563,0.8702971843634397,,-0.6229001881692005,-0.684488982841141,0.12752382504,1.4495865793085168,0.22722649910992745,0.789629468470602,0.8676836793052913,,-0.06956664232292899,-0.10093020898126709,0.09392615648,-0.034016912529394594,,3.022328e-05,6.7949295e-06,-7.6293945e-06,0.99999994,-1.712516e-05,-1.3958663e-05,1.712516e-05,1.0000001,-1.5795231e-06,1.3962388e-05,1.5795231e-06,1.0,NaN,NaN,NaN,NaN,NaN
0.6414342230000329,10:27:43.986011,NaN,0,,0.028012494,0.049422525,0.07515156,-0.8669828,-0.36960527,-0.33426413,-0.49171835,0.7434443,0.45332533,0.08095524,0.55738914,-0.826295,,0.14013214,-0.04458363,0.07218307,-0.7433556,-0.6172542,0.25772032,-0.44435588,0.743683,0.4994833,-0.49997038,0.2567741,-0.82710147,,0.089357376,1.3456668,0.4810356,0.99604607,0.002698273,-0.08879708,-0.05388098,-0.7763622,-0.6279798,-0.07063315,0.6302813,-0.7731471,,-0.07261319,0.27891165,-0.08144336,0.88144976,0.28353578,0.37769535,-0.24643575,0.9583542,-0.14431463,-0.40288427,0.03412847,0.9146144,,0.055061556,0.44366375,-0.37555173,0.8666799,0.45668703,-0.2007558,-0.49789807,0.76682836,-0.40505776,-0.031039387,0.45101133,0.8919783,,0.8189803758457608,-0.08605441241748371,0.15336536619000002,0.637038048305985,0.1186004817964023,0.30416851620138563,0.8702971843634397,,-0.6228924654363263,-0.684488982841141,0.12752382504,1.4495865793085168,0.22722649910992745,0.789629468470602,0.8676836793052913,,-0.06956664232292899,-0.10093020898126709,0.09392615648,-0.034016912529394594,,3.022328e-05,6.7949295e-06,-7.6293945e-06,0.99999994,-1.712516e-05,-1.3958663e-05,1.712516e-05,1.0000001,-1.5795231e-06,1.3962388e-05,1.5795231e-06,1.0,NaN,NaN,NaN,NaN,NaN
0.653080647999559,10:27:44.008854,NaN,0,,0.028012494,0.049422525,0.07515156,-0.8669828,-0.36960527,-0.33426413,-0.49171835,0.7434443,0.45332533,0.08095524,0.55738914,-0.826295,,0.14013214,-0.04458363,0.07218307,-0.7433556,-0.6172542,0.25772032,-0.44435588,0.743683,0.4994833,-0.49997038,0.2567741,-0.82710147,,0.089357376,1.3456668,0.4810356,0.99604607,0.002698273,-0.08879708,-0.05388098,-0.7763622,-0.6279798,-0.07063315,0.6302813,-0.7731471,,-0.07261319,0.27891165,-0.08144336,0.88144976,0.28353578,0.37769535,-0.24643575,0.9583542,-0.14431463,-0.40288427,0.03412847,0.9146144,,0.055061556,0.44366375,-0.37555173,0.8666799,0.45668703,-0.2007558,-0.49789807,0.76682836,-0.40505776,-0.031039387,0.45101133,0.8919783,,0.8189803758457608,-0.08605441241748371,0.15336536619000002,0.637038048305985,0.1186004817964023,0.30416851620138563,0.8702971843634397,,-0.6228924654363263,-0.684488982841141,0.12752382504,1.4495865793085168,0.22722649910992745,0.789629468470602,0.8676836793052913,,-0.06956664232292899,-0.10093020898126709,0.09392615648,-0.034016912529394594,,3.022328e-05,6.7949295e-06,-7.6293945e-06,0.99999994,-1.712516e-05,-1.3958663e-05,1.712516e-05,1.0000001,-1.5795231e-06,1.3962388e-05,1.5795231e-06,1.0,NaN,NaN,NaN,NaN,NaN
0.6759579549998307,10:27:44.026607,NaN,0,,0.028011987,0.049424,0.07515195,-0.8669834,-0.36960164,-0.3342666,-0.49171746,0.7434395,0.4533342,0.080953866,0.5573981,-0.8262892,,0.14013214,-0.04458363,0.07218307,-0.7433556,-0.6172542,0.25772032,-0.44435588,0.743683,0.4994833,-0.49997038,0.2567741,-0.82710147,,0.089357376,1.3456668,0.4810356,0.99604607,0.002698273,-0.08879708,-0.05388098,-0.7763622,-0.6279798,-0.07063315,0.6302813,-0.7731471,,-0.072612785,0.27891308,-0.08144276,0.8814505,0.28353164,0.37769687,-0.2464359,0.9583557,-0.14430387,-0.40288267,0.034118645,0.91461545,,0.055061556,0.44366375,-0.37555173,0.8666799,0.45668703,-0.2007558,-0.49789807,0.76682836,-0.40505776,-0.031039387,0.45101133,0.8919783,,0.8189880985786351,-0.08604668968460949,0.15336536619000002,0.637038048305985,0.1186004817964023,0.30416851620138563,0.8702971843634397,,-0.6228924654363263,-0.684488982841141,0.12752382504,1.4495865793085168,0.22722649910992745,0.789629468470602,0.8676836793052913,,-0.06956664232292899,-0.10093020898126709,0.09392615648,-0.034016912529394594,,3.022328e-05,6.7949295e-06,-7.6293945e-06,0.99999994,-1.712516e-05,-1.3958663e-05,1.712516e-05,1.0000001,-1.5795231e-06,1.3962388e-05,1.5795231e-06,1.0,NaN,NaN,NaN,NaN,NaN
0.6937256080000225,10:27:44.043622,NaN,0,,0.028012494,0.049422525,0.07515156,-0.8669828,-0.36960527,-0.33426413,-0.49171835,0.7434443,0.45332533,0.08095524,0.55738914,-0.826295,,0.14013214,-0.04458363,0.07218307,-0.7433556,-0.6172542,0.25772032,-0.44435588,0.743683,0.4994833,-0.49997038,0.2567741,-0.82710147,,0.089357376,1.3456668,0.4810356,0.99604607,0.002698273,-0.08879708,-0.05388098,-0.7763622,-0.6279798,-0.07063315,0.6302813,-0.7731471,,-0.07261319,0.27891165,-0.08144336,0.88144976,0.28353578,0.37769535,-0.24643575,0.9583542,-0.14431463,-0.40288427,0.03412847,0.9146144,,0.055061556,0.44366375,-0.37555173,0.8666799,0.45668703,-0.2007558,-0.49789807,0.76682836,-0.40505776,-0.031039387,0.45101133,0.8919783,,0.8189803758457608,-0.08605441241748371,0.15336536619000002,0.637038048305985,0.1186004817964023,0.30416851620138563,0.8702971843634397,,-0.6228924654363263,-0.684488982841141,0.12752382504,1.4495865793085168,0.22722649910992745,0.789629468470602,0.8676836793052913,,-0.06956664232292899,-0.10093020898126709,0.09392615648,-0.034016912529394594,,3.022328e-05,6.7949295e-06,-7.6293945e-06,0.99999994,-1.712516e-05,-1.3958663e-05,1.712516e-05,1.0000001,-1.5795231e-06,1.3962388e-05,1.5795231e-06,1.0,NaN,NaN,NaN,NaN,NaN
0.7107100129996979,10:27:44.059725,NaN,0,,0.028012494,0.049422525,0.07515156,-0.8669828,-0.36960527,-0.33426413,-0.49171835,0.7434443,0.45332533,0.08095524,0.55738914,-0.826295,,0.14013192,-0.044582885,0.072182715,-0.7432526,-0.6174924,0.25744635,-0.44471473,0.74350786,0.49942455,-0.49980426,0.2567084,-0.82722235,,0.089357376,1.3456668,0.4810356,0.99604607,0.002698273,-0.08879708,-0.05388098,-0.7763622,-0.6279798,-0.07063315,0.6302813,-0.7731471,,-0.07261319,0.27891165,-0.08144336,0.88144976,0.28353578,0.37769535,-0.24643575,0.9583542,-0.14431463,-0.40288427,0.03412847,0.9146144,,0.05506171,0.44366395,-0.37555093,0.86660665,0.45695534,-0.2004612,-0.49800116,0.76672333,-0.4051298,-0.031427935,0.45091808,0.8920119,,0.8189803758457608,-0.08605441241748371,0.15336536619000002,0.637038048305985,0.1186004817964023,0.30416851620138563,0.8702971843634397,,-0.6228924654363263,-0.684488982841141,0.12752382504,1.4491671994215478,0.22722649910992745,0.789629468470602,0.8676836793052913,,-0.06956664232292899,-0.10093020898126709,0.09392615648,-0.034016912529394594,,3.022328e-05,6.7949295e-06,-7.6293945e-06,0.99999994,-1.712516e-05,-1.3958663e-05,1.712516e-05,1.0000001,-1.5795231e-06,1.3962388e-05,1.5795231e-06,1.0,NaN,NaN,NaN,NaN,NaN
0.7268354480002017,10:27:44.078113,NaN,0,,0.028012494,0.049422525,0.07515156,-0.8669828,-0.36960527,-0.33426413,-0.49171835,0.7434443,0.45332533,0.08095524,0.55738914,-0.826295,,0.14013256,-0.044582646,0.07218301,-0.74325013,-0.6174927,0.257453,-0.44471174,0.74350834,0.49942648,-0.49981064,0.2567065,-0.82721907,,0.089357376,1.3456668,0.4810356,0.99604607,0.002698273,-0.08879708,-0.05388098,-0.7763622,-0.6279798,-0.07063315,0.6302813,-0.7731471,,-0.07261319,0.27891165,-0.08144336,0.88144976,0.28353578,0.37769535,-0.24643575,0.9583542,-0.14431463,-0.40288427,0.03412847,0.9146144,,0.055061016,0.44366416,-0.37555093,0.86660475,0.45695582,-0.20046847,-0.4980049,0.76672214,-0.40512747,-0.03142174,0.45091966,0.8920113,,0.8189803758457608,-0.08605441241748371,0.15336536619000002,0.637038048305985,0.1186004817964023,0.30416851620138563,0.8702971843634397,,-0.6229001881692005,-0.684488982841141,0.12752382504,1.4491671994215478,0.22722649910992745,0.789629468470602,0.8676836793052913,,-0.06956664232292899,-0.10093020898126709,0.09392615648,-0.034016912529394594,,3.022328e-05,6.7949295e-06,-7.6293945e-06,0.99999994,-1.712516e-05,-1.3958663e-05,1.712516e-05,1.0000001,-1.5795231e-06,1.3962388e-05,1.5795231e-06,1.0,NaN,NaN,NaN,NaN,NaN
0.7431832450001821,10:27:44.095235,NaN,0,,0.028012963,0.049423568,0.07515158,-0.8669843,-0.36960492,-0.33426055,-0.4917166,0.74344164,0.4533317,0.080949485,0.557393,-0.826293,,0.14013256,-0.044582646,0.07218301,-0.74325013,-0.6174927,0.257453,-0.44471174,0.74350834,0.49942648,-0.49981064,0.2567065,-0.82721907,,0.089357376,1.3456668,0.4810356,0.99604607,0.002698273,-0.08879708,-0.05388098,-0.7763622,-0.6279798,-0.07063315,0.6302813,-0.7731471,,-0.0726137,0.27891243,-0.08144271,0.88145167,0.28353524,0.37769127,-0.2464379,0.9583545,-0.14430876,-0.40287876,0.034123756,0.914617,,0.055061016,0.44366416,-0.37555093,0.86660475,0.45695582,-0.20046847,-0.4980049,0.76672214,-0.40512747,-0.03142174,0.45091966,0.8920113,,0.8189803758457608,-0.08604668968460949,0.15336536619000002,0.637038048305985,0.1186004817964023,0.30416851620138563,0.8702971843634397,,-0.6229001881692005,-0.684488982841141,0.12752382504,1.4491671994215478,0.22722649910992745,0.789629468470602,0.8676836793052913,,-0.06956664232292899,-0.10093020898126709,0.09392615648,-0.034016912529394594,,3.022328e-05,6.7949295e-06,-7.6293945e-06,0.99999994,-1.712516e-05,-1.3958663e-05,1.712516e-05,1.0000001,-1.5795231e-06,1.3962388e-05,1.5795231e-06,1.0,NaN,NaN,NaN,NaN,NaN
0.7623425100000532,10:27:44.112813,NaN,0,,0.028012963,0.049423568,0.07515158,-0.8669843,-0.36960492,-0.33426055,-0.4917166,0.74344164,0.4533317,0.080949485,0.557393,-0.826293,,0.14013192,-0.044582885,0.072182715,-0.7432526,-0.6174924,0.25744635,-0.44471473,0.74350786,0.49942455,-0.49980426,0.2567084,-0.82722235,,0.089357376,1.3456668,0.4810356,0.99604607,0.002698273,-0.08879708,-0.05388098,-0.7763622,-0.6279798,-0.07063315,0.6302813,-0.7731471,,-0.0726137,0.27891243,-0.08144271,0.88145167,0.28353524,0.37769127,-0.2464379,0.9583545,-0.14430876,-0.40287876,0.034123756,0.914617,,0.05506171,0.44366395,-0.37555093,0.86660665,0.45695534,-0.2004612,-0.49800116,0.76672333,-0.4051298,-0.031427935,0.45091808,0.8920119,,0.8189803758457608,-0.08604668968460949,0.15336536619000002,0.637038048305985,0.1186004817964023,0.30416851620138563,0.8702971843634397,,-0.6228924654363263,-0.684488982841141,0.12752382504,1.4491671994215478,0.22722649910992745,0.789629468470602,0.8676836793052913,,-0.06956664232292899,-0.10093020898126709,0.09392615648,-0.034016912529394594,,3.022328e-05,6.7949295e-06,-7.6293945e-06,0.99999994,-1.712516e-05,-1.3958663e-05,1.712516e-05,1.0000001,-1.5795231e-06,1.3962388e-05,1.5795231e-06,1.0,NaN,NaN,NaN,NaN,NaN
0.7799300500000754,10:27:44.129359,NaN,0,,0.028011987,0.049424,0.07515195,-0.8669834,-0.36960164,-0.3342666,-0.49171746,0.7434395,0.4533342,0.080953866,0.5573981,-0.8262892,,0.14013256,-0.044582646,0.07218301,-0.74325013,-0.6174927,0.257453,-0.44471174,0.74350834,0.49942648,-0.49981064,0.2567065,-0.82721907,,0.089357376,1.3456668,0.4810356,0.99604607,0.002698273,-0.08879708,-0.05388098,-0.7763622,-0.6279798,-0.07063315,0.6302813,-0.7731471,,-0.072612785,0.27891308,-0.08144276,0.8814505,0.28353164,0.37769687,-0.2464359,0.9583557,-0.14430387,-0.40288267,0.034118645,0.91461545,,0.055061016,0.44366416,-0.37555093,0.86660475,0.45695582,-0.20046847,-0.4980049,0.76672214,-0.40512747,-0.03142174,0.45091966,0.8920113,,0.8189880985786351,-0.08604668968460949,0.15336536619000002,0.637038048305985,0.1186004817964023,0.30416851620138563,0.8702971843634397,,-0.6229001881692005,-0.684488982841141,0.12752382504,1.4491671994215478,0.22722649910992745,0.789629468470602,0.8676836793052913,,-0.06956664232292899,-0.10093020898126709,0.09392615648,-0.034016912529394594,,3.022328e-05,6.7949295e-06,-7.6293945e-06,0.99999994,-1.712516e-05,-1.3958663e-05,1.712516e-05,1.0000001,-1.5795231e-06,1.3962388e-05,1.5795231e-06,1.0,NaN,NaN,NaN,NaN,NaN
0.7964634919999298,10:27:44.148198,NaN,0,,0.028010553,0.04942336,0.07515231,-0.86698097,-0.36959866,-0.33427626,-0.49172014,0.7434401,0.45333034,0.080964044,0.5573992,-0.82628745,,0.14013256,-0.044582646,0.07218301,-0.74325013,-0.6174927,0.257453,-0.44471174,0.74350834,0.49942648,-0.49981064,0.2567065,-0.82721907,,0.089357376,1.3456668,0.4810356,0.99604607,0.002698273,-0.08879708,-0.05388098,-0.7763622,-0.6279798,-0.07063315,0.6302813,-0.7731471,,-0.072611354,0.27891296,-0.08144347,0.8814473,0.28352854,0.37770653,-0.24643174,0.9583567,-0.14430486,-0.4028921,0.03411825,0.91461134,,0.055061016,0.44366416,-0.37555093,0.86660475,0.45695582,-0.20046847,-0.4980049,0.76672214,-0.40512747,-0.03142174,0.45091966,0.8920113,,0.8189958213115093,-0.08605441241748371,0.15336536619000002,0.637038048305985,0.1186004817964023,0.30416851620138563,0.8702971843634397,,-0.6229001881692005,-0.684488982841141,0.12752382504,1.4491671994215478,0.22722649910992745,0.789629468470602,0.8676836793052913,,-0.06956664232292899,-0.10093020898126709,0.09392615648,-0.034016912529394594,,3.022328e-05,6.7949295e-06,-7.6293945e-06,0.99999994,-1.712516e-05,-1.3958663e-05,1.712516e-05,1.0000001,-1.5795231e-06,1.3962388e-05,1.5795231e-06,1.0,NaN,NaN,NaN,NaN,NaN
0.8151296129999537,10:27:44.168174,NaN,0,,0.028010553,0.04942336,0.07515231,-0.86698097,-0.36959866,-0.33427626,-0.49172014,0.7434401,0.45333034,0.080964044,0.5573992,-0.82628745,,0.14013192,-0.044582885,0.072182715,-0.7432526,-0.6174924,0.25744635,-0.44471473,0.74350786,0.49942455,-0.49980426,0.2567084,-0.82722235,,0.089357376,1.3456668,0.4810356,0.99604607,0.002698273,-0.08879708,-0.05388098,-0.7763622,-0.6279798,-0.07063315,0.6302813,-0.7731471,,-0.072611354,0.27891296,-0.08144347,0.8814473,0.28352854,0.37770653,-0.24643174,0.9583567,-0.14430486,-0.4028921,0.03411825,0.91461134,,0.05506171,0.44366395,-0.37555093,0.86660665,0.45695534,-0.2004612,-0.49800116,0.76672333,-0.4051298,-0.031427935,0.45091808,0.8920119,,0.8189958213115093,-0.08605441241748371,0.15336536619000002,0.637038048305985,0.1186004817964023,0.30416851620138563,0.8702971843634397,,-0.6228924654363263,-0.684488982841141,0.12752382504,1.4491671994215478,0.22722649910992745,0.789629468470602,0.8676836793052913,,-0.06956664232292899,-0.10093020898126709,0.09392615648,-0.034016912529394594,,3.022328e-05,6.7949295e-06,-7.6293945e-06,0.99999994,-1.712516e-05,-1.3958663e-05,1.712516e-05,1.0000001,-1.5795231e-06,1.3962388e-05,1.5795231e-06,1.0,NaN,NaN,NaN,NaN,NaN
0.835289603000092,10:27:44.182111,NaN,0,,0.028012494,0.049422525,0.07515156,-0.8669828,-0.36960527,-0.33426413,-0.49171835,0.7434443,0.45332533,0.08095524,0.55738914,-0.826295,,0.14013256,-0.044582646,0.07218301,-0.74325013,-0.6174927,0.257453,-0.44471174,0.74350834,0.49942648,-0.49981064,0.2567065,-0.82721907,,0.089357376,1.3456668,0.4810356,0.99604607,0.002698273,-0.08879708,-0.05388098,-0.7763622,-0.6279798,-0.07063315,0.6302813,-0.7731471,,-0.07261319,0.27891165,-0.08144336,0.88144976,0.28353578,0.37769535,-0.24643575,0.9583542,-0.14431463,-0.40288427,0.03412847,0.9146144,,0.055061016,0.44366416,-0.37555093,0.86660475,0.45695582,-0.20046847,-0.4980049,0.76672214,-0.40512747,-0.03142174,0.45091966,0.8920113,,0.8189803758457608,-0.08605441241748371,0.15336536619000002,0.637038048305985,0.1186004817964023,0.30416851620138563,0.8702971843634397,,-0.6229001881692005,-0.684488982841141,0.12752382504,1.4491671994215478,0.22722649910992745,0.789629468470602,0.8676836793052913,,-0.06956664232292899,-0.10093020898126709,0.09392615648,-0.034016912529394594,,3.022328e-05,6.7949295e-06,-7.6293945e-06,0.99999994,-1.712516e-05,-1.3958663e-05,1.712516e-05,1.0000001,-1.5795231e-06,1.3962388e-05,1.5795231e-06,1.0,NaN,NaN,NaN,NaN,NaN
0.849230185000124,10:27:44.206153,NaN,0,,0.028012494,0.049422525,0.07515156,-0.8669828,-0.36960527,-0.33426413,-0.49171835,0.7434443,0.45332533,0.08095524,0.55738914,-0.826295,,0.14013256,-0.044582646,0.07218301,-0.74325013,-0.6174927,0.257453,-0.44471174,0.74350834,0.49942648,-0.49981064,0.2567065,-0.82721907,,0.089357376,1.3456668,0.4810356,0.99604607,0.002698273,-0.08879708,-0.05388098,-0.7763622,-0.6279798,-0.07063315,0.6302813,-0.7731471,,-0.07261319,0.27891165,-0.08144336,0.88144976,0.28353578,0.37769535,-0.24643575,0.9583542,-0.14431463,-0.40288427,0.03412847,0.9146144,,0.055061016,0.44366416,-0.37555093,0.86660475,0.45695582,-0.20046847,-0.4980049,0.76672214,-0.40512747,-0.03142174,0.45091966,0.8920113,,0.8189803758457608,-0.08605441241748371,0.15336536619000002,0.637038048305985,0.1186004817964023,0.30416851620138563,0.8702971843634397,,-0.6229001881692005,-0.684488982841141,0.12752382504,1.4491671994215478,0.22722649910992745,0.789629468470602,0.8676836793052913,,-0.06956664232292899,-0.10093020898126709,0.09392615648,-0.034016912529394594,,3.022328e-05,6.7949295e-06,-7.6293945e-06,0.99999994,-1.712516e-05,-1.3958663e-05,1.712516e-05,1.0000001,-1.5795231e-06,1.3962388e-05,1.5795231e-06,1.0,NaN,NaN,NaN,NaN,NaN
0.8732329619997472,10:27:44.216642,NaN,0,,0.028011987,0.049424,0.07515195,-0.8669834,-0.36960164,-0.3342666,-0.49171746,0.7434395,0.4533342,0.080953866,0.5573981,-0.8262892,,0.14013192,-0.044582885,0.072182715,-0.7432526,-0.6174924,0.25744635,-0.44471473,0.74350786,0.49942455,-0.49980426,0.2567084,-0.82722235,,0.089357376,1.3456668,0.4810356,0.99604607,0.002698273,-0.08879708,-0.05388098,-0.7763622,-0.6279798,-0.07063315,0.6302813,-0.7731471,,-0.072612785,0.27891308,-0.08144276,0.8814505,0.28353164,0.37769687,-0.2464359,0.9583557,-0.14430387,-0.40288267,0.034118645,0.91461545,,0.05506171,0.44366395,-0.37555093,0.86660665,0.45695534,-0.2004612,-0.49800116,0.76672333,-0.4051298,-0.031427935,0.45091808,0.8920119,,0.8189880985786351,-0.08604668968460949,0.15336536619000002,0.637038048305985,0.1186004817964023,0.30416851620138563,0.8702971843634397,,-0.6228924654363263,-0.684488982841141,0.12752382504,1.4491671994215478,0.22722649910992745,0.789629468470602,0.8676836793052913,,-0.06956664232292899,-0.10093020898126709,0.09392615648,-0.034016912529394594,,3.022328e-05,6.7949295e-06,-7.6293945e-06,0.99999994,-1.712516e-05,-1.3958663e-05,1.712516e-05,1.0000001,-1.5795231e-06,1.3962388e-05,1.5795231e-06,1.0,NaN,NaN,NaN,NaN,NaN
0.8837629230001767,10:27:44.239798,NaN,0,,0.028012963,0.049423568,0.07515158,-0.8669843,-0.36960492,-0.33426055,-0.4917166,0.74344164,0.4533317,0.080949485,0.557393,-0.826293,,0.14013256,-0.044582646,0.07218301,-0.74325013,-0.6174927,0.257453,-0.44471174,0.74350834,0.49942648,-0.49981064,0.2567065,-0.82721907,,0.089357376,1.3456668,0.4810356,0.99604607,0.002698273,-0.08879708,-0.05388098,-0.7763622,-0.6279798,-0.07063315,0.6302813,-0.7731471,,-0.0726137,0.27891243,-0.08144271,0.88145167,0.28353524,0.37769127,-0.2464379,0.9583545,-0.14430876,-0.40287876,0.034123756,0.914617,,0.055061016,0.44366416,-0.37555093,0.86660475,0.45695582,-0.20046847,-0.4980049,0.76672214,-0.40512747,-0.03142174,0.45091966,0.8920113,,0.8189803758457608,-0.08604668968460949,0.15336536619000002,0.637038048305985,0.1186004817964023,0.30416851620138563,0.8702971843634397,,-0.6229001881692005,-0.684488982841141,0.12752382504,1.4491671994215478,0.22722649910992745,0.789629468470602,0.8676836793052913,,-0.06956664232292899,-0.10093020898126709,0.09392615648,-0.034016912529394594,,3.022328e-05,6.7949295e-06,-7.6293945e-06,0.99999994,-1.712516e-05,-1.3958663e-05,1.712516e-05,1.0000001,-1.5795231e-06,1.3962388e-05,1.5795231e-06,1.0,NaN,NaN,NaN,NaN,NaN
0.9068913129995053,10:27:44.252646,NaN,0,,0.028012963,0.049423568,0.07515158,-0.8669843,-0.36960492,-0.33426055,-0.4917166,0.74344164,0.4533317,0.080949485,0.557393,-0.826293,,0.14013256,-0.044582646,0.07218301,-0.74325013,-0.6174927,0.257453,-0.44471174,0.74350834,0.49942648,-0.49981064,0.2567065,-0.82721907,,0.089357376,1.3456668,0.4810356,0.99604607,0.002698273,-0.08879708,-0.05388098,-0.7763622,-0.6279798,-0.07063315,0.6302813,-0.7731471,,-0.0726137,0.27891243,-0.08144271,0.88145167,0.28353524,0.37769127,-0.2464379,0.9583545,-0.14430876,-0.40287876,0.034123756,0.914617,,0.055061016,0.44366416,-0.37555093,0.86660475,0.45695582,-0.20046847,-0.4980049,0.76672214,-0.40512747,-0.03142174,0.45091966,0.8920113,,0.8189803758457608,-0.08604668968460949,0.15336536619000002,0.637038048305985,0.1186004817964023,0.30416851620138563,0.8702971843634397,,-0.6229001881692005,-0.684488982841141,0.12752382504,1.4491671994215478,0.22722649910992745,0.789629468470602,0.8676836793052913,,-0.06956664232292899,-0.10093020898126709,0.09392615648,-0.034016912529394594,,3.022328e-05,6.7949295e-06,-7.6293945e-06,0.99999994,-1.712516e-05,-1.3958663e-05,1.712516e-05,1.0000001,-1.5795231e-06,1.3962388e-05,1.5795231e-06,1.0,NaN,NaN,NaN,NaN,NaN
0.9197063210003762,10:27:44.275040,NaN,0,,0.028011011,0.049424417,0.07515234,-0.86698246,-0.3695983,-0.33427268,-0.49171838,0.7434374,0.45333672,0.08095825,0.5574031,-0.8262854,,0.14013256,-0.044582646,0.07218301,-0.74325013,-0.6174927,0.257453,-0.44471174,0.74350834,0.49942648,-0.49981064,0.2567065,-0.82721907,,0.089357376,1.3456668,0.4810356,0.99604607,0.002698273,-0.08879708,-0.05388098,-0.7763622,-0.6279798,-0.07063315,0.6302813,-0.7731471,,-0.07261187,0.27891374,-0.08144281,0.8814492,0.283528,0.37770247,-0.2464339,0.958357,-0.14429899,-0.4028866,0.034113538,0.91461396,,0.055061016,0.44366416,-0.37555093,0.86660475,0.45695582,-0.20046847,-0.4980049,0.76672214,-0.40512747,-0.03142174,0.45091966,0.8920113,,0.8189958213115093,-0.08604668968460949,0.15336536619000002,0.637038048305985,0.1186004817964023,0.30416851620138563,0.8702971843634397,,-0.6229001881692005,-0.684488982841141,0.12752382504,1.4491671994215478,0.22722649910992745,0.789629468470602,0.8676836793052913,,-0.06956664232292899,-0.10093020898126709,0.09392615648,-0.034016912529394594,,3.022328e-05,6.7949295e-06,-7.6293945e-06,0.99999994,-1.712516e-05,-1.3958663e-05,1.712516e-05,1.0000001,-1.5795231e-06,1.3962388e-05,1.5795231e-06,1.0,NaN,NaN,NaN,NaN,NaN
0.9421393539996643,10:27:44.292025,NaN,0,,0.028011011,0.049424417,0.07515234,-0.86698246,-0.3695983,-0.33427268,-0.49171838,0.7434374,0.45333672,0.08095825,0.5574031,-0.8262854,,0.14013192,-0.044582885,0.072182715,-0.7432526,-0.6174924,0.25744635,-0.44471473,0.74350786,0.49942455,-0.49980426,0.2567084,-0.82722235,,0.089357376,1.3456668,0.4810356,0.99604607,0.002698273,-0.08879708,-0.05388098,-0.7763622,-0.6279798,-0.07063315,0.6302813,-0.7731471,,-0.07261187,0.27891374,-0.08144281,0.8814492,0.283528,0.37770247,-0.2464339,0.958357,-0.14429899,-0.4028866,0.034113538,0.91461396,,0.05506171,0.44366395,-0.37555093,0.86660665,0.45695534,-0.2004612,-0.49800116,0.76672333,-0.4051298,-0.031427935,0.45091808,0.8920119,,0.8189958213115093,-0.08604668968460949,0.15336536619000002,0.637038048305985,0.1186004817964023,0.30416851620138563,0.8702971843634397,,-0.6228924654363263,-0.684488982841141,0.12752382504,1.4491671994215478,0.22722649910992745,0.789629468470602,0.8676836793052913,,-0.06956664232292899,-0.10093020898126709,0.09392615648,-0.034016912529394594,,3.022328e-05,6.7949295e-06,-7.6293945e-06,0.99999994,-1.712516e-05,-1.3958663e-05,1.712516e-05,1.0000001,-1.5795231e-06,1.3962388e-05,1.5795231e-06,1.0,NaN,NaN,NaN,NaN,NaN
0.9590933210001822,10:27:44.309792,NaN,0,,0.028010553,0.04942336,0.07515231,-0.86698097,-0.36959866,-0.33427626,-0.49172014,0.7434401,0.45333034,0.080964044,0.5573992,-0.82628745,,0.14013192,-0.044582885,0.072182715,-0.7432526,-0.6174924,0.25744635,-0.44471473,0.74350786,0.49942455,-0.49980426,0.2567084,-0.82722235,,0.089357376,1.3456668,0.4810356,0.99604607,0.002698273,-0.08879708,-0.05388098,-0.7763622,-0.6279798,-0.07063315,0.6302813,-0.7731471,,-0.072611354,0.27891296,-0.08144347,0.8814473,0.28352854,0.37770653,-0.24643174,0.9583567,-0.14430486,-0.4028921,0.03411825,0.91461134,,0.05506171,0.44366395,-0.37555093,0.86660665,0.45695534,-0.2004612,-0.49800116,0.76672333,-0.4051298,-0.031427935,0.45091808,0.8920119,,0.8189958213115093,-0.08605441241748371,0.15336536619000002,0.637038048305985,0.1186004817964023,0.30416851620138563,0.8702971843634397,,-0.6228924654363263,-0.684488982841141,0.12752382504,1.4491671994215478,0.22722649910992745,0.789629468470602,0.8676836793052913,,-0.06956664232292899,-0.10093020898126709,0.09392615648,-0.034016912529394594,,3.022328e-05,6.7949295e-06,-7.6293945e-06,0.99999994,-1.712516e-05,-1.3958663e-05,1.712516e-05,1.0000001,-1.5795231e-06,1.3962388e-05,1.5795231e-06,1.0,NaN,NaN,NaN,NaN,NaN
0.9769042750003791,10:27:44.327606,NaN,0,,0.028010553,0.04942336,0.07515231,-0.86698097,-0.36959866,-0.33427626,-0.49172014,0.7434401,0.45333034,0.080964044,0.5573992,-0.82628745,,0.14013192,-0.044582885,0.072182715,-0.7432526,-0.6174924,0.25744635,-0.44471473,0.74350786,0.49942455,-0.49980426,0.2567084,-0.82722235,,0.089357376,1.3456668,0.4810356,0.99604607,0.002698273,-0.08879708,-0.05388098,-0.7763622,-0.6279798,-0.07063315,0.6302813,-0.7731471,,-0.072611354,0.27891296,-0.08144347,0.8814473,0.28352854,0.37770653,-0.24643174,0.9583567,-0.14430486,-0.4028921,0.03411825,0.91461134,,0.05506171,0.44366395,-0.37555093,0.86660665,0.45695534,-0.2004612,-0.49800116,0.76672333,-0.4051298,-0.031427935,0.45091808,0.8920119,,0.8189958213115093,-0.08605441241748371,0.15336536619000002,0.637038048305985,0.1186004817964023,0.30416851620138563,0.8702971843634397,,-0.6228924654363263,-0.684488982841141,0.12752382504,1.4491671994215478,0.22722649910992745,0.789629468470602,0.8676836793052913,,-0.06956664232292899,-0.10093020898126709,0.09392615648,-0.034016912529394594,,3.022328e-05,6.7949295e-06,-7.6293945e-06,0.99999994,-1.712516e-05,-1.3958663e-05,1.712516e-05,1.0000001,-1.5795231e-06,1.3962388e-05,1.5795231e-06,1.0,NaN,NaN,NaN,NaN,NaN
0.9947088529997927,10:27:44.344184,NaN,0,,0.028010553,0.04942336,0.07515231,-0.86698097,-0.36959866,-0.33427626,-0.49172014,0.7434401,0.45333034,0.080964044,0.5573992,-0.82628745,,0.14013256,-0.044582646,0.07218301,-0.74325013,-0.6174927,0.257453,-0.44471174,0.74350834,0.49942648,-0.49981064,0.2567065,-0.82721907,,0.089357376,1.3456668,0.4810356,0.99604607,0.002698273,-0.08879708,-0.05388098,-0.7763622,-0.6279798,-0.07063315,0.6302813,-0.7731471,,-0.072611354,0.27891296,-0.08144347,0.8814473,0.28352854,0.37770653,-0.24643174,0.9583567,-0.14430486,-0.4028921,0.03411825,0.91461134,,0.055061016,0.44366416,-0.37555093,0.86660475,0.45695582,-0.20046847,-0.4980049,0.76672214,-0.40512747,-0.03142174,0.45091966,0.8920113,,0.8189958213115093,-0.08605441241748371,0.15336536619000002,0.637038048305985,0.1186004817964023,0.30416851620138563,0.8702971843634397,,-0.6229001881692005,-0.684488982841141,0.12752382504,1.4491671994215478,0.22722649910992745,0.789629468470602,0.8676836793052913,,-0.06956664232292899,-0.10093020898126709,0.09392615648,-0.034016912529394594,,3.022328e-05,6.7949295e-06,-7.6293945e-06,0.99999994,-1.712516e-05,-1.3958663e-05,1.712516e-05,1.0000001,-1.5795231e-06,1.3962388e-05,1.5795231e-06,1.0,NaN,NaN,NaN,NaN,NaN
1.0112970379996113,10:27:44.364273,NaN,0,,0.028011987,0.049424,0.07515195,-0.8669834,-0.36960164,-0.3342666,-0.49171746,0.7434395,0.4533342,0.080953866,0.5573981,-0.8262892,,0.14013256,-0.044582646,0.07218301,-0.74325013,-0.6174927,0.257453,-0.44471174,0.74350834,0.49942648,-0.49981064,0.2567065,-0.82721907,,0.089357376,1.3456668,0.4810356,0.99604607,0.002698273,-0.08879708,-0.05388098,-0.7763622,-0.6279798,-0.07063315,0.6302813,-0.7731471,,-0.072612785,0.27891308,-0.08144276,0.8814505,0.28353164,0.37769687,-0.2464359,0.9583557,-0.14430387,-0.40288267,0.034118645,0.91461545,,0.055061016,0.44366416,-0.37555093,0.86660475,0.45695582,-0.20046847,-0.4980049,0.76672214,-0.40512747,-0.03142174,0.45091966,0.8920113,,0.8189880985786351,-0.08604668968460949,0.15336536619000002,0.637038048305985,0.1186004817964023,0.30416851620138563,0.8702971843634397,,-0.6229001881692005,-0.684488982841141,0.12752382504,1.4491671994215478,0.22722649910992745,0.789629468470602,0.8676836793052913,,-0.06956664232292899,-0.10093020898126709,0.09392615648,-0.034016912529394594,,3.022328e-05,6.7949295e-06,-7.6293945e-06,0.99999994,-1.712516e-05,-1.3958663e-05,1.712516e-05,1.0000001,-1.5795231e-06,1.3962388e-05,1.5795231e-06,1.0,NaN,NaN,NaN,NaN,NaN
1.0281358430002001,10:27:44.379633,NaN,0,,0.028012494,0.049422525,0.07515156,-0.8669828,-0.36960527,-0.33426413,-0.49171835,0.7434443,0.45332533,0.08095524,0.55738914,-0.826295,,0.14013256,-0.044582646,0.07218301,-0.74325013,-0.6174927,0.257453,-0.44471174,0.74350834,0.49942648,-0.49981064,0.2567065,-0.82721907,,0.089357376,1.3456668,0.4810356,0.99604607,0.002698273,-0.08879708,-0.05388098,-0.7763622,-0.6279798,-0.07063315,0.6302813,-0.7731471,,-0.07261319,0.27891165,-0.08144336,0.88144976,0.28353578,0.37769535,-0.24643575,0.9583542,-0.14431463,-0.40288427,0.03412847,0.9146144,,0.055061016,0.44366416,-0.37555093,0.86660475,0.45695582,-0.20046847,-0.4980049,0.76672214,-0.40512747,-0.03142174,0.45091966,0.8920113,,0.8189803758457608,-0.08605441241748371,0.15336536619000002,0.637038048305985,0.1186004817964023,0.30416851620138563,0.8702971843634397,,-0.6229001881692005,-0.684488982841141,0.12752382504,1.4491671994215478,0.22722649910992745,0.789629468470602,0.8676836793052913,,-0.06956664232292899,-0.10093020898126709,0.09392615648,-0.034016912529394594,,3.022328e-05,6.7949295e-06,-7.6293945e-06,0.99999994,-1.712516e-05,-1.3958663e-05,1.712516e-05,1.0000001,-1.5795231e-06,1.3962388e-05,1.5795231e-06,1.0,NaN,NaN,NaN,NaN,NaN
1.0467526940001335,10:27:44.395896,NaN,0,,0.028012494,0.049422525,0.07515156,-0.8669828,-0.36960527,-0.33426413,-0.49171835,0.7434443,0.45332533,0.08095524,0.55738914,-0.826295,,0.14013256,-0.044582646,0.07218301,-0.74325013,-0.6174927,0.257453,-0.44471174,0.74350834,0.49942648,-0.49981064,0.2567065,-0.82721907,,0.089357376,1.3456668,0.4810356,0.99604607,0.002698273,-0.08879708,-0.05388098,-0.7763622,-0.6279798,-0.07063315,0.6302813,-0.7731471,,-0.07261319,0.27891165,-0.08144336,0.88144976,0.28353578,0.37769535,-0.24643575,0.9583542,-0.14431463,-0.40288427,0.03412847,0.9146144,,0.055061016,0.44366416,-0.37555093,0.86660475,0.45695582,-0.20046847,-0.4980049,0.76672214,-0.40512747,-0.03142174,0.45091966,0.8920113,,0.8189803758457608,-0.08605441241748371,0.15336536619000002,0.637038048305985,0.1186004817964023,0.30416851620138563,0.8702971843634397,,-0.6229001881692005,-0.684488982841141,0.12752382504,1.4491671994215478,0.22722649910992745,0.789629468470602,0.8676836793052913,,-0.06956664232292899,-0.10093020898126709,0.09392615648,-0.034016912529394594,,3.022328e-05,6.7949295e-06,-7.6293945e-06,0.99999994,-1.712516e-05,-1.3958663e-05,1.712516e-05,1.0000001,-1.5795231e-06,1.3962388e-05,1.5795231e-06,1.0,NaN,NaN,NaN,NaN,NaN
1.0629100739997739,10:27:44.415218,NaN,0,,0.028012963,0.049423568,0.07515158,-0.8669843,-0.36960492,-0.33426055,-0.4917166,0.74344164,0.4533317,0.080949485,0.557393,-0.826293,,0.14013256,-0.044582646,0.07218301,-0.74325013,-0.6174927,0.257453,-0.44471174,0.74350834,0.49942648,-0.49981064,0.2567065,-0.82721907,,0.089357376,1.3456668,0.4810356,0.99604607,0.002698273,-0.08879708,-0.05388098,-0.7763622,-0.6279798,-0.07063315,0.6302813,-0.7731471,,-0.0726137,0.27891243,-0.08144271,0.88145167,0.28353524,0.37769127,-0.2464379,0.9583545,-0.14430876,-0.40287876,0.034123756,0.914617,,0.055061016,0.44366416,-0.37555093,0.86660475,0.45695582,-0.20046847,-0.4980049,0.76672214,-0.40512747,-0.03142174,0.45091966,0.8920113,,0.8189803758457608,-0.08604668968460949,0.15336536619000002,0.637038048305985,0.1186004817964023,0.30416851620138563,0.8702971843634397,,-0.6229001881692005,-0.684488982841141,0.12752382504,1.4491671994215478,0.22722649910992745,0.789629468470602,0.8676836793052913,,-0.06956664232292899,-0.10093020898126709,0.09392615648,-0.034016912529394594,,3.022328e-05,6.7949295e-06,-7.6293945e-06,0.99999994,-1.712516e-05,-1.3958663e-05,1.712516e-05,1.0000001,-1.5795231e-06,1.3962388e-05,1.5795231e-06,1.0,NaN,NaN,NaN,NaN,NaN
1.0820560219999606,10:27:44.434932,NaN,0,,0.028012963,0.049423568,0.07515158,-0.8669843,-0.36960492,-0.33426055,-0.4917166,0.74344164,0.4533317,0.080949485,0.557393,-0.826293,,0.14013192,-0.044582885,0.072182715,-0.7432526,-0.6174924,0.25744635,-0.44471473,0.74350786,0.49942455,-0.49980426,0.2567084,-0.82722235,,0.089357376,1.3456668,0.4810356,0.99604607,0.002698273,-0.08879708,-0.05388098,-0.7763622,-0.6279798,-0.07063315,0.6302813,-0.7731471,,-0.0726137,0.27891243,-0.08144271,0.88145167,0.28353524,0.37769127,-0.2464379,0.9583545,-0.14430876,-0.40287876,0.034123756,0.914617,,0.05506171,0.44366395,-0.37555093,0.86660665,0.45695534,-0.2004612,-0.49800116,0.76672333,-0.4051298,-0.031427935,0.45091808,0.8920119,,0.8189803758457608,-0.08604668968460949,0.15336536619000002,0.637038048305985,0.1186004817964023,0.30416851620138563,0.8702971843634397,,-0.6228924654363263,-0.684488982841141,0.12752382504,1.4491671994215478,0.22722649910992745,0.789629468470602,0.8676836793052913,,-0.06956664232292899,-0.10093020898126709,0.09392615648,-0.034016912529394594,,3.022328e-05,6.7949295e-06,-7.6293945e-06,0.99999994,-1.712516e-05,-1.3958663e-05,1.712516e-05,1.0000001,-1.5795231e-06,1.3962388e-05,1.5795231e-06,1.0,NaN,NaN,NaN,NaN,NaN
1.1020508980000159,10:27:44.449691,NaN,0,,0.028011525,0.049422942,0.07515195,-0.86698186,-0.369602,-0.3342702,-0.49171925,0.74344224,0.45332783,0.08095968,0.55739415,-0.82629126,,0.14013192,-0.044582885,0.072182715,-0.7432526,-0.6174924,0.25744635,-0.44471473,0.74350786,0.49942455,-0.49980426,0.2567084,-0.82722235,,0.089357376,1.3456668,0.4810356,0.99604607,0.002698273,-0.08879708,-0.05388098,-0.7763622,-0.6279798,-0.07063315,0.6302813,-0.7731471,,-0.07261227,0.2789123,-0.08144342,0.8814485,0.28353217,0.37770095,-0.24643373,0.9583554,-0.14430974,-0.4028882,0.034123357,0.9146129,,0.05506171,0.44366395,-0.37555093,0.86660665,0.45695534,-0.2004612,-0.49800116,0.76672333,-0.4051298,-0.031427935,0.45091808,0.8920119,,0.8189880985786351,-0.08605441241748371,0.15336536619000002,0.637038048305985,0.1186004817964023,0.30416851620138563,0.8702971843634397,,-0.6228924654363263,-0.684488982841141,0.12752382504,1.4491671994215478,0.22722649910992745,0.789629468470602,0.8676836793052913,,-0.06956664232292899,-0.10093020898126709,0.09392615648,-0.034016912529394594,,3.022328e-05,6.7949295e-06,-7.6293945e-06,0.99999994,-1.712516e-05,-1.3958663e-05,1.712516e-05,1.0000001,-1.5795231e-06,1.3962388e-05,1.5795231e-06,1.0,NaN,NaN,NaN,NaN,NaN
1.1168114179999975,10:27:44.468607,NaN,0,,0.028011011,0.049424417,0.07515234,-0.86698246,-0.3695983,-0.33427268,-0.49171838,0.7434374,0.45333672,0.08095825,0.5574031,-0.8262854,,0.14013256,-0.044582646,0.07218301,-0.74325013,-0.6174927,0.257453,-0.44471174,0.74350834,0.49942648,-0.49981064,0.2567065,-0.82721907,,0.089357376,1.3456668,0.4810356,0.99604607,0.002698273,-0.08879708,-0.05388098,-0.7763622,-0.6279798,-0.07063315,0.6302813,-0.7731471,,-0.07261187,0.27891374,-0.08144281,0.8814492,0.283528,0.37770247,-0.2464339,0.958357,-0.14429899,-0.4028866,0.034113538,0.91461396,,0.055061016,0.44366416,-0.37555093,0.86660475,0.45695582,-0.20046847,-0.4980049,0.76672214,-0.40512747,-0.03142174,0.45091966,0.8920113,,0.8189958213115093,-0.08604668968460949,0.15336536619000002,0.637038048305985,0.1186004817964023,0.30416851620138563,0.8702971843634397,,-0.6229001881692005,-0.684488982841141,0.12752382504,1.4491671994215478,0.22722649910992745,0.789629468470602,0.8676836793052913,,-0.06956664232292899,-0.10093020898126709,0.09392615648,-0.034016912529394594,,3.022328e-05,6.7949295e-06,-7.6293945e-06,0.99999994,-1.712516e-05,-1.3958663e-05,1.712516e-05,1.0000001,-1.5795231e-06,1.3962388e-05,1.5795231e-06,1.0,NaN,NaN,NaN,NaN,NaN
1.1357253879996279,10:27:44.482500,NaN,0,,0.028011011,0.049424417,0.07515234,-0.86698246,-0.3695983,-0.33427268,-0.49171838,0.7434374,0.45333672,0.08095825,0.5574031,-0.8262854,,0.14013256,-0.044582646,0.07218301,-0.74325013,-0.6174927,0.257453,-0.44471174,0.74350834,0.49942648,-0.49981064,0.2567065,-0.82721907,,0.089357376,1.3456668,0.4810356,0.99604607,0.002698273,-0.08879708,-0.05388098,-0.7763622,-0.6279798,-0.07063315,0.6302813,-0.7731471,,-0.07261187,0.27891374,-0.08144281,0.8814492,0.283528,0.37770247,-0.2464339,0.958357,-0.14429899,-0.4028866,0.034113538,0.91461396,,0.055061016,0.44366416,-0.37555093,0.86660475,0.45695582,-0.20046847,-0.4980049,0.76672214,-0.40512747,-0.03142174,0.45091966,0.8920113,,0.8189958213115093,-0.08604668968460949,0.15336536619000002,0.637038048305985,0.1186004817964023,0.30416851620138563,0.8702971843634397,,-0.6229001881692005,-0.684488982841141,0.12752382504,1.4491671994215478,0.22722649910992745,0.789629468470602,0.8676836793052913,,-0.06956664232292899,-0.10093020898126709,0.09392615648,-0.034016912529394594,,3.022328e-05,6.7949295e-06,-7.6293945e-06,0.99999994,-1.712516e-05,-1.3958663e-05,1.712516e-05,1.0000001,-1.5795231e-06,1.3962388e-05,1.5795231e-06,1.0,NaN,NaN,NaN,NaN,NaN
1.1496191420001196,10:27:44.501582,NaN,0,,0.028012963,0.049423568,0.07515158,-0.8669843,-0.36960492,-0.33426055,-0.4917166,0.74344164,0.4533317,0.080949485,0.557393,-0.826293,,0.14013256,-0.044582646,0.07218301,-0.74325013,-0.6174927,0.257453,-0.44471174,0.74350834,0.49942648,-0.49981064,0.2567065,-0.82721907,,0.089357376,1.3456668,0.4810356,0.99604607,0.002698273,-0.08879708,-0.05388098,-0.7763622,-0.6279798,-0.07063315,0.6302813,-0.7731471,,-0.0726137,0.27891243,-0.08144271,0.88145167,0.28353524,0.37769127,-0.2464379,0.9583545,-0.14430876,-0.40287876,0.034123756,0.914617,,0.055061016,0.44366416,-0.37555093,0.86660475,0.45695582,-0.20046847,-0.4980049,0.76672214,-0.40512747,-0.03142174,0.45091966,0.8920113,,0.8189803758457608,-0.08604668968460949,0.15336536619000002,0.637038048305985,0.1186004817964023,0.30416851620138563,0.8702971843634397,,-0.6229001881692005,-0.684488982841141,0.12752382504,1.4491671994215478,0.22722649910992745,0.789629468470602,0.8676836793052913,,-0.06956664232292899,-0.10093020898126709,0.09392615648,-0.034016912529394594,,3.022328e-05,6.7949295e-06,-7.6293945e-06,0.99999994,-1.712516e-05,-1.3958663e-05,1.712516e-05,1.0000001,-1.5795231e-06,1.3962388e-05,1.5795231e-06,1.0,NaN,NaN,NaN,NaN,NaN
1.168682116999662,10:27:44.517565,NaN,0,,0.028012494,0.049422525,0.07515156,-0.8669828,-0.36960527,-0.33426413,-0.49171835,0.7434443,0.45332533,0.08095524,0.55738914,-0.826295,,0.14013256,-0.044582646,0.07218301,-0.74325013,-0.6174927,0.257453,-0.44471174,0.74350834,0.49942648,-0.49981064,0.2567065,-0.82721907,,0.089357376,1.3456668,0.4810356,0.99604607,0.002698273,-0.08879708,-0.05388098,-0.7763622,-0.6279798,-0.07063315,0.6302813,-0.7731471,,-0.07261319,0.27891165,-0.08144336,0.88144976,0.28353578,0.37769535,-0.24643575,0.9583542,-0.14431463,-0.40288427,0.03412847,0.9146144,,0.055061016,0.44366416,-0.37555093,0.86660475,0.45695582,-0.20046847,-0.4980049,0.76672214,-0.40512747,-0.03142174,0.45091966,0.8920113,,0.8189803758457608,-0.08605441241748371,0.15336536619000002,0.637038048305985,0.1186004817964023,0.30416851620138563,0.8702971843634397,,-0.6229001881692005,-0.684488982841141,0.12752382504,1.4491671994215478,0.22722649910992745,0.789629468470602,0.8676836793052913,,-0.06956664232292899,-0.10093020898126709,0.09392615648,-0.034016912529394594,,3.022328e-05,6.7949295e-06,-7.6293945e-06,0.99999994,-1.712516e-05,-1.3958663e-05,1.712516e-05,1.0000001,-1.5795231e-06,1.3962388e-05,1.5795231e-06,1.0,NaN,NaN,NaN,NaN,NaN
1.1846795999999813,10:27:44.541398,NaN,0,,0.028012494,0.049422525,0.07515156,-0.8669828,-0.36960527,-0.33426413,-0.49171835,0.7434443,0.45332533,0.08095524,0.55738914,-0.826295,,0.14013256,-0.044582646,0.07218301,-0.74325013,-0.6174927,0.257453,-0.44471174,0.74350834,0.49942648,-0.49981064,0.2567065,-0.82721907,,0.089357376,1.3456668,0.4810356,0.99604607,0.002698273,-0.08879708,-0.05388098,-0.7763622,-0.6279798,-0.07063315,0.6302813,-0.7731471,,-0.07261319,0.27891165,-0.08144336,0.88144976,0.28353578,0.37769535,-0.24643575,0.9583542,-0.14431463,-0.40288427,0.03412847,0.9146144,,0.055061016,0.44366416,-0.37555093,0.86660475,0.45695582,-0.20046847,-0.4980049,0.76672214,-0.40512747,-0.03142174,0.45091966,0.8920113,,0.8189803758457608,-0.08605441241748371,0.15336536619000002,0.637038048305985,0.1186004817964023,0.30416851620138563,0.8702971843634397,,-0.6229001881692005,-0.684488982841141,0.12752382504,1.4491671994215478,0.22722649910992745,0.789629468470602,0.8676836793052913,,-0.06956664232292899,-0.10093020898126709,0.09392615648,-0.034016912529394594,,3.022328e-05,6.7949295e-06,-7.6293945e-06,0.99999994,-1.712516e-05,-1.3958663e-05,1.712516e-05,1.0000001,-1.5795231e-06,1.3962388e-05,1.5795231e-06,1.0,NaN,NaN,NaN,NaN,NaN
1.2080164110002443,10:27:44.551663,NaN,0,,0.028011525,0.049422942,0.07515195,-0.86698186,-0.369602,-0.3342702,-0.49171925,0.74344224,0.45332783,0.08095968,0.55739415,-0.82629126,,0.14013192,-0.044582885,0.072182715,-0.7432526,-0.6174924,0.25744635,-0.44471473,0.74350786,0.49942455,-0.49980426,0.2567084,-0.82722235,,0.089357376,1.3456668,0.4810356,0.99604607,0.002698273,-0.08879708,-0.05388098,-0.7763622,-0.6279798,-0.07063315,0.6302813,-0.7731471,,-0.07261227,0.2789123,-0.08144342,0.8814485,0.28353217,0.37770095,-0.24643373,0.9583554,-0.14430974,-0.4028882,0.034123357,0.9146129,,0.05506171,0.44366395,-0.37555093,0.86660665,0.45695534,-0.2004612,-0.49800116,0.76672333,-0.4051298,-0.031427935,0.45091808,0.8920119,,0.8189880985786351,-0.08605441241748371,0.15336536619000002,0.637038048305985,0.1186004817964023,0.30416851620138563,0.8702971843634397,,-0.6228924654363263,-0.684488982841141,0.12752382504,1.4491671994215478,0.22722649910992745,0.789629468470602,0.8676836793052913,,-0.06956664232292899,-0.10093020898126709,0.09392615648,-0.034016912529394594,,3.022328e-05,6.7949295e-06,-7.6293945e-06,0.99999994,-1.712516e-05,-1.3958663e-05,1.712516e-05,1.0000001,-1.5795231e-06,1.3962388e-05,1.5795231e-06,1.0,NaN,NaN,NaN,NaN,NaN
1.2187805339999613,10:27:44.574993,NaN,0,,0.028012494,0.049422525,0.07515156,-0.8669828,-0.36960527,-0.33426413,-0.49171835,0.7434443,0.45332533,0.08095524,0.55738914,-0.826295,,0.14013256,-0.044582646,0.07218301,-0.74325013,-0.6174927,0.257453,-0.44471174,0.74350834,0.49942648,-0.49981064,0.2567065,-0.82721907,,0.089357376,1.3456668,0.4810356,0.99604607,0.002698273,-0.08879708,-0.05388098,-0.7763622,-0.6279798,-0.07063315,0.6302813,-0.7731471,,-0.07261319,0.27891165,-0.08144336,0.88144976,0.28353578,0.37769535,-0.24643575,0.9583542,-0.14431463,-0.40288427,0.03412847,0.9146144,,0.055061016,0.44366416,-0.37555093,0.86660475,0.45695582,-0.20046847,-0.4980049,0.76672214,-0.40512747,-0.03142174,0.45091966,0.8920113,,0.8189803758457608,-0.08605441241748371,0.15336536619000002,0.637038048305985,0.1186004817964023,0.30416851620138563,0.8702971843634397,,-0.6229001881692005,-0.684488982841141,0.12752382504,1.4491671994215478,0.22722649910992745,0.789629468470602,0.8676836793052913,,-0.06956664232292899,-0.10093020898126709,0.09392615648,-0.034016912529394594,,3.022328e-05,6.7949295e-06,-7.6293945e-06,0.99999994,-1.712516e-05,-1.3958663e-05,1.712516e-05,1.0000001,-1.5795231e-06,1.3962388e-05,1.5795231e-06,1.0,NaN,NaN,NaN,NaN,NaN
1.2421029369997996,10:27:44.592974,NaN,0,,0.028012963,0.049423568,0.07515158,-0.8669843,-0.36960492,-0.33426055,-0.4917166,0.74344164,0.4533317,0.080949485,0.557393,-0.826293,,0.14013192,-0.044582885,0.072182715,-0.7432526,-0.6174924,0.25744635,-0.44471473,0.74350786,0.49942455,-0.49980426,0.2567084,-0.82722235,,0.089357376,1.3456668,0.4810356,0.99604607,0.002698273,-0.08879708,-0.05388098,-0.7763622,-0.6279798,-0.07063315,0.6302813,-0.7731471,,-0.0726137,0.27891243,-0.08144271,0.88145167,0.28353524,0.37769127,-0.2464379,0.9583545,-0.14430876,-0.40287876,0.034123756,0.914617,,0.05506171,0.44366395,-0.37555093,0.86660665,0.45695534,-0.2004612,-0.49800116,0.76672333,-0.4051298,-0.031427935,0.45091808,0.8920119,,0.8189803758457608,-0.08604668968460949,0.15336536619000002,0.637038048305985,0.1186004817964023,0.30416851620138563,0.8702971843634397,,-0.6228924654363263,-0.684488982841141,0.12752382504,1.4491671994215478,0.22722649910992745,0.789629468470602,0.8676836793052913,,-0.06956664232292899,-0.10093020898126709,0.09392615648,-0.034016912529394594,,3.022328e-05,6.7949295e-06,-7.6293945e-06,0.99999994,-1.712516e-05,-1.3958663e-05,1.712516e-05,1.0000001,-1.5795231e-06,1.3962388e-05,1.5795231e-06,1.0,NaN,NaN,NaN,NaN,NaN
1.2600837840000167,10:27:44.615532,NaN,0,,0.028012963,0.049423568,0.07515158,-0.8669843,-0.36960492,-0.33426055,-0.4917166,0.74344164,0.4533317,0.080949485,0.557393,-0.826293,,0.14013256,-0.044582646,0.07218301,-0.74325013,-0.6174927,0.257453,-0.44471174,0.74350834,0.49942648,-0.49981064,0.2567065,-0.82721907,,0.089357376,1.3456668,0.4810356,0.99604607,0.002698273,-0.08879708,-0.05388098,-0.7763622,-0.6279798,-0.07063315,0.6302813,-0.7731471,,-0.0726137,0.27891243,-0.08144271,0.88145167,0.28353524,0.37769127,-0.2464379,0.9583545,-0.14430876,-0.40287876,0.034123756,0.914617,,0.055061016,0.44366416,-0.37555093,0.86660475,0.45695582,-0.20046847,-0.4980049,0.76672214,-0.40512747,-0.03142174,0.45091966,0.8920113,,0.8189803758457608,-0.08604668968460949,0.15336536619000002,0.637038048305985,0.1186004817964023,0.30416851620138563,0.8702971843634397,,-0.6229001881692005,-0.684488982841141,0.12752382504,1.4491671994215478,0.22722649910992745,0.789629468470602,0.8676836793052913,,-0.06956664232292899,-0.10093020898126709,0.09392615648,-0.034016912529394594,,3.022328e-05,6.7949295e-06,-7.6293945e-06,0.99999994,-1.712516e-05,-1.3958663e-05,1.712516e-05,1.0000001,-1.5795231e-06,1.3962388e-05,1.5795231e-06,1.0,NaN,NaN,NaN,NaN,NaN
1.2826380520000384,10:27:44.632608,NaN,0,,0.028012494,0.049422525,0.07515156,-0.8669828,-0.36960527,-0.33426413,-0.49171835,0.7434443,0.45332533,0.08095524,0.55738914,-0.826295,,0.14013256,-0.044582646,0.07218301,-0.74325013,-0.6174927,0.257453,-0.44471174,0.74350834,0.49942648,-0.49981064,0.2567065,-0.82721907,,0.089357376,1.3456668,0.4810356,0.99604607,0.002698273,-0.08879708,-0.05388098,-0.7763622,-0.6279798,-0.07063315,0.6302813,-0.7731471,,-0.07261319,0.27891165,-0.08144336,0.88144976,0.28353578,0.37769535,-0.24643575,0.9583542,-0.14431463,-0.40288427,0.03412847,0.9146144,,0.055061016,0.44366416,-0.37555093,0.86660475,0.45695582,-0.20046847,-0.4980049,0.76672214,-0.40512747,-0.03142174,0.45091966,0.8920113,,0.8189803758457608,-0.08605441241748371,0.15336536619000002,0.637038048305985,0.1186004817964023,0.30416851620138563,0.8702971843634397,,-0.6229001881692005,-0.684488982841141,0.12752382504,1.4491671994215478,0.22722649910992745,0.789629468470602,0.8676836793052913,,-0.06956664232292899,-0.10093020898126709,0.09392615648,-0.034016912529394594,,3.022328e-05,6.7949295e-06,-7.6293945e-06,0.99999994,-1.712516e-05,-1.3958663e-05,1.712516e-05,1.0000001,-1.5795231e-06,1.3962388e-05,1.5795231e-06,1.0,NaN,NaN,NaN,NaN,NaN
1.299713657999746,10:27:44.648836,NaN,0,,0.028012494,0.049422525,0.07515156,-0.8669828,-0.36960527,-0.33426413,-0.49171835,0.7434443,0.45332533,0.08095524,0.55738914,-0.826295,,0.14013256,-0.044582646,0.07218301,-0.74325013,-0.6174927,0.257453,-0.44471174,0.74350834,0.49942648,-0.49981064,0.2567065,-0.82721907,,0.089357376,1.3456668,0.4810356,0.99604607,0.002698273,-0.08879708,-0.05388098,-0.7763622,-0.6279798,-0.07063315,0.6302813,-0.7731471,,-0.07261319,0.27891165,-0.08144336,0.88144976,0.28353578,0.37769535,-0.24643575,0.9583542,-0.14431463,-0.40288427,0.03412847,0.9146144,,0.055061016,0.44366416,-0.37555093,0.86660475,0.45695582,-0.20046847,-0.4980049,0.76672214,-0.40512747,-0.03142174,0.45091966,0.8920113,,0.8189803758457608,-0.08605441241748371,0.15336536619000002,0.637038048305985,0.1186004817964023,0.30416851620138563,0.8702971843634397,,-0.6229001881692005,-0.684488982841141,0.12752382504,1.4491671994215478,0.22722649910992745,0.789629468470602,0.8676836793052913,,-0.06956664232292899,-0.10093020898126709,0.09392615648,-0.034016912529394594,,3.022328e-05,6.7949295e-06,-7.6293945e-06,0.99999994,-1.712516e-05,-1.3958663e-05,1.712516e-05,1.0000001,-1.5795231e-06,1.3962388e-05,1.5795231e-06,1.0,NaN,NaN,NaN,NaN,NaN
1.3159414319998177,10:27:44.672677,NaN,0,,0.028011987,0.049424,0.07515195,-0.8669834,-0.36960164,-0.3342666,-0.49171746,0.7434395,0.4533342,0.080953866,0.5573981,-0.8262892,,0.14013256,-0.044582646,0.07218301,-0.74325013,-0.6174927,0.257453,-0.44471174,0.74350834,0.49942648,-0.49981064,0.2567065,-0.82721907,,0.089357376,1.3456668,0.4810356,0.99604607,0.002698273,-0.08879708,-0.05388098,-0.7763622,-0.6279798,-0.07063315,0.6302813,-0.7731471,,-0.072612785,0.27891308,-0.08144276,0.8814505,0.28353164,0.37769687,-0.2464359,0.9583557,-0.14430387,-0.40288267,0.034118645,0.91461545,,0.055061016,0.44366416,-0.37555093,0.86660475,0.45695582,-0.20046847,-0.4980049,0.76672214,-0.40512747,-0.03142174,0.45091966,0.8920113,,0.8189880985786351,-0.08604668968460949,0.15336536619000002,0.637038048305985,0.1186004817964023,0.30416851620138563,0.8702971843634397,,-0.6229001881692005,-0.684488982841141,0.12752382504,1.4491671994215478,0.22722649910992745,0.789629468470602,0.8676836793052913,,-0.06956664232292899,-0.10093020898126709,0.09392615648,-0.034016912529394594,,3.022328e-05,6.7949295e-06,-7.6293945e-06,0.99999994,-1.712516e-05,-1.3958663e-05,1.712516e-05,1.0000001,-1.5795231e-06,1.3962388e-05,1.5795231e-06,1.0,NaN,NaN,NaN,NaN,NaN
1.3381760459997167,10:27:44.691213,NaN,0,,0.028012494,0.049422525,0.07515156,-0.8669828,-0.36960527,-0.33426413,-0.49171835,0.7434443,0.45332533,0.08095524,0.55738914,-0.826295,,0.14013256,-0.044582646,0.07218301,-0.74325013,-0.6174927,0.257453,-0.44471174,0.74350834,0.49942648,-0.49981064,0.2567065,-0.82721907,,0.089357376,1.3456668,0.4810356,0.99604607,0.002698273,-0.08879708,-0.05388098,-0.7763622,-0.6279798,-0.07063315,0.6302813,-0.7731471,,-0.07261319,0.27891165,-0.08144336,0.88144976,0.28353578,0.37769535,-0.24643575,0.9583542,-0.14431463,-0.40288427,0.03412847,0.9146144,,0.055061016,0.44366416,-0.37555093,0.86660475,0.45695582,-0.20046847,-0.4980049,0.76672214,-0.40512747,-0.03142174,0.45091966,0.8920113,,0.8189803758457608,-0.08605441241748371,0.15336536619000002,0.637038048305985,0.1186004817964023,0.30416851620138563,0.8702971843634397,,-0.6229001881692005,-0.684488982841141,0.12752382504,1.4491671994215478,0.22722649910992745,0.789629468470602,0.8676836793052913,,-0.06956664232292899,-0.10093020898126709,0.09392615648,-0.034016912529394594,,3.022328e-05,6.7949295e-06,-7.6293945e-06,0.99999994,-1.712516e-05,-1.3958663e-05,1.712516e-05,1.0000001,-1.5795231e-06,1.3962388e-05,1.5795231e-06,1.0,NaN,NaN,NaN,NaN,NaN
1.3583070429995132,10:27:44.707411,NaN,0,,0.028012494,0.049422525,0.07515156,-0.8669828,-0.36960527,-0.33426413,-0.49171835,0.7434443,0.45332533,0.08095524,0.55738914,-0.826295,,0.14013256,-0.044582646,0.07218301,-0.74325013,-0.6174927,0.257453,-0.44471174,0.74350834,0.49942648,-0.49981064,0.2567065,-0.82721907,,0.089357376,1.3456668,0.4810356,0.99604607,0.002698273,-0.08879708,-0.05388098,-0.7763622,-0.6279798,-0.07063315,0.6302813,-0.7731471,,-0.07261319,0.27891165,-0.08144336,0.88144976,0.28353578,0.37769535,-0.24643575,0.9583542,-0.14431463,-0.40288427,0.03412847,0.9146144,,0.055061016,0.44366416,-0.37555093,0.86660475,0.45695582,-0.20046847,-0.4980049,0.76672214,-0.40512747,-0.03142174,0.45091966,0.8920113,,0.8189803758457608,-0.08605441241748371,0.15336536619000002,0.637038048305985,0.1186004817964023,0.30416851620138563,0.8702971843634397,,-0.6229001881692005,-0.684488982841141,0.12752382504,1.4491671994215478,0.22722649910992745,0.789629468470602,0.8676836793052913,,-0.06956664232292899,-0.10093020898126709,0.09392615648,-0.034016912529394594,,3.022328e-05,6.7949295e-06,-7.6293945e-06,0.99999994,-1.712516e-05,-1.3958663e-05,1.712516e-05,1.0000001,-1.5795231e-06,1.3962388e-05,1.5795231e-06,1.0,NaN,NaN,NaN,NaN,NaN
1.374507126000026,10:27:44.729882,NaN,0,,0.028012494,0.049422525,0.07515156,-0.8669828,-0.36960527,-0.33426413,-0.49171835,0.7434443,0.45332533,0.08095524,0.55738914,-0.826295,,0.14013192,-0.044582885,0.072182715,-0.7432526,-0.6174924,0.25744635,-0.44471473,0.74350786,0.49942455,-0.49980426,0.2567084,-0.82722235,,0.089357376,1.3456668,0.4810356,0.99604607,0.002698273,-0.08879708,-0.05388098,-0.7763622,-0.6279798,-0.07063315,0.6302813,-0.7731471,,-0.07261319,0.27891165,-0.08144336,0.88144976,0.28353578,0.37769535,-0.24643575,0.9583542,-0.14431463,-0.40288427,0.03412847,0.9146144,,0.05506171,0.44366395,-0.37555093,0.86660665,0.45695534,-0.2004612,-0.49800116,0.76672333,-0.4051298,-0.031427935,0.45091808,0.8920119,,0.8189803758457608,-0.08605441241748371,0.15336536619000002,0.637038048305985,0.1186004817964023,0.30416851620138563,0.8702971843634397,,-0.6228924654363263,-0.684488982841141,0.12752382504,1.4491671994215478,0.22722649910992745,0.789629468470602,0.8676836793052913,,-0.06956664232292899,-0.10093020898126709,0.09392615648,-0.034016912529394594,,3.022328e-05,6.7949295e-06,-7.6293945e-06,0.99999994,-1.712516e-05,-1.3958663e-05,1.712516e-05,1.0000001,-1.5795231e-06,1.3962388e-05,1.5795231e-06,1.0,NaN,NaN,NaN,NaN,NaN
1.3946805309997217,10:27:44.746116,NaN,0,,0.028012963,0.049423568,0.07515158,-0.8669843,-0.36960492,-0.33426055,-0.4917166,0.74344164,0.4533317,0.080949485,0.557393,-0.826293,,0.14013192,-0.044582885,0.072182715,-0.7432526,-0.6174924,0.25744635,-0.44471473,0.74350786,0.49942455,-0.49980426,0.2567084,-0.82722235,,0.089357376,1.3456668,0.4810356,0.99604607,0.002698273,-0.08879708,-0.05388098,-0.7763622,-0.6279798,-0.07063315,0.6302813,-0.7731471,,-0.0726137,0.27891243,-0.08144271,0.88145167,0.28353524,0.37769127,-0.2464379,0.9583545,-0.14430876,-0.40287876,0.034123756,0.914617,,0.05506171,0.44366395,-0.37555093,0.86660665,0.45695534,-0.2004612,-0.49800116,0.76672333,-0.4051298,-0.031427935,0.45091808,0.8920119,,0.8189803758457608,-0.08604668968460949,0.15336536619000002,0.637038048305985,0.1186004817964023,0.30416851620138563,0.8702971843634397,,-0.6228924654363263,-0.684488982841141,0.12752382504,1.4491671994215478,0.22722649910992745,0.789629468470602,0.8676836793052913,,-0.06956664232292899,-0.10093020898126709,0.09392615648,-0.034016912529394594,,3.022328e-05,6.7949295e-06,-7.6293945e-06,0.99999994,-1.712516e-05,-1.3958663e-05,1.712516e-05,1.0000001,-1.5795231e-06,1.3962388e-05,1.5795231e-06,1.0,NaN,NaN,NaN,NaN,NaN
1.413235689999965,10:27:44.765019,NaN,0,,0.028011987,0.049424,0.07515195,-0.8669834,-0.36960164,-0.3342666,-0.49171746,0.7434395,0.4533342,0.080953866,0.5573981,-0.8262892,,0.14013204,-0.044583213,0.072182894,-0.7433041,-0.6173733,0.25758332,-0.44453534,0.7435955,0.49945393,-0.49988732,0.2567413,-0.8271619,,0.089357376,1.3456668,0.4810356,0.99604607,0.002698273,-0.08879708,-0.05388098,-0.7763622,-0.6279798,-0.07063315,0.6302813,-0.7731471,,-0.072612785,0.27891308,-0.08144276,0.8814505,0.28353164,0.37769687,-0.2464359,0.9583557,-0.14430387,-0.40288267,0.034118645,0.91461545,,0.055061635,0.44366384,-0.3755513,0.8666433,0.4568212,-0.20060849,-0.49794963,0.76677585,-0.40509376,-0.031233663,0.45096472,0.89199513,,0.8189880985786351,-0.08604668968460949,0.15336536619000002,0.637038048305985,0.1186004817964023,0.30416851620138563,0.8702971843634397,,-0.6228924654363263,-0.684488982841141,0.12752382504,1.4493768893650323,0.22722649910992745,0.789629468470602,0.8676836793052913,,-0.06956664232292899,-0.10093020898126709,0.09392615648,-0.034016912529394594,,3.022328e-05,6.7949295e-06,-7.6293945e-06,0.99999994,-1.712516e-05,-1.3958663e-05,1.712516e-05,1.0000001,-1.5795231e-06,1.3962388e-05,1.5795231e-06,1.0,NaN,NaN,NaN,NaN,NaN
