AlexandreBanks6/ExpertPlaybackApp/resources/Motions/PC1/Data_PC1_13.csv
Task Time,PC1 Time,PC2 Time,Gaze Calib,s_T_psm1,Tx,Ty,Tz,R00,R01,R02,R10,R11,R12,R20,R21,R22,s_T_psm3,Tx,Ty,Tz,R00,R01,R02,R10,R11,R12,R20,R21,R22,cart_T_ecm,Tx,Ty,Tz,R00,R01,R02,R10,R11,R12,R20,R21,R22,ecm_T_psm1,Tx,Ty,Tz,R00,R01,R02,R10,R11,R12,R20,R21,R22,ecm_T_psm3,Tx,Ty,Tz,R00,R01,R02,R10,R11,R12,R20,R21,R22,psm1_joints,q1,q2,q3,q4,q5,q6,jaw,psm3_joints,q1,q2,q3,q4,q5,q6,jaw,ecm_joints,q1,q2,q3,q4,ecmi_T_ecm,Tx,Ty,Tz,R00,R01,R02,R10,R11,R12,R20,R21,R22
""
lci_T_si,,,,,-0.06367827,0.041068945,0.28255922,0.9992704,0.03685295,0.01002713,0.03652245,-0.8452582,-0.53310853,-0.011171109,0.5330858,-0.84598744
rci_T_si,,,,,-0.0734963,0.045730505,0.2927543,0.9995823,0.020089848,0.020776475,0.02819598,-0.835699,-0.5484634,0.006344333,0.54882014,-0.8359164
ecm_T_lc,,,,,-4.4071905e-05,-0.000346569,-0.018408367,-0.99912006,0.030754568,0.028518897,-0.03198801,-0.99852574,-0.04385276,0.027128182,-0.044726435,0.9986309
ecm_T_rc,,,,,0.00057554984,0.029174112,-0.0048684436,-0.9955508,-0.05274362,-0.0780816,0.048632085,-0.9973746,0.05365466,-0.080706544,0.04961867,0.9955021
cart_T_ecmi,,,,,0.11845686,1.34919,0.5042885,0.99987483,0.01554816,-0.002930432,0.011554975,-0.8441108,-0.5360443,-0.010808112,0.5359433,-0.84418476
ecmac_T_ecmrep_psm1,,,,,0.01054635,-0.16077532,-0.36252275,0.99941266,0.033976838,-0.00445814,-0.034195352,0.99728703,-0.06518591,0.0022312342,0.06530008,0.9978632
ecmac_T_ecmrep_psm3,,,,,-0.062502585,-0.33090636,-0.6455163,0.9892337,-0.041923903,0.14021085,0.011498464,0.9773923,0.21112084,-0.14589202,-0.20723563,0.9673515
""
0,10:06:03.837775,NaN,0,,0.54654175,0.17157948,0.14523435,0.05959316,0.6403568,0.7657622,-0.49378198,-0.64778775,0.5801295,0.86754143,-0.41269138,0.27759293,,NaN,NaN,NaN,NaN,NaN,NaN,NaN,NaN,NaN,NaN,NaN,NaN,,0.11841586,1.3491911,0.5042916,0.9998743,0.015588849,-0.0029045935,0.011603171,-0.84411,-0.5360444,-0.010808112,0.5359433,-0.84418476,,-0.5080418,0.34339914,-0.11642861,-0.08078191,-0.61277586,-0.786117,0.02160863,-0.78958595,0.6132594,-0.9964976,0.03255335,0.0770255,,NaN,NaN,NaN,NaN,NaN,NaN,NaN,NaN,NaN,NaN,NaN,NaN,,0.46687009317836853,-0.059997911699850213,0.20325567942000003,-0.959750871328668,-0.269583814037214,-0.943604450569129,0.029401931904170286,,NaN,NaN,NaN,NaN,NaN,NaN,NaN,,-0.027678740275065075,-0.22002929547579514,0.08853618955999999,0.016354284869901245,,-4.1007996e-05,1.1920929e-07,-3.0994415e-06,1.0,4.069181e-05,2.5833957e-05,-4.069181e-05,1.0,5.364418e-07,-2.5833957e-05,-5.364418e-07,1.0
0.012139016762375832,10:06:03.865489,10:05:10.894582,0,,0.54654175,0.17157948,0.14523435,0.05959316,0.6403568,0.7657622,-0.49378198,-0.64778775,0.5801295,0.86754143,-0.41269138,0.27759293,,NaN,NaN,NaN,NaN,NaN,NaN,NaN,NaN,NaN,NaN,NaN,NaN,,0.11841586,1.3491911,0.5042916,0.9998743,0.015588849,-0.0029045935,0.011603171,-0.84411,-0.5360444,-0.010808112,0.5359433,-0.84418476,,-0.5080418,0.34339914,-0.11642861,-0.08078191,-0.61277586,-0.786117,0.02160863,-0.78958595,0.6132594,-0.9964976,0.03255335,0.0770255,,NaN,NaN,NaN,NaN,NaN,NaN,NaN,NaN,NaN,NaN,NaN,NaN,,0.46687009317836853,-0.059997911699850213,0.20325567942000003,-0.959750871328668,-0.269583814037214,-0.943604450569129,0.029401931904170286,,NaN,NaN,NaN,NaN,NaN,NaN,NaN,,-0.027678740275065075,-0.22002929547579514,0.08853618955999999,0.016354284869901245,,-4.1007996e-05,1.1920929e-07,-3.0994415e-06,1.0,4.069181e-05,2.5833957e-05,-4.069181e-05,1.0,5.364418e-07,-2.5833957e-05,-5.364418e-07,1.0
0.03983375197276473,10:06:03.884332,10:05:10.894582,0,,0.54654175,0.17157948,0.14523435,0.05959316,0.6403568,0.7657622,-0.49378198,-0.64778775,0.5801295,0.86754143,-0.41269138,0.27759293,,NaN,NaN,NaN,NaN,NaN,NaN,NaN,NaN,NaN,NaN,NaN,NaN,,0.11841586,1.3491911,0.5042916,0.9998743,0.015588849,-0.0029045935,0.011603171,-0.84411,-0.5360444,-0.010808112,0.5359433,-0.84418476,,-0.5080418,0.34339914,-0.11642861,-0.08078191,-0.61277586,-0.786117,0.02160863,-0.78958595,0.6132594,-0.9964976,0.03255335,0.0770255,,NaN,NaN,NaN,NaN,NaN,NaN,NaN,NaN,NaN,NaN,NaN,NaN,,0.46687009317836853,-0.059997911699850213,0.20325567942000003,-0.959750871328668,-0.269583814037214,-0.943604450569129,0.029401931904170286,,NaN,NaN,NaN,NaN,NaN,NaN,NaN,,-0.027678740275065075,-0.22002929547579514,0.08853618955999999,0.016354284869901245,,-4.1007996e-05,1.1920929e-07,-3.0994415e-06,1.0,4.069181e-05,2.5833957e-05,-4.069181e-05,1.0,5.364418e-07,-2.5833957e-05,-5.364418e-07,1.0
0.05869296099990606,10:06:03.904030,10:05:10.894582,0,,0.54654175,0.17157948,0.14523435,0.05959316,0.6403568,0.7657622,-0.49378198,-0.64778775,0.5801295,0.86754143,-0.41269138,0.27759293,,NaN,NaN,NaN,NaN,NaN,NaN,NaN,NaN,NaN,NaN,NaN,NaN,,0.11841586,1.3491911,0.5042916,0.9998743,0.015588849,-0.0029045935,0.011603171,-0.84411,-0.5360444,-0.010808112,0.5359433,-0.84418476,,-0.5080418,0.34339914,-0.11642861,-0.08078191,-0.61277586,-0.786117,0.02160863,-0.78958595,0.6132594,-0.9964976,0.03255335,0.0770255,,NaN,NaN,NaN,NaN,NaN,NaN,NaN,NaN,NaN,NaN,NaN,NaN,,0.46687009317836853,-0.059997911699850213,0.20325567942000003,-0.959750871328668,-0.269583814037214,-0.943604450569129,0.029401931904170286,,NaN,NaN,NaN,NaN,NaN,NaN,NaN,,-0.027678740275065075,-0.22002929547579514,0.08853618955999999,0.016354284869901245,,-4.1007996e-05,1.1920929e-07,-3.0994415e-06,1.0,4.069181e-05,2.5833957e-05,-4.069181e-05,1.0,5.364418e-07,-2.5833957e-05,-5.364418e-07,1.0
0.07837043795734644,10:06:03.920386,10:05:10.894582,0,,0.54654175,0.17157948,0.14523435,0.05959316,0.6403568,0.7657622,-0.49378198,-0.64778775,0.5801295,0.86754143,-0.41269138,0.27759293,,NaN,NaN,NaN,NaN,NaN,NaN,NaN,NaN,NaN,NaN,NaN,NaN,,0.11841586,1.3491911,0.5042916,0.9998743,0.015588849,-0.0029045935,0.011603171,-0.84411,-0.5360444,-0.010808112,0.5359433,-0.84418476,,-0.5080418,0.34339914,-0.11642861,-0.08078191,-0.61277586,-0.786117,0.02160863,-0.78958595,0.6132594,-0.9964976,0.03255335,0.0770255,,NaN,NaN,NaN,NaN,NaN,NaN,NaN,NaN,NaN,NaN,NaN,NaN,,0.46687009317836853,-0.059997911699850213,0.20325567942000003,-0.959750871328668,-0.269583814037214,-0.943604450569129,0.029401931904170286,,NaN,NaN,NaN,NaN,NaN,NaN,NaN,,-0.027678740275065075,-0.22002929547579514,0.08853618955999999,0.016354284869901245,,-4.1007996e-05,1.1920929e-07,-3.0994415e-06,1.0,4.069181e-05,2.5833957e-05,-4.069181e-05,1.0,5.364418e-07,-2.5833957e-05,-5.364418e-07,1.0
0.09475646214559674,10:06:03.938515,10:05:10.973952,0,,0.54654175,0.17157948,0.14523435,0.05959316,0.6403568,0.7657622,-0.49378198,-0.64778775,0.5801295,0.86754143,-0.41269138,0.27759293,,NaN,NaN,NaN,NaN,NaN,NaN,NaN,NaN,NaN,NaN,NaN,NaN,,0.11841586,1.3491911,0.5042916,0.9998743,0.015588849,-0.0029045935,0.011603171,-0.84411,-0.5360444,-0.010808112,0.5359433,-0.84418476,,-0.5080418,0.34339914,-0.11642861,-0.08078191,-0.61277586,-0.786117,0.02160863,-0.78958595,0.6132594,-0.9964976,0.03255335,0.0770255,,NaN,NaN,NaN,NaN,NaN,NaN,NaN,NaN,NaN,NaN,NaN,NaN,,0.46687009317836853,-0.059997911699850213,0.20325567942000003,-0.959750871328668,-0.269583814037214,-0.943604450569129,0.029401931904170286,,NaN,NaN,NaN,NaN,NaN,NaN,NaN,,-0.027678740275065075,-0.22002929547579514,0.08853618955999999,0.016354284869901245,,-4.1007996e-05,1.1920929e-07,-3.0994415e-06,1.0,4.069181e-05,2.5833957e-05,-4.069181e-05,1.0,5.364418e-07,-2.5833957e-05,-5.364418e-07,1.0
0.11223169416189194,10:06:03.954679,10:05:10.973952,0,,0.54654175,0.17157948,0.14523435,0.05959316,0.6403568,0.7657622,-0.49378198,-0.64778775,0.5801295,0.86754143,-0.41269138,0.27759293,,NaN,NaN,NaN,NaN,NaN,NaN,NaN,NaN,NaN,NaN,NaN,NaN,,0.11841586,1.3491911,0.5042916,0.9998743,0.015588849,-0.0029045935,0.011603171,-0.84411,-0.5360444,-0.010808112,0.5359433,-0.84418476,,-0.5080418,0.34339914,-0.11642861,-0.08078191,-0.61277586,-0.786117,0.02160863,-0.78958595,0.6132594,-0.9964976,0.03255335,0.0770255,,NaN,NaN,NaN,NaN,NaN,NaN,NaN,NaN,NaN,NaN,NaN,NaN,,0.46687009317836853,-0.059997911699850213,0.20325567942000003,-0.959750871328668,-0.269583814037214,-0.943604450569129,0.029401931904170286,,NaN,NaN,NaN,NaN,NaN,NaN,NaN,,-0.027678740275065075,-0.22002929547579514,0.08853618955999999,0.016354284869901245,,-4.1007996e-05,1.1920929e-07,-3.0994415e-06,1.0,4.069181e-05,2.5833957e-05,-4.069181e-05,1.0,5.364418e-07,-2.5833957e-05,-5.364418e-07,1.0
0.12902918690815568,10:06:03.976127,10:05:10.973952,0,,0.54654235,0.17157954,0.14523578,0.05958665,0.6403603,0.76575994,-0.49378216,-0.6477874,0.5801298,0.86754173,-0.4126866,0.277599,,NaN,NaN,NaN,NaN,NaN,NaN,NaN,NaN,NaN,NaN,NaN,NaN,,0.11841586,1.3491911,0.5042916,0.9998743,0.015588849,-0.0029045935,0.011603171,-0.84411,-0.5360444,-0.010808112,0.5359433,-0.84418476,,-0.5080424,0.3433999,-0.116429746,-0.08077541,-0.6127795,-0.78611493,0.021608835,-0.7895833,0.6132628,-0.99649805,0.032549523,0.07702037,,NaN,NaN,NaN,NaN,NaN,NaN,NaN,NaN,NaN,NaN,NaN,NaN,,0.4668623704454943,-0.059997911699850213,0.20325567942000003,-0.959750871328668,-0.269583814037214,-0.943604450569129,0.029401931904170286,,NaN,NaN,NaN,NaN,NaN,NaN,NaN,,-0.027678740275065075,-0.22002929547579514,0.08853618955999999,0.016354284869901245,,-4.1007996e-05,1.1920929e-07,-3.0994415e-06,1.0,4.069181e-05,2.5833957e-05,-4.069181e-05,1.0,5.364418e-07,-2.5833957e-05,-5.364418e-07,1.0
0.15047528315335512,10:06:03.997254,10:05:10.973952,0,,0.54654175,0.17157948,0.14523435,0.05959316,0.6403568,0.7657622,-0.49378198,-0.64778775,0.5801295,0.86754143,-0.41269138,0.27759293,,NaN,NaN,NaN,NaN,NaN,NaN,NaN,NaN,NaN,NaN,NaN,NaN,,0.11841586,1.3491911,0.5042916,0.9998743,0.015588849,-0.0029045935,0.011603171,-0.84411,-0.5360444,-0.010808112,0.5359433,-0.84418476,,-0.5080418,0.34339914,-0.11642861,-0.08078191,-0.61277586,-0.786117,0.02160863,-0.78958595,0.6132594,-0.9964976,0.03255335,0.0770255,,NaN,NaN,NaN,NaN,NaN,NaN,NaN,NaN,NaN,NaN,NaN,NaN,,0.46687009317836853,-0.059997911699850213,0.20325567942000003,-0.959750871328668,-0.269583814037214,-0.943604450569129,0.029401931904170286,,NaN,NaN,NaN,NaN,NaN,NaN,NaN,,-0.027678740275065075,-0.22002929547579514,0.08853618955999999,0.016354284869901245,,-4.1007996e-05,1.1920929e-07,-3.0994415e-06,1.0,4.069181e-05,2.5833957e-05,-4.069181e-05,1.0,5.364418e-07,-2.5833957e-05,-5.364418e-07,1.0
0.1716008917428553,10:06:04.015666,10:05:10.973952,0,,0.54654175,0.17157948,0.14523435,0.05959316,0.6403568,0.7657622,-0.49378198,-0.64778775,0.5801295,0.86754143,-0.41269138,0.27759293,,NaN,NaN,NaN,NaN,NaN,NaN,NaN,NaN,NaN,NaN,NaN,NaN,,0.11841586,1.3491911,0.5042916,0.9998743,0.015588849,-0.0029045935,0.011603171,-0.84411,-0.5360444,-0.010808112,0.5359433,-0.84418476,,-0.5080418,0.34339914,-0.11642861,-0.08078191,-0.61277586,-0.786117,0.02160863,-0.78958595,0.6132594,-0.9964976,0.03255335,0.0770255,,NaN,NaN,NaN,NaN,NaN,NaN,NaN,NaN,NaN,NaN,NaN,NaN,,0.46687009317836853,-0.059997911699850213,0.20325567942000003,-0.959750871328668,-0.269583814037214,-0.943604450569129,0.029401931904170286,,NaN,NaN,NaN,NaN,NaN,NaN,NaN,,-0.027678740275065075,-0.22002929547579514,0.08853618955999999,0.016354284869901245,,-4.1007996e-05,1.1920929e-07,-3.0994415e-06,1.0,4.069181e-05,2.5833957e-05,-4.069181e-05,1.0,5.364418e-07,-2.5833957e-05,-5.364418e-07,1.0
0.19002564391121268,10:06:04.031433,10:05:10.973952,0,,0.54654235,0.17157954,0.14523578,0.05958665,0.6403603,0.76575994,-0.49378216,-0.6477874,0.5801298,0.86754173,-0.4126866,0.277599,,NaN,NaN,NaN,NaN,NaN,NaN,NaN,NaN,NaN,NaN,NaN,NaN,,0.11841586,1.3491911,0.5042916,0.9998743,0.015588849,-0.0029045935,0.011603171,-0.84411,-0.5360444,-0.010808112,0.5359433,-0.84418476,,-0.5080424,0.3433999,-0.116429746,-0.08077541,-0.6127795,-0.78611493,0.021608835,-0.7895833,0.6132628,-0.99649805,0.032549523,0.07702037,,NaN,NaN,NaN,NaN,NaN,NaN,NaN,NaN,NaN,NaN,NaN,NaN,,0.4668623704454943,-0.059997911699850213,0.20325567942000003,-0.959750871328668,-0.269583814037214,-0.943604450569129,0.029401931904170286,,NaN,NaN,NaN,NaN,NaN,NaN,NaN,,-0.027678740275065075,-0.22002929547579514,0.08853618955999999,0.016354284869901245,,-4.1007996e-05,1.1920929e-07,-3.0994415e-06,1.0,4.069181e-05,2.5833957e-05,-4.069181e-05,1.0,5.364418e-07,-2.5833957e-05,-5.364418e-07,1.0
0.2057762248441577,10:06:04.048646,10:05:11.085947,0,,0.54654235,0.17157954,0.14523578,0.05958665,0.6403603,0.76575994,-0.49378216,-0.6477874,0.5801298,0.86754173,-0.4126866,0.277599,,NaN,NaN,NaN,NaN,NaN,NaN,NaN,NaN,NaN,NaN,NaN,NaN,,0.11841586,1.3491911,0.5042916,0.9998743,0.015588849,-0.0029045935,0.011603171,-0.84411,-0.5360444,-0.010808112,0.5359433,-0.84418476,,-0.5080424,0.3433999,-0.116429746,-0.08077541,-0.6127795,-0.78611493,0.021608835,-0.7895833,0.6132628,-0.99649805,0.032549523,0.07702037,,NaN,NaN,NaN,NaN,NaN,NaN,NaN,NaN,NaN,NaN,NaN,NaN,,0.4668623704454943,-0.059997911699850213,0.20325567942000003,-0.959750871328668,-0.269583814037214,-0.943604450569129,0.029401931904170286,,NaN,NaN,NaN,NaN,NaN,NaN,NaN,,-0.027678740275065075,-0.22002929547579514,0.08853618955999999,0.016354284869901245,,-4.1007996e-05,1.1920929e-07,-3.0994415e-06,1.0,4.069181e-05,2.5833957e-05,-4.069181e-05,1.0,5.364418e-07,-2.5833957e-05,-5.364418e-07,1.0
0.22121219988912344,10:06:04.066824,10:05:11.085947,0,,0.54654235,0.17157954,0.14523578,0.05958665,0.6403603,0.76575994,-0.49378216,-0.6477874,0.5801298,0.86754173,-0.4126866,0.277599,,NaN,NaN,NaN,NaN,NaN,NaN,NaN,NaN,NaN,NaN,NaN,NaN,,0.11841586,1.3491911,0.5042916,0.9998743,0.015588849,-0.0029045935,0.011603171,-0.84411,-0.5360444,-0.010808112,0.5359433,-0.84418476,,-0.5080424,0.3433999,-0.116429746,-0.08077541,-0.6127795,-0.78611493,0.021608835,-0.7895833,0.6132628,-0.99649805,0.032549523,0.07702037,,NaN,NaN,NaN,NaN,NaN,NaN,NaN,NaN,NaN,NaN,NaN,NaN,,0.4668623704454943,-0.059997911699850213,0.20325567942000003,-0.959750871328668,-0.269583814037214,-0.943604450569129,0.029401931904170286,,NaN,NaN,NaN,NaN,NaN,NaN,NaN,,-0.027678740275065075,-0.22002929547579514,0.08853618955999999,0.016354284869901245,,-4.1007996e-05,1.1920929e-07,-3.0994415e-06,1.0,4.069181e-05,2.5833957e-05,-4.069181e-05,1.0,5.364418e-07,-2.5833957e-05,-5.364418e-07,1.0
0.24117764318361878,10:06:04.079374,10:05:11.085947,0,,0.54654175,0.17157948,0.14523435,0.05959316,0.6403568,0.7657622,-0.49378198,-0.64778775,0.5801295,0.86754143,-0.41269138,0.27759293,,NaN,NaN,NaN,NaN,NaN,NaN,NaN,NaN,NaN,NaN,NaN,NaN,,0.11841586,1.3491911,0.5042916,0.9998743,0.015588849,-0.0029045935,0.011603171,-0.84411,-0.5360444,-0.010808112,0.5359433,-0.84418476,,-0.5080418,0.34339914,-0.11642861,-0.08078191,-0.61277586,-0.786117,0.02160863,-0.78958595,0.6132594,-0.9964976,0.03255335,0.0770255,,NaN,NaN,NaN,NaN,NaN,NaN,NaN,NaN,NaN,NaN,NaN,NaN,,0.46687009317836853,-0.059997911699850213,0.20325567942000003,-0.959750871328668,-0.269583814037214,-0.943604450569129,0.029401931904170286,,NaN,NaN,NaN,NaN,NaN,NaN,NaN,,-0.027678740275065075,-0.22002929547579514,0.08853618955999999,0.016354284869901245,,-4.1007996e-05,1.1920929e-07,-3.0994415e-06,1.0,4.069181e-05,2.5833957e-05,-4.069181e-05,1.0,5.364418e-07,-2.5833957e-05,-5.364418e-07,1.0
0.2537431148812175,10:06:04.096484,10:05:11.085947,0,,0.54654175,0.17157948,0.14523435,0.05959316,0.6403568,0.7657622,-0.49378198,-0.64778775,0.5801295,0.86754143,-0.41269138,0.27759293,,NaN,NaN,NaN,NaN,NaN,NaN,NaN,NaN,NaN,NaN,NaN,NaN,,0.11841586,1.3491911,0.5042916,0.9998743,0.015588849,-0.0029045935,0.011603171,-0.84411,-0.5360444,-0.010808112,0.5359433,-0.84418476,,-0.5080418,0.34339914,-0.11642861,-0.08078191,-0.61277586,-0.786117,0.02160863,-0.78958595,0.6132594,-0.9964976,0.03255335,0.0770255,,NaN,NaN,NaN,NaN,NaN,NaN,NaN,NaN,NaN,NaN,NaN,NaN,,0.46687009317836853,-0.059997911699850213,0.20325567942000003,-0.959750871328668,-0.269583814037214,-0.943604450569129,0.029401931904170286,,NaN,NaN,NaN,NaN,NaN,NaN,NaN,,-0.027678740275065075,-0.22002929547579514,0.08853618955999999,0.016354284869901245,,-4.1007996e-05,1.1920929e-07,-3.0994415e-06,1.0,4.069181e-05,2.5833957e-05,-4.069181e-05,1.0,5.364418e-07,-2.5833957e-05,-5.364418e-07,1.0
0.27085135504603386,10:06:04.112891,10:05:11.085947,0,,0.54654175,0.17157948,0.14523435,0.05959316,0.6403568,0.7657622,-0.49378198,-0.64778775,0.5801295,0.86754143,-0.41269138,0.27759293,,NaN,NaN,NaN,NaN,NaN,NaN,NaN,NaN,NaN,NaN,NaN,NaN,,0.11841586,1.3491911,0.5042916,0.9998743,0.015588849,-0.0029045935,0.011603171,-0.84411,-0.5360444,-0.010808112,0.5359433,-0.84418476,,-0.5080418,0.34339914,-0.11642861,-0.08078191,-0.61277586,-0.786117,0.02160863,-0.78958595,0.6132594,-0.9964976,0.03255335,0.0770255,,NaN,NaN,NaN,NaN,NaN,NaN,NaN,NaN,NaN,NaN,NaN,NaN,,0.46687009317836853,-0.059997911699850213,0.20325567942000003,-0.959750871328668,-0.269583814037214,-0.943604450569129,0.029401931904170286,,NaN,NaN,NaN,NaN,NaN,NaN,NaN,,-0.027678740275065075,-0.22002929547579514,0.08853618955999999,0.016354284869901245,,-4.1007996e-05,1.1920929e-07,-3.0994415e-06,1.0,4.069181e-05,2.5833957e-05,-4.069181e-05,1.0,5.364418e-07,-2.5833957e-05,-5.364418e-07,1.0
0.2872611051425338,10:06:04.129042,10:05:11.155556,0,,0.54654175,0.17157948,0.14523435,0.05959316,0.6403568,0.7657622,-0.49378198,-0.64778775,0.5801295,0.86754143,-0.41269138,0.27759293,,NaN,NaN,NaN,NaN,NaN,NaN,NaN,NaN,NaN,NaN,NaN,NaN,,0.11841586,1.3491911,0.5042916,0.9998743,0.015588849,-0.0029045935,0.011603171,-0.84411,-0.5360444,-0.010808112,0.5359433,-0.84418476,,-0.5080418,0.34339914,-0.11642861,-0.08078191,-0.61277586,-0.786117,0.02160863,-0.78958595,0.6132594,-0.9964976,0.03255335,0.0770255,,NaN,NaN,NaN,NaN,NaN,NaN,NaN,NaN,NaN,NaN,NaN,NaN,,0.46687009317836853,-0.059997911699850213,0.20325567942000003,-0.959750871328668,-0.269583814037214,-0.943604450569129,0.029401931904170286,,NaN,NaN,NaN,NaN,NaN,NaN,NaN,,-0.027678740275065075,-0.22002929547579514,0.08853618955999999,0.016354284869901245,,-4.1007996e-05,1.1920929e-07,-3.0994415e-06,1.0,4.069181e-05,2.5833957e-05,-4.069181e-05,1.0,5.364418e-07,-2.5833957e-05,-5.364418e-07,1.0
0.30314320605248213,10:06:04.146487,10:05:11.155556,0,,0.54654175,0.17157948,0.14523435,0.05959316,0.6403568,0.7657622,-0.49378198,-0.64778775,0.5801295,0.86754143,-0.41269138,0.27759293,,NaN,NaN,NaN,NaN,NaN,NaN,NaN,NaN,NaN,NaN,NaN,NaN,,0.11841586,1.3491911,0.5042916,0.9998743,0.015588849,-0.0029045935,0.011603171,-0.84411,-0.5360444,-0.010808112,0.5359433,-0.84418476,,-0.5080418,0.34339914,-0.11642861,-0.08078191,-0.61277586,-0.786117,0.02160863,-0.78958595,0.6132594,-0.9964976,0.03255335,0.0770255,,NaN,NaN,NaN,NaN,NaN,NaN,NaN,NaN,NaN,NaN,NaN,NaN,,0.46687009317836853,-0.059997911699850213,0.20325567942000003,-0.959750871328668,-0.269583814037214,-0.943604450569129,0.029401931904170286,,NaN,NaN,NaN,NaN,NaN,NaN,NaN,,-0.027678740275065075,-0.22002929547579514,0.08853618955999999,0.016354284869901245,,-4.1007996e-05,1.1920929e-07,-3.0994415e-06,1.0,4.069181e-05,2.5833957e-05,-4.069181e-05,1.0,5.364418e-07,-2.5833957e-05,-5.364418e-07,1.0
0.3208551057614386,10:06:04.162956,10:05:11.155556,0,,0.54654175,0.17157948,0.14523435,0.05959316,0.6403568,0.7657622,-0.49378198,-0.64778775,0.5801295,0.86754143,-0.41269138,0.27759293,,NaN,NaN,NaN,NaN,NaN,NaN,NaN,NaN,NaN,NaN,NaN,NaN,,0.11841586,1.3491911,0.5042916,0.9998743,0.015588849,-0.0029045935,0.011603171,-0.84411,-0.5360444,-0.010808112,0.5359433,-0.84418476,,-0.5080418,0.34339914,-0.11642861,-0.08078191,-0.61277586,-0.786117,0.02160863,-0.78958595,0.6132594,-0.9964976,0.03255335,0.0770255,,NaN,NaN,NaN,NaN,NaN,NaN,NaN,NaN,NaN,NaN,NaN,NaN,,0.46687009317836853,-0.059997911699850213,0.20325567942000003,-0.959750871328668,-0.269583814037214,-0.943604450569129,0.029401931904170286,,NaN,NaN,NaN,NaN,NaN,NaN,NaN,,-0.027678740275065075,-0.22002929547579514,0.08853618955999999,0.016354284869901245,,-4.1007996e-05,1.1920929e-07,-3.0994415e-06,1.0,4.069181e-05,2.5833957e-05,-4.069181e-05,1.0,5.364418e-07,-2.5833957e-05,-5.364418e-07,1.0
0.3373259617947042,10:06:04.179260,10:05:11.155556,0,,0.54654175,0.17157948,0.14523435,0.05959316,0.6403568,0.7657622,-0.49378198,-0.64778775,0.5801295,0.86754143,-0.41269138,0.27759293,,NaN,NaN,NaN,NaN,NaN,NaN,NaN,NaN,NaN,NaN,NaN,NaN,,0.11841586,1.3491911,0.5042916,0.9998743,0.015588849,-0.0029045935,0.011603171,-0.84411,-0.5360444,-0.010808112,0.5359433,-0.84418476,,-0.5080418,0.34339914,-0.11642861,-0.08078191,-0.61277586,-0.786117,0.02160863,-0.78958595,0.6132594,-0.9964976,0.03255335,0.0770255,,NaN,NaN,NaN,NaN,NaN,NaN,NaN,NaN,NaN,NaN,NaN,NaN,,0.46687009317836853,-0.059997911699850213,0.20325567942000003,-0.959750871328668,-0.269583814037214,-0.943604450569129,0.029401931904170286,,NaN,NaN,NaN,NaN,NaN,NaN,NaN,,-0.027678740275065075,-0.22002929547579514,0.08853618955999999,0.016354284869901245,,-4.1007996e-05,1.1920929e-07,-3.0994415e-06,1.0,4.069181e-05,2.5833957e-05,-4.069181e-05,1.0,5.364418e-07,-2.5833957e-05,-5.364418e-07,1.0
0.3533785459585488,10:06:04.194848,10:05:11.226233,0,,0.54654235,0.17157954,0.14523578,0.05958665,0.6403603,0.76575994,-0.49378216,-0.6477874,0.5801298,0.86754173,-0.4126866,0.277599,,NaN,NaN,NaN,NaN,NaN,NaN,NaN,NaN,NaN,NaN,NaN,NaN,,0.11841586,1.3491911,0.5042916,0.9998743,0.015588849,-0.0029045935,0.011603171,-0.84411,-0.5360444,-0.010808112,0.5359433,-0.84418476,,-0.5080424,0.3433999,-0.116429746,-0.08077541,-0.6127795,-0.78611493,0.021608835,-0.7895833,0.6132628,-0.99649805,0.032549523,0.07702037,,NaN,NaN,NaN,NaN,NaN,NaN,NaN,NaN,NaN,NaN,NaN,NaN,,0.4668623704454943,-0.059997911699850213,0.20325567942000003,-0.959750871328668,-0.269583814037214,-0.943604450569129,0.029401931904170286,,NaN,NaN,NaN,NaN,NaN,NaN,NaN,,-0.027678740275065075,-0.22002929547579514,0.08853618955999999,0.016354284869901245,,-4.1007996e-05,1.1920929e-07,-3.0994415e-06,1.0,4.069181e-05,2.5833957e-05,-4.069181e-05,1.0,5.364418e-07,-2.5833957e-05,-5.364418e-07,1.0
0.3691950850188732,10:06:04.211261,10:05:11.226233,0,,0.54654175,0.17157948,0.14523435,0.05959316,0.6403568,0.7657622,-0.49378198,-0.64778775,0.5801295,0.86754143,-0.41269138,0.27759293,,NaN,NaN,NaN,NaN,NaN,NaN,NaN,NaN,NaN,NaN,NaN,NaN,,0.11841586,1.3491911,0.5042916,0.9998743,0.015588849,-0.0029045935,0.011603171,-0.84411,-0.5360444,-0.010808112,0.5359433,-0.84418476,,-0.5080418,0.34339914,-0.11642861,-0.08078191,-0.61277586,-0.786117,0.02160863,-0.78958595,0.6132594,-0.9964976,0.03255335,0.0770255,,NaN,NaN,NaN,NaN,NaN,NaN,NaN,NaN,NaN,NaN,NaN,NaN,,0.46687009317836853,-0.059997911699850213,0.20325567942000003,-0.959750871328668,-0.269583814037214,-0.943604450569129,0.029401931904170286,,NaN,NaN,NaN,NaN,NaN,NaN,NaN,,-0.027678740275065075,-0.22002929547579514,0.08853618955999999,0.016354284869901245,,-4.1007996e-05,1.1920929e-07,-3.0994415e-06,1.0,4.069181e-05,2.5833957e-05,-4.069181e-05,1.0,5.364418e-07,-2.5833957e-05,-5.364418e-07,1.0
0.38495574705302715,10:06:04.225831,10:05:11.226233,0,,0.54654175,0.17157948,0.14523435,0.05959316,0.6403568,0.7657622,-0.49378198,-0.64778775,0.5801295,0.86754143,-0.41269138,0.27759293,,NaN,NaN,NaN,NaN,NaN,NaN,NaN,NaN,NaN,NaN,NaN,NaN,,0.11841586,1.3491911,0.5042916,0.9998743,0.015588849,-0.0029045935,0.011603171,-0.84411,-0.5360444,-0.010808112,0.5359433,-0.84418476,,-0.5080418,0.34339914,-0.11642861,-0.08078191,-0.61277586,-0.786117,0.02160863,-0.78958595,0.6132594,-0.9964976,0.03255335,0.0770255,,NaN,NaN,NaN,NaN,NaN,NaN,NaN,NaN,NaN,NaN,NaN,NaN,,0.46687009317836853,-0.059997911699850213,0.20325567942000003,-0.959750871328668,-0.269583814037214,-0.943604450569129,0.029401931904170286,,NaN,NaN,NaN,NaN,NaN,NaN,NaN,,-0.027678740275065075,-0.22002929547579514,0.08853618955999999,0.016354284869901245,,-4.1007996e-05,1.1920929e-07,-3.0994415e-06,1.0,4.069181e-05,2.5833957e-05,-4.069181e-05,1.0,5.364418e-07,-2.5833957e-05,-5.364418e-07,1.0
0.4001595829613507,10:06:04.240008,10:05:11.226233,0,,0.54654175,0.17157948,0.14523435,0.05959316,0.6403568,0.7657622,-0.49378198,-0.64778775,0.5801295,0.86754143,-0.41269138,0.27759293,,NaN,NaN,NaN,NaN,NaN,NaN,NaN,NaN,NaN,NaN,NaN,NaN,,0.11841586,1.3491911,0.5042916,0.9998743,0.015588849,-0.0029045935,0.011603171,-0.84411,-0.5360444,-0.010808112,0.5359433,-0.84418476,,-0.5080418,0.34339914,-0.11642861,-0.08078191,-0.61277586,-0.786117,0.02160863,-0.78958595,0.6132594,-0.9964976,0.03255335,0.0770255,,NaN,NaN,NaN,NaN,NaN,NaN,NaN,NaN,NaN,NaN,NaN,NaN,,0.46687009317836853,-0.059997911699850213,0.20325567942000003,-0.959750871328668,-0.269583814037214,-0.943604450569129,0.029401931904170286,,NaN,NaN,NaN,NaN,NaN,NaN,NaN,,-0.027678740275065075,-0.22002929547579514,0.08853618955999999,0.016354284869901245,,-4.1007996e-05,1.1920929e-07,-3.0994415e-06,1.0,4.069181e-05,2.5833957e-05,-4.069181e-05,1.0,5.364418e-07,-2.5833957e-05,-5.364418e-07,1.0
0.4143556598573923,10:06:04.253647,10:05:11.226233,0,,0.54654175,0.17157948,0.14523435,0.05959316,0.6403568,0.7657622,-0.49378198,-0.64778775,0.5801295,0.86754143,-0.41269138,0.27759293,,NaN,NaN,NaN,NaN,NaN,NaN,NaN,NaN,NaN,NaN,NaN,NaN,,0.11841586,1.3491911,0.5042916,0.9998743,0.015588849,-0.0029045935,0.011603171,-0.84411,-0.5360444,-0.010808112,0.5359433,-0.84418476,,-0.5080418,0.34339914,-0.11642861,-0.08078191,-0.61277586,-0.786117,0.02160863,-0.78958595,0.6132594,-0.9964976,0.03255335,0.0770255,,NaN,NaN,NaN,NaN,NaN,NaN,NaN,NaN,NaN,NaN,NaN,NaN,,0.46687009317836853,-0.059997911699850213,0.20325567942000003,-0.959750871328668,-0.269583814037214,-0.943604450569129,0.029401931904170286,,NaN,NaN,NaN,NaN,NaN,NaN,NaN,,-0.027678740275065075,-0.22002929547579514,0.08853618955999999,0.016354284869901245,,-4.1007996e-05,1.1920929e-07,-3.0994415e-06,1.0,4.069181e-05,2.5833957e-05,-4.069181e-05,1.0,5.364418e-07,-2.5833957e-05,-5.364418e-07,1.0
0.42801248701289296,10:06:04.271506,10:05:11.302200,0,,0.54654175,0.17157948,0.14523435,0.05959316,0.6403568,0.7657622,-0.49378198,-0.64778775,0.5801295,0.86754143,-0.41269138,0.27759293,,NaN,NaN,NaN,NaN,NaN,NaN,NaN,NaN,NaN,NaN,NaN,NaN,,0.11841586,1.3491911,0.5042916,0.9998743,0.015588849,-0.0029045935,0.011603171,-0.84411,-0.5360444,-0.010808112,0.5359433,-0.84418476,,-0.5080418,0.34339914,-0.11642861,-0.08078191,-0.61277586,-0.786117,0.02160863,-0.78958595,0.6132594,-0.9964976,0.03255335,0.0770255,,NaN,NaN,NaN,NaN,NaN,NaN,NaN,NaN,NaN,NaN,NaN,NaN,,0.46687009317836853,-0.059997911699850213,0.20325567942000003,-0.959750871328668,-0.269583814037214,-0.943604450569129,0.029401931904170286,,NaN,NaN,NaN,NaN,NaN,NaN,NaN,,-0.027678740275065075,-0.22002929547579514,0.08853618955999999,0.016354284869901245,,-4.1007996e-05,1.1920929e-07,-3.0994415e-06,1.0,4.069181e-05,2.5833957e-05,-4.069181e-05,1.0,5.364418e-07,-2.5833957e-05,-5.364418e-07,1.0
0.44585350807756186,10:06:04.287886,10:05:11.302200,0,,0.54654175,0.17157948,0.14523435,0.05959316,0.6403568,0.7657622,-0.49378198,-0.64778775,0.5801295,0.86754143,-0.41269138,0.27759293,,NaN,NaN,NaN,NaN,NaN,NaN,NaN,NaN,NaN,NaN,NaN,NaN,,0.11841586,1.3491911,0.5042916,0.9998743,0.015588849,-0.0029045935,0.011603171,-0.84411,-0.5360444,-0.010808112,0.5359433,-0.84418476,,-0.5080418,0.34339914,-0.11642861,-0.08078191,-0.61277586,-0.786117,0.02160863,-0.78958595,0.6132594,-0.9964976,0.03255335,0.0770255,,NaN,NaN,NaN,NaN,NaN,NaN,NaN,NaN,NaN,NaN,NaN,NaN,,0.46687009317836853,-0.059997911699850213,0.20325567942000003,-0.959750871328668,-0.269583814037214,-0.943604450569129,0.029401931904170286,,NaN,NaN,NaN,NaN,NaN,NaN,NaN,,-0.027678740275065075,-0.22002929547579514,0.08853618955999999,0.016354284869901245,,-4.1007996e-05,1.1920929e-07,-3.0994415e-06,1.0,4.069181e-05,2.5833957e-05,-4.069181e-05,1.0,5.364418e-07,-2.5833957e-05,-5.364418e-07,1.0
0.46225679386407137,10:06:04.303627,10:05:11.302200,0,,0.54654235,0.17157954,0.14523578,0.05958665,0.6403603,0.76575994,-0.49378216,-0.6477874,0.5801298,0.86754173,-0.4126866,0.277599,,NaN,NaN,NaN,NaN,NaN,NaN,NaN,NaN,NaN,NaN,NaN,NaN,,0.11841586,1.3491911,0.5042916,0.9998743,0.015588849,-0.0029045935,0.011603171,-0.84411,-0.5360444,-0.010808112,0.5359433,-0.84418476,,-0.5080424,0.3433999,-0.116429746,-0.08077541,-0.6127795,-0.78611493,0.021608835,-0.7895833,0.6132628,-0.99649805,0.032549523,0.07702037,,NaN,NaN,NaN,NaN,NaN,NaN,NaN,NaN,NaN,NaN,NaN,NaN,,0.4668623704454943,-0.059997911699850213,0.20325567942000003,-0.959750871328668,-0.269583814037214,-0.943604450569129,0.029401931904170286,,NaN,NaN,NaN,NaN,NaN,NaN,NaN,,-0.027678740275065075,-0.22002929547579514,0.08853618955999999,0.016354284869901245,,-4.1007996e-05,1.1920929e-07,-3.0994415e-06,1.0,4.069181e-05,2.5833957e-05,-4.069181e-05,1.0,5.364418e-07,-2.5833957e-05,-5.364418e-07,1.0
0.4778290060348809,10:06:04.319827,10:05:11.302200,0,,0.54654175,0.17157948,0.14523435,0.05959316,0.6403568,0.7657622,-0.49378198,-0.64778775,0.5801295,0.86754143,-0.41269138,0.27759293,,NaN,NaN,NaN,NaN,NaN,NaN,NaN,NaN,NaN,NaN,NaN,NaN,,0.11841586,1.3491911,0.5042916,0.9998743,0.015588849,-0.0029045935,0.011603171,-0.84411,-0.5360444,-0.010808112,0.5359433,-0.84418476,,-0.5080418,0.34339914,-0.11642861,-0.08078191,-0.61277586,-0.786117,0.02160863,-0.78958595,0.6132594,-0.9964976,0.03255335,0.0770255,,NaN,NaN,NaN,NaN,NaN,NaN,NaN,NaN,NaN,NaN,NaN,NaN,,0.46687009317836853,-0.059997911699850213,0.20325567942000003,-0.959750871328668,-0.269583814037214,-0.943604450569129,0.029401931904170286,,NaN,NaN,NaN,NaN,NaN,NaN,NaN,,-0.027678740275065075,-0.22002929547579514,0.08853618955999999,0.016354284869901245,,-4.1007996e-05,1.1920929e-07,-3.0994415e-06,1.0,4.069181e-05,2.5833957e-05,-4.069181e-05,1.0,5.364418e-07,-2.5833957e-05,-5.364418e-07,1.0
0.4941955008544028,10:06:04.337064,10:05:11.302200,0,,0.54654175,0.17157948,0.14523435,0.05959316,0.6403568,0.7657622,-0.49378198,-0.64778775,0.5801295,0.86754143,-0.41269138,0.27759293,,NaN,NaN,NaN,NaN,NaN,NaN,NaN,NaN,NaN,NaN,NaN,NaN,,0.11841586,1.3491911,0.5042916,0.9998743,0.015588849,-0.0029045935,0.011603171,-0.84411,-0.5360444,-0.010808112,0.5359433,-0.84418476,,-0.5080418,0.34339914,-0.11642861,-0.08078191,-0.61277586,-0.786117,0.02160863,-0.78958595,0.6132594,-0.9964976,0.03255335,0.0770255,,NaN,NaN,NaN,NaN,NaN,NaN,NaN,NaN,NaN,NaN,NaN,NaN,,0.46687009317836853,-0.059997911699850213,0.20325567942000003,-0.959750871328668,-0.269583814037214,-0.943604450569129,0.029401931904170286,,NaN,NaN,NaN,NaN,NaN,NaN,NaN,,-0.027678740275065075,-0.22002929547579514,0.08853618955999999,0.016354284869901245,,-4.1007996e-05,1.1920929e-07,-3.0994415e-06,1.0,4.069181e-05,2.5833957e-05,-4.069181e-05,1.0,5.364418e-07,-2.5833957e-05,-5.364418e-07,1.0
0.5111843468621373,10:06:04.354130,10:05:11.302200,0,,0.54654175,0.17157948,0.14523435,0.05959316,0.6403568,0.7657622,-0.49378198,-0.64778775,0.5801295,0.86754143,-0.41269138,0.27759293,,NaN,NaN,NaN,NaN,NaN,NaN,NaN,NaN,NaN,NaN,NaN,NaN,,0.11841586,1.3491911,0.5042916,0.9998743,0.015588849,-0.0029045935,0.011603171,-0.84411,-0.5360444,-0.010808112,0.5359433,-0.84418476,,-0.5080418,0.34339914,-0.11642861,-0.08078191,-0.61277586,-0.786117,0.02160863,-0.78958595,0.6132594,-0.9964976,0.03255335,0.0770255,,NaN,NaN,NaN,NaN,NaN,NaN,NaN,NaN,NaN,NaN,NaN,NaN,,0.46687009317836853,-0.059997911699850213,0.20325567942000003,-0.959750871328668,-0.269583814037214,-0.943604450569129,0.029401931904170286,,NaN,NaN,NaN,NaN,NaN,NaN,NaN,,-0.027678740275065075,-0.22002929547579514,0.08853618955999999,0.016354284869901245,,-4.1007996e-05,1.1920929e-07,-3.0994415e-06,1.0,4.069181e-05,2.5833957e-05,-4.069181e-05,1.0,5.364418e-07,-2.5833957e-05,-5.364418e-07,1.0
0.5284966509789228,10:06:04.371355,10:05:11.302200,0,,0.54654175,0.17157948,0.14523435,0.05959316,0.6403568,0.7657622,-0.49378198,-0.64778775,0.5801295,0.86754143,-0.41269138,0.27759293,,NaN,NaN,NaN,NaN,NaN,NaN,NaN,NaN,NaN,NaN,NaN,NaN,,0.11841586,1.3491911,0.5042916,0.9998743,0.015588849,-0.0029045935,0.011603171,-0.84411,-0.5360444,-0.010808112,0.5359433,-0.84418476,,-0.5080418,0.34339914,-0.11642861,-0.08078191,-0.61277586,-0.786117,0.02160863,-0.78958595,0.6132594,-0.9964976,0.03255335,0.0770255,,NaN,NaN,NaN,NaN,NaN,NaN,NaN,NaN,NaN,NaN,NaN,NaN,,0.46687009317836853,-0.059997911699850213,0.20325567942000003,-0.959750871328668,-0.269583814037214,-0.943604450569129,0.029401931904170286,,NaN,NaN,NaN,NaN,NaN,NaN,NaN,,-0.027678740275065075,-0.22002929547579514,0.08853618955999999,0.016354284869901245,,-4.1007996e-05,1.1920929e-07,-3.0994415e-06,1.0,4.069181e-05,2.5833957e-05,-4.069181e-05,1.0,5.364418e-07,-2.5833957e-05,-5.364418e-07,1.0
0.5457261949777603,10:06:04.389311,10:05:11.426698,0,,0.54654175,0.17157948,0.14523435,0.05959316,0.6403568,0.7657622,-0.49378198,-0.64778775,0.5801295,0.86754143,-0.41269138,0.27759293,,NaN,NaN,NaN,NaN,NaN,NaN,NaN,NaN,NaN,NaN,NaN,NaN,,0.11841586,1.3491911,0.5042916,0.9998743,0.015588849,-0.0029045935,0.011603171,-0.84411,-0.5360444,-0.010808112,0.5359433,-0.84418476,,-0.5080418,0.34339914,-0.11642861,-0.08078191,-0.61277586,-0.786117,0.02160863,-0.78958595,0.6132594,-0.9964976,0.03255335,0.0770255,,NaN,NaN,NaN,NaN,NaN,NaN,NaN,NaN,NaN,NaN,NaN,NaN,,0.46687009317836853,-0.059997911699850213,0.20325567942000003,-0.959750871328668,-0.269583814037214,-0.943604450569129,0.029401931904170286,,NaN,NaN,NaN,NaN,NaN,NaN,NaN,,-0.027678740275065075,-0.22002929547579514,0.08853618955999999,0.016354284869901245,,-4.1007996e-05,1.1920929e-07,-3.0994415e-06,1.0,4.069181e-05,2.5833957e-05,-4.069181e-05,1.0,5.364418e-07,-2.5833957e-05,-5.364418e-07,1.0
0.5636612977832556,10:06:04.403480,10:05:11.426698,0,,0.54654175,0.17157948,0.14523435,0.05959316,0.6403568,0.7657622,-0.49378198,-0.64778775,0.5801295,0.86754143,-0.41269138,0.27759293,,NaN,NaN,NaN,NaN,NaN,NaN,NaN,NaN,NaN,NaN,NaN,NaN,,0.11841586,1.3491911,0.5042916,0.9998743,0.015588849,-0.0029045935,0.011603171,-0.84411,-0.5360444,-0.010808112,0.5359433,-0.84418476,,-0.5080418,0.34339914,-0.11642861,-0.08078191,-0.61277586,-0.786117,0.02160863,-0.78958595,0.6132594,-0.9964976,0.03255335,0.0770255,,NaN,NaN,NaN,NaN,NaN,NaN,NaN,NaN,NaN,NaN,NaN,NaN,,0.46687009317836853,-0.059997911699850213,0.20325567942000003,-0.959750871328668,-0.269583814037214,-0.943604450569129,0.029401931904170286,,NaN,NaN,NaN,NaN,NaN,NaN,NaN,,-0.027678740275065075,-0.22002929547579514,0.08853618955999999,0.016354284869901245,,-4.1007996e-05,1.1920929e-07,-3.0994415e-06,1.0,4.069181e-05,2.5833957e-05,-4.069181e-05,1.0,5.364418e-07,-2.5833957e-05,-5.364418e-07,1.0
0.5778497797437012,10:06:04.420179,10:05:11.426698,0,,0.54654175,0.17157948,0.14523435,0.05959316,0.6403568,0.7657622,-0.49378198,-0.64778775,0.5801295,0.86754143,-0.41269138,0.27759293,,NaN,NaN,NaN,NaN,NaN,NaN,NaN,NaN,NaN,NaN,NaN,NaN,,0.11841586,1.3491911,0.5042916,0.9998743,0.015588849,-0.0029045935,0.011603171,-0.84411,-0.5360444,-0.010808112,0.5359433,-0.84418476,,-0.5080418,0.34339914,-0.11642861,-0.08078191,-0.61277586,-0.786117,0.02160863,-0.78958595,0.6132594,-0.9964976,0.03255335,0.0770255,,NaN,NaN,NaN,NaN,NaN,NaN,NaN,NaN,NaN,NaN,NaN,NaN,,0.46687009317836853,-0.059997911699850213,0.20325567942000003,-0.959750871328668,-0.269583814037214,-0.943604450569129,0.029401931904170286,,NaN,NaN,NaN,NaN,NaN,NaN,NaN,,-0.027678740275065075,-0.22002929547579514,0.08853618955999999,0.016354284869901245,,-4.1007996e-05,1.1920929e-07,-3.0994415e-06,1.0,4.069181e-05,2.5833957e-05,-4.069181e-05,1.0,5.364418e-07,-2.5833957e-05,-5.364418e-07,1.0
0.5945472549647093,10:06:04.437359,10:05:11.426698,0,,0.54654175,0.17157948,0.14523435,0.05959316,0.6403568,0.7657622,-0.49378198,-0.64778775,0.5801295,0.86754143,-0.41269138,0.27759293,,NaN,NaN,NaN,NaN,NaN,NaN,NaN,NaN,NaN,NaN,NaN,NaN,,0.11841586,1.3491911,0.5042916,0.9998743,0.015588849,-0.0029045935,0.011603171,-0.84411,-0.5360444,-0.010808112,0.5359433,-0.84418476,,-0.5080418,0.34339914,-0.11642861,-0.08078191,-0.61277586,-0.786117,0.02160863,-0.78958595,0.6132594,-0.9964976,0.03255335,0.0770255,,NaN,NaN,NaN,NaN,NaN,NaN,NaN,NaN,NaN,NaN,NaN,NaN,,0.46687009317836853,-0.059997911699850213,0.20325567942000003,-0.959750871328668,-0.269583814037214,-0.943604450569129,0.029401931904170286,,NaN,NaN,NaN,NaN,NaN,NaN,NaN,,-0.027678740275065075,-0.22002929547579514,0.08853618955999999,0.016354284869901245,,-4.1007996e-05,1.1920929e-07,-3.0994415e-06,1.0,4.069181e-05,2.5833957e-05,-4.069181e-05,1.0,5.364418e-07,-2.5833957e-05,-5.364418e-07,1.0
0.6117211291566491,10:06:04.452130,10:05:11.426698,0,,0.54654235,0.17157954,0.14523578,0.05958665,0.6403603,0.76575994,-0.49378216,-0.6477874,0.5801298,0.86754173,-0.4126866,0.277599,,NaN,NaN,NaN,NaN,NaN,NaN,NaN,NaN,NaN,NaN,NaN,NaN,,0.11841586,1.3491911,0.5042916,0.9998743,0.015588849,-0.0029045935,0.011603171,-0.84411,-0.5360444,-0.010808112,0.5359433,-0.84418476,,-0.5080424,0.3433999,-0.116429746,-0.08077541,-0.6127795,-0.78611493,0.021608835,-0.7895833,0.6132628,-0.99649805,0.032549523,0.07702037,,NaN,NaN,NaN,NaN,NaN,NaN,NaN,NaN,NaN,NaN,NaN,NaN,,0.4668623704454943,-0.059997911699850213,0.20325567942000003,-0.959750871328668,-0.269583814037214,-0.943604450569129,0.029401931904170286,,NaN,NaN,NaN,NaN,NaN,NaN,NaN,,-0.027678740275065075,-0.22002929547579514,0.08853618955999999,0.016354284869901245,,-4.1007996e-05,1.1920929e-07,-3.0994415e-06,1.0,4.069181e-05,2.5833957e-05,-4.069181e-05,1.0,5.364418e-07,-2.5833957e-05,-5.364418e-07,1.0
0.6264987899921834,10:06:04.470473,10:05:11.504478,0,,0.54654175,0.17157948,0.14523435,0.05959316,0.6403568,0.7657622,-0.49378198,-0.64778775,0.5801295,0.86754143,-0.41269138,0.27759293,,NaN,NaN,NaN,NaN,NaN,NaN,NaN,NaN,NaN,NaN,NaN,NaN,,0.11841586,1.3491911,0.5042916,0.9998743,0.015588849,-0.0029045935,0.011603171,-0.84411,-0.5360444,-0.010808112,0.5359433,-0.84418476,,-0.5080418,0.34339914,-0.11642861,-0.08078191,-0.61277586,-0.786117,0.02160863,-0.78958595,0.6132594,-0.9964976,0.03255335,0.0770255,,NaN,NaN,NaN,NaN,NaN,NaN,NaN,NaN,NaN,NaN,NaN,NaN,,0.46687009317836853,-0.059997911699850213,0.20325567942000003,-0.959750871328668,-0.269583814037214,-0.943604450569129,0.029401931904170286,,NaN,NaN,NaN,NaN,NaN,NaN,NaN,,-0.027678740275065075,-0.22002929547579514,0.08853618955999999,0.016354284869901245,,-4.1007996e-05,1.1920929e-07,-3.0994415e-06,1.0,4.069181e-05,2.5833957e-05,-4.069181e-05,1.0,5.364418e-07,-2.5833957e-05,-5.364418e-07,1.0
0.6448240540921688,10:06:04.484914,10:05:11.504478,0,,0.54654235,0.17157954,0.14523578,0.05958665,0.6403603,0.76575994,-0.49378216,-0.6477874,0.5801298,0.86754173,-0.4126866,0.277599,,NaN,NaN,NaN,NaN,NaN,NaN,NaN,NaN,NaN,NaN,NaN,NaN,,0.11841586,1.3491911,0.5042916,0.9998743,0.015588849,-0.0029045935,0.011603171,-0.84411,-0.5360444,-0.010808112,0.5359433,-0.84418476,,-0.5080424,0.3433999,-0.116429746,-0.08077541,-0.6127795,-0.78611493,0.021608835,-0.7895833,0.6132628,-0.99649805,0.032549523,0.07702037,,NaN,NaN,NaN,NaN,NaN,NaN,NaN,NaN,NaN,NaN,NaN,NaN,,0.4668623704454943,-0.059997911699850213,0.20325567942000003,-0.959750871328668,-0.269583814037214,-0.943604450569129,0.029401931904170286,,NaN,NaN,NaN,NaN,NaN,NaN,NaN,,-0.027678740275065075,-0.22002929547579514,0.08853618955999999,0.016354284869901245,,-4.1007996e-05,1.1920929e-07,-3.0994415e-06,1.0,4.069181e-05,2.5833957e-05,-4.069181e-05,1.0,5.364418e-07,-2.5833957e-05,-5.364418e-07,1.0
0.6592835560441017,10:06:04.502508,10:05:11.504478,0,,0.54654235,0.17157954,0.14523578,0.05958665,0.6403603,0.76575994,-0.49378216,-0.6477874,0.5801298,0.86754173,-0.4126866,0.277599,,NaN,NaN,NaN,NaN,NaN,NaN,NaN,NaN,NaN,NaN,NaN,NaN,,0.11841586,1.3491911,0.5042916,0.9998743,0.015588849,-0.0029045935,0.011603171,-0.84411,-0.5360444,-0.010808112,0.5359433,-0.84418476,,-0.5080424,0.3433999,-0.116429746,-0.08077541,-0.6127795,-0.78611493,0.021608835,-0.7895833,0.6132628,-0.99649805,0.032549523,0.07702037,,NaN,NaN,NaN,NaN,NaN,NaN,NaN,NaN,NaN,NaN,NaN,NaN,,0.4668623704454943,-0.059997911699850213,0.20325567942000003,-0.959750871328668,-0.269583814037214,-0.943604450569129,0.029401931904170286,,NaN,NaN,NaN,NaN,NaN,NaN,NaN,,-0.027678740275065075,-0.22002929547579514,0.08853618955999999,0.016354284869901245,,-4.1007996e-05,1.1920929e-07,-3.0994415e-06,1.0,4.069181e-05,2.5833957e-05,-4.069181e-05,1.0,5.364418e-07,-2.5833957e-05,-5.364418e-07,1.0
0.6768622221425176,10:06:04.518508,10:05:11.504478,0,,0.54654175,0.17157948,0.14523435,0.05959316,0.6403568,0.7657622,-0.49378198,-0.64778775,0.5801295,0.86754143,-0.41269138,0.27759293,,NaN,NaN,NaN,NaN,NaN,NaN,NaN,NaN,NaN,NaN,NaN,NaN,,0.11841586,1.3491911,0.5042916,0.9998743,0.015588849,-0.0029045935,0.011603171,-0.84411,-0.5360444,-0.010808112,0.5359433,-0.84418476,,-0.5080418,0.34339914,-0.11642861,-0.08078191,-0.61277586,-0.786117,0.02160863,-0.78958595,0.6132594,-0.9964976,0.03255335,0.0770255,,NaN,NaN,NaN,NaN,NaN,NaN,NaN,NaN,NaN,NaN,NaN,NaN,,0.46687009317836853,-0.059997911699850213,0.20325567942000003,-0.959750871328668,-0.269583814037214,-0.943604450569129,0.029401931904170286,,NaN,NaN,NaN,NaN,NaN,NaN,NaN,,-0.027678740275065075,-0.22002929547579514,0.08853618955999999,0.016354284869901245,,-4.1007996e-05,1.1920929e-07,-3.0994415e-06,1.0,4.069181e-05,2.5833957e-05,-4.069181e-05,1.0,5.364418e-07,-2.5833957e-05,-5.364418e-07,1.0
0.6928719091229141,10:06:04.532746,10:05:11.504478,0,,0.54654175,0.17157948,0.14523435,0.05959316,0.6403568,0.7657622,-0.49378198,-0.64778775,0.5801295,0.86754143,-0.41269138,0.27759293,,NaN,NaN,NaN,NaN,NaN,NaN,NaN,NaN,NaN,NaN,NaN,NaN,,0.11841586,1.3491911,0.5042916,0.9998743,0.015588849,-0.0029045935,0.011603171,-0.84411,-0.5360444,-0.010808112,0.5359433,-0.84418476,,-0.5080418,0.34339914,-0.11642861,-0.08078191,-0.61277586,-0.786117,0.02160863,-0.78958595,0.6132594,-0.9964976,0.03255335,0.0770255,,NaN,NaN,NaN,NaN,NaN,NaN,NaN,NaN,NaN,NaN,NaN,NaN,,0.46687009317836853,-0.059997911699850213,0.20325567942000003,-0.959750871328668,-0.269583814037214,-0.943604450569129,0.029401931904170286,,NaN,NaN,NaN,NaN,NaN,NaN,NaN,,-0.027678740275065075,-0.22002929547579514,0.08853618955999999,0.016354284869901245,,-4.1007996e-05,1.1920929e-07,-3.0994415e-06,1.0,4.069181e-05,2.5833957e-05,-4.069181e-05,1.0,5.364418e-07,-2.5833957e-05,-5.364418e-07,1.0
0.7066740640439093,10:06:04.550877,10:05:11.586668,0,,0.54654175,0.17157948,0.14523435,0.05959316,0.6403568,0.7657622,-0.49378198,-0.64778775,0.5801295,0.86754143,-0.41269138,0.27759293,,NaN,NaN,NaN,NaN,NaN,NaN,NaN,NaN,NaN,NaN,NaN,NaN,,0.11841586,1.3491911,0.5042916,0.9998743,0.015588849,-0.0029045935,0.011603171,-0.84411,-0.5360444,-0.010808112,0.5359433,-0.84418476,,-0.5080418,0.34339914,-0.11642861,-0.08078191,-0.61277586,-0.786117,0.02160863,-0.78958595,0.6132594,-0.9964976,0.03255335,0.0770255,,NaN,NaN,NaN,NaN,NaN,NaN,NaN,NaN,NaN,NaN,NaN,NaN,,0.46687009317836853,-0.059997911699850213,0.20325567942000003,-0.959750871328668,-0.269583814037214,-0.943604450569129,0.029401931904170286,,NaN,NaN,NaN,NaN,NaN,NaN,NaN,,-0.027678740275065075,-0.22002929547579514,0.08853618955999999,0.016354284869901245,,-4.1007996e-05,1.1920929e-07,-3.0994415e-06,1.0,4.069181e-05,2.5833957e-05,-4.069181e-05,1.0,5.364418e-07,-2.5833957e-05,-5.364418e-07,1.0
0.7252266160212457,10:06:04.568625,10:05:11.586668,0,,0.54654175,0.17157948,0.14523435,0.05959316,0.6403568,0.7657622,-0.49378198,-0.64778775,0.5801295,0.86754143,-0.41269138,0.27759293,,NaN,NaN,NaN,NaN,NaN,NaN,NaN,NaN,NaN,NaN,NaN,NaN,,0.11841586,1.3491911,0.5042916,0.9998743,0.015588849,-0.0029045935,0.011603171,-0.84411,-0.5360444,-0.010808112,0.5359433,-0.84418476,,-0.5080418,0.34339914,-0.11642861,-0.08078191,-0.61277586,-0.786117,0.02160863,-0.78958595,0.6132594,-0.9964976,0.03255335,0.0770255,,NaN,NaN,NaN,NaN,NaN,NaN,NaN,NaN,NaN,NaN,NaN,NaN,,0.46687009317836853,-0.059997911699850213,0.20325567942000003,-0.959750871328668,-0.269583814037214,-0.943604450569129,0.029401931904170286,,NaN,NaN,NaN,NaN,NaN,NaN,NaN,,-0.027678740275065075,-0.22002929547579514,0.08853618955999999,0.016354284869901245,,-4.1007996e-05,1.1920929e-07,-3.0994415e-06,1.0,4.069181e-05,2.5833957e-05,-4.069181e-05,1.0,5.364418e-07,-2.5833957e-05,-5.364418e-07,1.0
0.7429647748358548,10:06:04.584168,10:05:11.586668,0,,0.54654175,0.17157948,0.14523435,0.05959316,0.6403568,0.7657622,-0.49378198,-0.64778775,0.5801295,0.86754143,-0.41269138,0.27759293,,NaN,NaN,NaN,NaN,NaN,NaN,NaN,NaN,NaN,NaN,NaN,NaN,,0.11841586,1.3491911,0.5042916,0.9998743,0.015588849,-0.0029045935,0.011603171,-0.84411,-0.5360444,-0.010808112,0.5359433,-0.84418476,,-0.5080418,0.34339914,-0.11642861,-0.08078191,-0.61277586,-0.786117,0.02160863,-0.78958595,0.6132594,-0.9964976,0.03255335,0.0770255,,NaN,NaN,NaN,NaN,NaN,NaN,NaN,NaN,NaN,NaN,NaN,NaN,,0.46687009317836853,-0.059997911699850213,0.20325567942000003,-0.959750871328668,-0.269583814037214,-0.943604450569129,0.029401931904170286,,NaN,NaN,NaN,NaN,NaN,NaN,NaN,,-0.027678740275065075,-0.22002929547579514,0.08853618955999999,0.016354284869901245,,-4.1007996e-05,1.1920929e-07,-3.0994415e-06,1.0,4.069181e-05,2.5833957e-05,-4.069181e-05,1.0,5.364418e-07,-2.5833957e-05,-5.364418e-07,1.0
0.7585155181586742,10:06:04.601013,10:05:11.586668,0,,0.54654175,0.17157948,0.14523435,0.05959316,0.6403568,0.7657622,-0.49378198,-0.64778775,0.5801295,0.86754143,-0.41269138,0.27759293,,NaN,NaN,NaN,NaN,NaN,NaN,NaN,NaN,NaN,NaN,NaN,NaN,,0.11841586,1.3491911,0.5042916,0.9998743,0.015588849,-0.0029045935,0.011603171,-0.84411,-0.5360444,-0.010808112,0.5359433,-0.84418476,,-0.5080418,0.34339914,-0.11642861,-0.08078191,-0.61277586,-0.786117,0.02160863,-0.78958595,0.6132594,-0.9964976,0.03255335,0.0770255,,NaN,NaN,NaN,NaN,NaN,NaN,NaN,NaN,NaN,NaN,NaN,NaN,,0.46687009317836853,-0.059997911699850213,0.20325567942000003,-0.959750871328668,-0.269583814037214,-0.943604450569129,0.029401931904170286,,NaN,NaN,NaN,NaN,NaN,NaN,NaN,,-0.027678740275065075,-0.22002929547579514,0.08853618955999999,0.016354284869901245,,-4.1007996e-05,1.1920929e-07,-3.0994415e-06,1.0,4.069181e-05,2.5833957e-05,-4.069181e-05,1.0,5.364418e-07,-2.5833957e-05,-5.364418e-07,1.0
0.7753811879083514,10:06:04.614879,10:05:11.586668,0,,0.54654175,0.17157948,0.14523435,0.05959316,0.6403568,0.7657622,-0.49378198,-0.64778775,0.5801295,0.86754143,-0.41269138,0.27759293,,NaN,NaN,NaN,NaN,NaN,NaN,NaN,NaN,NaN,NaN,NaN,NaN,,0.11841586,1.3491911,0.5042916,0.9998743,0.015588849,-0.0029045935,0.011603171,-0.84411,-0.5360444,-0.010808112,0.5359433,-0.84418476,,-0.5080418,0.34339914,-0.11642861,-0.08078191,-0.61277586,-0.786117,0.02160863,-0.78958595,0.6132594,-0.9964976,0.03255335,0.0770255,,NaN,NaN,NaN,NaN,NaN,NaN,NaN,NaN,NaN,NaN,NaN,NaN,,0.46687009317836853,-0.059997911699850213,0.20325567942000003,-0.959750871328668,-0.269583814037214,-0.943604450569129,0.029401931904170286,,NaN,NaN,NaN,NaN,NaN,NaN,NaN,,-0.027678740275065075,-0.22002929547579514,0.08853618955999999,0.016354284869901245,,-4.1007996e-05,1.1920929e-07,-3.0994415e-06,1.0,4.069181e-05,2.5833957e-05,-4.069181e-05,1.0,5.364418e-07,-2.5833957e-05,-5.364418e-07,1.0
0.789248650893569,10:06:04.632719,10:05:11.658886,0,,0.54654235,0.17157954,0.14523578,0.05958665,0.6403603,0.76575994,-0.49378216,-0.6477874,0.5801298,0.86754173,-0.4126866,0.277599,,NaN,NaN,NaN,NaN,NaN,NaN,NaN,NaN,NaN,NaN,NaN,NaN,,0.11841586,1.3491911,0.5042916,0.9998743,0.015588849,-0.0029045935,0.011603171,-0.84411,-0.5360444,-0.010808112,0.5359433,-0.84418476,,-0.5080424,0.3433999,-0.116429746,-0.08077541,-0.6127795,-0.78611493,0.021608835,-0.7895833,0.6132628,-0.99649805,0.032549523,0.07702037,,NaN,NaN,NaN,NaN,NaN,NaN,NaN,NaN,NaN,NaN,NaN,NaN,,0.4668623704454943,-0.059997911699850213,0.20325567942000003,-0.959750871328668,-0.269583814037214,-0.943604450569129,0.029401931904170286,,NaN,NaN,NaN,NaN,NaN,NaN,NaN,,-0.027678740275065075,-0.22002929547579514,0.08853618955999999,0.016354284869901245,,-4.1007996e-05,1.1920929e-07,-3.0994415e-06,1.0,4.069181e-05,2.5833957e-05,-4.069181e-05,1.0,5.364418e-07,-2.5833957e-05,-5.364418e-07,1.0
0.8070643511600792,10:06:04.647402,10:05:11.658886,0,,0.546622,0.17157784,0.14520259,0.05963003,0.6404047,0.7657194,-0.4938353,-0.6477129,0.58016783,0.86750853,-0.41273463,0.27763125,,NaN,NaN,NaN,NaN,NaN,NaN,NaN,NaN,NaN,NaN,NaN,NaN,,0.11842539,1.3491913,0.50428617,0.9998746,0.015567183,-0.0029183524,0.011577507,-0.8441104,-0.53604436,-0.010808112,0.5359433,-0.84418476,,-0.50812453,0.3433925,-0.11639812,-0.08082979,-0.6128403,-0.78606194,0.021546235,-0.7895325,0.6133305,-0.996495,0.0326387,0.07702214,,NaN,NaN,NaN,NaN,NaN,NaN,NaN,NaN,NaN,NaN,NaN,NaN,,0.46687009317836853,-0.059997911699850213,0.20325567942000003,-0.959750871328668,-0.269583814037214,-0.943604450569129,0.029401931904170286,,NaN,NaN,NaN,NaN,NaN,NaN,NaN,,-0.027678740275065075,-0.22002929547579514,0.08853618955999999,0.016354284869901245,,-3.142655e-05,-2.8014183e-06,1.3113022e-06,1.0,1.902366e-05,1.2077391e-05,-1.902366e-05,1.0,2.3841858e-07,-1.20783225e-05,-2.3841858e-07,1.0
0.8217686070129275,10:06:04.663481,10:05:11.658886,0,,0.546622,0.17157784,0.14520259,0.05963003,0.6404047,0.7657194,-0.4938353,-0.6477129,0.58016783,0.86750853,-0.41273463,0.27763125,,NaN,NaN,NaN,NaN,NaN,NaN,NaN,NaN,NaN,NaN,NaN,NaN,,0.11842539,1.3491913,0.50428617,0.9998746,0.015567183,-0.0029183524,0.011577507,-0.8441104,-0.53604436,-0.010808112,0.5359433,-0.84418476,,-0.50812453,0.3433925,-0.11639812,-0.08082979,-0.6128403,-0.78606194,0.021546235,-0.7895325,0.6133305,-0.996495,0.0326387,0.07702214,,NaN,NaN,NaN,NaN,NaN,NaN,NaN,NaN,NaN,NaN,NaN,NaN,,0.46687009317836853,-0.059997911699850213,0.20325567942000003,-0.959750871328668,-0.269583814037214,-0.943604450569129,0.029401931904170286,,NaN,NaN,NaN,NaN,NaN,NaN,NaN,,-0.027678740275065075,-0.22002929547579514,0.08853618955999999,0.016354284869901245,,-3.142655e-05,-2.8014183e-06,1.3113022e-06,1.0,1.902366e-05,1.2077391e-05,-1.902366e-05,1.0,2.3841858e-07,-1.20783225e-05,-2.3841858e-07,1.0
0.8378493748605251,10:06:04.677394,10:05:11.658886,0,,0.546622,0.17157784,0.14520259,0.05963003,0.6404047,0.7657194,-0.4938353,-0.6477129,0.58016783,0.86750853,-0.41273463,0.27763125,,NaN,NaN,NaN,NaN,NaN,NaN,NaN,NaN,NaN,NaN,NaN,NaN,,0.11842539,1.3491913,0.50428617,0.9998746,0.015567183,-0.0029183524,0.011577507,-0.8441104,-0.53604436,-0.010808112,0.5359433,-0.84418476,,-0.50812453,0.3433925,-0.11639812,-0.08082979,-0.6128403,-0.78606194,0.021546235,-0.7895325,0.6133305,-0.996495,0.0326387,0.07702214,,NaN,NaN,NaN,NaN,NaN,NaN,NaN,NaN,NaN,NaN,NaN,NaN,,0.46687009317836853,-0.059997911699850213,0.20325567942000003,-0.959750871328668,-0.269583814037214,-0.943604450569129,0.029401931904170286,,NaN,NaN,NaN,NaN,NaN,NaN,NaN,,-0.027678740275065075,-0.22002929547579514,0.08853618955999999,0.016354284869901245,,-3.142655e-05,-2.8014183e-06,1.3113022e-06,1.0,1.902366e-05,1.2077391e-05,-1.902366e-05,1.0,2.3841858e-07,-1.20783225e-05,-2.3841858e-07,1.0
0.8517442820593715,10:06:04.696608,10:05:11.733378,0,,0.546622,0.17157784,0.14520259,0.05963003,0.6404047,0.7657194,-0.4938353,-0.6477129,0.58016783,0.86750853,-0.41273463,0.27763125,,NaN,NaN,NaN,NaN,NaN,NaN,NaN,NaN,NaN,NaN,NaN,NaN,,0.11842539,1.3491913,0.50428617,0.9998746,0.015567183,-0.0029183524,0.011577507,-0.8441104,-0.53604436,-0.010808112,0.5359433,-0.84418476,,-0.50812453,0.3433925,-0.11639812,-0.08082979,-0.6128403,-0.78606194,0.021546235,-0.7895325,0.6133305,-0.996495,0.0326387,0.07702214,,NaN,NaN,NaN,NaN,NaN,NaN,NaN,NaN,NaN,NaN,NaN,NaN,,0.46687009317836853,-0.059997911699850213,0.20325567942000003,-0.959750871328668,-0.269583814037214,-0.943604450569129,0.029401931904170286,,NaN,NaN,NaN,NaN,NaN,NaN,NaN,,-0.027678740275065075,-0.22002929547579514,0.08853618955999999,0.016354284869901245,,-3.142655e-05,-2.8014183e-06,1.3113022e-06,1.0,1.902366e-05,1.2077391e-05,-1.902366e-05,1.0,2.3841858e-07,-1.20783225e-05,-2.3841858e-07,1.0
0.8709778669290245,10:06:04.714374,10:05:11.733378,0,,0.546622,0.17157784,0.14520259,0.05963003,0.6404047,0.7657194,-0.4938353,-0.6477129,0.58016783,0.86750853,-0.41273463,0.27763125,,NaN,NaN,NaN,NaN,NaN,NaN,NaN,NaN,NaN,NaN,NaN,NaN,,0.11842539,1.3491913,0.50428617,0.9998746,0.015567183,-0.0029183524,0.011577507,-0.8441104,-0.53604436,-0.010808112,0.5359433,-0.84418476,,-0.50812453,0.3433925,-0.11639812,-0.08082979,-0.6128403,-0.78606194,0.021546235,-0.7895325,0.6133305,-0.996495,0.0326387,0.07702214,,NaN,NaN,NaN,NaN,NaN,NaN,NaN,NaN,NaN,NaN,NaN,NaN,,0.46687009317836853,-0.059997911699850213,0.20325567942000003,-0.959750871328668,-0.269583814037214,-0.943604450569129,0.029401931904170286,,NaN,NaN,NaN,NaN,NaN,NaN,NaN,,-0.027678740275065075,-0.22002929547579514,0.08853618955999999,0.016354284869901245,,-3.142655e-05,-2.8014183e-06,1.3113022e-06,1.0,1.902366e-05,1.2077391e-05,-1.902366e-05,1.0,2.3841858e-07,-1.20783225e-05,-2.3841858e-07,1.0
0.8887430471368134,10:06:04.728186,10:05:11.733378,0,,0.546622,0.17157784,0.14520259,0.05963003,0.6404047,0.7657194,-0.4938353,-0.6477129,0.58016783,0.86750853,-0.41273463,0.27763125,,NaN,NaN,NaN,NaN,NaN,NaN,NaN,NaN,NaN,NaN,NaN,NaN,,0.11842539,1.3491913,0.50428617,0.9998746,0.015567183,-0.0029183524,0.011577507,-0.8441104,-0.53604436,-0.010808112,0.5359433,-0.84418476,,-0.50812453,0.3433925,-0.11639812,-0.08082979,-0.6128403,-0.78606194,0.021546235,-0.7895325,0.6133305,-0.996495,0.0326387,0.07702214,,NaN,NaN,NaN,NaN,NaN,NaN,NaN,NaN,NaN,NaN,NaN,NaN,,0.46687009317836853,-0.059997911699850213,0.20325567942000003,-0.959750871328668,-0.269583814037214,-0.943604450569129,0.029401931904170286,,NaN,NaN,NaN,NaN,NaN,NaN,NaN,,-0.027678740275065075,-0.22002929547579514,0.08853618955999999,0.016354284869901245,,-3.142655e-05,-2.8014183e-06,1.3113022e-06,1.0,1.902366e-05,1.2077391e-05,-1.902366e-05,1.0,2.3841858e-07,-1.20783225e-05,-2.3841858e-07,1.0
0.9025507089681923,10:06:04.745439,10:05:11.733378,0,,0.546622,0.17157784,0.14520259,0.05963003,0.6404047,0.7657194,-0.4938353,-0.6477129,0.58016783,0.86750853,-0.41273463,0.27763125,,NaN,NaN,NaN,NaN,NaN,NaN,NaN,NaN,NaN,NaN,NaN,NaN,,0.11842539,1.3491913,0.50428617,0.9998746,0.015567183,-0.0029183524,0.011577507,-0.8441104,-0.53604436,-0.010808112,0.5359433,-0.84418476,,-0.50812453,0.3433925,-0.11639812,-0.08082979,-0.6128403,-0.78606194,0.021546235,-0.7895325,0.6133305,-0.996495,0.0326387,0.07702214,,NaN,NaN,NaN,NaN,NaN,NaN,NaN,NaN,NaN,NaN,NaN,NaN,,0.46687009317836853,-0.059997911699850213,0.20325567942000003,-0.959750871328668,-0.269583814037214,-0.943604450569129,0.029401931904170286,,NaN,NaN,NaN,NaN,NaN,NaN,NaN,,-0.027678740275065075,-0.22002929547579514,0.08853618955999999,0.016354284869901245,,-3.142655e-05,-2.8014183e-06,1.3113022e-06,1.0,1.902366e-05,1.2077391e-05,-1.902366e-05,1.0,2.3841858e-07,-1.20783225e-05,-2.3841858e-07,1.0
0.9197948910295963,10:06:04.759099,10:05:11.733378,0,,0.546622,0.17157784,0.14520259,0.05963003,0.6404047,0.7657194,-0.4938353,-0.6477129,0.58016783,0.86750853,-0.41273463,0.27763125,,NaN,NaN,NaN,NaN,NaN,NaN,NaN,NaN,NaN,NaN,NaN,NaN,,0.11842539,1.3491913,0.50428617,0.9998746,0.015567183,-0.0029183524,0.011577507,-0.8441104,-0.53604436,-0.010808112,0.5359433,-0.84418476,,-0.50812453,0.3433925,-0.11639812,-0.08082979,-0.6128403,-0.78606194,0.021546235,-0.7895325,0.6133305,-0.996495,0.0326387,0.07702214,,NaN,NaN,NaN,NaN,NaN,NaN,NaN,NaN,NaN,NaN,NaN,NaN,,0.46687009317836853,-0.059997911699850213,0.20325567942000003,-0.959750871328668,-0.269583814037214,-0.943604450569129,0.029401931904170286,,NaN,NaN,NaN,NaN,NaN,NaN,NaN,,-0.027678740275065075,-0.22002929547579514,0.08853618955999999,0.016354284869901245,,-3.142655e-05,-2.8014183e-06,1.3113022e-06,1.0,1.902366e-05,1.2077391e-05,-1.902366e-05,1.0,2.3841858e-07,-1.20783225e-05,-2.3841858e-07,1.0
0.9334340738132596,10:06:04.777170,10:05:11.812973,0,,0.546622,0.17157784,0.14520259,0.05963003,0.6404047,0.7657194,-0.4938353,-0.6477129,0.58016783,0.86750853,-0.41273463,0.27763125,,NaN,NaN,NaN,NaN,NaN,NaN,NaN,NaN,NaN,NaN,NaN,NaN,,0.11842539,1.3491913,0.50428617,0.9998746,0.015567183,-0.0029183524,0.011577507,-0.8441104,-0.53604436,-0.010808112,0.5359433,-0.84418476,,-0.50812453,0.3433925,-0.11639812,-0.08082979,-0.6128403,-0.78606194,0.021546235,-0.7895325,0.6133305,-0.996495,0.0326387,0.07702214,,NaN,NaN,NaN,NaN,NaN,NaN,NaN,NaN,NaN,NaN,NaN,NaN,,0.46687009317836853,-0.059997911699850213,0.20325567942000003,-0.959750871328668,-0.269583814037214,-0.943604450569129,0.029401931904170286,,NaN,NaN,NaN,NaN,NaN,NaN,NaN,,-0.027678740275065075,-0.22002929547579514,0.08853618955999999,0.016354284869901245,,-3.142655e-05,-2.8014183e-06,1.3113022e-06,1.0,1.902366e-05,1.2077391e-05,-1.902366e-05,1.0,2.3841858e-07,-1.20783225e-05,-2.3841858e-07,1.0
0.9514611507765949,10:06:04.794571,10:05:11.812973,0,,0.546622,0.17157784,0.14520259,0.05963003,0.6404047,0.7657194,-0.4938353,-0.6477129,0.58016783,0.86750853,-0.41273463,0.27763125,,NaN,NaN,NaN,NaN,NaN,NaN,NaN,NaN,NaN,NaN,NaN,NaN,,0.11842539,1.3491913,0.50428617,0.9998746,0.015567183,-0.0029183524,0.011577507,-0.8441104,-0.53604436,-0.010808112,0.5359433,-0.84418476,,-0.50812453,0.3433925,-0.11639812,-0.08082979,-0.6128403,-0.78606194,0.021546235,-0.7895325,0.6133305,-0.996495,0.0326387,0.07702214,,NaN,NaN,NaN,NaN,NaN,NaN,NaN,NaN,NaN,NaN,NaN,NaN,,0.46687009317836853,-0.059997911699850213,0.20325567942000003,-0.959750871328668,-0.269583814037214,-0.943604450569129,0.029401931904170286,,NaN,NaN,NaN,NaN,NaN,NaN,NaN,,-0.027678740275065075,-0.22002929547579514,0.08853618955999999,0.016354284869901245,,-3.142655e-05,-2.8014183e-06,1.3113022e-06,1.0,1.902366e-05,1.2077391e-05,-1.902366e-05,1.0,2.3841858e-07,-1.20783225e-05,-2.3841858e-07,1.0
0.9689160687848926,10:06:04.808118,10:05:11.812973,0,,0.546622,0.17157784,0.14520259,0.05963003,0.6404047,0.7657194,-0.4938353,-0.6477129,0.58016783,0.86750853,-0.41273463,0.27763125,,NaN,NaN,NaN,NaN,NaN,NaN,NaN,NaN,NaN,NaN,NaN,NaN,,0.11842539,1.3491913,0.50428617,0.9998746,0.015567183,-0.0029183524,0.011577507,-0.8441104,-0.53604436,-0.010808112,0.5359433,-0.84418476,,-0.50812453,0.3433925,-0.11639812,-0.08082979,-0.6128403,-0.78606194,0.021546235,-0.7895325,0.6133305,-0.996495,0.0326387,0.07702214,,NaN,NaN,NaN,NaN,NaN,NaN,NaN,NaN,NaN,NaN,NaN,NaN,,0.46687009317836853,-0.059997911699850213,0.20325567942000003,-0.959750871328668,-0.269583814037214,-0.943604450569129,0.029401931904170286,,NaN,NaN,NaN,NaN,NaN,NaN,NaN,,-0.027678740275065075,-0.22002929547579514,0.08853618955999999,0.016354284869901245,,-3.142655e-05,-2.8014183e-06,1.3113022e-06,1.0,1.902366e-05,1.2077391e-05,-1.902366e-05,1.0,2.3841858e-07,-1.20783225e-05,-2.3841858e-07,1.0
0.9824645300395787,10:06:04.825114,10:05:11.812973,0,,0.5466225,0.17157792,0.14520396,0.059623517,0.6404081,0.765717,-0.4938355,-0.64771247,0.58016807,0.8675089,-0.41272986,0.27763733,,NaN,NaN,NaN,NaN,NaN,NaN,NaN,NaN,NaN,NaN,NaN,NaN,,0.11842539,1.3491913,0.50428617,0.9998746,0.015567183,-0.0029183524,0.011577507,-0.8441104,-0.53604436,-0.010808112,0.5359433,-0.84418476,,-0.5081251,0.34339327,-0.11639925,-0.080823295,-0.6128439,-0.7860598,0.021546438,-0.78952986,0.6133338,-0.99649554,0.032634873,0.077017,,NaN,NaN,NaN,NaN,NaN,NaN,NaN,NaN,NaN,NaN,NaN,NaN,,0.4668623704454943,-0.059997911699850213,0.20325567942000003,-0.959750871328668,-0.269583814037214,-0.943604450569129,0.029401931904170286,,NaN,NaN,NaN,NaN,NaN,NaN,NaN,,-0.027678740275065075,-0.22002929547579514,0.08853618955999999,0.016354284869901245,,-3.142655e-05,-2.8014183e-06,1.3113022e-06,1.0,1.902366e-05,1.2077391e-05,-1.902366e-05,1.0,2.3841858e-07,-1.20783225e-05,-2.3841858e-07,1.0
0.9994557751342654,10:06:04.846287,10:05:11.812973,0,,0.5466225,0.17157792,0.14520396,0.059623517,0.6404081,0.765717,-0.4938355,-0.64771247,0.58016807,0.8675089,-0.41272986,0.27763733,,NaN,NaN,NaN,NaN,NaN,NaN,NaN,NaN,NaN,NaN,NaN,NaN,,0.11842539,1.3491913,0.50428617,0.9998746,0.015567183,-0.0029183524,0.011577507,-0.8441104,-0.53604436,-0.010808112,0.5359433,-0.84418476,,-0.5081251,0.34339327,-0.11639925,-0.080823295,-0.6128439,-0.7860598,0.021546438,-0.78952986,0.6133338,-0.99649554,0.032634873,0.077017,,NaN,NaN,NaN,NaN,NaN,NaN,NaN,NaN,NaN,NaN,NaN,NaN,,0.4668623704454943,-0.059997911699850213,0.20325567942000003,-0.959750871328668,-0.269583814037214,-0.943604450569129,0.029401931904170286,,NaN,NaN,NaN,NaN,NaN,NaN,NaN,,-0.027678740275065075,-0.22002929547579514,0.08853618955999999,0.016354284869901245,,-3.142655e-05,-2.8014183e-06,1.3113022e-06,1.0,1.902366e-05,1.2077391e-05,-1.902366e-05,1.0,2.3841858e-07,-1.20783225e-05,-2.3841858e-07,1.0
1.0206316150724888,10:06:04.864818,10:05:11.891361,0,,0.546622,0.17157784,0.14520259,0.05963003,0.6404047,0.7657194,-0.4938353,-0.6477129,0.58016783,0.86750853,-0.41273463,0.27763125,,NaN,NaN,NaN,NaN,NaN,NaN,NaN,NaN,NaN,NaN,NaN,NaN,,0.11842539,1.3491913,0.50428617,0.9998746,0.015567183,-0.0029183524,0.011577507,-0.8441104,-0.53604436,-0.010808112,0.5359433,-0.84418476,,-0.50812453,0.3433925,-0.11639812,-0.08082979,-0.6128403,-0.78606194,0.021546235,-0.7895325,0.6133305,-0.996495,0.0326387,0.07702214,,NaN,NaN,NaN,NaN,NaN,NaN,NaN,NaN,NaN,NaN,NaN,NaN,,0.46687009317836853,-0.059997911699850213,0.20325567942000003,-0.959750871328668,-0.269583814037214,-0.943604450569129,0.029401931904170286,,NaN,NaN,NaN,NaN,NaN,NaN,NaN,,-0.027678740275065075,-0.22002929547579514,0.08853618955999999,0.016354284869901245,,-3.142655e-05,-2.8014183e-06,1.3113022e-06,1.0,1.902366e-05,1.2077391e-05,-1.902366e-05,1.0,2.3841858e-07,-1.20783225e-05,-2.3841858e-07,1.0
1.0391829828731716,10:06:04.884302,10:05:11.891361,0,,0.546622,0.17157784,0.14520259,0.05963003,0.6404047,0.7657194,-0.4938353,-0.6477129,0.58016783,0.86750853,-0.41273463,0.27763125,,NaN,NaN,NaN,NaN,NaN,NaN,NaN,NaN,NaN,NaN,NaN,NaN,,0.11842539,1.3491913,0.50428617,0.9998746,0.015567183,-0.0029183524,0.011577507,-0.8441104,-0.53604436,-0.010808112,0.5359433,-0.84418476,,-0.50812453,0.3433925,-0.11639812,-0.08082979,-0.6128403,-0.78606194,0.021546235,-0.7895325,0.6133305,-0.996495,0.0326387,0.07702214,,NaN,NaN,NaN,NaN,NaN,NaN,NaN,NaN,NaN,NaN,NaN,NaN,,0.46687009317836853,-0.059997911699850213,0.20325567942000003,-0.959750871328668,-0.269583814037214,-0.943604450569129,0.029401931904170286,,NaN,NaN,NaN,NaN,NaN,NaN,NaN,,-0.027678740275065075,-0.22002929547579514,0.08853618955999999,0.016354284869901245,,-3.142655e-05,-2.8014183e-06,1.3113022e-06,1.0,1.902366e-05,1.2077391e-05,-1.902366e-05,1.0,2.3841858e-07,-1.20783225e-05,-2.3841858e-07,1.0
1.0586598478257656,10:06:04.901686,10:05:11.891361,0,,0.5466225,0.17157792,0.14520396,0.059623517,0.6404081,0.765717,-0.4938355,-0.64771247,0.58016807,0.8675089,-0.41272986,0.27763733,,NaN,NaN,NaN,NaN,NaN,NaN,NaN,NaN,NaN,NaN,NaN,NaN,,0.11842539,1.3491913,0.50428617,0.9998746,0.015567183,-0.0029183524,0.011577507,-0.8441104,-0.53604436,-0.010808112,0.5359433,-0.84418476,,-0.5081251,0.34339327,-0.11639925,-0.080823295,-0.6128439,-0.7860598,0.021546438,-0.78952986,0.6133338,-0.99649554,0.032634873,0.077017,,NaN,NaN,NaN,NaN,NaN,NaN,NaN,NaN,NaN,NaN,NaN,NaN,,0.4668623704454943,-0.059997911699850213,0.20325567942000003,-0.959750871328668,-0.269583814037214,-0.943604450569129,0.029401931904170286,,NaN,NaN,NaN,NaN,NaN,NaN,NaN,,-0.027678740275065075,-0.22002929547579514,0.08853618955999999,0.016354284869901245,,-3.142655e-05,-2.8014183e-06,1.3113022e-06,1.0,1.902366e-05,1.2077391e-05,-1.902366e-05,1.0,2.3841858e-07,-1.20783225e-05,-2.3841858e-07,1.0
1.0760544501245022,10:06:04.917707,10:05:11.891361,0,,0.546622,0.17157784,0.14520259,0.05963003,0.6404047,0.7657194,-0.4938353,-0.6477129,0.58016783,0.86750853,-0.41273463,0.27763125,,NaN,NaN,NaN,NaN,NaN,NaN,NaN,NaN,NaN,NaN,NaN,NaN,,0.11842539,1.3491913,0.50428617,0.9998746,0.015567183,-0.0029183524,0.011577507,-0.8441104,-0.53604436,-0.010808112,0.5359433,-0.84418476,,-0.50812453,0.3433925,-0.11639812,-0.08082979,-0.6128403,-0.78606194,0.021546235,-0.7895325,0.6133305,-0.996495,0.0326387,0.07702214,,NaN,NaN,NaN,NaN,NaN,NaN,NaN,NaN,NaN,NaN,NaN,NaN,,0.46687009317836853,-0.059997911699850213,0.20325567942000003,-0.959750871328668,-0.269583814037214,-0.943604450569129,0.029401931904170286,,NaN,NaN,NaN,NaN,NaN,NaN,NaN,,-0.027678740275065075,-0.22002929547579514,0.08853618955999999,0.016354284869901245,,-3.142655e-05,-2.8014183e-06,1.3113022e-06,1.0,1.902366e-05,1.2077391e-05,-1.902366e-05,1.0,2.3841858e-07,-1.20783225e-05,-2.3841858e-07,1.0
1.092061690054834,10:06:04.935702,10:05:11.968167,0,,0.546622,0.17157784,0.14520259,0.05963003,0.6404047,0.7657194,-0.4938353,-0.6477129,0.58016783,0.86750853,-0.41273463,0.27763125,,NaN,NaN,NaN,NaN,NaN,NaN,NaN,NaN,NaN,NaN,NaN,NaN,,0.11842539,1.3491913,0.50428617,0.9998746,0.015567183,-0.0029183524,0.011577507,-0.8441104,-0.53604436,-0.010808112,0.5359433,-0.84418476,,-0.50812453,0.3433925,-0.11639812,-0.08082979,-0.6128403,-0.78606194,0.021546235,-0.7895325,0.6133305,-0.996495,0.0326387,0.07702214,,NaN,NaN,NaN,NaN,NaN,NaN,NaN,NaN,NaN,NaN,NaN,NaN,,0.46687009317836853,-0.059997911699850213,0.20325567942000003,-0.959750871328668,-0.269583814037214,-0.943604450569129,0.029401931904170286,,NaN,NaN,NaN,NaN,NaN,NaN,NaN,,-0.027678740275065075,-0.22002929547579514,0.08853618955999999,0.016354284869901245,,-3.142655e-05,-2.8014183e-06,1.3113022e-06,1.0,1.902366e-05,1.2077391e-05,-1.902366e-05,1.0,2.3841858e-07,-1.20783225e-05,-2.3841858e-07,1.0
1.1097086938098073,10:06:04.953739,10:05:11.968167,0,,0.546622,0.17157784,0.14520259,0.05963003,0.6404047,0.7657194,-0.4938353,-0.6477129,0.58016783,0.86750853,-0.41273463,0.27763125,,NaN,NaN,NaN,NaN,NaN,NaN,NaN,NaN,NaN,NaN,NaN,NaN,,0.11842539,1.3491913,0.50428617,0.9998746,0.015567183,-0.0029183524,0.011577507,-0.8441104,-0.53604436,-0.010808112,0.5359433,-0.84418476,,-0.50812453,0.3433925,-0.11639812,-0.08082979,-0.6128403,-0.78606194,0.021546235,-0.7895325,0.6133305,-0.996495,0.0326387,0.07702214,,NaN,NaN,NaN,NaN,NaN,NaN,NaN,NaN,NaN,NaN,NaN,NaN,,0.46687009317836853,-0.059997911699850213,0.20325567942000003,-0.959750871328668,-0.269583814037214,-0.943604450569129,0.029401931904170286,,NaN,NaN,NaN,NaN,NaN,NaN,NaN,,-0.027678740275065075,-0.22002929547579514,0.08853618955999999,0.016354284869901245,,-3.142655e-05,-2.8014183e-06,1.3113022e-06,1.0,1.902366e-05,1.2077391e-05,-1.902366e-05,1.0,2.3841858e-07,-1.20783225e-05,-2.3841858e-07,1.0
1.128105997107923,10:06:04.968693,10:05:11.968167,0,,0.546622,0.17157784,0.14520259,0.05963003,0.6404047,0.7657194,-0.4938353,-0.6477129,0.58016783,0.86750853,-0.41273463,0.27763125,,NaN,NaN,NaN,NaN,NaN,NaN,NaN,NaN,NaN,NaN,NaN,NaN,,0.11842539,1.3491913,0.50428617,0.9998746,0.015567183,-0.0029183524,0.011577507,-0.8441104,-0.53604436,-0.010808112,0.5359433,-0.84418476,,-0.50812453,0.3433925,-0.11639812,-0.08082979,-0.6128403,-0.78606194,0.021546235,-0.7895325,0.6133305,-0.996495,0.0326387,0.07702214,,NaN,NaN,NaN,NaN,NaN,NaN,NaN,NaN,NaN,NaN,NaN,NaN,,0.46687009317836853,-0.059997911699850213,0.20325567942000003,-0.959750871328668,-0.269583814037214,-0.943604450569129,0.029401931904170286,,NaN,NaN,NaN,NaN,NaN,NaN,NaN,,-0.027678740275065075,-0.22002929547579514,0.08853618955999999,0.016354284869901245,,-3.142655e-05,-2.8014183e-06,1.3113022e-06,1.0,1.902366e-05,1.2077391e-05,-1.902366e-05,1.0,2.3841858e-07,-1.20783225e-05,-2.3841858e-07,1.0
1.143063107971102,10:06:04.985178,10:05:11.968167,0,,0.546622,0.17157784,0.14520259,0.05963003,0.6404047,0.7657194,-0.4938353,-0.6477129,0.58016783,0.86750853,-0.41273463,0.27763125,,NaN,NaN,NaN,NaN,NaN,NaN,NaN,NaN,NaN,NaN,NaN,NaN,,0.11842539,1.3491913,0.50428617,0.9998746,0.015567183,-0.0029183524,0.011577507,-0.8441104,-0.53604436,-0.010808112,0.5359433,-0.84418476,,-0.50812453,0.3433925,-0.11639812,-0.08082979,-0.6128403,-0.78606194,0.021546235,-0.7895325,0.6133305,-0.996495,0.0326387,0.07702214,,NaN,NaN,NaN,NaN,NaN,NaN,NaN,NaN,NaN,NaN,NaN,NaN,,0.46687009317836853,-0.059997911699850213,0.20325567942000003,-0.959750871328668,-0.269583814037214,-0.943604450569129,0.029401931904170286,,NaN,NaN,NaN,NaN,NaN,NaN,NaN,,-0.027678740275065075,-0.22002929547579514,0.08853618955999999,0.016354284869901245,,-3.142655e-05,-2.8014183e-06,1.3113022e-06,1.0,1.902366e-05,1.2077391e-05,-1.902366e-05,1.0,2.3841858e-07,-1.20783225e-05,-2.3841858e-07,1.0
1.1595463128760457,10:06:05.000498,10:05:11.968167,0,,0.5466225,0.17157792,0.14520396,0.059623517,0.6404081,0.765717,-0.4938355,-0.64771247,0.58016807,0.8675089,-0.41272986,0.27763733,,NaN,NaN,NaN,NaN,NaN,NaN,NaN,NaN,NaN,NaN,NaN,NaN,,0.11842539,1.3491913,0.50428617,0.9998746,0.015567183,-0.0029183524,0.011577507,-0.8441104,-0.53604436,-0.010808112,0.5359433,-0.84418476,,-0.5081251,0.34339327,-0.11639925,-0.080823295,-0.6128439,-0.7860598,0.021546438,-0.78952986,0.6133338,-0.99649554,0.032634873,0.077017,,NaN,NaN,NaN,NaN,NaN,NaN,NaN,NaN,NaN,NaN,NaN,NaN,,0.4668623704454943,-0.059997911699850213,0.20325567942000003,-0.959750871328668,-0.269583814037214,-0.943604450569129,0.029401931904170286,,NaN,NaN,NaN,NaN,NaN,NaN,NaN,,-0.027678740275065075,-0.22002929547579514,0.08853618955999999,0.016354284869901245,,-3.142655e-05,-2.8014183e-06,1.3113022e-06,1.0,1.902366e-05,1.2077391e-05,-1.902366e-05,1.0,2.3841858e-07,-1.20783225e-05,-2.3841858e-07,1.0
1.1748666348867118,10:06:05.017796,10:05:12.053570,0,,0.5466225,0.17157792,0.14520396,0.059623517,0.6404081,0.765717,-0.4938355,-0.64771247,0.58016807,0.8675089,-0.41272986,0.27763733,,NaN,NaN,NaN,NaN,NaN,NaN,NaN,NaN,NaN,NaN,NaN,NaN,,0.11842539,1.3491913,0.50428617,0.9998746,0.015567183,-0.0029183524,0.011577507,-0.8441104,-0.53604436,-0.010808112,0.5359433,-0.84418476,,-0.5081251,0.34339327,-0.11639925,-0.080823295,-0.6128439,-0.7860598,0.021546438,-0.78952986,0.6133338,-0.99649554,0.032634873,0.077017,,NaN,NaN,NaN,NaN,NaN,NaN,NaN,NaN,NaN,NaN,NaN,NaN,,0.4668623704454943,-0.059997911699850213,0.20325567942000003,-0.959750871328668,-0.269583814037214,-0.943604450569129,0.029401931904170286,,NaN,NaN,NaN,NaN,NaN,NaN,NaN,,-0.027678740275065075,-0.22002929547579514,0.08853618955999999,0.016354284869901245,,-3.142655e-05,-2.8014183e-06,1.3113022e-06,1.0,1.902366e-05,1.2077391e-05,-1.902366e-05,1.0,2.3841858e-07,-1.20783225e-05,-2.3841858e-07,1.0
1.1921657281927764,10:06:05.030923,10:05:12.053570,0,,0.546622,0.17157784,0.14520259,0.05963003,0.6404047,0.7657194,-0.4938353,-0.6477129,0.58016783,0.86750853,-0.41273463,0.27763125,,NaN,NaN,NaN,NaN,NaN,NaN,NaN,NaN,NaN,NaN,NaN,NaN,,0.11842539,1.3491913,0.50428617,0.9998746,0.015567183,-0.0029183524,0.011577507,-0.8441104,-0.53604436,-0.010808112,0.5359433,-0.84418476,,-0.50812453,0.3433925,-0.11639812,-0.08082979,-0.6128403,-0.78606194,0.021546235,-0.7895325,0.6133305,-0.996495,0.0326387,0.07702214,,NaN,NaN,NaN,NaN,NaN,NaN,NaN,NaN,NaN,NaN,NaN,NaN,,0.46687009317836853,-0.059997911699850213,0.20325567942000003,-0.959750871328668,-0.269583814037214,-0.943604450569129,0.029401931904170286,,NaN,NaN,NaN,NaN,NaN,NaN,NaN,,-0.027678740275065075,-0.22002929547579514,0.08853618955999999,0.016354284869901245,,-3.142655e-05,-2.8014183e-06,1.3113022e-06,1.0,1.902366e-05,1.2077391e-05,-1.902366e-05,1.0,2.3841858e-07,-1.20783225e-05,-2.3841858e-07,1.0
1.205283261835575,10:06:05.049873,10:05:12.053570,0,,0.546622,0.17157784,0.14520259,0.05963003,0.6404047,0.7657194,-0.4938353,-0.6477129,0.58016783,0.86750853,-0.41273463,0.27763125,,NaN,NaN,NaN,NaN,NaN,NaN,NaN,NaN,NaN,NaN,NaN,NaN,,0.11842539,1.3491913,0.50428617,0.9998746,0.015567183,-0.0029183524,0.011577507,-0.8441104,-0.53604436,-0.010808112,0.5359433,-0.84418476,,-0.50812453,0.3433925,-0.11639812,-0.08082979,-0.6128403,-0.78606194,0.021546235,-0.7895325,0.6133305,-0.996495,0.0326387,0.07702214,,NaN,NaN,NaN,NaN,NaN,NaN,NaN,NaN,NaN,NaN,NaN,NaN,,0.46687009317836853,-0.059997911699850213,0.20325567942000003,-0.959750871328668,-0.269583814037214,-0.943604450569129,0.029401931904170286,,NaN,NaN,NaN,NaN,NaN,NaN,NaN,,-0.027678740275065075,-0.22002929547579514,0.08853618955999999,0.016354284869901245,,-3.142655e-05,-2.8014183e-06,1.3113022e-06,1.0,1.902366e-05,1.2077391e-05,-1.902366e-05,1.0,2.3841858e-07,-1.20783225e-05,-2.3841858e-07,1.0
1.2242331998422742,10:06:05.067898,10:05:12.053570,0,,0.546622,0.17157784,0.14520259,0.05963003,0.6404047,0.7657194,-0.4938353,-0.6477129,0.58016783,0.86750853,-0.41273463,0.27763125,,NaN,NaN,NaN,NaN,NaN,NaN,NaN,NaN,NaN,NaN,NaN,NaN,,0.11842539,1.3491913,0.50428617,0.9998746,0.015567183,-0.0029183524,0.011577507,-0.8441104,-0.53604436,-0.010808112,0.5359433,-0.84418476,,-0.50812453,0.3433925,-0.11639812,-0.08082979,-0.6128403,-0.78606194,0.021546235,-0.7895325,0.6133305,-0.996495,0.0326387,0.07702214,,NaN,NaN,NaN,NaN,NaN,NaN,NaN,NaN,NaN,NaN,NaN,NaN,,0.46687009317836853,-0.059997911699850213,0.20325567942000003,-0.959750871328668,-0.269583814037214,-0.943604450569129,0.029401931904170286,,NaN,NaN,NaN,NaN,NaN,NaN,NaN,,-0.027678740275065075,-0.22002929547579514,0.08853618955999999,0.016354284869901245,,-3.142655e-05,-2.8014183e-06,1.3113022e-06,1.0,1.902366e-05,1.2077391e-05,-1.902366e-05,1.0,2.3841858e-07,-1.20783225e-05,-2.3841858e-07,1.0
1.2422169730998576,10:06:05.082460,10:05:12.053570,0,,0.5466225,0.17157792,0.14520396,0.059623517,0.6404081,0.765717,-0.4938355,-0.64771247,0.58016807,0.8675089,-0.41272986,0.27763733,,NaN,NaN,NaN,NaN,NaN,NaN,NaN,NaN,NaN,NaN,NaN,NaN,,0.11842539,1.3491913,0.50428617,0.9998746,0.015567183,-0.0029183524,0.011577507,-0.8441104,-0.53604436,-0.010808112,0.5359433,-0.84418476,,-0.5081251,0.34339327,-0.11639925,-0.080823295,-0.6128439,-0.7860598,0.021546438,-0.78952986,0.6133338,-0.99649554,0.032634873,0.077017,,NaN,NaN,NaN,NaN,NaN,NaN,NaN,NaN,NaN,NaN,NaN,NaN,,0.4668623704454943,-0.059997911699850213,0.20325567942000003,-0.959750871328668,-0.269583814037214,-0.943604450569129,0.029401931904170286,,NaN,NaN,NaN,NaN,NaN,NaN,NaN,,-0.027678740275065075,-0.22002929547579514,0.08853618955999999,0.016354284869901245,,-3.142655e-05,-2.8014183e-06,1.3113022e-06,1.0,1.902366e-05,1.2077391e-05,-1.902366e-05,1.0,2.3841858e-07,-1.20783225e-05,-2.3841858e-07,1.0
1.2568294340744615,10:06:05.099512,10:05:12.125659,0,,0.546622,0.17157784,0.14520259,0.05963003,0.6404047,0.7657194,-0.4938353,-0.6477129,0.58016783,0.86750853,-0.41273463,0.27763125,,NaN,NaN,NaN,NaN,NaN,NaN,NaN,NaN,NaN,NaN,NaN,NaN,,0.11842539,1.3491913,0.50428617,0.9998746,0.015567183,-0.0029183524,0.011577507,-0.8441104,-0.53604436,-0.010808112,0.5359433,-0.84418476,,-0.50812453,0.3433925,-0.11639812,-0.08082979,-0.6128403,-0.78606194,0.021546235,-0.7895325,0.6133305,-0.996495,0.0326387,0.07702214,,NaN,NaN,NaN,NaN,NaN,NaN,NaN,NaN,NaN,NaN,NaN,NaN,,0.46687009317836853,-0.059997911699850213,0.20325567942000003,-0.959750871328668,-0.269583814037214,-0.943604450569129,0.029401931904170286,,NaN,NaN,NaN,NaN,NaN,NaN,NaN,,-0.027678740275065075,-0.22002929547579514,0.08853618955999999,0.016354284869901245,,-3.142655e-05,-2.8014183e-06,1.3113022e-06,1.0,1.902366e-05,1.2077391e-05,-1.902366e-05,1.0,2.3841858e-07,-1.20783225e-05,-2.3841858e-07,1.0
1.2738743419758976,10:06:05.117344,10:05:12.125659,0,,0.546622,0.17157784,0.14520259,0.05963003,0.6404047,0.7657194,-0.4938353,-0.6477129,0.58016783,0.86750853,-0.41273463,0.27763125,,NaN,NaN,NaN,NaN,NaN,NaN,NaN,NaN,NaN,NaN,NaN,NaN,,0.11842539,1.3491913,0.50428617,0.9998746,0.015567183,-0.0029183524,0.011577507,-0.8441104,-0.53604436,-0.010808112,0.5359433,-0.84418476,,-0.50812453,0.3433925,-0.11639812,-0.08082979,-0.6128403,-0.78606194,0.021546235,-0.7895325,0.6133305,-0.996495,0.0326387,0.07702214,,NaN,NaN,NaN,NaN,NaN,NaN,NaN,NaN,NaN,NaN,NaN,NaN,,0.46687009317836853,-0.059997911699850213,0.20325567942000003,-0.959750871328668,-0.269583814037214,-0.943604450569129,0.029401931904170286,,NaN,NaN,NaN,NaN,NaN,NaN,NaN,,-0.027678740275065075,-0.22002929547579514,0.08853618955999999,0.016354284869901245,,-3.142655e-05,-2.8014183e-06,1.3113022e-06,1.0,1.902366e-05,1.2077391e-05,-1.902366e-05,1.0,2.3841858e-07,-1.20783225e-05,-2.3841858e-07,1.0
1.291714830789715,10:06:05.135178,10:05:12.125659,0,,0.546622,0.17157784,0.14520259,0.05963003,0.6404047,0.7657194,-0.4938353,-0.6477129,0.58016783,0.86750853,-0.41273463,0.27763125,,NaN,NaN,NaN,NaN,NaN,NaN,NaN,NaN,NaN,NaN,NaN,NaN,,0.11842539,1.3491913,0.50428617,0.9998746,0.015567183,-0.0029183524,0.011577507,-0.8441104,-0.53604436,-0.010808112,0.5359433,-0.84418476,,-0.50812453,0.3433925,-0.11639812,-0.08082979,-0.6128403,-0.78606194,0.021546235,-0.7895325,0.6133305,-0.996495,0.0326387,0.07702214,,NaN,NaN,NaN,NaN,NaN,NaN,NaN,NaN,NaN,NaN,NaN,NaN,,0.46687009317836853,-0.059997911699850213,0.20325567942000003,-0.959750871328668,-0.269583814037214,-0.943604450569129,0.029401931904170286,,NaN,NaN,NaN,NaN,NaN,NaN,NaN,,-0.027678740275065075,-0.22002929547579514,0.08853618955999999,0.016354284869901245,,-3.142655e-05,-2.8014183e-06,1.3113022e-06,1.0,1.902366e-05,1.2077391e-05,-1.902366e-05,1.0,2.3841858e-07,-1.20783225e-05,-2.3841858e-07,1.0
1.309547693002969,10:06:05.152101,10:05:12.125659,0,,0.5466225,0.17157792,0.14520396,0.059623517,0.6404081,0.765717,-0.4938355,-0.64771247,0.58016807,0.8675089,-0.41272986,0.27763733,,NaN,NaN,NaN,NaN,NaN,NaN,NaN,NaN,NaN,NaN,NaN,NaN,,0.11842539,1.3491913,0.50428617,0.9998746,0.015567183,-0.0029183524,0.011577507,-0.8441104,-0.53604436,-0.010808112,0.5359433,-0.84418476,,-0.5081251,0.34339327,-0.11639925,-0.080823295,-0.6128439,-0.7860598,0.021546438,-0.78952986,0.6133338,-0.99649554,0.032634873,0.077017,,NaN,NaN,NaN,NaN,NaN,NaN,NaN,NaN,NaN,NaN,NaN,NaN,,0.4668623704454943,-0.059997911699850213,0.20325567942000003,-0.959750871328668,-0.269583814037214,-0.943604450569129,0.029401931904170286,,NaN,NaN,NaN,NaN,NaN,NaN,NaN,,-0.027678740275065075,-0.22002929547579514,0.08853618955999999,0.016354284869901245,,-3.142655e-05,-2.8014183e-06,1.3113022e-06,1.0,1.902366e-05,1.2077391e-05,-1.902366e-05,1.0,2.3841858e-07,-1.20783225e-05,-2.3841858e-07,1.0
1.3264395389705896,10:06:05.169977,10:05:12.201573,0,,0.5466225,0.17157792,0.14520396,0.059623517,0.6404081,0.765717,-0.4938355,-0.64771247,0.58016807,0.8675089,-0.41272986,0.27763733,,NaN,NaN,NaN,NaN,NaN,NaN,NaN,NaN,NaN,NaN,NaN,NaN,,0.11842539,1.3491913,0.50428617,0.9998746,0.015567183,-0.0029183524,0.011577507,-0.8441104,-0.53604436,-0.010808112,0.5359433,-0.84418476,,-0.5081251,0.34339327,-0.11639925,-0.080823295,-0.6128439,-0.7860598,0.021546438,-0.78952986,0.6133338,-0.99649554,0.032634873,0.077017,,NaN,NaN,NaN,NaN,NaN,NaN,NaN,NaN,NaN,NaN,NaN,NaN,,0.4668623704454943,-0.059997911699850213,0.20325567942000003,-0.959750871328668,-0.269583814037214,-0.943604450569129,0.029401931904170286,,NaN,NaN,NaN,NaN,NaN,NaN,NaN,,-0.027678740275065075,-0.22002929547579514,0.08853618955999999,0.016354284869901245,,-3.142655e-05,-2.8014183e-06,1.3113022e-06,1.0,1.902366e-05,1.2077391e-05,-1.902366e-05,1.0,2.3841858e-07,-1.20783225e-05,-2.3841858e-07,1.0
1.3443472138606012,10:06:05.188217,10:05:12.201573,0,,0.546622,0.17157784,0.14520259,0.05963003,0.6404047,0.7657194,-0.4938353,-0.6477129,0.58016783,0.86750853,-0.41273463,0.27763125,,NaN,NaN,NaN,NaN,NaN,NaN,NaN,NaN,NaN,NaN,NaN,NaN,,0.11842539,1.3491913,0.50428617,0.9998746,0.015567183,-0.0029183524,0.011577507,-0.8441104,-0.53604436,-0.010808112,0.5359433,-0.84418476,,-0.50812453,0.3433925,-0.11639812,-0.08082979,-0.6128403,-0.78606194,0.021546235,-0.7895325,0.6133305,-0.996495,0.0326387,0.07702214,,NaN,NaN,NaN,NaN,NaN,NaN,NaN,NaN,NaN,NaN,NaN,NaN,,0.46687009317836853,-0.059997911699850213,0.20325567942000003,-0.959750871328668,-0.269583814037214,-0.943604450569129,0.029401931904170286,,NaN,NaN,NaN,NaN,NaN,NaN,NaN,,-0.027678740275065075,-0.22002929547579514,0.08853618955999999,0.016354284869901245,,-3.142655e-05,-2.8014183e-06,1.3113022e-06,1.0,1.902366e-05,1.2077391e-05,-1.902366e-05,1.0,2.3841858e-07,-1.20783225e-05,-2.3841858e-07,1.0
1.362537199165672,10:06:05.205988,10:05:12.201573,0,,0.546622,0.17157784,0.14520259,0.05963003,0.6404047,0.7657194,-0.4938353,-0.6477129,0.58016783,0.86750853,-0.41273463,0.27763125,,NaN,NaN,NaN,NaN,NaN,NaN,NaN,NaN,NaN,NaN,NaN,NaN,,0.11842539,1.3491913,0.50428617,0.9998746,0.015567183,-0.0029183524,0.011577507,-0.8441104,-0.53604436,-0.010808112,0.5359433,-0.84418476,,-0.50812453,0.3433925,-0.11639812,-0.08082979,-0.6128403,-0.78606194,0.021546235,-0.7895325,0.6133305,-0.996495,0.0326387,0.07702214,,NaN,NaN,NaN,NaN,NaN,NaN,NaN,NaN,NaN,NaN,NaN,NaN,,0.46687009317836853,-0.059997911699850213,0.20325567942000003,-0.959750871328668,-0.269583814037214,-0.943604450569129,0.029401931904170286,,NaN,NaN,NaN,NaN,NaN,NaN,NaN,,-0.027678740275065075,-0.22002929547579514,0.08853618955999999,0.016354284869901245,,-3.142655e-05,-2.8014183e-06,1.3113022e-06,1.0,1.902366e-05,1.2077391e-05,-1.902366e-05,1.0,2.3841858e-07,-1.20783225e-05,-2.3841858e-07,1.0
1.3803276647813618,10:06:05.221015,10:05:12.201573,0,,0.546622,0.17157784,0.14520259,0.05963003,0.6404047,0.7657194,-0.4938353,-0.6477129,0.58016783,0.86750853,-0.41273463,0.27763125,,NaN,NaN,NaN,NaN,NaN,NaN,NaN,NaN,NaN,NaN,NaN,NaN,,0.11842539,1.3491913,0.50428617,0.9998746,0.015567183,-0.0029183524,0.011577507,-0.8441104,-0.53604436,-0.010808112,0.5359433,-0.84418476,,-0.50812453,0.3433925,-0.11639812,-0.08082979,-0.6128403,-0.78606194,0.021546235,-0.7895325,0.6133305,-0.996495,0.0326387,0.07702214,,NaN,NaN,NaN,NaN,NaN,NaN,NaN,NaN,NaN,NaN,NaN,NaN,,0.46687009317836853,-0.059997911699850213,0.20325567942000003,-0.959750871328668,-0.269583814037214,-0.943604450569129,0.029401931904170286,,NaN,NaN,NaN,NaN,NaN,NaN,NaN,,-0.027678740275065075,-0.22002929547579514,0.08853618955999999,0.016354284869901245,,-3.142655e-05,-2.8014183e-06,1.3113022e-06,1.0,1.902366e-05,1.2077391e-05,-1.902366e-05,1.0,2.3841858e-07,-1.20783225e-05,-2.3841858e-07,1.0
1.395384191069752,10:06:05.237149,10:05:12.201573,0,,0.546622,0.17157784,0.14520259,0.05963003,0.6404047,0.7657194,-0.4938353,-0.6477129,0.58016783,0.86750853,-0.41273463,0.27763125,,NaN,NaN,NaN,NaN,NaN,NaN,NaN,NaN,NaN,NaN,NaN,NaN,,0.11842539,1.3491913,0.50428617,0.9998746,0.015567183,-0.0029183524,0.011577507,-0.8441104,-0.53604436,-0.010808112,0.5359433,-0.84418476,,-0.50812453,0.3433925,-0.11639812,-0.08082979,-0.6128403,-0.78606194,0.021546235,-0.7895325,0.6133305,-0.996495,0.0326387,0.07702214,,NaN,NaN,NaN,NaN,NaN,NaN,NaN,NaN,NaN,NaN,NaN,NaN,,0.46687009317836853,-0.059997911699850213,0.20325567942000003,-0.959750871328668,-0.269583814037214,-0.943604450569129,0.029401931904170286,,NaN,NaN,NaN,NaN,NaN,NaN,NaN,,-0.027678740275065075,-0.22002929547579514,0.08853618955999999,0.016354284869901245,,-3.142655e-05,-2.8014183e-06,1.3113022e-06,1.0,1.902366e-05,1.2077391e-05,-1.902366e-05,1.0,2.3841858e-07,-1.20783225e-05,-2.3841858e-07,1.0
1.4115176158957183,10:06:05.256376,10:05:12.283640,0,,0.546622,0.17157784,0.14520259,0.05963003,0.6404047,0.7657194,-0.4938353,-0.6477129,0.58016783,0.86750853,-0.41273463,0.27763125,,NaN,NaN,NaN,NaN,NaN,NaN,NaN,NaN,NaN,NaN,NaN,NaN,,0.11842539,1.3491913,0.50428617,0.9998746,0.015567183,-0.0029183524,0.011577507,-0.8441104,-0.53604436,-0.010808112,0.5359433,-0.84418476,,-0.50812453,0.3433925,-0.11639812,-0.08082979,-0.6128403,-0.78606194,0.021546235,-0.7895325,0.6133305,-0.996495,0.0326387,0.07702214,,NaN,NaN,NaN,NaN,NaN,NaN,NaN,NaN,NaN,NaN,NaN,NaN,,0.46687009317836853,-0.059997911699850213,0.20325567942000003,-0.959750871328668,-0.269583814037214,-0.943604450569129,0.029401931904170286,,NaN,NaN,NaN,NaN,NaN,NaN,NaN,,-0.027678740275065075,-0.22002929547579514,0.08853618955999999,0.016354284869901245,,-3.142655e-05,-2.8014183e-06,1.3113022e-06,1.0,1.902366e-05,1.2077391e-05,-1.902366e-05,1.0,2.3841858e-07,-1.20783225e-05,-2.3841858e-07,1.0
1.4307045731693506,10:06:05.270758,10:05:12.283640,0,,0.546622,0.17157784,0.14520259,0.05963003,0.6404047,0.7657194,-0.4938353,-0.6477129,0.58016783,0.86750853,-0.41273463,0.27763125,,NaN,NaN,NaN,NaN,NaN,NaN,NaN,NaN,NaN,NaN,NaN,NaN,,0.11842539,1.3491913,0.50428617,0.9998746,0.015567183,-0.0029183524,0.011577507,-0.8441104,-0.53604436,-0.010808112,0.5359433,-0.84418476,,-0.50812453,0.3433925,-0.11639812,-0.08082979,-0.6128403,-0.78606194,0.021546235,-0.7895325,0.6133305,-0.996495,0.0326387,0.07702214,,NaN,NaN,NaN,NaN,NaN,NaN,NaN,NaN,NaN,NaN,NaN,NaN,,0.46687009317836853,-0.059997911699850213,0.20325567942000003,-0.959750871328668,-0.269583814037214,-0.943604450569129,0.029401931904170286,,NaN,NaN,NaN,NaN,NaN,NaN,NaN,,-0.027678740275065075,-0.22002929547579514,0.08853618955999999,0.016354284869901245,,-3.142655e-05,-2.8014183e-06,1.3113022e-06,1.0,1.902366e-05,1.2077391e-05,-1.902366e-05,1.0,2.3841858e-07,-1.20783225e-05,-2.3841858e-07,1.0
1.4451152891851962,10:06:05.286120,10:05:12.283640,0,,0.546622,0.17157784,0.14520259,0.05963003,0.6404047,0.7657194,-0.4938353,-0.6477129,0.58016783,0.86750853,-0.41273463,0.27763125,,NaN,NaN,NaN,NaN,NaN,NaN,NaN,NaN,NaN,NaN,NaN,NaN,,0.11842539,1.3491913,0.50428617,0.9998746,0.015567183,-0.0029183524,0.011577507,-0.8441104,-0.53604436,-0.010808112,0.5359433,-0.84418476,,-0.50812453,0.3433925,-0.11639812,-0.08082979,-0.6128403,-0.78606194,0.021546235,-0.7895325,0.6133305,-0.996495,0.0326387,0.07702214,,NaN,NaN,NaN,NaN,NaN,NaN,NaN,NaN,NaN,NaN,NaN,NaN,,0.46687009317836853,-0.059997911699850213,0.20325567942000003,-0.959750871328668,-0.269583814037214,-0.943604450569129,0.029401931904170286,,NaN,NaN,NaN,NaN,NaN,NaN,NaN,,-0.027678740275065075,-0.22002929547579514,0.08853618955999999,0.016354284869901245,,-3.142655e-05,-2.8014183e-06,1.3113022e-06,1.0,1.902366e-05,1.2077391e-05,-1.902366e-05,1.0,2.3841858e-07,-1.20783225e-05,-2.3841858e-07,1.0
1.4604883040301502,10:06:05.303936,10:05:12.283640,0,,0.546622,0.17157784,0.14520259,0.05963003,0.6404047,0.7657194,-0.4938353,-0.6477129,0.58016783,0.86750853,-0.41273463,0.27763125,,NaN,NaN,NaN,NaN,NaN,NaN,NaN,NaN,NaN,NaN,NaN,NaN,,0.11842539,1.3491913,0.50428617,0.9998746,0.015567183,-0.0029183524,0.011577507,-0.8441104,-0.53604436,-0.010808112,0.5359433,-0.84418476,,-0.50812453,0.3433925,-0.11639812,-0.08082979,-0.6128403,-0.78606194,0.021546235,-0.7895325,0.6133305,-0.996495,0.0326387,0.07702214,,NaN,NaN,NaN,NaN,NaN,NaN,NaN,NaN,NaN,NaN,NaN,NaN,,0.46687009317836853,-0.059997911699850213,0.20325567942000003,-0.959750871328668,-0.269583814037214,-0.943604450569129,0.029401931904170286,,NaN,NaN,NaN,NaN,NaN,NaN,NaN,,-0.027678740275065075,-0.22002929547579514,0.08853618955999999,0.016354284869901245,,-3.142655e-05,-2.8014183e-06,1.3113022e-06,1.0,1.902366e-05,1.2077391e-05,-1.902366e-05,1.0,2.3841858e-07,-1.20783225e-05,-2.3841858e-07,1.0
1.4782207338139415,10:06:05.320117,10:05:12.283640,0,,0.5466225,0.17157792,0.14520396,0.059623517,0.6404081,0.765717,-0.4938355,-0.64771247,0.58016807,0.8675089,-0.41272986,0.27763733,,NaN,NaN,NaN,NaN,NaN,NaN,NaN,NaN,NaN,NaN,NaN,NaN,,0.11842539,1.3491913,0.50428617,0.9998746,0.015567183,-0.0029183524,0.011577507,-0.8441104,-0.53604436,-0.010808112,0.5359433,-0.84418476,,-0.5081251,0.34339327,-0.11639925,-0.080823295,-0.6128439,-0.7860598,0.021546438,-0.78952986,0.6133338,-0.99649554,0.032634873,0.077017,,NaN,NaN,NaN,NaN,NaN,NaN,NaN,NaN,NaN,NaN,NaN,NaN,,0.4668623704454943,-0.059997911699850213,0.20325567942000003,-0.959750871328668,-0.269583814037214,-0.943604450569129,0.029401931904170286,,NaN,NaN,NaN,NaN,NaN,NaN,NaN,,-0.027678740275065075,-0.22002929547579514,0.08853618955999999,0.016354284869901245,,-3.142655e-05,-2.8014183e-06,1.3113022e-06,1.0,1.902366e-05,1.2077391e-05,-1.902366e-05,1.0,2.3841858e-07,-1.20783225e-05,-2.3841858e-07,1.0
1.4944868790917099,10:06:05.338993,10:05:12.362424,0,,0.5466225,0.17157792,0.14520396,0.059623517,0.6404081,0.765717,-0.4938355,-0.64771247,0.58016807,0.8675089,-0.41272986,0.27763733,,NaN,NaN,NaN,NaN,NaN,NaN,NaN,NaN,NaN,NaN,NaN,NaN,,0.11842539,1.3491913,0.50428617,0.9998746,0.015567183,-0.0029183524,0.011577507,-0.8441104,-0.53604436,-0.010808112,0.5359433,-0.84418476,,-0.5081251,0.34339327,-0.11639925,-0.080823295,-0.6128439,-0.7860598,0.021546438,-0.78952986,0.6133338,-0.99649554,0.032634873,0.077017,,NaN,NaN,NaN,NaN,NaN,NaN,NaN,NaN,NaN,NaN,NaN,NaN,,0.4668623704454943,-0.059997911699850213,0.20325567942000003,-0.959750871328668,-0.269583814037214,-0.943604450569129,0.029401931904170286,,NaN,NaN,NaN,NaN,NaN,NaN,NaN,,-0.027678740275065075,-0.22002929547579514,0.08853618955999999,0.016354284869901245,,-3.142655e-05,-2.8014183e-06,1.3113022e-06,1.0,1.902366e-05,1.2077391e-05,-1.902366e-05,1.0,2.3841858e-07,-1.20783225e-05,-2.3841858e-07,1.0
1.5111230090260506,10:06:05.353177,10:05:12.362424,0,,0.5466225,0.17157792,0.14520396,0.059623517,0.6404081,0.765717,-0.4938355,-0.64771247,0.58016807,0.8675089,-0.41272986,0.27763733,,NaN,NaN,NaN,NaN,NaN,NaN,NaN,NaN,NaN,NaN,NaN,NaN,,0.11842539,1.3491913,0.50428617,0.9998746,0.015567183,-0.0029183524,0.011577507,-0.8441104,-0.53604436,-0.010808112,0.5359433,-0.84418476,,-0.5081251,0.34339327,-0.11639925,-0.080823295,-0.6128439,-0.7860598,0.021546438,-0.78952986,0.6133338,-0.99649554,0.032634873,0.077017,,NaN,NaN,NaN,NaN,NaN,NaN,NaN,NaN,NaN,NaN,NaN,NaN,,0.4668623704454943,-0.059997911699850213,0.20325567942000003,-0.959750871328668,-0.269583814037214,-0.943604450569129,0.029401931904170286,,NaN,NaN,NaN,NaN,NaN,NaN,NaN,,-0.027678740275065075,-0.22002929547579514,0.08853618955999999,0.016354284869901245,,-3.142655e-05,-2.8014183e-06,1.3113022e-06,1.0,1.902366e-05,1.2077391e-05,-1.902366e-05,1.0,2.3841858e-07,-1.20783225e-05,-2.3841858e-07,1.0
1.5275422688573599,10:06:05.370487,10:05:12.362424,0,,0.546622,0.17157784,0.14520259,0.05963003,0.6404047,0.7657194,-0.4938353,-0.6477129,0.58016783,0.86750853,-0.41273463,0.27763125,,NaN,NaN,NaN,NaN,NaN,NaN,NaN,NaN,NaN,NaN,NaN,NaN,,0.11842539,1.3491913,0.50428617,0.9998746,0.015567183,-0.0029183524,0.011577507,-0.8441104,-0.53604436,-0.010808112,0.5359433,-0.84418476,,-0.50812453,0.3433925,-0.11639812,-0.08082979,-0.6128403,-0.78606194,0.021546235,-0.7895325,0.6133305,-0.996495,0.0326387,0.07702214,,NaN,NaN,NaN,NaN,NaN,NaN,NaN,NaN,NaN,NaN,NaN,NaN,,0.46687009317836853,-0.059997911699850213,0.20325567942000003,-0.959750871328668,-0.269583814037214,-0.943604450569129,0.029401931904170286,,NaN,NaN,NaN,NaN,NaN,NaN,NaN,,-0.027678740275065075,-0.22002929547579514,0.08853618955999999,0.016354284869901245,,-3.142655e-05,-2.8014183e-06,1.3113022e-06,1.0,1.902366e-05,1.2077391e-05,-1.902366e-05,1.0,2.3841858e-07,-1.20783225e-05,-2.3841858e-07,1.0
1.5446858489885926,10:06:05.385668,10:05:12.362424,0,,0.546622,0.17157784,0.14520259,0.05963003,0.6404047,0.7657194,-0.4938353,-0.6477129,0.58016783,0.86750853,-0.41273463,0.27763125,,NaN,NaN,NaN,NaN,NaN,NaN,NaN,NaN,NaN,NaN,NaN,NaN,,0.11842539,1.3491913,0.50428617,0.9998746,0.015567183,-0.0029183524,0.011577507,-0.8441104,-0.53604436,-0.010808112,0.5359433,-0.84418476,,-0.50812453,0.3433925,-0.11639812,-0.08082979,-0.6128403,-0.78606194,0.021546235,-0.7895325,0.6133305,-0.996495,0.0326387,0.07702214,,NaN,NaN,NaN,NaN,NaN,NaN,NaN,NaN,NaN,NaN,NaN,NaN,,0.46687009317836853,-0.059997911699850213,0.20325567942000003,-0.959750871328668,-0.269583814037214,-0.943604450569129,0.029401931904170286,,NaN,NaN,NaN,NaN,NaN,NaN,NaN,,-0.027678740275065075,-0.22002929547579514,0.08853618955999999,0.016354284869901245,,-3.142655e-05,-2.8014183e-06,1.3113022e-06,1.0,1.902366e-05,1.2077391e-05,-1.902366e-05,1.0,2.3841858e-07,-1.20783225e-05,-2.3841858e-07,1.0
1.5600316291674972,10:06:05.402002,10:05:12.362424,0,,0.546622,0.17157784,0.14520259,0.05963003,0.6404047,0.7657194,-0.4938353,-0.6477129,0.58016783,0.86750853,-0.41273463,0.27763125,,NaN,NaN,NaN,NaN,NaN,NaN,NaN,NaN,NaN,NaN,NaN,NaN,,0.11842539,1.3491913,0.50428617,0.9998746,0.015567183,-0.0029183524,0.011577507,-0.8441104,-0.53604436,-0.010808112,0.5359433,-0.84418476,,-0.50812453,0.3433925,-0.11639812,-0.08082979,-0.6128403,-0.78606194,0.021546235,-0.7895325,0.6133305,-0.996495,0.0326387,0.07702214,,NaN,NaN,NaN,NaN,NaN,NaN,NaN,NaN,NaN,NaN,NaN,NaN,,0.46687009317836853,-0.059997911699850213,0.20325567942000003,-0.959750871328668,-0.269583814037214,-0.943604450569129,0.029401931904170286,,NaN,NaN,NaN,NaN,NaN,NaN,NaN,,-0.027678740275065075,-0.22002929547579514,0.08853618955999999,0.016354284869901245,,-3.142655e-05,-2.8014183e-06,1.3113022e-06,1.0,1.902366e-05,1.2077391e-05,-1.902366e-05,1.0,2.3841858e-07,-1.20783225e-05,-2.3841858e-07,1.0
1.5763705158606172,10:06:05.418983,10:05:12.362424,0,,0.546622,0.17157784,0.14520259,0.05963003,0.6404047,0.7657194,-0.4938353,-0.6477129,0.58016783,0.86750853,-0.41273463,0.27763125,,NaN,NaN,NaN,NaN,NaN,NaN,NaN,NaN,NaN,NaN,NaN,NaN,,0.11842539,1.3491913,0.50428617,0.9998746,0.015567183,-0.0029183524,0.011577507,-0.8441104,-0.53604436,-0.010808112,0.5359433,-0.84418476,,-0.50812453,0.3433925,-0.11639812,-0.08082979,-0.6128403,-0.78606194,0.021546235,-0.7895325,0.6133305,-0.996495,0.0326387,0.07702214,,NaN,NaN,NaN,NaN,NaN,NaN,NaN,NaN,NaN,NaN,NaN,NaN,,0.46687009317836853,-0.059997911699850213,0.20325567942000003,-0.959750871328668,-0.269583814037214,-0.943604450569129,0.029401931904170286,,NaN,NaN,NaN,NaN,NaN,NaN,NaN,,-0.027678740275065075,-0.22002929547579514,0.08853618955999999,0.016354284869901245,,-3.142655e-05,-2.8014183e-06,1.3113022e-06,1.0,1.902366e-05,1.2077391e-05,-1.902366e-05,1.0,2.3841858e-07,-1.20783225e-05,-2.3841858e-07,1.0
1.5933279967866838,10:06:05.434886,10:05:12.362424,0,,0.546622,0.17157784,0.14520259,0.05963003,0.6404047,0.7657194,-0.4938353,-0.6477129,0.58016783,0.86750853,-0.41273463,0.27763125,,NaN,NaN,NaN,NaN,NaN,NaN,NaN,NaN,NaN,NaN,NaN,NaN,,0.11842539,1.3491913,0.50428617,0.9998746,0.015567183,-0.0029183524,0.011577507,-0.8441104,-0.53604436,-0.010808112,0.5359433,-0.84418476,,-0.50812453,0.3433925,-0.11639812,-0.08082979,-0.6128403,-0.78606194,0.021546235,-0.7895325,0.6133305,-0.996495,0.0326387,0.07702214,,NaN,NaN,NaN,NaN,NaN,NaN,NaN,NaN,NaN,NaN,NaN,NaN,,0.46687009317836853,-0.059997911699850213,0.20325567942000003,-0.959750871328668,-0.269583814037214,-0.943604450569129,0.029401931904170286,,NaN,NaN,NaN,NaN,NaN,NaN,NaN,,-0.027678740275065075,-0.22002929547579514,0.08853618955999999,0.016354284869901245,,-3.142655e-05,-2.8014183e-06,1.3113022e-06,1.0,1.902366e-05,1.2077391e-05,-1.902366e-05,1.0,2.3841858e-07,-1.20783225e-05,-2.3841858e-07,1.0
1.6092390660196543,10:06:05.454277,10:05:12.485887,0,,0.546622,0.17157784,0.14520259,0.05963003,0.6404047,0.7657194,-0.4938353,-0.6477129,0.58016783,0.86750853,-0.41273463,0.27763125,,NaN,NaN,NaN,NaN,NaN,NaN,NaN,NaN,NaN,NaN,NaN,NaN,,0.11842539,1.3491913,0.50428617,0.9998746,0.015567183,-0.0029183524,0.011577507,-0.8441104,-0.53604436,-0.010808112,0.5359433,-0.84418476,,-0.50812453,0.3433925,-0.11639812,-0.08082979,-0.6128403,-0.78606194,0.021546235,-0.7895325,0.6133305,-0.996495,0.0326387,0.07702214,,NaN,NaN,NaN,NaN,NaN,NaN,NaN,NaN,NaN,NaN,NaN,NaN,,0.46687009317836853,-0.059997911699850213,0.20325567942000003,-0.959750871328668,-0.269583814037214,-0.943604450569129,0.029401931904170286,,NaN,NaN,NaN,NaN,NaN,NaN,NaN,,-0.027678740275065075,-0.22002929547579514,0.08853618955999999,0.016354284869901245,,-3.142655e-05,-2.8014183e-06,1.3113022e-06,1.0,1.902366e-05,1.2077391e-05,-1.902366e-05,1.0,2.3841858e-07,-1.20783225e-05,-2.3841858e-07,1.0
1.6284717950038612,10:06:05.471278,10:05:12.485887,0,,0.546622,0.17157784,0.14520259,0.05963003,0.6404047,0.7657194,-0.4938353,-0.6477129,0.58016783,0.86750853,-0.41273463,0.27763125,,NaN,NaN,NaN,NaN,NaN,NaN,NaN,NaN,NaN,NaN,NaN,NaN,,0.11842539,1.3491913,0.50428617,0.9998746,0.015567183,-0.0029183524,0.011577507,-0.8441104,-0.53604436,-0.010808112,0.5359433,-0.84418476,,-0.50812453,0.3433925,-0.11639812,-0.08082979,-0.6128403,-0.78606194,0.021546235,-0.7895325,0.6133305,-0.996495,0.0326387,0.07702214,,NaN,NaN,NaN,NaN,NaN,NaN,NaN,NaN,NaN,NaN,NaN,NaN,,0.46687009317836853,-0.059997911699850213,0.20325567942000003,-0.959750871328668,-0.269583814037214,-0.943604450569129,0.029401931904170286,,NaN,NaN,NaN,NaN,NaN,NaN,NaN,,-0.027678740275065075,-0.22002929547579514,0.08853618955999999,0.016354284869901245,,-3.142655e-05,-2.8014183e-06,1.3113022e-06,1.0,1.902366e-05,1.2077391e-05,-1.902366e-05,1.0,2.3841858e-07,-1.20783225e-05,-2.3841858e-07,1.0
1.645633929874748,10:06:05.486092,10:05:12.485887,0,,0.5466225,0.17157792,0.14520396,0.059623517,0.6404081,0.765717,-0.4938355,-0.64771247,0.58016807,0.8675089,-0.41272986,0.27763733,,NaN,NaN,NaN,NaN,NaN,NaN,NaN,NaN,NaN,NaN,NaN,NaN,,0.11842539,1.3491913,0.50428617,0.9998746,0.015567183,-0.0029183524,0.011577507,-0.8441104,-0.53604436,-0.010808112,0.5359433,-0.84418476,,-0.5081251,0.34339327,-0.11639925,-0.080823295,-0.6128439,-0.7860598,0.021546438,-0.78952986,0.6133338,-0.99649554,0.032634873,0.077017,,NaN,NaN,NaN,NaN,NaN,NaN,NaN,NaN,NaN,NaN,NaN,NaN,,0.4668623704454943,-0.059997911699850213,0.20325567942000003,-0.959750871328668,-0.269583814037214,-0.943604450569129,0.029401931904170286,,NaN,NaN,NaN,NaN,NaN,NaN,NaN,,-0.027678740275065075,-0.22002929547579514,0.08853618955999999,0.016354284869901245,,-3.142655e-05,-2.8014183e-06,1.3113022e-06,1.0,1.902366e-05,1.2077391e-05,-1.902366e-05,1.0,2.3841858e-07,-1.20783225e-05,-2.3841858e-07,1.0
1.6604621801525354,10:06:05.503863,10:05:12.485887,0,,0.5466225,0.17157792,0.14520396,0.059623517,0.6404081,0.765717,-0.4938355,-0.64771247,0.58016807,0.8675089,-0.41272986,0.27763733,,NaN,NaN,NaN,NaN,NaN,NaN,NaN,NaN,NaN,NaN,NaN,NaN,,0.11842539,1.3491913,0.50428617,0.9998746,0.015567183,-0.0029183524,0.011577507,-0.8441104,-0.53604436,-0.010808112,0.5359433,-0.84418476,,-0.5081251,0.34339327,-0.11639925,-0.080823295,-0.6128439,-0.7860598,0.021546438,-0.78952986,0.6133338,-0.99649554,0.032634873,0.077017,,NaN,NaN,NaN,NaN,NaN,NaN,NaN,NaN,NaN,NaN,NaN,NaN,,0.4668623704454943,-0.059997911699850213,0.20325567942000003,-0.959750871328668,-0.269583814037214,-0.943604450569129,0.029401931904170286,,NaN,NaN,NaN,NaN,NaN,NaN,NaN,,-0.027678740275065075,-0.22002929547579514,0.08853618955999999,0.016354284869901245,,-3.142655e-05,-2.8014183e-06,1.3113022e-06,1.0,1.902366e-05,1.2077391e-05,-1.902366e-05,1.0,2.3841858e-07,-1.20783225e-05,-2.3841858e-07,1.0
1.6782106421887875,10:06:05.520085,10:05:12.559560,0,,0.546622,0.17157784,0.14520259,0.05963003,0.6404047,0.7657194,-0.4938353,-0.6477129,0.58016783,0.86750853,-0.41273463,0.27763125,,NaN,NaN,NaN,NaN,NaN,NaN,NaN,NaN,NaN,NaN,NaN,NaN,,0.11842539,1.3491913,0.50428617,0.9998746,0.015567183,-0.0029183524,0.011577507,-0.8441104,-0.53604436,-0.010808112,0.5359433,-0.84418476,,-0.50812453,0.3433925,-0.11639812,-0.08082979,-0.6128403,-0.78606194,0.021546235,-0.7895325,0.6133305,-0.996495,0.0326387,0.07702214,,NaN,NaN,NaN,NaN,NaN,NaN,NaN,NaN,NaN,NaN,NaN,NaN,,0.46687009317836853,-0.059997911699850213,0.20325567942000003,-0.959750871328668,-0.269583814037214,-0.943604450569129,0.029401931904170286,,NaN,NaN,NaN,NaN,NaN,NaN,NaN,,-0.027678740275065075,-0.22002929547579514,0.08853618955999999,0.016354284869901245,,-3.142655e-05,-2.8014183e-06,1.3113022e-06,1.0,1.902366e-05,1.2077391e-05,-1.902366e-05,1.0,2.3841858e-07,-1.20783225e-05,-2.3841858e-07,1.0
1.6944507788866758,10:06:05.536476,10:05:12.559560,0,,0.546622,0.17157784,0.14520259,0.05963003,0.6404047,0.7657194,-0.4938353,-0.6477129,0.58016783,0.86750853,-0.41273463,0.27763125,,NaN,NaN,NaN,NaN,NaN,NaN,NaN,NaN,NaN,NaN,NaN,NaN,,0.11842539,1.3491913,0.50428617,0.9998746,0.015567183,-0.0029183524,0.011577507,-0.8441104,-0.53604436,-0.010808112,0.5359433,-0.84418476,,-0.50812453,0.3433925,-0.11639812,-0.08082979,-0.6128403,-0.78606194,0.021546235,-0.7895325,0.6133305,-0.996495,0.0326387,0.07702214,,NaN,NaN,NaN,NaN,NaN,NaN,NaN,NaN,NaN,NaN,NaN,NaN,,0.46687009317836853,-0.059997911699850213,0.20325567942000003,-0.959750871328668,-0.269583814037214,-0.943604450569129,0.029401931904170286,,NaN,NaN,NaN,NaN,NaN,NaN,NaN,,-0.027678740275065075,-0.22002929547579514,0.08853618955999999,0.016354284869901245,,-3.142655e-05,-2.8014183e-06,1.3113022e-06,1.0,1.902366e-05,1.2077391e-05,-1.902366e-05,1.0,2.3841858e-07,-1.20783225e-05,-2.3841858e-07,1.0
1.7105873869732022,10:06:05.555173,10:05:12.559560,0,,0.546622,0.17157784,0.14520259,0.05963003,0.6404047,0.7657194,-0.4938353,-0.6477129,0.58016783,0.86750853,-0.41273463,0.27763125,,NaN,NaN,NaN,NaN,NaN,NaN,NaN,NaN,NaN,NaN,NaN,NaN,,0.11842539,1.3491913,0.50428617,0.9998746,0.015567183,-0.0029183524,0.011577507,-0.8441104,-0.53604436,-0.010808112,0.5359433,-0.84418476,,-0.50812453,0.3433925,-0.11639812,-0.08082979,-0.6128403,-0.78606194,0.021546235,-0.7895325,0.6133305,-0.996495,0.0326387,0.07702214,,NaN,NaN,NaN,NaN,NaN,NaN,NaN,NaN,NaN,NaN,NaN,NaN,,0.46687009317836853,-0.059997911699850213,0.20325567942000003,-0.959750871328668,-0.269583814037214,-0.943604450569129,0.029401931904170286,,NaN,NaN,NaN,NaN,NaN,NaN,NaN,,-0.027678740275065075,-0.22002929547579514,0.08853618955999999,0.016354284869901245,,-3.142655e-05,-2.8014183e-06,1.3113022e-06,1.0,1.902366e-05,1.2077391e-05,-1.902366e-05,1.0,2.3841858e-07,-1.20783225e-05,-2.3841858e-07,1.0
