AlexandreBanks6/ExpertPlaybackApp/resources/Motions/PC1/Data_PC1_21.csv
Task Time,PC1 Time,PC2 Time,Gaze Calib,s_T_psm1,Tx,Ty,Tz,R00,R01,R02,R10,R11,R12,R20,R21,R22,s_T_psm3,Tx,Ty,Tz,R00,R01,R02,R10,R11,R12,R20,R21,R22,cart_T_ecm,Tx,Ty,Tz,R00,R01,R02,R10,R11,R12,R20,R21,R22,ecm_T_psm1,Tx,Ty,Tz,R00,R01,R02,R10,R11,R12,R20,R21,R22,ecm_T_psm3,Tx,Ty,Tz,R00,R01,R02,R10,R11,R12,R20,R21,R22,psm1_joints,q1,q2,q3,q4,q5,q6,jaw,psm3_joints,q1,q2,q3,q4,q5,q6,jaw,ecm_joints,q1,q2,q3,q4,ecmi_T_ecm,Tx,Ty,Tz,R00,R01,R02,R10,R11,R12,R20,R21,R22,Sample #,Task Duration (s),Collisions (binary),Collisions (increments),Cumulative Collision Time (s)
""
lci_T_si,,,,,-0.0686377,0.020352567,0.28901482,0.9953832,0.03963277,0.08741549,0.086206354,-0.769586,-0.6326972,0.04219819,0.637312,-0.76944965
rci_T_si,,,,,-0.078992814,0.025353318,0.29909697,0.9952994,0.022317246,0.094239384,0.07839776,-0.75697154,-0.6487279,0.056858715,0.65306664,-0.75516295
ecm_T_lc,,,,,-4.4061628e-05,-0.00034663224,-0.01840835,-0.99912,0.030754527,0.028518902,-0.031987965,-0.99852574,-0.043852776,0.027128186,-0.04472645,0.9986309
ecm_T_rc,,,,,-0.0043358393,0.01870579,-0.007592615,-0.99555075,-0.052743673,-0.078081585,0.04863213,-0.9973746,0.053654674,-0.08070653,0.04961868,0.9955021
cart_T_ecmi,,,,,0.08979881,1.3490111,0.48508984,0.9960491,0.002693784,-0.08876298,-0.05383719,-0.776592,-0.62769926,-0.07062352,0.629998,-0.7733788
ecmac_T_ecmrep_psm1,,,,,0.08626859,-0.2052861,-0.33370098,0.999004,0.025128257,0.036871605,-0.023534218,0.9987958,-0.04304718,-0.037908904,0.04213656,0.9983924
ecmac_T_ecmrep_psm3,,,,,-0.16209933,-0.49188918,-0.56672233,0.99379694,-0.09876928,0.05111077,0.087427974,0.9779163,0.18983154,-0.068731576,-0.18418549,0.98048544
""
0,10:15:15.644389,NaN,0,,0.027688246,0.04909341,0.07542308,-0.86716056,-0.36980066,-0.3335864,-0.49160296,0.7428335,0.45445013,0.07974324,0.5580732,-0.8259511,,0.13960269,-0.044206895,0.0733439,-0.74265975,-0.6176545,0.25876483,-0.44412267,0.74347866,0.49999437,-0.50121,0.25640228,-0.8264662,,0.089798085,1.3490093,0.48509827,0.99605113,0.0027223998,-0.08873986,-0.05380049,-0.77659196,-0.62770253,-0.07062352,0.629998,-0.7733788,,-0.07251611,0.2789629,-0.07626642,0.8813345,0.2830273,0.3783452,-0.24632727,0.95854217,-0.14324722,-0.40320268,0.033051975,0.91451365,,0.05506487,0.44359082,-0.3703524,0.8666517,0.45689455,-0.2004049,-0.4979349,0.7669575,-0.40476778,-0.031234149,0.45058128,0.89218885,,0.819814430996177,-0.08604668968460949,0.15336925506000001,0.637038048305985,0.1186004817964023,0.30441355242180734,0.8707872165618427,,-0.6228615745048294,-0.6842264099234173,0.12753160278,1.4491671994215478,0.22722649910992745,0.7894661109903209,0.8673569911730228,,-0.06956664232292899,-0.10125745821601603,0.0886362022,-0.034016912529394594,,-1.2218952e-06,6.735325e-06,-5.364418e-06,1.0,2.8494745e-05,2.321601e-05,-2.849847e-05,1.0,2.6226044e-06,-2.3212284e-05,-2.5629997e-06,1.0,NaN,NaN,NaN,NaN,NaN
0.017736179999701562,10:15:15.662299,NaN,0,,0.027688764,0.049091935,0.07542266,-0.8671599,-0.36980432,-0.33358395,-0.49160388,0.7428384,0.4544413,0.07974464,0.55806434,-0.825957,,0.13960269,-0.044206895,0.0733439,-0.74265975,-0.6176545,0.25876483,-0.44412267,0.74347866,0.49999437,-0.50121,0.25640228,-0.8264662,,0.089798085,1.3490093,0.48509827,0.99605113,0.0027223998,-0.08873986,-0.05380049,-0.77659196,-0.62770253,-0.07062352,0.629998,-0.7733788,,-0.07251652,0.27896148,-0.07626702,0.88133377,0.28303146,0.37834367,-0.24632712,0.9585406,-0.14325798,-0.4032043,0.033061795,0.9145126,,0.05506487,0.44359082,-0.3703524,0.8666517,0.45689455,-0.2004049,-0.4979349,0.7669575,-0.40476778,-0.031234149,0.45058128,0.89218885,,0.8198067082633028,-0.08605441241748371,0.15336925506000001,0.637038048305985,0.1186004817964023,0.30441355242180734,0.8707872165618427,,-0.6228615745048294,-0.6842264099234173,0.12753160278,1.4491671994215478,0.22722649910992745,0.7894661109903209,0.8673569911730228,,-0.06956664232292899,-0.10125745821601603,0.0886362022,-0.034016912529394594,,-1.2218952e-06,6.735325e-06,-5.364418e-06,1.0,2.8494745e-05,2.321601e-05,-2.849847e-05,1.0,2.6226044e-06,-2.3212284e-05,-2.5629997e-06,1.0,NaN,NaN,NaN,NaN,NaN
0.03565775799961557,10:15:15.685626,NaN,0,,0.027687792,0.049092367,0.07542305,-0.867159,-0.36980104,-0.33359,-0.49160475,0.74283636,0.45444375,0.07974902,0.55806935,-0.8259531,,0.13960269,-0.044206895,0.0733439,-0.74265975,-0.6176545,0.25876483,-0.44412267,0.74347866,0.49999437,-0.50121,0.25640228,-0.8264662,,0.089798085,1.3490093,0.48509827,0.99605113,0.0027223998,-0.08873986,-0.05380049,-0.77659196,-0.62770253,-0.07062352,0.629998,-0.7733788,,-0.07251561,0.27896214,-0.07626708,0.8813326,0.28302786,0.37834924,-0.2463251,0.95854187,-0.14325309,-0.4032082,0.033056688,0.914511,,0.05506487,0.44359082,-0.3703524,0.8666517,0.45689455,-0.2004049,-0.4979349,0.7669575,-0.40476778,-0.031234149,0.45058128,0.89218885,,0.819814430996177,-0.08605441241748371,0.15336925506000001,0.637038048305985,0.1186004817964023,0.30441355242180734,0.8707872165618427,,-0.6228615745048294,-0.6842264099234173,0.12753160278,1.4491671994215478,0.22722649910992745,0.7894661109903209,0.8673569911730228,,-0.06956664232292899,-0.10125745821601603,0.0886362022,-0.034016912529394594,,-1.2218952e-06,6.735325e-06,-5.364418e-06,1.0,2.8494745e-05,2.321601e-05,-2.849847e-05,1.0,2.6226044e-06,-2.3212284e-05,-2.5629997e-06,1.0,NaN,NaN,NaN,NaN,NaN
0.05900600499990105,10:15:15.701819,NaN,0,,0.027688246,0.04909341,0.07542308,-0.86716056,-0.36980066,-0.3335864,-0.49160296,0.7428335,0.45445013,0.07974324,0.5580732,-0.8259511,,0.13960269,-0.044206895,0.0733439,-0.74265975,-0.6176545,0.25876483,-0.44412267,0.74347866,0.49999437,-0.50121,0.25640228,-0.8264662,,0.089798085,1.3490093,0.48509827,0.99605113,0.0027223998,-0.08873986,-0.05380049,-0.77659196,-0.62770253,-0.07062352,0.629998,-0.7733788,,-0.07251611,0.2789629,-0.07626642,0.8813345,0.2830273,0.3783452,-0.24632727,0.95854217,-0.14324722,-0.40320268,0.033051975,0.91451365,,0.05506487,0.44359082,-0.3703524,0.8666517,0.45689455,-0.2004049,-0.4979349,0.7669575,-0.40476778,-0.031234149,0.45058128,0.89218885,,0.819814430996177,-0.08604668968460949,0.15336925506000001,0.637038048305985,0.1186004817964023,0.30441355242180734,0.8707872165618427,,-0.6228615745048294,-0.6842264099234173,0.12753160278,1.4491671994215478,0.22722649910992745,0.7894661109903209,0.8673569911730228,,-0.06956664232292899,-0.10125745821601603,0.0886362022,-0.034016912529394594,,-1.2218952e-06,6.735325e-06,-5.364418e-06,1.0,2.8494745e-05,2.321601e-05,-2.849847e-05,1.0,2.6226044e-06,-2.3212284e-05,-2.5629997e-06,1.0,NaN,NaN,NaN,NaN,NaN
0.07521478200033016,10:15:15.720822,NaN,0,,0.027687792,0.049092367,0.07542305,-0.867159,-0.36980104,-0.33359,-0.49160475,0.74283636,0.45444375,0.07974902,0.55806935,-0.8259531,,0.13960269,-0.044206895,0.0733439,-0.74265975,-0.6176545,0.25876483,-0.44412267,0.74347866,0.49999437,-0.50121,0.25640228,-0.8264662,,0.089798085,1.3490093,0.48509827,0.99605113,0.0027223998,-0.08873986,-0.05380049,-0.77659196,-0.62770253,-0.07062352,0.629998,-0.7733788,,-0.07251561,0.27896214,-0.07626708,0.8813326,0.28302786,0.37834924,-0.2463251,0.95854187,-0.14325309,-0.4032082,0.033056688,0.914511,,0.05506487,0.44359082,-0.3703524,0.8666517,0.45689455,-0.2004049,-0.4979349,0.7669575,-0.40476778,-0.031234149,0.45058128,0.89218885,,0.819814430996177,-0.08605441241748371,0.15336925506000001,0.637038048305985,0.1186004817964023,0.30441355242180734,0.8707872165618427,,-0.6228615745048294,-0.6842264099234173,0.12753160278,1.4491671994215478,0.22722649910992745,0.7894661109903209,0.8673569911730228,,-0.06956664232292899,-0.10125745821601603,0.0886362022,-0.034016912529394594,,-1.2218952e-06,6.735325e-06,-5.364418e-06,1.0,2.8494745e-05,2.321601e-05,-2.849847e-05,1.0,2.6226044e-06,-2.3212284e-05,-2.5629997e-06,1.0,NaN,NaN,NaN,NaN,NaN
0.09402718000001187,10:15:15.737306,NaN,0,,0.027688764,0.049091935,0.07542266,-0.8671599,-0.36980432,-0.33358395,-0.49160388,0.7428384,0.4544413,0.07974464,0.55806434,-0.825957,,0.13960269,-0.044206895,0.0733439,-0.74265975,-0.6176545,0.25876483,-0.44412267,0.74347866,0.49999437,-0.50121,0.25640228,-0.8264662,,0.089798085,1.3490093,0.48509827,0.99605113,0.0027223998,-0.08873986,-0.05380049,-0.77659196,-0.62770253,-0.07062352,0.629998,-0.7733788,,-0.07251652,0.27896148,-0.07626702,0.88133377,0.28303146,0.37834367,-0.24632712,0.9585406,-0.14325798,-0.4032043,0.033061795,0.9145126,,0.05506487,0.44359082,-0.3703524,0.8666517,0.45689455,-0.2004049,-0.4979349,0.7669575,-0.40476778,-0.031234149,0.45058128,0.89218885,,0.8198067082633028,-0.08605441241748371,0.15336925506000001,0.637038048305985,0.1186004817964023,0.30441355242180734,0.8707872165618427,,-0.6228615745048294,-0.6842264099234173,0.12753160278,1.4491671994215478,0.22722649910992745,0.7894661109903209,0.8673569911730228,,-0.06956664232292899,-0.10125745821601603,0.0886362022,-0.034016912529394594,,-1.2218952e-06,6.735325e-06,-5.364418e-06,1.0,2.8494745e-05,2.321601e-05,-2.849847e-05,1.0,2.6226044e-06,-2.3212284e-05,-2.5629997e-06,1.0,NaN,NaN,NaN,NaN,NaN
0.1106981259999884,10:15:15.760355,NaN,0,,0.027687792,0.049092367,0.07542305,-0.867159,-0.36980104,-0.33359,-0.49160475,0.74283636,0.45444375,0.07974902,0.55806935,-0.8259531,,0.13960269,-0.044206895,0.0733439,-0.74265975,-0.6176545,0.25876483,-0.44412267,0.74347866,0.49999437,-0.50121,0.25640228,-0.8264662,,0.089798085,1.3490093,0.48509827,0.99605113,0.0027223998,-0.08873986,-0.05380049,-0.77659196,-0.62770253,-0.07062352,0.629998,-0.7733788,,-0.07251561,0.27896214,-0.07626708,0.8813326,0.28302786,0.37834924,-0.2463251,0.95854187,-0.14325309,-0.4032082,0.033056688,0.914511,,0.05506487,0.44359082,-0.3703524,0.8666517,0.45689455,-0.2004049,-0.4979349,0.7669575,-0.40476778,-0.031234149,0.45058128,0.89218885,,0.819814430996177,-0.08605441241748371,0.15336925506000001,0.637038048305985,0.1186004817964023,0.30441355242180734,0.8707872165618427,,-0.6228615745048294,-0.6842264099234173,0.12753160278,1.4491671994215478,0.22722649910992745,0.7894661109903209,0.8673569911730228,,-0.06956664232292899,-0.10125745821601603,0.0886362022,-0.034016912529394594,,-1.2218952e-06,6.735325e-06,-5.364418e-06,1.0,2.8494745e-05,2.321601e-05,-2.849847e-05,1.0,2.6226044e-06,-2.3212284e-05,-2.5629997e-06,1.0,NaN,NaN,NaN,NaN,NaN
0.1337198070004888,10:15:15.779108,NaN,0,,0.027688246,0.04909341,0.07542308,-0.86716056,-0.36980066,-0.3335864,-0.49160296,0.7428335,0.45445013,0.07974324,0.5580732,-0.8259511,,0.13960269,-0.044206895,0.0733439,-0.74265975,-0.6176545,0.25876483,-0.44412267,0.74347866,0.49999437,-0.50121,0.25640228,-0.8264662,,0.089798085,1.3490093,0.48509827,0.99605113,0.0027223998,-0.08873986,-0.05380049,-0.77659196,-0.62770253,-0.07062352,0.629998,-0.7733788,,-0.07251611,0.2789629,-0.07626642,0.8813345,0.2830273,0.3783452,-0.24632727,0.95854217,-0.14324722,-0.40320268,0.033051975,0.91451365,,0.05506487,0.44359082,-0.3703524,0.8666517,0.45689455,-0.2004049,-0.4979349,0.7669575,-0.40476778,-0.031234149,0.45058128,0.89218885,,0.819814430996177,-0.08604668968460949,0.15336925506000001,0.637038048305985,0.1186004817964023,0.30441355242180734,0.8707872165618427,,-0.6228615745048294,-0.6842264099234173,0.12753160278,1.4491671994215478,0.22722649910992745,0.7894661109903209,0.8673569911730228,,-0.06956664232292899,-0.10125745821601603,0.0886362022,-0.034016912529394594,,-1.2218952e-06,6.735325e-06,-5.364418e-06,1.0,2.8494745e-05,2.321601e-05,-2.849847e-05,1.0,2.6226044e-06,-2.3212284e-05,-2.5629997e-06,1.0,NaN,NaN,NaN,NaN,NaN
0.15247146199999406,10:15:15.798859,NaN,0,,0.027688246,0.04909341,0.07542308,-0.86716056,-0.36980066,-0.3335864,-0.49160296,0.7428335,0.45445013,0.07974324,0.5580732,-0.8259511,,0.13967636,-0.04416854,0.073337704,-0.74260134,-0.61774564,0.2587152,-0.4442085,0.7434044,0.5000286,-0.5012205,0.25639838,-0.82646096,,0.089798085,1.3490093,0.48509827,0.99605113,0.0027223998,-0.08873986,-0.05380049,-0.77659196,-0.62770253,-0.07062352,0.629998,-0.7733788,,-0.07251611,0.2789629,-0.07626642,0.8813345,0.2830273,0.3783452,-0.24632727,0.95854217,-0.14324722,-0.40320268,0.033051975,0.91451365,,0.054988213,0.44359317,-0.37031993,0.8666087,0.456995,-0.20036218,-0.49800593,0.7669297,-0.4047332,-0.03129736,0.45052686,0.8922141,,0.819814430996177,-0.08604668968460949,0.15336925506000001,0.637038048305985,0.1186004817964023,0.30441355242180734,0.8707872165618427,,-0.6228615745048294,-0.6842264099234173,0.12753160278,1.4491671994215478,0.22722649910992745,0.7894661109903209,0.8673569911730228,,-0.06956664232292899,-0.10125745821601603,0.0886362022,-0.034016912529394594,,-1.2218952e-06,6.735325e-06,-5.364418e-06,1.0,2.8494745e-05,2.321601e-05,-2.849847e-05,1.0,2.6226044e-06,-2.3212284e-05,-2.5629997e-06,1.0,NaN,NaN,NaN,NaN,NaN
0.1722267630002534,10:15:15.820082,NaN,0,,0.027611405,0.049129426,0.075415865,-0.8672079,-0.36973473,-0.33353612,-0.4915213,0.74286264,0.4544906,0.0797306,0.558078,-0.82594895,,0.13966337,-0.044168193,0.07333648,-0.7426251,-0.61771154,0.25872797,-0.44417614,0.74343,0.5000192,-0.50121385,0.25640604,-0.8264626,,0.089815795,1.3490102,0.48509756,0.99604875,0.0026885779,-0.08876719,-0.05384387,-0.7765921,-0.62769866,-0.07062352,0.629998,-0.7733788,,-0.07245123,0.2789964,-0.0762377,0.8813592,0.28299302,0.3783132,-0.24629909,0.95855206,-0.14322941,-0.40316582,0.03305837,0.9145296,,0.054988213,0.44359317,-0.37031993,0.8666087,0.456995,-0.20036218,-0.49800593,0.7669297,-0.4047332,-0.03129736,0.45052686,0.8922141,,0.819814430996177,-0.08605441241748371,0.15336925506000001,0.637038048305985,0.1186004817964023,0.30441355242180734,0.8707872165618427,,-0.6228615745048294,-0.6842264099234173,0.12753160278,1.4491671994215478,0.22722649910992745,0.7894661109903209,0.8673569911730228,,-0.06956664232292899,-0.10125745821601603,0.0886362022,-0.034016912529394594,,1.6417354e-05,5.722046e-06,-6.914139e-06,0.99999994,-5.185604e-06,-4.224479e-06,5.181879e-06,1.0,-4.7683716e-07,4.224479e-06,5.066395e-07,0.99999994,NaN,NaN,NaN,NaN,NaN
0.19343475100049545,10:15:15.842559,NaN,0,,0.02761237,0.049128994,0.07541548,-0.86720884,-0.369738,-0.33353007,-0.49152038,0.7428648,0.4544881,0.07972625,0.558073,-0.82595277,,0.13966337,-0.044168193,0.07333648,-0.7426251,-0.61771154,0.25872797,-0.44417614,0.74343,0.5000192,-0.50121385,0.25640604,-0.8264626,,0.089815795,1.3490102,0.48509756,0.99604875,0.0026885779,-0.08876719,-0.05384387,-0.7765921,-0.62769866,-0.07062352,0.629998,-0.7733788,,-0.072452135,0.27899575,-0.07623764,0.8813605,0.28299662,0.3783076,-0.24630108,0.9585508,-0.14323431,-0.4031619,0.03306348,0.9145312,,0.054988213,0.44359317,-0.37031993,0.8666087,0.456995,-0.20036218,-0.49800593,0.7669297,-0.4047332,-0.03129736,0.45052686,0.8922141,,0.8198067082633028,-0.08605441241748371,0.15336925506000001,0.637038048305985,0.1186004817964023,0.30441355242180734,0.8707872165618427,,-0.6228615745048294,-0.6842264099234173,0.12753160278,1.4491671994215478,0.22722649910992745,0.7894661109903209,0.8673569911730228,,-0.06956664232292899,-0.10125745821601603,0.0886362022,-0.034016912529394594,,1.6417354e-05,5.722046e-06,-6.914139e-06,0.99999994,-5.185604e-06,-4.224479e-06,5.181879e-06,1.0,-4.7683716e-07,4.224479e-06,5.066395e-07,0.99999994,NaN,NaN,NaN,NaN,NaN
0.21590074400046433,10:15:15.860133,NaN,0,,0.02761186,0.049130455,0.075415894,-0.86720943,-0.36973438,-0.3335325,-0.4915195,0.74285996,0.45449698,0.07972485,0.55808187,-0.8259469,,0.13966337,-0.044168193,0.07333648,-0.7426251,-0.61771154,0.25872797,-0.44417614,0.74343,0.5000192,-0.50121385,0.25640604,-0.8264626,,0.089815795,1.3490102,0.48509756,0.99604875,0.0026885779,-0.08876719,-0.05384387,-0.7765921,-0.62769866,-0.07062352,0.629998,-0.7733788,,-0.07245173,0.27899718,-0.07623704,0.8813611,0.28299248,0.37830913,-0.24630123,0.9585524,-0.14322354,-0.4031603,0.03305366,0.91453224,,0.054988213,0.44359317,-0.37031993,0.8666087,0.456995,-0.20036218,-0.49800593,0.7669297,-0.4047332,-0.03129736,0.45052686,0.8922141,,0.819814430996177,-0.08604668968460949,0.15336925506000001,0.637038048305985,0.1186004817964023,0.30441355242180734,0.8707872165618427,,-0.6228615745048294,-0.6842264099234173,0.12753160278,1.4491671994215478,0.22722649910992745,0.7894661109903209,0.8673569911730228,,-0.06956664232292899,-0.10125745821601603,0.0886362022,-0.034016912529394594,,1.6417354e-05,5.722046e-06,-6.914139e-06,0.99999994,-5.185604e-06,-4.224479e-06,5.181879e-06,1.0,-4.7683716e-07,4.224479e-06,5.066395e-07,0.99999994,NaN,NaN,NaN,NaN,NaN
0.23350650999964273,10:15:15.879746,NaN,0,,0.02761186,0.049130455,0.075415894,-0.86720943,-0.36973438,-0.3335325,-0.4915195,0.74285996,0.45449698,0.07972485,0.55808187,-0.8259469,,0.13966337,-0.044168193,0.07333648,-0.7426251,-0.61771154,0.25872797,-0.44417614,0.74343,0.5000192,-0.50121385,0.25640604,-0.8264626,,0.089815795,1.3490102,0.48509756,0.99604875,0.0026885779,-0.08876719,-0.05384387,-0.7765921,-0.62769866,-0.07062352,0.629998,-0.7733788,,-0.07245173,0.27899718,-0.07623704,0.8813611,0.28299248,0.37830913,-0.24630123,0.9585524,-0.14322354,-0.4031603,0.03305366,0.91453224,,0.054988213,0.44359317,-0.37031993,0.8666087,0.456995,-0.20036218,-0.49800593,0.7669297,-0.4047332,-0.03129736,0.45052686,0.8922141,,0.819814430996177,-0.08604668968460949,0.15336925506000001,0.637038048305985,0.1186004817964023,0.30441355242180734,0.8707872165618427,,-0.6228615745048294,-0.6842264099234173,0.12753160278,1.4491671994215478,0.22722649910992745,0.7894661109903209,0.8673569911730228,,-0.06956664232292899,-0.10125745821601603,0.0886362022,-0.034016912529394594,,1.6417354e-05,5.722046e-06,-6.914139e-06,0.99999994,-5.185604e-06,-4.224479e-06,5.181879e-06,1.0,-4.7683716e-07,4.224479e-06,5.066395e-07,0.99999994,NaN,NaN,NaN,NaN,NaN
0.2531022869998196,10:15:15.898010,NaN,0,,0.02761186,0.049130455,0.075415894,-0.86720943,-0.36973438,-0.3335325,-0.4915195,0.74285996,0.45449698,0.07972485,0.55808187,-0.8259469,,0.13966337,-0.044168193,0.07333648,-0.7426251,-0.61771154,0.25872797,-0.44417614,0.74343,0.5000192,-0.50121385,0.25640604,-0.8264626,,0.089815795,1.3490102,0.48509756,0.99604875,0.0026885779,-0.08876719,-0.05384387,-0.7765921,-0.62769866,-0.07062352,0.629998,-0.7733788,,-0.07245173,0.27899718,-0.07623704,0.8813611,0.28299248,0.37830913,-0.24630123,0.9585524,-0.14322354,-0.4031603,0.03305366,0.91453224,,0.054988213,0.44359317,-0.37031993,0.8666087,0.456995,-0.20036218,-0.49800593,0.7669297,-0.4047332,-0.03129736,0.45052686,0.8922141,,0.819814430996177,-0.08604668968460949,0.15336925506000001,0.637038048305985,0.1186004817964023,0.30441355242180734,0.8707872165618427,,-0.6228615745048294,-0.6842264099234173,0.12753160278,1.4491671994215478,0.22722649910992745,0.7894661109903209,0.8673569911730228,,-0.06956664232292899,-0.10125745821601603,0.0886362022,-0.034016912529394594,,1.6417354e-05,5.722046e-06,-6.914139e-06,0.99999994,-5.185604e-06,-4.224479e-06,5.181879e-06,1.0,-4.7683716e-07,4.224479e-06,5.066395e-07,0.99999994,NaN,NaN,NaN,NaN,NaN
0.27138582299994596,10:15:15.918887,NaN,0,,0.02761186,0.049130455,0.075415894,-0.86720943,-0.36978883,-0.33347213,-0.4915195,0.74293417,0.45437562,0.07972485,0.5579469,-0.82603806,,0.13966207,-0.04416858,0.073335946,-0.7426302,-0.617711,0.25871468,-0.4441821,0.7434291,0.50001526,-0.50120103,0.25641003,-0.8264692,,0.089815795,1.3490102,0.48509756,0.99604875,0.0026885779,-0.08876719,-0.05384387,-0.7765921,-0.62769866,-0.07062352,0.629998,-0.7733788,,-0.07245173,0.27899718,-0.07623704,0.8813611,0.28305426,0.3782629,-0.24630123,0.958529,-0.14338012,-0.4031603,0.033203054,0.9145268,,0.054989602,0.4435928,-0.37031987,0.86661255,0.45699403,-0.20034762,-0.4979984,0.76693213,-0.40473786,-0.031309757,0.4505237,0.89221525,,0.819814430996177,-0.08604668968460949,0.15336925506000001,0.637038048305985,0.1186004817964023,0.3042501949415263,0.8704605284295741,,-0.6228461290390809,-0.6842264099234173,0.12753160278,1.4491671994215478,0.22722649910992745,0.7894661109903209,0.8673569911730228,,-0.06956664232292899,-0.10125745821601603,0.0886362022,-0.034016912529394594,,1.6417354e-05,5.722046e-06,-6.914139e-06,0.99999994,-5.185604e-06,-4.224479e-06,5.181879e-06,1.0,-4.7683716e-07,4.224479e-06,5.066395e-07,0.99999994,NaN,NaN,NaN,NaN,NaN
0.2922699990003821,10:15:15.933600,NaN,0,,0.02761186,0.049130455,0.075415894,-0.86720943,-0.36978883,-0.33347213,-0.4915195,0.74293417,0.45437562,0.07972485,0.5579469,-0.82603806,,0.13966207,-0.04416858,0.073335946,-0.7426302,-0.617711,0.25871468,-0.4441821,0.7434291,0.50001526,-0.50120103,0.25641003,-0.8264692,,0.089815795,1.3490102,0.48509756,0.99604875,0.0026885779,-0.08876719,-0.05384387,-0.7765921,-0.62769866,-0.07062352,0.629998,-0.7733788,,-0.07245173,0.27899718,-0.07623704,0.8813611,0.28305426,0.3782629,-0.24630123,0.958529,-0.14338012,-0.4031603,0.033203054,0.9145268,,0.054989602,0.4435928,-0.37031987,0.86661255,0.45699403,-0.20034762,-0.4979984,0.76693213,-0.40473786,-0.031309757,0.4505237,0.89221525,,0.819814430996177,-0.08604668968460949,0.15336925506000001,0.637038048305985,0.1186004817964023,0.3042501949415263,0.8704605284295741,,-0.6228461290390809,-0.6842264099234173,0.12753160278,1.4491671994215478,0.22722649910992745,0.7894661109903209,0.8673569911730228,,-0.06956664232292899,-0.10125745821601603,0.0886362022,-0.034016912529394594,,1.6417354e-05,5.722046e-06,-6.914139e-06,0.99999994,-5.185604e-06,-4.224479e-06,5.181879e-06,1.0,-4.7683716e-07,4.224479e-06,5.066395e-07,0.99999994,NaN,NaN,NaN,NaN,NaN
0.30696486000033474,10:15:15.953121,NaN,0,,0.02761186,0.049130455,0.075415894,-0.86720943,-0.36978883,-0.33347213,-0.4915195,0.74293417,0.45437562,0.07972485,0.5579469,-0.82603806,,0.13966337,-0.044168193,0.07333648,-0.7426251,-0.61771154,0.25872797,-0.44417614,0.74343,0.5000192,-0.50121385,0.25640604,-0.8264626,,0.089815795,1.3490102,0.48509756,0.99604875,0.0026885779,-0.08876719,-0.05384387,-0.7765921,-0.62769866,-0.07062352,0.629998,-0.7733788,,-0.07245173,0.27899718,-0.07623704,0.8813611,0.28305426,0.3782629,-0.24630123,0.958529,-0.14338012,-0.4031603,0.033203054,0.9145268,,0.054988213,0.44359317,-0.37031993,0.8666087,0.456995,-0.20036218,-0.49800593,0.7669297,-0.4047332,-0.03129736,0.45052686,0.8922141,,0.819814430996177,-0.08604668968460949,0.15336925506000001,0.637038048305985,0.1186004817964023,0.3042501949415263,0.8704605284295741,,-0.6228615745048294,-0.6842264099234173,0.12753160278,1.4491671994215478,0.22722649910992745,0.7894661109903209,0.8673569911730228,,-0.06956664232292899,-0.10125745821601603,0.0886362022,-0.034016912529394594,,1.6417354e-05,5.722046e-06,-6.914139e-06,0.99999994,-5.185604e-06,-4.224479e-06,5.181879e-06,1.0,-4.7683716e-07,4.224479e-06,5.066395e-07,0.99999994,NaN,NaN,NaN,NaN,NaN
0.3265139410004849,10:15:15.971843,NaN,0,,0.02761237,0.049128994,0.07541548,-0.86720884,-0.36979252,-0.33346966,-0.49152038,0.74293905,0.4543667,0.07972625,0.557938,-0.82604396,,0.13966337,-0.044168193,0.07333648,-0.7426251,-0.61771154,0.25872797,-0.44417614,0.74343,0.5000192,-0.50121385,0.25640604,-0.8264626,,0.089815795,1.3490102,0.48509756,0.99604875,0.0026885779,-0.08876719,-0.05384387,-0.7765921,-0.62769866,-0.07062352,0.629998,-0.7733788,,-0.072452135,0.27899575,-0.07623764,0.8813605,0.28305843,0.3782614,-0.24630108,0.95852745,-0.1433909,-0.4031619,0.033212874,0.91452575,,0.054988213,0.44359317,-0.37031993,0.8666087,0.456995,-0.20036218,-0.49800593,0.7669297,-0.4047332,-0.03129736,0.45052686,0.8922141,,0.8198067082633028,-0.08605441241748371,0.15336925506000001,0.637038048305985,0.1186004817964023,0.3042501949415263,0.8704605284295741,,-0.6228615745048294,-0.6842264099234173,0.12753160278,1.4491671994215478,0.22722649910992745,0.7894661109903209,0.8673569911730228,,-0.06956664232292899,-0.10125745821601603,0.0886362022,-0.034016912529394594,,1.6417354e-05,5.722046e-06,-6.914139e-06,0.99999994,-5.185604e-06,-4.224479e-06,5.181879e-06,1.0,-4.7683716e-07,4.224479e-06,5.066395e-07,0.99999994,NaN,NaN,NaN,NaN,NaN
0.34523825799988117,10:15:15.993187,NaN,0,,0.02761186,0.049130455,0.075415894,-0.86720943,-0.36978883,-0.33347213,-0.4915195,0.74293417,0.45437562,0.07972485,0.5579469,-0.82603806,,0.13966337,-0.044168193,0.07333648,-0.7426251,-0.61771154,0.25872797,-0.44417614,0.74343,0.5000192,-0.50121385,0.25640604,-0.8264626,,0.089815795,1.3490102,0.48509756,0.99604875,0.0026885779,-0.08876719,-0.05384387,-0.7765921,-0.62769866,-0.07062352,0.629998,-0.7733788,,-0.07245173,0.27899718,-0.07623704,0.8813611,0.28305426,0.3782629,-0.24630123,0.958529,-0.14338012,-0.4031603,0.033203054,0.9145268,,0.054988213,0.44359317,-0.37031993,0.8666087,0.456995,-0.20036218,-0.49800593,0.7669297,-0.4047332,-0.03129736,0.45052686,0.8922141,,0.819814430996177,-0.08604668968460949,0.15336925506000001,0.637038048305985,0.1186004817964023,0.3042501949415263,0.8704605284295741,,-0.6228615745048294,-0.6842264099234173,0.12753160278,1.4491671994215478,0.22722649910992745,0.7894661109903209,0.8673569911730228,,-0.06956664232292899,-0.10125745821601603,0.0886362022,-0.034016912529394594,,1.6417354e-05,5.722046e-06,-6.914139e-06,0.99999994,-5.185604e-06,-4.224479e-06,5.181879e-06,1.0,-4.7683716e-07,4.224479e-06,5.066395e-07,0.99999994,NaN,NaN,NaN,NaN,NaN
0.36652269800015347,10:15:16.015639,NaN,0,,0.027611405,0.049129426,0.075415865,-0.8672079,-0.36978918,-0.33347568,-0.4915213,0.7429369,0.45436925,0.0797306,0.55794305,-0.8260401,,0.13966337,-0.044168193,0.07333648,-0.7426251,-0.61771154,0.25872797,-0.44417614,0.74343,0.5000192,-0.50121385,0.25640604,-0.8264626,,0.089815795,1.3490102,0.48509756,0.99604875,0.0026885779,-0.08876719,-0.05384387,-0.7765921,-0.62769866,-0.07062352,0.629998,-0.7733788,,-0.07245123,0.2789964,-0.0762377,0.8813592,0.2830548,0.37826696,-0.24629909,0.9585287,-0.14338599,-0.40316582,0.033207767,0.9145242,,0.054988213,0.44359317,-0.37031993,0.8666087,0.456995,-0.20036218,-0.49800593,0.7669297,-0.4047332,-0.03129736,0.45052686,0.8922141,,0.819814430996177,-0.08605441241748371,0.15336925506000001,0.637038048305985,0.1186004817964023,0.3042501949415263,0.8704605284295741,,-0.6228615745048294,-0.6842264099234173,0.12753160278,1.4491671994215478,0.22722649910992745,0.7894661109903209,0.8673569911730228,,-0.06956664232292899,-0.10125745821601603,0.0886362022,-0.034016912529394594,,1.6417354e-05,5.722046e-06,-6.914139e-06,0.99999994,-5.185604e-06,-4.224479e-06,5.181879e-06,1.0,-4.7683716e-07,4.224479e-06,5.066395e-07,0.99999994,NaN,NaN,NaN,NaN,NaN
0.3889172190001773,10:15:16.034453,NaN,0,,0.02761237,0.049128994,0.07541548,-0.86720884,-0.36979252,-0.33346966,-0.49152038,0.74293905,0.4543667,0.07972625,0.557938,-0.82604396,,0.13966337,-0.044168193,0.07333648,-0.7426251,-0.61771154,0.25872797,-0.44417614,0.74343,0.5000192,-0.50121385,0.25640604,-0.8264626,,0.089815795,1.3490102,0.48509756,0.99604875,0.0026885779,-0.08876719,-0.05384387,-0.7765921,-0.62769866,-0.07062352,0.629998,-0.7733788,,-0.072452135,0.27899575,-0.07623764,0.8813605,0.28305843,0.3782614,-0.24630108,0.95852745,-0.1433909,-0.4031619,0.033212874,0.91452575,,0.054988213,0.44359317,-0.37031993,0.8666087,0.456995,-0.20036218,-0.49800593,0.7669297,-0.4047332,-0.03129736,0.45052686,0.8922141,,0.8198067082633028,-0.08605441241748371,0.15336925506000001,0.637038048305985,0.1186004817964023,0.3042501949415263,0.8704605284295741,,-0.6228615745048294,-0.6842264099234173,0.12753160278,1.4491671994215478,0.22722649910992745,0.7894661109903209,0.8673569911730228,,-0.06956664232292899,-0.10125745821601603,0.0886362022,-0.034016912529394594,,1.6417354e-05,5.722046e-06,-6.914139e-06,0.99999994,-5.185604e-06,-4.224479e-06,5.181879e-06,1.0,-4.7683716e-07,4.224479e-06,5.066395e-07,0.99999994,NaN,NaN,NaN,NaN,NaN
0.4078488590002962,10:15:16.053643,NaN,0,,0.02761237,0.049128994,0.07541548,-0.86720884,-0.36979252,-0.33346966,-0.49152038,0.74293905,0.4543667,0.07972625,0.557938,-0.82604396,,0.13966337,-0.044168193,0.07333648,-0.7426251,-0.61771154,0.25872797,-0.44417614,0.74343,0.5000192,-0.50121385,0.25640604,-0.8264626,,0.089815795,1.3490102,0.48509756,0.99604875,0.0026885779,-0.08876719,-0.05384387,-0.7765921,-0.62769866,-0.07062352,0.629998,-0.7733788,,-0.072452135,0.27899575,-0.07623764,0.8813605,0.28305843,0.3782614,-0.24630108,0.95852745,-0.1433909,-0.4031619,0.033212874,0.91452575,,0.054988213,0.44359317,-0.37031993,0.8666087,0.456995,-0.20036218,-0.49800593,0.7669297,-0.4047332,-0.03129736,0.45052686,0.8922141,,0.8198067082633028,-0.08605441241748371,0.15336925506000001,0.637038048305985,0.1186004817964023,0.3042501949415263,0.8704605284295741,,-0.6228615745048294,-0.6842264099234173,0.12753160278,1.4491671994215478,0.22722649910992745,0.7894661109903209,0.8673569911730228,,-0.06956664232292899,-0.10125745821601603,0.0886362022,-0.034016912529394594,,1.6417354e-05,5.722046e-06,-6.914139e-06,0.99999994,-5.185604e-06,-4.224479e-06,5.181879e-06,1.0,-4.7683716e-07,4.224479e-06,5.066395e-07,0.99999994,NaN,NaN,NaN,NaN,NaN
0.4270087599998078,10:15:16.071770,NaN,0,,0.027612835,0.049130052,0.07541551,-0.8672104,-0.36979216,-0.33346605,-0.49151862,0.74293625,0.45437312,0.07972045,0.5579419,-0.82604194,,0.13966271,-0.0441684,0.073336184,-0.7426277,-0.6177113,0.25872132,-0.44417912,0.7434296,0.5000173,-0.5012074,0.25640807,-0.82646585,,0.089815795,1.3490102,0.48509756,0.99604875,0.0026885779,-0.08876719,-0.05384387,-0.7765921,-0.62769866,-0.07062352,0.629998,-0.7733788,,-0.07245265,0.27899653,-0.076236986,0.8813624,0.2830579,0.3782573,-0.24630325,0.95852774,-0.14338502,-0.4031564,0.03320816,0.91452837,,0.054988906,0.44359297,-0.3703199,0.8666106,0.4569945,-0.20035489,-0.49800217,0.7669309,-0.40473554,-0.03130356,0.45052528,0.8922147,,0.8198067082633028,-0.08604668968460949,0.15336925506000001,0.637038048305985,0.1186004817964023,0.3042501949415263,0.8704605284295741,,-0.6228538517719552,-0.6842264099234173,0.12753160278,1.4491671994215478,0.22722649910992745,0.7894661109903209,0.8673569911730228,,-0.06956664232292899,-0.10125745821601603,0.0886362022,-0.034016912529394594,,1.6417354e-05,5.722046e-06,-6.914139e-06,0.99999994,-5.185604e-06,-4.224479e-06,5.181879e-06,1.0,-4.7683716e-07,4.224479e-06,5.066395e-07,0.99999994,NaN,NaN,NaN,NaN,NaN
0.44516732299962314,10:15:16.089768,NaN,0,,0.02761237,0.049128994,0.07541548,-0.86720884,-0.36979252,-0.33346966,-0.49152038,0.74293905,0.4543667,0.07972625,0.557938,-0.82604396,,0.13966207,-0.04416858,0.073335946,-0.7426302,-0.617711,0.25871468,-0.4441821,0.7434291,0.50001526,-0.50120103,0.25641003,-0.8264692,,0.089815795,1.3490102,0.48509756,0.99604875,0.0026885779,-0.08876719,-0.05384387,-0.7765921,-0.62769866,-0.07062352,0.629998,-0.7733788,,-0.072452135,0.27899575,-0.07623764,0.8813605,0.28305843,0.3782614,-0.24630108,0.95852745,-0.1433909,-0.4031619,0.033212874,0.91452575,,0.054989602,0.4435928,-0.37031987,0.86661255,0.45699403,-0.20034762,-0.4979984,0.76693213,-0.40473786,-0.031309757,0.4505237,0.89221525,,0.8198067082633028,-0.08605441241748371,0.15336925506000001,0.637038048305985,0.1186004817964023,0.3042501949415263,0.8704605284295741,,-0.6228461290390809,-0.6842264099234173,0.12753160278,1.4491671994215478,0.22722649910992745,0.7894661109903209,0.8673569911730228,,-0.06956664232292899,-0.10125745821601603,0.0886362022,-0.034016912529394594,,1.6417354e-05,5.722046e-06,-6.914139e-06,0.99999994,-5.185604e-06,-4.224479e-06,5.181879e-06,1.0,-4.7683716e-07,4.224479e-06,5.066395e-07,0.99999994,NaN,NaN,NaN,NaN,NaN
0.4631665229999271,10:15:16.111667,NaN,0,,0.027611405,0.049129426,0.075415865,-0.8672079,-0.36978918,-0.33347568,-0.4915213,0.7429369,0.45436925,0.0797306,0.55794305,-0.8260401,,0.13966207,-0.04416858,0.073335946,-0.7426302,-0.617711,0.25871468,-0.4441821,0.7434291,0.50001526,-0.50120103,0.25641003,-0.8264692,,0.089815795,1.3490102,0.48509756,0.99604875,0.0026885779,-0.08876719,-0.05384387,-0.7765921,-0.62769866,-0.07062352,0.629998,-0.7733788,,-0.07245123,0.2789964,-0.0762377,0.8813592,0.2830548,0.37826696,-0.24629909,0.9585287,-0.14338599,-0.40316582,0.033207767,0.9145242,,0.054989602,0.4435928,-0.37031987,0.86661255,0.45699403,-0.20034762,-0.4979984,0.76693213,-0.40473786,-0.031309757,0.4505237,0.89221525,,0.819814430996177,-0.08605441241748371,0.15336925506000001,0.637038048305985,0.1186004817964023,0.3042501949415263,0.8704605284295741,,-0.6228461290390809,-0.6842264099234173,0.12753160278,1.4491671994215478,0.22722649910992745,0.7894661109903209,0.8673569911730228,,-0.06956664232292899,-0.10125745821601603,0.0886362022,-0.034016912529394594,,1.6417354e-05,5.722046e-06,-6.914139e-06,0.99999994,-5.185604e-06,-4.224479e-06,5.181879e-06,1.0,-4.7683716e-07,4.224479e-06,5.066395e-07,0.99999994,NaN,NaN,NaN,NaN,NaN
0.48506261500006076,10:15:16.128612,NaN,0,,0.02761186,0.049130455,0.075415894,-0.86720943,-0.36978883,-0.33347213,-0.4915195,0.74293417,0.45437562,0.07972485,0.5579469,-0.82603806,,0.13966337,-0.044168193,0.07333648,-0.7426251,-0.61771154,0.25872797,-0.44417614,0.74343,0.5000192,-0.50121385,0.25640604,-0.8264626,,0.089815795,1.3490102,0.48509756,0.99604875,0.0026885779,-0.08876719,-0.05384387,-0.7765921,-0.62769866,-0.07062352,0.629998,-0.7733788,,-0.07245173,0.27899718,-0.07623704,0.8813611,0.28305426,0.3782629,-0.24630123,0.958529,-0.14338012,-0.4031603,0.033203054,0.9145268,,0.054988213,0.44359317,-0.37031993,0.8666087,0.456995,-0.20036218,-0.49800593,0.7669297,-0.4047332,-0.03129736,0.45052686,0.8922141,,0.819814430996177,-0.08604668968460949,0.15336925506000001,0.637038048305985,0.1186004817964023,0.3042501949415263,0.8704605284295741,,-0.6228615745048294,-0.6842264099234173,0.12753160278,1.4491671994215478,0.22722649910992745,0.7894661109903209,0.8673569911730228,,-0.06956664232292899,-0.10125745821601603,0.0886362022,-0.034016912529394594,,1.6417354e-05,5.722046e-06,-6.914139e-06,0.99999994,-5.185604e-06,-4.224479e-06,5.181879e-06,1.0,-4.7683716e-07,4.224479e-06,5.066395e-07,0.99999994,NaN,NaN,NaN,NaN,NaN
0.5019753500000661,10:15:16.145681,NaN,0,,0.027611405,0.049129426,0.075415865,-0.8672079,-0.36978918,-0.33347568,-0.4915213,0.7429369,0.45436925,0.0797306,0.55794305,-0.8260401,,0.13966337,-0.044168193,0.07333648,-0.7426251,-0.61771154,0.25872797,-0.44417614,0.74343,0.5000192,-0.50121385,0.25640604,-0.8264626,,0.089815795,1.3490102,0.48509756,0.99604875,0.0026885779,-0.08876719,-0.05384387,-0.7765921,-0.62769866,-0.07062352,0.629998,-0.7733788,,-0.07245123,0.2789964,-0.0762377,0.8813592,0.2830548,0.37826696,-0.24629909,0.9585287,-0.14338599,-0.40316582,0.033207767,0.9145242,,0.054988213,0.44359317,-0.37031993,0.8666087,0.456995,-0.20036218,-0.49800593,0.7669297,-0.4047332,-0.03129736,0.45052686,0.8922141,,0.819814430996177,-0.08605441241748371,0.15336925506000001,0.637038048305985,0.1186004817964023,0.3042501949415263,0.8704605284295741,,-0.6228615745048294,-0.6842264099234173,0.12753160278,1.4491671994215478,0.22722649910992745,0.7894661109903209,0.8673569911730228,,-0.06956664232292899,-0.10125745821601603,0.0886362022,-0.034016912529394594,,1.6417354e-05,5.722046e-06,-6.914139e-06,0.99999994,-5.185604e-06,-4.224479e-06,5.181879e-06,1.0,-4.7683716e-07,4.224479e-06,5.066395e-07,0.99999994,NaN,NaN,NaN,NaN,NaN
0.5190085750000435,10:15:16.170296,NaN,0,,0.027612835,0.049130052,0.07541551,-0.8672104,-0.36979216,-0.33346605,-0.49151862,0.74293625,0.45437312,0.07972045,0.5579419,-0.82604194,,0.13966337,-0.044168193,0.07333648,-0.7426251,-0.61771154,0.25872797,-0.44417614,0.74343,0.5000192,-0.50121385,0.25640604,-0.8264626,,0.089815795,1.3490102,0.48509756,0.99604875,0.0026885779,-0.08876719,-0.05384387,-0.7765921,-0.62769866,-0.07062352,0.629998,-0.7733788,,-0.07245265,0.27899653,-0.076236986,0.8813624,0.2830579,0.3782573,-0.24630325,0.95852774,-0.14338502,-0.4031564,0.03320816,0.91452837,,0.054988213,0.44359317,-0.37031993,0.8666087,0.456995,-0.20036218,-0.49800593,0.7669297,-0.4047332,-0.03129736,0.45052686,0.8922141,,0.8198067082633028,-0.08604668968460949,0.15336925506000001,0.637038048305985,0.1186004817964023,0.3042501949415263,0.8704605284295741,,-0.6228615745048294,-0.6842264099234173,0.12753160278,1.4491671994215478,0.22722649910992745,0.7894661109903209,0.8673569911730228,,-0.06956664232292899,-0.10125745821601603,0.0886362022,-0.034016912529394594,,1.6417354e-05,5.722046e-06,-6.914139e-06,0.99999994,-5.185604e-06,-4.224479e-06,5.181879e-06,1.0,-4.7683716e-07,4.224479e-06,5.066395e-07,0.99999994,NaN,NaN,NaN,NaN,NaN
0.5436889889997474,10:15:16.188167,NaN,0,,0.027611405,0.049129426,0.075415865,-0.8672079,-0.36978918,-0.33347568,-0.4915213,0.7429369,0.45436925,0.0797306,0.55794305,-0.8260401,,0.13966337,-0.044168193,0.07333648,-0.7426251,-0.61771154,0.25872797,-0.44417614,0.74343,0.5000192,-0.50121385,0.25640604,-0.8264626,,0.089815795,1.3490102,0.48509756,0.99604875,0.0026885779,-0.08876719,-0.05384387,-0.7765921,-0.62769866,-0.07062352,0.629998,-0.7733788,,-0.07245123,0.2789964,-0.0762377,0.8813592,0.2830548,0.37826696,-0.24629909,0.9585287,-0.14338599,-0.40316582,0.033207767,0.9145242,,0.054988213,0.44359317,-0.37031993,0.8666087,0.456995,-0.20036218,-0.49800593,0.7669297,-0.4047332,-0.03129736,0.45052686,0.8922141,,0.819814430996177,-0.08605441241748371,0.15336925506000001,0.637038048305985,0.1186004817964023,0.3042501949415263,0.8704605284295741,,-0.6228615745048294,-0.6842264099234173,0.12753160278,1.4491671994215478,0.22722649910992745,0.7894661109903209,0.8673569911730228,,-0.06956664232292899,-0.10125745821601603,0.0886362022,-0.034016912529394594,,1.6417354e-05,5.722046e-06,-6.914139e-06,0.99999994,-5.185604e-06,-4.224479e-06,5.181879e-06,1.0,-4.7683716e-07,4.224479e-06,5.066395e-07,0.99999994,NaN,NaN,NaN,NaN,NaN
0.5615579269997397,10:15:16.203076,NaN,0,,0.02761237,0.049128994,0.07541548,-0.86720884,-0.36979252,-0.33346966,-0.49152038,0.74293905,0.4543667,0.07972625,0.557938,-0.82604396,,0.13966337,-0.044168193,0.07333648,-0.7426251,-0.61771154,0.25872797,-0.44417614,0.74343,0.5000192,-0.50121385,0.25640604,-0.8264626,,0.089815795,1.3490102,0.48509756,0.99604875,0.0026885779,-0.08876719,-0.05384387,-0.7765921,-0.62769866,-0.07062352,0.629998,-0.7733788,,-0.072452135,0.27899575,-0.07623764,0.8813605,0.28305843,0.3782614,-0.24630108,0.95852745,-0.1433909,-0.4031619,0.033212874,0.91452575,,0.054988213,0.44359317,-0.37031993,0.8666087,0.456995,-0.20036218,-0.49800593,0.7669297,-0.4047332,-0.03129736,0.45052686,0.8922141,,0.8198067082633028,-0.08605441241748371,0.15336925506000001,0.637038048305985,0.1186004817964023,0.3042501949415263,0.8704605284295741,,-0.6228615745048294,-0.6842264099234173,0.12753160278,1.4491671994215478,0.22722649910992745,0.7894661109903209,0.8673569911730228,,-0.06956664232292899,-0.10125745821601603,0.0886362022,-0.034016912529394594,,1.6417354e-05,5.722046e-06,-6.914139e-06,0.99999994,-5.185604e-06,-4.224479e-06,5.181879e-06,1.0,-4.7683716e-07,4.224479e-06,5.066395e-07,0.99999994,NaN,NaN,NaN,NaN,NaN
0.5764747590001207,10:15:16.222309,NaN,0,,0.02761237,0.049128994,0.07541548,-0.86720884,-0.36979252,-0.33346966,-0.49152038,0.74293905,0.4543667,0.07972625,0.557938,-0.82604396,,0.13966337,-0.044168193,0.07333648,-0.7426251,-0.61771154,0.25872797,-0.44417614,0.74343,0.5000192,-0.50121385,0.25640604,-0.8264626,,0.089815795,1.3490102,0.48509756,0.99604875,0.0026885779,-0.08876719,-0.05384387,-0.7765921,-0.62769866,-0.07062352,0.629998,-0.7733788,,-0.072452135,0.27899575,-0.07623764,0.8813605,0.28305843,0.3782614,-0.24630108,0.95852745,-0.1433909,-0.4031619,0.033212874,0.91452575,,0.054988213,0.44359317,-0.37031993,0.8666087,0.456995,-0.20036218,-0.49800593,0.7669297,-0.4047332,-0.03129736,0.45052686,0.8922141,,0.8198067082633028,-0.08605441241748371,0.15336925506000001,0.637038048305985,0.1186004817964023,0.3042501949415263,0.8704605284295741,,-0.6228615745048294,-0.6842264099234173,0.12753160278,1.4491671994215478,0.22722649910992745,0.7894661109903209,0.8673569911730228,,-0.06956664232292899,-0.10125745821601603,0.0886362022,-0.034016912529394594,,1.6417354e-05,5.722046e-06,-6.914139e-06,0.99999994,-5.185604e-06,-4.224479e-06,5.181879e-06,1.0,-4.7683716e-07,4.224479e-06,5.066395e-07,0.99999994,NaN,NaN,NaN,NaN,NaN
0.5957071290004023,10:15:16.236040,NaN,0,,0.027611405,0.049129426,0.075415865,-0.8672079,-0.36978918,-0.33347568,-0.4915213,0.7429369,0.45436925,0.0797306,0.55794305,-0.8260401,,0.13966337,-0.044168193,0.07333648,-0.7426251,-0.61771154,0.25872797,-0.44417614,0.74343,0.5000192,-0.50121385,0.25640604,-0.8264626,,0.089815795,1.3490102,0.48509756,0.99604875,0.0026885779,-0.08876719,-0.05384387,-0.7765921,-0.62769866,-0.07062352,0.629998,-0.7733788,,-0.07245123,0.2789964,-0.0762377,0.8813592,0.2830548,0.37826696,-0.24629909,0.9585287,-0.14338599,-0.40316582,0.033207767,0.9145242,,0.054988213,0.44359317,-0.37031993,0.8666087,0.456995,-0.20036218,-0.49800593,0.7669297,-0.4047332,-0.03129736,0.45052686,0.8922141,,0.819814430996177,-0.08605441241748371,0.15336925506000001,0.637038048305985,0.1186004817964023,0.3042501949415263,0.8704605284295741,,-0.6228615745048294,-0.6842264099234173,0.12753160278,1.4491671994215478,0.22722649910992745,0.7894661109903209,0.8673569911730228,,-0.06956664232292899,-0.10125745821601603,0.0886362022,-0.034016912529394594,,1.6417354e-05,5.722046e-06,-6.914139e-06,0.99999994,-5.185604e-06,-4.224479e-06,5.181879e-06,1.0,-4.7683716e-07,4.224479e-06,5.066395e-07,0.99999994,NaN,NaN,NaN,NaN,NaN
0.609436536999965,10:15:16.254673,NaN,0,,0.02761186,0.049130455,0.075415894,-0.86720943,-0.36978883,-0.33347213,-0.4915195,0.74293417,0.45437562,0.07972485,0.5579469,-0.82603806,,0.13966337,-0.044168193,0.07333648,-0.7426251,-0.61771154,0.25872797,-0.44417614,0.74343,0.5000192,-0.50121385,0.25640604,-0.8264626,,0.089815795,1.3490102,0.48509756,0.99604875,0.0026885779,-0.08876719,-0.05384387,-0.7765921,-0.62769866,-0.07062352,0.629998,-0.7733788,,-0.07245173,0.27899718,-0.07623704,0.8813611,0.28305426,0.3782629,-0.24630123,0.958529,-0.14338012,-0.4031603,0.033203054,0.9145268,,0.054988213,0.44359317,-0.37031993,0.8666087,0.456995,-0.20036218,-0.49800593,0.7669297,-0.4047332,-0.03129736,0.45052686,0.8922141,,0.819814430996177,-0.08604668968460949,0.15336925506000001,0.637038048305985,0.1186004817964023,0.3042501949415263,0.8704605284295741,,-0.6228615745048294,-0.6842264099234173,0.12753160278,1.4491671994215478,0.22722649910992745,0.7894661109903209,0.8673569911730228,,-0.06956664232292899,-0.10125745821601603,0.0886362022,-0.034016912529394594,,1.6417354e-05,5.722046e-06,-6.914139e-06,0.99999994,-5.185604e-06,-4.224479e-06,5.181879e-06,1.0,-4.7683716e-07,4.224479e-06,5.066395e-07,0.99999994,NaN,NaN,NaN,NaN,NaN
0.6280346220000865,10:15:16.281818,NaN,0,,0.027613804,0.049129635,0.075415134,-0.8672112,-0.36979547,-0.33345997,-0.49151772,0.7429384,0.45437065,0.07971607,0.55793685,-0.82604575,,0.13966337,-0.044168193,0.07333648,-0.7426251,-0.61771154,0.25872797,-0.44417614,0.74343,0.5000192,-0.50121385,0.25640604,-0.8264626,,0.089815795,1.3490102,0.48509756,0.99604875,0.0026885779,-0.08876719,-0.05384387,-0.7765921,-0.62769866,-0.07062352,0.629998,-0.7733788,,-0.072453566,0.27899587,-0.076236926,0.88136363,0.2830615,0.3782517,-0.24630524,0.9585265,-0.14338991,-0.40315247,0.03321327,0.9145299,,0.054988213,0.44359317,-0.37031993,0.8666087,0.456995,-0.20036218,-0.49800593,0.7669297,-0.4047332,-0.03129736,0.45052686,0.8922141,,0.8197989855304286,-0.08604668968460949,0.15336925506000001,0.637038048305985,0.1186004817964023,0.3042501949415263,0.8704605284295741,,-0.6228615745048294,-0.6842264099234173,0.12753160278,1.4491671994215478,0.22722649910992745,0.7894661109903209,0.8673569911730228,,-0.06956664232292899,-0.10125745821601603,0.0886362022,-0.034016912529394594,,1.6417354e-05,5.722046e-06,-6.914139e-06,0.99999994,-5.185604e-06,-4.224479e-06,5.181879e-06,1.0,-4.7683716e-07,4.224479e-06,5.066395e-07,0.99999994,NaN,NaN,NaN,NaN,NaN
0.6551204030001827,10:15:16.295436,NaN,0,,0.027613804,0.049129635,0.075415134,-0.8672112,-0.36979547,-0.33345997,-0.49151772,0.7429384,0.45437065,0.07971607,0.55793685,-0.82604575,,0.13966337,-0.044168193,0.07333648,-0.7426251,-0.61771154,0.25872797,-0.44417614,0.74343,0.5000192,-0.50121385,0.25640604,-0.8264626,,0.089815795,1.3490102,0.48509756,0.99604875,0.0026885779,-0.08876719,-0.05384387,-0.7765921,-0.62769866,-0.07062352,0.629998,-0.7733788,,-0.072453566,0.27899587,-0.076236926,0.88136363,0.2830615,0.3782517,-0.24630524,0.9585265,-0.14338991,-0.40315247,0.03321327,0.9145299,,0.054988213,0.44359317,-0.37031993,0.8666087,0.456995,-0.20036218,-0.49800593,0.7669297,-0.4047332,-0.03129736,0.45052686,0.8922141,,0.8197989855304286,-0.08604668968460949,0.15336925506000001,0.637038048305985,0.1186004817964023,0.3042501949415263,0.8704605284295741,,-0.6228615745048294,-0.6842264099234173,0.12753160278,1.4491671994215478,0.22722649910992745,0.7894661109903209,0.8673569911730228,,-0.06956664232292899,-0.10125745821601603,0.0886362022,-0.034016912529394594,,1.6417354e-05,5.722046e-06,-6.914139e-06,0.99999994,-5.185604e-06,-4.224479e-06,5.181879e-06,1.0,-4.7683716e-07,4.224479e-06,5.066395e-07,0.99999994,NaN,NaN,NaN,NaN,NaN
0.668800547000501,10:15:16.316760,NaN,0,,0.027613353,0.049128592,0.075415105,-0.8672097,-0.36979586,-0.33346358,-0.49151945,0.74294114,0.45436427,0.07972184,0.557933,-0.8260478,,0.13966337,-0.044168193,0.07333648,-0.7426251,-0.61771154,0.25872797,-0.44417614,0.74343,0.5000192,-0.50121385,0.25640604,-0.8264626,,0.089815795,1.3490102,0.48509756,0.99604875,0.0026885779,-0.08876719,-0.05384387,-0.7765921,-0.62769866,-0.07062352,0.629998,-0.7733788,,-0.07245305,0.2789951,-0.07623759,0.88136166,0.28306207,0.37825578,-0.24630308,0.9585262,-0.14339578,-0.40315798,0.03321798,0.9145273,,0.054988213,0.44359317,-0.37031993,0.8666087,0.456995,-0.20036218,-0.49800593,0.7669297,-0.4047332,-0.03129736,0.45052686,0.8922141,,0.8197989855304286,-0.08605441241748371,0.15336925506000001,0.637038048305985,0.1186004817964023,0.3042501949415263,0.8704605284295741,,-0.6228615745048294,-0.6842264099234173,0.12753160278,1.4491671994215478,0.22722649910992745,0.7894661109903209,0.8673569911730228,,-0.06956664232292899,-0.10125745821601603,0.0886362022,-0.034016912529394594,,1.6417354e-05,5.722046e-06,-6.914139e-06,0.99999994,-5.185604e-06,-4.224479e-06,5.181879e-06,1.0,-4.7683716e-07,4.224479e-06,5.066395e-07,0.99999994,NaN,NaN,NaN,NaN,NaN
0.6901526419997026,10:15:16.333904,NaN,0,,0.027613353,0.049128592,0.075415105,-0.8672097,-0.36979586,-0.33346358,-0.49151945,0.74294114,0.45436427,0.07972184,0.557933,-0.8260478,,0.13966337,-0.044168193,0.07333648,-0.7426251,-0.61771154,0.25872797,-0.44417614,0.74343,0.5000192,-0.50121385,0.25640604,-0.8264626,,0.089815795,1.3490102,0.48509756,0.99604875,0.0026885779,-0.08876719,-0.05384387,-0.7765921,-0.62769866,-0.07062352,0.629998,-0.7733788,,-0.07245305,0.2789951,-0.07623759,0.88136166,0.28306207,0.37825578,-0.24630308,0.9585262,-0.14339578,-0.40315798,0.03321798,0.9145273,,0.054988213,0.44359317,-0.37031993,0.8666087,0.456995,-0.20036218,-0.49800593,0.7669297,-0.4047332,-0.03129736,0.45052686,0.8922141,,0.8197989855304286,-0.08605441241748371,0.15336925506000001,0.637038048305985,0.1186004817964023,0.3042501949415263,0.8704605284295741,,-0.6228615745048294,-0.6842264099234173,0.12753160278,1.4491671994215478,0.22722649910992745,0.7894661109903209,0.8673569911730228,,-0.06956664232292899,-0.10125745821601603,0.0886362022,-0.034016912529394594,,1.6417354e-05,5.722046e-06,-6.914139e-06,0.99999994,-5.185604e-06,-4.224479e-06,5.181879e-06,1.0,-4.7683716e-07,4.224479e-06,5.066395e-07,0.99999994,NaN,NaN,NaN,NaN,NaN
0.7073005390002436,10:15:16.353629,NaN,0,,0.02761237,0.049128994,0.07541548,-0.86720884,-0.36979252,-0.33346966,-0.49152038,0.74293905,0.4543667,0.07972625,0.557938,-0.82604396,,0.13966337,-0.044168193,0.07333648,-0.7426251,-0.61771154,0.25872797,-0.44417614,0.74343,0.5000192,-0.50121385,0.25640604,-0.8264626,,0.089815795,1.3490102,0.48509756,0.99604875,0.0026885779,-0.08876719,-0.05384387,-0.7765921,-0.62769866,-0.07062352,0.629998,-0.7733788,,-0.072452135,0.27899575,-0.07623764,0.8813605,0.28305843,0.3782614,-0.24630108,0.95852745,-0.1433909,-0.4031619,0.033212874,0.91452575,,0.054988213,0.44359317,-0.37031993,0.8666087,0.456995,-0.20036218,-0.49800593,0.7669297,-0.4047332,-0.03129736,0.45052686,0.8922141,,0.8198067082633028,-0.08605441241748371,0.15336925506000001,0.637038048305985,0.1186004817964023,0.3042501949415263,0.8704605284295741,,-0.6228615745048294,-0.6842264099234173,0.12753160278,1.4491671994215478,0.22722649910992745,0.7894661109903209,0.8673569911730228,,-0.06956664232292899,-0.10125745821601603,0.0886362022,-0.034016912529394594,,1.6417354e-05,5.722046e-06,-6.914139e-06,0.99999994,-5.185604e-06,-4.224479e-06,5.181879e-06,1.0,-4.7683716e-07,4.224479e-06,5.066395e-07,0.99999994,NaN,NaN,NaN,NaN,NaN
