AlexandreBanks6/ExpertPlaybackApp/resources/Motions/PC1/Data_PC1_3.csv
Task Time,PC1 Time,PC2 Time,Gaze Calib,s_T_psm1,Tx,Ty,Tz,R00,R01,R02,R10,R11,R12,R20,R21,R22,s_T_psm3,Tx,Ty,Tz,R00,R01,R02,R10,R11,R12,R20,R21,R22,cart_T_ecm,Tx,Ty,Tz,R00,R01,R02,R10,R11,R12,R20,R21,R22,ecm_T_psm1,Tx,Ty,Tz,R00,R01,R02,R10,R11,R12,R20,R21,R22,ecm_T_psm3,Tx,Ty,Tz,R00,R01,R02,R10,R11,R12,R20,R21,R22,psm1_joints,q1,q2,q3,q4,q5,q6,jaw,psm3_joints,q1,q2,q3,q4,q5,q6,jaw,ecm_joints,q1,q2,q3,q4
""
lci_T_si,,,,,-0.0591664,0.057439808,0.51780415,0.99644756,-0.023395203,0.080901,0.020452302,-0.86465377,-0.50195175,0.08169462,0.5018232,-0.86110365
rci_T_si,,,,,-0.0507035,0.03842518,0.6848318,0.9999868,-0.0005291419,-0.005102156,-0.0029838972,-0.8690627,-0.49469292,-0.0041723307,0.49470162,-0.8690529
ecm_T_lc,,,,,-0.010503502,0.0353613,-0.35674977,-0.9933329,0.103684954,0.050389625,-0.112544216,-0.96688193,-0.22907005,0.024969695,-0.2332139,0.9721048
ecm_T_rc,,,,,-0.045470465,0.07002666,-0.40169618,-0.98767287,0.15394595,0.028337218,-0.15650986,-0.96815085,-0.19541891,-0.0026492458,-0.19744499,0.9803104
cart_T_ecmi,,,,,0.17632194,1.3281375,0.5574785,0.9922776,-0.056580693,-0.11038027,-0.101518326,-0.88177484,-0.46061608,-0.07126857,0.4682646,-0.8807094
ecmac_T_ecmrep_psm1,,,,,-0.040727746,0.23137592,-0.21310239,0.98627466,0.1643199,0.016164957,-0.16233762,0.9471621,0.2766415,0.03014687,-0.27546868,0.96083724
ecmac_T_ecmrep_psm3,,,,,-0.03207139,0.39064074,-0.46404764,0.9917923,0.12441902,0.029460106,-0.1278581,0.9641174,0.23265849,0.00054414105,-0.23451562,0.9721122
""
0,10:58:43.205202,NaN,1,,0.032128252,0.0111043975,0.07933842,-0.4507957,0.25413683,-0.8556854,0.65978837,-0.5507963,-0.5111777,-0.6012175,-0.79500806,0.08062008,,0.031940967,0.044960126,0.04858184,0.0492846,-0.6195461,0.78341144,0.16911057,-0.7678636,-0.61788917,0.9843639,0.16293558,0.06692794,,0.17626104,1.3281419,0.55748004,0.9922871,-0.05649902,-0.11033657,-0.101423614,-0.88179535,-0.4605977,-0.07127096,0.4682359,-0.8807245,,-0.016087895,0.18018965,-0.1175446,0.5257279,-0.26959512,0.80680144,0.25952622,-0.8523974,-0.4539436,0.81009644,0.44803697,-0.37816212,,0.0012656482,0.3488096,-0.32788023,-0.11164819,0.55539876,-0.82405514,0.65968156,-0.57875055,-0.47944555,-0.74320585,-0.59714323,-0.30176988,,1.527448444261369,-0.5462057279952769,0.1555936887,2.7406475613427332,0.6296209909191496,-0.7976557159222665,-0.1261016190556636,,-0.9283806097420252,-0.31779045777433856,0.18932445079000002,-1.2946257110734534,-1.2342375023812235,1.0198332374728267,0.02188810486199342,,-0.15579681567927384,-0.3094010614857298,0.0882075766,0.08275268144170031
0.026875029026996344,10:58:43.239581,NaN,1,,0.032126762,0.011105172,0.079339325,-0.4508043,0.2541265,-0.8556839,0.6597925,-0.5507902,-0.51117903,-0.6012065,-0.7950156,0.080627844,,0.031940967,0.044960126,0.04858184,0.0492846,-0.6195461,0.78341144,0.16911057,-0.7678636,-0.61788917,0.9843639,0.16293558,0.06692794,,0.17626104,1.3281419,0.55748004,0.9922871,-0.05649902,-0.11033657,-0.101423614,-0.88179535,-0.4605977,-0.07127096,0.4682359,-0.8807245,,-0.016086383,0.18019068,-0.117545135,0.52573645,-0.26958406,0.8067996,0.2595347,-0.8523963,-0.45394087,0.8100882,0.44804576,-0.37816942,,0.0012656482,0.3488096,-0.32788023,-0.11164819,0.55539876,-0.82405514,0.65968156,-0.57875055,-0.47944555,-0.74320585,-0.59714323,-0.30176988,,1.5274638897271173,-0.5462057279952769,0.1555936887,2.7406475613427332,0.6296209909191496,-0.7976557159222665,-0.1261016190556636,,-0.9283806097420252,-0.31779045777433856,0.18932445079000002,-1.2946257110734534,-1.2342375023812235,1.0198332374728267,0.02188810486199342,,-0.15579681567927384,-0.3094010614857298,0.0882075766,0.08275268144170031
0.06123524301801808,10:58:43.271538,NaN,1,,0.03212751,0.011104777,0.07933888,-0.45080006,0.25413167,-0.85568476,0.6597904,-0.55079323,-0.5111784,-0.601212,-0.7950118,0.080623984,,0.031940967,0.044960126,0.04858184,0.0492846,-0.6195461,0.78341144,0.16911057,-0.7678636,-0.61788917,0.9843639,0.16293558,0.06692794,,0.17626104,1.3281419,0.55748004,0.9922871,-0.05649902,-0.11033657,-0.101423614,-0.88179535,-0.4605977,-0.07127096,0.4682359,-0.8807245,,-0.016087139,0.18019018,-0.11754487,0.5257322,-0.26958957,0.80680054,0.25953045,-0.85239685,-0.45394224,0.81009233,0.44804135,-0.37816578,,0.0012656482,0.3488096,-0.32788023,-0.11164819,0.55539876,-0.82405514,0.65968156,-0.57875055,-0.47944555,-0.74320585,-0.59714323,-0.30176988,,1.527456166994243,-0.5462057279952769,0.1555936887,2.7406475613427332,0.6296209909191496,-0.7976557159222665,-0.1261016190556636,,-0.9283806097420252,-0.31779045777433856,0.18932445079000002,-1.2946257110734534,-1.2342375023812235,1.0198332374728267,0.02188810486199342,,-0.15579681567927384,-0.3094010614857298,0.0882075766,0.08275268144170031
0.09318513501784764,10:58:43.303446,10:58:42.173298,1,,0.03212995,0.0110553205,0.07935545,-0.45080835,0.2541229,-0.85568297,0.6601185,-0.55035794,-0.5112238,-0.60084563,-0.79531616,0.08035472,,0.03194203,0.044927984,0.048617512,0.049302846,-0.6195415,0.7834139,0.16856858,-0.76795447,-0.61792445,0.9844562,0.1625244,0.066572875,,0.17626104,1.3281419,0.55748004,0.9922871,-0.05649902,-0.11033657,-0.101423614,-0.88179535,-0.4605977,-0.07127096,0.4682359,-0.8807245,,-0.016087895,0.18018965,-0.1175446,0.5257279,-0.26959512,0.80680144,0.25952622,-0.8523974,-0.4539436,0.81009644,0.44803697,-0.37816212,,0.0012656482,0.3488096,-0.32788023,-0.11164819,0.55539876,-0.82405514,0.65968156,-0.57875055,-0.47944555,-0.74320585,-0.59714323,-0.30176988,,1.527448444261369,-0.5462057279952769,0.1555936887,2.7406475613427332,0.6296209909191496,-0.7976557159222665,-0.1261016190556636,,-0.9283806097420252,-0.31779045777433856,0.18932445079000002,-1.2946257110734534,-1.2342375023812235,1.0198332374728267,0.02188810486199342,,-0.15579681567927384,-0.3094010614857298,0.0882075766,0.08275268144170031
0.12508503801655024,10:58:43.332784,10:58:42.173298,1,,0.03212921,0.011055693,0.079355896,-0.45081264,0.25411776,-0.8556822,0.6601206,-0.5503549,-0.51122445,-0.6008401,-0.7953199,0.08035861,,0.03194203,0.044927984,0.048617512,0.049302846,-0.6195415,0.7834139,0.16856858,-0.76795447,-0.61792445,0.9844562,0.1625244,0.066572875,,0.17626104,1.3281419,0.55748004,0.9922871,-0.05649902,-0.11033657,-0.101423614,-0.88179535,-0.4605977,-0.07127096,0.4682359,-0.8807245,,-0.016087139,0.18019018,-0.11754487,0.5257322,-0.26958957,0.80680054,0.25953045,-0.85239685,-0.45394224,0.81009233,0.44804135,-0.37816578,,0.0012656482,0.3488096,-0.32788023,-0.11164819,0.55539876,-0.82405514,0.65968156,-0.57875055,-0.47944555,-0.74320585,-0.59714323,-0.30176988,,1.527456166994243,-0.5462057279952769,0.1555936887,2.7406475613427332,0.6296209909191496,-0.7976557159222665,-0.1261016190556636,,-0.9283806097420252,-0.31779045777433856,0.18932445079000002,-1.2946257110734534,-1.2342375023812235,1.0198332374728267,0.02188810486199342,,-0.15579681567927384,-0.3094010614857298,0.0882075766,0.08275268144170031
0.15438675301265903,10:58:43.359338,10:58:42.173298,1,,0.03212995,0.0110553205,0.07935545,-0.45080835,0.2541229,-0.85568297,0.6601185,-0.55035794,-0.5112238,-0.60084563,-0.79531616,0.08035472,,0.03194203,0.044927984,0.048617512,0.049302846,-0.6195415,0.7834139,0.16856858,-0.76795447,-0.61792445,0.9844562,0.1625244,0.066572875,,0.17626104,1.3281419,0.55748004,0.9922871,-0.05649902,-0.11033657,-0.101423614,-0.88179535,-0.4605977,-0.07127096,0.4682359,-0.8807245,,-0.016087895,0.18018965,-0.1175446,0.5257279,-0.26959512,0.80680144,0.25952622,-0.8523974,-0.4539436,0.81009644,0.44803697,-0.37816212,,0.0012656482,0.3488096,-0.32788023,-0.11164819,0.55539876,-0.82405514,0.65968156,-0.57875055,-0.47944555,-0.74320585,-0.59714323,-0.30176988,,1.527448444261369,-0.5462057279952769,0.1555936887,2.7406475613427332,0.6296209909191496,-0.7976557159222665,-0.1261016190556636,,-0.9283806097420252,-0.31779045777433856,0.18932445079000002,-1.2946257110734534,-1.2342375023812235,1.0198332374728267,0.02188810486199342,,-0.15579681567927384,-0.3094010614857298,0.0882075766,0.08275268144170031
0.18100058700656518,10:58:43.385709,10:58:42.173298,1,,0.03212846,0.01105608,0.07935636,-0.45081693,0.25411263,-0.8556814,0.66012263,-0.5503518,-0.5112251,-0.6008346,-0.7953237,0.0803625,,0.03194203,0.044927984,0.048617512,0.049302846,-0.6195415,0.7834139,0.16856858,-0.76795447,-0.61792445,0.9844562,0.1625244,0.066572875,,0.17626104,1.3281419,0.55748004,0.9922871,-0.05649902,-0.11033657,-0.101423614,-0.88179535,-0.4605977,-0.07127096,0.4682359,-0.8807245,,-0.016086383,0.18019068,-0.117545135,0.52573645,-0.26958406,0.8067996,0.2595347,-0.8523963,-0.45394087,0.8100882,0.44804576,-0.37816942,,0.0012656482,0.3488096,-0.32788023,-0.11164819,0.55539876,-0.82405514,0.65968156,-0.57875055,-0.47944555,-0.74320585,-0.59714323,-0.30176988,,1.5274638897271173,-0.5462057279952769,0.1555936887,2.7406475613427332,0.6296209909191496,-0.7976557159222665,-0.1261016190556636,,-0.9283806097420252,-0.31779045777433856,0.18932445079000002,-1.2946257110734534,-1.2342375023812235,1.0198332374728267,0.02188810486199342,,-0.15579681567927384,-0.3094010614857298,0.0882075766,0.08275268144170031
0.20735580500331707,10:58:43.409477,10:58:42.173298,1,,0.03212995,0.0110553205,0.07935545,-0.45080835,0.2541229,-0.85568297,0.6601185,-0.55035794,-0.5112238,-0.60084563,-0.79531616,0.08035472,,0.031943023,0.04492879,0.04861781,0.049297154,-0.6195432,0.783413,0.16856375,-0.7679547,-0.61792547,0.9844573,0.16251698,0.066574484,,0.17626104,1.3281419,0.55748004,0.9922871,-0.05649902,-0.11033657,-0.101423614,-0.88179535,-0.4605977,-0.07127096,0.4682359,-0.8807245,,-0.016087895,0.18018965,-0.1175446,0.5257279,-0.26959512,0.80680144,0.25952622,-0.8523974,-0.4539436,0.81009644,0.44803697,-0.37816212,,0.0012646858,0.34881043,-0.32787997,-0.11164291,0.5554009,-0.8240544,0.6596779,-0.57875466,-0.47944558,-0.74320984,-0.5971372,-0.30177188,,1.527448444261369,-0.5462057279952769,0.1555936887,2.7406475613427332,0.6296209909191496,-0.7976557159222665,-0.1261016190556636,,-0.9283883324748994,-0.31779045777433856,0.18932445079000002,-1.2946257110734534,-1.2342375023812235,1.0198332374728267,0.02188810486199342,,-0.15579681567927384,-0.3094010614857298,0.0882075766,0.08275268144170031
0.2311497530026827,10:58:43.435704,10:58:42.173298,1,,0.03212995,0.0110553205,0.07935545,-0.45080835,0.2541229,-0.85568297,0.6601185,-0.55035794,-0.5112238,-0.60084563,-0.79531616,0.08035472,,0.031943187,0.04492934,0.04861787,0.049269,-0.61938816,0.7835373,0.16863391,-0.768069,-0.61776423,0.98444676,0.16256756,0.06660777,,0.17626104,1.3281419,0.55748004,0.9922871,-0.05649902,-0.11033657,-0.101423614,-0.88179535,-0.4605977,-0.07127096,0.4682359,-0.8807245,,-0.016087895,0.18018965,-0.1175446,0.5257279,-0.26959512,0.80680144,0.25952622,-0.8523974,-0.4539436,0.81009644,0.44803697,-0.37816212,,0.0012645586,0.34881094,-0.3278797,-0.11160963,0.55523556,-0.82417035,0.6597317,-0.5788232,-0.47928885,-0.74316716,-0.59722453,-0.30170426,,1.527448444261369,-0.5462057279952769,0.1555936887,2.7406475613427332,0.6296209909191496,-0.7976557159222665,-0.1261016190556636,,-0.9283883324748994,-0.3177981805072128,0.18932445079000002,-1.2948354010169378,-1.2342375023812235,1.0198332374728267,0.02188810486199342,,-0.15579681567927384,-0.3094010614857298,0.0882075766,0.08275268144170031
0.25735752200125717,10:58:43.461583,10:58:42.315068,1,,0.03198104,0.010968402,0.07946193,-0.44905323,0.25550586,-0.8561938,0.66082966,-0.54997766,-0.510714,-0.60137784,-0.7951361,0.07812339,,0.031883672,0.044867262,0.048747152,0.04719361,-0.62009245,0.78310794,0.16797692,-0.76789016,-0.61816543,0.9846606,0.16071749,0.0679217,,0.17626104,1.3281419,0.55748004,0.9922871,-0.05649902,-0.11033657,-0.101423614,-0.88179535,-0.4605977,-0.07127096,0.4682359,-0.8807245,,-0.016087895,0.18018965,-0.1175446,0.5257279,-0.26959512,0.80680144,0.25952622,-0.8523974,-0.4539436,0.81009644,0.44803697,-0.37816212,,0.0012652057,0.34881383,-0.32787767,-0.11158063,0.55506873,-0.82428664,0.6597729,-0.5789007,-0.47913858,-0.743135,-0.5973045,-0.3016252,,1.527448444261369,-0.5462057279952769,0.1555936887,2.7406475613427332,0.6296209909191496,-0.7976557159222665,-0.1261016190556636,,-0.9283960552077737,-0.31779045777433856,0.18932445079000002,-1.2950450909604225,-1.2342375023812235,1.0198332374728267,0.02188810486199342,,-0.15579681567927384,-0.3094010614857298,0.0882075766,0.08275268144170031
0.283198800025275,10:58:43.487456,10:58:42.315068,1,,0.03198104,0.010968402,0.07946193,-0.44905323,0.25550586,-0.8561938,0.66082966,-0.54997766,-0.510714,-0.60137784,-0.7951361,0.07812339,,0.031881675,0.044865683,0.048746556,0.047205023,-0.6200892,0.78310984,0.16798654,-0.7678896,-0.6181634,0.98465836,0.16073236,0.06791839,,0.17626104,1.3281419,0.55748004,0.9922871,-0.05649902,-0.11033657,-0.101423614,-0.88179535,-0.4605977,-0.07127096,0.4682359,-0.8807245,,-0.016087895,0.18018965,-0.1175446,0.5257279,-0.26959512,0.80680144,0.25952622,-0.8523974,-0.4539436,0.81009644,0.44803697,-0.37816212,,0.0012671306,0.34881216,-0.32787818,-0.1115912,0.55506444,-0.82428813,0.6597801,-0.5788924,-0.47913858,-0.7431269,-0.59731656,-0.30162114,,1.527448444261369,-0.5462057279952769,0.1555936887,2.7406475613427332,0.6296209909191496,-0.7976557159222665,-0.1261016190556636,,-0.9283806097420252,-0.31779045777433856,0.18932445079000002,-1.2950450909604225,-1.2342375023812235,1.0198332374728267,0.02188810486199342,,-0.15579681567927384,-0.3094010614857298,0.0882075766,0.08275268144170031
0.3091273470199667,10:58:43.512639,10:58:42.315068,1,,0.03188518,0.011054829,0.07943308,-0.44901705,0.25545746,-0.8562273,0.66090274,-0.54993844,-0.51066166,-0.60132456,-0.7951788,0.07809916,,0.032113694,0.044922143,0.048776,0.047140248,-0.6199424,0.78322995,0.16805267,-0.768003,-0.6180046,0.98465025,0.16075683,0.06797911,,0.1763239,1.3281332,0.5574797,0.99227977,-0.056562662,-0.11036982,-0.10149523,-0.88179123,-0.46058974,-0.07127096,0.4682359,-0.8807245,,-0.0159841,0.1802458,-0.117484875,0.5256959,-0.26954198,0.80684006,0.25961792,-0.85238653,-0.45391154,0.81008786,0.4480896,-0.37811822,,0.0010376736,0.3488791,-0.3278508,-0.11152185,0.5549092,-0.824402,0.65983117,-0.57897395,-0.47896972,-0.743092,-0.5973817,-0.30157813,,1.527448444261369,-0.5462057279952769,0.1555936887,2.7406475613427332,0.6296209909191496,-0.7976557159222665,-0.1261016190556636,,-0.9283883324748994,-0.31779045777433856,0.18932445079000002,-1.2950450909604225,-1.2342375023812235,1.0198332374728267,0.02188810486199342,,-0.15579681567927384,-0.3094010614857298,0.0882075766,0.08275268144170031
0.3342747920250986,10:58:43.536519,10:58:42.315068,1,,0.03188518,0.011054829,0.07943308,-0.44901705,0.25545746,-0.8562273,0.66090274,-0.54993844,-0.51066166,-0.60132456,-0.7951788,0.07809916,,0.032114685,0.044922918,0.0487763,0.04713454,-0.61994404,0.783229,0.16804788,-0.7680032,-0.61800563,0.9846513,0.16074935,0.067980796,,0.1763239,1.3281332,0.5574797,0.99227977,-0.056562662,-0.11036982,-0.10149523,-0.88179123,-0.46058974,-0.07127096,0.4682359,-0.8807245,,-0.0159841,0.1802458,-0.117484875,0.5256959,-0.26954198,0.80684006,0.25961792,-0.85238653,-0.45391154,0.81008786,0.4480896,-0.37811822,,0.0010367113,0.34887993,-0.32785055,-0.111516565,0.5549114,-0.82440126,0.65982753,-0.5789781,-0.47896972,-0.743096,-0.5973757,-0.30158016,,1.527448444261369,-0.5462057279952769,0.1555936887,2.7406475613427332,0.6296209909191496,-0.7976557159222665,-0.1261016190556636,,-0.9283960552077737,-0.31779045777433856,0.18932445079000002,-1.2950450909604225,-1.2342375023812235,1.0198332374728267,0.02188810486199342,,-0.15579681567927384,-0.3094010614857298,0.0882075766,0.08275268144170031
0.3581919250136707,10:58:43.565073,10:58:42.315068,1,,0.03188444,0.011055209,0.07943353,-0.44902134,0.25545228,-0.8562266,0.6609049,-0.54993534,-0.5106623,-0.601319,-0.7951826,0.078103036,,0.0321127,0.044921383,0.048775703,0.047145948,-0.6199408,0.7832309,0.16805756,-0.76800275,-0.6180036,0.9846492,0.16076422,0.06797747,,0.1763239,1.3281332,0.5574797,0.99227977,-0.056562662,-0.11036982,-0.10149523,-0.88179123,-0.46058974,-0.07127096,0.4682359,-0.8807245,,-0.015983343,0.18024631,-0.11748514,0.5257002,-0.26953644,0.80683917,0.25962216,-0.852386,-0.45391017,0.81008375,0.44809398,-0.37812185,,0.0010386358,0.3488783,-0.32785103,-0.11152712,0.554907,-0.82440275,0.6598348,-0.57896984,-0.4789697,-0.743088,-0.59738773,-0.30157614,,1.527456166994243,-0.5462057279952769,0.1555936887,2.7406475613427332,0.6296209909191496,-0.7976557159222665,-0.1261016190556636,,-0.9283806097420252,-0.31779045777433856,0.18932445079000002,-1.2950450909604225,-1.2342375023812235,1.0198332374728267,0.02188810486199342,,-0.15579681567927384,-0.3094010614857298,0.0882075766,0.08275268144170031
0.3867238830134738,10:58:43.589073,10:58:42.315068,1,,0.03188518,0.011054829,0.07943308,-0.44901705,0.25545746,-0.8562273,0.66090274,-0.54993844,-0.51066166,-0.60132456,-0.7951788,0.07809916,,0.0321127,0.044921383,0.048775703,0.047145948,-0.6199408,0.7832309,0.16805756,-0.76800275,-0.6180036,0.9846492,0.16076422,0.06797747,,0.1763239,1.3281332,0.5574797,0.99227977,-0.056562662,-0.11036982,-0.10149523,-0.88179123,-0.46058974,-0.07127096,0.4682359,-0.8807245,,-0.0159841,0.1802458,-0.117484875,0.5256959,-0.26954198,0.80684006,0.25961792,-0.85238653,-0.45391154,0.81008786,0.4480896,-0.37811822,,0.0010386358,0.3488783,-0.32785103,-0.11152712,0.554907,-0.82440275,0.6598348,-0.57896984,-0.4789697,-0.743088,-0.59738773,-0.30157614,,1.527448444261369,-0.5462057279952769,0.1555936887,2.7406475613427332,0.6296209909191496,-0.7976557159222665,-0.1261016190556636,,-0.9283806097420252,-0.31779045777433856,0.18932445079000002,-1.2950450909604225,-1.2342375023812235,1.0198332374728267,0.02188810486199342,,-0.15579681567927384,-0.3094010614857298,0.0882075766,0.08275268144170031
0.41068960502161644,10:58:43.617706,10:58:42.476486,1,,0.031837314,0.011068746,0.079451025,-0.44805542,0.25581864,-0.8566231,0.6609715,-0.5503895,-0.5100864,-0.60196596,-0.79475033,0.07751626,,0.032113943,0.04492405,0.048781604,0.046370715,-0.62057525,0.78277457,0.1683842,-0.7675484,-0.618479,0.9846301,0.16048616,0.0689033,,0.1763239,1.3281332,0.5574797,0.99227977,-0.056562662,-0.11036982,-0.10149523,-0.88179123,-0.46058974,-0.07127096,0.4682359,-0.8807245,,-0.0159841,0.1802458,-0.117484875,0.5256959,-0.26954198,0.80684006,0.25961792,-0.85238653,-0.45391154,0.81008786,0.4480896,-0.37811822,,0.0010386358,0.3488783,-0.32785103,-0.11152712,0.554907,-0.82440275,0.6598348,-0.57896984,-0.4789697,-0.743088,-0.59738773,-0.30157614,,1.527448444261369,-0.5462057279952769,0.1555936887,2.7406475613427332,0.6296209909191496,-0.7976557159222665,-0.1261016190556636,,-0.9283806097420252,-0.31779045777433856,0.18932445079000002,-1.2950450909604225,-1.2342375023812235,1.0198332374728267,0.02188810486199342,,-0.15579681567927384,-0.3094010614857298,0.0882075766,0.08275268144170031
0.4393462220032234,10:58:43.648913,10:58:42.476486,1,,0.031837314,0.011068746,0.079451025,-0.44805542,0.25581864,-0.8566231,0.6609715,-0.5503895,-0.5100864,-0.60196596,-0.79475033,0.07751626,,0.032113943,0.04492405,0.048781604,0.046370715,-0.62057525,0.78277457,0.1683842,-0.7675484,-0.618479,0.9846301,0.16048616,0.0689033,,0.1763239,1.3281332,0.5574797,0.99227977,-0.056562662,-0.11036982,-0.10149523,-0.88179123,-0.46058974,-0.07127096,0.4682359,-0.8807245,,-0.0159841,0.1802458,-0.117484875,0.5256959,-0.26954198,0.80684006,0.25961792,-0.85238653,-0.45391154,0.81008786,0.4480896,-0.37811822,,0.0010386358,0.3488783,-0.32785103,-0.11152712,0.554907,-0.82440275,0.6598348,-0.57896984,-0.4789697,-0.743088,-0.59738773,-0.30157614,,1.527448444261369,-0.5462057279952769,0.1555936887,2.7406475613427332,0.6296209909191496,-0.7976557159222665,-0.1261016190556636,,-0.9283806097420252,-0.31779045777433856,0.18932445079000002,-1.2950450909604225,-1.2342375023812235,1.0198332374728267,0.02188810486199342,,-0.15579681567927384,-0.3094010614857298,0.0882075766,0.08275268144170031
0.4705378490034491,10:58:43.689857,10:58:42.476486,1,,0.031837314,0.011068746,0.079451025,-0.44805542,0.25581864,-0.8566231,0.6609715,-0.5503895,-0.5100864,-0.60196596,-0.79475033,0.07751626,,0.032113943,0.04492405,0.048781604,0.046370715,-0.62057525,0.78277457,0.1683842,-0.7675484,-0.618479,0.9846301,0.16048616,0.0689033,,0.1763239,1.3281332,0.5574797,0.99227977,-0.056562662,-0.11036982,-0.10149523,-0.88179123,-0.46058974,-0.07127096,0.4682359,-0.8807245,,-0.0159841,0.1802458,-0.117484875,0.5256959,-0.26954198,0.80684006,0.25961792,-0.85238653,-0.45391154,0.81008786,0.4480896,-0.37811822,,0.0010386358,0.3488783,-0.32785103,-0.11152712,0.554907,-0.82440275,0.6598348,-0.57896984,-0.4789697,-0.743088,-0.59738773,-0.30157614,,1.527448444261369,-0.5462057279952769,0.1555936887,2.7406475613427332,0.6296209909191496,-0.7976557159222665,-0.1261016190556636,,-0.9283806097420252,-0.31779045777433856,0.18932445079000002,-1.2950450909604225,-1.2342375023812235,1.0198332374728267,0.02188810486199342,,-0.15579681567927384,-0.3094010614857298,0.0882075766,0.08275268144170031
0.5114801760064438,10:58:43.731008,10:58:42.612157,1,,0.031837314,0.011068746,0.079451025,-0.44805542,0.25581864,-0.8566231,0.6609715,-0.5503895,-0.5100864,-0.60196596,-0.79475033,0.07751626,,0.03210346,0.044917077,0.04878515,0.046689853,-0.6201894,0.78306144,0.16805491,-0.7678656,-0.61817455,0.98467124,0.1604597,0.068374306,,0.1763239,1.3281332,0.5574797,0.99227977,-0.056562662,-0.11036982,-0.10149523,-0.88179123,-0.46058974,-0.07127096,0.4682359,-0.8807245,,-0.0159841,0.1802458,-0.117484875,0.5256959,-0.26954198,0.80684006,0.25961792,-0.85238653,-0.45391154,0.81008786,0.4480896,-0.37811822,,0.0010386358,0.3488783,-0.32785103,-0.11152712,0.554907,-0.82440275,0.6598348,-0.57896984,-0.4789697,-0.743088,-0.59738773,-0.30157614,,1.527448444261369,-0.5462057279952769,0.1555936887,2.7406475613427332,0.6296209909191496,-0.7976557159222665,-0.1261016190556636,,-0.9283806097420252,-0.31779045777433856,0.18932445079000002,-1.2950450909604225,-1.2342375023812235,1.0198332374728267,0.02188810486199342,,-0.15579681567927384,-0.3094010614857298,0.0882075766,0.08275268144170031
0.5525846380041912,10:58:43.777528,10:58:42.612157,1,,0.031853188,0.011050828,0.07944271,-0.44857115,0.25573498,-0.8563781,0.6609963,-0.55000055,-0.51047343,-0.60155433,-0.79504657,0.07767448,,0.03210424,0.044915974,0.04878542,0.046685487,-0.6201913,0.78306025,0.16806072,-0.7678638,-0.6181752,0.9846705,0.16046143,0.06838167,,0.1763239,1.3281332,0.5574797,0.99227977,-0.056562662,-0.11036982,-0.10149523,-0.88179123,-0.46058974,-0.07127096,0.4682359,-0.8807245,,-0.0159841,0.1802458,-0.117484875,0.5256959,-0.26954198,0.80684006,0.25961792,-0.85238653,-0.45391154,0.81008786,0.4480896,-0.37811822,,0.0010377675,0.34887752,-0.32785177,-0.11152233,0.5549089,-0.82440215,0.6598393,-0.57896745,-0.47896644,-0.7430847,-0.5973884,-0.30158284,,1.527448444261369,-0.5462057279952769,0.1555936887,2.7406475613427332,0.6296209909191496,-0.7976557159222665,-0.1261016190556636,,-0.9283806097420252,-0.3177981805072128,0.18932445079000002,-1.2950450909604225,-1.2342375023812235,1.0198332374728267,0.02188810486199342,,-0.15579681567927384,-0.3094010614857298,0.0882075766,0.08275268144170031
0.5991746560030151,10:58:43.811565,10:58:42.612157,1,,0.031852443,0.011051185,0.07944316,-0.4485756,0.25572985,-0.8563774,0.66099834,-0.54999745,-0.5104741,-0.60154885,-0.7950504,0.07767835,,0.03210346,0.044917077,0.04878515,0.046689853,-0.6201894,0.78306144,0.16805491,-0.7678656,-0.61817455,0.98467124,0.1604597,0.068374306,,0.1763239,1.3281332,0.5574797,0.99227977,-0.056562662,-0.11036982,-0.10149523,-0.88179123,-0.46058974,-0.07127096,0.4682359,-0.8807245,,-0.015983343,0.18024631,-0.11748514,0.5257002,-0.26953644,0.80683917,0.25962216,-0.852386,-0.45391017,0.81008375,0.44809398,-0.37812185,,0.0010386358,0.3488783,-0.32785103,-0.11152712,0.554907,-0.82440275,0.6598348,-0.57896984,-0.4789697,-0.743088,-0.59738773,-0.30157614,,1.527456166994243,-0.5462057279952769,0.1555936887,2.7406475613427332,0.6296209909191496,-0.7976557159222665,-0.1261016190556636,,-0.9283806097420252,-0.31779045777433856,0.18932445079000002,-1.2950450909604225,-1.2342375023812235,1.0198332374728267,0.02188810486199342,,-0.15579681567927384,-0.3094010614857298,0.0882075766,0.08275268144170031
0.6332223850185983,10:58:43.846902,10:58:42.612157,1,,0.031853188,0.011050828,0.07944271,-0.44857115,0.25573498,-0.8563781,0.6609963,-0.55000055,-0.51047343,-0.60155433,-0.79504657,0.07767448,,0.032105446,0.044918597,0.048785776,0.046678446,-0.62019265,0.78305954,0.16804528,-0.76786613,-0.6181766,0.9846734,0.16044483,0.0683776,,0.1763239,1.3281332,0.5574797,0.99227977,-0.056562662,-0.11036982,-0.10149523,-0.88179123,-0.46058974,-0.07127096,0.4682359,-0.8807245,,-0.0159841,0.1802458,-0.117484875,0.5256959,-0.26954198,0.80684006,0.25961792,-0.85238653,-0.45391154,0.81008786,0.4480896,-0.37811822,,0.0010367113,0.34887993,-0.32785055,-0.111516565,0.5549114,-0.82440126,0.65982753,-0.5789781,-0.47896972,-0.743096,-0.5973757,-0.30158016,,1.527448444261369,-0.5462057279952769,0.1555936887,2.7406475613427332,0.6296209909191496,-0.7976557159222665,-0.1261016190556636,,-0.9283960552077737,-0.31779045777433856,0.18932445079000002,-1.2950450909604225,-1.2342375023812235,1.0198332374728267,0.02188810486199342,,-0.15579681567927384,-0.3094010614857298,0.0882075766,0.08275268144170031
0.6685400020214729,10:58:43.878906,10:58:42.612157,1,,0.031853188,0.011050828,0.07944271,-0.44857115,0.25573498,-0.8563781,0.6609963,-0.55000055,-0.51047343,-0.60155433,-0.79504657,0.07767448,,0.032104455,0.044917822,0.04878542,0.046684153,-0.62019104,0.7830605,0.16805008,-0.7678659,-0.61817557,0.9846723,0.1604523,0.068375945,,0.1763239,1.3281332,0.5574797,0.99227977,-0.056562662,-0.11036982,-0.10149523,-0.88179123,-0.46058974,-0.07127096,0.4682359,-0.8807245,,-0.0159841,0.1802458,-0.117484875,0.5256959,-0.26954198,0.80684006,0.25961792,-0.85238653,-0.45391154,0.81008786,0.4480896,-0.37811822,,0.0010376736,0.3488791,-0.3278508,-0.11152185,0.5549092,-0.824402,0.65983117,-0.57897395,-0.47896972,-0.743092,-0.5973817,-0.30157813,,1.527448444261369,-0.5462057279952769,0.1555936887,2.7406475613427332,0.6296209909191496,-0.7976557159222665,-0.1261016190556636,,-0.9283883324748994,-0.31779045777433856,0.18932445079000002,-1.2950450909604225,-1.2342375023812235,1.0198332374728267,0.02188810486199342,,-0.15579681567927384,-0.3094010614857298,0.0882075766,0.08275268144170031
0.7005499280057847,10:58:43.911728,10:58:42.753170,1,,0.031695798,0.010867506,0.07952976,-0.4464382,0.25713205,-0.857074,0.66282797,-0.5484261,-0.50979215,-0.60112566,-0.79568326,0.07440406,,0.03205686,0.044805467,0.048951566,0.044435404,-0.6213486,0.7822732,0.16573259,-0.76761115,-0.6191169,0.98516905,0.15715882,0.06886858,,0.1763239,1.3281332,0.5574797,0.99227977,-0.056562662,-0.11036982,-0.10149523,-0.88179123,-0.46058974,-0.07127096,0.4682359,-0.8807245,,-0.0159841,0.1802458,-0.117484875,0.5256959,-0.26954198,0.80684006,0.25961792,-0.85238653,-0.45391154,0.81008786,0.4480896,-0.37811822,,0.0010367113,0.34887993,-0.32785055,-0.111516565,0.5549114,-0.82440126,0.65982753,-0.5789781,-0.47896972,-0.743096,-0.5973757,-0.30158016,,1.527448444261369,-0.5462057279952769,0.1555936887,2.7406475613427332,0.6296209909191496,-0.7976557159222665,-0.1261016190556636,,-0.9283960552077737,-0.31779045777433856,0.18932445079000002,-1.2950450909604225,-1.2342375023812235,1.0198332374728267,0.02188810486199342,,-0.15579681567927384,-0.3094010614857298,0.0882075766,0.08275268144170031
0.733401366014732,10:58:43.956535,10:58:42.753170,1,,0.031695798,0.010867506,0.07952976,-0.4464382,0.25713205,-0.857074,0.66282797,-0.5484261,-0.50979215,-0.60112566,-0.79568326,0.07440406,,0.0320561,0.04480061,0.048951447,0.044494063,-0.62165827,0.7820237,0.16561353,-0.7673775,-0.61943823,0.9851866,0.15707499,0.06881122,,0.1763239,1.3281332,0.5574797,0.99227977,-0.056562662,-0.11036982,-0.10149523,-0.88179123,-0.46058974,-0.07127096,0.4682359,-0.8807245,,-0.0159841,0.1802458,-0.117484875,0.5256959,-0.26954198,0.80684006,0.25961792,-0.85238653,-0.45391154,0.81008786,0.4480896,-0.37811822,,0.0010371527,0.34887573,-0.32785308,-0.11158415,0.55524147,-0.8241698,0.6597363,-0.57882804,-0.47927672,-0.7431669,-0.5972144,-0.30172488,,1.527448444261369,-0.5462057279952769,0.1555936887,2.7406475613427332,0.6296209909191496,-0.7976557159222665,-0.1261016190556636,,-0.9283806097420252,-0.31779045777433856,0.18932445079000002,-1.2946257110734534,-1.2342375023812235,1.0198332374728267,0.02188810486199342,,-0.15579681567927384,-0.3094010614857298,0.0882075766,0.08275268144170031
0.7781538300041575,10:58:43.982645,10:58:42.753170,1,,0.031695798,0.010867506,0.07952976,-0.4464382,0.25713205,-0.857074,0.66282797,-0.5484261,-0.50979215,-0.60112566,-0.79568326,0.07440406,,0.0320561,0.04480061,0.048951447,0.044494063,-0.62165827,0.7820237,0.16561353,-0.7673775,-0.61943823,0.9851866,0.15707499,0.06881122,,0.1763239,1.3281332,0.5574797,0.99227977,-0.056562662,-0.11036982,-0.10149523,-0.88179123,-0.46058974,-0.07127096,0.4682359,-0.8807245,,-0.0159841,0.1802458,-0.117484875,0.5256959,-0.26954198,0.80684006,0.25961792,-0.85238653,-0.45391154,0.81008786,0.4480896,-0.37811822,,0.0010371527,0.34887573,-0.32785308,-0.11158415,0.55524147,-0.8241698,0.6597363,-0.57882804,-0.47927672,-0.7431669,-0.5972144,-0.30172488,,1.527448444261369,-0.5462057279952769,0.1555936887,2.7406475613427332,0.6296209909191496,-0.7976557159222665,-0.1261016190556636,,-0.9283806097420252,-0.31779045777433856,0.18932445079000002,-1.2946257110734534,-1.2342375023812235,1.0198332374728267,0.02188810486199342,,-0.15579681567927384,-0.3094010614857298,0.0882075766,0.08275268144170031
0.8042806720186491,10:58:44.019370,10:58:42.753170,1,,0.031695053,0.010867886,0.07953021,-0.4464425,0.2571269,-0.85707337,0.66283,-0.54842305,-0.50979275,-0.6011202,-0.7956871,0.074407935,,0.0320561,0.04480061,0.048951447,0.044494063,-0.62165827,0.7820237,0.16561353,-0.7673775,-0.61943823,0.9851866,0.15707499,0.06881122,,0.1763239,1.3281332,0.5574797,0.99227977,-0.056562662,-0.11036982,-0.10149523,-0.88179123,-0.46058974,-0.07127096,0.4682359,-0.8807245,,-0.015983343,0.18024631,-0.11748514,0.5257002,-0.26953644,0.80683917,0.25962216,-0.852386,-0.45391017,0.81008375,0.44809398,-0.37812185,,0.0010371527,0.34887573,-0.32785308,-0.11158415,0.55524147,-0.8241698,0.6597363,-0.57882804,-0.47927672,-0.7431669,-0.5972144,-0.30172488,,1.527456166994243,-0.5462057279952769,0.1555936887,2.7406475613427332,0.6296209909191496,-0.7976557159222665,-0.1261016190556636,,-0.9283806097420252,-0.31779045777433856,0.18932445079000002,-1.2946257110734534,-1.2342375023812235,1.0198332374728267,0.02188810486199342,,-0.15579681567927384,-0.3094010614857298,0.0882075766,0.08275268144170031
0.8410064050112851,10:58:44.057614,10:58:42.902617,1,,0.031537227,0.0107277855,0.079596475,-0.4442973,0.25854003,-0.8577629,0.66432464,-0.547292,-0.50906205,-0.6010597,-0.79600775,0.07140589,,0.032006577,0.04471387,0.049078643,0.042237125,-0.6228082,0.78123367,0.1638467,-0.7670275,-0.6203411,0.9855811,0.15420395,0.06964806,,0.1763239,1.3281332,0.5574797,0.99227977,-0.056562662,-0.11036982,-0.10149523,-0.88179123,-0.46058974,-0.07127096,0.4682359,-0.8807245,,-0.0159841,0.1802458,-0.117484875,0.5256959,-0.26954198,0.80684006,0.25961792,-0.85238653,-0.45391154,0.81008786,0.4480896,-0.37811822,,0.0010371527,0.34887573,-0.32785308,-0.11158415,0.55524147,-0.8241698,0.6597363,-0.57882804,-0.47927672,-0.7431669,-0.5972144,-0.30172488,,1.527448444261369,-0.5462057279952769,0.1555936887,2.7406475613427332,0.6296209909191496,-0.7976557159222665,-0.1261016190556636,,-0.9283806097420252,-0.31779045777433856,0.18932445079000002,-1.2946257110734534,-1.2342375023812235,1.0198332374728267,0.02188810486199342,,-0.15579681567927384,-0.3094010614857298,0.0882075766,0.08275268144170031
0.8792238270107191,10:58:44.090361,10:58:42.902617,1,,0.031537227,0.0107277855,0.079596475,-0.4442973,0.25854003,-0.8577629,0.66432464,-0.547292,-0.50906205,-0.6010597,-0.79600775,0.07140589,,0.032006577,0.04471387,0.049078643,0.042237125,-0.6228082,0.78123367,0.1638467,-0.7670275,-0.6203411,0.9855811,0.15420395,0.06964806,,0.1763239,1.3281332,0.5574797,0.99227977,-0.056562662,-0.11036982,-0.10149523,-0.88179123,-0.46058974,-0.07127096,0.4682359,-0.8807245,,-0.0159841,0.1802458,-0.117484875,0.5256959,-0.26954198,0.80684006,0.25961792,-0.85238653,-0.45391154,0.81008786,0.4480896,-0.37811822,,0.0010371527,0.34887573,-0.32785308,-0.11158415,0.55524147,-0.8241698,0.6597363,-0.57882804,-0.47927672,-0.7431669,-0.5972144,-0.30172488,,1.527448444261369,-0.5462057279952769,0.1555936887,2.7406475613427332,0.6296209909191496,-0.7976557159222665,-0.1261016190556636,,-0.9283806097420252,-0.31779045777433856,0.18932445079000002,-1.2946257110734534,-1.2342375023812235,1.0198332374728267,0.02188810486199342,,-0.15579681567927384,-0.3094010614857298,0.0882075766,0.08275268144170031
0.912013522000052,10:58:44.121739,10:58:42.902617,1,,0.031537227,0.0107277855,0.079596475,-0.4442973,0.25854003,-0.8577629,0.66432464,-0.547292,-0.50906205,-0.6010597,-0.79600775,0.07140589,,0.03200757,0.04471466,0.04907894,0.042231403,-0.62280977,0.7812328,0.16384184,-0.76702774,-0.62034214,0.9855822,0.15419659,0.06964967,,0.1763239,1.3281332,0.5574797,0.99227977,-0.056562662,-0.11036982,-0.10149523,-0.88179123,-0.46058974,-0.07127096,0.4682359,-0.8807245,,-0.0159841,0.1802458,-0.117484875,0.5256959,-0.26954198,0.80684006,0.25961792,-0.85238653,-0.45391154,0.81008786,0.4480896,-0.37811822,,0.0010361904,0.34887657,-0.32785285,-0.11157887,0.5552436,-0.8241691,0.65973264,-0.57883215,-0.47927672,-0.7431709,-0.59720844,-0.30172688,,1.527448444261369,-0.5462057279952769,0.1555936887,2.7406475613427332,0.6296209909191496,-0.7976557159222665,-0.1261016190556636,,-0.9283883324748994,-0.31779045777433856,0.18932445079000002,-1.2946257110734534,-1.2342375023812235,1.0198332374728267,0.02188810486199342,,-0.15579681567927384,-0.3094010614857298,0.0882075766,0.08275268144170031
0.9433065480261575,10:58:44.153997,10:58:42.902617,1,,0.031537227,0.0107277855,0.079596475,-0.4442973,0.25854003,-0.8577629,0.66432464,-0.547292,-0.50906205,-0.6010597,-0.79600775,0.07140589,,0.032006577,0.04471387,0.049078643,0.042237125,-0.6228082,0.78123367,0.1638467,-0.7670275,-0.6203411,0.9855811,0.15420395,0.06964806,,0.1763239,1.3281332,0.5574797,0.99227977,-0.056562662,-0.11036982,-0.10149523,-0.88179123,-0.46058974,-0.07127096,0.4682359,-0.8807245,,-0.0159841,0.1802458,-0.117484875,0.5256959,-0.26954198,0.80684006,0.25961792,-0.85238653,-0.45391154,0.81008786,0.4480896,-0.37811822,,0.0010371527,0.34887573,-0.32785308,-0.11158415,0.55524147,-0.8241698,0.6597363,-0.57882804,-0.47927672,-0.7431669,-0.5972144,-0.30172488,,1.527448444261369,-0.5462057279952769,0.1555936887,2.7406475613427332,0.6296209909191496,-0.7976557159222665,-0.1261016190556636,,-0.9283806097420252,-0.31779045777433856,0.18932445079000002,-1.2946257110734534,-1.2342375023812235,1.0198332374728267,0.02188810486199342,,-0.15579681567927384,-0.3094010614857298,0.0882075766,0.08275268144170031
0.9756418220058549,10:58:44.193588,10:58:43.043637,1,,0.03140853,0.0106315985,0.07979542,-0.44249886,0.2596844,-0.85834646,0.6648232,-0.5473646,-0.50833267,-0.6018346,-0.7955853,0.069564044,,0.031969346,0.04462309,0.049285173,0.040374592,-0.62378407,0.7805532,0.16362295,-0.7665171,-0.6210305,0.98569643,0.15279028,0.07111761,,0.1763239,1.3281332,0.5574797,0.99227977,-0.056562662,-0.11036982,-0.10149523,-0.88179123,-0.46058974,-0.07127096,0.4682359,-0.8807245,,-0.0159841,0.1802458,-0.117484875,0.5256959,-0.26954198,0.80684006,0.25961792,-0.85238653,-0.45391154,0.81008786,0.4480896,-0.37811822,,0.0010371527,0.34887573,-0.32785308,-0.11158415,0.55524147,-0.8241698,0.6597363,-0.57882804,-0.47927672,-0.7431669,-0.5972144,-0.30172488,,1.527448444261369,-0.5462057279952769,0.1555936887,2.7406475613427332,0.6296209909191496,-0.7976557159222665,-0.1261016190556636,,-0.9283806097420252,-0.31779045777433856,0.18932445079000002,-1.2946257110734534,-1.2342375023812235,1.0198332374728267,0.02188810486199342,,-0.15579681567927384,-0.3094010614857298,0.0882075766,0.08275268144170031
1.0152109590126202,10:58:44.229137,10:58:43.043637,1,,0.03140778,0.0106319785,0.0797959,-0.44250327,0.2596793,-0.8583458,0.6648252,-0.5473615,-0.5083333,-0.6018292,-0.7955891,0.06956792,,0.031969346,0.04462309,0.049285173,0.040374592,-0.62378407,0.7805532,0.16362295,-0.7665171,-0.6210305,0.98569643,0.15279028,0.07111761,,0.1763239,1.3281332,0.5574797,0.99227977,-0.056562662,-0.11036982,-0.10149523,-0.88179123,-0.46058974,-0.07127096,0.4682359,-0.8807245,,-0.015983343,0.18024631,-0.11748514,0.5257002,-0.26953644,0.80683917,0.25962216,-0.852386,-0.45391017,0.81008375,0.44809398,-0.37812185,,0.0010371527,0.34887573,-0.32785308,-0.11158415,0.55524147,-0.8241698,0.6597363,-0.57882804,-0.47927672,-0.7431669,-0.5972144,-0.30172488,,1.527456166994243,-0.5462057279952769,0.1555936887,2.7406475613427332,0.6296209909191496,-0.7976557159222665,-0.1261016190556636,,-0.9283806097420252,-0.31779045777433856,0.18932445079000002,-1.2946257110734534,-1.2342375023812235,1.0198332374728267,0.02188810486199342,,-0.15579681567927384,-0.3094010614857298,0.0882075766,0.08275268144170031
1.0507655440014787,10:58:44.265016,10:58:43.043637,1,,0.03140853,0.0106315985,0.07979542,-0.44249886,0.2596844,-0.85834646,0.6648232,-0.5473646,-0.50833267,-0.6018346,-0.7955853,0.069564044,,0.031969346,0.04462309,0.049285173,0.040374592,-0.62378407,0.7805532,0.16362295,-0.7665171,-0.6210305,0.98569643,0.15279028,0.07111761,,0.1763239,1.3281332,0.5574797,0.99227977,-0.056562662,-0.11036982,-0.10149523,-0.88179123,-0.46058974,-0.07127096,0.4682359,-0.8807245,,-0.0159841,0.1802458,-0.117484875,0.5256959,-0.26954198,0.80684006,0.25961792,-0.85238653,-0.45391154,0.81008786,0.4480896,-0.37811822,,0.0010371527,0.34887573,-0.32785308,-0.11158415,0.55524147,-0.8241698,0.6597363,-0.57882804,-0.47927672,-0.7431669,-0.5972144,-0.30172488,,1.527448444261369,-0.5462057279952769,0.1555936887,2.7406475613427332,0.6296209909191496,-0.7976557159222665,-0.1261016190556636,,-0.9283806097420252,-0.31779045777433856,0.18932445079000002,-1.2946257110734534,-1.2342375023812235,1.0198332374728267,0.02188810486199342,,-0.15579681567927384,-0.3094010614857298,0.0882075766,0.08275268144170031
1.0866427370056044,10:58:44.303561,10:58:43.043637,1,,0.03140778,0.0106319785,0.0797959,-0.44250327,0.2596793,-0.8583458,0.6648252,-0.5473615,-0.5083333,-0.6018292,-0.7955891,0.06956792,,0.031969346,0.04462309,0.049285173,0.040374592,-0.62378407,0.7805532,0.16362295,-0.7665171,-0.6210305,0.98569643,0.15279028,0.07111761,,0.1763239,1.3281332,0.5574797,0.99227977,-0.056562662,-0.11036982,-0.10149523,-0.88179123,-0.46058974,-0.07127096,0.4682359,-0.8807245,,-0.015983343,0.18024631,-0.11748514,0.5257002,-0.26953644,0.80683917,0.25962216,-0.852386,-0.45391017,0.81008375,0.44809398,-0.37812185,,0.0010371527,0.34887573,-0.32785308,-0.11158415,0.55524147,-0.8241698,0.6597363,-0.57882804,-0.47927672,-0.7431669,-0.5972144,-0.30172488,,1.527456166994243,-0.5462057279952769,0.1555936887,2.7406475613427332,0.6296209909191496,-0.7976557159222665,-0.1261016190556636,,-0.9283806097420252,-0.31779045777433856,0.18932445079000002,-1.2946257110734534,-1.2342375023812235,1.0198332374728267,0.02188810486199342,,-0.15579681567927384,-0.3094010614857298,0.0882075766,0.08275268144170031
1.1251877870236058,10:58:44.339433,10:58:43.185144,1,,0.031501755,0.010762371,0.079785824,-0.44410443,0.25890887,-0.8577515,0.66331553,-0.5485587,-0.5090146,-0.6023153,-0.79501545,0.07187906,,0.03198281,0.04469809,0.049212128,0.0418081,-0.622813,0.7812529,0.16545212,-0.7668251,-0.62016517,0.9853313,0.15518782,0.07098618,,0.1763239,1.3281332,0.5574797,0.99227977,-0.056562662,-0.11036982,-0.10149523,-0.88179123,-0.46058974,-0.07127096,0.4682359,-0.8807245,,-0.015982587,0.18024683,-0.11748541,0.5257045,-0.26953092,0.8068382,0.2596264,-0.85238546,-0.4539088,0.8100796,0.44809836,-0.37812552,,0.0010371527,0.34887573,-0.32785308,-0.11158415,0.55524147,-0.8241698,0.6597363,-0.57882804,-0.47927672,-0.7431669,-0.5972144,-0.30172488,,1.5274638897271173,-0.5462057279952769,0.1555936887,2.7406475613427332,0.6296209909191496,-0.7976557159222665,-0.1261016190556636,,-0.9283806097420252,-0.31779045777433856,0.18932445079000002,-1.2946257110734534,-1.2342375023812235,1.0198332374728267,0.02188810486199342,,-0.15579681567927384,-0.3094010614857298,0.0882075766,0.08275268144170031
1.1611016190145165,10:58:44.375715,10:58:43.185144,1,,0.0315025,0.010761991,0.07978538,-0.44410002,0.25891396,-0.85775226,0.6633135,-0.5485618,-0.50901395,-0.60232085,-0.79501164,0.071875155,,0.03198281,0.04469809,0.049212128,0.0418081,-0.622813,0.7812529,0.16545212,-0.7668251,-0.62016517,0.9853313,0.15518782,0.07098618,,0.1763239,1.3281332,0.5574797,0.99227977,-0.056562662,-0.11036982,-0.10149523,-0.88179123,-0.46058974,-0.07127096,0.4682359,-0.8807245,,-0.015983343,0.18024631,-0.11748514,0.5257002,-0.26953644,0.80683917,0.25962216,-0.852386,-0.45391017,0.81008375,0.44809398,-0.37812185,,0.0010371527,0.34887573,-0.32785308,-0.11158415,0.55524147,-0.8241698,0.6597363,-0.57882804,-0.47927672,-0.7431669,-0.5972144,-0.30172488,,1.527456166994243,-0.5462057279952769,0.1555936887,2.7406475613427332,0.6296209909191496,-0.7976557159222665,-0.1261016190556636,,-0.9283806097420252,-0.31779045777433856,0.18932445079000002,-1.2946257110734534,-1.2342375023812235,1.0198332374728267,0.02188810486199342,,-0.15579681567927384,-0.3094010614857298,0.0882075766,0.08275268144170031
1.197387158026686,10:58:44.412254,10:58:43.185144,1,,0.0315025,0.010761991,0.07978538,-0.44410002,0.25891396,-0.85775226,0.6633135,-0.5485618,-0.50901395,-0.60232085,-0.79501164,0.071875155,,0.03198281,0.04469809,0.049212128,0.0418081,-0.622813,0.7812529,0.16545212,-0.7668251,-0.62016517,0.9853313,0.15518782,0.07098618,,0.1763239,1.3281332,0.5574797,0.99227977,-0.056562662,-0.11036982,-0.10149523,-0.88179123,-0.46058974,-0.07127096,0.4682359,-0.8807245,,-0.015983343,0.18024631,-0.11748514,0.5257002,-0.26953644,0.80683917,0.25962216,-0.852386,-0.45391017,0.81008375,0.44809398,-0.37812185,,0.0010371527,0.34887573,-0.32785308,-0.11158415,0.55524147,-0.8241698,0.6597363,-0.57882804,-0.47927672,-0.7431669,-0.5972144,-0.30172488,,1.527456166994243,-0.5462057279952769,0.1555936887,2.7406475613427332,0.6296209909191496,-0.7976557159222665,-0.1261016190556636,,-0.9283806097420252,-0.31779045777433856,0.18932445079000002,-1.2946257110734534,-1.2342375023812235,1.0198332374728267,0.02188810486199342,,-0.15579681567927384,-0.3094010614857298,0.0882075766,0.08275268144170031
1.2339174450025894,10:58:44.446019,10:58:43.185144,1,,0.03150325,0.010761596,0.07978493,-0.4440957,0.2589191,-0.8577529,0.6633115,-0.5485649,-0.5090133,-0.6023263,-0.7950078,0.07187128,,0.0319822,0.04469976,0.04921189,0.041784577,-0.6226568,0.7813786,0.16551647,-0.7669419,-0.6200036,0.9853214,0.15523762,0.071013615,,0.1763239,1.3281332,0.5574797,0.99227977,-0.056562662,-0.11036982,-0.10149523,-0.88179123,-0.46058974,-0.07127096,0.4682359,-0.8807245,,-0.0159841,0.1802458,-0.117484875,0.5256959,-0.26954198,0.80684006,0.25961792,-0.85238653,-0.45391154,0.81008786,0.4480896,-0.37811822,,0.0010378942,0.348877,-0.32785207,-0.11155564,0.5550743,-0.8242863,0.6597855,-0.57889897,-0.4791232,-0.74312747,-0.59730107,-0.30165052,,1.527448444261369,-0.5462057279952769,0.1555936887,2.7406475613427332,0.6296209909191496,-0.7976557159222665,-0.1261016190556636,,-0.9283806097420252,-0.31779045777433856,0.18932445079000002,-1.2948354010169378,-1.2342375023812235,1.0198332374728267,0.02188810486199342,,-0.15579681567927384,-0.3094010614857298,0.0882075766,0.08275268144170031
1.2676883000240196,10:58:44.491931,10:58:43.337258,1,,0.031478006,0.01071687,0.07971659,-0.44407648,0.25919244,-0.85768014,0.6639256,-0.54760635,-0.5092448,-0.6016635,-0.79557943,0.07109457,,0.03195726,0.044691846,0.049182385,0.04151182,-0.6224016,0.7815964,0.16445628,-0.7673447,-0.6197872,0.98551047,0.15426695,0.070503965,,0.1763239,1.3281332,0.5574797,0.99227977,-0.056562662,-0.11036982,-0.10149523,-0.88179123,-0.46058974,-0.07127096,0.4682359,-0.8807245,,-0.0159841,0.1802458,-0.117484875,0.5256959,-0.26954198,0.80684006,0.25961792,-0.85238653,-0.45391154,0.81008786,0.4480896,-0.37811822,,0.0010386358,0.3488783,-0.32785103,-0.11152712,0.554907,-0.82440275,0.6598348,-0.57896984,-0.4789697,-0.743088,-0.59738773,-0.30157614,,1.527448444261369,-0.5462057279952769,0.1555936887,2.7406475613427332,0.6296209909191496,-0.7976557159222665,-0.1261016190556636,,-0.9283806097420252,-0.31779045777433856,0.18932445079000002,-1.2950450909604225,-1.2342375023812235,1.0198332374728267,0.02188810486199342,,-0.15579681567927384,-0.3094010614857298,0.0882075766,0.08275268144170031
1.3135369200026616,10:58:44.522852,10:58:43.337258,1,,0.031477258,0.010717258,0.079717055,-0.44408083,0.2591873,-0.8576795,0.6639277,-0.54760325,-0.5092454,-0.601658,-0.79558325,0.07109845,,0.031958256,0.04469259,0.049182683,0.041506104,-0.6224032,0.7815955,0.16445145,-0.76734483,-0.6197882,0.9855115,0.1542595,0.070505604,,0.1763239,1.3281332,0.5574797,0.99227977,-0.056562662,-0.11036982,-0.10149523,-0.88179123,-0.46058974,-0.07127096,0.4682359,-0.8807245,,-0.015983343,0.18024631,-0.11748514,0.5257002,-0.26953644,0.80683917,0.25962216,-0.852386,-0.45391017,0.81008375,0.44809398,-0.37812185,,0.0010376736,0.3488791,-0.3278508,-0.11152185,0.5549092,-0.824402,0.65983117,-0.57897395,-0.47896972,-0.743092,-0.5973817,-0.30157813,,1.527456166994243,-0.5462057279952769,0.1555936887,2.7406475613427332,0.6296209909191496,-0.7976557159222665,-0.1261016190556636,,-0.9283883324748994,-0.31779045777433856,0.18932445079000002,-1.2950450909604225,-1.2342375023812235,1.0198332374728267,0.02188810486199342,,-0.15579681567927384,-0.3094010614857298,0.0882075766,0.08275268144170031
1.3444809930224437,10:58:44.555060,10:58:43.337258,1,,0.031478006,0.01071687,0.07971659,-0.44407648,0.25919244,-0.85768014,0.6639256,-0.54760635,-0.5092448,-0.6016635,-0.79557943,0.07109457,,0.03195726,0.044691846,0.049182385,0.04151182,-0.6224016,0.7815964,0.16445628,-0.7673447,-0.6197872,0.98551047,0.15426695,0.070503965,,0.1763239,1.3281332,0.5574797,0.99227977,-0.056562662,-0.11036982,-0.10149523,-0.88179123,-0.46058974,-0.07127096,0.4682359,-0.8807245,,-0.0159841,0.1802458,-0.117484875,0.5256959,-0.26954198,0.80684006,0.25961792,-0.85238653,-0.45391154,0.81008786,0.4480896,-0.37811822,,0.0010386358,0.3488783,-0.32785103,-0.11152712,0.554907,-0.82440275,0.6598348,-0.57896984,-0.4789697,-0.743088,-0.59738773,-0.30157614,,1.527448444261369,-0.5462057279952769,0.1555936887,2.7406475613427332,0.6296209909191496,-0.7976557159222665,-0.1261016190556636,,-0.9283806097420252,-0.31779045777433856,0.18932445079000002,-1.2950450909604225,-1.2342375023812235,1.0198332374728267,0.02188810486199342,,-0.15579681567927384,-0.3094010614857298,0.0882075766,0.08275268144170031
1.3767213450046256,10:58:44.585392,10:58:43.337258,1,,0.031476513,0.01071763,0.0797175,-0.4440852,0.2591822,-0.8576788,0.6639297,-0.54760015,-0.5092461,-0.6016525,-0.795587,0.07110238,,0.03195726,0.044691846,0.049182385,0.04151182,-0.6224016,0.7815964,0.16445628,-0.7673447,-0.6197872,0.98551047,0.15426695,0.070503965,,0.1763239,1.3281332,0.5574797,0.99227977,-0.056562662,-0.11036982,-0.10149523,-0.88179123,-0.46058974,-0.07127096,0.4682359,-0.8807245,,-0.015982587,0.18024683,-0.11748541,0.5257045,-0.26953092,0.8068382,0.2596264,-0.85238546,-0.4539088,0.8100796,0.44809836,-0.37812552,,0.0010386358,0.3488783,-0.32785103,-0.11152712,0.554907,-0.82440275,0.6598348,-0.57896984,-0.4789697,-0.743088,-0.59738773,-0.30157614,,1.5274638897271173,-0.5462057279952769,0.1555936887,2.7406475613427332,0.6296209909191496,-0.7976557159222665,-0.1261016190556636,,-0.9283806097420252,-0.31779045777433856,0.18932445079000002,-1.2950450909604225,-1.2342375023812235,1.0198332374728267,0.02188810486199342,,-0.15579681567927384,-0.3094010614857298,0.0882075766,0.08275268144170031
1.4070636160031427,10:58:44.610037,10:58:43.478830,1,,0.031421177,0.010636166,0.07978143,-0.44299793,0.25962985,-0.85810554,0.6647154,-0.54714847,-0.50870615,-0.6015864,-0.79575175,0.06980574,,0.031955346,0.044635326,0.04927495,0.04061354,-0.62309146,0.7810938,0.1636379,-0.76703584,-0.62038577,0.98568404,0.15301254,0.070809275,,0.1763239,1.3281332,0.5574797,0.99227977,-0.056562662,-0.11036982,-0.10149523,-0.88179123,-0.46058974,-0.07127096,0.4682359,-0.8807245,,-0.0159841,0.1802458,-0.117484875,0.5256959,-0.26954198,0.80684006,0.25961792,-0.85238653,-0.45391154,0.81008786,0.4480896,-0.37811822,,0.0010386358,0.3488783,-0.32785103,-0.11152712,0.554907,-0.82440275,0.6598348,-0.57896984,-0.4789697,-0.743088,-0.59738773,-0.30157614,,1.527448444261369,-0.5462057279952769,0.1555936887,2.7406475613427332,0.6296209909191496,-0.7976557159222665,-0.1261016190556636,,-0.9283806097420252,-0.31779045777433856,0.18932445079000002,-1.2950450909604225,-1.2342375023812235,1.0198332374728267,0.02188810486199342,,-0.15579681567927384,-0.3094010614857298,0.0882075766,0.08275268144170031
1.4316849260067102,10:58:44.636402,10:58:43.478830,1,,0.031421177,0.010636166,0.07978143,-0.44299793,0.25962985,-0.85810554,0.6647154,-0.54714847,-0.50870615,-0.6015864,-0.79575175,0.06980574,,0.031955346,0.044635326,0.04927495,0.04061354,-0.62309146,0.7810938,0.1636379,-0.76703584,-0.62038577,0.98568404,0.15301254,0.070809275,,0.1763239,1.3281332,0.5574797,0.99227977,-0.056562662,-0.11036982,-0.10149523,-0.88179123,-0.46058974,-0.07127096,0.4682359,-0.8807245,,-0.0159841,0.1802458,-0.117484875,0.5256959,-0.26954198,0.80684006,0.25961792,-0.85238653,-0.45391154,0.81008786,0.4480896,-0.37811822,,0.0010386358,0.3488783,-0.32785103,-0.11152712,0.554907,-0.82440275,0.6598348,-0.57896984,-0.4789697,-0.743088,-0.59738773,-0.30157614,,1.527448444261369,-0.5462057279952769,0.1555936887,2.7406475613427332,0.6296209909191496,-0.7976557159222665,-0.1261016190556636,,-0.9283806097420252,-0.31779045777433856,0.18932445079000002,-1.2950450909604225,-1.2342375023812235,1.0198332374728267,0.02188810486199342,,-0.15579681567927384,-0.3094010614857298,0.0882075766,0.08275268144170031
1.458031395013677,10:58:44.664134,10:58:43.478830,1,,0.031442218,0.010647371,0.07977389,-0.44301692,0.25962442,-0.8580974,0.6647257,-0.54712313,-0.5087199,-0.60156107,-0.79577094,0.06980574,,0.031936124,0.044627413,0.04923764,0.040704876,-0.62303376,0.7811351,0.16366076,-0.76706696,-0.62034136,0.9856764,0.153092,0.070742756,,0.1763727,1.3281274,0.5574847,0.99227494,-0.05660482,-0.11039183,-0.101542674,-0.88178855,-0.46058446,-0.07127096,0.4682359,-0.8807245,,-0.01600373,0.18025297,-0.11747115,0.5257145,-0.26953354,0.80683076,0.25963834,-0.8523742,-0.45392308,0.8100692,0.44811815,-0.37812427,,0.0010603218,0.34885162,-0.3278257,-0.11161575,0.5548409,-0.82443523,0.65985143,-0.5789535,-0.47896653,-0.7430599,-0.597465,-0.30149224,,1.527448444261369,-0.5462057279952769,0.1555936887,2.7406475613427332,0.6296209909191496,-0.7976557159222665,-0.1261016190556636,,-0.9283806097420252,-0.31779045777433856,0.18932445079000002,-1.2950450909604225,-1.2342375023812235,1.0198332374728267,0.02188810486199342,,-0.15579681567927384,-0.3094010614857298,0.0882075766,0.08275268144170031
1.485765485005686,10:58:44.688081,10:58:43.478830,1,,0.031442218,0.010647371,0.07977389,-0.44301692,0.25962442,-0.8580974,0.6647257,-0.54712313,-0.5087199,-0.60156107,-0.79577094,0.06980574,,0.031936124,0.044627413,0.04923764,0.040704876,-0.62303376,0.7811351,0.16366076,-0.76706696,-0.62034136,0.9856764,0.153092,0.070742756,,0.1763727,1.3281274,0.5574847,0.99227494,-0.05660482,-0.11039183,-0.101542674,-0.88178855,-0.46058446,-0.07127096,0.4682359,-0.8807245,,-0.01600373,0.18025297,-0.11747115,0.5257145,-0.26953354,0.80683076,0.25963834,-0.8523742,-0.45392308,0.8100692,0.44811815,-0.37812427,,0.0010603218,0.34885162,-0.3278257,-0.11161575,0.5548409,-0.82443523,0.65985143,-0.5789535,-0.47896653,-0.7430599,-0.597465,-0.30149224,,1.527448444261369,-0.5462057279952769,0.1555936887,2.7406475613427332,0.6296209909191496,-0.7976557159222665,-0.1261016190556636,,-0.9283806097420252,-0.31779045777433856,0.18932445079000002,-1.2950450909604225,-1.2342375023812235,1.0198332374728267,0.02188810486199342,,-0.15579681567927384,-0.3094010614857298,0.0882075766,0.08275268144170031
1.5097537700203247,10:58:44.716985,10:58:43.478830,1,,0.031442218,0.010647371,0.07977389,-0.44301692,0.25962442,-0.8580974,0.6647257,-0.54712313,-0.5087199,-0.60156107,-0.79577094,0.06980574,,0.031936124,0.044627413,0.04923764,0.040704876,-0.62303376,0.7811351,0.16366076,-0.76706696,-0.62034136,0.9856764,0.153092,0.070742756,,0.1763727,1.3281274,0.5574847,0.99227494,-0.05660482,-0.11039183,-0.101542674,-0.88178855,-0.46058446,-0.07127096,0.4682359,-0.8807245,,-0.01600373,0.18025297,-0.11747115,0.5257145,-0.26953354,0.80683076,0.25963834,-0.8523742,-0.45392308,0.8100692,0.44811815,-0.37812427,,0.0010603218,0.34885162,-0.3278257,-0.11161575,0.5548409,-0.82443523,0.65985143,-0.5789535,-0.47896653,-0.7430599,-0.597465,-0.30149224,,1.527448444261369,-0.5462057279952769,0.1555936887,2.7406475613427332,0.6296209909191496,-0.7976557159222665,-0.1261016190556636,,-0.9283806097420252,-0.31779045777433856,0.18932445079000002,-1.2950450909604225,-1.2342375023812235,1.0198332374728267,0.02188810486199342,,-0.15579681567927384,-0.3094010614857298,0.0882075766,0.08275268144170031
1.5386516700091306,10:58:44.739937,10:58:43.478830,1,,0.031442218,0.010647371,0.07977389,-0.44301692,0.25962442,-0.8580974,0.6647257,-0.54712313,-0.5087199,-0.60156107,-0.79577094,0.06980574,,0.031936124,0.044627413,0.04923764,0.040704876,-0.62303376,0.7811351,0.16366076,-0.76706696,-0.62034136,0.9856764,0.153092,0.070742756,,0.1763727,1.3281274,0.5574847,0.99227494,-0.05660482,-0.11039183,-0.101542674,-0.88178855,-0.46058446,-0.07127096,0.4682359,-0.8807245,,-0.01600373,0.18025297,-0.11747115,0.5257145,-0.26953354,0.80683076,0.25963834,-0.8523742,-0.45392308,0.8100692,0.44811815,-0.37812427,,0.0010603218,0.34885162,-0.3278257,-0.11161575,0.5548409,-0.82443523,0.65985143,-0.5789535,-0.47896653,-0.7430599,-0.597465,-0.30149224,,1.527448444261369,-0.5462057279952769,0.1555936887,2.7406475613427332,0.6296209909191496,-0.7976557159222665,-0.1261016190556636,,-0.9283806097420252,-0.31779045777433856,0.18932445079000002,-1.2950450909604225,-1.2342375023812235,1.0198332374728267,0.02188810486199342,,-0.15579681567927384,-0.3094010614857298,0.0882075766,0.08275268144170031
1.5615966900077183,10:58:44.767000,10:58:43.622468,1,,0.031418,0.010624155,0.079802215,-0.44259626,0.25989103,-0.8582338,0.66498303,-0.5469545,-0.50856495,-0.6015863,-0.79579985,0.06925684,,0.031933296,0.04461254,0.049275666,0.0402702,-0.62326217,0.78097534,0.16337827,-0.76698285,-0.62051976,0.98574126,0.15258273,0.07094085,,0.1763727,1.3281274,0.5574847,0.99227494,-0.05660482,-0.11039183,-0.101542674,-0.88178855,-0.46058446,-0.07127096,0.4682359,-0.8807245,,-0.01600373,0.18025297,-0.11747115,0.5257145,-0.26953354,0.80683076,0.25963834,-0.8523742,-0.45392308,0.8100692,0.44811815,-0.37812427,,0.0010603218,0.34885162,-0.3278257,-0.11161575,0.5548409,-0.82443523,0.65985143,-0.5789535,-0.47896653,-0.7430599,-0.597465,-0.30149224,,1.527448444261369,-0.5462057279952769,0.1555936887,2.7406475613427332,0.6296209909191496,-0.7976557159222665,-0.1261016190556636,,-0.9283806097420252,-0.31779045777433856,0.18932445079000002,-1.2950450909604225,-1.2342375023812235,1.0198332374728267,0.02188810486199342,,-0.15579681567927384,-0.3094010614857298,0.0882075766,0.08275268144170031
1.5886480680201203,10:58:44.794736,10:58:43.622468,1,,0.03141725,0.0106245205,0.07980266,-0.44260067,0.2598859,-0.8582331,0.6649851,-0.5469514,-0.5085656,-0.6015808,-0.79580367,0.069260746,,0.031933296,0.04461254,0.049275666,0.0402702,-0.62326217,0.78097534,0.16337827,-0.76698285,-0.62051976,0.98574126,0.15258273,0.07094085,,0.1763727,1.3281274,0.5574847,0.99227494,-0.05660482,-0.11039183,-0.101542674,-0.88178855,-0.46058446,-0.07127096,0.4682359,-0.8807245,,-0.016002974,0.18025348,-0.11747141,0.5257188,-0.26952803,0.8068298,0.25964257,-0.85237366,-0.4539217,0.8100651,0.44812256,-0.3781279,,0.0010603218,0.34885162,-0.3278257,-0.11161575,0.5548409,-0.82443523,0.65985143,-0.5789535,-0.47896653,-0.7430599,-0.597465,-0.30149224,,1.527456166994243,-0.5462057279952769,0.1555936887,2.7406475613427332,0.6296209909191496,-0.7976557159222665,-0.1261016190556636,,-0.9283806097420252,-0.31779045777433856,0.18932445079000002,-1.2950450909604225,-1.2342375023812235,1.0198332374728267,0.02188810486199342,,-0.15579681567927384,-0.3094010614857298,0.0882075766,0.08275268144170031
1.6164099960005842,10:58:44.818391,10:58:43.622468,1,,0.031418,0.010624155,0.079802215,-0.44259626,0.25989103,-0.8582338,0.66498303,-0.5469545,-0.50856495,-0.6015863,-0.79579985,0.06925684,,0.031933296,0.04461254,0.049275666,0.0402702,-0.62326217,0.78097534,0.16337827,-0.76698285,-0.62051976,0.98574126,0.15258273,0.07094085,,0.1763727,1.3281274,0.5574847,0.99227494,-0.05660482,-0.11039183,-0.101542674,-0.88178855,-0.46058446,-0.07127096,0.4682359,-0.8807245,,-0.01600373,0.18025297,-0.11747115,0.5257145,-0.26953354,0.80683076,0.25963834,-0.8523742,-0.45392308,0.8100692,0.44811815,-0.37812427,,0.0010603218,0.34885162,-0.3278257,-0.11161575,0.5548409,-0.82443523,0.65985143,-0.5789535,-0.47896653,-0.7430599,-0.597465,-0.30149224,,1.527448444261369,-0.5462057279952769,0.1555936887,2.7406475613427332,0.6296209909191496,-0.7976557159222665,-0.1261016190556636,,-0.9283806097420252,-0.31779045777433856,0.18932445079000002,-1.2950450909604225,-1.2342375023812235,1.0198332374728267,0.02188810486199342,,-0.15579681567927384,-0.3094010614857298,0.0882075766,0.08275268144170031
1.6400615830207244,10:58:44.841690,10:58:43.622468,1,,0.031418,0.010624155,0.079802215,-0.44259626,0.25989103,-0.8582338,0.66498303,-0.5469545,-0.50856495,-0.6015863,-0.79579985,0.06925684,,0.031933296,0.04461254,0.049275666,0.0402702,-0.62326217,0.78097534,0.16337827,-0.76698285,-0.62051976,0.98574126,0.15258273,0.07094085,,0.1763727,1.3281274,0.5574847,0.99227494,-0.05660482,-0.11039183,-0.101542674,-0.88178855,-0.46058446,-0.07127096,0.4682359,-0.8807245,,-0.01600373,0.18025297,-0.11747115,0.5257145,-0.26953354,0.80683076,0.25963834,-0.8523742,-0.45392308,0.8100692,0.44811815,-0.37812427,,0.0010603218,0.34885162,-0.3278257,-0.11161575,0.5548409,-0.82443523,0.65985143,-0.5789535,-0.47896653,-0.7430599,-0.597465,-0.30149224,,1.527448444261369,-0.5462057279952769,0.1555936887,2.7406475613427332,0.6296209909191496,-0.7976557159222665,-0.1261016190556636,,-0.9283806097420252,-0.31779045777433856,0.18932445079000002,-1.2950450909604225,-1.2342375023812235,1.0198332374728267,0.02188810486199342,,-0.15579681567927384,-0.3094010614857298,0.0882075766,0.08275268144170031
1.6633462090103421,10:58:44.869272,10:58:43.622468,1,,0.03141725,0.0106245205,0.07980266,-0.44260067,0.2598859,-0.8582331,0.6649851,-0.5469514,-0.5085656,-0.6015808,-0.79580367,0.069260746,,0.031933296,0.04461254,0.049275666,0.0402702,-0.62326217,0.78097534,0.16337827,-0.76698285,-0.62051976,0.98574126,0.15258273,0.07094085,,0.1763727,1.3281274,0.5574847,0.99227494,-0.05660482,-0.11039183,-0.101542674,-0.88178855,-0.46058446,-0.07127096,0.4682359,-0.8807245,,-0.016002974,0.18025348,-0.11747141,0.5257188,-0.26952803,0.8068298,0.25964257,-0.85237366,-0.4539217,0.8100651,0.44812256,-0.3781279,,0.0010603218,0.34885162,-0.3278257,-0.11161575,0.5548409,-0.82443523,0.65985143,-0.5789535,-0.47896653,-0.7430599,-0.597465,-0.30149224,,1.527456166994243,-0.5462057279952769,0.1555936887,2.7406475613427332,0.6296209909191496,-0.7976557159222665,-0.1261016190556636,,-0.9283806097420252,-0.31779045777433856,0.18932445079000002,-1.2950450909604225,-1.2342375023812235,1.0198332374728267,0.02188810486199342,,-0.15579681567927384,-0.3094010614857298,0.0882075766,0.08275268144170031
1.690914191014599,10:58:44.896590,10:58:43.764639,1,,0.031407766,0.010587573,0.07982759,-0.44193336,0.2598046,-0.8586014,0.6654314,-0.54693186,-0.50800264,-0.6015778,-0.7958436,0.068825305,,0.031957857,0.044583976,0.04931,0.040024348,-0.6238354,0.78053015,0.1631009,-0.76660013,-0.6210655,0.98579717,0.15216294,0.071065485,,0.1763727,1.3281274,0.5574847,0.99227494,-0.05660482,-0.11039183,-0.101542674,-0.88178855,-0.46058446,-0.07127096,0.4682359,-0.8807245,,-0.01600373,0.18025297,-0.11747115,0.5257145,-0.26953354,0.80683076,0.25963834,-0.8523742,-0.45392308,0.8100692,0.44811815,-0.37812427,,0.0010593595,0.34885246,-0.32782546,-0.11161047,0.55484307,-0.8244345,0.6598478,-0.5789576,-0.47896653,-0.7430639,-0.597459,-0.30149427,,1.527448444261369,-0.5462057279952769,0.1555936887,2.7406475613427332,0.6296209909191496,-0.7976557159222665,-0.1261016190556636,,-0.9283883324748994,-0.31779045777433856,0.18932445079000002,-1.2950450909604225,-1.2342375023812235,1.0198332374728267,0.02188810486199342,,-0.15579681567927384,-0.3094010614857298,0.0882075766,0.08275268144170031
1.718211665021954,10:58:44.921205,10:58:43.764639,0,,0.031406272,0.010588348,0.07982847,-0.44194216,0.2597944,-0.8586,0.66543555,-0.54692566,-0.50800395,-0.6015669,-0.79585123,0.06883308,,0.031956866,0.0445832,0.04930964,0.040030085,-0.62383384,0.78053105,0.16310576,-0.7665999,-0.6210645,0.9857961,0.15217036,0.07106382,,0.1763727,1.3281274,0.5574847,0.99227494,-0.05660482,-0.11039183,-0.101542674,-0.88178855,-0.46058446,-0.07127096,0.4682359,-0.8807245,,-0.016002217,0.180254,-0.11747168,0.5257231,-0.2695225,0.8068289,0.2596468,-0.85237306,-0.45392033,0.810061,0.44812694,-0.37813154,,0.0010603218,0.34885162,-0.3278257,-0.11161575,0.5548409,-0.82443523,0.65985143,-0.5789535,-0.47896653,-0.7430599,-0.597465,-0.30149224,,1.5274638897271173,-0.5462057279952769,0.1555936887,2.7406475613427332,0.6296209909191496,-0.7976557159222665,-0.1261016190556636,,-0.9283806097420252,-0.31779045777433856,0.18932445079000002,-1.2950450909604225,-1.2342375023812235,1.0198332374728267,0.02188810486199342,,-0.15579681567927384,-0.3094010614857298,0.0882075766,0.08275268144170031
1.742870980000589,10:58:44.945914,10:58:43.764639,0,,0.031406272,0.010588348,0.07982847,-0.44194216,0.2597944,-0.8586,0.66543555,-0.54692566,-0.50800395,-0.6015669,-0.79585123,0.06883308,,0.031957857,0.044583976,0.04931,0.040024348,-0.6238354,0.78053015,0.1631009,-0.76660013,-0.6210655,0.98579717,0.15216294,0.071065485,,0.1763727,1.3281274,0.5574847,0.99227494,-0.05660482,-0.11039183,-0.101542674,-0.88178855,-0.46058446,-0.07127096,0.4682359,-0.8807245,,-0.016002217,0.180254,-0.11747168,0.5257231,-0.2695225,0.8068289,0.2596468,-0.85237306,-0.45392033,0.810061,0.44812694,-0.37813154,,0.0010593595,0.34885246,-0.32782546,-0.11161047,0.55484307,-0.8244345,0.6598478,-0.5789576,-0.47896653,-0.7430639,-0.597459,-0.30149427,,1.5274638897271173,-0.5462057279952769,0.1555936887,2.7406475613427332,0.6296209909191496,-0.7976557159222665,-0.1261016190556636,,-0.9283883324748994,-0.31779045777433856,0.18932445079000002,-1.2950450909604225,-1.2342375023812235,1.0198332374728267,0.02188810486199342,,-0.15579681567927384,-0.3094010614857298,0.0882075766,0.08275268144170031
1.7675072970159817,10:58:44.972391,10:58:43.764639,0,,0.031407766,0.010587573,0.07982759,-0.44193336,0.2598046,-0.8586014,0.6654314,-0.54693186,-0.50800264,-0.6015778,-0.7958436,0.068825305,,0.031956866,0.0445832,0.04930964,0.040030085,-0.62383384,0.78053105,0.16310576,-0.7665999,-0.6210645,0.9857961,0.15217036,0.07106382,,0.1763727,1.3281274,0.5574847,0.99227494,-0.05660482,-0.11039183,-0.101542674,-0.88178855,-0.46058446,-0.07127096,0.4682359,-0.8807245,,-0.01600373,0.18025297,-0.11747115,0.5257145,-0.26953354,0.80683076,0.25963834,-0.8523742,-0.45392308,0.8100692,0.44811815,-0.37812427,,0.0010603218,0.34885162,-0.3278257,-0.11161575,0.5548409,-0.82443523,0.65985143,-0.5789535,-0.47896653,-0.7430599,-0.597465,-0.30149224,,1.527448444261369,-0.5462057279952769,0.1555936887,2.7406475613427332,0.6296209909191496,-0.7976557159222665,-0.1261016190556636,,-0.9283806097420252,-0.31779045777433856,0.18932445079000002,-1.2950450909604225,-1.2342375023812235,1.0198332374728267,0.02188810486199342,,-0.15579681567927384,-0.3094010614857298,0.0882075766,0.08275268144170031
1.7940259340102784,10:58:44.999132,10:58:43.764639,0,,0.031407766,0.010587573,0.07982759,-0.44193336,0.2598046,-0.8586014,0.6654314,-0.54693186,-0.50800264,-0.6015778,-0.7958436,0.068825305,,0.031957477,0.044581562,0.04930991,0.04005351,-0.6239898,0.78040516,0.16304132,-0.76648283,-0.62122583,0.98580587,0.15212053,0.0710358,,0.1763727,1.3281274,0.5574847,0.99227494,-0.05660482,-0.11039183,-0.101542674,-0.88178855,-0.46058446,-0.07127096,0.4682359,-0.8807245,,-0.01600373,0.18025297,-0.11747115,0.5257145,-0.26953354,0.80683076,0.25963834,-0.8523742,-0.45392308,0.8100692,0.44811815,-0.37812427,,0.0010595799,0.34885034,-0.3278267,-0.11164427,0.5550081,-0.8243188,0.6598022,-0.5788826,-0.47912005,-0.74309933,-0.5973784,-0.30156666,,1.527448444261369,-0.5462057279952769,0.1555936887,2.7406475613427332,0.6296209909191496,-0.7976557159222665,-0.1261016190556636,,-0.9283806097420252,-0.31779045777433856,0.18932445079000002,-1.2948354010169378,-1.2342375023812235,1.0198332374728267,0.02188810486199342,,-0.15579681567927384,-0.3094010614857298,0.0882075766,0.08275268144170031
1.820772224018583,10:58:45.018048,10:58:43.764639,0,,0.031407017,0.010587938,0.079828024,-0.44193777,0.2597995,-0.8586007,0.66543347,-0.54692876,-0.50800335,-0.6015724,-0.7958475,0.06882921,,0.031959075,0.04458064,0.049310505,0.040071204,-0.6241473,0.7802784,0.16297206,-0.76636595,-0.6213882,0.9858166,0.15206334,0.07100934,,0.1763727,1.3281274,0.5574847,0.99227494,-0.05660482,-0.11039183,-0.101542674,-0.88178855,-0.46058446,-0.07127096,0.4682359,-0.8807245,,-0.016002974,0.18025348,-0.11747141,0.5257188,-0.26952803,0.8068298,0.25964257,-0.85237366,-0.4539217,0.8100651,0.44812256,-0.3781279,,0.0010578762,0.3488499,-0.3278275,-0.1116675,0.5551775,-0.82420164,0.6597493,-0.57881576,-0.47927356,-0.7431428,-0.59728575,-0.30164304,,1.527456166994243,-0.5462057279952769,0.1555936887,2.7406475613427332,0.6296209909191496,-0.7976557159222665,-0.1261016190556636,,-0.9283883324748994,-0.31779045777433856,0.18932445079000002,-1.2946257110734534,-1.2342375023812235,1.0198332374728267,0.02188810486199342,,-0.15579681567927384,-0.3094010614857298,0.0882075766,0.08275268144170031
1.839670985005796,10:58:45.051167,10:58:43.904647,0,,0.03142301,0.010572031,0.07982217,-0.4424478,0.25973177,-0.8583585,0.66542304,-0.54658294,-0.5083889,-0.60120875,-0.7961071,0.06900284,,0.03194912,0.044575244,0.049315393,0.040374734,-0.62376404,0.7805692,0.16268918,-0.7666774,-0.621078,0.98585093,0.15206596,0.070525214,,0.1763727,1.3281274,0.5574847,0.99227494,-0.05660482,-0.11039183,-0.101542674,-0.88178855,-0.46058446,-0.07127096,0.4682359,-0.8807245,,-0.01600373,0.18025297,-0.11747115,0.5257145,-0.26953354,0.80683076,0.25963834,-0.8523742,-0.45392308,0.8100692,0.44811815,-0.37812427,,0.0010569139,0.34885073,-0.32782724,-0.111662224,0.55517966,-0.82420087,0.6597457,-0.5788199,-0.47927356,-0.7431468,-0.5972797,-0.30164507,,1.527448444261369,-0.5462057279952769,0.1555936887,2.7406475613427332,0.6296209909191496,-0.7976557159222665,-0.1261016190556636,,-0.9283960552077737,-0.31779045777433856,0.18932445079000002,-1.2946257110734534,-1.2342375023812235,1.0198332374728267,0.02188810486199342,,-0.15579681567927384,-0.3094010614857298,0.0882075766,0.08275268144170031
1.8727897170174401,10:58:45.072127,10:58:43.904647,0,,0.03142152,0.010572799,0.07982305,-0.44245654,0.25972158,-0.85835713,0.6654272,-0.5465766,-0.5083902,-0.60119784,-0.79611474,0.069010586,,0.031948123,0.044574454,0.049315095,0.040380448,-0.6237625,0.7805702,0.162694,-0.76667726,-0.62107694,0.9858499,0.15207344,0.07052359,,0.1763727,1.3281274,0.5574847,0.99227494,-0.05660482,-0.11039183,-0.101542674,-0.88178855,-0.46058446,-0.07127096,0.4682359,-0.8807245,,-0.016002217,0.180254,-0.11747168,0.5257231,-0.2695225,0.8068289,0.2596468,-0.85237306,-0.45392033,0.810061,0.44812694,-0.37813154,,0.0010578762,0.3488499,-0.3278275,-0.1116675,0.5551775,-0.82420164,0.6597493,-0.57881576,-0.47927356,-0.7431428,-0.59728575,-0.30164304,,1.5274638897271173,-0.5462057279952769,0.1555936887,2.7406475613427332,0.6296209909191496,-0.7976557159222665,-0.1261016190556636,,-0.9283883324748994,-0.31779045777433856,0.18932445079000002,-1.2946257110734534,-1.2342375023812235,1.0198332374728267,0.02188810486199342,,-0.15579681567927384,-0.3094010614857298,0.0882075766,0.08275268144170031
1.893796927004587,10:58:45.101248,10:58:43.904647,0,,0.031422265,0.010572404,0.0798226,-0.4424522,0.2597267,-0.8583578,0.6654251,-0.54657984,-0.50838953,-0.6012033,-0.796111,0.06900671,,0.03194713,0.044573665,0.049314737,0.040386178,-0.6237609,0.7805711,0.1626988,-0.766677,-0.621076,0.9858489,0.1520809,0.07052195,,0.1763727,1.3281274,0.5574847,0.99227494,-0.05660482,-0.11039183,-0.101542674,-0.88178855,-0.46058446,-0.07127096,0.4682359,-0.8807245,,-0.016002974,0.18025348,-0.11747141,0.5257188,-0.26952803,0.8068298,0.25964257,-0.85237366,-0.4539217,0.8100651,0.44812256,-0.3781279,,0.0010588384,0.34884906,-0.32782775,-0.11167278,0.5551753,-0.82420236,0.6597529,-0.57881165,-0.47927356,-0.7431388,-0.59729177,-0.30164105,,1.527456166994243,-0.5462057279952769,0.1555936887,2.7406475613427332,0.6296209909191496,-0.7976557159222665,-0.1261016190556636,,-0.9283806097420252,-0.31779045777433856,0.18932445079000002,-1.2946257110734534,-1.2342375023812235,1.0198332374728267,0.02188810486199342,,-0.15579681567927384,-0.3094010614857298,0.0882075766,0.08275268144170031
1.9228947420197073,10:58:45.125843,10:58:43.904647,0,,0.03142301,0.010572031,0.07982217,-0.4424478,0.25973177,-0.8583585,0.66542304,-0.54658294,-0.5083889,-0.60120875,-0.7961071,0.06900284,,0.031948123,0.044574454,0.049315095,0.040380448,-0.6237625,0.7805702,0.162694,-0.76667726,-0.62107694,0.9858499,0.15207344,0.07052359,,0.1763727,1.3281274,0.5574847,0.99227494,-0.05660482,-0.11039183,-0.101542674,-0.88178855,-0.46058446,-0.07127096,0.4682359,-0.8807245,,-0.01600373,0.18025297,-0.11747115,0.5257145,-0.26953354,0.80683076,0.25963834,-0.8523742,-0.45392308,0.8100692,0.44811815,-0.37812427,,0.0010578762,0.3488499,-0.3278275,-0.1116675,0.5551775,-0.82420164,0.6597493,-0.57881576,-0.47927356,-0.7431428,-0.59728575,-0.30164304,,1.527448444261369,-0.5462057279952769,0.1555936887,2.7406475613427332,0.6296209909191496,-0.7976557159222665,-0.1261016190556636,,-0.9283883324748994,-0.31779045777433856,0.18932445079000002,-1.2946257110734534,-1.2342375023812235,1.0198332374728267,0.02188810486199342,,-0.15579681567927384,-0.3094010614857298,0.0882075766,0.08275268144170031
1.9475121770228725,10:58:45.150795,10:58:43.904647,0,,0.03142301,0.010572031,0.07982217,-0.4424478,0.25973177,-0.8583585,0.66542304,-0.54658294,-0.5083889,-0.60120875,-0.7961071,0.06900284,,0.031948123,0.044574454,0.049315095,0.040380448,-0.6237625,0.7805702,0.162694,-0.76667726,-0.62107694,0.9858499,0.15207344,0.07052359,,0.1763727,1.3281274,0.5574847,0.99227494,-0.05660482,-0.11039183,-0.101542674,-0.88178855,-0.46058446,-0.07127096,0.4682359,-0.8807245,,-0.01600373,0.18025297,-0.11747115,0.5257145,-0.26953354,0.80683076,0.25963834,-0.8523742,-0.45392308,0.8100692,0.44811815,-0.37812427,,0.0010578762,0.3488499,-0.3278275,-0.1116675,0.5551775,-0.82420164,0.6597493,-0.57881576,-0.47927356,-0.7431428,-0.59728575,-0.30164304,,1.527448444261369,-0.5462057279952769,0.1555936887,2.7406475613427332,0.6296209909191496,-0.7976557159222665,-0.1261016190556636,,-0.9283883324748994,-0.31779045777433856,0.18932445079000002,-1.2946257110734534,-1.2342375023812235,1.0198332374728267,0.02188810486199342,,-0.15579681567927384,-0.3094010614857298,0.0882075766,0.08275268144170031
1.9724659010244068,10:58:45.179068,10:58:44.046747,0,,0.031377956,0.010581382,0.079641104,-0.44193292,0.26005572,-0.8585256,0.6661526,-0.5458286,-0.5082441,-0.60077953,-0.7965188,0.06798279,,0.031928267,0.044614285,0.049169004,0.03985616,-0.6240409,0.78037447,0.16167402,-0.7666765,-0.6213442,0.9860389,0.15093067,0.070334435,,0.1763727,1.3281274,0.5574847,0.99227494,-0.05660482,-0.11039183,-0.101542674,-0.88178855,-0.46058446,-0.07127096,0.4682359,-0.8807245,,-0.01600373,0.18025297,-0.11747115,0.5257145,-0.26953354,0.80683076,0.25963834,-0.8523742,-0.45392308,0.8100692,0.44811815,-0.37812427,,0.0010588384,0.34884906,-0.32782775,-0.11167278,0.5551753,-0.82420236,0.6597529,-0.57881165,-0.47927356,-0.7431388,-0.59729177,-0.30164105,,1.527448444261369,-0.5462057279952769,0.1555936887,2.7406475613427332,0.6296209909191496,-0.7976557159222665,-0.1261016190556636,,-0.9283806097420252,-0.31779045777433856,0.18932445079000002,-1.2946257110734534,-1.2342375023812235,1.0198332374728267,0.02188810486199342,,-0.15579681567927384,-0.3094010614857298,0.0882075766,0.08275268144170031
2.000738815026125,10:58:45.205753,10:58:44.046747,0,,0.031377956,0.010581382,0.079641104,-0.44193292,0.26005572,-0.8585256,0.6661526,-0.5458286,-0.5082441,-0.60077953,-0.7965188,0.06798279,,0.031930257,0.044615835,0.0491696,0.039844707,-0.624044,0.7803726,0.1616644,-0.76667684,-0.62134624,0.98604095,0.15091583,0.0703377,,0.1763727,1.3281274,0.5574847,0.99227494,-0.05660482,-0.11039183,-0.101542674,-0.88178855,-0.46058446,-0.07127096,0.4682359,-0.8807245,,-0.01600373,0.18025297,-0.11747115,0.5257145,-0.26953354,0.80683076,0.25963834,-0.8523742,-0.45392308,0.8100692,0.44811815,-0.37812427,,0.0010569139,0.34885073,-0.32782724,-0.111662224,0.55517966,-0.82420087,0.6597457,-0.5788199,-0.47927356,-0.7431468,-0.5972797,-0.30164507,,1.527448444261369,-0.5462057279952769,0.1555936887,2.7406475613427332,0.6296209909191496,-0.7976557159222665,-0.1261016190556636,,-0.9283960552077737,-0.31779045777433856,0.18932445079000002,-1.2946257110734534,-1.2342375023812235,1.0198332374728267,0.02188810486199342,,-0.15579681567927384,-0.3094010614857298,0.0882075766,0.08275268144170031
2.027420772006735,10:58:45.228353,10:58:44.046747,0,,0.03137721,0.0105817765,0.07964155,-0.44193733,0.26005062,-0.85852486,0.6661546,-0.5458255,-0.50824475,-0.60077405,-0.7965226,0.06798667,,0.031928267,0.044614285,0.049169004,0.03985616,-0.6240409,0.78037447,0.16167402,-0.7666765,-0.6213442,0.9860389,0.15093067,0.070334435,,0.1763727,1.3281274,0.5574847,0.99227494,-0.05660482,-0.11039183,-0.101542674,-0.88178855,-0.46058446,-0.07127096,0.4682359,-0.8807245,,-0.016002974,0.18025348,-0.11747141,0.5257188,-0.26952803,0.8068298,0.25964257,-0.85237366,-0.4539217,0.8100651,0.44812256,-0.3781279,,0.0010588384,0.34884906,-0.32782775,-0.11167278,0.5551753,-0.82420236,0.6597529,-0.57881165,-0.47927356,-0.7431388,-0.59729177,-0.30164105,,1.527456166994243,-0.5462057279952769,0.1555936887,2.7406475613427332,0.6296209909191496,-0.7976557159222665,-0.1261016190556636,,-0.9283806097420252,-0.31779045777433856,0.18932445079000002,-1.2946257110734534,-1.2342375023812235,1.0198332374728267,0.02188810486199342,,-0.15579681567927384,-0.3094010614857298,0.0882075766,0.08275268144170031
2.0500237710075453,10:58:45.253776,10:58:44.046747,0,,0.031377956,0.010581382,0.079641104,-0.44193292,0.26005572,-0.8585256,0.6661526,-0.5458286,-0.5082441,-0.60077953,-0.7965188,0.06798279,,0.031928267,0.044614285,0.049169004,0.03985616,-0.6240409,0.78037447,0.16167402,-0.7666765,-0.6213442,0.9860389,0.15093067,0.070334435,,0.1763727,1.3281274,0.5574847,0.99227494,-0.05660482,-0.11039183,-0.101542674,-0.88178855,-0.46058446,-0.07127096,0.4682359,-0.8807245,,-0.01600373,0.18025297,-0.11747115,0.5257145,-0.26953354,0.80683076,0.25963834,-0.8523742,-0.45392308,0.8100692,0.44811815,-0.37812427,,0.0010588384,0.34884906,-0.32782775,-0.11167278,0.5551753,-0.82420236,0.6597529,-0.57881165,-0.47927356,-0.7431388,-0.59729177,-0.30164105,,1.527448444261369,-0.5462057279952769,0.1555936887,2.7406475613427332,0.6296209909191496,-0.7976557159222665,-0.1261016190556636,,-0.9283806097420252,-0.31779045777433856,0.18932445079000002,-1.2946257110734534,-1.2342375023812235,1.0198332374728267,0.02188810486199342,,-0.15579681567927384,-0.3094010614857298,0.0882075766,0.08275268144170031
2.075437428022269,10:58:45.274664,10:58:44.046747,0,,0.031377956,0.010581382,0.079641104,-0.44193292,0.26005572,-0.8585256,0.6661526,-0.5458286,-0.5082441,-0.60077953,-0.7965188,0.06798279,,0.031928267,0.044614285,0.049169004,0.03985616,-0.6240409,0.78037447,0.16167402,-0.7666765,-0.6213442,0.9860389,0.15093067,0.070334435,,0.1763727,1.3281274,0.5574847,0.99227494,-0.05660482,-0.11039183,-0.101542674,-0.88178855,-0.46058446,-0.07127096,0.4682359,-0.8807245,,-0.01600373,0.18025297,-0.11747115,0.5257145,-0.26953354,0.80683076,0.25963834,-0.8523742,-0.45392308,0.8100692,0.44811815,-0.37812427,,0.0010588384,0.34884906,-0.32782775,-0.11167278,0.5551753,-0.82420236,0.6597529,-0.57881165,-0.47927356,-0.7431388,-0.59729177,-0.30164105,,1.527448444261369,-0.5462057279952769,0.1555936887,2.7406475613427332,0.6296209909191496,-0.7976557159222665,-0.1261016190556636,,-0.9283806097420252,-0.31779045777433856,0.18932445079000002,-1.2946257110734534,-1.2342375023812235,1.0198332374728267,0.02188810486199342,,-0.15579681567927384,-0.3094010614857298,0.0882075766,0.08275268144170031
2.0963168570015114,10:58:45.303955,10:58:44.046747,0,,0.031377956,0.010581382,0.079641104,-0.44193292,0.26005572,-0.8585256,0.6661526,-0.5458286,-0.5082441,-0.60077953,-0.7965188,0.06798279,,0.031928267,0.044614285,0.049169004,0.03985616,-0.6240409,0.78037447,0.16167402,-0.7666765,-0.6213442,0.9860389,0.15093067,0.070334435,,0.1763727,1.3281274,0.5574847,0.99227494,-0.05660482,-0.11039183,-0.101542674,-0.88178855,-0.46058446,-0.07127096,0.4682359,-0.8807245,,-0.01600373,0.18025297,-0.11747115,0.5257145,-0.26953354,0.80683076,0.25963834,-0.8523742,-0.45392308,0.8100692,0.44811815,-0.37812427,,0.0010588384,0.34884906,-0.32782775,-0.11167278,0.5551753,-0.82420236,0.6597529,-0.57881165,-0.47927356,-0.7431388,-0.59729177,-0.30164105,,1.527448444261369,-0.5462057279952769,0.1555936887,2.7406475613427332,0.6296209909191496,-0.7976557159222665,-0.1261016190556636,,-0.9283806097420252,-0.31779045777433856,0.18932445079000002,-1.2946257110734534,-1.2342375023812235,1.0198332374728267,0.02188810486199342,,-0.15579681567927384,-0.3094010614857298,0.0882075766,0.08275268144170031
2.1255991390207782,10:58:45.329415,10:58:44.046747,0,,0.031377956,0.010581382,0.079641104,-0.44193292,0.26005572,-0.8585256,0.6661526,-0.5458286,-0.5082441,-0.60077953,-0.7965188,0.06798279,,0.031928267,0.044614285,0.049169004,0.03985616,-0.6240409,0.78037447,0.16167402,-0.7666765,-0.6213442,0.9860389,0.15093067,0.070334435,,0.1763727,1.3281274,0.5574847,0.99227494,-0.05660482,-0.11039183,-0.101542674,-0.88178855,-0.46058446,-0.07127096,0.4682359,-0.8807245,,-0.01600373,0.18025297,-0.11747115,0.5257145,-0.26953354,0.80683076,0.25963834,-0.8523742,-0.45392308,0.8100692,0.44811815,-0.37812427,,0.0010588384,0.34884906,-0.32782775,-0.11167278,0.5551753,-0.82420236,0.6597529,-0.57881165,-0.47927356,-0.7431388,-0.59729177,-0.30164105,,1.527448444261369,-0.5462057279952769,0.1555936887,2.7406475613427332,0.6296209909191496,-0.7976557159222665,-0.1261016190556636,,-0.9283806097420252,-0.31779045777433856,0.18932445079000002,-1.2946257110734534,-1.2342375023812235,1.0198332374728267,0.02188810486199342,,-0.15579681567927384,-0.3094010614857298,0.0882075766,0.08275268144170031
2.1510494760004804,10:58:45.355300,10:58:44.209461,0,,0.031415217,0.010584056,0.079627186,-0.442448,0.25972953,-0.8583591,0.6660738,-0.54572153,-0.50846213,-0.6004876,-0.7966986,0.068454325,,0.031939328,0.04461868,0.049156576,0.04038827,-0.62376165,0.7805704,0.161632,-0.76684034,-0.62115306,0.98602426,0.15125233,0.06984842,,0.1763727,1.3281274,0.5574847,0.99227494,-0.05660482,-0.11039183,-0.101542674,-0.88178855,-0.46058446,-0.07127096,0.4682359,-0.8807245,,-0.01600373,0.18025297,-0.11747115,0.5257145,-0.26953354,0.80683076,0.25963834,-0.8523742,-0.45392308,0.8100692,0.44811815,-0.37812427,,0.0010588384,0.34884906,-0.32782775,-0.11167278,0.5551753,-0.82420236,0.6597529,-0.57881165,-0.47927356,-0.7431388,-0.59729177,-0.30164105,,1.527448444261369,-0.5462057279952769,0.1555936887,2.7406475613427332,0.6296209909191496,-0.7976557159222665,-0.1261016190556636,,-0.9283806097420252,-0.31779045777433856,0.18932445079000002,-1.2946257110734534,-1.2342375023812235,1.0198332374728267,0.02188810486199342,,-0.15579681567927384,-0.3094010614857298,0.0882075766,0.08275268144170031
2.1769610200135503,10:58:45.375325,10:58:44.209461,0,,0.03141447,0.010584421,0.07962763,-0.44245243,0.25972444,-0.8583584,0.6660759,-0.54571843,-0.5084627,-0.60048217,-0.7967024,0.0684582,,0.031939328,0.04461868,0.049156576,0.04038827,-0.62376165,0.7805704,0.161632,-0.76684034,-0.62115306,0.98602426,0.15125233,0.06984842,,0.1763727,1.3281274,0.5574847,0.99227494,-0.05660482,-0.11039183,-0.101542674,-0.88178855,-0.46058446,-0.07127096,0.4682359,-0.8807245,,-0.016002974,0.18025348,-0.11747141,0.5257188,-0.26952803,0.8068298,0.25964257,-0.85237366,-0.4539217,0.8100651,0.44812256,-0.3781279,,0.0010588384,0.34884906,-0.32782775,-0.11167278,0.5551753,-0.82420236,0.6597529,-0.57881165,-0.47927356,-0.7431388,-0.59729177,-0.30164105,,1.527456166994243,-0.5462057279952769,0.1555936887,2.7406475613427332,0.6296209909191496,-0.7976557159222665,-0.1261016190556636,,-0.9283806097420252,-0.31779045777433856,0.18932445079000002,-1.2946257110734534,-1.2342375023812235,1.0198332374728267,0.02188810486199342,,-0.15579681567927384,-0.3094010614857298,0.0882075766,0.08275268144170031
2.196980989014264,10:58:45.404387,10:58:44.209461,0,,0.031415217,0.010584056,0.079627186,-0.442448,0.25972953,-0.8583591,0.6660738,-0.54572153,-0.50846213,-0.6004876,-0.7966986,0.068454325,,0.031939328,0.04461868,0.049156576,0.04038827,-0.62376165,0.7805704,0.161632,-0.76684034,-0.62115306,0.98602426,0.15125233,0.06984842,,0.1763727,1.3281274,0.5574847,0.99227494,-0.05660482,-0.11039183,-0.101542674,-0.88178855,-0.46058446,-0.07127096,0.4682359,-0.8807245,,-0.01600373,0.18025297,-0.11747115,0.5257145,-0.26953354,0.80683076,0.25963834,-0.8523742,-0.45392308,0.8100692,0.44811815,-0.37812427,,0.0010588384,0.34884906,-0.32782775,-0.11167278,0.5551753,-0.82420236,0.6597529,-0.57881165,-0.47927356,-0.7431388,-0.59729177,-0.30164105,,1.527448444261369,-0.5462057279952769,0.1555936887,2.7406475613427332,0.6296209909191496,-0.7976557159222665,-0.1261016190556636,,-0.9283806097420252,-0.31779045777433856,0.18932445079000002,-1.2946257110734534,-1.2342375023812235,1.0198332374728267,0.02188810486199342,,-0.15579681567927384,-0.3094010614857298,0.0882075766,0.08275268144170031
2.226058049011044,10:58:45.432276,10:58:44.209461,0,,0.031415217,0.010584056,0.079627186,-0.442448,0.25972953,-0.8583591,0.6660738,-0.54572153,-0.50846213,-0.6004876,-0.7966986,0.068454325,,0.031939328,0.04461868,0.049156576,0.04038827,-0.62376165,0.7805704,0.161632,-0.76684034,-0.62115306,0.98602426,0.15125233,0.06984842,,0.1763727,1.3281274,0.5574847,0.99227494,-0.05660482,-0.11039183,-0.101542674,-0.88178855,-0.46058446,-0.07127096,0.4682359,-0.8807245,,-0.01600373,0.18025297,-0.11747115,0.5257145,-0.26953354,0.80683076,0.25963834,-0.8523742,-0.45392308,0.8100692,0.44811815,-0.37812427,,0.0010588384,0.34884906,-0.32782775,-0.11167278,0.5551753,-0.82420236,0.6597529,-0.57881165,-0.47927356,-0.7431388,-0.59729177,-0.30164105,,1.527448444261369,-0.5462057279952769,0.1555936887,2.7406475613427332,0.6296209909191496,-0.7976557159222665,-0.1261016190556636,,-0.9283806097420252,-0.31779045777433856,0.18932445079000002,-1.2946257110734534,-1.2342375023812235,1.0198332374728267,0.02188810486199342,,-0.15579681567927384,-0.3094010614857298,0.0882075766,0.08275268144170031
2.2539211440016516,10:58:45.454979,10:58:44.209461,0,,0.03141447,0.010584421,0.07962763,-0.44245243,0.25972444,-0.8583584,0.6660759,-0.54571843,-0.5084627,-0.60048217,-0.7967024,0.0684582,,0.031939328,0.04461868,0.049156576,0.04038827,-0.62376165,0.7805704,0.161632,-0.76684034,-0.62115306,0.98602426,0.15125233,0.06984842,,0.1763727,1.3281274,0.5574847,0.99227494,-0.05660482,-0.11039183,-0.101542674,-0.88178855,-0.46058446,-0.07127096,0.4682359,-0.8807245,,-0.016002974,0.18025348,-0.11747141,0.5257188,-0.26952803,0.8068298,0.25964257,-0.85237366,-0.4539217,0.8100651,0.44812256,-0.3781279,,0.0010588384,0.34884906,-0.32782775,-0.11167278,0.5551753,-0.82420236,0.6597529,-0.57881165,-0.47927356,-0.7431388,-0.59729177,-0.30164105,,1.527456166994243,-0.5462057279952769,0.1555936887,2.7406475613427332,0.6296209909191496,-0.7976557159222665,-0.1261016190556636,,-0.9283806097420252,-0.31779045777433856,0.18932445079000002,-1.2946257110734534,-1.2342375023812235,1.0198332374728267,0.02188810486199342,,-0.15579681567927384,-0.3094010614857298,0.0882075766,0.08275268144170031
2.2766532030072995,10:58:45.481682,10:58:44.209461,0,,0.031415217,0.010584056,0.079627186,-0.442448,0.25972953,-0.8583591,0.6660738,-0.54572153,-0.50846213,-0.6004876,-0.7966986,0.068454325,,0.031939328,0.04461868,0.049156576,0.04038827,-0.62376165,0.7805704,0.161632,-0.76684034,-0.62115306,0.98602426,0.15125233,0.06984842,,0.1763727,1.3281274,0.5574847,0.99227494,-0.05660482,-0.11039183,-0.101542674,-0.88178855,-0.46058446,-0.07127096,0.4682359,-0.8807245,,-0.01600373,0.18025297,-0.11747115,0.5257145,-0.26953354,0.80683076,0.25963834,-0.8523742,-0.45392308,0.8100692,0.44811815,-0.37812427,,0.0010588384,0.34884906,-0.32782775,-0.11167278,0.5551753,-0.82420236,0.6597529,-0.57881165,-0.47927356,-0.7431388,-0.59729177,-0.30164105,,1.527448444261369,-0.5462057279952769,0.1555936887,2.7406475613427332,0.6296209909191496,-0.7976557159222665,-0.1261016190556636,,-0.9283806097420252,-0.31779045777433856,0.18932445079000002,-1.2946257110734534,-1.2342375023812235,1.0198332374728267,0.02188810486199342,,-0.15579681567927384,-0.3094010614857298,0.0882075766,0.08275268144170031
2.303319734026445,10:58:45.507751,10:58:44.363036,0,,0.031257294,0.010448873,0.07975848,-0.44059628,0.26118633,-0.85886943,0.66714203,-0.544896,-0.5079465,-0.60066324,-0.79678726,0.0658308,,0.03187546,0.0445216,0.0493322,0.03822571,-0.62464404,0.7799735,0.16035742,-0.76659346,-0.62178755,0.9863185,0.14884284,0.07086274,,0.1763727,1.3281274,0.5574847,0.99227494,-0.05660482,-0.11039183,-0.101542674,-0.88178855,-0.46058446,-0.07127096,0.4682359,-0.8807245,,-0.01600373,0.18025297,-0.11747115,0.5257145,-0.26953354,0.80683076,0.25963834,-0.8523742,-0.45392308,0.8100692,0.44811815,-0.37812427,,0.0010588384,0.34884906,-0.32782775,-0.11167278,0.5551753,-0.82420236,0.6597529,-0.57881165,-0.47927356,-0.7431388,-0.59729177,-0.30164105,,1.527448444261369,-0.5462057279952769,0.1555936887,2.7406475613427332,0.6296209909191496,-0.7976557159222665,-0.1261016190556636,,-0.9283806097420252,-0.31779045777433856,0.18932445079000002,-1.2946257110734534,-1.2342375023812235,1.0198332374728267,0.02188810486199342,,-0.15579681567927384,-0.3094010614857298,0.0882075766,0.08275268144170031
2.3294001500180457,10:58:45.532345,10:58:44.363036,0,,0.031257294,0.010448873,0.07975848,-0.44059628,0.26118633,-0.85886943,0.66714203,-0.544896,-0.5079465,-0.60066324,-0.79678726,0.0658308,,0.031874854,0.044523254,0.049331963,0.03820233,-0.62448823,0.7800994,0.16042188,-0.7667107,-0.6216264,0.986309,0.14889258,0.07089147,,0.1763727,1.3281274,0.5574847,0.99227494,-0.05660482,-0.11039183,-0.101542674,-0.88178855,-0.46058446,-0.07127096,0.4682359,-0.8807245,,-0.01600373,0.18025297,-0.11747115,0.5257145,-0.26953354,0.80683076,0.25963834,-0.8523742,-0.45392308,0.8100692,0.44811815,-0.37812427,,0.0010595799,0.34885034,-0.3278267,-0.11164427,0.5550081,-0.8243188,0.6598022,-0.5788826,-0.47912005,-0.74309933,-0.5973784,-0.30156666,,1.527448444261369,-0.5462057279952769,0.1555936887,2.7406475613427332,0.6296209909191496,-0.7976557159222665,-0.1261016190556636,,-0.9283806097420252,-0.31779045777433856,0.18932445079000002,-1.2948354010169378,-1.2342375023812235,1.0198332374728267,0.02188810486199342,,-0.15579681567927384,-0.3094010614857298,0.0882075766,0.08275268144170031
2.353965465008514,10:58:45.557729,10:58:44.363036,0,,0.031257294,0.010448873,0.07975848,-0.44059628,0.26118633,-0.85886943,0.66714203,-0.544896,-0.5079465,-0.60066324,-0.79678726,0.0658308,,0.031875018,0.04452388,0.049331963,0.038174585,-0.6243343,0.78022397,0.16049215,-0.76682603,-0.6214659,0.9862986,0.14894402,0.07092753,,0.1763727,1.3281274,0.5574847,0.99227494,-0.05660482,-0.11039183,-0.101542674,-0.88178855,-0.46058446,-0.07127096,0.4682359,-0.8807245,,-0.01600373,0.18025297,-0.11747115,0.5257145,-0.26953354,0.80683076,0.25963834,-0.8523742,-0.45392308,0.8100692,0.44811815,-0.37812427,,0.0010594534,0.34885088,-0.3278264,-0.11161096,0.5548427,-0.8244347,0.6598559,-0.57895106,-0.4789633,-0.74305665,-0.59746563,-0.30149898,,1.527448444261369,-0.5462057279952769,0.1555936887,2.7406475613427332,0.6296209909191496,-0.7976557159222665,-0.1261016190556636,,-0.9283806097420252,-0.3177981805072128,0.18932445079000002,-1.2950450909604225,-1.2342375023812235,1.0198332374728267,0.02188810486199342,,-0.15579681567927384,-0.3094010614857298,0.0882075766,0.08275268144170031
2.3793659010261763,10:58:45.585546,10:58:44.363036,2,,0.031257294,0.010448873,0.07975848,-0.44059628,0.26118633,-0.85886943,0.66714203,-0.544896,-0.5079465,-0.60066324,-0.79678726,0.0658308,,0.031874243,0.044524953,0.049331695,0.038178936,-0.6243325,0.78022516,0.16048634,-0.76682794,-0.6214651,0.9862994,0.14894232,0.07092017,,0.1763727,1.3281274,0.5574847,0.99227494,-0.05660482,-0.11039183,-0.101542674,-0.88178855,-0.46058446,-0.07127096,0.4682359,-0.8807245,,-0.01600373,0.18025297,-0.11747115,0.5257145,-0.26953354,0.80683076,0.25963834,-0.8523742,-0.45392308,0.8100692,0.44811815,-0.37812427,,0.0010603218,0.34885162,-0.3278257,-0.11161575,0.5548409,-0.82443523,0.65985143,-0.5789535,-0.47896653,-0.7430599,-0.597465,-0.30149224,,1.527448444261369,-0.5462057279952769,0.1555936887,2.7406475613427332,0.6296209909191496,-0.7976557159222665,-0.1261016190556636,,-0.9283806097420252,-0.31779045777433856,0.18932445079000002,-1.2950450909604225,-1.2342375023812235,1.0198332374728267,0.02188810486199342,,-0.15579681567927384,-0.3094010614857298,0.0882075766,0.08275268144170031
2.4072097960161045,10:58:45.611055,10:58:44.363036,2,,0.031257294,0.010448873,0.07975848,-0.44059628,0.26118633,-0.85886943,0.66714203,-0.544896,-0.5079465,-0.60066324,-0.79678726,0.0658308,,0.031874243,0.044524953,0.049331695,0.038178936,-0.6243325,0.78022516,0.16048634,-0.76682794,-0.6214651,0.9862994,0.14894232,0.07092017,,0.1763727,1.3281274,0.5574847,0.99227494,-0.05660482,-0.11039183,-0.101542674,-0.88178855,-0.46058446,-0.07127096,0.4682359,-0.8807245,,-0.01600373,0.18025297,-0.11747115,0.5257145,-0.26953354,0.80683076,0.25963834,-0.8523742,-0.45392308,0.8100692,0.44811815,-0.37812427,,0.0010603218,0.34885162,-0.3278257,-0.11161575,0.5548409,-0.82443523,0.65985143,-0.5789535,-0.47896653,-0.7430599,-0.597465,-0.30149224,,1.527448444261369,-0.5462057279952769,0.1555936887,2.7406475613427332,0.6296209909191496,-0.7976557159222665,-0.1261016190556636,,-0.9283806097420252,-0.31779045777433856,0.18932445079000002,-1.2950450909604225,-1.2342375023812235,1.0198332374728267,0.02188810486199342,,-0.15579681567927384,-0.3094010614857298,0.0882075766,0.08275268144170031
2.4327133830229286,10:58:45.636580,10:58:44.498752,2,,0.031326957,0.010476284,0.07981539,-0.44155103,0.26057002,-0.8585662,0.6664717,-0.54540056,-0.508285,-0.6007064,-0.79664385,0.06715965,,0.031896368,0.04452832,0.04936084,0.039168924,-0.62382287,0.7805837,0.16127887,-0.7669938,-0.62105507,0.9861312,0.15021774,0.070567146,,0.1763727,1.3281274,0.5574847,0.99227494,-0.05660482,-0.11039183,-0.101542674,-0.88178855,-0.46058446,-0.07127096,0.4682359,-0.8807245,,-0.016002974,0.18025348,-0.11747141,0.5257188,-0.26952803,0.8068298,0.25964257,-0.85237366,-0.4539217,0.8100651,0.44812256,-0.3781279,,0.0010603218,0.34885162,-0.3278257,-0.11161575,0.5548409,-0.82443523,0.65985143,-0.5789535,-0.47896653,-0.7430599,-0.597465,-0.30149224,,1.527456166994243,-0.5462057279952769,0.1555936887,2.7406475613427332,0.6296209909191496,-0.7976557159222665,-0.1261016190556636,,-0.9283806097420252,-0.31779045777433856,0.18932445079000002,-1.2950450909604225,-1.2342375023812235,1.0198332374728267,0.02188810486199342,,-0.15579681567927384,-0.3094010614857298,0.0882075766,0.08275268144170031
2.458253524004249,10:58:45.661919,10:58:44.498752,2,,0.031327702,0.010475896,0.079814956,-0.44154662,0.26057512,-0.85856694,0.6664697,-0.54540366,-0.50828433,-0.6007119,-0.79664004,0.06715578,,0.031896368,0.04452832,0.04936084,0.039168924,-0.62382287,0.7805837,0.16127887,-0.7669938,-0.62105507,0.9861312,0.15021774,0.070567146,,0.1763727,1.3281274,0.5574847,0.99227494,-0.05660482,-0.11039183,-0.101542674,-0.88178855,-0.46058446,-0.07127096,0.4682359,-0.8807245,,-0.01600373,0.18025297,-0.11747115,0.5257145,-0.26953354,0.80683076,0.25963834,-0.8523742,-0.45392308,0.8100692,0.44811815,-0.37812427,,0.0010603218,0.34885162,-0.3278257,-0.11161575,0.5548409,-0.82443523,0.65985143,-0.5789535,-0.47896653,-0.7430599,-0.597465,-0.30149224,,1.527448444261369,-0.5462057279952769,0.1555936887,2.7406475613427332,0.6296209909191496,-0.7976557159222665,-0.1261016190556636,,-0.9283806097420252,-0.31779045777433856,0.18932445079000002,-1.2950450909604225,-1.2342375023812235,1.0198332374728267,0.02188810486199342,,-0.15579681567927384,-0.3094010614857298,0.0882075766,0.08275268144170031
2.483589784009382,10:58:45.688111,10:58:44.498752,2,,0.03132621,0.010476671,0.079815865,-0.4415554,0.26056492,-0.85856557,0.66647375,-0.5453974,-0.50828564,-0.600701,-0.7966476,0.06716353,,0.031896368,0.04452832,0.04936084,0.039168924,-0.62382287,0.7805837,0.16127887,-0.7669938,-0.62105507,0.9861312,0.15021774,0.070567146,,0.1763727,1.3281274,0.5574847,0.99227494,-0.05660482,-0.11039183,-0.101542674,-0.88178855,-0.46058446,-0.07127096,0.4682359,-0.8807245,,-0.016002217,0.180254,-0.11747168,0.5257231,-0.2695225,0.8068289,0.2596468,-0.85237306,-0.45392033,0.810061,0.44812694,-0.37813154,,0.0010603218,0.34885162,-0.3278257,-0.11161575,0.5548409,-0.82443523,0.65985143,-0.5789535,-0.47896653,-0.7430599,-0.597465,-0.30149224,,1.5274638897271173,-0.5462057279952769,0.1555936887,2.7406475613427332,0.6296209909191496,-0.7976557159222665,-0.1261016190556636,,-0.9283806097420252,-0.31779045777433856,0.18932445079000002,-1.2950450909604225,-1.2342375023812235,1.0198332374728267,0.02188810486199342,,-0.15579681567927384,-0.3094010614857298,0.0882075766,0.08275268144170031
2.5097779350180645,10:58:45.709113,10:58:44.498752,2,,0.031326957,0.010476284,0.07981539,-0.44155103,0.26057002,-0.8585662,0.6664717,-0.54540056,-0.508285,-0.6007064,-0.79664385,0.06715965,,0.031896368,0.04452832,0.04936084,0.039168924,-0.62382287,0.7805837,0.16127887,-0.7669938,-0.62105507,0.9861312,0.15021774,0.070567146,,0.1763727,1.3281274,0.5574847,0.99227494,-0.05660482,-0.11039183,-0.101542674,-0.88178855,-0.46058446,-0.07127096,0.4682359,-0.8807245,,-0.016002974,0.18025348,-0.11747141,0.5257188,-0.26952803,0.8068298,0.25964257,-0.85237366,-0.4539217,0.8100651,0.44812256,-0.3781279,,0.0010603218,0.34885162,-0.3278257,-0.11161575,0.5548409,-0.82443523,0.65985143,-0.5789535,-0.47896653,-0.7430599,-0.597465,-0.30149224,,1.527456166994243,-0.5462057279952769,0.1555936887,2.7406475613427332,0.6296209909191496,-0.7976557159222665,-0.1261016190556636,,-0.9283806097420252,-0.31779045777433856,0.18932445079000002,-1.2950450909604225,-1.2342375023812235,1.0198332374728267,0.02188810486199342,,-0.15579681567927384,-0.3094010614857298,0.0882075766,0.08275268144170031
2.5307640170212835,10:58:45.737068,10:58:44.498752,2,,0.031327702,0.010475896,0.079814956,-0.44154662,0.26057512,-0.85856694,0.6664697,-0.54540366,-0.50828433,-0.6007119,-0.79664004,0.06715578,,0.031896368,0.04452832,0.04936084,0.039168924,-0.62382287,0.7805837,0.16127887,-0.7669938,-0.62105507,0.9861312,0.15021774,0.070567146,,0.1763727,1.3281274,0.5574847,0.99227494,-0.05660482,-0.11039183,-0.101542674,-0.88178855,-0.46058446,-0.07127096,0.4682359,-0.8807245,,-0.01600373,0.18025297,-0.11747115,0.5257145,-0.26953354,0.80683076,0.25963834,-0.8523742,-0.45392308,0.8100692,0.44811815,-0.37812427,,0.0010603218,0.34885162,-0.3278257,-0.11161575,0.5548409,-0.82443523,0.65985143,-0.5789535,-0.47896653,-0.7430599,-0.597465,-0.30149224,,1.527448444261369,-0.5462057279952769,0.1555936887,2.7406475613427332,0.6296209909191496,-0.7976557159222665,-0.1261016190556636,,-0.9283806097420252,-0.31779045777433856,0.18932445079000002,-1.2950450909604225,-1.2342375023812235,1.0198332374728267,0.02188810486199342,,-0.15579681567927384,-0.3094010614857298,0.0882075766,0.08275268144170031
2.558742635010276,10:58:45.760115,10:58:44.498752,2,,0.031327702,0.010475896,0.079814956,-0.44154662,0.26057512,-0.85856694,0.6664697,-0.54540366,-0.50828433,-0.6007119,-0.79664004,0.06715578,,0.031896368,0.04452832,0.04936084,0.039168924,-0.62382287,0.7805837,0.16127887,-0.7669938,-0.62105507,0.9861312,0.15021774,0.070567146,,0.1763727,1.3281274,0.5574847,0.99227494,-0.05660482,-0.11039183,-0.101542674,-0.88178855,-0.46058446,-0.07127096,0.4682359,-0.8807245,,-0.01600373,0.18025297,-0.11747115,0.5257145,-0.26953354,0.80683076,0.25963834,-0.8523742,-0.45392308,0.8100692,0.44811815,-0.37812427,,0.0010603218,0.34885162,-0.3278257,-0.11161575,0.5548409,-0.82443523,0.65985143,-0.5789535,-0.47896653,-0.7430599,-0.597465,-0.30149224,,1.527448444261369,-0.5462057279952769,0.1555936887,2.7406475613427332,0.6296209909191496,-0.7976557159222665,-0.1261016190556636,,-0.9283806097420252,-0.31779045777433856,0.18932445079000002,-1.2950450909604225,-1.2342375023812235,1.0198332374728267,0.02188810486199342,,-0.15579681567927384,-0.3094010614857298,0.0882075766,0.08275268144170031
2.581686338002328,10:58:45.788074,10:58:44.645369,2,,0.031264324,0.010349095,0.07979825,-0.44109067,0.26141435,-0.8585462,0.6672946,-0.54417026,-0.50852394,-0.6001307,-0.7972084,0.06558803,,0.031712182,0.044476077,0.04939127,0.03820636,-0.6239722,0.780512,0.15969321,-0.7672311,-0.6211719,0.98642707,0.14837506,0.07033095,,0.17632385,1.3281324,0.5574789,0.9922806,-0.056555424,-0.11036603,-0.101487085,-0.8817917,-0.46059066,-0.07127096,0.4682359,-0.8807245,,-0.01602296,0.18022142,-0.11749978,0.525699,-0.26956627,0.80683,0.25959155,-0.85238653,-0.4539267,0.8100943,0.44807506,-0.3781216,,0.0011861523,0.34883922,-0.3278515,-0.1115821,0.554989,-0.82434016,0.6597958,-0.5789279,-0.47907406,-0.74311435,-0.59735227,-0.3015814,,1.527448444261369,-0.5462057279952769,0.1555936887,2.7406475613427332,0.6296209909191496,-0.7976557159222665,-0.1261016190556636,,-0.9283806097420252,-0.31779045777433856,0.18932445079000002,-1.2950450909604225,-1.2342375023812235,1.0198332374728267,0.02188810486199342,,-0.15579681567927384,-0.3094010614857298,0.0882075766,0.08275268144170031
2.6097469400265254,10:58:45.810669,10:58:44.645369,2,,0.031264324,0.010349095,0.07979825,-0.44109067,0.26141435,-0.8585462,0.6672946,-0.54417026,-0.50852394,-0.6001307,-0.7972084,0.06558803,,0.031712182,0.044476077,0.04939127,0.03820636,-0.6239722,0.780512,0.15969321,-0.7672311,-0.6211719,0.98642707,0.14837506,0.07033095,,0.17632385,1.3281324,0.5574789,0.9922806,-0.056555424,-0.11036603,-0.101487085,-0.8817917,-0.46059066,-0.07127096,0.4682359,-0.8807245,,-0.01602296,0.18022142,-0.11749978,0.525699,-0.26956627,0.80683,0.25959155,-0.85238653,-0.4539267,0.8100943,0.44807506,-0.3781216,,0.0011861523,0.34883922,-0.3278515,-0.1115821,0.554989,-0.82434016,0.6597958,-0.5789279,-0.47907406,-0.74311435,-0.59735227,-0.3015814,,1.527448444261369,-0.5462057279952769,0.1555936887,2.7406475613427332,0.6296209909191496,-0.7976557159222665,-0.1261016190556636,,-0.9283806097420252,-0.31779045777433856,0.18932445079000002,-1.2950450909604225,-1.2342375023812235,1.0198332374728267,0.02188810486199342,,-0.15579681567927384,-0.3094010614857298,0.0882075766,0.08275268144170031
