AlexandreBanks6/ExpertPlaybackApp/resources/Motions/PC1/Data_PC1_4.csv
Task Time,PC1 Time,PC2 Time,Gaze Calib,s_T_psm1,Tx,Ty,Tz,R00,R01,R02,R10,R11,R12,R20,R21,R22,s_T_psm3,Tx,Ty,Tz,R00,R01,R02,R10,R11,R12,R20,R21,R22,cart_T_ecm,Tx,Ty,Tz,R00,R01,R02,R10,R11,R12,R20,R21,R22,ecm_T_psm1,Tx,Ty,Tz,R00,R01,R02,R10,R11,R12,R20,R21,R22,ecm_T_psm3,Tx,Ty,Tz,R00,R01,R02,R10,R11,R12,R20,R21,R22,psm1_joints,q1,q2,q3,q4,q5,q6,jaw,psm3_joints,q1,q2,q3,q4,q5,q6,jaw,ecm_joints,q1,q2,q3,q4
""
lci_T_si,,,,,-0.059215568,0.0576132,0.51920867,0.99723345,-0.019768635,0.07165684,0.017539687,-0.87419003,-0.4852671,0.07223476,0.4851814,-0.8714248
rci_T_si,,,,,-0.050712988,0.0384989,0.6880089,0.99994665,0.009861714,-0.0030646725,0.0072084703,-0.87904996,-0.47667515,-0.0073948344,0.47662765,-0.87907416
ecm_T_lc,,,,,-0.010503502,0.0353613,-0.35674977,-0.9933329,0.103684954,0.050389625,-0.112544216,-0.96688193,-0.22907005,0.024969695,-0.2332139,0.9721048
ecm_T_rc,,,,,-0.045470465,0.07002666,-0.40169618,-0.98767287,0.15394595,0.028337218,-0.15650986,-0.96815085,-0.19541891,-0.0026492458,-0.19744499,0.9803104
cart_T_ecmi,,,,,0.17630063,1.3281249,0.5574746,0.9922806,-0.056552164,-0.11036787,-0.10149295,-0.88174003,-0.46068823,-0.07126285,0.46833354,-0.8806732
ecmac_T_ecmrep_psm1,,,,,-0.040727746,0.23137592,-0.21310239,0.98627466,0.1643199,0.016164957,-0.16233762,0.9471621,0.2766415,0.03014687,-0.27546868,0.96083724
ecmac_T_ecmrep_psm3,,,,,-0.03207139,0.39064074,-0.46404764,0.9917923,0.12441902,0.029460106,-0.1278581,0.9641174,0.23265849,0.00054414105,-0.23451562,0.9721122
""
0,11:14:45.032879,11:14:43.896856,0,,0.05328708,0.0010035336,0.06671326,-0.29802072,0.39957112,-0.8669062,0.5969572,-0.63065594,-0.49589843,-0.7448663,-0.66529405,-0.0505784,,0.03187207,0.046440735,0.045788407,0.028746799,-0.6267379,0.7786996,0.16750553,-0.7649854,-0.62188375,0.985452,0.14831352,0.082991034,,0.17627227,1.3281265,0.55746526,0.9922882,-0.056488626,-0.11033218,-0.10141472,-0.88178074,-0.4606276,-0.07126857,0.4682646,-0.8807094,,-0.038513366,0.16647619,-0.11251438,0.39245906,-0.41433313,0.8211601,0.14262831,-0.85457426,-0.49935964,0.90864354,0.3130989,-0.27628976,,0.0012441372,0.34883335,-0.32787415,-0.11161228,0.55505663,-0.8242905,0.6598218,-0.5788536,-0.4791281,-0.74308676,-0.59736145,-0.30163127,,1.3102388594409302,-0.5456110775639617,0.15559498499000002,2.7383409719644036,0.6296209909191496,-0.7976557159222665,-0.1261016190556636,,-0.9284115006735221,-0.31779045777433856,0.18932185821000003,-1.2950450909604225,-1.2342375023812235,1.0198332374728267,0.02188810486199342,,-0.15579681567927384,-0.3093683365622549,0.088225436,0.08275268144170031
0.02364766798564233,11:14:45.065549,11:14:43.896856,0,,0.053287894,0.0010030866,0.066713005,-0.29801545,0.39957532,-0.86690617,0.5969545,-0.6306586,-0.49589825,-0.7448705,-0.66528904,-0.05058235,,0.03187207,0.046440735,0.045788407,0.028746799,-0.6267379,0.7786996,0.16750553,-0.7649854,-0.62188375,0.985452,0.14831352,0.082991034,,0.17627227,1.3281265,0.55746526,0.9922882,-0.056488626,-0.11033218,-0.10141472,-0.88178074,-0.4606276,-0.07126857,0.4682646,-0.8807094,,-0.038514197,0.16647573,-0.112514295,0.39245382,-0.41433784,0.82116026,0.1426242,-0.8545739,-0.49936137,0.9086464,0.3130936,-0.27628618,,0.0012441372,0.34883335,-0.32787415,-0.11161228,0.55505663,-0.8242905,0.6598218,-0.5788536,-0.4791281,-0.74308676,-0.59736145,-0.30163127,,1.3102311367080561,-0.5456110775639617,0.15559498499000002,2.7383409719644036,0.6296209909191496,-0.7976557159222665,-0.1261016190556636,,-0.9284115006735221,-0.31779045777433856,0.18932185821000003,-1.2950450909604225,-1.2342375023812235,1.0198332374728267,0.02188810486199342,,-0.15579681567927384,-0.3093683365622549,0.088225436,0.08275268144170031
0.05628074498963542,11:14:45.097787,11:14:43.896856,0,,0.053286072,0.0010036379,0.06671372,-0.29786828,0.39949936,-0.8669917,0.59694266,-0.6307878,-0.4957482,-0.74493885,-0.66521215,-0.05058658,,0.03187207,0.046440735,0.045788407,0.028746799,-0.6267379,0.7786996,0.16750553,-0.7649854,-0.62188375,0.985452,0.14831352,0.082991034,,0.17627227,1.3281265,0.55746526,0.9922882,-0.056488626,-0.11033218,-0.10141472,-0.88178074,-0.4606276,-0.07126857,0.4682646,-0.8807094,,-0.03851238,0.16647646,-0.11251484,0.3923104,-0.41427818,0.82125884,0.14258772,-0.85465276,-0.49923682,0.90871406,0.31295723,-0.2762182,,0.0012441372,0.34883335,-0.32787415,-0.11161228,0.55505663,-0.8242905,0.6598218,-0.5788536,-0.4791281,-0.74308676,-0.59736145,-0.30163127,,1.3102388594409302,-0.5456110775639617,0.15559498499000002,2.738550661907888,0.6296209909191496,-0.7976557159222665,-0.1261016190556636,,-0.9284115006735221,-0.31779045777433856,0.18932185821000003,-1.2950450909604225,-1.2342375023812235,1.0198332374728267,0.02188810486199342,,-0.15579681567927384,-0.3093683365622549,0.088225436,0.08275268144170031
0.08853649499360472,11:14:45.126551,11:14:43.896856,0,,0.05328506,0.0010037199,0.06671423,-0.29771578,0.39942756,-0.86707723,0.5969281,-0.6309197,-0.49559787,-0.7450115,-0.66513014,-0.05059482,,0.03187207,0.046440735,0.045788407,0.028746799,-0.6267379,0.7786996,0.16750553,-0.7649854,-0.62188375,0.985452,0.14831352,0.082991034,,0.17627227,1.3281265,0.55746526,0.9922882,-0.056488626,-0.11033218,-0.10141472,-0.88178074,-0.4606276,-0.07126857,0.4682646,-0.8807094,,-0.03851139,0.16647673,-0.11251531,0.39216176,-0.4142232,0.8213576,0.14254712,-0.85473126,-0.49911398,0.9087846,0.31281558,-0.2761466,,0.0012441372,0.34883335,-0.32787415,-0.11161228,0.55505663,-0.8242905,0.6598218,-0.5788536,-0.4791281,-0.74308676,-0.59736145,-0.30163127,,1.3102388594409302,-0.5456110775639617,0.15559498499000002,2.7387603518513726,0.6296209909191496,-0.7976557159222665,-0.1261016190556636,,-0.9284115006735221,-0.31779045777433856,0.18932185821000003,-1.2950450909604225,-1.2342375023812235,1.0198332374728267,0.02188810486199342,,-0.15579681567927384,-0.3093683365622549,0.088225436,0.08275268144170031
0.11730213501141407,11:14:45.148035,11:14:43.896856,0,,0.05328506,0.0010037199,0.06671423,-0.29771578,0.39942756,-0.86707723,0.5969281,-0.6309197,-0.49559787,-0.7450115,-0.66513014,-0.05059482,,0.03187207,0.046440735,0.045788407,0.028746799,-0.6267379,0.7786996,0.16750553,-0.7649854,-0.62188375,0.985452,0.14831352,0.082991034,,0.17627227,1.3281265,0.55746526,0.9922882,-0.056488626,-0.11033218,-0.10141472,-0.88178074,-0.4606276,-0.07126857,0.4682646,-0.8807094,,-0.03851139,0.16647673,-0.11251531,0.39216176,-0.4142232,0.8213576,0.14254712,-0.85473126,-0.49911398,0.9087846,0.31281558,-0.2761466,,0.0012441372,0.34883335,-0.32787415,-0.11161228,0.55505663,-0.8242905,0.6598218,-0.5788536,-0.4791281,-0.74308676,-0.59736145,-0.30163127,,1.3102388594409302,-0.5456110775639617,0.15559498499000002,2.7387603518513726,0.6296209909191496,-0.7976557159222665,-0.1261016190556636,,-0.9284115006735221,-0.31779045777433856,0.18932185821000003,-1.2950450909604225,-1.2342375023812235,1.0198332374728267,0.02188810486199342,,-0.15579681567927384,-0.3093683365622549,0.088225436,0.08275268144170031
0.13880431500729173,11:14:45.177512,11:14:43.896856,0,,0.05328506,0.0010037199,0.06671423,-0.29771578,0.39942756,-0.86707723,0.5969281,-0.6309197,-0.49559787,-0.7450115,-0.66513014,-0.05059482,,0.03187207,0.046440735,0.045788407,0.028746799,-0.6267379,0.7786996,0.16750553,-0.7649854,-0.62188375,0.985452,0.14831352,0.082991034,,0.17627227,1.3281265,0.55746526,0.9922882,-0.056488626,-0.11033218,-0.10141472,-0.88178074,-0.4606276,-0.07126857,0.4682646,-0.8807094,,-0.03851139,0.16647673,-0.11251531,0.39216176,-0.4142232,0.8213576,0.14254712,-0.85473126,-0.49911398,0.9087846,0.31281558,-0.2761466,,0.0012441372,0.34883335,-0.32787415,-0.11161228,0.55505663,-0.8242905,0.6598218,-0.5788536,-0.4791281,-0.74308676,-0.59736145,-0.30163127,,1.3102388594409302,-0.5456110775639617,0.15559498499000002,2.7387603518513726,0.6296209909191496,-0.7976557159222665,-0.1261016190556636,,-0.9284115006735221,-0.31779045777433856,0.18932185821000003,-1.2950450909604225,-1.2342375023812235,1.0198332374728267,0.02188810486199342,,-0.15579681567927384,-0.3093683365622549,0.088225436,0.08275268144170031
0.16827008000109345,11:14:45.205034,11:14:44.050592,0,,0.05324046,0.0009789914,0.06685993,-0.2966631,0.3996365,-0.8673418,0.5965425,-0.6316804,-0.4950928,-0.74574,-0.6642819,-0.05100389,,0.031875048,0.046413302,0.04587975,0.027955279,-0.6273528,0.7782333,0.16824391,-0.76447815,-0.6223079,0.98534894,0.1483298,0.08417705,,0.17627227,1.3281265,0.55746526,0.9922882,-0.056488626,-0.11033218,-0.10141472,-0.88178074,-0.4606276,-0.07126857,0.4682646,-0.8807094,,-0.03851139,0.16647673,-0.11251531,0.39216176,-0.4142232,0.8213576,0.14254712,-0.85473126,-0.49911398,0.9087846,0.31281558,-0.2761466,,0.0012441372,0.34883335,-0.32787415,-0.11161228,0.55505663,-0.8242905,0.6598218,-0.5788536,-0.4791281,-0.74308676,-0.59736145,-0.30163127,,1.3102388594409302,-0.5456110775639617,0.15559498499000002,2.7387603518513726,0.6296209909191496,-0.7976557159222665,-0.1261016190556636,,-0.9284115006735221,-0.31779045777433856,0.18932185821000003,-1.2950450909604225,-1.2342375023812235,1.0198332374728267,0.02188810486199342,,-0.15579681567927384,-0.3093683365622549,0.088225436,0.08275268144170031
0.19576352200238034,11:14:45.230197,11:14:44.050592,0,,0.05324046,0.0009789914,0.06685993,-0.2966631,0.3996365,-0.8673418,0.5965425,-0.6316804,-0.4950928,-0.74574,-0.6642819,-0.05100389,,0.031875048,0.046413302,0.04587975,0.027955279,-0.6273528,0.7782333,0.16824391,-0.76447815,-0.6223079,0.98534894,0.1483298,0.08417705,,0.17627227,1.3281265,0.55746526,0.9922882,-0.056488626,-0.11033218,-0.10141472,-0.88178074,-0.4606276,-0.07126857,0.4682646,-0.8807094,,-0.03851139,0.16647673,-0.11251531,0.39216176,-0.4142232,0.8213576,0.14254712,-0.85473126,-0.49911398,0.9087846,0.31281558,-0.2761466,,0.0012441372,0.34883335,-0.32787415,-0.11161228,0.55505663,-0.8242905,0.6598218,-0.5788536,-0.4791281,-0.74308676,-0.59736145,-0.30163127,,1.3102388594409302,-0.5456110775639617,0.15559498499000002,2.7387603518513726,0.6296209909191496,-0.7976557159222665,-0.1261016190556636,,-0.9284115006735221,-0.31779045777433856,0.18932185821000003,-1.2950450909604225,-1.2342375023812235,1.0198332374728267,0.02188810486199342,,-0.15579681567927384,-0.3093683365622549,0.088225436,0.08275268144170031
0.22093886899529025,11:14:45.258074,11:14:44.050592,0,,0.05324046,0.0009789914,0.06685993,-0.2966631,0.3996365,-0.8673418,0.5965425,-0.6316804,-0.4950928,-0.74574,-0.6642819,-0.05100389,,0.031875048,0.046413302,0.04587975,0.027955279,-0.6273528,0.7782333,0.16824391,-0.76447815,-0.6223079,0.98534894,0.1483298,0.08417705,,0.17627227,1.3281265,0.55746526,0.9922882,-0.056488626,-0.11033218,-0.10141472,-0.88178074,-0.4606276,-0.07126857,0.4682646,-0.8807094,,-0.03851139,0.16647673,-0.11251531,0.39216176,-0.4142232,0.8213576,0.14254712,-0.85473126,-0.49911398,0.9087846,0.31281558,-0.2761466,,0.0012441372,0.34883335,-0.32787415,-0.11161228,0.55505663,-0.8242905,0.6598218,-0.5788536,-0.4791281,-0.74308676,-0.59736145,-0.30163127,,1.3102388594409302,-0.5456110775639617,0.15559498499000002,2.7387603518513726,0.6296209909191496,-0.7976557159222665,-0.1261016190556636,,-0.9284115006735221,-0.31779045777433856,0.18932185821000003,-1.2950450909604225,-1.2342375023812235,1.0198332374728267,0.02188810486199342,,-0.15579681567927384,-0.3093683365622549,0.088225436,0.08275268144170031
0.24877958701108582,11:14:45.283064,11:14:44.050592,0,,0.05324046,0.0009789914,0.06685993,-0.2966631,0.3996365,-0.8673418,0.5965425,-0.6316804,-0.4950928,-0.74574,-0.6642819,-0.05100389,,0.031875048,0.046413302,0.04587975,0.027955279,-0.6273528,0.7782333,0.16824391,-0.76447815,-0.6223079,0.98534894,0.1483298,0.08417705,,0.17627227,1.3281265,0.55746526,0.9922882,-0.056488626,-0.11033218,-0.10141472,-0.88178074,-0.4606276,-0.07126857,0.4682646,-0.8807094,,-0.03851139,0.16647673,-0.11251531,0.39216176,-0.4142232,0.8213576,0.14254712,-0.85473126,-0.49911398,0.9087846,0.31281558,-0.2761466,,0.0012441372,0.34883335,-0.32787415,-0.11161228,0.55505663,-0.8242905,0.6598218,-0.5788536,-0.4791281,-0.74308676,-0.59736145,-0.30163127,,1.3102388594409302,-0.5456110775639617,0.15559498499000002,2.7387603518513726,0.6296209909191496,-0.7976557159222665,-0.1261016190556636,,-0.9284115006735221,-0.31779045777433856,0.18932185821000003,-1.2950450909604225,-1.2342375023812235,1.0198332374728267,0.02188810486199342,,-0.15579681567927384,-0.3093683365622549,0.088225436,0.08275268144170031
0.2737613249919377,11:14:45.304094,11:14:44.050592,0,,0.05324127,0.0009785444,0.06685969,-0.29665783,0.39964074,-0.8673417,0.59653986,-0.6316831,-0.49509263,-0.74574417,-0.66427684,-0.05100788,,0.031875048,0.046413302,0.04587975,0.027955279,-0.6273528,0.7782333,0.16824391,-0.76447815,-0.6223079,0.98534894,0.1483298,0.08417705,,0.17627227,1.3281265,0.55746526,0.9922882,-0.056488626,-0.11033218,-0.10141472,-0.88178074,-0.4606276,-0.07126857,0.4682646,-0.8807094,,-0.038512222,0.16647626,-0.112515226,0.3921565,-0.4142279,0.8213577,0.14254299,-0.85473096,-0.49911574,0.90878755,0.31281027,-0.276143,,0.0012441372,0.34883335,-0.32787415,-0.11161228,0.55505663,-0.8242905,0.6598218,-0.5788536,-0.4791281,-0.74308676,-0.59736145,-0.30163127,,1.3102311367080561,-0.5456110775639617,0.15559498499000002,2.7387603518513726,0.6296209909191496,-0.7976557159222665,-0.1261016190556636,,-0.9284115006735221,-0.31779045777433856,0.18932185821000003,-1.2950450909604225,-1.2342375023812235,1.0198332374728267,0.02188810486199342,,-0.15579681567927384,-0.3093683365622549,0.088225436,0.08275268144170031
0.2948401309840847,11:14:45.330766,11:14:44.198723,0,,0.053238623,0.000993669,0.066858396,-0.29679483,0.39980802,-0.86721754,0.5964664,-0.6315831,-0.49530837,-0.74574834,-0.6642711,-0.051021427,,0.031862993,0.046420947,0.045877963,0.027914926,-0.62732106,0.7782602,0.16818947,-0.7645164,-0.62227553,0.9853593,0.14826596,0.08416736,,0.17627227,1.3281265,0.55746526,0.9922882,-0.056488626,-0.11033218,-0.10141472,-0.88178074,-0.4606276,-0.07126857,0.4682646,-0.8807094,,-0.03851139,0.16647673,-0.11251531,0.39216176,-0.4142232,0.8213576,0.14254712,-0.85473126,-0.49911398,0.9087846,0.31281558,-0.2761466,,0.0012433957,0.34883207,-0.3278752,-0.11164079,0.5552238,-0.82417405,0.6597725,-0.5787827,-0.47928157,-0.7431262,-0.5972748,-0.30170566,,1.3102388594409302,-0.5456110775639617,0.15559498499000002,2.7387603518513726,0.6296209909191496,-0.7976557159222665,-0.1261016190556636,,-0.9284115006735221,-0.31779045777433856,0.18932185821000003,-1.2948354010169378,-1.2342375023812235,1.0198332374728267,0.02188810486199342,,-0.15579681567927384,-0.3093683365622549,0.088225436,0.08275268144170031
0.32152998400852084,11:14:45.358798,11:14:44.198723,0,,0.053239435,0.0009932294,0.06685814,-0.29678953,0.39981222,-0.8672175,0.59646374,-0.63158584,-0.4953082,-0.7457526,-0.6642661,-0.05102542,,0.031863596,0.046419263,0.0458782,0.027938105,-0.6274761,0.77813435,0.16812506,-0.7643993,-0.62243676,0.9853697,0.14821357,0.08413857,,0.17627227,1.3281265,0.55746526,0.9922882,-0.056488626,-0.11033218,-0.10141472,-0.88178074,-0.4606276,-0.07126857,0.4682646,-0.8807094,,-0.038512222,0.16647626,-0.112515226,0.3921565,-0.4142279,0.8213577,0.14254299,-0.85473096,-0.49911574,0.90878755,0.31281027,-0.276143,,0.0012426546,0.3488308,-0.3278762,-0.11166928,0.55539095,-0.8240576,0.6597233,-0.5787117,-0.47943506,-0.7431656,-0.5971881,-0.30178002,,1.3102311367080561,-0.5456110775639617,0.15559498499000002,2.7387603518513726,0.6296209909191496,-0.7976557159222665,-0.1261016190556636,,-0.9284115006735221,-0.31779045777433856,0.18932185821000003,-1.2946257110734534,-1.2342375023812235,1.0198332374728267,0.02188810486199342,,-0.15579681567927384,-0.3093683365622549,0.088225436,0.08275268144170031
0.34955269101192243,11:14:45.380707,11:14:44.198723,0,,0.053238623,0.000993669,0.066858396,-0.29679483,0.39980802,-0.86721754,0.5964664,-0.6315831,-0.49530837,-0.74574834,-0.6642711,-0.051021427,,0.031863596,0.046419263,0.0458782,0.027938105,-0.6274761,0.77813435,0.16812506,-0.7643993,-0.62243676,0.9853697,0.14821357,0.08413857,,0.17627227,1.3281265,0.55746526,0.9922882,-0.056488626,-0.11033218,-0.10141472,-0.88178074,-0.4606276,-0.07126857,0.4682646,-0.8807094,,-0.03851139,0.16647673,-0.11251531,0.39216176,-0.4142232,0.8213576,0.14254712,-0.85473126,-0.49911398,0.9087846,0.31281558,-0.2761466,,0.0012426546,0.3488308,-0.3278762,-0.11166928,0.55539095,-0.8240576,0.6597233,-0.5787117,-0.47943506,-0.7431656,-0.5971881,-0.30178002,,1.3102388594409302,-0.5456110775639617,0.15559498499000002,2.7387603518513726,0.6296209909191496,-0.7976557159222665,-0.1261016190556636,,-0.9284115006735221,-0.31779045777433856,0.18932185821000003,-1.2946257110734534,-1.2342375023812235,1.0198332374728267,0.02188810486199342,,-0.15579681567927384,-0.3093683365622549,0.088225436,0.08275268144170031
0.3714676930103451,11:14:45.408275,11:14:44.198723,0,,0.053238623,0.000993669,0.066858396,-0.29679483,0.39980802,-0.86721754,0.5964664,-0.6315831,-0.49530837,-0.74574834,-0.6642711,-0.051021427,,0.031863596,0.046419263,0.0458782,0.027938105,-0.6274761,0.77813435,0.16812506,-0.7643993,-0.62243676,0.9853697,0.14821357,0.08413857,,0.17627227,1.3281265,0.55746526,0.9922882,-0.056488626,-0.11033218,-0.10141472,-0.88178074,-0.4606276,-0.07126857,0.4682646,-0.8807094,,-0.03851139,0.16647673,-0.11251531,0.39216176,-0.4142232,0.8213576,0.14254712,-0.85473126,-0.49911398,0.9087846,0.31281558,-0.2761466,,0.0012426546,0.3488308,-0.3278762,-0.11166928,0.55539095,-0.8240576,0.6597233,-0.5787117,-0.47943506,-0.7431656,-0.5971881,-0.30178002,,1.3102388594409302,-0.5456110775639617,0.15559498499000002,2.7387603518513726,0.6296209909191496,-0.7976557159222665,-0.1261016190556636,,-0.9284115006735221,-0.31779045777433856,0.18932185821000003,-1.2946257110734534,-1.2342375023812235,1.0198332374728267,0.02188810486199342,,-0.15579681567927384,-0.3093683365622549,0.088225436,0.08275268144170031
0.39903135399799794,11:14:45.430191,11:14:44.198723,0,,0.053239435,0.0009932294,0.06685814,-0.29678953,0.39981222,-0.8672175,0.59646374,-0.63158584,-0.4953082,-0.7457526,-0.6642661,-0.05102542,,0.031863596,0.046419263,0.0458782,0.027938105,-0.6274761,0.77813435,0.16812506,-0.7643993,-0.62243676,0.9853697,0.14821357,0.08413857,,0.17627227,1.3281265,0.55746526,0.9922882,-0.056488626,-0.11033218,-0.10141472,-0.88178074,-0.4606276,-0.07126857,0.4682646,-0.8807094,,-0.038512222,0.16647626,-0.112515226,0.3921565,-0.4142279,0.8213577,0.14254299,-0.85473096,-0.49911574,0.90878755,0.31281027,-0.276143,,0.0012426546,0.3488308,-0.3278762,-0.11166928,0.55539095,-0.8240576,0.6597233,-0.5787117,-0.47943506,-0.7431656,-0.5971881,-0.30178002,,1.3102311367080561,-0.5456110775639617,0.15559498499000002,2.7387603518513726,0.6296209909191496,-0.7976557159222665,-0.1261016190556636,,-0.9284115006735221,-0.31779045777433856,0.18932185821000003,-1.2946257110734534,-1.2342375023812235,1.0198332374728267,0.02188810486199342,,-0.15579681567927384,-0.3093683365622549,0.088225436,0.08275268144170031
0.4209566749923397,11:14:45.456521,11:14:44.198723,0,,0.053193275,0.0010268688,0.06686616,-0.29679292,0.39980796,-0.86721826,0.5964571,-0.63159233,-0.49530774,-0.74575645,-0.6642624,-0.051016122,,0.03195448,0.04643321,0.045889646,0.027909309,-0.6273845,0.77820915,0.1681428,-0.7644733,-0.62234104,0.9853675,0.14821947,0.08415425,,0.17630246,1.3281257,0.5574636,0.9922823,-0.056539875,-0.11035895,-0.10147239,-0.88177747,-0.46062118,-0.07126857,0.4682646,-0.8807094,,-0.038463816,0.16650724,-0.11251039,0.39215955,-0.41422445,0.821358,0.14253518,-0.8547351,-0.49911085,0.9087874,0.3128035,-0.27615097,,0.0011522836,0.34884945,-0.32786784,-0.11163925,0.55529433,-0.8241267,0.659737,-0.57877094,-0.47934467,-0.743158,-0.5972206,-0.30173466,,1.3102388594409302,-0.5456110775639617,0.15559498499000002,2.7387603518513726,0.6296209909191496,-0.7976557159222665,-0.1261016190556636,,-0.9284115006735221,-0.31779045777433856,0.18932185821000003,-1.2946257110734534,-1.2342375023812235,1.0198332374728267,0.02188810486199342,,-0.15579681567927384,-0.3093683365622549,0.088225436,0.08275268144170031
0.44727504800539464,11:14:45.478895,11:14:44.346288,0,,0.053193275,0.0010268688,0.06686616,-0.29679292,0.39980796,-0.86721826,0.5964571,-0.63159233,-0.49530774,-0.74575645,-0.6642624,-0.051016122,,0.03195448,0.04643321,0.045889646,0.027909309,-0.6273845,0.77820915,0.1681428,-0.7644733,-0.62234104,0.9853675,0.14821947,0.08415425,,0.17630246,1.3281257,0.5574636,0.9922823,-0.056539875,-0.11035895,-0.10147239,-0.88177747,-0.46062118,-0.07126857,0.4682646,-0.8807094,,-0.038463816,0.16650724,-0.11251039,0.39215955,-0.41422445,0.821358,0.14253518,-0.8547351,-0.49911085,0.9087874,0.3128035,-0.27615097,,0.0011522836,0.34884945,-0.32786784,-0.11163925,0.55529433,-0.8241267,0.659737,-0.57877094,-0.47934467,-0.743158,-0.5972206,-0.30173466,,1.3102388594409302,-0.5456110775639617,0.15559498499000002,2.7387603518513726,0.6296209909191496,-0.7976557159222665,-0.1261016190556636,,-0.9284115006735221,-0.31779045777433856,0.18932185821000003,-1.2946257110734534,-1.2342375023812235,1.0198332374728267,0.02188810486199342,,-0.15579681567927384,-0.3093683365622549,0.088225436,0.08275268144170031
0.4696628930105362,11:14:45.499357,11:14:44.346288,0,,0.05323858,0.0010706112,0.0668094,-0.2973204,0.39936003,-0.86724406,0.5960766,-0.6319189,-0.4953494,-0.7458507,-0.6642213,-0.05016674,,0.031984407,0.046466067,0.045824707,0.028588213,-0.62726736,0.7782791,0.16863877,-0.7644104,-0.6222842,0.9852631,0.14903808,0.083928496,,0.17630246,1.3281257,0.5574636,0.9922823,-0.056539875,-0.11035895,-0.10147239,-0.88177747,-0.46062118,-0.07126857,0.4682646,-0.8807094,,-0.038463816,0.16650724,-0.11251039,0.39215955,-0.41422445,0.821358,0.14253518,-0.8547351,-0.49911085,0.9087874,0.3128035,-0.27615097,,0.0011522836,0.34884945,-0.32786784,-0.11163925,0.55529433,-0.8241267,0.659737,-0.57877094,-0.47934467,-0.743158,-0.5972206,-0.30173466,,1.3102388594409302,-0.5456110775639617,0.15559498499000002,2.7387603518513726,0.6296209909191496,-0.7976557159222665,-0.1261016190556636,,-0.9284115006735221,-0.31779045777433856,0.18932185821000003,-1.2946257110734534,-1.2342375023812235,1.0198332374728267,0.02188810486199342,,-0.15579681567927384,-0.3093683365622549,0.088225436,0.08275268144170031
0.4900949189905077,11:14:45.524553,11:14:44.346288,0,,0.05323858,0.0010706112,0.0668094,-0.2973204,0.39936003,-0.86724406,0.5960766,-0.6319189,-0.4953494,-0.7458507,-0.6642213,-0.05016674,,0.031984407,0.046466067,0.045824707,0.028588213,-0.62726736,0.7782791,0.16863877,-0.7644104,-0.6222842,0.9852631,0.14903808,0.083928496,,0.17630246,1.3281257,0.5574636,0.9922823,-0.056539875,-0.11035895,-0.10147239,-0.88177747,-0.46062118,-0.07126857,0.4682646,-0.8807094,,-0.038463816,0.16650724,-0.11251039,0.39215955,-0.41422445,0.821358,0.14253518,-0.8547351,-0.49911085,0.9087874,0.3128035,-0.27615097,,0.0011522836,0.34884945,-0.32786784,-0.11163925,0.55529433,-0.8241267,0.659737,-0.57877094,-0.47934467,-0.743158,-0.5972206,-0.30173466,,1.3102388594409302,-0.5456110775639617,0.15559498499000002,2.7387603518513726,0.6296209909191496,-0.7976557159222665,-0.1261016190556636,,-0.9284115006735221,-0.31779045777433856,0.18932185821000003,-1.2946257110734534,-1.2342375023812235,1.0198332374728267,0.02188810486199342,,-0.15579681567927384,-0.3093683365622549,0.088225436,0.08275268144170031
0.5152964349836111,11:14:45.545511,11:14:44.346288,0,,0.05323858,0.0010706112,0.0668094,-0.2973204,0.39936003,-0.86724406,0.5960766,-0.6319189,-0.4953494,-0.7458507,-0.6642213,-0.05016674,,0.031984407,0.046466067,0.045824707,0.028588213,-0.62726736,0.7782791,0.16863877,-0.7644104,-0.6222842,0.9852631,0.14903808,0.083928496,,0.17630246,1.3281257,0.5574636,0.9922823,-0.056539875,-0.11035895,-0.10147239,-0.88177747,-0.46062118,-0.07126857,0.4682646,-0.8807094,,-0.038463816,0.16650724,-0.11251039,0.39215955,-0.41422445,0.821358,0.14253518,-0.8547351,-0.49911085,0.9087874,0.3128035,-0.27615097,,0.0011522836,0.34884945,-0.32786784,-0.11163925,0.55529433,-0.8241267,0.659737,-0.57877094,-0.47934467,-0.743158,-0.5972206,-0.30173466,,1.3102388594409302,-0.5456110775639617,0.15559498499000002,2.7387603518513726,0.6296209909191496,-0.7976557159222665,-0.1261016190556636,,-0.9284115006735221,-0.31779045777433856,0.18932185821000003,-1.2946257110734534,-1.2342375023812235,1.0198332374728267,0.02188810486199342,,-0.15579681567927384,-0.3093683365622549,0.088225436,0.08275268144170031
0.5362806879857089,11:14:45.571590,11:14:44.346288,0,,0.05323858,0.0010706112,0.0668094,-0.2973204,0.39936003,-0.86724406,0.5960766,-0.6319189,-0.4953494,-0.7458507,-0.6642213,-0.05016674,,0.031984407,0.046466067,0.045824707,0.028588213,-0.62726736,0.7782791,0.16863877,-0.7644104,-0.6222842,0.9852631,0.14903808,0.083928496,,0.17630246,1.3281257,0.5574636,0.9922823,-0.056539875,-0.11035895,-0.10147239,-0.88177747,-0.46062118,-0.07126857,0.4682646,-0.8807094,,-0.038463816,0.16650724,-0.11251039,0.39215955,-0.41422445,0.821358,0.14253518,-0.8547351,-0.49911085,0.9087874,0.3128035,-0.27615097,,0.0011522836,0.34884945,-0.32786784,-0.11163925,0.55529433,-0.8241267,0.659737,-0.57877094,-0.47934467,-0.743158,-0.5972206,-0.30173466,,1.3102388594409302,-0.5456110775639617,0.15559498499000002,2.7387603518513726,0.6296209909191496,-0.7976557159222665,-0.1261016190556636,,-0.9284115006735221,-0.31779045777433856,0.18932185821000003,-1.2946257110734534,-1.2342375023812235,1.0198332374728267,0.02188810486199342,,-0.15579681567927384,-0.3093683365622549,0.088225436,0.08275268144170031
0.5623218159889802,11:14:45.595709,11:14:44.346288,0,,0.05323858,0.0010706112,0.0668094,-0.2973204,0.39936003,-0.86724406,0.5960766,-0.6319189,-0.4953494,-0.7458507,-0.6642213,-0.05016674,,0.031984407,0.046466067,0.045824707,0.028588213,-0.62726736,0.7782791,0.16863877,-0.7644104,-0.6222842,0.9852631,0.14903808,0.083928496,,0.17630246,1.3281257,0.5574636,0.9922823,-0.056539875,-0.11035895,-0.10147239,-0.88177747,-0.46062118,-0.07126857,0.4682646,-0.8807094,,-0.038463816,0.16650724,-0.11251039,0.39215955,-0.41422445,0.821358,0.14253518,-0.8547351,-0.49911085,0.9087874,0.3128035,-0.27615097,,0.0011522836,0.34884945,-0.32786784,-0.11163925,0.55529433,-0.8241267,0.659737,-0.57877094,-0.47934467,-0.743158,-0.5972206,-0.30173466,,1.3102388594409302,-0.5456110775639617,0.15559498499000002,2.7387603518513726,0.6296209909191496,-0.7976557159222665,-0.1261016190556636,,-0.9284115006735221,-0.31779045777433856,0.18932185821000003,-1.2946257110734534,-1.2342375023812235,1.0198332374728267,0.02188810486199342,,-0.15579681567927384,-0.3093683365622549,0.088225436,0.08275268144170031
0.5864733679918572,11:14:45.620124,11:14:44.346288,0,,0.05323858,0.0010706112,0.0668094,-0.2973204,0.39936003,-0.86724406,0.5960766,-0.6319189,-0.4953494,-0.7458507,-0.6642213,-0.05016674,,0.031984407,0.046466067,0.045824707,0.028588213,-0.62726736,0.7782791,0.16863877,-0.7644104,-0.6222842,0.9852631,0.14903808,0.083928496,,0.17630246,1.3281257,0.5574636,0.9922823,-0.056539875,-0.11035895,-0.10147239,-0.88177747,-0.46062118,-0.07126857,0.4682646,-0.8807094,,-0.038463816,0.16650724,-0.11251039,0.39215955,-0.41422445,0.821358,0.14253518,-0.8547351,-0.49911085,0.9087874,0.3128035,-0.27615097,,0.0011522836,0.34884945,-0.32786784,-0.11163925,0.55529433,-0.8241267,0.659737,-0.57877094,-0.47934467,-0.743158,-0.5972206,-0.30173466,,1.3102388594409302,-0.5456110775639617,0.15559498499000002,2.7387603518513726,0.6296209909191496,-0.7976557159222665,-0.1261016190556636,,-0.9284115006735221,-0.31779045777433856,0.18932185821000003,-1.2946257110734534,-1.2342375023812235,1.0198332374728267,0.02188810486199342,,-0.15579681567927384,-0.3093683365622549,0.088225436,0.08275268144170031
0.6108277479943354,11:14:45.645466,11:14:44.504009,0,,0.05309022,0.0009335056,0.06723212,-0.2951257,0.40058047,-0.86743075,0.59588957,-0.63250244,-0.49482965,-0.7468711,-0.6629299,-0.052034065,,0.031915855,0.04633172,0.046173006,0.026291959,-0.6281099,0.7776802,0.16911438,-0.7639415,-0.622731,0.98524565,0.1478897,0.08613685,,0.17630246,1.3281257,0.5574636,0.9922823,-0.056539875,-0.11035895,-0.10147239,-0.88177747,-0.46062118,-0.07126857,0.4682646,-0.8807094,,-0.038463816,0.16650724,-0.11251039,0.39215955,-0.41422445,0.821358,0.14253518,-0.8547351,-0.49911085,0.9087874,0.3128035,-0.27615097,,0.0011522836,0.34884945,-0.32786784,-0.11163925,0.55529433,-0.8241267,0.659737,-0.57877094,-0.47934467,-0.743158,-0.5972206,-0.30173466,,1.3102388594409302,-0.5456110775639617,0.15559498499000002,2.7387603518513726,0.6296209909191496,-0.7976557159222665,-0.1261016190556636,,-0.9284115006735221,-0.31779045777433856,0.18932185821000003,-1.2946257110734534,-1.2342375023812235,1.0198332374728267,0.02188810486199342,,-0.15579681567927384,-0.3093683365622549,0.088225436,0.08275268144170031
0.6362056109937839,11:14:45.666356,11:14:44.504009,0,,0.053091034,0.00093307346,0.067231864,-0.29512036,0.4005846,-0.8674306,0.59588695,-0.6325052,-0.49482948,-0.74687535,-0.6629249,-0.05203803,,0.031915855,0.04633172,0.046173006,0.026291959,-0.6281099,0.7776802,0.16911438,-0.7639415,-0.622731,0.98524565,0.1478897,0.08613685,,0.17630246,1.3281257,0.5574636,0.9922823,-0.056539875,-0.11035895,-0.10147239,-0.88177747,-0.46062118,-0.07126857,0.4682646,-0.8807094,,-0.038464647,0.16650678,-0.11251031,0.39215428,-0.41422912,0.82135814,0.14253107,-0.8547348,-0.49911258,0.90879035,0.3127982,-0.2761474,,0.0011522836,0.34884945,-0.32786784,-0.11163925,0.55529433,-0.8241267,0.659737,-0.57877094,-0.47934467,-0.743158,-0.5972206,-0.30173466,,1.3102311367080561,-0.5456110775639617,0.15559498499000002,2.7387603518513726,0.6296209909191496,-0.7976557159222665,-0.1261016190556636,,-0.9284115006735221,-0.31779045777433856,0.18932185821000003,-1.2946257110734534,-1.2342375023812235,1.0198332374728267,0.02188810486199342,,-0.15579681567927384,-0.3093683365622549,0.088225436,0.08275268144170031
0.6571258149924688,11:14:45.692875,11:14:44.504009,0,,0.053091034,0.00093307346,0.067231864,-0.29512036,0.4005846,-0.8674306,0.59588695,-0.6325052,-0.49482948,-0.74687535,-0.6629249,-0.05203803,,0.031915855,0.04633172,0.046173006,0.026291959,-0.6281099,0.7776802,0.16911438,-0.7639415,-0.622731,0.98524565,0.1478897,0.08613685,,0.17630246,1.3281257,0.5574636,0.9922823,-0.056539875,-0.11035895,-0.10147239,-0.88177747,-0.46062118,-0.07126857,0.4682646,-0.8807094,,-0.038464647,0.16650678,-0.11251031,0.39215428,-0.41422912,0.82135814,0.14253107,-0.8547348,-0.49911258,0.90879035,0.3127982,-0.2761474,,0.0011522836,0.34884945,-0.32786784,-0.11163925,0.55529433,-0.8241267,0.659737,-0.57877094,-0.47934467,-0.743158,-0.5972206,-0.30173466,,1.3102311367080561,-0.5456110775639617,0.15559498499000002,2.7387603518513726,0.6296209909191496,-0.7976557159222665,-0.1261016190556636,,-0.9284115006735221,-0.31779045777433856,0.18932185821000003,-1.2946257110734534,-1.2342375023812235,1.0198332374728267,0.02188810486199342,,-0.15579681567927384,-0.3093683365622549,0.088225436,0.08275268144170031
0.6836263459990732,11:14:45.713662,11:14:44.504009,0,,0.05309022,0.0009335056,0.06723212,-0.2951257,0.40058047,-0.86743075,0.59588957,-0.63250244,-0.49482965,-0.7468711,-0.6629299,-0.052034065,,0.031915855,0.04633172,0.046173006,0.026291959,-0.6281099,0.7776802,0.16911438,-0.7639415,-0.622731,0.98524565,0.1478897,0.08613685,,0.17630246,1.3281257,0.5574636,0.9922823,-0.056539875,-0.11035895,-0.10147239,-0.88177747,-0.46062118,-0.07126857,0.4682646,-0.8807094,,-0.038463816,0.16650724,-0.11251039,0.39215955,-0.41422445,0.821358,0.14253518,-0.8547351,-0.49911085,0.9087874,0.3128035,-0.27615097,,0.0011522836,0.34884945,-0.32786784,-0.11163925,0.55529433,-0.8241267,0.659737,-0.57877094,-0.47934467,-0.743158,-0.5972206,-0.30173466,,1.3102388594409302,-0.5456110775639617,0.15559498499000002,2.7387603518513726,0.6296209909191496,-0.7976557159222665,-0.1261016190556636,,-0.9284115006735221,-0.31779045777433856,0.18932185821000003,-1.2946257110734534,-1.2342375023812235,1.0198332374728267,0.02188810486199342,,-0.15579681567927384,-0.3093683365622549,0.088225436,0.08275268144170031
0.7044311829959042,11:14:45.737171,11:14:44.504009,0,,0.05309022,0.0009335056,0.06723212,-0.2951257,0.40058047,-0.86743075,0.59588957,-0.63250244,-0.49482965,-0.7468711,-0.6629299,-0.052034065,,0.031915855,0.04633172,0.046173006,0.026291959,-0.6281099,0.7776802,0.16911438,-0.7639415,-0.622731,0.98524565,0.1478897,0.08613685,,0.17630246,1.3281257,0.5574636,0.9922823,-0.056539875,-0.11035895,-0.10147239,-0.88177747,-0.46062118,-0.07126857,0.4682646,-0.8807094,,-0.038463816,0.16650724,-0.11251039,0.39215955,-0.41422445,0.821358,0.14253518,-0.8547351,-0.49911085,0.9087874,0.3128035,-0.27615097,,0.0011522836,0.34884945,-0.32786784,-0.11163925,0.55529433,-0.8241267,0.659737,-0.57877094,-0.47934467,-0.743158,-0.5972206,-0.30173466,,1.3102388594409302,-0.5456110775639617,0.15559498499000002,2.7387603518513726,0.6296209909191496,-0.7976557159222665,-0.1261016190556636,,-0.9284115006735221,-0.31779045777433856,0.18932185821000003,-1.2946257110734534,-1.2342375023812235,1.0198332374728267,0.02188810486199342,,-0.15579681567927384,-0.3093683365622549,0.088225436,0.08275268144170031
0.727933291986119,11:14:45.763210,11:14:44.504009,0,,0.05309022,0.0009335056,0.06723212,-0.2951257,0.40058047,-0.86743075,0.59588957,-0.63250244,-0.49482965,-0.7468711,-0.6629299,-0.052034065,,0.031915855,0.04633172,0.046173006,0.026291959,-0.6281099,0.7776802,0.16911438,-0.7639415,-0.622731,0.98524565,0.1478897,0.08613685,,0.17630246,1.3281257,0.5574636,0.9922823,-0.056539875,-0.11035895,-0.10147239,-0.88177747,-0.46062118,-0.07126857,0.4682646,-0.8807094,,-0.038463816,0.16650724,-0.11251039,0.39215955,-0.41422445,0.821358,0.14253518,-0.8547351,-0.49911085,0.9087874,0.3128035,-0.27615097,,0.0011522836,0.34884945,-0.32786784,-0.11163925,0.55529433,-0.8241267,0.659737,-0.57877094,-0.47934467,-0.743158,-0.5972206,-0.30173466,,1.3102388594409302,-0.5456110775639617,0.15559498499000002,2.7387603518513726,0.6296209909191496,-0.7976557159222665,-0.1261016190556636,,-0.9284115006735221,-0.31779045777433856,0.18932185821000003,-1.2946257110734534,-1.2342375023812235,1.0198332374728267,0.02188810486199342,,-0.15579681567927384,-0.3093683365622549,0.088225436,0.08275268144170031
0.7539797399949748,11:14:45.789580,11:14:44.652397,0,,0.05312083,0.00095789135,0.06709534,-0.29563785,0.40037605,-0.8673506,0.59624404,-0.63204455,-0.4949876,-0.74638546,-0.6634899,-0.051865563,,0.031924885,0.046363875,0.04607311,0.026768364,-0.62786776,0.77785957,0.16856459,-0.7641605,-0.6226111,0.98532706,0.14778578,0.08538087,,0.17630246,1.3281257,0.5574636,0.9922823,-0.056539875,-0.11035895,-0.10147239,-0.88177747,-0.46062118,-0.07126857,0.4682646,-0.8807094,,-0.038464647,0.16650678,-0.11251031,0.39215428,-0.41422912,0.82135814,0.14253107,-0.8547348,-0.49911258,0.90879035,0.3127982,-0.2761474,,0.0011522836,0.34884945,-0.32786784,-0.11163925,0.55529433,-0.8241267,0.659737,-0.57877094,-0.47934467,-0.743158,-0.5972206,-0.30173466,,1.3102311367080561,-0.5456110775639617,0.15559498499000002,2.7387603518513726,0.6296209909191496,-0.7976557159222665,-0.1261016190556636,,-0.9284115006735221,-0.31779045777433856,0.18932185821000003,-1.2946257110734534,-1.2342375023812235,1.0198332374728267,0.02188810486199342,,-0.15579681567927384,-0.3093683365622549,0.088225436,0.08275268144170031
0.7802571440115571,11:14:45.810790,11:14:44.652397,0,,0.05312285,0.0009576827,0.067094386,-0.29594308,0.40052024,-0.86718,0.5962735,-0.6317811,-0.49528837,-0.746241,-0.66365373,-0.051848367,,0.031924885,0.046363875,0.04607311,0.026768364,-0.62786776,0.77785957,0.16856459,-0.7641605,-0.6226111,0.98532706,0.14778578,0.08538087,,0.17630246,1.3281257,0.5574636,0.9922823,-0.056539875,-0.11035895,-0.10147239,-0.88177747,-0.46062118,-0.07126857,0.4682646,-0.8807094,,-0.038466617,0.16650625,-0.11250937,0.3924516,-0.41433907,0.8211607,0.14261226,-0.8545777,-0.49935824,0.90864927,0.31308153,-0.27629057,,0.0011522836,0.34884945,-0.32786784,-0.11163925,0.55529433,-0.8241267,0.659737,-0.57877094,-0.47934467,-0.743158,-0.5972206,-0.30173466,,1.3102311367080561,-0.5456110775639617,0.15559498499000002,2.7383409719644036,0.6296209909191496,-0.7976557159222665,-0.1261016190556636,,-0.9284115006735221,-0.31779045777433856,0.18932185821000003,-1.2946257110734534,-1.2342375023812235,1.0198332374728267,0.02188810486199342,,-0.15579681567927384,-0.3093683365622549,0.088225436,0.08275268144170031
0.8015280280087609,11:14:45.832093,11:14:44.652397,0,,0.053122036,0.0009581223,0.067094624,-0.2959484,0.4005161,-0.8671801,0.59627616,-0.63177854,-0.49528855,-0.7462367,-0.66365886,-0.05184439,,0.031923685,0.046367213,0.046072572,0.026722074,-0.6275579,0.7781112,0.16869351,-0.76439476,-0.62228864,0.98530626,0.14789104,0.08543861,,0.17630246,1.3281257,0.5574636,0.9922823,-0.056539875,-0.11035895,-0.10147239,-0.88177747,-0.46062118,-0.07126857,0.4682646,-0.8807094,,-0.038465787,0.16650671,-0.11250945,0.39245686,-0.4143344,0.82116055,0.14261639,-0.8545781,-0.49935648,0.90864635,0.31308684,-0.27629414,,0.0011537664,0.348852,-0.32786578,-0.111582235,0.55495995,-0.82435966,0.6598355,-0.5789128,-0.47903767,-0.74307907,-0.5973939,-0.3015859,,1.3102388594409302,-0.5456110775639617,0.15559498499000002,2.7383409719644036,0.6296209909191496,-0.7976557159222665,-0.1261016190556636,,-0.9284115006735221,-0.31779045777433856,0.18932185821000003,-1.2950450909604225,-1.2342375023812235,1.0198332374728267,0.02188810486199342,,-0.15579681567927384,-0.3093683365622549,0.088225436,0.08275268144170031
0.8228623220056761,11:14:45.859168,11:14:44.652397,0,,0.053122036,0.0009581223,0.067094624,-0.2959484,0.4005161,-0.8671801,0.59627616,-0.63177854,-0.49528855,-0.7462367,-0.66365886,-0.05184439,,0.031923685,0.046367213,0.046072572,0.026722074,-0.6275579,0.7781112,0.16869351,-0.76439476,-0.62228864,0.98530626,0.14789104,0.08543861,,0.17630246,1.3281257,0.5574636,0.9922823,-0.056539875,-0.11035895,-0.10147239,-0.88177747,-0.46062118,-0.07126857,0.4682646,-0.8807094,,-0.038465787,0.16650671,-0.11250945,0.39245686,-0.4143344,0.82116055,0.14261639,-0.8545781,-0.49935648,0.90864635,0.31308684,-0.27629414,,0.0011537664,0.348852,-0.32786578,-0.111582235,0.55495995,-0.82435966,0.6598355,-0.5789128,-0.47903767,-0.74307907,-0.5973939,-0.3015859,,1.3102388594409302,-0.5456110775639617,0.15559498499000002,2.7383409719644036,0.6296209909191496,-0.7976557159222665,-0.1261016190556636,,-0.9284115006735221,-0.31779045777433856,0.18932185821000003,-1.2950450909604225,-1.2342375023812235,1.0198332374728267,0.02188810486199342,,-0.15579681567927384,-0.3093683365622549,0.088225436,0.08275268144170031
0.8498891399940476,11:14:45.883811,11:14:44.652397,0,,0.053122036,0.0009581223,0.067094624,-0.2959484,0.4005161,-0.8671801,0.59627616,-0.63177854,-0.49528855,-0.7462367,-0.66365886,-0.05184439,,0.031923685,0.046367213,0.046072572,0.026722074,-0.6275579,0.7781112,0.16869351,-0.76439476,-0.62228864,0.98530626,0.14789104,0.08543861,,0.17630246,1.3281257,0.5574636,0.9922823,-0.056539875,-0.11035895,-0.10147239,-0.88177747,-0.46062118,-0.07126857,0.4682646,-0.8807094,,-0.038465787,0.16650671,-0.11250945,0.39245686,-0.4143344,0.82116055,0.14261639,-0.8545781,-0.49935648,0.90864635,0.31308684,-0.27629414,,0.0011537664,0.348852,-0.32786578,-0.111582235,0.55495995,-0.82435966,0.6598355,-0.5789128,-0.47903767,-0.74307907,-0.5973939,-0.3015859,,1.3102388594409302,-0.5456110775639617,0.15559498499000002,2.7383409719644036,0.6296209909191496,-0.7976557159222665,-0.1261016190556636,,-0.9284115006735221,-0.31779045777433856,0.18932185821000003,-1.2950450909604225,-1.2342375023812235,1.0198332374728267,0.02188810486199342,,-0.15579681567927384,-0.3093683365622549,0.088225436,0.08275268144170031
0.8745593079947866,11:14:45.908949,11:14:44.652397,0,,0.053122036,0.0009581223,0.067094624,-0.2959484,0.4005161,-0.8671801,0.59627616,-0.63177854,-0.49528855,-0.7462367,-0.66365886,-0.05184439,,0.031923685,0.046367213,0.046072572,0.026722074,-0.6275579,0.7781112,0.16869351,-0.76439476,-0.62228864,0.98530626,0.14789104,0.08543861,,0.17630246,1.3281257,0.5574636,0.9922823,-0.056539875,-0.11035895,-0.10147239,-0.88177747,-0.46062118,-0.07126857,0.4682646,-0.8807094,,-0.038465787,0.16650671,-0.11250945,0.39245686,-0.4143344,0.82116055,0.14261639,-0.8545781,-0.49935648,0.90864635,0.31308684,-0.27629414,,0.0011537664,0.348852,-0.32786578,-0.111582235,0.55495995,-0.82435966,0.6598355,-0.5789128,-0.47903767,-0.74307907,-0.5973939,-0.3015859,,1.3102388594409302,-0.5456110775639617,0.15559498499000002,2.7383409719644036,0.6296209909191496,-0.7976557159222665,-0.1261016190556636,,-0.9284115006735221,-0.31779045777433856,0.18932185821000003,-1.2950450909604225,-1.2342375023812235,1.0198332374728267,0.02188810486199342,,-0.15579681567927384,-0.3093683365622549,0.088225436,0.08275268144170031
0.8997122459986713,11:14:45.936048,11:14:44.804156,0,,0.053125177,0.0009449199,0.0671989,-0.29591238,0.40053245,-0.8671849,0.59588474,-0.63213533,-0.4953043,-0.7465635,-0.6633089,-0.051614597,,0.03192822,0.046343163,0.046151996,0.026687391,-0.6275737,0.77809966,0.169215,-0.76430786,-0.62225384,0.9852177,0.14827237,0.08579746,,0.17630246,1.3281257,0.5574636,0.9922823,-0.056539875,-0.11035895,-0.10147239,-0.88177747,-0.46062118,-0.07126857,0.4682646,-0.8807094,,-0.038465787,0.16650671,-0.11250945,0.39245686,-0.4143344,0.82116055,0.14261639,-0.8545781,-0.49935648,0.90864635,0.31308684,-0.27629414,,0.0011537664,0.348852,-0.32786578,-0.111582235,0.55495995,-0.82435966,0.6598355,-0.5789128,-0.47903767,-0.74307907,-0.5973939,-0.3015859,,1.3102388594409302,-0.5456110775639617,0.15559498499000002,2.7383409719644036,0.6296209909191496,-0.7976557159222665,-0.1261016190556636,,-0.9284115006735221,-0.31779045777433856,0.18932185821000003,-1.2950450909604225,-1.2342375023812235,1.0198332374728267,0.02188810486199342,,-0.15579681567927384,-0.3093683365622549,0.088225436,0.08275268144170031
0.9267633589915931,11:14:45.960720,11:14:44.804156,0,,0.05312599,0.0009444803,0.067198664,-0.29590708,0.40053663,-0.86718476,0.59588206,-0.6321379,-0.49530405,-0.7465678,-0.66330385,-0.051618576,,0.03192822,0.046343163,0.046151996,0.026687391,-0.6275737,0.77809966,0.169215,-0.76430786,-0.62225384,0.9852177,0.14827237,0.08579746,,0.17630246,1.3281257,0.5574636,0.9922823,-0.056539875,-0.11035895,-0.10147239,-0.88177747,-0.46062118,-0.07126857,0.4682646,-0.8807094,,-0.038466617,0.16650625,-0.11250937,0.3924516,-0.41433907,0.8211607,0.14261226,-0.8545777,-0.49935824,0.90864927,0.31308153,-0.27629057,,0.0011537664,0.348852,-0.32786578,-0.111582235,0.55495995,-0.82435966,0.6598355,-0.5789128,-0.47903767,-0.74307907,-0.5973939,-0.3015859,,1.3102311367080561,-0.5456110775639617,0.15559498499000002,2.7383409719644036,0.6296209909191496,-0.7976557159222665,-0.1261016190556636,,-0.9284115006735221,-0.31779045777433856,0.18932185821000003,-1.2950450909604225,-1.2342375023812235,1.0198332374728267,0.02188810486199342,,-0.15579681567927384,-0.3093683365622549,0.088225436,0.08275268144170031
0.9514608879981097,11:14:45.983397,11:14:44.804156,0,,0.053125177,0.0009449199,0.0671989,-0.29591238,0.40053245,-0.8671849,0.59588474,-0.63213533,-0.4953043,-0.7465635,-0.6633089,-0.051614597,,0.03192822,0.046343163,0.046151996,0.026687391,-0.6275737,0.77809966,0.169215,-0.76430786,-0.62225384,0.9852177,0.14827237,0.08579746,,0.17630246,1.3281257,0.5574636,0.9922823,-0.056539875,-0.11035895,-0.10147239,-0.88177747,-0.46062118,-0.07126857,0.4682646,-0.8807094,,-0.038465787,0.16650671,-0.11250945,0.39245686,-0.4143344,0.82116055,0.14261639,-0.8545781,-0.49935648,0.90864635,0.31308684,-0.27629414,,0.0011537664,0.348852,-0.32786578,-0.111582235,0.55495995,-0.82435966,0.6598355,-0.5789128,-0.47903767,-0.74307907,-0.5973939,-0.3015859,,1.3102388594409302,-0.5456110775639617,0.15559498499000002,2.7383409719644036,0.6296209909191496,-0.7976557159222665,-0.1261016190556636,,-0.9284115006735221,-0.31779045777433856,0.18932185821000003,-1.2950450909604225,-1.2342375023812235,1.0198332374728267,0.02188810486199342,,-0.15579681567927384,-0.3093683365622549,0.088225436,0.08275268144170031
0.9741246489866171,11:14:46.008274,11:14:44.804156,0,,0.053125177,0.0009449199,0.0671989,-0.29591238,0.40053245,-0.8671849,0.59588474,-0.63213533,-0.4953043,-0.7465635,-0.6633089,-0.051614597,,0.03192822,0.046343163,0.046151996,0.026687391,-0.6275737,0.77809966,0.169215,-0.76430786,-0.62225384,0.9852177,0.14827237,0.08579746,,0.17630246,1.3281257,0.5574636,0.9922823,-0.056539875,-0.11035895,-0.10147239,-0.88177747,-0.46062118,-0.07126857,0.4682646,-0.8807094,,-0.038465787,0.16650671,-0.11250945,0.39245686,-0.4143344,0.82116055,0.14261639,-0.8545781,-0.49935648,0.90864635,0.31308684,-0.27629414,,0.0011537664,0.348852,-0.32786578,-0.111582235,0.55495995,-0.82435966,0.6598355,-0.5789128,-0.47903767,-0.74307907,-0.5973939,-0.3015859,,1.3102388594409302,-0.5456110775639617,0.15559498499000002,2.7383409719644036,0.6296209909191496,-0.7976557159222665,-0.1261016190556636,,-0.9284115006735221,-0.31779045777433856,0.18932185821000003,-1.2950450909604225,-1.2342375023812235,1.0198332374728267,0.02188810486199342,,-0.15579681567927384,-0.3093683365622549,0.088225436,0.08275268144170031
0.9990437820088118,11:14:46.033503,11:14:44.804156,0,,0.053125177,0.0009449199,0.0671989,-0.29591238,0.40053245,-0.8671849,0.59588474,-0.63213533,-0.4953043,-0.7465635,-0.6633089,-0.051614597,,0.03192822,0.046343163,0.046151996,0.026687391,-0.6275737,0.77809966,0.169215,-0.76430786,-0.62225384,0.9852177,0.14827237,0.08579746,,0.17630246,1.3281257,0.5574636,0.9922823,-0.056539875,-0.11035895,-0.10147239,-0.88177747,-0.46062118,-0.07126857,0.4682646,-0.8807094,,-0.038465787,0.16650671,-0.11250945,0.39245686,-0.4143344,0.82116055,0.14261639,-0.8545781,-0.49935648,0.90864635,0.31308684,-0.27629414,,0.0011537664,0.348852,-0.32786578,-0.111582235,0.55495995,-0.82435966,0.6598355,-0.5789128,-0.47903767,-0.74307907,-0.5973939,-0.3015859,,1.3102388594409302,-0.5456110775639617,0.15559498499000002,2.7383409719644036,0.6296209909191496,-0.7976557159222665,-0.1261016190556636,,-0.9284115006735221,-0.31779045777433856,0.18932185821000003,-1.2950450909604225,-1.2342375023812235,1.0198332374728267,0.02188810486199342,,-0.15579681567927384,-0.3093683365622549,0.088225436,0.08275268144170031
1.0242723299888894,11:14:46.063398,11:14:44.804156,0,,0.053125177,0.0009449199,0.0671989,-0.29591238,0.40053245,-0.8671849,0.59588474,-0.63213533,-0.4953043,-0.7465635,-0.6633089,-0.051614597,,0.03192822,0.046343163,0.046151996,0.026687391,-0.6275737,0.77809966,0.169215,-0.76430786,-0.62225384,0.9852177,0.14827237,0.08579746,,0.17630246,1.3281257,0.5574636,0.9922823,-0.056539875,-0.11035895,-0.10147239,-0.88177747,-0.46062118,-0.07126857,0.4682646,-0.8807094,,-0.038465787,0.16650671,-0.11250945,0.39245686,-0.4143344,0.82116055,0.14261639,-0.8545781,-0.49935648,0.90864635,0.31308684,-0.27629414,,0.0011537664,0.348852,-0.32786578,-0.111582235,0.55495995,-0.82435966,0.6598355,-0.5789128,-0.47903767,-0.74307907,-0.5973939,-0.3015859,,1.3102388594409302,-0.5456110775639617,0.15559498499000002,2.7383409719644036,0.6296209909191496,-0.7976557159222665,-0.1261016190556636,,-0.9284115006735221,-0.31779045777433856,0.18932185821000003,-1.2950450909604225,-1.2342375023812235,1.0198332374728267,0.02188810486199342,,-0.15579681567927384,-0.3093683365622549,0.088225436,0.08275268144170031
1.054160794999916,11:14:46.086380,11:14:44.804156,0,,0.053125177,0.0009449199,0.0671989,-0.29591238,0.40053245,-0.8671849,0.59588474,-0.63213533,-0.4953043,-0.7465635,-0.6633089,-0.051614597,,0.03192822,0.046343163,0.046151996,0.026687391,-0.6275737,0.77809966,0.169215,-0.76430786,-0.62225384,0.9852177,0.14827237,0.08579746,,0.17630246,1.3281257,0.5574636,0.9922823,-0.056539875,-0.11035895,-0.10147239,-0.88177747,-0.46062118,-0.07126857,0.4682646,-0.8807094,,-0.038465787,0.16650671,-0.11250945,0.39245686,-0.4143344,0.82116055,0.14261639,-0.8545781,-0.49935648,0.90864635,0.31308684,-0.27629414,,0.0011537664,0.348852,-0.32786578,-0.111582235,0.55495995,-0.82435966,0.6598355,-0.5789128,-0.47903767,-0.74307907,-0.5973939,-0.3015859,,1.3102388594409302,-0.5456110775639617,0.15559498499000002,2.7383409719644036,0.6296209909191496,-0.7976557159222665,-0.1261016190556636,,-0.9284115006735221,-0.31779045777433856,0.18932185821000003,-1.2950450909604225,-1.2342375023812235,1.0198332374728267,0.02188810486199342,,-0.15579681567927384,-0.3093683365622549,0.088225436,0.08275268144170031
1.077079935988877,11:14:46.115342,11:14:44.971516,0,,0.053197823,0.00095544755,0.0670246,-0.2967557,0.39973912,-0.8672627,0.59634626,-0.6317495,-0.49524102,-0.74586,-0.6641545,-0.05090767,,0.031978182,0.046367124,0.046029687,0.027836435,-0.6274299,0.7781752,0.16861913,-0.7643741,-0.6223341,0.985288,0.1485388,0.08451927,,0.17630246,1.3281257,0.5574636,0.9922823,-0.056539875,-0.11035895,-0.10147239,-0.88177747,-0.46062118,-0.07126857,0.4682646,-0.8807094,,-0.038465787,0.16650671,-0.11250945,0.39245686,-0.4143344,0.82116055,0.14261639,-0.8545781,-0.49935648,0.90864635,0.31308684,-0.27629414,,0.0011537664,0.348852,-0.32786578,-0.111582235,0.55495995,-0.82435966,0.6598355,-0.5789128,-0.47903767,-0.74307907,-0.5973939,-0.3015859,,1.3102388594409302,-0.5456110775639617,0.15559498499000002,2.7383409719644036,0.6296209909191496,-0.7976557159222665,-0.1261016190556636,,-0.9284115006735221,-0.31779045777433856,0.18932185821000003,-1.2950450909604225,-1.2342375023812235,1.0198332374728267,0.02188810486199342,,-0.15579681567927384,-0.3093683365622549,0.088225436,0.08275268144170031
1.106110856984742,11:14:46.134702,11:14:44.971516,0,,0.053197823,0.00095544755,0.0670246,-0.2967557,0.39973912,-0.8672627,0.59634626,-0.6317495,-0.49524102,-0.74586,-0.6641545,-0.05090767,,0.031978182,0.046367124,0.046029687,0.027836435,-0.6274299,0.7781752,0.16861913,-0.7643741,-0.6223341,0.985288,0.1485388,0.08451927,,0.17630246,1.3281257,0.5574636,0.9922823,-0.056539875,-0.11035895,-0.10147239,-0.88177747,-0.46062118,-0.07126857,0.4682646,-0.8807094,,-0.038465787,0.16650671,-0.11250945,0.39245686,-0.4143344,0.82116055,0.14261639,-0.8545781,-0.49935648,0.90864635,0.31308684,-0.27629414,,0.0011537664,0.348852,-0.32786578,-0.111582235,0.55495995,-0.82435966,0.6598355,-0.5789128,-0.47903767,-0.74307907,-0.5973939,-0.3015859,,1.3102388594409302,-0.5456110775639617,0.15559498499000002,2.7383409719644036,0.6296209909191496,-0.7976557159222665,-0.1261016190556636,,-0.9284115006735221,-0.31779045777433856,0.18932185821000003,-1.2950450909604225,-1.2342375023812235,1.0198332374728267,0.02188810486199342,,-0.15579681567927384,-0.3093683365622549,0.088225436,0.08275268144170031
1.1254629360046238,11:14:46.160999,11:14:44.971516,0,,0.053197823,0.00095544755,0.0670246,-0.2967557,0.39973912,-0.8672627,0.59634626,-0.6317495,-0.49524102,-0.74586,-0.6641545,-0.05090767,,0.031978182,0.046367124,0.046029687,0.027836435,-0.6274299,0.7781752,0.16861913,-0.7643741,-0.6223341,0.985288,0.1485388,0.08451927,,0.17630246,1.3281257,0.5574636,0.9922823,-0.056539875,-0.11035895,-0.10147239,-0.88177747,-0.46062118,-0.07126857,0.4682646,-0.8807094,,-0.038465787,0.16650671,-0.11250945,0.39245686,-0.4143344,0.82116055,0.14261639,-0.8545781,-0.49935648,0.90864635,0.31308684,-0.27629414,,0.0011537664,0.348852,-0.32786578,-0.111582235,0.55495995,-0.82435966,0.6598355,-0.5789128,-0.47903767,-0.74307907,-0.5973939,-0.3015859,,1.3102388594409302,-0.5456110775639617,0.15559498499000002,2.7383409719644036,0.6296209909191496,-0.7976557159222665,-0.1261016190556636,,-0.9284115006735221,-0.31779045777433856,0.18932185821000003,-1.2950450909604225,-1.2342375023812235,1.0198332374728267,0.02188810486199342,,-0.15579681567927384,-0.3093683365622549,0.088225436,0.08275268144170031
1.1517695889924653,11:14:46.184308,11:14:44.971516,0,,0.053198636,0.0009550154,0.06702435,-0.2967504,0.3997433,-0.86726254,0.5963436,-0.63175213,-0.4952408,-0.74586415,-0.6641494,-0.05091162,,0.031978182,0.046367124,0.046029687,0.027836435,-0.6274299,0.7781752,0.16861913,-0.7643741,-0.6223341,0.985288,0.1485388,0.08451927,,0.17630246,1.3281257,0.5574636,0.9922823,-0.056539875,-0.11035895,-0.10147239,-0.88177747,-0.46062118,-0.07126857,0.4682646,-0.8807094,,-0.038466617,0.16650625,-0.11250937,0.3924516,-0.41433907,0.8211607,0.14261226,-0.8545777,-0.49935824,0.90864927,0.31308153,-0.27629057,,0.0011537664,0.348852,-0.32786578,-0.111582235,0.55495995,-0.82435966,0.6598355,-0.5789128,-0.47903767,-0.74307907,-0.5973939,-0.3015859,,1.3102311367080561,-0.5456110775639617,0.15559498499000002,2.7383409719644036,0.6296209909191496,-0.7976557159222665,-0.1261016190556636,,-0.9284115006735221,-0.31779045777433856,0.18932185821000003,-1.2950450909604225,-1.2342375023812235,1.0198332374728267,0.02188810486199342,,-0.15579681567927384,-0.3093683365622549,0.088225436,0.08275268144170031
1.1750424589845352,11:14:46.208436,11:14:44.971516,0,,0.053197823,0.00095544755,0.0670246,-0.2967557,0.39973912,-0.8672627,0.59634626,-0.6317495,-0.49524102,-0.74586,-0.6641545,-0.05090767,,0.031978182,0.046367124,0.046029687,0.027836435,-0.6274299,0.7781752,0.16861913,-0.7643741,-0.6223341,0.985288,0.1485388,0.08451927,,0.17630246,1.3281257,0.5574636,0.9922823,-0.056539875,-0.11035895,-0.10147239,-0.88177747,-0.46062118,-0.07126857,0.4682646,-0.8807094,,-0.038465787,0.16650671,-0.11250945,0.39245686,-0.4143344,0.82116055,0.14261639,-0.8545781,-0.49935648,0.90864635,0.31308684,-0.27629414,,0.0011537664,0.348852,-0.32786578,-0.111582235,0.55495995,-0.82435966,0.6598355,-0.5789128,-0.47903767,-0.74307907,-0.5973939,-0.3015859,,1.3102388594409302,-0.5456110775639617,0.15559498499000002,2.7383409719644036,0.6296209909191496,-0.7976557159222665,-0.1261016190556636,,-0.9284115006735221,-0.31779045777433856,0.18932185821000003,-1.2950450909604225,-1.2342375023812235,1.0198332374728267,0.02188810486199342,,-0.15579681567927384,-0.3093683365622549,0.088225436,0.08275268144170031
1.1991628719842993,11:14:46.231468,11:14:44.971516,0,,0.053197823,0.00095544755,0.0670246,-0.2967557,0.39973912,-0.8672627,0.59634626,-0.6317495,-0.49524102,-0.74586,-0.6641545,-0.05090767,,0.031978182,0.046367124,0.046029687,0.027836435,-0.6274299,0.7781752,0.16861913,-0.7643741,-0.6223341,0.985288,0.1485388,0.08451927,,0.17630246,1.3281257,0.5574636,0.9922823,-0.056539875,-0.11035895,-0.10147239,-0.88177747,-0.46062118,-0.07126857,0.4682646,-0.8807094,,-0.038465787,0.16650671,-0.11250945,0.39245686,-0.4143344,0.82116055,0.14261639,-0.8545781,-0.49935648,0.90864635,0.31308684,-0.27629414,,0.0011537664,0.348852,-0.32786578,-0.111582235,0.55495995,-0.82435966,0.6598355,-0.5789128,-0.47903767,-0.74307907,-0.5973939,-0.3015859,,1.3102388594409302,-0.5456110775639617,0.15559498499000002,2.7383409719644036,0.6296209909191496,-0.7976557159222665,-0.1261016190556636,,-0.9284115006735221,-0.31779045777433856,0.18932185821000003,-1.2950450909604225,-1.2342375023812235,1.0198332374728267,0.02188810486199342,,-0.15579681567927384,-0.3093683365622549,0.088225436,0.08275268144170031
1.222238146001473,11:14:46.260953,11:14:45.114762,0,,0.0532418,0.0009297207,0.06690672,-0.29722607,0.39932472,-0.8672925,0.59715325,-0.63102716,-0.49518955,-0.74502647,-0.66508996,-0.050900355,,0.032007832,0.04636456,0.04597503,0.028460681,-0.6273323,0.7782314,0.16754723,-0.7645384,-0.62242186,0.98545325,0.14810488,0.083348334,,0.17630246,1.3281257,0.5574636,0.9922823,-0.056539875,-0.11035895,-0.10147239,-0.88177747,-0.46062118,-0.07126857,0.4682646,-0.8807094,,-0.038466617,0.16650625,-0.11250937,0.3924516,-0.41433907,0.8211607,0.14261226,-0.8545777,-0.49935824,0.90864927,0.31308153,-0.27629057,,0.0011537664,0.348852,-0.32786578,-0.111582235,0.55495995,-0.82435966,0.6598355,-0.5789128,-0.47903767,-0.74307907,-0.5973939,-0.3015859,,1.3102311367080561,-0.5456110775639617,0.15559498499000002,2.7383409719644036,0.6296209909191496,-0.7976557159222665,-0.1261016190556636,,-0.9284115006735221,-0.31779045777433856,0.18932185821000003,-1.2950450909604225,-1.2342375023812235,1.0198332374728267,0.02188810486199342,,-0.15579681567927384,-0.3093683365622549,0.088225436,0.08275268144170031
1.251716687984299,11:14:46.287189,11:14:45.114762,0,,0.0532418,0.0009297207,0.06690672,-0.29722607,0.39932472,-0.8672925,0.59715325,-0.63102716,-0.49518955,-0.74502647,-0.66508996,-0.050900355,,0.03200744,0.046362147,0.04597497,0.028489597,-0.6274859,0.77810645,0.16748756,-0.76442105,-0.622582,0.9854625,0.14806008,0.083317876,,0.17630246,1.3281257,0.5574636,0.9922823,-0.056539875,-0.11035895,-0.10147239,-0.88177747,-0.46062118,-0.07126857,0.4682646,-0.8807094,,-0.038466617,0.16650625,-0.11250937,0.3924516,-0.41433907,0.8211607,0.14261226,-0.8545777,-0.49935824,0.90864927,0.31308153,-0.27629057,,0.0011539873,0.3488499,-0.32786706,-0.11161603,0.555125,-0.82424396,0.65978986,-0.57883775,-0.47919118,-0.74311453,-0.5973132,-0.30165827,,1.3102311367080561,-0.5456110775639617,0.15559498499000002,2.7383409719644036,0.6296209909191496,-0.7976557159222665,-0.1261016190556636,,-0.9284037779406479,-0.31779045777433856,0.18932185821000003,-1.2948354010169378,-1.2342375023812235,1.0198332374728267,0.02188810486199342,,-0.15579681567927384,-0.3093683365622549,0.088225436,0.08275268144170031
1.2779132740106434,11:14:46.310413,11:14:45.114762,0,,0.05324099,0.0009301603,0.06690697,-0.29723138,0.39932048,-0.8672927,0.5971559,-0.63102454,-0.49518973,-0.74502224,-0.665095,-0.050896376,,0.03200804,0.046360448,0.04597521,0.028512746,-0.62764096,0.7779806,0.16742316,-0.7643039,-0.6227432,0.9854728,0.14800781,0.08328903,,0.17630246,1.3281257,0.5574636,0.9922823,-0.056539875,-0.11035895,-0.10147239,-0.88177747,-0.46062118,-0.07126857,0.4682646,-0.8807094,,-0.038465787,0.16650671,-0.11250945,0.39245686,-0.4143344,0.82116055,0.14261639,-0.8545781,-0.49935648,0.90864635,0.31308684,-0.27629414,,0.0011532459,0.3488486,-0.32786807,-0.11164453,0.5552922,-0.8241275,0.6597406,-0.5787668,-0.47934467,-0.743154,-0.59722656,-0.30173266,,1.3102388594409302,-0.5456110775639617,0.15559498499000002,2.7383409719644036,0.6296209909191496,-0.7976557159222665,-0.1261016190556636,,-0.9284037779406479,-0.31779045777433856,0.18932185821000003,-1.2946257110734534,-1.2342375023812235,1.0198332374728267,0.02188810486199342,,-0.15579681567927384,-0.3093683365622549,0.088225436,0.08275268144170031
1.3011419250105973,11:14:46.332173,11:14:45.114762,0,,0.0532418,0.0009297207,0.06690672,-0.29722607,0.39932472,-0.8672925,0.59715325,-0.63102716,-0.49518955,-0.74502647,-0.66508996,-0.050900355,,0.03200804,0.046360448,0.04597521,0.028512746,-0.62764096,0.7779806,0.16742316,-0.7643039,-0.6227432,0.9854728,0.14800781,0.08328903,,0.17630246,1.3281257,0.5574636,0.9922823,-0.056539875,-0.11035895,-0.10147239,-0.88177747,-0.46062118,-0.07126857,0.4682646,-0.8807094,,-0.038466617,0.16650625,-0.11250937,0.3924516,-0.41433907,0.8211607,0.14261226,-0.8545777,-0.49935824,0.90864927,0.31308153,-0.27629057,,0.0011532459,0.3488486,-0.32786807,-0.11164453,0.5552922,-0.8241275,0.6597406,-0.5787668,-0.47934467,-0.743154,-0.59722656,-0.30173266,,1.3102311367080561,-0.5456110775639617,0.15559498499000002,2.7383409719644036,0.6296209909191496,-0.7976557159222665,-0.1261016190556636,,-0.9284037779406479,-0.31779045777433856,0.18932185821000003,-1.2946257110734534,-1.2342375023812235,1.0198332374728267,0.02188810486199342,,-0.15579681567927384,-0.3093683365622549,0.088225436,0.08275268144170031
1.3229394420050085,11:14:46.360731,11:14:45.114762,0,,0.05324099,0.0009301603,0.06690697,-0.29723138,0.39932048,-0.8672927,0.5971559,-0.63102454,-0.49518973,-0.74502224,-0.665095,-0.050896376,,0.032009035,0.046361238,0.045975566,0.028506994,-0.62764245,0.7779796,0.16741836,-0.76430416,-0.62274414,0.9854738,0.14800048,0.08329064,,0.17630246,1.3281257,0.5574636,0.9922823,-0.056539875,-0.11035895,-0.10147239,-0.88177747,-0.46062118,-0.07126857,0.4682646,-0.8807094,,-0.038465787,0.16650671,-0.11250945,0.39245686,-0.4143344,0.82116055,0.14261639,-0.8545781,-0.49935648,0.90864635,0.31308684,-0.27629414,,0.0011522836,0.34884945,-0.32786784,-0.11163925,0.55529433,-0.8241267,0.659737,-0.57877094,-0.47934467,-0.743158,-0.5972206,-0.30173466,,1.3102388594409302,-0.5456110775639617,0.15559498499000002,2.7383409719644036,0.6296209909191496,-0.7976557159222665,-0.1261016190556636,,-0.9284115006735221,-0.31779045777433856,0.18932185821000003,-1.2946257110734534,-1.2342375023812235,1.0198332374728267,0.02188810486199342,,-0.15579681567927384,-0.3093683365622549,0.088225436,0.08275268144170031
1.3514969199895859,11:14:46.381245,11:14:45.114762,0,,0.05324099,0.0009301603,0.06690697,-0.29723138,0.39932048,-0.8672927,0.5971559,-0.63102454,-0.49518973,-0.74502224,-0.665095,-0.050896376,,0.032009035,0.046361238,0.045975566,0.028506994,-0.62764245,0.7779796,0.16741836,-0.76430416,-0.62274414,0.9854738,0.14800048,0.08329064,,0.17630246,1.3281257,0.5574636,0.9922823,-0.056539875,-0.11035895,-0.10147239,-0.88177747,-0.46062118,-0.07126857,0.4682646,-0.8807094,,-0.038465787,0.16650671,-0.11250945,0.39245686,-0.4143344,0.82116055,0.14261639,-0.8545781,-0.49935648,0.90864635,0.31308684,-0.27629414,,0.0011522836,0.34884945,-0.32786784,-0.11163925,0.55529433,-0.8241267,0.659737,-0.57877094,-0.47934467,-0.743158,-0.5972206,-0.30173466,,1.3102388594409302,-0.5456110775639617,0.15559498499000002,2.7383409719644036,0.6296209909191496,-0.7976557159222665,-0.1261016190556636,,-0.9284115006735221,-0.31779045777433856,0.18932185821000003,-1.2946257110734534,-1.2342375023812235,1.0198332374728267,0.02188810486199342,,-0.15579681567927384,-0.3093683365622549,0.088225436,0.08275268144170031
1.3719691199949011,11:14:46.404512,11:14:45.268679,0,,0.05309034,0.00077145547,0.06700957,-0.29452965,0.40024155,-0.86778975,0.5989107,-0.6303078,-0.49398178,-0.74468666,-0.66522086,-0.05406463,,0.031969983,0.046268776,0.04610759,0.026165083,-0.62900025,0.7769646,0.16555896,-0.7637709,-0.62389445,0.9858527,0.14495772,0.08415246,,0.17630246,1.3281257,0.5574636,0.9922823,-0.056539875,-0.11035895,-0.10147239,-0.88177747,-0.46062118,-0.07126857,0.4682646,-0.8807094,,-0.038466617,0.16650625,-0.11250937,0.3924516,-0.41433907,0.8211607,0.14261226,-0.8545777,-0.49935824,0.90864927,0.31308153,-0.27629057,,0.0011522836,0.34884945,-0.32786784,-0.11163925,0.55529433,-0.8241267,0.659737,-0.57877094,-0.47934467,-0.743158,-0.5972206,-0.30173466,,1.3102311367080561,-0.5456110775639617,0.15559498499000002,2.7383409719644036,0.6296209909191496,-0.7976557159222665,-0.1261016190556636,,-0.9284115006735221,-0.31779045777433856,0.18932185821000003,-1.2946257110734534,-1.2342375023812235,1.0198332374728267,0.02188810486199342,,-0.15579681567927384,-0.3093683365622549,0.088225436,0.08275268144170031
1.395236381009454,11:14:46.430076,11:14:45.268679,0,,0.05309034,0.00077145547,0.06700957,-0.29452965,0.40024155,-0.86778975,0.5989107,-0.6303078,-0.49398178,-0.74468666,-0.66522086,-0.05406463,,0.031968996,0.046268,0.046107262,0.026170842,-0.6289988,0.7769656,0.16556379,-0.76377064,-0.62389344,0.98585176,0.14496508,0.08415085,,0.17630246,1.3281257,0.5574636,0.9922823,-0.056539875,-0.11035895,-0.10147239,-0.88177747,-0.46062118,-0.07126857,0.4682646,-0.8807094,,-0.038466617,0.16650625,-0.11250937,0.3924516,-0.41433907,0.8211607,0.14261226,-0.8545777,-0.49935824,0.90864927,0.31308153,-0.27629057,,0.0011532459,0.3488486,-0.32786807,-0.11164453,0.5552922,-0.8241275,0.6597406,-0.5787668,-0.47934467,-0.743154,-0.59722656,-0.30173266,,1.3102311367080561,-0.5456110775639617,0.15559498499000002,2.7383409719644036,0.6296209909191496,-0.7976557159222665,-0.1261016190556636,,-0.9284037779406479,-0.31779045777433856,0.18932185821000003,-1.2946257110734534,-1.2342375023812235,1.0198332374728267,0.02188810486199342,,-0.15579681567927384,-0.3093683365622549,0.088225436,0.08275268144170031
1.4208470490120817,11:14:46.456975,11:14:45.268679,0,,0.05309034,0.00077145547,0.06700957,-0.29452965,0.40024155,-0.86778975,0.5989107,-0.6303078,-0.49398178,-0.74468666,-0.66522086,-0.05406463,,0.031968996,0.046268,0.046107262,0.026170842,-0.6289988,0.7769656,0.16556379,-0.76377064,-0.62389344,0.98585176,0.14496508,0.08415085,,0.17630246,1.3281257,0.5574636,0.9922823,-0.056539875,-0.11035895,-0.10147239,-0.88177747,-0.46062118,-0.07126857,0.4682646,-0.8807094,,-0.038466617,0.16650625,-0.11250937,0.3924516,-0.41433907,0.8211607,0.14261226,-0.8545777,-0.49935824,0.90864927,0.31308153,-0.27629057,,0.0011532459,0.3488486,-0.32786807,-0.11164453,0.5552922,-0.8241275,0.6597406,-0.5787668,-0.47934467,-0.743154,-0.59722656,-0.30173266,,1.3102311367080561,-0.5456110775639617,0.15559498499000002,2.7383409719644036,0.6296209909191496,-0.7976557159222665,-0.1261016190556636,,-0.9284037779406479,-0.31779045777433856,0.18932185821000003,-1.2946257110734534,-1.2342375023812235,1.0198332374728267,0.02188810486199342,,-0.15579681567927384,-0.3093683365622549,0.088225436,0.08275268144170031
1.4477223499852698,11:14:46.479258,11:14:45.268679,0,,0.05308953,0.0007719025,0.06700984,-0.29453495,0.40023738,-0.86778986,0.5989133,-0.6303052,-0.49398196,-0.74468243,-0.6652259,-0.054060623,,0.031969983,0.046268776,0.04610759,0.026165083,-0.62900025,0.7769646,0.16555896,-0.7637709,-0.62389445,0.9858527,0.14495772,0.08415246,,0.17630246,1.3281257,0.5574636,0.9922823,-0.056539875,-0.11035895,-0.10147239,-0.88177747,-0.46062118,-0.07126857,0.4682646,-0.8807094,,-0.038465787,0.16650671,-0.11250945,0.39245686,-0.4143344,0.82116055,0.14261639,-0.8545781,-0.49935648,0.90864635,0.31308684,-0.27629414,,0.0011522836,0.34884945,-0.32786784,-0.11163925,0.55529433,-0.8241267,0.659737,-0.57877094,-0.47934467,-0.743158,-0.5972206,-0.30173466,,1.3102388594409302,-0.5456110775639617,0.15559498499000002,2.7383409719644036,0.6296209909191496,-0.7976557159222665,-0.1261016190556636,,-0.9284115006735221,-0.31779045777433856,0.18932185821000003,-1.2946257110734534,-1.2342375023812235,1.0198332374728267,0.02188810486199342,,-0.15579681567927384,-0.3093683365622549,0.088225436,0.08275268144170031
1.4700021489989012,11:14:46.500567,11:14:45.268679,0,,0.05308953,0.0007719025,0.06700984,-0.29453495,0.40023738,-0.86778986,0.5989133,-0.6303052,-0.49398196,-0.74468243,-0.6652259,-0.054060623,,0.031968996,0.046268,0.046107262,0.026170842,-0.6289988,0.7769656,0.16556379,-0.76377064,-0.62389344,0.98585176,0.14496508,0.08415085,,0.17630246,1.3281257,0.5574636,0.9922823,-0.056539875,-0.11035895,-0.10147239,-0.88177747,-0.46062118,-0.07126857,0.4682646,-0.8807094,,-0.038465787,0.16650671,-0.11250945,0.39245686,-0.4143344,0.82116055,0.14261639,-0.8545781,-0.49935648,0.90864635,0.31308684,-0.27629414,,0.0011532459,0.3488486,-0.32786807,-0.11164453,0.5552922,-0.8241275,0.6597406,-0.5787668,-0.47934467,-0.743154,-0.59722656,-0.30173266,,1.3102388594409302,-0.5456110775639617,0.15559498499000002,2.7383409719644036,0.6296209909191496,-0.7976557159222665,-0.1261016190556636,,-0.9284037779406479,-0.31779045777433856,0.18932185821000003,-1.2946257110734534,-1.2342375023812235,1.0198332374728267,0.02188810486199342,,-0.15579681567927384,-0.3093683365622549,0.088225436,0.08275268144170031
1.491336125007365,11:14:46.527685,11:14:45.268679,0,,0.053088516,0.00077198446,0.06701031,-0.2943823,0.4001651,-0.867875,0.59889865,-0.63043696,-0.49383152,-0.7447546,-0.66514444,-0.05406882,,0.031968996,0.046268,0.046107262,0.026170842,-0.6289988,0.7769656,0.16556379,-0.76377064,-0.62389344,0.98585176,0.14496508,0.08415085,,0.17630246,1.3281257,0.5574636,0.9922823,-0.056539875,-0.11035895,-0.10147239,-0.88177747,-0.46062118,-0.07126857,0.4682646,-0.8807094,,-0.0384648,0.16650698,-0.11250992,0.3923082,-0.41427943,0.8212593,0.1425758,-0.8546566,-0.49923366,0.9087169,0.31294516,-0.2762226,,0.0011532459,0.3488486,-0.32786807,-0.11164453,0.5552922,-0.8241275,0.6597406,-0.5787668,-0.47934467,-0.743154,-0.59722656,-0.30173266,,1.3102388594409302,-0.5456110775639617,0.15559498499000002,2.738550661907888,0.6296209909191496,-0.7976557159222665,-0.1261016190556636,,-0.9284037779406479,-0.31779045777433856,0.18932185821000003,-1.2946257110734534,-1.2342375023812235,1.0198332374728267,0.02188810486199342,,-0.15579681567927384,-0.3093683365622549,0.088225436,0.08275268144170031
1.5184550340054557,11:14:46.550672,11:14:45.268679,0,,0.053088315,0.0007716492,0.06701054,-0.29422435,0.40009692,-0.8679599,0.59888124,-0.6305716,-0.49368075,-0.74483097,-0.6650579,-0.054081008,,0.031969983,0.046268776,0.04610759,0.026165083,-0.62900025,0.7769646,0.16555896,-0.7637709,-0.62389445,0.9858527,0.14495772,0.08415246,,0.17630246,1.3281257,0.5574636,0.9922823,-0.056539875,-0.11035895,-0.10147239,-0.88177747,-0.46062118,-0.07126857,0.4682646,-0.8807094,,-0.038464647,0.16650678,-0.11251031,0.39215428,-0.41422912,0.82135814,0.14253107,-0.8547348,-0.49911258,0.90879035,0.3127982,-0.2761474,,0.0011522836,0.34884945,-0.32786784,-0.11163925,0.55529433,-0.8241267,0.659737,-0.57877094,-0.47934467,-0.743158,-0.5972206,-0.30173466,,1.3102311367080561,-0.5456110775639617,0.15559498499000002,2.7387603518513726,0.6296209909191496,-0.7976557159222665,-0.1261016190556636,,-0.9284115006735221,-0.31779045777433856,0.18932185821000003,-1.2946257110734534,-1.2342375023812235,1.0198332374728267,0.02188810486199342,,-0.15579681567927384,-0.3093683365622549,0.088225436,0.08275268144170031
1.5414106719836127,11:14:46.576176,11:14:45.423525,0,,0.053144548,0.0008551702,0.06679872,-0.29496527,0.39968678,-0.86789745,0.5989466,-0.6303699,-0.493859,-0.7444854,-0.6654954,-0.05345376,,0.03199922,0.046350107,0.045920134,0.026938155,-0.62871593,0.77716833,0.1654025,-0.76393074,-0.6237402,0.9858582,0.14534792,0.08341229,,0.17630246,1.3281257,0.5574636,0.9922823,-0.056539875,-0.11035895,-0.10147239,-0.88177747,-0.46062118,-0.07126857,0.4682646,-0.8807094,,-0.038463816,0.16650724,-0.11251039,0.39215955,-0.41422445,0.821358,0.14253518,-0.8547351,-0.49911085,0.9087874,0.3128035,-0.27615097,,0.0011532459,0.3488486,-0.32786807,-0.11164453,0.5552922,-0.8241275,0.6597406,-0.5787668,-0.47934467,-0.743154,-0.59722656,-0.30173266,,1.3102388594409302,-0.5456110775639617,0.15559498499000002,2.7387603518513726,0.6296209909191496,-0.7976557159222665,-0.1261016190556636,,-0.9284037779406479,-0.31779045777433856,0.18932185821000003,-1.2946257110734534,-1.2342375023812235,1.0198332374728267,0.02188810486199342,,-0.15579681567927384,-0.3093683365622549,0.088225436,0.08275268144170031
1.5669157869997434,11:14:46.599271,11:14:45.423525,0,,0.05316206,0.0008459389,0.06678599,-0.29496706,0.3996962,-0.8678925,0.59895736,-0.63035405,-0.4938662,-0.744476,-0.6655048,-0.05346732,,0.032016393,0.046324044,0.045939386,0.026902035,-0.62873733,0.7771523,0.16542318,-0.7639148,-0.6237542,0.9858556,0.14533925,0.0834569,,0.17626438,1.3281312,0.55747294,0.99228525,-0.056514382,-0.11034563,-0.10144371,-0.8817791,-0.46062437,-0.07126857,0.4682646,-0.8807094,,-0.038481295,0.16649385,-0.11250209,0.39216173,-0.41423184,0.82135326,0.14254907,-0.85472536,-0.49912354,0.90878433,0.3128203,-0.2761422,,0.0011324508,0.34883678,-0.32789585,-0.11160695,0.5553154,-0.82411695,0.6597566,-0.57875806,-0.47933325,-0.7431454,-0.5972135,-0.30177957,,1.3102388594409302,-0.5456110775639617,0.15559498499000002,2.7387603518513726,0.6296209909191496,-0.7976557159222665,-0.1261016190556636,,-0.9283960552077737,-0.31779045777433856,0.18932185821000003,-1.2946257110734534,-1.2342375023812235,1.0198332374728267,0.02188810486199342,,-0.15579681567927384,-0.3093683365622549,0.088225436,0.08275268144170031
1.5900116320117377,11:14:46.625601,11:14:45.423525,0,,0.053162877,0.0008455068,0.06678575,-0.2949617,0.39970034,-0.8678924,0.5989547,-0.6303568,-0.49386597,-0.74448025,-0.66549975,-0.053471282,,0.032018382,0.046325564,0.04594004,0.026890516,-0.6287403,0.77715033,0.16541365,-0.7639153,-0.6237562,0.98585755,0.14532432,0.08346012,,0.17626438,1.3281312,0.55747294,0.99228525,-0.056514382,-0.11034563,-0.10144371,-0.8817791,-0.46062437,-0.07126857,0.4682646,-0.8807094,,-0.038482126,0.16649339,-0.112502,0.39215645,-0.41423652,0.82135344,0.14254496,-0.85472506,-0.49912527,0.90878725,0.31281498,-0.27613863,,0.0011305261,0.34883842,-0.32789534,-0.11159639,0.5553197,-0.82411546,0.6597493,-0.5787663,-0.47933328,-0.74315345,-0.5972015,-0.3017836,,1.3102311367080561,-0.5456110775639617,0.15559498499000002,2.7387603518513726,0.6296209909191496,-0.7976557159222665,-0.1261016190556636,,-0.9284115006735221,-0.31779045777433856,0.18932185821000003,-1.2946257110734534,-1.2342375023812235,1.0198332374728267,0.02188810486199342,,-0.15579681567927384,-0.3093683365622549,0.088225436,0.08275268144170031
1.6163523709983565,11:14:46.648299,11:14:45.423525,0,,0.053162877,0.0008455068,0.06678575,-0.2949617,0.39970034,-0.8678924,0.5989547,-0.6303568,-0.49386597,-0.74448025,-0.66549975,-0.053471282,,0.032018382,0.046325564,0.04594004,0.026890516,-0.6287403,0.77715033,0.16541365,-0.7639153,-0.6237562,0.98585755,0.14532432,0.08346012,,0.17626438,1.3281312,0.55747294,0.99228525,-0.056514382,-0.11034563,-0.10144371,-0.8817791,-0.46062437,-0.07126857,0.4682646,-0.8807094,,-0.038482126,0.16649339,-0.112502,0.39215645,-0.41423652,0.82135344,0.14254496,-0.85472506,-0.49912527,0.90878725,0.31281498,-0.27613863,,0.0011305261,0.34883842,-0.32789534,-0.11159639,0.5553197,-0.82411546,0.6597493,-0.5787663,-0.47933328,-0.74315345,-0.5972015,-0.3017836,,1.3102311367080561,-0.5456110775639617,0.15559498499000002,2.7387603518513726,0.6296209909191496,-0.7976557159222665,-0.1261016190556636,,-0.9284115006735221,-0.31779045777433856,0.18932185821000003,-1.2946257110734534,-1.2342375023812235,1.0198332374728267,0.02188810486199342,,-0.15579681567927384,-0.3093683365622549,0.088225436,0.08275268144170031
1.6390348350105342,11:14:46.670805,11:14:45.423525,0,,0.053162877,0.0008455068,0.06678575,-0.2949617,0.39970034,-0.8678924,0.5989547,-0.6303568,-0.49386597,-0.74448025,-0.66549975,-0.053471282,,0.032017387,0.046324834,0.045939744,0.026896276,-0.6287388,0.7771513,0.16541845,-0.76391506,-0.6237552,0.98585665,0.1453318,0.08345848,,0.17626438,1.3281312,0.55747294,0.99228525,-0.056514382,-0.11034563,-0.10144371,-0.8817791,-0.46062437,-0.07126857,0.4682646,-0.8807094,,-0.038482126,0.16649339,-0.112502,0.39215645,-0.41423652,0.82135344,0.14254496,-0.85472506,-0.49912527,0.90878725,0.31281498,-0.27613863,,0.0011314885,0.3488376,-0.3278956,-0.11160167,0.5553175,-0.8241162,0.65975296,-0.5787622,-0.47933328,-0.74314946,-0.5972075,-0.30178156,,1.3102311367080561,-0.5456110775639617,0.15559498499000002,2.7387603518513726,0.6296209909191496,-0.7976557159222665,-0.1261016190556636,,-0.9284037779406479,-0.31779045777433856,0.18932185821000003,-1.2946257110734534,-1.2342375023812235,1.0198332374728267,0.02188810486199342,,-0.15579681567927384,-0.3093683365622549,0.088225436,0.08275268144170031
1.6615369339997414,11:14:46.698530,11:14:45.423525,0,,0.05316206,0.0008459389,0.06678599,-0.29496706,0.3996962,-0.8678925,0.59895736,-0.63035405,-0.4938662,-0.744476,-0.6655048,-0.05346732,,0.032017387,0.046324834,0.045939744,0.026896276,-0.6287388,0.7771513,0.16541845,-0.76391506,-0.6237552,0.98585665,0.1453318,0.08345848,,0.17626438,1.3281312,0.55747294,0.99228525,-0.056514382,-0.11034563,-0.10144371,-0.8817791,-0.46062437,-0.07126857,0.4682646,-0.8807094,,-0.038481295,0.16649385,-0.11250209,0.39216173,-0.41423184,0.82135326,0.14254907,-0.85472536,-0.49912354,0.90878433,0.3128203,-0.2761422,,0.0011314885,0.3488376,-0.3278956,-0.11160167,0.5553175,-0.8241162,0.65975296,-0.5787622,-0.47933328,-0.74314946,-0.5972075,-0.30178156,,1.3102388594409302,-0.5456110775639617,0.15559498499000002,2.7387603518513726,0.6296209909191496,-0.7976557159222665,-0.1261016190556636,,-0.9284037779406479,-0.31779045777433856,0.18932185821000003,-1.2946257110734534,-1.2342375023812235,1.0198332374728267,0.02188810486199342,,-0.15579681567927384,-0.3093683365622549,0.088225436,0.08275268144170031
1.6892962580022868,11:14:46.723632,11:14:45.574563,0,,0.05329865,0.0008569956,0.06656057,-0.29694197,0.39843142,-0.86780065,0.5995573,-0.6295298,-0.4941897,-0.743207,-0.6670417,-0.051948667,,0.032085344,0.046346277,0.04580733,0.02910512,-0.62807107,0.7776115,0.1644707,-0.76432896,-0.62349874,0.9859524,0.14604121,0.081053376,,0.17626438,1.3281312,0.55747294,0.99228525,-0.056514382,-0.11034563,-0.10144371,-0.8817791,-0.46062437,-0.07126857,0.4682646,-0.8807094,,-0.038481295,0.16649385,-0.11250209,0.39216173,-0.41423184,0.82135326,0.14254907,-0.85472536,-0.49912354,0.90878433,0.3128203,-0.2761422,,0.0011324508,0.34883678,-0.32789585,-0.11160695,0.5553154,-0.82411695,0.6597566,-0.57875806,-0.47933325,-0.7431454,-0.5972135,-0.30177957,,1.3102388594409302,-0.5456110775639617,0.15559498499000002,2.7387603518513726,0.6296209909191496,-0.7976557159222665,-0.1261016190556636,,-0.9283960552077737,-0.31779045777433856,0.18932185821000003,-1.2946257110734534,-1.2342375023812235,1.0198332374728267,0.02188810486199342,,-0.15579681567927384,-0.3093683365622549,0.088225436,0.08275268144170031
1.7144012580101844,11:14:46.745860,11:14:45.574563,0,,0.05329946,0.00085656345,0.0665603,-0.29693666,0.3984356,-0.8678006,0.5995546,-0.6295325,-0.49418947,-0.74321127,-0.66703665,-0.05195263,,0.03208574,0.046348765,0.04580736,0.029076256,-0.6279176,0.7777366,0.1645304,-0.7644466,-0.6233388,0.9859433,0.14608553,0.08108422,,0.17626438,1.3281312,0.55747294,0.99228525,-0.056514382,-0.11034563,-0.10144371,-0.8817791,-0.46062437,-0.07126857,0.4682646,-0.8807094,,-0.038482126,0.16649339,-0.112502,0.39215645,-0.41423652,0.82135344,0.14254496,-0.85472506,-0.49912527,0.90878725,0.31281498,-0.27613863,,0.0011322297,0.3488389,-0.32789457,-0.111573175,0.5551504,-0.8242327,0.65980226,-0.5788331,-0.4791798,-0.74311,-0.59729415,-0.3017072,,1.3102311367080561,-0.5456110775639617,0.15559498499000002,2.7387603518513726,0.6296209909191496,-0.7976557159222665,-0.1261016190556636,,-0.9284037779406479,-0.31779045777433856,0.18932185821000003,-1.2948354010169378,-1.2342375023812235,1.0198332374728267,0.02188810486199342,,-0.15579681567927384,-0.3093683365622549,0.088225436,0.08275268144170031
1.7366105690016411,11:14:46.769301,11:14:45.574563,0,,0.05329865,0.0008569956,0.06656057,-0.29694197,0.39843142,-0.86780065,0.5995573,-0.6295298,-0.4941897,-0.743207,-0.6670417,-0.051948667,,0.03208513,0.046350434,0.045807123,0.029053122,-0.6277626,0.77786255,0.16459489,-0.7645639,-0.62317777,0.9859333,0.14613736,0.08111352,,0.17626438,1.3281312,0.55747294,0.99228525,-0.056514382,-0.11034563,-0.10144371,-0.8817791,-0.46062437,-0.07126857,0.4682646,-0.8807094,,-0.038481295,0.16649385,-0.11250209,0.39216173,-0.41423184,0.82135326,0.14254907,-0.85472536,-0.49912354,0.90878433,0.3128203,-0.2761422,,0.0011329713,0.34884018,-0.32789356,-0.11154466,0.5549832,-0.8243491,0.6598515,-0.578904,-0.4790263,-0.74307054,-0.5973808,-0.30163282,,1.3102388594409302,-0.5456110775639617,0.15559498499000002,2.7387603518513726,0.6296209909191496,-0.7976557159222665,-0.1261016190556636,,-0.9284037779406479,-0.31779045777433856,0.18932185821000003,-1.2950450909604225,-1.2342375023812235,1.0198332374728267,0.02188810486199342,,-0.15579681567927384,-0.3093683365622549,0.088225436,0.08275268144170031
1.7600495989900082,11:14:46.794130,11:14:45.574563,0,,0.05329865,0.0008569956,0.06656057,-0.29694197,0.39843142,-0.86780065,0.5995573,-0.6295298,-0.4941897,-0.743207,-0.6670417,-0.051948667,,0.032084145,0.046349645,0.045806766,0.029058881,-0.62776107,0.7778635,0.16459975,-0.7645638,-0.62317675,0.9859323,0.1461448,0.08111185,,0.17626438,1.3281312,0.55747294,0.99228525,-0.056514382,-0.11034563,-0.10144371,-0.8817791,-0.46062437,-0.07126857,0.4682646,-0.8807094,,-0.038481295,0.16649385,-0.11250209,0.39216173,-0.41423184,0.82135326,0.14254907,-0.85472536,-0.49912354,0.90878433,0.3128203,-0.2761422,,0.0011339337,0.34883934,-0.3278938,-0.11154994,0.554981,-0.8243499,0.6598551,-0.57889986,-0.4790263,-0.7430665,-0.59738684,-0.3016308,,1.3102388594409302,-0.5456110775639617,0.15559498499000002,2.7387603518513726,0.6296209909191496,-0.7976557159222665,-0.1261016190556636,,-0.9283960552077737,-0.31779045777433856,0.18932185821000003,-1.2950450909604225,-1.2342375023812235,1.0198332374728267,0.02188810486199342,,-0.15579681567927384,-0.3093683365622549,0.088225436,0.08275268144170031
1.7849003209848888,11:14:46.816589,11:14:45.574563,0,,0.05329946,0.00085656345,0.0665603,-0.29693666,0.3984356,-0.8678006,0.5995546,-0.6295325,-0.49418947,-0.74321127,-0.66703665,-0.05195263,,0.03208613,0.046351165,0.04580742,0.029047363,-0.62776405,0.7778616,0.16459012,-0.76456416,-0.6231788,0.98593426,0.1461299,0.08111514,,0.17626438,1.3281312,0.55747294,0.99228525,-0.056514382,-0.11034563,-0.10144371,-0.8817791,-0.46062437,-0.07126857,0.4682646,-0.8807094,,-0.038482126,0.16649339,-0.112502,0.39215645,-0.41423652,0.82135344,0.14254496,-0.85472506,-0.49912527,0.90878725,0.31281498,-0.27613863,,0.001132009,0.34884098,-0.3278933,-0.11153938,0.55498534,-0.8243484,0.65984786,-0.57890815,-0.4790263,-0.74307454,-0.5973748,-0.30163485,,1.3102311367080561,-0.5456110775639617,0.15559498499000002,2.7387603518513726,0.6296209909191496,-0.7976557159222665,-0.1261016190556636,,-0.9284115006735221,-0.31779045777433856,0.18932185821000003,-1.2950450909604225,-1.2342375023812235,1.0198332374728267,0.02188810486199342,,-0.15579681567927384,-0.3093683365622549,0.088225436,0.08275268144170031
1.8073502219922375,11:14:46.842200,11:14:45.574563,0,,0.05329865,0.0008569956,0.06656057,-0.29694197,0.39843142,-0.86780065,0.5995573,-0.6295298,-0.4941897,-0.743207,-0.6670417,-0.051948667,,0.03208513,0.046350434,0.045807123,0.029053122,-0.6277626,0.77786255,0.16459489,-0.7645639,-0.62317777,0.9859333,0.14613736,0.08111352,,0.17626438,1.3281312,0.55747294,0.99228525,-0.056514382,-0.11034563,-0.10144371,-0.8817791,-0.46062437,-0.07126857,0.4682646,-0.8807094,,-0.038481295,0.16649385,-0.11250209,0.39216173,-0.41423184,0.82135326,0.14254907,-0.85472536,-0.49912354,0.90878433,0.3128203,-0.2761422,,0.0011329713,0.34884018,-0.32789356,-0.11154466,0.5549832,-0.8243491,0.6598515,-0.578904,-0.4790263,-0.74307054,-0.5973808,-0.30163282,,1.3102388594409302,-0.5456110775639617,0.15559498499000002,2.7387603518513726,0.6296209909191496,-0.7976557159222665,-0.1261016190556636,,-0.9284037779406479,-0.31779045777433856,0.18932185821000003,-1.2950450909604225,-1.2342375023812235,1.0198332374728267,0.02188810486199342,,-0.15579681567927384,-0.3093683365622549,0.088225436,0.08275268144170031
