AlexandreBanks6/ExpertPlaybackApp/resources/Motions/PC1/Data_PC1_34.csv
Task Time,PC1 Time,PC2 Time,Gaze Calib,s_T_psm1,Tx,Ty,Tz,R00,R01,R02,R10,R11,R12,R20,R21,R22,s_T_psm3,Tx,Ty,Tz,R00,R01,R02,R10,R11,R12,R20,R21,R22,cart_T_ecm,Tx,Ty,Tz,R00,R01,R02,R10,R11,R12,R20,R21,R22,ecm_T_psm1,Tx,Ty,Tz,R00,R01,R02,R10,R11,R12,R20,R21,R22,ecm_T_psm3,Tx,Ty,Tz,R00,R01,R02,R10,R11,R12,R20,R21,R22,psm1_joints,q1,q2,q3,q4,q5,q6,jaw,psm3_joints,q1,q2,q3,q4,q5,q6,jaw,ecm_joints,q1,q2,q3,q4,ecmi_T_ecm,Tx,Ty,Tz,R00,R01,R02,R10,R11,R12,R20,R21,R22,Sample #,Task Duration (s),Collisions (binary),Collisions (increments),Cumulative Collision Time (s),Clutch Press,MTMR Angle,MTML Angle
""
lci_T_si,,,,,-0.06902807,0.020874517,0.2610324,0.9953999,0.040369812,0.08688688,0.08648972,-0.76875633,-0.6336665,0.04121384,0.63826644,-0.7687115
rci_T_si,,,,,-0.0789129,0.025328552,0.2701687,0.9951544,0.022639653,0.095682524,0.07979094,-0.7545899,-0.65132743,0.05745524,0.655806,-0.7527399
ecm_T_lc,,,,,-4.4061628e-05,-0.00034663224,-0.01840835,-0.99912,0.030754527,0.028518902,-0.031987965,-0.99852574,-0.043852776,0.027128186,-0.04472645,0.9986309
ecm_T_rc,,,,,-0.0043358393,0.01870579,-0.007592615,-0.99555075,-0.052743673,-0.078081585,0.04863213,-0.9973746,0.053654674,-0.08070653,0.04961868,0.9955021
cart_T_ecmi,,,,,0.087427564,1.3322512,0.46483034,0.9960446,0.0029006863,-0.08880765,-0.0538505,-0.7752969,-0.629297,-0.0706777,0.63159025,-0.7720741
ecmac_T_ecmrep_psm1,,,,,0.08626859,-0.2052861,-0.33370098,0.999004,0.025128257,0.036871605,-0.023534218,0.9987958,-0.04304718,-0.037908904,0.04213656,0.9983924
ecmac_T_ecmrep_psm3,,,,,-0.16209933,-0.49188918,-0.56672233,0.99379694,-0.09876928,0.05111077,0.087427974,0.9779163,0.18983154,-0.068731576,-0.18418549,0.98048544
""
0,11:36:41.570768,NaN,0,,0.008922122,0.03219624,0.048485428,-0.724014,-0.26380318,-0.63734734,-0.5426342,0.78826344,0.2901532,0.42585418,0.55592144,-0.7138624,,0.18902063,-0.009835914,0.03108859,-0.72223157,0.09127734,0.68560195,0.32687685,0.91861254,0.22204176,-0.6095352,0.38447303,-0.6932875,,0.08744685,1.3322506,0.46481997,0.9960437,0.0028880716,-0.088817894,-0.053866707,-0.775297,-0.6292956,-0.0706777,0.63159025,-0.7720741,,-0.050055556,0.25023243,-0.09487534,0.712925,0.17515258,0.6790136,-0.07850627,0.98215216,-0.1709206,-0.6968319,0.06854674,0.71395147,,0.009102827,0.42666623,-0.3460989,0.7505311,-0.28148964,-0.5978852,-0.1335303,0.82148045,-0.55438215,0.6472038,0.4959168,0.57895917,,0.8174126610722933,-0.21830621288857843,0.18242429912000002,0.610617115426935,-0.1541259717354168,0.4201312535762902,0.8439987897158209,,-0.882384012743144,-0.4285885063208376,0.17955690564000001,2.0836889684057187,0.07856598736512826,0.23822772263477854,0.8675203352391572,,-0.06956664232292899,-0.09922851296057261,0.1150502548,-0.034016912529394594,,1.9978732e-05,-6.0796738e-06,6.556511e-06,1.0,-1.2565404e-05,-1.0281801e-05,1.2557954e-05,1.0,-1.1920929e-06,1.0281801e-05,1.1324883e-06,1.0,NaN,NaN,NaN,NaN,NaN,False,[1.04695922],[1.04980467]
0.019124026001009042,11:36:41.593701,NaN,0,,0.008922603,0.03219752,0.04848528,-0.7240167,-0.26380268,-0.6373445,-0.54263514,0.78826046,0.29015964,0.42584845,0.55592597,-0.7138623,,0.18902063,-0.009835914,0.03108859,-0.72223157,0.09127734,0.68560195,0.32687685,0.91861254,0.22204176,-0.6095352,0.38447303,-0.6932875,,0.08744685,1.3322506,0.46481997,0.9960437,0.0028880716,-0.088817894,-0.053866707,-0.775297,-0.6292956,-0.0706777,0.63159025,-0.7720741,,-0.05005609,0.25023326,-0.0948744,0.71292824,0.17515188,0.67901045,-0.07851035,0.9821527,-0.17091586,-0.6968282,0.06854139,0.7139556,,0.009102827,0.42666623,-0.3460989,0.7505311,-0.28148964,-0.5978852,-0.1335303,0.82148045,-0.55438215,0.6472038,0.4959168,0.57895917,,0.8174126610722933,-0.2182984901557042,0.18242429912000002,0.610617115426935,-0.1541259717354168,0.4201312535762902,0.8439987897158209,,-0.882384012743144,-0.4285885063208376,0.17955690564000001,2.0836889684057187,0.07856598736512826,0.23822772263477854,0.8675203352391572,,-0.06956664232292899,-0.09922851296057261,0.1150502548,-0.034016912529394594,,1.9978732e-05,-6.0796738e-06,6.556511e-06,1.0,-1.2565404e-05,-1.0281801e-05,1.2557954e-05,1.0,-1.1920929e-06,1.0281801e-05,1.1324883e-06,1.0,7,0.021,0,0,0.0,False,[1.0464826],[1.04951499]
0.04202050300045812,11:36:41.618287,NaN,0,,0.008923743,0.032197013,0.048484832,-0.7240201,-0.263806,-0.6373393,-0.5426332,0.7882625,0.29015774,0.4258452,0.55592155,-0.71386766,,0.18901967,-0.0098361075,0.031087935,-0.7222364,0.09127816,0.6855968,0.32687366,0.91861385,0.22204107,-0.6095313,0.3844697,-0.6932928,,0.08744685,1.3322506,0.46481997,0.9960437,0.0028880716,-0.088817894,-0.053866707,-0.775297,-0.6292956,-0.0706777,0.63159025,-0.7720741,,-0.05005716,0.2502325,-0.09487433,0.71293175,0.17515543,0.67900586,-0.078510605,0.98215175,-0.1709212,-0.69682455,0.06854599,0.7139587,,0.009103906,0.42666575,-0.34609863,0.75053567,-0.28149012,-0.59787923,-0.13352813,0.8214784,-0.55438566,0.647199,0.49591988,0.57896197,,0.817404938339419,-0.2182984901557042,0.18242429912000002,0.610617115426935,-0.1541259717354168,0.4201312535762902,0.8439987897158209,,-0.8823762900102698,-0.4285885063208376,0.17955690564000001,2.0836889684057187,0.07856598736512826,0.23822772263477854,0.8675203352391572,,-0.06956664232292899,-0.09922851296057261,0.1150502548,-0.034016912529394594,,1.9978732e-05,-6.0796738e-06,6.556511e-06,1.0,-1.2565404e-05,-1.0281801e-05,1.2557954e-05,1.0,-1.1920929e-06,1.0281801e-05,1.1324883e-06,1.0,15,0.045,0,0,0.0,False,[1.04660175],[1.04956327]
0.06663362400104234,11:36:41.636022,NaN,0,,0.0089209825,0.032196745,0.04848589,-0.72401077,-0.2637999,-0.6373524,-0.5426361,0.7882615,0.29015505,0.42585737,0.55592585,-0.713857,,0.18901967,-0.0098361075,0.031087935,-0.7222364,0.09127816,0.6855968,0.32687366,0.91861385,0.22204107,-0.6095313,0.3844697,-0.6932928,,0.08744685,1.3322506,0.46481997,0.9960437,0.0028880716,-0.088817894,-0.053866707,-0.775297,-0.6292956,-0.0706777,0.63159025,-0.7720741,,-0.050054487,0.2502332,-0.09487541,0.71292156,0.17514904,0.6790182,-0.078506015,0.9821531,-0.17091525,-0.69683546,0.068542145,0.71394837,,0.009103906,0.42666575,-0.34609863,0.75053567,-0.28149012,-0.59787923,-0.13352813,0.8214784,-0.55438566,0.647199,0.49591988,0.57896197,,0.8174203838051675,-0.21830621288857843,0.18242429912000002,0.610617115426935,-0.1541259717354168,0.4201312535762902,0.8439987897158209,,-0.8823762900102698,-0.4285885063208376,0.17955690564000001,2.0836889684057187,0.07856598736512826,0.23822772263477854,0.8675203352391572,,-0.06956664232292899,-0.09922851296057261,0.1150502548,-0.034016912529394594,,1.9978732e-05,-6.0796738e-06,6.556511e-06,1.0,-1.2565404e-05,-1.0281801e-05,1.2557954e-05,1.0,-1.1920929e-06,1.0281801e-05,1.1324883e-06,1.0,26,0.078,0,0,0.0,False,[1.04636344],[1.04961155]
0.08437186499941163,11:36:41.668470,11:36:23.645295,0,,0.008921465,0.032198012,0.048485756,-0.7240133,-0.26379943,-0.63734967,-0.542637,0.7882585,0.2901615,0.42585164,0.5559304,-0.71385694,,0.1890187,-0.009836346,0.03108716,-0.7222412,0.091278955,0.68559164,0.32687038,0.9186152,0.22204036,-0.60952735,0.38446626,-0.69329816,,0.08744685,1.3322506,0.46481997,0.9960437,0.0028880716,-0.088817894,-0.053866707,-0.775297,-0.6292956,-0.0706777,0.63159025,-0.7720741,,-0.05005502,0.25023404,-0.09487447,0.7129247,0.17514835,0.67901504,-0.0785101,0.98215365,-0.1709105,-0.69683176,0.06853679,0.7139525,,0.009104986,0.42666528,-0.34609833,0.75054026,-0.28149056,-0.5978733,-0.13352597,0.8214764,-0.5543892,0.6471941,0.49592298,0.57896477,,0.8174203838051675,-0.2182984901557042,0.18242429912000002,0.610617115426935,-0.1541259717354168,0.4201312535762902,0.8439987897158209,,-0.8823685672773955,-0.4285885063208376,0.17955690564000001,2.0836889684057187,0.07856598736512826,0.23822772263477854,0.8675203352391572,,-0.06956664232292899,-0.09922851296057261,0.1150502548,-0.034016912529394594,,1.9978732e-05,-6.0796738e-06,6.556511e-06,1.0,-1.2565404e-05,-1.0281801e-05,1.2557954e-05,1.0,-1.1920929e-06,1.0281801e-05,1.1324883e-06,1.0,33,0.099,0,0,0.0,False,[1.04618471],[1.05019091]
0.11682522800037987,11:36:41.695281,11:36:23.645295,0,,0.008921465,0.032198012,0.048485756,-0.7240133,-0.26379943,-0.63734967,-0.542637,0.7882585,0.2901615,0.42585164,0.5559304,-0.71385694,,0.18901967,-0.0098361075,0.031087935,-0.7222364,0.09127816,0.6855968,0.32687366,0.91861385,0.22204107,-0.6095313,0.3844697,-0.6932928,,0.08744685,1.3322506,0.46481997,0.9960437,0.0028880716,-0.088817894,-0.053866707,-0.775297,-0.6292956,-0.0706777,0.63159025,-0.7720741,,-0.05005502,0.25023404,-0.09487447,0.7129247,0.17514835,0.67901504,-0.0785101,0.98215365,-0.1709105,-0.69683176,0.06853679,0.7139525,,0.009103906,0.42666575,-0.34609863,0.75053567,-0.28149012,-0.59787923,-0.13352813,0.8214784,-0.55438566,0.647199,0.49591988,0.57896197,,0.8174203838051675,-0.2182984901557042,0.18242429912000002,0.610617115426935,-0.1541259717354168,0.4201312535762902,0.8439987897158209,,-0.8823762900102698,-0.4285885063208376,0.17955690564000001,2.0836889684057187,0.07856598736512826,0.23822772263477854,0.8675203352391572,,-0.06956664232292899,-0.09922851296057261,0.1150502548,-0.034016912529394594,,1.9978732e-05,-6.0796738e-06,6.556511e-06,1.0,-1.2565404e-05,-1.0281801e-05,1.2557954e-05,1.0,-1.1920929e-06,1.0281801e-05,1.1324883e-06,1.0,45,0.136,0,0,0.0,False,[1.04624429],[1.04937015]
0.1436357410002529,11:36:41.732421,11:36:23.645295,0,,0.008922603,0.03219752,0.04848528,-0.7240167,-0.26380268,-0.6373445,-0.54263514,0.78826046,0.29015964,0.42584845,0.55592597,-0.7138623,,0.1890187,-0.009836346,0.03108716,-0.7222412,0.09122293,0.685599,0.32687038,0.91859704,0.2221154,-0.60952735,0.38452286,-0.69326675,,0.08744685,1.3322506,0.46481997,0.9960437,0.0028880716,-0.088817894,-0.053866707,-0.775297,-0.6292956,-0.0706777,0.63159025,-0.7720741,,-0.05005609,0.25023326,-0.0948744,0.71292824,0.17515188,0.67901045,-0.07851035,0.9821527,-0.17091586,-0.6968282,0.06854139,0.7139556,,0.009104986,0.42666528,-0.34609833,0.75054026,-0.28144172,-0.5978962,-0.13352597,0.82152164,-0.55432206,0.6471941,0.4958757,0.5790053,,0.8174126610722933,-0.2182984901557042,0.18242429912000002,0.610617115426935,-0.1541259717354168,0.4201312535762902,0.8439987897158209,,-0.8823685672773955,-0.4285885063208376,0.17955690564000001,2.0836889684057187,0.07856598736512826,0.23830940137491907,0.8676836793052913,,-0.06956664232292899,-0.09922851296057261,0.1150502548,-0.034016912529394594,,1.9978732e-05,-6.0796738e-06,6.556511e-06,1.0,-1.2565404e-05,-1.0281801e-05,1.2557954e-05,1.0,-1.1920929e-06,1.0281801e-05,1.1324883e-06,1.0,60,0.181,0,0,0.0,False,[1.04618471],[1.04980467]
0.1807737780000025,11:36:41.771859,11:36:23.645295,0,,0.008922122,0.03219624,0.048485428,-0.724014,-0.26380318,-0.63734734,-0.5426342,0.78826344,0.2901532,0.42585418,0.55592144,-0.7138624,,0.1890187,-0.009836346,0.03108716,-0.7222412,0.091166966,0.6856065,0.32687038,0.91857886,0.22219044,-0.60952735,0.38457948,-0.6932353,,0.08744685,1.3322506,0.46481997,0.9960437,0.0028880716,-0.088817894,-0.053866707,-0.775297,-0.6292956,-0.0706777,0.63159025,-0.7720741,,-0.050055556,0.25023243,-0.09487534,0.712925,0.17515258,0.6790136,-0.07850627,0.98215216,-0.1709206,-0.6968319,0.06854674,0.71395147,,0.009104986,0.42666528,-0.34609833,0.75054026,-0.2813929,-0.5979192,-0.13352597,0.82156694,-0.55425495,0.6471941,0.4958284,0.5790458,,0.8174126610722933,-0.21830621288857843,0.18242429912000002,0.610617115426935,-0.1541259717354168,0.4201312535762902,0.8439987897158209,,-0.8823685672773955,-0.4285885063208376,0.17955690564000001,2.0836889684057187,0.07856598736512826,0.23839108011505966,0.8678470233714256,,-0.06956664232292899,-0.09922851296057261,0.1150502548,-0.034016912529394594,,1.9978732e-05,-6.0796738e-06,6.556511e-06,1.0,-1.2565404e-05,-1.0281801e-05,1.2557954e-05,1.0,-1.1920929e-06,1.0281801e-05,1.1324883e-06,1.0,68,0.205,0,0,0.0,False,[1.04642302],[1.04975639]
0.22018105300048774,11:36:41.796484,11:36:23.761431,0,,0.008922603,0.03219752,0.04848528,-0.7240167,-0.26380268,-0.6373445,-0.54263514,0.78826046,0.29015964,0.42584845,0.55592597,-0.7138623,,0.1890187,-0.009836346,0.03108716,-0.7222412,0.091166966,0.6856065,0.32687038,0.91857886,0.22219044,-0.60952735,0.38457948,-0.6932353,,0.08744685,1.3322506,0.46481997,0.9960437,0.0028880716,-0.088817894,-0.053866707,-0.775297,-0.6292956,-0.0706777,0.63159025,-0.7720741,,-0.05005609,0.25023326,-0.0948744,0.71292824,0.17515188,0.67901045,-0.07851035,0.9821527,-0.17091586,-0.6968282,0.06854139,0.7139556,,0.009104986,0.42666528,-0.34609833,0.75054026,-0.2813929,-0.5979192,-0.13352597,0.82156694,-0.55425495,0.6471941,0.4958284,0.5790458,,0.8174126610722933,-0.2182984901557042,0.18242429912000002,0.610617115426935,-0.1541259717354168,0.4201312535762902,0.8439987897158209,,-0.8823685672773955,-0.4285885063208376,0.17955690564000001,2.0836889684057187,0.07856598736512826,0.23839108011505966,0.8678470233714256,,-0.06956664232292899,-0.09922851296057261,0.1150502548,-0.034016912529394594,,1.9978732e-05,-6.0796738e-06,6.556511e-06,1.0,-1.2565404e-05,-1.0281801e-05,1.2557954e-05,1.0,-1.1920929e-06,1.0281801e-05,1.1324883e-06,1.0,76,0.23,0,0,0.0,False,[1.04689964],[1.04975639]
0.24480148600014218,11:36:41.821672,11:36:23.761431,0,,0.008923743,0.032197013,0.048484832,-0.7240201,-0.263806,-0.6373393,-0.5426332,0.7882625,0.29015774,0.4258452,0.55592155,-0.71386766,,0.18901774,-0.00983654,0.031086504,-0.722246,0.09116775,0.6856013,0.32686704,0.91858023,0.22218972,-0.60952336,0.3845761,-0.69324064,,0.08744685,1.3322506,0.46481997,0.9960437,0.0028880716,-0.088817894,-0.053866707,-0.775297,-0.6292956,-0.0706777,0.63159025,-0.7720741,,-0.05005716,0.2502325,-0.09487433,0.71293175,0.17515543,0.67900586,-0.078510605,0.98215175,-0.1709212,-0.69682455,0.06854599,0.7139587,,0.009106066,0.4266648,-0.34609807,0.75054485,-0.28139335,-0.59791327,-0.13352379,0.8215649,-0.55425847,0.6471892,0.4958315,0.5790486,,0.817404938339419,-0.2182984901557042,0.18242429912000002,0.610617115426935,-0.1541259717354168,0.4201312535762902,0.8439987897158209,,-0.8823608445445213,-0.4285885063208376,0.17955690564000001,2.0836889684057187,0.07856598736512826,0.23839108011505966,0.8678470233714256,,-0.06956664232292899,-0.09922851296057261,0.1150502548,-0.034016912529394594,,1.9978732e-05,-6.0796738e-06,6.556511e-06,1.0,-1.2565404e-05,-1.0281801e-05,1.2557954e-05,1.0,-1.1920929e-06,1.0281801e-05,1.1324883e-06,1.0,83,0.25,0,0,0.0,False,[1.04642302],[1.04961155]
0.27002524899944547,11:36:41.841748,11:36:23.761431,0,,0.008923743,0.032197013,0.048484832,-0.7240201,-0.263806,-0.6373393,-0.5426332,0.7882625,0.29015774,0.4258452,0.55592155,-0.71386766,,0.1890187,-0.009836346,0.03108716,-0.7222412,0.091166966,0.6856065,0.32687038,0.91857886,0.22219044,-0.60952735,0.38457948,-0.6932353,,0.08744685,1.3322506,0.46481997,0.9960437,0.0028880716,-0.088817894,-0.053866707,-0.775297,-0.6292956,-0.0706777,0.63159025,-0.7720741,,-0.05005716,0.2502325,-0.09487433,0.71293175,0.17515543,0.67900586,-0.078510605,0.98215175,-0.1709212,-0.69682455,0.06854599,0.7139587,,0.009104986,0.42666528,-0.34609833,0.75054026,-0.2813929,-0.5979192,-0.13352597,0.82156694,-0.55425495,0.6471941,0.4958284,0.5790458,,0.817404938339419,-0.2182984901557042,0.18242429912000002,0.610617115426935,-0.1541259717354168,0.4201312535762902,0.8439987897158209,,-0.8823685672773955,-0.4285885063208376,0.17955690564000001,2.0836889684057187,0.07856598736512826,0.23839108011505966,0.8678470233714256,,-0.06956664232292899,-0.09922851296057261,0.1150502548,-0.034016912529394594,,1.9978732e-05,-6.0796738e-06,6.556511e-06,1.0,-1.2565404e-05,-1.0281801e-05,1.2557954e-05,1.0,-1.1920929e-06,1.0281801e-05,1.1324883e-06,1.0,91,0.275,0,0,0.0,False,[1.04666133],[1.04994951]
0.29007194000041636,11:36:41.866853,11:36:23.761431,0,,0.008923743,0.032197013,0.048484832,-0.7240201,-0.263806,-0.6373393,-0.5426332,0.7882625,0.29015774,0.4258452,0.55592155,-0.71386766,,0.18901967,-0.0098361075,0.031087935,-0.7222364,0.091166146,0.68561167,0.32687366,0.91857755,0.22219115,-0.6095313,0.38458288,-0.69323,,0.08744685,1.3322506,0.46481997,0.9960437,0.0028880716,-0.088817894,-0.053866707,-0.775297,-0.6292956,-0.0706777,0.63159025,-0.7720741,,-0.05005716,0.2502325,-0.09487433,0.71293175,0.17515543,0.67900586,-0.078510605,0.98215175,-0.1709212,-0.69682455,0.06854599,0.7139587,,0.009103906,0.42666575,-0.34609863,0.75053567,-0.28139243,-0.5979252,-0.13352813,0.82156897,-0.55425143,0.647199,0.49582532,0.579043,,0.817404938339419,-0.2182984901557042,0.18242429912000002,0.610617115426935,-0.1541259717354168,0.4201312535762902,0.8439987897158209,,-0.8823762900102698,-0.4285885063208376,0.17955690564000001,2.0836889684057187,0.07856598736512826,0.23839108011505966,0.8678470233714256,,-0.06956664232292899,-0.09922851296057261,0.1150502548,-0.034016912529394594,,1.9978732e-05,-6.0796738e-06,6.556511e-06,1.0,-1.2565404e-05,-1.0281801e-05,1.2557954e-05,1.0,-1.1920929e-06,1.0281801e-05,1.1324883e-06,1.0,99,0.299,0,0,0.0,False,[1.04618471],[1.04951499]
0.31517451900072047,11:36:41.886969,11:36:23.761431,0,,0.0089232605,0.03219576,0.04848498,-0.7240174,-0.26380646,-0.6373421,-0.5426322,0.78826547,0.2901513,0.42585093,0.555917,-0.7138678,,0.1890187,-0.009836346,0.03108716,-0.7222412,0.091166966,0.6856065,0.32687038,0.91857886,0.22219044,-0.60952735,0.38457948,-0.6932353,,0.08744685,1.3322506,0.46481997,0.9960437,0.0028880716,-0.088817894,-0.053866707,-0.775297,-0.6292956,-0.0706777,0.63159025,-0.7720741,,-0.050056625,0.25023165,-0.09487527,0.71292853,0.17515612,0.679009,-0.07850652,0.9821512,-0.17092595,-0.69682825,0.06855135,0.71395457,,0.009104986,0.42666528,-0.34609833,0.75054026,-0.2813929,-0.5979192,-0.13352597,0.82156694,-0.55425495,0.6471941,0.4958284,0.5790458,,0.817404938339419,-0.21830621288857843,0.18242429912000002,0.610617115426935,-0.1541259717354168,0.4201312535762902,0.8439987897158209,,-0.8823685672773955,-0.4285885063208376,0.17955690564000001,2.0836889684057187,0.07856598736512826,0.23839108011505966,0.8678470233714256,,-0.06956664232292899,-0.09922851296057261,0.1150502548,-0.034016912529394594,,1.9978732e-05,-6.0796738e-06,6.556511e-06,1.0,-1.2565404e-05,-1.0281801e-05,1.2557954e-05,1.0,-1.1920929e-06,1.0281801e-05,1.1324883e-06,1.0,110,0.332,0,0,0.0,False,[1.04672091],[1.04990123]
0.3353237720002653,11:36:41.925267,11:36:23.761431,0,,0.008923743,0.032197013,0.048484832,-0.7240201,-0.263806,-0.6373393,-0.5426332,0.7882625,0.29015774,0.4258452,0.55592155,-0.71386766,,0.1890187,-0.009836346,0.03108716,-0.7222412,0.091166966,0.6856065,0.32687038,0.91857886,0.22219044,-0.60952735,0.38457948,-0.6932353,,0.08744685,1.3322506,0.46481997,0.9960437,0.0028880716,-0.088817894,-0.053866707,-0.775297,-0.6292956,-0.0706777,0.63159025,-0.7720741,,-0.05005716,0.2502325,-0.09487433,0.71293175,0.17515543,0.67900586,-0.078510605,0.98215175,-0.1709212,-0.69682455,0.06854599,0.7139587,,0.009104986,0.42666528,-0.34609833,0.75054026,-0.2813929,-0.5979192,-0.13352597,0.82156694,-0.55425495,0.6471941,0.4958284,0.5790458,,0.817404938339419,-0.2182984901557042,0.18242429912000002,0.610617115426935,-0.1541259717354168,0.4201312535762902,0.8439987897158209,,-0.8823685672773955,-0.4285885063208376,0.17955690564000001,2.0836889684057187,0.07856598736512826,0.23839108011505966,0.8678470233714256,,-0.06956664232292899,-0.09922851296057261,0.1150502548,-0.034016912529394594,,1.9978732e-05,-6.0796738e-06,6.556511e-06,1.0,-1.2565404e-05,-1.0281801e-05,1.2557954e-05,1.0,-1.1920929e-06,1.0281801e-05,1.1324883e-06,1.0,125,0.377,0,0,0.0,False,[1.04672091],[1.04961155]
0.37359948700031964,11:36:41.969969,11:36:23.936532,0,,0.008921465,0.032198012,0.048485756,-0.7240133,-0.26379943,-0.63734967,-0.542637,0.7882585,0.2901615,0.42585164,0.5559304,-0.71385694,,0.1890187,-0.009836346,0.03108716,-0.7222412,0.091166966,0.6856065,0.32687038,0.91857886,0.22219044,-0.60952735,0.38457948,-0.6932353,,0.08744685,1.3322506,0.46481997,0.9960437,0.0028880716,-0.088817894,-0.053866707,-0.775297,-0.6292956,-0.0706777,0.63159025,-0.7720741,,-0.05005502,0.25023404,-0.09487447,0.7129247,0.17514835,0.67901504,-0.0785101,0.98215365,-0.1709105,-0.69683176,0.06853679,0.7139525,,0.009104986,0.42666528,-0.34609833,0.75054026,-0.2813929,-0.5979192,-0.13352597,0.82156694,-0.55425495,0.6471941,0.4958284,0.5790458,,0.8174203838051675,-0.2182984901557042,0.18242429912000002,0.610617115426935,-0.1541259717354168,0.4201312535762902,0.8439987897158209,,-0.8823685672773955,-0.4285885063208376,0.17955690564000001,2.0836889684057187,0.07856598736512826,0.23839108011505966,0.8678470233714256,,-0.06956664232292899,-0.09922851296057261,0.1150502548,-0.034016912529394594,,1.9978732e-05,-6.0796738e-06,6.556511e-06,1.0,-1.2565404e-05,-1.0281801e-05,1.2557954e-05,1.0,-1.1920929e-06,1.0281801e-05,1.1324883e-06,1.0,132,0.398,0,0,0.0,False,[1.04678049],[1.04961155]
0.4183173430010356,11:36:41.996234,11:36:23.936532,0,,0.008922603,0.03219752,0.04848528,-0.7240167,-0.26380268,-0.6373445,-0.54263514,0.78826046,0.29015964,0.42584845,0.55592597,-0.7138623,,0.18901774,-0.00983654,0.031086504,-0.722246,0.09116775,0.6856013,0.32686704,0.91858023,0.22218972,-0.60952336,0.3845761,-0.69324064,,0.08744685,1.3322506,0.46481997,0.9960437,0.0028880716,-0.088817894,-0.053866707,-0.775297,-0.6292956,-0.0706777,0.63159025,-0.7720741,,-0.05005609,0.25023326,-0.0948744,0.71292824,0.17515188,0.67901045,-0.07851035,0.9821527,-0.17091586,-0.6968282,0.06854139,0.7139556,,0.009106066,0.4266648,-0.34609807,0.75054485,-0.28139335,-0.59791327,-0.13352379,0.8215649,-0.55425847,0.6471892,0.4958315,0.5790486,,0.8174126610722933,-0.2182984901557042,0.18242429912000002,0.610617115426935,-0.1541259717354168,0.4201312535762902,0.8439987897158209,,-0.8823608445445213,-0.4285885063208376,0.17955690564000001,2.0836889684057187,0.07856598736512826,0.23839108011505966,0.8678470233714256,,-0.06956664232292899,-0.09922851296057261,0.1150502548,-0.034016912529394594,,1.9978732e-05,-6.0796738e-06,6.556511e-06,1.0,-1.2565404e-05,-1.0281801e-05,1.2557954e-05,1.0,-1.1920929e-06,1.0281801e-05,1.1324883e-06,1.0,143,0.43,0,0,0.0,False,[1.04630387],[1.04951499]
0.4445830629992997,11:36:42.026022,11:36:23.936532,0,,0.008922122,0.03219624,0.048485428,-0.724014,-0.26380318,-0.63734734,-0.5426342,0.78826344,0.2901532,0.42585418,0.55592144,-0.7138624,,0.18902063,-0.009835914,0.03108859,-0.72223157,0.09116538,0.68561685,0.32687685,0.91857624,0.22219186,-0.6095352,0.38458624,-0.69322467,,0.08744685,1.3322506,0.46481997,0.9960437,0.0028880716,-0.088817894,-0.053866707,-0.775297,-0.6292956,-0.0706777,0.63159025,-0.7720741,,-0.050055556,0.25023243,-0.09487534,0.712925,0.17515258,0.6790136,-0.07850627,0.98215216,-0.1709206,-0.6968319,0.06854674,0.71395147,,0.009102827,0.42666623,-0.3460989,0.7505311,-0.28139198,-0.59793115,-0.1335303,0.821571,-0.5542479,0.6472038,0.49582222,0.57904017,,0.8174126610722933,-0.21830621288857843,0.18242429912000002,0.610617115426935,-0.1541259717354168,0.4201312535762902,0.8439987897158209,,-0.882384012743144,-0.4285885063208376,0.17955690564000001,2.0836889684057187,0.07856598736512826,0.23839108011505966,0.8678470233714256,,-0.06956664232292899,-0.09922851296057261,0.1150502548,-0.034016912529394594,,1.9978732e-05,-6.0796738e-06,6.556511e-06,1.0,-1.2565404e-05,-1.0281801e-05,1.2557954e-05,1.0,-1.1920929e-06,1.0281801e-05,1.1324883e-06,1.0,154,0.463,0,0,0.0,False,[1.04618471],[1.04908047]
0.4743619660002878,11:36:42.055758,11:36:23.936532,0,,0.008922603,0.03219752,0.04848528,-0.7240167,-0.26380268,-0.6373445,-0.54263514,0.78826046,0.29015964,0.42584845,0.55592597,-0.7138623,,0.18901967,-0.0098361075,0.031087935,-0.7222364,0.091166146,0.68561167,0.32687366,0.91857755,0.22219115,-0.6095313,0.38458288,-0.69323,,0.08744685,1.3322506,0.46481997,0.9960437,0.0028880716,-0.088817894,-0.053866707,-0.775297,-0.6292956,-0.0706777,0.63159025,-0.7720741,,-0.05005609,0.25023326,-0.0948744,0.71292824,0.17515188,0.67901045,-0.07851035,0.9821527,-0.17091586,-0.6968282,0.06854139,0.7139556,,0.009103906,0.42666575,-0.34609863,0.75053567,-0.28139243,-0.5979252,-0.13352813,0.82156897,-0.55425143,0.647199,0.49582532,0.579043,,0.8174126610722933,-0.2182984901557042,0.18242429912000002,0.610617115426935,-0.1541259717354168,0.4201312535762902,0.8439987897158209,,-0.8823762900102698,-0.4285885063208376,0.17955690564000001,2.0836889684057187,0.07856598736512826,0.23839108011505966,0.8678470233714256,,-0.06956664232292899,-0.09922851296057261,0.1150502548,-0.034016912529394594,,1.9978732e-05,-6.0796738e-06,6.556511e-06,1.0,-1.2565404e-05,-1.0281801e-05,1.2557954e-05,1.0,-1.1920929e-06,1.0281801e-05,1.1324883e-06,1.0,165,0.496,0,0,0.0,False,[1.0464826],[1.04985295]
0.5040788509995764,11:36:42.086840,11:36:24.084782,0,,0.008923743,0.032197013,0.048484832,-0.7240201,-0.263806,-0.6373393,-0.5426332,0.7882625,0.29015774,0.4258452,0.55592155,-0.71386766,,0.18901774,-0.00983654,0.031086504,-0.722246,0.09116775,0.6856013,0.32686704,0.91858023,0.22218972,-0.60952336,0.3845761,-0.69324064,,0.08744685,1.3322506,0.46481997,0.9960437,0.0028880716,-0.088817894,-0.053866707,-0.775297,-0.6292956,-0.0706777,0.63159025,-0.7720741,,-0.05005716,0.2502325,-0.09487433,0.71293175,0.17515543,0.67900586,-0.078510605,0.98215175,-0.1709212,-0.69682455,0.06854599,0.7139587,,0.009106066,0.4266648,-0.34609807,0.75054485,-0.28139335,-0.59791327,-0.13352379,0.8215649,-0.55425847,0.6471892,0.4958315,0.5790486,,0.817404938339419,-0.2182984901557042,0.18242429912000002,0.610617115426935,-0.1541259717354168,0.4201312535762902,0.8439987897158209,,-0.8823608445445213,-0.4285885063208376,0.17955690564000001,2.0836889684057187,0.07856598736512826,0.23839108011505966,0.8678470233714256,,-0.06956664232292899,-0.09922851296057261,0.1150502548,-0.034016912529394594,,1.9978732e-05,-6.0796738e-06,6.556511e-06,1.0,-1.2565404e-05,-1.0281801e-05,1.2557954e-05,1.0,-1.1920929e-06,1.0281801e-05,1.1324883e-06,1.0,176,0.529,0,0,0.0,False,[1.04678049],[1.04951499]
0.5351635429997259,11:36:42.119565,11:36:24.084782,0,,0.0089209825,0.032196745,0.04848589,-0.72401077,-0.2637999,-0.6373524,-0.5426361,0.7882615,0.29015505,0.42585737,0.55592585,-0.713857,,0.18902063,-0.009835914,0.03108859,-0.72223157,0.09116538,0.68561685,0.32687685,0.91857624,0.22219186,-0.6095352,0.38458624,-0.69322467,,0.08744685,1.3322506,0.46481997,0.9960437,0.0028880716,-0.088817894,-0.053866707,-0.775297,-0.6292956,-0.0706777,0.63159025,-0.7720741,,-0.050054487,0.2502332,-0.09487541,0.71292156,0.17514904,0.6790182,-0.078506015,0.9821531,-0.17091525,-0.69683546,0.068542145,0.71394837,,0.009102827,0.42666623,-0.3460989,0.7505311,-0.28139198,-0.59793115,-0.1335303,0.821571,-0.5542479,0.6472038,0.49582222,0.57904017,,0.8174203838051675,-0.21830621288857843,0.18242429912000002,0.610617115426935,-0.1541259717354168,0.4201312535762902,0.8439987897158209,,-0.882384012743144,-0.4285885063208376,0.17955690564000001,2.0836889684057187,0.07856598736512826,0.23839108011505966,0.8678470233714256,,-0.06956664232292899,-0.09922851296057261,0.1150502548,-0.034016912529394594,,1.9978732e-05,-6.0796738e-06,6.556511e-06,1.0,-1.2565404e-05,-1.0281801e-05,1.2557954e-05,1.0,-1.1920929e-06,1.0281801e-05,1.1324883e-06,1.0,187,0.562,0,0,0.0,False,[1.04624429],[1.04922531]
0.5679212710001593,11:36:42.149650,11:36:24.084782,0,,0.008921465,0.032198012,0.048485756,-0.7240133,-0.26379943,-0.63734967,-0.542637,0.7882585,0.2901615,0.42585164,0.5559304,-0.71385694,,0.1890187,-0.009836346,0.03108716,-0.7222412,0.091166966,0.6856065,0.32687038,0.91857886,0.22219044,-0.60952735,0.38457948,-0.6932353,,0.08744685,1.3322506,0.46481997,0.9960437,0.0028880716,-0.088817894,-0.053866707,-0.775297,-0.6292956,-0.0706777,0.63159025,-0.7720741,,-0.05005502,0.25023404,-0.09487447,0.7129247,0.17514835,0.67901504,-0.0785101,0.98215365,-0.1709105,-0.69683176,0.06853679,0.7139525,,0.009104986,0.42666528,-0.34609833,0.75054026,-0.2813929,-0.5979192,-0.13352597,0.82156694,-0.55425495,0.6471941,0.4958284,0.5790458,,0.8174203838051675,-0.2182984901557042,0.18242429912000002,0.610617115426935,-0.1541259717354168,0.4201312535762902,0.8439987897158209,,-0.8823685672773955,-0.4285885063208376,0.17955690564000001,2.0836889684057187,0.07856598736512826,0.23839108011505966,0.8678470233714256,,-0.06956664232292899,-0.09922851296057261,0.1150502548,-0.034016912529394594,,1.9978732e-05,-6.0796738e-06,6.556511e-06,1.0,-1.2565404e-05,-1.0281801e-05,1.2557954e-05,1.0,-1.1920929e-06,1.0281801e-05,1.1324883e-06,1.0,198,0.594,0,0,0.0,False,[1.04636344],[1.04980467]
0.5980025219996605,11:36:42.185918,11:36:24.084782,0,,0.008922603,0.03219752,0.04848528,-0.7240167,-0.26380268,-0.6373445,-0.54263514,0.78826046,0.29015964,0.42584845,0.55592597,-0.7138623,,0.18901967,-0.0098361075,0.031087935,-0.7222364,0.091166146,0.68561167,0.32687366,0.91857755,0.22219115,-0.6095313,0.38458288,-0.69323,,0.08744685,1.3322506,0.46481997,0.9960437,0.0028880716,-0.088817894,-0.053866707,-0.775297,-0.6292956,-0.0706777,0.63159025,-0.7720741,,-0.05005609,0.25023326,-0.0948744,0.71292824,0.17515188,0.67901045,-0.07851035,0.9821527,-0.17091586,-0.6968282,0.06854139,0.7139556,,0.009103906,0.42666575,-0.34609863,0.75053567,-0.28139243,-0.5979252,-0.13352813,0.82156897,-0.55425143,0.647199,0.49582532,0.579043,,0.8174126610722933,-0.2182984901557042,0.18242429912000002,0.610617115426935,-0.1541259717354168,0.4201312535762902,0.8439987897158209,,-0.8823762900102698,-0.4285885063208376,0.17955690564000001,2.0836889684057187,0.07856598736512826,0.23839108011505966,0.8678470233714256,,-0.06956664232292899,-0.09922851296057261,0.1150502548,-0.034016912529394594,,1.9978732e-05,-6.0796738e-06,6.556511e-06,1.0,-1.2565404e-05,-1.0281801e-05,1.2557954e-05,1.0,-1.1920929e-06,1.0281801e-05,1.1324883e-06,1.0,209,0.627,0,0,0.0,False,[1.04636344],[1.04888734]
0.6342701510002371,11:36:42.220424,11:36:24.084782,0,,0.008922122,0.03219624,0.048485428,-0.724014,-0.26380318,-0.63734734,-0.5426342,0.78826344,0.2901532,0.42585418,0.55592144,-0.7138624,,0.1890187,-0.009836346,0.03108716,-0.7222412,0.091166966,0.6856065,0.32687038,0.91857886,0.22219044,-0.60952735,0.38457948,-0.6932353,,0.08744685,1.3322506,0.46481997,0.9960437,0.0028880716,-0.088817894,-0.053866707,-0.775297,-0.6292956,-0.0706777,0.63159025,-0.7720741,,-0.050055556,0.25023243,-0.09487534,0.712925,0.17515258,0.6790136,-0.07850627,0.98215216,-0.1709206,-0.6968319,0.06854674,0.71395147,,0.009104986,0.42666528,-0.34609833,0.75054026,-0.2813929,-0.5979192,-0.13352597,0.82156694,-0.55425495,0.6471941,0.4958284,0.5790458,,0.8174126610722933,-0.21830621288857843,0.18242429912000002,0.610617115426935,-0.1541259717354168,0.4201312535762902,0.8439987897158209,,-0.8823685672773955,-0.4285885063208376,0.17955690564000001,2.0836889684057187,0.07856598736512826,0.23839108011505966,0.8678470233714256,,-0.06956664232292899,-0.09922851296057261,0.1150502548,-0.034016912529394594,,1.9978732e-05,-6.0796738e-06,6.556511e-06,1.0,-1.2565404e-05,-1.0281801e-05,1.2557954e-05,1.0,-1.1920929e-06,1.0281801e-05,1.1324883e-06,1.0,220,0.66,0,0,0.0,False,[1.04636344],[1.04951499]
0.6687790359992505,11:36:42.254748,11:36:24.084782,0,,0.008921465,0.032198012,0.048485756,-0.7240133,-0.26379943,-0.63734967,-0.542637,0.7882585,0.2901615,0.42585164,0.5559304,-0.71385694,,0.18901967,-0.0098361075,0.031087935,-0.7222364,0.091166146,0.68561167,0.32687366,0.91857755,0.22219115,-0.6095313,0.38458288,-0.69323,,0.08744685,1.3322506,0.46481997,0.9960437,0.0028880716,-0.088817894,-0.053866707,-0.775297,-0.6292956,-0.0706777,0.63159025,-0.7720741,,-0.05005502,0.25023404,-0.09487447,0.7129247,0.17514835,0.67901504,-0.0785101,0.98215365,-0.1709105,-0.69683176,0.06853679,0.7139525,,0.009103906,0.42666575,-0.34609863,0.75053567,-0.28139243,-0.5979252,-0.13352813,0.82156897,-0.55425143,0.647199,0.49582532,0.579043,,0.8174203838051675,-0.2182984901557042,0.18242429912000002,0.610617115426935,-0.1541259717354168,0.4201312535762902,0.8439987897158209,,-0.8823762900102698,-0.4285885063208376,0.17955690564000001,2.0836889684057187,0.07856598736512826,0.23839108011505966,0.8678470233714256,,-0.06956664232292899,-0.09922851296057261,0.1150502548,-0.034016912529394594,,1.9978732e-05,-6.0796738e-06,6.556511e-06,1.0,-1.2565404e-05,-1.0281801e-05,1.2557954e-05,1.0,-1.1920929e-06,1.0281801e-05,1.1324883e-06,1.0,231,0.693,0,0,0.0,False,[1.04618471],[1.04937015]
0.7031035020008858,11:36:42.280782,11:36:24.084782,0,,0.008922603,0.03219752,0.04848528,-0.7240167,-0.26380268,-0.6373445,-0.54263514,0.78826046,0.29015964,0.42584845,0.55592597,-0.7138623,,0.18901967,-0.0098361075,0.031087935,-0.7222364,0.091166146,0.68561167,0.32687366,0.91857755,0.22219115,-0.6095313,0.38458288,-0.69323,,0.08744685,1.3322506,0.46481997,0.9960437,0.0028880716,-0.088817894,-0.053866707,-0.775297,-0.6292956,-0.0706777,0.63159025,-0.7720741,,-0.05005609,0.25023326,-0.0948744,0.71292824,0.17515188,0.67901045,-0.07851035,0.9821527,-0.17091586,-0.6968282,0.06854139,0.7139556,,0.009103906,0.42666575,-0.34609863,0.75053567,-0.28139243,-0.5979252,-0.13352813,0.82156897,-0.55425143,0.647199,0.49582532,0.579043,,0.8174126610722933,-0.2182984901557042,0.18242429912000002,0.610617115426935,-0.1541259717354168,0.4201312535762902,0.8439987897158209,,-0.8823762900102698,-0.4285885063208376,0.17955690564000001,2.0836889684057187,0.07856598736512826,0.23839108011505966,0.8678470233714256,,-0.06956664232292899,-0.09922851296057261,0.1150502548,-0.034016912529394594,,1.9978732e-05,-6.0796738e-06,6.556511e-06,1.0,-1.2565404e-05,-1.0281801e-05,1.2557954e-05,1.0,-1.1920929e-06,1.0281801e-05,1.1324883e-06,1.0,242,0.725,0,0,0.0,False,[1.04642302],[1.04975639]
0.7291280000008555,11:36:42.318455,11:36:24.291297,0,,0.008923743,0.032197013,0.048484832,-0.7240201,-0.263806,-0.6373393,-0.5426332,0.7882625,0.29015774,0.4258452,0.55592155,-0.71386766,,0.18902063,-0.009835914,0.03108859,-0.72223157,0.09116538,0.68561685,0.32687685,0.91857624,0.22219186,-0.6095352,0.38458624,-0.69322467,,0.08744685,1.3322506,0.46481997,0.9960437,0.0028880716,-0.088817894,-0.053866707,-0.775297,-0.6292956,-0.0706777,0.63159025,-0.7720741,,-0.05005716,0.2502325,-0.09487433,0.71293175,0.17515543,0.67900586,-0.078510605,0.98215175,-0.1709212,-0.69682455,0.06854599,0.7139587,,0.009102827,0.42666623,-0.3460989,0.7505311,-0.28139198,-0.59793115,-0.1335303,0.821571,-0.5542479,0.6472038,0.49582222,0.57904017,,0.817404938339419,-0.2182984901557042,0.18242429912000002,0.610617115426935,-0.1541259717354168,0.4201312535762902,0.8439987897158209,,-0.882384012743144,-0.4285885063208376,0.17955690564000001,2.0836889684057187,0.07856598736512826,0.23839108011505966,0.8678470233714256,,-0.06956664232292899,-0.09922851296057261,0.1150502548,-0.034016912529394594,,1.9978732e-05,-6.0796738e-06,6.556511e-06,1.0,-1.2565404e-05,-1.0281801e-05,1.2557954e-05,1.0,-1.1920929e-06,1.0281801e-05,1.1324883e-06,1.0,253,0.758,0,0,0.0,False,[1.04672091],[1.04985295]
0.7668084990000352,11:36:42.349331,11:36:24.291297,0,,0.008923743,0.032197013,0.048484832,-0.7240201,-0.263806,-0.6373393,-0.5426332,0.7882625,0.29015774,0.4258452,0.55592155,-0.71386766,,0.18901967,-0.0098361075,0.031087935,-0.7222364,0.091166146,0.68561167,0.32687366,0.91857755,0.22219115,-0.6095313,0.38458288,-0.69323,,0.08744685,1.3322506,0.46481997,0.9960437,0.0028880716,-0.088817894,-0.053866707,-0.775297,-0.6292956,-0.0706777,0.63159025,-0.7720741,,-0.05005716,0.2502325,-0.09487433,0.71293175,0.17515543,0.67900586,-0.078510605,0.98215175,-0.1709212,-0.69682455,0.06854599,0.7139587,,0.009103906,0.42666575,-0.34609863,0.75053567,-0.28139243,-0.5979252,-0.13352813,0.82156897,-0.55425143,0.647199,0.49582532,0.579043,,0.817404938339419,-0.2182984901557042,0.18242429912000002,0.610617115426935,-0.1541259717354168,0.4201312535762902,0.8439987897158209,,-0.8823762900102698,-0.4285885063208376,0.17955690564000001,2.0836889684057187,0.07856598736512826,0.23839108011505966,0.8678470233714256,,-0.06956664232292899,-0.09922851296057261,0.1150502548,-0.034016912529394594,,1.9978732e-05,-6.0796738e-06,6.556511e-06,1.0,-1.2565404e-05,-1.0281801e-05,1.2557954e-05,1.0,-1.1920929e-06,1.0281801e-05,1.1324883e-06,1.0,264,0.791,0,0,0.0,False,[1.0464826],[1.04932187]
0.7976838190006674,11:36:42.379631,11:36:24.291297,0,,0.008923743,0.032197013,0.048484832,-0.7240201,-0.263806,-0.6373393,-0.5426332,0.7882625,0.29015774,0.4258452,0.55592155,-0.71386766,,0.18901774,-0.00983654,0.031086504,-0.722246,0.09116775,0.6856013,0.32686704,0.91858023,0.22218972,-0.60952336,0.3845761,-0.69324064,,0.08744685,1.3322506,0.46481997,0.9960437,0.0028880716,-0.088817894,-0.053866707,-0.775297,-0.6292956,-0.0706777,0.63159025,-0.7720741,,-0.05005716,0.2502325,-0.09487433,0.71293175,0.17515543,0.67900586,-0.078510605,0.98215175,-0.1709212,-0.69682455,0.06854599,0.7139587,,0.009106066,0.4266648,-0.34609807,0.75054485,-0.28139335,-0.59791327,-0.13352379,0.8215649,-0.55425847,0.6471892,0.4958315,0.5790486,,0.817404938339419,-0.2182984901557042,0.18242429912000002,0.610617115426935,-0.1541259717354168,0.4201312535762902,0.8439987897158209,,-0.8823608445445213,-0.4285885063208376,0.17955690564000001,2.0836889684057187,0.07856598736512826,0.23839108011505966,0.8678470233714256,,-0.06956664232292899,-0.09922851296057261,0.1150502548,-0.034016912529394594,,1.9978732e-05,-6.0796738e-06,6.556511e-06,1.0,-1.2565404e-05,-1.0281801e-05,1.2557954e-05,1.0,-1.1920929e-06,1.0281801e-05,1.1324883e-06,1.0,275,0.824,0,0,0.0,False,[1.04636344],[1.04970811]
0.8279545519999374,11:36:42.411478,11:36:24.291297,0,,0.008923743,0.032197013,0.048484832,-0.7240201,-0.263806,-0.6373393,-0.5426332,0.7882625,0.29015774,0.4258452,0.55592155,-0.71386766,,0.1890187,-0.009836346,0.03108716,-0.7222412,0.091166966,0.6856065,0.32687038,0.91857886,0.22219044,-0.60952735,0.38457948,-0.6932353,,0.08744685,1.3322506,0.46481997,0.9960437,0.0028880716,-0.088817894,-0.053866707,-0.775297,-0.6292956,-0.0706777,0.63159025,-0.7720741,,-0.05005716,0.2502325,-0.09487433,0.71293175,0.17515543,0.67900586,-0.078510605,0.98215175,-0.1709212,-0.69682455,0.06854599,0.7139587,,0.009104986,0.42666528,-0.34609833,0.75054026,-0.2813929,-0.5979192,-0.13352597,0.82156694,-0.55425495,0.6471941,0.4958284,0.5790458,,0.817404938339419,-0.2182984901557042,0.18242429912000002,0.610617115426935,-0.1541259717354168,0.4201312535762902,0.8439987897158209,,-0.8823685672773955,-0.4285885063208376,0.17955690564000001,2.0836889684057187,0.07856598736512826,0.23839108011505966,0.8678470233714256,,-0.06956664232292899,-0.09922851296057261,0.1150502548,-0.034016912529394594,,1.9978732e-05,-6.0796738e-06,6.556511e-06,1.0,-1.2565404e-05,-1.0281801e-05,1.2557954e-05,1.0,-1.1920929e-06,1.0281801e-05,1.1324883e-06,1.0,286,0.856,0,0,0.0,False,[1.04672091],[1.04951499]
0.8598214539997571,11:36:42.441095,11:36:24.291297,0,,0.008906788,0.032182835,0.048476323,-0.7240434,-0.2638452,-0.6372965,-0.5426249,0.78827727,0.29013306,0.42581606,0.5558819,-0.71391594,,0.18905076,-0.009807723,0.031103909,-0.7222119,0.0911275,0.68564254,0.326864,0.9185761,0.2222113,-0.6095654,0.3845955,-0.69319284,,0.087486446,1.3322492,0.46481994,0.9960405,0.002842228,-0.0888551,-0.053925604,-0.77529716,-0.62929034,-0.0706777,0.63159025,-0.7720741,,-0.050070465,0.2502184,-0.09487406,0.71292734,0.17524439,0.67898744,-0.078556016,0.9821339,-0.17100276,-0.6968239,0.068574,0.71395665,,0.0090339715,0.42668542,-0.34608614,0.7505364,-0.2813003,-0.5979676,-0.13359718,0.821601,-0.5541874,0.64718384,0.4958246,0.57906044,,0.817404938339419,-0.2182984901557042,0.18242429912000002,0.610617115426935,-0.1541259717354168,0.4201312535762902,0.8439987897158209,,-0.8823685672773955,-0.4285885063208376,0.17955690564000001,2.0836889684057187,0.07856598736512826,0.23839108011505966,0.8678470233714256,,-0.06956664232292899,-0.09922851296057261,0.1150502548,-0.034016912529394594,,5.948171e-05,-4.7683716e-06,4.053116e-06,1.0,-5.8218837e-05,-4.7620386e-05,5.8211386e-05,0.99999994,-5.3346157e-06,4.762411e-05,5.275011e-06,1.0,297,0.889,0,0,0.0,False,[1.04642302],[1.04898391]
0.8894472840001981,11:36:42.478901,11:36:24.291297,0,,0.008906788,0.032182835,0.048476323,-0.7240434,-0.2638452,-0.6372965,-0.5426249,0.78827727,0.29013306,0.42581606,0.5558819,-0.71391594,,0.18905175,-0.009807514,0.031104624,-0.7222071,0.09112672,0.6856478,0.32686728,0.91857475,0.22221205,-0.6095693,0.38459876,-0.69318753,,0.087486446,1.3322492,0.46481994,0.9960405,0.002842228,-0.0888551,-0.053925604,-0.77529716,-0.62929034,-0.0706777,0.63159025,-0.7720741,,-0.050070465,0.2502184,-0.09487406,0.71292734,0.17524439,0.67898744,-0.078556016,0.9821339,-0.17100276,-0.6968239,0.068574,0.71395665,,0.009032892,0.4266859,-0.3460864,0.7505318,-0.28129983,-0.59797364,-0.13359934,0.82160294,-0.5541839,0.6471887,0.4958215,0.57905763,,0.817404938339419,-0.2182984901557042,0.18242429912000002,0.610617115426935,-0.1541259717354168,0.4201312535762902,0.8439987897158209,,-0.8823762900102698,-0.4285885063208376,0.17955690564000001,2.0836889684057187,0.07856598736512826,0.23839108011505966,0.8678470233714256,,-0.06956664232292899,-0.09922851296057261,0.1150502548,-0.034016912529394594,,5.948171e-05,-4.7683716e-06,4.053116e-06,1.0,-5.8218837e-05,-4.7620386e-05,5.8211386e-05,0.99999994,-5.3346157e-06,4.762411e-05,5.275011e-06,1.0,305,0.914,0,0,0.0,False,[1.04642302],[1.04975639]
0.9272517009994772,11:36:42.507771,11:36:24.475287,0,,0.008906788,0.032182835,0.048476323,-0.7240434,-0.2638452,-0.6372965,-0.5426249,0.78827727,0.29013306,0.42581606,0.5558819,-0.71391594,,0.18904981,-0.009807916,0.031103194,-0.72221667,0.09112829,0.6856374,0.32686073,0.91857743,0.22221062,-0.60956144,0.3845921,-0.6931982,,0.087486446,1.3322492,0.46481994,0.9960405,0.002842228,-0.0888551,-0.053925604,-0.77529716,-0.62929034,-0.0706777,0.63159025,-0.7720741,,-0.050070465,0.2502184,-0.09487406,0.71292734,0.17524439,0.67898744,-0.078556016,0.9821339,-0.17100276,-0.6968239,0.068574,0.71395665,,0.009035051,0.42668495,-0.34608585,0.750541,-0.28130075,-0.59796166,-0.13359502,0.82159895,-0.55419093,0.647179,0.49582767,0.57906324,,0.817404938339419,-0.2182984901557042,0.18242429912000002,0.610617115426935,-0.1541259717354168,0.4201312535762902,0.8439987897158209,,-0.8823608445445213,-0.4285885063208376,0.17955690564000001,2.0836889684057187,0.07856598736512826,0.23839108011505966,0.8678470233714256,,-0.06956664232292899,-0.09922851296057261,0.1150502548,-0.034016912529394594,,5.948171e-05,-4.7683716e-06,4.053116e-06,1.0,-5.8218837e-05,-4.7620386e-05,5.8211386e-05,0.99999994,-5.3346157e-06,4.762411e-05,5.275011e-06,1.0,312,0.934,0,0,0.0,False,[1.04672091],[1.04927359]
0.9561030620006932,11:36:42.529883,11:36:24.475287,0,,0.008906788,0.032182835,0.048476323,-0.7240434,-0.2638452,-0.6372965,-0.5426249,0.78827727,0.29013306,0.42581606,0.5558819,-0.71391594,,0.18905175,-0.009807514,0.031104624,-0.7222071,0.09112672,0.6856478,0.32686728,0.91857475,0.22221205,-0.6095693,0.38459876,-0.69318753,,0.087486446,1.3322492,0.46481994,0.9960405,0.002842228,-0.0888551,-0.053925604,-0.77529716,-0.62929034,-0.0706777,0.63159025,-0.7720741,,-0.050070465,0.2502184,-0.09487406,0.71292734,0.17524439,0.67898744,-0.078556016,0.9821339,-0.17100276,-0.6968239,0.068574,0.71395665,,0.009032892,0.4266859,-0.3460864,0.7505318,-0.28129983,-0.59797364,-0.13359934,0.82160294,-0.5541839,0.6471887,0.4958215,0.57905763,,0.817404938339419,-0.2182984901557042,0.18242429912000002,0.610617115426935,-0.1541259717354168,0.4201312535762902,0.8439987897158209,,-0.8823762900102698,-0.4285885063208376,0.17955690564000001,2.0836889684057187,0.07856598736512826,0.23839108011505966,0.8678470233714256,,-0.06956664232292899,-0.09922851296057261,0.1150502548,-0.034016912529394594,,5.948171e-05,-4.7683716e-06,4.053116e-06,1.0,-5.8218837e-05,-4.7620386e-05,5.8211386e-05,0.99999994,-5.3346157e-06,4.762411e-05,5.275011e-06,1.0,323,0.967,0,0,0.0,False,[1.04642302],[1.04903219]
0.978211306999583,11:36:42.561040,11:36:24.475287,0,,0.008905648,0.032183327,0.04847677,-0.7240401,-0.2638419,-0.6373016,-0.5426268,0.7882752,0.29013497,0.42581934,0.5558864,-0.7139105,,0.18905175,-0.009807514,0.031104624,-0.7222071,0.091182716,0.6856403,0.32686728,0.91859293,0.22213703,-0.6095693,0.38454217,-0.69321895,,0.087486446,1.3322492,0.46481994,0.9960405,0.002842228,-0.0888551,-0.053925604,-0.77529716,-0.62929034,-0.0706777,0.63159025,-0.7720741,,-0.050069395,0.25021917,-0.09487413,0.7129239,0.17524086,0.67899203,-0.078555755,0.9821349,-0.17099741,-0.6968275,0.06856939,0.71395355,,0.009032892,0.4266859,-0.3460864,0.7505318,-0.28134868,-0.59795064,-0.13359934,0.8215577,-0.554251,0.6471887,0.4958688,0.57901716,,0.8174126610722933,-0.2182984901557042,0.18242429912000002,0.610617115426935,-0.1541259717354168,0.4201312535762902,0.8439987897158209,,-0.8823762900102698,-0.4285885063208376,0.17955690564000001,2.0836889684057187,0.07856598736512826,0.23830940137491907,0.8676836793052913,,-0.06956664232292899,-0.09922851296057261,0.1150502548,-0.034016912529394594,,5.948171e-05,-4.7683716e-06,4.053116e-06,1.0,-5.8218837e-05,-4.7620386e-05,5.8211386e-05,0.99999994,-5.3346157e-06,4.762411e-05,5.275011e-06,1.0,363,1.089,0,0,0.0,False,[1.04642302],[1.04980467]
1.0093548320000991,11:36:42.681493,11:36:24.654263,0,,0.008905648,0.032183327,0.04847677,-0.7240401,-0.2638419,-0.6373016,-0.5426268,0.7882752,0.29013497,0.42581934,0.5558864,-0.7139105,,0.18905175,-0.009807514,0.031104624,-0.7222071,0.091238715,0.6856329,0.32686728,0.91861105,0.22206199,-0.6095693,0.38448554,-0.6932503,,0.087486446,1.3322492,0.46481994,0.9960405,0.002842228,-0.0888551,-0.053925604,-0.77529716,-0.62929034,-0.0706777,0.63159025,-0.7720741,,-0.050069395,0.25021917,-0.09487413,0.7129239,0.17524086,0.67899203,-0.078555755,0.9821349,-0.17099741,-0.6968275,0.06856939,0.71395355,,0.009032892,0.4266859,-0.3460864,0.7505318,-0.28139752,-0.59792763,-0.13359934,0.8215124,-0.5543181,0.6471887,0.4959161,0.57897663,,0.8174126610722933,-0.2182984901557042,0.18242429912000002,0.610617115426935,-0.1541259717354168,0.4201312535762902,0.8439987897158209,,-0.8823762900102698,-0.4285885063208376,0.17955690564000001,2.0836889684057187,0.07856598736512826,0.23822772263477854,0.8675203352391572,,-0.06956664232292899,-0.09922851296057261,0.1150502548,-0.034016912529394594,,5.948171e-05,-4.7683716e-06,4.053116e-06,1.0,-5.8218837e-05,-4.7620386e-05,5.8211386e-05,0.99999994,-5.3346157e-06,4.762411e-05,5.275011e-06,1.0,371,1.115,0,0,0.0,False,[1.04636344],[1.04898391]
1.1298394309997093,11:36:42.705179,11:36:24.654263,0,,0.008906788,0.032182835,0.048476323,-0.7240434,-0.2638452,-0.6372965,-0.5426249,0.78827727,0.29013306,0.42581606,0.5558819,-0.71391594,,0.18905076,-0.009807723,0.031103909,-0.7222119,0.091239505,0.68562764,0.326864,0.91861236,0.22206128,-0.6095654,0.38448218,-0.69325566,,0.087486446,1.3322492,0.46481994,0.9960405,0.002842228,-0.0888551,-0.053925604,-0.77529716,-0.62929034,-0.0706777,0.63159025,-0.7720741,,-0.050070465,0.2502184,-0.09487406,0.71292734,0.17524439,0.67898744,-0.078556016,0.9821339,-0.17100276,-0.6968239,0.068574,0.71395665,,0.0090339715,0.42668542,-0.34608614,0.7505364,-0.28139797,-0.59792167,-0.13359718,0.82151043,-0.5543216,0.64718384,0.49591917,0.57897943,,0.817404938339419,-0.2182984901557042,0.18242429912000002,0.610617115426935,-0.1541259717354168,0.4201312535762902,0.8439987897158209,,-0.8823685672773955,-0.4285885063208376,0.17955690564000001,2.0836889684057187,0.07856598736512826,0.23822772263477854,0.8675203352391572,,-0.06956664232292899,-0.09922851296057261,0.1150502548,-0.034016912529394594,,5.948171e-05,-4.7683716e-06,4.053116e-06,1.0,-5.8218837e-05,-4.7620386e-05,5.8211386e-05,0.99999994,-5.3346157e-06,4.762411e-05,5.275011e-06,1.0,379,1.139,0,0,0.0,False,[1.04678049],[1.04965983]
1.1535292579992529,11:36:42.724199,11:36:24.654263,0,,0.008905648,0.032183327,0.04847677,-0.7240401,-0.2638419,-0.6373016,-0.5426268,0.7882752,0.29013497,0.42581934,0.5558864,-0.7139105,,0.18905076,-0.009807723,0.031103909,-0.7222119,0.091239505,0.68562764,0.326864,0.91861236,0.22206128,-0.6095654,0.38448218,-0.69325566,,0.087486446,1.3322492,0.46481994,0.9960405,0.002842228,-0.0888551,-0.053925604,-0.77529716,-0.62929034,-0.0706777,0.63159025,-0.7720741,,-0.050069395,0.25021917,-0.09487413,0.7129239,0.17524086,0.67899203,-0.078555755,0.9821349,-0.17099741,-0.6968275,0.06856939,0.71395355,,0.0090339715,0.42668542,-0.34608614,0.7505364,-0.28139797,-0.59792167,-0.13359718,0.82151043,-0.5543216,0.64718384,0.49591917,0.57897943,,0.8174126610722933,-0.2182984901557042,0.18242429912000002,0.610617115426935,-0.1541259717354168,0.4201312535762902,0.8439987897158209,,-0.8823685672773955,-0.4285885063208376,0.17955690564000001,2.0836889684057187,0.07856598736512826,0.23822772263477854,0.8675203352391572,,-0.06956664232292899,-0.09922851296057261,0.1150502548,-0.034016912529394594,,5.948171e-05,-4.7683716e-06,4.053116e-06,1.0,-5.8218837e-05,-4.7620386e-05,5.8211386e-05,0.99999994,-5.3346157e-06,4.762411e-05,5.275011e-06,1.0,387,1.164,0,0,0.0,False,[1.04618471],[1.04912875]
1.1724476229992433,11:36:42.753623,11:36:24.654263,0,,0.008904512,0.03218382,0.048477218,-0.7240367,-0.26383862,-0.6373068,-0.54262877,0.7882732,0.29013684,0.42582253,0.5558908,-0.7139051,,0.18905175,-0.009807514,0.031104624,-0.7222071,0.091238715,0.6856329,0.32686728,0.91861105,0.22206199,-0.6095693,0.38448554,-0.6932503,,0.087486446,1.3322492,0.46481994,0.9960405,0.002842228,-0.0888551,-0.053925604,-0.77529716,-0.62929034,-0.0706777,0.63159025,-0.7720741,,-0.050068326,0.25021994,-0.0948742,0.71292037,0.17523733,0.6789966,-0.0785555,0.98213583,-0.17099206,-0.6968311,0.068564795,0.71395046,,0.009032892,0.4266859,-0.3460864,0.7505318,-0.28139752,-0.59792763,-0.13359934,0.8215124,-0.5543181,0.6471887,0.4959161,0.57897663,,0.8174203838051675,-0.2182984901557042,0.18242429912000002,0.610617115426935,-0.1541259717354168,0.4201312535762902,0.8439987897158209,,-0.8823762900102698,-0.4285885063208376,0.17955690564000001,2.0836889684057187,0.07856598736512826,0.23822772263477854,0.8675203352391572,,-0.06956664232292899,-0.09922851296057261,0.1150502548,-0.034016912529394594,,5.948171e-05,-4.7683716e-06,4.053116e-06,1.0,-5.8218837e-05,-4.7620386e-05,5.8211386e-05,0.99999994,-5.3346157e-06,4.762411e-05,5.275011e-06,1.0,395,1.188,0,0,0.0,False,[1.04618471],[1.04975639]
1.2019774479995249,11:36:42.773487,11:36:24.654263,0,,0.008905648,0.032183327,0.04847677,-0.7240401,-0.2638419,-0.6373016,-0.5426268,0.7882752,0.29013497,0.42581934,0.5558864,-0.7139105,,0.18905175,-0.009807514,0.031104624,-0.7222071,0.091238715,0.6856329,0.32686728,0.91861105,0.22206199,-0.6095693,0.38448554,-0.6932503,,0.087486446,1.3322492,0.46481994,0.9960405,0.002842228,-0.0888551,-0.053925604,-0.77529716,-0.62929034,-0.0706777,0.63159025,-0.7720741,,-0.050069395,0.25021917,-0.09487413,0.7129239,0.17524086,0.67899203,-0.078555755,0.9821349,-0.17099741,-0.6968275,0.06856939,0.71395355,,0.009032892,0.4266859,-0.3460864,0.7505318,-0.28139752,-0.59792763,-0.13359934,0.8215124,-0.5543181,0.6471887,0.4959161,0.57897663,,0.8174126610722933,-0.2182984901557042,0.18242429912000002,0.610617115426935,-0.1541259717354168,0.4201312535762902,0.8439987897158209,,-0.8823762900102698,-0.4285885063208376,0.17955690564000001,2.0836889684057187,0.07856598736512826,0.23822772263477854,0.8675203352391572,,-0.06956664232292899,-0.09922851296057261,0.1150502548,-0.034016912529394594,,5.948171e-05,-4.7683716e-06,4.053116e-06,1.0,-5.8218837e-05,-4.7620386e-05,5.8211386e-05,0.99999994,-5.3346157e-06,4.762411e-05,5.275011e-06,1.0,403,1.213,0,0,0.0,False,[1.04636344],[1.04922531]
1.2217977849995805,11:36:42.803826,11:36:24.779236,0,,0.008906788,0.032182835,0.048476323,-0.7240434,-0.2638452,-0.6372965,-0.5426249,0.78827727,0.29013306,0.42581606,0.5558819,-0.71391594,,0.18905076,-0.009807723,0.031103909,-0.7222119,0.091239505,0.68562764,0.326864,0.91861236,0.22206128,-0.6095654,0.38448218,-0.69325566,,0.087486446,1.3322492,0.46481994,0.9960405,0.002842228,-0.0888551,-0.053925604,-0.77529716,-0.62929034,-0.0706777,0.63159025,-0.7720741,,-0.050070465,0.2502184,-0.09487406,0.71292734,0.17524439,0.67898744,-0.078556016,0.9821339,-0.17100276,-0.6968239,0.068574,0.71395665,,0.0090339715,0.42668542,-0.34608614,0.7505364,-0.28139797,-0.59792167,-0.13359718,0.82151043,-0.5543216,0.64718384,0.49591917,0.57897943,,0.817404938339419,-0.2182984901557042,0.18242429912000002,0.610617115426935,-0.1541259717354168,0.4201312535762902,0.8439987897158209,,-0.8823685672773955,-0.4285885063208376,0.17955690564000001,2.0836889684057187,0.07856598736512826,0.23822772263477854,0.8675203352391572,,-0.06956664232292899,-0.09922851296057261,0.1150502548,-0.034016912529394594,,5.948171e-05,-4.7683716e-06,4.053116e-06,1.0,-5.8218837e-05,-4.7620386e-05,5.8211386e-05,0.99999994,-5.3346157e-06,4.762411e-05,5.275011e-06,1.0,411,1.237,0,0,0.0,False,[1.04660175],[1.04961155]
1.2521774039996671,11:36:42.833464,11:36:24.779236,0,,0.008906788,0.032182835,0.048476323,-0.7240434,-0.2638452,-0.6372965,-0.5426249,0.78827727,0.29013306,0.42581606,0.5558819,-0.71391594,,0.18905076,-0.009807723,0.031103909,-0.7222119,0.091239505,0.68562764,0.326864,0.91861236,0.22206128,-0.6095654,0.38448218,-0.69325566,,0.087486446,1.3322492,0.46481994,0.9960405,0.002842228,-0.0888551,-0.053925604,-0.77529716,-0.62929034,-0.0706777,0.63159025,-0.7720741,,-0.050070465,0.2502184,-0.09487406,0.71292734,0.17524439,0.67898744,-0.078556016,0.9821339,-0.17100276,-0.6968239,0.068574,0.71395665,,0.0090339715,0.42668542,-0.34608614,0.7505364,-0.28139797,-0.59792167,-0.13359718,0.82151043,-0.5543216,0.64718384,0.49591917,0.57897943,,0.817404938339419,-0.2182984901557042,0.18242429912000002,0.610617115426935,-0.1541259717354168,0.4201312535762902,0.8439987897158209,,-0.8823685672773955,-0.4285885063208376,0.17955690564000001,2.0836889684057187,0.07856598736512826,0.23822772263477854,0.8675203352391572,,-0.06956664232292899,-0.09922851296057261,0.1150502548,-0.034016912529394594,,5.948171e-05,-4.7683716e-06,4.053116e-06,1.0,-5.8218837e-05,-4.7620386e-05,5.8211386e-05,0.99999994,-5.3346157e-06,4.762411e-05,5.275011e-06,1.0,444,1.339,0,0,0.0,False,[1.04576767],[1.04946671]
1.281818204000956,11:36:42.925731,11:36:24.779236,0,,0.008904512,0.03218382,0.048477218,-0.7240367,-0.26383862,-0.6373068,-0.54262877,0.7882732,0.29013684,0.42582253,0.5558908,-0.7139051,,0.18905076,-0.009807723,0.031103909,-0.7222119,0.091239505,0.68562764,0.326864,0.91861236,0.22206128,-0.6095654,0.38448218,-0.69325566,,0.087486446,1.3322492,0.46481994,0.9960405,0.002842228,-0.0888551,-0.053925604,-0.77529716,-0.62929034,-0.0706777,0.63159025,-0.7720741,,-0.050068326,0.25021994,-0.0948742,0.71292037,0.17523733,0.6789966,-0.0785555,0.98213583,-0.17099206,-0.6968311,0.068564795,0.71395046,,0.0090339715,0.42668542,-0.34608614,0.7505364,-0.28139797,-0.59792167,-0.13359718,0.82151043,-0.5543216,0.64718384,0.49591917,0.57897943,,0.8174203838051675,-0.2182984901557042,0.18242429912000002,0.610617115426935,-0.1541259717354168,0.4201312535762902,0.8439987897158209,,-0.8823685672773955,-0.4285885063208376,0.17955690564000001,2.0836889684057187,0.07856598736512826,0.23822772263477854,0.8675203352391572,,-0.06956664232292899,-0.09922851296057261,0.1150502548,-0.034016912529394594,,5.948171e-05,-4.7683716e-06,4.053116e-06,1.0,-5.8218837e-05,-4.7620386e-05,5.8211386e-05,0.99999994,-5.3346157e-06,4.762411e-05,5.275011e-06,1.0,452,1.364,0,0,0.0,False,[1.04600598],[1.04917703]
1.3740481929999078,11:36:42.955417,11:36:24.779236,0,,0.008906306,0.0321816,0.048476472,-0.72404075,-0.26384565,-0.63729924,-0.542624,0.78828025,0.29012662,0.42582178,0.5558774,-0.71391594,,0.18905076,-0.009807723,0.031103909,-0.7222119,0.091239505,0.68562764,0.326864,0.91861236,0.22206128,-0.6095654,0.38448218,-0.69325566,,0.087486446,1.3322492,0.46481994,0.9960405,0.002842228,-0.0888551,-0.053925604,-0.77529716,-0.62929034,-0.0706777,0.63159025,-0.7720741,,-0.050069932,0.2502176,-0.094875,0.7129242,0.17524508,0.6789906,-0.07855193,0.9821334,-0.17100748,-0.6968276,0.06857935,0.7139525,,0.0090339715,0.42668542,-0.34608614,0.7505364,-0.28139797,-0.59792167,-0.13359718,0.82151043,-0.5543216,0.64718384,0.49591917,0.57897943,,0.817404938339419,-0.21830621288857843,0.18242429912000002,0.610617115426935,-0.1541259717354168,0.4201312535762902,0.8439987897158209,,-0.8823685672773955,-0.4285885063208376,0.17955690564000001,2.0836889684057187,0.07856598736512826,0.23822772263477854,0.8675203352391572,,-0.06956664232292899,-0.09922851296057261,0.1150502548,-0.034016912529394594,,5.948171e-05,-4.7683716e-06,4.053116e-06,1.0,-5.8218837e-05,-4.7620386e-05,5.8211386e-05,0.99999994,-5.3346157e-06,4.762411e-05,5.275011e-06,1.0,460,1.389,0,0,0.0,False,[1.04672091],[1.04961155]
1.403766164999979,11:36:42.983084,11:36:24.779236,0,,0.008905164,0.03218209,0.04847695,-0.72403735,-0.26384237,-0.6373045,-0.5426259,0.7882783,0.29012853,0.42582506,0.5558818,-0.7139106,,0.18905076,-0.009807723,0.031103909,-0.7222119,0.091239505,0.68562764,0.326864,0.91861236,0.22206128,-0.6095654,0.38448218,-0.69325566,,0.087486446,1.3322492,0.46481994,0.9960405,0.002842228,-0.0888551,-0.053925604,-0.77529716,-0.62929034,-0.0706777,0.63159025,-0.7720741,,-0.050068863,0.25021836,-0.094875075,0.71292067,0.17524154,0.6789952,-0.07855167,0.98213434,-0.17100213,-0.6968312,0.06857475,0.71394944,,0.0090339715,0.42668542,-0.34608614,0.7505364,-0.28139797,-0.59792167,-0.13359718,0.82151043,-0.5543216,0.64718384,0.49591917,0.57897943,,0.8174126610722933,-0.21830621288857843,0.18242429912000002,0.610617115426935,-0.1541259717354168,0.4201312535762902,0.8439987897158209,,-0.8823685672773955,-0.4285885063208376,0.17955690564000001,2.0836889684057187,0.07856598736512826,0.23822772263477854,0.8675203352391572,,-0.06956664232292899,-0.09922851296057261,0.1150502548,-0.034016912529394594,,5.948171e-05,-4.7683716e-06,4.053116e-06,1.0,-5.8218837e-05,-4.7620386e-05,5.8211386e-05,0.99999994,-5.3346157e-06,4.762411e-05,5.275011e-06,1.0,468,1.414,0,0,0.0,False,[1.04678049],[1.04922531]
1.4314388540005893,11:36:43.004767,11:36:24.779236,0,,0.008904022,0.03218258,0.048477396,-0.724034,-0.2638391,-0.6373097,-0.5426278,0.78827626,0.29013044,0.42582825,0.55588627,-0.7139052,,0.1890527,-0.0098072905,0.03110534,-0.72220236,0.09123796,0.68563807,0.32687056,0.91860974,0.2220627,-0.6095733,0.38448897,-0.69324493,,0.087486446,1.3322492,0.46481994,0.9960405,0.002842228,-0.0888551,-0.053925604,-0.77529716,-0.62929034,-0.0706777,0.63159025,-0.7720741,,-0.05006779,0.25021914,-0.09487514,0.71291715,0.17523801,0.6789998,-0.07855142,0.9821353,-0.17099679,-0.6968348,0.06857015,0.71394634,,0.009031813,0.42668638,-0.34608668,0.7505272,-0.28139707,-0.59793365,-0.13360152,0.8215144,-0.55431455,0.6471936,0.495913,0.5789738,,0.8174203838051675,-0.21830621288857843,0.18242429912000002,0.610617115426935,-0.1541259717354168,0.4201312535762902,0.8439987897158209,,-0.882384012743144,-0.4285885063208376,0.17955690564000001,2.0836889684057187,0.07856598736512826,0.23822772263477854,0.8675203352391572,,-0.06956664232292899,-0.09922851296057261,0.1150502548,-0.034016912529394594,,5.948171e-05,-4.7683716e-06,4.053116e-06,1.0,-5.8218837e-05,-4.7620386e-05,5.8211386e-05,0.99999994,-5.3346157e-06,4.762411e-05,5.275011e-06,1.0,476,1.438,0,0,0.0,False,[1.04660175],[1.04941843]
1.4530672370001412,11:36:43.034241,11:36:24.995820,0,,0.008906788,0.032182835,0.048476323,-0.7240434,-0.2638452,-0.6372965,-0.5426249,0.78827727,0.29013306,0.42581606,0.5558819,-0.71391594,,0.18905076,-0.009807723,0.031103909,-0.7222119,0.091239505,0.68562764,0.326864,0.91861236,0.22206128,-0.6095654,0.38448218,-0.69325566,,0.087486446,1.3322492,0.46481994,0.9960405,0.002842228,-0.0888551,-0.053925604,-0.77529716,-0.62929034,-0.0706777,0.63159025,-0.7720741,,-0.050070465,0.2502184,-0.09487406,0.71292734,0.17524439,0.67898744,-0.078556016,0.9821339,-0.17100276,-0.6968239,0.068574,0.71395665,,0.0090339715,0.42668542,-0.34608614,0.7505364,-0.28139797,-0.59792167,-0.13359718,0.82151043,-0.5543216,0.64718384,0.49591917,0.57897943,,0.817404938339419,-0.2182984901557042,0.18242429912000002,0.610617115426935,-0.1541259717354168,0.4201312535762902,0.8439987897158209,,-0.8823685672773955,-0.4285885063208376,0.17955690564000001,2.0836889684057187,0.07856598736512826,0.23822772263477854,0.8675203352391572,,-0.06956664232292899,-0.09922851296057261,0.1150502548,-0.034016912529394594,,5.948171e-05,-4.7683716e-06,4.053116e-06,1.0,-5.8218837e-05,-4.7620386e-05,5.8211386e-05,0.99999994,-5.3346157e-06,4.762411e-05,5.275011e-06,1.0,488,1.475,0,0,0.0,False,[1.04695922],[1.04946671]
1.4825969470002747,11:36:43.069970,11:36:24.995820,0,,0.008906788,0.032182835,0.048476323,-0.7240434,-0.2638452,-0.6372965,-0.5426249,0.78827727,0.29013306,0.42581606,0.5558819,-0.71391594,,0.18904981,-0.009807916,0.031103194,-0.72221667,0.09124032,0.6856225,0.32686073,0.91861373,0.22206056,-0.60956144,0.3844788,-0.693261,,0.087486446,1.3322492,0.46481994,0.9960405,0.002842228,-0.0888551,-0.053925604,-0.77529716,-0.62929034,-0.0706777,0.63159025,-0.7720741,,-0.050070465,0.2502184,-0.09487406,0.71292734,0.17524439,0.67898744,-0.078556016,0.9821339,-0.17100276,-0.6968239,0.068574,0.71395665,,0.009035051,0.42668495,-0.34608585,0.750541,-0.28139845,-0.5979157,-0.13359502,0.8215084,-0.5543251,0.647179,0.49592227,0.57898223,,0.817404938339419,-0.2182984901557042,0.18242429912000002,0.610617115426935,-0.1541259717354168,0.4201312535762902,0.8439987897158209,,-0.8823608445445213,-0.4285885063208376,0.17955690564000001,2.0836889684057187,0.07856598736512826,0.23822772263477854,0.8675203352391572,,-0.06956664232292899,-0.09922851296057261,0.1150502548,-0.034016912529394594,,5.948171e-05,-4.7683716e-06,4.053116e-06,1.0,-5.8218837e-05,-4.7620386e-05,5.8211386e-05,0.99999994,-5.3346157e-06,4.762411e-05,5.275011e-06,1.0,521,1.576,0,0,0.0,False,[1.0464826],[1.04893562]
1.5183251069993275,11:36:43.168974,11:36:25.148291,0,,0.008906788,0.032182835,0.048476323,-0.7240434,-0.2638452,-0.6372965,-0.5426249,0.78827727,0.29013306,0.42581606,0.5558819,-0.71391594,,0.18905175,-0.009807514,0.031104624,-0.7222071,0.091238715,0.6856329,0.32686728,0.91861105,0.22206199,-0.6095693,0.38448554,-0.6932503,,0.087486446,1.3322492,0.46481994,0.9960405,0.002842228,-0.0888551,-0.053925604,-0.77529716,-0.62929034,-0.0706777,0.63159025,-0.7720741,,-0.050070465,0.2502184,-0.09487406,0.71292734,0.17524439,0.67898744,-0.078556016,0.9821339,-0.17100276,-0.6968239,0.068574,0.71395665,,0.009032892,0.4266859,-0.3460864,0.7505318,-0.28139752,-0.59792763,-0.13359934,0.8215124,-0.5543181,0.6471887,0.4959161,0.57897663,,0.817404938339419,-0.2182984901557042,0.18242429912000002,0.610617115426935,-0.1541259717354168,0.4201312535762902,0.8439987897158209,,-0.8823762900102698,-0.4285885063208376,0.17955690564000001,2.0836889684057187,0.07856598736512826,0.23822772263477854,0.8675203352391572,,-0.06956664232292899,-0.09922851296057261,0.1150502548,-0.034016912529394594,,5.948171e-05,-4.7683716e-06,4.053116e-06,1.0,-5.8218837e-05,-4.7620386e-05,5.8211386e-05,0.99999994,-5.3346157e-06,4.762411e-05,5.275011e-06,1.0,529,1.602,0,0,0.0,False,[1.0464826],[1.04893562]
1.6173301310009265,11:36:43.195482,11:36:25.148291,0,,0.008906306,0.0321816,0.048476472,-0.72404075,-0.26384565,-0.63729924,-0.542624,0.78828025,0.29012662,0.42582178,0.5558774,-0.71391594,,0.18905076,-0.009807723,0.031103909,-0.7222119,0.091239505,0.68562764,0.326864,0.91861236,0.22206128,-0.6095654,0.38448218,-0.69325566,,0.087486446,1.3322492,0.46481994,0.9960405,0.002842228,-0.0888551,-0.053925604,-0.77529716,-0.62929034,-0.0706777,0.63159025,-0.7720741,,-0.050069932,0.2502176,-0.094875,0.7129242,0.17524508,0.6789906,-0.07855193,0.9821334,-0.17100748,-0.6968276,0.06857935,0.7139525,,0.0090339715,0.42668542,-0.34608614,0.7505364,-0.28139797,-0.59792167,-0.13359718,0.82151043,-0.5543216,0.64718384,0.49591917,0.57897943,,0.817404938339419,-0.21830621288857843,0.18242429912000002,0.610617115426935,-0.1541259717354168,0.4201312535762902,0.8439987897158209,,-0.8823685672773955,-0.4285885063208376,0.17955690564000001,2.0836889684057187,0.07856598736512826,0.23822772263477854,0.8675203352391572,,-0.06956664232292899,-0.09922851296057261,0.1150502548,-0.034016912529394594,,5.948171e-05,-4.7683716e-06,4.053116e-06,1.0,-5.8218837e-05,-4.7620386e-05,5.8211386e-05,0.99999994,-5.3346157e-06,4.762411e-05,5.275011e-06,1.0,537,1.627,0,0,0.0,False,[1.04642302],[1.04951499]
1.6438132799994492,11:36:43.221502,11:36:25.148291,0,,0.008905648,0.032183327,0.04847677,-0.7240401,-0.2638419,-0.6373016,-0.5426268,0.7882752,0.29013497,0.42581934,0.5558864,-0.7139105,,0.18904981,-0.009807916,0.031103194,-0.72221667,0.09124032,0.6856225,0.32686073,0.91861373,0.22206056,-0.60956144,0.3844788,-0.693261,,0.087486446,1.3322492,0.46481994,0.9960405,0.002842228,-0.0888551,-0.053925604,-0.77529716,-0.62929034,-0.0706777,0.63159025,-0.7720741,,-0.050069395,0.25021917,-0.09487413,0.7129239,0.17524086,0.67899203,-0.078555755,0.9821349,-0.17099741,-0.6968275,0.06856939,0.71395355,,0.009035051,0.42668495,-0.34608585,0.750541,-0.28139845,-0.5979157,-0.13359502,0.8215084,-0.5543251,0.647179,0.49592227,0.57898223,,0.8174126610722933,-0.2182984901557042,0.18242429912000002,0.610617115426935,-0.1541259717354168,0.4201312535762902,0.8439987897158209,,-0.8823608445445213,-0.4285885063208376,0.17955690564000001,2.0836889684057187,0.07856598736512826,0.23822772263477854,0.8675203352391572,,-0.06956664232292899,-0.09922851296057261,0.1150502548,-0.034016912529394594,,5.948171e-05,-4.7683716e-06,4.053116e-06,1.0,-5.8218837e-05,-4.7620386e-05,5.8211386e-05,0.99999994,-5.3346157e-06,4.762411e-05,5.275011e-06,1.0,545,1.651,0,0,0.0,False,[1.0464826],[1.04941843]
1.6698578640007327,11:36:43.246764,11:36:25.148291,0,,0.008904512,0.03218382,0.048477218,-0.7240367,-0.26383862,-0.6373068,-0.54262877,0.7882732,0.29013684,0.42582253,0.5558908,-0.7139051,,0.18904981,-0.009807916,0.031103194,-0.72221667,0.09124032,0.6856225,0.32686073,0.91861373,0.22206056,-0.60956144,0.3844788,-0.693261,,0.087486446,1.3322492,0.46481994,0.9960405,0.002842228,-0.0888551,-0.053925604,-0.77529716,-0.62929034,-0.0706777,0.63159025,-0.7720741,,-0.050068326,0.25021994,-0.0948742,0.71292037,0.17523733,0.6789966,-0.0785555,0.98213583,-0.17099206,-0.6968311,0.068564795,0.71395046,,0.009035051,0.42668495,-0.34608585,0.750541,-0.28139845,-0.5979157,-0.13359502,0.8215084,-0.5543251,0.647179,0.49592227,0.57898223,,0.8174203838051675,-0.2182984901557042,0.18242429912000002,0.610617115426935,-0.1541259717354168,0.4201312535762902,0.8439987897158209,,-0.8823608445445213,-0.4285885063208376,0.17955690564000001,2.0836889684057187,0.07856598736512826,0.23822772263477854,0.8675203352391572,,-0.06956664232292899,-0.09922851296057261,0.1150502548,-0.034016912529394594,,5.948171e-05,-4.7683716e-06,4.053116e-06,1.0,-5.8218837e-05,-4.7620386e-05,5.8211386e-05,0.99999994,-5.3346157e-06,4.762411e-05,5.275011e-06,1.0,553,1.676,0,0,0.0,False,[1.04695922],[1.04961155]
1.695117974999448,11:36:43.267644,11:36:25.148291,0,,0.008905648,0.032183327,0.04847677,-0.7240401,-0.2638419,-0.6373016,-0.5426268,0.7882752,0.29013497,0.42581934,0.5558864,-0.7139105,,0.18905076,-0.009807723,0.031103909,-0.7222119,0.091239505,0.68562764,0.326864,0.91861236,0.22206128,-0.6095654,0.38448218,-0.69325566,,0.087486446,1.3322492,0.46481994,0.9960405,0.002842228,-0.0888551,-0.053925604,-0.77529716,-0.62929034,-0.0706777,0.63159025,-0.7720741,,-0.050069395,0.25021917,-0.09487413,0.7129239,0.17524086,0.67899203,-0.078555755,0.9821349,-0.17099741,-0.6968275,0.06856939,0.71395355,,0.0090339715,0.42668542,-0.34608614,0.7505364,-0.28139797,-0.59792167,-0.13359718,0.82151043,-0.5543216,0.64718384,0.49591917,0.57897943,,0.8174126610722933,-0.2182984901557042,0.18242429912000002,0.610617115426935,-0.1541259717354168,0.4201312535762902,0.8439987897158209,,-0.8823685672773955,-0.4285885063208376,0.17955690564000001,2.0836889684057187,0.07856598736512826,0.23822772263477854,0.8675203352391572,,-0.06956664232292899,-0.09922851296057261,0.1150502548,-0.034016912529394594,,5.948171e-05,-4.7683716e-06,4.053116e-06,1.0,-5.8218837e-05,-4.7620386e-05,5.8211386e-05,0.99999994,-5.3346157e-06,4.762411e-05,5.275011e-06,1.0,561,1.7,0,0,0.0,False,[1.04672091],[1.04975639]
1.7159995700003492,11:36:43.298291,11:36:25.272985,0,,0.008906788,0.032182835,0.048476323,-0.7240434,-0.2638452,-0.6372965,-0.5426249,0.78827727,0.29013306,0.42581606,0.5558819,-0.71391594,,0.18905076,-0.009807723,0.031103909,-0.7222119,0.091239505,0.68562764,0.326864,0.91861236,0.22206128,-0.6095654,0.38448218,-0.69325566,,0.087486446,1.3322492,0.46481994,0.9960405,0.002842228,-0.0888551,-0.053925604,-0.77529716,-0.62929034,-0.0706777,0.63159025,-0.7720741,,-0.050070465,0.2502184,-0.09487406,0.71292734,0.17524439,0.67898744,-0.078556016,0.9821339,-0.17100276,-0.6968239,0.068574,0.71395665,,0.0090339715,0.42668542,-0.34608614,0.7505364,-0.28139797,-0.59792167,-0.13359718,0.82151043,-0.5543216,0.64718384,0.49591917,0.57897943,,0.817404938339419,-0.2182984901557042,0.18242429912000002,0.610617115426935,-0.1541259717354168,0.4201312535762902,0.8439987897158209,,-0.8823685672773955,-0.4285885063208376,0.17955690564000001,2.0836889684057187,0.07856598736512826,0.23822772263477854,0.8675203352391572,,-0.06956664232292899,-0.09922851296057261,0.1150502548,-0.034016912529394594,,5.948171e-05,-4.7683716e-06,4.053116e-06,1.0,-5.8218837e-05,-4.7620386e-05,5.8211386e-05,0.99999994,-5.3346157e-06,4.762411e-05,5.275011e-06,1.0,569,1.725,0,0,0.0,False,[1.04707838],[1.04970811]
1.7466459090010176,11:36:43.317877,11:36:25.272985,0,,0.008906788,0.032182835,0.048476323,-0.7240434,-0.2638452,-0.6372965,-0.5426249,0.78827727,0.29013306,0.42581606,0.5558819,-0.71391594,,0.18905175,-0.009807514,0.031104624,-0.7222071,0.091238715,0.6856329,0.32686728,0.91861105,0.22206199,-0.6095693,0.38448554,-0.6932503,,0.087486446,1.3322492,0.46481994,0.9960405,0.002842228,-0.0888551,-0.053925604,-0.77529716,-0.62929034,-0.0706777,0.63159025,-0.7720741,,-0.050070465,0.2502184,-0.09487406,0.71292734,0.17524439,0.67898744,-0.078556016,0.9821339,-0.17100276,-0.6968239,0.068574,0.71395665,,0.009032892,0.4266859,-0.3460864,0.7505318,-0.28139752,-0.59792763,-0.13359934,0.8215124,-0.5543181,0.6471887,0.4959161,0.57897663,,0.817404938339419,-0.2182984901557042,0.18242429912000002,0.610617115426935,-0.1541259717354168,0.4201312535762902,0.8439987897158209,,-0.8823762900102698,-0.4285885063208376,0.17955690564000001,2.0836889684057187,0.07856598736512826,0.23822772263477854,0.8675203352391572,,-0.06956664232292899,-0.09922851296057261,0.1150502548,-0.034016912529394594,,5.948171e-05,-4.7683716e-06,4.053116e-06,1.0,-5.8218837e-05,-4.7620386e-05,5.8211386e-05,0.99999994,-5.3346157e-06,4.762411e-05,5.275011e-06,1.0,602,1.826,0,0,0.0,False,[1.04684006],[1.04961155]
1.7662080970003444,11:36:43.416732,11:36:25.272985,0,,0.008905648,0.032183327,0.04847677,-0.7240401,-0.2638419,-0.6373016,-0.5426268,0.7882752,0.29013497,0.42581934,0.5558864,-0.7139105,,0.18905076,-0.009807723,0.031103909,-0.7222119,0.091239505,0.68562764,0.326864,0.91861236,0.22206128,-0.6095654,0.38448218,-0.69325566,,0.087486446,1.3322492,0.46481994,0.9960405,0.002842228,-0.0888551,-0.053925604,-0.77529716,-0.62929034,-0.0706777,0.63159025,-0.7720741,,-0.050069395,0.25021917,-0.09487413,0.7129239,0.17524086,0.67899203,-0.078555755,0.9821349,-0.17099741,-0.6968275,0.06856939,0.71395355,,0.0090339715,0.42668542,-0.34608614,0.7505364,-0.28139797,-0.59792167,-0.13359718,0.82151043,-0.5543216,0.64718384,0.49591917,0.57897943,,0.8174126610722933,-0.2182984901557042,0.18242429912000002,0.610617115426935,-0.1541259717354168,0.4201312535762902,0.8439987897158209,,-0.8823685672773955,-0.4285885063208376,0.17955690564000001,2.0836889684057187,0.07856598736512826,0.23822772263477854,0.8675203352391572,,-0.06956664232292899,-0.09922851296057261,0.1150502548,-0.034016912529394594,,5.948171e-05,-4.7683716e-06,4.053116e-06,1.0,-5.8218837e-05,-4.7620386e-05,5.8211386e-05,0.99999994,-5.3346157e-06,4.762411e-05,5.275011e-06,1.0,610,1.852,0,0,0.0,False,[1.04642302],[1.04961155]
1.8650871330009977,11:36:43.447703,11:36:25.272985,0,,0.008906788,0.032182835,0.048476323,-0.7240434,-0.2638452,-0.6372965,-0.5426249,0.78827727,0.29013306,0.42581606,0.5558819,-0.71391594,,0.18905175,-0.009807514,0.031104624,-0.7222071,0.091238715,0.6856329,0.32686728,0.91861105,0.22206199,-0.6095693,0.38448554,-0.6932503,,0.087486446,1.3322492,0.46481994,0.9960405,0.002842228,-0.0888551,-0.053925604,-0.77529716,-0.62929034,-0.0706777,0.63159025,-0.7720741,,-0.050070465,0.2502184,-0.09487406,0.71292734,0.17524439,0.67898744,-0.078556016,0.9821339,-0.17100276,-0.6968239,0.068574,0.71395665,,0.009032892,0.4266859,-0.3460864,0.7505318,-0.28139752,-0.59792763,-0.13359934,0.8215124,-0.5543181,0.6471887,0.4959161,0.57897663,,0.817404938339419,-0.2182984901557042,0.18242429912000002,0.610617115426935,-0.1541259717354168,0.4201312535762902,0.8439987897158209,,-0.8823762900102698,-0.4285885063208376,0.17955690564000001,2.0836889684057187,0.07856598736512826,0.23822772263477854,0.8675203352391572,,-0.06956664232292899,-0.09922851296057261,0.1150502548,-0.034016912529394594,,5.948171e-05,-4.7683716e-06,4.053116e-06,1.0,-5.8218837e-05,-4.7620386e-05,5.8211386e-05,0.99999994,-5.3346157e-06,4.762411e-05,5.275011e-06,1.0,618,1.876,0,0,0.0,False,[1.04672091],[1.04912875]
1.89604180599963,11:36:43.469604,11:36:25.437263,0,,0.008905648,0.032183327,0.04847677,-0.7240401,-0.2638419,-0.6373016,-0.5426268,0.7882752,0.29013497,0.42581934,0.5558864,-0.7139105,,0.18905175,-0.009807514,0.031104624,-0.7222071,0.091182716,0.6856403,0.32686728,0.91859293,0.22213703,-0.6095693,0.38454217,-0.69321895,,0.087486446,1.3322492,0.46481994,0.9960405,0.002842228,-0.0888551,-0.053925604,-0.77529716,-0.62929034,-0.0706777,0.63159025,-0.7720741,,-0.050069395,0.25021917,-0.09487413,0.7129239,0.17524086,0.67899203,-0.078555755,0.9821349,-0.17099741,-0.6968275,0.06856939,0.71395355,,0.009032892,0.4266859,-0.3460864,0.7505318,-0.28134868,-0.59795064,-0.13359934,0.8215577,-0.554251,0.6471887,0.4958688,0.57901716,,0.8174126610722933,-0.2182984901557042,0.18242429912000002,0.610617115426935,-0.1541259717354168,0.4201312535762902,0.8439987897158209,,-0.8823762900102698,-0.4285885063208376,0.17955690564000001,2.0836889684057187,0.07856598736512826,0.23830940137491907,0.8676836793052913,,-0.06956664232292899,-0.09922851296057261,0.1150502548,-0.034016912529394594,,5.948171e-05,-4.7683716e-06,4.053116e-06,1.0,-5.8218837e-05,-4.7620386e-05,5.8211386e-05,0.99999994,-5.3346157e-06,4.762411e-05,5.275011e-06,1.0,626,1.901,0,0,0.0,False,[1.04678049],[1.04941843]
1.9179579240008024,11:36:43.498370,11:36:25.437263,0,,0.008904512,0.03218382,0.048477218,-0.7240367,-0.26383862,-0.6373068,-0.54262877,0.7882732,0.29013684,0.42582253,0.5558908,-0.7139051,,0.18905076,-0.009807723,0.031103909,-0.7222119,0.0911275,0.68564254,0.326864,0.9185761,0.2222113,-0.6095654,0.3845955,-0.69319284,,0.087486446,1.3322492,0.46481994,0.9960405,0.002842228,-0.0888551,-0.053925604,-0.77529716,-0.62929034,-0.0706777,0.63159025,-0.7720741,,-0.050068326,0.25021994,-0.0948742,0.71292037,0.17523733,0.6789966,-0.0785555,0.98213583,-0.17099206,-0.6968311,0.068564795,0.71395046,,0.0090339715,0.42668542,-0.34608614,0.7505364,-0.2813003,-0.5979676,-0.13359718,0.821601,-0.5541874,0.64718384,0.4958246,0.57906044,,0.8174203838051675,-0.2182984901557042,0.18242429912000002,0.610617115426935,-0.1541259717354168,0.4201312535762902,0.8439987897158209,,-0.8823685672773955,-0.4285885063208376,0.17955690564000001,2.0836889684057187,0.07856598736512826,0.23839108011505966,0.8678470233714256,,-0.06956664232292899,-0.09922851296057261,0.1150502548,-0.034016912529394594,,5.948171e-05,-4.7683716e-06,4.053116e-06,1.0,-5.8218837e-05,-4.7620386e-05,5.8211386e-05,0.99999994,-5.3346157e-06,4.762411e-05,5.275011e-06,1.0,634,1.926,0,0,0.0,False,[1.04672091],[1.04932187]
1.9467065169992566,11:36:43.518396,11:36:25.437263,0,,0.008904512,0.03218382,0.048477218,-0.7240367,-0.26383862,-0.6373068,-0.54262877,0.7882732,0.29013684,0.42582253,0.5558908,-0.7139051,,0.18905076,-0.009807723,0.031103909,-0.7222119,0.0911275,0.68564254,0.326864,0.9185761,0.2222113,-0.6095654,0.3845955,-0.69319284,,0.087486446,1.3322492,0.46481994,0.9960405,0.002842228,-0.0888551,-0.053925604,-0.77529716,-0.62929034,-0.0706777,0.63159025,-0.7720741,,-0.050068326,0.25021994,-0.0948742,0.71292037,0.17523733,0.6789966,-0.0785555,0.98213583,-0.17099206,-0.6968311,0.068564795,0.71395046,,0.0090339715,0.42668542,-0.34608614,0.7505364,-0.2813003,-0.5979676,-0.13359718,0.821601,-0.5541874,0.64718384,0.4958246,0.57906044,,0.8174203838051675,-0.2182984901557042,0.18242429912000002,0.610617115426935,-0.1541259717354168,0.4201312535762902,0.8439987897158209,,-0.8823685672773955,-0.4285885063208376,0.17955690564000001,2.0836889684057187,0.07856598736512826,0.23839108011505966,0.8678470233714256,,-0.06956664232292899,-0.09922851296057261,0.1150502548,-0.034016912529394594,,5.948171e-05,-4.7683716e-06,4.053116e-06,1.0,-5.8218837e-05,-4.7620386e-05,5.8211386e-05,0.99999994,-5.3346157e-06,4.762411e-05,5.275011e-06,1.0,642,1.95,0,0,0.0,False,[1.04678049],[1.04975639]
1.9667517630005023,11:36:43.547810,11:36:25.437263,0,,0.008904512,0.03218382,0.048477218,-0.7240367,-0.26383862,-0.6373068,-0.54262877,0.7882732,0.29013684,0.42582253,0.5558908,-0.7139051,,0.18905175,-0.009807514,0.031104624,-0.7222071,0.09112672,0.6856478,0.32686728,0.91857475,0.22221205,-0.6095693,0.38459876,-0.69318753,,0.087486446,1.3322492,0.46481994,0.9960405,0.002842228,-0.0888551,-0.053925604,-0.77529716,-0.62929034,-0.0706777,0.63159025,-0.7720741,,-0.050068326,0.25021994,-0.0948742,0.71292037,0.17523733,0.6789966,-0.0785555,0.98213583,-0.17099206,-0.6968311,0.068564795,0.71395046,,0.009032892,0.4266859,-0.3460864,0.7505318,-0.28129983,-0.59797364,-0.13359934,0.82160294,-0.5541839,0.6471887,0.4958215,0.57905763,,0.8174203838051675,-0.2182984901557042,0.18242429912000002,0.610617115426935,-0.1541259717354168,0.4201312535762902,0.8439987897158209,,-0.8823762900102698,-0.4285885063208376,0.17955690564000001,2.0836889684057187,0.07856598736512826,0.23839108011505966,0.8678470233714256,,-0.06956664232292899,-0.09922851296057261,0.1150502548,-0.034016912529394594,,5.948171e-05,-4.7683716e-06,4.053116e-06,1.0,-5.8218837e-05,-4.7620386e-05,5.8211386e-05,0.99999994,-5.3346157e-06,4.762411e-05,5.275011e-06,1.0,671,2.039,0,0,0.0,False,[1.0464826],[1.04956327]
1.9961630859997967,11:36:43.630103,11:36:25.592170,0,,0.008868893,0.03220822,0.048496082,-0.7240265,-0.26378205,-0.6373419,-0.5426128,0.78827435,0.29016358,0.4258603,0.55591595,-0.713863,,0.1890797,-0.009782381,0.031107306,-0.7222345,0.091071256,0.68562627,0.326827,0.9185766,0.2222636,-0.6095585,0.3846075,-0.69319224,,0.08745886,1.3322502,0.46482828,0.9960423,0.0028681962,-0.088834025,-0.053892244,-0.77529705,-0.6292933,-0.0706777,0.63159025,-0.7720741,,-0.050012067,0.25024858,-0.094870016,0.712923,0.17515199,0.67901593,-0.078500204,0.9821518,-0.17092566,-0.6968347,0.06855394,0.713948,,0.009025883,0.42669365,-0.3460629,0.7505526,-0.28127897,-0.5979573,-0.13359095,0.82161397,-0.5541696,0.6471664,0.4958151,0.57908815,,0.8174203838051675,-0.2182984901557042,0.18242429912000002,0.610617115426935,-0.1541259717354168,0.4201312535762902,0.8439987897158209,,-0.8823685672773955,-0.4285885063208376,0.17955690564000001,2.0836889684057187,0.07856598736512826,0.23839108011505966,0.8678470233714256,,-0.06956664232292899,-0.09922851296057261,0.1150502548,-0.034016912529394594,,3.136322e-05,-4.7683716e-07,-5.9604645e-07,1.0,-3.235787e-05,-2.6464462e-05,3.235042e-05,1.0,-2.9802322e-06,2.6471913e-05,2.9206276e-06,1.0,679,2.065,0,0,0.0,False,[1.04672091],[1.04941843]
2.0784218370008603,11:36:43.660047,11:36:25.592170,0,,0.008868893,0.03220822,0.048496082,-0.7240265,-0.26378205,-0.6373419,-0.5426128,0.78827435,0.29016358,0.4258603,0.55591595,-0.713863,,0.18908066,-0.009782143,0.031108022,-0.72222966,0.09107047,0.6856315,0.32683018,0.9185753,0.22226432,-0.60956246,0.3846109,-0.69318694,,0.08745886,1.3322502,0.46482828,0.9960423,0.0028681962,-0.088834025,-0.053892244,-0.77529705,-0.6292933,-0.0706777,0.63159025,-0.7720741,,-0.050012067,0.25024858,-0.094870016,0.712923,0.17515199,0.67901593,-0.078500204,0.9821518,-0.17092566,-0.6968347,0.06855394,0.713948,,0.0090248035,0.42669412,-0.34606317,0.750548,-0.28127852,-0.59796333,-0.13359313,0.821616,-0.5541661,0.6471712,0.49581203,0.57908535,,0.8174203838051675,-0.2182984901557042,0.18242429912000002,0.610617115426935,-0.1541259717354168,0.4201312535762902,0.8439987897158209,,-0.8823762900102698,-0.4285885063208376,0.17955690564000001,2.0836889684057187,0.07856598736512826,0.23839108011505966,0.8678470233714256,,-0.06956664232292899,-0.09922851296057261,0.1150502548,-0.034016912529394594,,3.136322e-05,-4.7683716e-07,-5.9604645e-07,1.0,-3.235787e-05,-2.6464462e-05,3.235042e-05,1.0,-2.9802322e-06,2.6471913e-05,2.9206276e-06,1.0,687,2.089,0,0,0.0,False,[1.04642302],[1.04961155]
2.1083577509998577,11:36:43.680216,11:36:25.592170,0,,0.008868893,0.03220822,0.048496082,-0.7240265,-0.26378205,-0.6373419,-0.5426128,0.78827435,0.29016358,0.4258603,0.55591595,-0.713863,,0.1890797,-0.009782381,0.031107306,-0.7222345,0.091071256,0.68562627,0.326827,0.9185766,0.2222636,-0.6095585,0.3846075,-0.69319224,,0.08745886,1.3322502,0.46482828,0.9960423,0.0028681962,-0.088834025,-0.053892244,-0.77529705,-0.6292933,-0.0706777,0.63159025,-0.7720741,,-0.050012067,0.25024858,-0.094870016,0.712923,0.17515199,0.67901593,-0.078500204,0.9821518,-0.17092566,-0.6968347,0.06855394,0.713948,,0.009025883,0.42669365,-0.3460629,0.7505526,-0.28127897,-0.5979573,-0.13359095,0.82161397,-0.5541696,0.6471664,0.4958151,0.57908815,,0.8174203838051675,-0.2182984901557042,0.18242429912000002,0.610617115426935,-0.1541259717354168,0.4201312535762902,0.8439987897158209,,-0.8823685672773955,-0.4285885063208376,0.17955690564000001,2.0836889684057187,0.07856598736512826,0.23839108011505966,0.8678470233714256,,-0.06956664232292899,-0.09922851296057261,0.1150502548,-0.034016912529394594,,3.136322e-05,-4.7683716e-07,-5.9604645e-07,1.0,-3.235787e-05,-2.6464462e-05,3.235042e-05,1.0,-2.9802322e-06,2.6471913e-05,2.9206276e-06,1.0,695,2.114,0,0,0.0,False,[1.04660175],[1.04961155]
2.1285416900009295,11:36:43.702326,11:36:25.592170,0,,0.0088684065,0.032206967,0.04849623,-0.72402376,-0.2637825,-0.6373447,-0.54261184,0.7882773,0.29015714,0.425866,0.5559114,-0.7138631,,0.18908066,-0.009782143,0.031108022,-0.72222966,0.09107047,0.6856315,0.32683018,0.9185753,0.22226432,-0.60956246,0.3846109,-0.69318694,,0.08745886,1.3322502,0.46482828,0.9960423,0.0028681962,-0.088834025,-0.053892244,-0.77529705,-0.6292933,-0.0706777,0.63159025,-0.7720741,,-0.05001153,0.25024775,-0.094870955,0.7129198,0.17515267,0.6790191,-0.07849611,0.98215127,-0.17093039,-0.6968384,0.0685593,0.7139439,,0.0090248035,0.42669412,-0.34606317,0.750548,-0.28127852,-0.59796333,-0.13359313,0.821616,-0.5541661,0.6471712,0.49581203,0.57908535,,0.8174203838051675,-0.21830621288857843,0.18242429912000002,0.610617115426935,-0.1541259717354168,0.4201312535762902,0.8439987897158209,,-0.8823762900102698,-0.4285885063208376,0.17955690564000001,2.0836889684057187,0.07856598736512826,0.23839108011505966,0.8678470233714256,,-0.06956664232292899,-0.09922851296057261,0.1150502548,-0.034016912529394594,,3.136322e-05,-4.7683716e-07,-5.9604645e-07,1.0,-3.235787e-05,-2.6464462e-05,3.235042e-05,1.0,-2.9802322e-06,2.6471913e-05,2.9206276e-06,1.0,703,2.139,0,0,0.0,False,[1.04666133],[1.04985295]
2.1506807780006056,11:36:43.722981,11:36:25.592170,0,,0.008869548,0.032206476,0.04849577,-0.72402716,-0.26378578,-0.6373396,-0.54260993,0.78827935,0.29015526,0.42586273,0.555907,-0.7138685,,0.18908066,-0.009782143,0.031108022,-0.72222966,0.09107047,0.6856315,0.32683018,0.9185753,0.22226432,-0.60956246,0.3846109,-0.69318694,,0.08745886,1.3322502,0.46482828,0.9960423,0.0028681962,-0.088834025,-0.053892244,-0.77529705,-0.6292933,-0.0706777,0.63159025,-0.7720741,,-0.050012603,0.25024697,-0.09487088,0.7129233,0.1751562,0.6790145,-0.078496374,0.9821503,-0.17093574,-0.69683474,0.06856389,0.713947,,0.0090248035,0.42669412,-0.34606317,0.750548,-0.28127852,-0.59796333,-0.13359313,0.821616,-0.5541661,0.6471712,0.49581203,0.57908535,,0.8174126610722933,-0.21830621288857843,0.18242429912000002,0.610617115426935,-0.1541259717354168,0.4201312535762902,0.8439987897158209,,-0.8823762900102698,-0.4285885063208376,0.17955690564000001,2.0836889684057187,0.07856598736512826,0.23839108011505966,0.8678470233714256,,-0.06956664232292899,-0.09922851296057261,0.1150502548,-0.034016912529394594,,3.136322e-05,-4.7683716e-07,-5.9604645e-07,1.0,-3.235787e-05,-2.6464462e-05,3.235042e-05,1.0,-2.9802322e-06,2.6471913e-05,2.9206276e-06,1.0,711,2.163,0,0,0.0,False,[1.0464826],[1.04903219]
2.171243725999375,11:36:43.751223,11:36:25.592170,0,,0.008870027,0.032207742,0.04849562,-0.7240299,-0.26378533,-0.63733673,-0.5426109,0.7882764,0.29016167,0.425857,0.55591154,-0.7138684,,0.1890797,-0.009782381,0.031107306,-0.7222345,0.091071256,0.68562627,0.326827,0.9185766,0.2222636,-0.6095585,0.3846075,-0.69319224,,0.08745886,1.3322502,0.46482828,0.9960423,0.0028681962,-0.088834025,-0.053892244,-0.77529705,-0.6292933,-0.0706777,0.63159025,-0.7720741,,-0.050013136,0.2502478,-0.09486994,0.7129265,0.17515552,0.67901134,-0.07850046,0.98215085,-0.17093101,-0.69683105,0.06855854,0.7139511,,0.009025883,0.42669365,-0.3460629,0.7505526,-0.28127897,-0.5979573,-0.13359095,0.82161397,-0.5541696,0.6471664,0.4958151,0.57908815,,0.8174126610722933,-0.2182984901557042,0.18242429912000002,0.610617115426935,-0.1541259717354168,0.4201312535762902,0.8439987897158209,,-0.8823685672773955,-0.4285885063208376,0.17955690564000001,2.0836889684057187,0.07856598736512826,0.23839108011505966,0.8678470233714256,,-0.06956664232292899,-0.09922851296057261,0.1150502548,-0.034016912529394594,,3.136322e-05,-4.7683716e-07,-5.9604645e-07,1.0,-3.235787e-05,-2.6464462e-05,3.235042e-05,1.0,-2.9802322e-06,2.6471913e-05,2.9206276e-06,1.0,715,2.175,0,0,0.0,False,[1.04684006],[1.04922531]
2.199577011000656,11:36:43.780088,11:36:25.592170,0,,0.008871169,0.032207265,0.04849516,-0.7240332,-0.2637886,-0.63733155,-0.5426089,0.7882784,0.29015982,0.4258538,0.55590713,-0.71387374,,0.1890797,-0.009782381,0.031107306,-0.7222345,0.091071256,0.68562627,0.326827,0.9185766,0.2222636,-0.6095585,0.3846075,-0.69319224,,0.08745886,1.3322502,0.46482828,0.9960423,0.0028681962,-0.088834025,-0.053892244,-0.77529705,-0.6292933,-0.0706777,0.63159025,-0.7720741,,-0.050014205,0.25024703,-0.09486987,0.71292996,0.17515905,0.67900676,-0.07850071,0.9821499,-0.17093636,-0.6968274,0.06856314,0.7139542,,0.009025883,0.42669365,-0.3460629,0.7505526,-0.28127897,-0.5979573,-0.13359095,0.82161397,-0.5541696,0.6471664,0.4958151,0.57908815,,0.817404938339419,-0.2182984901557042,0.18242429912000002,0.610617115426935,-0.1541259717354168,0.4201312535762902,0.8439987897158209,,-0.8823685672773955,-0.4285885063208376,0.17955690564000001,2.0836889684057187,0.07856598736512826,0.23839108011505966,0.8678470233714256,,-0.06956664232292899,-0.09922851296057261,0.1150502548,-0.034016912529394594,,3.136322e-05,-4.7683716e-07,-5.9604645e-07,1.0,-3.235787e-05,-2.6464462e-05,3.235042e-05,1.0,-2.9802322e-06,2.6471913e-05,2.9206276e-06,1.0,740,2.252,0,0,0.0,False,[1.04660175],[1.04912875]
2.2284273990007932,11:36:43.839948,11:36:25.592170,0,,0.0088713495,0.032207817,0.04849471,-0.7241568,-0.26400846,-0.6371001,-0.54262537,0.7882835,0.290115,0.42562264,0.5557954,-0.7140986,,0.18908066,-0.009782143,0.031108022,-0.72222966,0.09107047,0.6856315,0.32683018,0.9185753,0.22226432,-0.60956246,0.3846109,-0.69318694,,0.08745886,1.3322502,0.46482828,0.9960423,0.0028681962,-0.088834025,-0.053892244,-0.77529705,-0.6292933,-0.0706777,0.63159025,-0.7720741,,-0.050014377,0.25024718,-0.09486915,0.7130732,0.17538695,0.67879754,-0.07864849,0.98210347,-0.17113498,-0.6966642,0.068645366,0.71410555,,0.0090248035,0.42669412,-0.34606317,0.750548,-0.28127852,-0.59796333,-0.13359313,0.821616,-0.5541661,0.6471712,0.49581203,0.57908535,,0.8174126610722933,-0.21830621288857843,0.18242429912000002,0.610617115426935,-0.15385269873588595,0.41990841776889737,0.8439987897158209,,-0.8823762900102698,-0.4285885063208376,0.17955690564000001,2.0836889684057187,0.07856598736512826,0.23839108011505966,0.8678470233714256,,-0.06956664232292899,-0.09922851296057261,0.1150502548,-0.034016912529394594,,3.136322e-05,-4.7683716e-07,-5.9604645e-07,1.0,-3.235787e-05,-2.6464462e-05,3.235042e-05,1.0,-2.9802322e-06,2.6471913e-05,2.9206276e-06,1.0,744,2.265,0,0,0.0,False,[1.04630387],[1.04937015]
2.288301885999317,11:36:43.862803,11:36:25.592170,0,,0.008871832,0.032209083,0.048494563,-0.7241594,-0.264008,-0.63709724,-0.54262626,0.78828055,0.29012147,0.42561692,0.5557999,-0.7140986,,0.18907872,-0.009782575,0.031106591,-0.72223926,0.09107209,0.6856211,0.3268237,0.918578,0.2222629,-0.6095545,0.3846042,-0.6931976,,0.08745886,1.3322502,0.46482828,0.9960423,0.0028681962,-0.088834025,-0.053892244,-0.77529705,-0.6292933,-0.0706777,0.63159025,-0.7720741,,-0.05001491,0.250248,-0.094868205,0.71307635,0.17538625,0.6787944,-0.078652576,0.98210394,-0.17113025,-0.6966605,0.06864001,0.7141097,,0.009026962,0.42669317,-0.3460626,0.7505572,-0.28127944,-0.59795135,-0.13358879,0.82161194,-0.5541731,0.6471615,0.4958182,0.57909095,,0.8174126610722933,-0.2182984901557042,0.18242429912000002,0.610617115426935,-0.15385269873588595,0.41990841776889737,0.8439987897158209,,-0.8823608445445213,-0.4285885063208376,0.17955690564000001,2.0836889684057187,0.07856598736512826,0.23839108011505966,0.8678470233714256,,-0.06956664232292899,-0.09922851296057261,0.1150502548,-0.034016912529394594,,3.136322e-05,-4.7683716e-07,-5.9604645e-07,1.0,-3.235787e-05,-2.6464462e-05,3.235042e-05,1.0,-2.9802322e-06,2.6471913e-05,2.9206276e-06,1.0,756,2.302,0,0,0.0,False,[1.04642302],[1.04912875]
2.3111489719995006,11:36:43.898422,11:36:25.592170,0,,0.008872972,0.03220859,0.0484941,-0.72416276,-0.2640113,-0.63709205,-0.54262435,0.7882826,0.29011953,0.42561367,0.55579543,-0.7141039,,0.1890797,-0.009782381,0.031107306,-0.7222345,0.091071256,0.68562627,0.326827,0.9185766,0.2222636,-0.6095585,0.3846075,-0.69319224,,0.08745886,1.3322502,0.46482828,0.9960423,0.0028681962,-0.088834025,-0.053892244,-0.77529705,-0.6292933,-0.0706777,0.63159025,-0.7720741,,-0.05001598,0.2502472,-0.09486814,0.71307987,0.1753898,0.67878973,-0.07865283,0.982103,-0.1711356,-0.6966569,0.06864461,0.71411276,,0.009025883,0.42669365,-0.3460629,0.7505526,-0.28127897,-0.5979573,-0.13359095,0.82161397,-0.5541696,0.6471664,0.4958151,0.57908815,,0.817404938339419,-0.2182984901557042,0.18242429912000002,0.610617115426935,-0.15385269873588595,0.41990841776889737,0.8439987897158209,,-0.8823685672773955,-0.4285885063208376,0.17955690564000001,2.0836889684057187,0.07856598736512826,0.23839108011505966,0.8678470233714256,,-0.06956664232292899,-0.09922851296057261,0.1150502548,-0.034016912529394594,,3.136322e-05,-4.7683716e-07,-5.9604645e-07,1.0,-3.235787e-05,-2.6464462e-05,3.235042e-05,1.0,-2.9802322e-06,2.6471913e-05,2.9206276e-06,1.0,764,2.327,0,0,0.0,False,[1.04689964],[1.04951499]
2.346767651000846,11:36:43.920069,11:36:25.592170,0,,0.008871832,0.032209083,0.048494563,-0.7241594,-0.264008,-0.63709724,-0.54262626,0.78828055,0.29012147,0.42561692,0.5557999,-0.7140986,,0.18908066,-0.009782143,0.031108022,-0.72222966,0.09107047,0.6856315,0.32683018,0.9185753,0.22226432,-0.60956246,0.3846109,-0.69318694,,0.08745886,1.3322502,0.46482828,0.9960423,0.0028681962,-0.088834025,-0.053892244,-0.77529705,-0.6292933,-0.0706777,0.63159025,-0.7720741,,-0.05001491,0.250248,-0.094868205,0.71307635,0.17538625,0.6787944,-0.078652576,0.98210394,-0.17113025,-0.6966605,0.06864001,0.7141097,,0.0090248035,0.42669412,-0.34606317,0.750548,-0.28127852,-0.59796333,-0.13359313,0.821616,-0.5541661,0.6471712,0.49581203,0.57908535,,0.8174126610722933,-0.2182984901557042,0.18242429912000002,0.610617115426935,-0.15385269873588595,0.41990841776889737,0.8439987897158209,,-0.8823762900102698,-0.4285885063208376,0.17955690564000001,2.0836889684057187,0.07856598736512826,0.23839108011505966,0.8678470233714256,,-0.06956664232292899,-0.09922851296057261,0.1150502548,-0.034016912529394594,,3.136322e-05,-4.7683716e-07,-5.9604645e-07,1.0,-3.235787e-05,-2.6464462e-05,3.235042e-05,1.0,-2.9802322e-06,2.6471913e-05,2.9206276e-06,1.0,776,2.364,0,0,0.0,False,[1.04666133],[1.04961155]
2.368425949000084,11:36:43.953957,11:36:25.929159,0,,0.008872972,0.03220859,0.0484941,-0.72416276,-0.2640113,-0.63709205,-0.54262435,0.7882826,0.29011953,0.42561367,0.55579543,-0.7141039,,0.1890797,-0.009782381,0.031107306,-0.7222345,0.091071256,0.68562627,0.326827,0.9185766,0.2222636,-0.6095585,0.3846075,-0.69319224,,0.08745886,1.3322502,0.46482828,0.9960423,0.0028681962,-0.088834025,-0.053892244,-0.77529705,-0.6292933,-0.0706777,0.63159025,-0.7720741,,-0.05001598,0.2502472,-0.09486814,0.71307987,0.1753898,0.67878973,-0.07865283,0.982103,-0.1711356,-0.6966569,0.06864461,0.71411276,,0.009025883,0.42669365,-0.3460629,0.7505526,-0.28127897,-0.5979573,-0.13359095,0.82161397,-0.5541696,0.6471664,0.4958151,0.57908815,,0.817404938339419,-0.2182984901557042,0.18242429912000002,0.610617115426935,-0.15385269873588595,0.41990841776889737,0.8439987897158209,,-0.8823685672773955,-0.4285885063208376,0.17955690564000001,2.0836889684057187,0.07856598736512826,0.23839108011505966,0.8678470233714256,,-0.06956664232292899,-0.09922851296057261,0.1150502548,-0.034016912529394594,,3.136322e-05,-4.7683716e-07,-5.9604645e-07,1.0,-3.235787e-05,-2.6464462e-05,3.235042e-05,1.0,-2.9802322e-06,2.6471913e-05,2.9206276e-06,1.0,801,2.441,0,0,0.0,False,[1.04666133],[1.04975639]
2.4023099480000383,11:36:44.032513,11:36:25.929159,0,,0.008871832,0.032209083,0.048494563,-0.7241594,-0.264008,-0.63709724,-0.54262626,0.78828055,0.29012147,0.42561692,0.5557999,-0.7140986,,0.18907872,-0.009782575,0.031106591,-0.72223926,0.09107209,0.6856211,0.3268237,0.918578,0.2222629,-0.6095545,0.3846042,-0.6931976,,0.08745886,1.3322502,0.46482828,0.9960423,0.0028681962,-0.088834025,-0.053892244,-0.77529705,-0.6292933,-0.0706777,0.63159025,-0.7720741,,-0.05001491,0.250248,-0.094868205,0.71307635,0.17538625,0.6787944,-0.078652576,0.98210394,-0.17113025,-0.6966605,0.06864001,0.7141097,,0.009026962,0.42669317,-0.3460626,0.7505572,-0.28127944,-0.59795135,-0.13358879,0.82161194,-0.5541731,0.6471615,0.4958182,0.57909095,,0.8174126610722933,-0.2182984901557042,0.18242429912000002,0.610617115426935,-0.15385269873588595,0.41990841776889737,0.8439987897158209,,-0.8823608445445213,-0.4285885063208376,0.17955690564000001,2.0836889684057187,0.07856598736512826,0.23839108011505966,0.8678470233714256,,-0.06956664232292899,-0.09922851296057261,0.1150502548,-0.034016912529394594,,3.136322e-05,-4.7683716e-07,-5.9604645e-07,1.0,-3.235787e-05,-2.6464462e-05,3.235042e-05,1.0,-2.9802322e-06,2.6471913e-05,2.9206276e-06,1.0,809,2.466,0,0,0.0,False,[1.04660175],[1.04956327]
2.4808673070001532,11:36:44.057772,11:36:25.929159,0,,0.008870206,0.03220831,0.04849516,-0.7241534,-0.26400518,-0.6371052,-0.54262733,0.7882815,0.2901169,0.42562592,0.55579984,-0.7140932,,0.1890797,-0.009782381,0.031107306,-0.7222345,0.091071256,0.68562627,0.326827,0.9185766,0.2222636,-0.6095585,0.3846075,-0.69319224,,0.08745886,1.3322502,0.46482828,0.9960423,0.0028681962,-0.088834025,-0.053892244,-0.77529705,-0.6292933,-0.0706777,0.63159025,-0.7720741,,-0.050013304,0.25024796,-0.09486922,0.7130697,0.17538342,0.67880213,-0.07864823,0.9821044,-0.17112963,-0.69666785,0.06864076,0.71410245,,0.009025883,0.42669365,-0.3460629,0.7505526,-0.28127897,-0.5979573,-0.13359095,0.82161397,-0.5541696,0.6471664,0.4958151,0.57908815,,0.8174203838051675,-0.21830621288857843,0.18242429912000002,0.610617115426935,-0.15385269873588595,0.41990841776889737,0.8439987897158209,,-0.8823685672773955,-0.4285885063208376,0.17955690564000001,2.0836889684057187,0.07856598736512826,0.23839108011505966,0.8678470233714256,,-0.06956664232292899,-0.09922851296057261,0.1150502548,-0.034016912529394594,,3.136322e-05,-4.7683716e-07,-5.9604645e-07,1.0,-3.235787e-05,-2.6464462e-05,3.235042e-05,1.0,-2.9802322e-06,2.6471913e-05,2.9206276e-06,1.0,817,2.491,0,0,0.0,False,[1.04630387],[1.04917703]
2.5060308880001685,11:36:44.083345,11:36:25.929159,0,,0.008871832,0.032209083,0.048494563,-0.7241594,-0.264008,-0.63709724,-0.54262626,0.78828055,0.29012147,0.42561692,0.5557999,-0.7140986,,0.1890797,-0.009782381,0.031107306,-0.7222345,0.091071256,0.68562627,0.326827,0.9185766,0.2222636,-0.6095585,0.3846075,-0.69319224,,0.08745886,1.3322502,0.46482828,0.9960423,0.0028681962,-0.088834025,-0.053892244,-0.77529705,-0.6292933,-0.0706777,0.63159025,-0.7720741,,-0.05001491,0.250248,-0.094868205,0.71307635,0.17538625,0.6787944,-0.078652576,0.98210394,-0.17113025,-0.6966605,0.06864001,0.7141097,,0.009025883,0.42669365,-0.3460629,0.7505526,-0.28127897,-0.5979573,-0.13359095,0.82161397,-0.5541696,0.6471664,0.4958151,0.57908815,,0.8174126610722933,-0.2182984901557042,0.18242429912000002,0.610617115426935,-0.15385269873588595,0.41990841776889737,0.8439987897158209,,-0.8823685672773955,-0.4285885063208376,0.17955690564000001,2.0836889684057187,0.07856598736512826,0.23839108011505966,0.8678470233714256,,-0.06956664232292899,-0.09922851296057261,0.1150502548,-0.034016912529394594,,3.136322e-05,-4.7683716e-07,-5.9604645e-07,1.0,-3.235787e-05,-2.6464462e-05,3.235042e-05,1.0,-2.9802322e-06,2.6471913e-05,2.9206276e-06,1.0,825,2.515,0,0,0.0,False,[1.0464826],[1.04922531]
2.5316837040008977,11:36:44.113375,11:36:26.092389,0,,0.008871832,0.032209083,0.048494563,-0.7241594,-0.264008,-0.63709724,-0.54262626,0.78828055,0.29012147,0.42561692,0.5557999,-0.7140986,,0.18908066,-0.009782143,0.031108022,-0.72222966,0.09107047,0.6856315,0.32683018,0.9185753,0.22226432,-0.60956246,0.3846109,-0.69318694,,0.08745886,1.3322502,0.46482828,0.9960423,0.0028681962,-0.088834025,-0.053892244,-0.77529705,-0.6292933,-0.0706777,0.63159025,-0.7720741,,-0.05001491,0.250248,-0.094868205,0.71307635,0.17538625,0.6787944,-0.078652576,0.98210394,-0.17113025,-0.6966605,0.06864001,0.7141097,,0.0090248035,0.42669412,-0.34606317,0.750548,-0.28127852,-0.59796333,-0.13359313,0.821616,-0.5541661,0.6471712,0.49581203,0.57908535,,0.8174126610722933,-0.2182984901557042,0.18242429912000002,0.610617115426935,-0.15385269873588595,0.41990841776889737,0.8439987897158209,,-0.8823762900102698,-0.4285885063208376,0.17955690564000001,2.0836889684057187,0.07856598736512826,0.23839108011505966,0.8678470233714256,,-0.06956664232292899,-0.09922851296057261,0.1150502548,-0.034016912529394594,,3.136322e-05,-4.7683716e-07,-5.9604645e-07,1.0,-3.235787e-05,-2.6464462e-05,3.235042e-05,1.0,-2.9802322e-06,2.6471913e-05,2.9206276e-06,1.0,833,2.54,0,0,0.0,False,[1.04636344],[1.04951499]
2.5617252600004576,11:36:44.134801,11:36:26.092389,0,,0.008870698,0.032209575,0.04849501,-0.7241561,-0.26400474,-0.6371024,-0.5426282,0.78827846,0.29012334,0.4256202,0.5558043,-0.71409315,,0.18908066,-0.009782143,0.031108022,-0.72222966,0.09107047,0.6856315,0.32683018,0.9185753,0.22226432,-0.60956246,0.3846109,-0.69318694,,0.08745886,1.3322502,0.46482828,0.9960423,0.0028681962,-0.088834025,-0.053892244,-0.77529705,-0.6292933,-0.0706777,0.63159025,-0.7720741,,-0.05001384,0.25024876,-0.09486828,0.71307284,0.17538272,0.678799,-0.078652315,0.9821049,-0.1711249,-0.69666415,0.06863541,0.7141066,,0.0090248035,0.42669412,-0.34606317,0.750548,-0.28127852,-0.59796333,-0.13359313,0.821616,-0.5541661,0.6471712,0.49581203,0.57908535,,0.8174203838051675,-0.2182984901557042,0.18242429912000002,0.610617115426935,-0.15385269873588595,0.41990841776889737,0.8439987897158209,,-0.8823762900102698,-0.4285885063208376,0.17955690564000001,2.0836889684057187,0.07856598736512826,0.23839108011505966,0.8678470233714256,,-0.06956664232292899,-0.09922851296057261,0.1150502548,-0.034016912529394594,,3.136322e-05,-4.7683716e-07,-5.9604645e-07,1.0,-3.235787e-05,-2.6464462e-05,3.235042e-05,1.0,-2.9802322e-06,2.6471913e-05,2.9206276e-06,1.0,841,2.565,0,0,0.0,False,[1.04672091],[1.04908047]
