AlexandreBanks6/ExpertPlaybackApp/resources/Motions/PC1/Data_PC1_33.csv
Task Time,PC1 Time,PC2 Time,Gaze Calib,s_T_psm1,Tx,Ty,Tz,R00,R01,R02,R10,R11,R12,R20,R21,R22,s_T_psm3,Tx,Ty,Tz,R00,R01,R02,R10,R11,R12,R20,R21,R22,cart_T_ecm,Tx,Ty,Tz,R00,R01,R02,R10,R11,R12,R20,R21,R22,ecm_T_psm1,Tx,Ty,Tz,R00,R01,R02,R10,R11,R12,R20,R21,R22,ecm_T_psm3,Tx,Ty,Tz,R00,R01,R02,R10,R11,R12,R20,R21,R22,psm1_joints,q1,q2,q3,q4,q5,q6,jaw,psm3_joints,q1,q2,q3,q4,q5,q6,jaw,ecm_joints,q1,q2,q3,q4,ecmi_T_ecm,Tx,Ty,Tz,R00,R01,R02,R10,R11,R12,R20,R21,R22,Sample #,Task Duration (s),Collisions (binary),Collisions (increments),Cumulative Collision Time (s),Clutch Press,MTMR Angle,MTML Angle
""
lci_T_si,,,,,-0.069016755,0.021052357,0.2639799,0.99541694,0.041058015,0.08636784,0.08764585,-0.75296485,-0.6521979,0.038253997,0.6567786,-0.75311255
rci_T_si,,,,,-0.07889945,0.025447607,0.27325708,0.99538666,0.022545999,0.093258254,0.07799752,-0.7561904,-0.6496864,0.05587317,0.6539631,-0.7544604
ecm_T_lc,,,,,-4.4061628e-05,-0.00034663224,-0.01840835,-0.99912,0.030754527,0.028518902,-0.031987965,-0.99852574,-0.043852776,0.027128186,-0.04472645,0.9986309
ecm_T_rc,,,,,-0.0043358393,0.01870579,-0.007592615,-0.99555075,-0.052743673,-0.078081585,0.04863213,-0.9973746,0.053654674,-0.08070653,0.04961868,0.9955021
cart_T_ecmi,,,,,0.08771263,1.3339175,0.46683377,0.9960413,0.0028290374,-0.088846914,-0.05391772,-0.7754124,-0.629149,-0.070672885,0.6314488,-0.7721902
ecmac_T_ecmrep_psm1,,,,,0.08626859,-0.2052861,-0.33370098,0.999004,0.025128257,0.036871605,-0.023534218,0.9987958,-0.04304718,-0.037908904,0.04213656,0.9983924
ecmac_T_ecmrep_psm3,,,,,-0.16209933,-0.49188918,-0.56672233,0.99379694,-0.09876928,0.05111077,0.087427974,0.9779163,0.18983154,-0.068731576,-0.18418549,0.98048544
""
0,11:12:49.670729,NaN,0,,0.016871165,0.049042694,0.063916415,-0.83130795,-0.32339022,-0.45204628,-0.44717962,0.87215716,0.19842401,0.3300871,0.36709738,-0.86964476,,0.17715874,-0.04310739,0.0764941,-0.85962987,-0.3284917,0.39131814,0.054546446,0.70252836,0.7095622,-0.50799733,0.63130563,-0.5859964,,0.0876773,1.3339196,0.46684033,0.9960431,0.0028550238,-0.08882583,-0.053884342,-0.7754123,-0.629152,-0.070672885,0.6314488,-0.7721902,,-0.060142484,0.27240017,-0.090899915,0.823199,0.24529555,0.5120289,-0.041855134,0.9256169,-0.37614018,-0.5662081,0.28820714,0.7722338,,0.01853768,0.44606575,-0.39660338,0.9102028,0.12240644,-0.39566094,-0.19353305,0.9703155,-0.14502683,0.3661637,0.20857729,0.9068736,,0.8476703284735049,-0.10707569130112282,0.16806270221000003,0.7467058887483912,-0.09304945634026494,0.08706557981652002,0.8400785321285982,,-1.0194007393976352,-0.6872614439429876,0.13975821006000003,1.6852780757851225,-0.24840515657357073,0.9767905267124836,0.8632733895196658,,-0.06956664232292899,-0.09941177253203203,0.112424923,-0.034016912529394594,,-3.5770237e-05,2.3245811e-06,-3.2186508e-06,1.0,2.5879592e-05,2.1159649e-05,-2.5875866e-05,1.0,2.3543835e-06,-2.1159649e-05,-2.3543835e-06,1.0,NaN,NaN,NaN,NaN,NaN,False,[1.04642302],[1.04927359]
0.019515459998729057,11:12:49.692811,NaN,0,,0.016871165,0.049042694,0.063916415,-0.83130795,-0.32339022,-0.45204628,-0.44717962,0.87215716,0.19842401,0.3300871,0.36709738,-0.86964476,,0.17715874,-0.04310739,0.0764941,-0.85962987,-0.3284917,0.39131814,0.054546446,0.70252836,0.7095622,-0.50799733,0.63130563,-0.5859964,,0.0876773,1.3339196,0.46684033,0.9960431,0.0028550238,-0.08882583,-0.053884342,-0.7754123,-0.629152,-0.070672885,0.6314488,-0.7721902,,-0.060142484,0.27240017,-0.090899915,0.823199,0.24529555,0.5120289,-0.041855134,0.9256169,-0.37614018,-0.5662081,0.28820714,0.7722338,,0.01853768,0.44606575,-0.39660338,0.9102028,0.12240644,-0.39566094,-0.19353305,0.9703155,-0.14502683,0.3661637,0.20857729,0.9068736,,0.8476703284735049,-0.10707569130112282,0.16806270221000003,0.7467058887483912,-0.09304945634026494,0.08706557981652002,0.8400785321285982,,-1.0194007393976352,-0.6872614439429876,0.13975821006000003,1.6852780757851225,-0.24840515657357073,0.9767905267124836,0.8632733895196658,,-0.06956664232292899,-0.09941177253203203,0.112424923,-0.034016912529394594,,-3.5770237e-05,2.3245811e-06,-3.2186508e-06,1.0,2.5879592e-05,2.1159649e-05,-2.5875866e-05,1.0,2.3543835e-06,-2.1159649e-05,-2.3543835e-06,1.0,10,0.03,0,0,0.0,False,[1.04666133],[1.04845282]
0.04155641299985291,11:12:49.721447,NaN,0,,0.016871165,0.049042694,0.063916415,-0.83130795,-0.32339022,-0.45204628,-0.44717962,0.87215716,0.19842401,0.3300871,0.36709738,-0.86964476,,0.17715874,-0.04310739,0.0764941,-0.85962987,-0.3284917,0.39131814,0.054546446,0.70252836,0.7095622,-0.50799733,0.63130563,-0.5859964,,0.0876773,1.3339196,0.46684033,0.9960431,0.0028550238,-0.08882583,-0.053884342,-0.7754123,-0.629152,-0.070672885,0.6314488,-0.7721902,,-0.060142484,0.27240017,-0.090899915,0.823199,0.24529555,0.5120289,-0.041855134,0.9256169,-0.37614018,-0.5662081,0.28820714,0.7722338,,0.01853768,0.44606575,-0.39660338,0.9102028,0.12240644,-0.39566094,-0.19353305,0.9703155,-0.14502683,0.3661637,0.20857729,0.9068736,,0.8476703284735049,-0.10707569130112282,0.16806270221000003,0.7467058887483912,-0.09304945634026494,0.08706557981652002,0.8400785321285982,,-1.0194007393976352,-0.6872614439429876,0.13975821006000003,1.6852780757851225,-0.24840515657357073,0.9767905267124836,0.8632733895196658,,-0.06956664232292899,-0.09941177253203203,0.112424923,-0.034016912529394594,,-3.5770237e-05,2.3245811e-06,-3.2186508e-06,1.0,2.5879592e-05,2.1159649e-05,-2.5875866e-05,1.0,2.3543835e-06,-2.1159649e-05,-2.3543835e-06,1.0,18,0.054,0,0,0.0,False,[1.04630387],[1.04845282]
0.07023478699920815,11:12:49.750066,NaN,0,,0.016871165,0.049042694,0.063916415,-0.83130795,-0.32339022,-0.45204628,-0.44717962,0.87215716,0.19842401,0.3300871,0.36709738,-0.86964476,,0.17715874,-0.04310739,0.0764941,-0.85962987,-0.3284917,0.39131814,0.054546446,0.70252836,0.7095622,-0.50799733,0.63130563,-0.5859964,,0.0876773,1.3339196,0.46684033,0.9960431,0.0028550238,-0.08882583,-0.053884342,-0.7754123,-0.629152,-0.070672885,0.6314488,-0.7721902,,-0.060142484,0.27240017,-0.090899915,0.823199,0.24529555,0.5120289,-0.041855134,0.9256169,-0.37614018,-0.5662081,0.28820714,0.7722338,,0.01853768,0.44606575,-0.39660338,0.9102028,0.12240644,-0.39566094,-0.19353305,0.9703155,-0.14502683,0.3661637,0.20857729,0.9068736,,0.8476703284735049,-0.10707569130112282,0.16806270221000003,0.7467058887483912,-0.09304945634026494,0.08706557981652002,0.8400785321285982,,-1.0194007393976352,-0.6872614439429876,0.13975821006000003,1.6852780757851225,-0.24840515657357073,0.9767905267124836,0.8632733895196658,,-0.06956664232292899,-0.09941177253203203,0.112424923,-0.034016912529394594,,-3.5770237e-05,2.3245811e-06,-3.2186508e-06,1.0,2.5879592e-05,2.1159649e-05,-2.5875866e-05,1.0,2.3543835e-06,-2.1159649e-05,-2.3543835e-06,1.0,29,0.087,0,0,0.0,False,[1.04642302],[1.04912875]
0.09884805699948629,11:12:49.782429,11:12:31.720739,0,,0.016871165,0.049042694,0.063916415,-0.83130795,-0.32339022,-0.45204628,-0.44717962,0.87215716,0.19842401,0.3300871,0.36709738,-0.86964476,,0.17715874,-0.04310739,0.0764941,-0.85962987,-0.3284917,0.39131814,0.054546446,0.70252836,0.7095622,-0.50799733,0.63130563,-0.5859964,,0.0876773,1.3339196,0.46684033,0.9960431,0.0028550238,-0.08882583,-0.053884342,-0.7754123,-0.629152,-0.070672885,0.6314488,-0.7721902,,-0.060142484,0.27240017,-0.090899915,0.823199,0.24529555,0.5120289,-0.041855134,0.9256169,-0.37614018,-0.5662081,0.28820714,0.7722338,,0.01853768,0.44606575,-0.39660338,0.9102028,0.12240644,-0.39566094,-0.19353305,0.9703155,-0.14502683,0.3661637,0.20857729,0.9068736,,0.8476703284735049,-0.10707569130112282,0.16806270221000003,0.7467058887483912,-0.09304945634026494,0.08706557981652002,0.8400785321285982,,-1.0194007393976352,-0.6872614439429876,0.13975821006000003,1.6852780757851225,-0.24840515657357073,0.9767905267124836,0.8632733895196658,,-0.06956664232292899,-0.09941177253203203,0.112424923,-0.034016912529394594,,-3.5770237e-05,2.3245811e-06,-3.2186508e-06,1.0,2.5879592e-05,2.1159649e-05,-2.5875866e-05,1.0,2.3543835e-06,-2.1159649e-05,-2.3543835e-06,1.0,40,0.119,0,0,0.0,False,[1.04666133],[1.04932187]
0.13120674699894153,11:12:49.816237,11:12:31.720739,0,,0.016870108,0.04904314,0.06391689,-0.83130527,-0.32338843,-0.45205247,-0.44718143,0.87215567,0.19842651,0.3300914,0.36710253,-0.86964095,,0.17715874,-0.04310739,0.0764941,-0.85962987,-0.3284917,0.39131814,0.054546446,0.70252836,0.7095622,-0.50799733,0.63130563,-0.5859964,,0.0876773,1.3339196,0.46684033,0.9960431,0.0028550238,-0.08882583,-0.053884342,-0.7754123,-0.629152,-0.070672885,0.6314488,-0.7721902,,-0.060141493,0.27240092,-0.09090001,0.82319605,0.24529345,0.5120346,-0.041853957,0.925619,-0.37613526,-0.5662125,0.28820238,0.77223235,,0.01853768,0.44606575,-0.39660338,0.9102028,0.12240644,-0.39566094,-0.19353305,0.9703155,-0.14502683,0.3661637,0.20857729,0.9068736,,0.8476780512063791,-0.10707569130112282,0.16806270221000003,0.7467058887483912,-0.09304945634026494,0.08706557981652002,0.8400785321285982,,-1.0194007393976352,-0.6872614439429876,0.13975821006000003,1.6852780757851225,-0.24840515657357073,0.9767905267124836,0.8632733895196658,,-0.06956664232292899,-0.09941177253203203,0.112424923,-0.034016912529394594,,-3.5770237e-05,2.3245811e-06,-3.2186508e-06,1.0,2.5879592e-05,2.1159649e-05,-2.5875866e-05,1.0,2.3543835e-06,-2.1159649e-05,-2.3543835e-06,1.0,52,0.156,0,0,0.0,False,[1.04600598],[1.04908047]
0.16493459299999813,11:12:49.851148,11:12:31.720739,0,,0.016871165,0.049042694,0.063916415,-0.83130795,-0.32339022,-0.45204628,-0.44717962,0.87215716,0.19842401,0.3300871,0.36709738,-0.86964476,,0.17715874,-0.04310739,0.0764941,-0.85962987,-0.3284917,0.39131814,0.054546446,0.70252836,0.7095622,-0.50799733,0.63130563,-0.5859964,,0.0876773,1.3339196,0.46684033,0.9960431,0.0028550238,-0.08882583,-0.053884342,-0.7754123,-0.629152,-0.070672885,0.6314488,-0.7721902,,-0.060142484,0.27240017,-0.090899915,0.823199,0.24529555,0.5120289,-0.041855134,0.9256169,-0.37614018,-0.5662081,0.28820714,0.7722338,,0.01853768,0.44606575,-0.39660338,0.9102028,0.12240644,-0.39566094,-0.19353305,0.9703155,-0.14502683,0.3661637,0.20857729,0.9068736,,0.8476703284735049,-0.10707569130112282,0.16806270221000003,0.7467058887483912,-0.09304945634026494,0.08706557981652002,0.8400785321285982,,-1.0194007393976352,-0.6872614439429876,0.13975821006000003,1.6852780757851225,-0.24840515657357073,0.9767905267124836,0.8632733895196658,,-0.06956664232292899,-0.09941177253203203,0.112424923,-0.034016912529394594,,-3.5770237e-05,2.3245811e-06,-3.2186508e-06,1.0,2.5879592e-05,2.1159649e-05,-2.5875866e-05,1.0,2.3543835e-06,-2.1159649e-05,-2.3543835e-06,1.0,63,0.19,0,0,0.0,False,[1.04672091],[1.04922531]
0.19990667199999734,11:12:49.884927,11:12:31.720739,0,,0.016871165,0.049042694,0.063916415,-0.83130795,-0.32339022,-0.45204628,-0.44717962,0.87215716,0.19842401,0.3300871,0.36709738,-0.86964476,,0.17715874,-0.04310739,0.0764941,-0.85962987,-0.3284917,0.39131814,0.054546446,0.70252836,0.7095622,-0.50799733,0.63130563,-0.5859964,,0.0876773,1.3339196,0.46684033,0.9960431,0.0028550238,-0.08882583,-0.053884342,-0.7754123,-0.629152,-0.070672885,0.6314488,-0.7721902,,-0.060142484,0.27240017,-0.090899915,0.823199,0.24529555,0.5120289,-0.041855134,0.9256169,-0.37614018,-0.5662081,0.28820714,0.7722338,,0.01853768,0.44606575,-0.39660338,0.9102028,0.12240644,-0.39566094,-0.19353305,0.9703155,-0.14502683,0.3661637,0.20857729,0.9068736,,0.8476703284735049,-0.10707569130112282,0.16806270221000003,0.7467058887483912,-0.09304945634026494,0.08706557981652002,0.8400785321285982,,-1.0194007393976352,-0.6872614439429876,0.13975821006000003,1.6852780757851225,-0.24840515657357073,0.9767905267124836,0.8632733895196658,,-0.06956664232292899,-0.09941177253203203,0.112424923,-0.034016912529394594,,-3.5770237e-05,2.3245811e-06,-3.2186508e-06,1.0,2.5879592e-05,2.1159649e-05,-2.5875866e-05,1.0,2.3543835e-06,-2.1159649e-05,-2.3543835e-06,1.0,71,0.214,0,0,0.0,False,[1.04618471],[1.04908047]
0.2337010699993698,11:12:49.915599,11:12:31.851476,0,,0.016871165,0.049042694,0.063916415,-0.83130795,-0.32339022,-0.45204628,-0.44717962,0.87215716,0.19842401,0.3300871,0.36709738,-0.86964476,,0.17715874,-0.04310739,0.0764941,-0.85962987,-0.3284917,0.39131814,0.054546446,0.70252836,0.7095622,-0.50799733,0.63130563,-0.5859964,,0.0876773,1.3339196,0.46684033,0.9960431,0.0028550238,-0.08882583,-0.053884342,-0.7754123,-0.629152,-0.070672885,0.6314488,-0.7721902,,-0.060142484,0.27240017,-0.090899915,0.823199,0.24529555,0.5120289,-0.041855134,0.9256169,-0.37614018,-0.5662081,0.28820714,0.7722338,,0.01853768,0.44606575,-0.39660338,0.9102028,0.12240644,-0.39566094,-0.19353305,0.9703155,-0.14502683,0.3661637,0.20857729,0.9068736,,0.8476703284735049,-0.10707569130112282,0.16806270221000003,0.7467058887483912,-0.09304945634026494,0.08706557981652002,0.8400785321285982,,-1.0194007393976352,-0.6872614439429876,0.13975821006000003,1.6852780757851225,-0.24840515657357073,0.9767905267124836,0.8632733895196658,,-0.06956664232292899,-0.09941177253203203,0.112424923,-0.034016912529394594,,-3.5770237e-05,2.3245811e-06,-3.2186508e-06,1.0,2.5879592e-05,2.1159649e-05,-2.5875866e-05,1.0,2.3543835e-06,-2.1159649e-05,-2.3543835e-06,1.0,83,0.251,0,0,0.0,False,[1.04624429],[1.04922531]
0.2643782539998938,11:12:49.941930,11:12:31.851476,0,,0.016871165,0.049042694,0.063916415,-0.83130795,-0.32339022,-0.45204628,-0.44717962,0.87215716,0.19842401,0.3300871,0.36709738,-0.86964476,,0.17715874,-0.04310739,0.0764941,-0.85962987,-0.3284917,0.39131814,0.054546446,0.70252836,0.7095622,-0.50799733,0.63130563,-0.5859964,,0.0876773,1.3339196,0.46684033,0.9960431,0.0028550238,-0.08882583,-0.053884342,-0.7754123,-0.629152,-0.070672885,0.6314488,-0.7721902,,-0.060142484,0.27240017,-0.090899915,0.823199,0.24529555,0.5120289,-0.041855134,0.9256169,-0.37614018,-0.5662081,0.28820714,0.7722338,,0.01853768,0.44606575,-0.39660338,0.9102028,0.12240644,-0.39566094,-0.19353305,0.9703155,-0.14502683,0.3661637,0.20857729,0.9068736,,0.8476703284735049,-0.10707569130112282,0.16806270221000003,0.7467058887483912,-0.09304945634026494,0.08706557981652002,0.8400785321285982,,-1.0194007393976352,-0.6872614439429876,0.13975821006000003,1.6852780757851225,-0.24840515657357073,0.9767905267124836,0.8632733895196658,,-0.06956664232292899,-0.09941177253203203,0.112424923,-0.034016912529394594,,-3.5770237e-05,2.3245811e-06,-3.2186508e-06,1.0,2.5879592e-05,2.1159649e-05,-2.5875866e-05,1.0,2.3543835e-06,-2.1159649e-05,-2.3543835e-06,1.0,94,0.283,0,0,0.0,False,[1.04630387],[1.04879078]
0.29069211299974995,11:12:49.975643,11:12:31.851476,0,,0.016871165,0.049042694,0.063916415,-0.83130795,-0.32339022,-0.45204628,-0.44717962,0.87215716,0.19842401,0.3300871,0.36709738,-0.86964476,,0.17715874,-0.04310739,0.0764941,-0.85962987,-0.3284917,0.39131814,0.054546446,0.70252836,0.7095622,-0.50799733,0.63130563,-0.5859964,,0.0876773,1.3339196,0.46684033,0.9960431,0.0028550238,-0.08882583,-0.053884342,-0.7754123,-0.629152,-0.070672885,0.6314488,-0.7721902,,-0.060142484,0.27240017,-0.090899915,0.823199,0.24529555,0.5120289,-0.041855134,0.9256169,-0.37614018,-0.5662081,0.28820714,0.7722338,,0.01853768,0.44606575,-0.39660338,0.9102028,0.12240644,-0.39566094,-0.19353305,0.9703155,-0.14502683,0.3661637,0.20857729,0.9068736,,0.8476703284735049,-0.10707569130112282,0.16806270221000003,0.7467058887483912,-0.09304945634026494,0.08706557981652002,0.8400785321285982,,-1.0194007393976352,-0.6872614439429876,0.13975821006000003,1.6852780757851225,-0.24840515657357073,0.9767905267124836,0.8632733895196658,,-0.06956664232292899,-0.09941177253203203,0.112424923,-0.034016912529394594,,-3.5770237e-05,2.3245811e-06,-3.2186508e-06,1.0,2.5879592e-05,2.1159649e-05,-2.5875866e-05,1.0,2.3543835e-06,-2.1159649e-05,-2.3543835e-06,1.0,102,0.308,0,0,0.0,False,[1.04612513],[1.04946671]
0.32403378699928,11:12:50.001270,11:12:31.851476,0,,0.016871165,0.049042694,0.063916415,-0.83130795,-0.32339022,-0.45204628,-0.44717962,0.87215716,0.19842401,0.3300871,0.36709738,-0.86964476,,0.17715874,-0.04310739,0.0764941,-0.85962987,-0.3284917,0.39131814,0.054546446,0.70252836,0.7095622,-0.50799733,0.63130563,-0.5859964,,0.0876773,1.3339196,0.46684033,0.9960431,0.0028550238,-0.08882583,-0.053884342,-0.7754123,-0.629152,-0.070672885,0.6314488,-0.7721902,,-0.060142484,0.27240017,-0.090899915,0.823199,0.24529555,0.5120289,-0.041855134,0.9256169,-0.37614018,-0.5662081,0.28820714,0.7722338,,0.01853768,0.44606575,-0.39660338,0.9102028,0.12240644,-0.39566094,-0.19353305,0.9703155,-0.14502683,0.3661637,0.20857729,0.9068736,,0.8476703284735049,-0.10707569130112282,0.16806270221000003,0.7467058887483912,-0.09304945634026494,0.08706557981652002,0.8400785321285982,,-1.0194007393976352,-0.6872614439429876,0.13975821006000003,1.6852780757851225,-0.24840515657357073,0.9767905267124836,0.8632733895196658,,-0.06956664232292899,-0.09941177253203203,0.112424923,-0.034016912529394594,,-3.5770237e-05,2.3245811e-06,-3.2186508e-06,1.0,2.5879592e-05,2.1159649e-05,-2.5875866e-05,1.0,2.3543835e-06,-2.1159649e-05,-2.3543835e-06,1.0,109,0.329,0,0,0.0,False,[1.0464826],[1.04941843]
0.3500540200002433,11:12:50.025832,11:12:31.969325,0,,0.016871165,0.049042694,0.063916415,-0.83130795,-0.32339022,-0.45204628,-0.44717962,0.87215716,0.19842401,0.3300871,0.36709738,-0.86964476,,0.17715874,-0.04310739,0.0764941,-0.85962987,-0.3284917,0.39131814,0.054546446,0.70252836,0.7095622,-0.50799733,0.63130563,-0.5859964,,0.0876773,1.3339196,0.46684033,0.9960431,0.0028550238,-0.08882583,-0.053884342,-0.7754123,-0.629152,-0.070672885,0.6314488,-0.7721902,,-0.060142484,0.27240017,-0.090899915,0.823199,0.24529555,0.5120289,-0.041855134,0.9256169,-0.37614018,-0.5662081,0.28820714,0.7722338,,0.01853768,0.44606575,-0.39660338,0.9102028,0.12240644,-0.39566094,-0.19353305,0.9703155,-0.14502683,0.3661637,0.20857729,0.9068736,,0.8476703284735049,-0.10707569130112282,0.16806270221000003,0.7467058887483912,-0.09304945634026494,0.08706557981652002,0.8400785321285982,,-1.0194007393976352,-0.6872614439429876,0.13975821006000003,1.6852780757851225,-0.24840515657357073,0.9767905267124836,0.8632733895196658,,-0.06956664232292899,-0.09941177253203203,0.112424923,-0.034016912529394594,,-3.5770237e-05,2.3245811e-06,-3.2186508e-06,1.0,2.5879592e-05,2.1159649e-05,-2.5875866e-05,1.0,2.3543835e-06,-2.1159649e-05,-2.3543835e-06,1.0,120,0.362,0,0,0.0,False,[1.04636344],[1.04922531]
0.3745800729993789,11:12:50.054895,11:12:31.969325,0,,0.016871165,0.049042694,0.063916415,-0.83130795,-0.32339022,-0.45204628,-0.44717962,0.87215716,0.19842401,0.3300871,0.36709738,-0.86964476,,0.17715874,-0.04310739,0.0764941,-0.85962987,-0.3284917,0.39131814,0.054546446,0.70252836,0.7095622,-0.50799733,0.63130563,-0.5859964,,0.0876773,1.3339196,0.46684033,0.9960431,0.0028550238,-0.08882583,-0.053884342,-0.7754123,-0.629152,-0.070672885,0.6314488,-0.7721902,,-0.060142484,0.27240017,-0.090899915,0.823199,0.24529555,0.5120289,-0.041855134,0.9256169,-0.37614018,-0.5662081,0.28820714,0.7722338,,0.01853768,0.44606575,-0.39660338,0.9102028,0.12240644,-0.39566094,-0.19353305,0.9703155,-0.14502683,0.3661637,0.20857729,0.9068736,,0.8476703284735049,-0.10707569130112282,0.16806270221000003,0.7467058887483912,-0.09304945634026494,0.08706557981652002,0.8400785321285982,,-1.0194007393976352,-0.6872614439429876,0.13975821006000003,1.6852780757851225,-0.24840515657357073,0.9767905267124836,0.8632733895196658,,-0.06956664232292899,-0.09941177253203203,0.112424923,-0.034016912529394594,,-3.5770237e-05,2.3245811e-06,-3.2186508e-06,1.0,2.5879592e-05,2.1159649e-05,-2.5875866e-05,1.0,2.3543835e-06,-2.1159649e-05,-2.3543835e-06,1.0,131,0.395,0,0,0.0,False,[1.04600598],[1.04903219]
0.403672225000264,11:12:50.083318,11:12:31.969325,0,,0.016871165,0.049042694,0.063916415,-0.83130795,-0.32339022,-0.45204628,-0.44717962,0.87215716,0.19842401,0.3300871,0.36709738,-0.86964476,,0.17715874,-0.04310739,0.0764941,-0.85962987,-0.3284917,0.39131814,0.054546446,0.70252836,0.7095622,-0.50799733,0.63130563,-0.5859964,,0.0876773,1.3339196,0.46684033,0.9960431,0.0028550238,-0.08882583,-0.053884342,-0.7754123,-0.629152,-0.070672885,0.6314488,-0.7721902,,-0.060142484,0.27240017,-0.090899915,0.823199,0.24529555,0.5120289,-0.041855134,0.9256169,-0.37614018,-0.5662081,0.28820714,0.7722338,,0.01853768,0.44606575,-0.39660338,0.9102028,0.12240644,-0.39566094,-0.19353305,0.9703155,-0.14502683,0.3661637,0.20857729,0.9068736,,0.8476703284735049,-0.10707569130112282,0.16806270221000003,0.7467058887483912,-0.09304945634026494,0.08706557981652002,0.8400785321285982,,-1.0194007393976352,-0.6872614439429876,0.13975821006000003,1.6852780757851225,-0.24840515657357073,0.9767905267124836,0.8632733895196658,,-0.06956664232292899,-0.09941177253203203,0.112424923,-0.034016912529394594,,-3.5770237e-05,2.3245811e-06,-3.2186508e-06,1.0,2.5879592e-05,2.1159649e-05,-2.5875866e-05,1.0,2.3543835e-06,-2.1159649e-05,-2.3543835e-06,1.0,142,0.428,0,0,0.0,False,[1.04624429],[1.04912875]
0.43209979200037196,11:12:50.116265,11:12:32.041970,0,,0.016871165,0.049042694,0.063916415,-0.83130795,-0.32339022,-0.45204628,-0.44717962,0.87215716,0.19842401,0.3300871,0.36709738,-0.86964476,,0.17715874,-0.04310739,0.0764941,-0.85962987,-0.3284917,0.39131814,0.054546446,0.70252836,0.7095622,-0.50799733,0.63130563,-0.5859964,,0.0876773,1.3339196,0.46684033,0.9960431,0.0028550238,-0.08882583,-0.053884342,-0.7754123,-0.629152,-0.070672885,0.6314488,-0.7721902,,-0.060142484,0.27240017,-0.090899915,0.823199,0.24529555,0.5120289,-0.041855134,0.9256169,-0.37614018,-0.5662081,0.28820714,0.7722338,,0.01853768,0.44606575,-0.39660338,0.9102028,0.12240644,-0.39566094,-0.19353305,0.9703155,-0.14502683,0.3661637,0.20857729,0.9068736,,0.8476703284735049,-0.10707569130112282,0.16806270221000003,0.7467058887483912,-0.09304945634026494,0.08706557981652002,0.8400785321285982,,-1.0194007393976352,-0.6872614439429876,0.13975821006000003,1.6852780757851225,-0.24840515657357073,0.9767905267124836,0.8632733895196658,,-0.06956664232292899,-0.09941177253203203,0.112424923,-0.034016912529394594,,-3.5770237e-05,2.3245811e-06,-3.2186508e-06,1.0,2.5879592e-05,2.1159649e-05,-2.5875866e-05,1.0,2.3543835e-06,-2.1159649e-05,-2.3543835e-06,1.0,153,0.46,0,0,0.0,False,[1.04624429],[1.04917703]
0.46502369699919655,11:12:50.151418,11:12:32.041970,0,,0.016871165,0.049042694,0.063916415,-0.83130795,-0.32339022,-0.45204628,-0.44717962,0.87215716,0.19842401,0.3300871,0.36709738,-0.86964476,,0.17715874,-0.04310739,0.0764941,-0.85962987,-0.3284917,0.39131814,0.054546446,0.70252836,0.7095622,-0.50799733,0.63130563,-0.5859964,,0.0876773,1.3339196,0.46684033,0.9960431,0.0028550238,-0.08882583,-0.053884342,-0.7754123,-0.629152,-0.070672885,0.6314488,-0.7721902,,-0.060142484,0.27240017,-0.090899915,0.823199,0.24529555,0.5120289,-0.041855134,0.9256169,-0.37614018,-0.5662081,0.28820714,0.7722338,,0.01853768,0.44606575,-0.39660338,0.9102028,0.12240644,-0.39566094,-0.19353305,0.9703155,-0.14502683,0.3661637,0.20857729,0.9068736,,0.8476703284735049,-0.10707569130112282,0.16806270221000003,0.7467058887483912,-0.09304945634026494,0.08706557981652002,0.8400785321285982,,-1.0194007393976352,-0.6872614439429876,0.13975821006000003,1.6852780757851225,-0.24840515657357073,0.9767905267124836,0.8632733895196658,,-0.06956664232292899,-0.09941177253203203,0.112424923,-0.034016912529394594,,-3.5770237e-05,2.3245811e-06,-3.2186508e-06,1.0,2.5879592e-05,2.1159649e-05,-2.5875866e-05,1.0,2.3543835e-06,-2.1159649e-05,-2.3543835e-06,1.0,164,0.493,0,0,0.0,False,[1.04624429],[1.04932187]
0.5001729579998937,11:12:50.177489,11:12:32.119755,0,,0.016871165,0.049042694,0.063916415,-0.83130795,-0.32339022,-0.45204628,-0.44717962,0.87215716,0.19842401,0.3300871,0.36709738,-0.86964476,,0.17715874,-0.04310739,0.0764941,-0.85962987,-0.32852364,0.39129126,0.054546446,0.7024704,0.7096195,-0.50799733,0.63135344,-0.58594483,,0.0876773,1.3339196,0.46684033,0.9960431,0.0028550238,-0.08882583,-0.053884342,-0.7754123,-0.629152,-0.070672885,0.6314488,-0.7721902,,-0.060142484,0.27240017,-0.090899915,0.823199,0.24529555,0.5120289,-0.041855134,0.9256169,-0.37614018,-0.5662081,0.28820714,0.7722338,,0.01853768,0.44606575,-0.39660338,0.9102028,0.12243875,-0.39565092,-0.19353305,0.9703273,-0.14494757,0.3661637,0.20850322,0.9068906,,0.8476703284735049,-0.10707569130112282,0.16806270221000003,0.7467058887483912,-0.09304945634026494,0.08706557981652002,0.8400785321285982,,-1.0194007393976352,-0.6872614439429876,0.13975821006000003,1.6852780757851225,-0.24840515657357073,0.9768722054526241,0.8634367335858002,,-0.06956664232292899,-0.09941177253203203,0.112424923,-0.034016912529394594,,-3.5770237e-05,2.3245811e-06,-3.2186508e-06,1.0,2.5879592e-05,2.1159649e-05,-2.5875866e-05,1.0,2.3543835e-06,-2.1159649e-05,-2.3543835e-06,1.0,175,0.526,0,0,0.0,False,[1.04636344],[1.04903219]
0.5262527699997008,11:12:50.216403,11:12:32.119755,0,,0.016871165,0.049042694,0.063916415,-0.83130795,-0.32339022,-0.45204628,-0.44717962,0.87215716,0.19842401,0.3300871,0.36709738,-0.86964476,,0.17715874,-0.04310739,0.0764941,-0.85962987,-0.32855558,0.3912644,0.054546446,0.7024125,0.70967686,-0.50799733,0.63140136,-0.5858933,,0.0876773,1.3339196,0.46684033,0.9960431,0.0028550238,-0.08882583,-0.053884342,-0.7754123,-0.629152,-0.070672885,0.6314488,-0.7721902,,-0.060142484,0.27240017,-0.090899915,0.823199,0.24529555,0.5120289,-0.041855134,0.9256169,-0.37614018,-0.5662081,0.28820714,0.7722338,,0.01853768,0.44606575,-0.39660338,0.9102028,0.122471064,-0.3956409,-0.19353305,0.9703392,-0.14486833,0.3661637,0.20842914,0.9069076,,0.8476780512063791,-0.10707569130112282,0.16806270221000003,0.7467058887483912,-0.09304945634026494,0.08706557981652002,0.8400785321285982,,-1.0194007393976352,-0.6872614439429876,0.13975821006000003,1.6852780757851225,-0.24840515657357073,0.9769538841927646,0.8636000776519344,,-0.06956664232292899,-0.09941177253203203,0.112424923,-0.034016912529394594,,-3.5770237e-05,2.3245811e-06,-3.2186508e-06,1.0,2.5879592e-05,2.1159649e-05,-2.5875866e-05,1.0,2.3543835e-06,-2.1159649e-05,-2.3543835e-06,1.0,186,0.559,0,0,0.0,False,[1.04624429],[1.04956327]
0.5651858189994527,11:12:50.248393,11:12:32.192423,0,,0.016871165,0.049042694,0.063916415,-0.83130795,-0.32339022,-0.45204628,-0.44717962,0.87215716,0.19842401,0.3300871,0.36709738,-0.86964476,,0.17715867,-0.043108374,0.07649428,-0.8596291,-0.32855242,0.39126867,0.05454816,0.70241773,0.70967156,-0.50799835,0.6313971,-0.5858969,,0.0876773,1.3339196,0.46684033,0.9960431,0.0028550238,-0.08882583,-0.053884342,-0.7754123,-0.629152,-0.070672885,0.6314488,-0.7721902,,-0.060142484,0.27240017,-0.090899915,0.823199,0.24529555,0.5120289,-0.041855134,0.9256169,-0.37614018,-0.5662081,0.28820714,0.7722338,,0.01853785,0.44606537,-0.3966043,0.910202,0.12246783,-0.3956437,-0.19353302,0.97033817,-0.14487514,0.36616564,0.20843577,0.9069053,,0.8476703284735049,-0.10707569130112282,0.16806270221000003,0.7467058887483912,-0.09304945634026494,0.08706557981652002,0.8400785321285982,,-1.0194007393976352,-0.6872691666758618,0.13975821006000003,1.6852780757851225,-0.24840515657357073,0.9769538841927646,0.8636000776519344,,-0.06956664232292899,-0.09941177253203203,0.112424923,-0.034016912529394594,,-3.5770237e-05,2.3245811e-06,-3.2186508e-06,1.0,2.5879592e-05,2.1159649e-05,-2.5875866e-05,1.0,2.3543835e-06,-2.1159649e-05,-2.3543835e-06,1.0,197,0.592,0,0,0.0,False,[1.0464826],[1.04893562]
0.5971778749990335,11:12:50.277505,11:12:32.192423,0,,0.016871165,0.049042694,0.063916415,-0.83130795,-0.32339022,-0.45204628,-0.44717962,0.87215716,0.19842401,0.3300871,0.36709738,-0.86964476,,0.17715874,-0.04310739,0.0764941,-0.85962987,-0.32855558,0.3912644,0.054546446,0.7024125,0.70967686,-0.50799733,0.63140136,-0.5858933,,0.0876773,1.3339196,0.46684033,0.9960431,0.0028550238,-0.08882583,-0.053884342,-0.7754123,-0.629152,-0.070672885,0.6314488,-0.7721902,,-0.060142484,0.27240017,-0.090899915,0.823199,0.24529555,0.5120289,-0.041855134,0.9256169,-0.37614018,-0.5662081,0.28820714,0.7722338,,0.01853768,0.44606575,-0.39660338,0.9102028,0.122471064,-0.3956409,-0.19353305,0.9703392,-0.14486833,0.3661637,0.20842914,0.9069076,,0.8476703284735049,-0.10707569130112282,0.16806270221000003,0.7467058887483912,-0.09304945634026494,0.08706557981652002,0.8400785321285982,,-1.0194007393976352,-0.6872614439429876,0.13975821006000003,1.6852780757851225,-0.24840515657357073,0.9769538841927646,0.8636000776519344,,-0.06956664232292899,-0.09941177253203203,0.112424923,-0.034016912529394594,,-3.5770237e-05,2.3245811e-06,-3.2186508e-06,1.0,2.5879592e-05,2.1159649e-05,-2.5875866e-05,1.0,2.3543835e-06,-2.1159649e-05,-2.3543835e-06,1.0,208,0.624,0,0,0.0,False,[1.04630387],[1.04932187]
0.6262731429997075,11:12:50.309213,11:12:32.192423,0,,0.016871165,0.049042694,0.063916415,-0.83130795,-0.32339022,-0.45204628,-0.44717962,0.87215716,0.19842401,0.3300871,0.36709738,-0.86964476,,0.17715874,-0.04310739,0.0764941,-0.85962987,-0.32855558,0.3912644,0.054546446,0.7024125,0.70967686,-0.50799733,0.63140136,-0.5858933,,0.0876773,1.3339196,0.46684033,0.9960431,0.0028550238,-0.08882583,-0.053884342,-0.7754123,-0.629152,-0.070672885,0.6314488,-0.7721902,,-0.060142484,0.27240017,-0.090899915,0.823199,0.24529555,0.5120289,-0.041855134,0.9256169,-0.37614018,-0.5662081,0.28820714,0.7722338,,0.01853768,0.44606575,-0.39660338,0.9102028,0.122471064,-0.3956409,-0.19353305,0.9703392,-0.14486833,0.3661637,0.20842914,0.9069076,,0.8476703284735049,-0.10707569130112282,0.16806270221000003,0.7467058887483912,-0.09304945634026494,0.08706557981652002,0.8400785321285982,,-1.0194007393976352,-0.6872614439429876,0.13975821006000003,1.6852780757851225,-0.24840515657357073,0.9769538841927646,0.8636000776519344,,-0.06956664232292899,-0.09941177253203203,0.112424923,-0.034016912529394594,,-3.5770237e-05,2.3245811e-06,-3.2186508e-06,1.0,2.5879592e-05,2.1159649e-05,-2.5875866e-05,1.0,2.3543835e-06,-2.1159649e-05,-2.3543835e-06,1.0,216,0.648,0,0,0.0,False,[1.0464826],[1.04946671]
0.6579058259994781,11:12:50.343296,11:12:32.280432,0,,0.016871165,0.049042694,0.063916415,-0.83130795,-0.32339022,-0.45204628,-0.44717962,0.87215716,0.19842401,0.3300871,0.36709738,-0.86964476,,0.17715874,-0.04310739,0.0764941,-0.85962987,-0.32855558,0.3912644,0.054546446,0.7024125,0.70967686,-0.50799733,0.63140136,-0.5858933,,0.0876773,1.3339196,0.46684033,0.9960431,0.0028550238,-0.08882583,-0.053884342,-0.7754123,-0.629152,-0.070672885,0.6314488,-0.7721902,,-0.060142484,0.27240017,-0.090899915,0.823199,0.24529555,0.5120289,-0.041855134,0.9256169,-0.37614018,-0.5662081,0.28820714,0.7722338,,0.01853768,0.44606575,-0.39660338,0.9102028,0.122471064,-0.3956409,-0.19353305,0.9703392,-0.14486833,0.3661637,0.20842914,0.9069076,,0.8476703284735049,-0.10707569130112282,0.16806270221000003,0.7467058887483912,-0.09304945634026494,0.08706557981652002,0.8400785321285982,,-1.0194007393976352,-0.6872614439429876,0.13975821006000003,1.6852780757851225,-0.24840515657357073,0.9769538841927646,0.8636000776519344,,-0.06956664232292899,-0.09941177253203203,0.112424923,-0.034016912529394594,,-3.5770237e-05,2.3245811e-06,-3.2186508e-06,1.0,2.5879592e-05,2.1159649e-05,-2.5875866e-05,1.0,2.3543835e-06,-2.1159649e-05,-2.3543835e-06,1.0,227,0.681,0,0,0.0,False,[1.04588682],[1.04922531]
0.6920785599995725,11:12:50.375034,11:12:32.280432,0,,0.016871165,0.049042694,0.063916415,-0.83130795,-0.32339022,-0.45204628,-0.44717962,0.87215716,0.19842401,0.3300871,0.36709738,-0.86964476,,0.17715874,-0.04310739,0.0764941,-0.85962987,-0.32855558,0.3912644,0.054546446,0.7024125,0.70967686,-0.50799733,0.63140136,-0.5858933,,0.0876773,1.3339196,0.46684033,0.9960431,0.0028550238,-0.08882583,-0.053884342,-0.7754123,-0.629152,-0.070672885,0.6314488,-0.7721902,,-0.060142484,0.27240017,-0.090899915,0.823199,0.24529555,0.5120289,-0.041855134,0.9256169,-0.37614018,-0.5662081,0.28820714,0.7722338,,0.01853768,0.44606575,-0.39660338,0.9102028,0.122471064,-0.3956409,-0.19353305,0.9703392,-0.14486833,0.3661637,0.20842914,0.9069076,,0.8476703284735049,-0.10707569130112282,0.16806270221000003,0.7467058887483912,-0.09304945634026494,0.08706557981652002,0.8400785321285982,,-1.0194007393976352,-0.6872614439429876,0.13975821006000003,1.6852780757851225,-0.24840515657357073,0.9769538841927646,0.8636000776519344,,-0.06956664232292899,-0.09941177253203203,0.112424923,-0.034016912529394594,,-3.5770237e-05,2.3245811e-06,-3.2186508e-06,1.0,2.5879592e-05,2.1159649e-05,-2.5875866e-05,1.0,2.3543835e-06,-2.1159649e-05,-2.3543835e-06,1.0,238,0.713,0,0,0.0,False,[1.04600598],[1.04951499]
0.7237833740000497,11:12:50.404484,11:12:32.354843,0,,0.016871165,0.049042694,0.063916415,-0.83130795,-0.32339022,-0.45204628,-0.44717962,0.87215716,0.19842401,0.3300871,0.36709738,-0.86964476,,0.17715874,-0.04310739,0.0764941,-0.85962987,-0.32855558,0.3912644,0.054546446,0.7024125,0.70967686,-0.50799733,0.63140136,-0.5858933,,0.0876773,1.3339196,0.46684033,0.9960431,0.0028550238,-0.08882583,-0.053884342,-0.7754123,-0.629152,-0.070672885,0.6314488,-0.7721902,,-0.060142484,0.27240017,-0.090899915,0.823199,0.24529555,0.5120289,-0.041855134,0.9256169,-0.37614018,-0.5662081,0.28820714,0.7722338,,0.01853768,0.44606575,-0.39660338,0.9102028,0.122471064,-0.3956409,-0.19353305,0.9703392,-0.14486833,0.3661637,0.20842914,0.9069076,,0.8476703284735049,-0.10707569130112282,0.16806270221000003,0.7467058887483912,-0.09304945634026494,0.08706557981652002,0.8400785321285982,,-1.0194007393976352,-0.6872614439429876,0.13975821006000003,1.6852780757851225,-0.24840515657357073,0.9769538841927646,0.8636000776519344,,-0.06956664232292899,-0.09941177253203203,0.112424923,-0.034016912529394594,,-3.5770237e-05,2.3245811e-06,-3.2186508e-06,1.0,2.5879592e-05,2.1159649e-05,-2.5875866e-05,1.0,2.3543835e-06,-2.1159649e-05,-2.3543835e-06,1.0,245,0.734,0,0,0.0,False,[1.04624429],[1.04946671]
0.7532620189995214,11:12:50.430818,11:12:32.354843,0,,0.016871165,0.049042694,0.063916415,-0.83130795,-0.32339022,-0.45204628,-0.44717962,0.87215716,0.19842401,0.3300871,0.36709738,-0.86964476,,0.17715874,-0.04310739,0.0764941,-0.85962987,-0.32855558,0.3912644,0.054546446,0.7024125,0.70967686,-0.50799733,0.63140136,-0.5858933,,0.0876773,1.3339196,0.46684033,0.9960431,0.0028550238,-0.08882583,-0.053884342,-0.7754123,-0.629152,-0.070672885,0.6314488,-0.7721902,,-0.060142484,0.27240017,-0.090899915,0.823199,0.24529555,0.5120289,-0.041855134,0.9256169,-0.37614018,-0.5662081,0.28820714,0.7722338,,0.01853768,0.44606575,-0.39660338,0.9102028,0.122471064,-0.3956409,-0.19353305,0.9703392,-0.14486833,0.3661637,0.20842914,0.9069076,,0.8476703284735049,-0.10707569130112282,0.16806270221000003,0.7467058887483912,-0.09304945634026494,0.08706557981652002,0.8400785321285982,,-1.0194007393976352,-0.6872614439429876,0.13975821006000003,1.6852780757851225,-0.24840515657357073,0.9769538841927646,0.8636000776519344,,-0.06956664232292899,-0.09941177253203203,0.112424923,-0.034016912529394594,,-3.5770237e-05,2.3245811e-06,-3.2186508e-06,1.0,2.5879592e-05,2.1159649e-05,-2.5875866e-05,1.0,2.3543835e-06,-2.1159649e-05,-2.3543835e-06,1.0,256,0.767,0,0,0.0,False,[1.04588682],[1.04883906]
0.779532503000155,11:12:50.465019,11:12:32.354843,0,,0.016871165,0.049042694,0.063916415,-0.83130795,-0.32339022,-0.45204628,-0.44717962,0.87215716,0.19842401,0.3300871,0.36709738,-0.86964476,,0.17715874,-0.04310739,0.0764941,-0.85962987,-0.32855558,0.3912644,0.054546446,0.7024125,0.70967686,-0.50799733,0.63140136,-0.5858933,,0.0876773,1.3339196,0.46684033,0.9960431,0.0028550238,-0.08882583,-0.053884342,-0.7754123,-0.629152,-0.070672885,0.6314488,-0.7721902,,-0.060142484,0.27240017,-0.090899915,0.823199,0.24529555,0.5120289,-0.041855134,0.9256169,-0.37614018,-0.5662081,0.28820714,0.7722338,,0.01853768,0.44606575,-0.39660338,0.9102028,0.122471064,-0.3956409,-0.19353305,0.9703392,-0.14486833,0.3661637,0.20842914,0.9069076,,0.8476703284735049,-0.10707569130112282,0.16806270221000003,0.7467058887483912,-0.09304945634026494,0.08706557981652002,0.8400785321285982,,-1.0194007393976352,-0.6872614439429876,0.13975821006000003,1.6852780757851225,-0.24840515657357073,0.9769538841927646,0.8636000776519344,,-0.06956664232292899,-0.09941177253203203,0.112424923,-0.034016912529394594,,-3.5770237e-05,2.3245811e-06,-3.2186508e-06,1.0,2.5879592e-05,2.1159649e-05,-2.5875866e-05,1.0,2.3543835e-06,-2.1159649e-05,-2.3543835e-06,1.0,267,0.799,0,0,0.0,False,[1.04624429],[1.04898391]
0.8138020699989283,11:12:50.495605,11:12:32.430301,0,,0.016871165,0.049042694,0.063916415,-0.83130795,-0.32339022,-0.45204628,-0.44717962,0.87215716,0.19842401,0.3300871,0.36709738,-0.86964476,,0.17715874,-0.04310739,0.0764941,-0.85962987,-0.32855558,0.3912644,0.054546446,0.7024125,0.70967686,-0.50799733,0.63140136,-0.5858933,,0.0876773,1.3339196,0.46684033,0.9960431,0.0028550238,-0.08882583,-0.053884342,-0.7754123,-0.629152,-0.070672885,0.6314488,-0.7721902,,-0.060142484,0.27240017,-0.090899915,0.823199,0.24529555,0.5120289,-0.041855134,0.9256169,-0.37614018,-0.5662081,0.28820714,0.7722338,,0.01853768,0.44606575,-0.39660338,0.9102028,0.122471064,-0.3956409,-0.19353305,0.9703392,-0.14486833,0.3661637,0.20842914,0.9069076,,0.8476703284735049,-0.10707569130112282,0.16806270221000003,0.7467058887483912,-0.09304945634026494,0.08706557981652002,0.8400785321285982,,-1.0194007393976352,-0.6872614439429876,0.13975821006000003,1.6852780757851225,-0.24840515657357073,0.9769538841927646,0.8636000776519344,,-0.06956664232292899,-0.09941177253203203,0.112424923,-0.034016912529394594,,-3.5770237e-05,2.3245811e-06,-3.2186508e-06,1.0,2.5879592e-05,2.1159649e-05,-2.5875866e-05,1.0,2.3543835e-06,-2.1159649e-05,-2.3543835e-06,1.0,278,0.832,0,0,0.0,False,[1.04618471],[1.04917703]
0.8442443650001223,11:12:50.525756,11:12:32.430301,0,,0.016871165,0.049042694,0.063916415,-0.83130795,-0.32339022,-0.45204628,-0.44717962,0.87215716,0.19842401,0.3300871,0.36709738,-0.86964476,,0.17715874,-0.04310739,0.0764941,-0.85962987,-0.32855558,0.3912644,0.054546446,0.7024125,0.70967686,-0.50799733,0.63140136,-0.5858933,,0.0876773,1.3339196,0.46684033,0.9960431,0.0028550238,-0.08882583,-0.053884342,-0.7754123,-0.629152,-0.070672885,0.6314488,-0.7721902,,-0.060142484,0.27240017,-0.090899915,0.823199,0.24529555,0.5120289,-0.041855134,0.9256169,-0.37614018,-0.5662081,0.28820714,0.7722338,,0.01853768,0.44606575,-0.39660338,0.9102028,0.122471064,-0.3956409,-0.19353305,0.9703392,-0.14486833,0.3661637,0.20842914,0.9069076,,0.8476703284735049,-0.10707569130112282,0.16806270221000003,0.7467058887483912,-0.09304945634026494,0.08706557981652002,0.8400785321285982,,-1.0194007393976352,-0.6872614439429876,0.13975821006000003,1.6852780757851225,-0.24840515657357073,0.9769538841927646,0.8636000776519344,,-0.06956664232292899,-0.09941177253203203,0.112424923,-0.034016912529394594,,-3.5770237e-05,2.3245811e-06,-3.2186508e-06,1.0,2.5879592e-05,2.1159649e-05,-2.5875866e-05,1.0,2.3543835e-06,-2.1159649e-05,-2.3543835e-06,1.0,289,0.865,0,0,0.0,False,[1.04618471],[1.04893562]
0.8745331310001347,11:12:50.560611,11:12:32.430301,0,,0.016949572,0.049028166,0.06393379,-0.83128124,-0.3234629,-0.45204335,-0.4472375,0.8721377,0.1983791,0.33007586,0.36707953,-0.86965656,,0.17709781,-0.043168366,0.0764851,-0.85961854,-0.32851014,0.39132744,0.0546138,0.7024367,0.7096477,-0.5080092,0.631398,-0.58588654,,0.0876773,1.3339196,0.46684033,0.9960431,0.0028550238,-0.08882583,-0.053884342,-0.7754123,-0.629152,-0.070672885,0.6314488,-0.7721902,,-0.06022119,0.2723932,-0.09092032,0.8231764,0.2453704,0.5120293,-0.041908477,0.92559755,-0.37618193,-0.566237,0.2882057,0.77221316,,0.01860744,0.44603673,-0.39664578,0.9101838,0.1224236,-0.3956993,-0.19350658,0.9703408,-0.14489272,0.36622488,0.20844944,0.90687823,,0.8476703284735049,-0.10707569130112282,0.16806270221000003,0.7467058887483912,-0.09304945634026494,0.08706557981652002,0.8400785321285982,,-1.0194007393976352,-0.6872614439429876,0.13975821006000003,1.6852780757851225,-0.24840515657357073,0.9769538841927646,0.8636000776519344,,-0.06956664232292899,-0.09941177253203203,0.112424923,-0.034016912529394594,,-3.5770237e-05,2.3245811e-06,-3.2186508e-06,1.0,2.5879592e-05,2.1159649e-05,-2.5875866e-05,1.0,2.3543835e-06,-2.1159649e-05,-2.3543835e-06,1.0,300,0.898,0,0,0.0,False,[1.04600598],[1.04917703]
0.9093622130003496,11:12:50.593076,11:12:32.515851,0,,0.016928148,0.04902628,0.06392789,-0.83129025,-0.32344466,-0.4520398,-0.4472204,0.8721442,0.19838858,0.33007628,0.3670799,-0.8696562,,0.17707545,-0.04316942,0.07647812,-0.85962015,-0.32849276,0.39133847,0.054631338,0.7024427,0.7096404,-0.5080046,0.63140035,-0.58588797,,0.087702,1.3339182,0.46683475,0.99604195,0.0028390328,-0.0888388,-0.053904884,-0.7754124,-0.62915015,-0.070672885,0.6314488,-0.7721902,,-0.06022119,0.2723932,-0.09092032,0.8231764,0.2453704,0.5120293,-0.041908477,0.92559755,-0.37618193,-0.566237,0.2882057,0.77221316,,0.01860744,0.44603673,-0.39664578,0.9101838,0.1224236,-0.3956993,-0.19350658,0.9703408,-0.14489272,0.36622488,0.20844944,0.90687823,,0.8476703284735049,-0.10707569130112282,0.16806270221000003,0.7467058887483912,-0.09304945634026494,0.08706557981652002,0.8400785321285982,,-1.0194007393976352,-0.6872614439429876,0.13975821006000003,1.6852780757851225,-0.24840515657357073,0.9769538841927646,0.8636000776519344,,-0.06956664232292899,-0.09941177253203203,0.112424923,-0.034016912529394594,,-1.071021e-05,-5.9604645e-08,-2.3841858e-07,1.0,9.953976e-06,8.139759e-06,-9.953976e-06,1.0,8.940697e-07,-8.139759e-06,-8.940697e-07,1.0,311,0.932,0,0,0.0,False,[1.04642302],[1.04903219]
0.9418574859992077,11:12:50.621506,11:12:32.515851,0,,0.016928148,0.04902628,0.06392789,-0.83129025,-0.32344466,-0.4520398,-0.4472204,0.8721442,0.19838858,0.33007628,0.3670799,-0.8696562,,0.17707545,-0.04316942,0.07647812,-0.85962015,-0.32849276,0.39133847,0.054631338,0.7024427,0.7096404,-0.5080046,0.63140035,-0.58588797,,0.087702,1.3339182,0.46683475,0.99604195,0.0028390328,-0.0888388,-0.053904884,-0.7754124,-0.62915015,-0.070672885,0.6314488,-0.7721902,,-0.06022119,0.2723932,-0.09092032,0.8231764,0.2453704,0.5120293,-0.041908477,0.92559755,-0.37618193,-0.566237,0.2882057,0.77221316,,0.01860744,0.44603673,-0.39664578,0.9101838,0.1224236,-0.3956993,-0.19350658,0.9703408,-0.14489272,0.36622488,0.20844944,0.90687823,,0.8476703284735049,-0.10707569130112282,0.16806270221000003,0.7467058887483912,-0.09304945634026494,0.08706557981652002,0.8400785321285982,,-1.0194007393976352,-0.6872614439429876,0.13975821006000003,1.6852780757851225,-0.24840515657357073,0.9769538841927646,0.8636000776519344,,-0.06956664232292899,-0.09941177253203203,0.112424923,-0.034016912529394594,,-1.071021e-05,-5.9604645e-08,-2.3841858e-07,1.0,9.953976e-06,8.139759e-06,-9.953976e-06,1.0,8.940697e-07,-8.139759e-06,-8.940697e-07,1.0,322,0.964,0,0,0.0,False,[1.04576767],[1.04893562]
0.970293591999507,11:12:50.659312,11:12:32.595183,0,,0.016928148,0.04902628,0.06392789,-0.83129025,-0.32344466,-0.4520398,-0.4472204,0.8721442,0.19838858,0.33007628,0.3670799,-0.8696562,,0.17707545,-0.04316942,0.07647812,-0.85962015,-0.32849276,0.39133847,0.054631338,0.7024427,0.7096404,-0.5080046,0.63140035,-0.58588797,,0.087702,1.3339182,0.46683475,0.99604195,0.0028390328,-0.0888388,-0.053904884,-0.7754124,-0.62915015,-0.070672885,0.6314488,-0.7721902,,-0.06022119,0.2723932,-0.09092032,0.8231764,0.2453704,0.5120293,-0.041908477,0.92559755,-0.37618193,-0.566237,0.2882057,0.77221316,,0.01860744,0.44603673,-0.39664578,0.9101838,0.1224236,-0.3956993,-0.19350658,0.9703408,-0.14489272,0.36622488,0.20844944,0.90687823,,0.8476703284735049,-0.10707569130112282,0.16806270221000003,0.7467058887483912,-0.09304945634026494,0.08706557981652002,0.8400785321285982,,-1.0194007393976352,-0.6872614439429876,0.13975821006000003,1.6852780757851225,-0.24840515657357073,0.9769538841927646,0.8636000776519344,,-0.06956664232292899,-0.09941177253203203,0.112424923,-0.034016912529394594,,-1.071021e-05,-5.9604645e-08,-2.3841858e-07,1.0,9.953976e-06,8.139759e-06,-9.953976e-06,1.0,8.940697e-07,-8.139759e-06,-8.940697e-07,1.0,333,0.997,0,0,0.0,False,[1.04630387],[1.04903219]
1.0080305569990742,11:12:50.689074,11:12:32.595183,0,,0.016928148,0.04902628,0.06392789,-0.83129025,-0.32344466,-0.4520398,-0.4472204,0.8721442,0.19838858,0.33007628,0.3670799,-0.8696562,,0.17707545,-0.04316942,0.07647812,-0.85962015,-0.32849276,0.39133847,0.054631338,0.7024427,0.7096404,-0.5080046,0.63140035,-0.58588797,,0.087702,1.3339182,0.46683475,0.99604195,0.0028390328,-0.0888388,-0.053904884,-0.7754124,-0.62915015,-0.070672885,0.6314488,-0.7721902,,-0.06022119,0.2723932,-0.09092032,0.8231764,0.2453704,0.5120293,-0.041908477,0.92559755,-0.37618193,-0.566237,0.2882057,0.77221316,,0.01860744,0.44603673,-0.39664578,0.9101838,0.1224236,-0.3956993,-0.19350658,0.9703408,-0.14489272,0.36622488,0.20844944,0.90687823,,0.8476703284735049,-0.10707569130112282,0.16806270221000003,0.7467058887483912,-0.09304945634026494,0.08706557981652002,0.8400785321285982,,-1.0194007393976352,-0.6872614439429876,0.13975821006000003,1.6852780757851225,-0.24840515657357073,0.9769538841927646,0.8636000776519344,,-0.06956664232292899,-0.09941177253203203,0.112424923,-0.034016912529394594,,-1.071021e-05,-5.9604645e-08,-2.3841858e-07,1.0,9.953976e-06,8.139759e-06,-9.953976e-06,1.0,8.940697e-07,-8.139759e-06,-8.940697e-07,1.0,362,1.086,0,0,0.0,False,[1.04600598],[1.04893562]
1.0378613279990532,11:12:50.771495,11:12:32.680173,0,,0.016928148,0.04902628,0.06392789,-0.83129025,-0.32344466,-0.4520398,-0.4472204,0.8721442,0.19838858,0.33007628,0.3670799,-0.8696562,,0.17707545,-0.04316942,0.07647812,-0.85962015,-0.32849276,0.39133847,0.054631338,0.7024427,0.7096404,-0.5080046,0.63140035,-0.58588797,,0.087702,1.3339182,0.46683475,0.99604195,0.0028390328,-0.0888388,-0.053904884,-0.7754124,-0.62915015,-0.070672885,0.6314488,-0.7721902,,-0.06022119,0.2723932,-0.09092032,0.8231764,0.2453704,0.5120293,-0.041908477,0.92559755,-0.37618193,-0.566237,0.2882057,0.77221316,,0.01860744,0.44603673,-0.39664578,0.9101838,0.1224236,-0.3956993,-0.19350658,0.9703408,-0.14489272,0.36622488,0.20844944,0.90687823,,0.8476703284735049,-0.10707569130112282,0.16806270221000003,0.7467058887483912,-0.09304945634026494,0.08706557981652002,0.8400785321285982,,-1.0194007393976352,-0.6872614439429876,0.13975821006000003,1.6852780757851225,-0.24840515657357073,0.9769538841927646,0.8636000776519344,,-0.06956664232292899,-0.09941177253203203,0.112424923,-0.034016912529394594,,-1.071021e-05,-5.9604645e-08,-2.3841858e-07,1.0,9.953976e-06,8.139759e-06,-9.953976e-06,1.0,8.940697e-07,-8.139759e-06,-8.940697e-07,1.0,366,1.098,0,0,0.0,False,[1.0464826],[1.04903219]
1.1202825049986131,11:12:50.799173,11:12:32.680173,0,,0.016928148,0.04902628,0.06392789,-0.83129025,-0.32344466,-0.4520398,-0.4472204,0.8721442,0.19838858,0.33007628,0.3670799,-0.8696562,,0.17707545,-0.04316942,0.07647812,-0.85962015,-0.32849276,0.39133847,0.054631338,0.7024427,0.7096404,-0.5080046,0.63140035,-0.58588797,,0.087702,1.3339182,0.46683475,0.99604195,0.0028390328,-0.0888388,-0.053904884,-0.7754124,-0.62915015,-0.070672885,0.6314488,-0.7721902,,-0.06022119,0.2723932,-0.09092032,0.8231764,0.2453704,0.5120293,-0.041908477,0.92559755,-0.37618193,-0.566237,0.2882057,0.77221316,,0.01860744,0.44603673,-0.39664578,0.9101838,0.1224236,-0.3956993,-0.19350658,0.9703408,-0.14489272,0.36622488,0.20844944,0.90687823,,0.8476703284735049,-0.10707569130112282,0.16806270221000003,0.7467058887483912,-0.09304945634026494,0.08706557981652002,0.8400785321285982,,-1.0194007393976352,-0.6872614439429876,0.13975821006000003,1.6852780757851225,-0.24840515657357073,0.9769538841927646,0.8636000776519344,,-0.06956664232292899,-0.09941177253203203,0.112424923,-0.034016912529394594,,-1.071021e-05,-5.9604645e-08,-2.3841858e-07,1.0,9.953976e-06,8.139759e-06,-9.953976e-06,1.0,8.940697e-07,-8.139759e-06,-8.940697e-07,1.0,378,1.135,0,0,0.0,False,[1.04618471],[1.04898391]
1.147943422998651,11:12:50.828550,11:12:32.760292,0,,0.016928148,0.04902628,0.06392789,-0.83129025,-0.32344466,-0.4520398,-0.4472204,0.8721442,0.19838858,0.33007628,0.3670799,-0.8696562,,0.17707545,-0.04316942,0.07647812,-0.85962015,-0.32849276,0.39133847,0.054631338,0.7024427,0.7096404,-0.5080046,0.63140035,-0.58588797,,0.087702,1.3339182,0.46683475,0.99604195,0.0028390328,-0.0888388,-0.053904884,-0.7754124,-0.62915015,-0.070672885,0.6314488,-0.7721902,,-0.06022119,0.2723932,-0.09092032,0.8231764,0.2453704,0.5120293,-0.041908477,0.92559755,-0.37618193,-0.566237,0.2882057,0.77221316,,0.01860744,0.44603673,-0.39664578,0.9101838,0.1224236,-0.3956993,-0.19350658,0.9703408,-0.14489272,0.36622488,0.20844944,0.90687823,,0.8476703284735049,-0.10707569130112282,0.16806270221000003,0.7467058887483912,-0.09304945634026494,0.08706557981652002,0.8400785321285982,,-1.0194007393976352,-0.6872614439429876,0.13975821006000003,1.6852780757851225,-0.24840515657357073,0.9769538841927646,0.8636000776519344,,-0.06956664232292899,-0.09941177253203203,0.112424923,-0.034016912529394594,,-1.071021e-05,-5.9604645e-08,-2.3841858e-07,1.0,9.953976e-06,8.139759e-06,-9.953976e-06,1.0,8.940697e-07,-8.139759e-06,-8.940697e-07,1.0,386,1.16,0,0,0.0,False,[1.04600598],[1.04937015]
1.1773218899998028,11:12:50.851885,11:12:32.760292,0,,0.016928148,0.04902628,0.06392789,-0.83129025,-0.32344466,-0.4520398,-0.4472204,0.8721442,0.19838858,0.33007628,0.3670799,-0.8696562,,0.17707545,-0.04316942,0.07647812,-0.85962015,-0.32849276,0.39133847,0.054631338,0.7024427,0.7096404,-0.5080046,0.63140035,-0.58588797,,0.087702,1.3339182,0.46683475,0.99604195,0.0028390328,-0.0888388,-0.053904884,-0.7754124,-0.62915015,-0.070672885,0.6314488,-0.7721902,,-0.06022119,0.2723932,-0.09092032,0.8231764,0.2453704,0.5120293,-0.041908477,0.92559755,-0.37618193,-0.566237,0.2882057,0.77221316,,0.01860744,0.44603673,-0.39664578,0.9101838,0.1224236,-0.3956993,-0.19350658,0.9703408,-0.14489272,0.36622488,0.20844944,0.90687823,,0.8476703284735049,-0.10707569130112282,0.16806270221000003,0.7467058887483912,-0.09304945634026494,0.08706557981652002,0.8400785321285982,,-1.0194007393976352,-0.6872614439429876,0.13975821006000003,1.6852780757851225,-0.24840515657357073,0.9769538841927646,0.8636000776519344,,-0.06956664232292899,-0.09941177253203203,0.112424923,-0.034016912529394594,,-1.071021e-05,-5.9604645e-08,-2.3841858e-07,1.0,9.953976e-06,8.139759e-06,-9.953976e-06,1.0,8.940697e-07,-8.139759e-06,-8.940697e-07,1.0,394,1.184,0,0,0.0,False,[1.0464826],[1.04927359]
1.2006704149989673,11:12:50.878208,11:12:32.760292,0,,0.016928148,0.04902628,0.06392789,-0.83129025,-0.32344466,-0.4520398,-0.4472204,0.8721442,0.19838858,0.33007628,0.3670799,-0.8696562,,0.17707545,-0.04316942,0.07647812,-0.85962015,-0.32849276,0.39133847,0.054631338,0.7024427,0.7096404,-0.5080046,0.63140035,-0.58588797,,0.087702,1.3339182,0.46683475,0.99604195,0.0028390328,-0.0888388,-0.053904884,-0.7754124,-0.62915015,-0.070672885,0.6314488,-0.7721902,,-0.06022119,0.2723932,-0.09092032,0.8231764,0.2453704,0.5120293,-0.041908477,0.92559755,-0.37618193,-0.566237,0.2882057,0.77221316,,0.01860744,0.44603673,-0.39664578,0.9101838,0.1224236,-0.3956993,-0.19350658,0.9703408,-0.14489272,0.36622488,0.20844944,0.90687823,,0.8476703284735049,-0.10707569130112282,0.16806270221000003,0.7467058887483912,-0.09304945634026494,0.08706557981652002,0.8400785321285982,,-1.0194007393976352,-0.6872614439429876,0.13975821006000003,1.6852780757851225,-0.24840515657357073,0.9769538841927646,0.8636000776519344,,-0.06956664232292899,-0.09941177253203203,0.112424923,-0.034016912529394594,,-1.071021e-05,-5.9604645e-08,-2.3841858e-07,1.0,9.953976e-06,8.139759e-06,-9.953976e-06,1.0,8.940697e-07,-8.139759e-06,-8.940697e-07,1.0,402,1.209,0,0,0.0,False,[1.04636344],[1.04941843]
1.2269836989999021,11:12:50.902661,11:12:32.760292,0,,0.016927097,0.049026743,0.063928366,-0.8312876,-0.3234429,-0.45204598,-0.44722223,0.8721428,0.19839105,0.33008057,0.36708498,-0.86965245,,0.17707545,-0.04316942,0.07647812,-0.85962015,-0.32849276,0.39133847,0.054631338,0.7024427,0.7096404,-0.5080046,0.63140035,-0.58588797,,0.087702,1.3339182,0.46683475,0.99604195,0.0028390328,-0.0888388,-0.053904884,-0.7754124,-0.62915015,-0.070672885,0.6314488,-0.7721902,,-0.0602202,0.27239394,-0.09092042,0.82317346,0.2453683,0.512035,-0.0419073,0.9255996,-0.37617704,-0.5662413,0.28820094,0.77221173,,0.01860744,0.44603673,-0.39664578,0.9101838,0.1224236,-0.3956993,-0.19350658,0.9703408,-0.14489272,0.36622488,0.20844944,0.90687823,,0.8476780512063791,-0.10707569130112282,0.16806270221000003,0.7467058887483912,-0.09304945634026494,0.08706557981652002,0.8400785321285982,,-1.0194007393976352,-0.6872614439429876,0.13975821006000003,1.6852780757851225,-0.24840515657357073,0.9769538841927646,0.8636000776519344,,-0.06956664232292899,-0.09941177253203203,0.112424923,-0.034016912529394594,,-1.071021e-05,-5.9604645e-08,-2.3841858e-07,1.0,9.953976e-06,8.139759e-06,-9.953976e-06,1.0,8.940697e-07,-8.139759e-06,-8.940697e-07,1.0,410,1.234,0,0,0.0,False,[1.04618471],[1.04859766]
1.2514222520003386,11:12:50.928912,11:12:32.760292,0,,0.016928148,0.04902628,0.06392789,-0.83129025,-0.32344466,-0.4520398,-0.4472204,0.8721442,0.19838858,0.33007628,0.3670799,-0.8696562,,0.17707545,-0.04316942,0.07647812,-0.85962015,-0.32849276,0.39133847,0.054631338,0.7024427,0.7096404,-0.5080046,0.63140035,-0.58588797,,0.087702,1.3339182,0.46683475,0.99604195,0.0028390328,-0.0888388,-0.053904884,-0.7754124,-0.62915015,-0.070672885,0.6314488,-0.7721902,,-0.06022119,0.2723932,-0.09092032,0.8231764,0.2453704,0.5120293,-0.041908477,0.92559755,-0.37618193,-0.566237,0.2882057,0.77221316,,0.01860744,0.44603673,-0.39664578,0.9101838,0.1224236,-0.3956993,-0.19350658,0.9703408,-0.14489272,0.36622488,0.20844944,0.90687823,,0.8476703284735049,-0.10707569130112282,0.16806270221000003,0.7467058887483912,-0.09304945634026494,0.08706557981652002,0.8400785321285982,,-1.0194007393976352,-0.6872614439429876,0.13975821006000003,1.6852780757851225,-0.24840515657357073,0.9769538841927646,0.8636000776519344,,-0.06956664232292899,-0.09941177253203203,0.112424923,-0.034016912529394594,,-1.071021e-05,-5.9604645e-08,-2.3841858e-07,1.0,9.953976e-06,8.139759e-06,-9.953976e-06,1.0,8.940697e-07,-8.139759e-06,-8.940697e-07,1.0,418,1.258,0,0,0.0,False,[1.0459464],[1.04927359]
1.2776650569994672,11:12:50.951888,11:12:32.882903,0,,0.016928148,0.04902628,0.06392789,-0.83129025,-0.32344466,-0.4520398,-0.4472204,0.8721442,0.19838858,0.33007628,0.3670799,-0.8696562,,0.17707545,-0.04316942,0.07647812,-0.85962015,-0.32849276,0.39133847,0.054631338,0.7024427,0.7096404,-0.5080046,0.63140035,-0.58588797,,0.087702,1.3339182,0.46683475,0.99604195,0.0028390328,-0.0888388,-0.053904884,-0.7754124,-0.62915015,-0.070672885,0.6314488,-0.7721902,,-0.06022119,0.2723932,-0.09092032,0.8231764,0.2453704,0.5120293,-0.041908477,0.92559755,-0.37618193,-0.566237,0.2882057,0.77221316,,0.01860744,0.44603673,-0.39664578,0.9101838,0.1224236,-0.3956993,-0.19350658,0.9703408,-0.14489272,0.36622488,0.20844944,0.90687823,,0.8476703284735049,-0.10707569130112282,0.16806270221000003,0.7467058887483912,-0.09304945634026494,0.08706557981652002,0.8400785321285982,,-1.0194007393976352,-0.6872614439429876,0.13975821006000003,1.6852780757851225,-0.24840515657357073,0.9769538841927646,0.8636000776519344,,-0.06956664232292899,-0.09941177253203203,0.112424923,-0.034016912529394594,,-1.071021e-05,-5.9604645e-08,-2.3841858e-07,1.0,9.953976e-06,8.139759e-06,-9.953976e-06,1.0,8.940697e-07,-8.139759e-06,-8.940697e-07,1.0,447,1.348,0,0,0.0,False,[1.04588682],[1.04951499]
1.3006422990001738,11:12:51.038132,11:12:32.959138,0,,0.016928148,0.04902628,0.06392789,-0.83129025,-0.32344466,-0.4520398,-0.4472204,0.8721442,0.19838858,0.33007628,0.3670799,-0.8696562,,0.17707545,-0.04316942,0.07647812,-0.85962015,-0.32842883,0.39139208,0.054631338,0.70255864,0.7095257,-0.5080046,0.63130474,-0.58599114,,0.087702,1.3339182,0.46683475,0.99604195,0.0028390328,-0.0888388,-0.053904884,-0.7754124,-0.62915015,-0.070672885,0.6314488,-0.7721902,,-0.06022119,0.2723932,-0.09092032,0.8231764,0.2453704,0.5120293,-0.041908477,0.92559755,-0.37618193,-0.566237,0.2882057,0.77221316,,0.01860744,0.44603673,-0.39664578,0.9101838,0.122358955,-0.39571926,-0.19350658,0.9703171,-0.14505124,0.36622488,0.20859757,0.9068442,,0.8476703284735049,-0.10707569130112282,0.16806270221000003,0.7467058887483912,-0.09304945634026494,0.08706557981652002,0.8400785321285982,,-1.0194007393976352,-0.6872614439429876,0.13975821006000003,1.6852780757851225,-0.24840515657357073,0.9767905267124836,0.8632733895196658,,-0.06956664232292899,-0.09941177253203203,0.112424923,-0.034016912529394594,,-1.071021e-05,-5.9604645e-08,-2.3841858e-07,1.0,9.953976e-06,8.139759e-06,-9.953976e-06,1.0,8.940697e-07,-8.139759e-06,-8.940697e-07,1.0,455,1.373,0,0,0.0,False,[1.04624429],[1.04975639]
1.3869164400002774,11:12:51.062043,11:12:32.959138,0,,0.016928148,0.04902628,0.06392789,-0.83129025,-0.32344466,-0.4520398,-0.4472204,0.8721442,0.19838858,0.33007628,0.3670799,-0.8696562,,0.17707545,-0.04316942,0.07647812,-0.85962015,-0.32842883,0.39139208,0.054631338,0.70255864,0.7095257,-0.5080046,0.63130474,-0.58599114,,0.087702,1.3339182,0.46683475,0.99604195,0.0028390328,-0.0888388,-0.053904884,-0.7754124,-0.62915015,-0.070672885,0.6314488,-0.7721902,,-0.06022119,0.2723932,-0.09092032,0.8231764,0.2453704,0.5120293,-0.041908477,0.92559755,-0.37618193,-0.566237,0.2882057,0.77221316,,0.01860744,0.44603673,-0.39664578,0.9101838,0.122358955,-0.39571926,-0.19350658,0.9703171,-0.14505124,0.36622488,0.20859757,0.9068442,,0.8476703284735049,-0.10707569130112282,0.16806270221000003,0.7467058887483912,-0.09304945634026494,0.08706557981652002,0.8400785321285982,,-1.0194007393976352,-0.6872614439429876,0.13975821006000003,1.6852780757851225,-0.24840515657357073,0.9767905267124836,0.8632733895196658,,-0.06956664232292899,-0.09941177253203203,0.112424923,-0.034016912529394594,,-1.071021e-05,-5.9604645e-08,-2.3841858e-07,1.0,9.953976e-06,8.139759e-06,-9.953976e-06,1.0,8.940697e-07,-8.139759e-06,-8.940697e-07,1.0,463,1.397,0,0,0.0,False,[1.04642302],[1.04917703]
1.41077254099946,11:12:51.090356,11:12:32.959138,0,,0.016928148,0.04902628,0.06392789,-0.83129025,-0.32344466,-0.4520398,-0.4472204,0.8721442,0.19838858,0.33007628,0.3670799,-0.8696562,,0.17707545,-0.04316942,0.07647812,-0.85962015,-0.32842883,0.39139208,0.054631338,0.70255864,0.7095257,-0.5080046,0.63130474,-0.58599114,,0.087702,1.3339182,0.46683475,0.99604195,0.0028390328,-0.0888388,-0.053904884,-0.7754124,-0.62915015,-0.070672885,0.6314488,-0.7721902,,-0.06022119,0.2723932,-0.09092032,0.8231764,0.2453704,0.5120293,-0.041908477,0.92559755,-0.37618193,-0.566237,0.2882057,0.77221316,,0.01860744,0.44603673,-0.39664578,0.9101838,0.122358955,-0.39571926,-0.19350658,0.9703171,-0.14505124,0.36622488,0.20859757,0.9068442,,0.8476703284735049,-0.10707569130112282,0.16806270221000003,0.7467058887483912,-0.09304945634026494,0.08706557981652002,0.8400785321285982,,-1.0194007393976352,-0.6872614439429876,0.13975821006000003,1.6852780757851225,-0.24840515657357073,0.9767905267124836,0.8632733895196658,,-0.06956664232292899,-0.09941177253203203,0.112424923,-0.034016912529394594,,-1.071021e-05,-5.9604645e-08,-2.3841858e-07,1.0,9.953976e-06,8.139759e-06,-9.953976e-06,1.0,8.940697e-07,-8.139759e-06,-8.940697e-07,1.0,471,1.422,0,0,0.0,False,[1.04576767],[1.04922531]
1.4391377920001105,11:12:51.114968,11:12:33.058387,0,,0.016928148,0.04902628,0.06392789,-0.83129025,-0.32344466,-0.4520398,-0.4472204,0.8721442,0.19838858,0.33007628,0.3670799,-0.8696562,,0.17707545,-0.04316942,0.07647812,-0.85962015,-0.32842883,0.39139208,0.054631338,0.70255864,0.7095257,-0.5080046,0.63130474,-0.58599114,,0.087702,1.3339182,0.46683475,0.99604195,0.0028390328,-0.0888388,-0.053904884,-0.7754124,-0.62915015,-0.070672885,0.6314488,-0.7721902,,-0.06022119,0.2723932,-0.09092032,0.8231764,0.2453704,0.5120293,-0.041908477,0.92559755,-0.37618193,-0.566237,0.2882057,0.77221316,,0.01860744,0.44603673,-0.39664578,0.9101838,0.122358955,-0.39571926,-0.19350658,0.9703171,-0.14505124,0.36622488,0.20859757,0.9068442,,0.8476703284735049,-0.10707569130112282,0.16806270221000003,0.7467058887483912,-0.09304945634026494,0.08706557981652002,0.8400785321285982,,-1.0194007393976352,-0.6872614439429876,0.13975821006000003,1.6852780757851225,-0.24840515657357073,0.9767905267124836,0.8632733895196658,,-0.06956664232292899,-0.09941177253203203,0.112424923,-0.034016912529394594,,-1.071021e-05,-5.9604645e-08,-2.3841858e-07,1.0,9.953976e-06,8.139759e-06,-9.953976e-06,1.0,8.940697e-07,-8.139759e-06,-8.940697e-07,1.0,479,1.447,0,0,0.0,False,[1.04630387],[1.04927359]
1.4637463779999962,11:12:51.142631,11:12:33.058387,0,,0.016928148,0.04902628,0.06392789,-0.83129025,-0.32344466,-0.4520398,-0.4472204,0.8721442,0.19838858,0.33007628,0.3670799,-0.8696562,,0.17707545,-0.04316942,0.07647812,-0.85962015,-0.32842883,0.39139208,0.054631338,0.70255864,0.7095257,-0.5080046,0.63130474,-0.58599114,,0.087702,1.3339182,0.46683475,0.99604195,0.0028390328,-0.0888388,-0.053904884,-0.7754124,-0.62915015,-0.070672885,0.6314488,-0.7721902,,-0.06022119,0.2723932,-0.09092032,0.8231764,0.2453704,0.5120293,-0.041908477,0.92559755,-0.37618193,-0.566237,0.2882057,0.77221316,,0.01860744,0.44603673,-0.39664578,0.9101838,0.122358955,-0.39571926,-0.19350658,0.9703171,-0.14505124,0.36622488,0.20859757,0.9068442,,0.8476703284735049,-0.10707569130112282,0.16806270221000003,0.7467058887483912,-0.09304945634026494,0.08706557981652002,0.8400785321285982,,-1.0194007393976352,-0.6872614439429876,0.13975821006000003,1.6852780757851225,-0.24840515657357073,0.9767905267124836,0.8632733895196658,,-0.06956664232292899,-0.09941177253203203,0.112424923,-0.034016912529394594,,-1.071021e-05,-5.9604645e-08,-2.3841858e-07,1.0,9.953976e-06,8.139759e-06,-9.953976e-06,1.0,8.940697e-07,-8.139759e-06,-8.940697e-07,1.0,491,1.483,0,0,0.0,False,[1.04600598],[1.04898391]
1.4913886689992069,11:12:51.174825,11:12:33.058387,0,,0.016928636,0.049027443,0.06392792,-0.83129245,-0.32344314,-0.45203683,-0.44722015,0.8721428,0.19839567,0.33007103,0.36708474,-0.8696561,,0.17707545,-0.04316942,0.07647812,-0.85962015,-0.32842883,0.39139208,0.054631338,0.70255864,0.7095257,-0.5080046,0.63130474,-0.58599114,,0.087702,1.3339182,0.46683475,0.99604195,0.0028390328,-0.0888388,-0.053904884,-0.7754124,-0.62915015,-0.070672885,0.6314488,-0.7721902,,-0.060221735,0.27239403,-0.09091956,0.823179,0.24536854,0.51202595,-0.04191149,0.92559946,-0.37617686,-0.5662329,0.28820112,0.7722178,,0.01860744,0.44603673,-0.39664578,0.9101838,0.122358955,-0.39571926,-0.19350658,0.9703171,-0.14505124,0.36622488,0.20859757,0.9068442,,0.8476703284735049,-0.1070679685682486,0.16806270221000003,0.7467058887483912,-0.09304945634026494,0.08706557981652002,0.8400785321285982,,-1.0194007393976352,-0.6872614439429876,0.13975821006000003,1.6852780757851225,-0.24840515657357073,0.9767905267124836,0.8632733895196658,,-0.06956664232292899,-0.09941177253203203,0.112424923,-0.034016912529394594,,-1.071021e-05,-5.9604645e-08,-2.3841858e-07,1.0,9.953976e-06,8.139759e-06,-9.953976e-06,1.0,8.940697e-07,-8.139759e-06,-8.940697e-07,1.0,520,1.574,0,0,0.0,False,[1.0464826],[1.04903219]
1.523564744999021,11:12:51.260691,11:12:33.163293,0,,0.016928148,0.04902628,0.06392789,-0.83129025,-0.32344466,-0.4520398,-0.4472204,0.8721442,0.19838858,0.33007628,0.3670799,-0.8696562,,0.17707545,-0.04316942,0.07647812,-0.85962015,-0.32842883,0.39139208,0.054631338,0.70255864,0.7095257,-0.5080046,0.63130474,-0.58599114,,0.087702,1.3339182,0.46683475,0.99604195,0.0028390328,-0.0888388,-0.053904884,-0.7754124,-0.62915015,-0.070672885,0.6314488,-0.7721902,,-0.06022119,0.2723932,-0.09092032,0.8231764,0.2453704,0.5120293,-0.041908477,0.92559755,-0.37618193,-0.566237,0.2882057,0.77221316,,0.01860744,0.44603673,-0.39664578,0.9101838,0.122358955,-0.39571926,-0.19350658,0.9703171,-0.14505124,0.36622488,0.20859757,0.9068442,,0.8476703284735049,-0.10707569130112282,0.16806270221000003,0.7467058887483912,-0.09304945634026494,0.08706557981652002,0.8400785321285982,,-1.0194007393976352,-0.6872614439429876,0.13975821006000003,1.6852780757851225,-0.24840515657357073,0.9767905267124836,0.8632733895196658,,-0.06956664232292899,-0.09941177253203203,0.112424923,-0.034016912529394594,,-1.071021e-05,-5.9604645e-08,-2.3841858e-07,1.0,9.953976e-06,8.139759e-06,-9.953976e-06,1.0,8.940697e-07,-8.139759e-06,-8.940697e-07,1.0,524,1.586,0,0,0.0,False,[1.04606555],[1.04912875]
1.6094485409994377,11:12:51.278620,11:12:33.163293,0,,0.016928148,0.04902628,0.06392789,-0.83129025,-0.32344466,-0.4520398,-0.4472204,0.8721442,0.19838858,0.33007628,0.3670799,-0.8696562,,0.17707545,-0.04316942,0.07647812,-0.85962015,-0.32842883,0.39139208,0.054631338,0.70255864,0.7095257,-0.5080046,0.63130474,-0.58599114,,0.087702,1.3339182,0.46683475,0.99604195,0.0028390328,-0.0888388,-0.053904884,-0.7754124,-0.62915015,-0.070672885,0.6314488,-0.7721902,,-0.06022119,0.2723932,-0.09092032,0.8231764,0.2453704,0.5120293,-0.041908477,0.92559755,-0.37618193,-0.566237,0.2882057,0.77221316,,0.01860744,0.44603673,-0.39664578,0.9101838,0.122358955,-0.39571926,-0.19350658,0.9703171,-0.14505124,0.36622488,0.20859757,0.9068442,,0.8476703284735049,-0.10707569130112282,0.16806270221000003,0.7467058887483912,-0.09304945634026494,0.08706557981652002,0.8400785321285982,,-1.0194007393976352,-0.6872614439429876,0.13975821006000003,1.6852780757851225,-0.24840515657357073,0.9767905267124836,0.8632733895196658,,-0.06956664232292899,-0.09941177253203203,0.112424923,-0.034016912529394594,,-1.071021e-05,-5.9604645e-08,-2.3841858e-07,1.0,9.953976e-06,8.139759e-06,-9.953976e-06,1.0,8.940697e-07,-8.139759e-06,-8.940697e-07,1.0,532,1.61,0,0,0.0,False,[1.04600598],[1.04912875]
1.6273849389999668,11:12:51.304661,11:12:33.163293,0,,0.016928148,0.04902628,0.06392789,-0.83129025,-0.32344466,-0.4520398,-0.4472204,0.8721442,0.19838858,0.33007628,0.3670799,-0.8696562,,0.17707545,-0.04316942,0.07647812,-0.85962015,-0.32842883,0.39139208,0.054631338,0.70255864,0.7095257,-0.5080046,0.63130474,-0.58599114,,0.087702,1.3339182,0.46683475,0.99604195,0.0028390328,-0.0888388,-0.053904884,-0.7754124,-0.62915015,-0.070672885,0.6314488,-0.7721902,,-0.06022119,0.2723932,-0.09092032,0.8231764,0.2453704,0.5120293,-0.041908477,0.92559755,-0.37618193,-0.566237,0.2882057,0.77221316,,0.01860744,0.44603673,-0.39664578,0.9101838,0.122358955,-0.39571926,-0.19350658,0.9703171,-0.14505124,0.36622488,0.20859757,0.9068442,,0.8476703284735049,-0.10707569130112282,0.16806270221000003,0.7467058887483912,-0.09304945634026494,0.08706557981652002,0.8400785321285982,,-1.0194007393976352,-0.6872614439429876,0.13975821006000003,1.6852780757851225,-0.24840515657357073,0.9767905267124836,0.8632733895196658,,-0.06956664232292899,-0.09941177253203203,0.112424923,-0.034016912529394594,,-1.071021e-05,-5.9604645e-08,-2.3841858e-07,1.0,9.953976e-06,8.139759e-06,-9.953976e-06,1.0,8.940697e-07,-8.139759e-06,-8.940697e-07,1.0,540,1.635,0,0,0.0,False,[1.04624429],[1.04922531]
1.6534263439989445,11:12:51.333247,11:12:33.265950,0,,0.016928636,0.049027443,0.06392792,-0.83129245,-0.32344314,-0.45203683,-0.44722015,0.8721428,0.19839567,0.33007103,0.36708474,-0.8696561,,0.17707545,-0.04316942,0.07647812,-0.85962015,-0.32842883,0.39139208,0.054631338,0.70255864,0.7095257,-0.5080046,0.63130474,-0.58599114,,0.087702,1.3339182,0.46683475,0.99604195,0.0028390328,-0.0888388,-0.053904884,-0.7754124,-0.62915015,-0.070672885,0.6314488,-0.7721902,,-0.060221735,0.27239403,-0.09091956,0.823179,0.24536854,0.51202595,-0.04191149,0.92559946,-0.37617686,-0.5662329,0.28820112,0.7722178,,0.01860744,0.44603673,-0.39664578,0.9101838,0.122358955,-0.39571926,-0.19350658,0.9703171,-0.14505124,0.36622488,0.20859757,0.9068442,,0.8476703284735049,-0.1070679685682486,0.16806270221000003,0.7467058887483912,-0.09304945634026494,0.08706557981652002,0.8400785321285982,,-1.0194007393976352,-0.6872614439429876,0.13975821006000003,1.6852780757851225,-0.24840515657357073,0.9767905267124836,0.8632733895196658,,-0.06956664232292899,-0.09941177253203203,0.112424923,-0.034016912529394594,,-1.071021e-05,-5.9604645e-08,-2.3841858e-07,1.0,9.953976e-06,8.139759e-06,-9.953976e-06,1.0,8.940697e-07,-8.139759e-06,-8.940697e-07,1.0,548,1.66,0,0,0.0,False,[1.04624429],[1.04912875]
1.6820342060000257,11:12:51.353865,11:12:33.265950,0,,0.016928148,0.04902628,0.06392789,-0.83129025,-0.32344466,-0.4520398,-0.4472204,0.8721442,0.19838858,0.33007628,0.3670799,-0.8696562,,0.17707545,-0.04316942,0.07647812,-0.85962015,-0.32842883,0.39139208,0.054631338,0.70255864,0.7095257,-0.5080046,0.63130474,-0.58599114,,0.087702,1.3339182,0.46683475,0.99604195,0.0028390328,-0.0888388,-0.053904884,-0.7754124,-0.62915015,-0.070672885,0.6314488,-0.7721902,,-0.06022119,0.2723932,-0.09092032,0.8231764,0.2453704,0.5120293,-0.041908477,0.92559755,-0.37618193,-0.566237,0.2882057,0.77221316,,0.01860744,0.44603673,-0.39664578,0.9101838,0.122358955,-0.39571926,-0.19350658,0.9703171,-0.14505124,0.36622488,0.20859757,0.9068442,,0.8476703284735049,-0.10707569130112282,0.16806270221000003,0.7467058887483912,-0.09304945634026494,0.08706557981652002,0.8400785321285982,,-1.0194007393976352,-0.6872614439429876,0.13975821006000003,1.6852780757851225,-0.24840515657357073,0.9767905267124836,0.8632733895196658,,-0.06956664232292899,-0.09941177253203203,0.112424923,-0.034016912529394594,,-1.071021e-05,-5.9604645e-08,-2.3841858e-07,1.0,9.953976e-06,8.139759e-06,-9.953976e-06,1.0,8.940697e-07,-8.139759e-06,-8.940697e-07,1.0,556,1.684,0,0,0.0,False,[1.04624429],[1.04985295]
1.7026496039998165,11:12:51.376905,11:12:33.265950,0,,0.016928148,0.04902628,0.06392789,-0.83129025,-0.32344466,-0.4520398,-0.4472204,0.8721442,0.19838858,0.33007628,0.3670799,-0.8696562,,0.17707545,-0.04316942,0.07647812,-0.85962015,-0.32842883,0.39139208,0.054631338,0.70255864,0.7095257,-0.5080046,0.63130474,-0.58599114,,0.087702,1.3339182,0.46683475,0.99604195,0.0028390328,-0.0888388,-0.053904884,-0.7754124,-0.62915015,-0.070672885,0.6314488,-0.7721902,,-0.06022119,0.2723932,-0.09092032,0.8231764,0.2453704,0.5120293,-0.041908477,0.92559755,-0.37618193,-0.566237,0.2882057,0.77221316,,0.01860744,0.44603673,-0.39664578,0.9101838,0.122358955,-0.39571926,-0.19350658,0.9703171,-0.14505124,0.36622488,0.20859757,0.9068442,,0.8476703284735049,-0.10707569130112282,0.16806270221000003,0.7467058887483912,-0.09304945634026494,0.08706557981652002,0.8400785321285982,,-1.0194007393976352,-0.6872614439429876,0.13975821006000003,1.6852780757851225,-0.24840515657357073,0.9767905267124836,0.8632733895196658,,-0.06956664232292899,-0.09941177253203203,0.112424923,-0.034016912529394594,,-1.071021e-05,-5.9604645e-08,-2.3841858e-07,1.0,9.953976e-06,8.139759e-06,-9.953976e-06,1.0,8.940697e-07,-8.139759e-06,-8.940697e-07,1.0,564,1.709,0,0,0.0,False,[1.04588682],[1.04946671]
1.7256725879997248,11:12:51.404597,11:12:33.265950,0,,0.016928148,0.04902628,0.06392789,-0.83129025,-0.32344466,-0.4520398,-0.4472204,0.8721442,0.19838858,0.33007628,0.3670799,-0.8696562,,0.17707545,-0.04316942,0.07647812,-0.85962015,-0.32842883,0.39139208,0.054631338,0.70255864,0.7095257,-0.5080046,0.63130474,-0.58599114,,0.087702,1.3339182,0.46683475,0.99604195,0.0028390328,-0.0888388,-0.053904884,-0.7754124,-0.62915015,-0.070672885,0.6314488,-0.7721902,,-0.06022119,0.2723932,-0.09092032,0.8231764,0.2453704,0.5120293,-0.041908477,0.92559755,-0.37618193,-0.566237,0.2882057,0.77221316,,0.01860744,0.44603673,-0.39664578,0.9101838,0.122358955,-0.39571926,-0.19350658,0.9703171,-0.14505124,0.36622488,0.20859757,0.9068442,,0.8476703284735049,-0.10707569130112282,0.16806270221000003,0.7467058887483912,-0.09304945634026494,0.08706557981652002,0.8400785321285982,,-1.0194007393976352,-0.6872614439429876,0.13975821006000003,1.6852780757851225,-0.24840515657357073,0.9767905267124836,0.8632733895196658,,-0.06956664232292899,-0.09941177253203203,0.112424923,-0.034016912529394594,,-1.071021e-05,-5.9604645e-08,-2.3841858e-07,1.0,9.953976e-06,8.139759e-06,-9.953976e-06,1.0,8.940697e-07,-8.139759e-06,-8.940697e-07,1.0,601,1.823,0,0,0.0,False,[1.04576767],[1.04927359]
1.7533803589994932,11:12:51.516739,11:12:33.356155,0,,0.016928148,0.04902628,0.06392789,-0.83129025,-0.32344466,-0.4520398,-0.4472204,0.8721442,0.19838858,0.33007628,0.3670799,-0.8696562,,0.17707537,-0.043170404,0.0764783,-0.85961944,-0.32842565,0.3913963,0.05463302,0.7025639,0.7095203,-0.5080056,0.6313005,-0.5859948,,0.087702,1.3339182,0.46683475,0.99604195,0.0028390328,-0.0888388,-0.053904884,-0.7754124,-0.62915015,-0.070672885,0.6314488,-0.7721902,,-0.06022119,0.2723932,-0.09092032,0.8231764,0.2453704,0.5120293,-0.041908477,0.92559755,-0.37618193,-0.566237,0.2882057,0.77221316,,0.018607609,0.44603634,-0.3966467,0.910183,0.122355714,-0.39572206,-0.19350657,0.9703161,-0.14505805,0.3662268,0.2086042,0.9068419,,0.8476703284735049,-0.10707569130112282,0.16806270221000003,0.7467058887483912,-0.09304945634026494,0.08706557981652002,0.8400785321285982,,-1.0194007393976352,-0.6872691666758618,0.13975821006000003,1.6852780757851225,-0.24840515657357073,0.9767905267124836,0.8632733895196658,,-0.06956664232292899,-0.09941177253203203,0.112424923,-0.034016912529394594,,-1.071021e-05,-5.9604645e-08,-2.3841858e-07,1.0,9.953976e-06,8.139759e-06,-9.953976e-06,1.0,8.940697e-07,-8.139759e-06,-8.940697e-07,1.0,609,1.848,0,0,0.0,False,[1.04636344],[1.04951499]
1.8654801920001773,11:12:51.542316,11:12:33.477378,0,,0.016928148,0.04902628,0.06392789,-0.83129025,-0.32344466,-0.4520398,-0.4472204,0.8721442,0.19838858,0.33007628,0.3670799,-0.8696562,,0.17707545,-0.04316942,0.07647812,-0.85962015,-0.32842883,0.39139208,0.054631338,0.70255864,0.7095257,-0.5080046,0.63130474,-0.58599114,,0.087702,1.3339182,0.46683475,0.99604195,0.0028390328,-0.0888388,-0.053904884,-0.7754124,-0.62915015,-0.070672885,0.6314488,-0.7721902,,-0.06022119,0.2723932,-0.09092032,0.8231764,0.2453704,0.5120293,-0.041908477,0.92559755,-0.37618193,-0.566237,0.2882057,0.77221316,,0.01860744,0.44603673,-0.39664578,0.9101838,0.122358955,-0.39571926,-0.19350658,0.9703171,-0.14505124,0.36622488,0.20859757,0.9068442,,0.8476703284735049,-0.10707569130112282,0.16806270221000003,0.7467058887483912,-0.09304945634026494,0.08706557981652002,0.8400785321285982,,-1.0194007393976352,-0.6872614439429876,0.13975821006000003,1.6852780757851225,-0.24840515657357073,0.9767905267124836,0.8632733895196658,,-0.06956664232292899,-0.09941177253203203,0.112424923,-0.034016912529394594,,-1.071021e-05,-5.9604645e-08,-2.3841858e-07,1.0,9.953976e-06,8.139759e-06,-9.953976e-06,1.0,8.940697e-07,-8.139759e-06,-8.940697e-07,1.0,617,1.873,0,0,0.0,False,[1.04618471],[1.04951499]
1.8910962239988294,11:12:51.566362,11:12:33.477378,0,,0.016928148,0.04902628,0.06392789,-0.83129025,-0.32344466,-0.4520398,-0.4472204,0.8721442,0.19838858,0.33007628,0.3670799,-0.8696562,,0.17707545,-0.04316942,0.07647812,-0.85962015,-0.32842883,0.39139208,0.054631338,0.70255864,0.7095257,-0.5080046,0.63130474,-0.58599114,,0.087702,1.3339182,0.46683475,0.99604195,0.0028390328,-0.0888388,-0.053904884,-0.7754124,-0.62915015,-0.070672885,0.6314488,-0.7721902,,-0.06022119,0.2723932,-0.09092032,0.8231764,0.2453704,0.5120293,-0.041908477,0.92559755,-0.37618193,-0.566237,0.2882057,0.77221316,,0.01860744,0.44603673,-0.39664578,0.9101838,0.122358955,-0.39571926,-0.19350658,0.9703171,-0.14505124,0.36622488,0.20859757,0.9068442,,0.8476703284735049,-0.10707569130112282,0.16806270221000003,0.7467058887483912,-0.09304945634026494,0.08706557981652002,0.8400785321285982,,-1.0194007393976352,-0.6872614439429876,0.13975821006000003,1.6852780757851225,-0.24840515657357073,0.9767905267124836,0.8632733895196658,,-0.06956664232292899,-0.09941177253203203,0.112424923,-0.034016912529394594,,-1.071021e-05,-5.9604645e-08,-2.3841858e-07,1.0,9.953976e-06,8.139759e-06,-9.953976e-06,1.0,8.940697e-07,-8.139759e-06,-8.940697e-07,1.0,625,1.897,0,0,0.0,False,[1.04684006],[1.04965983]
1.9151248540001689,11:12:51.586835,11:12:33.477378,0,,0.016928148,0.04902628,0.06392789,-0.83129025,-0.32344466,-0.4520398,-0.4472204,0.8721442,0.19838858,0.33007628,0.3670799,-0.8696562,,0.17707545,-0.04316942,0.07647812,-0.85962015,-0.32842883,0.39139208,0.054631338,0.70255864,0.7095257,-0.5080046,0.63130474,-0.58599114,,0.087702,1.3339182,0.46683475,0.99604195,0.0028390328,-0.0888388,-0.053904884,-0.7754124,-0.62915015,-0.070672885,0.6314488,-0.7721902,,-0.06022119,0.2723932,-0.09092032,0.8231764,0.2453704,0.5120293,-0.041908477,0.92559755,-0.37618193,-0.566237,0.2882057,0.77221316,,0.01860744,0.44603673,-0.39664578,0.9101838,0.122358955,-0.39571926,-0.19350658,0.9703171,-0.14505124,0.36622488,0.20859757,0.9068442,,0.8476703284735049,-0.10707569130112282,0.16806270221000003,0.7467058887483912,-0.09304945634026494,0.08706557981652002,0.8400785321285982,,-1.0194007393976352,-0.6872614439429876,0.13975821006000003,1.6852780757851225,-0.24840515657357073,0.9767905267124836,0.8632733895196658,,-0.06956664232292899,-0.09941177253203203,0.112424923,-0.034016912529394594,,-1.071021e-05,-5.9604645e-08,-2.3841858e-07,1.0,9.953976e-06,8.139759e-06,-9.953976e-06,1.0,8.940697e-07,-8.139759e-06,-8.940697e-07,1.0,633,1.922,0,0,0.0,False,[1.04630387],[1.04927359]
1.935624079000263,11:12:51.616184,11:12:33.477378,0,,0.016928148,0.04902628,0.06392789,-0.83129025,-0.32344466,-0.4520398,-0.4472204,0.8721442,0.19838858,0.33007628,0.3670799,-0.8696562,,0.17707537,-0.043170404,0.0764783,-0.85961944,-0.32842565,0.3913963,0.05463302,0.7025639,0.7095203,-0.5080056,0.6313005,-0.5859948,,0.087702,1.3339182,0.46683475,0.99604195,0.0028390328,-0.0888388,-0.053904884,-0.7754124,-0.62915015,-0.070672885,0.6314488,-0.7721902,,-0.06022119,0.2723932,-0.09092032,0.8231764,0.2453704,0.5120293,-0.041908477,0.92559755,-0.37618193,-0.566237,0.2882057,0.77221316,,0.018607609,0.44603634,-0.3966467,0.910183,0.122355714,-0.39572206,-0.19350657,0.9703161,-0.14505805,0.3662268,0.2086042,0.9068419,,0.8476703284735049,-0.10707569130112282,0.16806270221000003,0.7467058887483912,-0.09304945634026494,0.08706557981652002,0.8400785321285982,,-1.0194007393976352,-0.6872691666758618,0.13975821006000003,1.6852780757851225,-0.24840515657357073,0.9767905267124836,0.8632733895196658,,-0.06956664232292899,-0.09941177253203203,0.112424923,-0.034016912529394594,,-1.071021e-05,-5.9604645e-08,-2.3841858e-07,1.0,9.953976e-06,8.139759e-06,-9.953976e-06,1.0,8.940697e-07,-8.139759e-06,-8.940697e-07,1.0,641,1.946,0,0,0.0,False,[1.04600598],[1.04961155]
1.9649572399994213,11:12:51.643899,11:12:33.477378,0,,0.016928148,0.04902628,0.06392789,-0.83129025,-0.32344466,-0.4520398,-0.4472204,0.8721442,0.19838858,0.33007628,0.3670799,-0.8696562,,0.17707545,-0.04316942,0.07647812,-0.85962015,-0.32842883,0.39139208,0.054631338,0.70255864,0.7095257,-0.5080046,0.63130474,-0.58599114,,0.087702,1.3339182,0.46683475,0.99604195,0.0028390328,-0.0888388,-0.053904884,-0.7754124,-0.62915015,-0.070672885,0.6314488,-0.7721902,,-0.06022119,0.2723932,-0.09092032,0.8231764,0.2453704,0.5120293,-0.041908477,0.92559755,-0.37618193,-0.566237,0.2882057,0.77221316,,0.01860744,0.44603673,-0.39664578,0.9101838,0.122358955,-0.39571926,-0.19350658,0.9703171,-0.14505124,0.36622488,0.20859757,0.9068442,,0.8476703284735049,-0.10707569130112282,0.16806270221000003,0.7467058887483912,-0.09304945634026494,0.08706557981652002,0.8400785321285982,,-1.0194007393976352,-0.6872614439429876,0.13975821006000003,1.6852780757851225,-0.24840515657357073,0.9767905267124836,0.8632733895196658,,-0.06956664232292899,-0.09941177253203203,0.112424923,-0.034016912529394594,,-1.071021e-05,-5.9604645e-08,-2.3841858e-07,1.0,9.953976e-06,8.139759e-06,-9.953976e-06,1.0,8.940697e-07,-8.139759e-06,-8.940697e-07,1.0,666,2.024,0,0,0.0,False,[1.04672091],[1.05009435]
1.9926161189996492,11:12:51.716076,11:12:33.477378,0,,0.016883718,0.049030304,0.06391665,-0.83129716,-0.32340473,-0.45205578,-0.44719714,0.8721493,0.19841903,0.3300905,0.36710328,-0.869641,,0.17699756,-0.04317742,0.07647097,-0.8596454,-0.32833278,0.3914174,0.054696232,0.70259523,0.70948434,-0.507955,0.63131386,-0.58602434,,0.08768073,1.3339181,0.4668371,0.99604475,0.002878836,-0.08880651,-0.053853754,-0.7754122,-0.62915474,-0.070672885,0.6314488,-0.7721902,,-0.060162757,0.27238944,-0.09091157,0.8232008,0.24528241,0.51203215,-0.041846346,0.92562145,-0.3761301,-0.56620604,0.28820395,0.7722365,,0.018702328,0.4460434,-0.3966437,0.9101872,0.12221312,-0.3957565,-0.19339019,0.9703292,-0.14512537,0.3662779,0.20862669,0.90681607,,0.8476703284735049,-0.10707569130112282,0.16806270221000003,0.7467058887483912,-0.09304945634026494,0.08706557981652002,0.8400785321285982,,-1.0194007393976352,-0.6872614439429876,0.13975821006000003,1.6852780757851225,-0.24840515657357073,0.9767905267124836,0.8632733895196658,,-0.06956664232292899,-0.09941177253203203,0.112424923,-0.034016912529394594,,-3.2048672e-05,1.4901161e-06,-1.1920929e-07,1.0000001,4.9591064e-05,4.054606e-05,-4.9591064e-05,1.0,4.529953e-06,-4.055351e-05,-4.529953e-06,1.0,674,2.049,0,0,0.0,False,[1.04624429],[1.04965983]
2.0648582849989907,11:12:51.744605,11:12:33.685932,0,,0.016883718,0.049030304,0.06391665,-0.83129716,-0.32340473,-0.45205578,-0.44719714,0.8721493,0.19841903,0.3300905,0.36710328,-0.869641,,0.17699756,-0.04317742,0.07647097,-0.8596454,-0.32836476,0.3913906,0.054696232,0.7025373,0.7095417,-0.507955,0.6313617,-0.5859728,,0.08768073,1.3339181,0.4668371,0.99604475,0.002878836,-0.08880651,-0.053853754,-0.7754122,-0.62915474,-0.070672885,0.6314488,-0.7721902,,-0.060162757,0.27238944,-0.09091157,0.8232008,0.24528241,0.51203215,-0.041846346,0.92562145,-0.3761301,-0.56620604,0.28820395,0.7722365,,0.018702328,0.4460434,-0.3966437,0.9101872,0.12224544,-0.39574653,-0.19339019,0.9703411,-0.14504611,0.3662779,0.20855261,0.9068331,,0.8476703284735049,-0.10707569130112282,0.16806270221000003,0.7467058887483912,-0.09304945634026494,0.08706557981652002,0.8400785321285982,,-1.0194007393976352,-0.6872614439429876,0.13975821006000003,1.6852780757851225,-0.24840515657357073,0.9768722054526241,0.8634367335858002,,-0.06956664232292899,-0.09941177253203203,0.112424923,-0.034016912529394594,,-3.2048672e-05,1.4901161e-06,-1.1920929e-07,1.0000001,4.9591064e-05,4.054606e-05,-4.9591064e-05,1.0,4.529953e-06,-4.055351e-05,-4.529953e-06,1.0,682,2.073,0,0,0.0,False,[1.04600598],[1.04990123]
2.093343376998746,11:12:51.768993,11:12:33.685932,0,,0.016883718,0.049030304,0.06391665,-0.83129716,-0.32340473,-0.45205578,-0.44719714,0.8721493,0.19841903,0.3300905,0.36710328,-0.869641,,0.17699756,-0.04317742,0.07647097,-0.8596454,-0.32839674,0.39136377,0.054696232,0.70247936,0.7095991,-0.507955,0.63140965,-0.58592117,,0.08768073,1.3339181,0.4668371,0.99604475,0.002878836,-0.08880651,-0.053853754,-0.7754122,-0.62915474,-0.070672885,0.6314488,-0.7721902,,-0.060162757,0.27238944,-0.09091157,0.8232008,0.24528241,0.51203215,-0.041846346,0.92562145,-0.3761301,-0.56620604,0.28820395,0.7722365,,0.018702328,0.4460434,-0.3966437,0.9101872,0.12227777,-0.39573655,-0.19339019,0.97035295,-0.14496686,0.3662779,0.20847854,0.90685016,,0.8476780512063791,-0.10707569130112282,0.16806270221000003,0.7467058887483912,-0.09304945634026494,0.08706557981652002,0.8400785321285982,,-1.0194007393976352,-0.6872614439429876,0.13975821006000003,1.6852780757851225,-0.24840515657357073,0.9769538841927646,0.8636000776519344,,-0.06956664232292899,-0.09941177253203203,0.112424923,-0.034016912529394594,,-3.2048672e-05,1.4901161e-06,-1.1920929e-07,1.0000001,4.9591064e-05,4.054606e-05,-4.9591064e-05,1.0,4.529953e-06,-4.055351e-05,-4.529953e-06,1.0,690,2.098,0,0,0.0,False,[1.04630387],[1.04922531]
2.117766473998927,11:12:51.795781,11:12:33.685932,0,,0.016881606,0.049031183,0.06391761,-0.83129185,-0.3234012,-0.45206818,-0.44720078,0.87214625,0.19842392,0.33009905,0.36711344,-0.8696334,,0.17699756,-0.04317742,0.07647097,-0.8596454,-0.32839674,0.39136377,0.054696232,0.70247936,0.7095991,-0.507955,0.63140965,-0.58592117,,0.08768073,1.3339181,0.4668371,0.99604475,0.002878836,-0.08880651,-0.053853754,-0.7754122,-0.62915474,-0.070672885,0.6314488,-0.7721902,,-0.06016078,0.27239093,-0.09091176,0.823195,0.24527821,0.5120436,-0.04184399,0.9256255,-0.37612033,-0.56621474,0.2881944,0.77223366,,0.018702328,0.4460434,-0.3966437,0.9101872,0.12227777,-0.39573655,-0.19339019,0.97035295,-0.14496686,0.3662779,0.20847854,0.90685016,,0.8476857739392533,-0.10707569130112282,0.16806270221000003,0.7467058887483912,-0.09304945634026494,0.08706557981652002,0.8400785321285982,,-1.0194007393976352,-0.6872614439429876,0.13975821006000003,1.6852780757851225,-0.24840515657357073,0.9769538841927646,0.8636000776519344,,-0.06956664232292899,-0.09941177253203203,0.112424923,-0.034016912529394594,,-3.2048672e-05,1.4901161e-06,-1.1920929e-07,1.0000001,4.9591064e-05,4.054606e-05,-4.9591064e-05,1.0,4.529953e-06,-4.055351e-05,-4.529953e-06,1.0,698,2.122,0,0,0.0,False,[1.04552935],[1.04903219]
2.1445665390001523,11:12:51.818085,11:12:33.685932,0,,0.01688266,0.049030736,0.06391713,-0.83129454,-0.323403,-0.45206192,-0.44719893,0.8721478,0.19842151,0.33009475,0.36710835,-0.8696372,,0.17699756,-0.04317742,0.07647097,-0.8596454,-0.32839674,0.39136377,0.054696232,0.70247936,0.7095991,-0.507955,0.63140965,-0.58592117,,0.08768073,1.3339181,0.4668371,0.99604475,0.002878836,-0.08880651,-0.053853754,-0.7754122,-0.62915474,-0.070672885,0.6314488,-0.7721902,,-0.060161766,0.2723902,-0.090911664,0.8231979,0.24528031,0.5120379,-0.04184517,0.9256235,-0.37612522,-0.5662104,0.2881992,0.7722351,,0.018702328,0.4460434,-0.3966437,0.9101872,0.12227777,-0.39573655,-0.19339019,0.97035295,-0.14496686,0.3662779,0.20847854,0.90685016,,0.8476780512063791,-0.10707569130112282,0.16806270221000003,0.7467058887483912,-0.09304945634026494,0.08706557981652002,0.8400785321285982,,-1.0194007393976352,-0.6872614439429876,0.13975821006000003,1.6852780757851225,-0.24840515657357073,0.9769538841927646,0.8636000776519344,,-0.06956664232292899,-0.09941177253203203,0.112424923,-0.034016912529394594,,-3.2048672e-05,1.4901161e-06,-1.1920929e-07,1.0000001,4.9591064e-05,4.054606e-05,-4.9591064e-05,1.0,4.529953e-06,-4.055351e-05,-4.529953e-06,1.0,706,2.147,0,0,0.0,False,[1.04588682],[1.04937015]
2.166871352999806,11:12:51.840801,11:12:33.685932,0,,0.016883718,0.049030304,0.06391665,-0.83129716,-0.32340473,-0.45205578,-0.44719714,0.8721493,0.19841903,0.3300905,0.36710328,-0.869641,,0.17699756,-0.04317742,0.07647097,-0.8596454,-0.32839674,0.39136377,0.054696232,0.70247936,0.7095991,-0.507955,0.63140965,-0.58592117,,0.08768073,1.3339181,0.4668371,0.99604475,0.002878836,-0.08880651,-0.053853754,-0.7754122,-0.62915474,-0.070672885,0.6314488,-0.7721902,,-0.060162757,0.27238944,-0.09091157,0.8232008,0.24528241,0.51203215,-0.041846346,0.92562145,-0.3761301,-0.56620604,0.28820395,0.7722365,,0.018702328,0.4460434,-0.3966437,0.9101872,0.12227777,-0.39573655,-0.19339019,0.97035295,-0.14496686,0.3662779,0.20847854,0.90685016,,0.8476703284735049,-0.10707569130112282,0.16806270221000003,0.7467058887483912,-0.09304945634026494,0.08706557981652002,0.8400785321285982,,-1.0194007393976352,-0.6872614439429876,0.13975821006000003,1.6852780757851225,-0.24840515657357073,0.9769538841927646,0.8636000776519344,,-0.06956664232292899,-0.09941177253203203,0.112424923,-0.034016912529394594,,-3.2048672e-05,1.4901161e-06,-1.1920929e-07,1.0000001,4.9591064e-05,4.054606e-05,-4.9591064e-05,1.0,4.529953e-06,-4.055351e-05,-4.529953e-06,1.0,735,2.237,0,0,0.0,False,[1.04612513],[1.04990123]
2.1895856909995928,11:12:51.926562,11:12:33.685932,0,,0.016883718,0.049030304,0.06391665,-0.83129716,-0.32340473,-0.45205578,-0.44719714,0.8721493,0.19841903,0.3300905,0.36710328,-0.869641,,0.17699756,-0.04317742,0.07647097,-0.8596454,-0.32839674,0.39136377,0.054696232,0.70247936,0.7095991,-0.507955,0.63140965,-0.58592117,,0.08768073,1.3339181,0.4668371,0.99604475,0.002878836,-0.08880651,-0.053853754,-0.7754122,-0.62915474,-0.070672885,0.6314488,-0.7721902,,-0.060162757,0.27238944,-0.09091157,0.8232008,0.24528241,0.51203215,-0.041846346,0.92562145,-0.3761301,-0.56620604,0.28820395,0.7722365,,0.018702328,0.4460434,-0.3966437,0.9101872,0.12227777,-0.39573655,-0.19339019,0.97035295,-0.14496686,0.3662779,0.20847854,0.90685016,,0.8476703284735049,-0.10707569130112282,0.16806270221000003,0.7467058887483912,-0.09304945634026494,0.08706557981652002,0.8400785321285982,,-1.0194007393976352,-0.6872614439429876,0.13975821006000003,1.6852780757851225,-0.24840515657357073,0.9769538841927646,0.8636000776519344,,-0.06956664232292899,-0.09941177253203203,0.112424923,-0.034016912529394594,,-3.2048672e-05,1.4901161e-06,-1.1920929e-07,1.0000001,4.9591064e-05,4.054606e-05,-4.9591064e-05,1.0,4.529953e-06,-4.055351e-05,-4.529953e-06,1.0,743,2.262,0,0,0.0,False,[1.04582724],[1.04941843]
2.275344206000227,11:12:51.954932,11:12:33.685932,0,,0.016883718,0.049030304,0.06391665,-0.83129716,-0.32340473,-0.45205578,-0.44719714,0.8721493,0.19841903,0.3300905,0.36710328,-0.869641,,0.17699756,-0.04317742,0.07647097,-0.8596454,-0.32839674,0.39136377,0.054696232,0.70247936,0.7095991,-0.507955,0.63140965,-0.58592117,,0.08768073,1.3339181,0.4668371,0.99604475,0.002878836,-0.08880651,-0.053853754,-0.7754122,-0.62915474,-0.070672885,0.6314488,-0.7721902,,-0.060162757,0.27238944,-0.09091157,0.8232008,0.24528241,0.51203215,-0.041846346,0.92562145,-0.3761301,-0.56620604,0.28820395,0.7722365,,0.018702328,0.4460434,-0.3966437,0.9101872,0.12227777,-0.39573655,-0.19339019,0.97035295,-0.14496686,0.3662779,0.20847854,0.90685016,,0.8476703284735049,-0.10707569130112282,0.16806270221000003,0.7467058887483912,-0.09304945634026494,0.08706557981652002,0.8400785321285982,,-1.0194007393976352,-0.6872614439429876,0.13975821006000003,1.6852780757851225,-0.24840515657357073,0.9769538841927646,0.8636000776519344,,-0.06956664232292899,-0.09941177253203203,0.112424923,-0.034016912529394594,,-3.2048672e-05,1.4901161e-06,-1.1920929e-07,1.0000001,4.9591064e-05,4.054606e-05,-4.9591064e-05,1.0,4.529953e-06,-4.055351e-05,-4.529953e-06,1.0,751,2.286,0,0,0.0,False,[1.04642302],[1.04937015]
2.3037143709989323,11:12:51.977125,11:12:33.685932,0,,0.016883718,0.049030304,0.06391665,-0.83129716,-0.32340473,-0.45205578,-0.44719714,0.8721493,0.19841903,0.3300905,0.36710328,-0.869641,,0.17699756,-0.04317742,0.07647097,-0.8596454,-0.32839674,0.39136377,0.054696232,0.70247936,0.7095991,-0.507955,0.63140965,-0.58592117,,0.08768073,1.3339181,0.4668371,0.99604475,0.002878836,-0.08880651,-0.053853754,-0.7754122,-0.62915474,-0.070672885,0.6314488,-0.7721902,,-0.060162757,0.27238944,-0.09091157,0.8232008,0.24528241,0.51203215,-0.041846346,0.92562145,-0.3761301,-0.56620604,0.28820395,0.7722365,,0.018702328,0.4460434,-0.3966437,0.9101872,0.12227777,-0.39573655,-0.19339019,0.97035295,-0.14496686,0.3662779,0.20847854,0.90685016,,0.8476703284735049,-0.10707569130112282,0.16806270221000003,0.7467058887483912,-0.09304945634026494,0.08706557981652002,0.8400785321285982,,-1.0194007393976352,-0.6872614439429876,0.13975821006000003,1.6852780757851225,-0.24840515657357073,0.9769538841927646,0.8636000776519344,,-0.06956664232292899,-0.09941177253203203,0.112424923,-0.034016912529394594,,-3.2048672e-05,1.4901161e-06,-1.1920929e-07,1.0000001,4.9591064e-05,4.054606e-05,-4.9591064e-05,1.0,4.529953e-06,-4.055351e-05,-4.529953e-06,1.0,759,2.311,0,0,0.0,False,[1.04624429],[1.04917703]
2.3259127319997788,11:12:52.005160,11:12:33.943015,0,,0.016883718,0.049030304,0.06391665,-0.83129716,-0.32340473,-0.45205578,-0.44719714,0.8721493,0.19841903,0.3300905,0.36710328,-0.869641,,0.17699756,-0.04317742,0.07647097,-0.8596454,-0.32839674,0.39136377,0.054696232,0.70247936,0.7095991,-0.507955,0.63140965,-0.58592117,,0.08768073,1.3339181,0.4668371,0.99604475,0.002878836,-0.08880651,-0.053853754,-0.7754122,-0.62915474,-0.070672885,0.6314488,-0.7721902,,-0.060162757,0.27238944,-0.09091157,0.8232008,0.24528241,0.51203215,-0.041846346,0.92562145,-0.3761301,-0.56620604,0.28820395,0.7722365,,0.018702328,0.4460434,-0.3966437,0.9101872,0.12227777,-0.39573655,-0.19339019,0.97035295,-0.14496686,0.3662779,0.20847854,0.90685016,,0.8476703284735049,-0.10707569130112282,0.16806270221000003,0.7467058887483912,-0.09304945634026494,0.08706557981652002,0.8400785321285982,,-1.0194007393976352,-0.6872614439429876,0.13975821006000003,1.6852780757851225,-0.24840515657357073,0.9769538841927646,0.8636000776519344,,-0.06956664232292899,-0.09941177253203203,0.112424923,-0.034016912529394594,,-3.2048672e-05,1.4901161e-06,-1.1920929e-07,1.0000001,4.9591064e-05,4.054606e-05,-4.9591064e-05,1.0,4.529953e-06,-4.055351e-05,-4.529953e-06,1.0,767,2.335,0,0,0.0,False,[1.04624429],[1.04941843]
2.353947227999015,11:12:52.031945,11:12:33.943015,0,,0.016883718,0.049030304,0.06391665,-0.83129716,-0.32340473,-0.45205578,-0.44719714,0.8721493,0.19841903,0.3300905,0.36710328,-0.869641,,0.17699756,-0.04317742,0.07647097,-0.8596454,-0.32839674,0.39136377,0.054696232,0.70247936,0.7095991,-0.507955,0.63140965,-0.58592117,,0.08768073,1.3339181,0.4668371,0.99604475,0.002878836,-0.08880651,-0.053853754,-0.7754122,-0.62915474,-0.070672885,0.6314488,-0.7721902,,-0.060162757,0.27238944,-0.09091157,0.8232008,0.24528241,0.51203215,-0.041846346,0.92562145,-0.3761301,-0.56620604,0.28820395,0.7722365,,0.018702328,0.4460434,-0.3966437,0.9101872,0.12227777,-0.39573655,-0.19339019,0.97035295,-0.14496686,0.3662779,0.20847854,0.90685016,,0.8476703284735049,-0.10707569130112282,0.16806270221000003,0.7467058887483912,-0.09304945634026494,0.08706557981652002,0.8400785321285982,,-1.0194007393976352,-0.6872614439429876,0.13975821006000003,1.6852780757851225,-0.24840515657357073,0.9769538841927646,0.8636000776519344,,-0.06956664232292899,-0.09941177253203203,0.112424923,-0.034016912529394594,,-3.2048672e-05,1.4901161e-06,-1.1920929e-07,1.0000001,4.9591064e-05,4.054606e-05,-4.9591064e-05,1.0,4.529953e-06,-4.055351e-05,-4.529953e-06,1.0,800,2.438,0,0,0.0,False,[1.04660175],[1.04956327]
2.3806722259996604,11:12:52.127398,11:12:33.943015,0,,0.016883718,0.049030304,0.06391665,-0.83129716,-0.32340473,-0.45205578,-0.44719714,0.8721493,0.19841903,0.3300905,0.36710328,-0.869641,,0.17699756,-0.04317742,0.07647097,-0.8596454,-0.32839674,0.39136377,0.054696232,0.70247936,0.7095991,-0.507955,0.63140965,-0.58592117,,0.08768073,1.3339181,0.4668371,0.99604475,0.002878836,-0.08880651,-0.053853754,-0.7754122,-0.62915474,-0.070672885,0.6314488,-0.7721902,,-0.060162757,0.27238944,-0.09091157,0.8232008,0.24528241,0.51203215,-0.041846346,0.92562145,-0.3761301,-0.56620604,0.28820395,0.7722365,,0.018702328,0.4460434,-0.3966437,0.9101872,0.12227777,-0.39573655,-0.19339019,0.97035295,-0.14496686,0.3662779,0.20847854,0.90685016,,0.8476703284735049,-0.10707569130112282,0.16806270221000003,0.7467058887483912,-0.09304945634026494,0.08706557981652002,0.8400785321285982,,-1.0194007393976352,-0.6872614439429876,0.13975821006000003,1.6852780757851225,-0.24840515657357073,0.9769538841927646,0.8636000776519344,,-0.06956664232292899,-0.09941177253203203,0.112424923,-0.034016912529394594,,-3.2048672e-05,1.4901161e-06,-1.1920929e-07,1.0000001,4.9591064e-05,4.054606e-05,-4.9591064e-05,1.0,4.529953e-06,-4.055351e-05,-4.529953e-06,1.0,808,2.462,0,0,0.0,False,[1.04600598],[1.04922531]
2.4761755959989387,11:12:52.157218,11:12:34.090027,0,,0.016883718,0.049030304,0.06391665,-0.83129716,-0.32340473,-0.45205578,-0.44719714,0.8721493,0.19841903,0.3300905,0.36710328,-0.869641,,0.17699756,-0.04317742,0.07647097,-0.8596454,-0.32839674,0.39136377,0.054696232,0.70247936,0.7095991,-0.507955,0.63140965,-0.58592117,,0.08768073,1.3339181,0.4668371,0.99604475,0.002878836,-0.08880651,-0.053853754,-0.7754122,-0.62915474,-0.070672885,0.6314488,-0.7721902,,-0.060162757,0.27238944,-0.09091157,0.8232008,0.24528241,0.51203215,-0.041846346,0.92562145,-0.3761301,-0.56620604,0.28820395,0.7722365,,0.018702328,0.4460434,-0.3966437,0.9101872,0.12227777,-0.39573655,-0.19339019,0.97035295,-0.14496686,0.3662779,0.20847854,0.90685016,,0.8476703284735049,-0.10707569130112282,0.16806270221000003,0.7467058887483912,-0.09304945634026494,0.08706557981652002,0.8400785321285982,,-1.0194007393976352,-0.6872614439429876,0.13975821006000003,1.6852780757851225,-0.24840515657357073,0.9769538841927646,0.8636000776519344,,-0.06956664232292899,-0.09941177253203203,0.112424923,-0.034016912529394594,,-3.2048672e-05,1.4901161e-06,-1.1920929e-07,1.0000001,4.9591064e-05,4.054606e-05,-4.9591064e-05,1.0,4.529953e-06,-4.055351e-05,-4.529953e-06,1.0,816,2.487,0,0,0.0,False,[1.04600598],[1.04980467]
2.506003825999869,11:12:52.180547,11:12:34.090027,0,,0.016883718,0.049030304,0.06391665,-0.83129716,-0.32340473,-0.45205578,-0.44719714,0.8721493,0.19841903,0.3300905,0.36710328,-0.869641,,0.17699756,-0.04317742,0.07647097,-0.8596454,-0.32839674,0.39136377,0.054696232,0.70247936,0.7095991,-0.507955,0.63140965,-0.58592117,,0.08768073,1.3339181,0.4668371,0.99604475,0.002878836,-0.08880651,-0.053853754,-0.7754122,-0.62915474,-0.070672885,0.6314488,-0.7721902,,-0.060162757,0.27238944,-0.09091157,0.8232008,0.24528241,0.51203215,-0.041846346,0.92562145,-0.3761301,-0.56620604,0.28820395,0.7722365,,0.018702328,0.4460434,-0.3966437,0.9101872,0.12227777,-0.39573655,-0.19339019,0.97035295,-0.14496686,0.3662779,0.20847854,0.90685016,,0.8476703284735049,-0.10707569130112282,0.16806270221000003,0.7467058887483912,-0.09304945634026494,0.08706557981652002,0.8400785321285982,,-1.0194007393976352,-0.6872614439429876,0.13975821006000003,1.6852780757851225,-0.24840515657357073,0.9769538841927646,0.8636000776519344,,-0.06956664232292899,-0.09941177253203203,0.112424923,-0.034016912529394594,,-3.2048672e-05,1.4901161e-06,-1.1920929e-07,1.0000001,4.9591064e-05,4.054606e-05,-4.9591064e-05,1.0,4.529953e-06,-4.055351e-05,-4.529953e-06,1.0,824,2.512,0,0,0.0,False,[1.04672091],[1.05004607]
2.5292748840001877,11:12:52.206993,11:12:34.090027,0,,0.01688266,0.049030736,0.06391713,-0.83129454,-0.323403,-0.45206192,-0.44719893,0.8721478,0.19842151,0.33009475,0.36710835,-0.8696372,,0.17699756,-0.04317742,0.07647097,-0.8596454,-0.32839674,0.39136377,0.054696232,0.70247936,0.7095991,-0.507955,0.63140965,-0.58592117,,0.08768073,1.3339181,0.4668371,0.99604475,0.002878836,-0.08880651,-0.053853754,-0.7754122,-0.62915474,-0.070672885,0.6314488,-0.7721902,,-0.060161766,0.2723902,-0.090911664,0.8231979,0.24528031,0.5120379,-0.04184517,0.9256235,-0.37612522,-0.5662104,0.2881992,0.7722351,,0.018702328,0.4460434,-0.3966437,0.9101872,0.12227777,-0.39573655,-0.19339019,0.97035295,-0.14496686,0.3662779,0.20847854,0.90685016,,0.8476780512063791,-0.10707569130112282,0.16806270221000003,0.7467058887483912,-0.09304945634026494,0.08706557981652002,0.8400785321285982,,-1.0194007393976352,-0.6872614439429876,0.13975821006000003,1.6852780757851225,-0.24840515657357073,0.9769538841927646,0.8636000776519344,,-0.06956664232292899,-0.09941177253203203,0.112424923,-0.034016912529394594,,-3.2048672e-05,1.4901161e-06,-1.1920929e-07,1.0000001,4.9591064e-05,4.054606e-05,-4.9591064e-05,1.0,4.529953e-06,-4.055351e-05,-4.529953e-06,1.0,832,2.536,0,0,0.0,False,[1.04666133],[1.04985295]
2.5557342209995113,11:12:52.231639,11:12:34.090027,0,,0.016883718,0.049030304,0.06391665,-0.83129716,-0.32340473,-0.45205578,-0.44719714,0.8721493,0.19841903,0.3300905,0.36710328,-0.869641,,0.17699756,-0.04317742,0.07647097,-0.8596454,-0.32839674,0.39136377,0.054696232,0.70247936,0.7095991,-0.507955,0.63140965,-0.58592117,,0.08768073,1.3339181,0.4668371,0.99604475,0.002878836,-0.08880651,-0.053853754,-0.7754122,-0.62915474,-0.070672885,0.6314488,-0.7721902,,-0.060162757,0.27238944,-0.09091157,0.8232008,0.24528241,0.51203215,-0.041846346,0.92562145,-0.3761301,-0.56620604,0.28820395,0.7722365,,0.018702328,0.4460434,-0.3966437,0.9101872,0.12227777,-0.39573655,-0.19339019,0.97035295,-0.14496686,0.3662779,0.20847854,0.90685016,,0.8476703284735049,-0.10707569130112282,0.16806270221000003,0.7467058887483912,-0.09304945634026494,0.08706557981652002,0.8400785321285982,,-1.0194007393976352,-0.6872614439429876,0.13975821006000003,1.6852780757851225,-0.24840515657357073,0.9769538841927646,0.8636000776519344,,-0.06956664232292899,-0.09941177253203203,0.112424923,-0.034016912529394594,,-3.2048672e-05,1.4901161e-06,-1.1920929e-07,1.0000001,4.9591064e-05,4.054606e-05,-4.9591064e-05,1.0,4.529953e-06,-4.055351e-05,-4.529953e-06,1.0,840,2.561,0,0,0.0,False,[1.04612513],[1.04980467]
