AlexandreBanks6/ExpertPlaybackApp/resources/Motions/PC1/Data_PC1_36.csv
Task Time,PC1 Time,PC2 Time,Gaze Calib,s_T_psm1,Tx,Ty,Tz,R00,R01,R02,R10,R11,R12,R20,R21,R22,s_T_psm3,Tx,Ty,Tz,R00,R01,R02,R10,R11,R12,R20,R21,R22,cart_T_ecm,Tx,Ty,Tz,R00,R01,R02,R10,R11,R12,R20,R21,R22,ecm_T_psm1,Tx,Ty,Tz,R00,R01,R02,R10,R11,R12,R20,R21,R22,ecm_T_psm3,Tx,Ty,Tz,R00,R01,R02,R10,R11,R12,R20,R21,R22,psm1_joints,q1,q2,q3,q4,q5,q6,jaw,psm3_joints,q1,q2,q3,q4,q5,q6,jaw,ecm_joints,q1,q2,q3,q4,ecmi_T_ecm,Tx,Ty,Tz,R00,R01,R02,R10,R11,R12,R20,R21,R22,Sample #,Task Duration (s),Collisions (binary),Collisions (increments),Cumulative Collision Time (s),Clutch Press,MTMR Angle,MTML Angle
""
lci_T_si,,,,,-0.06911255,0.020764593,0.26076955,0.9953428,0.0400677,0.08767717,0.08684432,-0.7674894,-0.63515204,0.041842222,0.6398083,-0.76739466
rci_T_si,,,,,-0.07835912,0.026536781,0.2722765,0.9955334,0.015615062,0.093109466,0.07183176,-0.76526916,-0.63969004,0.061265003,0.643521,-0.76297265
ecm_T_lc,,,,,-4.4061628e-05,-0.00034663224,-0.01840835,-0.99912,0.030754527,0.028518902,-0.031987965,-0.99852574,-0.043852776,0.027128186,-0.04472645,0.9986309
ecm_T_rc,,,,,-0.0043358393,0.01870579,-0.007592615,-0.99555075,-0.052743673,-0.078081585,0.04863213,-0.9973746,0.053654674,-0.08070653,0.04961868,0.9955021
cart_T_ecmi,,,,,0.08746113,1.3322496,0.46482307,0.99604315,0.0028804142,-0.08882411,-0.053876545,-0.77529705,-0.6292947,-0.0706777,0.63159025,-0.7720741
ecmac_T_ecmrep_psm1,,,,,0.08626859,-0.2052861,-0.33370098,0.999004,0.025128257,0.036871605,-0.023534218,0.9987958,-0.04304718,-0.037908904,0.04213656,0.9983924
ecmac_T_ecmrep_psm3,,,,,-0.16209933,-0.49188918,-0.56672233,0.99379694,-0.09876928,0.05111077,0.087427974,0.9779163,0.18983154,-0.068731576,-0.18418549,0.98048544
""
0,11:40:36.732986,NaN,0,,0.0069246422,0.011691138,0.07084839,-0.6357293,-0.1664055,-0.7537621,-0.4815808,0.8486454,0.2188167,0.6032645,0.5021056,-0.61964655,,0.1537784,-0.034251213,0.04608959,-0.62493604,-0.17831956,0.7600376,0.22281593,0.89232576,0.39256585,-0.7482033,0.4146769,-0.517914,,0.08743259,1.3322511,0.46482414,0.9960441,0.0028941473,-0.08881296,-0.053858902,-0.775297,-0.6292963,-0.0706777,0.63159025,-0.7720741,,-0.048801854,0.24907018,-0.12537003,0.6063986,0.07941376,0.7911853,0.074422255,0.98496455,-0.15590443,-0.79167044,0.15342201,0.59137094,,0.044927903,0.4315916,-0.37382057,0.69234335,-0.018720109,-0.72132534,-0.32418722,0.8850196,-0.33413014,0.644642,0.46517724,0.6066686,,0.8265332085967524,-0.35657402226869406,0.16341420627000003,0.6389252577973457,-0.24266642358342222,0.5033566850905471,0.8722573131570512,,-0.6686110440517353,-0.5506617448637044,0.14974482822000001,2.1377889738247258,0.35785099288568856,0.6492989541186304,0.8755241944797366,,-0.06956664232292899,-0.09922196797587764,0.1150502548,-0.034016912529394594,,-2.8576702e-05,-4.172325e-07,8.34465e-07,1.0,1.3675541e-05,1.1190772e-05,-1.3675541e-05,1.0,1.2516975e-06,-1.1187047e-05,-1.2814999e-06,1.0,3289,10.094,0,0,0.0,False,1.0461251320759053,1.0504805913743163
0.018301748001249507,11:40:36.757764,NaN,0,,0.0069246422,0.011691138,0.07084839,-0.6357293,-0.1664055,-0.7537621,-0.4815808,0.8486454,0.2188167,0.6032645,0.5021056,-0.61964655,,0.1537784,-0.034251213,0.04608959,-0.62493604,-0.17831956,0.7600376,0.22281593,0.89232576,0.39256585,-0.7482033,0.4146769,-0.517914,,0.08743259,1.3322511,0.46482414,0.9960441,0.0028941473,-0.08881296,-0.053858902,-0.775297,-0.6292963,-0.0706777,0.63159025,-0.7720741,,-0.048801854,0.24907018,-0.12537003,0.6063986,0.07941376,0.7911853,0.074422255,0.98496455,-0.15590443,-0.79167044,0.15342201,0.59137094,,0.044927903,0.4315916,-0.37382057,0.69234335,-0.018720109,-0.72132534,-0.32418722,0.8850196,-0.33413014,0.644642,0.46517724,0.6066686,,0.8265332085967524,-0.35657402226869406,0.16341420627000003,0.6389252577973457,-0.24266642358342222,0.5033566850905471,0.8722573131570512,,-0.6686110440517353,-0.5506617448637044,0.14974482822000001,2.1377889738247258,0.35785099288568856,0.6492989541186304,0.8755241944797366,,-0.06956664232292899,-0.09922196797587764,0.1150502548,-0.034016912529394594,,-2.8576702e-05,-4.172325e-07,8.34465e-07,1.0,1.3675541e-05,1.1190772e-05,-1.3675541e-05,1.0,1.2516975e-06,-1.1187047e-05,-1.2814999e-06,1.0,9,0.028,0,0,0.0,False,1.0471379532907625,1.0503840309727575
0.043094557000586065,11:40:36.784811,NaN,0,,0.0069246422,0.011691138,0.07084839,-0.6357293,-0.1664055,-0.7537621,-0.4815808,0.8486454,0.2188167,0.6032645,0.5021056,-0.61964655,,0.1537784,-0.034251213,0.04608959,-0.62493604,-0.17831956,0.7600376,0.22281593,0.89232576,0.39256585,-0.7482033,0.4146769,-0.517914,,0.08743259,1.3322511,0.46482414,0.9960441,0.0028941473,-0.08881296,-0.053858902,-0.775297,-0.6292963,-0.0706777,0.63159025,-0.7720741,,-0.048801854,0.24907018,-0.12537003,0.6063986,0.07941376,0.7911853,0.074422255,0.98496455,-0.15590443,-0.79167044,0.15342201,0.59137094,,0.044927903,0.4315916,-0.37382057,0.69234335,-0.018720109,-0.72132534,-0.32418722,0.8850196,-0.33413014,0.644642,0.46517724,0.6066686,,0.8265332085967524,-0.35657402226869406,0.16341420627000003,0.6389252577973457,-0.24266642358342222,0.5033566850905471,0.8722573131570512,,-0.6686110440517353,-0.5506617448637044,0.14974482822000001,2.1377889738247258,0.35785099288568856,0.6492989541186304,0.8755241944797366,,-0.06956664232292899,-0.09922196797587764,0.1150502548,-0.034016912529394594,,-2.8576702e-05,-4.172325e-07,8.34465e-07,1.0,1.3675541e-05,1.1190772e-05,-1.3675541e-05,1.0,1.2516975e-06,-1.1187047e-05,-1.2814999e-06,1.0,17,0.052,0,0,0.0,False,1.0463634429499895,1.0510116735828905
0.07013935900067736,11:40:36.805405,NaN,0,,0.0069236755,0.011691548,0.07084881,-0.63572484,-0.16640265,-0.7537666,-0.48158327,0.8486436,0.21881822,0.6032674,0.5021095,-0.6196406,,0.1537784,-0.034251213,0.04608959,-0.62493604,-0.17831956,0.7600376,0.22281593,0.89232576,0.39256585,-0.7482033,0.4146769,-0.517914,,0.08743259,1.3322511,0.46482414,0.9960441,0.0028941473,-0.08881296,-0.053858902,-0.775297,-0.6292963,-0.0706777,0.63159025,-0.7720741,,-0.04880095,0.24907085,-0.1253701,0.606394,0.07941068,0.7911892,0.07442173,0.98496544,-0.15589908,-0.791674,0.15341793,0.5913672,,0.044927903,0.4315916,-0.37382057,0.69234335,-0.018720109,-0.72132534,-0.32418722,0.8850196,-0.33413014,0.644642,0.46517724,0.6066686,,0.8265409313296266,-0.35657402226869406,0.16341420627000003,0.6389252577973457,-0.24266642358342222,0.5033566850905471,0.8722573131570512,,-0.6686110440517353,-0.5506617448637044,0.14974482822000001,2.1377889738247258,0.35785099288568856,0.6492989541186304,0.8755241944797366,,-0.06956664232292899,-0.09922196797587764,0.1150502548,-0.034016912529394594,,-2.8576702e-05,-4.172325e-07,8.34465e-07,1.0,1.3675541e-05,1.1190772e-05,-1.3675541e-05,1.0,1.2516975e-06,-1.1187047e-05,-1.2814999e-06,1.0,25,0.075,0,0,0.0,False,1.0468400646981575,1.0505771517758753
0.09067168200090236,11:40:36.826664,NaN,0,,0.0069239084,0.011691168,0.07084875,-0.6356211,-0.16655396,-0.75382054,-0.48175603,0.8485687,0.21872818,0.6032387,0.5021858,-0.61960673,,0.1537784,-0.034251213,0.04608959,-0.62493604,-0.17831956,0.7600376,0.22281593,0.89232576,0.39256585,-0.7482033,0.4146769,-0.517914,,0.08743259,1.3322511,0.46482414,0.9960441,0.0028941473,-0.08881296,-0.053858902,-0.775297,-0.6292963,-0.0706777,0.63159025,-0.7720741,,-0.048801154,0.2490705,-0.1253703,0.6063021,0.079558656,0.7912447,0.07426143,0.9849708,-0.15594141,-0.79175943,0.15330656,0.5912818,,0.044927903,0.4315916,-0.37382057,0.69234335,-0.018720109,-0.72132534,-0.32418722,0.8850196,-0.33413014,0.644642,0.46517724,0.6066686,,0.8265409313296266,-0.35657402226869406,0.16341420627000003,0.6387155678538612,-0.24266642358342222,0.5033566850905471,0.8722573131570512,,-0.6686110440517353,-0.5506617448637044,0.14974482822000001,2.1377889738247258,0.35785099288568856,0.6492989541186304,0.8755241944797366,,-0.06956664232292899,-0.09922196797587764,0.1150502548,-0.034016912529394594,,-2.8576702e-05,-4.172325e-07,8.34465e-07,1.0,1.3675541e-05,1.1190772e-05,-1.3675541e-05,1.0,1.2516975e-06,-1.1187047e-05,-1.2814999e-06,1.0,32,0.097,0,0,0.0,False,1.0469592201351996,1.0504805913743163
0.11200694600120187,11:40:36.855949,NaN,0,,0.006925108,0.011690363,0.07084827,-0.63552195,-0.16670811,-0.7538701,-0.48192632,0.84849566,0.21863665,0.6032072,0.50225824,-0.6195787,,0.1537784,-0.034251213,0.04608959,-0.62493604,-0.17831956,0.7600376,0.22281593,0.89232576,0.39256585,-0.7482033,0.4146769,-0.517914,,0.08743259,1.3322511,0.46482414,0.9960441,0.0028941473,-0.08881296,-0.053858902,-0.775297,-0.6292963,-0.0706777,0.63159025,-0.7720741,,-0.048802268,0.24906947,-0.12537041,0.6062149,0.0797097,0.79129636,0.07410164,0.9849753,-0.1559891,-0.7918412,0.15319927,0.59120005,,0.044927903,0.4315916,-0.37382057,0.69234335,-0.018720109,-0.72132534,-0.32418722,0.8850196,-0.33413014,0.644642,0.46517724,0.6066686,,0.8265332085967524,-0.35657402226869406,0.16341420627000003,0.6385058779103767,-0.24266642358342222,0.5033566850905471,0.8722573131570512,,-0.6686110440517353,-0.5506617448637044,0.14974482822000001,2.1377889738247258,0.35785099288568856,0.6492989541186304,0.8755241944797366,,-0.06956664232292899,-0.09922196797587764,0.1150502548,-0.034016912529394594,,-2.8576702e-05,-4.172325e-07,8.34465e-07,1.0,1.3675541e-05,1.1190772e-05,-1.3675541e-05,1.0,1.2516975e-06,-1.1187047e-05,-1.2814999e-06,1.0,40,0.12,0,0,0.0,False,1.0466017538240733,1.0507702725789931
0.1412840890006919,11:40:36.876368,NaN,0,,0.006925108,0.011690363,0.07084827,-0.63552195,-0.16670811,-0.7538701,-0.48192632,0.84849566,0.21863665,0.6032072,0.50225824,-0.6195787,,0.1537784,-0.034251213,0.04608959,-0.62493604,-0.17831956,0.7600376,0.22281593,0.89232576,0.39256585,-0.7482033,0.4146769,-0.517914,,0.08743259,1.3322511,0.46482414,0.9960441,0.0028941473,-0.08881296,-0.053858902,-0.775297,-0.6292963,-0.0706777,0.63159025,-0.7720741,,-0.048802268,0.24906947,-0.12537041,0.6062149,0.0797097,0.79129636,0.07410164,0.9849753,-0.1559891,-0.7918412,0.15319927,0.59120005,,0.044927903,0.4315916,-0.37382057,0.69234335,-0.018720109,-0.72132534,-0.32418722,0.8850196,-0.33413014,0.644642,0.46517724,0.6066686,,0.8265332085967524,-0.35657402226869406,0.16341420627000003,0.6385058779103767,-0.24266642358342222,0.5033566850905471,0.8722573131570512,,-0.6686110440517353,-0.5506617448637044,0.14974482822000001,2.1377889738247258,0.35785099288568856,0.6492989541186304,0.8755241944797366,,-0.06956664232292899,-0.09922196797587764,0.1150502548,-0.034016912529394594,,-2.8576702e-05,-4.172325e-07,8.34465e-07,1.0,1.3675541e-05,1.1190772e-05,-1.3675541e-05,1.0,1.2516975e-06,-1.1187047e-05,-1.2814999e-06,1.0,47,0.142,0,0,0.0,False,1.0467804869796362,1.0501909101696396
0.16170626700113644,11:40:36.895767,NaN,0,,0.006925108,0.011690363,0.07084827,-0.63552195,-0.16670811,-0.7538701,-0.48192632,0.84849566,0.21863665,0.6032072,0.50225824,-0.6195787,,0.1537784,-0.034251213,0.04608959,-0.62493604,-0.17831956,0.7600376,0.22281593,0.89232576,0.39256585,-0.7482033,0.4146769,-0.517914,,0.08743259,1.3322511,0.46482414,0.9960441,0.0028941473,-0.08881296,-0.053858902,-0.775297,-0.6292963,-0.0706777,0.63159025,-0.7720741,,-0.048802268,0.24906947,-0.12537041,0.6062149,0.0797097,0.79129636,0.07410164,0.9849753,-0.1559891,-0.7918412,0.15319927,0.59120005,,0.044927903,0.4315916,-0.37382057,0.69234335,-0.018720109,-0.72132534,-0.32418722,0.8850196,-0.33413014,0.644642,0.46517724,0.6066686,,0.8265332085967524,-0.35657402226869406,0.16341420627000003,0.6385058779103767,-0.24266642358342222,0.5033566850905471,0.8722573131570512,,-0.6686110440517353,-0.5506617448637044,0.14974482822000001,2.1377889738247258,0.35785099288568856,0.6492989541186304,0.8755241944797366,,-0.06956664232292899,-0.09922196797587764,0.1150502548,-0.034016912529394594,,-2.8576702e-05,-4.172325e-07,8.34465e-07,1.0,1.3675541e-05,1.1190772e-05,-1.3675541e-05,1.0,1.2516975e-06,-1.1187047e-05,-1.2814999e-06,1.0,55,0.166,0,0,0.0,False,1.0464825983870312,1.0505771517758753
0.18110903399974632,11:40:36.924631,NaN,0,,0.006925108,0.011690363,0.07084827,-0.63552195,-0.16670811,-0.7538701,-0.48192632,0.84849566,0.21863665,0.6032072,0.50225824,-0.6195787,,0.1537784,-0.034251213,0.04608959,-0.62493604,-0.17831956,0.7600376,0.22281593,0.89232576,0.39256585,-0.7482033,0.4146769,-0.517914,,0.08743259,1.3322511,0.46482414,0.9960441,0.0028941473,-0.08881296,-0.053858902,-0.775297,-0.6292963,-0.0706777,0.63159025,-0.7720741,,-0.048802268,0.24906947,-0.12537041,0.6062149,0.0797097,0.79129636,0.07410164,0.9849753,-0.1559891,-0.7918412,0.15319927,0.59120005,,0.044927903,0.4315916,-0.37382057,0.69234335,-0.018720109,-0.72132534,-0.32418722,0.8850196,-0.33413014,0.644642,0.46517724,0.6066686,,0.8265332085967524,-0.35657402226869406,0.16341420627000003,0.6385058779103767,-0.24266642358342222,0.5033566850905471,0.8722573131570512,,-0.6686110440517353,-0.5506617448637044,0.14974482822000001,2.1377889738247258,0.35785099288568856,0.6492989541186304,0.8755241944797366,,-0.06956664232292899,-0.09922196797587764,0.1150502548,-0.034016912529394594,,-2.8576702e-05,-4.172325e-07,8.34465e-07,1.0,1.3675541e-05,1.1190772e-05,-1.3675541e-05,1.0,1.2516975e-06,-1.1187047e-05,-1.2814999e-06,1.0,63,0.191,0,0,0.0,False,1.0468996424166788,1.0505771517758753
0.20997217600051954,11:40:36.942646,NaN,0,,0.006925108,0.011690363,0.07084827,-0.63552195,-0.16670811,-0.7538701,-0.48192632,0.84849566,0.21863665,0.6032072,0.50225824,-0.6195787,,0.1537776,-0.034251437,0.046089232,-0.6249416,-0.17831852,0.7600333,0.22281238,0.89232665,0.39256582,-0.74819964,0.4146754,-0.5179204,,0.08743259,1.3322511,0.46482414,0.9960441,0.0028941473,-0.08881296,-0.053858902,-0.775297,-0.6292963,-0.0706777,0.63159025,-0.7720741,,-0.048802268,0.24906947,-0.12537041,0.6062149,0.0797097,0.79129636,0.07410164,0.9849753,-0.1559891,-0.7918412,0.15319927,0.59120005,,0.04492879,0.43159133,-0.3738205,0.6923487,-0.018721031,-0.72132015,-0.3241853,0.88501877,-0.33413425,0.64463717,0.46517882,0.6066725,,0.8265332085967524,-0.35657402226869406,0.16341420627000003,0.6385058779103767,-0.24266642358342222,0.5033566850905471,0.8722573131570512,,-0.6686033213188611,-0.5506617448637044,0.14974482822000001,2.1377889738247258,0.35785099288568856,0.6492989541186304,0.8755241944797366,,-0.06956664232292899,-0.09922196797587764,0.1150502548,-0.034016912529394594,,-2.8576702e-05,-4.172325e-07,8.34465e-07,1.0,1.3675541e-05,1.1190772e-05,-1.3675541e-05,1.0,1.2516975e-06,-1.1187047e-05,-1.2814999e-06,1.0,71,0.214,0,0,0.0,False,1.0463634429499895,1.0507702725789931
0.22798156200042285,11:40:36.964397,NaN,0,,0.006925108,0.011690363,0.07084827,-0.63552195,-0.16670811,-0.7538701,-0.48192632,0.84849566,0.21863665,0.6032072,0.50225824,-0.6195787,,0.1537784,-0.034251213,0.04608959,-0.62493604,-0.17831956,0.7600376,0.22281593,0.89232576,0.39256585,-0.7482033,0.4146769,-0.517914,,0.08743259,1.3322511,0.46482414,0.9960441,0.0028941473,-0.08881296,-0.053858902,-0.775297,-0.6292963,-0.0706777,0.63159025,-0.7720741,,-0.048802268,0.24906947,-0.12537041,0.6062149,0.0797097,0.79129636,0.07410164,0.9849753,-0.1559891,-0.7918412,0.15319927,0.59120005,,0.044927903,0.4315916,-0.37382057,0.69234335,-0.018720109,-0.72132534,-0.32418722,0.8850196,-0.33413014,0.644642,0.46517724,0.6066686,,0.8265332085967524,-0.35657402226869406,0.16341420627000003,0.6385058779103767,-0.24266642358342222,0.5033566850905471,0.8722573131570512,,-0.6686110440517353,-0.5506617448637044,0.14974482822000001,2.1377889738247258,0.35785099288568856,0.6492989541186304,0.8755241944797366,,-0.06956664232292899,-0.09922196797587764,0.1150502548,-0.034016912529394594,,-2.8576702e-05,-4.172325e-07,8.34465e-07,1.0,1.3675541e-05,1.1190772e-05,-1.3675541e-05,1.0,1.2516975e-06,-1.1187047e-05,-1.2814999e-06,1.0,78,0.236,0,0,0.0,False,1.0463634429499895,1.0507702725789931
0.2497167420006008,11:40:36.994226,NaN,0,,0.006925108,0.011690363,0.07084827,-0.63552195,-0.16670811,-0.7538701,-0.48192632,0.84849566,0.21863665,0.6032072,0.50225824,-0.6195787,,0.1537784,-0.034251213,0.04608959,-0.62493604,-0.17831956,0.7600376,0.22281593,0.89232576,0.39256585,-0.7482033,0.4146769,-0.517914,,0.08743259,1.3322511,0.46482414,0.9960441,0.0028941473,-0.08881296,-0.053858902,-0.775297,-0.6292963,-0.0706777,0.63159025,-0.7720741,,-0.048802268,0.24906947,-0.12537041,0.6062149,0.0797097,0.79129636,0.07410164,0.9849753,-0.1559891,-0.7918412,0.15319927,0.59120005,,0.044927903,0.4315916,-0.37382057,0.69234335,-0.018720109,-0.72132534,-0.32418722,0.8850196,-0.33413014,0.644642,0.46517724,0.6066686,,0.8265332085967524,-0.35657402226869406,0.16341420627000003,0.6385058779103767,-0.24266642358342222,0.5033566850905471,0.8722573131570512,,-0.6686110440517353,-0.5506617448637044,0.14974482822000001,2.1377889738247258,0.35785099288568856,0.6492989541186304,0.8755241944797366,,-0.06956664232292899,-0.09922196797587764,0.1150502548,-0.034016912529394594,,-2.8576702e-05,-4.172325e-07,8.34465e-07,1.0,1.3675541e-05,1.1190772e-05,-1.3675541e-05,1.0,1.2516975e-06,-1.1187047e-05,-1.2814999e-06,1.0,86,0.261,0,0,0.0,False,1.04642302066851,1.0502874705711984
0.27956741100024374,11:40:37.024905,NaN,0,,0.006925108,0.011690363,0.07084827,-0.63552195,-0.16670811,-0.7538701,-0.48192632,0.84849566,0.21863665,0.6032072,0.50225824,-0.6195787,,0.1537784,-0.034251213,0.04608959,-0.62493604,-0.17831956,0.7600376,0.22281593,0.89232576,0.39256585,-0.7482033,0.4146769,-0.517914,,0.08743259,1.3322511,0.46482414,0.9960441,0.0028941473,-0.08881296,-0.053858902,-0.775297,-0.6292963,-0.0706777,0.63159025,-0.7720741,,-0.048802268,0.24906947,-0.12537041,0.6062149,0.0797097,0.79129636,0.07410164,0.9849753,-0.1559891,-0.7918412,0.15319927,0.59120005,,0.044927903,0.4315916,-0.37382057,0.69234335,-0.018720109,-0.72132534,-0.32418722,0.8850196,-0.33413014,0.644642,0.46517724,0.6066686,,0.8265332085967524,-0.35657402226869406,0.16341420627000003,0.6385058779103767,-0.24266642358342222,0.5033566850905471,0.8722573131570512,,-0.6686110440517353,-0.5506617448637044,0.14974482822000001,2.1377889738247258,0.35785099288568856,0.6492989541186304,0.8755241944797366,,-0.06956664232292899,-0.09922196797587764,0.1150502548,-0.034016912529394594,,-2.8576702e-05,-4.172325e-07,8.34465e-07,1.0,1.3675541e-05,1.1190772e-05,-1.3675541e-05,1.0,1.2516975e-06,-1.1187047e-05,-1.2814999e-06,1.0,98,0.296,0,0,0.0,False,1.0466017538240733,1.0506737121774343
0.3102411159998155,11:40:37.054730,NaN,0,,0.006925108,0.011690363,0.07084827,-0.63552195,-0.16670811,-0.7538701,-0.48192632,0.84849566,0.21863665,0.6032072,0.50225824,-0.6195787,,0.1537784,-0.034251213,0.04608959,-0.62493604,-0.17831956,0.7600376,0.22281593,0.89232576,0.39256585,-0.7482033,0.4146769,-0.517914,,0.08743259,1.3322511,0.46482414,0.9960441,0.0028941473,-0.08881296,-0.053858902,-0.775297,-0.6292963,-0.0706777,0.63159025,-0.7720741,,-0.048802268,0.24906947,-0.12537041,0.6062149,0.0797097,0.79129636,0.07410164,0.9849753,-0.1559891,-0.7918412,0.15319927,0.59120005,,0.044927903,0.4315916,-0.37382057,0.69234335,-0.018720109,-0.72132534,-0.32418722,0.8850196,-0.33413014,0.644642,0.46517724,0.6066686,,0.8265332085967524,-0.35657402226869406,0.16341420627000003,0.6385058779103767,-0.24266642358342222,0.5033566850905471,0.8722573131570512,,-0.6686110440517353,-0.5506617448637044,0.14974482822000001,2.1377889738247258,0.35785099288568856,0.6492989541186304,0.8755241944797366,,-0.06956664232292899,-0.09922196797587764,0.1150502548,-0.034016912529394594,,-2.8576702e-05,-4.172325e-07,8.34465e-07,1.0,1.3675541e-05,1.1190772e-05,-1.3675541e-05,1.0,1.2516975e-06,-1.1187047e-05,-1.2814999e-06,1.0,113,0.342,0,0,0.0,False,1.0469592201351996,1.0511565141852286
0.34004951099996106,11:40:37.088440,NaN,0,,0.006924143,0.011690766,0.07084869,-0.6355174,-0.16670527,-0.75387466,-0.4819288,0.8484938,0.2186381,0.60321,0.50226223,-0.61957276,,0.1537784,-0.034251213,0.04608959,-0.62493604,-0.17831956,0.7600376,0.22281593,0.89232576,0.39256585,-0.7482033,0.4146769,-0.517914,,0.08743259,1.3322511,0.46482414,0.9960441,0.0028941473,-0.08881296,-0.053858902,-0.775297,-0.6292963,-0.0706777,0.63159025,-0.7720741,,-0.048801363,0.24907014,-0.12537049,0.60621023,0.079706624,0.79130024,0.07410112,0.9849762,-0.15598376,-0.7918448,0.15319517,0.5911963,,0.044927903,0.4315916,-0.37382057,0.69234335,-0.018720109,-0.72132534,-0.32418722,0.8850196,-0.33413014,0.644642,0.46517724,0.6066686,,0.8265409313296266,-0.35657402226869406,0.16341420627000003,0.6385058779103767,-0.24266642358342222,0.5033566850905471,0.8722573131570512,,-0.6686110440517353,-0.5506617448637044,0.14974482822000001,2.1377889738247258,0.35785099288568856,0.6492989541186304,0.8755241944797366,,-0.06956664232292899,-0.09922196797587764,0.1150502548,-0.034016912529394594,,-2.8576702e-05,-4.172325e-07,8.34465e-07,1.0,1.3675541e-05,1.1190772e-05,-1.3675541e-05,1.0,1.2516975e-06,-1.1187047e-05,-1.2814999e-06,1.0,117,0.355,0,0,0.0,False,1.0464825983870312,1.0508668329805522
0.37378334300046845,11:40:37.110557,NaN,0,,0.006925108,0.011690363,0.07084827,-0.63552195,-0.16670811,-0.7538701,-0.48192632,0.84849566,0.21863665,0.6032072,0.50225824,-0.6195787,,0.1537784,-0.034251213,0.04608959,-0.62493604,-0.17831956,0.7600376,0.22281593,0.89232576,0.39256585,-0.7482033,0.4146769,-0.517914,,0.08743259,1.3322511,0.46482414,0.9960441,0.0028941473,-0.08881296,-0.053858902,-0.775297,-0.6292963,-0.0706777,0.63159025,-0.7720741,,-0.048802268,0.24906947,-0.12537041,0.6062149,0.0797097,0.79129636,0.07410164,0.9849753,-0.1559891,-0.7918412,0.15319927,0.59120005,,0.044927903,0.4315916,-0.37382057,0.69234335,-0.018720109,-0.72132534,-0.32418722,0.8850196,-0.33413014,0.644642,0.46517724,0.6066686,,0.8265332085967524,-0.35657402226869406,0.16341420627000003,0.6385058779103767,-0.24266642358342222,0.5033566850905471,0.8722573131570512,,-0.6686110440517353,-0.5506617448637044,0.14974482822000001,2.1377889738247258,0.35785099288568856,0.6492989541186304,0.8755241944797366,,-0.06956664232292899,-0.09922196797587764,0.1150502548,-0.034016912529394594,,-2.8576702e-05,-4.172325e-07,8.34465e-07,1.0,1.3675541e-05,1.1190772e-05,-1.3675541e-05,1.0,1.2516975e-06,-1.1187047e-05,-1.2814999e-06,1.0,125,0.379,0,0,0.0,False,1.0468400646981575,1.0508185527797727
0.39586614000108966,11:40:37.137540,NaN,0,,0.006925108,0.011690363,0.07084827,-0.63552195,-0.16670811,-0.7538701,-0.48192632,0.84849566,0.21863665,0.6032072,0.50225824,-0.6195787,,0.1537784,-0.034251213,0.04608959,-0.62493604,-0.17831956,0.7600376,0.22281593,0.89232576,0.39256585,-0.7482033,0.4146769,-0.517914,,0.08743259,1.3322511,0.46482414,0.9960441,0.0028941473,-0.08881296,-0.053858902,-0.775297,-0.6292963,-0.0706777,0.63159025,-0.7720741,,-0.048802268,0.24906947,-0.12537041,0.6062149,0.0797097,0.79129636,0.07410164,0.9849753,-0.1559891,-0.7918412,0.15319927,0.59120005,,0.044927903,0.4315916,-0.37382057,0.69234335,-0.018720109,-0.72132534,-0.32418722,0.8850196,-0.33413014,0.644642,0.46517724,0.6066686,,0.8265332085967524,-0.35657402226869406,0.16341420627000003,0.6385058779103767,-0.24266642358342222,0.5033566850905471,0.8722573131570512,,-0.6686110440517353,-0.5506617448637044,0.14974482822000001,2.1377889738247258,0.35785099288568856,0.6492989541186304,0.8755241944797366,,-0.06956664232292899,-0.09922196797587764,0.1150502548,-0.034016912529394594,,-2.8576702e-05,-4.172325e-07,8.34465e-07,1.0,1.3675541e-05,1.1190772e-05,-1.3675541e-05,1.0,1.2516975e-06,-1.1187047e-05,-1.2814999e-06,1.0,133,0.404,0,0,0.0,False,1.04642302066851,1.0508668329805522
0.4228726790006476,11:40:37.157480,NaN,0,,0.006925108,0.011690363,0.07084827,-0.63552195,-0.16670811,-0.7538701,-0.48192632,0.84849566,0.21863665,0.6032072,0.50225824,-0.6195787,,0.1537776,-0.034251437,0.046089232,-0.6249416,-0.17831852,0.7600333,0.22281238,0.89232665,0.39256582,-0.74819964,0.4146754,-0.5179204,,0.08743259,1.3322511,0.46482414,0.9960441,0.0028941473,-0.08881296,-0.053858902,-0.775297,-0.6292963,-0.0706777,0.63159025,-0.7720741,,-0.048802268,0.24906947,-0.12537041,0.6062149,0.0797097,0.79129636,0.07410164,0.9849753,-0.1559891,-0.7918412,0.15319927,0.59120005,,0.04492879,0.43159133,-0.3738205,0.6923487,-0.018721031,-0.72132015,-0.3241853,0.88501877,-0.33413425,0.64463717,0.46517882,0.6066725,,0.8265332085967524,-0.35657402226869406,0.16341420627000003,0.6385058779103767,-0.24266642358342222,0.5033566850905471,0.8722573131570512,,-0.6686033213188611,-0.5506617448637044,0.14974482822000001,2.1377889738247258,0.35785099288568856,0.6492989541186304,0.8755241944797366,,-0.06956664232292899,-0.09922196797587764,0.1150502548,-0.034016912529394594,,-2.8576702e-05,-4.172325e-07,8.34465e-07,1.0,1.3675541e-05,1.1190772e-05,-1.3675541e-05,1.0,1.2516975e-06,-1.1187047e-05,-1.2814999e-06,1.0,141,0.427,0,0,0.0,False,1.0467804869796362,1.0505771517758753
0.4428197880006337,11:40:37.179285,NaN,0,,0.006925108,0.011690363,0.07084827,-0.63552195,-0.16670811,-0.7538701,-0.48192632,0.84849566,0.21863665,0.6032072,0.50225824,-0.6195787,,0.15377781,-0.034250796,0.046089172,-0.62500393,-0.17847212,0.7599459,0.22262624,0.8923327,0.39265785,-0.74820304,0.4145965,-0.5179787,,0.08743259,1.3322511,0.46482414,0.9960441,0.0028941473,-0.08881296,-0.053858902,-0.775297,-0.6292963,-0.0706777,0.63159025,-0.7720741,,-0.048802268,0.24906947,-0.12537041,0.6062149,0.0797097,0.79129636,0.07410164,0.9849753,-0.1559891,-0.7918412,0.15319927,0.59120005,,0.044928487,0.43159166,-0.37382,0.6924373,-0.018559737,-0.72123927,-0.32428408,0.8849926,-0.33410773,0.6444924,0.46523508,0.6067833,,0.8265332085967524,-0.35657402226869406,0.16341420627000003,0.6385058779103767,-0.24266642358342222,0.5033566850905471,0.8722573131570512,,-0.6686033213188611,-0.5506617448637044,0.14974482822000001,2.1375792838812413,0.35785099288568856,0.6492989541186304,0.8755241944797366,,-0.06956664232292899,-0.09922196797587764,0.1150502548,-0.034016912529394594,,-2.8576702e-05,-4.172325e-07,8.34465e-07,1.0,1.3675541e-05,1.1190772e-05,-1.3675541e-05,1.0,1.2516975e-06,-1.1187047e-05,-1.2814999e-06,1.0,156,0.474,0,0,0.0,False,1.0467804869796362,1.0509151131813312
0.46462972200060904,11:40:37.221272,NaN,0,,0.006900952,0.011692174,0.07086605,-0.6354542,-0.16668528,-0.7539322,-0.48195004,0.8484857,0.21862319,0.60325956,0.5022828,-0.6195079,,0.15384568,-0.034195803,0.046085894,-0.6250971,-0.17868365,0.7598196,0.22239202,0.89232635,0.39280477,-0.7481948,0.41451886,-0.51805276,,0.08751356,1.3322477,0.46482095,0.99604005,0.002835472,-0.08886059,-0.053934284,-0.77529716,-0.62928957,-0.0706777,0.63159025,-0.7720741,,-0.04885232,0.24908577,-0.12538002,0.60611075,0.07975031,0.791372,0.07407085,0.98497725,-0.1559916,-0.79192376,0.15316579,0.5910981,,0.044780917,0.43160167,-0.37377766,0.69257313,-0.018266255,-0.72111636,-0.3244325,0.88497597,-0.33400768,0.64427173,0.46527833,0.6069844,,0.8265409313296266,-0.35657402226869406,0.16341420627000003,0.6385058779103767,-0.24266642358342222,0.5033566850905471,0.8722573131570512,,-0.6686110440517353,-0.5506617448637044,0.14974482822000001,2.137369593937757,0.35785099288568856,0.6492989541186304,0.8755241944797366,,-0.06956664232292899,-0.09922196797587764,0.1150502548,-0.034016912529394594,,5.247444e-05,4.172325e-07,-1.7881393e-06,1.0,-4.4759363e-05,-3.6608428e-05,4.4751912e-05,1.0,-4.082918e-06,3.6612153e-05,4.053116e-06,1.0,164,0.498,0,0,0.0,False,1.0464825983870312,1.0507219923782136
0.5065572229996178,11:40:37.250637,NaN,0,,0.006901921,0.011691771,0.07086563,-0.63545877,-0.16668816,-0.75392777,-0.48194757,0.84848756,0.21862172,0.6032567,0.5022788,-0.61951387,,0.15384486,-0.034196027,0.046085536,-0.62510264,-0.17868263,0.7598153,0.2223885,0.89232713,0.3928047,-0.74819124,0.4145173,-0.51805913,,0.08751356,1.3322477,0.46482095,0.99604005,0.002835472,-0.08886059,-0.053934284,-0.77529716,-0.62928957,-0.0706777,0.63159025,-0.7720741,,-0.048853226,0.2490851,-0.12537995,0.6061154,0.07975339,0.7913681,0.07407137,0.98497635,-0.15599693,-0.7919202,0.15316987,0.5911019,,0.044781804,0.4316014,-0.3737776,0.6925785,-0.018267175,-0.7211112,-0.32443056,0.8849751,-0.3340118,0.6442669,0.46527988,0.6069883,,0.8265332085967524,-0.35657402226869406,0.16341420627000003,0.6385058779103767,-0.24266642358342222,0.5033566850905471,0.8722573131570512,,-0.6686033213188611,-0.5506617448637044,0.14974482822000001,2.137369593937757,0.35785099288568856,0.6492989541186304,0.8755241944797366,,-0.06956664232292899,-0.09922196797587764,0.1150502548,-0.034016912529394594,,5.247444e-05,4.172325e-07,-1.7881393e-06,1.0,-4.4759363e-05,-3.6608428e-05,4.4751912e-05,1.0,-4.082918e-06,3.6612153e-05,4.053116e-06,1.0,172,0.523,0,0,0.0,False,1.0463634429499895,1.050963393382111
0.5359785010004998,11:40:37.272843,NaN,0,,0.006901921,0.011691771,0.07086563,-0.63545877,-0.16668816,-0.75392777,-0.48194757,0.84848756,0.21862172,0.6032567,0.5022788,-0.61951387,,0.15384568,-0.034195803,0.046085894,-0.6250971,-0.17868365,0.7598196,0.22239202,0.89232635,0.39280477,-0.7481948,0.41451886,-0.51805276,,0.08751356,1.3322477,0.46482095,0.99604005,0.002835472,-0.08886059,-0.053934284,-0.77529716,-0.62928957,-0.0706777,0.63159025,-0.7720741,,-0.048853226,0.2490851,-0.12537995,0.6061154,0.07975339,0.7913681,0.07407137,0.98497635,-0.15599693,-0.7919202,0.15316987,0.5911019,,0.044780917,0.43160167,-0.37377766,0.69257313,-0.018266255,-0.72111636,-0.3244325,0.88497597,-0.33400768,0.64427173,0.46527833,0.6069844,,0.8265332085967524,-0.35657402226869406,0.16341420627000003,0.6385058779103767,-0.24266642358342222,0.5033566850905471,0.8722573131570512,,-0.6686110440517353,-0.5506617448637044,0.14974482822000001,2.137369593937757,0.35785099288568856,0.6492989541186304,0.8755241944797366,,-0.06956664232292899,-0.09922196797587764,0.1150502548,-0.034016912529394594,,5.247444e-05,4.172325e-07,-1.7881393e-06,1.0,-4.4759363e-05,-3.6608428e-05,4.4751912e-05,1.0,-4.082918e-06,3.6612153e-05,4.053116e-06,1.0,180,0.546,0,0,0.0,False,1.046244287512947,1.0512047943860081
0.5581628090003505,11:40:37.297825,NaN,0,,0.006901921,0.011691771,0.07086563,-0.63545877,-0.16668816,-0.75392777,-0.48194757,0.84848756,0.21862172,0.6032567,0.5022788,-0.61951387,,0.15384568,-0.034195803,0.046085894,-0.6250971,-0.17868365,0.7598196,0.22239202,0.89232635,0.39280477,-0.7481948,0.41451886,-0.51805276,,0.08751356,1.3322477,0.46482095,0.99604005,0.002835472,-0.08886059,-0.053934284,-0.77529716,-0.62928957,-0.0706777,0.63159025,-0.7720741,,-0.048853226,0.2490851,-0.12537995,0.6061154,0.07975339,0.7913681,0.07407137,0.98497635,-0.15599693,-0.7919202,0.15316987,0.5911019,,0.044780917,0.43160167,-0.37377766,0.69257313,-0.018266255,-0.72111636,-0.3244325,0.88497597,-0.33400768,0.64427173,0.46527833,0.6069844,,0.8265332085967524,-0.35657402226869406,0.16341420627000003,0.6385058779103767,-0.24266642358342222,0.5033566850905471,0.8722573131570512,,-0.6686110440517353,-0.5506617448637044,0.14974482822000001,2.137369593937757,0.35785099288568856,0.6492989541186304,0.8755241944797366,,-0.06956664232292899,-0.09922196797587764,0.1150502548,-0.034016912529394594,,5.247444e-05,4.172325e-07,-1.7881393e-06,1.0,-4.4759363e-05,-3.6608428e-05,4.4751912e-05,1.0,-4.082918e-06,3.6612153e-05,4.053116e-06,1.0,188,0.571,0,0,0.0,False,1.0471975310092834,1.0505288715750958
0.5831332420002582,11:40:37.322858,NaN,0,,0.006901921,0.011691771,0.07086563,-0.63545877,-0.16668816,-0.75392777,-0.48194757,0.84848756,0.21862172,0.6032567,0.5022788,-0.61951387,,0.15384568,-0.034195803,0.046085894,-0.6250971,-0.17868365,0.7598196,0.22239202,0.89232635,0.39280477,-0.7481948,0.41451886,-0.51805276,,0.08751356,1.3322477,0.46482095,0.99604005,0.002835472,-0.08886059,-0.053934284,-0.77529716,-0.62928957,-0.0706777,0.63159025,-0.7720741,,-0.048853226,0.2490851,-0.12537995,0.6061154,0.07975339,0.7913681,0.07407137,0.98497635,-0.15599693,-0.7919202,0.15316987,0.5911019,,0.044780917,0.43160167,-0.37377766,0.69257313,-0.018266255,-0.72111636,-0.3244325,0.88497597,-0.33400768,0.64427173,0.46527833,0.6069844,,0.8265332085967524,-0.35657402226869406,0.16341420627000003,0.6385058779103767,-0.24266642358342222,0.5033566850905471,0.8722573131570512,,-0.6686110440517353,-0.5506617448637044,0.14974482822000001,2.137369593937757,0.35785099288568856,0.6492989541186304,0.8755241944797366,,-0.06956664232292899,-0.09922196797587764,0.1150502548,-0.034016912529394594,,5.247444e-05,4.172325e-07,-1.7881393e-06,1.0,-4.4759363e-05,-3.6608428e-05,4.4751912e-05,1.0,-4.082918e-06,3.6612153e-05,4.053116e-06,1.0,203,0.617,0,0,0.0,False,1.0470783755722417,1.0508668329805522
0.6081981690003886,11:40:37.361142,NaN,0,,0.006901686,0.011692151,0.07086572,-0.6355625,-0.16653685,-0.7538737,-0.48177484,0.84856236,0.2187118,0.60328543,0.5022025,-0.6195478,,0.15384568,-0.034195803,0.046085894,-0.6250971,-0.17868365,0.7598196,0.22239202,0.89232635,0.39280477,-0.7481948,0.41451886,-0.51805276,,0.08751356,1.3322477,0.46482095,0.99604005,0.002835472,-0.08886059,-0.053934284,-0.77529716,-0.62928957,-0.0706777,0.63159025,-0.7720741,,-0.04885302,0.24908547,-0.12537977,0.6062073,0.07960544,0.79131263,0.07423168,0.984971,-0.15595458,-0.79183483,0.15328127,0.59118736,,0.044780917,0.43160167,-0.37377766,0.69257313,-0.018266255,-0.72111636,-0.3244325,0.88497597,-0.33400768,0.64427173,0.46527833,0.6069844,,0.8265332085967524,-0.35657402226869406,0.16341420627000003,0.6387155678538612,-0.24266642358342222,0.5033566850905471,0.8722573131570512,,-0.6686110440517353,-0.5506617448637044,0.14974482822000001,2.137369593937757,0.35785099288568856,0.6492989541186304,0.8755241944797366,,-0.06956664232292899,-0.09922196797587764,0.1150502548,-0.034016912529394594,,5.247444e-05,4.172325e-07,-1.7881393e-06,1.0,-4.4759363e-05,-3.6608428e-05,4.4751912e-05,1.0,-4.082918e-06,3.6612153e-05,4.053116e-06,1.0,207,0.629,0,0,0.0,False,1.0466017538240733,1.05105995378367
0.6464848830000847,11:40:37.383159,NaN,0,,0.0069014532,0.011692546,0.07086578,-0.6356662,-0.16638552,-0.7538197,-0.481602,0.8486372,0.21880184,0.60331416,0.5021261,-0.6195817,,0.15384568,-0.034195803,0.046085894,-0.6250971,-0.17868365,0.7598196,0.22239202,0.89232635,0.39280477,-0.7481948,0.41451886,-0.51805276,,0.08751356,1.3322477,0.46482095,0.99604005,0.002835472,-0.08886059,-0.053934284,-0.77529716,-0.62928957,-0.0706777,0.63159025,-0.7720741,,-0.048852812,0.24908583,-0.12537958,0.60629916,0.07945747,0.7912571,0.07439199,0.98496556,-0.15591225,-0.7917494,0.15339266,0.59127283,,0.044780917,0.43160167,-0.37377766,0.69257313,-0.018266255,-0.72111636,-0.3244325,0.88497597,-0.33400768,0.64427173,0.46527833,0.6069844,,0.8265332085967524,-0.35657402226869406,0.16341420627000003,0.6389252577973457,-0.24266642358342222,0.5033566850905471,0.8722573131570512,,-0.6686110440517353,-0.5506617448637044,0.14974482822000001,2.137369593937757,0.35785099288568856,0.6492989541186304,0.8755241944797366,,-0.06956664232292899,-0.09922196797587764,0.1150502548,-0.034016912529394594,,5.247444e-05,4.172325e-07,-1.7881393e-06,1.0,-4.4759363e-05,-3.6608428e-05,4.4751912e-05,1.0,-4.082918e-06,3.6612153e-05,4.053116e-06,1.0,215,0.654,0,0,0.0,False,1.0467209092611154,1.0510116735828905
0.6685016789997462,11:40:37.408724,NaN,0,,0.0069014532,0.011692546,0.07086578,-0.6356662,-0.16638552,-0.7538197,-0.481602,0.8486372,0.21880184,0.60331416,0.5021261,-0.6195817,,0.15384568,-0.034195803,0.046085894,-0.6250971,-0.17868365,0.7598196,0.22239202,0.89232635,0.39280477,-0.7481948,0.41451886,-0.51805276,,0.08751356,1.3322477,0.46482095,0.99604005,0.002835472,-0.08886059,-0.053934284,-0.77529716,-0.62928957,-0.0706777,0.63159025,-0.7720741,,-0.048852812,0.24908583,-0.12537958,0.60629916,0.07945747,0.7912571,0.07439199,0.98496556,-0.15591225,-0.7917494,0.15339266,0.59127283,,0.044780917,0.43160167,-0.37377766,0.69257313,-0.018266255,-0.72111636,-0.3244325,0.88497597,-0.33400768,0.64427173,0.46527833,0.6069844,,0.8265332085967524,-0.35657402226869406,0.16341420627000003,0.6389252577973457,-0.24266642358342222,0.5033566850905471,0.8722573131570512,,-0.6686110440517353,-0.5506617448637044,0.14974482822000001,2.137369593937757,0.35785099288568856,0.6492989541186304,0.8755241944797366,,-0.06956664232292899,-0.09922196797587764,0.1150502548,-0.034016912529394594,,5.247444e-05,4.172325e-07,-1.7881393e-06,1.0,-4.4759363e-05,-3.6608428e-05,4.4751912e-05,1.0,-4.082918e-06,3.6612153e-05,4.053116e-06,1.0,223,0.678,0,0,0.0,False,1.0470783755722417,1.050963393382111
0.6940638579999359,11:40:37.429442,NaN,0,,0.0069014532,0.011692546,0.07086578,-0.6356662,-0.16638552,-0.7538197,-0.481602,0.8486372,0.21880184,0.60331416,0.5021261,-0.6195817,,0.15384568,-0.034195803,0.046085894,-0.6250971,-0.17868365,0.7598196,0.22239202,0.89232635,0.39280477,-0.7481948,0.41451886,-0.51805276,,0.08751356,1.3322477,0.46482095,0.99604005,0.002835472,-0.08886059,-0.053934284,-0.77529716,-0.62928957,-0.0706777,0.63159025,-0.7720741,,-0.048852812,0.24908583,-0.12537958,0.60629916,0.07945747,0.7912571,0.07439199,0.98496556,-0.15591225,-0.7917494,0.15339266,0.59127283,,0.044780917,0.43160167,-0.37377766,0.69257313,-0.018266255,-0.72111636,-0.3244325,0.88497597,-0.33400768,0.64427173,0.46527833,0.6069844,,0.8265332085967524,-0.35657402226869406,0.16341420627000003,0.6389252577973457,-0.24266642358342222,0.5033566850905471,0.8722573131570512,,-0.6686110440517353,-0.5506617448637044,0.14974482822000001,2.137369593937757,0.35785099288568856,0.6492989541186304,0.8755241944797366,,-0.06956664232292899,-0.09922196797587764,0.1150502548,-0.034016912529394594,,5.247444e-05,4.172325e-07,-1.7881393e-06,1.0,-4.4759363e-05,-3.6608428e-05,4.4751912e-05,1.0,-4.082918e-06,3.6612153e-05,4.053116e-06,1.0,231,0.702,0,0,0.0,False,1.0463634429499895,1.0508668329805522
0.7147866300001624,11:40:37.458520,11:40:19.429404,0,,0.0069014532,0.011692546,0.07086578,-0.6356662,-0.16638552,-0.7538197,-0.481602,0.8486372,0.21880184,0.60331416,0.5021261,-0.6195817,,0.15384568,-0.034195803,0.046085894,-0.6250971,-0.17868365,0.7598196,0.22239202,0.89232635,0.39280477,-0.7481948,0.41451886,-0.51805276,,0.08751356,1.3322477,0.46482095,0.99604005,0.002835472,-0.08886059,-0.053934284,-0.77529716,-0.62928957,-0.0706777,0.63159025,-0.7720741,,-0.048852812,0.24908583,-0.12537958,0.60629916,0.07945747,0.7912571,0.07439199,0.98496556,-0.15591225,-0.7917494,0.15339266,0.59127283,,0.044780917,0.43160167,-0.37377766,0.69257313,-0.018266255,-0.72111636,-0.3244325,0.88497597,-0.33400768,0.64427173,0.46527833,0.6069844,,0.8265332085967524,-0.35657402226869406,0.16341420627000003,0.6389252577973457,-0.24266642358342222,0.5033566850905471,0.8722573131570512,,-0.6686110440517353,-0.5506617448637044,0.14974482822000001,2.137369593937757,0.35785099288568856,0.6492989541186304,0.8755241944797366,,-0.06956664232292899,-0.09922196797587764,0.1150502548,-0.034016912529394594,,5.247444e-05,4.172325e-07,-1.7881393e-06,1.0,-4.4759363e-05,-3.6608428e-05,4.4751912e-05,1.0,-4.082918e-06,3.6612153e-05,4.053116e-06,1.0,239,0.726,0,0,0.0,False,1.0469592201351996,1.0505288715750958
0.7438532560008753,11:40:37.478553,11:40:19.429404,0,,0.0069014532,0.011692546,0.07086578,-0.6356662,-0.16638552,-0.7538197,-0.481602,0.8486372,0.21880184,0.60331416,0.5021261,-0.6195817,,0.15384568,-0.034195803,0.046085894,-0.6250971,-0.17868365,0.7598196,0.22239202,0.89232635,0.39280477,-0.7481948,0.41451886,-0.51805276,,0.08751356,1.3322477,0.46482095,0.99604005,0.002835472,-0.08886059,-0.053934284,-0.77529716,-0.62928957,-0.0706777,0.63159025,-0.7720741,,-0.048852812,0.24908583,-0.12537958,0.60629916,0.07945747,0.7912571,0.07439199,0.98496556,-0.15591225,-0.7917494,0.15339266,0.59127283,,0.044780917,0.43160167,-0.37377766,0.69257313,-0.018266255,-0.72111636,-0.3244325,0.88497597,-0.33400768,0.64427173,0.46527833,0.6069844,,0.8265332085967524,-0.35657402226869406,0.16341420627000003,0.6389252577973457,-0.24266642358342222,0.5033566850905471,0.8722573131570512,,-0.6686110440517353,-0.5506617448637044,0.14974482822000001,2.137369593937757,0.35785099288568856,0.6492989541186304,0.8755241944797366,,-0.06956664232292899,-0.09922196797587764,0.1150502548,-0.034016912529394594,,5.247444e-05,4.172325e-07,-1.7881393e-06,1.0,-4.4759363e-05,-3.6608428e-05,4.4751912e-05,1.0,-4.082918e-06,3.6612153e-05,4.053116e-06,1.0,250,0.76,0,0,0.0,False,1.0466017538240733,1.050335750771978
0.7638931350011262,11:40:37.510266,11:40:19.429404,0,,0.0069014532,0.011692546,0.07086578,-0.6356662,-0.16638552,-0.7538197,-0.481602,0.8486372,0.21880184,0.60331416,0.5021261,-0.6195817,,0.15384568,-0.034195803,0.046085894,-0.6250971,-0.17868365,0.7598196,0.22239202,0.89232635,0.39280477,-0.7481948,0.41451886,-0.51805276,,0.08751356,1.3322477,0.46482095,0.99604005,0.002835472,-0.08886059,-0.053934284,-0.77529716,-0.62928957,-0.0706777,0.63159025,-0.7720741,,-0.048852812,0.24908583,-0.12537958,0.60629916,0.07945747,0.7912571,0.07439199,0.98496556,-0.15591225,-0.7917494,0.15339266,0.59127283,,0.044780917,0.43160167,-0.37377766,0.69257313,-0.018266255,-0.72111636,-0.3244325,0.88497597,-0.33400768,0.64427173,0.46527833,0.6069844,,0.8265332085967524,-0.35657402226869406,0.16341420627000003,0.6389252577973457,-0.24266642358342222,0.5033566850905471,0.8722573131570512,,-0.6686110440517353,-0.5506617448637044,0.14974482822000001,2.137369593937757,0.35785099288568856,0.6492989541186304,0.8755241944797366,,-0.06956664232292899,-0.09922196797587764,0.1150502548,-0.034016912529394594,,5.247444e-05,4.172325e-07,-1.7881393e-06,1.0,-4.4759363e-05,-3.6608428e-05,4.4751912e-05,1.0,-4.082918e-06,3.6612153e-05,4.053116e-06,1.0,258,0.785,0,0,0.0,False,1.0469592201351996,1.0505771517758753
0.7956071330008854,11:40:37.539387,11:40:19.429404,0,,0.0069004865,0.011692964,0.0708662,-0.63566166,-0.16638267,-0.7538241,-0.4816045,0.8486355,0.21880332,0.60331696,0.5021301,-0.61957574,,0.15384568,-0.034195803,0.046085894,-0.6250971,-0.17868365,0.7598196,0.22239202,0.89232635,0.39280477,-0.7481948,0.41451886,-0.51805276,,0.08751356,1.3322477,0.46482095,0.99604005,0.002835472,-0.08886059,-0.053934284,-0.77529716,-0.62928957,-0.0706777,0.63159025,-0.7720741,,-0.048851907,0.2490865,-0.12537965,0.6062946,0.07945439,0.79126096,0.07439147,0.98496646,-0.15590692,-0.791753,0.15338857,0.5912691,,0.044780917,0.43160167,-0.37377766,0.69257313,-0.018266255,-0.72111636,-0.3244325,0.88497597,-0.33400768,0.64427173,0.46527833,0.6069844,,0.8265409313296266,-0.35657402226869406,0.16341420627000003,0.6389252577973457,-0.24266642358342222,0.5033566850905471,0.8722573131570512,,-0.6686110440517353,-0.5506617448637044,0.14974482822000001,2.137369593937757,0.35785099288568856,0.6492989541186304,0.8755241944797366,,-0.06956664232292899,-0.09922196797587764,0.1150502548,-0.034016912529394594,,5.247444e-05,4.172325e-07,-1.7881393e-06,1.0,-4.4759363e-05,-3.6608428e-05,4.4751912e-05,1.0,-4.082918e-06,3.6612153e-05,4.053116e-06,1.0,266,0.809,0,0,0.0,False,1.0466613315425946,1.0504805913743163
0.8247179170011805,11:40:37.560541,11:40:19.429404,0,,0.0069004865,0.011692964,0.0708662,-0.63566166,-0.16638267,-0.7538241,-0.4816045,0.8486355,0.21880332,0.60331696,0.5021301,-0.61957574,,0.15384568,-0.034195803,0.046085894,-0.6250971,-0.17868365,0.7598196,0.22239202,0.89232635,0.39280477,-0.7481948,0.41451886,-0.51805276,,0.08751356,1.3322477,0.46482095,0.99604005,0.002835472,-0.08886059,-0.053934284,-0.77529716,-0.62928957,-0.0706777,0.63159025,-0.7720741,,-0.048851907,0.2490865,-0.12537965,0.6062946,0.07945439,0.79126096,0.07439147,0.98496646,-0.15590692,-0.791753,0.15338857,0.5912691,,0.044780917,0.43160167,-0.37377766,0.69257313,-0.018266255,-0.72111636,-0.3244325,0.88497597,-0.33400768,0.64427173,0.46527833,0.6069844,,0.8265409313296266,-0.35657402226869406,0.16341420627000003,0.6389252577973457,-0.24266642358342222,0.5033566850905471,0.8722573131570512,,-0.6686110440517353,-0.5506617448637044,0.14974482822000001,2.137369593937757,0.35785099288568856,0.6492989541186304,0.8755241944797366,,-0.06956664232292899,-0.09922196797587764,0.1150502548,-0.034016912529394594,,5.247444e-05,4.172325e-07,-1.7881393e-06,1.0,-4.4759363e-05,-3.6608428e-05,4.4751912e-05,1.0,-4.082918e-06,3.6612153e-05,4.053116e-06,1.0,274,0.833,0,0,0.0,False,1.0467209092611154,1.0505771517758753
0.8458841110004869,11:40:37.591714,11:40:19.429404,0,,0.0069014532,0.011692546,0.07086578,-0.6356662,-0.16638552,-0.7538197,-0.481602,0.8486372,0.21880184,0.60331416,0.5021261,-0.6195817,,0.15384568,-0.034195803,0.046085894,-0.6250971,-0.17868365,0.7598196,0.22239202,0.89232635,0.39280477,-0.7481948,0.41451886,-0.51805276,,0.08751356,1.3322477,0.46482095,0.99604005,0.002835472,-0.08886059,-0.053934284,-0.77529716,-0.62928957,-0.0706777,0.63159025,-0.7720741,,-0.048852812,0.24908583,-0.12537958,0.60629916,0.07945747,0.7912571,0.07439199,0.98496556,-0.15591225,-0.7917494,0.15339266,0.59127283,,0.044780917,0.43160167,-0.37377766,0.69257313,-0.018266255,-0.72111636,-0.3244325,0.88497597,-0.33400768,0.64427173,0.46527833,0.6069844,,0.8265332085967524,-0.35657402226869406,0.16341420627000003,0.6389252577973457,-0.24266642358342222,0.5033566850905471,0.8722573131570512,,-0.6686110440517353,-0.5506617448637044,0.14974482822000001,2.137369593937757,0.35785099288568856,0.6492989541186304,0.8755241944797366,,-0.06956664232292899,-0.09922196797587764,0.1150502548,-0.034016912529394594,,5.247444e-05,4.172325e-07,-1.7881393e-06,1.0,-4.4759363e-05,-3.6608428e-05,4.4751912e-05,1.0,-4.082918e-06,3.6612153e-05,4.053116e-06,1.0,282,0.858,0,0,0.0,False,1.0464825983870312,1.050432311173537
0.8770461610001803,11:40:37.611536,11:40:19.429404,0,,0.0069014532,0.011692546,0.07086578,-0.6356662,-0.16638552,-0.7538197,-0.481602,0.8486372,0.21880184,0.60331416,0.5021261,-0.6195817,,0.15384568,-0.034195803,0.046085894,-0.6250971,-0.17868365,0.7598196,0.22239202,0.89232635,0.39280477,-0.7481948,0.41451886,-0.51805276,,0.08751356,1.3322477,0.46482095,0.99604005,0.002835472,-0.08886059,-0.053934284,-0.77529716,-0.62928957,-0.0706777,0.63159025,-0.7720741,,-0.048852812,0.24908583,-0.12537958,0.60629916,0.07945747,0.7912571,0.07439199,0.98496556,-0.15591225,-0.7917494,0.15339266,0.59127283,,0.044780917,0.43160167,-0.37377766,0.69257313,-0.018266255,-0.72111636,-0.3244325,0.88497597,-0.33400768,0.64427173,0.46527833,0.6069844,,0.8265332085967524,-0.35657402226869406,0.16341420627000003,0.6389252577973457,-0.24266642358342222,0.5033566850905471,0.8722573131570512,,-0.6686110440517353,-0.5506617448637044,0.14974482822000001,2.137369593937757,0.35785099288568856,0.6492989541186304,0.8755241944797366,,-0.06956664232292899,-0.09922196797587764,0.1150502548,-0.034016912529394594,,5.247444e-05,4.172325e-07,-1.7881393e-06,1.0,-4.4759363e-05,-3.6608428e-05,4.4751912e-05,1.0,-4.082918e-06,3.6612153e-05,4.053116e-06,1.0,297,0.904,0,0,0.0,False,1.0466017538240733,1.0503840309727575
0.89687873100047,11:40:37.659505,11:40:19.626728,0,,0.0069014532,0.011692546,0.07086578,-0.6356662,-0.16638552,-0.7538197,-0.481602,0.8486372,0.21880184,0.60331416,0.5021261,-0.6195817,,0.15384486,-0.034196027,0.046085536,-0.62510264,-0.17868263,0.7598153,0.2223885,0.89232713,0.3928047,-0.74819124,0.4145173,-0.51805913,,0.08751356,1.3322477,0.46482095,0.99604005,0.002835472,-0.08886059,-0.053934284,-0.77529716,-0.62928957,-0.0706777,0.63159025,-0.7720741,,-0.048852812,0.24908583,-0.12537958,0.60629916,0.07945747,0.7912571,0.07439199,0.98496556,-0.15591225,-0.7917494,0.15339266,0.59127283,,0.044781804,0.4316014,-0.3737776,0.6925785,-0.018267175,-0.7211112,-0.32443056,0.8849751,-0.3340118,0.6442669,0.46527988,0.6069883,,0.8265332085967524,-0.35657402226869406,0.16341420627000003,0.6389252577973457,-0.24266642358342222,0.5033566850905471,0.8722573131570512,,-0.6686033213188611,-0.5506617448637044,0.14974482822000001,2.137369593937757,0.35785099288568856,0.6492989541186304,0.8755241944797366,,-0.06956664232292899,-0.09922196797587764,0.1150502548,-0.034016912529394594,,5.247444e-05,4.172325e-07,-1.7881393e-06,1.0,-4.4759363e-05,-3.6608428e-05,4.4751912e-05,1.0,-4.082918e-06,3.6612153e-05,4.053116e-06,1.0,305,0.928,0,0,0.0,False,1.046244287512947,1.0501909101696396
0.9448450210002193,11:40:37.675193,11:40:19.626728,0,,0.0069014532,0.011692546,0.07086578,-0.6356662,-0.16638552,-0.7538197,-0.481602,0.8486372,0.21880184,0.60331416,0.5021261,-0.6195817,,0.15384486,-0.034196027,0.046085536,-0.62510264,-0.17868263,0.7598153,0.2223885,0.89232713,0.3928047,-0.74819124,0.4145173,-0.51805913,,0.08751356,1.3322477,0.46482095,0.99604005,0.002835472,-0.08886059,-0.053934284,-0.77529716,-0.62928957,-0.0706777,0.63159025,-0.7720741,,-0.048852812,0.24908583,-0.12537958,0.60629916,0.07945747,0.7912571,0.07439199,0.98496556,-0.15591225,-0.7917494,0.15339266,0.59127283,,0.044781804,0.4316014,-0.3737776,0.6925785,-0.018267175,-0.7211112,-0.32443056,0.8849751,-0.3340118,0.6442669,0.46527988,0.6069883,,0.8265332085967524,-0.35657402226869406,0.16341420627000003,0.6389252577973457,-0.24266642358342222,0.5033566850905471,0.8722573131570512,,-0.6686033213188611,-0.5506617448637044,0.14974482822000001,2.137369593937757,0.35785099288568856,0.6492989541186304,0.8755241944797366,,-0.06956664232292899,-0.09922196797587764,0.1150502548,-0.034016912529394594,,5.247444e-05,4.172325e-07,-1.7881393e-06,1.0,-4.4759363e-05,-3.6608428e-05,4.4751912e-05,1.0,-4.082918e-06,3.6612153e-05,4.053116e-06,1.0,313,0.953,0,0,0.0,False,1.0466017538240733,1.0499977893665218
0.9605343759994867,11:40:37.705015,11:40:19.626728,0,,0.0069014532,0.011692546,0.07086578,-0.6356662,-0.16638552,-0.7538197,-0.481602,0.8486372,0.21880184,0.60331416,0.5021261,-0.6195817,,0.15384568,-0.034195803,0.046085894,-0.6250971,-0.17868365,0.7598196,0.22239202,0.89232635,0.39280477,-0.7481948,0.41451886,-0.51805276,,0.08751356,1.3322477,0.46482095,0.99604005,0.002835472,-0.08886059,-0.053934284,-0.77529716,-0.62928957,-0.0706777,0.63159025,-0.7720741,,-0.048852812,0.24908583,-0.12537958,0.60629916,0.07945747,0.7912571,0.07439199,0.98496556,-0.15591225,-0.7917494,0.15339266,0.59127283,,0.044780917,0.43160167,-0.37377766,0.69257313,-0.018266255,-0.72111636,-0.3244325,0.88497597,-0.33400768,0.64427173,0.46527833,0.6069844,,0.8265332085967524,-0.35657402226869406,0.16341420627000003,0.6389252577973457,-0.24266642358342222,0.5033566850905471,0.8722573131570512,,-0.6686110440517353,-0.5506617448637044,0.14974482822000001,2.137369593937757,0.35785099288568856,0.6492989541186304,0.8755241944797366,,-0.06956664232292899,-0.09922196797587764,0.1150502548,-0.034016912529394594,,5.247444e-05,4.172325e-07,-1.7881393e-06,1.0,-4.4759363e-05,-3.6608428e-05,4.4751912e-05,1.0,-4.082918e-06,3.6612153e-05,4.053116e-06,1.0,321,0.976,0,0,0.0,False,1.0464825983870312,1.0506737121774343
0.9896996639999998,11:40:37.730122,11:40:19.626728,0,,0.0069014532,0.011692546,0.07086578,-0.6356662,-0.16638552,-0.7538197,-0.481602,0.8486372,0.21880184,0.60331416,0.5021261,-0.6195817,,0.15384486,-0.034196027,0.046085536,-0.62510264,-0.17868263,0.7598153,0.2223885,0.89232713,0.3928047,-0.74819124,0.4145173,-0.51805913,,0.08751356,1.3322477,0.46482095,0.99604005,0.002835472,-0.08886059,-0.053934284,-0.77529716,-0.62928957,-0.0706777,0.63159025,-0.7720741,,-0.048852812,0.24908583,-0.12537958,0.60629916,0.07945747,0.7912571,0.07439199,0.98496556,-0.15591225,-0.7917494,0.15339266,0.59127283,,0.044781804,0.4316014,-0.3737776,0.6925785,-0.018267175,-0.7211112,-0.32443056,0.8849751,-0.3340118,0.6442669,0.46527988,0.6069883,,0.8265332085967524,-0.35657402226869406,0.16341420627000003,0.6389252577973457,-0.24266642358342222,0.5033566850905471,0.8722573131570512,,-0.6686033213188611,-0.5506617448637044,0.14974482822000001,2.137369593937757,0.35785099288568856,0.6492989541186304,0.8755241944797366,,-0.06956664232292899,-0.09922196797587764,0.1150502548,-0.034016912529394594,,5.247444e-05,4.172325e-07,-1.7881393e-06,1.0,-4.4759363e-05,-3.6608428e-05,4.4751912e-05,1.0,-4.082918e-06,3.6612153e-05,4.053116e-06,1.0,329,1.001,0,0,0.0,False,1.046244287512947,1.0499012289649627
1.0154645120001078,11:40:37.758222,11:40:19.626728,0,,0.0069014532,0.011692546,0.07086578,-0.6356662,-0.16638552,-0.7538197,-0.481602,0.8486372,0.21880184,0.60331416,0.5021261,-0.6195817,,0.15384568,-0.034195803,0.046085894,-0.6250971,-0.17868365,0.7598196,0.22239202,0.89232635,0.39280477,-0.7481948,0.41451886,-0.51805276,,0.08751356,1.3322477,0.46482095,0.99604005,0.002835472,-0.08886059,-0.053934284,-0.77529716,-0.62928957,-0.0706777,0.63159025,-0.7720741,,-0.048852812,0.24908583,-0.12537958,0.60629916,0.07945747,0.7912571,0.07439199,0.98496556,-0.15591225,-0.7917494,0.15339266,0.59127283,,0.044780917,0.43160167,-0.37377766,0.69257313,-0.018266255,-0.72111636,-0.3244325,0.88497597,-0.33400768,0.64427173,0.46527833,0.6069844,,0.8265332085967524,-0.35657402226869406,0.16341420627000003,0.6389252577973457,-0.24266642358342222,0.5033566850905471,0.8722573131570512,,-0.6686110440517353,-0.5506617448637044,0.14974482822000001,2.137369593937757,0.35785099288568856,0.6492989541186304,0.8755241944797366,,-0.06956664232292899,-0.09922196797587764,0.1150502548,-0.034016912529394594,,5.247444e-05,4.172325e-07,-1.7881393e-06,1.0,-4.4759363e-05,-3.6608428e-05,4.4751912e-05,1.0,-4.082918e-06,3.6612153e-05,4.053116e-06,1.0,337,1.025,0,0,0.0,False,1.0467804869796362,1.050046069567301
1.0435621270007687,11:40:37.778272,11:40:19.768113,0,,0.0069014532,0.011692546,0.07086578,-0.6356662,-0.16638552,-0.7538197,-0.481602,0.8486372,0.21880184,0.60331416,0.5021261,-0.6195817,,0.15384568,-0.034195803,0.046085894,-0.6250971,-0.17868365,0.7598196,0.22239202,0.89232635,0.39280477,-0.7481948,0.41451886,-0.51805276,,0.08751356,1.3322477,0.46482095,0.99604005,0.002835472,-0.08886059,-0.053934284,-0.77529716,-0.62928957,-0.0706777,0.63159025,-0.7720741,,-0.048852812,0.24908583,-0.12537958,0.60629916,0.07945747,0.7912571,0.07439199,0.98496556,-0.15591225,-0.7917494,0.15339266,0.59127283,,0.044780917,0.43160167,-0.37377766,0.69257313,-0.018266255,-0.72111636,-0.3244325,0.88497597,-0.33400768,0.64427173,0.46527833,0.6069844,,0.8265332085967524,-0.35657402226869406,0.16341420627000003,0.6389252577973457,-0.24266642358342222,0.5033566850905471,0.8722573131570512,,-0.6686110440517353,-0.5506617448637044,0.14974482822000001,2.137369593937757,0.35785099288568856,0.6492989541186304,0.8755241944797366,,-0.06956664232292899,-0.09922196797587764,0.1150502548,-0.034016912529394594,,5.247444e-05,4.172325e-07,-1.7881393e-06,1.0,-4.4759363e-05,-3.6608428e-05,4.4751912e-05,1.0,-4.082918e-06,3.6612153e-05,4.053116e-06,1.0,345,1.051,0,0,0.0,False,1.0469592201351996,1.0500943497680806
1.0636130279999634,11:40:37.803468,11:40:19.768113,0,,0.0069014532,0.011692546,0.07086578,-0.6356662,-0.16638552,-0.7538197,-0.481602,0.8486372,0.21880184,0.60331416,0.5021261,-0.6195817,,0.15384568,-0.034195803,0.046085894,-0.6250971,-0.17868365,0.7598196,0.22239202,0.89232635,0.39280477,-0.7481948,0.41451886,-0.51805276,,0.08751356,1.3322477,0.46482095,0.99604005,0.002835472,-0.08886059,-0.053934284,-0.77529716,-0.62928957,-0.0706777,0.63159025,-0.7720741,,-0.048852812,0.24908583,-0.12537958,0.60629916,0.07945747,0.7912571,0.07439199,0.98496556,-0.15591225,-0.7917494,0.15339266,0.59127283,,0.044780917,0.43160167,-0.37377766,0.69257313,-0.018266255,-0.72111636,-0.3244325,0.88497597,-0.33400768,0.64427173,0.46527833,0.6069844,,0.8265332085967524,-0.35657402226869406,0.16341420627000003,0.6389252577973457,-0.24266642358342222,0.5033566850905471,0.8722573131570512,,-0.6686110440517353,-0.5506617448637044,0.14974482822000001,2.137369593937757,0.35785099288568856,0.6492989541186304,0.8755241944797366,,-0.06956664232292899,-0.09922196797587764,0.1150502548,-0.034016912529394594,,5.247444e-05,4.172325e-07,-1.7881393e-06,1.0,-4.4759363e-05,-3.6608428e-05,4.4751912e-05,1.0,-4.082918e-06,3.6612153e-05,4.053116e-06,1.0,353,1.076,0,0,0.0,False,1.0465421761055524,1.0506254319766548
1.0888081200009765,11:40:37.826383,11:40:19.768113,0,,0.0069004865,0.011692964,0.0708662,-0.63566166,-0.16638267,-0.7538241,-0.4816045,0.8486355,0.21880332,0.60331696,0.5021301,-0.61957574,,0.15384568,-0.034195803,0.046085894,-0.6250971,-0.17868365,0.7598196,0.22239202,0.89232635,0.39280477,-0.7481948,0.41451886,-0.51805276,,0.08751356,1.3322477,0.46482095,0.99604005,0.002835472,-0.08886059,-0.053934284,-0.77529716,-0.62928957,-0.0706777,0.63159025,-0.7720741,,-0.048851907,0.2490865,-0.12537965,0.6062946,0.07945439,0.79126096,0.07439147,0.98496646,-0.15590692,-0.791753,0.15338857,0.5912691,,0.044780917,0.43160167,-0.37377766,0.69257313,-0.018266255,-0.72111636,-0.3244325,0.88497597,-0.33400768,0.64427173,0.46527833,0.6069844,,0.8265409313296266,-0.35657402226869406,0.16341420627000003,0.6389252577973457,-0.24266642358342222,0.5033566850905471,0.8722573131570512,,-0.6686110440517353,-0.5506617448637044,0.14974482822000001,2.137369593937757,0.35785099288568856,0.6492989541186304,0.8755241944797366,,-0.06956664232292899,-0.09922196797587764,0.1150502548,-0.034016912529394594,,5.247444e-05,4.172325e-07,-1.7881393e-06,1.0,-4.4759363e-05,-3.6608428e-05,4.4751912e-05,1.0,-4.082918e-06,3.6612153e-05,4.053116e-06,1.0,361,1.1,0,0,0.0,False,1.0465421761055524,1.0501909101696396
1.1117111109997495,11:40:37.855574,11:40:19.768113,0,,0.0069014532,0.011692546,0.07086578,-0.6356662,-0.16638552,-0.7538197,-0.481602,0.8486372,0.21880184,0.60331416,0.5021261,-0.6195817,,0.15384568,-0.034195803,0.046085894,-0.6250971,-0.17868365,0.7598196,0.22239202,0.89232635,0.39280477,-0.7481948,0.41451886,-0.51805276,,0.08751356,1.3322477,0.46482095,0.99604005,0.002835472,-0.08886059,-0.053934284,-0.77529716,-0.62928957,-0.0706777,0.63159025,-0.7720741,,-0.048852812,0.24908583,-0.12537958,0.60629916,0.07945747,0.7912571,0.07439199,0.98496556,-0.15591225,-0.7917494,0.15339266,0.59127283,,0.044780917,0.43160167,-0.37377766,0.69257313,-0.018266255,-0.72111636,-0.3244325,0.88497597,-0.33400768,0.64427173,0.46527833,0.6069844,,0.8265332085967524,-0.35657402226869406,0.16341420627000003,0.6389252577973457,-0.24266642358342222,0.5033566850905471,0.8722573131570512,,-0.6686110440517353,-0.5506617448637044,0.14974482822000001,2.137369593937757,0.35785099288568856,0.6492989541186304,0.8755241944797366,,-0.06956664232292899,-0.09922196797587764,0.1150502548,-0.034016912529394594,,5.247444e-05,4.172325e-07,-1.7881393e-06,1.0,-4.4759363e-05,-3.6608428e-05,4.4751912e-05,1.0,-4.082918e-06,3.6612153e-05,4.053116e-06,1.0,398,1.214,0,0,0.0,False,1.0469592201351996,1.0503840309727575
1.1409188210000138,11:40:37.972366,11:40:19.961462,0,,0.0069014532,0.011692546,0.07086578,-0.6356662,-0.16638552,-0.7538197,-0.481602,0.8486372,0.21880184,0.60331416,0.5021261,-0.6195817,,0.15384568,-0.034195803,0.046085894,-0.6250971,-0.17868365,0.7598196,0.22239202,0.89232635,0.39280477,-0.7481948,0.41451886,-0.51805276,,0.08751356,1.3322477,0.46482095,0.99604005,0.002835472,-0.08886059,-0.053934284,-0.77529716,-0.62928957,-0.0706777,0.63159025,-0.7720741,,-0.048852812,0.24908583,-0.12537958,0.60629916,0.07945747,0.7912571,0.07439199,0.98496556,-0.15591225,-0.7917494,0.15339266,0.59127283,,0.044780917,0.43160167,-0.37377766,0.69257313,-0.018266255,-0.72111636,-0.3244325,0.88497597,-0.33400768,0.64427173,0.46527833,0.6069844,,0.8265332085967524,-0.35657402226869406,0.16341420627000003,0.6389252577973457,-0.24266642358342222,0.5033566850905471,0.8722573131570512,,-0.6686110440517353,-0.5506617448637044,0.14974482822000001,2.137369593937757,0.35785099288568856,0.6492989541186304,0.8755241944797366,,-0.06956664232292899,-0.09922196797587764,0.1150502548,-0.034016912529394594,,5.247444e-05,4.172325e-07,-1.7881393e-06,1.0,-4.4759363e-05,-3.6608428e-05,4.4751912e-05,1.0,-4.082918e-06,3.6612153e-05,4.053116e-06,1.0,406,1.238,0,0,0.0,False,1.04642302066851,1.0499977893665218
1.2577004970007692,11:40:37.992594,11:40:19.961462,0,,0.006901921,0.011691771,0.07086563,-0.63545877,-0.16668816,-0.75392777,-0.48194757,0.84848756,0.21862172,0.6032567,0.5022788,-0.61951387,,0.15384568,-0.034195803,0.046085894,-0.6250971,-0.17868365,0.7598196,0.22239202,0.89232635,0.39280477,-0.7481948,0.41451886,-0.51805276,,0.08751356,1.3322477,0.46482095,0.99604005,0.002835472,-0.08886059,-0.053934284,-0.77529716,-0.62928957,-0.0706777,0.63159025,-0.7720741,,-0.048853226,0.2490851,-0.12537995,0.6061154,0.07975339,0.7913681,0.07407137,0.98497635,-0.15599693,-0.7919202,0.15316987,0.5911019,,0.044780917,0.43160167,-0.37377766,0.69257313,-0.018266255,-0.72111636,-0.3244325,0.88497597,-0.33400768,0.64427173,0.46527833,0.6069844,,0.8265332085967524,-0.35657402226869406,0.16341420627000003,0.6385058779103767,-0.24266642358342222,0.5033566850905471,0.8722573131570512,,-0.6686110440517353,-0.5506617448637044,0.14974482822000001,2.137369593937757,0.35785099288568856,0.6492989541186304,0.8755241944797366,,-0.06956664232292899,-0.09922196797587764,0.1150502548,-0.034016912529394594,,5.247444e-05,4.172325e-07,-1.7881393e-06,1.0,-4.4759363e-05,-3.6608428e-05,4.4751912e-05,1.0,-4.082918e-06,3.6612153e-05,4.053116e-06,1.0,414,1.263,0,0,0.0,False,1.0464825983870312,1.0502391903704191
1.2779367100010859,11:40:38.012471,11:40:19.961462,0,,0.006901921,0.011691771,0.07086563,-0.63545877,-0.16668816,-0.75392777,-0.48194757,0.84848756,0.21862172,0.6032567,0.5022788,-0.61951387,,0.15384568,-0.034195803,0.046085894,-0.6250971,-0.17868365,0.7598196,0.22239202,0.89232635,0.39280477,-0.7481948,0.41451886,-0.51805276,,0.08751356,1.3322477,0.46482095,0.99604005,0.002835472,-0.08886059,-0.053934284,-0.77529716,-0.62928957,-0.0706777,0.63159025,-0.7720741,,-0.048853226,0.2490851,-0.12537995,0.6061154,0.07975339,0.7913681,0.07407137,0.98497635,-0.15599693,-0.7919202,0.15316987,0.5911019,,0.044780917,0.43160167,-0.37377766,0.69257313,-0.018266255,-0.72111636,-0.3244325,0.88497597,-0.33400768,0.64427173,0.46527833,0.6069844,,0.8265332085967524,-0.35657402226869406,0.16341420627000003,0.6385058779103767,-0.24266642358342222,0.5033566850905471,0.8722573131570512,,-0.6686110440517353,-0.5506617448637044,0.14974482822000001,2.137369593937757,0.35785099288568856,0.6492989541186304,0.8755241944797366,,-0.06956664232292899,-0.09922196797587764,0.1150502548,-0.034016912529394594,,5.247444e-05,4.172325e-07,-1.7881393e-06,1.0,-4.4759363e-05,-3.6608428e-05,4.4751912e-05,1.0,-4.082918e-06,3.6612153e-05,4.053116e-06,1.0,422,1.288,0,0,0.0,False,1.0461847097944261,1.0501909101696396
1.297814274999837,11:40:38.039159,11:40:19.961462,0,,0.006901921,0.011691771,0.07086563,-0.63545877,-0.16668816,-0.75392777,-0.48194757,0.84848756,0.21862172,0.6032567,0.5022788,-0.61951387,,0.15384568,-0.034195803,0.046085894,-0.6250971,-0.17868365,0.7598196,0.22239202,0.89232635,0.39280477,-0.7481948,0.41451886,-0.51805276,,0.08751356,1.3322477,0.46482095,0.99604005,0.002835472,-0.08886059,-0.053934284,-0.77529716,-0.62928957,-0.0706777,0.63159025,-0.7720741,,-0.048853226,0.2490851,-0.12537995,0.6061154,0.07975339,0.7913681,0.07407137,0.98497635,-0.15599693,-0.7919202,0.15316987,0.5911019,,0.044780917,0.43160167,-0.37377766,0.69257313,-0.018266255,-0.72111636,-0.3244325,0.88497597,-0.33400768,0.64427173,0.46527833,0.6069844,,0.8265332085967524,-0.35657402226869406,0.16341420627000003,0.6385058779103767,-0.24266642358342222,0.5033566850905471,0.8722573131570512,,-0.6686110440517353,-0.5506617448637044,0.14974482822000001,2.137369593937757,0.35785099288568856,0.6492989541186304,0.8755241944797366,,-0.06956664232292899,-0.09922196797587764,0.1150502548,-0.034016912529394594,,5.247444e-05,4.172325e-07,-1.7881393e-06,1.0,-4.4759363e-05,-3.6608428e-05,4.4751912e-05,1.0,-4.082918e-06,3.6612153e-05,4.053116e-06,1.0,430,1.313,0,0,0.0,False,1.0469592201351996,1.0495632675595068
1.3244854120002856,11:40:38.062127,11:40:19.961462,0,,0.006901921,0.011691771,0.07086563,-0.63545877,-0.16668816,-0.75392777,-0.48194757,0.84848756,0.21862172,0.6032567,0.5022788,-0.61951387,,0.15384568,-0.034195803,0.046085894,-0.6250971,-0.17868365,0.7598196,0.22239202,0.89232635,0.39280477,-0.7481948,0.41451886,-0.51805276,,0.08751356,1.3322477,0.46482095,0.99604005,0.002835472,-0.08886059,-0.053934284,-0.77529716,-0.62928957,-0.0706777,0.63159025,-0.7720741,,-0.048853226,0.2490851,-0.12537995,0.6061154,0.07975339,0.7913681,0.07407137,0.98497635,-0.15599693,-0.7919202,0.15316987,0.5911019,,0.044780917,0.43160167,-0.37377766,0.69257313,-0.018266255,-0.72111636,-0.3244325,0.88497597,-0.33400768,0.64427173,0.46527833,0.6069844,,0.8265332085967524,-0.35657402226869406,0.16341420627000003,0.6385058779103767,-0.24266642358342222,0.5033566850905471,0.8722573131570512,,-0.6686110440517353,-0.5506617448637044,0.14974482822000001,2.137369593937757,0.35785099288568856,0.6492989541186304,0.8755241944797366,,-0.06956664232292899,-0.09922196797587764,0.1150502548,-0.034016912529394594,,5.247444e-05,4.172325e-07,-1.7881393e-06,1.0,-4.4759363e-05,-3.6608428e-05,4.4751912e-05,1.0,-4.082918e-06,3.6612153e-05,4.053116e-06,1.0,438,1.338,0,0,0.0,False,1.0466613315425946,1.049804668563404
1.347462137000548,11:40:38.093619,11:40:19.961462,0,,0.006901921,0.011691771,0.07086563,-0.63545877,-0.16668816,-0.75392777,-0.48194757,0.84848756,0.21862172,0.6032567,0.5022788,-0.61951387,,0.15384568,-0.034195803,0.046085894,-0.6250971,-0.17868365,0.7598196,0.22239202,0.89232635,0.39280477,-0.7481948,0.41451886,-0.51805276,,0.08751356,1.3322477,0.46482095,0.99604005,0.002835472,-0.08886059,-0.053934284,-0.77529716,-0.62928957,-0.0706777,0.63159025,-0.7720741,,-0.048853226,0.2490851,-0.12537995,0.6061154,0.07975339,0.7913681,0.07407137,0.98497635,-0.15599693,-0.7919202,0.15316987,0.5911019,,0.044780917,0.43160167,-0.37377766,0.69257313,-0.018266255,-0.72111636,-0.3244325,0.88497597,-0.33400768,0.64427173,0.46527833,0.6069844,,0.8265332085967524,-0.35657402226869406,0.16341420627000003,0.6385058779103767,-0.24266642358342222,0.5033566850905471,0.8722573131570512,,-0.6686110440517353,-0.5506617448637044,0.14974482822000001,2.137369593937757,0.35785099288568856,0.6492989541186304,0.8755241944797366,,-0.06956664232292899,-0.09922196797587764,0.1150502548,-0.034016912529394594,,5.247444e-05,4.172325e-07,-1.7881393e-06,1.0,-4.4759363e-05,-3.6608428e-05,4.4751912e-05,1.0,-4.082918e-06,3.6612153e-05,4.053116e-06,1.0,446,1.362,0,0,0.0,False,1.0464825983870312,1.0499977893665218
1.3789573140002176,11:40:38.113270,11:40:19.961462,0,,0.006900952,0.011692174,0.07086605,-0.6354542,-0.16668528,-0.7539322,-0.48195004,0.8484857,0.21862319,0.60325956,0.5022828,-0.6195079,,0.15384568,-0.034195803,0.046085894,-0.6250971,-0.17868365,0.7598196,0.22239202,0.89232635,0.39280477,-0.7481948,0.41451886,-0.51805276,,0.08751356,1.3322477,0.46482095,0.99604005,0.002835472,-0.08886059,-0.053934284,-0.77529716,-0.62928957,-0.0706777,0.63159025,-0.7720741,,-0.04885232,0.24908577,-0.12538002,0.60611075,0.07975031,0.791372,0.07407085,0.98497725,-0.1559916,-0.79192376,0.15316579,0.5910981,,0.044780917,0.43160167,-0.37377766,0.69257313,-0.018266255,-0.72111636,-0.3244325,0.88497597,-0.33400768,0.64427173,0.46527833,0.6069844,,0.8265409313296266,-0.35657402226869406,0.16341420627000003,0.6385058779103767,-0.24266642358342222,0.5033566850905471,0.8722573131570512,,-0.6686110440517353,-0.5506617448637044,0.14974482822000001,2.137369593937757,0.35785099288568856,0.6492989541186304,0.8755241944797366,,-0.06956664232292899,-0.09922196797587764,0.1150502548,-0.034016912529394594,,5.247444e-05,4.172325e-07,-1.7881393e-06,1.0,-4.4759363e-05,-3.6608428e-05,4.4751912e-05,1.0,-4.082918e-06,3.6612153e-05,4.053116e-06,1.0,471,1.439,0,0,0.0,False,1.0470187978537204,1.0502391903704191
1.398600078000527,11:40:38.182014,11:40:20.142118,0,,0.006901921,0.011691771,0.07086563,-0.63545877,-0.16668816,-0.75392777,-0.48194757,0.84848756,0.21862172,0.6032567,0.5022788,-0.61951387,,0.15384568,-0.034195803,0.046085894,-0.6250971,-0.17868365,0.7598196,0.22239202,0.89232635,0.39280477,-0.7481948,0.41451886,-0.51805276,,0.08751356,1.3322477,0.46482095,0.99604005,0.002835472,-0.08886059,-0.053934284,-0.77529716,-0.62928957,-0.0706777,0.63159025,-0.7720741,,-0.048853226,0.2490851,-0.12537995,0.6061154,0.07975339,0.7913681,0.07407137,0.98497635,-0.15599693,-0.7919202,0.15316987,0.5911019,,0.044780917,0.43160167,-0.37377766,0.69257313,-0.018266255,-0.72111636,-0.3244325,0.88497597,-0.33400768,0.64427173,0.46527833,0.6069844,,0.8265332085967524,-0.35657402226869406,0.16341420627000003,0.6385058779103767,-0.24266642358342222,0.5033566850905471,0.8722573131570512,,-0.6686110440517353,-0.5506617448637044,0.14974482822000001,2.137369593937757,0.35785099288568856,0.6492989541186304,0.8755241944797366,,-0.06956664232292899,-0.09922196797587764,0.1150502548,-0.034016912529394594,,5.247444e-05,4.172325e-07,-1.7881393e-06,1.0,-4.4759363e-05,-3.6608428e-05,4.4751912e-05,1.0,-4.082918e-06,3.6612153e-05,4.053116e-06,1.0,479,1.464,0,0,0.0,False,1.0467209092611154,1.0501909101696396
1.4673441859995364,11:40:38.222840,11:40:20.142118,0,,0.006901921,0.011691771,0.07086563,-0.63545877,-0.16668816,-0.75392777,-0.48194757,0.84848756,0.21862172,0.6032567,0.5022788,-0.61951387,,0.15384568,-0.034195803,0.046085894,-0.6250971,-0.17868365,0.7598196,0.22239202,0.89232635,0.39280477,-0.7481948,0.41451886,-0.51805276,,0.08751356,1.3322477,0.46482095,0.99604005,0.002835472,-0.08886059,-0.053934284,-0.77529716,-0.62928957,-0.0706777,0.63159025,-0.7720741,,-0.048853226,0.2490851,-0.12537995,0.6061154,0.07975339,0.7913681,0.07407137,0.98497635,-0.15599693,-0.7919202,0.15316987,0.5911019,,0.044780917,0.43160167,-0.37377766,0.69257313,-0.018266255,-0.72111636,-0.3244325,0.88497597,-0.33400768,0.64427173,0.46527833,0.6069844,,0.8265332085967524,-0.35657402226869406,0.16341420627000003,0.6385058779103767,-0.24266642358342222,0.5033566850905471,0.8722573131570512,,-0.6686110440517353,-0.5506617448637044,0.14974482822000001,2.137369593937757,0.35785099288568856,0.6492989541186304,0.8755241944797366,,-0.06956664232292899,-0.09922196797587764,0.1150502548,-0.034016912529394594,,5.247444e-05,4.172325e-07,-1.7881393e-06,1.0,-4.4759363e-05,-3.6608428e-05,4.4751912e-05,1.0,-4.082918e-06,3.6612153e-05,4.053116e-06,1.0,491,1.501,0,0,0.0,False,1.0469592201351996,1.05014262996886
1.5081704590011213,11:40:38.259310,11:40:20.142118,0,,0.006901921,0.011691771,0.07086563,-0.63545877,-0.16668816,-0.75392777,-0.48194757,0.84848756,0.21862172,0.6032567,0.5022788,-0.61951387,,0.15384486,-0.034196027,0.046085536,-0.62510264,-0.17868263,0.7598153,0.2223885,0.89232713,0.3928047,-0.74819124,0.4145173,-0.51805913,,0.08751356,1.3322477,0.46482095,0.99604005,0.002835472,-0.08886059,-0.053934284,-0.77529716,-0.62928957,-0.0706777,0.63159025,-0.7720741,,-0.048853226,0.2490851,-0.12537995,0.6061154,0.07975339,0.7913681,0.07407137,0.98497635,-0.15599693,-0.7919202,0.15316987,0.5911019,,0.044781804,0.4316014,-0.3737776,0.6925785,-0.018267175,-0.7211112,-0.32443056,0.8849751,-0.3340118,0.6442669,0.46527988,0.6069883,,0.8265332085967524,-0.35657402226869406,0.16341420627000003,0.6385058779103767,-0.24266642358342222,0.5033566850905471,0.8722573131570512,,-0.6686033213188611,-0.5506617448637044,0.14974482822000001,2.137369593937757,0.35785099288568856,0.6492989541186304,0.8755241944797366,,-0.06956664232292899,-0.09922196797587764,0.1150502548,-0.034016912529394594,,5.247444e-05,4.172325e-07,-1.7881393e-06,1.0,-4.4759363e-05,-3.6608428e-05,4.4751912e-05,1.0,-4.082918e-06,3.6612153e-05,4.053116e-06,1.0,499,1.525,0,0,0.0,False,1.0466613315425946,1.049804668563404
1.5446516169995448,11:40:38.276544,11:40:20.142118,0,,0.006901921,0.011691771,0.07086563,-0.63545877,-0.16668816,-0.75392777,-0.48194757,0.84848756,0.21862172,0.6032567,0.5022788,-0.61951387,,0.15384568,-0.034195803,0.046085894,-0.6250971,-0.17868365,0.7598196,0.22239202,0.89232635,0.39280477,-0.7481948,0.41451886,-0.51805276,,0.08751356,1.3322477,0.46482095,0.99604005,0.002835472,-0.08886059,-0.053934284,-0.77529716,-0.62928957,-0.0706777,0.63159025,-0.7720741,,-0.048853226,0.2490851,-0.12537995,0.6061154,0.07975339,0.7913681,0.07407137,0.98497635,-0.15599693,-0.7919202,0.15316987,0.5911019,,0.044780917,0.43160167,-0.37377766,0.69257313,-0.018266255,-0.72111636,-0.3244325,0.88497597,-0.33400768,0.64427173,0.46527833,0.6069844,,0.8265332085967524,-0.35657402226869406,0.16341420627000003,0.6385058779103767,-0.24266642358342222,0.5033566850905471,0.8722573131570512,,-0.6686110440517353,-0.5506617448637044,0.14974482822000001,2.137369593937757,0.35785099288568856,0.6492989541186304,0.8755241944797366,,-0.06956664232292899,-0.09922196797587764,0.1150502548,-0.034016912529394594,,5.247444e-05,4.172325e-07,-1.7881393e-06,1.0,-4.4759363e-05,-3.6608428e-05,4.4751912e-05,1.0,-4.082918e-06,3.6612153e-05,4.053116e-06,1.0,507,1.551,0,0,0.0,False,1.0470783755722417,1.0500943497680806
1.5618895830011752,11:40:38.305587,11:40:20.301011,0,,0.006900952,0.011692174,0.07086605,-0.6354542,-0.16668528,-0.7539322,-0.48195004,0.8484857,0.21862319,0.60325956,0.5022828,-0.6195079,,0.15384568,-0.034195803,0.046085894,-0.6250971,-0.17868365,0.7598196,0.22239202,0.89232635,0.39280477,-0.7481948,0.41451886,-0.51805276,,0.08751356,1.3322477,0.46482095,0.99604005,0.002835472,-0.08886059,-0.053934284,-0.77529716,-0.62928957,-0.0706777,0.63159025,-0.7720741,,-0.04885232,0.24908577,-0.12538002,0.60611075,0.07975031,0.791372,0.07407085,0.98497725,-0.1559916,-0.79192376,0.15316579,0.5910981,,0.044780917,0.43160167,-0.37377766,0.69257313,-0.018266255,-0.72111636,-0.3244325,0.88497597,-0.33400768,0.64427173,0.46527833,0.6069844,,0.8265409313296266,-0.35657402226869406,0.16341420627000003,0.6385058779103767,-0.24266642358342222,0.5033566850905471,0.8722573131570512,,-0.6686110440517353,-0.5506617448637044,0.14974482822000001,2.137369593937757,0.35785099288568856,0.6492989541186304,0.8755241944797366,,-0.06956664232292899,-0.09922196797587764,0.1150502548,-0.034016912529394594,,5.247444e-05,4.172325e-07,-1.7881393e-06,1.0,-4.4759363e-05,-3.6608428e-05,4.4751912e-05,1.0,-4.082918e-06,3.6612153e-05,4.053116e-06,1.0,515,1.575,0,0,0.0,False,1.0468400646981575,1.0499977893665218
1.5909298040005524,11:40:38.330570,11:40:20.301011,0,,0.006901921,0.011691771,0.07086563,-0.63545877,-0.16668816,-0.75392777,-0.48194757,0.84848756,0.21862172,0.6032567,0.5022788,-0.61951387,,0.15384568,-0.034195803,0.046085894,-0.6250971,-0.17868365,0.7598196,0.22239202,0.89232635,0.39280477,-0.7481948,0.41451886,-0.51805276,,0.08751356,1.3322477,0.46482095,0.99604005,0.002835472,-0.08886059,-0.053934284,-0.77529716,-0.62928957,-0.0706777,0.63159025,-0.7720741,,-0.048853226,0.2490851,-0.12537995,0.6061154,0.07975339,0.7913681,0.07407137,0.98497635,-0.15599693,-0.7919202,0.15316987,0.5911019,,0.044780917,0.43160167,-0.37377766,0.69257313,-0.018266255,-0.72111636,-0.3244325,0.88497597,-0.33400768,0.64427173,0.46527833,0.6069844,,0.8265332085967524,-0.35657402226869406,0.16341420627000003,0.6385058779103767,-0.24266642358342222,0.5033566850905471,0.8722573131570512,,-0.6686110440517353,-0.5506617448637044,0.14974482822000001,2.137369593937757,0.35785099288568856,0.6492989541186304,0.8755241944797366,,-0.06956664232292899,-0.09922196797587764,0.1150502548,-0.034016912529394594,,5.247444e-05,4.172325e-07,-1.7881393e-06,1.0,-4.4759363e-05,-3.6608428e-05,4.4751912e-05,1.0,-4.082918e-06,3.6612153e-05,4.053116e-06,1.0,548,1.677,0,0,0.0,False,1.0467804869796362,1.0497563883626244
1.615907387000334,11:40:38.426373,11:40:20.301011,0,,0.0069016404,0.011703484,0.07086435,-0.63551134,-0.16668285,-0.7538847,-0.48191845,0.84849745,0.21864699,0.6032247,0.5022636,-0.6195573,,0.15388511,-0.034189552,0.04610932,-0.62495387,-0.17840724,0.7600024,0.22275478,0.8923092,0.3926381,-0.74820656,0.41467473,-0.51791096,,0.08742797,1.3322519,0.46482787,0.9960438,0.0028895077,-0.088816725,-0.053864863,-0.775297,-0.62929577,-0.0706777,0.63159025,-0.7720741,,-0.048775364,0.24909045,-0.12537204,0.60619974,0.07968914,0.79131,0.07411467,0.9849774,-0.15596958,-0.7918516,0.1531964,0.5911869,,0.044817097,0.4316188,-0.37378332,0.69237113,-0.018625826,-0.7213011,-0.32422486,0.8850268,-0.33407447,0.64459324,0.46516728,0.6067281,,0.8265332085967524,-0.35657402226869406,0.16341420627000003,0.6385058779103767,-0.24266642358342222,0.5033566850905471,0.8722573131570512,,-0.6686110440517353,-0.5506617448637044,0.14974482822000001,2.1377889738247258,0.35785099288568856,0.6492989541186304,0.8755241944797366,,-0.06956664232292899,-0.09922196797587764,0.1150502548,-0.034016912529394594,,-3.3486634e-05,1.2516975e-06,-2.1457672e-06,1.0,9.052455e-06,7.4133277e-06,-9.059906e-06,1.0,8.34465e-07,-7.4096024e-06,-8.6426735e-07,1.0,556,1.701,0,0,0.0,False,1.0466017538240733,1.0494667071579475
1.7117036529998586,11:40:38.459895,11:40:20.301011,0,,0.0069016404,0.011703484,0.07086435,-0.63551134,-0.16668285,-0.7538847,-0.48191845,0.84849745,0.21864699,0.6032247,0.5022636,-0.6195573,,0.1538843,-0.034189805,0.04610896,-0.62495947,-0.17840618,0.7599981,0.22275132,0.8923101,0.3926381,-0.7482029,0.41467327,-0.51791734,,0.08742797,1.3322519,0.46482787,0.9960438,0.0028895077,-0.088816725,-0.053864863,-0.775297,-0.62929577,-0.0706777,0.63159025,-0.7720741,,-0.048775364,0.24909045,-0.12537204,0.60619974,0.07968914,0.79131,0.07411467,0.9849774,-0.15596958,-0.7918516,0.1531964,0.5911869,,0.044817984,0.43161854,-0.37378326,0.69237655,-0.018626746,-0.7212959,-0.32422292,0.885026,-0.33407858,0.6445884,0.46516883,0.606732,,0.8265332085967524,-0.35657402226869406,0.16341420627000003,0.6385058779103767,-0.24266642358342222,0.5033566850905471,0.8722573131570512,,-0.6686033213188611,-0.5506617448637044,0.14974482822000001,2.1377889738247258,0.35785099288568856,0.6492989541186304,0.8755241944797366,,-0.06956664232292899,-0.09922196797587764,0.1150502548,-0.034016912529394594,,-3.3486634e-05,1.2516975e-06,-2.1457672e-06,1.0,9.052455e-06,7.4133277e-06,-9.059906e-06,1.0,8.34465e-07,-7.4096024e-06,-8.6426735e-07,1.0,564,1.726,0,0,0.0,False,1.0471379532907625,1.0495632675595068
1.745231650000278,11:40:38.480570,11:40:20.301011,0,,0.006901402,0.011703871,0.07086444,-0.635615,-0.16653155,-0.7538307,-0.4817457,0.8485723,0.21873705,0.6032533,0.5021873,-0.61959124,,0.15388511,-0.034189552,0.04610932,-0.62495387,-0.17840724,0.7600024,0.22275478,0.8923092,0.3926381,-0.74820656,0.41467473,-0.51791096,,0.08742797,1.3322519,0.46482787,0.9960438,0.0028895077,-0.088816725,-0.053864863,-0.775297,-0.62929577,-0.0706777,0.63159025,-0.7720741,,-0.048775155,0.24909082,-0.12537184,0.6062916,0.07954117,0.7912545,0.07427498,0.98497206,-0.15592724,-0.79176617,0.15330778,0.59127235,,0.044817097,0.4316188,-0.37378332,0.69237113,-0.018625826,-0.7213011,-0.32422486,0.8850268,-0.33407447,0.64459324,0.46516728,0.6067281,,0.8265332085967524,-0.35657402226869406,0.16341420627000003,0.6387155678538612,-0.24266642358342222,0.5033566850905471,0.8722573131570512,,-0.6686110440517353,-0.5506617448637044,0.14974482822000001,2.1377889738247258,0.35785099288568856,0.6492989541186304,0.8755241944797366,,-0.06956664232292899,-0.09922196797587764,0.1150502548,-0.034016912529394594,,-3.3486634e-05,1.2516975e-06,-2.1457672e-06,1.0,9.052455e-06,7.4133277e-06,-9.059906e-06,1.0,8.34465e-07,-7.4096024e-06,-8.6426735e-07,1.0,576,1.764,0,0,0.0,False,1.0469592201351996,1.049514987358727
1.765912730999844,11:40:38.511073,11:40:20.301011,0,,0.0069015343,0.011705384,0.0708642,-0.6357217,-0.16637936,-0.7537743,-0.4815752,0.8486443,0.2188333,0.603277,0.5021161,-0.6196259,,0.15388511,-0.034189552,0.04610932,-0.62495387,-0.17840724,0.7600024,0.22275478,0.8923092,0.3926381,-0.74820656,0.41467473,-0.51791096,,0.08742797,1.3322519,0.46482787,0.9960438,0.0028895077,-0.088816725,-0.053864863,-0.775297,-0.62929577,-0.0706777,0.63159025,-0.7720741,,-0.04877534,0.2490918,-0.1253707,0.606387,0.07939206,0.79119635,0.07443063,0.98496765,-0.15588087,-0.7916785,0.15341339,0.5913624,,0.044817097,0.4316188,-0.37378332,0.69237113,-0.018625826,-0.7213011,-0.32422486,0.8850268,-0.33407447,0.64459324,0.46516728,0.6067281,,0.8265332085967524,-0.35656629953581986,0.16341420627000003,0.6389252577973457,-0.24266642358342222,0.5033566850905471,0.8722573131570512,,-0.6686110440517353,-0.5506617448637044,0.14974482822000001,2.1377889738247258,0.35785099288568856,0.6492989541186304,0.8755241944797366,,-0.06956664232292899,-0.09922196797587764,0.1150502548,-0.034016912529394594,,-3.3486634e-05,1.2516975e-06,-2.1457672e-06,1.0,9.052455e-06,7.4133277e-06,-9.059906e-06,1.0,8.34465e-07,-7.4096024e-06,-8.6426735e-07,1.0,584,1.788,0,0,0.0,False,1.04642302066851,1.049804668563404
1.7964068800010864,11:40:38.544294,11:40:20.522588,0,,0.006901171,0.011704281,0.0708645,-0.6357187,-0.16638023,-0.75377667,-0.48157293,0.8486472,0.21882711,0.60328203,0.50211096,-0.6196252,,0.15388511,-0.034189552,0.04610932,-0.62495387,-0.17840724,0.7600024,0.22275478,0.8923092,0.3926381,-0.74820656,0.41467473,-0.51791096,,0.08742797,1.3322519,0.46482787,0.9960438,0.0028895077,-0.088816725,-0.053864863,-0.775297,-0.62929577,-0.0706777,0.63159025,-0.7720741,,-0.04877495,0.24909118,-0.12537165,0.60638344,0.07939319,0.79119897,0.07443529,0.98496664,-0.1558849,-0.7916808,0.15341915,0.5913578,,0.044817097,0.4316188,-0.37378332,0.69237113,-0.018625826,-0.7213011,-0.32422486,0.8850268,-0.33407447,0.64459324,0.46516728,0.6067281,,0.8265332085967524,-0.35657402226869406,0.16341420627000003,0.6389252577973457,-0.24266642358342222,0.5033566850905471,0.8722573131570512,,-0.6686110440517353,-0.5506617448637044,0.14974482822000001,2.1377889738247258,0.35785099288568856,0.6492989541186304,0.8755241944797366,,-0.06956664232292899,-0.09922196797587764,0.1150502548,-0.034016912529394594,,-3.3486634e-05,1.2516975e-06,-2.1457672e-06,1.0,9.052455e-06,7.4133277e-06,-9.059906e-06,1.0,8.34465e-07,-7.4096024e-06,-8.6426735e-07,1.0,592,1.813,0,0,0.0,False,1.0470783755722417,1.049708108161845
1.8296316570013005,11:40:38.571220,11:40:20.522588,0,,0.006901171,0.011704281,0.0708645,-0.6357187,-0.16638023,-0.75377667,-0.48157293,0.8486472,0.21882711,0.60328203,0.50211096,-0.6196252,,0.1538843,-0.034189805,0.04610896,-0.62495947,-0.17840618,0.7599981,0.22275132,0.8923101,0.3926381,-0.7482029,0.41467327,-0.51791734,,0.08742797,1.3322519,0.46482787,0.9960438,0.0028895077,-0.088816725,-0.053864863,-0.775297,-0.62929577,-0.0706777,0.63159025,-0.7720741,,-0.04877495,0.24909118,-0.12537165,0.60638344,0.07939319,0.79119897,0.07443529,0.98496664,-0.1558849,-0.7916808,0.15341915,0.5913578,,0.044817984,0.43161854,-0.37378326,0.69237655,-0.018626746,-0.7212959,-0.32422292,0.885026,-0.33407858,0.6445884,0.46516883,0.606732,,0.8265332085967524,-0.35657402226869406,0.16341420627000003,0.6389252577973457,-0.24266642358342222,0.5033566850905471,0.8722573131570512,,-0.6686033213188611,-0.5506617448637044,0.14974482822000001,2.1377889738247258,0.35785099288568856,0.6492989541186304,0.8755241944797366,,-0.06956664232292899,-0.09922196797587764,0.1150502548,-0.034016912529394594,,-3.3486634e-05,1.2516975e-06,-2.1457672e-06,1.0,9.052455e-06,7.4133277e-06,-9.059906e-06,1.0,8.34465e-07,-7.4096024e-06,-8.6426735e-07,1.0,625,1.914,0,0,0.0,False,1.0470783755722417,1.0499012289649627
1.8565553620010178,11:40:38.665436,11:40:20.522588,0,,0.006901171,0.011704281,0.0708645,-0.6357187,-0.16638023,-0.75377667,-0.48157293,0.8486472,0.21882711,0.60328203,0.50211096,-0.6196252,,0.1538843,-0.034189805,0.04610896,-0.62495947,-0.17840618,0.7599981,0.22275132,0.8923101,0.3926381,-0.7482029,0.41467327,-0.51791734,,0.08742797,1.3322519,0.46482787,0.9960438,0.0028895077,-0.088816725,-0.053864863,-0.775297,-0.62929577,-0.0706777,0.63159025,-0.7720741,,-0.04877495,0.24909118,-0.12537165,0.60638344,0.07939319,0.79119897,0.07443529,0.98496664,-0.1558849,-0.7916808,0.15341915,0.5913578,,0.044817984,0.43161854,-0.37378326,0.69237655,-0.018626746,-0.7212959,-0.32422292,0.885026,-0.33407858,0.6445884,0.46516883,0.606732,,0.8265332085967524,-0.35657402226869406,0.16341420627000003,0.6389252577973457,-0.24266642358342222,0.5033566850905471,0.8722573131570512,,-0.6686033213188611,-0.5506617448637044,0.14974482822000001,2.1377889738247258,0.35785099288568856,0.6492989541186304,0.8755241944797366,,-0.06956664232292899,-0.09922196797587764,0.1150502548,-0.034016912529394594,,-3.3486634e-05,1.2516975e-06,-2.1457672e-06,1.0,9.052455e-06,7.4133277e-06,-9.059906e-06,1.0,8.34465e-07,-7.4096024e-06,-8.6426735e-07,1.0,633,1.939,0,0,0.0,False,1.0471379532907625,1.0495632675595068
1.9507756380007777,11:40:38.691727,11:40:20.522588,0,,0.006901171,0.011704281,0.0708645,-0.6357187,-0.16638023,-0.75377667,-0.48157293,0.8486472,0.21882711,0.60328203,0.50211096,-0.6196252,,0.15388511,-0.034189552,0.04610932,-0.62495387,-0.17840724,0.7600024,0.22275478,0.8923092,0.3926381,-0.74820656,0.41467473,-0.51791096,,0.08742797,1.3322519,0.46482787,0.9960438,0.0028895077,-0.088816725,-0.053864863,-0.775297,-0.62929577,-0.0706777,0.63159025,-0.7720741,,-0.04877495,0.24909118,-0.12537165,0.60638344,0.07939319,0.79119897,0.07443529,0.98496664,-0.1558849,-0.7916808,0.15341915,0.5913578,,0.044817097,0.4316188,-0.37378332,0.69237113,-0.018625826,-0.7213011,-0.32422486,0.8850268,-0.33407447,0.64459324,0.46516728,0.6067281,,0.8265332085967524,-0.35657402226869406,0.16341420627000003,0.6389252577973457,-0.24266642358342222,0.5033566850905471,0.8722573131570512,,-0.6686110440517353,-0.5506617448637044,0.14974482822000001,2.1377889738247258,0.35785099288568856,0.6492989541186304,0.8755241944797366,,-0.06956664232292899,-0.09922196797587764,0.1150502548,-0.034016912529394594,,-3.3486634e-05,1.2516975e-06,-2.1457672e-06,1.0,9.052455e-06,7.4133277e-06,-9.059906e-06,1.0,8.34465e-07,-7.4096024e-06,-8.6426735e-07,1.0,641,1.963,0,0,0.0,False,1.0471975310092834,1.049708108161845
1.9770660480007791,11:40:38.722097,11:40:20.522588,0,,0.006901171,0.011704281,0.0708645,-0.6357187,-0.16638023,-0.75377667,-0.48157293,0.8486472,0.21882711,0.60328203,0.50211096,-0.6196252,,0.15388511,-0.034189552,0.04610932,-0.62495387,-0.17840724,0.7600024,0.22275478,0.8923092,0.3926381,-0.74820656,0.41467473,-0.51791096,,0.08742797,1.3322519,0.46482787,0.9960438,0.0028895077,-0.088816725,-0.053864863,-0.775297,-0.62929577,-0.0706777,0.63159025,-0.7720741,,-0.04877495,0.24909118,-0.12537165,0.60638344,0.07939319,0.79119897,0.07443529,0.98496664,-0.1558849,-0.7916808,0.15341915,0.5913578,,0.044817097,0.4316188,-0.37378332,0.69237113,-0.018625826,-0.7213011,-0.32422486,0.8850268,-0.33407447,0.64459324,0.46516728,0.6067281,,0.8265332085967524,-0.35657402226869406,0.16341420627000003,0.6389252577973457,-0.24266642358342222,0.5033566850905471,0.8722573131570512,,-0.6686110440517353,-0.5506617448637044,0.14974482822000001,2.1377889738247258,0.35785099288568856,0.6492989541186304,0.8755241944797366,,-0.06956664232292899,-0.09922196797587764,0.1150502548,-0.034016912529394594,,-3.3486634e-05,1.2516975e-06,-2.1457672e-06,1.0,9.052455e-06,7.4133277e-06,-9.059906e-06,1.0,8.34465e-07,-7.4096024e-06,-8.6426735e-07,1.0,649,1.989,0,0,0.0,False,1.0466613315425946,1.049370146756389
2.00742627299951,11:40:38.744247,11:40:20.729173,0,,0.006901171,0.011704281,0.0708645,-0.6357187,-0.16638023,-0.75377667,-0.48157293,0.8486472,0.21882711,0.60328203,0.50211096,-0.6196252,,0.15388511,-0.034189552,0.04610932,-0.62495387,-0.17840724,0.7600024,0.22275478,0.8923092,0.3926381,-0.74820656,0.41467473,-0.51791096,,0.08742797,1.3322519,0.46482787,0.9960438,0.0028895077,-0.088816725,-0.053864863,-0.775297,-0.62929577,-0.0706777,0.63159025,-0.7720741,,-0.04877495,0.24909118,-0.12537165,0.60638344,0.07939319,0.79119897,0.07443529,0.98496664,-0.1558849,-0.7916808,0.15341915,0.5913578,,0.044817097,0.4316188,-0.37378332,0.69237113,-0.018625826,-0.7213011,-0.32422486,0.8850268,-0.33407447,0.64459324,0.46516728,0.6067281,,0.8265332085967524,-0.35657402226869406,0.16341420627000003,0.6389252577973457,-0.24266642358342222,0.5033566850905471,0.8722573131570512,,-0.6686110440517353,-0.5506617448637044,0.14974482822000001,2.1377889738247258,0.35785099288568856,0.6492989541186304,0.8755241944797366,,-0.06956664232292899,-0.09922196797587764,0.1150502548,-0.034016912529394594,,-3.3486634e-05,1.2516975e-06,-2.1457672e-06,1.0,9.052455e-06,7.4133277e-06,-9.059906e-06,1.0,8.34465e-07,-7.4096024e-06,-8.6426735e-07,1.0,657,2.014,0,0,0.0,False,1.0469592201351996,1.0499012289649627
2.0295714100011537,11:40:38.772531,11:40:20.729173,0,,0.006901171,0.011704281,0.0708645,-0.6357187,-0.16638023,-0.75377667,-0.48157293,0.8486472,0.21882711,0.60328203,0.50211096,-0.6196252,,0.15388511,-0.034189552,0.04610932,-0.62495387,-0.17840724,0.7600024,0.22275478,0.8923092,0.3926381,-0.74820656,0.41467473,-0.51791096,,0.08742797,1.3322519,0.46482787,0.9960438,0.0028895077,-0.088816725,-0.053864863,-0.775297,-0.62929577,-0.0706777,0.63159025,-0.7720741,,-0.04877495,0.24909118,-0.12537165,0.60638344,0.07939319,0.79119897,0.07443529,0.98496664,-0.1558849,-0.7916808,0.15341915,0.5913578,,0.044817097,0.4316188,-0.37378332,0.69237113,-0.018625826,-0.7213011,-0.32422486,0.8850268,-0.33407447,0.64459324,0.46516728,0.6067281,,0.8265332085967524,-0.35657402226869406,0.16341420627000003,0.6389252577973457,-0.24266642358342222,0.5033566850905471,0.8722573131570512,,-0.6686110440517353,-0.5506617448637044,0.14974482822000001,2.1377889738247258,0.35785099288568856,0.6492989541186304,0.8755241944797366,,-0.06956664232292899,-0.09922196797587764,0.1150502548,-0.034016912529394594,,-3.3486634e-05,1.2516975e-06,-2.1457672e-06,1.0,9.052455e-06,7.4133277e-06,-9.059906e-06,1.0,8.34465e-07,-7.4096024e-06,-8.6426735e-07,1.0,669,2.051,0,0,0.0,False,1.046244287512947,1.0494667071579475
2.057854861001033,11:40:38.805500,11:40:20.729173,0,,0.006901171,0.011704281,0.0708645,-0.6357187,-0.16638023,-0.75377667,-0.48157293,0.8486472,0.21882711,0.60328203,0.50211096,-0.6196252,,0.15388511,-0.034189552,0.04610932,-0.62495387,-0.17840724,0.7600024,0.22275478,0.8923092,0.3926381,-0.74820656,0.41467473,-0.51791096,,0.08742797,1.3322519,0.46482787,0.9960438,0.0028895077,-0.088816725,-0.053864863,-0.775297,-0.62929577,-0.0706777,0.63159025,-0.7720741,,-0.04877495,0.24909118,-0.12537165,0.60638344,0.07939319,0.79119897,0.07443529,0.98496664,-0.1558849,-0.7916808,0.15341915,0.5913578,,0.044817097,0.4316188,-0.37378332,0.69237113,-0.018625826,-0.7213011,-0.32422486,0.8850268,-0.33407447,0.64459324,0.46516728,0.6067281,,0.8265332085967524,-0.35657402226869406,0.16341420627000003,0.6389252577973457,-0.24266642358342222,0.5033566850905471,0.8722573131570512,,-0.6686110440517353,-0.5506617448637044,0.14974482822000001,2.1377889738247258,0.35785099288568856,0.6492989541186304,0.8755241944797366,,-0.06956664232292899,-0.09922196797587764,0.1150502548,-0.034016912529394594,,-3.3486634e-05,1.2516975e-06,-2.1457672e-06,1.0,9.052455e-06,7.4133277e-06,-9.059906e-06,1.0,8.34465e-07,-7.4096024e-06,-8.6426735e-07,1.0,690,2.115,0,0,0.0,False,1.0468400646981575,1.049418426957168
2.090839436999886,11:40:38.865463,11:40:20.729173,0,,0.006901171,0.011704281,0.0708645,-0.6357187,-0.16638023,-0.75377667,-0.48157293,0.8486472,0.21882711,0.60328203,0.50211096,-0.6196252,,0.15388511,-0.034189552,0.04610932,-0.62495387,-0.17840724,0.7600024,0.22275478,0.8923092,0.3926381,-0.74820656,0.41467473,-0.51791096,,0.08742797,1.3322519,0.46482787,0.9960438,0.0028895077,-0.088816725,-0.053864863,-0.775297,-0.62929577,-0.0706777,0.63159025,-0.7720741,,-0.04877495,0.24909118,-0.12537165,0.60638344,0.07939319,0.79119897,0.07443529,0.98496664,-0.1558849,-0.7916808,0.15341915,0.5913578,,0.044817097,0.4316188,-0.37378332,0.69237113,-0.018625826,-0.7213011,-0.32422486,0.8850268,-0.33407447,0.64459324,0.46516728,0.6067281,,0.8265332085967524,-0.35657402226869406,0.16341420627000003,0.6389252577973457,-0.24266642358342222,0.5033566850905471,0.8722573131570512,,-0.6686110440517353,-0.5506617448637044,0.14974482822000001,2.1377889738247258,0.35785099288568856,0.6492989541186304,0.8755241944797366,,-0.06956664232292899,-0.09922196797587764,0.1150502548,-0.034016912529394594,,-3.3486634e-05,1.2516975e-06,-2.1457672e-06,1.0,9.052455e-06,7.4133277e-06,-9.059906e-06,1.0,8.34465e-07,-7.4096024e-06,-8.6426735e-07,1.0,698,2.14,0,0,0.0,False,1.0475549973204097,1.0496115477602863
2.150807722000536,11:40:38.890024,11:40:20.729173,0,,0.006901171,0.011704281,0.0708645,-0.6357187,-0.16638023,-0.75377667,-0.48157293,0.8486472,0.21882711,0.60328203,0.50211096,-0.6196252,,0.15388511,-0.034189552,0.04610932,-0.62495387,-0.17840724,0.7600024,0.22275478,0.8923092,0.3926381,-0.74820656,0.41467473,-0.51791096,,0.08742797,1.3322519,0.46482787,0.9960438,0.0028895077,-0.088816725,-0.053864863,-0.775297,-0.62929577,-0.0706777,0.63159025,-0.7720741,,-0.04877495,0.24909118,-0.12537165,0.60638344,0.07939319,0.79119897,0.07443529,0.98496664,-0.1558849,-0.7916808,0.15341915,0.5913578,,0.044817097,0.4316188,-0.37378332,0.69237113,-0.018625826,-0.7213011,-0.32422486,0.8850268,-0.33407447,0.64459324,0.46516728,0.6067281,,0.8265332085967524,-0.35657402226869406,0.16341420627000003,0.6389252577973457,-0.24266642358342222,0.5033566850905471,0.8722573131570512,,-0.6686110440517353,-0.5506617448637044,0.14974482822000001,2.1377889738247258,0.35785099288568856,0.6492989541186304,0.8755241944797366,,-0.06956664232292899,-0.09922196797587764,0.1150502548,-0.034016912529394594,,-3.3486634e-05,1.2516975e-06,-2.1457672e-06,1.0,9.052455e-06,7.4133277e-06,-9.059906e-06,1.0,8.34465e-07,-7.4096024e-06,-8.6426735e-07,1.0,706,2.164,0,0,0.0,False,1.0473762641648467,1.0498529487641832
2.1753308110000944,11:40:38.924361,11:40:20.729173,0,,0.006901171,0.011704281,0.0708645,-0.6357187,-0.16638023,-0.75377667,-0.48157293,0.8486472,0.21882711,0.60328203,0.50211096,-0.6196252,,0.15388511,-0.034189552,0.04610932,-0.62495387,-0.17840724,0.7600024,0.22275478,0.8923092,0.3926381,-0.74820656,0.41467473,-0.51791096,,0.08742797,1.3322519,0.46482787,0.9960438,0.0028895077,-0.088816725,-0.053864863,-0.775297,-0.62929577,-0.0706777,0.63159025,-0.7720741,,-0.04877495,0.24909118,-0.12537165,0.60638344,0.07939319,0.79119897,0.07443529,0.98496664,-0.1558849,-0.7916808,0.15341915,0.5913578,,0.044817097,0.4316188,-0.37378332,0.69237113,-0.018625826,-0.7213011,-0.32422486,0.8850268,-0.33407447,0.64459324,0.46516728,0.6067281,,0.8265332085967524,-0.35657402226869406,0.16341420627000003,0.6389252577973457,-0.24266642358342222,0.5033566850905471,0.8722573131570512,,-0.6686110440517353,-0.5506617448637044,0.14974482822000001,2.1377889738247258,0.35785099288568856,0.6492989541186304,0.8755241944797366,,-0.06956664232292899,-0.09922196797587764,0.1150502548,-0.034016912529394594,,-3.3486634e-05,1.2516975e-06,-2.1457672e-06,1.0,9.052455e-06,7.4133277e-06,-9.059906e-06,1.0,8.34465e-07,-7.4096024e-06,-8.6426735e-07,1.0,714,2.189,0,0,0.0,False,1.0470187978537204,1.0499495091657423
2.2097000789999584,11:40:38.946353,11:40:20.729173,0,,0.006901171,0.011704281,0.0708645,-0.6357187,-0.16638023,-0.75377667,-0.48157293,0.8486472,0.21882711,0.60328203,0.50211096,-0.6196252,,0.1538853,-0.03418891,0.04610938,-0.6250163,-0.17856082,0.7599151,0.22256857,0.8923152,0.39273006,-0.74820995,0.41459578,-0.51796937,,0.08742797,1.3322519,0.46482787,0.9960438,0.0028895077,-0.088816725,-0.053864863,-0.775297,-0.62929577,-0.0706777,0.63159025,-0.7720741,,-0.04877495,0.24909118,-0.12537165,0.60638344,0.07939319,0.79119897,0.07443529,0.98496664,-0.1558849,-0.7916808,0.15341915,0.5913578,,0.044816796,0.43161917,-0.3737828,0.6924597,-0.01846453,-0.72122025,-0.32432362,0.88500065,-0.33404797,0.6444484,0.46522352,0.60683876,,0.8265332085967524,-0.35657402226869406,0.16341420627000003,0.6389252577973457,-0.24266642358342222,0.5033566850905471,0.8722573131570512,,-0.6686110440517353,-0.5506617448637044,0.14974482822000001,2.1375792838812413,0.35785099288568856,0.6492989541186304,0.8755241944797366,,-0.06956664232292899,-0.09922196797587764,0.1150502548,-0.034016912529394594,,-3.3486634e-05,1.2516975e-06,-2.1457672e-06,1.0,9.052455e-06,7.4133277e-06,-9.059906e-06,1.0,8.34465e-07,-7.4096024e-06,-8.6426735e-07,1.0,722,2.214,0,0,0.0,False,1.0470187978537204,1.0495632675595068
2.231670455999847,11:40:38.971777,11:40:20.936958,0,,0.006901171,0.011704281,0.0708645,-0.6357187,-0.16638023,-0.75377667,-0.48157293,0.8486472,0.21882711,0.60328203,0.50211096,-0.6196252,,0.15388472,-0.034188524,0.04610896,-0.62508404,-0.17871338,0.7598234,0.22237885,0.892322,0.392822,-0.74820966,0.4145153,-0.51803416,,0.08742797,1.3322519,0.46482787,0.9960438,0.0028895077,-0.088816725,-0.053864863,-0.775297,-0.62929577,-0.0706777,0.63159025,-0.7720741,,-0.04877495,0.24909118,-0.12537165,0.60638344,0.07939319,0.79119897,0.07443529,0.98496664,-0.1558849,-0.7916808,0.15341915,0.5913578,,0.04481738,0.4316192,-0.37378225,0.6925536,-0.018304147,-0.7211341,-0.32442048,0.8849736,-0.3340256,0.64429873,0.46528134,0.6069534,,0.8265332085967524,-0.35657402226869406,0.16341420627000003,0.6389252577973457,-0.24266642358342222,0.5033566850905471,0.8722573131570512,,-0.6686033213188611,-0.5506617448637044,0.14974482822000001,2.137369593937757,0.35785099288568856,0.6492989541186304,0.8755241944797366,,-0.06956664232292899,-0.09922196797587764,0.1150502548,-0.034016912529394594,,-3.3486634e-05,1.2516975e-06,-2.1457672e-06,1.0,9.052455e-06,7.4133277e-06,-9.059906e-06,1.0,8.34465e-07,-7.4096024e-06,-8.6426735e-07,1.0,734,2.251,0,0,0.0,False,1.0471975310092834,1.0499495091657423
2.257110243999705,11:40:39.003255,11:40:20.936958,0,,0.006901171,0.011704281,0.0708645,-0.6357187,-0.16638023,-0.75377667,-0.48157293,0.8486472,0.21882711,0.60328203,0.50211096,-0.6196252,,0.15388553,-0.0341883,0.04610938,-0.6250785,-0.17871441,0.75982773,0.2223823,0.89232117,0.39282206,-0.7482133,0.41451672,-0.51802784,,0.08742797,1.3322519,0.46482787,0.9960438,0.0028895077,-0.088816725,-0.053864863,-0.775297,-0.62929577,-0.0706777,0.63159025,-0.7720741,,-0.04877495,0.24909118,-0.12537165,0.60638344,0.07939319,0.79119897,0.07443529,0.98496664,-0.1558849,-0.7916808,0.15341915,0.5913578,,0.044816494,0.4316195,-0.37378234,0.6925482,-0.018303227,-0.7211394,-0.32442242,0.8849744,-0.3340215,0.64430356,0.46527976,0.6069495,,0.8265332085967524,-0.35657402226869406,0.16341420627000003,0.6389252577973457,-0.24266642358342222,0.5033566850905471,0.8722573131570512,,-0.6686110440517353,-0.5506617448637044,0.14974482822000001,2.137369593937757,0.35785099288568856,0.6492989541186304,0.8755241944797366,,-0.06956664232292899,-0.09922196797587764,0.1150502548,-0.034016912529394594,,-3.3486634e-05,1.2516975e-06,-2.1457672e-06,1.0,9.052455e-06,7.4133277e-06,-9.059906e-06,1.0,8.34465e-07,-7.4096024e-06,-8.6426735e-07,1.0,759,2.328,0,0,0.0,False,1.0466017538240733,1.0500943497680806
2.288573666999582,11:40:39.072987,11:40:20.936958,0,,0.006901171,0.011704281,0.0708645,-0.6357187,-0.16638023,-0.75377667,-0.48157293,0.8486472,0.21882711,0.60328203,0.50211096,-0.6196252,,0.15388553,-0.0341883,0.04610938,-0.6250785,-0.17871441,0.75982773,0.2223823,0.89232117,0.39282206,-0.7482133,0.41451672,-0.51802784,,0.08742797,1.3322519,0.46482787,0.9960438,0.0028895077,-0.088816725,-0.053864863,-0.775297,-0.62929577,-0.0706777,0.63159025,-0.7720741,,-0.04877495,0.24909118,-0.12537165,0.60638344,0.07939319,0.79119897,0.07443529,0.98496664,-0.1558849,-0.7916808,0.15341915,0.5913578,,0.044816494,0.4316195,-0.37378234,0.6925482,-0.018303227,-0.7211394,-0.32442242,0.8849744,-0.3340215,0.64430356,0.46527976,0.6069495,,0.8265332085967524,-0.35657402226869406,0.16341420627000003,0.6389252577973457,-0.24266642358342222,0.5033566850905471,0.8722573131570512,,-0.6686110440517353,-0.5506617448637044,0.14974482822000001,2.137369593937757,0.35785099288568856,0.6492989541186304,0.8755241944797366,,-0.06956664232292899,-0.09922196797587764,0.1150502548,-0.034016912529394594,,-3.3486634e-05,1.2516975e-06,-2.1457672e-06,1.0,9.052455e-06,7.4133277e-06,-9.059906e-06,1.0,8.34465e-07,-7.4096024e-06,-8.6426735e-07,1.0,767,2.353,0,0,0.0,False,1.0467804869796362,1.0502874705711984
