AlexandreBanks6/ExpertPlaybackApp/resources/Motions/PC1/Data_PC1_37.csv
Task Time,PC1 Time,PC2 Time,Gaze Calib,s_T_psm1,Tx,Ty,Tz,R00,R01,R02,R10,R11,R12,R20,R21,R22,s_T_psm3,Tx,Ty,Tz,R00,R01,R02,R10,R11,R12,R20,R21,R22,cart_T_ecm,Tx,Ty,Tz,R00,R01,R02,R10,R11,R12,R20,R21,R22,ecm_T_psm1,Tx,Ty,Tz,R00,R01,R02,R10,R11,R12,R20,R21,R22,ecm_T_psm3,Tx,Ty,Tz,R00,R01,R02,R10,R11,R12,R20,R21,R22,psm1_joints,q1,q2,q3,q4,q5,q6,jaw,psm3_joints,q1,q2,q3,q4,q5,q6,jaw,ecm_joints,q1,q2,q3,q4,ecmi_T_ecm,Tx,Ty,Tz,R00,R01,R02,R10,R11,R12,R20,R21,R22,Sample #,Task Duration (s),Collisions (binary),Collisions (increments),Cumulative Collision Time (s),Clutch Press,MTMR Angle,MTML Angle
""
lci_T_si,,,,,-0.06911255,0.020764593,0.26076955,0.9953428,0.0400677,0.08767717,0.08684432,-0.7674894,-0.63515204,0.041842222,0.6398083,-0.76739466
rci_T_si,,,,,-0.07835912,0.026536781,0.2722765,0.9955334,0.015615062,0.093109466,0.07183176,-0.76526916,-0.63969004,0.061265003,0.643521,-0.76297265
ecm_T_lc,,,,,-4.4061628e-05,-0.00034663224,-0.01840835,-0.99912,0.030754527,0.028518902,-0.031987965,-0.99852574,-0.043852776,0.027128186,-0.04472645,0.9986309
ecm_T_rc,,,,,-0.0043358393,0.01870579,-0.007592615,-0.99555075,-0.052743673,-0.078081585,0.04863213,-0.9973746,0.053654674,-0.08070653,0.04961868,0.9955021
cart_T_ecmi,,,,,0.08746113,1.3322496,0.46482307,0.99604315,0.0028804142,-0.08882411,-0.053876545,-0.77529705,-0.6292947,-0.0706777,0.63159025,-0.7720741
ecmac_T_ecmrep_psm1,,,,,0.08626859,-0.2052861,-0.33370098,0.999004,0.025128257,0.036871605,-0.023534218,0.9987958,-0.04304718,-0.037908904,0.04213656,0.9983924
ecmac_T_ecmrep_psm3,,,,,-0.16209933,-0.49188918,-0.56672233,0.99379694,-0.09876928,0.05111077,0.087427974,0.9779163,0.18983154,-0.068731576,-0.18418549,0.98048544
""
0,11:40:46.154062,NaN,0,,0.0069486005,0.01166933,0.07086815,-0.63547015,-0.16648309,-0.7539634,-0.48195642,0.84841776,0.21887219,0.60323757,0.5024643,-0.6193818,,0.15376794,-0.03424967,0.04609424,-0.62510663,-0.17859237,0.7598333,0.2224341,0.8923475,0.39273286,-0.7481743,0.41451266,-0.5180872,,0.08742451,1.3322521,0.4648329,0.99604446,0.0028986246,-0.08880933,-0.05385315,-0.775297,-0.6292968,-0.0706777,0.63159025,-0.7720741,,-0.048818175,0.24905907,-0.12539168,0.6061649,0.07946742,0.791359,0.07409619,0.98502594,-0.15567142,-0.79188,0.15299922,0.5911999,,0.044945374,0.43159407,-0.3738148,0.6925604,-0.018437224,-0.72112423,-0.32434994,0.8849606,-0.33412847,0.6443269,0.46530077,0.60690856,,0.8265332085967524,-0.35657402226869406,0.16341420627000003,0.6385058779103767,-0.24266642358342222,0.5036834000511095,0.8722573131570512,,-0.6686110440517353,-0.5506617448637044,0.14974482822000001,2.137369593937757,0.35785099288568856,0.6492989541186304,0.8755241944797366,,-0.06956664232292899,-0.09922196797587764,0.1150502548,-0.034016912529394594,,-3.730133e-05,4.172325e-06,-5.9604645e-06,1.0,1.8134713e-05,1.4837831e-05,-1.8134713e-05,1.0,1.66893e-06,-1.4837831e-05,-1.66893e-06,0.99999994,1,0.003,0,0,0.0,False,1.0466017538240733,1.0502874705711984
0.020228028999554226,11:40:46.179396,NaN,0,,0.0069486005,0.01166933,0.07086815,-0.63547015,-0.16648309,-0.7539634,-0.48195642,0.84841776,0.21887219,0.60323757,0.5024643,-0.6193818,,0.15376794,-0.03424967,0.04609424,-0.62510663,-0.17859237,0.7598333,0.2224341,0.8923475,0.39273286,-0.7481743,0.41451266,-0.5180872,,0.08742451,1.3322521,0.4648329,0.99604446,0.0028986246,-0.08880933,-0.05385315,-0.775297,-0.6292968,-0.0706777,0.63159025,-0.7720741,,-0.048818175,0.24905907,-0.12539168,0.6061649,0.07946742,0.791359,0.07409619,0.98502594,-0.15567142,-0.79188,0.15299922,0.5911999,,0.044945374,0.43159407,-0.3738148,0.6925604,-0.018437224,-0.72112423,-0.32434994,0.8849606,-0.33412847,0.6443269,0.46530077,0.60690856,,0.8265332085967524,-0.35657402226869406,0.16341420627000003,0.6385058779103767,-0.24266642358342222,0.5036834000511095,0.8722573131570512,,-0.6686110440517353,-0.5506617448637044,0.14974482822000001,2.137369593937757,0.35785099288568856,0.6492989541186304,0.8755241944797366,,-0.06956664232292899,-0.09922196797587764,0.1150502548,-0.034016912529394594,,-3.730133e-05,4.172325e-06,-5.9604645e-06,1.0,1.8134713e-05,1.4837831e-05,-1.8134713e-05,1.0,1.66893e-06,-1.4837831e-05,-1.66893e-06,0.99999994,12,0.036,0,0,0.0,False,1.0472571087278046,1.050335750771978
0.04553773499901581,11:40:46.207410,11:40:28.204957,0,,0.006947632,0.011669762,0.07086857,-0.63546556,-0.16648024,-0.753968,-0.4819589,0.848416,0.2188737,0.6032404,0.5024682,-0.6193758,,0.15376794,-0.03424967,0.04609424,-0.62510663,-0.17859237,0.7598333,0.2224341,0.8923475,0.39273286,-0.7481743,0.41451266,-0.5180872,,0.08742451,1.3322521,0.4648329,0.99604446,0.0028986246,-0.08880933,-0.05385315,-0.775297,-0.6292968,-0.0706777,0.63159025,-0.7720741,,-0.048817266,0.24905974,-0.12539175,0.6061602,0.07946434,0.7913629,0.07409567,0.98502684,-0.15566608,-0.7918836,0.15299514,0.5911961,,0.044945374,0.43159407,-0.3738148,0.6925604,-0.018437224,-0.72112423,-0.32434994,0.8849606,-0.33412847,0.6443269,0.46530077,0.60690856,,0.8265332085967524,-0.35657402226869406,0.16341420627000003,0.6385058779103767,-0.24266642358342222,0.5036834000511095,0.8722573131570512,,-0.6686110440517353,-0.5506617448637044,0.14974482822000001,2.137369593937757,0.35785099288568856,0.6492989541186304,0.8755241944797366,,-0.06956664232292899,-0.09922196797587764,0.1150502548,-0.034016912529394594,,-3.730133e-05,4.172325e-06,-5.9604645e-06,1.0,1.8134713e-05,1.4837831e-05,-1.8134713e-05,1.0,1.66893e-06,-1.4837831e-05,-1.66893e-06,0.99999994,20,0.06,0,0,0.0,False,1.0470783755722417,1.0505771517758753
0.07351529299921822,11:40:46.237837,11:40:28.204957,0,,0.0069486005,0.01166933,0.07086815,-0.63547015,-0.16648309,-0.7539634,-0.48195642,0.84841776,0.21887219,0.60323757,0.5024643,-0.6193818,,0.15376794,-0.03424967,0.04609424,-0.62510663,-0.17859237,0.7598333,0.2224341,0.8923475,0.39273286,-0.7481743,0.41451266,-0.5180872,,0.08742451,1.3322521,0.4648329,0.99604446,0.0028986246,-0.08880933,-0.05385315,-0.775297,-0.6292968,-0.0706777,0.63159025,-0.7720741,,-0.048818175,0.24905907,-0.12539168,0.6061649,0.07946742,0.791359,0.07409619,0.98502594,-0.15567142,-0.79188,0.15299922,0.5911999,,0.044945374,0.43159407,-0.3738148,0.6925604,-0.018437224,-0.72112423,-0.32434994,0.8849606,-0.33412847,0.6443269,0.46530077,0.60690856,,0.8265332085967524,-0.35657402226869406,0.16341420627000003,0.6385058779103767,-0.24266642358342222,0.5036834000511095,0.8722573131570512,,-0.6686110440517353,-0.5506617448637044,0.14974482822000001,2.137369593937757,0.35785099288568856,0.6492989541186304,0.8755241944797366,,-0.06956664232292899,-0.09922196797587764,0.1150502548,-0.034016912529394594,,-3.730133e-05,4.172325e-06,-5.9604645e-06,1.0,1.8134713e-05,1.4837831e-05,-1.8134713e-05,1.0,1.66893e-06,-1.4837831e-05,-1.66893e-06,0.99999994,31,0.093,0,0,0.0,False,1.04642302066851,1.0500943497680806
0.10400438499891607,11:40:46.272394,11:40:28.204957,0,,0.0068837143,0.011701956,0.07086167,-0.63551724,-0.16642247,-0.7539372,-0.48190957,0.8484279,0.21893638,0.6032255,0.50246745,-0.6193912,,0.15379226,-0.034246128,0.04608643,-0.6251358,-0.17861927,0.75980294,0.2223993,0.89234453,0.39275932,-0.74816036,0.41450745,-0.5181116,,0.08742201,1.3322518,0.46482912,0.9960451,0.0029083614,-0.08880142,-0.05384064,-0.7752969,-0.6292979,-0.0706777,0.63159025,-0.7720741,,-0.048753962,0.24908778,-0.12537147,0.6062159,0.079395555,0.7913272,0.07413538,0.9850306,-0.1556235,-0.7918373,0.15300676,0.5912551,,0.04492322,0.43158785,-0.37381053,0.6925899,-0.018421987,-0.72109634,-0.32434717,0.8849598,-0.33413327,0.6442967,0.46530285,0.6069391,,0.8265332085967524,-0.35657402226869406,0.16341420627000003,0.6385058779103767,-0.24266642358342222,0.5036834000511095,0.8722573131570512,,-0.6686110440517353,-0.5506617448637044,0.14974482822000001,2.137369593937757,0.35785099288568856,0.6492989541186304,0.8755241944797366,,-0.06956664232292899,-0.09922196797587764,0.1150502548,-0.034016912529394594,,-3.9499253e-05,2.026558e-06,-2.503395e-06,1.0,2.7827919e-05,2.27727e-05,-2.783537e-05,1.0,2.5331974e-06,-2.2768974e-05,-2.5629997e-06,1.0,42,0.126,0,0,0.0,False,1.0467209092611154,1.0507219923782136
0.13853081200068118,11:40:46.304303,11:40:28.204957,0,,0.0068837143,0.011701956,0.07086167,-0.63551724,-0.16642247,-0.7539372,-0.48190957,0.8484279,0.21893638,0.6032255,0.50246745,-0.6193912,,0.15379226,-0.034246128,0.04608643,-0.6251358,-0.17861927,0.75980294,0.2223993,0.89234453,0.39275932,-0.74816036,0.41450745,-0.5181116,,0.08742201,1.3322518,0.46482912,0.9960451,0.0029083614,-0.08880142,-0.05384064,-0.7752969,-0.6292979,-0.0706777,0.63159025,-0.7720741,,-0.048753962,0.24908778,-0.12537147,0.6062159,0.079395555,0.7913272,0.07413538,0.9850306,-0.1556235,-0.7918373,0.15300676,0.5912551,,0.04492322,0.43158785,-0.37381053,0.6925899,-0.018421987,-0.72109634,-0.32434717,0.8849598,-0.33413327,0.6442967,0.46530285,0.6069391,,0.8265332085967524,-0.35657402226869406,0.16341420627000003,0.6385058779103767,-0.24266642358342222,0.5036834000511095,0.8722573131570512,,-0.6686110440517353,-0.5506617448637044,0.14974482822000001,2.137369593937757,0.35785099288568856,0.6492989541186304,0.8755241944797366,,-0.06956664232292899,-0.09922196797587764,0.1150502548,-0.034016912529394594,,-3.9499253e-05,2.026558e-06,-2.503395e-06,1.0,2.7827919e-05,2.27727e-05,-2.783537e-05,1.0,2.5331974e-06,-2.2768974e-05,-2.5629997e-06,1.0,50,0.15,0,0,0.0,False,1.0469592201351996,1.0505771517758753
0.17046948600000178,11:40:46.329924,11:40:28.204957,0,,0.0068837143,0.011701956,0.07086167,-0.63551724,-0.16642247,-0.7539372,-0.48190957,0.8484279,0.21893638,0.6032255,0.50246745,-0.6193912,,0.15379226,-0.034246128,0.04608643,-0.6251358,-0.17861927,0.75980294,0.2223993,0.89234453,0.39275932,-0.74816036,0.41450745,-0.5181116,,0.08742201,1.3322518,0.46482912,0.9960451,0.0029083614,-0.08880142,-0.05384064,-0.7752969,-0.6292979,-0.0706777,0.63159025,-0.7720741,,-0.048753962,0.24908778,-0.12537147,0.6062159,0.079395555,0.7913272,0.07413538,0.9850306,-0.1556235,-0.7918373,0.15300676,0.5912551,,0.04492322,0.43158785,-0.37381053,0.6925899,-0.018421987,-0.72109634,-0.32434717,0.8849598,-0.33413327,0.6442967,0.46530285,0.6069391,,0.8265332085967524,-0.35657402226869406,0.16341420627000003,0.6385058779103767,-0.24266642358342222,0.5036834000511095,0.8722573131570512,,-0.6686110440517353,-0.5506617448637044,0.14974482822000001,2.137369593937757,0.35785099288568856,0.6492989541186304,0.8755241944797366,,-0.06956664232292899,-0.09922196797587764,0.1150502548,-0.034016912529394594,,-3.9499253e-05,2.026558e-06,-2.503395e-06,1.0,2.7827919e-05,2.27727e-05,-2.783537e-05,1.0,2.5331974e-06,-2.2768974e-05,-2.5629997e-06,1.0,58,0.174,0,0,0.0,False,1.0467209092611154,1.049804668563404
0.19607379300032335,11:40:46.359302,11:40:28.338547,0,,0.0068827495,0.0117023885,0.070862055,-0.63551265,-0.16641961,-0.75394166,-0.481912,0.8484261,0.2189379,0.60322833,0.50247145,-0.61938524,,0.15379226,-0.034246128,0.04608643,-0.6251358,-0.17861927,0.75980294,0.2223993,0.89234453,0.39275932,-0.74816036,0.41450745,-0.5181116,,0.08742201,1.3322518,0.46482912,0.9960451,0.0029083614,-0.08880142,-0.05384064,-0.7752969,-0.6292979,-0.0706777,0.63159025,-0.7720741,,-0.048753057,0.24908845,-0.12537155,0.60621125,0.07939247,0.791331,0.07413486,0.9850315,-0.15561815,-0.79184085,0.15300268,0.5912514,,0.04492322,0.43158785,-0.37381053,0.6925899,-0.018421987,-0.72109634,-0.32434717,0.8849598,-0.33413327,0.6442967,0.46530285,0.6069391,,0.8265409313296266,-0.35657402226869406,0.16341420627000003,0.6385058779103767,-0.24266642358342222,0.5036834000511095,0.8722573131570512,,-0.6686110440517353,-0.5506617448637044,0.14974482822000001,2.137369593937757,0.35785099288568856,0.6492989541186304,0.8755241944797366,,-0.06956664232292899,-0.09922196797587764,0.1150502548,-0.034016912529394594,,-3.9499253e-05,2.026558e-06,-2.503395e-06,1.0,2.7827919e-05,2.27727e-05,-2.783537e-05,1.0,2.5331974e-06,-2.2768974e-05,-2.5629997e-06,1.0,69,0.208,0,0,0.0,False,1.0468400646981575,1.0502391903704191
0.2254064249991643,11:40:46.385924,11:40:28.338547,0,,0.0068837143,0.011701956,0.07086167,-0.63551724,-0.16642247,-0.7539372,-0.48190957,0.8484279,0.21893638,0.6032255,0.50246745,-0.6193912,,0.15379226,-0.034246128,0.04608643,-0.6251358,-0.17861927,0.75980294,0.2223993,0.89234453,0.39275932,-0.74816036,0.41450745,-0.5181116,,0.08742201,1.3322518,0.46482912,0.9960451,0.0029083614,-0.08880142,-0.05384064,-0.7752969,-0.6292979,-0.0706777,0.63159025,-0.7720741,,-0.048753962,0.24908778,-0.12537147,0.6062159,0.079395555,0.7913272,0.07413538,0.9850306,-0.1556235,-0.7918373,0.15300676,0.5912551,,0.04492322,0.43158785,-0.37381053,0.6925899,-0.018421987,-0.72109634,-0.32434717,0.8849598,-0.33413327,0.6442967,0.46530285,0.6069391,,0.8265332085967524,-0.35657402226869406,0.16341420627000003,0.6385058779103767,-0.24266642358342222,0.5036834000511095,0.8722573131570512,,-0.6686110440517353,-0.5506617448637044,0.14974482822000001,2.137369593937757,0.35785099288568856,0.6492989541186304,0.8755241944797366,,-0.06956664232292899,-0.09922196797587764,0.1150502548,-0.034016912529394594,,-3.9499253e-05,2.026558e-06,-2.503395e-06,1.0,2.7827919e-05,2.27727e-05,-2.783537e-05,1.0,2.5331974e-06,-2.2768974e-05,-2.5629997e-06,1.0,77,0.233,0,0,0.0,False,1.0467209092611154,1.0500943497680806
0.2520891969998047,11:40:46.412120,11:40:28.338547,0,,0.0068837143,0.011701956,0.07086167,-0.63551724,-0.16642247,-0.7539372,-0.48190957,0.8484279,0.21893638,0.6032255,0.50246745,-0.6193912,,0.15379226,-0.034246128,0.04608643,-0.6251358,-0.17861927,0.75980294,0.2223993,0.89234453,0.39275932,-0.74816036,0.41450745,-0.5181116,,0.08742201,1.3322518,0.46482912,0.9960451,0.0029083614,-0.08880142,-0.05384064,-0.7752969,-0.6292979,-0.0706777,0.63159025,-0.7720741,,-0.048753962,0.24908778,-0.12537147,0.6062159,0.079395555,0.7913272,0.07413538,0.9850306,-0.1556235,-0.7918373,0.15300676,0.5912551,,0.04492322,0.43158785,-0.37381053,0.6925899,-0.018421987,-0.72109634,-0.32434717,0.8849598,-0.33413327,0.6442967,0.46530285,0.6069391,,0.8265332085967524,-0.35657402226869406,0.16341420627000003,0.6385058779103767,-0.24266642358342222,0.5036834000511095,0.8722573131570512,,-0.6686110440517353,-0.5506617448637044,0.14974482822000001,2.137369593937757,0.35785099288568856,0.6492989541186304,0.8755241944797366,,-0.06956664232292899,-0.09922196797587764,0.1150502548,-0.034016912529394594,,-3.9499253e-05,2.026558e-06,-2.503395e-06,1.0,2.7827919e-05,2.27727e-05,-2.783537e-05,1.0,2.5331974e-06,-2.2768974e-05,-2.5629997e-06,1.0,89,0.269,0,0,0.0,False,1.0468400646981575,1.0499012289649627
0.27828739200049313,11:40:46.448860,11:40:28.338547,0,,0.0068837143,0.011701956,0.07086167,-0.63551724,-0.16642247,-0.7539372,-0.48190957,0.8484279,0.21893638,0.6032255,0.50246745,-0.6193912,,0.15379226,-0.034246128,0.04608643,-0.6251358,-0.17861927,0.75980294,0.2223993,0.89234453,0.39275932,-0.74816036,0.41450745,-0.5181116,,0.08742201,1.3322518,0.46482912,0.9960451,0.0029083614,-0.08880142,-0.05384064,-0.7752969,-0.6292979,-0.0706777,0.63159025,-0.7720741,,-0.048753962,0.24908778,-0.12537147,0.6062159,0.079395555,0.7913272,0.07413538,0.9850306,-0.1556235,-0.7918373,0.15300676,0.5912551,,0.04492322,0.43158785,-0.37381053,0.6925899,-0.018421987,-0.72109634,-0.32434717,0.8849598,-0.33413327,0.6442967,0.46530285,0.6069391,,0.8265332085967524,-0.35657402226869406,0.16341420627000003,0.6385058779103767,-0.24266642358342222,0.5036834000511095,0.8722573131570512,,-0.6686110440517353,-0.5506617448637044,0.14974482822000001,2.137369593937757,0.35785099288568856,0.6492989541186304,0.8755241944797366,,-0.06956664232292899,-0.09922196797587764,0.1150502548,-0.034016912529394594,,-3.9499253e-05,2.026558e-06,-2.503395e-06,1.0,2.7827919e-05,2.27727e-05,-2.783537e-05,1.0,2.5331974e-06,-2.2768974e-05,-2.5629997e-06,1.0,96,0.29,0,0,0.0,False,1.0466613315425946,1.050046069567301
0.3150191269996867,11:40:46.469391,11:40:28.338547,0,,0.0068837143,0.011701956,0.07086167,-0.63551724,-0.16642247,-0.7539372,-0.48190957,0.8484279,0.21893638,0.6032255,0.50246745,-0.6193912,,0.15379226,-0.034246128,0.04608643,-0.6251358,-0.17861927,0.75980294,0.2223993,0.89234453,0.39275932,-0.74816036,0.41450745,-0.5181116,,0.08742201,1.3322518,0.46482912,0.9960451,0.0029083614,-0.08880142,-0.05384064,-0.7752969,-0.6292979,-0.0706777,0.63159025,-0.7720741,,-0.048753962,0.24908778,-0.12537147,0.6062159,0.079395555,0.7913272,0.07413538,0.9850306,-0.1556235,-0.7918373,0.15300676,0.5912551,,0.04492322,0.43158785,-0.37381053,0.6925899,-0.018421987,-0.72109634,-0.32434717,0.8849598,-0.33413327,0.6442967,0.46530285,0.6069391,,0.8265332085967524,-0.35657402226869406,0.16341420627000003,0.6385058779103767,-0.24266642358342222,0.5036834000511095,0.8722573131570512,,-0.6686110440517353,-0.5506617448637044,0.14974482822000001,2.137369593937757,0.35785099288568856,0.6492989541186304,0.8755241944797366,,-0.06956664232292899,-0.09922196797587764,0.1150502548,-0.034016912529394594,,-3.9499253e-05,2.026558e-06,-2.503395e-06,1.0,2.7827919e-05,2.27727e-05,-2.783537e-05,1.0,2.5331974e-06,-2.2768974e-05,-2.5629997e-06,1.0,104,0.315,0,0,0.0,False,1.0468400646981575,1.0496115477602863
0.3355490190006094,11:40:46.491670,11:40:28.338547,0,,0.0068837143,0.011701956,0.07086167,-0.63551724,-0.16642247,-0.7539372,-0.48190957,0.8484279,0.21893638,0.6032255,0.50246745,-0.6193912,,0.15379226,-0.034246128,0.04608643,-0.6251358,-0.17861927,0.75980294,0.2223993,0.89234453,0.39275932,-0.74816036,0.41450745,-0.5181116,,0.08742201,1.3322518,0.46482912,0.9960451,0.0029083614,-0.08880142,-0.05384064,-0.7752969,-0.6292979,-0.0706777,0.63159025,-0.7720741,,-0.048753962,0.24908778,-0.12537147,0.6062159,0.079395555,0.7913272,0.07413538,0.9850306,-0.1556235,-0.7918373,0.15300676,0.5912551,,0.04492322,0.43158785,-0.37381053,0.6925899,-0.018421987,-0.72109634,-0.32434717,0.8849598,-0.33413327,0.6442967,0.46530285,0.6069391,,0.8265332085967524,-0.35657402226869406,0.16341420627000003,0.6385058779103767,-0.24266642358342222,0.5036834000511095,0.8722573131570512,,-0.6686110440517353,-0.5506617448637044,0.14974482822000001,2.137369593937757,0.35785099288568856,0.6492989541186304,0.8755241944797366,,-0.06956664232292899,-0.09922196797587764,0.1150502548,-0.034016912529394594,,-3.9499253e-05,2.026558e-06,-2.503395e-06,1.0,2.7827919e-05,2.27727e-05,-2.783537e-05,1.0,2.5331974e-06,-2.2768974e-05,-2.5629997e-06,1.0,112,0.338,0,0,0.0,False,1.0470187978537204,1.049804668563404
0.3578281909994985,11:40:46.520111,11:40:28.338547,0,,0.0068837143,0.011701956,0.07086167,-0.63551724,-0.16642247,-0.7539372,-0.48190957,0.8484279,0.21893638,0.6032255,0.50246745,-0.6193912,,0.15379226,-0.034246128,0.04608643,-0.6251358,-0.17861927,0.75980294,0.2223993,0.89234453,0.39275932,-0.74816036,0.41450745,-0.5181116,,0.08742201,1.3322518,0.46482912,0.9960451,0.0029083614,-0.08880142,-0.05384064,-0.7752969,-0.6292979,-0.0706777,0.63159025,-0.7720741,,-0.048753962,0.24908778,-0.12537147,0.6062159,0.079395555,0.7913272,0.07413538,0.9850306,-0.1556235,-0.7918373,0.15300676,0.5912551,,0.04492322,0.43158785,-0.37381053,0.6925899,-0.018421987,-0.72109634,-0.32434717,0.8849598,-0.33413327,0.6442967,0.46530285,0.6069391,,0.8265332085967524,-0.35657402226869406,0.16341420627000003,0.6385058779103767,-0.24266642358342222,0.5036834000511095,0.8722573131570512,,-0.6686110440517353,-0.5506617448637044,0.14974482822000001,2.137369593937757,0.35785099288568856,0.6492989541186304,0.8755241944797366,,-0.06956664232292899,-0.09922196797587764,0.1150502548,-0.034016912529394594,,-3.9499253e-05,2.026558e-06,-2.503395e-06,1.0,2.7827919e-05,2.27727e-05,-2.783537e-05,1.0,2.5331974e-06,-2.2768974e-05,-2.5629997e-06,1.0,120,0.363,0,0,0.0,False,1.0464825983870312,1.0500943497680806
0.3862751830001798,11:40:46.550033,11:40:28.338547,0,,0.0068837143,0.011701956,0.07086167,-0.63551724,-0.16642247,-0.7539372,-0.48190957,0.8484279,0.21893638,0.6032255,0.50246745,-0.6193912,,0.15379226,-0.034246128,0.04608643,-0.6251358,-0.17861927,0.75980294,0.2223993,0.89234453,0.39275932,-0.74816036,0.41450745,-0.5181116,,0.08742201,1.3322518,0.46482912,0.9960451,0.0029083614,-0.08880142,-0.05384064,-0.7752969,-0.6292979,-0.0706777,0.63159025,-0.7720741,,-0.048753962,0.24908778,-0.12537147,0.6062159,0.079395555,0.7913272,0.07413538,0.9850306,-0.1556235,-0.7918373,0.15300676,0.5912551,,0.04492322,0.43158785,-0.37381053,0.6925899,-0.018421987,-0.72109634,-0.32434717,0.8849598,-0.33413327,0.6442967,0.46530285,0.6069391,,0.8265332085967524,-0.35657402226869406,0.16341420627000003,0.6385058779103767,-0.24266642358342222,0.5036834000511095,0.8722573131570512,,-0.6686110440517353,-0.5506617448637044,0.14974482822000001,2.137369593937757,0.35785099288568856,0.6492989541186304,0.8755241944797366,,-0.06956664232292899,-0.09922196797587764,0.1150502548,-0.034016912529394594,,-3.9499253e-05,2.026558e-06,-2.503395e-06,1.0,2.7827919e-05,2.27727e-05,-2.783537e-05,1.0,2.5331974e-06,-2.2768974e-05,-2.5629997e-06,1.0,143,0.433,0,0,0.0,False,1.04642302066851,1.0501909101696396
0.41619710399936594,11:40:46.611463,11:40:28.580360,0,,0.0068822857,0.011703171,0.070862204,-0.63572,-0.16611703,-0.75383353,-0.48156646,0.84857583,0.21911806,0.60328573,0.5023188,-0.61945313,,0.15379226,-0.034246128,0.04608643,-0.6251358,-0.17861927,0.75980294,0.2223993,0.89234453,0.39275932,-0.74816036,0.41450745,-0.5181116,,0.08742201,1.3322518,0.46482912,0.9960451,0.0029083614,-0.08880142,-0.05384064,-0.7752969,-0.6292979,-0.0706777,0.63159025,-0.7720741,,-0.048752643,0.24908917,-0.12537116,0.60639495,0.07909656,0.7912199,0.07445549,0.9850207,-0.15553348,-0.7916701,0.15322538,0.5914224,,0.04492322,0.43158785,-0.37381053,0.6925899,-0.018421987,-0.72109634,-0.32434717,0.8849598,-0.33413327,0.6442967,0.46530285,0.6069391,,0.8265409313296266,-0.35657402226869406,0.16341420627000003,0.6389252577973457,-0.24266642358342222,0.5036834000511095,0.8722573131570512,,-0.6686110440517353,-0.5506617448637044,0.14974482822000001,2.137369593937757,0.35785099288568856,0.6492989541186304,0.8755241944797366,,-0.06956664232292899,-0.09922196797587764,0.1150502548,-0.034016912529394594,,-3.9499253e-05,2.026558e-06,-2.503395e-06,1.0,2.7827919e-05,2.27727e-05,-2.783537e-05,1.0,2.5331974e-06,-2.2768974e-05,-2.5629997e-06,1.0,151,0.458,0,0,0.0,False,1.0466613315425946,1.050335750771978
0.4776214739995339,11:40:46.633199,11:40:28.580360,0,,0.006883247,0.011702746,0.07086179,-0.6357246,-0.16611987,-0.753829,-0.48156402,0.8485776,0.21911657,0.6032829,0.50231475,-0.6194591,,0.15379146,-0.03424638,0.046086013,-0.6251413,-0.17861822,0.7597987,0.22239584,0.8923454,0.39275932,-0.7481568,0.41450596,-0.518118,,0.08742201,1.3322518,0.46482912,0.9960451,0.0029083614,-0.08880142,-0.05384064,-0.7752969,-0.6292979,-0.0706777,0.63159025,-0.7720741,,-0.04875355,0.2490885,-0.12537108,0.6063996,0.07909964,0.791216,0.07445601,0.9850198,-0.15553883,-0.7916665,0.15322946,0.59142613,,0.044924106,0.43158755,-0.37381047,0.69259524,-0.018422907,-0.72109115,-0.32434523,0.884959,-0.33413735,0.6442919,0.4653044,0.606943,,0.8265332085967524,-0.35657402226869406,0.16341420627000003,0.6389252577973457,-0.24266642358342222,0.5036834000511095,0.8722573131570512,,-0.6686033213188611,-0.5506617448637044,0.14974482822000001,2.137369593937757,0.35785099288568856,0.6492989541186304,0.8755241944797366,,-0.06956664232292899,-0.09922196797587764,0.1150502548,-0.034016912529394594,,-3.9499253e-05,2.026558e-06,-2.503395e-06,1.0,2.7827919e-05,2.27727e-05,-2.783537e-05,1.0,2.5331974e-06,-2.2768974e-05,-2.5629997e-06,1.0,159,0.482,0,0,0.0,False,1.04642302066851,1.049804668563404
0.4993679159997555,11:40:46.664836,11:40:28.580360,0,,0.006883247,0.011702746,0.07086179,-0.6357246,-0.16611987,-0.753829,-0.48156402,0.8485776,0.21911657,0.6032829,0.50231475,-0.6194591,,0.15379226,-0.034246128,0.04608643,-0.6251358,-0.17861927,0.75980294,0.2223993,0.89234453,0.39275932,-0.74816036,0.41450745,-0.5181116,,0.08742201,1.3322518,0.46482912,0.9960451,0.0029083614,-0.08880142,-0.05384064,-0.7752969,-0.6292979,-0.0706777,0.63159025,-0.7720741,,-0.04875355,0.2490885,-0.12537108,0.6063996,0.07909964,0.791216,0.07445601,0.9850198,-0.15553883,-0.7916665,0.15322946,0.59142613,,0.04492322,0.43158785,-0.37381053,0.6925899,-0.018421987,-0.72109634,-0.32434717,0.8849598,-0.33413327,0.6442967,0.46530285,0.6069391,,0.8265332085967524,-0.35657402226869406,0.16341420627000003,0.6389252577973457,-0.24266642358342222,0.5036834000511095,0.8722573131570512,,-0.6686110440517353,-0.5506617448637044,0.14974482822000001,2.137369593937757,0.35785099288568856,0.6492989541186304,0.8755241944797366,,-0.06956664232292899,-0.09922196797587764,0.1150502548,-0.034016912529394594,,-3.9499253e-05,2.026558e-06,-2.503395e-06,1.0,2.7827919e-05,2.27727e-05,-2.783537e-05,1.0,2.5331974e-06,-2.2768974e-05,-2.5629997e-06,1.0,171,0.518,0,0,0.0,False,1.0467209092611154,1.05014262996886
0.5309495290002815,11:40:46.695915,11:40:28.580360,0,,0.006883247,0.011702746,0.07086179,-0.6357246,-0.16611987,-0.753829,-0.48156402,0.8485776,0.21911657,0.6032829,0.50231475,-0.6194591,,0.15379146,-0.03424638,0.046086013,-0.6251413,-0.17861822,0.7597987,0.22239584,0.8923454,0.39275932,-0.7481568,0.41450596,-0.518118,,0.08742201,1.3322518,0.46482912,0.9960451,0.0029083614,-0.08880142,-0.05384064,-0.7752969,-0.6292979,-0.0706777,0.63159025,-0.7720741,,-0.04875355,0.2490885,-0.12537108,0.6063996,0.07909964,0.791216,0.07445601,0.9850198,-0.15553883,-0.7916665,0.15322946,0.59142613,,0.044924106,0.43158755,-0.37381047,0.69259524,-0.018422907,-0.72109115,-0.32434523,0.884959,-0.33413735,0.6442919,0.4653044,0.606943,,0.8265332085967524,-0.35657402226869406,0.16341420627000003,0.6389252577973457,-0.24266642358342222,0.5036834000511095,0.8722573131570512,,-0.6686033213188611,-0.5506617448637044,0.14974482822000001,2.137369593937757,0.35785099288568856,0.6492989541186304,0.8755241944797366,,-0.06956664232292899,-0.09922196797587764,0.1150502548,-0.034016912529394594,,-3.9499253e-05,2.026558e-06,-2.503395e-06,1.0,2.7827919e-05,2.27727e-05,-2.783537e-05,1.0,2.5331974e-06,-2.2768974e-05,-2.5629997e-06,1.0,186,0.565,0,0,0.0,False,1.0471379532907625,1.0499495091657423
0.5619730010002968,11:40:46.738592,11:40:28.580360,0,,0.0068822857,0.011703171,0.070862204,-0.63572,-0.16611703,-0.75383353,-0.48156646,0.84857583,0.21911806,0.60328573,0.5023188,-0.61945313,,0.15379226,-0.034246128,0.04608643,-0.6251358,-0.17861927,0.75980294,0.2223993,0.89234453,0.39275932,-0.74816036,0.41450745,-0.5181116,,0.08742201,1.3322518,0.46482912,0.9960451,0.0029083614,-0.08880142,-0.05384064,-0.7752969,-0.6292979,-0.0706777,0.63159025,-0.7720741,,-0.048752643,0.24908917,-0.12537116,0.60639495,0.07909656,0.7912199,0.07445549,0.9850207,-0.15553348,-0.7916701,0.15322538,0.5914224,,0.04492322,0.43158785,-0.37381053,0.6925899,-0.018421987,-0.72109634,-0.32434717,0.8849598,-0.33413327,0.6442967,0.46530285,0.6069391,,0.8265409313296266,-0.35657402226869406,0.16341420627000003,0.6389252577973457,-0.24266642358342222,0.5036834000511095,0.8722573131570512,,-0.6686110440517353,-0.5506617448637044,0.14974482822000001,2.137369593937757,0.35785099288568856,0.6492989541186304,0.8755241944797366,,-0.06956664232292899,-0.09922196797587764,0.1150502548,-0.034016912529394594,,-3.9499253e-05,2.026558e-06,-2.503395e-06,1.0,2.7827919e-05,2.27727e-05,-2.783537e-05,1.0,2.5331974e-06,-2.2768974e-05,-2.5629997e-06,1.0,194,0.589,0,0,0.0,False,1.0466017538240733,1.0496115477602863
0.6047587769990059,11:40:46.771450,11:40:28.760174,0,,0.006883247,0.011702746,0.07086179,-0.6357246,-0.16611987,-0.753829,-0.48156402,0.8485776,0.21911657,0.6032829,0.50231475,-0.6194591,,0.15379226,-0.034246128,0.04608643,-0.6251358,-0.17861927,0.75980294,0.2223993,0.89234453,0.39275932,-0.74816036,0.41450745,-0.5181116,,0.08742201,1.3322518,0.46482912,0.9960451,0.0029083614,-0.08880142,-0.05384064,-0.7752969,-0.6292979,-0.0706777,0.63159025,-0.7720741,,-0.04875355,0.2490885,-0.12537108,0.6063996,0.07909964,0.791216,0.07445601,0.9850198,-0.15553883,-0.7916665,0.15322946,0.59142613,,0.04492322,0.43158785,-0.37381053,0.6925899,-0.018421987,-0.72109634,-0.32434717,0.8849598,-0.33413327,0.6442967,0.46530285,0.6069391,,0.8265332085967524,-0.35657402226869406,0.16341420627000003,0.6389252577973457,-0.24266642358342222,0.5036834000511095,0.8722573131570512,,-0.6686110440517353,-0.5506617448637044,0.14974482822000001,2.137369593937757,0.35785099288568856,0.6492989541186304,0.8755241944797366,,-0.06956664232292899,-0.09922196797587764,0.1150502548,-0.034016912529394594,,-3.9499253e-05,2.026558e-06,-2.503395e-06,1.0,2.7827919e-05,2.27727e-05,-2.783537e-05,1.0,2.5331974e-06,-2.2768974e-05,-2.5629997e-06,1.0,202,0.613,0,0,0.0,False,1.04642302066851,1.049708108161845
0.6376179119997687,11:40:46.792531,11:40:28.760174,0,,0.006883247,0.011702746,0.07086179,-0.6357246,-0.16611987,-0.753829,-0.48156402,0.8485776,0.21911657,0.6032829,0.50231475,-0.6194591,,0.15379146,-0.03424638,0.046086013,-0.6251413,-0.17861822,0.7597987,0.22239584,0.8923454,0.39275932,-0.7481568,0.41450596,-0.518118,,0.08742201,1.3322518,0.46482912,0.9960451,0.0029083614,-0.08880142,-0.05384064,-0.7752969,-0.6292979,-0.0706777,0.63159025,-0.7720741,,-0.04875355,0.2490885,-0.12537108,0.6063996,0.07909964,0.791216,0.07445601,0.9850198,-0.15553883,-0.7916665,0.15322946,0.59142613,,0.044924106,0.43158755,-0.37381047,0.69259524,-0.018422907,-0.72109115,-0.32434523,0.884959,-0.33413735,0.6442919,0.4653044,0.606943,,0.8265332085967524,-0.35657402226869406,0.16341420627000003,0.6389252577973457,-0.24266642358342222,0.5036834000511095,0.8722573131570512,,-0.6686033213188611,-0.5506617448637044,0.14974482822000001,2.137369593937757,0.35785099288568856,0.6492989541186304,0.8755241944797366,,-0.06956664232292899,-0.09922196797587764,0.1150502548,-0.034016912529394594,,-3.9499253e-05,2.026558e-06,-2.503395e-06,1.0,2.7827919e-05,2.27727e-05,-2.783537e-05,1.0,2.5331974e-06,-2.2768974e-05,-2.5629997e-06,1.0,210,0.637,0,0,0.0,False,1.0464825983870312,1.0499977893665218
0.658583615999305,11:40:46.817590,11:40:28.760174,0,,0.0068822857,0.011703171,0.070862204,-0.63572,-0.16611703,-0.75383353,-0.48156646,0.84857583,0.21911806,0.60328573,0.5023188,-0.61945313,,0.15379226,-0.034246128,0.04608643,-0.6251358,-0.17861927,0.75980294,0.2223993,0.89234453,0.39275932,-0.74816036,0.41450745,-0.5181116,,0.08742201,1.3322518,0.46482912,0.9960451,0.0029083614,-0.08880142,-0.05384064,-0.7752969,-0.6292979,-0.0706777,0.63159025,-0.7720741,,-0.048752643,0.24908917,-0.12537116,0.60639495,0.07909656,0.7912199,0.07445549,0.9850207,-0.15553348,-0.7916701,0.15322538,0.5914224,,0.04492322,0.43158785,-0.37381053,0.6925899,-0.018421987,-0.72109634,-0.32434717,0.8849598,-0.33413327,0.6442967,0.46530285,0.6069391,,0.8265409313296266,-0.35657402226869406,0.16341420627000003,0.6389252577973457,-0.24266642358342222,0.5036834000511095,0.8722573131570512,,-0.6686110440517353,-0.5506617448637044,0.14974482822000001,2.137369593937757,0.35785099288568856,0.6492989541186304,0.8755241944797366,,-0.06956664232292899,-0.09922196797587764,0.1150502548,-0.034016912529394594,,-3.9499253e-05,2.026558e-06,-2.503395e-06,1.0,2.7827919e-05,2.27727e-05,-2.783537e-05,1.0,2.5331974e-06,-2.2768974e-05,-2.5629997e-06,1.0,218,0.662,0,0,0.0,False,1.0466613315425946,1.0498529487641832
0.6837472019997222,11:40:46.844918,11:40:28.760174,0,,0.0068822857,0.011703171,0.070862204,-0.63572,-0.1661786,-0.7538199,-0.48156646,0.84859365,0.21904877,0.60328573,0.50226814,-0.61949414,,0.15379146,-0.03424638,0.046086013,-0.6251413,-0.17861822,0.7597987,0.22239584,0.8923454,0.39275932,-0.7481568,0.41450596,-0.518118,,0.08742201,1.3322518,0.46482912,0.9960451,0.0029083614,-0.08880142,-0.05384064,-0.7752969,-0.6292979,-0.0706777,0.63159025,-0.7720741,,-0.048752643,0.24908917,-0.12537116,0.60639495,0.07916119,0.7912134,0.07445549,0.98500794,-0.15561393,-0.7916701,0.15327369,0.59140986,,0.044924106,0.43158755,-0.37381047,0.69259524,-0.018422907,-0.72109115,-0.32434523,0.884959,-0.33413735,0.6442919,0.4653044,0.606943,,0.8265409313296266,-0.35657402226869406,0.16341420627000003,0.6389252577973457,-0.24266642358342222,0.5036017213109689,0.8720939690909169,,-0.6686033213188611,-0.5506617448637044,0.14974482822000001,2.137369593937757,0.35785099288568856,0.6492989541186304,0.8755241944797366,,-0.06956664232292899,-0.09922196797587764,0.1150502548,-0.034016912529394594,,-3.9499253e-05,2.026558e-06,-2.503395e-06,1.0,2.7827919e-05,2.27727e-05,-2.783537e-05,1.0,2.5331974e-06,-2.2768974e-05,-2.5629997e-06,1.0,233,0.708,0,0,0.0,False,1.0466017538240733,1.0500943497680806
0.711056632000691,11:40:46.883075,11:40:28.760174,0,,0.0068822857,0.011703171,0.070862204,-0.63572,-0.16624019,-0.7538064,-0.48156646,0.8486116,0.21897945,0.60328573,0.50221753,-0.6195352,,0.15379226,-0.034246128,0.04608643,-0.6251358,-0.17861927,0.75980294,0.2223993,0.89234453,0.39275932,-0.74816036,0.41450745,-0.5181116,,0.08742201,1.3322518,0.46482912,0.9960451,0.0029083614,-0.08880142,-0.05384064,-0.7752969,-0.6292979,-0.0706777,0.63159025,-0.7720741,,-0.048752643,0.24908917,-0.12537116,0.60639495,0.07922581,0.79120696,0.07445549,0.98499525,-0.15569438,-0.7916701,0.153322,0.59139735,,0.04492322,0.43158785,-0.37381053,0.6925899,-0.018421987,-0.72109634,-0.32434717,0.8849598,-0.33413327,0.6442967,0.46530285,0.6069391,,0.8265409313296266,-0.35657402226869406,0.16341420627000003,0.6389252577973457,-0.24266642358342222,0.5035200425708283,0.8719306250247827,,-0.6686110440517353,-0.5506617448637044,0.14974482822000001,2.137369593937757,0.35785099288568856,0.6492989541186304,0.8755241944797366,,-0.06956664232292899,-0.09922196797587764,0.1150502548,-0.034016912529394594,,-3.9499253e-05,2.026558e-06,-2.503395e-06,1.0,2.7827919e-05,2.27727e-05,-2.783537e-05,1.0,2.5331974e-06,-2.2768974e-05,-2.5629997e-06,1.0,241,0.733,0,0,0.0,False,1.0465421761055524,1.0499977893665218
0.7492268839996541,11:40:46.907399,11:40:28.760174,0,,0.006883247,0.011702746,0.07086179,-0.6357246,-0.16624303,-0.7538019,-0.48156402,0.8486133,0.21897794,0.6032829,0.50221354,-0.6195411,,0.15379226,-0.034246128,0.04608643,-0.6251358,-0.17861927,0.75980294,0.2223993,0.89234453,0.39275932,-0.74816036,0.41450745,-0.5181116,,0.08742201,1.3322518,0.46482912,0.9960451,0.0029083614,-0.08880142,-0.05384064,-0.7752969,-0.6292979,-0.0706777,0.63159025,-0.7720741,,-0.04875355,0.2490885,-0.12537108,0.6063996,0.07922889,0.7912031,0.07445601,0.98499435,-0.15569973,-0.7916665,0.15332608,0.5914011,,0.04492322,0.43158785,-0.37381053,0.6925899,-0.018421987,-0.72109634,-0.32434717,0.8849598,-0.33413327,0.6442967,0.46530285,0.6069391,,0.8265332085967524,-0.35657402226869406,0.16341420627000003,0.6389252577973457,-0.24266642358342222,0.5035200425708283,0.8719306250247827,,-0.6686110440517353,-0.5506617448637044,0.14974482822000001,2.137369593937757,0.35785099288568856,0.6492989541186304,0.8755241944797366,,-0.06956664232292899,-0.09922196797587764,0.1150502548,-0.034016912529394594,,-3.9499253e-05,2.026558e-06,-2.503395e-06,1.0,2.7827919e-05,2.27727e-05,-2.783537e-05,1.0,2.5331974e-06,-2.2768974e-05,-2.5629997e-06,1.0,249,0.756,0,0,0.0,False,1.0466613315425946,1.0499012289649627
0.773528167999757,11:40:46.934829,11:40:28.915181,0,,0.006883247,0.011702746,0.07086179,-0.6357246,-0.16624303,-0.7538019,-0.48156402,0.8486133,0.21897794,0.6032829,0.50221354,-0.6195411,,0.15379146,-0.03424638,0.046086013,-0.6251413,-0.17861822,0.7597987,0.22239584,0.8923454,0.39275932,-0.7481568,0.41450596,-0.518118,,0.08742201,1.3322518,0.46482912,0.9960451,0.0029083614,-0.08880142,-0.05384064,-0.7752969,-0.6292979,-0.0706777,0.63159025,-0.7720741,,-0.04875355,0.2490885,-0.12537108,0.6063996,0.07922889,0.7912031,0.07445601,0.98499435,-0.15569973,-0.7916665,0.15332608,0.5914011,,0.044924106,0.43158755,-0.37381047,0.69259524,-0.018422907,-0.72109115,-0.32434523,0.884959,-0.33413735,0.6442919,0.4653044,0.606943,,0.8265332085967524,-0.35657402226869406,0.16341420627000003,0.6389252577973457,-0.24266642358342222,0.5035200425708283,0.8719306250247827,,-0.6686033213188611,-0.5506617448637044,0.14974482822000001,2.137369593937757,0.35785099288568856,0.6492989541186304,0.8755241944797366,,-0.06956664232292899,-0.09922196797587764,0.1150502548,-0.034016912529394594,,-3.9499253e-05,2.026558e-06,-2.503395e-06,1.0,2.7827919e-05,2.27727e-05,-2.783537e-05,1.0,2.5331974e-06,-2.2768974e-05,-2.5629997e-06,1.0,261,0.793,0,0,0.0,False,1.0463634429499895,1.0501909101696396
0.8009794859990507,11:40:46.966652,11:40:28.915181,0,,0.0068822857,0.011703171,0.070862204,-0.63572,-0.16624019,-0.7538064,-0.48156646,0.8486116,0.21897945,0.60328573,0.50221753,-0.6195352,,0.15379226,-0.034246128,0.04608643,-0.6251358,-0.17861927,0.75980294,0.2223993,0.89234453,0.39275932,-0.74816036,0.41450745,-0.5181116,,0.08742201,1.3322518,0.46482912,0.9960451,0.0029083614,-0.08880142,-0.05384064,-0.7752969,-0.6292979,-0.0706777,0.63159025,-0.7720741,,-0.048752643,0.24908917,-0.12537116,0.60639495,0.07922581,0.79120696,0.07445549,0.98499525,-0.15569438,-0.7916701,0.153322,0.59139735,,0.04492322,0.43158785,-0.37381053,0.6925899,-0.018421987,-0.72109634,-0.32434717,0.8849598,-0.33413327,0.6442967,0.46530285,0.6069391,,0.8265409313296266,-0.35657402226869406,0.16341420627000003,0.6389252577973457,-0.24266642358342222,0.5035200425708283,0.8719306250247827,,-0.6686110440517353,-0.5506617448637044,0.14974482822000001,2.137369593937757,0.35785099288568856,0.6492989541186304,0.8755241944797366,,-0.06956664232292899,-0.09922196797587764,0.1150502548,-0.034016912529394594,,-3.9499253e-05,2.026558e-06,-2.503395e-06,1.0,2.7827919e-05,2.27727e-05,-2.783537e-05,1.0,2.5331974e-06,-2.2768974e-05,-2.5629997e-06,1.0,276,0.839,0,0,0.0,False,1.0467209092611154,1.0501909101696396
0.8327643899992836,11:40:47.007767,11:40:28.915181,0,,0.006883247,0.011702746,0.07086179,-0.6357246,-0.16624303,-0.7538019,-0.48156402,0.8486133,0.21897794,0.6032829,0.50221354,-0.6195411,,0.15379226,-0.034246128,0.04608643,-0.6251358,-0.17861927,0.75980294,0.2223993,0.89234453,0.39275932,-0.74816036,0.41450745,-0.5181116,,0.08742201,1.3322518,0.46482912,0.9960451,0.0029083614,-0.08880142,-0.05384064,-0.7752969,-0.6292979,-0.0706777,0.63159025,-0.7720741,,-0.04875355,0.2490885,-0.12537108,0.6063996,0.07922889,0.7912031,0.07445601,0.98499435,-0.15569973,-0.7916665,0.15332608,0.5914011,,0.04492322,0.43158785,-0.37381053,0.6925899,-0.018421987,-0.72109634,-0.32434717,0.8849598,-0.33413327,0.6442967,0.46530285,0.6069391,,0.8265332085967524,-0.35657402226869406,0.16341420627000003,0.6389252577973457,-0.24266642358342222,0.5035200425708283,0.8719306250247827,,-0.6686110440517353,-0.5506617448637044,0.14974482822000001,2.137369593937757,0.35785099288568856,0.6492989541186304,0.8755241944797366,,-0.06956664232292899,-0.09922196797587764,0.1150502548,-0.034016912529394594,,-3.9499253e-05,2.026558e-06,-2.503395e-06,1.0,2.7827919e-05,2.27727e-05,-2.783537e-05,1.0,2.5331974e-06,-2.2768974e-05,-2.5629997e-06,1.0,284,0.864,0,0,0.0,False,1.0467209092611154,1.0501909101696396
0.8738636620000761,11:40:47.037398,11:40:28.915181,0,,0.006883247,0.011702746,0.07086179,-0.6357246,-0.16624303,-0.7538019,-0.48156402,0.8486133,0.21897794,0.6032829,0.50221354,-0.6195411,,0.15379226,-0.034246128,0.04608643,-0.6251358,-0.17861927,0.75980294,0.2223993,0.89234453,0.39275932,-0.74816036,0.41450745,-0.5181116,,0.08742201,1.3322518,0.46482912,0.9960451,0.0029083614,-0.08880142,-0.05384064,-0.7752969,-0.6292979,-0.0706777,0.63159025,-0.7720741,,-0.04875355,0.2490885,-0.12537108,0.6063996,0.07922889,0.7912031,0.07445601,0.98499435,-0.15569973,-0.7916665,0.15332608,0.5914011,,0.04492322,0.43158785,-0.37381053,0.6925899,-0.018421987,-0.72109634,-0.32434717,0.8849598,-0.33413327,0.6442967,0.46530285,0.6069391,,0.8265332085967524,-0.35657402226869406,0.16341420627000003,0.6389252577973457,-0.24266642358342222,0.5035200425708283,0.8719306250247827,,-0.6686110440517353,-0.5506617448637044,0.14974482822000001,2.137369593937757,0.35785099288568856,0.6492989541186304,0.8755241944797366,,-0.06956664232292899,-0.09922196797587764,0.1150502548,-0.034016912529394594,,-3.9499253e-05,2.026558e-06,-2.503395e-06,1.0,2.7827919e-05,2.27727e-05,-2.783537e-05,1.0,2.5331974e-06,-2.2768974e-05,-2.5629997e-06,1.0,292,0.887,0,0,0.0,False,1.0466017538240733,1.0502391903704191
0.9035280690004583,11:40:47.055872,11:40:28.915181,0,,0.006883247,0.011702746,0.07086179,-0.6357246,-0.16624303,-0.7538019,-0.48156402,0.8486133,0.21897794,0.6032829,0.50221354,-0.6195411,,0.15379226,-0.034246128,0.04608643,-0.6251358,-0.17861927,0.75980294,0.2223993,0.89234453,0.39275932,-0.74816036,0.41450745,-0.5181116,,0.08742201,1.3322518,0.46482912,0.9960451,0.0029083614,-0.08880142,-0.05384064,-0.7752969,-0.6292979,-0.0706777,0.63159025,-0.7720741,,-0.04875355,0.2490885,-0.12537108,0.6063996,0.07922889,0.7912031,0.07445601,0.98499435,-0.15569973,-0.7916665,0.15332608,0.5914011,,0.04492322,0.43158785,-0.37381053,0.6925899,-0.018421987,-0.72109634,-0.32434717,0.8849598,-0.33413327,0.6442967,0.46530285,0.6069391,,0.8265332085967524,-0.35657402226869406,0.16341420627000003,0.6389252577973457,-0.24266642358342222,0.5035200425708283,0.8719306250247827,,-0.6686110440517353,-0.5506617448637044,0.14974482822000001,2.137369593937757,0.35785099288568856,0.6492989541186304,0.8755241944797366,,-0.06956664232292899,-0.09922196797587764,0.1150502548,-0.034016912529394594,,-3.9499253e-05,2.026558e-06,-2.503395e-06,1.0,2.7827919e-05,2.27727e-05,-2.783537e-05,1.0,2.5331974e-06,-2.2768974e-05,-2.5629997e-06,1.0,296,0.899,0,0,0.0,False,1.046244287512947,1.0499495091657423
0.9220389830006752,11:40:47.085230,11:40:29.062581,0,,0.0068822857,0.011703171,0.070862204,-0.63572,-0.16624019,-0.7538064,-0.48156646,0.8486116,0.21897945,0.60328573,0.50221753,-0.6195352,,0.15379226,-0.034246128,0.04608643,-0.6251358,-0.17861927,0.75980294,0.2223993,0.89234453,0.39275932,-0.74816036,0.41450745,-0.5181116,,0.08742201,1.3322518,0.46482912,0.9960451,0.0029083614,-0.08880142,-0.05384064,-0.7752969,-0.6292979,-0.0706777,0.63159025,-0.7720741,,-0.048752643,0.24908917,-0.12537116,0.60639495,0.07922581,0.79120696,0.07445549,0.98499525,-0.15569438,-0.7916701,0.153322,0.59139735,,0.04492322,0.43158785,-0.37381053,0.6925899,-0.018421987,-0.72109634,-0.32434717,0.8849598,-0.33413327,0.6442967,0.46530285,0.6069391,,0.8265409313296266,-0.35657402226869406,0.16341420627000003,0.6389252577973457,-0.24266642358342222,0.5035200425708283,0.8719306250247827,,-0.6686110440517353,-0.5506617448637044,0.14974482822000001,2.137369593937757,0.35785099288568856,0.6492989541186304,0.8755241944797366,,-0.06956664232292899,-0.09922196797587764,0.1150502548,-0.034016912529394594,,-3.9499253e-05,2.026558e-06,-2.503395e-06,1.0,2.7827919e-05,2.27727e-05,-2.783537e-05,1.0,2.5331974e-06,-2.2768974e-05,-2.5629997e-06,1.0,308,0.936,0,0,0.0,False,1.046244287512947,1.0502391903704191
0.9513930319990322,11:40:47.115164,11:40:29.062581,0,,0.006883247,0.011702746,0.07086179,-0.6357246,-0.16624303,-0.7538019,-0.48156402,0.8486133,0.21897794,0.6032829,0.50221354,-0.6195411,,0.15379226,-0.034246128,0.04608643,-0.6251358,-0.17861927,0.75980294,0.2223993,0.89234453,0.39275932,-0.74816036,0.41450745,-0.5181116,,0.08742201,1.3322518,0.46482912,0.9960451,0.0029083614,-0.08880142,-0.05384064,-0.7752969,-0.6292979,-0.0706777,0.63159025,-0.7720741,,-0.04875355,0.2490885,-0.12537108,0.6063996,0.07922889,0.7912031,0.07445601,0.98499435,-0.15569973,-0.7916665,0.15332608,0.5914011,,0.04492322,0.43158785,-0.37381053,0.6925899,-0.018421987,-0.72109634,-0.32434717,0.8849598,-0.33413327,0.6442967,0.46530285,0.6069391,,0.8265332085967524,-0.35657402226869406,0.16341420627000003,0.6389252577973457,-0.24266642358342222,0.5035200425708283,0.8719306250247827,,-0.6686110440517353,-0.5506617448637044,0.14974482822000001,2.137369593937757,0.35785099288568856,0.6492989541186304,0.8755241944797366,,-0.06956664232292899,-0.09922196797587764,0.1150502548,-0.034016912529394594,,-3.9499253e-05,2.026558e-06,-2.503395e-06,1.0,2.7827919e-05,2.27727e-05,-2.783537e-05,1.0,2.5331974e-06,-2.2768974e-05,-2.5629997e-06,1.0,323,0.982,0,0,0.0,False,1.0461847097944261,1.049804668563404
0.9813294710002083,11:40:47.157423,11:40:29.062581,0,,0.006883247,0.011702746,0.07086179,-0.6357246,-0.16624303,-0.7538019,-0.48156402,0.8486133,0.21897794,0.6032829,0.50221354,-0.6195411,,0.15379226,-0.034246128,0.04608643,-0.6251358,-0.17861927,0.75980294,0.2223993,0.89234453,0.39275932,-0.74816036,0.41450745,-0.5181116,,0.08742201,1.3322518,0.46482912,0.9960451,0.0029083614,-0.08880142,-0.05384064,-0.7752969,-0.6292979,-0.0706777,0.63159025,-0.7720741,,-0.04875355,0.2490885,-0.12537108,0.6063996,0.07922889,0.7912031,0.07445601,0.98499435,-0.15569973,-0.7916665,0.15332608,0.5914011,,0.04492322,0.43158785,-0.37381053,0.6925899,-0.018421987,-0.72109634,-0.32434717,0.8849598,-0.33413327,0.6442967,0.46530285,0.6069391,,0.8265332085967524,-0.35657402226869406,0.16341420627000003,0.6389252577973457,-0.24266642358342222,0.5035200425708283,0.8719306250247827,,-0.6686110440517353,-0.5506617448637044,0.14974482822000001,2.137369593937757,0.35785099288568856,0.6492989541186304,0.8755241944797366,,-0.06956664232292899,-0.09922196797587764,0.1150502548,-0.034016912529394594,,-3.9499253e-05,2.026558e-06,-2.503395e-06,1.0,2.7827919e-05,2.27727e-05,-2.783537e-05,1.0,2.5331974e-06,-2.2768974e-05,-2.5629997e-06,1.0,352,1.071,0,0,0.0,False,1.0467209092611154,1.050046069567301
1.0235727010003757,11:40:47.238200,11:40:29.203618,0,,0.0068822857,0.011703171,0.070862204,-0.63572,-0.16624019,-0.7538064,-0.48156646,0.8486116,0.21897945,0.60328573,0.50221753,-0.6195352,,0.15379226,-0.034246128,0.04608643,-0.6251358,-0.17861927,0.75980294,0.2223993,0.89234453,0.39275932,-0.74816036,0.41450745,-0.5181116,,0.08742201,1.3322518,0.46482912,0.9960451,0.0029083614,-0.08880142,-0.05384064,-0.7752969,-0.6292979,-0.0706777,0.63159025,-0.7720741,,-0.048752643,0.24908917,-0.12537116,0.60639495,0.07922581,0.79120696,0.07445549,0.98499525,-0.15569438,-0.7916701,0.153322,0.59139735,,0.04492322,0.43158785,-0.37381053,0.6925899,-0.018421987,-0.72109634,-0.32434717,0.8849598,-0.33413327,0.6442967,0.46530285,0.6069391,,0.8265409313296266,-0.35657402226869406,0.16341420627000003,0.6389252577973457,-0.24266642358342222,0.5035200425708283,0.8719306250247827,,-0.6686110440517353,-0.5506617448637044,0.14974482822000001,2.137369593937757,0.35785099288568856,0.6492989541186304,0.8755241944797366,,-0.06956664232292899,-0.09922196797587764,0.1150502548,-0.034016912529394594,,-3.9499253e-05,2.026558e-06,-2.503395e-06,1.0,2.7827919e-05,2.27727e-05,-2.783537e-05,1.0,2.5331974e-06,-2.2768974e-05,-2.5629997e-06,1.0,360,1.096,0,0,0.0,False,1.0467804869796362,1.0500943497680806
1.104366833998938,11:40:47.269717,11:40:29.203618,0,,0.0068837143,0.011701956,0.07086167,-0.63551724,-0.16654564,-0.75390995,-0.48190957,0.84846365,0.2187978,0.6032255,0.50236624,-0.6194733,,0.15379205,-0.03424677,0.04608637,-0.62507343,-0.17846565,0.7598903,0.22258556,0.8923385,0.39266735,-0.748157,0.41458645,-0.5180532,,0.08742201,1.3322518,0.46482912,0.9960451,0.0029083614,-0.08880142,-0.05384064,-0.7752969,-0.6292979,-0.0706777,0.63159025,-0.7720741,,-0.048753962,0.24908778,-0.12537147,0.6062159,0.07952482,0.7913142,0.07413538,0.98500514,-0.1557844,-0.7918373,0.15310335,0.59123015,,0.04492352,0.4315875,-0.373811,0.6925013,-0.018583294,-0.7211772,-0.3242484,0.884986,-0.33415973,0.64444155,0.46524662,0.6068284,,0.8265332085967524,-0.35657402226869406,0.16341420627000003,0.6385058779103767,-0.24266642358342222,0.5035200425708283,0.8719306250247827,,-0.6686110440517353,-0.5506617448637044,0.14974482822000001,2.1375792838812413,0.35785099288568856,0.6492989541186304,0.8755241944797366,,-0.06956664232292899,-0.09922196797587764,0.1150502548,-0.034016912529394594,,-3.9499253e-05,2.026558e-06,-2.503395e-06,1.0,2.7827919e-05,2.27727e-05,-2.783537e-05,1.0,2.5331974e-06,-2.2768974e-05,-2.5629997e-06,1.0,368,1.121,0,0,0.0,False,1.0461847097944261,1.05014262996886
1.1358759939994343,11:40:47.289030,11:40:29.203618,0,,0.0068827495,0.0117023885,0.070862055,-0.63551265,-0.16654278,-0.7539145,-0.481912,0.84846187,0.21879932,0.60322833,0.50237024,-0.6194673,,0.15379205,-0.03424677,0.04608637,-0.62507343,-0.17846565,0.7598903,0.22258556,0.8923385,0.39266735,-0.748157,0.41458645,-0.5180532,,0.08742201,1.3322518,0.46482912,0.9960451,0.0029083614,-0.08880142,-0.05384064,-0.7752969,-0.6292979,-0.0706777,0.63159025,-0.7720741,,-0.048753057,0.24908845,-0.12537155,0.60621125,0.07952174,0.79131806,0.07413486,0.98500603,-0.15577906,-0.79184085,0.15309927,0.5912264,,0.04492352,0.4315875,-0.373811,0.6925013,-0.018583294,-0.7211772,-0.3242484,0.884986,-0.33415973,0.64444155,0.46524662,0.6068284,,0.8265409313296266,-0.35657402226869406,0.16341420627000003,0.6385058779103767,-0.24266642358342222,0.5035200425708283,0.8719306250247827,,-0.6686110440517353,-0.5506617448637044,0.14974482822000001,2.1375792838812413,0.35785099288568856,0.6492989541186304,0.8755241944797366,,-0.06956664232292899,-0.09922196797587764,0.1150502548,-0.034016912529394594,,-3.9499253e-05,2.026558e-06,-2.503395e-06,1.0,2.7827919e-05,2.27727e-05,-2.783537e-05,1.0,2.5331974e-06,-2.2768974e-05,-2.5629997e-06,1.0,376,1.145,0,0,0.0,False,1.0463038652314682,1.0496598279610654
1.1551984269990498,11:40:47.320211,11:40:29.203618,0,,0.0068827495,0.0117023885,0.070862055,-0.63551265,-0.16654278,-0.7539145,-0.481912,0.84846187,0.21879932,0.60322833,0.50237024,-0.6194673,,0.15379103,-0.034247663,0.046086013,-0.6250166,-0.17831102,0.7599733,0.22276825,0.89233345,0.39257532,-0.7481501,0.4146639,-0.5180012,,0.08742201,1.3322518,0.46482912,0.9960451,0.0029083614,-0.08880142,-0.05384064,-0.7752969,-0.6292979,-0.0706777,0.63159025,-0.7720741,,-0.048753057,0.24908845,-0.12537155,0.60621125,0.07952174,0.79131806,0.07413486,0.98500603,-0.15577906,-0.79184085,0.15309927,0.5912264,,0.04492471,0.4315869,-0.37381145,0.69241816,-0.018745514,-0.72125286,-0.3241477,0.8850113,-0.33419034,0.64458156,0.46519193,0.6067216,,0.8265409313296266,-0.35657402226869406,0.16341420627000003,0.6385058779103767,-0.24266642358342222,0.5035200425708283,0.8719306250247827,,-0.6686033213188611,-0.5506617448637044,0.14974482822000001,2.1377889738247258,0.35785099288568856,0.6492989541186304,0.8755241944797366,,-0.06956664232292899,-0.09922196797587764,0.1150502548,-0.034016912529394594,,-3.9499253e-05,2.026558e-06,-2.503395e-06,1.0,2.7827919e-05,2.27727e-05,-2.783537e-05,1.0,2.5331974e-06,-2.2768974e-05,-2.5629997e-06,1.0,384,1.17,0,0,0.0,False,1.0467209092611154,1.0497563883626244
1.1863789750004798,11:40:47.350125,11:40:29.203618,0,,0.0068837143,0.011701956,0.07086167,-0.63551724,-0.16654564,-0.75390995,-0.48190957,0.84846365,0.2187978,0.6032255,0.50236624,-0.6194733,,0.15379184,-0.03424738,0.04608643,-0.6250111,-0.17831208,0.7599777,0.22277176,0.89233255,0.39257535,-0.7481537,0.41466546,-0.51799476,,0.08742201,1.3322518,0.46482912,0.9960451,0.0029083614,-0.08880142,-0.05384064,-0.7752969,-0.6292979,-0.0706777,0.63159025,-0.7720741,,-0.048753962,0.24908778,-0.12537147,0.6062159,0.07952482,0.7913142,0.07413538,0.98500514,-0.1557844,-0.7918373,0.15310335,0.59123015,,0.044923823,0.43158716,-0.3738115,0.69241273,-0.018744592,-0.7212581,-0.32414964,0.8850122,-0.33418626,0.6445864,0.46519035,0.60671765,,0.8265332085967524,-0.35657402226869406,0.16341420627000003,0.6385058779103767,-0.24266642358342222,0.5035200425708283,0.8719306250247827,,-0.6686110440517353,-0.5506617448637044,0.14974482822000001,2.1377889738247258,0.35785099288568856,0.6492989541186304,0.8755241944797366,,-0.06956664232292899,-0.09922196797587764,0.1150502548,-0.034016912529394594,,-3.9499253e-05,2.026558e-06,-2.503395e-06,1.0,2.7827919e-05,2.27727e-05,-2.783537e-05,1.0,2.5331974e-06,-2.2768974e-05,-2.5629997e-06,1.0,392,1.194,0,0,0.0,False,1.0469592201351996,1.0506254319766548
1.2162851159991988,11:40:47.370711,11:40:29.203618,0,,0.0068837143,0.011701956,0.07086167,-0.63551724,-0.16654564,-0.75390995,-0.48190957,0.84846365,0.2187978,0.6032255,0.50236624,-0.6194733,,0.15379184,-0.03424738,0.04608643,-0.6250111,-0.17831208,0.7599777,0.22277176,0.89233255,0.39257535,-0.7481537,0.41466546,-0.51799476,,0.08742201,1.3322518,0.46482912,0.9960451,0.0029083614,-0.08880142,-0.05384064,-0.7752969,-0.6292979,-0.0706777,0.63159025,-0.7720741,,-0.048753962,0.24908778,-0.12537147,0.6062159,0.07952482,0.7913142,0.07413538,0.98500514,-0.1557844,-0.7918373,0.15310335,0.59123015,,0.044923823,0.43158716,-0.3738115,0.69241273,-0.018744592,-0.7212581,-0.32414964,0.8850122,-0.33418626,0.6445864,0.46519035,0.60671765,,0.8265332085967524,-0.35657402226869406,0.16341420627000003,0.6385058779103767,-0.24266642358342222,0.5035200425708283,0.8719306250247827,,-0.6686110440517353,-0.5506617448637044,0.14974482822000001,2.1377889738247258,0.35785099288568856,0.6492989541186304,0.8755241944797366,,-0.06956664232292899,-0.09922196797587764,0.1150502548,-0.034016912529394594,,-3.9499253e-05,2.026558e-06,-2.503395e-06,1.0,2.7827919e-05,2.27727e-05,-2.783537e-05,1.0,2.5331974e-06,-2.2768974e-05,-2.5629997e-06,1.0,400,1.22,0,0,0.0,False,1.0466613315425946,1.0503840309727575
1.2368803059998754,11:40:47.388826,11:40:29.203618,0,,0.0068837143,0.011701956,0.07086167,-0.63551724,-0.16654564,-0.75390995,-0.48190957,0.84846365,0.2187978,0.6032255,0.50236624,-0.6194733,,0.15379184,-0.03424738,0.04608643,-0.6250111,-0.17831208,0.7599777,0.22277176,0.89233255,0.39257535,-0.7481537,0.41466546,-0.51799476,,0.08742201,1.3322518,0.46482912,0.9960451,0.0029083614,-0.08880142,-0.05384064,-0.7752969,-0.6292979,-0.0706777,0.63159025,-0.7720741,,-0.048753962,0.24908778,-0.12537147,0.6062159,0.07952482,0.7913142,0.07413538,0.98500514,-0.1557844,-0.7918373,0.15310335,0.59123015,,0.044923823,0.43158716,-0.3738115,0.69241273,-0.018744592,-0.7212581,-0.32414964,0.8850122,-0.33418626,0.6445864,0.46519035,0.60671765,,0.8265332085967524,-0.35657402226869406,0.16341420627000003,0.6385058779103767,-0.24266642358342222,0.5035200425708283,0.8719306250247827,,-0.6686110440517353,-0.5506617448637044,0.14974482822000001,2.1377889738247258,0.35785099288568856,0.6492989541186304,0.8755241944797366,,-0.06956664232292899,-0.09922196797587764,0.1150502548,-0.034016912529394594,,-3.9499253e-05,2.026558e-06,-2.503395e-06,1.0,2.7827919e-05,2.27727e-05,-2.783537e-05,1.0,2.5331974e-06,-2.2768974e-05,-2.5629997e-06,1.0,404,1.232,0,0,0.0,False,1.046244287512947,1.0499977893665218
1.2549858179991134,11:40:47.413343,11:40:29.203618,0,,0.0069172727,0.011688679,0.070867896,-0.6354986,-0.16659224,-0.75391537,-0.4819287,0.84846574,0.21874759,0.6032299,0.50234723,-0.6194844,,0.15383379,-0.0342008,0.04608041,-0.62500584,-0.1784121,0.75995857,0.22274148,0.8922992,0.39266846,-0.74816716,0.4146943,-0.51795244,,0.0874331,1.3322504,0.46482792,0.99604493,0.0029055744,-0.088803686,-0.05384422,-0.7752969,-0.6292976,-0.0706777,0.63159025,-0.7720741,,-0.04879799,0.249078,-0.12538438,0.60619634,0.07957576,0.791324,0.07411986,0.9849989,-0.15583152,-0.79185367,0.15311731,0.5912046,,0.044866122,0.43160027,-0.3737727,0.69241464,-0.018642817,-0.72125894,-0.32418075,0.88503623,-0.33409232,0.64456874,0.46514866,0.6067684,,0.8265332085967524,-0.35657402226869406,0.16341420627000003,0.6385058779103767,-0.24266642358342222,0.5035200425708283,0.8719306250247827,,-0.6686033213188611,-0.5506617448637044,0.14974482822000001,2.1377889738247258,0.35785099288568856,0.6492989541186304,0.8755241944797366,,-0.06956664232292899,-0.09922196797587764,0.1150502548,-0.034016912529394594,,-2.8297305e-05,2.5629997e-06,-1.7881393e-06,1.0,2.5052577e-05,2.0500273e-05,-2.5060028e-05,1.0,2.2947788e-06,-2.0503998e-05,-2.3245811e-06,1.0,433,1.321,0,0,0.0,False,1.0466613315425946,1.0506254319766548
1.279482898000424,11:40:47.489474,11:40:29.203618,0,,0.0069172727,0.011688679,0.070867896,-0.6354986,-0.16659224,-0.75391537,-0.4819287,0.84846574,0.21874759,0.6032299,0.50234723,-0.6194844,,0.1538346,-0.034200575,0.046080768,-0.62500024,-0.17841314,0.75996286,0.22274503,0.8922983,0.3926685,-0.74817073,0.4146958,-0.517946,,0.0874331,1.3322504,0.46482792,0.99604493,0.0029055744,-0.088803686,-0.05384422,-0.7752969,-0.6292976,-0.0706777,0.63159025,-0.7720741,,-0.04879799,0.249078,-0.12538438,0.60619634,0.07957576,0.791324,0.07411986,0.9849989,-0.15583152,-0.79185367,0.15311731,0.5912046,,0.044865236,0.43160054,-0.3737728,0.6924092,-0.018641895,-0.7212641,-0.32418266,0.8850371,-0.3340882,0.64457357,0.46514708,0.6067645,,0.8265332085967524,-0.35657402226869406,0.16341420627000003,0.6385058779103767,-0.24266642358342222,0.5035200425708283,0.8719306250247827,,-0.6686110440517353,-0.5506617448637044,0.14974482822000001,2.1377889738247258,0.35785099288568856,0.6492989541186304,0.8755241944797366,,-0.06956664232292899,-0.09922196797587764,0.1150502548,-0.034016912529394594,,-2.8297305e-05,2.5629997e-06,-1.7881393e-06,1.0,2.5052577e-05,2.0500273e-05,-2.5060028e-05,1.0,2.2947788e-06,-2.0503998e-05,-2.3245811e-06,1.0,437,1.334,0,0,0.0,False,1.0463634429499895,1.0501909101696396
1.3556194030006736,11:40:47.514294,11:40:29.203618,0,,0.0069172727,0.011688679,0.070867896,-0.6354986,-0.16659224,-0.75391537,-0.4819287,0.84846574,0.21874759,0.6032299,0.50234723,-0.6194844,,0.15383379,-0.0342008,0.04608041,-0.62500584,-0.1784121,0.75995857,0.22274148,0.8922992,0.39266846,-0.74816716,0.4146943,-0.51795244,,0.0874331,1.3322504,0.46482792,0.99604493,0.0029055744,-0.088803686,-0.05384422,-0.7752969,-0.6292976,-0.0706777,0.63159025,-0.7720741,,-0.04879799,0.249078,-0.12538438,0.60619634,0.07957576,0.791324,0.07411986,0.9849989,-0.15583152,-0.79185367,0.15311731,0.5912046,,0.044866122,0.43160027,-0.3737727,0.69241464,-0.018642817,-0.72125894,-0.32418075,0.88503623,-0.33409232,0.64456874,0.46514866,0.6067684,,0.8265332085967524,-0.35657402226869406,0.16341420627000003,0.6385058779103767,-0.24266642358342222,0.5035200425708283,0.8719306250247827,,-0.6686033213188611,-0.5506617448637044,0.14974482822000001,2.1377889738247258,0.35785099288568856,0.6492989541186304,0.8755241944797366,,-0.06956664232292899,-0.09922196797587764,0.1150502548,-0.034016912529394594,,-2.8297305e-05,2.5629997e-06,-1.7881393e-06,1.0,2.5052577e-05,2.0500273e-05,-2.5060028e-05,1.0,2.2947788e-06,-2.0503998e-05,-2.3245811e-06,1.0,445,1.358,0,0,0.0,False,1.0461251320759053,1.0500943497680806
1.3804322089999914,11:40:47.538639,11:40:29.203618,0,,0.0069172727,0.011688679,0.070867896,-0.6354986,-0.16659224,-0.75391537,-0.4819287,0.84846574,0.21874759,0.6032299,0.50234723,-0.6194844,,0.1538346,-0.034200575,0.046080768,-0.62500024,-0.17841314,0.75996286,0.22274503,0.8922983,0.3926685,-0.74817073,0.4146958,-0.517946,,0.0874331,1.3322504,0.46482792,0.99604493,0.0029055744,-0.088803686,-0.05384422,-0.7752969,-0.6292976,-0.0706777,0.63159025,-0.7720741,,-0.04879799,0.249078,-0.12538438,0.60619634,0.07957576,0.791324,0.07411986,0.9849989,-0.15583152,-0.79185367,0.15311731,0.5912046,,0.044865236,0.43160054,-0.3737728,0.6924092,-0.018641895,-0.7212641,-0.32418266,0.8850371,-0.3340882,0.64457357,0.46514708,0.6067645,,0.8265332085967524,-0.35657402226869406,0.16341420627000003,0.6385058779103767,-0.24266642358342222,0.5035200425708283,0.8719306250247827,,-0.6686110440517353,-0.5506617448637044,0.14974482822000001,2.1377889738247258,0.35785099288568856,0.6492989541186304,0.8755241944797366,,-0.06956664232292899,-0.09922196797587764,0.1150502548,-0.034016912529394594,,-2.8297305e-05,2.5629997e-06,-1.7881393e-06,1.0,2.5052577e-05,2.0500273e-05,-2.5060028e-05,1.0,2.2947788e-06,-2.0503998e-05,-2.3245811e-06,1.0,453,1.383,0,0,0.0,False,1.0469592201351996,1.050335750771978
1.4048071590004838,11:40:47.562724,11:40:29.561463,0,,0.0069163023,0.011689097,0.07086831,-0.635494,-0.16658936,-0.7539199,-0.48193118,0.848464,0.21874909,0.60323274,0.50235116,-0.61947846,,0.1538346,-0.034200575,0.046080768,-0.62500024,-0.17841314,0.75996286,0.22274503,0.8922983,0.3926685,-0.74817073,0.4146958,-0.517946,,0.0874331,1.3322504,0.46482792,0.99604493,0.0029055744,-0.088803686,-0.05384422,-0.7752969,-0.6292976,-0.0706777,0.63159025,-0.7720741,,-0.048797082,0.24907868,-0.12538445,0.6061917,0.07957268,0.7913279,0.07411934,0.9849998,-0.15582618,-0.7918573,0.15311323,0.5912008,,0.044865236,0.43160054,-0.3737728,0.6924092,-0.018641895,-0.7212641,-0.32418266,0.8850371,-0.3340882,0.64457357,0.46514708,0.6067645,,0.8265409313296266,-0.35657402226869406,0.16341420627000003,0.6385058779103767,-0.24266642358342222,0.5035200425708283,0.8719306250247827,,-0.6686110440517353,-0.5506617448637044,0.14974482822000001,2.1377889738247258,0.35785099288568856,0.6492989541186304,0.8755241944797366,,-0.06956664232292899,-0.09922196797587764,0.1150502548,-0.034016912529394594,,-2.8297305e-05,2.5629997e-06,-1.7881393e-06,1.0,2.5052577e-05,2.0500273e-05,-2.5060028e-05,1.0,2.2947788e-06,-2.0503998e-05,-2.3245811e-06,1.0,465,1.42,0,0,0.0,False,1.0468996424166788,1.0501909101696396
1.4288652199993521,11:40:47.592243,11:40:29.561463,0,,0.0069172727,0.011688679,0.070867896,-0.6354986,-0.16659224,-0.75391537,-0.4819287,0.84846574,0.21874759,0.6032299,0.50234723,-0.6194844,,0.1538346,-0.034200575,0.046080768,-0.62500024,-0.17841314,0.75996286,0.22274503,0.8922983,0.3926685,-0.74817073,0.4146958,-0.517946,,0.0874331,1.3322504,0.46482792,0.99604493,0.0029055744,-0.088803686,-0.05384422,-0.7752969,-0.6292976,-0.0706777,0.63159025,-0.7720741,,-0.04879799,0.249078,-0.12538438,0.60619634,0.07957576,0.791324,0.07411986,0.9849989,-0.15583152,-0.79185367,0.15311731,0.5912046,,0.044865236,0.43160054,-0.3737728,0.6924092,-0.018641895,-0.7212641,-0.32418266,0.8850371,-0.3340882,0.64457357,0.46514708,0.6067645,,0.8265332085967524,-0.35657402226869406,0.16341420627000003,0.6385058779103767,-0.24266642358342222,0.5035200425708283,0.8719306250247827,,-0.6686110440517353,-0.5506617448637044,0.14974482822000001,2.1377889738247258,0.35785099288568856,0.6492989541186304,0.8755241944797366,,-0.06956664232292899,-0.09922196797587764,0.1150502548,-0.034016912529394594,,-2.8297305e-05,2.5629997e-06,-1.7881393e-06,1.0,2.5052577e-05,2.0500273e-05,-2.5060028e-05,1.0,2.2947788e-06,-2.0503998e-05,-2.3245811e-06,1.0,473,1.444,0,0,0.0,False,1.0468400646981575,1.0501909101696396
1.458381033000478,11:40:47.619864,11:40:29.561463,0,,0.0069172727,0.011688679,0.070867896,-0.6354986,-0.16659224,-0.75391537,-0.4819287,0.84846574,0.21874759,0.6032299,0.50234723,-0.6194844,,0.15383379,-0.0342008,0.04608041,-0.62500584,-0.1784121,0.75995857,0.22274148,0.8922992,0.39266846,-0.74816716,0.4146943,-0.51795244,,0.0874331,1.3322504,0.46482792,0.99604493,0.0029055744,-0.088803686,-0.05384422,-0.7752969,-0.6292976,-0.0706777,0.63159025,-0.7720741,,-0.04879799,0.249078,-0.12538438,0.60619634,0.07957576,0.791324,0.07411986,0.9849989,-0.15583152,-0.79185367,0.15311731,0.5912046,,0.044866122,0.43160027,-0.3737727,0.69241464,-0.018642817,-0.72125894,-0.32418075,0.88503623,-0.33409232,0.64456874,0.46514866,0.6067684,,0.8265332085967524,-0.35657402226869406,0.16341420627000003,0.6385058779103767,-0.24266642358342222,0.5035200425708283,0.8719306250247827,,-0.6686033213188611,-0.5506617448637044,0.14974482822000001,2.1377889738247258,0.35785099288568856,0.6492989541186304,0.8755241944797366,,-0.06956664232292899,-0.09922196797587764,0.1150502548,-0.034016912529394594,,-2.8297305e-05,2.5629997e-06,-1.7881393e-06,1.0,2.5052577e-05,2.0500273e-05,-2.5060028e-05,1.0,2.2947788e-06,-2.0503998e-05,-2.3245811e-06,1.0,481,1.47,0,0,0.0,False,1.0464825983870312,1.050335750771978
1.4860291139993933,11:40:47.641961,11:40:29.561463,0,,0.0069172727,0.011688679,0.070867896,-0.6354986,-0.16659224,-0.75391537,-0.4819287,0.84846574,0.21874759,0.6032299,0.50234723,-0.6194844,,0.1538346,-0.034200575,0.046080768,-0.62500024,-0.17841314,0.75996286,0.22274503,0.8922983,0.3926685,-0.74817073,0.4146958,-0.517946,,0.0874331,1.3322504,0.46482792,0.99604493,0.0029055744,-0.088803686,-0.05384422,-0.7752969,-0.6292976,-0.0706777,0.63159025,-0.7720741,,-0.04879799,0.249078,-0.12538438,0.60619634,0.07957576,0.791324,0.07411986,0.9849989,-0.15583152,-0.79185367,0.15311731,0.5912046,,0.044865236,0.43160054,-0.3737728,0.6924092,-0.018641895,-0.7212641,-0.32418266,0.8850371,-0.3340882,0.64457357,0.46514708,0.6067645,,0.8265332085967524,-0.35657402226869406,0.16341420627000003,0.6385058779103767,-0.24266642358342222,0.5035200425708283,0.8719306250247827,,-0.6686110440517353,-0.5506617448637044,0.14974482822000001,2.1377889738247258,0.35785099288568856,0.6492989541186304,0.8755241944797366,,-0.06956664232292899,-0.09922196797587764,0.1150502548,-0.034016912529394594,,-2.8297305e-05,2.5629997e-06,-1.7881393e-06,1.0,2.5052577e-05,2.0500273e-05,-2.5060028e-05,1.0,2.2947788e-06,-2.0503998e-05,-2.3245811e-06,1.0,510,1.559,0,0,0.0,False,1.0463634429499895,1.0504805913743163
1.5080793340002856,11:40:47.732007,11:40:29.712047,0,,0.0069172727,0.011688679,0.070867896,-0.6354986,-0.16659224,-0.75391537,-0.4819287,0.84846574,0.21874759,0.6032299,0.50234723,-0.6194844,,0.1538346,-0.034200575,0.046080768,-0.62500024,-0.17841314,0.75996286,0.22274503,0.8922983,0.3926685,-0.74817073,0.4146958,-0.517946,,0.0874331,1.3322504,0.46482792,0.99604493,0.0029055744,-0.088803686,-0.05384422,-0.7752969,-0.6292976,-0.0706777,0.63159025,-0.7720741,,-0.04879799,0.249078,-0.12538438,0.60619634,0.07957576,0.791324,0.07411986,0.9849989,-0.15583152,-0.79185367,0.15311731,0.5912046,,0.044865236,0.43160054,-0.3737728,0.6924092,-0.018641895,-0.7212641,-0.32418266,0.8850371,-0.3340882,0.64457357,0.46514708,0.6067645,,0.8265332085967524,-0.35657402226869406,0.16341420627000003,0.6385058779103767,-0.24266642358342222,0.5035200425708283,0.8719306250247827,,-0.6686110440517353,-0.5506617448637044,0.14974482822000001,2.1377889738247258,0.35785099288568856,0.6492989541186304,0.8755241944797366,,-0.06956664232292899,-0.09922196797587764,0.1150502548,-0.034016912529394594,,-2.8297305e-05,2.5629997e-06,-1.7881393e-06,1.0,2.5052577e-05,2.0500273e-05,-2.5060028e-05,1.0,2.2947788e-06,-2.0503998e-05,-2.3245811e-06,1.0,518,1.583,0,0,0.0,False,1.0467209092611154,1.0504805913743163
1.5981685110000399,11:40:47.765653,11:40:29.712047,0,,0.0069172727,0.011688679,0.070867896,-0.6354986,-0.16659224,-0.75391537,-0.4819287,0.84846574,0.21874759,0.6032299,0.50234723,-0.6194844,,0.1538346,-0.034200575,0.046080768,-0.62500024,-0.17841314,0.75996286,0.22274503,0.8922983,0.3926685,-0.74817073,0.4146958,-0.517946,,0.0874331,1.3322504,0.46482792,0.99604493,0.0029055744,-0.088803686,-0.05384422,-0.7752969,-0.6292976,-0.0706777,0.63159025,-0.7720741,,-0.04879799,0.249078,-0.12538438,0.60619634,0.07957576,0.791324,0.07411986,0.9849989,-0.15583152,-0.79185367,0.15311731,0.5912046,,0.044865236,0.43160054,-0.3737728,0.6924092,-0.018641895,-0.7212641,-0.32418266,0.8850371,-0.3340882,0.64457357,0.46514708,0.6067645,,0.8265332085967524,-0.35657402226869406,0.16341420627000003,0.6385058779103767,-0.24266642358342222,0.5035200425708283,0.8719306250247827,,-0.6686110440517353,-0.5506617448637044,0.14974482822000001,2.1377889738247258,0.35785099288568856,0.6492989541186304,0.8755241944797366,,-0.06956664232292899,-0.09922196797587764,0.1150502548,-0.034016912529394594,,-2.8297305e-05,2.5629997e-06,-1.7881393e-06,1.0,2.5052577e-05,2.0500273e-05,-2.5060028e-05,1.0,2.2947788e-06,-2.0503998e-05,-2.3245811e-06,1.0,526,1.608,0,0,0.0,False,1.0464825983870312,1.0503840309727575
1.631816439999966,11:40:47.784996,11:40:29.712047,0,,0.0069172727,0.011688679,0.070867896,-0.6354986,-0.16659224,-0.75391537,-0.4819287,0.84846574,0.21874759,0.6032299,0.50234723,-0.6194844,,0.15383379,-0.0342008,0.04608041,-0.62500584,-0.1784121,0.75995857,0.22274148,0.8922992,0.39266846,-0.74816716,0.4146943,-0.51795244,,0.0874331,1.3322504,0.46482792,0.99604493,0.0029055744,-0.088803686,-0.05384422,-0.7752969,-0.6292976,-0.0706777,0.63159025,-0.7720741,,-0.04879799,0.249078,-0.12538438,0.60619634,0.07957576,0.791324,0.07411986,0.9849989,-0.15583152,-0.79185367,0.15311731,0.5912046,,0.044866122,0.43160027,-0.3737727,0.69241464,-0.018642817,-0.72125894,-0.32418075,0.88503623,-0.33409232,0.64456874,0.46514866,0.6067684,,0.8265332085967524,-0.35657402226869406,0.16341420627000003,0.6385058779103767,-0.24266642358342222,0.5035200425708283,0.8719306250247827,,-0.6686033213188611,-0.5506617448637044,0.14974482822000001,2.1377889738247258,0.35785099288568856,0.6492989541186304,0.8755241944797366,,-0.06956664232292899,-0.09922196797587764,0.1150502548,-0.034016912529394594,,-2.8297305e-05,2.5629997e-06,-1.7881393e-06,1.0,2.5052577e-05,2.0500273e-05,-2.5060028e-05,1.0,2.2947788e-06,-2.0503998e-05,-2.3245811e-06,1.0,534,1.633,0,0,0.0,False,1.0464825983870312,1.0505288715750958
1.6511634540001978,11:40:47.805546,11:40:29.712047,0,,0.0069172727,0.011688679,0.070867896,-0.6354986,-0.16659224,-0.75391537,-0.4819287,0.84846574,0.21874759,0.6032299,0.50234723,-0.6194844,,0.1538348,-0.034199934,0.046080828,-0.62506264,-0.17856671,0.75987554,0.22255874,0.89230424,0.39276046,-0.7481741,0.41461676,-0.5180044,,0.0874331,1.3322504,0.46482792,0.99604493,0.0029055744,-0.088803686,-0.05384422,-0.7752969,-0.6292976,-0.0706777,0.63159025,-0.7720741,,-0.04879799,0.249078,-0.12538438,0.60619634,0.07957576,0.791324,0.07411986,0.9849989,-0.15583152,-0.79185367,0.15311731,0.5912046,,0.044864938,0.43160087,-0.3737723,0.6924978,-0.018480597,-0.72118324,-0.32428145,0.8850109,-0.3340617,0.64442873,0.46520334,0.6068752,,0.8265332085967524,-0.35657402226869406,0.16341420627000003,0.6385058779103767,-0.24266642358342222,0.5035200425708283,0.8719306250247827,,-0.6686110440517353,-0.5506617448637044,0.14974482822000001,2.1375792838812413,0.35785099288568856,0.6492989541186304,0.8755241944797366,,-0.06956664232292899,-0.09922196797587764,0.1150502548,-0.034016912529394594,,-2.8297305e-05,2.5629997e-06,-1.7881393e-06,1.0,2.5052577e-05,2.0500273e-05,-2.5060028e-05,1.0,2.2947788e-06,-2.0503998e-05,-2.3245811e-06,1.0,542,1.657,0,0,0.0,False,1.04642302066851,1.0503840309727575
1.6717126959993038,11:40:47.834638,11:40:29.712047,0,,0.006917036,0.011689059,0.070867956,-0.63560224,-0.16644093,-0.7538614,-0.4817559,0.8485406,0.21883765,0.6032586,0.50227094,-0.6195184,,0.15383503,-0.034199294,0.046080828,-0.62512493,-0.17872034,0.75978816,0.2223725,0.89231026,0.39285243,-0.7481773,0.41453782,-0.5180628,,0.0874331,1.3322504,0.46482792,0.99604493,0.0029055744,-0.088803686,-0.05384422,-0.7752969,-0.6292976,-0.0706777,0.63159025,-0.7720741,,-0.048797783,0.24907836,-0.12538418,0.6062882,0.07942781,0.79126847,0.074280165,0.9849935,-0.15578918,-0.7917683,0.1532287,0.59129006,,0.044864636,0.43160123,-0.37377182,0.6925863,-0.018319292,-0.72110236,-0.32438022,0.88498473,-0.33403522,0.64428383,0.46525958,0.60698587,,0.8265332085967524,-0.35657402226869406,0.16341420627000003,0.6387155678538612,-0.24266642358342222,0.5035200425708283,0.8719306250247827,,-0.6686110440517353,-0.5506617448637044,0.14974482822000001,2.137369593937757,0.35785099288568856,0.6492989541186304,0.8755241944797366,,-0.06956664232292899,-0.09922196797587764,0.1150502548,-0.034016912529394594,,-2.8297305e-05,2.5629997e-06,-1.7881393e-06,1.0,2.5052577e-05,2.0500273e-05,-2.5060028e-05,1.0,2.2947788e-06,-2.0503998e-05,-2.3245811e-06,1.0,550,1.682,0,0,0.0,False,1.0471975310092834,1.0504805913743163
1.7008009080000193,11:40:47.855666,11:40:29.712047,0,,0.0069168014,0.011689454,0.070868045,-0.635706,-0.16628961,-0.7538074,-0.48158315,0.8486155,0.21892771,0.6032873,0.5021946,-0.61955225,,0.15383503,-0.034199294,0.046080828,-0.62512493,-0.17872034,0.75978816,0.2223725,0.89231026,0.39285243,-0.7481773,0.41453782,-0.5180628,,0.0874331,1.3322504,0.46482792,0.99604493,0.0029055744,-0.088803686,-0.05384422,-0.7752969,-0.6292976,-0.0706777,0.63159025,-0.7720741,,-0.048797578,0.24907874,-0.12538399,0.6063801,0.07927984,0.7912129,0.07444048,0.9849881,-0.15574685,-0.7916829,0.15334006,0.5913755,,0.044864636,0.43160123,-0.37377182,0.6925863,-0.018319292,-0.72110236,-0.32438022,0.88498473,-0.33403522,0.64428383,0.46525958,0.60698587,,0.8265332085967524,-0.35657402226869406,0.16341420627000003,0.6389252577973457,-0.24266642358342222,0.5035200425708283,0.8719306250247827,,-0.6686110440517353,-0.5506617448637044,0.14974482822000001,2.137369593937757,0.35785099288568856,0.6492989541186304,0.8755241944797366,,-0.06956664232292899,-0.09922196797587764,0.1150502548,-0.034016912529394594,,-2.8297305e-05,2.5629997e-06,-1.7881393e-06,1.0,2.5052577e-05,2.0500273e-05,-2.5060028e-05,1.0,2.2947788e-06,-2.0503998e-05,-2.3245811e-06,1.0,558,1.707,0,0,0.0,False,1.0464825983870312,1.0509151131813312
1.7217957849989034,11:40:47.875665,11:40:29.712047,0,,0.0069168014,0.011689454,0.070868045,-0.635706,-0.16628961,-0.7538074,-0.48158315,0.8486155,0.21892771,0.6032873,0.5021946,-0.61955225,,0.15383503,-0.034199294,0.046080828,-0.62512493,-0.17872034,0.75978816,0.2223725,0.89231026,0.39285243,-0.7481773,0.41453782,-0.5180628,,0.0874331,1.3322504,0.46482792,0.99604493,0.0029055744,-0.088803686,-0.05384422,-0.7752969,-0.6292976,-0.0706777,0.63159025,-0.7720741,,-0.048797578,0.24907874,-0.12538399,0.6063801,0.07927984,0.7912129,0.07444048,0.9849881,-0.15574685,-0.7916829,0.15334006,0.5913755,,0.044864636,0.43160123,-0.37377182,0.6925863,-0.018319292,-0.72110236,-0.32438022,0.88498473,-0.33403522,0.64428383,0.46525958,0.60698587,,0.8265332085967524,-0.35657402226869406,0.16341420627000003,0.6389252577973457,-0.24266642358342222,0.5035200425708283,0.8719306250247827,,-0.6686110440517353,-0.5506617448637044,0.14974482822000001,2.137369593937757,0.35785099288568856,0.6492989541186304,0.8755241944797366,,-0.06956664232292899,-0.09922196797587764,0.1150502548,-0.034016912529394594,,-2.8297305e-05,2.5629997e-06,-1.7881393e-06,1.0,2.5052577e-05,2.0500273e-05,-2.5060028e-05,1.0,2.2947788e-06,-2.0503998e-05,-2.3245811e-06,1.0,587,1.796,0,0,0.0,False,1.0466017538240733,1.0508185527797727
1.7417982019996998,11:40:47.972131,11:40:29.902093,0,,0.0069168014,0.011689454,0.070868045,-0.635706,-0.16628961,-0.7538074,-0.48158315,0.8486155,0.21892771,0.6032873,0.5021946,-0.61955225,,0.15383503,-0.034199294,0.046080828,-0.62512493,-0.17872034,0.75978816,0.2223725,0.89231026,0.39285243,-0.7481773,0.41453782,-0.5180628,,0.0874331,1.3322504,0.46482792,0.99604493,0.0029055744,-0.088803686,-0.05384422,-0.7752969,-0.6292976,-0.0706777,0.63159025,-0.7720741,,-0.048797578,0.24907874,-0.12538399,0.6063801,0.07927984,0.7912129,0.07444048,0.9849881,-0.15574685,-0.7916829,0.15334006,0.5913755,,0.044864636,0.43160123,-0.37377182,0.6925863,-0.018319292,-0.72110236,-0.32438022,0.88498473,-0.33403522,0.64428383,0.46525958,0.60698587,,0.8265332085967524,-0.35657402226869406,0.16341420627000003,0.6389252577973457,-0.24266642358342222,0.5035200425708283,0.8719306250247827,,-0.6686110440517353,-0.5506617448637044,0.14974482822000001,2.137369593937757,0.35785099288568856,0.6492989541186304,0.8755241944797366,,-0.06956664232292899,-0.09922196797587764,0.1150502548,-0.034016912529394594,,-2.8297305e-05,2.5629997e-06,-1.7881393e-06,1.0,2.5052577e-05,2.0500273e-05,-2.5060028e-05,1.0,2.2947788e-06,-2.0503998e-05,-2.3245811e-06,1.0,595,1.821,0,0,0.0,False,1.0464825983870312,1.05014262996886
1.8382983270003024,11:40:47.997107,11:40:29.902093,0,,0.0069158366,0.011689864,0.07086843,-0.6357014,-0.16628677,-0.75381184,-0.48158562,0.8486137,0.21892922,0.6032901,0.5021985,-0.61954635,,0.15383503,-0.034199294,0.046080828,-0.62512493,-0.17872034,0.75978816,0.2223725,0.89231026,0.39285243,-0.7481773,0.41453782,-0.5180628,,0.0874331,1.3322504,0.46482792,0.99604493,0.0029055744,-0.088803686,-0.05384422,-0.7752969,-0.6292976,-0.0706777,0.63159025,-0.7720741,,-0.04879667,0.24907939,-0.12538406,0.60637546,0.079276755,0.7912168,0.07443996,0.984989,-0.1557415,-0.7916865,0.15333597,0.5913718,,0.044864636,0.43160123,-0.37377182,0.6925863,-0.018319292,-0.72110236,-0.32438022,0.88498473,-0.33403522,0.64428383,0.46525958,0.60698587,,0.8265409313296266,-0.35657402226869406,0.16341420627000003,0.6389252577973457,-0.24266642358342222,0.5035200425708283,0.8719306250247827,,-0.6686110440517353,-0.5506617448637044,0.14974482822000001,2.137369593937757,0.35785099288568856,0.6492989541186304,0.8755241944797366,,-0.06956664232292899,-0.09922196797587764,0.1150502548,-0.034016912529394594,,-2.8297305e-05,2.5629997e-06,-1.7881393e-06,1.0,2.5052577e-05,2.0500273e-05,-2.5060028e-05,1.0,2.2947788e-06,-2.0503998e-05,-2.3245811e-06,1.0,603,1.846,0,0,0.0,False,1.0468400646981575,1.0511565141852286
1.8632129300003726,11:40:48.022105,11:40:29.902093,0,,0.0069168014,0.011689454,0.070868045,-0.635706,-0.16628961,-0.7538074,-0.48158315,0.8486155,0.21892771,0.6032873,0.5021946,-0.61955225,,0.15383503,-0.034199294,0.046080828,-0.62512493,-0.17872034,0.75978816,0.2223725,0.89231026,0.39285243,-0.7481773,0.41453782,-0.5180628,,0.0874331,1.3322504,0.46482792,0.99604493,0.0029055744,-0.088803686,-0.05384422,-0.7752969,-0.6292976,-0.0706777,0.63159025,-0.7720741,,-0.048797578,0.24907874,-0.12538399,0.6063801,0.07927984,0.7912129,0.07444048,0.9849881,-0.15574685,-0.7916829,0.15334006,0.5913755,,0.044864636,0.43160123,-0.37377182,0.6925863,-0.018319292,-0.72110236,-0.32438022,0.88498473,-0.33403522,0.64428383,0.46525958,0.60698587,,0.8265332085967524,-0.35657402226869406,0.16341420627000003,0.6389252577973457,-0.24266642358342222,0.5035200425708283,0.8719306250247827,,-0.6686110440517353,-0.5506617448637044,0.14974482822000001,2.137369593937757,0.35785099288568856,0.6492989541186304,0.8755241944797366,,-0.06956664232292899,-0.09922196797587764,0.1150502548,-0.034016912529394594,,-2.8297305e-05,2.5629997e-06,-1.7881393e-06,1.0,2.5052577e-05,2.0500273e-05,-2.5060028e-05,1.0,2.2947788e-06,-2.0503998e-05,-2.3245811e-06,1.0,611,1.87,0,0,0.0,False,1.0469592201351996,1.0509151131813312
1.8882707510001637,11:40:48.046719,11:40:29.902093,0,,0.0069168014,0.011689454,0.070868045,-0.635706,-0.16628961,-0.7538074,-0.48158315,0.8486155,0.21892771,0.6032873,0.5021946,-0.61955225,,0.15383421,-0.034199547,0.04608041,-0.6251305,-0.17871928,0.75978386,0.22236896,0.8923111,0.3928524,-0.7481738,0.41453633,-0.51806915,,0.0874331,1.3322504,0.46482792,0.99604493,0.0029055744,-0.088803686,-0.05384422,-0.7752969,-0.6292976,-0.0706777,0.63159025,-0.7720741,,-0.048797578,0.24907874,-0.12538399,0.6063801,0.07927984,0.7912129,0.07444048,0.9849881,-0.15574685,-0.7916829,0.15334006,0.5913755,,0.044865523,0.43160093,-0.37377173,0.69259167,-0.01832021,-0.7210972,-0.3243783,0.8849839,-0.33403933,0.644279,0.46526113,0.6069898,,0.8265332085967524,-0.35657402226869406,0.16341420627000003,0.6389252577973457,-0.24266642358342222,0.5035200425708283,0.8719306250247827,,-0.6686033213188611,-0.5506617448637044,0.14974482822000001,2.137369593937757,0.35785099288568856,0.6492989541186304,0.8755241944797366,,-0.06956664232292899,-0.09922196797587764,0.1150502548,-0.034016912529394594,,-2.8297305e-05,2.5629997e-06,-1.7881393e-06,1.0,2.5052577e-05,2.0500273e-05,-2.5060028e-05,1.0,2.2947788e-06,-2.0503998e-05,-2.3245811e-06,1.0,619,1.895,0,0,0.0,False,1.0467209092611154,1.0507702725789931
1.9128700609999214,11:40:48.073609,11:40:29.902093,0,,0.0069158366,0.011689864,0.07086843,-0.6357014,-0.16628677,-0.75381184,-0.48158562,0.8486137,0.21892922,0.6032901,0.5021985,-0.61954635,,0.15383421,-0.034199547,0.04608041,-0.6251305,-0.17871928,0.75978386,0.22236896,0.8923111,0.3928524,-0.7481738,0.41453633,-0.51806915,,0.0874331,1.3322504,0.46482792,0.99604493,0.0029055744,-0.088803686,-0.05384422,-0.7752969,-0.6292976,-0.0706777,0.63159025,-0.7720741,,-0.04879667,0.24907939,-0.12538406,0.60637546,0.079276755,0.7912168,0.07443996,0.984989,-0.1557415,-0.7916865,0.15333597,0.5913718,,0.044865523,0.43160093,-0.37377173,0.69259167,-0.01832021,-0.7210972,-0.3243783,0.8849839,-0.33403933,0.644279,0.46526113,0.6069898,,0.8265409313296266,-0.35657402226869406,0.16341420627000003,0.6389252577973457,-0.24266642358342222,0.5035200425708283,0.8719306250247827,,-0.6686033213188611,-0.5506617448637044,0.14974482822000001,2.137369593937757,0.35785099288568856,0.6492989541186304,0.8755241944797366,,-0.06956664232292899,-0.09922196797587764,0.1150502548,-0.034016912529394594,,-2.8297305e-05,2.5629997e-06,-1.7881393e-06,1.0,2.5052577e-05,2.0500273e-05,-2.5060028e-05,1.0,2.2947788e-06,-2.0503998e-05,-2.3245811e-06,1.0,627,1.92,0,0,0.0,False,1.0461847097944261,1.0501909101696396
1.9397322499989968,11:40:48.097104,11:40:30.079939,0,,0.0069168014,0.011689454,0.070868045,-0.635706,-0.16628961,-0.7538074,-0.48158315,0.8486155,0.21892771,0.6032873,0.5021946,-0.61955225,,0.15383503,-0.034199294,0.046080828,-0.62512493,-0.17872034,0.75978816,0.2223725,0.89231026,0.39285243,-0.7481773,0.41453782,-0.5180628,,0.0874331,1.3322504,0.46482792,0.99604493,0.0029055744,-0.088803686,-0.05384422,-0.7752969,-0.6292976,-0.0706777,0.63159025,-0.7720741,,-0.048797578,0.24907874,-0.12538399,0.6063801,0.07927984,0.7912129,0.07444048,0.9849881,-0.15574685,-0.7916829,0.15334006,0.5913755,,0.044864636,0.43160123,-0.37377182,0.6925863,-0.018319292,-0.72110236,-0.32438022,0.88498473,-0.33403522,0.64428383,0.46525958,0.60698587,,0.8265332085967524,-0.35657402226869406,0.16341420627000003,0.6389252577973457,-0.24266642358342222,0.5035200425708283,0.8719306250247827,,-0.6686110440517353,-0.5506617448637044,0.14974482822000001,2.137369593937757,0.35785099288568856,0.6492989541186304,0.8755241944797366,,-0.06956664232292899,-0.09922196797587764,0.1150502548,-0.034016912529394594,,-2.8297305e-05,2.5629997e-06,-1.7881393e-06,1.0,2.5052577e-05,2.0500273e-05,-2.5060028e-05,1.0,2.2947788e-06,-2.0503998e-05,-2.3245811e-06,1.0,660,2.022,0,0,0.0,False,1.0471975310092834,1.0503840309727575
1.9632693330004258,11:40:48.187652,11:40:30.079939,0,,0.0069158366,0.011689864,0.07086843,-0.6357014,-0.16628677,-0.75381184,-0.48158562,0.8486137,0.21892922,0.6032901,0.5021985,-0.61954635,,0.15383503,-0.034199294,0.046080828,-0.62512493,-0.17872034,0.75978816,0.2223725,0.89231026,0.39285243,-0.7481773,0.41453782,-0.5180628,,0.0874331,1.3322504,0.46482792,0.99604493,0.0029055744,-0.088803686,-0.05384422,-0.7752969,-0.6292976,-0.0706777,0.63159025,-0.7720741,,-0.04879667,0.24907939,-0.12538406,0.60637546,0.079276755,0.7912168,0.07443996,0.984989,-0.1557415,-0.7916865,0.15333597,0.5913718,,0.044864636,0.43160123,-0.37377182,0.6925863,-0.018319292,-0.72110236,-0.32438022,0.88498473,-0.33403522,0.64428383,0.46525958,0.60698587,,0.8265409313296266,-0.35657402226869406,0.16341420627000003,0.6389252577973457,-0.24266642358342222,0.5035200425708283,0.8719306250247827,,-0.6686110440517353,-0.5506617448637044,0.14974482822000001,2.137369593937757,0.35785099288568856,0.6492989541186304,0.8755241944797366,,-0.06956664232292899,-0.09922196797587764,0.1150502548,-0.034016912529394594,,-2.8297305e-05,2.5629997e-06,-1.7881393e-06,1.0,2.5052577e-05,2.0500273e-05,-2.5060028e-05,1.0,2.2947788e-06,-2.0503998e-05,-2.3245811e-06,1.0,668,2.046,0,0,0.0,False,1.046244287512947,1.0507219923782136
2.053814003998923,11:40:48.218475,11:40:30.079939,0,,0.0069168014,0.011689454,0.070868045,-0.635706,-0.16628961,-0.7538074,-0.48158315,0.8486155,0.21892771,0.6032873,0.5021946,-0.61955225,,0.15383503,-0.034199294,0.046080828,-0.62512493,-0.17872034,0.75978816,0.2223725,0.89231026,0.39285243,-0.7481773,0.41453782,-0.5180628,,0.0874331,1.3322504,0.46482792,0.99604493,0.0029055744,-0.088803686,-0.05384422,-0.7752969,-0.6292976,-0.0706777,0.63159025,-0.7720741,,-0.048797578,0.24907874,-0.12538399,0.6063801,0.07927984,0.7912129,0.07444048,0.9849881,-0.15574685,-0.7916829,0.15334006,0.5913755,,0.044864636,0.43160123,-0.37377182,0.6925863,-0.018319292,-0.72110236,-0.32438022,0.88498473,-0.33403522,0.64428383,0.46525958,0.60698587,,0.8265332085967524,-0.35657402226869406,0.16341420627000003,0.6389252577973457,-0.24266642358342222,0.5035200425708283,0.8719306250247827,,-0.6686110440517353,-0.5506617448637044,0.14974482822000001,2.137369593937757,0.35785099288568856,0.6492989541186304,0.8755241944797366,,-0.06956664232292899,-0.09922196797587764,0.1150502548,-0.034016912529394594,,-2.8297305e-05,2.5629997e-06,-1.7881393e-06,1.0,2.5052577e-05,2.0500273e-05,-2.5060028e-05,1.0,2.2947788e-06,-2.0503998e-05,-2.3245811e-06,1.0,676,2.071,0,0,0.0,False,1.0464825983870312,1.0505771517758753
2.0846393190004164,11:40:48.239153,11:40:30.079939,0,,0.0069168014,0.011689454,0.070868045,-0.635706,-0.16628961,-0.7538074,-0.48158315,0.8486155,0.21892771,0.6032873,0.5021946,-0.61955225,,0.15383421,-0.034199547,0.04608041,-0.6251305,-0.17871928,0.75978386,0.22236896,0.8923111,0.3928524,-0.7481738,0.41453633,-0.51806915,,0.0874331,1.3322504,0.46482792,0.99604493,0.0029055744,-0.088803686,-0.05384422,-0.7752969,-0.6292976,-0.0706777,0.63159025,-0.7720741,,-0.048797578,0.24907874,-0.12538399,0.6063801,0.07927984,0.7912129,0.07444048,0.9849881,-0.15574685,-0.7916829,0.15334006,0.5913755,,0.044865523,0.43160093,-0.37377173,0.69259167,-0.01832021,-0.7210972,-0.3243783,0.8849839,-0.33403933,0.644279,0.46526113,0.6069898,,0.8265332085967524,-0.35657402226869406,0.16341420627000003,0.6389252577973457,-0.24266642358342222,0.5035200425708283,0.8719306250247827,,-0.6686033213188611,-0.5506617448637044,0.14974482822000001,2.137369593937757,0.35785099288568856,0.6492989541186304,0.8755241944797366,,-0.06956664232292899,-0.09922196797587764,0.1150502548,-0.034016912529394594,,-2.8297305e-05,2.5629997e-06,-1.7881393e-06,1.0,2.5052577e-05,2.0500273e-05,-2.5060028e-05,1.0,2.2947788e-06,-2.0503998e-05,-2.3245811e-06,1.0,684,2.095,0,0,0.0,False,1.0467209092611154,1.0507702725789931
2.1052497300006507,11:40:48.272617,11:40:30.079939,0,,0.0069168014,0.011689454,0.070868045,-0.635706,-0.16628961,-0.7538074,-0.48158315,0.8486155,0.21892771,0.6032873,0.5021946,-0.61955225,,0.15383503,-0.034199294,0.046080828,-0.62512493,-0.17872034,0.75978816,0.2223725,0.89231026,0.39285243,-0.7481773,0.41453782,-0.5180628,,0.0874331,1.3322504,0.46482792,0.99604493,0.0029055744,-0.088803686,-0.05384422,-0.7752969,-0.6292976,-0.0706777,0.63159025,-0.7720741,,-0.048797578,0.24907874,-0.12538399,0.6063801,0.07927984,0.7912129,0.07444048,0.9849881,-0.15574685,-0.7916829,0.15334006,0.5913755,,0.044864636,0.43160123,-0.37377182,0.6925863,-0.018319292,-0.72110236,-0.32438022,0.88498473,-0.33403522,0.64428383,0.46525958,0.60698587,,0.8265332085967524,-0.35657402226869406,0.16341420627000003,0.6389252577973457,-0.24266642358342222,0.5035200425708283,0.8719306250247827,,-0.6686110440517353,-0.5506617448637044,0.14974482822000001,2.137369593937757,0.35785099288568856,0.6492989541186304,0.8755241944797366,,-0.06956664232292899,-0.09922196797587764,0.1150502548,-0.034016912529394594,,-2.8297305e-05,2.5629997e-06,-1.7881393e-06,1.0,2.5052577e-05,2.0500273e-05,-2.5060028e-05,1.0,2.2947788e-06,-2.0503998e-05,-2.3245811e-06,1.0,692,2.12,0,0,0.0,False,1.0469592201351996,1.0507219923782136
2.138783242999125,11:40:48.297701,11:40:30.278982,0,,0.0069168014,0.011689454,0.070868045,-0.635706,-0.16628961,-0.7538074,-0.48158315,0.8486155,0.21892771,0.6032873,0.5021946,-0.61955225,,0.15383503,-0.034199294,0.046080828,-0.62512493,-0.17872034,0.75978816,0.2223725,0.89231026,0.39285243,-0.7481773,0.41453782,-0.5180628,,0.0874331,1.3322504,0.46482792,0.99604493,0.0029055744,-0.088803686,-0.05384422,-0.7752969,-0.6292976,-0.0706777,0.63159025,-0.7720741,,-0.048797578,0.24907874,-0.12538399,0.6063801,0.07927984,0.7912129,0.07444048,0.9849881,-0.15574685,-0.7916829,0.15334006,0.5913755,,0.044864636,0.43160123,-0.37377182,0.6925863,-0.018319292,-0.72110236,-0.32438022,0.88498473,-0.33403522,0.64428383,0.46525958,0.60698587,,0.8265332085967524,-0.35657402226869406,0.16341420627000003,0.6389252577973457,-0.24266642358342222,0.5035200425708283,0.8719306250247827,,-0.6686110440517353,-0.5506617448637044,0.14974482822000001,2.137369593937757,0.35785099288568856,0.6492989541186304,0.8755241944797366,,-0.06956664232292899,-0.09922196797587764,0.1150502548,-0.034016912529394594,,-2.8297305e-05,2.5629997e-06,-1.7881393e-06,1.0,2.5052577e-05,2.0500273e-05,-2.5060028e-05,1.0,2.2947788e-06,-2.0503998e-05,-2.3245811e-06,1.0,700,2.146,0,0,0.0,False,1.0463634429499895,1.0507702725789931
2.163849698999911,11:40:48.318397,11:40:30.278982,0,,0.0069168014,0.011689454,0.070868045,-0.635706,-0.16628961,-0.7538074,-0.48158315,0.8486155,0.21892771,0.6032873,0.5021946,-0.61955225,,0.15383503,-0.034199294,0.046080828,-0.62512493,-0.17872034,0.75978816,0.2223725,0.89231026,0.39285243,-0.7481773,0.41453782,-0.5180628,,0.0874331,1.3322504,0.46482792,0.99604493,0.0029055744,-0.088803686,-0.05384422,-0.7752969,-0.6292976,-0.0706777,0.63159025,-0.7720741,,-0.048797578,0.24907874,-0.12538399,0.6063801,0.07927984,0.7912129,0.07444048,0.9849881,-0.15574685,-0.7916829,0.15334006,0.5913755,,0.044864636,0.43160123,-0.37377182,0.6925863,-0.018319292,-0.72110236,-0.32438022,0.88498473,-0.33403522,0.64428383,0.46525958,0.60698587,,0.8265332085967524,-0.35657402226869406,0.16341420627000003,0.6389252577973457,-0.24266642358342222,0.5035200425708283,0.8719306250247827,,-0.6686110440517353,-0.5506617448637044,0.14974482822000001,2.137369593937757,0.35785099288568856,0.6492989541186304,0.8755241944797366,,-0.06956664232292899,-0.09922196797587764,0.1150502548,-0.034016912529394594,,-2.8297305e-05,2.5629997e-06,-1.7881393e-06,1.0,2.5052577e-05,2.0500273e-05,-2.5060028e-05,1.0,2.2947788e-06,-2.0503998e-05,-2.3245811e-06,1.0,729,2.235,0,0,0.0,False,1.046244287512947,1.050963393382111
2.1845423569993727,11:40:48.406483,11:40:30.278982,0,,0.0069168014,0.011689454,0.070868045,-0.635706,-0.1663512,-0.7537938,-0.48158315,0.84863335,0.2188584,0.6032873,0.502144,-0.6195933,,0.15383503,-0.034199294,0.046080828,-0.62512493,-0.17872034,0.75978816,0.2223725,0.89231026,0.39285243,-0.7481773,0.41453782,-0.5180628,,0.0874331,1.3322504,0.46482792,0.99604493,0.0029055744,-0.088803686,-0.05384422,-0.7752969,-0.6292976,-0.0706777,0.63159025,-0.7720741,,-0.048797578,0.24907874,-0.12538399,0.6063801,0.07934447,0.7912065,0.07444048,0.98497534,-0.1558273,-0.7916829,0.15338835,0.591363,,0.044864636,0.43160123,-0.37377182,0.6925863,-0.018319292,-0.72110236,-0.32438022,0.88498473,-0.33403522,0.64428383,0.46525958,0.60698587,,0.8265332085967524,-0.35657402226869406,0.16341420627000003,0.6389252577973457,-0.24266642358342222,0.5034383638306877,0.8720939690909169,,-0.6686110440517353,-0.5506617448637044,0.14974482822000001,2.137369593937757,0.35785099288568856,0.6492989541186304,0.8755241944797366,,-0.06956664232292899,-0.09922196797587764,0.1150502548,-0.034016912529394594,,-2.8297305e-05,2.5629997e-06,-1.7881393e-06,1.0,2.5052577e-05,2.0500273e-05,-2.5060028e-05,1.0,2.2947788e-06,-2.0503998e-05,-2.3245811e-06,1.0,733,2.247,0,0,0.0,False,1.0464825983870312,1.0503840309727575
2.272651973999018,11:40:48.436500,11:40:30.278982,0,,0.006917036,0.011689059,0.070867956,-0.63560224,-0.16656409,-0.7538342,-0.4817559,0.8485763,0.21869904,0.6032586,0.50216967,-0.6196004,,0.15383503,-0.034199294,0.046080828,-0.62512493,-0.17872034,0.75978816,0.2223725,0.89231026,0.39285243,-0.7481773,0.41453782,-0.5180628,,0.0874331,1.3322504,0.46482792,0.99604493,0.0029055744,-0.088803686,-0.05384422,-0.7752969,-0.6292976,-0.0706777,0.63159025,-0.7720741,,-0.048797783,0.24907836,-0.12538418,0.6062882,0.07955707,0.7912555,0.074280165,0.984968,-0.15595008,-0.7917683,0.15332529,0.591265,,0.044864636,0.43160123,-0.37377182,0.6925863,-0.018319292,-0.72110236,-0.32438022,0.88498473,-0.33403522,0.64428383,0.46525958,0.60698587,,0.8265332085967524,-0.35657402226869406,0.16341420627000003,0.6387155678538612,-0.24266642358342222,0.5033566850905471,0.8722573131570512,,-0.6686110440517353,-0.5506617448637044,0.14974482822000001,2.137369593937757,0.35785099288568856,0.6492989541186304,0.8755241944797366,,-0.06956664232292899,-0.09922196797587764,0.1150502548,-0.034016912529394594,,-2.8297305e-05,2.5629997e-06,-1.7881393e-06,1.0,2.5052577e-05,2.0500273e-05,-2.5060028e-05,1.0,2.2947788e-06,-2.0503998e-05,-2.3245811e-06,1.0,749,2.296,0,0,0.0,False,1.0464825983870312,1.0503840309727575
2.3026636009999493,11:40:48.471390,11:40:30.453421,0,,0.0069172727,0.011688679,0.070867896,-0.6354986,-0.16671538,-0.7538882,-0.4819287,0.84850144,0.21860898,0.6032299,0.502246,-0.6195665,,0.15383503,-0.034199294,0.046080828,-0.62512493,-0.17872034,0.75978816,0.2223725,0.89231026,0.39285243,-0.7481773,0.41453782,-0.5180628,,0.0874331,1.3322504,0.46482792,0.99604493,0.0029055744,-0.088803686,-0.05384422,-0.7752969,-0.6292976,-0.0706777,0.63159025,-0.7720741,,-0.04879799,0.249078,-0.12538438,0.60619634,0.07970503,0.791311,0.07411986,0.98497343,-0.15599242,-0.79185367,0.1532139,0.59117955,,0.044864636,0.43160123,-0.37377182,0.6925863,-0.018319292,-0.72110236,-0.32438022,0.88498473,-0.33403522,0.64428383,0.46525958,0.60698587,,0.8265332085967524,-0.35657402226869406,0.16341420627000003,0.6385058779103767,-0.24266642358342222,0.5033566850905471,0.8722573131570512,,-0.6686110440517353,-0.5506617448637044,0.14974482822000001,2.137369593937757,0.35785099288568856,0.6492989541186304,0.8755241944797366,,-0.06956664232292899,-0.09922196797587764,0.1150502548,-0.034016912529394594,,-2.8297305e-05,2.5629997e-06,-1.7881393e-06,1.0,2.5052577e-05,2.0500273e-05,-2.5060028e-05,1.0,2.2947788e-06,-2.0503998e-05,-2.3245811e-06,1.0,757,2.321,0,0,0.0,False,1.0469592201351996,1.05105995378367
2.3375533529997483,11:40:48.493627,11:40:30.453421,0,,0.0069172727,0.011688679,0.070867896,-0.6354986,-0.16671538,-0.7538882,-0.4819287,0.84850144,0.21860898,0.6032299,0.502246,-0.6195665,,0.15383503,-0.034199294,0.046080828,-0.62512493,-0.17872034,0.75978816,0.2223725,0.89231026,0.39285243,-0.7481773,0.41453782,-0.5180628,,0.0874331,1.3322504,0.46482792,0.99604493,0.0029055744,-0.088803686,-0.05384422,-0.7752969,-0.6292976,-0.0706777,0.63159025,-0.7720741,,-0.04879799,0.249078,-0.12538438,0.60619634,0.07970503,0.791311,0.07411986,0.98497343,-0.15599242,-0.79185367,0.1532139,0.59117955,,0.044864636,0.43160123,-0.37377182,0.6925863,-0.018319292,-0.72110236,-0.32438022,0.88498473,-0.33403522,0.64428383,0.46525958,0.60698587,,0.8265332085967524,-0.35657402226869406,0.16341420627000003,0.6385058779103767,-0.24266642358342222,0.5033566850905471,0.8722573131570512,,-0.6686110440517353,-0.5506617448637044,0.14974482822000001,2.137369593937757,0.35785099288568856,0.6492989541186304,0.8755241944797366,,-0.06956664232292899,-0.09922196797587764,0.1150502548,-0.034016912529394594,,-2.8297305e-05,2.5629997e-06,-1.7881393e-06,1.0,2.5052577e-05,2.0500273e-05,-2.5060028e-05,1.0,2.2947788e-06,-2.0503998e-05,-2.3245811e-06,1.0,765,2.346,0,0,0.0,False,1.0464825983870312,1.0507219923782136
2.3597830349990545,11:40:48.519421,11:40:30.453421,0,,0.0069172727,0.011688679,0.070867896,-0.6354986,-0.16671538,-0.7538882,-0.4819287,0.84850144,0.21860898,0.6032299,0.502246,-0.6195665,,0.15383421,-0.034199547,0.04608041,-0.6251305,-0.17871928,0.75978386,0.22236896,0.8923111,0.3928524,-0.7481738,0.41453633,-0.51806915,,0.0874331,1.3322504,0.46482792,0.99604493,0.0029055744,-0.088803686,-0.05384422,-0.7752969,-0.6292976,-0.0706777,0.63159025,-0.7720741,,-0.04879799,0.249078,-0.12538438,0.60619634,0.07970503,0.791311,0.07411986,0.98497343,-0.15599242,-0.79185367,0.1532139,0.59117955,,0.044865523,0.43160093,-0.37377173,0.69259167,-0.01832021,-0.7210972,-0.3243783,0.8849839,-0.33403933,0.644279,0.46526113,0.6069898,,0.8265332085967524,-0.35657402226869406,0.16341420627000003,0.6385058779103767,-0.24266642358342222,0.5033566850905471,0.8722573131570512,,-0.6686033213188611,-0.5506617448637044,0.14974482822000001,2.137369593937757,0.35785099288568856,0.6492989541186304,0.8755241944797366,,-0.06956664232292899,-0.09922196797587764,0.1150502548,-0.034016912529394594,,-2.8297305e-05,2.5629997e-06,-1.7881393e-06,1.0,2.5052577e-05,2.0500273e-05,-2.5060028e-05,1.0,2.2947788e-06,-2.0503998e-05,-2.3245811e-06,1.0,798,2.448,0,0,0.0,False,1.0466613315425946,1.0507702725789931
2.385582685999907,11:40:48.619102,11:40:30.453421,0,,0.0068675056,0.011700213,0.07086618,-0.6355237,-0.16668582,-0.7538735,-0.48190448,0.84850687,0.218641,0.60322267,0.50224674,-0.619573,,0.15379015,-0.034219947,0.046084166,-0.62509334,-0.17864442,0.759832,0.22242188,0.8923311,0.39277682,-0.7481891,0.4145254,-0.51805574,,0.08747229,1.3322492,0.46482322,0.99604255,0.0028720207,-0.08883092,-0.05388733,-0.77529705,-0.62929374,-0.0706777,0.63159025,-0.7720741,,-0.048783448,0.24909367,-0.12537764,0.6062016,0.079712376,0.79130626,0.07411344,0.984973,-0.15599804,-0.79185027,0.15321268,0.59118444,,0.044875756,0.4316005,-0.37379268,0.6925568,-0.01835238,-0.7211299,-0.32438827,0.88497347,-0.33405724,0.64431155,0.46527967,0.60694104,,0.8265332085967524,-0.35657402226869406,0.16341420627000003,0.6385058779103767,-0.24266642358342222,0.5033566850905471,0.8722573131570512,,-0.6686033213188611,-0.5506617448637044,0.14974482822000001,2.137369593937757,0.35785099288568856,0.6492989541186304,0.8755241944797366,,-0.06956664232292899,-0.09922196797587764,0.1150502548,-0.034016912529394594,,1.1127442e-05,5.364418e-07,-8.34465e-07,1.0,-8.359551e-06,-6.8359077e-06,8.355826e-06,1.0,-7.748604e-07,6.8433583e-06,7.1525574e-07,0.99999994,802,2.46,0,0,0.0,False,1.0467209092611154,1.0501909101696396
2.4852696229991125,11:40:48.647315,11:40:30.613921,0,,0.0068675056,0.011700213,0.07086618,-0.6355237,-0.16668582,-0.7538735,-0.48190448,0.84850687,0.218641,0.60322267,0.50224674,-0.619573,,0.15379098,-0.03421971,0.046084523,-0.62508774,-0.17864545,0.7598363,0.22242534,0.8923302,0.3927769,-0.74819267,0.41452688,-0.51804936,,0.08747229,1.3322492,0.46482322,0.99604255,0.0028720207,-0.08883092,-0.05388733,-0.77529705,-0.62929374,-0.0706777,0.63159025,-0.7720741,,-0.048783448,0.24909367,-0.12537764,0.6062016,0.079712376,0.79130626,0.07411344,0.984973,-0.15599804,-0.79185027,0.15321268,0.59118444,,0.04487487,0.43160078,-0.37379274,0.6925514,-0.01835146,-0.7211351,-0.32439017,0.8849743,-0.33405313,0.6443164,0.4652781,0.60693717,,0.8265332085967524,-0.35657402226869406,0.16341420627000003,0.6385058779103767,-0.24266642358342222,0.5033566850905471,0.8722573131570512,,-0.6686110440517353,-0.5506617448637044,0.14974482822000001,2.137369593937757,0.35785099288568856,0.6492989541186304,0.8755241944797366,,-0.06956664232292899,-0.09922196797587764,0.1150502548,-0.034016912529394594,,1.1127442e-05,5.364418e-07,-8.34465e-07,1.0,-8.359551e-06,-6.8359077e-06,8.355826e-06,1.0,-7.748604e-07,6.8433583e-06,7.1525574e-07,0.99999994,814,2.497,0,0,0.0,False,1.0470783755722417,1.0505771517758753
2.513469477000399,11:40:48.670425,11:40:30.613921,0,,0.0068675056,0.011700213,0.07086618,-0.6355237,-0.16668582,-0.7538735,-0.48190448,0.84850687,0.218641,0.60322267,0.50224674,-0.619573,,0.15379098,-0.03421971,0.046084523,-0.62508774,-0.17864545,0.7598363,0.22242534,0.8923302,0.3927769,-0.74819267,0.41452688,-0.51804936,,0.08747229,1.3322492,0.46482322,0.99604255,0.0028720207,-0.08883092,-0.05388733,-0.77529705,-0.62929374,-0.0706777,0.63159025,-0.7720741,,-0.048783448,0.24909367,-0.12537764,0.6062016,0.079712376,0.79130626,0.07411344,0.984973,-0.15599804,-0.79185027,0.15321268,0.59118444,,0.04487487,0.43160078,-0.37379274,0.6925514,-0.01835146,-0.7211351,-0.32439017,0.8849743,-0.33405313,0.6443164,0.4652781,0.60693717,,0.8265332085967524,-0.35657402226869406,0.16341420627000003,0.6385058779103767,-0.24266642358342222,0.5033566850905471,0.8722573131570512,,-0.6686110440517353,-0.5506617448637044,0.14974482822000001,2.137369593937757,0.35785099288568856,0.6492989541186304,0.8755241944797366,,-0.06956664232292899,-0.09922196797587764,0.1150502548,-0.034016912529394594,,1.1127442e-05,5.364418e-07,-8.34465e-07,1.0,-8.359551e-06,-6.8359077e-06,8.355826e-06,1.0,-7.748604e-07,6.8433583e-06,7.1525574e-07,0.99999994,822,2.521,0,0,0.0,False,1.0468996424166788,1.0502391903704191
