AlexandreBanks6/ExpertPlaybackApp/resources/Motions/PC1/Data_PC1_32.csv
Task Time,PC1 Time,PC2 Time,Gaze Calib,s_T_psm1,Tx,Ty,Tz,R00,R01,R02,R10,R11,R12,R20,R21,R22,s_T_psm3,Tx,Ty,Tz,R00,R01,R02,R10,R11,R12,R20,R21,R22,cart_T_ecm,Tx,Ty,Tz,R00,R01,R02,R10,R11,R12,R20,R21,R22,ecm_T_psm1,Tx,Ty,Tz,R00,R01,R02,R10,R11,R12,R20,R21,R22,ecm_T_psm3,Tx,Ty,Tz,R00,R01,R02,R10,R11,R12,R20,R21,R22,psm1_joints,q1,q2,q3,q4,q5,q6,jaw,psm3_joints,q1,q2,q3,q4,q5,q6,jaw,ecm_joints,q1,q2,q3,q4,ecmi_T_ecm,Tx,Ty,Tz,R00,R01,R02,R10,R11,R12,R20,R21,R22,Sample #,Task Duration (s),Collisions (binary),Collisions (increments),Cumulative Collision Time (s),Clutch Press,MTMR Angle,MTML Angle
""
lci_T_si,,,,,-0.06898526,0.020701768,0.26646116,0.99524903,0.039761525,0.08887299,0.08733554,-0.7680476,-0.6344095,0.043033596,0.63915724,-0.7678712
rci_T_si,,,,,-0.07887844,0.025336359,0.275893,0.9951804,0.0223268,0.09548541,0.07935995,-0.7553523,-0.6504959,0.057601634,0.65493846,-0.75348365
ecm_T_lc,,,,,-4.4061628e-05,-0.00034663224,-0.01840835,-0.99912,0.030754527,0.028518902,-0.031987965,-0.99852574,-0.043852776,0.027128186,-0.04472645,0.9986309
ecm_T_rc,,,,,-0.0043358393,0.01870579,-0.007592615,-0.99555075,-0.052743673,-0.078081585,0.04863213,-0.9973746,0.053654674,-0.08070653,0.04961868,0.9955021
cart_T_ecmi,,,,,0.08793379,1.3355951,0.46886325,0.99604386,0.0028466375,-0.08881712,-0.05387473,-0.7755069,-0.6290362,-0.07066893,0.63133264,-0.7722856
ecmac_T_ecmrep_psm1,,,,,0.08626859,-0.2052861,-0.33370098,0.999004,0.025128257,0.036871605,-0.023534218,0.9987958,-0.04304718,-0.037908904,0.04213656,0.9983924
ecmac_T_ecmrep_psm3,,,,,-0.16209933,-0.49188918,-0.56672233,0.99379694,-0.09876928,0.05111077,0.087427974,0.9779163,0.18983154,-0.068731576,-0.18418549,0.98048544
""
0,11:09:41.166456,NaN,0,,0.028383166,0.050277703,0.07429285,-0.86741537,-0.37173894,-0.33075774,-0.49159265,0.74307984,0.45405814,0.07698837,0.55645514,-0.8273032,,0.14117551,-0.045615055,0.06931406,-0.7419349,-0.61788154,0.26029795,-0.44379967,0.74358904,0.50011706,-0.50256777,0.25553405,-0.82591033,,0.087915614,1.335597,0.468873,0.9960443,0.002852555,-0.08881232,-0.053867128,-0.7755069,-0.62903684,-0.07066893,0.63133264,-0.7722856,,-0.072695054,0.2788098,-0.09693342,0.88164324,0.2841253,0.37679976,-0.24619253,0.95809925,-0.14640735,-0.4026096,0.03631376,0.9146512,,0.055059385,0.44425833,-0.39091256,0.86673176,0.45669016,-0.20052469,-0.49773586,0.7660153,-0.40679184,-0.032172855,0.45238772,0.89124084,,0.817922361441992,-0.08605441241748371,0.15336277361,0.637038048305985,0.11873711829616776,0.3038937408174081,0.8699704962311713,,-0.6229001881692005,-0.6850527423409594,0.12728790026,1.4493768893650323,0.22708986261016204,0.789659207634158,0.8675203352391572,,-0.06956664232292899,-0.09960812207288139,0.10977815991999999,-0.034016912529394594,,-1.8898398e-05,4.529953e-06,-7.033348e-06,1.0,5.8971345e-06,4.8168004e-06,-5.8934093e-06,1.0,5.066395e-07,-4.8205256e-06,-5.364418e-07,1.0,0,0.0,0,0,0.0,False[1.04672091][1.04922531]
0.02754075600023498,11:09:41.185035,NaN,0,,0.028383166,0.050277703,0.07429285,-0.86741537,-0.37173894,-0.33075774,-0.49159265,0.74307984,0.45405814,0.07698837,0.55645514,-0.8273032,,0.14117551,-0.045615055,0.06931406,-0.7419349,-0.61788154,0.26029795,-0.44379967,0.74358904,0.50011706,-0.50256777,0.25553405,-0.82591033,,0.087915614,1.335597,0.468873,0.9960443,0.002852555,-0.08881232,-0.053867128,-0.7755069,-0.62903684,-0.07066893,0.63133264,-0.7722856,,-0.072695054,0.2788098,-0.09693342,0.88164324,0.2841253,0.37679976,-0.24619253,0.95809925,-0.14640735,-0.4026096,0.03631376,0.9146512,,0.055059385,0.44425833,-0.39091256,0.86673176,0.45669016,-0.20052469,-0.49773586,0.7660153,-0.40679184,-0.032172855,0.45238772,0.89124084,,0.817922361441992,-0.08605441241748371,0.15336277361,0.637038048305985,0.11873711829616776,0.3038937408174081,0.8699704962311713,,-0.6229001881692005,-0.6850527423409594,0.12728790026,1.4493768893650323,0.22708986261016204,0.789659207634158,0.8675203352391572,,-0.06956664232292899,-0.09960812207288139,0.10977815991999999,-0.034016912529394594,,-1.8898398e-05,4.529953e-06,-7.033348e-06,1.0,5.8971345e-06,4.8168004e-06,-5.8934093e-06,1.0,5.066395e-07,-4.8205256e-06,-5.364418e-07,1.0,7,0.021,0,0,0.0,False[1.04678049][1.04941843]
0.0461144040000363,11:09:41.215727,NaN,0,,0.028383635,0.05027873,0.07429285,-0.86741686,-0.37173858,-0.33075416,-0.49159086,0.7430771,0.45406458,0.07698259,0.55645895,-0.8273011,,0.14117613,-0.045614846,0.06931436,-0.74193233,-0.6178818,0.26030463,-0.44379666,0.7435895,0.50011903,-0.50257415,0.25553203,-0.8259071,,0.087915614,1.335597,0.468873,0.9960443,0.002852555,-0.08881232,-0.053867128,-0.7755069,-0.62903684,-0.07066893,0.63133264,-0.7722856,,-0.07269557,0.27881053,-0.096932754,0.88164514,0.28412476,0.37679568,-0.2461947,0.95809954,-0.14640148,-0.40260407,0.03630905,0.91465384,,0.05505869,0.4442585,-0.39091256,0.8667298,0.45669067,-0.20053197,-0.4977396,0.7660141,-0.4067895,-0.032166664,0.4523893,0.8912403,,0.817922361441992,-0.08604668968460949,0.15336277361,0.637038048305985,0.11873711829616776,0.3038937408174081,0.8699704962311713,,-0.6229079109020748,-0.6850527423409594,0.12728790026,1.4493768893650323,0.22708986261016204,0.789659207634158,0.8675203352391572,,-0.06956664232292899,-0.09960812207288139,0.10977815991999999,-0.034016912529394594,,-1.8898398e-05,4.529953e-06,-7.033348e-06,1.0,5.8971345e-06,4.8168004e-06,-5.8934093e-06,1.0,5.066395e-07,-4.8205256e-06,-5.364418e-07,1.0,19,0.057,0,0,0.0,False[1.0464826][1.05004607]
0.0768069400000968,11:09:41.240230,NaN,0,,0.02838415,0.05027727,0.074292466,-0.86741626,-0.37174222,-0.3307517,-0.49159175,0.7430819,0.45405567,0.07698402,0.55645007,-0.827307,,0.14117551,-0.045615055,0.06931406,-0.7419349,-0.61788154,0.26029795,-0.44379967,0.74358904,0.50011706,-0.50256777,0.25553405,-0.82591033,,0.087915614,1.335597,0.468873,0.9960443,0.002852555,-0.08881232,-0.053867128,-0.7755069,-0.62903684,-0.07066893,0.63133264,-0.7722856,,-0.07269597,0.27880913,-0.096933365,0.8816444,0.2841289,0.37679416,-0.24619454,0.95809793,-0.14641224,-0.40260568,0.03631887,0.9146527,,0.055059385,0.44425833,-0.39091256,0.86673176,0.45669016,-0.20052469,-0.49773586,0.7660153,-0.40679184,-0.032172855,0.45238772,0.89124084,,0.8179146387091178,-0.08605441241748371,0.15336277361,0.637038048305985,0.11873711829616776,0.3038937408174081,0.8699704962311713,,-0.6229001881692005,-0.6850527423409594,0.12728790026,1.4493768893650323,0.22708986261016204,0.789659207634158,0.8675203352391572,,-0.06956664232292899,-0.09960812207288139,0.10977815991999999,-0.034016912529394594,,-1.8898398e-05,4.529953e-06,-7.033348e-06,1.0,5.8971345e-06,4.8168004e-06,-5.8934093e-06,1.0,5.066395e-07,-4.8205256e-06,-5.364418e-07,1.0,26,0.078,0,0,0.0,False[1.0470188][1.04961155]
0.10127847299918358,11:09:41.266806,NaN,0,,0.028383166,0.050277703,0.07429285,-0.86741537,-0.37173894,-0.33075774,-0.49159265,0.74307984,0.45405814,0.07698837,0.55645514,-0.8273032,,0.14117551,-0.045615055,0.06931406,-0.7419349,-0.61788154,0.26029795,-0.44379967,0.74358904,0.50011706,-0.50256777,0.25553405,-0.82591033,,0.087915614,1.335597,0.468873,0.9960443,0.002852555,-0.08881232,-0.053867128,-0.7755069,-0.62903684,-0.07066893,0.63133264,-0.7722856,,-0.072695054,0.2788098,-0.09693342,0.88164324,0.2841253,0.37679976,-0.24619253,0.95809925,-0.14640735,-0.4026096,0.03631376,0.9146512,,0.055059385,0.44425833,-0.39091256,0.86673176,0.45669016,-0.20052469,-0.49773586,0.7660153,-0.40679184,-0.032172855,0.45238772,0.89124084,,0.817922361441992,-0.08605441241748371,0.15336277361,0.637038048305985,0.11873711829616776,0.3038937408174081,0.8699704962311713,,-0.6229001881692005,-0.6850527423409594,0.12728790026,1.4493768893650323,0.22708986261016204,0.789659207634158,0.8675203352391572,,-0.06956664232292899,-0.09960812207288139,0.10977815991999999,-0.034016912529394594,,-1.8898398e-05,4.529953e-06,-7.033348e-06,1.0,5.8971345e-06,4.8168004e-06,-5.8934093e-06,1.0,5.066395e-07,-4.8205256e-06,-5.364418e-07,1.0,33,0.099,0,0,0.0,False[1.04695922][1.04941843]
0.1278900329998578,11:09:41.287698,NaN,0,,0.028383166,0.050277703,0.07429285,-0.86741537,-0.37173894,-0.33075774,-0.49159265,0.74307984,0.45405814,0.07698837,0.55645514,-0.8273032,,0.14117613,-0.045614846,0.06931436,-0.74193233,-0.6178818,0.26030463,-0.44379666,0.7435895,0.50011903,-0.50257415,0.25553203,-0.8259071,,0.087915614,1.335597,0.468873,0.9960443,0.002852555,-0.08881232,-0.053867128,-0.7755069,-0.62903684,-0.07066893,0.63133264,-0.7722856,,-0.072695054,0.2788098,-0.09693342,0.88164324,0.2841253,0.37679976,-0.24619253,0.95809925,-0.14640735,-0.4026096,0.03631376,0.9146512,,0.05505869,0.4442585,-0.39091256,0.8667298,0.45669067,-0.20053197,-0.4977396,0.7660141,-0.4067895,-0.032166664,0.4523893,0.8912403,,0.817922361441992,-0.08605441241748371,0.15336277361,0.637038048305985,0.11873711829616776,0.3038937408174081,0.8699704962311713,,-0.6229079109020748,-0.6850527423409594,0.12728790026,1.4493768893650323,0.22708986261016204,0.789659207634158,0.8675203352391572,,-0.06956664232292899,-0.09960812207288139,0.10977815991999999,-0.034016912529394594,,-1.8898398e-05,4.529953e-06,-7.033348e-06,1.0,5.8971345e-06,4.8168004e-06,-5.8934093e-06,1.0,5.066395e-07,-4.8205256e-06,-5.364418e-07,1.0,41,0.123,0,0,0.0,False[1.04689964][1.04994951]
0.14875026699883165,11:09:41.311221,NaN,0,,0.02838415,0.05027727,0.074292466,-0.86741626,-0.37174222,-0.3307517,-0.49159175,0.7430819,0.45405567,0.07698402,0.55645007,-0.827307,,0.14117551,-0.045615055,0.06931406,-0.7419349,-0.61788154,0.26029795,-0.44379967,0.74358904,0.50011706,-0.50256777,0.25553405,-0.82591033,,0.087915614,1.335597,0.468873,0.9960443,0.002852555,-0.08881232,-0.053867128,-0.7755069,-0.62903684,-0.07066893,0.63133264,-0.7722856,,-0.07269597,0.27880913,-0.096933365,0.8816444,0.2841289,0.37679416,-0.24619454,0.95809793,-0.14641224,-0.40260568,0.03631887,0.9146527,,0.055059385,0.44425833,-0.39091256,0.86673176,0.45669016,-0.20052469,-0.49773586,0.7660153,-0.40679184,-0.032172855,0.45238772,0.89124084,,0.8179146387091178,-0.08605441241748371,0.15336277361,0.637038048305985,0.11873711829616776,0.3038937408174081,0.8699704962311713,,-0.6229001881692005,-0.6850527423409594,0.12728790026,1.4493768893650323,0.22708986261016204,0.789659207634158,0.8675203352391572,,-0.06956664232292899,-0.09960812207288139,0.10977815991999999,-0.034016912529394594,,-1.8898398e-05,4.529953e-06,-7.033348e-06,1.0,5.8971345e-06,4.8168004e-06,-5.8934093e-06,1.0,5.066395e-07,-4.8205256e-06,-5.364418e-07,1.0,53,0.159,0,0,0.0,False[1.04707838][1.04961155]
0.17224732999966363,11:09:41.346658,NaN,0,,0.028383166,0.050277703,0.07429285,-0.86741537,-0.37173894,-0.33075774,-0.49159265,0.74307984,0.45405814,0.07698837,0.55645514,-0.8273032,,0.14117613,-0.045614846,0.06931436,-0.74193233,-0.6178818,0.26030463,-0.44379666,0.7435895,0.50011903,-0.50257415,0.25553203,-0.8259071,,0.087915614,1.335597,0.468873,0.9960443,0.002852555,-0.08881232,-0.053867128,-0.7755069,-0.62903684,-0.07066893,0.63133264,-0.7722856,,-0.072695054,0.2788098,-0.09693342,0.88164324,0.2841253,0.37679976,-0.24619253,0.95809925,-0.14640735,-0.4026096,0.03631376,0.9146512,,0.05505869,0.4442585,-0.39091256,0.8667298,0.45669067,-0.20053197,-0.4977396,0.7660141,-0.4067895,-0.032166664,0.4523893,0.8912403,,0.817922361441992,-0.08605441241748371,0.15336277361,0.637038048305985,0.11873711829616776,0.3038937408174081,0.8699704962311713,,-0.6229079109020748,-0.6850527423409594,0.12728790026,1.4493768893650323,0.22708986261016204,0.789659207634158,0.8675203352391572,,-0.06956664232292899,-0.09960812207288139,0.10977815991999999,-0.034016912529394594,,-1.8898398e-05,4.529953e-06,-7.033348e-06,1.0,5.8971345e-06,4.8168004e-06,-5.8934093e-06,1.0,5.066395e-07,-4.8205256e-06,-5.364418e-07,1.0,60,0.18,0,0,0.0,False[1.04695922][1.04956327]
0.20774216799873102,11:09:41.369722,NaN,0,,0.028383166,0.050277703,0.07429285,-0.86741537,-0.37173894,-0.33075774,-0.49159265,0.74307984,0.45405814,0.07698837,0.55645514,-0.8273032,,0.14117429,-0.04561595,0.06931311,-0.7421023,-0.61779577,0.2600242,-0.44374862,0.7435641,0.5001994,-0.50236565,0.25581357,-0.8259468,,0.087915614,1.335597,0.468873,0.9960443,0.002852555,-0.08881232,-0.053867128,-0.7755069,-0.62903684,-0.07066893,0.63133264,-0.7722856,,-0.072695054,0.2788098,-0.09693342,0.88164324,0.2841253,0.37679976,-0.24619253,0.95809925,-0.14640735,-0.4026096,0.03631376,0.9146512,,0.055060845,0.4442573,-0.39091265,0.866857,0.4565671,-0.20026346,-0.4975127,0.76620126,-0.40671453,-0.032250356,0.45219696,0.8913349,,0.817922361441992,-0.08605441241748371,0.15336277361,0.637038048305985,0.11873711829616776,0.3038937408174081,0.8699704962311713,,-0.6229079109020748,-0.6850527423409594,0.12728790026,1.4493768893650323,0.22681658961063117,0.7898820434415508,0.8675203352391572,,-0.06956664232292899,-0.09960812207288139,0.10977815991999999,-0.034016912529394594,,-1.8898398e-05,4.529953e-06,-7.033348e-06,1.0,5.8971345e-06,4.8168004e-06,-5.8934093e-06,1.0,5.066395e-07,-4.8205256e-06,-5.364418e-07,1.0,68,0.205,0,0,0.0,False[1.04672091][1.04970811]
0.2307679179994011,11:09:41.390983,NaN,0,,0.028383166,0.050277703,0.07429285,-0.86741537,-0.37173894,-0.33075774,-0.49159265,0.74307984,0.45405814,0.07698837,0.55645514,-0.8273032,,0.14117366,-0.045616157,0.06931281,-0.7421048,-0.6178167,0.2599671,-0.4437516,0.7435229,0.5002581,-0.5023592,0.255883,-0.82592916,,0.087915614,1.335597,0.468873,0.9960443,0.002852555,-0.08881232,-0.053867128,-0.7755069,-0.62903684,-0.07066893,0.63133264,-0.7722856,,-0.072695054,0.2788098,-0.09693342,0.88164324,0.2841253,0.37679976,-0.24619253,0.95809925,-0.14640735,-0.4026096,0.03631376,0.9146512,,0.055061538,0.44425708,-0.39091262,0.8668589,0.45658296,-0.20021889,-0.4975089,0.7662357,-0.40665427,-0.03225655,0.45212257,0.8913724,,0.817922361441992,-0.08605441241748371,0.15336277361,0.637038048305985,0.11873711829616776,0.3038937408174081,0.8699704962311713,,-0.6229001881692005,-0.6850527423409594,0.12728790026,1.4493768893650323,0.22681658961063117,0.7899637221816912,0.8676836793052913,,-0.06956664232292899,-0.09960812207288139,0.10977815991999999,-0.034016912529394594,,-1.8898398e-05,4.529953e-06,-7.033348e-06,1.0,5.8971345e-06,4.8168004e-06,-5.8934093e-06,1.0,5.066395e-07,-4.8205256e-06,-5.364418e-07,1.0,76,0.23,0,0,0.0,False[1.04672091][1.04994951]
0.25187074200039206,11:09:41.411723,NaN,0,,0.028382197,0.050278135,0.07429324,-0.8674144,-0.37173563,-0.33076385,-0.49159354,0.7430777,0.45406067,0.07699281,0.5564601,-0.82729936,,0.14117429,-0.04561595,0.06931311,-0.7421023,-0.617817,0.2599737,-0.44374862,0.74352336,0.50026006,-0.50236565,0.2558811,-0.8259258,,0.087915614,1.335597,0.468873,0.9960443,0.002852555,-0.08881232,-0.053867128,-0.7755069,-0.62903684,-0.07066893,0.63133264,-0.7722856,,-0.07269414,0.27881044,-0.09693347,0.881642,0.2841217,0.37680537,-0.24619052,0.9581005,-0.14640246,-0.40261352,0.03630865,0.91464967,,0.055060845,0.4442573,-0.39091265,0.866857,0.45658344,-0.20022616,-0.4975127,0.7662345,-0.40665194,-0.032250356,0.45212415,0.8913718,,0.8179300841748662,-0.08605441241748371,0.15336277361,0.637038048305985,0.11873711829616776,0.3038937408174081,0.8699704962311713,,-0.6229079109020748,-0.6850527423409594,0.12728790026,1.4493768893650323,0.22681658961063117,0.7899637221816912,0.8676836793052913,,-0.06956664232292899,-0.09960812207288139,0.10977815991999999,-0.034016912529394594,,-1.8898398e-05,4.529953e-06,-7.033348e-06,1.0,5.8971345e-06,4.8168004e-06,-5.8934093e-06,1.0,5.066395e-07,-4.8205256e-06,-5.364418e-07,1.0,84,0.253,0,0,0.0,False[1.04695922][1.05009435]
0.27276998199886293,11:09:41.439515,NaN,0,,0.02838415,0.05027727,0.074292466,-0.86741626,-0.37174222,-0.3307517,-0.49159175,0.7430819,0.45405567,0.07698402,0.55645007,-0.827307,,0.14117366,-0.045616157,0.06931281,-0.7421048,-0.6178167,0.2599671,-0.4437516,0.7435229,0.5002581,-0.5023592,0.255883,-0.82592916,,0.087915614,1.335597,0.468873,0.9960443,0.002852555,-0.08881232,-0.053867128,-0.7755069,-0.62903684,-0.07066893,0.63133264,-0.7722856,,-0.07269597,0.27880913,-0.096933365,0.8816444,0.2841289,0.37679416,-0.24619454,0.95809793,-0.14641224,-0.40260568,0.03631887,0.9146527,,0.055061538,0.44425708,-0.39091262,0.8668589,0.45658296,-0.20021889,-0.4975089,0.7662357,-0.40665427,-0.03225655,0.45212257,0.8913724,,0.8179146387091178,-0.08605441241748371,0.15336277361,0.637038048305985,0.11873711829616776,0.3038937408174081,0.8699704962311713,,-0.6229001881692005,-0.6850527423409594,0.12728790026,1.4493768893650323,0.22681658961063117,0.7899637221816912,0.8676836793052913,,-0.06956664232292899,-0.09960812207288139,0.10977815991999999,-0.034016912529394594,,-1.8898398e-05,4.529953e-06,-7.033348e-06,1.0,5.8971345e-06,4.8168004e-06,-5.8934093e-06,1.0,5.066395e-07,-4.8205256e-06,-5.364418e-07,1.0,91,0.275,0,0,0.0,False[1.04678049][1.04975639]
0.3005576100003964,11:09:41.461906,NaN,0,,0.02838415,0.05027727,0.074292466,-0.86741626,-0.37174222,-0.3307517,-0.49159175,0.7430819,0.45405567,0.07698402,0.55645007,-0.827307,,0.14117366,-0.045616157,0.06931281,-0.7421048,-0.6178167,0.2599671,-0.4437516,0.7435229,0.5002581,-0.5023592,0.255883,-0.82592916,,0.087915614,1.335597,0.468873,0.9960443,0.002852555,-0.08881232,-0.053867128,-0.7755069,-0.62903684,-0.07066893,0.63133264,-0.7722856,,-0.07269597,0.27880913,-0.096933365,0.8816444,0.2841289,0.37679416,-0.24619454,0.95809793,-0.14641224,-0.40260568,0.03631887,0.9146527,,0.055061538,0.44425708,-0.39091262,0.8668589,0.45658296,-0.20021889,-0.4975089,0.7662357,-0.40665427,-0.03225655,0.45212257,0.8913724,,0.8179146387091178,-0.08605441241748371,0.15336277361,0.637038048305985,0.11873711829616776,0.3038937408174081,0.8699704962311713,,-0.6229001881692005,-0.6850527423409594,0.12728790026,1.4493768893650323,0.22681658961063117,0.7899637221816912,0.8676836793052913,,-0.06956664232292899,-0.09960812207288139,0.10977815991999999,-0.034016912529394594,,-1.8898398e-05,4.529953e-06,-7.033348e-06,1.0,5.8971345e-06,4.8168004e-06,-5.8934093e-06,1.0,5.066395e-07,-4.8205256e-06,-5.364418e-07,1.0,99,0.299,0,0,0.0,False[1.04731669][1.04980467]
0.32296759599921643,11:09:41.482589,NaN,0,,0.028383166,0.050277703,0.07429285,-0.86741537,-0.37173894,-0.33075774,-0.49159265,0.74307984,0.45405814,0.07698837,0.55645514,-0.8273032,,0.14117429,-0.04561595,0.06931311,-0.7421023,-0.617817,0.2599737,-0.44374862,0.74352336,0.50026006,-0.50236565,0.2558811,-0.8259258,,0.087915614,1.335597,0.468873,0.9960443,0.002852555,-0.08881232,-0.053867128,-0.7755069,-0.62903684,-0.07066893,0.63133264,-0.7722856,,-0.072695054,0.2788098,-0.09693342,0.88164324,0.2841253,0.37679976,-0.24619253,0.95809925,-0.14640735,-0.4026096,0.03631376,0.9146512,,0.055060845,0.4442573,-0.39091265,0.866857,0.45658344,-0.20022616,-0.4975127,0.7662345,-0.40665194,-0.032250356,0.45212415,0.8913718,,0.817922361441992,-0.08605441241748371,0.15336277361,0.637038048305985,0.11873711829616776,0.3038937408174081,0.8699704962311713,,-0.6229079109020748,-0.6850527423409594,0.12728790026,1.4493768893650323,0.22681658961063117,0.7899637221816912,0.8676836793052913,,-0.06956664232292899,-0.09960812207288139,0.10977815991999999,-0.034016912529394594,,-1.8898398e-05,4.529953e-06,-7.033348e-06,1.0,5.8971345e-06,4.8168004e-06,-5.8934093e-06,1.0,5.066395e-07,-4.8205256e-06,-5.364418e-07,1.0,110,0.332,0,0,0.0,False[1.04713795][1.04961155]
0.3436737459996948,11:09:41.512146,NaN,0,,0.028383166,0.050277703,0.07429285,-0.86741537,-0.37173894,-0.33075774,-0.49159265,0.74307984,0.45405814,0.07698837,0.55645514,-0.8273032,,0.14117429,-0.04561595,0.06931311,-0.7421023,-0.617817,0.2599737,-0.44374862,0.74352336,0.50026006,-0.50236565,0.2558811,-0.8259258,,0.087915614,1.335597,0.468873,0.9960443,0.002852555,-0.08881232,-0.053867128,-0.7755069,-0.62903684,-0.07066893,0.63133264,-0.7722856,,-0.072695054,0.2788098,-0.09693342,0.88164324,0.2841253,0.37679976,-0.24619253,0.95809925,-0.14640735,-0.4026096,0.03631376,0.9146512,,0.055060845,0.4442573,-0.39091265,0.866857,0.45658344,-0.20022616,-0.4975127,0.7662345,-0.40665194,-0.032250356,0.45212415,0.8913718,,0.817922361441992,-0.08605441241748371,0.15336277361,0.637038048305985,0.11873711829616776,0.3038937408174081,0.8699704962311713,,-0.6229079109020748,-0.6850527423409594,0.12728790026,1.4493768893650323,0.22681658961063117,0.7899637221816912,0.8676836793052913,,-0.06956664232292899,-0.09960812207288139,0.10977815991999999,-0.034016912529394594,,-1.8898398e-05,4.529953e-06,-7.033348e-06,1.0,5.8971345e-06,4.8168004e-06,-5.8934093e-06,1.0,5.066395e-07,-4.8205256e-06,-5.364418e-07,1.0,114,0.344,0,0,0.0,False[1.0470188][1.05023919]
0.37318459099878964,11:09:41.533206,NaN,0,,0.02838415,0.05027727,0.074292466,-0.86741626,-0.37174222,-0.3307517,-0.49159175,0.7430819,0.45405567,0.07698402,0.55645007,-0.827307,,0.14117366,-0.045616157,0.06931281,-0.7421048,-0.6178167,0.2599671,-0.4437516,0.7435229,0.5002581,-0.5023592,0.255883,-0.82592916,,0.087915614,1.335597,0.468873,0.9960443,0.002852555,-0.08881232,-0.053867128,-0.7755069,-0.62903684,-0.07066893,0.63133264,-0.7722856,,-0.07269597,0.27880913,-0.096933365,0.8816444,0.2841289,0.37679416,-0.24619454,0.95809793,-0.14641224,-0.40260568,0.03631887,0.9146527,,0.055061538,0.44425708,-0.39091262,0.8668589,0.45658296,-0.20021889,-0.4975089,0.7662357,-0.40665427,-0.03225655,0.45212257,0.8913724,,0.8179146387091178,-0.08605441241748371,0.15336277361,0.637038048305985,0.11873711829616776,0.3038937408174081,0.8699704962311713,,-0.6229001881692005,-0.6850527423409594,0.12728790026,1.4493768893650323,0.22681658961063117,0.7899637221816912,0.8676836793052913,,-0.06956664232292899,-0.09960812207288139,0.10977815991999999,-0.034016912529394594,,-1.8898398e-05,4.529953e-06,-7.033348e-06,1.0,5.8971345e-06,4.8168004e-06,-5.8934093e-06,1.0,5.066395e-07,-4.8205256e-06,-5.364418e-07,1.0,125,0.377,0,0,0.0,False[1.04725711][1.05028747]
0.39421192400004657,11:09:41.561807,NaN,0,,0.02838415,0.05027727,0.074292466,-0.86741626,-0.37174222,-0.3307517,-0.49159175,0.7430819,0.45405567,0.07698402,0.55645007,-0.827307,,0.14117366,-0.045616157,0.06931281,-0.7421048,-0.6178167,0.2599671,-0.4437516,0.7435229,0.5002581,-0.5023592,0.255883,-0.82592916,,0.087915614,1.335597,0.468873,0.9960443,0.002852555,-0.08881232,-0.053867128,-0.7755069,-0.62903684,-0.07066893,0.63133264,-0.7722856,,-0.07269597,0.27880913,-0.096933365,0.8816444,0.2841289,0.37679416,-0.24619454,0.95809793,-0.14641224,-0.40260568,0.03631887,0.9146527,,0.055061538,0.44425708,-0.39091262,0.8668589,0.45658296,-0.20021889,-0.4975089,0.7662357,-0.40665427,-0.03225655,0.45212257,0.8913724,,0.8179146387091178,-0.08605441241748371,0.15336277361,0.637038048305985,0.11873711829616776,0.3038937408174081,0.8699704962311713,,-0.6229001881692005,-0.6850527423409594,0.12728790026,1.4493768893650323,0.22681658961063117,0.7899637221816912,0.8676836793052913,,-0.06956664232292899,-0.09960812207288139,0.10977815991999999,-0.034016912529394594,,-1.8898398e-05,4.529953e-06,-7.033348e-06,1.0,5.8971345e-06,4.8168004e-06,-5.8934093e-06,1.0,5.066395e-07,-4.8205256e-06,-5.364418e-07,1.0,132,0.398,0,0,0.0,False[1.04660175][1.04980467]
0.422886254000332,11:09:41.575043,NaN,0,,0.02838415,0.05027727,0.074292466,-0.86741626,-0.37174222,-0.3307517,-0.49159175,0.7430819,0.45405567,0.07698402,0.55645007,-0.827307,,0.14117429,-0.04561595,0.06931311,-0.7421023,-0.617817,0.2599737,-0.44374862,0.74352336,0.50026006,-0.50236565,0.2558811,-0.8259258,,0.087915614,1.335597,0.468873,0.9960443,0.002852555,-0.08881232,-0.053867128,-0.7755069,-0.62903684,-0.07066893,0.63133264,-0.7722856,,-0.07269597,0.27880913,-0.096933365,0.8816444,0.2841289,0.37679416,-0.24619454,0.95809793,-0.14641224,-0.40260568,0.03631887,0.9146527,,0.055060845,0.4442573,-0.39091265,0.866857,0.45658344,-0.20022616,-0.4975127,0.7662345,-0.40665194,-0.032250356,0.45212415,0.8913718,,0.8179146387091178,-0.08605441241748371,0.15336277361,0.637038048305985,0.11873711829616776,0.3038937408174081,0.8699704962311713,,-0.6229079109020748,-0.6850527423409594,0.12728790026,1.4493768893650323,0.22681658961063117,0.7899637221816912,0.8676836793052913,,-0.06956664232292899,-0.09960812207288139,0.10977815991999999,-0.034016912529394594,,-1.8898398e-05,4.529953e-06,-7.033348e-06,1.0,5.8971345e-06,4.8168004e-06,-5.8934093e-06,1.0,5.066395e-07,-4.8205256e-06,-5.364418e-07,1.0,143,0.43,0,0,0.0,False[1.04660175][1.05014263]
0.43607598499875166,11:09:41.604686,NaN,0,,0.028383166,0.050277703,0.07429285,-0.86741537,-0.37173894,-0.33075774,-0.49159265,0.74307984,0.45405814,0.07698837,0.55645514,-0.8273032,,0.14117429,-0.04561595,0.06931311,-0.7421023,-0.617817,0.2599737,-0.44374862,0.74352336,0.50026006,-0.50236565,0.2558811,-0.8259258,,0.087915614,1.335597,0.468873,0.9960443,0.002852555,-0.08881232,-0.053867128,-0.7755069,-0.62903684,-0.07066893,0.63133264,-0.7722856,,-0.072695054,0.2788098,-0.09693342,0.88164324,0.2841253,0.37679976,-0.24619253,0.95809925,-0.14640735,-0.4026096,0.03631376,0.9146512,,0.055060845,0.4442573,-0.39091265,0.866857,0.45658344,-0.20022616,-0.4975127,0.7662345,-0.40665194,-0.032250356,0.45212415,0.8913718,,0.817922361441992,-0.08605441241748371,0.15336277361,0.637038048305985,0.11873711829616776,0.3038937408174081,0.8699704962311713,,-0.6229079109020748,-0.6850527423409594,0.12728790026,1.4493768893650323,0.22681658961063117,0.7899637221816912,0.8676836793052913,,-0.06956664232292899,-0.09960812207288139,0.10977815991999999,-0.034016912529394594,,-1.8898398e-05,4.529953e-06,-7.033348e-06,1.0,5.8971345e-06,4.8168004e-06,-5.8934093e-06,1.0,5.066395e-07,-4.8205256e-06,-5.364418e-07,1.0,154,0.463,0,0,0.0,False[1.04713795][1.05048059]
0.4657097849994898,11:09:41.643459,NaN,0,,0.02838415,0.05027727,0.074292466,-0.86741626,-0.37174222,-0.3307517,-0.49159175,0.7430819,0.45405567,0.07698402,0.55645007,-0.827307,,0.14117429,-0.04561595,0.06931311,-0.7421023,-0.617817,0.2599737,-0.44374862,0.74352336,0.50026006,-0.50236565,0.2558811,-0.8259258,,0.087915614,1.335597,0.468873,0.9960443,0.002852555,-0.08881232,-0.053867128,-0.7755069,-0.62903684,-0.07066893,0.63133264,-0.7722856,,-0.07269597,0.27880913,-0.096933365,0.8816444,0.2841289,0.37679416,-0.24619454,0.95809793,-0.14641224,-0.40260568,0.03631887,0.9146527,,0.055060845,0.4442573,-0.39091265,0.866857,0.45658344,-0.20022616,-0.4975127,0.7662345,-0.40665194,-0.032250356,0.45212415,0.8913718,,0.8179146387091178,-0.08605441241748371,0.15336277361,0.637038048305985,0.11873711829616776,0.3038937408174081,0.8699704962311713,,-0.6229079109020748,-0.6850527423409594,0.12728790026,1.4493768893650323,0.22681658961063117,0.7899637221816912,0.8676836793052913,,-0.06956664232292899,-0.09960812207288139,0.10977815991999999,-0.034016912529394594,,-1.8898398e-05,4.529953e-06,-7.033348e-06,1.0,5.8971345e-06,4.8168004e-06,-5.8934093e-06,1.0,5.066395e-07,-4.8205256e-06,-5.364418e-07,1.0,165,0.496,0,0,0.0,False[1.04684006][1.04956327]
0.5045088999995642,11:09:41.673124,NaN,0,,0.028383166,0.050277703,0.07429285,-0.86741537,-0.37173894,-0.33075774,-0.49159265,0.74307984,0.45405814,0.07698837,0.55645514,-0.8273032,,0.14117366,-0.045616157,0.06931281,-0.7421048,-0.6178167,0.2599671,-0.4437516,0.7435229,0.5002581,-0.5023592,0.255883,-0.82592916,,0.087915614,1.335597,0.468873,0.9960443,0.002852555,-0.08881232,-0.053867128,-0.7755069,-0.62903684,-0.07066893,0.63133264,-0.7722856,,-0.072695054,0.2788098,-0.09693342,0.88164324,0.2841253,0.37679976,-0.24619253,0.95809925,-0.14640735,-0.4026096,0.03631376,0.9146512,,0.055061538,0.44425708,-0.39091262,0.8668589,0.45658296,-0.20021889,-0.4975089,0.7662357,-0.40665427,-0.03225655,0.45212257,0.8913724,,0.817922361441992,-0.08605441241748371,0.15336277361,0.637038048305985,0.11873711829616776,0.3038937408174081,0.8699704962311713,,-0.6229001881692005,-0.6850527423409594,0.12728790026,1.4493768893650323,0.22681658961063117,0.7899637221816912,0.8676836793052913,,-0.06956664232292899,-0.09960812207288139,0.10977815991999999,-0.034016912529394594,,-1.8898398e-05,4.529953e-06,-7.033348e-06,1.0,5.8971345e-06,4.8168004e-06,-5.8934093e-06,1.0,5.066395e-07,-4.8205256e-06,-5.364418e-07,1.0,169,0.508,0,0,0.0,False[1.04672091][1.05019091]
0.5341972030000761,11:09:41.694223,NaN,0,,0.028383166,0.050277703,0.07429285,-0.86741537,-0.37173894,-0.33075774,-0.49159265,0.74307984,0.45405814,0.07698837,0.55645514,-0.8273032,,0.14117429,-0.04561595,0.06931311,-0.7421023,-0.617817,0.2599737,-0.44374862,0.74352336,0.50026006,-0.50236565,0.2558811,-0.8259258,,0.087915614,1.335597,0.468873,0.9960443,0.002852555,-0.08881232,-0.053867128,-0.7755069,-0.62903684,-0.07066893,0.63133264,-0.7722856,,-0.072695054,0.2788098,-0.09693342,0.88164324,0.2841253,0.37679976,-0.24619253,0.95809925,-0.14640735,-0.4026096,0.03631376,0.9146512,,0.055060845,0.4442573,-0.39091265,0.866857,0.45658344,-0.20022616,-0.4975127,0.7662345,-0.40665194,-0.032250356,0.45212415,0.8913718,,0.817922361441992,-0.08605441241748371,0.15336277361,0.637038048305985,0.11873711829616776,0.3038937408174081,0.8699704962311713,,-0.6229079109020748,-0.6850527423409594,0.12728790026,1.4493768893650323,0.22681658961063117,0.7899637221816912,0.8676836793052913,,-0.06956664232292899,-0.09960812207288139,0.10977815991999999,-0.034016912529394594,,-1.8898398e-05,4.529953e-06,-7.033348e-06,1.0,5.8971345e-06,4.8168004e-06,-5.8934093e-06,1.0,5.066395e-07,-4.8205256e-06,-5.364418e-07,1.0,180,0.541,0,0,0.0,False[1.04689964][1.05057715]
0.5552905179993104,11:09:41.723324,NaN,0,,0.02838415,0.05027727,0.074292466,-0.86741626,-0.37174222,-0.3307517,-0.49159175,0.7430819,0.45405567,0.07698402,0.55645007,-0.827307,,0.14117429,-0.04561595,0.06931311,-0.7421023,-0.617817,0.2599737,-0.44374862,0.74352336,0.50026006,-0.50236565,0.2558811,-0.8259258,,0.087915614,1.335597,0.468873,0.9960443,0.002852555,-0.08881232,-0.053867128,-0.7755069,-0.62903684,-0.07066893,0.63133264,-0.7722856,,-0.07269597,0.27880913,-0.096933365,0.8816444,0.2841289,0.37679416,-0.24619454,0.95809793,-0.14641224,-0.40260568,0.03631887,0.9146527,,0.055060845,0.4442573,-0.39091265,0.866857,0.45658344,-0.20022616,-0.4975127,0.7662345,-0.40665194,-0.032250356,0.45212415,0.8913718,,0.8179146387091178,-0.08605441241748371,0.15336277361,0.637038048305985,0.11873711829616776,0.3038937408174081,0.8699704962311713,,-0.6229079109020748,-0.6850527423409594,0.12728790026,1.4493768893650323,0.22681658961063117,0.7899637221816912,0.8676836793052913,,-0.06956664232292899,-0.09960812207288139,0.10977815991999999,-0.034016912529394594,,-1.8898398e-05,4.529953e-06,-7.033348e-06,1.0,5.8971345e-06,4.8168004e-06,-5.8934093e-06,1.0,5.066395e-07,-4.8205256e-06,-5.364418e-07,1.0,187,0.561,0,0,0.0,False[1.04725711][1.04980467]
0.5843939610003872,11:09:41.745374,NaN,0,,0.02838415,0.05027727,0.074292466,-0.86741626,-0.37174222,-0.3307517,-0.49159175,0.7430819,0.45405567,0.07698402,0.55645007,-0.827307,,0.14117429,-0.04561595,0.06931311,-0.7421023,-0.617817,0.2599737,-0.44374862,0.74352336,0.50026006,-0.50236565,0.2558811,-0.8259258,,0.087915614,1.335597,0.468873,0.9960443,0.002852555,-0.08881232,-0.053867128,-0.7755069,-0.62903684,-0.07066893,0.63133264,-0.7722856,,-0.07269597,0.27880913,-0.096933365,0.8816444,0.2841289,0.37679416,-0.24619454,0.95809793,-0.14641224,-0.40260568,0.03631887,0.9146527,,0.055060845,0.4442573,-0.39091265,0.866857,0.45658344,-0.20022616,-0.4975127,0.7662345,-0.40665194,-0.032250356,0.45212415,0.8913718,,0.8179146387091178,-0.08605441241748371,0.15336277361,0.637038048305985,0.11873711829616776,0.3038937408174081,0.8699704962311713,,-0.6229079109020748,-0.6850527423409594,0.12728790026,1.4493768893650323,0.22681658961063117,0.7899637221816912,0.8676836793052913,,-0.06956664232292899,-0.09960812207288139,0.10977815991999999,-0.034016912529394594,,-1.8898398e-05,4.529953e-06,-7.033348e-06,1.0,5.8971345e-06,4.8168004e-06,-5.8934093e-06,1.0,5.066395e-07,-4.8205256e-06,-5.364418e-07,1.0,198,0.594,0,0,0.0,False[1.04684006][1.04990123]
0.6064406189998408,11:09:41.773802,NaN,0,,0.028383635,0.05027873,0.07429285,-0.86741686,-0.37173858,-0.33075416,-0.49159086,0.7430771,0.45406458,0.07698259,0.55645895,-0.8273011,,0.14117429,-0.04561595,0.06931311,-0.7421023,-0.617817,0.2599737,-0.44374862,0.74352336,0.50026006,-0.50236565,0.2558811,-0.8259258,,0.087915614,1.335597,0.468873,0.9960443,0.002852555,-0.08881232,-0.053867128,-0.7755069,-0.62903684,-0.07066893,0.63133264,-0.7722856,,-0.07269557,0.27881053,-0.096932754,0.88164514,0.28412476,0.37679568,-0.2461947,0.95809954,-0.14640148,-0.40260407,0.03630905,0.91465384,,0.055060845,0.4442573,-0.39091265,0.866857,0.45658344,-0.20022616,-0.4975127,0.7662345,-0.40665194,-0.032250356,0.45212415,0.8913718,,0.817922361441992,-0.08604668968460949,0.15336277361,0.637038048305985,0.11873711829616776,0.3038937408174081,0.8699704962311713,,-0.6229079109020748,-0.6850527423409594,0.12728790026,1.4493768893650323,0.22681658961063117,0.7899637221816912,0.8676836793052913,,-0.06956664232292899,-0.09960812207288139,0.10977815991999999,-0.034016912529394594,,-1.8898398e-05,4.529953e-06,-7.033348e-06,1.0,5.8971345e-06,4.8168004e-06,-5.8934093e-06,1.0,5.066395e-07,-4.8205256e-06,-5.364418e-07,1.0,209,0.627,0,0,0.0,False[1.04719753][1.05062543]
0.6348733719987649,11:09:41.805741,NaN,0,,0.02838415,0.05027727,0.074292466,-0.86741626,-0.37174222,-0.3307517,-0.49159175,0.7430819,0.45405567,0.07698402,0.55645007,-0.827307,,0.14117366,-0.045616157,0.06931281,-0.7421048,-0.6178167,0.2599671,-0.4437516,0.7435229,0.5002581,-0.5023592,0.255883,-0.82592916,,0.087915614,1.335597,0.468873,0.9960443,0.002852555,-0.08881232,-0.053867128,-0.7755069,-0.62903684,-0.07066893,0.63133264,-0.7722856,,-0.07269597,0.27880913,-0.096933365,0.8816444,0.2841289,0.37679416,-0.24619454,0.95809793,-0.14641224,-0.40260568,0.03631887,0.9146527,,0.055061538,0.44425708,-0.39091262,0.8668589,0.45658296,-0.20021889,-0.4975089,0.7662357,-0.40665427,-0.03225655,0.45212257,0.8913724,,0.8179146387091178,-0.08605441241748371,0.15336277361,0.637038048305985,0.11873711829616776,0.3038937408174081,0.8699704962311713,,-0.6229001881692005,-0.6850527423409594,0.12728790026,1.4493768893650323,0.22681658961063117,0.7899637221816912,0.8676836793052913,,-0.06956664232292899,-0.09960812207288139,0.10977815991999999,-0.034016912529394594,,-1.8898398e-05,4.529953e-06,-7.033348e-06,1.0,5.8971345e-06,4.8168004e-06,-5.8934093e-06,1.0,5.066395e-07,-4.8205256e-06,-5.364418e-07,1.0,220,0.66,0,0,0.0,False[1.04695922][1.05028747]
0.6668230220002442,11:09:41.837521,NaN,0,,0.028383166,0.050277703,0.07429285,-0.86741537,-0.37173894,-0.33075774,-0.49159265,0.74307984,0.45405814,0.07698837,0.55645514,-0.8273032,,0.14117429,-0.04561595,0.06931311,-0.7421023,-0.617817,0.2599737,-0.44374862,0.74352336,0.50026006,-0.50236565,0.2558811,-0.8259258,,0.087915614,1.335597,0.468873,0.9960443,0.002852555,-0.08881232,-0.053867128,-0.7755069,-0.62903684,-0.07066893,0.63133264,-0.7722856,,-0.072695054,0.2788098,-0.09693342,0.88164324,0.2841253,0.37679976,-0.24619253,0.95809925,-0.14640735,-0.4026096,0.03631376,0.9146512,,0.055060845,0.4442573,-0.39091265,0.866857,0.45658344,-0.20022616,-0.4975127,0.7662345,-0.40665194,-0.032250356,0.45212415,0.8913718,,0.817922361441992,-0.08605441241748371,0.15336277361,0.637038048305985,0.11873711829616776,0.3038937408174081,0.8699704962311713,,-0.6229079109020748,-0.6850527423409594,0.12728790026,1.4493768893650323,0.22681658961063117,0.7899637221816912,0.8676836793052913,,-0.06956664232292899,-0.09960812207288139,0.10977815991999999,-0.034016912529394594,,-1.8898398e-05,4.529953e-06,-7.033348e-06,1.0,5.8971345e-06,4.8168004e-06,-5.8934093e-06,1.0,5.066395e-07,-4.8205256e-06,-5.364418e-07,1.0,228,0.683,0,0,0.0,False[1.04672091][1.05038403]
0.6985274889993889,11:09:41.866059,NaN,0,,0.02838415,0.05027727,0.074292466,-0.86741626,-0.37174222,-0.3307517,-0.49159175,0.7430819,0.45405567,0.07698402,0.55645007,-0.827307,,0.14117429,-0.04561595,0.06931311,-0.7421023,-0.617817,0.2599737,-0.44374862,0.74352336,0.50026006,-0.50236565,0.2558811,-0.8259258,,0.087915614,1.335597,0.468873,0.9960443,0.002852555,-0.08881232,-0.053867128,-0.7755069,-0.62903684,-0.07066893,0.63133264,-0.7722856,,-0.07269597,0.27880913,-0.096933365,0.8816444,0.2841289,0.37679416,-0.24619454,0.95809793,-0.14641224,-0.40260568,0.03631887,0.9146527,,0.055060845,0.4442573,-0.39091265,0.866857,0.45658344,-0.20022616,-0.4975127,0.7662345,-0.40665194,-0.032250356,0.45212415,0.8913718,,0.8179146387091178,-0.08605441241748371,0.15336277361,0.637038048305985,0.11873711829616776,0.3038937408174081,0.8699704962311713,,-0.6229079109020748,-0.6850527423409594,0.12728790026,1.4493768893650323,0.22681658961063117,0.7899637221816912,0.8676836793052913,,-0.06956664232292899,-0.09960812207288139,0.10977815991999999,-0.034016912529394594,,-1.8898398e-05,4.529953e-06,-7.033348e-06,1.0,5.8971345e-06,4.8168004e-06,-5.8934093e-06,1.0,5.066395e-07,-4.8205256e-06,-5.364418e-07,1.0,235,0.705,0,0,0.0,False[1.04684006][1.05038403]
0.7271430259988847,11:09:41.894705,NaN,0,,0.028383166,0.050277703,0.07429285,-0.86741537,-0.37173894,-0.33075774,-0.49159265,0.74307984,0.45405814,0.07698837,0.55645514,-0.8273032,,0.14117429,-0.04561595,0.06931311,-0.7421023,-0.617817,0.2599737,-0.44374862,0.74352336,0.50026006,-0.50236565,0.2558811,-0.8259258,,0.087915614,1.335597,0.468873,0.9960443,0.002852555,-0.08881232,-0.053867128,-0.7755069,-0.62903684,-0.07066893,0.63133264,-0.7722856,,-0.072695054,0.2788098,-0.09693342,0.88164324,0.2841253,0.37679976,-0.24619253,0.95809925,-0.14640735,-0.4026096,0.03631376,0.9146512,,0.055060845,0.4442573,-0.39091265,0.866857,0.45658344,-0.20022616,-0.4975127,0.7662345,-0.40665194,-0.032250356,0.45212415,0.8913718,,0.817922361441992,-0.08605441241748371,0.15336277361,0.637038048305985,0.11873711829616776,0.3038937408174081,0.8699704962311713,,-0.6229079109020748,-0.6850527423409594,0.12728790026,1.4493768893650323,0.22681658961063117,0.7899637221816912,0.8676836793052913,,-0.06956664232292899,-0.09960812207288139,0.10977815991999999,-0.034016912529394594,,-1.8898398e-05,4.529953e-06,-7.033348e-06,1.0,5.8971345e-06,4.8168004e-06,-5.8934093e-06,1.0,5.066395e-07,-4.8205256e-06,-5.364418e-07,1.0,246,0.738,0,0,0.0,False[1.04761458][1.05067371]
0.7557681069993123,11:09:41.923148,NaN,0,,0.028383166,0.050277703,0.07429285,-0.86741537,-0.37173894,-0.33075774,-0.49159265,0.74307984,0.45405814,0.07698837,0.55645514,-0.8273032,,0.14117366,-0.045616157,0.06931281,-0.7421048,-0.6178167,0.2599671,-0.4437516,0.7435229,0.5002581,-0.5023592,0.255883,-0.82592916,,0.087915614,1.335597,0.468873,0.9960443,0.002852555,-0.08881232,-0.053867128,-0.7755069,-0.62903684,-0.07066893,0.63133264,-0.7722856,,-0.072695054,0.2788098,-0.09693342,0.88164324,0.2841253,0.37679976,-0.24619253,0.95809925,-0.14640735,-0.4026096,0.03631376,0.9146512,,0.055061538,0.44425708,-0.39091262,0.8668589,0.45658296,-0.20021889,-0.4975089,0.7662357,-0.40665427,-0.03225655,0.45212257,0.8913724,,0.817922361441992,-0.08605441241748371,0.15336277361,0.637038048305985,0.11873711829616776,0.3038937408174081,0.8699704962311713,,-0.6229001881692005,-0.6850527423409594,0.12728790026,1.4493768893650323,0.22681658961063117,0.7899637221816912,0.8676836793052913,,-0.06956664232292899,-0.09960812207288139,0.10977815991999999,-0.034016912529394594,,-1.8898398e-05,4.529953e-06,-7.033348e-06,1.0,5.8971345e-06,4.8168004e-06,-5.8934093e-06,1.0,5.066395e-07,-4.8205256e-06,-5.364418e-07,1.0,253,0.758,0,0,0.0,False[1.047555][1.04985295]
0.7842294339989166,11:09:41.941452,NaN,0,,0.02838415,0.05027727,0.074292466,-0.86741626,-0.37174222,-0.3307517,-0.49159175,0.7430819,0.45405567,0.07698402,0.55645007,-0.827307,,0.14117408,-0.045615204,0.06931275,-0.742,-0.6180549,0.25970006,-0.44410765,0.7433485,0.50020134,-0.5021995,0.25581452,-0.82604754,,0.087915614,1.335597,0.468873,0.9960443,0.002852555,-0.08881232,-0.053867128,-0.7755069,-0.62903684,-0.07066893,0.63133264,-0.7722856,,-0.07269597,0.27880913,-0.096933365,0.8816444,0.2841289,0.37679416,-0.24619454,0.95809793,-0.14641224,-0.40260568,0.03631887,0.9146527,,0.055060998,0.4442575,-0.39091185,0.8667837,0.45685163,-0.19993149,-0.497615,0.76612973,-0.40672413,-0.032639127,0.45203075,0.891405,,0.8179146387091178,-0.08605441241748371,0.15336277361,0.637038048305985,0.11873711829616776,0.3038937408174081,0.8699704962311713,,-0.6229079109020748,-0.6850527423409594,0.12728790026,1.4489575094780633,0.22681658961063117,0.7899637221816912,0.8676836793052913,,-0.06956664232292899,-0.09960812207288139,0.10977815991999999,-0.034016912529394594,,-1.8898398e-05,4.529953e-06,-7.033348e-06,1.0,5.8971345e-06,4.8168004e-06,-5.8934093e-06,1.0,5.066395e-07,-4.8205256e-06,-5.364418e-07,1.0,261,0.782,0,0,0.0,False[1.04689964][1.05072199]
0.802497933000268,11:09:41.972311,NaN,0,,0.028383166,0.050277703,0.07429285,-0.86741537,-0.37173894,-0.33075774,-0.49159265,0.74307984,0.45405814,0.07698837,0.55645514,-0.8273032,,0.14117591,-0.0456141,0.069314,-0.74183005,-0.618141,0.25998053,-0.44415572,0.7433737,0.5001211,-0.50240797,0.25553298,-0.82600784,,0.087915614,1.335597,0.468873,0.9960443,0.002852555,-0.08881232,-0.053867128,-0.7755069,-0.62903684,-0.07066893,0.63133264,-0.7722856,,-0.072695054,0.2788098,-0.09693342,0.88164324,0.2841253,0.37679976,-0.24619253,0.95809925,-0.14640735,-0.4026096,0.03631376,0.9146512,,0.055058844,0.44425875,-0.39091176,0.86665654,0.45697528,-0.20020004,-0.49784195,0.7659425,-0.40679908,-0.03255541,0.45222303,0.8913105,,0.817922361441992,-0.08605441241748371,0.15336277361,0.637038048305985,0.11873711829616776,0.3038937408174081,0.8699704962311713,,-0.6229079109020748,-0.6850527423409594,0.12728790026,1.4489575094780633,0.22708986261016204,0.7897408863742983,0.8676836793052913,,-0.06956664232292899,-0.09960812207288139,0.10977815991999999,-0.034016912529394594,,-1.8898398e-05,4.529953e-06,-7.033348e-06,1.0,5.8971345e-06,4.8168004e-06,-5.8934093e-06,1.0,5.066395e-07,-4.8205256e-06,-5.364418e-07,1.0,272,0.814,0,0,0.0,False[1.04707838][1.05038403]
0.8333314680003241,11:09:41.997737,NaN,0,,0.028383166,0.050277703,0.07429285,-0.86741537,-0.37173894,-0.33075774,-0.49159265,0.74307984,0.45405814,0.07698837,0.55645514,-0.8273032,,0.14117591,-0.0456141,0.069314,-0.74183005,-0.618141,0.25998053,-0.44415572,0.7433737,0.5001211,-0.50240797,0.25553298,-0.82600784,,0.087915614,1.335597,0.468873,0.9960443,0.002852555,-0.08881232,-0.053867128,-0.7755069,-0.62903684,-0.07066893,0.63133264,-0.7722856,,-0.072695054,0.2788098,-0.09693342,0.88164324,0.2841253,0.37679976,-0.24619253,0.95809925,-0.14640735,-0.4026096,0.03631376,0.9146512,,0.055058844,0.44425875,-0.39091176,0.86665654,0.45697528,-0.20020004,-0.49784195,0.7659425,-0.40679908,-0.03255541,0.45222303,0.8913105,,0.817922361441992,-0.08605441241748371,0.15336277361,0.637038048305985,0.11873711829616776,0.3038937408174081,0.8699704962311713,,-0.6229079109020748,-0.6850527423409594,0.12728790026,1.4489575094780633,0.22708986261016204,0.7897408863742983,0.8676836793052913,,-0.06956664232292899,-0.09960812207288139,0.10977815991999999,-0.034016912529394594,,-1.8898398e-05,4.529953e-06,-7.033348e-06,1.0,5.8971345e-06,4.8168004e-06,-5.8934093e-06,1.0,5.066395e-07,-4.8205256e-06,-5.364418e-07,1.0,279,0.836,0,0,0.0,False[1.04713795][1.05009435]
0.8587640209989331,11:09:42.023176,NaN,0,,0.02838415,0.05027727,0.074292466,-0.86741626,-0.37174222,-0.3307517,-0.49159175,0.7430819,0.45405567,0.07698402,0.55645007,-0.827307,,0.14117527,-0.04561428,0.069313705,-0.74183255,-0.6181408,0.25997385,-0.4441587,0.7433732,0.5001192,-0.50240165,0.25553495,-0.8260111,,0.087915614,1.335597,0.468873,0.9960443,0.002852555,-0.08881232,-0.053867128,-0.7755069,-0.62903684,-0.07066893,0.63133264,-0.7722856,,-0.07269597,0.27880913,-0.096933365,0.8816444,0.2841289,0.37679416,-0.24619454,0.95809793,-0.14641224,-0.40260568,0.03631887,0.9146527,,0.055059537,0.44425854,-0.39091173,0.86665845,0.4569748,-0.20019275,-0.49783817,0.7659437,-0.4068014,-0.032561604,0.45222145,0.8913111,,0.8179146387091178,-0.08605441241748371,0.15336277361,0.637038048305985,0.11873711829616776,0.3038937408174081,0.8699704962311713,,-0.6229001881692005,-0.6850527423409594,0.12728790026,1.4489575094780633,0.22708986261016204,0.7897408863742983,0.8676836793052913,,-0.06956664232292899,-0.09960812207288139,0.10977815991999999,-0.034016912529394594,,-1.8898398e-05,4.529953e-06,-7.033348e-06,1.0,5.8971345e-06,4.8168004e-06,-5.8934093e-06,1.0,5.066395e-07,-4.8205256e-06,-5.364418e-07,1.0,290,0.869,0,0,0.0,False[1.04695922][1.04994951]
0.8842110650002724,11:09:42.051299,NaN,0,,0.02838415,0.05027727,0.074292466,-0.86741626,-0.37174222,-0.3307517,-0.49159175,0.7430819,0.45405567,0.07698402,0.55645007,-0.827307,,0.14117591,-0.0456141,0.069314,-0.74183005,-0.618141,0.25998053,-0.44415572,0.7433737,0.5001211,-0.50240797,0.25553298,-0.82600784,,0.087915614,1.335597,0.468873,0.9960443,0.002852555,-0.08881232,-0.053867128,-0.7755069,-0.62903684,-0.07066893,0.63133264,-0.7722856,,-0.07269597,0.27880913,-0.096933365,0.8816444,0.2841289,0.37679416,-0.24619454,0.95809793,-0.14641224,-0.40260568,0.03631887,0.9146527,,0.055058844,0.44425875,-0.39091176,0.86665654,0.45697528,-0.20020004,-0.49784195,0.7659425,-0.40679908,-0.03255541,0.45222303,0.8913105,,0.8179146387091178,-0.08605441241748371,0.15336277361,0.637038048305985,0.11873711829616776,0.3038937408174081,0.8699704962311713,,-0.6229079109020748,-0.6850527423409594,0.12728790026,1.4489575094780633,0.22708986261016204,0.7897408863742983,0.8676836793052913,,-0.06956664232292899,-0.09960812207288139,0.10977815991999999,-0.034016912529394594,,-1.8898398e-05,4.529953e-06,-7.033348e-06,1.0,5.8971345e-06,4.8168004e-06,-5.8934093e-06,1.0,5.066395e-07,-4.8205256e-06,-5.364418e-07,1.0,301,0.901,0,0,0.0,False[1.04707838][1.05033575]
0.9123789120003494,11:09:42.083481,NaN,0,,0.02838415,0.05027727,0.074292466,-0.86741626,-0.37174222,-0.3307517,-0.49159175,0.7430819,0.45405567,0.07698402,0.55645007,-0.827307,,0.14117527,-0.04561428,0.069313705,-0.74183255,-0.6181408,0.25997385,-0.4441587,0.7433732,0.5001192,-0.50240165,0.25553495,-0.8260111,,0.087915614,1.335597,0.468873,0.9960443,0.002852555,-0.08881232,-0.053867128,-0.7755069,-0.62903684,-0.07066893,0.63133264,-0.7722856,,-0.07269597,0.27880913,-0.096933365,0.8816444,0.2841289,0.37679416,-0.24619454,0.95809793,-0.14641224,-0.40260568,0.03631887,0.9146527,,0.055059537,0.44425854,-0.39091173,0.86665845,0.4569748,-0.20019275,-0.49783817,0.7659437,-0.4068014,-0.032561604,0.45222145,0.8913111,,0.8179146387091178,-0.08605441241748371,0.15336277361,0.637038048305985,0.11873711829616776,0.3038937408174081,0.8699704962311713,,-0.6229001881692005,-0.6850527423409594,0.12728790026,1.4489575094780633,0.22708986261016204,0.7897408863742983,0.8676836793052913,,-0.06956664232292899,-0.09960812207288139,0.10977815991999999,-0.034016912529394594,,-1.8898398e-05,4.529953e-06,-7.033348e-06,1.0,5.8971345e-06,4.8168004e-06,-5.8934093e-06,1.0,5.066395e-07,-4.8205256e-06,-5.364418e-07,1.0,312,0.934,0,0,0.0,False[1.04719753][1.05014263]
0.9445337359993573,11:09:42.115247,NaN,0,,0.02838415,0.05027727,0.074292466,-0.86741626,-0.37174222,-0.3307517,-0.49159175,0.7430819,0.45405567,0.07698402,0.55645007,-0.827307,,0.14117591,-0.0456141,0.069314,-0.74183005,-0.618141,0.25998053,-0.44415572,0.7433737,0.5001211,-0.50240797,0.25553298,-0.82600784,,0.087915614,1.335597,0.468873,0.9960443,0.002852555,-0.08881232,-0.053867128,-0.7755069,-0.62903684,-0.07066893,0.63133264,-0.7722856,,-0.07269597,0.27880913,-0.096933365,0.8816444,0.2841289,0.37679416,-0.24619454,0.95809793,-0.14641224,-0.40260568,0.03631887,0.9146527,,0.055058844,0.44425875,-0.39091176,0.86665654,0.45697528,-0.20020004,-0.49784195,0.7659425,-0.40679908,-0.03255541,0.45222303,0.8913105,,0.8179146387091178,-0.08605441241748371,0.15336277361,0.637038048305985,0.11873711829616776,0.3038937408174081,0.8699704962311713,,-0.6229079109020748,-0.6850527423409594,0.12728790026,1.4489575094780633,0.22708986261016204,0.7897408863742983,0.8676836793052913,,-0.06956664232292899,-0.09960812207288139,0.10977815991999999,-0.034016912529394594,,-1.8898398e-05,4.529953e-06,-7.033348e-06,1.0,5.8971345e-06,4.8168004e-06,-5.8934093e-06,1.0,5.066395e-07,-4.8205256e-06,-5.364418e-07,1.0,323,0.967,0,0,0.0,False[1.04713795][1.05072199]
0.9763306169988937,11:09:42.146946,NaN,0,,0.028383166,0.050277703,0.07429285,-0.86741537,-0.37173894,-0.33075774,-0.49159265,0.74307984,0.45405814,0.07698837,0.55645514,-0.8273032,,0.14117591,-0.0456141,0.069314,-0.74183005,-0.618141,0.25998053,-0.44415572,0.7433737,0.5001211,-0.50240797,0.25553298,-0.82600784,,0.087915614,1.335597,0.468873,0.9960443,0.002852555,-0.08881232,-0.053867128,-0.7755069,-0.62903684,-0.07066893,0.63133264,-0.7722856,,-0.072695054,0.2788098,-0.09693342,0.88164324,0.2841253,0.37679976,-0.24619253,0.95809925,-0.14640735,-0.4026096,0.03631376,0.9146512,,0.055058844,0.44425875,-0.39091176,0.86665654,0.45697528,-0.20020004,-0.49784195,0.7659425,-0.40679908,-0.03255541,0.45222303,0.8913105,,0.817922361441992,-0.08605441241748371,0.15336277361,0.637038048305985,0.11873711829616776,0.3038937408174081,0.8699704962311713,,-0.6229079109020748,-0.6850527423409594,0.12728790026,1.4489575094780633,0.22708986261016204,0.7897408863742983,0.8676836793052913,,-0.06956664232292899,-0.09960812207288139,0.10977815991999999,-0.034016912529394594,,-1.8898398e-05,4.529953e-06,-7.033348e-06,1.0,5.8971345e-06,4.8168004e-06,-5.8934093e-06,1.0,5.066395e-07,-4.8205256e-06,-5.364418e-07,1.0,327,0.979,0,0,0.0,False[1.04684006][1.05004607]
1.008028796999497,11:09:42.167227,NaN,0,,0.02838415,0.05027727,0.074292466,-0.86741626,-0.37174222,-0.3307517,-0.49159175,0.7430819,0.45405567,0.07698402,0.55645007,-0.827307,,0.14117527,-0.04561428,0.069313705,-0.74183255,-0.6181408,0.25997385,-0.4441587,0.7433732,0.5001192,-0.50240165,0.25553495,-0.8260111,,0.087915614,1.335597,0.468873,0.9960443,0.002852555,-0.08881232,-0.053867128,-0.7755069,-0.62903684,-0.07066893,0.63133264,-0.7722856,,-0.07269597,0.27880913,-0.096933365,0.8816444,0.2841289,0.37679416,-0.24619454,0.95809793,-0.14641224,-0.40260568,0.03631887,0.9146527,,0.055059537,0.44425854,-0.39091173,0.86665845,0.4569748,-0.20019275,-0.49783817,0.7659437,-0.4068014,-0.032561604,0.45222145,0.8913111,,0.8179146387091178,-0.08605441241748371,0.15336277361,0.637038048305985,0.11873711829616776,0.3038937408174081,0.8699704962311713,,-0.6229001881692005,-0.6850527423409594,0.12728790026,1.4489575094780633,0.22708986261016204,0.7897408863742983,0.8676836793052913,,-0.06956664232292899,-0.09960812207288139,0.10977815991999999,-0.034016912529394594,,-1.8898398e-05,4.529953e-06,-7.033348e-06,1.0,5.8971345e-06,4.8168004e-06,-5.8934093e-06,1.0,5.066395e-07,-4.8205256e-06,-5.364418e-07,1.0,351,1.052,0,0,0.0,False[1.04713795][1.04980467]
1.0282685109996237,11:09:42.237679,NaN,0,,0.028368201,0.05028206,0.0742788,-0.8674299,-0.37174872,-0.33070824,-0.49157223,0.74309534,0.454055,0.07695341,0.5564279,-0.82732475,,0.14123271,-0.045607753,0.06932652,-0.74178314,-0.61816186,0.2600649,-0.44417688,0.7433903,0.5000776,-0.5024586,0.2554342,-0.8260076,,0.08797313,1.335594,0.46886986,0.99604064,0.002800002,-0.088854946,-0.053934626,-0.7755071,-0.6290308,-0.07066893,0.63133264,-0.7722856,,-0.072726406,0.27880836,-0.096917585,0.88162965,0.2841883,0.37678397,-0.24624577,0.95808,-0.14644349,-0.40260673,0.036327463,0.91465193,,0.054949384,0.444255,-0.3909191,0.866594,0.4570678,-0.20025937,-0.49794927,0.76585764,-0.40682745,-0.03257754,0.45227325,0.8912842,,0.817922361441992,-0.08605441241748371,0.15336277361,0.637038048305985,0.11873711829616776,0.3038937408174081,0.8699704962311713,,-0.6229079109020748,-0.6850527423409594,0.12728790026,1.4489575094780633,0.22708986261016204,0.7896592076341578,0.8678470233714256,,-0.06956664232292899,-0.09960812207288139,0.10977815991999999,-0.034016912529394594,,3.877282e-05,5.1259995e-06,-7.987022e-06,1.0,-4.643947e-05,-3.7960708e-05,4.6443194e-05,1.0,-4.261732e-06,3.796816e-05,4.23193e-06,1.0,359,1.076,0,0,0.0,False[1.04719753][1.05052887]
1.098722947999704,11:09:42.257940,NaN,0,,0.028369177,0.050281614,0.074278414,-0.86743087,-0.37175202,-0.33070216,-0.4915713,0.74309736,0.4540525,0.076949,0.5564229,-0.82732844,,0.14123271,-0.045607753,0.06932652,-0.74178314,-0.61816186,0.2600649,-0.44417688,0.7433903,0.5000776,-0.5024586,0.2554342,-0.8260076,,0.08797313,1.335594,0.46886986,0.99604064,0.002800002,-0.088854946,-0.053934626,-0.7755071,-0.6290308,-0.07066893,0.63133264,-0.7722856,,-0.07272732,0.27880767,-0.09691753,0.8816309,0.2841919,0.3767784,-0.24624778,0.95807874,-0.14644837,-0.4026028,0.03633257,0.9146534,,0.054949384,0.444255,-0.3909191,0.866594,0.4570678,-0.20025937,-0.49794927,0.76585764,-0.40682745,-0.03257754,0.45227325,0.8912842,,0.8179146387091178,-0.08605441241748371,0.15336277361,0.637038048305985,0.11873711829616776,0.3038937408174081,0.8699704962311713,,-0.6229079109020748,-0.6850527423409594,0.12728790026,1.4489575094780633,0.22708986261016204,0.7896592076341578,0.8678470233714256,,-0.06956664232292899,-0.09960812207288139,0.10977815991999999,-0.034016912529394594,,3.877282e-05,5.1259995e-06,-7.987022e-06,1.0,-4.643947e-05,-3.7960708e-05,4.6443194e-05,1.0,-4.261732e-06,3.796816e-05,4.23193e-06,1.0,367,1.101,0,0,0.0,False[1.04743584][1.05019091]
1.1189774369995575,11:09:42.288009,NaN,0,,0.028369177,0.050281614,0.074278414,-0.86743087,-0.37175202,-0.33070216,-0.4915713,0.74309736,0.4540525,0.076949,0.5564229,-0.82732844,,0.14123271,-0.045607753,0.06932652,-0.74178314,-0.61814064,0.26011539,-0.44417688,0.7434312,0.5000169,-0.5024586,0.2553667,-0.82602847,,0.08797313,1.335594,0.46886986,0.99604064,0.002800002,-0.088854946,-0.053934626,-0.7755071,-0.6290308,-0.07066893,0.63133264,-0.7722856,,-0.07272732,0.27880767,-0.09691753,0.8816309,0.2841919,0.3767784,-0.24624778,0.95807874,-0.14644837,-0.4026028,0.03633257,0.9146534,,0.054949384,0.444255,-0.3909191,0.866594,0.45705143,-0.20029671,-0.49794927,0.76582444,-0.40689,-0.03257754,0.45234606,0.89124733,,0.8179146387091178,-0.08605441241748371,0.15336277361,0.637038048305985,0.11873711829616776,0.3038937408174081,0.8699704962311713,,-0.6229079109020748,-0.6850527423409594,0.12728790026,1.4489575094780633,0.22708986261016204,0.7895775288940174,0.8676836793052914,,-0.06956664232292899,-0.09960812207288139,0.10977815991999999,-0.034016912529394594,,3.877282e-05,5.1259995e-06,-7.987022e-06,1.0,-4.643947e-05,-3.7960708e-05,4.6443194e-05,1.0,-4.261732e-06,3.796816e-05,4.23193e-06,1.0,375,1.126,0,0,0.0,False[1.04713795][1.05019091]
1.1490420439986337,11:09:42.314577,NaN,0,,0.028368201,0.05028206,0.0742788,-0.8674299,-0.37174872,-0.33070824,-0.49157223,0.74309534,0.454055,0.07695341,0.5564279,-0.82732475,,0.14123178,-0.04560829,0.069325864,-0.7418681,-0.6180763,0.26002562,-0.44415286,0.74345946,0.49999633,-0.50235426,0.25544,-0.82606924,,0.08797313,1.335594,0.46886986,0.99604064,0.002800002,-0.088854946,-0.053934626,-0.7755071,-0.6290308,-0.07066893,0.63133264,-0.7722856,,-0.072726406,0.27880836,-0.096917585,0.88162965,0.2841883,0.37678397,-0.24624577,0.95808,-0.14644349,-0.40260673,0.036327463,0.91465193,,0.05495046,0.4442544,-0.39091912,0.8666576,0.45697328,-0.20019974,-0.49783581,0.7658848,-0.40691513,-0.032619406,0.45232272,0.89125764,,0.817922361441992,-0.08605441241748371,0.15336277361,0.637038048305985,0.11873711829616776,0.3038937408174081,0.8699704962311713,,-0.6229079109020748,-0.6850527423409594,0.12728790026,1.4489575094780633,0.2269532261103966,0.7896072680575733,0.8675203352391571,,-0.06956664232292899,-0.09960812207288139,0.10977815991999999,-0.034016912529394594,,3.877282e-05,5.1259995e-06,-7.987022e-06,1.0,-4.643947e-05,-3.7960708e-05,4.6443194e-05,1.0,-4.261732e-06,3.796816e-05,4.23193e-06,1.0,383,1.151,0,0,0.0,False[1.04642302][1.05028747]
1.1756447129992011,11:09:42.337740,NaN,0,,0.028369177,0.050281614,0.074278414,-0.86743087,-0.37175202,-0.33070216,-0.4915713,0.74309736,0.4540525,0.076949,0.5564229,-0.82732844,,0.14123021,-0.045609035,0.06932497,-0.74195564,-0.6180331,0.25987875,-0.44413182,0.74344635,0.50003445,-0.50224364,0.25558278,-0.82609236,,0.08797313,1.335594,0.46886986,0.99604064,0.002800002,-0.088854946,-0.053934626,-0.7755071,-0.6290308,-0.07066893,0.63133264,-0.7722856,,-0.07272732,0.27880767,-0.09691753,0.8816309,0.2841919,0.3767784,-0.24624778,0.95807874,-0.14644837,-0.4026028,0.03633257,0.9146534,,0.054952234,0.44425356,-0.39091915,0.8667232,0.45691103,-0.20005818,-0.49771857,0.7659797,-0.40688,-0.032667458,0.452225,0.89130545,,0.8179146387091178,-0.08605441241748371,0.15336277361,0.637038048305985,0.11873711829616776,0.3038937408174081,0.8699704962311713,,-0.6229001881692005,-0.6850527423409594,0.12728790026,1.4489575094780633,0.22681658961063117,0.7897186859612697,0.8675203352391571,,-0.06956664232292899,-0.09960812207288139,0.10977815991999999,-0.034016912529394594,,3.877282e-05,5.1259995e-06,-7.987022e-06,1.0,-4.643947e-05,-3.7960708e-05,4.6443194e-05,1.0,-4.261732e-06,3.796816e-05,4.23193e-06,1.0,391,1.176,0,0,0.0,False[1.04743584][1.05023919]
1.198801315998935,11:09:42.359186,NaN,0,,0.028369177,0.050281614,0.074278414,-0.86743087,-0.37175202,-0.33070216,-0.4915713,0.74309736,0.4540525,0.076949,0.5564229,-0.82732844,,0.14123021,-0.045609035,0.06932497,-0.74195564,-0.6180331,0.25987875,-0.44413182,0.74344635,0.50003445,-0.50224364,0.25558278,-0.82609236,,0.08797313,1.335594,0.46886986,0.99604064,0.002800002,-0.088854946,-0.053934626,-0.7755071,-0.6290308,-0.07066893,0.63133264,-0.7722856,,-0.07272732,0.27880767,-0.09691753,0.8816309,0.2841919,0.3767784,-0.24624778,0.95807874,-0.14644837,-0.4026028,0.03633257,0.9146534,,0.054952234,0.44425356,-0.39091915,0.8667232,0.45691103,-0.20005818,-0.49771857,0.7659797,-0.40688,-0.032667458,0.452225,0.89130545,,0.8179146387091178,-0.08605441241748371,0.15336277361,0.637038048305985,0.11873711829616776,0.3038937408174081,0.8699704962311713,,-0.6229001881692005,-0.6850527423409594,0.12728790026,1.4489575094780633,0.22681658961063117,0.7897186859612697,0.8675203352391571,,-0.06956664232292899,-0.09960812207288139,0.10977815991999999,-0.034016912529394594,,3.877282e-05,5.1259995e-06,-7.987022e-06,1.0,-4.643947e-05,-3.7960708e-05,4.6443194e-05,1.0,-4.261732e-06,3.796816e-05,4.23193e-06,1.0,399,1.2,0,0,0.0,False[1.04713795][1.05028747]
1.2202173240002594,11:09:42.383423,NaN,0,,0.028369177,0.050281614,0.074278414,-0.86743087,-0.37175202,-0.33070216,-0.4915713,0.74309736,0.4540525,0.076949,0.5564229,-0.82732844,,0.14123021,-0.045609035,0.06932497,-0.74195564,-0.6180331,0.25987875,-0.44413182,0.74344635,0.50003445,-0.50224364,0.25558278,-0.82609236,,0.08797313,1.335594,0.46886986,0.99604064,0.002800002,-0.088854946,-0.053934626,-0.7755071,-0.6290308,-0.07066893,0.63133264,-0.7722856,,-0.07272732,0.27880767,-0.09691753,0.8816309,0.2841919,0.3767784,-0.24624778,0.95807874,-0.14644837,-0.4026028,0.03633257,0.9146534,,0.054952234,0.44425356,-0.39091915,0.8667232,0.45691103,-0.20005818,-0.49771857,0.7659797,-0.40688,-0.032667458,0.452225,0.89130545,,0.8179146387091178,-0.08605441241748371,0.15336277361,0.637038048305985,0.11873711829616776,0.3038937408174081,0.8699704962311713,,-0.6229001881692005,-0.6850527423409594,0.12728790026,1.4489575094780633,0.22681658961063117,0.7897186859612697,0.8675203352391571,,-0.06956664232292899,-0.09960812207288139,0.10977815991999999,-0.034016912529394594,,3.877282e-05,5.1259995e-06,-7.987022e-06,1.0,-4.643947e-05,-3.7960708e-05,4.6443194e-05,1.0,-4.261732e-06,3.796816e-05,4.23193e-06,1.0,407,1.225,0,0,0.0,False[1.04660175][1.05009435]
1.244502293999176,11:09:42.410452,NaN,0,,0.028369177,0.050281614,0.074278414,-0.86743087,-0.37175202,-0.33070216,-0.4915713,0.74309736,0.4540525,0.076949,0.5564229,-0.82732844,,0.14123085,-0.045608856,0.06932527,-0.7419531,-0.61803335,0.2598854,-0.44412884,0.7434468,0.5000364,-0.5022501,0.2555808,-0.826089,,0.08797313,1.335594,0.46886986,0.99604064,0.002800002,-0.088854946,-0.053934626,-0.7755071,-0.6290308,-0.07066893,0.63133264,-0.7722856,,-0.07272732,0.27880767,-0.09691753,0.8816309,0.2841919,0.3767784,-0.24624778,0.95807874,-0.14644837,-0.4026028,0.03633257,0.9146534,,0.05495154,0.44425377,-0.39091918,0.8667212,0.4569115,-0.20006545,-0.49772236,0.76597846,-0.40687767,-0.032661267,0.45222658,0.89130485,,0.8179146387091178,-0.08605441241748371,0.15336277361,0.637038048305985,0.11873711829616776,0.3038937408174081,0.8699704962311713,,-0.6229079109020748,-0.6850527423409594,0.12728790026,1.4489575094780633,0.22681658961063117,0.7897186859612697,0.8675203352391571,,-0.06956664232292899,-0.09960812207288139,0.10977815991999999,-0.034016912529394594,,3.877282e-05,5.1259995e-06,-7.987022e-06,1.0,-4.643947e-05,-3.7960708e-05,4.6443194e-05,1.0,-4.261732e-06,3.796816e-05,4.23193e-06,1.0,436,1.314,0,0,0.0,False[1.04695922][1.05014263]
1.2715298559996882,11:09:42.496884,NaN,0,,0.028368667,0.05028309,0.0742788,-0.86743146,-0.3717484,-0.33070466,-0.49157044,0.74309254,0.4540614,0.07694763,0.5564318,-0.8273226,,0.14123021,-0.045609035,0.06932497,-0.74195564,-0.6180331,0.25987875,-0.44413182,0.74344635,0.50003445,-0.50224364,0.25558278,-0.82609236,,0.08797313,1.335594,0.46886986,0.99604064,0.002800002,-0.088854946,-0.053934626,-0.7755071,-0.6290308,-0.07066893,0.63133264,-0.7722856,,-0.07272692,0.2788091,-0.09691693,0.88163155,0.28418776,0.3767799,-0.24624795,0.95808035,-0.14643762,-0.4026012,0.03632275,0.91465455,,0.054952234,0.44425356,-0.39091915,0.8667232,0.45691103,-0.20005818,-0.49771857,0.7659797,-0.40688,-0.032667458,0.452225,0.89130545,,0.817922361441992,-0.08604668968460949,0.15336277361,0.637038048305985,0.11873711829616776,0.3038937408174081,0.8699704962311713,,-0.6229001881692005,-0.6850527423409594,0.12728790026,1.4489575094780633,0.22681658961063117,0.7897186859612697,0.8675203352391571,,-0.06956664232292899,-0.09960812207288139,0.10977815991999999,-0.034016912529394594,,3.877282e-05,5.1259995e-06,-7.987022e-06,1.0,-4.643947e-05,-3.7960708e-05,4.6443194e-05,1.0,-4.261732e-06,3.796816e-05,4.23193e-06,1.0,444,1.339,0,0,0.0,False[1.04695922][1.05067371]
1.357967361998817,11:09:42.521921,NaN,0,,0.028369177,0.050281614,0.074278414,-0.86743087,-0.37175202,-0.33070216,-0.4915713,0.74309736,0.4540525,0.076949,0.5564229,-0.82732844,,0.14123021,-0.045609035,0.06932497,-0.74195564,-0.6180331,0.25987875,-0.44413182,0.74344635,0.50003445,-0.50224364,0.25558278,-0.82609236,,0.08797313,1.335594,0.46886986,0.99604064,0.002800002,-0.088854946,-0.053934626,-0.7755071,-0.6290308,-0.07066893,0.63133264,-0.7722856,,-0.07272732,0.27880767,-0.09691753,0.8816309,0.2841919,0.3767784,-0.24624778,0.95807874,-0.14644837,-0.4026028,0.03633257,0.9146534,,0.054952234,0.44425356,-0.39091915,0.8667232,0.45691103,-0.20005818,-0.49771857,0.7659797,-0.40688,-0.032667458,0.452225,0.89130545,,0.8179146387091178,-0.08605441241748371,0.15336277361,0.637038048305985,0.11873711829616776,0.3038937408174081,0.8699704962311713,,-0.6229001881692005,-0.6850527423409594,0.12728790026,1.4489575094780633,0.22681658961063117,0.7897186859612697,0.8675203352391571,,-0.06956664232292899,-0.09960812207288139,0.10977815991999999,-0.034016912529394594,,3.877282e-05,5.1259995e-06,-7.987022e-06,1.0,-4.643947e-05,-3.7960708e-05,4.6443194e-05,1.0,-4.261732e-06,3.796816e-05,4.23193e-06,1.0,452,1.363,0,0,0.0,False[1.04684006][1.05033575]
1.3829188959989551,11:09:42.547990,NaN,0,,0.028368201,0.05028206,0.0742788,-0.8674299,-0.37174872,-0.33070824,-0.49157223,0.74309534,0.454055,0.07695341,0.5564279,-0.82732475,,0.14123085,-0.045608856,0.06932527,-0.7419531,-0.61803335,0.2598854,-0.44412884,0.7434468,0.5000364,-0.5022501,0.2555808,-0.826089,,0.08797313,1.335594,0.46886986,0.99604064,0.002800002,-0.088854946,-0.053934626,-0.7755071,-0.6290308,-0.07066893,0.63133264,-0.7722856,,-0.072726406,0.27880836,-0.096917585,0.88162965,0.2841883,0.37678397,-0.24624577,0.95808,-0.14644349,-0.40260673,0.036327463,0.91465193,,0.05495154,0.44425377,-0.39091918,0.8667212,0.4569115,-0.20006545,-0.49772236,0.76597846,-0.40687767,-0.032661267,0.45222658,0.89130485,,0.817922361441992,-0.08605441241748371,0.15336277361,0.637038048305985,0.11873711829616776,0.3038937408174081,0.8699704962311713,,-0.6229079109020748,-0.6850527423409594,0.12728790026,1.4489575094780633,0.22681658961063117,0.7897186859612697,0.8675203352391571,,-0.06956664232292899,-0.09960812207288139,0.10977815991999999,-0.034016912529394594,,3.877282e-05,5.1259995e-06,-7.987022e-06,1.0,-4.643947e-05,-3.7960708e-05,4.6443194e-05,1.0,-4.261732e-06,3.796816e-05,4.23193e-06,1.0,464,1.401,0,0,0.0,False[1.04713795][1.04980467]
1.409055434000038,11:09:42.580667,NaN,0,,0.028369643,0.050282657,0.074278444,-0.8674324,-0.37175167,-0.33069858,-0.49156955,0.7430947,0.4540589,0.07694322,0.55642676,-0.8273264,,0.14123085,-0.045608856,0.06932527,-0.7419531,-0.61803335,0.2598854,-0.44412884,0.7434468,0.5000364,-0.5022501,0.2555808,-0.826089,,0.08797313,1.335594,0.46886986,0.99604064,0.002800002,-0.088854946,-0.053934626,-0.7755071,-0.6290308,-0.07066893,0.63133264,-0.7722856,,-0.07272784,0.27880844,-0.09691688,0.8816328,0.28419137,0.3767743,-0.24624996,0.9580791,-0.1464425,-0.40259728,0.03632786,0.91465604,,0.05495154,0.44425377,-0.39091918,0.8667212,0.4569115,-0.20006545,-0.49772236,0.76597846,-0.40687767,-0.032661267,0.45222658,0.89130485,,0.8179146387091178,-0.08604668968460949,0.15336277361,0.637038048305985,0.11873711829616776,0.3038937408174081,0.8699704962311713,,-0.6229079109020748,-0.6850527423409594,0.12728790026,1.4489575094780633,0.22681658961063117,0.7897186859612697,0.8675203352391571,,-0.06956664232292899,-0.09960812207288139,0.10977815991999999,-0.034016912529394594,,3.877282e-05,5.1259995e-06,-7.987022e-06,1.0,-4.643947e-05,-3.7960708e-05,4.6443194e-05,1.0,-4.261732e-06,3.796816e-05,4.23193e-06,1.0,472,1.426,0,0,0.0,False[1.04719753][1.04999779]
1.4417501719999564,11:09:42.610089,NaN,0,,0.028369177,0.050281614,0.074278414,-0.86743087,-0.37175202,-0.33070216,-0.4915713,0.74309736,0.4540525,0.076949,0.5564229,-0.82732844,,0.14123021,-0.045609035,0.06932497,-0.74195564,-0.6180331,0.25987875,-0.44413182,0.74344635,0.50003445,-0.50224364,0.25558278,-0.82609236,,0.08797313,1.335594,0.46886986,0.99604064,0.002800002,-0.088854946,-0.053934626,-0.7755071,-0.6290308,-0.07066893,0.63133264,-0.7722856,,-0.07272732,0.27880767,-0.09691753,0.8816309,0.2841919,0.3767784,-0.24624778,0.95807874,-0.14644837,-0.4026028,0.03633257,0.9146534,,0.054952234,0.44425356,-0.39091915,0.8667232,0.45691103,-0.20005818,-0.49771857,0.7659797,-0.40688,-0.032667458,0.452225,0.89130545,,0.8179146387091178,-0.08605441241748371,0.15336277361,0.637038048305985,0.11873711829616776,0.3038937408174081,0.8699704962311713,,-0.6229001881692005,-0.6850527423409594,0.12728790026,1.4489575094780633,0.22681658961063117,0.7897186859612697,0.8675203352391571,,-0.06956664232292899,-0.09960812207288139,0.10977815991999999,-0.034016912529394594,,3.877282e-05,5.1259995e-06,-7.987022e-06,1.0,-4.643947e-05,-3.7960708e-05,4.6443194e-05,1.0,-4.261732e-06,3.796816e-05,4.23193e-06,1.0,480,1.45,0,0,0.0,False[1.04672091][1.05023919]
1.4711500289995456,11:09:42.632126,NaN,0,,0.028368201,0.05028206,0.0742788,-0.8674299,-0.37174872,-0.33070824,-0.49157223,0.74309534,0.454055,0.07695341,0.5564279,-0.82732475,,0.14123085,-0.045608856,0.06932527,-0.7419531,-0.61803335,0.2598854,-0.44412884,0.7434468,0.5000364,-0.5022501,0.2555808,-0.826089,,0.08797313,1.335594,0.46886986,0.99604064,0.002800002,-0.088854946,-0.053934626,-0.7755071,-0.6290308,-0.07066893,0.63133264,-0.7722856,,-0.072726406,0.27880836,-0.096917585,0.88162965,0.2841883,0.37678397,-0.24624577,0.95808,-0.14644349,-0.40260673,0.036327463,0.91465193,,0.05495154,0.44425377,-0.39091918,0.8667212,0.4569115,-0.20006545,-0.49772236,0.76597846,-0.40687767,-0.032661267,0.45222658,0.89130485,,0.817922361441992,-0.08605441241748371,0.15336277361,0.637038048305985,0.11873711829616776,0.3038937408174081,0.8699704962311713,,-0.6229079109020748,-0.6850527423409594,0.12728790026,1.4489575094780633,0.22681658961063117,0.7897186859612697,0.8675203352391571,,-0.06956664232292899,-0.09960812207288139,0.10977815991999999,-0.034016912529394594,,3.877282e-05,5.1259995e-06,-7.987022e-06,1.0,-4.643947e-05,-3.7960708e-05,4.6443194e-05,1.0,-4.261732e-06,3.796816e-05,4.23193e-06,1.0,513,1.552,0,0,0.0,False[1.04672091][1.05009435]
1.4932091549999313,11:09:42.731459,NaN,0,,0.028369177,0.050281614,0.074278414,-0.86743087,-0.37175202,-0.33070216,-0.4915713,0.74309736,0.4540525,0.076949,0.5564229,-0.82732844,,0.14123085,-0.045608856,0.06932527,-0.7419531,-0.61803335,0.2598854,-0.44412884,0.7434468,0.5000364,-0.5022501,0.2555808,-0.826089,,0.08797313,1.335594,0.46886986,0.99604064,0.002800002,-0.088854946,-0.053934626,-0.7755071,-0.6290308,-0.07066893,0.63133264,-0.7722856,,-0.07272732,0.27880767,-0.09691753,0.8816309,0.2841919,0.3767784,-0.24624778,0.95807874,-0.14644837,-0.4026028,0.03633257,0.9146534,,0.05495154,0.44425377,-0.39091918,0.8667212,0.4569115,-0.20006545,-0.49772236,0.76597846,-0.40687767,-0.032661267,0.45222658,0.89130485,,0.8179146387091178,-0.08605441241748371,0.15336277361,0.637038048305985,0.11873711829616776,0.3038937408174081,0.8699704962311713,,-0.6229079109020748,-0.6850527423409594,0.12728790026,1.4489575094780633,0.22681658961063117,0.7897186859612697,0.8675203352391571,,-0.06956664232292899,-0.09960812207288139,0.10977815991999999,-0.034016912529394594,,3.877282e-05,5.1259995e-06,-7.987022e-06,1.0,-4.643947e-05,-3.7960708e-05,4.6443194e-05,1.0,-4.261732e-06,3.796816e-05,4.23193e-06,1.0,517,1.564,0,0,0.0,False[1.04684006][1.04994951]
1.5925425519999408,11:09:42.755054,NaN,0,,0.028369177,0.050281614,0.074278414,-0.86743087,-0.37175202,-0.33070216,-0.4915713,0.74309736,0.4540525,0.076949,0.5564229,-0.82732844,,0.14123043,-0.04560981,0.06932539,-0.742058,-0.6177951,0.26015237,-0.4437728,0.74362123,0.5000931,-0.5024098,0.25564942,-0.82597065,,0.08797313,1.335594,0.46886986,0.99604064,0.002800002,-0.088854946,-0.053934626,-0.7755071,-0.6290308,-0.07066893,0.63133264,-0.7722856,,-0.07272732,0.27880767,-0.09691753,0.8816309,0.2841919,0.3767784,-0.24624778,0.95807874,-0.14644837,-0.4026028,0.03633257,0.9146534,,0.05495208,0.44425336,-0.39091995,0.8667965,0.45664278,-0.20035277,-0.49761626,0.7660845,-0.4068078,-0.03227869,0.4523184,0.8912722,,0.8179146387091178,-0.08605441241748371,0.15336277361,0.637038048305985,0.11873711829616776,0.3038937408174081,0.8699704962311713,,-0.6229001881692005,-0.6850527423409594,0.12728790026,1.4493768893650323,0.22681658961063117,0.7897186859612697,0.8675203352391571,,-0.06956664232292899,-0.09960812207288139,0.10977815991999999,-0.034016912529394594,,3.877282e-05,5.1259995e-06,-7.987022e-06,1.0,-4.643947e-05,-3.7960708e-05,4.6443194e-05,1.0,-4.261732e-06,3.796816e-05,4.23193e-06,1.0,529,1.601,0,0,0.0,False[1.04707838][1.04999779]
1.616043363999779,11:09:42.782640,NaN,0,,0.028368201,0.05028206,0.0742788,-0.8674299,-0.37174872,-0.33070824,-0.49157223,0.74309534,0.454055,0.07695341,0.5564279,-0.82732475,,0.14123043,-0.04560981,0.06932539,-0.742058,-0.6177951,0.26015237,-0.4437728,0.74362123,0.5000931,-0.5024098,0.25564942,-0.82597065,,0.08797313,1.335594,0.46886986,0.99604064,0.002800002,-0.088854946,-0.053934626,-0.7755071,-0.6290308,-0.07066893,0.63133264,-0.7722856,,-0.072726406,0.27880836,-0.096917585,0.88162965,0.2841883,0.37678397,-0.24624577,0.95808,-0.14644349,-0.40260673,0.036327463,0.91465193,,0.05495208,0.44425336,-0.39091995,0.8667965,0.45664278,-0.20035277,-0.49761626,0.7660845,-0.4068078,-0.03227869,0.4523184,0.8912722,,0.817922361441992,-0.08605441241748371,0.15336277361,0.637038048305985,0.11873711829616776,0.3038937408174081,0.8699704962311713,,-0.6229001881692005,-0.6850527423409594,0.12728790026,1.4493768893650323,0.22681658961063117,0.7897186859612697,0.8675203352391571,,-0.06956664232292899,-0.09960812207288139,0.10977815991999999,-0.034016912529394594,,3.877282e-05,5.1259995e-06,-7.987022e-06,1.0,-4.643947e-05,-3.7960708e-05,4.6443194e-05,1.0,-4.261732e-06,3.796816e-05,4.23193e-06,1.0,537,1.626,0,0,0.0,False[1.04695922][1.04980467]
1.643723481998677,11:09:42.811929,NaN,0,,0.028369177,0.050281614,0.074278414,-0.86743087,-0.37175202,-0.33070216,-0.4915713,0.74309736,0.4540525,0.076949,0.5564229,-0.82732844,,0.14123043,-0.04560981,0.06932539,-0.742058,-0.6177951,0.26015237,-0.4437728,0.74362123,0.5000931,-0.5024098,0.25564942,-0.82597065,,0.08797313,1.335594,0.46886986,0.99604064,0.002800002,-0.088854946,-0.053934626,-0.7755071,-0.6290308,-0.07066893,0.63133264,-0.7722856,,-0.07272732,0.27880767,-0.09691753,0.8816309,0.2841919,0.3767784,-0.24624778,0.95807874,-0.14644837,-0.4026028,0.03633257,0.9146534,,0.05495208,0.44425336,-0.39091995,0.8667965,0.45664278,-0.20035277,-0.49761626,0.7660845,-0.4068078,-0.03227869,0.4523184,0.8912722,,0.8179146387091178,-0.08605441241748371,0.15336277361,0.637038048305985,0.11873711829616776,0.3038937408174081,0.8699704962311713,,-0.6229001881692005,-0.6850527423409594,0.12728790026,1.4493768893650323,0.22681658961063117,0.7897186859612697,0.8675203352391571,,-0.06956664232292899,-0.09960812207288139,0.10977815991999999,-0.034016912529394594,,3.877282e-05,5.1259995e-06,-7.987022e-06,1.0,-4.643947e-05,-3.7960708e-05,4.6443194e-05,1.0,-4.261732e-06,3.796816e-05,4.23193e-06,1.0,545,1.651,0,0,0.0,False[1.04713795][1.04980467]
1.6729916889999004,11:09:42.841335,NaN,0,,0.028369177,0.050281614,0.074278414,-0.86743087,-0.37175202,-0.33070216,-0.4915713,0.74309736,0.4540525,0.076949,0.5564229,-0.82732844,,0.14123106,-0.0456096,0.069325626,-0.7420554,-0.61779535,0.26015902,-0.44376978,0.7436217,0.5000951,-0.5024162,0.25564745,-0.82596743,,0.08797313,1.335594,0.46886986,0.99604064,0.002800002,-0.088854946,-0.053934626,-0.7755071,-0.6290308,-0.07066893,0.63133264,-0.7722856,,-0.07272732,0.27880767,-0.09691753,0.8816309,0.2841919,0.3767784,-0.24624778,0.95807874,-0.14644837,-0.4026028,0.03633257,0.9146534,,0.054951385,0.44425356,-0.39091998,0.8667945,0.45664325,-0.20036006,-0.49762005,0.7660833,-0.4068055,-0.0322725,0.45231998,0.89127165,,0.8179146387091178,-0.08605441241748371,0.15336277361,0.637038048305985,0.11873711829616776,0.3038937408174081,0.8699704962311713,,-0.6229079109020748,-0.6850527423409594,0.12728790026,1.4493768893650323,0.22681658961063117,0.7897186859612697,0.8675203352391571,,-0.06956664232292899,-0.09960812207288139,0.10977815991999999,-0.034016912529394594,,3.877282e-05,5.1259995e-06,-7.987022e-06,1.0,-4.643947e-05,-3.7960708e-05,4.6443194e-05,1.0,-4.261732e-06,3.796816e-05,4.23193e-06,1.0,553,1.676,0,0,0.0,False[1.04707838][1.04917703]
1.7024154649989214,11:09:42.856877,NaN,0,,0.028368201,0.05028206,0.0742788,-0.8674299,-0.37174872,-0.33070824,-0.49157223,0.74309534,0.454055,0.07695341,0.5564279,-0.82732475,,0.14123106,-0.0456096,0.069325626,-0.7420554,-0.61779535,0.26015902,-0.44376978,0.7436217,0.5000951,-0.5024162,0.25564745,-0.82596743,,0.08797313,1.335594,0.46886986,0.99604064,0.002800002,-0.088854946,-0.053934626,-0.7755071,-0.6290308,-0.07066893,0.63133264,-0.7722856,,-0.072726406,0.27880836,-0.096917585,0.88162965,0.2841883,0.37678397,-0.24624577,0.95808,-0.14644349,-0.40260673,0.036327463,0.91465193,,0.054951385,0.44425356,-0.39091998,0.8667945,0.45664325,-0.20036006,-0.49762005,0.7660833,-0.4068055,-0.0322725,0.45231998,0.89127165,,0.817922361441992,-0.08605441241748371,0.15336277361,0.637038048305985,0.11873711829616776,0.3038937408174081,0.8699704962311713,,-0.6229079109020748,-0.6850527423409594,0.12728790026,1.4493768893650323,0.22681658961063117,0.7897186859612697,0.8675203352391571,,-0.06956664232292899,-0.09960812207288139,0.10977815991999999,-0.034016912529394594,,3.877282e-05,5.1259995e-06,-7.987022e-06,1.0,-4.643947e-05,-3.7960708e-05,4.6443194e-05,1.0,-4.261732e-06,3.796816e-05,4.23193e-06,1.0,594,1.801,0,0,0.0,False[1.0470188][1.04965983]
1.7179326659988874,11:09:42.982047,NaN,0,,0.028368201,0.05028206,0.0742788,-0.8674299,-0.37174872,-0.33070824,-0.49157223,0.74309534,0.454055,0.07695341,0.5564279,-0.82732475,,0.14123043,-0.04560981,0.06932539,-0.742058,-0.6177951,0.26015237,-0.4437728,0.74362123,0.5000931,-0.5024098,0.25564942,-0.82597065,,0.08797313,1.335594,0.46886986,0.99604064,0.002800002,-0.088854946,-0.053934626,-0.7755071,-0.6290308,-0.07066893,0.63133264,-0.7722856,,-0.072726406,0.27880836,-0.096917585,0.88162965,0.2841883,0.37678397,-0.24624577,0.95808,-0.14644349,-0.40260673,0.036327463,0.91465193,,0.05495208,0.44425336,-0.39091995,0.8667965,0.45664278,-0.20035277,-0.49761626,0.7660845,-0.4068078,-0.03227869,0.4523184,0.8912722,,0.817922361441992,-0.08605441241748371,0.15336277361,0.637038048305985,0.11873711829616776,0.3038937408174081,0.8699704962311713,,-0.6229001881692005,-0.6850527423409594,0.12728790026,1.4493768893650323,0.22681658961063117,0.7897186859612697,0.8675203352391571,,-0.06956664232292899,-0.09960812207288139,0.10977815991999999,-0.034016912529394594,,3.877282e-05,5.1259995e-06,-7.987022e-06,1.0,-4.643947e-05,-3.7960708e-05,4.6443194e-05,1.0,-4.261732e-06,3.796816e-05,4.23193e-06,1.0,598,1.814,0,0,0.0,False[1.04725711][1.04975639]
1.8431307649989321,11:09:43.000730,NaN,0,,0.028368201,0.05028206,0.0742788,-0.8674299,-0.37174872,-0.33070824,-0.49157223,0.74309534,0.454055,0.07695341,0.5564279,-0.82732475,,0.14123106,-0.0456096,0.069325626,-0.7420554,-0.61779535,0.26015902,-0.44376978,0.7436217,0.5000951,-0.5024162,0.25564745,-0.82596743,,0.08797313,1.335594,0.46886986,0.99604064,0.002800002,-0.088854946,-0.053934626,-0.7755071,-0.6290308,-0.07066893,0.63133264,-0.7722856,,-0.072726406,0.27880836,-0.096917585,0.88162965,0.2841883,0.37678397,-0.24624577,0.95808,-0.14644349,-0.40260673,0.036327463,0.91465193,,0.054951385,0.44425356,-0.39091998,0.8667945,0.45664325,-0.20036006,-0.49762005,0.7660833,-0.4068055,-0.0322725,0.45231998,0.89127165,,0.817922361441992,-0.08605441241748371,0.15336277361,0.637038048305985,0.11873711829616776,0.3038937408174081,0.8699704962311713,,-0.6229079109020748,-0.6850527423409594,0.12728790026,1.4493768893650323,0.22681658961063117,0.7897186859612697,0.8675203352391571,,-0.06956664232292899,-0.09960812207288139,0.10977815991999999,-0.034016912529394594,,3.877282e-05,5.1259995e-06,-7.987022e-06,1.0,-4.643947e-05,-3.7960708e-05,4.6443194e-05,1.0,-4.261732e-06,3.796816e-05,4.23193e-06,1.0,606,1.838,0,0,0.0,False[1.04695922][1.04965983]
1.8618087309987459,11:09:43.021182,NaN,0,,0.028368201,0.05028206,0.0742788,-0.8674299,-0.37174872,-0.33070824,-0.49157223,0.74309534,0.454055,0.07695341,0.5564279,-0.82732475,,0.14123106,-0.0456096,0.069325626,-0.7420554,-0.61779535,0.26015902,-0.44376978,0.7436217,0.5000951,-0.5024162,0.25564745,-0.82596743,,0.08797313,1.335594,0.46886986,0.99604064,0.002800002,-0.088854946,-0.053934626,-0.7755071,-0.6290308,-0.07066893,0.63133264,-0.7722856,,-0.072726406,0.27880836,-0.096917585,0.88162965,0.2841883,0.37678397,-0.24624577,0.95808,-0.14644349,-0.40260673,0.036327463,0.91465193,,0.054951385,0.44425356,-0.39091998,0.8667945,0.45664325,-0.20036006,-0.49762005,0.7660833,-0.4068055,-0.0322725,0.45231998,0.89127165,,0.817922361441992,-0.08605441241748371,0.15336277361,0.637038048305985,0.11873711829616776,0.3038937408174081,0.8699704962311713,,-0.6229079109020748,-0.6850527423409594,0.12728790026,1.4493768893650323,0.22681658961063117,0.7897186859612697,0.8675203352391571,,-0.06956664232292899,-0.09960812207288139,0.10977815991999999,-0.034016912529394594,,3.877282e-05,5.1259995e-06,-7.987022e-06,1.0,-4.643947e-05,-3.7960708e-05,4.6443194e-05,1.0,-4.261732e-06,3.796816e-05,4.23193e-06,1.0,614,1.864,0,0,0.0,False[1.04719753][1.04946671]
1.8822286369995709,11:09:43.045634,NaN,0,,0.028368201,0.05028206,0.0742788,-0.8674299,-0.37174872,-0.33070824,-0.49157223,0.74309534,0.454055,0.07695341,0.5564279,-0.82732475,,0.14123106,-0.0456096,0.069325626,-0.7420554,-0.61779535,0.26015902,-0.44376978,0.7436217,0.5000951,-0.5024162,0.25564745,-0.82596743,,0.08797313,1.335594,0.46886986,0.99604064,0.002800002,-0.088854946,-0.053934626,-0.7755071,-0.6290308,-0.07066893,0.63133264,-0.7722856,,-0.072726406,0.27880836,-0.096917585,0.88162965,0.2841883,0.37678397,-0.24624577,0.95808,-0.14644349,-0.40260673,0.036327463,0.91465193,,0.054951385,0.44425356,-0.39091998,0.8667945,0.45664325,-0.20036006,-0.49762005,0.7660833,-0.4068055,-0.0322725,0.45231998,0.89127165,,0.817922361441992,-0.08605441241748371,0.15336277361,0.637038048305985,0.11873711829616776,0.3038937408174081,0.8699704962311713,,-0.6229079109020748,-0.6850527423409594,0.12728790026,1.4493768893650323,0.22681658961063117,0.7897186859612697,0.8675203352391571,,-0.06956664232292899,-0.09960812207288139,0.10977815991999999,-0.034016912529394594,,3.877282e-05,5.1259995e-06,-7.987022e-06,1.0,-4.643947e-05,-3.7960708e-05,4.6443194e-05,1.0,-4.261732e-06,3.796816e-05,4.23193e-06,1.0,622,1.889,0,0,0.0,False[1.04666133][1.04980467]
1.9066875449989311,11:09:43.074257,NaN,0,,0.028369177,0.050281614,0.074278414,-0.86743087,-0.37175202,-0.33070216,-0.4915713,0.74309736,0.4540525,0.076949,0.5564229,-0.82732844,,0.14123043,-0.04560981,0.06932539,-0.742058,-0.6177951,0.26015237,-0.4437728,0.74362123,0.5000931,-0.5024098,0.25564942,-0.82597065,,0.08797313,1.335594,0.46886986,0.99604064,0.002800002,-0.088854946,-0.053934626,-0.7755071,-0.6290308,-0.07066893,0.63133264,-0.7722856,,-0.07272732,0.27880767,-0.09691753,0.8816309,0.2841919,0.3767784,-0.24624778,0.95807874,-0.14644837,-0.4026028,0.03633257,0.9146534,,0.05495208,0.44425336,-0.39091995,0.8667965,0.45664278,-0.20035277,-0.49761626,0.7660845,-0.4068078,-0.03227869,0.4523184,0.8912722,,0.8179146387091178,-0.08605441241748371,0.15336277361,0.637038048305985,0.11873711829616776,0.3038937408174081,0.8699704962311713,,-0.6229001881692005,-0.6850527423409594,0.12728790026,1.4493768893650323,0.22681658961063117,0.7897186859612697,0.8675203352391571,,-0.06956664232292899,-0.09960812207288139,0.10977815991999999,-0.034016912529394594,,3.877282e-05,5.1259995e-06,-7.987022e-06,1.0,-4.643947e-05,-3.7960708e-05,4.6443194e-05,1.0,-4.261732e-06,3.796816e-05,4.23193e-06,1.0,630,1.913,0,0,0.0,False[1.04737626][1.04994951]
1.935292729000139,11:09:43.096056,NaN,0,,0.028368201,0.05028206,0.0742788,-0.8674299,-0.37174872,-0.33070824,-0.49157223,0.74309534,0.454055,0.07695341,0.5564279,-0.82732475,,0.14123106,-0.0456096,0.069325626,-0.7420554,-0.61779535,0.26015902,-0.44376978,0.7436217,0.5000951,-0.5024162,0.25564745,-0.82596743,,0.08797313,1.335594,0.46886986,0.99604064,0.002800002,-0.088854946,-0.053934626,-0.7755071,-0.6290308,-0.07066893,0.63133264,-0.7722856,,-0.072726406,0.27880836,-0.096917585,0.88162965,0.2841883,0.37678397,-0.24624577,0.95808,-0.14644349,-0.40260673,0.036327463,0.91465193,,0.054951385,0.44425356,-0.39091998,0.8667945,0.45664325,-0.20036006,-0.49762005,0.7660833,-0.4068055,-0.0322725,0.45231998,0.89127165,,0.817922361441992,-0.08605441241748371,0.15336277361,0.637038048305985,0.11873711829616776,0.3038937408174081,0.8699704962311713,,-0.6229079109020748,-0.6850527423409594,0.12728790026,1.4493768893650323,0.22681658961063117,0.7897186859612697,0.8675203352391571,,-0.06956664232292899,-0.09960812207288139,0.10977815991999999,-0.034016912529394594,,3.877282e-05,5.1259995e-06,-7.987022e-06,1.0,-4.643947e-05,-3.7960708e-05,4.6443194e-05,1.0,-4.261732e-06,3.796816e-05,4.23193e-06,1.0,663,2.014,0,0,0.0,False[1.04695922][1.04932187]
1.9571187980000104,11:09:43.196087,NaN,0,,0.028368201,0.05028206,0.0742788,-0.8674299,-0.37174872,-0.33070824,-0.49157223,0.74309534,0.454055,0.07695341,0.5564279,-0.82732475,,0.14123106,-0.0456096,0.069325626,-0.7420554,-0.61779535,0.26015902,-0.44376978,0.7436217,0.5000951,-0.5024162,0.25564745,-0.82596743,,0.08797313,1.335594,0.46886986,0.99604064,0.002800002,-0.088854946,-0.053934626,-0.7755071,-0.6290308,-0.07066893,0.63133264,-0.7722856,,-0.072726406,0.27880836,-0.096917585,0.88162965,0.2841883,0.37678397,-0.24624577,0.95808,-0.14644349,-0.40260673,0.036327463,0.91465193,,0.054951385,0.44425356,-0.39091998,0.8667945,0.45664325,-0.20036006,-0.49762005,0.7660833,-0.4068055,-0.0322725,0.45231998,0.89127165,,0.817922361441992,-0.08605441241748371,0.15336277361,0.637038048305985,0.11873711829616776,0.3038937408174081,0.8699704962311713,,-0.6229079109020748,-0.6850527423409594,0.12728790026,1.4493768893650323,0.22681658961063117,0.7897186859612697,0.8675203352391571,,-0.06956664232292899,-0.09960812207288139,0.10977815991999999,-0.034016912529394594,,3.877282e-05,5.1259995e-06,-7.987022e-06,1.0,-4.643947e-05,-3.7960708e-05,4.6443194e-05,1.0,-4.261732e-06,3.796816e-05,4.23193e-06,1.0,671,2.039,0,0,0.0,False[1.04684006][1.04975639]
2.0571698989988363,11:09:43.224411,NaN,0,,0.028369177,0.050281614,0.074278414,-0.86743087,-0.37175202,-0.33070216,-0.4915713,0.74309736,0.4540525,0.076949,0.5564229,-0.82732844,,0.14123043,-0.04560981,0.06932539,-0.742058,-0.6177951,0.26015237,-0.4437728,0.74362123,0.5000931,-0.5024098,0.25564942,-0.82597065,,0.08797313,1.335594,0.46886986,0.99604064,0.002800002,-0.088854946,-0.053934626,-0.7755071,-0.6290308,-0.07066893,0.63133264,-0.7722856,,-0.07272732,0.27880767,-0.09691753,0.8816309,0.2841919,0.3767784,-0.24624778,0.95807874,-0.14644837,-0.4026028,0.03633257,0.9146534,,0.05495208,0.44425336,-0.39091995,0.8667965,0.45664278,-0.20035277,-0.49761626,0.7660845,-0.4068078,-0.03227869,0.4523184,0.8912722,,0.8179146387091178,-0.08605441241748371,0.15336277361,0.637038048305985,0.11873711829616776,0.3038937408174081,0.8699704962311713,,-0.6229001881692005,-0.6850527423409594,0.12728790026,1.4493768893650323,0.22681658961063117,0.7897186859612697,0.8675203352391571,,-0.06956664232292899,-0.09960812207288139,0.10977815991999999,-0.034016912529394594,,3.877282e-05,5.1259995e-06,-7.987022e-06,1.0,-4.643947e-05,-3.7960708e-05,4.6443194e-05,1.0,-4.261732e-06,3.796816e-05,4.23193e-06,1.0,679,2.064,0,0,0.0,False[1.04731669][1.04970811]
2.0854605389995413,11:09:43.245210,NaN,0,,0.028369177,0.050281614,0.074278414,-0.86743087,-0.37175202,-0.33070216,-0.4915713,0.74309736,0.4540525,0.076949,0.5564229,-0.82732844,,0.14123043,-0.04560981,0.06932539,-0.742058,-0.6177951,0.26015237,-0.4437728,0.74362123,0.5000931,-0.5024098,0.25564942,-0.82597065,,0.08797313,1.335594,0.46886986,0.99604064,0.002800002,-0.088854946,-0.053934626,-0.7755071,-0.6290308,-0.07066893,0.63133264,-0.7722856,,-0.07272732,0.27880767,-0.09691753,0.8816309,0.2841919,0.3767784,-0.24624778,0.95807874,-0.14644837,-0.4026028,0.03633257,0.9146534,,0.05495208,0.44425336,-0.39091995,0.8667965,0.45664278,-0.20035277,-0.49761626,0.7660845,-0.4068078,-0.03227869,0.4523184,0.8912722,,0.8179146387091178,-0.08605441241748371,0.15336277361,0.637038048305985,0.11873711829616776,0.3038937408174081,0.8699704962311713,,-0.6229001881692005,-0.6850527423409594,0.12728790026,1.4493768893650323,0.22681658961063117,0.7897186859612697,0.8675203352391571,,-0.06956664232292899,-0.09960812207288139,0.10977815991999999,-0.034016912529394594,,3.877282e-05,5.1259995e-06,-7.987022e-06,1.0,-4.643947e-05,-3.7960708e-05,4.6443194e-05,1.0,-4.261732e-06,3.796816e-05,4.23193e-06,1.0,687,2.089,0,0,0.0,False[1.04737626][1.04985295]
2.106283621998955,11:09:43.274820,NaN,0,,0.028368667,0.05028309,0.0742788,-0.86743146,-0.3717484,-0.33070466,-0.49157044,0.74309254,0.4540614,0.07694763,0.5564318,-0.8273226,,0.14123043,-0.04560981,0.06932539,-0.742058,-0.6177951,0.26015237,-0.4437728,0.74362123,0.5000931,-0.5024098,0.25564942,-0.82597065,,0.08797313,1.335594,0.46886986,0.99604064,0.002800002,-0.088854946,-0.053934626,-0.7755071,-0.6290308,-0.07066893,0.63133264,-0.7722856,,-0.07272692,0.2788091,-0.09691693,0.88163155,0.28418776,0.3767799,-0.24624795,0.95808035,-0.14643762,-0.4026012,0.03632275,0.91465455,,0.05495208,0.44425336,-0.39091995,0.8667965,0.45664278,-0.20035277,-0.49761626,0.7660845,-0.4068078,-0.03227869,0.4523184,0.8912722,,0.817922361441992,-0.08604668968460949,0.15336277361,0.637038048305985,0.11873711829616776,0.3038937408174081,0.8699704962311713,,-0.6229001881692005,-0.6850527423409594,0.12728790026,1.4493768893650323,0.22681658961063117,0.7897186859612697,0.8675203352391571,,-0.06956664232292899,-0.09960812207288139,0.10977815991999999,-0.034016912529394594,,3.877282e-05,5.1259995e-06,-7.987022e-06,1.0,-4.643947e-05,-3.7960708e-05,4.6443194e-05,1.0,-4.261732e-06,3.796816e-05,4.23193e-06,1.0,695,2.114,0,0,0.0,False[1.04678049][1.04927359]
2.1358959909994155,11:09:43.302586,NaN,0,,0.0283571,0.050265595,0.07428089,-0.8674537,-0.37170643,-0.33069357,-0.49152982,0.74310863,0.4540791,0.07695721,0.5564383,-0.82731736,,0.14123106,-0.0456096,0.069325626,-0.7420554,-0.61779535,0.26015902,-0.44376978,0.7436217,0.5000951,-0.5024162,0.25564745,-0.82596743,,0.08797313,1.335594,0.46886986,0.99604064,0.002800002,-0.088854946,-0.053934626,-0.7755071,-0.6290308,-0.07066893,0.63133264,-0.7722856,,-0.072714694,0.2787981,-0.0969301,0.88165075,0.28414464,0.37676755,-0.24620862,0.95809287,-0.14642175,-0.40258327,0.036329422,0.9146622,,0.054951385,0.44425356,-0.39091998,0.8667945,0.45664325,-0.20036006,-0.49762005,0.7660833,-0.4068055,-0.0322725,0.45231998,0.89127165,,0.817922361441992,-0.08605441241748371,0.15336277361,0.637038048305985,0.11873711829616776,0.3038937408174081,0.8699704962311713,,-0.6229079109020748,-0.6850527423409594,0.12728790026,1.4493768893650323,0.22681658961063117,0.7897186859612697,0.8675203352391571,,-0.06956664232292899,-0.09960812207288139,0.10977815991999999,-0.034016912529394594,,3.877282e-05,5.1259995e-06,-7.987022e-06,1.0,-4.643947e-05,-3.7960708e-05,4.6443194e-05,1.0,-4.261732e-06,3.796816e-05,4.23193e-06,1.0,703,2.138,0,0,0.0,False[1.04731669][1.04903219]
2.163667972999974,11:09:43.327395,NaN,0,,0.028408105,0.05027397,0.07427992,-0.8674126,-0.37176883,-0.33073106,-0.49160218,0.74307823,0.45405042,0.07695733,0.55643713,-0.8273181,,0.14118634,-0.045608032,0.069304585,-0.7420769,-0.617778,0.2601389,-0.44375414,0.743626,0.5001026,-0.50239843,0.25567672,-0.8259692,,0.087908894,1.3355963,0.4688682,0.9960452,0.0028648113,-0.088802375,-0.05385139,-0.77550685,-0.6290383,-0.07066893,0.63133264,-0.7722856,,-0.072714694,0.2787981,-0.0969301,0.88165075,0.28414464,0.37676755,-0.24620862,0.95809287,-0.14642175,-0.40258327,0.036329422,0.9146622,,0.055054057,0.44425634,-0.39090502,0.86684436,0.4565479,-0.20036201,-0.49753624,0.7661319,-0.40681648,-0.03222748,0.45233393,0.89126617,,0.817922361441992,-0.08605441241748371,0.15336277361,0.637038048305985,0.11873711829616776,0.3038937408174081,0.8699704962311713,,-0.6229001881692005,-0.6850527423409594,0.12728790026,1.4493768893650323,0.22681658961063117,0.7897186859612697,0.8675203352391571,,-0.06956664232292899,-0.09960812207288139,0.10977815991999999,-0.034016912529394594,,-2.5212765e-05,2.026558e-06,-2.3841858e-06,1.0,1.8101186e-05,1.4804304e-05,-1.809746e-05,1.0,1.6391277e-06,-1.4796853e-05,-1.66893e-06,1.0,732,2.227,0,0,0.0,False[1.047555][1.04912875]
2.188476899998932,11:09:43.417870,NaN,0,,0.028409095,0.050273567,0.07427953,-0.8674135,-0.37177217,-0.33072495,-0.4916013,0.7430804,0.45404792,0.076952934,0.55643207,-0.8273219,,0.14118634,-0.045608032,0.069304585,-0.7420769,-0.617778,0.2601389,-0.44375414,0.743626,0.5001026,-0.50239843,0.25567672,-0.8259692,,0.087908894,1.3355963,0.4688682,0.9960452,0.0028648113,-0.088802375,-0.05385139,-0.77550685,-0.6290383,-0.07066893,0.63133264,-0.7722856,,-0.07271562,0.27879745,-0.09693004,0.881652,0.28414828,0.37676194,-0.24621063,0.9580916,-0.14642663,-0.40257934,0.036334533,0.9146637,,0.055054057,0.44425634,-0.39090502,0.86684436,0.4565479,-0.20036201,-0.49753624,0.7661319,-0.40681648,-0.03222748,0.45233393,0.89126617,,0.8179146387091178,-0.08605441241748371,0.15336277361,0.637038048305985,0.11873711829616776,0.3038937408174081,0.8699704962311713,,-0.6229079109020748,-0.6850527423409594,0.12728790026,1.4493768893650323,0.22681658961063117,0.7897186859612697,0.8675203352391571,,-0.06956664232292899,-0.09960812207288139,0.10977815991999999,-0.034016912529394594,,-2.5212765e-05,2.026558e-06,-2.3841858e-06,1.0,1.8101186e-05,1.4804304e-05,-1.809746e-05,1.0,1.6391277e-06,-1.4796853e-05,-1.66893e-06,1.0,744,2.264,0,0,0.0,False[1.04695922][1.04912875]
2.2789528149987746,11:09:43.465537,NaN,0,,0.028408105,0.05027397,0.07427992,-0.8674126,-0.37176883,-0.33073106,-0.49160218,0.74307823,0.45405042,0.07695733,0.55643713,-0.8273181,,0.14118698,-0.045607824,0.069304824,-0.7420743,-0.6177783,0.26014552,-0.44375116,0.7436265,0.50010455,-0.50240475,0.25567478,-0.82596594,,0.087908894,1.3355963,0.4688682,0.9960452,0.0028648113,-0.088802375,-0.05385139,-0.77550685,-0.6290383,-0.07066893,0.63133264,-0.7722856,,-0.072714694,0.2787981,-0.0969301,0.88165075,0.28414464,0.37676755,-0.24620862,0.95809287,-0.14642175,-0.40258327,0.036329422,0.9146622,,0.055053364,0.44425654,-0.39090505,0.8668424,0.45654836,-0.20036928,-0.49754,0.7661307,-0.40681416,-0.032221287,0.45233548,0.89126563,,0.817922361441992,-0.08605441241748371,0.15336277361,0.637038048305985,0.11873711829616776,0.3038937408174081,0.8699704962311713,,-0.6229079109020748,-0.6850527423409594,0.12728790026,1.4493768893650323,0.22681658961063117,0.7897186859612697,0.8675203352391571,,-0.06956664232292899,-0.09960812207288139,0.10977815991999999,-0.034016912529394594,,-2.5212765e-05,2.026558e-06,-2.3841858e-06,1.0,1.8101186e-05,1.4804304e-05,-1.809746e-05,1.0,1.6391277e-06,-1.4796853e-05,-1.66893e-06,1.0,756,2.302,0,0,0.0,False[1.04737626][1.04912875]
2.3265863950000494,11:09:43.505034,NaN,0,,0.028408105,0.05027397,0.07427992,-0.8674126,-0.37176883,-0.33073106,-0.49160218,0.74307823,0.45405042,0.07695733,0.55643713,-0.8273181,,0.14118698,-0.045607824,0.069304824,-0.7420743,-0.6177783,0.26014552,-0.44375116,0.7436265,0.50010455,-0.50240475,0.25567478,-0.82596594,,0.087908894,1.3355963,0.4688682,0.9960452,0.0028648113,-0.088802375,-0.05385139,-0.77550685,-0.6290383,-0.07066893,0.63133264,-0.7722856,,-0.072714694,0.2787981,-0.0969301,0.88165075,0.28414464,0.37676755,-0.24620862,0.95809287,-0.14642175,-0.40258327,0.036329422,0.9146622,,0.055053364,0.44425654,-0.39090505,0.8668424,0.45654836,-0.20036928,-0.49754,0.7661307,-0.40681416,-0.032221287,0.45233548,0.89126563,,0.817922361441992,-0.08605441241748371,0.15336277361,0.637038048305985,0.11873711829616776,0.3038937408174081,0.8699704962311713,,-0.6229079109020748,-0.6850527423409594,0.12728790026,1.4493768893650323,0.22681658961063117,0.7897186859612697,0.8675203352391571,,-0.06956664232292899,-0.09960812207288139,0.10977815991999999,-0.034016912529394594,,-2.5212765e-05,2.026558e-06,-2.3841858e-06,1.0,1.8101186e-05,1.4804304e-05,-1.809746e-05,1.0,1.6391277e-06,-1.4796853e-05,-1.66893e-06,1.0,772,2.351,0,0,0.0,False[1.04749542][1.04903219]
2.3660153049986548,11:09:43.542735,NaN,0,,0.028409095,0.050273567,0.07427953,-0.8674135,-0.37177217,-0.33072495,-0.4916013,0.7430804,0.45404792,0.076952934,0.55643207,-0.8273219,,0.14118634,-0.045608032,0.069304585,-0.7420769,-0.617778,0.2601389,-0.44375414,0.743626,0.5001026,-0.50239843,0.25567672,-0.8259692,,0.087908894,1.3355963,0.4688682,0.9960452,0.0028648113,-0.088802375,-0.05385139,-0.77550685,-0.6290383,-0.07066893,0.63133264,-0.7722856,,-0.07271562,0.27879745,-0.09693004,0.881652,0.28414828,0.37676194,-0.24621063,0.9580916,-0.14642663,-0.40257934,0.036334533,0.9146637,,0.055054057,0.44425634,-0.39090502,0.86684436,0.4565479,-0.20036201,-0.49753624,0.7661319,-0.40681648,-0.03222748,0.45233393,0.89126617,,0.8179146387091178,-0.08605441241748371,0.15336277361,0.637038048305985,0.11873711829616776,0.3038937408174081,0.8699704962311713,,-0.6229001881692005,-0.6850527423409594,0.12728790026,1.4493768893650323,0.22681658961063117,0.7897186859612697,0.8675203352391571,,-0.06956664232292899,-0.09960812207288139,0.10977815991999999,-0.034016912529394594,,-2.5212765e-05,2.026558e-06,-2.3841858e-06,1.0,1.8101186e-05,1.4804304e-05,-1.809746e-05,1.0,1.6391277e-06,-1.4796853e-05,-1.66893e-06,1.0,793,2.416,0,0,0.0,False[1.04731669][1.04917703]
2.4037500159993215,11:09:43.610974,NaN,0,,0.028409095,0.050273567,0.07427953,-0.8674135,-0.37177217,-0.33072495,-0.4916013,0.7430804,0.45404792,0.076952934,0.55643207,-0.8273219,,0.14118612,-0.045607258,0.06930423,-0.7419746,-0.618016,0.2598653,-0.44411314,0.7434511,0.50004387,-0.5022322,0.25561008,-0.82609093,,0.087908894,1.3355963,0.4688682,0.9960452,0.0028648113,-0.088802375,-0.05385139,-0.77550685,-0.6290383,-0.07066893,0.63133264,-0.7722856,,-0.07271562,0.27879745,-0.09693004,0.881652,0.28414828,0.37676194,-0.24621063,0.9580916,-0.14642663,-0.40257934,0.036334533,0.9146637,,0.05505421,0.44425657,-0.39090422,0.86677104,0.45681617,-0.2000674,-0.49763855,0.7660271,-0.40688863,-0.03261625,0.45224053,0.8912994,,0.8179146387091178,-0.08605441241748371,0.15336277361,0.637038048305985,0.11873711829616776,0.3038937408174081,0.8699704962311713,,-0.6229001881692005,-0.6850527423409594,0.12728790026,1.4489575094780633,0.22681658961063117,0.7897186859612697,0.8675203352391571,,-0.06956664232292899,-0.09960812207288139,0.10977815991999999,-0.034016912529394594,,-2.5212765e-05,2.026558e-06,-2.3841858e-06,1.0,1.8101186e-05,1.4804304e-05,-1.809746e-05,1.0,1.6391277e-06,-1.4796853e-05,-1.66893e-06,1.0,805,2.453,0,0,0.0,False[1.04761458][1.04932187]
2.472037513000032,11:09:43.659962,NaN,0,,0.028408105,0.05027397,0.07427992,-0.8674126,-0.37176883,-0.33073106,-0.49160218,0.74307823,0.45405042,0.07695733,0.55643713,-0.8273181,,0.14118674,-0.04560708,0.069304466,-0.74197197,-0.61801624,0.25987193,-0.44411016,0.7434516,0.5000458,-0.5022386,0.2556081,-0.8260876,,0.087908894,1.3355963,0.4688682,0.9960452,0.0028648113,-0.088802375,-0.05385139,-0.77550685,-0.6290383,-0.07066893,0.63133264,-0.7722856,,-0.072714694,0.2787981,-0.0969301,0.88165075,0.28414464,0.37676755,-0.24620862,0.95809287,-0.14642175,-0.40258327,0.036329422,0.9146622,,0.055053517,0.44425675,-0.39090422,0.8667691,0.45681664,-0.20007467,-0.49764234,0.76602584,-0.4068863,-0.032610055,0.4522421,0.89129883,,0.817922361441992,-0.08605441241748371,0.15336277361,0.637038048305985,0.11873711829616776,0.3038937408174081,0.8699704962311713,,-0.6229079109020748,-0.6850527423409594,0.12728790026,1.4489575094780633,0.22681658961063117,0.7897186859612697,0.8675203352391571,,-0.06956664232292899,-0.09960812207288139,0.10977815991999999,-0.034016912529394594,,-2.5212765e-05,2.026558e-06,-2.3841858e-06,1.0,1.8101186e-05,1.4804304e-05,-1.809746e-05,1.0,1.6391277e-06,-1.4796853e-05,-1.66893e-06,1.0,825,2.515,0,0,0.0,False[1.04713795][1.04946671]
2.5209433899999567,11:09:43.709873,NaN,0,,0.028408105,0.05027397,0.07427992,-0.8674126,-0.37176883,-0.33073106,-0.49160218,0.74307823,0.45405042,0.07695733,0.55643713,-0.8273181,,0.14118612,-0.045607258,0.06930423,-0.7419746,-0.618016,0.2598653,-0.44411314,0.7434511,0.50004387,-0.5022322,0.25561008,-0.82609093,,0.087908894,1.3355963,0.4688682,0.9960452,0.0028648113,-0.088802375,-0.05385139,-0.77550685,-0.6290383,-0.07066893,0.63133264,-0.7722856,,-0.072714694,0.2787981,-0.0969301,0.88165075,0.28414464,0.37676755,-0.24620862,0.95809287,-0.14642175,-0.40258327,0.036329422,0.9146622,,0.05505421,0.44425657,-0.39090422,0.86677104,0.45681617,-0.2000674,-0.49763855,0.7660271,-0.40688863,-0.03261625,0.45224053,0.8912994,,0.817922361441992,-0.08605441241748371,0.15336277361,0.637038048305985,0.11873711829616776,0.3038937408174081,0.8699704962311713,,-0.6229001881692005,-0.6850527423409594,0.12728790026,1.4489575094780633,0.22681658961063117,0.7897186859612697,0.8675203352391571,,-0.06956664232292899,-0.09960812207288139,0.10977815991999999,-0.034016912529394594,,-2.5212765e-05,2.026558e-06,-2.3841858e-06,1.0,1.8101186e-05,1.4804304e-05,-1.809746e-05,1.0,1.6391277e-06,-1.4796853e-05,-1.66893e-06,1.0,837,2.552,0,0,0.0,False[1.04767415][1.04951499]
