AlexandreBanks6/ExpertPlaybackApp/resources/Motions/PC1/Data_PC1_1.csv
Task Time,PC1 Time,PC2 Time,Gaze Calib,s_T_psm1,Tx,Ty,Tz,R00,R01,R02,R10,R11,R12,R20,R21,R22,s_T_psm3,Tx,Ty,Tz,R00,R01,R02,R10,R11,R12,R20,R21,R22,cart_T_ecm,Tx,Ty,Tz,R00,R01,R02,R10,R11,R12,R20,R21,R22,ecm_T_psm1,Tx,Ty,Tz,R00,R01,R02,R10,R11,R12,R20,R21,R22,ecm_T_psm3,Tx,Ty,Tz,R00,R01,R02,R10,R11,R12,R20,R21,R22,psm1_joints,q1,q2,q3,q4,q5,q6,jaw,psm3_joints,q1,q2,q3,q4,q5,q6,jaw,ecm_joints,q1,q2,q3,q4,ecmi_T_ecm,Tx,Ty,Tz,R00,R01,R02,R10,R11,R12,R20,R21,R22
""
lci_T_si,,,,,-0.064836204,0.046922255,0.26980773,0.9961818,-0.0066234428,0.08705146,0.03399914,-0.8889653,-0.45671073,0.08041073,0.4579266,-0.8853459
rci_T_si,,,,,-0.07450821,0.050824367,0.278601,0.99369526,-0.02365399,0.10959135,0.032314934,-0.87557954,-0.48199192,0.10735697,0.48249453,-0.8692948
ecm_T_lc,,,,,-4.4071905e-05,-0.000346569,-0.018408367,-0.99912006,0.03075457,0.028518898,-0.03198801,-0.99852574,-0.04385276,0.027128182,-0.044726435,0.9986309
ecm_T_rc,,,,,0.00057554984,0.029174112,-0.0048684436,-0.9955508,-0.052743625,-0.07808159,0.04863208,-0.9973746,0.053654663,-0.080706544,0.04961867,0.9955021
cart_T_ecmi,,,,,0.15350254,1.2979767,0.50781494,0.9959309,-0.0008339252,-0.0901165,-0.04300628,-0.88314986,-0.46711534,-0.07919683,0.46909016,-0.8795921
ecmac_T_ecmrep_psm1,,,,,0.019996893,-0.17650068,-0.36025384,0.9999158,0.0060046725,0.011504482,-0.0056981915,0.99963284,-0.026490208,-0.011659322,0.026422422,0.9995829
ecmac_T_ecmrep_psm3,,,,,0.00990182,-0.3251018,-0.6101424,0.99889314,-0.016230034,-0.044148967,0.0150486445,0.9995232,-0.02696118,0.044565495,0.026266955,0.9986611
""
0,17:25:07.852294,NaN,0,,0.09502749,0.0028149262,0.041287124,-0.2936188,0.9260129,0.23725185,0.68931496,0.033148497,0.723703,0.66229355,0.37603408,-0.64804757,,NaN,NaN,NaN,NaN,NaN,NaN,NaN,NaN,NaN,NaN,NaN,NaN,,0.15349835,1.2979785,0.5078239,0.9959309,-0.0008338927,-0.09011648,-0.04300624,-0.88314986,-0.46711534,-0.07919683,0.46909016,-0.8795921,,-0.06445225,0.15710895,-0.12760651,0.210942,-0.9628241,-0.16874015,0.93618053,0.14933462,0.31822193,-0.281193,-0.22509763,0.93287814,,NaN,NaN,NaN,NaN,NaN,NaN,NaN,NaN,NaN,NaN,NaN,NaN,,0.5317796629862255,-0.4681675123012382,0.16429827605000002,-4.376438810465507,-0.9295381079042914,0.9184747232229595,1.3954483569851475,,NaN,NaN,NaN,NaN,NaN,NaN,NaN,,-0.14359696420783347,-0.3043025184083414,0.08569297308,0.04710034042531559,,-4.954636e-06,2.682209e-06,-8.34465e-06,1.0000001,3.3527613e-08,2.2351742e-08,-2.9802322e-08,0.99999994,0.0,-2.2351742e-08,0.0,1.0
0.020639120019041002,17:25:07.872952,NaN,0,,0.09502749,0.0028149262,0.041287124,-0.2936188,0.9260129,0.23725185,0.68931496,0.033148497,0.723703,0.66229355,0.37603408,-0.64804757,,NaN,NaN,NaN,NaN,NaN,NaN,NaN,NaN,NaN,NaN,NaN,NaN,,0.15349835,1.2979785,0.5078239,0.9959309,-0.0008338927,-0.09011648,-0.04300624,-0.88314986,-0.46711534,-0.07919683,0.46909016,-0.8795921,,-0.06445225,0.15710895,-0.12760651,0.210942,-0.9628241,-0.16874015,0.93618053,0.14933462,0.31822193,-0.281193,-0.22509763,0.93287814,,NaN,NaN,NaN,NaN,NaN,NaN,NaN,NaN,NaN,NaN,NaN,NaN,,0.5317796629862255,-0.4681675123012382,0.16429827605000002,-4.376438810465507,-0.9295381079042914,0.9184747232229595,1.3954483569851475,,NaN,NaN,NaN,NaN,NaN,NaN,NaN,,-0.14359696420783347,-0.3043025184083414,0.08569297308,0.04710034042531559,,-4.954636e-06,2.682209e-06,-8.34465e-06,1.0000001,3.3527613e-08,2.2351742e-08,-2.9802322e-08,0.99999994,0.0,-2.2351742e-08,0.0,1.0
0.04130298097152263,17:25:07.917058,NaN,0,,0.09502749,0.0028149262,0.041287124,-0.2936188,0.9260129,0.23725185,0.68931496,0.033148497,0.723703,0.66229355,0.37603408,-0.64804757,,NaN,NaN,NaN,NaN,NaN,NaN,NaN,NaN,NaN,NaN,NaN,NaN,,0.15349835,1.2979785,0.5078239,0.9959309,-0.0008338927,-0.09011648,-0.04300624,-0.88314986,-0.46711534,-0.07919683,0.46909016,-0.8795921,,-0.06445225,0.15710895,-0.12760651,0.210942,-0.9628241,-0.16874015,0.93618053,0.14933462,0.31822193,-0.281193,-0.22509763,0.93287814,,NaN,NaN,NaN,NaN,NaN,NaN,NaN,NaN,NaN,NaN,NaN,NaN,,0.5317719402533513,-0.4681675123012382,0.16429827605000002,-4.376438810465507,-0.9295381079042914,0.9184747232229595,1.3954483569851475,,NaN,NaN,NaN,NaN,NaN,NaN,NaN,,-0.14359696420783347,-0.3043025184083414,0.08569297308,0.04710034042531559,,-4.954636e-06,2.682209e-06,-8.34465e-06,1.0000001,3.3527613e-08,2.2351742e-08,-2.9802322e-08,0.99999994,0.0,-2.2351742e-08,0.0,1.0
0.0853977280203253,17:25:07.954694,NaN,0,,0.09502749,0.0028149262,0.041287124,-0.2936188,0.9260129,0.23725185,0.68931496,0.033148497,0.723703,0.66229355,0.37603408,-0.64804757,,NaN,NaN,NaN,NaN,NaN,NaN,NaN,NaN,NaN,NaN,NaN,NaN,,0.15349835,1.2979785,0.5078239,0.9959309,-0.0008338927,-0.09011648,-0.04300624,-0.88314986,-0.46711534,-0.07919683,0.46909016,-0.8795921,,-0.06445225,0.15710895,-0.12760651,0.210942,-0.9628241,-0.16874015,0.93618053,0.14933462,0.31822193,-0.281193,-0.22509763,0.93287814,,NaN,NaN,NaN,NaN,NaN,NaN,NaN,NaN,NaN,NaN,NaN,NaN,,0.5317719402533513,-0.4681675123012382,0.16429827605000002,-4.376438810465507,-0.9295381079042914,0.9186380807032407,1.395121668852879,,NaN,NaN,NaN,NaN,NaN,NaN,NaN,,-0.14359696420783347,-0.3043025184083414,0.08569297308,0.04710034042531559,,-4.954636e-06,2.682209e-06,-8.34465e-06,1.0000001,3.3527613e-08,2.2351742e-08,-2.9802322e-08,0.99999994,0.0,-2.2351742e-08,0.0,1.0
0.12301628803834319,17:25:07.999212,NaN,0,,0.09502749,0.0028149262,0.041287124,-0.2936188,0.9260129,0.23725185,0.68931496,0.033148497,0.723703,0.66229355,0.37603408,-0.64804757,,NaN,NaN,NaN,NaN,NaN,NaN,NaN,NaN,NaN,NaN,NaN,NaN,,0.15349835,1.2979785,0.5078239,0.9959309,-0.0008338927,-0.09011648,-0.04300624,-0.88314986,-0.46711534,-0.07919683,0.46909016,-0.8795921,,-0.06445225,0.15710895,-0.12760651,0.210942,-0.9628241,-0.16874015,0.93618053,0.14933462,0.31822193,-0.281193,-0.22509763,0.93287814,,NaN,NaN,NaN,NaN,NaN,NaN,NaN,NaN,NaN,NaN,NaN,NaN,,0.5317719402533513,-0.4681675123012382,0.16429827605000002,-4.376438810465507,-0.9295381079042914,0.9186380807032407,1.395121668852879,,NaN,NaN,NaN,NaN,NaN,NaN,NaN,,-0.14359696420783347,-0.3043025184083414,0.08569297308,0.04710034042531559,,-4.954636e-06,2.682209e-06,-8.34465e-06,1.0000001,3.3527613e-08,2.2351742e-08,-2.9802322e-08,0.99999994,0.0,-2.2351742e-08,0.0,1.0
0.16748907102737576,17:25:08.027748,NaN,0,,0.09502749,0.0028149262,0.041287124,-0.2936188,0.9260129,0.23725185,0.68931496,0.033148497,0.723703,0.66229355,0.37603408,-0.64804757,,NaN,NaN,NaN,NaN,NaN,NaN,NaN,NaN,NaN,NaN,NaN,NaN,,0.15349835,1.2979785,0.5078239,0.9959309,-0.0008338927,-0.09011648,-0.04300624,-0.88314986,-0.46711534,-0.07919683,0.46909016,-0.8795921,,-0.06445225,0.15710895,-0.12760651,0.210942,-0.9628241,-0.16874015,0.93618053,0.14933462,0.31822193,-0.281193,-0.22509763,0.93287814,,NaN,NaN,NaN,NaN,NaN,NaN,NaN,NaN,NaN,NaN,NaN,NaN,,0.5317642175204771,-0.4681675123012382,0.16429827605000002,-4.376438810465507,-0.9295381079042914,0.9186380807032407,1.395121668852879,,NaN,NaN,NaN,NaN,NaN,NaN,NaN,,-0.14359696420783347,-0.3043025184083414,0.08569297308,0.04710034042531559,,-4.954636e-06,2.682209e-06,-8.34465e-06,1.0000001,3.3527613e-08,2.2351742e-08,-2.9802322e-08,0.99999994,0.0,-2.2351742e-08,0.0,1.0
0.19610484305303544,17:25:08.055294,NaN,0,,0.09502749,0.0028149262,0.041287124,-0.2936188,0.9260129,0.23725185,0.68931496,0.033148497,0.723703,0.66229355,0.37603408,-0.64804757,,NaN,NaN,NaN,NaN,NaN,NaN,NaN,NaN,NaN,NaN,NaN,NaN,,0.15349835,1.2979785,0.5078239,0.9959309,-0.0008338927,-0.09011648,-0.04300624,-0.88314986,-0.46711534,-0.07919683,0.46909016,-0.8795921,,-0.06445225,0.15710895,-0.12760651,0.210942,-0.9628241,-0.16874015,0.93618053,0.14933462,0.31822193,-0.281193,-0.22509763,0.93287814,,NaN,NaN,NaN,NaN,NaN,NaN,NaN,NaN,NaN,NaN,NaN,NaN,,0.5317719402533513,-0.4681675123012382,0.16429827605000002,-4.376438810465507,-0.9295381079042914,0.9186380807032407,1.395121668852879,,NaN,NaN,NaN,NaN,NaN,NaN,NaN,,-0.14359696420783347,-0.3043025184083414,0.08569297308,0.04710034042531559,,-4.954636e-06,2.682209e-06,-8.34465e-06,1.0000001,3.3527613e-08,2.2351742e-08,-2.9802322e-08,0.99999994,0.0,-2.2351742e-08,0.0,1.0
0.22354530298616737,17:25:08.082480,NaN,0,,0.09502749,0.0028149262,0.041287124,-0.2936188,0.9260129,0.23725185,0.68931496,0.033148497,0.723703,0.66229355,0.37603408,-0.64804757,,NaN,NaN,NaN,NaN,NaN,NaN,NaN,NaN,NaN,NaN,NaN,NaN,,0.15349835,1.2979785,0.5078239,0.9959309,-0.0008338927,-0.09011648,-0.04300624,-0.88314986,-0.46711534,-0.07919683,0.46909016,-0.8795921,,-0.06445225,0.15710895,-0.12760651,0.210942,-0.9628241,-0.16874015,0.93618053,0.14933462,0.31822193,-0.281193,-0.22509763,0.93287814,,NaN,NaN,NaN,NaN,NaN,NaN,NaN,NaN,NaN,NaN,NaN,NaN,,0.5317796629862255,-0.4681675123012382,0.16429827605000002,-4.376438810465507,-0.9295381079042914,0.9186380807032407,1.395121668852879,,NaN,NaN,NaN,NaN,NaN,NaN,NaN,,-0.14359696420783347,-0.3043025184083414,0.08569297308,0.04710034042531559,,-4.954636e-06,2.682209e-06,-8.34465e-06,1.0000001,3.3527613e-08,2.2351742e-08,-2.9802322e-08,0.99999994,0.0,-2.2351742e-08,0.0,1.0
0.2507259639678523,17:25:08.105789,NaN,0,,0.09490344,0.002879694,0.04127869,-0.29355413,0.9260084,0.23734897,0.68934584,0.033040717,0.72367847,0.6622901,0.37605435,-0.64803934,,NaN,NaN,NaN,NaN,NaN,NaN,NaN,NaN,NaN,NaN,NaN,NaN,,0.15351966,1.2979712,0.5078237,0.99592996,-0.00085287413,-0.09012652,-0.043027647,-0.88314986,-0.4671134,-0.07919683,0.46909016,-0.8795921,,-0.06434847,0.15716441,-0.12758158,0.21089275,-0.96282053,-0.16882193,0.9361977,0.14926733,0.31820303,-0.2811728,-0.22515741,0.93286973,,NaN,NaN,NaN,NaN,NaN,NaN,NaN,NaN,NaN,NaN,NaN,NaN,,0.5317796629862255,-0.4681675123012382,0.16429827605000002,-4.376438810465507,-0.9295381079042914,0.9186380807032407,1.395121668852879,,NaN,NaN,NaN,NaN,NaN,NaN,NaN,,-0.14359696420783347,-0.3043025184083414,0.08569297308,0.04710034042531559,,1.6592443e-05,8.881092e-06,-6.67572e-06,1.0000001,-1.8868595e-05,-1.0073185e-05,1.8876046e-05,0.99999994,-1.6987324e-06,1.0058284e-05,1.6987324e-06,1.0
0.2741048199823126,17:25:08.122762,NaN,0,,0.09490344,0.002879694,0.04127869,-0.29355413,0.9260084,0.23734897,0.68934584,0.033040717,0.72367847,0.6622901,0.37605435,-0.64803934,,NaN,NaN,NaN,NaN,NaN,NaN,NaN,NaN,NaN,NaN,NaN,NaN,,0.15351966,1.2979712,0.5078237,0.99592996,-0.00085287413,-0.09012652,-0.043027647,-0.88314986,-0.4671134,-0.07919683,0.46909016,-0.8795921,,-0.06434847,0.15716441,-0.12758158,0.21089275,-0.96282053,-0.16882193,0.9361977,0.14926733,0.31820303,-0.2811728,-0.22515741,0.93286973,,NaN,NaN,NaN,NaN,NaN,NaN,NaN,NaN,NaN,NaN,NaN,NaN,,0.5317796629862255,-0.4681675123012382,0.16429827605000002,-4.376438810465507,-0.9295381079042914,0.9186380807032407,1.395121668852879,,NaN,NaN,NaN,NaN,NaN,NaN,NaN,,-0.14359696420783347,-0.3043025184083414,0.08569297308,0.04710034042531559,,1.6592443e-05,8.881092e-06,-6.67572e-06,1.0000001,-1.8868595e-05,-1.0073185e-05,1.8876046e-05,0.99999994,-1.6987324e-06,1.0058284e-05,1.6987324e-06,1.0
0.29109678394161165,17:25:08.144203,NaN,0,,0.09490344,0.002879694,0.04127869,-0.29355413,0.9260084,0.23734897,0.68934584,0.033040717,0.72367847,0.6622901,0.37605435,-0.64803934,,NaN,NaN,NaN,NaN,NaN,NaN,NaN,NaN,NaN,NaN,NaN,NaN,,0.15351966,1.2979712,0.5078237,0.99592996,-0.00085287413,-0.09012652,-0.043027647,-0.88314986,-0.4671134,-0.07919683,0.46909016,-0.8795921,,-0.06434847,0.15716441,-0.12758158,0.21089275,-0.96282053,-0.16882193,0.9361977,0.14926733,0.31820303,-0.2811728,-0.22515741,0.93286973,,NaN,NaN,NaN,NaN,NaN,NaN,NaN,NaN,NaN,NaN,NaN,NaN,,0.5317796629862255,-0.4681675123012382,0.16429827605000002,-4.376438810465507,-0.9295381079042914,0.9186380807032407,1.395121668852879,,NaN,NaN,NaN,NaN,NaN,NaN,NaN,,-0.14359696420783347,-0.3043025184083414,0.08569297308,0.04710034042531559,,1.6592443e-05,8.881092e-06,-6.67572e-06,1.0000001,-1.8868595e-05,-1.0073185e-05,1.8876046e-05,0.99999994,-1.6987324e-06,1.0058284e-05,1.6987324e-06,1.0
0.31256588897667825,17:25:08.161438,NaN,0,,0.09490344,0.002879694,0.04127869,-0.29355413,0.9260084,0.23734897,0.68934584,0.033040717,0.72367847,0.6622901,0.37605435,-0.64803934,,NaN,NaN,NaN,NaN,NaN,NaN,NaN,NaN,NaN,NaN,NaN,NaN,,0.15351966,1.2979712,0.5078237,0.99592996,-0.00085287413,-0.09012652,-0.043027647,-0.88314986,-0.4671134,-0.07919683,0.46909016,-0.8795921,,-0.06434847,0.15716441,-0.12758158,0.21089275,-0.96282053,-0.16882193,0.9361977,0.14926733,0.31820303,-0.2811728,-0.22515741,0.93286973,,NaN,NaN,NaN,NaN,NaN,NaN,NaN,NaN,NaN,NaN,NaN,NaN,,0.5317719402533513,-0.4681675123012382,0.16429827605000002,-4.376438810465507,-0.9295381079042914,0.9186380807032407,1.395121668852879,,NaN,NaN,NaN,NaN,NaN,NaN,NaN,,-0.14359696420783347,-0.3043025184083414,0.08569297308,0.04710034042531559,,1.6592443e-05,8.881092e-06,-6.67572e-06,1.0000001,-1.8868595e-05,-1.0073185e-05,1.8876046e-05,0.99999994,-1.6987324e-06,1.0058284e-05,1.6987324e-06,1.0
0.3298012489685789,17:25:08.183064,NaN,0,,0.09490344,0.002879694,0.04127869,-0.29355413,0.9260084,0.23734897,0.68934584,0.033040717,0.72367847,0.6622901,0.37605435,-0.64803934,,NaN,NaN,NaN,NaN,NaN,NaN,NaN,NaN,NaN,NaN,NaN,NaN,,0.15351966,1.2979712,0.5078237,0.99592996,-0.00085287413,-0.09012652,-0.043027647,-0.88314986,-0.4671134,-0.07919683,0.46909016,-0.8795921,,-0.06434847,0.15716441,-0.12758158,0.21089275,-0.96282053,-0.16882193,0.9361977,0.14926733,0.31820303,-0.2811728,-0.22515741,0.93286973,,NaN,NaN,NaN,NaN,NaN,NaN,NaN,NaN,NaN,NaN,NaN,NaN,,0.5317719402533513,-0.4681675123012382,0.16429827605000002,-4.376438810465507,-0.9295381079042914,0.9186380807032407,1.395121668852879,,NaN,NaN,NaN,NaN,NaN,NaN,NaN,,-0.14359696420783347,-0.3043025184083414,0.08569297308,0.04710034042531559,,1.6592443e-05,8.881092e-06,-6.67572e-06,1.0000001,-1.8868595e-05,-1.0073185e-05,1.8876046e-05,0.99999994,-1.6987324e-06,1.0058284e-05,1.6987324e-06,1.0
0.3514239899814129,17:25:08.194769,NaN,0,,0.09490344,0.002879694,0.04127869,-0.29355413,0.9260084,0.23734897,0.68934584,0.033040717,0.72367847,0.6622901,0.37605435,-0.64803934,,NaN,NaN,NaN,NaN,NaN,NaN,NaN,NaN,NaN,NaN,NaN,NaN,,0.15351966,1.2979712,0.5078237,0.99592996,-0.00085287413,-0.09012652,-0.043027647,-0.88314986,-0.4671134,-0.07919683,0.46909016,-0.8795921,,-0.06434847,0.15716441,-0.12758158,0.21089275,-0.96282053,-0.16882193,0.9361977,0.14926733,0.31820303,-0.2811728,-0.22515741,0.93286973,,NaN,NaN,NaN,NaN,NaN,NaN,NaN,NaN,NaN,NaN,NaN,NaN,,0.5317719402533513,-0.4681675123012382,0.16429827605000002,-4.376438810465507,-0.9295381079042914,0.9186380807032407,1.395121668852879,,NaN,NaN,NaN,NaN,NaN,NaN,NaN,,-0.14359696420783347,-0.3043025184083414,0.08569297308,0.04710034042531559,,1.6592443e-05,8.881092e-06,-6.67572e-06,1.0000001,-1.8868595e-05,-1.0073185e-05,1.8876046e-05,0.99999994,-1.6987324e-06,1.0058284e-05,1.6987324e-06,1.0
0.3631316409446299,17:25:08.213897,NaN,0,,0.09490344,0.002879694,0.04127869,-0.29355413,0.9260084,0.23734897,0.68934584,0.033040717,0.72367847,0.6622901,0.37605435,-0.64803934,,NaN,NaN,NaN,NaN,NaN,NaN,NaN,NaN,NaN,NaN,NaN,NaN,,0.15351966,1.2979712,0.5078237,0.99592996,-0.00085287413,-0.09012652,-0.043027647,-0.88314986,-0.4671134,-0.07919683,0.46909016,-0.8795921,,-0.06434847,0.15716441,-0.12758158,0.21089275,-0.96282053,-0.16882193,0.9361977,0.14926733,0.31820303,-0.2811728,-0.22515741,0.93286973,,NaN,NaN,NaN,NaN,NaN,NaN,NaN,NaN,NaN,NaN,NaN,NaN,,0.5317796629862255,-0.4681675123012382,0.16429827605000002,-4.376438810465507,-0.9295381079042914,0.9186380807032407,1.395121668852879,,NaN,NaN,NaN,NaN,NaN,NaN,NaN,,-0.14359696420783347,-0.3043025184083414,0.08569297308,0.04710034042531559,,1.6592443e-05,8.881092e-06,-6.67572e-06,1.0000001,-1.8868595e-05,-1.0073185e-05,1.8876046e-05,0.99999994,-1.6987324e-06,1.0058284e-05,1.6987324e-06,1.0
0.3822294289711863,17:25:08.235421,NaN,0,,0.09490344,0.002879694,0.04127869,-0.29355413,0.9260084,0.23734897,0.68934584,0.033040717,0.72367847,0.6622901,0.37605435,-0.64803934,,NaN,NaN,NaN,NaN,NaN,NaN,NaN,NaN,NaN,NaN,NaN,NaN,,0.15351966,1.2979712,0.5078237,0.99592996,-0.00085287413,-0.09012652,-0.043027647,-0.88314986,-0.4671134,-0.07919683,0.46909016,-0.8795921,,-0.06434847,0.15716441,-0.12758158,0.21089275,-0.96282053,-0.16882193,0.9361977,0.14926733,0.31820303,-0.2811728,-0.22515741,0.93286973,,NaN,NaN,NaN,NaN,NaN,NaN,NaN,NaN,NaN,NaN,NaN,NaN,,0.5317796629862255,-0.4681675123012382,0.16429827605000002,-4.376438810465507,-0.9295381079042914,0.9186380807032407,1.395121668852879,,NaN,NaN,NaN,NaN,NaN,NaN,NaN,,-0.14359696420783347,-0.3043025184083414,0.08569297308,0.04710034042531559,,1.6592443e-05,8.881092e-06,-6.67572e-06,1.0000001,-1.8868595e-05,-1.0073185e-05,1.8876046e-05,0.99999994,-1.6987324e-06,1.0058284e-05,1.6987324e-06,1.0
0.4037376360502094,17:25:08.260327,NaN,0,,0.09490344,0.002879694,0.04127869,-0.29355413,0.9260084,0.23734897,0.68934584,0.033040717,0.72367847,0.6622901,0.37605435,-0.64803934,,NaN,NaN,NaN,NaN,NaN,NaN,NaN,NaN,NaN,NaN,NaN,NaN,,0.15351966,1.2979712,0.5078237,0.99592996,-0.00085287413,-0.09012652,-0.043027647,-0.88314986,-0.4671134,-0.07919683,0.46909016,-0.8795921,,-0.06434847,0.15716441,-0.12758158,0.21089275,-0.96282053,-0.16882193,0.9361977,0.14926733,0.31820303,-0.2811728,-0.22515741,0.93286973,,NaN,NaN,NaN,NaN,NaN,NaN,NaN,NaN,NaN,NaN,NaN,NaN,,0.5317719402533513,-0.4681675123012382,0.16429827605000002,-4.376438810465507,-0.9295381079042914,0.9186380807032407,1.395121668852879,,NaN,NaN,NaN,NaN,NaN,NaN,NaN,,-0.14359696420783347,-0.3043025184083414,0.08569297308,0.04710034042531559,,1.6592443e-05,8.881092e-06,-6.67572e-06,1.0000001,-1.8868595e-05,-1.0073185e-05,1.8876046e-05,0.99999994,-1.6987324e-06,1.0058284e-05,1.6987324e-06,1.0
0.428689448046498,17:25:08.276019,NaN,0,,0.09490344,0.002879694,0.04127869,-0.29355413,0.9260084,0.23734897,0.68934584,0.033040717,0.72367847,0.6622901,0.37605435,-0.64803934,,NaN,NaN,NaN,NaN,NaN,NaN,NaN,NaN,NaN,NaN,NaN,NaN,,0.15351966,1.2979712,0.5078237,0.99592996,-0.00085287413,-0.09012652,-0.043027647,-0.88314986,-0.4671134,-0.07919683,0.46909016,-0.8795921,,-0.06434847,0.15716441,-0.12758158,0.21089275,-0.96282053,-0.16882193,0.9361977,0.14926733,0.31820303,-0.2811728,-0.22515741,0.93286973,,NaN,NaN,NaN,NaN,NaN,NaN,NaN,NaN,NaN,NaN,NaN,NaN,,0.5317719402533513,-0.4681675123012382,0.16429827605000002,-4.376438810465507,-0.9295381079042914,0.9186380807032407,1.395121668852879,,NaN,NaN,NaN,NaN,NaN,NaN,NaN,,-0.14359696420783347,-0.3043025184083414,0.08569297308,0.04710034042531559,,1.6592443e-05,8.881092e-06,-6.67572e-06,1.0000001,-1.8868595e-05,-1.0073185e-05,1.8876046e-05,0.99999994,-1.6987324e-06,1.0058284e-05,1.6987324e-06,1.0
0.44434384105261415,17:25:08.294068,NaN,0,,0.09490344,0.002879694,0.04127869,-0.29355413,0.9260084,0.23734897,0.68934584,0.033040717,0.72367847,0.6622901,0.37605435,-0.64803934,,NaN,NaN,NaN,NaN,NaN,NaN,NaN,NaN,NaN,NaN,NaN,NaN,,0.15351966,1.2979712,0.5078237,0.99592996,-0.00085287413,-0.09012652,-0.043027647,-0.88314986,-0.4671134,-0.07919683,0.46909016,-0.8795921,,-0.06434847,0.15716441,-0.12758158,0.21089275,-0.96282053,-0.16882193,0.9361977,0.14926733,0.31820303,-0.2811728,-0.22515741,0.93286973,,NaN,NaN,NaN,NaN,NaN,NaN,NaN,NaN,NaN,NaN,NaN,NaN,,0.5317796629862255,-0.4681675123012382,0.16429827605000002,-4.376438810465507,-0.9295381079042914,0.9186380807032407,1.395121668852879,,NaN,NaN,NaN,NaN,NaN,NaN,NaN,,-0.14359696420783347,-0.3043025184083414,0.08569297308,0.04710034042531559,,1.6592443e-05,8.881092e-06,-6.67572e-06,1.0000001,-1.8868595e-05,-1.0073185e-05,1.8876046e-05,0.99999994,-1.6987324e-06,1.0058284e-05,1.6987324e-06,1.0
0.46242990100290626,17:25:08.312483,NaN,0,,0.09490344,0.002879694,0.04127869,-0.29355413,0.9260084,0.23734897,0.68934584,0.033040717,0.72367847,0.6622901,0.37605435,-0.64803934,,NaN,NaN,NaN,NaN,NaN,NaN,NaN,NaN,NaN,NaN,NaN,NaN,,0.15351966,1.2979712,0.5078237,0.99592996,-0.00085287413,-0.09012652,-0.043027647,-0.88314986,-0.4671134,-0.07919683,0.46909016,-0.8795921,,-0.06434847,0.15716441,-0.12758158,0.21089275,-0.96282053,-0.16882193,0.9361977,0.14926733,0.31820303,-0.2811728,-0.22515741,0.93286973,,NaN,NaN,NaN,NaN,NaN,NaN,NaN,NaN,NaN,NaN,NaN,NaN,,0.5317796629862255,-0.4681675123012382,0.16429827605000002,-4.376438810465507,-0.9295381079042914,0.9186380807032407,1.395121668852879,,NaN,NaN,NaN,NaN,NaN,NaN,NaN,,-0.14359696420783347,-0.3043025184083414,0.08569297308,0.04710034042531559,,1.6592443e-05,8.881092e-06,-6.67572e-06,1.0000001,-1.8868595e-05,-1.0073185e-05,1.8876046e-05,0.99999994,-1.6987324e-06,1.0058284e-05,1.6987324e-06,1.0
0.4807912480318919,17:25:08.327615,NaN,0,,0.09490344,0.002879694,0.04127869,-0.29355413,0.9260084,0.23734897,0.68934584,0.033040717,0.72367847,0.6622901,0.37605435,-0.64803934,,NaN,NaN,NaN,NaN,NaN,NaN,NaN,NaN,NaN,NaN,NaN,NaN,,0.15351966,1.2979712,0.5078237,0.99592996,-0.00085287413,-0.09012652,-0.043027647,-0.88314986,-0.4671134,-0.07919683,0.46909016,-0.8795921,,-0.06434847,0.15716441,-0.12758158,0.21089275,-0.96282053,-0.16882193,0.9361977,0.14926733,0.31820303,-0.2811728,-0.22515741,0.93286973,,NaN,NaN,NaN,NaN,NaN,NaN,NaN,NaN,NaN,NaN,NaN,NaN,,0.5317719402533513,-0.4681675123012382,0.16429827605000002,-4.376438810465507,-0.9295381079042914,0.9186380807032407,1.395121668852879,,NaN,NaN,NaN,NaN,NaN,NaN,NaN,,-0.14359696420783347,-0.3043025184083414,0.08569297308,0.04710034042531559,,1.6592443e-05,8.881092e-06,-6.67572e-06,1.0000001,-1.8868595e-05,-1.0073185e-05,1.8876046e-05,0.99999994,-1.6987324e-06,1.0058284e-05,1.6987324e-06,1.0
0.4959767509717494,17:25:08.347740,NaN,0,,0.09490344,0.002879694,0.04127869,-0.29355413,0.9260084,0.23734897,0.68934584,0.033040717,0.72367847,0.6622901,0.37605435,-0.64803934,,NaN,NaN,NaN,NaN,NaN,NaN,NaN,NaN,NaN,NaN,NaN,NaN,,0.15351966,1.2979712,0.5078237,0.99592996,-0.00085287413,-0.09012652,-0.043027647,-0.88314986,-0.4671134,-0.07919683,0.46909016,-0.8795921,,-0.06434847,0.15716441,-0.12758158,0.21089275,-0.96282053,-0.16882193,0.9361977,0.14926733,0.31820303,-0.2811728,-0.22515741,0.93286973,,NaN,NaN,NaN,NaN,NaN,NaN,NaN,NaN,NaN,NaN,NaN,NaN,,0.5317642175204771,-0.4681675123012382,0.16429827605000002,-4.376438810465507,-0.9295381079042914,0.9186380807032407,1.395121668852879,,NaN,NaN,NaN,NaN,NaN,NaN,NaN,,-0.14359696420783347,-0.3043025184083414,0.08569297308,0.04710034042531559,,1.6592443e-05,8.881092e-06,-6.67572e-06,1.0000001,-1.8868595e-05,-1.0073185e-05,1.8876046e-05,0.99999994,-1.6987324e-06,1.0058284e-05,1.6987324e-06,1.0
0.5160998520441353,17:25:08.364824,NaN,0,,0.09490344,0.002879694,0.04127869,-0.29355413,0.9260084,0.23734897,0.68934584,0.033040717,0.72367847,0.6622901,0.37605435,-0.64803934,,NaN,NaN,NaN,NaN,NaN,NaN,NaN,NaN,NaN,NaN,NaN,NaN,,0.15351966,1.2979712,0.5078237,0.99592996,-0.00085287413,-0.09012652,-0.043027647,-0.88314986,-0.4671134,-0.07919683,0.46909016,-0.8795921,,-0.06434847,0.15716441,-0.12758158,0.21089275,-0.96282053,-0.16882193,0.9361977,0.14926733,0.31820303,-0.2811728,-0.22515741,0.93286973,,NaN,NaN,NaN,NaN,NaN,NaN,NaN,NaN,NaN,NaN,NaN,NaN,,0.5317719402533513,-0.4681675123012382,0.16429827605000002,-4.376438810465507,-0.9295381079042914,0.9186380807032407,1.395121668852879,,NaN,NaN,NaN,NaN,NaN,NaN,NaN,,-0.14359696420783347,-0.3043025184083414,0.08569297308,0.04710034042531559,,1.6592443e-05,8.881092e-06,-6.67572e-06,1.0000001,-1.8868595e-05,-1.0073185e-05,1.8876046e-05,0.99999994,-1.6987324e-06,1.0058284e-05,1.6987324e-06,1.0
0.5331837920239195,17:25:08.387836,NaN,0,,0.09490344,0.002879694,0.04127869,-0.29355413,0.9260084,0.23734897,0.68934584,0.033040717,0.72367847,0.6622901,0.37605435,-0.64803934,,NaN,NaN,NaN,NaN,NaN,NaN,NaN,NaN,NaN,NaN,NaN,NaN,,0.15351966,1.2979712,0.5078237,0.99592996,-0.00085287413,-0.09012652,-0.043027647,-0.88314986,-0.4671134,-0.07919683,0.46909016,-0.8795921,,-0.06434847,0.15716441,-0.12758158,0.21089275,-0.96282053,-0.16882193,0.9361977,0.14926733,0.31820303,-0.2811728,-0.22515741,0.93286973,,NaN,NaN,NaN,NaN,NaN,NaN,NaN,NaN,NaN,NaN,NaN,NaN,,0.5317719402533513,-0.4681675123012382,0.16429827605000002,-4.376438810465507,-0.9295381079042914,0.9186380807032407,1.395121668852879,,NaN,NaN,NaN,NaN,NaN,NaN,NaN,,-0.14359696420783347,-0.3043025184083414,0.08569297308,0.04710034042531559,,1.6592443e-05,8.881092e-06,-6.67572e-06,1.0000001,-1.8868595e-05,-1.0073185e-05,1.8876046e-05,0.99999994,-1.6987324e-06,1.0058284e-05,1.6987324e-06,1.0
0.5560973599785939,17:25:08.416346,NaN,0,,0.09490344,0.002879694,0.04127869,-0.29355413,0.9260084,0.23734897,0.68934584,0.033040717,0.72367847,0.6622901,0.37605435,-0.64803934,,NaN,NaN,NaN,NaN,NaN,NaN,NaN,NaN,NaN,NaN,NaN,NaN,,0.15351966,1.2979712,0.5078237,0.99592996,-0.00085287413,-0.09012652,-0.043027647,-0.88314986,-0.4671134,-0.07919683,0.46909016,-0.8795921,,-0.06434847,0.15716441,-0.12758158,0.21089275,-0.96282053,-0.16882193,0.9361977,0.14926733,0.31820303,-0.2811728,-0.22515741,0.93286973,,NaN,NaN,NaN,NaN,NaN,NaN,NaN,NaN,NaN,NaN,NaN,NaN,,0.5317796629862255,-0.4681675123012382,0.16429827605000002,-4.376438810465507,-0.9295381079042914,0.9186380807032407,1.395121668852879,,NaN,NaN,NaN,NaN,NaN,NaN,NaN,,-0.14359696420783347,-0.3043025184083414,0.08569297308,0.04710034042531559,,1.6592443e-05,8.881092e-06,-6.67572e-06,1.0000001,-1.8868595e-05,-1.0073185e-05,1.8876046e-05,0.99999994,-1.6987324e-06,1.0058284e-05,1.6987324e-06,1.0
0.5846365030156448,17:25:08.467543,NaN,0,,0.09490344,0.002879694,0.04127869,-0.29355413,0.9260084,0.23734897,0.68934584,0.033040717,0.72367847,0.6622901,0.37605435,-0.64803934,,NaN,NaN,NaN,NaN,NaN,NaN,NaN,NaN,NaN,NaN,NaN,NaN,,0.15351966,1.2979712,0.5078237,0.99592996,-0.00085287413,-0.09012652,-0.043027647,-0.88314986,-0.4671134,-0.07919683,0.46909016,-0.8795921,,-0.06434847,0.15716441,-0.12758158,0.21089275,-0.96282053,-0.16882193,0.9361977,0.14926733,0.31820303,-0.2811728,-0.22515741,0.93286973,,NaN,NaN,NaN,NaN,NaN,NaN,NaN,NaN,NaN,NaN,NaN,NaN,,0.5317719402533513,-0.4681675123012382,0.16429827605000002,-4.376438810465507,-0.9295381079042914,0.9186380807032407,1.395121668852879,,NaN,NaN,NaN,NaN,NaN,NaN,NaN,,-0.14359696420783347,-0.3043025184083414,0.08569297308,0.04710034042531559,,1.6592443e-05,8.881092e-06,-6.67572e-06,1.0000001,-1.8868595e-05,-1.0073185e-05,1.8876046e-05,0.99999994,-1.6987324e-06,1.0058284e-05,1.6987324e-06,1.0
0.6358121399534866,17:25:08.513053,NaN,0,,0.09490344,0.002879694,0.04127869,-0.29355413,0.9260084,0.23734897,0.68934584,0.033040717,0.72367847,0.6622901,0.37605435,-0.64803934,,NaN,NaN,NaN,NaN,NaN,NaN,NaN,NaN,NaN,NaN,NaN,NaN,,0.15351966,1.2979712,0.5078237,0.99592996,-0.00085287413,-0.09012652,-0.043027647,-0.88314986,-0.4671134,-0.07919683,0.46909016,-0.8795921,,-0.06434847,0.15716441,-0.12758158,0.21089275,-0.96282053,-0.16882193,0.9361977,0.14926733,0.31820303,-0.2811728,-0.22515741,0.93286973,,NaN,NaN,NaN,NaN,NaN,NaN,NaN,NaN,NaN,NaN,NaN,NaN,,0.5317719402533513,-0.4681675123012382,0.16429827605000002,-4.376438810465507,-0.9295381079042914,0.9186380807032407,1.395121668852879,,NaN,NaN,NaN,NaN,NaN,NaN,NaN,,-0.14359696420783347,-0.3043025184083414,0.08569297308,0.04710034042531559,,1.6592443e-05,8.881092e-06,-6.67572e-06,1.0000001,-1.8868595e-05,-1.0073185e-05,1.8876046e-05,0.99999994,-1.6987324e-06,1.0058284e-05,1.6987324e-06,1.0
0.6813449970213696,17:25:08.558796,NaN,0,,0.09490344,0.002879694,0.04127869,-0.29355413,0.9260084,0.23734897,0.68934584,0.033040717,0.72367847,0.6622901,0.37605435,-0.64803934,,NaN,NaN,NaN,NaN,NaN,NaN,NaN,NaN,NaN,NaN,NaN,NaN,,0.15351966,1.2979712,0.5078237,0.99592996,-0.00085287413,-0.09012652,-0.043027647,-0.88314986,-0.4671134,-0.07919683,0.46909016,-0.8795921,,-0.06434847,0.15716441,-0.12758158,0.21089275,-0.96282053,-0.16882193,0.9361977,0.14926733,0.31820303,-0.2811728,-0.22515741,0.93286973,,NaN,NaN,NaN,NaN,NaN,NaN,NaN,NaN,NaN,NaN,NaN,NaN,,0.5317642175204771,-0.4681675123012382,0.16429827605000002,-4.376438810465507,-0.9295381079042914,0.9186380807032407,1.395121668852879,,NaN,NaN,NaN,NaN,NaN,NaN,NaN,,-0.14359696420783347,-0.3043025184083414,0.08569297308,0.04710034042531559,,1.6592443e-05,8.881092e-06,-6.67572e-06,1.0000001,-1.8868595e-05,-1.0073185e-05,1.8876046e-05,0.99999994,-1.6987324e-06,1.0058284e-05,1.6987324e-06,1.0
0.7271110429428518,17:25:08.608786,NaN,0,,0.09490344,0.002879694,0.04127869,-0.29355413,0.9260084,0.23734897,0.68934584,0.033040717,0.72367847,0.6622901,0.37605435,-0.64803934,,NaN,NaN,NaN,NaN,NaN,NaN,NaN,NaN,NaN,NaN,NaN,NaN,,0.15351966,1.2979712,0.5078237,0.99592996,-0.00085287413,-0.09012652,-0.043027647,-0.88314986,-0.4671134,-0.07919683,0.46909016,-0.8795921,,-0.06434847,0.15716441,-0.12758158,0.21089275,-0.96282053,-0.16882193,0.9361977,0.14926733,0.31820303,-0.2811728,-0.22515741,0.93286973,,NaN,NaN,NaN,NaN,NaN,NaN,NaN,NaN,NaN,NaN,NaN,NaN,,0.5317719402533513,-0.4681675123012382,0.16429827605000002,-4.376438810465507,-0.9295381079042914,0.9186380807032407,1.395121668852879,,NaN,NaN,NaN,NaN,NaN,NaN,NaN,,-0.14359696420783347,-0.3043025184083414,0.08569297308,0.04710034042531559,,1.6592443e-05,8.881092e-06,-6.67572e-06,1.0000001,-1.8868595e-05,-1.0073185e-05,1.8876046e-05,0.99999994,-1.6987324e-06,1.0058284e-05,1.6987324e-06,1.0
0.7771453650202602,17:25:08.659474,NaN,0,,0.09490344,0.002879694,0.04127869,-0.29355413,0.9260084,0.23734897,0.68934584,0.033040717,0.72367847,0.6622901,0.37605435,-0.64803934,,NaN,NaN,NaN,NaN,NaN,NaN,NaN,NaN,NaN,NaN,NaN,NaN,,0.15351966,1.2979712,0.5078237,0.99592996,-0.00085287413,-0.09012652,-0.043027647,-0.88314986,-0.4671134,-0.07919683,0.46909016,-0.8795921,,-0.06434847,0.15716441,-0.12758158,0.21089275,-0.96282053,-0.16882193,0.9361977,0.14926733,0.31820303,-0.2811728,-0.22515741,0.93286973,,NaN,NaN,NaN,NaN,NaN,NaN,NaN,NaN,NaN,NaN,NaN,NaN,,0.5317796629862255,-0.4681675123012382,0.16429827605000002,-4.376438810465507,-0.9295381079042914,0.9186380807032407,1.395121668852879,,NaN,NaN,NaN,NaN,NaN,NaN,NaN,,-0.14359696420783347,-0.3043025184083414,0.08569297308,0.04710034042531559,,1.6592443e-05,8.881092e-06,-6.67572e-06,1.0000001,-1.8868595e-05,-1.0073185e-05,1.8876046e-05,0.99999994,-1.6987324e-06,1.0058284e-05,1.6987324e-06,1.0
0.8278349790489301,17:25:08.695658,NaN,0,,0.09490344,0.002879694,0.04127869,-0.29355413,0.9260084,0.23734897,0.68934584,0.033040717,0.72367847,0.6622901,0.37605435,-0.64803934,,NaN,NaN,NaN,NaN,NaN,NaN,NaN,NaN,NaN,NaN,NaN,NaN,,0.15351966,1.2979712,0.5078237,0.99592996,-0.00085287413,-0.09012652,-0.043027647,-0.88314986,-0.4671134,-0.07919683,0.46909016,-0.8795921,,-0.06434847,0.15716441,-0.12758158,0.21089275,-0.96282053,-0.16882193,0.9361977,0.14926733,0.31820303,-0.2811728,-0.22515741,0.93286973,,NaN,NaN,NaN,NaN,NaN,NaN,NaN,NaN,NaN,NaN,NaN,NaN,,0.5317719402533513,-0.4681675123012382,0.16429827605000002,-4.376438810465507,-0.9295381079042914,0.9186380807032407,1.395121668852879,,NaN,NaN,NaN,NaN,NaN,NaN,NaN,,-0.14359696420783347,-0.3043025184083414,0.08569297308,0.04710034042531559,,1.6592443e-05,8.881092e-06,-6.67572e-06,1.0000001,-1.8868595e-05,-1.0073185e-05,1.8876046e-05,0.99999994,-1.6987324e-06,1.0058284e-05,1.6987324e-06,1.0
0.8640190720325336,17:25:08.732632,NaN,0,,0.09490344,0.002879694,0.04127869,-0.29355413,0.9260084,0.23734897,0.68934584,0.033040717,0.72367847,0.6622901,0.37605435,-0.64803934,,NaN,NaN,NaN,NaN,NaN,NaN,NaN,NaN,NaN,NaN,NaN,NaN,,0.15351966,1.2979712,0.5078237,0.99592996,-0.00085287413,-0.09012652,-0.043027647,-0.88314986,-0.4671134,-0.07919683,0.46909016,-0.8795921,,-0.06434847,0.15716441,-0.12758158,0.21089275,-0.96282053,-0.16882193,0.9361977,0.14926733,0.31820303,-0.2811728,-0.22515741,0.93286973,,NaN,NaN,NaN,NaN,NaN,NaN,NaN,NaN,NaN,NaN,NaN,NaN,,0.5317719402533513,-0.4681675123012382,0.16429827605000002,-4.376438810465507,-0.9295381079042914,0.9186380807032407,1.395121668852879,,NaN,NaN,NaN,NaN,NaN,NaN,NaN,,-0.14359696420783347,-0.3043025184083414,0.08569297308,0.04710034042531559,,1.6592443e-05,8.881092e-06,-6.67572e-06,1.0000001,-1.8868595e-05,-1.0073185e-05,1.8876046e-05,0.99999994,-1.6987324e-06,1.0058284e-05,1.6987324e-06,1.0
0.9009037830401212,17:25:08.779184,NaN,0,,0.09490344,0.002879694,0.04127869,-0.29355413,0.9260084,0.23734897,0.68934584,0.033040717,0.72367847,0.6622901,0.37605435,-0.64803934,,NaN,NaN,NaN,NaN,NaN,NaN,NaN,NaN,NaN,NaN,NaN,NaN,,0.15351966,1.2979712,0.5078237,0.99592996,-0.00085287413,-0.09012652,-0.043027647,-0.88314986,-0.4671134,-0.07919683,0.46909016,-0.8795921,,-0.06434847,0.15716441,-0.12758158,0.21089275,-0.96282053,-0.16882193,0.9361977,0.14926733,0.31820303,-0.2811728,-0.22515741,0.93286973,,NaN,NaN,NaN,NaN,NaN,NaN,NaN,NaN,NaN,NaN,NaN,NaN,,0.5317796629862255,-0.4681675123012382,0.16429827605000002,-4.376438810465507,-0.9295381079042914,0.9186380807032407,1.395121668852879,,NaN,NaN,NaN,NaN,NaN,NaN,NaN,,-0.14359696420783347,-0.3043025184083414,0.08569297308,0.04710034042531559,,1.6592443e-05,8.881092e-06,-6.67572e-06,1.0000001,-1.8868595e-05,-1.0073185e-05,1.8876046e-05,0.99999994,-1.6987324e-06,1.0058284e-05,1.6987324e-06,1.0
0.9475205020280555,17:25:08.826121,NaN,0,,0.09490344,0.002879694,0.04127869,-0.29355413,0.9260084,0.23734897,0.68934584,0.033040717,0.72367847,0.6622901,0.37605435,-0.64803934,,NaN,NaN,NaN,NaN,NaN,NaN,NaN,NaN,NaN,NaN,NaN,NaN,,0.15351966,1.2979712,0.5078237,0.99592996,-0.00085287413,-0.09012652,-0.043027647,-0.88314986,-0.4671134,-0.07919683,0.46909016,-0.8795921,,-0.06434847,0.15716441,-0.12758158,0.21089275,-0.96282053,-0.16882193,0.9361977,0.14926733,0.31820303,-0.2811728,-0.22515741,0.93286973,,NaN,NaN,NaN,NaN,NaN,NaN,NaN,NaN,NaN,NaN,NaN,NaN,,0.5317719402533513,-0.4681675123012382,0.16429827605000002,-4.376438810465507,-0.9295381079042914,0.9186380807032407,1.395121668852879,,NaN,NaN,NaN,NaN,NaN,NaN,NaN,,-0.14359696420783347,-0.3043025184083414,0.08569297308,0.04710034042531559,,1.6592443e-05,8.881092e-06,-6.67572e-06,1.0000001,-1.8868595e-05,-1.0073185e-05,1.8876046e-05,0.99999994,-1.6987324e-06,1.0058284e-05,1.6987324e-06,1.0
0.9943945340346545,17:25:08.861521,NaN,0,,0.09490344,0.002879694,0.04127869,-0.29355413,0.9260084,0.23734897,0.68934584,0.033040717,0.72367847,0.6622901,0.37605435,-0.64803934,,NaN,NaN,NaN,NaN,NaN,NaN,NaN,NaN,NaN,NaN,NaN,NaN,,0.15351966,1.2979712,0.5078237,0.99592996,-0.00085287413,-0.09012652,-0.043027647,-0.88314986,-0.4671134,-0.07919683,0.46909016,-0.8795921,,-0.06434847,0.15716441,-0.12758158,0.21089275,-0.96282053,-0.16882193,0.9361977,0.14926733,0.31820303,-0.2811728,-0.22515741,0.93286973,,NaN,NaN,NaN,NaN,NaN,NaN,NaN,NaN,NaN,NaN,NaN,NaN,,0.5317796629862255,-0.4681675123012382,0.16429827605000002,-4.376438810465507,-0.9295381079042914,0.9186380807032407,1.395121668852879,,NaN,NaN,NaN,NaN,NaN,NaN,NaN,,-0.14359696420783347,-0.3043025184083414,0.08569297308,0.04710034042531559,,1.6592443e-05,8.881092e-06,-6.67572e-06,1.0000001,-1.8868595e-05,-1.0073185e-05,1.8876046e-05,0.99999994,-1.6987324e-06,1.0058284e-05,1.6987324e-06,1.0
1.029865690972656,17:25:08.911650,NaN,0,,0.09490344,0.002879694,0.04127869,-0.29355413,0.9260084,0.23734897,0.68934584,0.033040717,0.72367847,0.6622901,0.37605435,-0.64803934,,NaN,NaN,NaN,NaN,NaN,NaN,NaN,NaN,NaN,NaN,NaN,NaN,,0.15351966,1.2979712,0.5078237,0.99592996,-0.00085287413,-0.09012652,-0.043027647,-0.88314986,-0.4671134,-0.07919683,0.46909016,-0.8795921,,-0.06434847,0.15716441,-0.12758158,0.21089275,-0.96282053,-0.16882193,0.9361977,0.14926733,0.31820303,-0.2811728,-0.22515741,0.93286973,,NaN,NaN,NaN,NaN,NaN,NaN,NaN,NaN,NaN,NaN,NaN,NaN,,0.5317719402533513,-0.4681675123012382,0.16429827605000002,-4.376438810465507,-0.9295381079042914,0.9186380807032407,1.395121668852879,,NaN,NaN,NaN,NaN,NaN,NaN,NaN,,-0.14359696420783347,-0.3043025184083414,0.08569297308,0.04710034042531559,,1.6592443e-05,8.881092e-06,-6.67572e-06,1.0000001,-1.8868595e-05,-1.0073185e-05,1.8876046e-05,0.99999994,-1.6987324e-06,1.0058284e-05,1.6987324e-06,1.0
1.0799457889515907,17:25:08.962764,NaN,0,,0.09490344,0.002879694,0.04127869,-0.29355413,0.9260084,0.23734897,0.68934584,0.033040717,0.72367847,0.6622901,0.37605435,-0.64803934,,NaN,NaN,NaN,NaN,NaN,NaN,NaN,NaN,NaN,NaN,NaN,NaN,,0.15351966,1.2979712,0.5078237,0.99592996,-0.00085287413,-0.09012652,-0.043027647,-0.88314986,-0.4671134,-0.07919683,0.46909016,-0.8795921,,-0.06434847,0.15716441,-0.12758158,0.21089275,-0.96282053,-0.16882193,0.9361977,0.14926733,0.31820303,-0.2811728,-0.22515741,0.93286973,,NaN,NaN,NaN,NaN,NaN,NaN,NaN,NaN,NaN,NaN,NaN,NaN,,0.5317796629862255,-0.4681675123012382,0.16429827605000002,-4.376438810465507,-0.9295381079042914,0.9186380807032407,1.395121668852879,,NaN,NaN,NaN,NaN,NaN,NaN,NaN,,-0.14359696420783347,-0.3043025184083414,0.08569297308,0.04710034042531559,,1.6592443e-05,8.881092e-06,-6.67572e-06,1.0000001,-1.8868595e-05,-1.0073185e-05,1.8876046e-05,0.99999994,-1.6987324e-06,1.0058284e-05,1.6987324e-06,1.0
1.1310990550555289,17:25:09.010322,NaN,0,,0.09490344,0.002879694,0.04127869,-0.29355413,0.9260084,0.23734897,0.68934584,0.033040717,0.72367847,0.6622901,0.37605435,-0.64803934,,NaN,NaN,NaN,NaN,NaN,NaN,NaN,NaN,NaN,NaN,NaN,NaN,,0.15351966,1.2979712,0.5078237,0.99592996,-0.00085287413,-0.09012652,-0.043027647,-0.88314986,-0.4671134,-0.07919683,0.46909016,-0.8795921,,-0.06434847,0.15716441,-0.12758158,0.21089275,-0.96282053,-0.16882193,0.9361977,0.14926733,0.31820303,-0.2811728,-0.22515741,0.93286973,,NaN,NaN,NaN,NaN,NaN,NaN,NaN,NaN,NaN,NaN,NaN,NaN,,0.5317796629862255,-0.4681675123012382,0.16429827605000002,-4.376438810465507,-0.9295381079042914,0.9186380807032407,1.395121668852879,,NaN,NaN,NaN,NaN,NaN,NaN,NaN,,-0.14359696420783347,-0.3043025184083414,0.08569297308,0.04710034042531559,,1.6592443e-05,8.881092e-06,-6.67572e-06,1.0000001,-1.8868595e-05,-1.0073185e-05,1.8876046e-05,0.99999994,-1.6987324e-06,1.0058284e-05,1.6987324e-06,1.0
1.178681958001107,17:25:09.045270,NaN,0,,0.09490344,0.002879694,0.04127869,-0.29355413,0.9260084,0.23734897,0.68934584,0.033040717,0.72367847,0.6622901,0.37605435,-0.64803934,,NaN,NaN,NaN,NaN,NaN,NaN,NaN,NaN,NaN,NaN,NaN,NaN,,0.15351966,1.2979712,0.5078237,0.99592996,-0.00085287413,-0.09012652,-0.043027647,-0.88314986,-0.4671134,-0.07919683,0.46909016,-0.8795921,,-0.06434847,0.15716441,-0.12758158,0.21089275,-0.96282053,-0.16882193,0.9361977,0.14926733,0.31820303,-0.2811728,-0.22515741,0.93286973,,NaN,NaN,NaN,NaN,NaN,NaN,NaN,NaN,NaN,NaN,NaN,NaN,,0.5317719402533513,-0.4681675123012382,0.16429827605000002,-4.376438810465507,-0.9295381079042914,0.9186380807032407,1.395121668852879,,NaN,NaN,NaN,NaN,NaN,NaN,NaN,,-0.14359696420783347,-0.3043025184083414,0.08569297308,0.04710034042531559,,1.6592443e-05,8.881092e-06,-6.67572e-06,1.0000001,-1.8868595e-05,-1.0073185e-05,1.8876046e-05,0.99999994,-1.6987324e-06,1.0058284e-05,1.6987324e-06,1.0
1.2136096999747679,17:25:09.093321,NaN,0,,0.09490344,0.002879694,0.04127869,-0.29355413,0.9260084,0.23734897,0.68934584,0.033040717,0.72367847,0.6622901,0.37605435,-0.64803934,,NaN,NaN,NaN,NaN,NaN,NaN,NaN,NaN,NaN,NaN,NaN,NaN,,0.15351966,1.2979712,0.5078237,0.99592996,-0.00085287413,-0.09012652,-0.043027647,-0.88314986,-0.4671134,-0.07919683,0.46909016,-0.8795921,,-0.06434847,0.15716441,-0.12758158,0.21089275,-0.96282053,-0.16882193,0.9361977,0.14926733,0.31820303,-0.2811728,-0.22515741,0.93286973,,NaN,NaN,NaN,NaN,NaN,NaN,NaN,NaN,NaN,NaN,NaN,NaN,,0.5317796629862255,-0.4681675123012382,0.16429827605000002,-4.376438810465507,-0.9295381079042914,0.9186380807032407,1.395121668852879,,NaN,NaN,NaN,NaN,NaN,NaN,NaN,,-0.14359696420783347,-0.3043025184083414,0.08569297308,0.04710034042531559,,1.6592443e-05,8.881092e-06,-6.67572e-06,1.0000001,-1.8868595e-05,-1.0073185e-05,1.8876046e-05,0.99999994,-1.6987324e-06,1.0058284e-05,1.6987324e-06,1.0
1.2616645710077137,17:25:09.129187,NaN,0,,0.09490344,0.002879694,0.04127869,-0.29355413,0.9260084,0.23734897,0.68934584,0.033040717,0.72367847,0.6622901,0.37605435,-0.64803934,,NaN,NaN,NaN,NaN,NaN,NaN,NaN,NaN,NaN,NaN,NaN,NaN,,0.15351966,1.2979712,0.5078237,0.99592996,-0.00085287413,-0.09012652,-0.043027647,-0.88314986,-0.4671134,-0.07919683,0.46909016,-0.8795921,,-0.06434847,0.15716441,-0.12758158,0.21089275,-0.96282053,-0.16882193,0.9361977,0.14926733,0.31820303,-0.2811728,-0.22515741,0.93286973,,NaN,NaN,NaN,NaN,NaN,NaN,NaN,NaN,NaN,NaN,NaN,NaN,,0.5317796629862255,-0.4681675123012382,0.16429827605000002,-4.376438810465507,-0.9295381079042914,0.9186380807032407,1.395121668852879,,NaN,NaN,NaN,NaN,NaN,NaN,NaN,,-0.14359696420783347,-0.3043025184083414,0.08569297308,0.04710034042531559,,1.6592443e-05,8.881092e-06,-6.67572e-06,1.0000001,-1.8868595e-05,-1.0073185e-05,1.8876046e-05,0.99999994,-1.6987324e-06,1.0058284e-05,1.6987324e-06,1.0
1.2975449330406263,17:25:09.175730,NaN,0,,0.09490344,0.002879694,0.04127869,-0.29355413,0.9260084,0.23734897,0.68934584,0.033040717,0.72367847,0.6622901,0.37605435,-0.64803934,,NaN,NaN,NaN,NaN,NaN,NaN,NaN,NaN,NaN,NaN,NaN,NaN,,0.15351966,1.2979712,0.5078237,0.99592996,-0.00085287413,-0.09012652,-0.043027647,-0.88314986,-0.4671134,-0.07919683,0.46909016,-0.8795921,,-0.06434847,0.15716441,-0.12758158,0.21089275,-0.96282053,-0.16882193,0.9361977,0.14926733,0.31820303,-0.2811728,-0.22515741,0.93286973,,NaN,NaN,NaN,NaN,NaN,NaN,NaN,NaN,NaN,NaN,NaN,NaN,,0.5317796629862255,-0.4681675123012382,0.16429827605000002,-4.376438810465507,-0.9295381079042914,0.9186380807032407,1.395121668852879,,NaN,NaN,NaN,NaN,NaN,NaN,NaN,,-0.14359696420783347,-0.3043025184083414,0.08569297308,0.04710034042531559,,1.6592443e-05,8.881092e-06,-6.67572e-06,1.0000001,-1.8868595e-05,-1.0073185e-05,1.8876046e-05,0.99999994,-1.6987324e-06,1.0058284e-05,1.6987324e-06,1.0
1.3440708869602531,17:25:09.206618,NaN,0,,0.09490344,0.002879694,0.04127869,-0.29355413,0.9260084,0.23734897,0.68934584,0.033040717,0.72367847,0.6622901,0.37605435,-0.64803934,,NaN,NaN,NaN,NaN,NaN,NaN,NaN,NaN,NaN,NaN,NaN,NaN,,0.15351966,1.2979712,0.5078237,0.99592996,-0.00085287413,-0.09012652,-0.043027647,-0.88314986,-0.4671134,-0.07919683,0.46909016,-0.8795921,,-0.06434847,0.15716441,-0.12758158,0.21089275,-0.96282053,-0.16882193,0.9361977,0.14926733,0.31820303,-0.2811728,-0.22515741,0.93286973,,NaN,NaN,NaN,NaN,NaN,NaN,NaN,NaN,NaN,NaN,NaN,NaN,,0.5317796629862255,-0.4681675123012382,0.16429827605000002,-4.376438810465507,-0.9295381079042914,0.9186380807032407,1.395121668852879,,NaN,NaN,NaN,NaN,NaN,NaN,NaN,,-0.14359696420783347,-0.3043025184083414,0.08569297308,0.04710034042531559,,1.6592443e-05,8.881092e-06,-6.67572e-06,1.0000001,-1.8868595e-05,-1.0073185e-05,1.8876046e-05,0.99999994,-1.6987324e-06,1.0058284e-05,1.6987324e-06,1.0
1.3749807620188221,17:25:09.224783,NaN,0,,0.09490344,0.002879694,0.04127869,-0.29355413,0.9260084,0.23734897,0.68934584,0.033040717,0.72367847,0.6622901,0.37605435,-0.64803934,,NaN,NaN,NaN,NaN,NaN,NaN,NaN,NaN,NaN,NaN,NaN,NaN,,0.15351966,1.2979712,0.5078237,0.99592996,-0.00085287413,-0.09012652,-0.043027647,-0.88314986,-0.4671134,-0.07919683,0.46909016,-0.8795921,,-0.06434847,0.15716441,-0.12758158,0.21089275,-0.96282053,-0.16882193,0.9361977,0.14926733,0.31820303,-0.2811728,-0.22515741,0.93286973,,NaN,NaN,NaN,NaN,NaN,NaN,NaN,NaN,NaN,NaN,NaN,NaN,,0.5317796629862255,-0.4681675123012382,0.16429827605000002,-4.376438810465507,-0.9295381079042914,0.9186380807032407,1.395121668852879,,NaN,NaN,NaN,NaN,NaN,NaN,NaN,,-0.14359696420783347,-0.3043025184083414,0.08569297308,0.04710034042531559,,1.6592443e-05,8.881092e-06,-6.67572e-06,1.0000001,-1.8868595e-05,-1.0073185e-05,1.8876046e-05,0.99999994,-1.6987324e-06,1.0058284e-05,1.6987324e-06,1.0
1.3931066549848765,17:25:09.244347,NaN,0,,0.09491576,0.0028781146,0.041268602,-0.2935855,0.9260069,0.23731624,0.68933344,0.033083312,0.72368824,0.66228896,0.3760544,-0.6480404,,NaN,NaN,NaN,NaN,NaN,NaN,NaN,NaN,NaN,NaN,NaN,NaN,,0.15350431,1.2979759,0.50781316,0.9959319,-0.00081278104,-0.09010532,-0.042982433,-0.8831499,-0.4671175,-0.07919683,0.46909016,-0.8795921,,-0.06434847,0.15716441,-0.12758158,0.21089275,-0.96282053,-0.16882193,0.9361977,0.14926733,0.31820303,-0.2811728,-0.22515741,0.93286973,,NaN,NaN,NaN,NaN,NaN,NaN,NaN,NaN,NaN,NaN,NaN,NaN,,0.5317719402533513,-0.4681675123012382,0.16429827605000002,-4.376438810465507,-0.9295381079042914,0.9186380807032407,1.395121668852879,,NaN,NaN,NaN,NaN,NaN,NaN,NaN,,-0.14359696420783347,-0.3043025184083414,0.08569297308,0.04710034042531559,,1.937151e-06,-1.1920929e-07,1.7881393e-06,1.0000001,2.1066517e-05,1.1220574e-05,-2.105534e-05,0.99999994,1.8775463e-06,-1.1242926e-05,-1.8775463e-06,1.0
1.4126385899726301,17:25:09.267405,NaN,0,,0.09496771,0.0028449744,0.041277677,-0.2935983,0.9260032,0.23731473,0.689335,0.03309507,0.72368634,0.6622818,0.3760624,-0.64804304,,NaN,NaN,NaN,NaN,NaN,NaN,NaN,NaN,NaN,NaN,NaN,NaN,,0.15350431,1.2979759,0.50781316,0.9959319,-0.00081278104,-0.09010532,-0.042982433,-0.8831499,-0.4671175,-0.07919683,0.46909016,-0.8795921,,-0.06440082,0.15713632,-0.12760028,0.21090622,-0.9628179,-0.16882011,0.9361964,0.14928165,0.3182002,-0.2811671,-0.22515917,0.93287104,,NaN,NaN,NaN,NaN,NaN,NaN,NaN,NaN,NaN,NaN,NaN,NaN,,0.5317796629862255,-0.4681675123012382,0.16429827605000002,-4.376438810465507,-0.9295381079042914,0.9186380807032407,1.395121668852879,,NaN,NaN,NaN,NaN,NaN,NaN,NaN,,-0.14359696420783347,-0.3043025184083414,0.08569297308,0.04710034042531559,,1.937151e-06,-1.1920929e-07,1.7881393e-06,1.0000001,2.1066517e-05,1.1220574e-05,-2.105534e-05,0.99999994,1.8775463e-06,-1.1242926e-05,-1.8775463e-06,1.0
1.4357395579572767,17:25:09.291562,NaN,0,,0.09496771,0.0028449744,0.041277677,-0.2935983,0.9260032,0.23731473,0.689335,0.03309507,0.72368634,0.6622818,0.3760624,-0.64804304,,NaN,NaN,NaN,NaN,NaN,NaN,NaN,NaN,NaN,NaN,NaN,NaN,,0.15350431,1.2979759,0.50781316,0.9959319,-0.00081278104,-0.09010532,-0.042982433,-0.8831499,-0.4671175,-0.07919683,0.46909016,-0.8795921,,-0.06440082,0.15713632,-0.12760028,0.21090622,-0.9628179,-0.16882011,0.9361964,0.14928165,0.3182002,-0.2811671,-0.22515917,0.93287104,,NaN,NaN,NaN,NaN,NaN,NaN,NaN,NaN,NaN,NaN,NaN,NaN,,0.5317796629862255,-0.4681675123012382,0.16429827605000002,-4.376438810465507,-0.9295381079042914,0.9186380807032407,1.395121668852879,,NaN,NaN,NaN,NaN,NaN,NaN,NaN,,-0.14359696420783347,-0.3043025184083414,0.08569297308,0.04710034042531559,,1.937151e-06,-1.1920929e-07,1.7881393e-06,1.0000001,2.1066517e-05,1.1220574e-05,-2.105534e-05,0.99999994,1.8775463e-06,-1.1242926e-05,-1.8775463e-06,1.0
1.4599231099709868,17:25:09.307755,NaN,0,,0.09496771,0.0028449744,0.041277677,-0.2935983,0.9260032,0.23731473,0.689335,0.03309507,0.72368634,0.6622818,0.3760624,-0.64804304,,NaN,NaN,NaN,NaN,NaN,NaN,NaN,NaN,NaN,NaN,NaN,NaN,,0.15350431,1.2979759,0.50781316,0.9959319,-0.00081278104,-0.09010532,-0.042982433,-0.8831499,-0.4671175,-0.07919683,0.46909016,-0.8795921,,-0.06440082,0.15713632,-0.12760028,0.21090622,-0.9628179,-0.16882011,0.9361964,0.14928165,0.3182002,-0.2811671,-0.22515917,0.93287104,,NaN,NaN,NaN,NaN,NaN,NaN,NaN,NaN,NaN,NaN,NaN,NaN,,0.5317719402533513,-0.4681675123012382,0.16429827605000002,-4.376438810465507,-0.9295381079042914,0.9186380807032407,1.395121668852879,,NaN,NaN,NaN,NaN,NaN,NaN,NaN,,-0.14359696420783347,-0.3043025184083414,0.08569297308,0.04710034042531559,,1.937151e-06,-1.1920929e-07,1.7881393e-06,1.0000001,2.1066517e-05,1.1220574e-05,-2.105534e-05,0.99999994,1.8775463e-06,-1.1242926e-05,-1.8775463e-06,1.0
1.4760367729468271,17:25:09.329004,NaN,0,,0.09496771,0.0028449744,0.041277677,-0.2935983,0.9260032,0.23731473,0.689335,0.03309507,0.72368634,0.6622818,0.3760624,-0.64804304,,NaN,NaN,NaN,NaN,NaN,NaN,NaN,NaN,NaN,NaN,NaN,NaN,,0.15350431,1.2979759,0.50781316,0.9959319,-0.00081278104,-0.09010532,-0.042982433,-0.8831499,-0.4671175,-0.07919683,0.46909016,-0.8795921,,-0.06440082,0.15713632,-0.12760028,0.21090622,-0.9628179,-0.16882011,0.9361964,0.14928165,0.3182002,-0.2811671,-0.22515917,0.93287104,,NaN,NaN,NaN,NaN,NaN,NaN,NaN,NaN,NaN,NaN,NaN,NaN,,0.5317719402533513,-0.4681675123012382,0.16429827605000002,-4.376438810465507,-0.9295381079042914,0.9186380807032407,1.395121668852879,,NaN,NaN,NaN,NaN,NaN,NaN,NaN,,-0.14359696420783347,-0.3043025184083414,0.08569297308,0.04710034042531559,,1.937151e-06,-1.1920929e-07,1.7881393e-06,1.0000001,2.1066517e-05,1.1220574e-05,-2.105534e-05,0.99999994,1.8775463e-06,-1.1242926e-05,-1.8775463e-06,1.0
1.4970475570298731,17:25:09.347395,NaN,0,,0.09496771,0.0028449744,0.041277677,-0.2935983,0.9260032,0.23731473,0.689335,0.03309507,0.72368634,0.6622818,0.3760624,-0.64804304,,NaN,NaN,NaN,NaN,NaN,NaN,NaN,NaN,NaN,NaN,NaN,NaN,,0.15350431,1.2979759,0.50781316,0.9959319,-0.00081278104,-0.09010532,-0.042982433,-0.8831499,-0.4671175,-0.07919683,0.46909016,-0.8795921,,-0.06440082,0.15713632,-0.12760028,0.21090622,-0.9628179,-0.16882011,0.9361964,0.14928165,0.3182002,-0.2811671,-0.22515917,0.93287104,,NaN,NaN,NaN,NaN,NaN,NaN,NaN,NaN,NaN,NaN,NaN,NaN,,0.5317796629862255,-0.4681675123012382,0.16429827605000002,-4.376438810465507,-0.9295381079042914,0.9186380807032407,1.395121668852879,,NaN,NaN,NaN,NaN,NaN,NaN,NaN,,-0.14359696420783347,-0.3043025184083414,0.08569297308,0.04710034042531559,,1.937151e-06,-1.1920929e-07,1.7881393e-06,1.0000001,2.1066517e-05,1.1220574e-05,-2.105534e-05,0.99999994,1.8775463e-06,-1.1242926e-05,-1.8775463e-06,1.0
1.515728462021798,17:25:09.365630,NaN,0,,0.09496771,0.0028449744,0.041277677,-0.2935983,0.9260032,0.23731473,0.689335,0.03309507,0.72368634,0.6622818,0.3760624,-0.64804304,,NaN,NaN,NaN,NaN,NaN,NaN,NaN,NaN,NaN,NaN,NaN,NaN,,0.15350431,1.2979759,0.50781316,0.9959319,-0.00081278104,-0.09010532,-0.042982433,-0.8831499,-0.4671175,-0.07919683,0.46909016,-0.8795921,,-0.06440082,0.15713632,-0.12760028,0.21090622,-0.9628179,-0.16882011,0.9361964,0.14928165,0.3182002,-0.2811671,-0.22515917,0.93287104,,NaN,NaN,NaN,NaN,NaN,NaN,NaN,NaN,NaN,NaN,NaN,NaN,,0.5317796629862255,-0.4681675123012382,0.16429827605000002,-4.376438810465507,-0.9295381079042914,0.9186380807032407,1.395121668852879,,NaN,NaN,NaN,NaN,NaN,NaN,NaN,,-0.14359696420783347,-0.3043025184083414,0.08569297308,0.04710034042531559,,1.937151e-06,-1.1920929e-07,1.7881393e-06,1.0000001,2.1066517e-05,1.1220574e-05,-2.105534e-05,0.99999994,1.8775463e-06,-1.1242926e-05,-1.8775463e-06,1.0
1.5339863209519535,17:25:09.387597,NaN,0,,0.09496771,0.0028449744,0.041277677,-0.2935983,0.9260032,0.23731473,0.689335,0.03309507,0.72368634,0.6622818,0.3760624,-0.64804304,,NaN,NaN,NaN,NaN,NaN,NaN,NaN,NaN,NaN,NaN,NaN,NaN,,0.15350431,1.2979759,0.50781316,0.9959319,-0.00081278104,-0.09010532,-0.042982433,-0.8831499,-0.4671175,-0.07919683,0.46909016,-0.8795921,,-0.06440082,0.15713632,-0.12760028,0.21090622,-0.9628179,-0.16882011,0.9361964,0.14928165,0.3182002,-0.2811671,-0.22515917,0.93287104,,NaN,NaN,NaN,NaN,NaN,NaN,NaN,NaN,NaN,NaN,NaN,NaN,,0.5317796629862255,-0.4681675123012382,0.16429827605000002,-4.376438810465507,-0.9295381079042914,0.9186380807032407,1.395121668852879,,NaN,NaN,NaN,NaN,NaN,NaN,NaN,,-0.14359696420783347,-0.3043025184083414,0.08569297308,0.04710034042531559,,1.937151e-06,-1.1920929e-07,1.7881393e-06,1.0000001,2.1066517e-05,1.1220574e-05,-2.105534e-05,0.99999994,1.8775463e-06,-1.1242926e-05,-1.8775463e-06,1.0
1.5559450420551002,17:25:09.405306,NaN,0,,0.09496771,0.0028449744,0.041277677,-0.2935983,0.9260032,0.23731473,0.689335,0.03309507,0.72368634,0.6622818,0.3760624,-0.64804304,,NaN,NaN,NaN,NaN,NaN,NaN,NaN,NaN,NaN,NaN,NaN,NaN,,0.15350431,1.2979759,0.50781316,0.9959319,-0.00081278104,-0.09010532,-0.042982433,-0.8831499,-0.4671175,-0.07919683,0.46909016,-0.8795921,,-0.06440082,0.15713632,-0.12760028,0.21090622,-0.9628179,-0.16882011,0.9361964,0.14928165,0.3182002,-0.2811671,-0.22515917,0.93287104,,NaN,NaN,NaN,NaN,NaN,NaN,NaN,NaN,NaN,NaN,NaN,NaN,,0.5317796629862255,-0.4681675123012382,0.16429827605000002,-4.376438810465507,-0.9295381079042914,0.9186380807032407,1.395121668852879,,NaN,NaN,NaN,NaN,NaN,NaN,NaN,,-0.14359696420783347,-0.3043025184083414,0.08569297308,0.04710034042531559,,1.937151e-06,-1.1920929e-07,1.7881393e-06,1.0000001,2.1066517e-05,1.1220574e-05,-2.105534e-05,0.99999994,1.8775463e-06,-1.1242926e-05,-1.8775463e-06,1.0
1.573644635034725,17:25:09.422848,NaN,0,,0.09496771,0.0028449744,0.041277677,-0.2935983,0.9260032,0.23731473,0.689335,0.03309507,0.72368634,0.6622818,0.3760624,-0.64804304,,NaN,NaN,NaN,NaN,NaN,NaN,NaN,NaN,NaN,NaN,NaN,NaN,,0.15350431,1.2979759,0.50781316,0.9959319,-0.00081278104,-0.09010532,-0.042982433,-0.8831499,-0.4671175,-0.07919683,0.46909016,-0.8795921,,-0.06440082,0.15713632,-0.12760028,0.21090622,-0.9628179,-0.16882011,0.9361964,0.14928165,0.3182002,-0.2811671,-0.22515917,0.93287104,,NaN,NaN,NaN,NaN,NaN,NaN,NaN,NaN,NaN,NaN,NaN,NaN,,0.5317796629862255,-0.4681675123012382,0.16429827605000002,-4.376438810465507,-0.9295381079042914,0.9186380807032407,1.395121668852879,,NaN,NaN,NaN,NaN,NaN,NaN,NaN,,-0.14359696420783347,-0.3043025184083414,0.08569297308,0.04710034042531559,,1.937151e-06,-1.1920929e-07,1.7881393e-06,1.0000001,2.1066517e-05,1.1220574e-05,-2.105534e-05,0.99999994,1.8775463e-06,-1.1242926e-05,-1.8775463e-06,1.0
1.5912092849612236,17:25:09.439965,NaN,0,,0.09496771,0.0028449744,0.041277677,-0.2935983,0.9260032,0.23731473,0.689335,0.03309507,0.72368634,0.6622818,0.3760624,-0.64804304,,NaN,NaN,NaN,NaN,NaN,NaN,NaN,NaN,NaN,NaN,NaN,NaN,,0.15350431,1.2979759,0.50781316,0.9959319,-0.00081278104,-0.09010532,-0.042982433,-0.8831499,-0.4671175,-0.07919683,0.46909016,-0.8795921,,-0.06440082,0.15713632,-0.12760028,0.21090622,-0.9628179,-0.16882011,0.9361964,0.14928165,0.3182002,-0.2811671,-0.22515917,0.93287104,,NaN,NaN,NaN,NaN,NaN,NaN,NaN,NaN,NaN,NaN,NaN,NaN,,0.5317719402533513,-0.4681675123012382,0.16429827605000002,-4.376438810465507,-0.9295381079042914,0.9186380807032407,1.395121668852879,,NaN,NaN,NaN,NaN,NaN,NaN,NaN,,-0.14359696420783347,-0.3043025184083414,0.08569297308,0.04710034042531559,,1.937151e-06,-1.1920929e-07,1.7881393e-06,1.0000001,2.1066517e-05,1.1220574e-05,-2.105534e-05,0.99999994,1.8775463e-06,-1.1242926e-05,-1.8775463e-06,1.0
1.6082460200414062,17:25:09.459224,NaN,0,,0.09496771,0.0028449744,0.041277677,-0.2935983,0.9260032,0.23731473,0.689335,0.03309507,0.72368634,0.6622818,0.3760624,-0.64804304,,NaN,NaN,NaN,NaN,NaN,NaN,NaN,NaN,NaN,NaN,NaN,NaN,,0.15350431,1.2979759,0.50781316,0.9959319,-0.00081278104,-0.09010532,-0.042982433,-0.8831499,-0.4671175,-0.07919683,0.46909016,-0.8795921,,-0.06440082,0.15713632,-0.12760028,0.21090622,-0.9628179,-0.16882011,0.9361964,0.14928165,0.3182002,-0.2811671,-0.22515917,0.93287104,,NaN,NaN,NaN,NaN,NaN,NaN,NaN,NaN,NaN,NaN,NaN,NaN,,0.5317719402533513,-0.4681675123012382,0.16429827605000002,-4.376438810465507,-0.9295381079042914,0.9186380807032407,1.395121668852879,,NaN,NaN,NaN,NaN,NaN,NaN,NaN,,-0.14359696420783347,-0.3043025184083414,0.08569297308,0.04710034042531559,,1.937151e-06,-1.1920929e-07,1.7881393e-06,1.0000001,2.1066517e-05,1.1220574e-05,-2.105534e-05,0.99999994,1.8775463e-06,-1.1242926e-05,-1.8775463e-06,1.0
1.6275689790491015,17:25:09.478713,NaN,0,,0.09496771,0.0028449744,0.041277677,-0.2935983,0.9260032,0.23731473,0.689335,0.03309507,0.72368634,0.6622818,0.3760624,-0.64804304,,NaN,NaN,NaN,NaN,NaN,NaN,NaN,NaN,NaN,NaN,NaN,NaN,,0.15350431,1.2979759,0.50781316,0.9959319,-0.00081278104,-0.09010532,-0.042982433,-0.8831499,-0.4671175,-0.07919683,0.46909016,-0.8795921,,-0.06440082,0.15713632,-0.12760028,0.21090622,-0.9628179,-0.16882011,0.9361964,0.14928165,0.3182002,-0.2811671,-0.22515917,0.93287104,,NaN,NaN,NaN,NaN,NaN,NaN,NaN,NaN,NaN,NaN,NaN,NaN,,0.5317796629862255,-0.4681675123012382,0.16429827605000002,-4.376438810465507,-0.9295381079042914,0.9186380807032407,1.395121668852879,,NaN,NaN,NaN,NaN,NaN,NaN,NaN,,-0.14359696420783347,-0.3043025184083414,0.08569297308,0.04710034042531559,,1.937151e-06,-1.1920929e-07,1.7881393e-06,1.0000001,2.1066517e-05,1.1220574e-05,-2.105534e-05,0.99999994,1.8775463e-06,-1.1242926e-05,-1.8775463e-06,1.0
1.6470761169912294,17:25:09.497853,NaN,0,,0.09496771,0.0028449744,0.041277677,-0.2935983,0.9260032,0.23731473,0.689335,0.03309507,0.72368634,0.6622818,0.3760624,-0.64804304,,NaN,NaN,NaN,NaN,NaN,NaN,NaN,NaN,NaN,NaN,NaN,NaN,,0.15350431,1.2979759,0.50781316,0.9959319,-0.00081278104,-0.09010532,-0.042982433,-0.8831499,-0.4671175,-0.07919683,0.46909016,-0.8795921,,-0.06440082,0.15713632,-0.12760028,0.21090622,-0.9628179,-0.16882011,0.9361964,0.14928165,0.3182002,-0.2811671,-0.22515917,0.93287104,,NaN,NaN,NaN,NaN,NaN,NaN,NaN,NaN,NaN,NaN,NaN,NaN,,0.5317796629862255,-0.4681675123012382,0.16429827605000002,-4.376438810465507,-0.9295381079042914,0.9186380807032407,1.395121668852879,,NaN,NaN,NaN,NaN,NaN,NaN,NaN,,-0.14359696420783347,-0.3043025184083414,0.08569297308,0.04710034042531559,,1.937151e-06,-1.1920929e-07,1.7881393e-06,1.0000001,2.1066517e-05,1.1220574e-05,-2.105534e-05,0.99999994,1.8775463e-06,-1.1242926e-05,-1.8775463e-06,1.0
1.6661743629956618,17:25:09.518068,NaN,0,,0.09496771,0.0028449744,0.041277677,-0.2935983,0.9260032,0.23731473,0.689335,0.03309507,0.72368634,0.6622818,0.3760624,-0.64804304,,NaN,NaN,NaN,NaN,NaN,NaN,NaN,NaN,NaN,NaN,NaN,NaN,,0.15350431,1.2979759,0.50781316,0.9959319,-0.00081278104,-0.09010532,-0.042982433,-0.8831499,-0.4671175,-0.07919683,0.46909016,-0.8795921,,-0.06440082,0.15713632,-0.12760028,0.21090622,-0.9628179,-0.16882011,0.9361964,0.14928165,0.3182002,-0.2811671,-0.22515917,0.93287104,,NaN,NaN,NaN,NaN,NaN,NaN,NaN,NaN,NaN,NaN,NaN,NaN,,0.5317796629862255,-0.4681675123012382,0.16429827605000002,-4.376438810465507,-0.9295381079042914,0.9186380807032407,1.395121668852879,,NaN,NaN,NaN,NaN,NaN,NaN,NaN,,-0.14359696420783347,-0.3043025184083414,0.08569297308,0.04710034042531559,,1.937151e-06,-1.1920929e-07,1.7881393e-06,1.0000001,2.1066517e-05,1.1220574e-05,-2.105534e-05,0.99999994,1.8775463e-06,-1.1242926e-05,-1.8775463e-06,1.0
1.6864264420000836,17:25:09.532299,NaN,0,,0.09496771,0.0028449744,0.041277677,-0.2935983,0.9260032,0.23731473,0.689335,0.03309507,0.72368634,0.6622818,0.3760624,-0.64804304,,NaN,NaN,NaN,NaN,NaN,NaN,NaN,NaN,NaN,NaN,NaN,NaN,,0.15350431,1.2979759,0.50781316,0.9959319,-0.00081278104,-0.09010532,-0.042982433,-0.8831499,-0.4671175,-0.07919683,0.46909016,-0.8795921,,-0.06440082,0.15713632,-0.12760028,0.21090622,-0.9628179,-0.16882011,0.9361964,0.14928165,0.3182002,-0.2811671,-0.22515917,0.93287104,,NaN,NaN,NaN,NaN,NaN,NaN,NaN,NaN,NaN,NaN,NaN,NaN,,0.5317796629862255,-0.4681675123012382,0.16429827605000002,-4.376438810465507,-0.9295381079042914,0.9186380807032407,1.395121668852879,,NaN,NaN,NaN,NaN,NaN,NaN,NaN,,-0.14359696420783347,-0.3043025184083414,0.08569297308,0.04710034042531559,,1.937151e-06,-1.1920929e-07,1.7881393e-06,1.0000001,2.1066517e-05,1.1220574e-05,-2.105534e-05,0.99999994,1.8775463e-06,-1.1242926e-05,-1.8775463e-06,1.0
1.7006294820457697,17:25:09.556546,NaN,0,,0.09496771,0.0028449744,0.041277677,-0.2935983,0.9260032,0.23731473,0.689335,0.03309507,0.72368634,0.6622818,0.3760624,-0.64804304,,NaN,NaN,NaN,NaN,NaN,NaN,NaN,NaN,NaN,NaN,NaN,NaN,,0.15350431,1.2979759,0.50781316,0.9959319,-0.00081278104,-0.09010532,-0.042982433,-0.8831499,-0.4671175,-0.07919683,0.46909016,-0.8795921,,-0.06440082,0.15713632,-0.12760028,0.21090622,-0.9628179,-0.16882011,0.9361964,0.14928165,0.3182002,-0.2811671,-0.22515917,0.93287104,,NaN,NaN,NaN,NaN,NaN,NaN,NaN,NaN,NaN,NaN,NaN,NaN,,0.5317719402533513,-0.4681675123012382,0.16429827605000002,-4.376438810465507,-0.9295381079042914,0.9186380807032407,1.395121668852879,,NaN,NaN,NaN,NaN,NaN,NaN,NaN,,-0.14359696420783347,-0.3043025184083414,0.08569297308,0.04710034042531559,,1.937151e-06,-1.1920929e-07,1.7881393e-06,1.0000001,2.1066517e-05,1.1220574e-05,-2.105534e-05,0.99999994,1.8775463e-06,-1.1242926e-05,-1.8775463e-06,1.0
1.7249063809867948,17:25:09.576542,NaN,0,,0.09496771,0.0028449744,0.041277677,-0.2935983,0.9260032,0.23731473,0.689335,0.03309507,0.72368634,0.6622818,0.3760624,-0.64804304,,NaN,NaN,NaN,NaN,NaN,NaN,NaN,NaN,NaN,NaN,NaN,NaN,,0.15350431,1.2979759,0.50781316,0.9959319,-0.00081278104,-0.09010532,-0.042982433,-0.8831499,-0.4671175,-0.07919683,0.46909016,-0.8795921,,-0.06440082,0.15713632,-0.12760028,0.21090622,-0.9628179,-0.16882011,0.9361964,0.14928165,0.3182002,-0.2811671,-0.22515917,0.93287104,,NaN,NaN,NaN,NaN,NaN,NaN,NaN,NaN,NaN,NaN,NaN,NaN,,0.5317719402533513,-0.4681675123012382,0.16429827605000002,-4.376438810465507,-0.9295381079042914,0.9186380807032407,1.395121668852879,,NaN,NaN,NaN,NaN,NaN,NaN,NaN,,-0.14359696420783347,-0.3043025184083414,0.08569297308,0.04710034042531559,,1.937151e-06,-1.1920929e-07,1.7881393e-06,1.0000001,2.1066517e-05,1.1220574e-05,-2.105534e-05,0.99999994,1.8775463e-06,-1.1242926e-05,-1.8775463e-06,1.0
1.7448521129554138,17:25:09.591875,NaN,0,,0.09496771,0.0028449744,0.041277677,-0.2935983,0.9260032,0.23731473,0.689335,0.03309507,0.72368634,0.6622818,0.3760624,-0.64804304,,NaN,NaN,NaN,NaN,NaN,NaN,NaN,NaN,NaN,NaN,NaN,NaN,,0.15350431,1.2979759,0.50781316,0.9959319,-0.00081278104,-0.09010532,-0.042982433,-0.8831499,-0.4671175,-0.07919683,0.46909016,-0.8795921,,-0.06440082,0.15713632,-0.12760028,0.21090622,-0.9628179,-0.16882011,0.9361964,0.14928165,0.3182002,-0.2811671,-0.22515917,0.93287104,,NaN,NaN,NaN,NaN,NaN,NaN,NaN,NaN,NaN,NaN,NaN,NaN,,0.5317796629862255,-0.4681675123012382,0.16429827605000002,-4.376438810465507,-0.9295381079042914,0.9186380807032407,1.395121668852879,,NaN,NaN,NaN,NaN,NaN,NaN,NaN,,-0.14359696420783347,-0.3043025184083414,0.08569297308,0.04710034042531559,,1.937151e-06,-1.1920929e-07,1.7881393e-06,1.0000001,2.1066517e-05,1.1220574e-05,-2.105534e-05,0.99999994,1.8775463e-06,-1.1242926e-05,-1.8775463e-06,1.0
1.7602313830284402,17:25:09.609391,NaN,0,,0.09496771,0.0028449744,0.041277677,-0.2935983,0.9260032,0.23731473,0.689335,0.03309507,0.72368634,0.6622818,0.3760624,-0.64804304,,NaN,NaN,NaN,NaN,NaN,NaN,NaN,NaN,NaN,NaN,NaN,NaN,,0.15350431,1.2979759,0.50781316,0.9959319,-0.00081278104,-0.09010532,-0.042982433,-0.8831499,-0.4671175,-0.07919683,0.46909016,-0.8795921,,-0.06440082,0.15713632,-0.12760028,0.21090622,-0.9628179,-0.16882011,0.9361964,0.14928165,0.3182002,-0.2811671,-0.22515917,0.93287104,,NaN,NaN,NaN,NaN,NaN,NaN,NaN,NaN,NaN,NaN,NaN,NaN,,0.5317796629862255,-0.4681675123012382,0.16429827605000002,-4.376438810465507,-0.9295381079042914,0.9186380807032407,1.395121668852879,,NaN,NaN,NaN,NaN,NaN,NaN,NaN,,-0.14359696420783347,-0.3043025184083414,0.08569297308,0.04710034042531559,,1.937151e-06,-1.1920929e-07,1.7881393e-06,1.0000001,2.1066517e-05,1.1220574e-05,-2.105534e-05,0.99999994,1.8775463e-06,-1.1242926e-05,-1.8775463e-06,1.0
1.777748391032219,17:25:09.625913,NaN,0,,0.09496771,0.0028449744,0.041277677,-0.2935983,0.9260032,0.23731473,0.689335,0.03309507,0.72368634,0.6622818,0.3760624,-0.64804304,,NaN,NaN,NaN,NaN,NaN,NaN,NaN,NaN,NaN,NaN,NaN,NaN,,0.15350431,1.2979759,0.50781316,0.9959319,-0.00081278104,-0.09010532,-0.042982433,-0.8831499,-0.4671175,-0.07919683,0.46909016,-0.8795921,,-0.06440082,0.15713632,-0.12760028,0.21090622,-0.9628179,-0.16882011,0.9361964,0.14928165,0.3182002,-0.2811671,-0.22515917,0.93287104,,NaN,NaN,NaN,NaN,NaN,NaN,NaN,NaN,NaN,NaN,NaN,NaN,,0.5317796629862255,-0.4681675123012382,0.16429827605000002,-4.376438810465507,-0.9295381079042914,0.9186380807032407,1.395121668852879,,NaN,NaN,NaN,NaN,NaN,NaN,NaN,,-0.14359696420783347,-0.3043025184083414,0.08569297308,0.04710034042531559,,1.937151e-06,-1.1920929e-07,1.7881393e-06,1.0000001,2.1066517e-05,1.1220574e-05,-2.105534e-05,0.99999994,1.8775463e-06,-1.1242926e-05,-1.8775463e-06,1.0
1.7942731559742242,17:25:09.645195,NaN,0,,0.09496771,0.0028449744,0.041277677,-0.2935983,0.9260032,0.23731473,0.689335,0.03309507,0.72368634,0.6622818,0.3760624,-0.64804304,,NaN,NaN,NaN,NaN,NaN,NaN,NaN,NaN,NaN,NaN,NaN,NaN,,0.15350431,1.2979759,0.50781316,0.9959319,-0.00081278104,-0.09010532,-0.042982433,-0.8831499,-0.4671175,-0.07919683,0.46909016,-0.8795921,,-0.06440082,0.15713632,-0.12760028,0.21090622,-0.9628179,-0.16882011,0.9361964,0.14928165,0.3182002,-0.2811671,-0.22515917,0.93287104,,NaN,NaN,NaN,NaN,NaN,NaN,NaN,NaN,NaN,NaN,NaN,NaN,,0.5317796629862255,-0.4681675123012382,0.16429827605000002,-4.376438810465507,-0.9295381079042914,0.9186380807032407,1.395121668852879,,NaN,NaN,NaN,NaN,NaN,NaN,NaN,,-0.14359696420783347,-0.3043025184083414,0.08569297308,0.04710034042531559,,1.937151e-06,-1.1920929e-07,1.7881393e-06,1.0000001,2.1066517e-05,1.1220574e-05,-2.105534e-05,0.99999994,1.8775463e-06,-1.1242926e-05,-1.8775463e-06,1.0
1.8108733929693699,17:25:09.660782,NaN,0,,0.09496771,0.0028449744,0.041277677,-0.2935983,0.9260032,0.23731473,0.689335,0.03309507,0.72368634,0.6622818,0.3760624,-0.64804304,,NaN,NaN,NaN,NaN,NaN,NaN,NaN,NaN,NaN,NaN,NaN,NaN,,0.15350431,1.2979759,0.50781316,0.9959319,-0.00081278104,-0.09010532,-0.042982433,-0.8831499,-0.4671175,-0.07919683,0.46909016,-0.8795921,,-0.06440082,0.15713632,-0.12760028,0.21090622,-0.9628179,-0.16882011,0.9361964,0.14928165,0.3182002,-0.2811671,-0.22515917,0.93287104,,NaN,NaN,NaN,NaN,NaN,NaN,NaN,NaN,NaN,NaN,NaN,NaN,,0.5317796629862255,-0.4681675123012382,0.16429827605000002,-4.376438810465507,-0.9295381079042914,0.9186380807032407,1.395121668852879,,NaN,NaN,NaN,NaN,NaN,NaN,NaN,,-0.14359696420783347,-0.3043025184083414,0.08569297308,0.04710034042531559,,1.937151e-06,-1.1920929e-07,1.7881393e-06,1.0000001,2.1066517e-05,1.1220574e-05,-2.105534e-05,0.99999994,1.8775463e-06,-1.1242926e-05,-1.8775463e-06,1.0
1.8291193400509655,17:25:09.679011,NaN,0,,0.09496771,0.0028449744,0.041277677,-0.2935983,0.9260032,0.23731473,0.689335,0.03309507,0.72368634,0.6622818,0.3760624,-0.64804304,,NaN,NaN,NaN,NaN,NaN,NaN,NaN,NaN,NaN,NaN,NaN,NaN,,0.15350431,1.2979759,0.50781316,0.9959319,-0.00081278104,-0.09010532,-0.042982433,-0.8831499,-0.4671175,-0.07919683,0.46909016,-0.8795921,,-0.06440082,0.15713632,-0.12760028,0.21090622,-0.9628179,-0.16882011,0.9361964,0.14928165,0.3182002,-0.2811671,-0.22515917,0.93287104,,NaN,NaN,NaN,NaN,NaN,NaN,NaN,NaN,NaN,NaN,NaN,NaN,,0.5317719402533513,-0.4681675123012382,0.16429827605000002,-4.376438810465507,-0.9295381079042914,0.9186380807032407,1.395121668852879,,NaN,NaN,NaN,NaN,NaN,NaN,NaN,,-0.14359696420783347,-0.3043025184083414,0.08569297308,0.04710034042531559,,1.937151e-06,-1.1920929e-07,1.7881393e-06,1.0000001,2.1066517e-05,1.1220574e-05,-2.105534e-05,0.99999994,1.8775463e-06,-1.1242926e-05,-1.8775463e-06,1.0
1.8473732999991626,17:25:09.697282,NaN,0,,0.09496771,0.0028449744,0.041277677,-0.2935983,0.9260032,0.23731473,0.689335,0.03309507,0.72368634,0.6622818,0.3760624,-0.64804304,,NaN,NaN,NaN,NaN,NaN,NaN,NaN,NaN,NaN,NaN,NaN,NaN,,0.15350431,1.2979759,0.50781316,0.9959319,-0.00081278104,-0.09010532,-0.042982433,-0.8831499,-0.4671175,-0.07919683,0.46909016,-0.8795921,,-0.06440082,0.15713632,-0.12760028,0.21090622,-0.9628179,-0.16882011,0.9361964,0.14928165,0.3182002,-0.2811671,-0.22515917,0.93287104,,NaN,NaN,NaN,NaN,NaN,NaN,NaN,NaN,NaN,NaN,NaN,NaN,,0.5317796629862255,-0.4681675123012382,0.16429827605000002,-4.376438810465507,-0.9295381079042914,0.9186380807032407,1.395121668852879,,NaN,NaN,NaN,NaN,NaN,NaN,NaN,,-0.14359696420783347,-0.3043025184083414,0.08569297308,0.04710034042531559,,1.937151e-06,-1.1920929e-07,1.7881393e-06,1.0000001,2.1066517e-05,1.1220574e-05,-2.105534e-05,0.99999994,1.8775463e-06,-1.1242926e-05,-1.8775463e-06,1.0
1.865625404054299,17:25:09.719575,NaN,0,,0.09496771,0.0028449744,0.041277677,-0.2935983,0.9260032,0.23731473,0.689335,0.03309507,0.72368634,0.6622818,0.3760624,-0.64804304,,NaN,NaN,NaN,NaN,NaN,NaN,NaN,NaN,NaN,NaN,NaN,NaN,,0.15350431,1.2979759,0.50781316,0.9959319,-0.00081278104,-0.09010532,-0.042982433,-0.8831499,-0.4671175,-0.07919683,0.46909016,-0.8795921,,-0.06440082,0.15713632,-0.12760028,0.21090622,-0.9628179,-0.16882011,0.9361964,0.14928165,0.3182002,-0.2811671,-0.22515917,0.93287104,,NaN,NaN,NaN,NaN,NaN,NaN,NaN,NaN,NaN,NaN,NaN,NaN,,0.5317796629862255,-0.4681675123012382,0.16429827605000002,-4.376438810465507,-0.9295381079042914,0.9186380807032407,1.395121668852879,,NaN,NaN,NaN,NaN,NaN,NaN,NaN,,-0.14359696420783347,-0.3043025184083414,0.08569297308,0.04710034042531559,,1.937151e-06,-1.1920929e-07,1.7881393e-06,1.0000001,2.1066517e-05,1.1220574e-05,-2.105534e-05,0.99999994,1.8775463e-06,-1.1242926e-05,-1.8775463e-06,1.0
1.8879356420366094,17:25:09.733380,NaN,0,,0.09496771,0.0028449744,0.041277677,-0.2935983,0.9260032,0.23731473,0.689335,0.03309507,0.72368634,0.6622818,0.3760624,-0.64804304,,NaN,NaN,NaN,NaN,NaN,NaN,NaN,NaN,NaN,NaN,NaN,NaN,,0.15350431,1.2979759,0.50781316,0.9959319,-0.00081278104,-0.09010532,-0.042982433,-0.8831499,-0.4671175,-0.07919683,0.46909016,-0.8795921,,-0.06440082,0.15713632,-0.12760028,0.21090622,-0.9628179,-0.16882011,0.9361964,0.14928165,0.3182002,-0.2811671,-0.22515917,0.93287104,,NaN,NaN,NaN,NaN,NaN,NaN,NaN,NaN,NaN,NaN,NaN,NaN,,0.5317796629862255,-0.4681675123012382,0.16429827605000002,-4.376438810465507,-0.9295381079042914,0.9186380807032407,1.395121668852879,,NaN,NaN,NaN,NaN,NaN,NaN,NaN,,-0.14359696420783347,-0.3043025184083414,0.08569297308,0.04710034042531559,,1.937151e-06,-1.1920929e-07,1.7881393e-06,1.0000001,2.1066517e-05,1.1220574e-05,-2.105534e-05,0.99999994,1.8775463e-06,-1.1242926e-05,-1.8775463e-06,1.0
1.9017174770124257,17:25:09.756642,NaN,0,,0.09496771,0.0028449744,0.041277677,-0.2935983,0.9260032,0.23731473,0.689335,0.03309507,0.72368634,0.6622818,0.3760624,-0.64804304,,NaN,NaN,NaN,NaN,NaN,NaN,NaN,NaN,NaN,NaN,NaN,NaN,,0.15350431,1.2979759,0.50781316,0.9959319,-0.00081278104,-0.09010532,-0.042982433,-0.8831499,-0.4671175,-0.07919683,0.46909016,-0.8795921,,-0.06440082,0.15713632,-0.12760028,0.21090622,-0.9628179,-0.16882011,0.9361964,0.14928165,0.3182002,-0.2811671,-0.22515917,0.93287104,,NaN,NaN,NaN,NaN,NaN,NaN,NaN,NaN,NaN,NaN,NaN,NaN,,0.5317796629862255,-0.4681675123012382,0.16429827605000002,-4.376438810465507,-0.9295381079042914,0.9186380807032407,1.395121668852879,,NaN,NaN,NaN,NaN,NaN,NaN,NaN,,-0.14359696420783347,-0.3043025184083414,0.08569297308,0.04710034042531559,,1.937151e-06,-1.1920929e-07,1.7881393e-06,1.0000001,2.1066517e-05,1.1220574e-05,-2.105534e-05,0.99999994,1.8775463e-06,-1.1242926e-05,-1.8775463e-06,1.0
1.9249988630181178,17:25:09.777169,NaN,0,,0.09496771,0.0028449744,0.041277677,-0.2935983,0.9260032,0.23731473,0.689335,0.03309507,0.72368634,0.6622818,0.3760624,-0.64804304,,NaN,NaN,NaN,NaN,NaN,NaN,NaN,NaN,NaN,NaN,NaN,NaN,,0.15350431,1.2979759,0.50781316,0.9959319,-0.00081278104,-0.09010532,-0.042982433,-0.8831499,-0.4671175,-0.07919683,0.46909016,-0.8795921,,-0.06440082,0.15713632,-0.12760028,0.21090622,-0.9628179,-0.16882011,0.9361964,0.14928165,0.3182002,-0.2811671,-0.22515917,0.93287104,,NaN,NaN,NaN,NaN,NaN,NaN,NaN,NaN,NaN,NaN,NaN,NaN,,0.5317796629862255,-0.4681675123012382,0.16429827605000002,-4.376438810465507,-0.9295381079042914,0.9186380807032407,1.395121668852879,,NaN,NaN,NaN,NaN,NaN,NaN,NaN,,-0.14359696420783347,-0.3043025184083414,0.08569297308,0.04710034042531559,,1.937151e-06,-1.1920929e-07,1.7881393e-06,1.0000001,2.1066517e-05,1.1220574e-05,-2.105534e-05,0.99999994,1.8775463e-06,-1.1242926e-05,-1.8775463e-06,1.0
1.945480823982507,17:25:09.792236,NaN,0,,0.09496771,0.0028449744,0.041277677,-0.2935983,0.9260032,0.23731473,0.689335,0.03309507,0.72368634,0.6622818,0.3760624,-0.64804304,,NaN,NaN,NaN,NaN,NaN,NaN,NaN,NaN,NaN,NaN,NaN,NaN,,0.15350431,1.2979759,0.50781316,0.9959319,-0.00081278104,-0.09010532,-0.042982433,-0.8831499,-0.4671175,-0.07919683,0.46909016,-0.8795921,,-0.06440082,0.15713632,-0.12760028,0.21090622,-0.9628179,-0.16882011,0.9361964,0.14928165,0.3182002,-0.2811671,-0.22515917,0.93287104,,NaN,NaN,NaN,NaN,NaN,NaN,NaN,NaN,NaN,NaN,NaN,NaN,,0.5317796629862255,-0.4681675123012382,0.16429827605000002,-4.376438810465507,-0.9295381079042914,0.9186380807032407,1.395121668852879,,NaN,NaN,NaN,NaN,NaN,NaN,NaN,,-0.14359696420783347,-0.3043025184083414,0.08569297308,0.04710034042531559,,1.937151e-06,-1.1920929e-07,1.7881393e-06,1.0000001,2.1066517e-05,1.1220574e-05,-2.105534e-05,0.99999994,1.8775463e-06,-1.1242926e-05,-1.8775463e-06,1.0
1.9605809419881552,17:25:09.811384,NaN,0,,0.09496771,0.0028449744,0.041277677,-0.2935983,0.9260032,0.23731473,0.689335,0.03309507,0.72368634,0.6622818,0.3760624,-0.64804304,,NaN,NaN,NaN,NaN,NaN,NaN,NaN,NaN,NaN,NaN,NaN,NaN,,0.15350431,1.2979759,0.50781316,0.9959319,-0.00081278104,-0.09010532,-0.042982433,-0.8831499,-0.4671175,-0.07919683,0.46909016,-0.8795921,,-0.06440082,0.15713632,-0.12760028,0.21090622,-0.9628179,-0.16882011,0.9361964,0.14928165,0.3182002,-0.2811671,-0.22515917,0.93287104,,NaN,NaN,NaN,NaN,NaN,NaN,NaN,NaN,NaN,NaN,NaN,NaN,,0.5317796629862255,-0.4681675123012382,0.16429827605000002,-4.376438810465507,-0.9295381079042914,0.9185564019631001,1.3952850129190133,,NaN,NaN,NaN,NaN,NaN,NaN,NaN,,-0.14359696420783347,-0.3043025184083414,0.08569297308,0.04710034042531559,,1.937151e-06,-1.1920929e-07,1.7881393e-06,1.0000001,2.1066517e-05,1.1220574e-05,-2.105534e-05,0.99999994,1.8775463e-06,-1.1242926e-05,-1.8775463e-06,1.0
1.9797451259801164,17:25:09.829189,NaN,0,,0.09496771,0.0028449744,0.041277677,-0.2935983,0.9260032,0.23731473,0.689335,0.03309507,0.72368634,0.6622818,0.3760624,-0.64804304,,NaN,NaN,NaN,NaN,NaN,NaN,NaN,NaN,NaN,NaN,NaN,NaN,,0.15350431,1.2979759,0.50781316,0.9959319,-0.00081278104,-0.09010532,-0.042982433,-0.8831499,-0.4671175,-0.07919683,0.46909016,-0.8795921,,-0.06440082,0.15713632,-0.12760028,0.21090622,-0.9628179,-0.16882011,0.9361964,0.14928165,0.3182002,-0.2811671,-0.22515917,0.93287104,,NaN,NaN,NaN,NaN,NaN,NaN,NaN,NaN,NaN,NaN,NaN,NaN,,0.5317796629862255,-0.4681675123012382,0.16429827605000002,-4.376438810465507,-0.9295381079042914,0.9184747232229595,1.3954483569851475,,NaN,NaN,NaN,NaN,NaN,NaN,NaN,,-0.14359696420783347,-0.3043025184083414,0.08569297308,0.04710034042531559,,1.937151e-06,-1.1920929e-07,1.7881393e-06,1.0000001,2.1066517e-05,1.1220574e-05,-2.105534e-05,0.99999994,1.8775463e-06,-1.1242926e-05,-1.8775463e-06,1.0
1.997549418010749,17:25:09.851570,NaN,0,,0.09496771,0.0028449744,0.041277677,-0.2935983,0.9260032,0.23731473,0.689335,0.03309507,0.72368634,0.6622818,0.3760624,-0.64804304,,NaN,NaN,NaN,NaN,NaN,NaN,NaN,NaN,NaN,NaN,NaN,NaN,,0.15350431,1.2979759,0.50781316,0.9959319,-0.00081278104,-0.09010532,-0.042982433,-0.8831499,-0.4671175,-0.07919683,0.46909016,-0.8795921,,-0.06440082,0.15713632,-0.12760028,0.21090622,-0.9628179,-0.16882011,0.9361964,0.14928165,0.3182002,-0.2811671,-0.22515917,0.93287104,,NaN,NaN,NaN,NaN,NaN,NaN,NaN,NaN,NaN,NaN,NaN,NaN,,0.5317719402533513,-0.4681675123012382,0.16429827605000002,-4.376438810465507,-0.9295381079042914,0.9184747232229595,1.3954483569851475,,NaN,NaN,NaN,NaN,NaN,NaN,NaN,,-0.14359696420783347,-0.3043025184083414,0.08569297308,0.04710034042531559,,1.937151e-06,-1.1920929e-07,1.7881393e-06,1.0000001,2.1066517e-05,1.1220574e-05,-2.105534e-05,0.99999994,1.8775463e-06,-1.1242926e-05,-1.8775463e-06,1.0
2.0199291900498793,17:25:09.862127,NaN,0,,0.09496771,0.0028449744,0.041277677,-0.2935983,0.9260032,0.23731473,0.689335,0.03309507,0.72368634,0.6622818,0.3760624,-0.64804304,,NaN,NaN,NaN,NaN,NaN,NaN,NaN,NaN,NaN,NaN,NaN,NaN,,0.15350431,1.2979759,0.50781316,0.9959319,-0.00081278104,-0.09010532,-0.042982433,-0.8831499,-0.4671175,-0.07919683,0.46909016,-0.8795921,,-0.06440082,0.15713632,-0.12760028,0.21090622,-0.9628179,-0.16882011,0.9361964,0.14928165,0.3182002,-0.2811671,-0.22515917,0.93287104,,NaN,NaN,NaN,NaN,NaN,NaN,NaN,NaN,NaN,NaN,NaN,NaN,,0.5317642175204771,-0.4681675123012382,0.16429827605000002,-4.376438810465507,-0.9295381079042914,0.9184747232229595,1.3954483569851475,,NaN,NaN,NaN,NaN,NaN,NaN,NaN,,-0.14359696420783347,-0.3043025184083414,0.08569297308,0.04710034042531559,,1.937151e-06,-1.1920929e-07,1.7881393e-06,1.0000001,2.1066517e-05,1.1220574e-05,-2.105534e-05,0.99999994,1.8775463e-06,-1.1242926e-05,-1.8775463e-06,1.0
2.030489220051095,17:25:09.884734,NaN,0,,0.09496771,0.0028449744,0.041277677,-0.2935983,0.9260032,0.23731473,0.689335,0.03309507,0.72368634,0.6622818,0.3760624,-0.64804304,,NaN,NaN,NaN,NaN,NaN,NaN,NaN,NaN,NaN,NaN,NaN,NaN,,0.15350431,1.2979759,0.50781316,0.9959319,-0.00081278104,-0.09010532,-0.042982433,-0.8831499,-0.4671175,-0.07919683,0.46909016,-0.8795921,,-0.06440082,0.15713632,-0.12760028,0.21090622,-0.9628179,-0.16882011,0.9361964,0.14928165,0.3182002,-0.2811671,-0.22515917,0.93287104,,NaN,NaN,NaN,NaN,NaN,NaN,NaN,NaN,NaN,NaN,NaN,NaN,,0.5317719402533513,-0.4681675123012382,0.16429827605000002,-4.376438810465507,-0.9295381079042914,0.9184747232229595,1.3954483569851475,,NaN,NaN,NaN,NaN,NaN,NaN,NaN,,-0.14359696420783347,-0.3043025184083414,0.08569297308,0.04710034042531559,,1.937151e-06,-1.1920929e-07,1.7881393e-06,1.0000001,2.1066517e-05,1.1220574e-05,-2.105534e-05,0.99999994,1.8775463e-06,-1.1242926e-05,-1.8775463e-06,1.0
2.053062067949213,17:25:09.894772,NaN,0,,0.09496771,0.0028449744,0.041277677,-0.2935983,0.9260032,0.23731473,0.689335,0.03309507,0.72368634,0.6622818,0.3760624,-0.64804304,,NaN,NaN,NaN,NaN,NaN,NaN,NaN,NaN,NaN,NaN,NaN,NaN,,0.15350431,1.2979759,0.50781316,0.9959319,-0.00081278104,-0.09010532,-0.042982433,-0.8831499,-0.4671175,-0.07919683,0.46909016,-0.8795921,,-0.06440082,0.15713632,-0.12760028,0.21090622,-0.9628179,-0.16882011,0.9361964,0.14928165,0.3182002,-0.2811671,-0.22515917,0.93287104,,NaN,NaN,NaN,NaN,NaN,NaN,NaN,NaN,NaN,NaN,NaN,NaN,,0.5317719402533513,-0.4681675123012382,0.16429827605000002,-4.376438810465507,-0.9295381079042914,0.9184747232229595,1.3954483569851475,,NaN,NaN,NaN,NaN,NaN,NaN,NaN,,-0.14359696420783347,-0.3043025184083414,0.08569297308,0.04710034042531559,,1.937151e-06,-1.1920929e-07,1.7881393e-06,1.0000001,2.1066517e-05,1.1220574e-05,-2.105534e-05,0.99999994,1.8775463e-06,-1.1242926e-05,-1.8775463e-06,1.0
2.0631299529923126,17:25:09.913632,NaN,0,,0.09496771,0.0028449744,0.041277677,-0.2935983,0.9260032,0.23731473,0.689335,0.03309507,0.72368634,0.6622818,0.3760624,-0.64804304,,NaN,NaN,NaN,NaN,NaN,NaN,NaN,NaN,NaN,NaN,NaN,NaN,,0.15350431,1.2979759,0.50781316,0.9959319,-0.00081278104,-0.09010532,-0.042982433,-0.8831499,-0.4671175,-0.07919683,0.46909016,-0.8795921,,-0.06440082,0.15713632,-0.12760028,0.21090622,-0.9628179,-0.16882011,0.9361964,0.14928165,0.3182002,-0.2811671,-0.22515917,0.93287104,,NaN,NaN,NaN,NaN,NaN,NaN,NaN,NaN,NaN,NaN,NaN,NaN,,0.5317796629862255,-0.4681675123012382,0.16429827605000002,-4.376438810465507,-0.9295381079042914,0.9184747232229595,1.3954483569851475,,NaN,NaN,NaN,NaN,NaN,NaN,NaN,,-0.14359696420783347,-0.3043025184083414,0.08569297308,0.04710034042531559,,1.937151e-06,-1.1920929e-07,1.7881393e-06,1.0000001,2.1066517e-05,1.1220574e-05,-2.105534e-05,0.99999994,1.8775463e-06,-1.1242926e-05,-1.8775463e-06,1.0
2.081973889027722,17:25:09.934112,NaN,0,,0.09496771,0.0028449744,0.041277677,-0.2935983,0.9260032,0.23731473,0.689335,0.03309507,0.72368634,0.6622818,0.3760624,-0.64804304,,NaN,NaN,NaN,NaN,NaN,NaN,NaN,NaN,NaN,NaN,NaN,NaN,,0.15350431,1.2979759,0.50781316,0.9959319,-0.00081278104,-0.09010532,-0.042982433,-0.8831499,-0.4671175,-0.07919683,0.46909016,-0.8795921,,-0.06440082,0.15713632,-0.12760028,0.21090622,-0.9628179,-0.16882011,0.9361964,0.14928165,0.3182002,-0.2811671,-0.22515917,0.93287104,,NaN,NaN,NaN,NaN,NaN,NaN,NaN,NaN,NaN,NaN,NaN,NaN,,0.5317796629862255,-0.4681675123012382,0.16429827605000002,-4.376438810465507,-0.9295381079042914,0.9184747232229595,1.3954483569851475,,NaN,NaN,NaN,NaN,NaN,NaN,NaN,,-0.14359696420783347,-0.3043025184083414,0.08569297308,0.04710034042531559,,1.937151e-06,-1.1920929e-07,1.7881393e-06,1.0000001,2.1066517e-05,1.1220574e-05,-2.105534e-05,0.99999994,1.8775463e-06,-1.1242926e-05,-1.8775463e-06,1.0
2.102430660976097,17:25:09.956304,NaN,0,,0.09496771,0.0028449744,0.041277677,-0.2935983,0.9260032,0.23731473,0.689335,0.03309507,0.72368634,0.6622818,0.3760624,-0.64804304,,NaN,NaN,NaN,NaN,NaN,NaN,NaN,NaN,NaN,NaN,NaN,NaN,,0.15350431,1.2979759,0.50781316,0.9959319,-0.00081278104,-0.09010532,-0.042982433,-0.8831499,-0.4671175,-0.07919683,0.46909016,-0.8795921,,-0.06440082,0.15713632,-0.12760028,0.21090622,-0.9628179,-0.16882011,0.9361964,0.14928165,0.3182002,-0.2811671,-0.22515917,0.93287104,,NaN,NaN,NaN,NaN,NaN,NaN,NaN,NaN,NaN,NaN,NaN,NaN,,0.5317796629862255,-0.4681675123012382,0.16429827605000002,-4.376438810465507,-0.9295381079042914,0.9184747232229595,1.3954483569851475,,NaN,NaN,NaN,NaN,NaN,NaN,NaN,,-0.14359696420783347,-0.3043025184083414,0.08569297308,0.04710034042531559,,1.937151e-06,-1.1920929e-07,1.7881393e-06,1.0000001,2.1066517e-05,1.1220574e-05,-2.105534e-05,0.99999994,1.8775463e-06,-1.1242926e-05,-1.8775463e-06,1.0
2.1246646239887923,17:25:09.979253,NaN,0,,0.09496771,0.0028449744,0.041277677,-0.2935983,0.9260032,0.23731473,0.689335,0.03309507,0.72368634,0.6622818,0.3760624,-0.64804304,,NaN,NaN,NaN,NaN,NaN,NaN,NaN,NaN,NaN,NaN,NaN,NaN,,0.15350431,1.2979759,0.50781316,0.9959319,-0.00081278104,-0.09010532,-0.042982433,-0.8831499,-0.4671175,-0.07919683,0.46909016,-0.8795921,,-0.06440082,0.15713632,-0.12760028,0.21090622,-0.9628179,-0.16882011,0.9361964,0.14928165,0.3182002,-0.2811671,-0.22515917,0.93287104,,NaN,NaN,NaN,NaN,NaN,NaN,NaN,NaN,NaN,NaN,NaN,NaN,,0.5317796629862255,-0.4681675123012382,0.16429827605000002,-4.376438810465507,-0.9295381079042914,0.9184747232229595,1.3954483569851475,,NaN,NaN,NaN,NaN,NaN,NaN,NaN,,-0.14359696420783347,-0.3043025184083414,0.08569297308,0.04710034042531559,,1.937151e-06,-1.1920929e-07,1.7881393e-06,1.0000001,2.1066517e-05,1.1220574e-05,-2.105534e-05,0.99999994,1.8775463e-06,-1.1242926e-05,-1.8775463e-06,1.0
2.1476129159564152,17:25:09.996089,NaN,0,,0.09496771,0.0028449744,0.041277677,-0.2935983,0.9260032,0.23731473,0.689335,0.03309507,0.72368634,0.6622818,0.3760624,-0.64804304,,NaN,NaN,NaN,NaN,NaN,NaN,NaN,NaN,NaN,NaN,NaN,NaN,,0.15350431,1.2979759,0.50781316,0.9959319,-0.00081278104,-0.09010532,-0.042982433,-0.8831499,-0.4671175,-0.07919683,0.46909016,-0.8795921,,-0.06440082,0.15713632,-0.12760028,0.21090622,-0.9628179,-0.16882011,0.9361964,0.14928165,0.3182002,-0.2811671,-0.22515917,0.93287104,,NaN,NaN,NaN,NaN,NaN,NaN,NaN,NaN,NaN,NaN,NaN,NaN,,0.5317719402533513,-0.4681675123012382,0.16429827605000002,-4.376438810465507,-0.9295381079042914,0.9184747232229595,1.3954483569851475,,NaN,NaN,NaN,NaN,NaN,NaN,NaN,,-0.14359696420783347,-0.3043025184083414,0.08569297308,0.04710034042531559,,1.937151e-06,-1.1920929e-07,1.7881393e-06,1.0000001,2.1066517e-05,1.1220574e-05,-2.105534e-05,0.99999994,1.8775463e-06,-1.1242926e-05,-1.8775463e-06,1.0
2.1644511070335284,17:25:10.016744,NaN,0,,0.09496771,0.0028449744,0.041277677,-0.2935983,0.9260032,0.23731473,0.689335,0.03309507,0.72368634,0.6622818,0.3760624,-0.64804304,,NaN,NaN,NaN,NaN,NaN,NaN,NaN,NaN,NaN,NaN,NaN,NaN,,0.15350431,1.2979759,0.50781316,0.9959319,-0.00081278104,-0.09010532,-0.042982433,-0.8831499,-0.4671175,-0.07919683,0.46909016,-0.8795921,,-0.06440082,0.15713632,-0.12760028,0.21090622,-0.9628179,-0.16882011,0.9361964,0.14928165,0.3182002,-0.2811671,-0.22515917,0.93287104,,NaN,NaN,NaN,NaN,NaN,NaN,NaN,NaN,NaN,NaN,NaN,NaN,,0.5317719402533513,-0.4681675123012382,0.16429827605000002,-4.376438810465507,-0.9295381079042914,0.9184747232229595,1.3954483569851475,,NaN,NaN,NaN,NaN,NaN,NaN,NaN,,-0.14359696420783347,-0.3043025184083414,0.08569297308,0.04710034042531559,,1.937151e-06,-1.1920929e-07,1.7881393e-06,1.0000001,2.1066517e-05,1.1220574e-05,-2.105534e-05,0.99999994,1.8775463e-06,-1.1242926e-05,-1.8775463e-06,1.0
2.185091570019722,17:25:10.032617,NaN,0,,0.09496771,0.0028449744,0.041277677,-0.2935983,0.9260032,0.23731473,0.689335,0.03309507,0.72368634,0.6622818,0.3760624,-0.64804304,,NaN,NaN,NaN,NaN,NaN,NaN,NaN,NaN,NaN,NaN,NaN,NaN,,0.15350431,1.2979759,0.50781316,0.9959319,-0.00081278104,-0.09010532,-0.042982433,-0.8831499,-0.4671175,-0.07919683,0.46909016,-0.8795921,,-0.06440082,0.15713632,-0.12760028,0.21090622,-0.9628179,-0.16882011,0.9361964,0.14928165,0.3182002,-0.2811671,-0.22515917,0.93287104,,NaN,NaN,NaN,NaN,NaN,NaN,NaN,NaN,NaN,NaN,NaN,NaN,,0.5317719402533513,-0.4681675123012382,0.16429827605000002,-4.376438810465507,-0.9295381079042914,0.9184747232229595,1.3954483569851475,,NaN,NaN,NaN,NaN,NaN,NaN,NaN,,-0.14359696420783347,-0.3043025184083414,0.08569297308,0.04710034042531559,,1.937151e-06,-1.1920929e-07,1.7881393e-06,1.0000001,2.1066517e-05,1.1220574e-05,-2.105534e-05,0.99999994,1.8775463e-06,-1.1242926e-05,-1.8775463e-06,1.0
2.2009095209650695,17:25:10.053901,NaN,0,,0.09496771,0.0028449744,0.041277677,-0.2935983,0.9260032,0.23731473,0.689335,0.03309507,0.72368634,0.6622818,0.3760624,-0.64804304,,NaN,NaN,NaN,NaN,NaN,NaN,NaN,NaN,NaN,NaN,NaN,NaN,,0.15350431,1.2979759,0.50781316,0.9959319,-0.00081278104,-0.09010532,-0.042982433,-0.8831499,-0.4671175,-0.07919683,0.46909016,-0.8795921,,-0.06440082,0.15713632,-0.12760028,0.21090622,-0.9628179,-0.16882011,0.9361964,0.14928165,0.3182002,-0.2811671,-0.22515917,0.93287104,,NaN,NaN,NaN,NaN,NaN,NaN,NaN,NaN,NaN,NaN,NaN,NaN,,0.5317796629862255,-0.4681675123012382,0.16429827605000002,-4.376438810465507,-0.9295381079042914,0.9184747232229595,1.3954483569851475,,NaN,NaN,NaN,NaN,NaN,NaN,NaN,,-0.14359696420783347,-0.3043025184083414,0.08569297308,0.04710034042531559,,1.937151e-06,-1.1920929e-07,1.7881393e-06,1.0000001,2.1066517e-05,1.1220574e-05,-2.105534e-05,0.99999994,1.8775463e-06,-1.1242926e-05,-1.8775463e-06,1.0
2.221693516941741,17:25:10.071488,NaN,0,,0.09496771,0.0028449744,0.041277677,-0.2935983,0.9260032,0.23731473,0.689335,0.03309507,0.72368634,0.6622818,0.3760624,-0.64804304,,NaN,NaN,NaN,NaN,NaN,NaN,NaN,NaN,NaN,NaN,NaN,NaN,,0.15350431,1.2979759,0.50781316,0.9959319,-0.00081278104,-0.09010532,-0.042982433,-0.8831499,-0.4671175,-0.07919683,0.46909016,-0.8795921,,-0.06440082,0.15713632,-0.12760028,0.21090622,-0.9628179,-0.16882011,0.9361964,0.14928165,0.3182002,-0.2811671,-0.22515917,0.93287104,,NaN,NaN,NaN,NaN,NaN,NaN,NaN,NaN,NaN,NaN,NaN,NaN,,0.5317796629862255,-0.4681675123012382,0.16429827605000002,-4.376438810465507,-0.9295381079042914,0.9184747232229595,1.3954483569851475,,NaN,NaN,NaN,NaN,NaN,NaN,NaN,,-0.14359696420783347,-0.3043025184083414,0.08569297308,0.04710034042531559,,1.937151e-06,-1.1920929e-07,1.7881393e-06,1.0000001,2.1066517e-05,1.1220574e-05,-2.105534e-05,0.99999994,1.8775463e-06,-1.1242926e-05,-1.8775463e-06,1.0
2.2398215120192617,17:25:10.090789,NaN,0,,0.09496771,0.0028449744,0.041277677,-0.2935983,0.9260032,0.23731473,0.689335,0.03309507,0.72368634,0.6622818,0.3760624,-0.64804304,,NaN,NaN,NaN,NaN,NaN,NaN,NaN,NaN,NaN,NaN,NaN,NaN,,0.15350431,1.2979759,0.50781316,0.9959319,-0.00081278104,-0.09010532,-0.042982433,-0.8831499,-0.4671175,-0.07919683,0.46909016,-0.8795921,,-0.06440082,0.15713632,-0.12760028,0.21090622,-0.9628179,-0.16882011,0.9361964,0.14928165,0.3182002,-0.2811671,-0.22515917,0.93287104,,NaN,NaN,NaN,NaN,NaN,NaN,NaN,NaN,NaN,NaN,NaN,NaN,,0.5317796629862255,-0.4681675123012382,0.16429827605000002,-4.376438810465507,-0.9295381079042914,0.9184747232229595,1.3954483569851475,,NaN,NaN,NaN,NaN,NaN,NaN,NaN,,-0.14359696420783347,-0.3043025184083414,0.08569297308,0.04710034042531559,,1.937151e-06,-1.1920929e-07,1.7881393e-06,1.0000001,2.1066517e-05,1.1220574e-05,-2.105534e-05,0.99999994,1.8775463e-06,-1.1242926e-05,-1.8775463e-06,1.0
2.2591463070129976,17:25:10.109974,NaN,0,,0.09496771,0.0028449744,0.041277677,-0.2935983,0.9260032,0.23731473,0.689335,0.03309507,0.72368634,0.6622818,0.3760624,-0.64804304,,NaN,NaN,NaN,NaN,NaN,NaN,NaN,NaN,NaN,NaN,NaN,NaN,,0.15350431,1.2979759,0.50781316,0.9959319,-0.00081278104,-0.09010532,-0.042982433,-0.8831499,-0.4671175,-0.07919683,0.46909016,-0.8795921,,-0.06440082,0.15713632,-0.12760028,0.21090622,-0.9628179,-0.16882011,0.9361964,0.14928165,0.3182002,-0.2811671,-0.22515917,0.93287104,,NaN,NaN,NaN,NaN,NaN,NaN,NaN,NaN,NaN,NaN,NaN,NaN,,0.5317719402533513,-0.4681675123012382,0.16429827605000002,-4.376438810465507,-0.9295381079042914,0.9184747232229595,1.3954483569851475,,NaN,NaN,NaN,NaN,NaN,NaN,NaN,,-0.14359696420783347,-0.3043025184083414,0.08569297308,0.04710034042531559,,1.937151e-06,-1.1920929e-07,1.7881393e-06,1.0000001,2.1066517e-05,1.1220574e-05,-2.105534e-05,0.99999994,1.8775463e-06,-1.1242926e-05,-1.8775463e-06,1.0
2.2783010950079188,17:25:10.123627,NaN,0,,0.09496771,0.0028449744,0.041277677,-0.2935983,0.9260032,0.23731473,0.689335,0.03309507,0.72368634,0.6622818,0.3760624,-0.64804304,,NaN,NaN,NaN,NaN,NaN,NaN,NaN,NaN,NaN,NaN,NaN,NaN,,0.15350431,1.2979759,0.50781316,0.9959319,-0.00081278104,-0.09010532,-0.042982433,-0.8831499,-0.4671175,-0.07919683,0.46909016,-0.8795921,,-0.06440082,0.15713632,-0.12760028,0.21090622,-0.9628179,-0.16882011,0.9361964,0.14928165,0.3182002,-0.2811671,-0.22515917,0.93287104,,NaN,NaN,NaN,NaN,NaN,NaN,NaN,NaN,NaN,NaN,NaN,NaN,,0.5317796629862255,-0.4681675123012382,0.16429827605000002,-4.376438810465507,-0.9295381079042914,0.9184747232229595,1.3954483569851475,,NaN,NaN,NaN,NaN,NaN,NaN,NaN,,-0.14359696420783347,-0.3043025184083414,0.08569297308,0.04710034042531559,,1.937151e-06,-1.1920929e-07,1.7881393e-06,1.0000001,2.1066517e-05,1.1220574e-05,-2.105534e-05,0.99999994,1.8775463e-06,-1.1242926e-05,-1.8775463e-06,1.0
2.2919870279729366,17:25:10.140668,NaN,0,,0.09496771,0.0028449744,0.041277677,-0.2935983,0.9260032,0.23731473,0.689335,0.03309507,0.72368634,0.6622818,0.3760624,-0.64804304,,NaN,NaN,NaN,NaN,NaN,NaN,NaN,NaN,NaN,NaN,NaN,NaN,,0.15350431,1.2979759,0.50781316,0.9959319,-0.00081278104,-0.09010532,-0.042982433,-0.8831499,-0.4671175,-0.07919683,0.46909016,-0.8795921,,-0.06440082,0.15713632,-0.12760028,0.21090622,-0.9628179,-0.16882011,0.9361964,0.14928165,0.3182002,-0.2811671,-0.22515917,0.93287104,,NaN,NaN,NaN,NaN,NaN,NaN,NaN,NaN,NaN,NaN,NaN,NaN,,0.5317796629862255,-0.4681675123012382,0.16429827605000002,-4.376438810465507,-0.9295381079042914,0.9184747232229595,1.3954483569851475,,NaN,NaN,NaN,NaN,NaN,NaN,NaN,,-0.14359696420783347,-0.3043025184083414,0.08569297308,0.04710034042531559,,1.937151e-06,-1.1920929e-07,1.7881393e-06,1.0000001,2.1066517e-05,1.1220574e-05,-2.105534e-05,0.99999994,1.8775463e-06,-1.1242926e-05,-1.8775463e-06,1.0
2.309028225019574,17:25:10.159742,NaN,0,,0.09496771,0.0028449744,0.041277677,-0.2935983,0.9260032,0.23731473,0.689335,0.03309507,0.72368634,0.6622818,0.3760624,-0.64804304,,NaN,NaN,NaN,NaN,NaN,NaN,NaN,NaN,NaN,NaN,NaN,NaN,,0.15350431,1.2979759,0.50781316,0.9959319,-0.00081278104,-0.09010532,-0.042982433,-0.8831499,-0.4671175,-0.07919683,0.46909016,-0.8795921,,-0.06440082,0.15713632,-0.12760028,0.21090622,-0.9628179,-0.16882011,0.9361964,0.14928165,0.3182002,-0.2811671,-0.22515917,0.93287104,,NaN,NaN,NaN,NaN,NaN,NaN,NaN,NaN,NaN,NaN,NaN,NaN,,0.5317796629862255,-0.4681675123012382,0.16429827605000002,-4.376438810465507,-0.9295381079042914,0.9184747232229595,1.3954483569851475,,NaN,NaN,NaN,NaN,NaN,NaN,NaN,,-0.14359696420783347,-0.3043025184083414,0.08569297308,0.04710034042531559,,1.937151e-06,-1.1920929e-07,1.7881393e-06,1.0000001,2.1066517e-05,1.1220574e-05,-2.105534e-05,0.99999994,1.8775463e-06,-1.1242926e-05,-1.8775463e-06,1.0
2.3281041759764776,17:25:10.176337,NaN,0,,0.09496771,0.0028449744,0.041277677,-0.2935983,0.9260032,0.23731473,0.689335,0.03309507,0.72368634,0.6622818,0.3760624,-0.64804304,,NaN,NaN,NaN,NaN,NaN,NaN,NaN,NaN,NaN,NaN,NaN,NaN,,0.15350431,1.2979759,0.50781316,0.9959319,-0.00081278104,-0.09010532,-0.042982433,-0.8831499,-0.4671175,-0.07919683,0.46909016,-0.8795921,,-0.06440082,0.15713632,-0.12760028,0.21090622,-0.9628179,-0.16882011,0.9361964,0.14928165,0.3182002,-0.2811671,-0.22515917,0.93287104,,NaN,NaN,NaN,NaN,NaN,NaN,NaN,NaN,NaN,NaN,NaN,NaN,,0.5317796629862255,-0.4681675123012382,0.16429827605000002,-4.376438810465507,-0.9295381079042914,0.9184747232229595,1.3954483569851475,,NaN,NaN,NaN,NaN,NaN,NaN,NaN,,-0.14359696420783347,-0.3043025184083414,0.08569297308,0.04710034042531559,,1.937151e-06,-1.1920929e-07,1.7881393e-06,1.0000001,2.1066517e-05,1.1220574e-05,-2.105534e-05,0.99999994,1.8775463e-06,-1.1242926e-05,-1.8775463e-06,1.0
2.344696879037656,17:25:10.193823,NaN,0,,0.09496771,0.0028449744,0.041277677,-0.2935983,0.9260032,0.23731473,0.689335,0.03309507,0.72368634,0.6622818,0.3760624,-0.64804304,,NaN,NaN,NaN,NaN,NaN,NaN,NaN,NaN,NaN,NaN,NaN,NaN,,0.15350431,1.2979759,0.50781316,0.9959319,-0.00081278104,-0.09010532,-0.042982433,-0.8831499,-0.4671175,-0.07919683,0.46909016,-0.8795921,,-0.06440082,0.15713632,-0.12760028,0.21090622,-0.9628179,-0.16882011,0.9361964,0.14928165,0.3182002,-0.2811671,-0.22515917,0.93287104,,NaN,NaN,NaN,NaN,NaN,NaN,NaN,NaN,NaN,NaN,NaN,NaN,,0.5317796629862255,-0.4681675123012382,0.16429827605000002,-4.376438810465507,-0.9295381079042914,0.9184747232229595,1.3954483569851475,,NaN,NaN,NaN,NaN,NaN,NaN,NaN,,-0.14359696420783347,-0.3043025184083414,0.08569297308,0.04710034042531559,,1.937151e-06,-1.1920929e-07,1.7881393e-06,1.0000001,2.1066517e-05,1.1220574e-05,-2.105534e-05,0.99999994,1.8775463e-06,-1.1242926e-05,-1.8775463e-06,1.0
2.361522490042262,17:25:10.213585,NaN,0,,0.09496771,0.0028449744,0.041277677,-0.2935983,0.9260032,0.23731473,0.689335,0.03309507,0.72368634,0.6622818,0.3760624,-0.64804304,,NaN,NaN,NaN,NaN,NaN,NaN,NaN,NaN,NaN,NaN,NaN,NaN,,0.15350431,1.2979759,0.50781316,0.9959319,-0.00081278104,-0.09010532,-0.042982433,-0.8831499,-0.4671175,-0.07919683,0.46909016,-0.8795921,,-0.06440082,0.15713632,-0.12760028,0.21090622,-0.9628179,-0.16882011,0.9361964,0.14928165,0.3182002,-0.2811671,-0.22515917,0.93287104,,NaN,NaN,NaN,NaN,NaN,NaN,NaN,NaN,NaN,NaN,NaN,NaN,,0.5317719402533513,-0.4681675123012382,0.16429827605000002,-4.376438810465507,-0.9295381079042914,0.9184747232229595,1.3954483569851475,,NaN,NaN,NaN,NaN,NaN,NaN,NaN,,-0.14359696420783347,-0.3043025184083414,0.08569297308,0.04710034042531559,,1.937151e-06,-1.1920929e-07,1.7881393e-06,1.0000001,2.1066517e-05,1.1220574e-05,-2.105534e-05,0.99999994,1.8775463e-06,-1.1242926e-05,-1.8775463e-06,1.0
2.381937282043509,17:25:10.230004,NaN,0,,0.09496771,0.0028449744,0.041277677,-0.2935983,0.9260032,0.23731473,0.689335,0.03309507,0.72368634,0.6622818,0.3760624,-0.64804304,,NaN,NaN,NaN,NaN,NaN,NaN,NaN,NaN,NaN,NaN,NaN,NaN,,0.15350431,1.2979759,0.50781316,0.9959319,-0.00081278104,-0.09010532,-0.042982433,-0.8831499,-0.4671175,-0.07919683,0.46909016,-0.8795921,,-0.06440082,0.15713632,-0.12760028,0.21090622,-0.9628179,-0.16882011,0.9361964,0.14928165,0.3182002,-0.2811671,-0.22515917,0.93287104,,NaN,NaN,NaN,NaN,NaN,NaN,NaN,NaN,NaN,NaN,NaN,NaN,,0.5317719402533513,-0.4681675123012382,0.16429827605000002,-4.376438810465507,-0.9295381079042914,0.9184747232229595,1.3954483569851475,,NaN,NaN,NaN,NaN,NaN,NaN,NaN,,-0.14359696420783347,-0.3043025184083414,0.08569297308,0.04710034042531559,,1.937151e-06,-1.1920929e-07,1.7881393e-06,1.0000001,2.1066517e-05,1.1220574e-05,-2.105534e-05,0.99999994,1.8775463e-06,-1.1242926e-05,-1.8775463e-06,1.0
2.3983418910065666,17:25:10.246463,NaN,0,,0.09496771,0.0028449744,0.041277677,-0.2935983,0.9260032,0.23731473,0.689335,0.03309507,0.72368634,0.6622818,0.3760624,-0.64804304,,NaN,NaN,NaN,NaN,NaN,NaN,NaN,NaN,NaN,NaN,NaN,NaN,,0.15350431,1.2979759,0.50781316,0.9959319,-0.00081278104,-0.09010532,-0.042982433,-0.8831499,-0.4671175,-0.07919683,0.46909016,-0.8795921,,-0.06440082,0.15713632,-0.12760028,0.21090622,-0.9628179,-0.16882011,0.9361964,0.14928165,0.3182002,-0.2811671,-0.22515917,0.93287104,,NaN,NaN,NaN,NaN,NaN,NaN,NaN,NaN,NaN,NaN,NaN,NaN,,0.5317719402533513,-0.4681675123012382,0.16429827605000002,-4.376438810465507,-0.9295381079042914,0.9184747232229595,1.3954483569851475,,NaN,NaN,NaN,NaN,NaN,NaN,NaN,,-0.14359696420783347,-0.3043025184083414,0.08569297308,0.04710034042531559,,1.937151e-06,-1.1920929e-07,1.7881393e-06,1.0000001,2.1066517e-05,1.1220574e-05,-2.105534e-05,0.99999994,1.8775463e-06,-1.1242926e-05,-1.8775463e-06,1.0
2.4146315719699487,17:25:10.261822,NaN,0,,0.09496771,0.0028449744,0.041277677,-0.2935983,0.9260032,0.23731473,0.689335,0.03309507,0.72368634,0.6622818,0.3760624,-0.64804304,,NaN,NaN,NaN,NaN,NaN,NaN,NaN,NaN,NaN,NaN,NaN,NaN,,0.15350431,1.2979759,0.50781316,0.9959319,-0.00081278104,-0.09010532,-0.042982433,-0.8831499,-0.4671175,-0.07919683,0.46909016,-0.8795921,,-0.06440082,0.15713632,-0.12760028,0.21090622,-0.9628179,-0.16882011,0.9361964,0.14928165,0.3182002,-0.2811671,-0.22515917,0.93287104,,NaN,NaN,NaN,NaN,NaN,NaN,NaN,NaN,NaN,NaN,NaN,NaN,,0.5317796629862255,-0.4681675123012382,0.16429827605000002,-4.376438810465507,-0.9295381079042914,0.9184747232229595,1.3954483569851475,,NaN,NaN,NaN,NaN,NaN,NaN,NaN,,-0.14359696420783347,-0.3043025184083414,0.08569297308,0.04710034042531559,,1.937151e-06,-1.1920929e-07,1.7881393e-06,1.0000001,2.1066517e-05,1.1220574e-05,-2.105534e-05,0.99999994,1.8775463e-06,-1.1242926e-05,-1.8775463e-06,1.0
2.4301656760508195,17:25:10.280160,NaN,0,,0.09496771,0.0028449744,0.041277677,-0.2935983,0.9260032,0.23731473,0.689335,0.03309507,0.72368634,0.6622818,0.3760624,-0.64804304,,NaN,NaN,NaN,NaN,NaN,NaN,NaN,NaN,NaN,NaN,NaN,NaN,,0.15350431,1.2979759,0.50781316,0.9959319,-0.00081278104,-0.09010532,-0.042982433,-0.8831499,-0.4671175,-0.07919683,0.46909016,-0.8795921,,-0.06440082,0.15713632,-0.12760028,0.21090622,-0.9628179,-0.16882011,0.9361964,0.14928165,0.3182002,-0.2811671,-0.22515917,0.93287104,,NaN,NaN,NaN,NaN,NaN,NaN,NaN,NaN,NaN,NaN,NaN,NaN,,0.5317796629862255,-0.4681675123012382,0.16429827605000002,-4.376438810465507,-0.9295381079042914,0.9184747232229595,1.3954483569851475,,NaN,NaN,NaN,NaN,NaN,NaN,NaN,,-0.14359696420783347,-0.3043025184083414,0.08569297308,0.04710034042531559,,1.937151e-06,-1.1920929e-07,1.7881393e-06,1.0000001,2.1066517e-05,1.1220574e-05,-2.105534e-05,0.99999994,1.8775463e-06,-1.1242926e-05,-1.8775463e-06,1.0
2.4485097869765013,17:25:10.296240,NaN,0,,0.09496771,0.0028449744,0.041277677,-0.2935983,0.9260032,0.23731473,0.689335,0.03309507,0.72368634,0.6622818,0.3760624,-0.64804304,,NaN,NaN,NaN,NaN,NaN,NaN,NaN,NaN,NaN,NaN,NaN,NaN,,0.15350431,1.2979759,0.50781316,0.9959319,-0.00081278104,-0.09010532,-0.042982433,-0.8831499,-0.4671175,-0.07919683,0.46909016,-0.8795921,,-0.06440082,0.15713632,-0.12760028,0.21090622,-0.9628179,-0.16882011,0.9361964,0.14928165,0.3182002,-0.2811671,-0.22515917,0.93287104,,NaN,NaN,NaN,NaN,NaN,NaN,NaN,NaN,NaN,NaN,NaN,NaN,,0.5317642175204771,-0.4681675123012382,0.16429827605000002,-4.376438810465507,-0.9295381079042914,0.9184747232229595,1.3954483569851475,,NaN,NaN,NaN,NaN,NaN,NaN,NaN,,-0.14359696420783347,-0.3043025184083414,0.08569297308,0.04710034042531559,,1.937151e-06,-1.1920929e-07,1.7881393e-06,1.0000001,2.1066517e-05,1.1220574e-05,-2.105534e-05,0.99999994,1.8775463e-06,-1.1242926e-05,-1.8775463e-06,1.0
2.4646021260414273,17:25:10.313744,NaN,0,,0.09496771,0.0028449744,0.041277677,-0.2935983,0.9260032,0.23731473,0.689335,0.03309507,0.72368634,0.6622818,0.3760624,-0.64804304,,NaN,NaN,NaN,NaN,NaN,NaN,NaN,NaN,NaN,NaN,NaN,NaN,,0.15350431,1.2979759,0.50781316,0.9959319,-0.00081278104,-0.09010532,-0.042982433,-0.8831499,-0.4671175,-0.07919683,0.46909016,-0.8795921,,-0.06440082,0.15713632,-0.12760028,0.21090622,-0.9628179,-0.16882011,0.9361964,0.14928165,0.3182002,-0.2811671,-0.22515917,0.93287104,,NaN,NaN,NaN,NaN,NaN,NaN,NaN,NaN,NaN,NaN,NaN,NaN,,0.5317719402533513,-0.4681675123012382,0.16429827605000002,-4.376438810465507,-0.9295381079042914,0.9184747232229595,1.3954483569851475,,NaN,NaN,NaN,NaN,NaN,NaN,NaN,,-0.14359696420783347,-0.3043025184083414,0.08569297308,0.04710034042531559,,1.937151e-06,-1.1920929e-07,1.7881393e-06,1.0000001,2.1066517e-05,1.1220574e-05,-2.105534e-05,0.99999994,1.8775463e-06,-1.1242926e-05,-1.8775463e-06,1.0
2.4813545959768817,17:25:10.337213,NaN,0,,0.09496771,0.0028449744,0.041277677,-0.2935983,0.9260032,0.23731473,0.689335,0.03309507,0.72368634,0.6622818,0.3760624,-0.64804304,,NaN,NaN,NaN,NaN,NaN,NaN,NaN,NaN,NaN,NaN,NaN,NaN,,0.15350431,1.2979759,0.50781316,0.9959319,-0.00081278104,-0.09010532,-0.042982433,-0.8831499,-0.4671175,-0.07919683,0.46909016,-0.8795921,,-0.06440082,0.15713632,-0.12760028,0.21090622,-0.9628179,-0.16882011,0.9361964,0.14928165,0.3182002,-0.2811671,-0.22515917,0.93287104,,NaN,NaN,NaN,NaN,NaN,NaN,NaN,NaN,NaN,NaN,NaN,NaN,,0.5317719402533513,-0.4681675123012382,0.16429827605000002,-4.376438810465507,-0.9295381079042914,0.9184747232229595,1.3954483569851475,,NaN,NaN,NaN,NaN,NaN,NaN,NaN,,-0.14359696420783347,-0.3043025184083414,0.08569297308,0.04710034042531559,,1.937151e-06,-1.1920929e-07,1.7881393e-06,1.0000001,2.1066517e-05,1.1220574e-05,-2.105534e-05,0.99999994,1.8775463e-06,-1.1242926e-05,-1.8775463e-06,1.0
