AlexandreBanks6/ExpertPlaybackApp/resources/Motions/PC1/Data_PC1_39.csv
Task Time,PC1 Time,PC2 Time,Gaze Calib,s_T_psm1,Tx,Ty,Tz,R00,R01,R02,R10,R11,R12,R20,R21,R22,s_T_psm3,Tx,Ty,Tz,R00,R01,R02,R10,R11,R12,R20,R21,R22,cart_T_ecm,Tx,Ty,Tz,R00,R01,R02,R10,R11,R12,R20,R21,R22,ecm_T_psm1,Tx,Ty,Tz,R00,R01,R02,R10,R11,R12,R20,R21,R22,ecm_T_psm3,Tx,Ty,Tz,R00,R01,R02,R10,R11,R12,R20,R21,R22,psm1_joints,q1,q2,q3,q4,q5,q6,jaw,psm3_joints,q1,q2,q3,q4,q5,q6,jaw,ecm_joints,q1,q2,q3,q4,ecmi_T_ecm,Tx,Ty,Tz,R00,R01,R02,R10,R11,R12,R20,R21,R22,Sample #,Task Duration (s),Collisions (binary),Collisions (increments),Cumulative Collision Time (s),Clutch Press,MTMR Angle,MTML Angle
""
lci_T_si,,,,,-0.06911255,0.020764593,0.26076955,0.9953428,0.0400677,0.08767717,0.08684432,-0.7674894,-0.63515204,0.041842222,0.6398083,-0.76739466
rci_T_si,,,,,-0.07835912,0.026536781,0.2722765,0.9955334,0.015615062,0.093109466,0.07183176,-0.76526916,-0.63969004,0.061265003,0.643521,-0.76297265
ecm_T_lc,,,,,-4.4061628e-05,-0.00034663224,-0.01840835,-0.99912,0.030754527,0.028518902,-0.031987965,-0.99852574,-0.043852776,0.027128186,-0.04472645,0.9986309
ecm_T_rc,,,,,-0.0043358393,0.01870579,-0.007592615,-0.99555075,-0.052743673,-0.078081585,0.04863213,-0.9973746,0.053654674,-0.08070653,0.04961868,0.9955021
cart_T_ecmi,,,,,0.08746113,1.3322496,0.46482307,0.99604315,0.0028804142,-0.08882411,-0.053876545,-0.77529705,-0.6292947,-0.0706777,0.63159025,-0.7720741
ecmac_T_ecmrep_psm1,,,,,0.08626859,-0.2052861,-0.33370098,0.999004,0.025128257,0.036871605,-0.023534218,0.9987958,-0.04304718,-0.037908904,0.04213656,0.9983924
ecmac_T_ecmrep_psm3,,,,,-0.16209933,-0.49188918,-0.56672233,0.99379694,-0.09876928,0.05111077,0.087427974,0.9779163,0.18983154,-0.068731576,-0.18418549,0.98048544
""
0,11:41:09.103677,NaN,0,,0.006870566,0.011704683,0.07085793,-0.6355188,-0.16653886,-0.7539102,-0.4819055,0.8484646,0.21880269,0.60322714,0.5023667,-0.6194713,,0.15388137,-0.034188986,0.046093524,-0.62511814,-0.17871305,0.7597955,0.22235945,0.89232314,0.39283043,-0.74818695,0.41451293,-0.5180688,,0.08748736,1.3322492,0.4648232,0.99604064,0.002844578,-0.088853195,-0.053922586,-0.77529716,-0.6292906,-0.0706777,0.63159025,-0.7720741,,-0.048797037,0.24909256,-0.12536645,0.6061806,0.07958852,0.7913348,0.07409654,0.98500144,-0.1558262,-0.7918679,0.15309398,0.59119153,,0.044769097,0.43160474,-0.37377653,0.69259536,-0.018247623,-0.7210955,-0.3244353,0.88497514,-0.33400717,0.6442464,0.46528062,0.6070095,,0.8265332085967524,-0.35657402226869406,0.16341420627000003,0.6385058779103767,-0.24266642358342222,0.5035200425708283,0.8719306250247827,,-0.6686110440517353,-0.5506617448637044,0.14974482822000001,2.137369593937757,0.35785099288568856,0.6492989541186304,0.8755241944797366,,-0.06956664232292899,-0.09922196797587764,0.1150502548,-0.034016912529394594,,2.6144087e-05,5.364418e-07,-2.2649765e-06,1.0,-3.5692006e-05,-2.91951e-05,3.568828e-05,1.0,-3.3080578e-06,2.9198825e-05,3.2484531e-06,1.0,2,0.006,0,0,0.0,False,1.0465421761055524,1.050335750771978
0.02624803199978487,11:41:09.129195,11:40:51.103454,0,,0.006870566,0.011704683,0.07085793,-0.6355188,-0.16653886,-0.7539102,-0.4819055,0.8484646,0.21880269,0.60322714,0.5023667,-0.6194713,,0.15388137,-0.034188986,0.046093524,-0.62511814,-0.17871305,0.7597955,0.22235945,0.89232314,0.39283043,-0.74818695,0.41451293,-0.5180688,,0.08748736,1.3322492,0.4648232,0.99604064,0.002844578,-0.088853195,-0.053922586,-0.77529716,-0.6292906,-0.0706777,0.63159025,-0.7720741,,-0.048797037,0.24909256,-0.12536645,0.6061806,0.07958852,0.7913348,0.07409654,0.98500144,-0.1558262,-0.7918679,0.15309398,0.59119153,,0.044769097,0.43160474,-0.37377653,0.69259536,-0.018247623,-0.7210955,-0.3244353,0.88497514,-0.33400717,0.6442464,0.46528062,0.6070095,,0.8265332085967524,-0.35657402226869406,0.16341420627000003,0.6385058779103767,-0.24266642358342222,0.5035200425708283,0.8719306250247827,,-0.6686110440517353,-0.5506617448637044,0.14974482822000001,2.137369593937757,0.35785099288568856,0.6492989541186304,0.8755241944797366,,-0.06956664232292899,-0.09922196797587764,0.1150502548,-0.034016912529394594,,2.6144087e-05,5.364418e-07,-2.2649765e-06,1.0,-3.5692006e-05,-2.91951e-05,3.568828e-05,1.0,-3.3080578e-06,2.9198825e-05,3.2484531e-06,1.0,9,0.027,0,0,0.0,False,1.046244287512947,1.0501909101696396
0.05169330600074318,11:41:09.155824,11:40:51.103454,0,,0.006870566,0.011704683,0.07085793,-0.6355188,-0.16653886,-0.7539102,-0.4819055,0.8484646,0.21880269,0.60322714,0.5023667,-0.6194713,,0.15388137,-0.034188986,0.046093524,-0.62511814,-0.17871305,0.7597955,0.22235945,0.89232314,0.39283043,-0.74818695,0.41451293,-0.5180688,,0.08748736,1.3322492,0.4648232,0.99604064,0.002844578,-0.088853195,-0.053922586,-0.77529716,-0.6292906,-0.0706777,0.63159025,-0.7720741,,-0.048797037,0.24909256,-0.12536645,0.6061806,0.07958852,0.7913348,0.07409654,0.98500144,-0.1558262,-0.7918679,0.15309398,0.59119153,,0.044769097,0.43160474,-0.37377653,0.69259536,-0.018247623,-0.7210955,-0.3244353,0.88497514,-0.33400717,0.6442464,0.46528062,0.6070095,,0.8265332085967524,-0.35657402226869406,0.16341420627000003,0.6385058779103767,-0.24266642358342222,0.5035200425708283,0.8719306250247827,,-0.6686110440517353,-0.5506617448637044,0.14974482822000001,2.137369593937757,0.35785099288568856,0.6492989541186304,0.8755241944797366,,-0.06956664232292899,-0.09922196797587764,0.1150502548,-0.034016912529394594,,2.6144087e-05,5.364418e-07,-2.2649765e-06,1.0,-3.5692006e-05,-2.91951e-05,3.568828e-05,1.0,-3.3080578e-06,2.9198825e-05,3.2484531e-06,1.0,17,0.051,0,0,0.0,False,1.0466613315425946,1.049514987358727
0.07840213400049834,11:41:09.178309,11:40:51.103454,0,,0.006870566,0.011704683,0.07085793,-0.6355188,-0.16653886,-0.7539102,-0.4819055,0.8484646,0.21880269,0.60322714,0.5023667,-0.6194713,,0.15388137,-0.034188986,0.046093524,-0.62511814,-0.17871305,0.7597955,0.22235945,0.89232314,0.39283043,-0.74818695,0.41451293,-0.5180688,,0.08748736,1.3322492,0.4648232,0.99604064,0.002844578,-0.088853195,-0.053922586,-0.77529716,-0.6292906,-0.0706777,0.63159025,-0.7720741,,-0.048797037,0.24909256,-0.12536645,0.6061806,0.07958852,0.7913348,0.07409654,0.98500144,-0.1558262,-0.7918679,0.15309398,0.59119153,,0.044769097,0.43160474,-0.37377653,0.69259536,-0.018247623,-0.7210955,-0.3244353,0.88497514,-0.33400717,0.6442464,0.46528062,0.6070095,,0.8265332085967524,-0.35657402226869406,0.16341420627000003,0.6385058779103767,-0.24266642358342222,0.5035200425708283,0.8719306250247827,,-0.6686110440517353,-0.5506617448637044,0.14974482822000001,2.137369593937757,0.35785099288568856,0.6492989541186304,0.8755241944797366,,-0.06956664232292899,-0.09922196797587764,0.1150502548,-0.034016912529394594,,2.6144087e-05,5.364418e-07,-2.2649765e-06,1.0,-3.5692006e-05,-2.91951e-05,3.568828e-05,1.0,-3.3080578e-06,2.9198825e-05,3.2484531e-06,1.0,28,0.084,0,0,0.0,False,1.0464825983870312,1.0502874705711984
0.10087302000101772,11:41:09.207136,11:40:51.103454,0,,0.006870102,0.011705458,0.07085805,-0.6357261,-0.16623624,-0.75380206,-0.48155993,0.84861445,0.21898288,0.6032846,0.502214,-0.6195392,,0.15388137,-0.034188986,0.046093524,-0.62511814,-0.17871305,0.7597955,0.22235945,0.89232314,0.39283043,-0.74818695,0.41451293,-0.5180688,,0.08748736,1.3322492,0.4648232,0.99604064,0.002844578,-0.088853195,-0.053922586,-0.77529716,-0.6292906,-0.0706777,0.63159025,-0.7720741,,-0.048796624,0.24909328,-0.12536606,0.60636437,0.079292595,0.7912237,0.07441716,0.9849907,-0.15574151,-0.79169714,0.15331672,0.59136254,,0.044769097,0.43160474,-0.37377653,0.69259536,-0.018247623,-0.7210955,-0.3244353,0.88497514,-0.33400717,0.6442464,0.46528062,0.6070095,,0.8265332085967524,-0.35657402226869406,0.16341420627000003,0.6389252577973457,-0.24266642358342222,0.5035200425708283,0.8719306250247827,,-0.6686110440517353,-0.5506617448637044,0.14974482822000001,2.137369593937757,0.35785099288568856,0.6492989541186304,0.8755241944797366,,-0.06956664232292899,-0.09922196797587764,0.1150502548,-0.034016912529394594,,2.6144087e-05,5.364418e-07,-2.2649765e-06,1.0,-3.5692006e-05,-2.91951e-05,3.568828e-05,1.0,-3.3080578e-06,2.9198825e-05,3.2484531e-06,1.0,39,0.117,0,0,0.0,False,1.0467209092611154,1.0502874705711984
0.1297018500008562,11:41:09.247876,11:40:51.223894,0,,0.0068691317,0.011705868,0.07085846,-0.6357216,-0.16623339,-0.7538066,-0.4815624,0.8486126,0.21898437,0.6032874,0.502218,-0.61953324,,0.15388137,-0.034188986,0.046093524,-0.62511814,-0.17871305,0.7597955,0.22235945,0.89232314,0.39283043,-0.74818695,0.41451293,-0.5180688,,0.08748736,1.3322492,0.4648232,0.99604064,0.002844578,-0.088853195,-0.053922586,-0.77529716,-0.6292906,-0.0706777,0.63159025,-0.7720741,,-0.048795715,0.24909395,-0.12536614,0.6063597,0.07928952,0.7912276,0.07441664,0.98499155,-0.15573618,-0.7917007,0.15331264,0.5913588,,0.044769097,0.43160474,-0.37377653,0.69259536,-0.018247623,-0.7210955,-0.3244353,0.88497514,-0.33400717,0.6442464,0.46528062,0.6070095,,0.8265409313296266,-0.35657402226869406,0.16341420627000003,0.6389252577973457,-0.24266642358342222,0.5035200425708283,0.8719306250247827,,-0.6686110440517353,-0.5506617448637044,0.14974482822000001,2.137369593937757,0.35785099288568856,0.6492989541186304,0.8755241944797366,,-0.06956664232292899,-0.09922196797587764,0.1150502548,-0.034016912529394594,,2.6144087e-05,5.364418e-07,-2.2649765e-06,1.0,-3.5692006e-05,-2.91951e-05,3.568828e-05,1.0,-3.3080578e-06,2.9198825e-05,3.2484531e-06,1.0,47,0.142,0,0,0.0,False,1.0463038652314682,1.0502874705711984
0.1704318170013721,11:41:09.267808,11:40:51.223894,0,,0.006870102,0.011705458,0.07085805,-0.6357261,-0.16623624,-0.75380206,-0.48155993,0.84861445,0.21898288,0.6032846,0.502214,-0.6195392,,0.15388137,-0.034188986,0.046093524,-0.62511814,-0.17871305,0.7597955,0.22235945,0.89232314,0.39283043,-0.74818695,0.41451293,-0.5180688,,0.08748736,1.3322492,0.4648232,0.99604064,0.002844578,-0.088853195,-0.053922586,-0.77529716,-0.6292906,-0.0706777,0.63159025,-0.7720741,,-0.048796624,0.24909328,-0.12536606,0.60636437,0.079292595,0.7912237,0.07441716,0.9849907,-0.15574151,-0.79169714,0.15331672,0.59136254,,0.044769097,0.43160474,-0.37377653,0.69259536,-0.018247623,-0.7210955,-0.3244353,0.88497514,-0.33400717,0.6442464,0.46528062,0.6070095,,0.8265332085967524,-0.35657402226869406,0.16341420627000003,0.6389252577973457,-0.24266642358342222,0.5035200425708283,0.8719306250247827,,-0.6686110440517353,-0.5506617448637044,0.14974482822000001,2.137369593937757,0.35785099288568856,0.6492989541186304,0.8755241944797366,,-0.06956664232292899,-0.09922196797587764,0.1150502548,-0.034016912529394594,,2.6144087e-05,5.364418e-07,-2.2649765e-06,1.0,-3.5692006e-05,-2.91951e-05,3.568828e-05,1.0,-3.3080578e-06,2.9198825e-05,3.2484531e-06,1.0,55,0.166,0,0,0.0,False,1.0469592201351996,1.050046069567301
0.19038534200080903,11:41:09.288886,11:40:51.223894,0,,0.006870102,0.011705458,0.07085805,-0.6357261,-0.16623624,-0.75380206,-0.48155993,0.84861445,0.21898288,0.6032846,0.502214,-0.6195392,,0.15388137,-0.034188986,0.046093524,-0.62511814,-0.17871305,0.7597955,0.22235945,0.89232314,0.39283043,-0.74818695,0.41451293,-0.5180688,,0.08748736,1.3322492,0.4648232,0.99604064,0.002844578,-0.088853195,-0.053922586,-0.77529716,-0.6292906,-0.0706777,0.63159025,-0.7720741,,-0.048796624,0.24909328,-0.12536606,0.60636437,0.079292595,0.7912237,0.07441716,0.9849907,-0.15574151,-0.79169714,0.15331672,0.59136254,,0.044769097,0.43160474,-0.37377653,0.69259536,-0.018247623,-0.7210955,-0.3244353,0.88497514,-0.33400717,0.6442464,0.46528062,0.6070095,,0.8265332085967524,-0.35657402226869406,0.16341420627000003,0.6389252577973457,-0.24266642358342222,0.5035200425708283,0.8719306250247827,,-0.6686110440517353,-0.5506617448637044,0.14974482822000001,2.137369593937757,0.35785099288568856,0.6492989541186304,0.8755241944797366,,-0.06956664232292899,-0.09922196797587764,0.1150502548,-0.034016912529394594,,2.6144087e-05,5.364418e-07,-2.2649765e-06,1.0,-3.5692006e-05,-2.91951e-05,3.568828e-05,1.0,-3.3080578e-06,2.9198825e-05,3.2484531e-06,1.0,66,0.199,0,0,0.0,False,1.0466613315425946,1.050432311173537
0.21145989199976611,11:41:09.318824,11:40:51.223894,0,,0.006870102,0.011705458,0.07085805,-0.6357261,-0.16623624,-0.75380206,-0.48155993,0.84861445,0.21898288,0.6032846,0.502214,-0.6195392,,0.15388137,-0.034188986,0.046093524,-0.62511814,-0.17871305,0.7597955,0.22235945,0.89232314,0.39283043,-0.74818695,0.41451293,-0.5180688,,0.08748736,1.3322492,0.4648232,0.99604064,0.002844578,-0.088853195,-0.053922586,-0.77529716,-0.6292906,-0.0706777,0.63159025,-0.7720741,,-0.048796624,0.24909328,-0.12536606,0.60636437,0.079292595,0.7912237,0.07441716,0.9849907,-0.15574151,-0.79169714,0.15331672,0.59136254,,0.044769097,0.43160474,-0.37377653,0.69259536,-0.018247623,-0.7210955,-0.3244353,0.88497514,-0.33400717,0.6442464,0.46528062,0.6070095,,0.8265332085967524,-0.35657402226869406,0.16341420627000003,0.6389252577973457,-0.24266642358342222,0.5035200425708283,0.8719306250247827,,-0.6686110440517353,-0.5506617448637044,0.14974482822000001,2.137369593937757,0.35785099288568856,0.6492989541186304,0.8755241944797366,,-0.06956664232292899,-0.09922196797587764,0.1150502548,-0.034016912529394594,,2.6144087e-05,5.364418e-07,-2.2649765e-06,1.0,-3.5692006e-05,-2.91951e-05,3.568828e-05,1.0,-3.3080578e-06,2.9198825e-05,3.2484531e-06,1.0,70,0.211,0,0,0.0,False,1.046244287512947,1.050963393382111
0.24140185400028713,11:41:09.339208,11:40:51.223894,0,,0.006870102,0.011705458,0.07085805,-0.6357261,-0.16623624,-0.75380206,-0.48155993,0.84861445,0.21898288,0.6032846,0.502214,-0.6195392,,0.15388137,-0.034188986,0.046093524,-0.62511814,-0.17871305,0.7597955,0.22235945,0.89232314,0.39283043,-0.74818695,0.41451293,-0.5180688,,0.08748736,1.3322492,0.4648232,0.99604064,0.002844578,-0.088853195,-0.053922586,-0.77529716,-0.6292906,-0.0706777,0.63159025,-0.7720741,,-0.048796624,0.24909328,-0.12536606,0.60636437,0.079292595,0.7912237,0.07441716,0.9849907,-0.15574151,-0.79169714,0.15331672,0.59136254,,0.044769097,0.43160474,-0.37377653,0.69259536,-0.018247623,-0.7210955,-0.3244353,0.88497514,-0.33400717,0.6442464,0.46528062,0.6070095,,0.8265332085967524,-0.35657402226869406,0.16341420627000003,0.6389252577973457,-0.24266642358342222,0.5035200425708283,0.8719306250247827,,-0.6686110440517353,-0.5506617448637044,0.14974482822000001,2.137369593937757,0.35785099288568856,0.6492989541186304,0.8755241944797366,,-0.06956664232292899,-0.09922196797587764,0.1150502548,-0.034016912529394594,,2.6144087e-05,5.364418e-07,-2.2649765e-06,1.0,-3.5692006e-05,-2.91951e-05,3.568828e-05,1.0,-3.3080578e-06,2.9198825e-05,3.2484531e-06,1.0,82,0.248,0,0,0.0,False,1.046244287512947,1.0502874705711984
0.26178523000089626,11:41:09.368690,11:40:51.223894,0,,0.006870102,0.011705458,0.07085805,-0.6357261,-0.16623624,-0.75380206,-0.48155993,0.84861445,0.21898288,0.6032846,0.502214,-0.6195392,,0.15388137,-0.034188986,0.046093524,-0.62511814,-0.17871305,0.7597955,0.22235945,0.89232314,0.39283043,-0.74818695,0.41451293,-0.5180688,,0.08748736,1.3322492,0.4648232,0.99604064,0.002844578,-0.088853195,-0.053922586,-0.77529716,-0.6292906,-0.0706777,0.63159025,-0.7720741,,-0.048796624,0.24909328,-0.12536606,0.60636437,0.079292595,0.7912237,0.07441716,0.9849907,-0.15574151,-0.79169714,0.15331672,0.59136254,,0.044769097,0.43160474,-0.37377653,0.69259536,-0.018247623,-0.7210955,-0.3244353,0.88497514,-0.33400717,0.6442464,0.46528062,0.6070095,,0.8265332085967524,-0.35657402226869406,0.16341420627000003,0.6389252577973457,-0.24266642358342222,0.5035200425708283,0.8719306250247827,,-0.6686110440517353,-0.5506617448637044,0.14974482822000001,2.137369593937757,0.35785099288568856,0.6492989541186304,0.8755241944797366,,-0.06956664232292899,-0.09922196797587764,0.1150502548,-0.034016912529394594,,2.6144087e-05,5.364418e-07,-2.2649765e-06,1.0,-3.5692006e-05,-2.91951e-05,3.568828e-05,1.0,-3.3080578e-06,2.9198825e-05,3.2484531e-06,1.0,86,0.26,0,0,0.0,False,1.0468400646981575,1.0504805913743163
0.2912378040000476,11:41:09.386724,11:40:51.223894,0,,0.0068691317,0.011705868,0.07085846,-0.6357216,-0.16623339,-0.7538066,-0.4815624,0.8486126,0.21898437,0.6032874,0.502218,-0.61953324,,0.15388137,-0.034188986,0.046093524,-0.62511814,-0.17871305,0.7597955,0.22235945,0.89232314,0.39283043,-0.74818695,0.41451293,-0.5180688,,0.08748736,1.3322492,0.4648232,0.99604064,0.002844578,-0.088853195,-0.053922586,-0.77529716,-0.6292906,-0.0706777,0.63159025,-0.7720741,,-0.048795715,0.24909395,-0.12536614,0.6063597,0.07928952,0.7912276,0.07441664,0.98499155,-0.15573618,-0.7917007,0.15331264,0.5913588,,0.044769097,0.43160474,-0.37377653,0.69259536,-0.018247623,-0.7210955,-0.3244353,0.88497514,-0.33400717,0.6442464,0.46528062,0.6070095,,0.8265409313296266,-0.35657402226869406,0.16341420627000003,0.6389252577973457,-0.24266642358342222,0.5035200425708283,0.8719306250247827,,-0.6686110440517353,-0.5506617448637044,0.14974482822000001,2.137369593937757,0.35785099288568856,0.6492989541186304,0.8755241944797366,,-0.06956664232292899,-0.09922196797587764,0.1150502548,-0.034016912529394594,,2.6144087e-05,5.364418e-07,-2.2649765e-06,1.0,-3.5692006e-05,-2.91951e-05,3.568828e-05,1.0,-3.3080578e-06,2.9198825e-05,3.2484531e-06,1.0,93,0.281,0,0,0.0,False,1.0468996424166788,1.0504805913743163
0.309303035000994,11:41:09.409516,11:40:51.223894,0,,0.006870102,0.011705458,0.07085805,-0.6357261,-0.16623624,-0.75380206,-0.48155993,0.84861445,0.21898288,0.6032846,0.502214,-0.6195392,,0.15388137,-0.034188986,0.046093524,-0.62511814,-0.17871305,0.7597955,0.22235945,0.89232314,0.39283043,-0.74818695,0.41451293,-0.5180688,,0.08748736,1.3322492,0.4648232,0.99604064,0.002844578,-0.088853195,-0.053922586,-0.77529716,-0.6292906,-0.0706777,0.63159025,-0.7720741,,-0.048796624,0.24909328,-0.12536606,0.60636437,0.079292595,0.7912237,0.07441716,0.9849907,-0.15574151,-0.79169714,0.15331672,0.59136254,,0.044769097,0.43160474,-0.37377653,0.69259536,-0.018247623,-0.7210955,-0.3244353,0.88497514,-0.33400717,0.6442464,0.46528062,0.6070095,,0.8265332085967524,-0.35657402226869406,0.16341420627000003,0.6389252577973457,-0.24266642358342222,0.5035200425708283,0.8719306250247827,,-0.6686110440517353,-0.5506617448637044,0.14974482822000001,2.137369593937757,0.35785099288568856,0.6492989541186304,0.8755241944797366,,-0.06956664232292899,-0.09922196797587764,0.1150502548,-0.034016912529394594,,2.6144087e-05,5.364418e-07,-2.2649765e-06,1.0,-3.5692006e-05,-2.91951e-05,3.568828e-05,1.0,-3.3080578e-06,2.9198825e-05,3.2484531e-06,1.0,101,0.305,0,0,0.0,False,1.0464825983870312,1.0503840309727575
0.3320824660004291,11:41:09.426024,11:40:51.412991,0,,0.006870102,0.011705458,0.07085805,-0.6357261,-0.16623624,-0.75380206,-0.48155993,0.84861445,0.21898288,0.6032846,0.502214,-0.6195392,,0.15388137,-0.034188986,0.046093524,-0.62511814,-0.17871305,0.7597955,0.22235945,0.89232314,0.39283043,-0.74818695,0.41451293,-0.5180688,,0.08748736,1.3322492,0.4648232,0.99604064,0.002844578,-0.088853195,-0.053922586,-0.77529716,-0.6292906,-0.0706777,0.63159025,-0.7720741,,-0.048796624,0.24909328,-0.12536606,0.60636437,0.079292595,0.7912237,0.07441716,0.9849907,-0.15574151,-0.79169714,0.15331672,0.59136254,,0.044769097,0.43160474,-0.37377653,0.69259536,-0.018247623,-0.7210955,-0.3244353,0.88497514,-0.33400717,0.6442464,0.46528062,0.6070095,,0.8265332085967524,-0.35657402226869406,0.16341420627000003,0.6389252577973457,-0.24266642358342222,0.5035200425708283,0.8719306250247827,,-0.6686110440517353,-0.5506617448637044,0.14974482822000001,2.137369593937757,0.35785099288568856,0.6492989541186304,0.8755241944797366,,-0.06956664232292899,-0.09922196797587764,0.1150502548,-0.034016912529394594,,2.6144087e-05,5.364418e-07,-2.2649765e-06,1.0,-3.5692006e-05,-2.91951e-05,3.568828e-05,1.0,-3.3080578e-06,2.9198825e-05,3.2484531e-06,1.0,109,0.33,0,0,0.0,False,1.0463634429499895,1.0503840309727575
0.34858104700106196,11:41:09.454568,11:40:51.412991,0,,0.006870102,0.011705458,0.07085805,-0.6357261,-0.16623624,-0.75380206,-0.48155993,0.84861445,0.21898288,0.6032846,0.502214,-0.6195392,,0.15388095,-0.034190252,0.046093464,-0.6249935,-0.17840587,0.75997007,0.22273189,0.8923112,0.39264652,-0.74818027,0.41467094,-0.51795197,,0.08748736,1.3322492,0.4648232,0.99604064,0.002844578,-0.088853195,-0.053922586,-0.77529716,-0.6292906,-0.0706777,0.63159025,-0.7720741,,-0.048796624,0.24909328,-0.12536606,0.60636437,0.079292595,0.7912237,0.07441716,0.9849907,-0.15574151,-0.79169714,0.15331672,0.59136254,,0.0447697,0.43160406,-0.3737775,0.6924183,-0.01857023,-0.72125727,-0.32423773,0.8850275,-0.33406013,0.64453614,0.46516815,0.6067881,,0.8265332085967524,-0.35657402226869406,0.16341420627000003,0.6389252577973457,-0.24266642358342222,0.5035200425708283,0.8719306250247827,,-0.6686110440517353,-0.5506617448637044,0.14974482822000001,2.1377889738247258,0.35785099288568856,0.6492989541186304,0.8755241944797366,,-0.06956664232292899,-0.09922196797587764,0.1150502548,-0.034016912529394594,,2.6144087e-05,5.364418e-07,-2.2649765e-06,1.0,-3.5692006e-05,-2.91951e-05,3.568828e-05,1.0,-3.3080578e-06,2.9198825e-05,3.2484531e-06,1.0,117,0.355,0,0,0.0,False,1.0468400646981575,1.0499977893665218
0.37686478800060286,11:41:09.480513,11:40:51.412991,0,,0.006870102,0.011705458,0.07085805,-0.6357261,-0.16623624,-0.75380206,-0.48155993,0.84861445,0.21898288,0.6032846,0.502214,-0.6195392,,0.15387934,-0.03419076,0.04609263,-0.6250046,-0.17840378,0.7599615,0.22272491,0.892313,0.39264643,-0.7481731,0.41466802,-0.5179647,,0.08748736,1.3322492,0.4648232,0.99604064,0.002844578,-0.088853195,-0.053922586,-0.77529716,-0.6292906,-0.0706777,0.63159025,-0.7720741,,-0.048796624,0.24909328,-0.12536606,0.60636437,0.079292595,0.7912237,0.07441716,0.9849907,-0.15574151,-0.79169714,0.15331672,0.59136254,,0.044771474,0.4316035,-0.3737774,0.69242907,-0.018572072,-0.7212469,-0.3242339,0.88502586,-0.33406833,0.6445265,0.4651713,0.6067959,,0.8265332085967524,-0.35657402226869406,0.16341420627000003,0.6389252577973457,-0.24266642358342222,0.5035200425708283,0.8719306250247827,,-0.6685955985859869,-0.5506617448637044,0.14974482822000001,2.1377889738247258,0.35785099288568856,0.6492989541186304,0.8755241944797366,,-0.06956664232292899,-0.09922196797587764,0.1150502548,-0.034016912529394594,,2.6144087e-05,5.364418e-07,-2.2649765e-06,1.0,-3.5692006e-05,-2.91951e-05,3.568828e-05,1.0,-3.3080578e-06,2.9198825e-05,3.2484531e-06,1.0,125,0.379,0,0,0.0,False,1.0470783755722417,1.0507702725789931
0.4030845830002363,11:41:09.501734,11:40:51.412991,0,,0.006870102,0.011705458,0.07085805,-0.6357261,-0.16623624,-0.75380206,-0.48155993,0.84861445,0.21898288,0.6032846,0.502214,-0.6195392,,0.15387934,-0.03419076,0.04609263,-0.6250046,-0.17840378,0.7599615,0.22272491,0.892313,0.39264643,-0.7481731,0.41466802,-0.5179647,,0.08748736,1.3322492,0.4648232,0.99604064,0.002844578,-0.088853195,-0.053922586,-0.77529716,-0.6292906,-0.0706777,0.63159025,-0.7720741,,-0.048796624,0.24909328,-0.12536606,0.60636437,0.079292595,0.7912237,0.07441716,0.9849907,-0.15574151,-0.79169714,0.15331672,0.59136254,,0.044771474,0.4316035,-0.3737774,0.69242907,-0.018572072,-0.7212469,-0.3242339,0.88502586,-0.33406833,0.6445265,0.4651713,0.6067959,,0.8265332085967524,-0.35657402226869406,0.16341420627000003,0.6389252577973457,-0.24266642358342222,0.5035200425708283,0.8719306250247827,,-0.6685955985859869,-0.5506617448637044,0.14974482822000001,2.1377889738247258,0.35785099288568856,0.6492989541186304,0.8755241944797366,,-0.06956664232292899,-0.09922196797587764,0.1150502548,-0.034016912529394594,,2.6144087e-05,5.364418e-07,-2.2649765e-06,1.0,-3.5692006e-05,-2.91951e-05,3.568828e-05,1.0,-3.3080578e-06,2.9198825e-05,3.2484531e-06,1.0,140,0.424,0,0,0.0,False,1.0466613315425946,1.0504805913743163
0.42429270800130325,11:41:09.540583,11:40:51.531128,0,,0.006870102,0.011705458,0.07085805,-0.6357261,-0.16623624,-0.75380206,-0.48155993,0.84861445,0.21898288,0.6032846,0.502214,-0.6195392,,0.15388095,-0.034190252,0.046093464,-0.6249935,-0.17840587,0.75997007,0.22273189,0.8923112,0.39264652,-0.74818027,0.41467094,-0.51795197,,0.08748736,1.3322492,0.4648232,0.99604064,0.002844578,-0.088853195,-0.053922586,-0.77529716,-0.6292906,-0.0706777,0.63159025,-0.7720741,,-0.048796624,0.24909328,-0.12536606,0.60636437,0.079292595,0.7912237,0.07441716,0.9849907,-0.15574151,-0.79169714,0.15331672,0.59136254,,0.0447697,0.43160406,-0.3737775,0.6924183,-0.01857023,-0.72125727,-0.32423773,0.8850275,-0.33406013,0.64453614,0.46516815,0.6067881,,0.8265332085967524,-0.35657402226869406,0.16341420627000003,0.6389252577973457,-0.24266642358342222,0.5035200425708283,0.8719306250247827,,-0.6686110440517353,-0.5506617448637044,0.14974482822000001,2.1377889738247258,0.35785099288568856,0.6492989541186304,0.8755241944797366,,-0.06956664232292899,-0.09922196797587764,0.1150502548,-0.034016912529394594,,2.6144087e-05,5.364418e-07,-2.2649765e-06,1.0,-3.5692006e-05,-2.91951e-05,3.568828e-05,1.0,-3.3080578e-06,2.9198825e-05,3.2484531e-06,1.0,148,0.449,0,0,0.0,False,1.0466613315425946,1.050335750771978
0.4631603960006032,11:41:09.568791,11:40:51.531128,0,,0.0068691317,0.011705868,0.07085846,-0.6357216,-0.16623339,-0.7538066,-0.4815624,0.8486126,0.21898437,0.6032874,0.502218,-0.61953324,,0.15388095,-0.034190252,0.046093464,-0.6249935,-0.17840587,0.75997007,0.22273189,0.8923112,0.39264652,-0.74818027,0.41467094,-0.51795197,,0.08748736,1.3322492,0.4648232,0.99604064,0.002844578,-0.088853195,-0.053922586,-0.77529716,-0.6292906,-0.0706777,0.63159025,-0.7720741,,-0.048795715,0.24909395,-0.12536614,0.6063597,0.07928952,0.7912276,0.07441664,0.98499155,-0.15573618,-0.7917007,0.15331264,0.5913588,,0.0447697,0.43160406,-0.3737775,0.6924183,-0.01857023,-0.72125727,-0.32423773,0.8850275,-0.33406013,0.64453614,0.46516815,0.6067881,,0.8265409313296266,-0.35657402226869406,0.16341420627000003,0.6389252577973457,-0.24266642358342222,0.5035200425708283,0.8719306250247827,,-0.6686110440517353,-0.5506617448637044,0.14974482822000001,2.1377889738247258,0.35785099288568856,0.6492989541186304,0.8755241944797366,,-0.06956664232292899,-0.09922196797587764,0.1150502548,-0.034016912529394594,,2.6144087e-05,5.364418e-07,-2.2649765e-06,1.0,-3.5692006e-05,-2.91951e-05,3.568828e-05,1.0,-3.3080578e-06,2.9198825e-05,3.2484531e-06,1.0,152,0.461,0,0,0.0,False,1.0469592201351996,1.0506254319766548
0.4913681590005581,11:41:09.588161,11:40:51.531128,0,,0.006870102,0.011705458,0.07085805,-0.6357261,-0.16623624,-0.75380206,-0.48155993,0.84861445,0.21898288,0.6032846,0.502214,-0.6195392,,0.15388095,-0.034190252,0.046093464,-0.6249935,-0.17840587,0.75997007,0.22273189,0.8923112,0.39264652,-0.74818027,0.41467094,-0.51795197,,0.08748736,1.3322492,0.4648232,0.99604064,0.002844578,-0.088853195,-0.053922586,-0.77529716,-0.6292906,-0.0706777,0.63159025,-0.7720741,,-0.048796624,0.24909328,-0.12536606,0.60636437,0.079292595,0.7912237,0.07441716,0.9849907,-0.15574151,-0.79169714,0.15331672,0.59136254,,0.0447697,0.43160406,-0.3737775,0.6924183,-0.01857023,-0.72125727,-0.32423773,0.8850275,-0.33406013,0.64453614,0.46516815,0.6067881,,0.8265332085967524,-0.35657402226869406,0.16341420627000003,0.6389252577973457,-0.24266642358342222,0.5035200425708283,0.8719306250247827,,-0.6686110440517353,-0.5506617448637044,0.14974482822000001,2.1377889738247258,0.35785099288568856,0.6492989541186304,0.8755241944797366,,-0.06956664232292899,-0.09922196797587764,0.1150502548,-0.034016912529394594,,2.6144087e-05,5.364418e-07,-2.2649765e-06,1.0,-3.5692006e-05,-2.91951e-05,3.568828e-05,1.0,-3.3080578e-06,2.9198825e-05,3.2484531e-06,1.0,160,0.486,0,0,0.0,False,1.0467209092611154,1.0507219923782136
0.5107311720003054,11:41:09.612953,11:40:51.531128,0,,0.006870102,0.011705458,0.07085805,-0.6357261,-0.16623624,-0.75380206,-0.48155993,0.84861445,0.21898288,0.6032846,0.502214,-0.6195392,,0.15388095,-0.034190252,0.046093464,-0.6249935,-0.17840587,0.75997007,0.22273189,0.8923112,0.39264652,-0.74818027,0.41467094,-0.51795197,,0.08748736,1.3322492,0.4648232,0.99604064,0.002844578,-0.088853195,-0.053922586,-0.77529716,-0.6292906,-0.0706777,0.63159025,-0.7720741,,-0.048796624,0.24909328,-0.12536606,0.60636437,0.079292595,0.7912237,0.07441716,0.9849907,-0.15574151,-0.79169714,0.15331672,0.59136254,,0.0447697,0.43160406,-0.3737775,0.6924183,-0.01857023,-0.72125727,-0.32423773,0.8850275,-0.33406013,0.64453614,0.46516815,0.6067881,,0.8265332085967524,-0.35657402226869406,0.16341420627000003,0.6389252577973457,-0.24266642358342222,0.5035200425708283,0.8719306250247827,,-0.6686110440517353,-0.5506617448637044,0.14974482822000001,2.1377889738247258,0.35785099288568856,0.6492989541186304,0.8755241944797366,,-0.06956664232292899,-0.09922196797587764,0.1150502548,-0.034016912529394594,,2.6144087e-05,5.364418e-07,-2.2649765e-06,1.0,-3.5692006e-05,-2.91951e-05,3.568828e-05,1.0,-3.3080578e-06,2.9198825e-05,3.2484531e-06,1.0,168,0.51,0,0,0.0,False,1.0467804869796362,1.0505771517758753
0.5355243290014187,11:41:09.632501,11:40:51.531128,0,,0.006870102,0.011705458,0.07085805,-0.6357261,-0.16623624,-0.75380206,-0.48155993,0.84861445,0.21898288,0.6032846,0.502214,-0.6195392,,0.15388095,-0.034190252,0.046093464,-0.6249935,-0.17840587,0.75997007,0.22273189,0.8923112,0.39264652,-0.74818027,0.41467094,-0.51795197,,0.08748736,1.3322492,0.4648232,0.99604064,0.002844578,-0.088853195,-0.053922586,-0.77529716,-0.6292906,-0.0706777,0.63159025,-0.7720741,,-0.048796624,0.24909328,-0.12536606,0.60636437,0.079292595,0.7912237,0.07441716,0.9849907,-0.15574151,-0.79169714,0.15331672,0.59136254,,0.0447697,0.43160406,-0.3737775,0.6924183,-0.01857023,-0.72125727,-0.32423773,0.8850275,-0.33406013,0.64453614,0.46516815,0.6067881,,0.8265332085967524,-0.35657402226869406,0.16341420627000003,0.6389252577973457,-0.24266642358342222,0.5035200425708283,0.8719306250247827,,-0.6686110440517353,-0.5506617448637044,0.14974482822000001,2.1377889738247258,0.35785099288568856,0.6492989541186304,0.8755241944797366,,-0.06956664232292899,-0.09922196797587764,0.1150502548,-0.034016912529394594,,2.6144087e-05,5.364418e-07,-2.2649765e-06,1.0,-3.5692006e-05,-2.91951e-05,3.568828e-05,1.0,-3.3080578e-06,2.9198825e-05,3.2484531e-06,1.0,183,0.555,0,0,0.0,False,1.0466017538240733,1.0505288715750958
0.5550670960001298,11:41:09.672596,11:40:51.531128,0,,0.006870102,0.011705458,0.07085805,-0.6357261,-0.16623624,-0.75380206,-0.48155993,0.84861445,0.21898288,0.6032846,0.502214,-0.6195392,,0.15388095,-0.034190252,0.046093464,-0.6249935,-0.17840587,0.75997007,0.22273189,0.8923112,0.39264652,-0.74818027,0.41467094,-0.51795197,,0.08748736,1.3322492,0.4648232,0.99604064,0.002844578,-0.088853195,-0.053922586,-0.77529716,-0.6292906,-0.0706777,0.63159025,-0.7720741,,-0.048796624,0.24909328,-0.12536606,0.60636437,0.079292595,0.7912237,0.07441716,0.9849907,-0.15574151,-0.79169714,0.15331672,0.59136254,,0.0447697,0.43160406,-0.3737775,0.6924183,-0.01857023,-0.72125727,-0.32423773,0.8850275,-0.33406013,0.64453614,0.46516815,0.6067881,,0.8265332085967524,-0.35657402226869406,0.16341420627000003,0.6389252577973457,-0.24266642358342222,0.5035200425708283,0.8719306250247827,,-0.6686110440517353,-0.5506617448637044,0.14974482822000001,2.1377889738247258,0.35785099288568856,0.6492989541186304,0.8755241944797366,,-0.06956664232292899,-0.09922196797587764,0.1150502548,-0.034016912529394594,,2.6144087e-05,5.364418e-07,-2.2649765e-06,1.0,-3.5692006e-05,-2.91951e-05,3.568828e-05,1.0,-3.3080578e-06,2.9198825e-05,3.2484531e-06,1.0,191,0.58,0,0,0.0,False,1.0466017538240733,1.0513496349883464
0.5951745980000851,11:41:09.701366,11:40:51.531128,0,,0.0068704598,0.011706576,0.07085775,-0.63572913,-0.1662354,-0.75379974,-0.48156226,0.84861153,0.218989,0.6032796,0.5022192,-0.61953986,,0.15388095,-0.034190252,0.046093464,-0.6249935,-0.17840587,0.75997007,0.22273189,0.8923112,0.39264652,-0.74818027,0.41467094,-0.51795197,,0.08748736,1.3322492,0.4648232,0.99604064,0.002844578,-0.088853195,-0.053922586,-0.77529716,-0.6292906,-0.0706777,0.63159025,-0.7720741,,-0.048797015,0.24909392,-0.12536511,0.6063679,0.07929146,0.7912211,0.074412495,0.98499167,-0.15573747,-0.7916949,0.15331094,0.59136707,,0.0447697,0.43160406,-0.3737775,0.6924183,-0.01857023,-0.72125727,-0.32423773,0.8850275,-0.33406013,0.64453614,0.46516815,0.6067881,,0.8265332085967524,-0.35656629953581986,0.16341420627000003,0.6389252577973457,-0.24266642358342222,0.5035200425708283,0.8719306250247827,,-0.6686110440517353,-0.5506617448637044,0.14974482822000001,2.1377889738247258,0.35785099288568856,0.6492989541186304,0.8755241944797366,,-0.06956664232292899,-0.09922196797587764,0.1150502548,-0.034016912529394594,,2.6144087e-05,5.364418e-07,-2.2649765e-06,1.0,-3.5692006e-05,-2.91951e-05,3.568828e-05,1.0,-3.3080578e-06,2.9198825e-05,3.2484531e-06,1.0,199,0.604,0,0,0.0,False,1.0467804869796362,1.0506737121774343
0.6239313639998727,11:41:09.730135,11:40:51.531128,0,,0.006870102,0.011705458,0.07085805,-0.6357261,-0.16623624,-0.75380206,-0.48155993,0.84861445,0.21898288,0.6032846,0.502214,-0.6195392,,0.15388095,-0.034190252,0.046093464,-0.6249935,-0.17840587,0.75997007,0.22273189,0.8923112,0.39264652,-0.74818027,0.41467094,-0.51795197,,0.08748736,1.3322492,0.4648232,0.99604064,0.002844578,-0.088853195,-0.053922586,-0.77529716,-0.6292906,-0.0706777,0.63159025,-0.7720741,,-0.048796624,0.24909328,-0.12536606,0.60636437,0.079292595,0.7912237,0.07441716,0.9849907,-0.15574151,-0.79169714,0.15331672,0.59136254,,0.0447697,0.43160406,-0.3737775,0.6924183,-0.01857023,-0.72125727,-0.32423773,0.8850275,-0.33406013,0.64453614,0.46516815,0.6067881,,0.8265332085967524,-0.35657402226869406,0.16341420627000003,0.6389252577973457,-0.24266642358342222,0.5035200425708283,0.8719306250247827,,-0.6686110440517353,-0.5506617448637044,0.14974482822000001,2.1377889738247258,0.35785099288568856,0.6492989541186304,0.8755241944797366,,-0.06956664232292899,-0.09922196797587764,0.1150502548,-0.034016912529394594,,2.6144087e-05,5.364418e-07,-2.2649765e-06,1.0,-3.5692006e-05,-2.91951e-05,3.568828e-05,1.0,-3.3080578e-06,2.9198825e-05,3.2484531e-06,1.0,207,0.629,0,0,0.0,False,1.0466613315425946,1.050432311173537
0.6526955890003592,11:41:09.753567,11:40:51.732046,0,,0.0068691317,0.011705868,0.07085846,-0.6357216,-0.16623339,-0.7538066,-0.4815624,0.8486126,0.21898437,0.6032874,0.502218,-0.61953324,,0.15388095,-0.034190252,0.046093464,-0.6249935,-0.17840587,0.75997007,0.22273189,0.8923112,0.39264652,-0.74818027,0.41467094,-0.51795197,,0.08748736,1.3322492,0.4648232,0.99604064,0.002844578,-0.088853195,-0.053922586,-0.77529716,-0.6292906,-0.0706777,0.63159025,-0.7720741,,-0.048795715,0.24909395,-0.12536614,0.6063597,0.07928952,0.7912276,0.07441664,0.98499155,-0.15573618,-0.7917007,0.15331264,0.5913588,,0.0447697,0.43160406,-0.3737775,0.6924183,-0.01857023,-0.72125727,-0.32423773,0.8850275,-0.33406013,0.64453614,0.46516815,0.6067881,,0.8265409313296266,-0.35657402226869406,0.16341420627000003,0.6389252577973457,-0.24266642358342222,0.5035200425708283,0.8719306250247827,,-0.6686110440517353,-0.5506617448637044,0.14974482822000001,2.1377889738247258,0.35785099288568856,0.6492989541186304,0.8755241944797366,,-0.06956664232292899,-0.09922196797587764,0.1150502548,-0.034016912529394594,,2.6144087e-05,5.364418e-07,-2.2649765e-06,1.0,-3.5692006e-05,-2.91951e-05,3.568828e-05,1.0,-3.3080578e-06,2.9198825e-05,3.2484531e-06,1.0,215,0.654,0,0,0.0,False,1.0466017538240733,1.0507702725789931
0.6760989300000801,11:41:09.773425,11:40:51.732046,0,,0.006870102,0.011705458,0.07085805,-0.6357261,-0.16623624,-0.75380206,-0.48155993,0.84861445,0.21898288,0.6032846,0.502214,-0.6195392,,0.15388095,-0.034190252,0.046093464,-0.6249935,-0.17840587,0.75997007,0.22273189,0.8923112,0.39264652,-0.74818027,0.41467094,-0.51795197,,0.08748736,1.3322492,0.4648232,0.99604064,0.002844578,-0.088853195,-0.053922586,-0.77529716,-0.6292906,-0.0706777,0.63159025,-0.7720741,,-0.048796624,0.24909328,-0.12536606,0.60636437,0.079292595,0.7912237,0.07441716,0.9849907,-0.15574151,-0.79169714,0.15331672,0.59136254,,0.0447697,0.43160406,-0.3737775,0.6924183,-0.01857023,-0.72125727,-0.32423773,0.8850275,-0.33406013,0.64453614,0.46516815,0.6067881,,0.8265332085967524,-0.35657402226869406,0.16341420627000003,0.6389252577973457,-0.24266642358342222,0.5035200425708283,0.8719306250247827,,-0.6686110440517353,-0.5506617448637044,0.14974482822000001,2.1377889738247258,0.35785099288568856,0.6492989541186304,0.8755241944797366,,-0.06956664232292899,-0.09922196797587764,0.1150502548,-0.034016912529394594,,2.6144087e-05,5.364418e-07,-2.2649765e-06,1.0,-3.5692006e-05,-2.91951e-05,3.568828e-05,1.0,-3.3080578e-06,2.9198825e-05,3.2484531e-06,1.0,230,0.699,0,0,0.0,False,1.0464825983870312,1.051397915189126
0.6959509959997376,11:41:09.822820,11:40:51.732046,0,,0.006870566,0.011704683,0.07085793,-0.6355188,-0.16653886,-0.7539102,-0.4819055,0.8484646,0.21880269,0.60322714,0.5023667,-0.6194713,,0.15388095,-0.034190252,0.046093464,-0.6249935,-0.17840587,0.75997007,0.22273189,0.8923112,0.39264652,-0.74818027,0.41467094,-0.51795197,,0.08748736,1.3322492,0.4648232,0.99604064,0.002844578,-0.088853195,-0.053922586,-0.77529716,-0.6292906,-0.0706777,0.63159025,-0.7720741,,-0.048797037,0.24909256,-0.12536645,0.6061806,0.07958852,0.7913348,0.07409654,0.98500144,-0.1558262,-0.7918679,0.15309398,0.59119153,,0.0447697,0.43160406,-0.3737775,0.6924183,-0.01857023,-0.72125727,-0.32423773,0.8850275,-0.33406013,0.64453614,0.46516815,0.6067881,,0.8265332085967524,-0.35657402226869406,0.16341420627000003,0.6385058779103767,-0.24266642358342222,0.5035200425708283,0.8719306250247827,,-0.6686110440517353,-0.5506617448637044,0.14974482822000001,2.1377889738247258,0.35785099288568856,0.6492989541186304,0.8755241944797366,,-0.06956664232292899,-0.09922196797587764,0.1150502548,-0.034016912529394594,,2.6144087e-05,5.364418e-07,-2.2649765e-06,1.0,-3.5692006e-05,-2.91951e-05,3.568828e-05,1.0,-3.3080578e-06,2.9198825e-05,3.2484531e-06,1.0,238,0.723,0,0,0.0,False,1.0471379532907625,1.0510116735828905
0.745398250001017,11:41:09.841273,11:40:51.732046,0,,0.006870566,0.011704683,0.07085793,-0.6355188,-0.16653886,-0.7539102,-0.4819055,0.8484646,0.21880269,0.60322714,0.5023667,-0.6194713,,0.15388095,-0.034190252,0.046093464,-0.6249935,-0.17840587,0.75997007,0.22273189,0.8923112,0.39264652,-0.74818027,0.41467094,-0.51795197,,0.08748736,1.3322492,0.4648232,0.99604064,0.002844578,-0.088853195,-0.053922586,-0.77529716,-0.6292906,-0.0706777,0.63159025,-0.7720741,,-0.048797037,0.24909256,-0.12536645,0.6061806,0.07958852,0.7913348,0.07409654,0.98500144,-0.1558262,-0.7918679,0.15309398,0.59119153,,0.0447697,0.43160406,-0.3737775,0.6924183,-0.01857023,-0.72125727,-0.32423773,0.8850275,-0.33406013,0.64453614,0.46516815,0.6067881,,0.8265332085967524,-0.35657402226869406,0.16341420627000003,0.6385058779103767,-0.24266642358342222,0.5035200425708283,0.8719306250247827,,-0.6686110440517353,-0.5506617448637044,0.14974482822000001,2.1377889738247258,0.35785099288568856,0.6492989541186304,0.8755241944797366,,-0.06956664232292899,-0.09922196797587764,0.1150502548,-0.034016912529394594,,2.6144087e-05,5.364418e-07,-2.2649765e-06,1.0,-3.5692006e-05,-2.91951e-05,3.568828e-05,1.0,-3.3080578e-06,2.9198825e-05,3.2484531e-06,1.0,242,0.735,0,0,0.0,False,1.0471379532907625,1.0507702725789931
0.7638282050011185,11:41:09.868913,11:40:51.732046,0,,0.0068695974,0.011705086,0.070858315,-0.6355142,-0.166536,-0.7539147,-0.48190796,0.8484629,0.2188042,0.60322994,0.5023707,-0.61946535,,0.15388095,-0.034190252,0.046093464,-0.6249935,-0.17840587,0.75997007,0.22273189,0.8923112,0.39264652,-0.74818027,0.41467094,-0.51795197,,0.08748736,1.3322492,0.4648232,0.99604064,0.002844578,-0.088853195,-0.053922586,-0.77529716,-0.6292906,-0.0706777,0.63159025,-0.7720741,,-0.04879613,0.24909322,-0.12536652,0.60617596,0.07958543,0.7913387,0.07409602,0.98500234,-0.15582085,-0.7918715,0.1530899,0.5911878,,0.0447697,0.43160406,-0.3737775,0.6924183,-0.01857023,-0.72125727,-0.32423773,0.8850275,-0.33406013,0.64453614,0.46516815,0.6067881,,0.8265409313296266,-0.35657402226869406,0.16341420627000003,0.6385058779103767,-0.24266642358342222,0.5035200425708283,0.8719306250247827,,-0.6686110440517353,-0.5506617448637044,0.14974482822000001,2.1377889738247258,0.35785099288568856,0.6492989541186304,0.8755241944797366,,-0.06956664232292899,-0.09922196797587764,0.1150502548,-0.034016912529394594,,2.6144087e-05,5.364418e-07,-2.2649765e-06,1.0,-3.5692006e-05,-2.91951e-05,3.568828e-05,1.0,-3.3080578e-06,2.9198825e-05,3.2484531e-06,1.0,250,0.76,0,0,0.0,False,1.0467804869796362,1.0513013547875674
0.7914902430002257,11:41:09.884130,11:40:51.732046,0,,0.0068695974,0.011705086,0.070858315,-0.6355142,-0.166536,-0.7539147,-0.48190796,0.8484629,0.2188042,0.60322994,0.5023707,-0.61946535,,0.15388095,-0.034190252,0.046093464,-0.6249935,-0.17840587,0.75997007,0.22273189,0.8923112,0.39264652,-0.74818027,0.41467094,-0.51795197,,0.08748736,1.3322492,0.4648232,0.99604064,0.002844578,-0.088853195,-0.053922586,-0.77529716,-0.6292906,-0.0706777,0.63159025,-0.7720741,,-0.04879613,0.24909322,-0.12536652,0.60617596,0.07958543,0.7913387,0.07409602,0.98500234,-0.15582085,-0.7918715,0.1530899,0.5911878,,0.0447697,0.43160406,-0.3737775,0.6924183,-0.01857023,-0.72125727,-0.32423773,0.8850275,-0.33406013,0.64453614,0.46516815,0.6067881,,0.8265409313296266,-0.35657402226869406,0.16341420627000003,0.6385058779103767,-0.24266642358342222,0.5035200425708283,0.8719306250247827,,-0.6686110440517353,-0.5506617448637044,0.14974482822000001,2.1377889738247258,0.35785099288568856,0.6492989541186304,0.8755241944797366,,-0.06956664232292899,-0.09922196797587764,0.1150502548,-0.034016912529394594,,2.6144087e-05,5.364418e-07,-2.2649765e-06,1.0,-3.5692006e-05,-2.91951e-05,3.568828e-05,1.0,-3.3080578e-06,2.9198825e-05,3.2484531e-06,1.0,258,0.785,0,0,0.0,False,1.0463634429499895,1.05105995378367
0.8067064030001347,11:41:09.911062,11:40:51.732046,0,,0.006870566,0.011704683,0.07085793,-0.6355188,-0.16653886,-0.7539102,-0.4819055,0.8484646,0.21880269,0.60322714,0.5023667,-0.6194713,,0.15388095,-0.034190252,0.046093464,-0.6249935,-0.17840587,0.75997007,0.22273189,0.8923112,0.39264652,-0.74818027,0.41467094,-0.51795197,,0.08748736,1.3322492,0.4648232,0.99604064,0.002844578,-0.088853195,-0.053922586,-0.77529716,-0.6292906,-0.0706777,0.63159025,-0.7720741,,-0.048797037,0.24909256,-0.12536645,0.6061806,0.07958852,0.7913348,0.07409654,0.98500144,-0.1558262,-0.7918679,0.15309398,0.59119153,,0.0447697,0.43160406,-0.3737775,0.6924183,-0.01857023,-0.72125727,-0.32423773,0.8850275,-0.33406013,0.64453614,0.46516815,0.6067881,,0.8265332085967524,-0.35657402226869406,0.16341420627000003,0.6385058779103767,-0.24266642358342222,0.5035200425708283,0.8719306250247827,,-0.6686110440517353,-0.5506617448637044,0.14974482822000001,2.1377889738247258,0.35785099288568856,0.6492989541186304,0.8755241944797366,,-0.06956664232292899,-0.09922196797587764,0.1150502548,-0.034016912529394594,,2.6144087e-05,5.364418e-07,-2.2649765e-06,1.0,-3.5692006e-05,-2.91951e-05,3.568828e-05,1.0,-3.3080578e-06,2.9198825e-05,3.2484531e-06,1.0,273,0.83,0,0,0.0,False,1.0466017538240733,1.0509151131813312
0.8335831340009463,11:41:09.952938,11:40:51.934392,0,,0.0068695974,0.011705086,0.070858315,-0.6355142,-0.166536,-0.7539147,-0.48190796,0.8484629,0.2188042,0.60322994,0.5023707,-0.61946535,,0.15388095,-0.034190252,0.046093464,-0.6249935,-0.17840587,0.75997007,0.22273189,0.8923112,0.39264652,-0.74818027,0.41467094,-0.51795197,,0.08748736,1.3322492,0.4648232,0.99604064,0.002844578,-0.088853195,-0.053922586,-0.77529716,-0.6292906,-0.0706777,0.63159025,-0.7720741,,-0.04879613,0.24909322,-0.12536652,0.60617596,0.07958543,0.7913387,0.07409602,0.98500234,-0.15582085,-0.7918715,0.1530899,0.5911878,,0.0447697,0.43160406,-0.3737775,0.6924183,-0.01857023,-0.72125727,-0.32423773,0.8850275,-0.33406013,0.64453614,0.46516815,0.6067881,,0.8265409313296266,-0.35657402226869406,0.16341420627000003,0.6385058779103767,-0.24266642358342222,0.5035200425708283,0.8719306250247827,,-0.6686110440517353,-0.5506617448637044,0.14974482822000001,2.1377889738247258,0.35785099288568856,0.6492989541186304,0.8755241944797366,,-0.06956664232292899,-0.09922196797587764,0.1150502548,-0.034016912529394594,,2.6144087e-05,5.364418e-07,-2.2649765e-06,1.0,-3.5692006e-05,-2.91951e-05,3.568828e-05,1.0,-3.3080578e-06,2.9198825e-05,3.2484531e-06,1.0,285,0.867,0,0,0.0,False,1.0466613315425946,1.0510116735828905
0.8754487890000746,11:41:09.990413,11:40:51.934392,0,,0.006870566,0.011704683,0.07085793,-0.6355188,-0.16653886,-0.7539102,-0.4819055,0.8484646,0.21880269,0.60322714,0.5023667,-0.6194713,,0.15388095,-0.034190252,0.046093464,-0.6249935,-0.17840587,0.75997007,0.22273189,0.8923112,0.39264652,-0.74818027,0.41467094,-0.51795197,,0.08748736,1.3322492,0.4648232,0.99604064,0.002844578,-0.088853195,-0.053922586,-0.77529716,-0.6292906,-0.0706777,0.63159025,-0.7720741,,-0.048797037,0.24909256,-0.12536645,0.6061806,0.07958852,0.7913348,0.07409654,0.98500144,-0.1558262,-0.7918679,0.15309398,0.59119153,,0.0447697,0.43160406,-0.3737775,0.6924183,-0.01857023,-0.72125727,-0.32423773,0.8850275,-0.33406013,0.64453614,0.46516815,0.6067881,,0.8265332085967524,-0.35657402226869406,0.16341420627000003,0.6385058779103767,-0.24266642358342222,0.5035200425708283,0.8719306250247827,,-0.6686110440517353,-0.5506617448637044,0.14974482822000001,2.1377889738247258,0.35785099288568856,0.6492989541186304,0.8755241944797366,,-0.06956664232292899,-0.09922196797587764,0.1150502548,-0.034016912529394594,,2.6144087e-05,5.364418e-07,-2.2649765e-06,1.0,-3.5692006e-05,-2.91951e-05,3.568828e-05,1.0,-3.3080578e-06,2.9198825e-05,3.2484531e-06,1.0,293,0.891,0,0,0.0,False,1.0468400646981575,1.0510116735828905
0.9129784050001035,11:41:10.011695,11:40:51.934392,0,,0.0068695974,0.011705086,0.070858315,-0.6355142,-0.166536,-0.7539147,-0.48190796,0.8484629,0.2188042,0.60322994,0.5023707,-0.61946535,,0.15388095,-0.034190252,0.046093464,-0.6249935,-0.17840587,0.75997007,0.22273189,0.8923112,0.39264652,-0.74818027,0.41467094,-0.51795197,,0.08748736,1.3322492,0.4648232,0.99604064,0.002844578,-0.088853195,-0.053922586,-0.77529716,-0.6292906,-0.0706777,0.63159025,-0.7720741,,-0.04879613,0.24909322,-0.12536652,0.60617596,0.07958543,0.7913387,0.07409602,0.98500234,-0.15582085,-0.7918715,0.1530899,0.5911878,,0.0447697,0.43160406,-0.3737775,0.6924183,-0.01857023,-0.72125727,-0.32423773,0.8850275,-0.33406013,0.64453614,0.46516815,0.6067881,,0.8265409313296266,-0.35657402226869406,0.16341420627000003,0.6385058779103767,-0.24266642358342222,0.5035200425708283,0.8719306250247827,,-0.6686110440517353,-0.5506617448637044,0.14974482822000001,2.1377889738247258,0.35785099288568856,0.6492989541186304,0.8755241944797366,,-0.06956664232292899,-0.09922196797587764,0.1150502548,-0.034016912529394594,,2.6144087e-05,5.364418e-07,-2.2649765e-06,1.0,-3.5692006e-05,-2.91951e-05,3.568828e-05,1.0,-3.3080578e-06,2.9198825e-05,3.2484531e-06,1.0,297,0.903,0,0,0.0,False,1.0468400646981575,1.0505771517758753
0.9342543090006075,11:41:10.026094,11:40:51.934392,0,,0.006870566,0.011704683,0.07085793,-0.6355188,-0.16653886,-0.7539102,-0.4819055,0.8484646,0.21880269,0.60322714,0.5023667,-0.6194713,,0.15388116,-0.034189656,0.046093464,-0.62505585,-0.17855947,0.75988275,0.22254571,0.89231724,0.39273846,-0.7481836,0.41459197,-0.5180104,,0.08748736,1.3322492,0.4648232,0.99604064,0.002844578,-0.088853195,-0.053922586,-0.77529716,-0.6292906,-0.0706777,0.63159025,-0.7720741,,-0.048797037,0.24909256,-0.12536645,0.6061806,0.07958852,0.7913348,0.07409654,0.98500144,-0.1558262,-0.7918679,0.15309398,0.59119153,,0.0447694,0.4316044,-0.37377703,0.69250685,-0.01840893,-0.7211764,-0.3243365,0.88500136,-0.33403364,0.6443913,0.46522442,0.6068988,,0.8265332085967524,-0.35657402226869406,0.16341420627000003,0.6385058779103767,-0.24266642358342222,0.5035200425708283,0.8719306250247827,,-0.6686110440517353,-0.5506617448637044,0.14974482822000001,2.1375792838812413,0.35785099288568856,0.6492989541186304,0.8755241944797366,,-0.06956664232292899,-0.09922196797587764,0.1150502548,-0.034016912529394594,,2.6144087e-05,5.364418e-07,-2.2649765e-06,1.0,-3.5692006e-05,-2.91951e-05,3.568828e-05,1.0,-3.3080578e-06,2.9198825e-05,3.2484531e-06,1.0,305,0.928,0,0,0.0,False,1.0464825983870312,1.0507219923782136
0.9486014129997784,11:41:10.044663,11:40:51.934392,0,,0.006870566,0.011704683,0.07085793,-0.6355188,-0.16653886,-0.7539102,-0.4819055,0.8484646,0.21880269,0.60322714,0.5023667,-0.6194713,,0.15388137,-0.034188986,0.046093524,-0.62511814,-0.17871305,0.7597955,0.22235945,0.89232314,0.39283043,-0.74818695,0.41451293,-0.5180688,,0.08748736,1.3322492,0.4648232,0.99604064,0.002844578,-0.088853195,-0.053922586,-0.77529716,-0.6292906,-0.0706777,0.63159025,-0.7720741,,-0.048797037,0.24909256,-0.12536645,0.6061806,0.07958852,0.7913348,0.07409654,0.98500144,-0.1558262,-0.7918679,0.15309398,0.59119153,,0.044769097,0.43160474,-0.37377653,0.69259536,-0.018247623,-0.7210955,-0.3244353,0.88497514,-0.33400717,0.6442464,0.46528062,0.6070095,,0.8265332085967524,-0.35657402226869406,0.16341420627000003,0.6385058779103767,-0.24266642358342222,0.5035200425708283,0.8719306250247827,,-0.6686110440517353,-0.5506617448637044,0.14974482822000001,2.137369593937757,0.35785099288568856,0.6492989541186304,0.8755241944797366,,-0.06956664232292899,-0.09922196797587764,0.1150502548,-0.034016912529394594,,2.6144087e-05,5.364418e-07,-2.2649765e-06,1.0,-3.5692006e-05,-2.91951e-05,3.568828e-05,1.0,-3.3080578e-06,2.9198825e-05,3.2484531e-06,1.0,320,0.973,0,0,0.0,False,1.046244287512947,1.0506737121774343
0.9672370139996929,11:41:10.094856,11:40:51.934392,0,,0.006870566,0.011704683,0.07085793,-0.6355188,-0.16653886,-0.7539102,-0.4819055,0.8484646,0.21880269,0.60322714,0.5023667,-0.6194713,,0.15388137,-0.034188986,0.046093524,-0.62511814,-0.17871305,0.7597955,0.22235945,0.89232314,0.39283043,-0.74818695,0.41451293,-0.5180688,,0.08748736,1.3322492,0.4648232,0.99604064,0.002844578,-0.088853195,-0.053922586,-0.77529716,-0.6292906,-0.0706777,0.63159025,-0.7720741,,-0.048797037,0.24909256,-0.12536645,0.6061806,0.07958852,0.7913348,0.07409654,0.98500144,-0.1558262,-0.7918679,0.15309398,0.59119153,,0.044769097,0.43160474,-0.37377653,0.69259536,-0.018247623,-0.7210955,-0.3244353,0.88497514,-0.33400717,0.6442464,0.46528062,0.6070095,,0.8265332085967524,-0.35657402226869406,0.16341420627000003,0.6385058779103767,-0.24266642358342222,0.5035200425708283,0.8719306250247827,,-0.6686110440517353,-0.5506617448637044,0.14974482822000001,2.137369593937757,0.35785099288568856,0.6492989541186304,0.8755241944797366,,-0.06956664232292899,-0.09922196797587764,0.1150502548,-0.034016912529394594,,2.6144087e-05,5.364418e-07,-2.2649765e-06,1.0,-3.5692006e-05,-2.91951e-05,3.568828e-05,1.0,-3.3080578e-06,2.9198825e-05,3.2484531e-06,1.0,328,0.998,0,0,0.0,False,1.0467804869796362,1.050335750771978
1.0173503440000786,11:41:10.121827,11:40:52.104230,0,,0.0068764035,0.011706091,0.070858836,-0.6355278,-0.16655664,-0.7538987,-0.48190683,0.84846646,0.21879268,0.60321635,0.5023579,-0.6194889,,0.15390755,-0.034179293,0.046108425,-0.625066,-0.17873505,0.7598333,0.22237659,0.8923173,0.39283416,-0.7482254,0.41451627,-0.5180105,,0.0874716,1.3322499,0.46482903,0.9960419,0.002862191,-0.0888389,-0.05389996,-0.7752971,-0.6292926,-0.0706777,0.63159025,-0.7720741,,-0.04878941,0.24908979,-0.1253629,0.6062007,0.07958738,0.7913195,0.074101366,0.985,-0.15583321,-0.79185206,0.15310407,0.5912101,,0.044753756,0.43161485,-0.3737737,0.6925441,-0.01824798,-0.7211447,-0.32445514,0.88497776,-0.33398092,0.64429146,0.46527565,0.6069655,,0.8265332085967524,-0.35657402226869406,0.16341420627000003,0.6385058779103767,-0.24266642358342222,0.5035200425708283,0.8719306250247827,,-0.6686110440517353,-0.5506617448637044,0.14974482822000001,2.137369593937757,0.35785099288568856,0.6492989541186304,0.8755241944797366,,-0.06956664232292899,-0.09922196797587764,0.1150502548,-0.034016912529394594,,9.994954e-06,3.7550926e-06,-5.722046e-06,1.0,-1.815334e-05,-1.4837831e-05,1.8145889e-05,1.0,-1.66893e-06,1.4849007e-05,1.6391277e-06,0.99999994,357,1.087,0,0,0.0,False,1.0464825983870312,1.0509151131813312
1.0443987800008472,11:41:10.204792,11:40:52.104230,0,,0.0068754386,0.011706509,0.07085922,-0.63552326,-0.1665538,-0.7539031,-0.4819094,0.8484647,0.21879415,0.6032192,0.50236183,-0.61948293,,0.15390755,-0.034179293,0.046108425,-0.625066,-0.17873505,0.7598333,0.22237659,0.8923173,0.39283416,-0.7482254,0.41451627,-0.5180105,,0.0874716,1.3322499,0.46482903,0.9960419,0.002862191,-0.0888389,-0.05389996,-0.7752971,-0.6292926,-0.0706777,0.63159025,-0.7720741,,-0.048788503,0.24909045,-0.12536298,0.60619605,0.0795843,0.79132336,0.074100845,0.9850009,-0.15582788,-0.7918557,0.15309997,0.5912064,,0.044753756,0.43161485,-0.3737737,0.6925441,-0.01824798,-0.7211447,-0.32445514,0.88497776,-0.33398092,0.64429146,0.46527565,0.6069655,,0.8265409313296266,-0.35657402226869406,0.16341420627000003,0.6385058779103767,-0.24266642358342222,0.5035200425708283,0.8719306250247827,,-0.6686110440517353,-0.5506617448637044,0.14974482822000001,2.137369593937757,0.35785099288568856,0.6492989541186304,0.8755241944797366,,-0.06956664232292899,-0.09922196797587764,0.1150502548,-0.034016912529394594,,9.994954e-06,3.7550926e-06,-5.722046e-06,1.0,-1.815334e-05,-1.4837831e-05,1.8145889e-05,1.0,-1.66893e-06,1.4849007e-05,1.6391277e-06,0.99999994,361,1.1,0,0,0.0,False,1.0464825983870312,1.0507219923782136
1.1273710870009381,11:41:10.223141,11:40:52.104230,0,,0.0068764035,0.011706091,0.070858836,-0.6355278,-0.16655664,-0.7538987,-0.48190683,0.84846646,0.21879268,0.60321635,0.5023579,-0.6194889,,0.15390755,-0.034179293,0.046108425,-0.625066,-0.17873505,0.7598333,0.22237659,0.8923173,0.39283416,-0.7482254,0.41451627,-0.5180105,,0.0874716,1.3322499,0.46482903,0.9960419,0.002862191,-0.0888389,-0.05389996,-0.7752971,-0.6292926,-0.0706777,0.63159025,-0.7720741,,-0.04878941,0.24908979,-0.1253629,0.6062007,0.07958738,0.7913195,0.074101366,0.985,-0.15583321,-0.79185206,0.15310407,0.5912101,,0.044753756,0.43161485,-0.3737737,0.6925441,-0.01824798,-0.7211447,-0.32445514,0.88497776,-0.33398092,0.64429146,0.46527565,0.6069655,,0.8265332085967524,-0.35657402226869406,0.16341420627000003,0.6385058779103767,-0.24266642358342222,0.5035200425708283,0.8719306250247827,,-0.6686110440517353,-0.5506617448637044,0.14974482822000001,2.137369593937757,0.35785099288568856,0.6492989541186304,0.8755241944797366,,-0.06956664232292899,-0.09922196797587764,0.1150502548,-0.034016912529394594,,9.994954e-06,3.7550926e-06,-5.722046e-06,1.0,-1.815334e-05,-1.4837831e-05,1.8145889e-05,1.0,-1.66893e-06,1.4849007e-05,1.6391277e-06,0.99999994,369,1.125,0,0,0.0,False,1.0463038652314682,1.0506254319766548
1.145719451000332,11:41:10.251080,11:40:52.104230,0,,0.0068764035,0.011706091,0.070858836,-0.6355278,-0.16655664,-0.7538987,-0.48190683,0.84846646,0.21879268,0.60321635,0.5023579,-0.6194889,,0.15390755,-0.034179293,0.046108425,-0.625066,-0.17873505,0.7598333,0.22237659,0.8923173,0.39283416,-0.7482254,0.41451627,-0.5180105,,0.0874716,1.3322499,0.46482903,0.9960419,0.002862191,-0.0888389,-0.05389996,-0.7752971,-0.6292926,-0.0706777,0.63159025,-0.7720741,,-0.04878941,0.24908979,-0.1253629,0.6062007,0.07958738,0.7913195,0.074101366,0.985,-0.15583321,-0.79185206,0.15310407,0.5912101,,0.044753756,0.43161485,-0.3737737,0.6925441,-0.01824798,-0.7211447,-0.32445514,0.88497776,-0.33398092,0.64429146,0.46527565,0.6069655,,0.8265332085967524,-0.35657402226869406,0.16341420627000003,0.6385058779103767,-0.24266642358342222,0.5035200425708283,0.8719306250247827,,-0.6686110440517353,-0.5506617448637044,0.14974482822000001,2.137369593937757,0.35785099288568856,0.6492989541186304,0.8755241944797366,,-0.06956664232292899,-0.09922196797587764,0.1150502548,-0.034016912529394594,,9.994954e-06,3.7550926e-06,-5.722046e-06,1.0,-1.815334e-05,-1.4837831e-05,1.8145889e-05,1.0,-1.66893e-06,1.4849007e-05,1.6391277e-06,0.99999994,377,1.149,0,0,0.0,False,1.0471379532907625,1.0512047943860081
1.1736519250007404,11:41:10.272676,11:40:52.252950,0,,0.0068754386,0.011706509,0.07085922,-0.63552326,-0.1665538,-0.7539031,-0.4819094,0.8484647,0.21879415,0.6032192,0.50236183,-0.61948293,,0.15390755,-0.034179293,0.046108425,-0.625066,-0.17873505,0.7598333,0.22237659,0.8923173,0.39283416,-0.7482254,0.41451627,-0.5180105,,0.0874716,1.3322499,0.46482903,0.9960419,0.002862191,-0.0888389,-0.05389996,-0.7752971,-0.6292926,-0.0706777,0.63159025,-0.7720741,,-0.048788503,0.24909045,-0.12536298,0.60619605,0.0795843,0.79132336,0.074100845,0.9850009,-0.15582788,-0.7918557,0.15309997,0.5912064,,0.044753756,0.43161485,-0.3737737,0.6925441,-0.01824798,-0.7211447,-0.32445514,0.88497776,-0.33398092,0.64429146,0.46527565,0.6069655,,0.8265409313296266,-0.35657402226869406,0.16341420627000003,0.6385058779103767,-0.24266642358342222,0.5035200425708283,0.8719306250247827,,-0.6686110440517353,-0.5506617448637044,0.14974482822000001,2.137369593937757,0.35785099288568856,0.6492989541186304,0.8755241944797366,,-0.06956664232292899,-0.09922196797587764,0.1150502548,-0.034016912529394594,,9.994954e-06,3.7550926e-06,-5.722046e-06,1.0,-1.815334e-05,-1.4837831e-05,1.8145889e-05,1.0,-1.66893e-06,1.4849007e-05,1.6391277e-06,0.99999994,385,1.174,0,0,0.0,False,1.0467209092611154,1.0506254319766548
1.1952523649997602,11:41:10.300551,11:40:52.252950,0,,0.006875936,0.011706866,0.070858955,-0.6357352,-0.16625401,-0.7537906,-0.4815613,0.84861624,0.21897283,0.6032738,0.50220525,-0.6195568,,0.15390755,-0.034179293,0.046108425,-0.625066,-0.17873505,0.7598333,0.22237659,0.8923173,0.39283416,-0.7482254,0.41451627,-0.5180105,,0.0874716,1.3322499,0.46482903,0.9960419,0.002862191,-0.0888389,-0.05389996,-0.7752971,-0.6292926,-0.0706777,0.63159025,-0.7720741,,-0.048788995,0.24909051,-0.12536252,0.60638446,0.079291455,0.79120845,0.07442198,0.9849892,-0.15574855,-0.7916813,0.1533268,0.59138113,,0.044753756,0.43161485,-0.3737737,0.6925441,-0.01824798,-0.7211447,-0.32445514,0.88497776,-0.33398092,0.64429146,0.46527565,0.6069655,,0.8265332085967524,-0.35657402226869406,0.16341420627000003,0.6389252577973457,-0.24266642358342222,0.5035200425708283,0.8719306250247827,,-0.6686110440517353,-0.5506617448637044,0.14974482822000001,2.137369593937757,0.35785099288568856,0.6492989541186304,0.8755241944797366,,-0.06956664232292899,-0.09922196797587764,0.1150502548,-0.034016912529394594,,9.994954e-06,3.7550926e-06,-5.722046e-06,1.0,-1.815334e-05,-1.4837831e-05,1.8145889e-05,1.0,-1.66893e-06,1.4849007e-05,1.6391277e-06,0.99999994,393,1.198,0,0,0.0,False,1.0467209092611154,1.0502874705711984
1.2231286960013676,11:41:10.323983,11:40:52.252950,0,,0.006873997,0.011707708,0.07085976,-0.6357261,-0.16624832,-0.75379944,-0.48156628,0.84861267,0.21897578,0.6032794,0.5022132,-0.6195449,,0.15390673,-0.034179486,0.046108067,-0.6250715,-0.17873402,0.7598289,0.2223731,0.8923181,0.3928341,-0.7482218,0.41451478,-0.51801693,,0.0874716,1.3322499,0.46482903,0.9960419,0.002862191,-0.0888389,-0.05389996,-0.7752971,-0.6292926,-0.0706777,0.63159025,-0.7720741,,-0.04878718,0.24909185,-0.12536266,0.60637516,0.079285294,0.79121614,0.07442094,0.984991,-0.15573786,-0.7916885,0.15331861,0.5913736,,0.044754643,0.43161458,-0.3737736,0.6925495,-0.0182489,-0.7211395,-0.32445323,0.8849769,-0.33398503,0.64428663,0.4652772,0.6069694,,0.8265486540625008,-0.35657402226869406,0.16341420627000003,0.6389252577973457,-0.24266642358342222,0.5035200425708283,0.8719306250247827,,-0.6686033213188611,-0.5506617448637044,0.14974482822000001,2.137369593937757,0.35785099288568856,0.6492989541186304,0.8755241944797366,,-0.06956664232292899,-0.09922196797587764,0.1150502548,-0.034016912529394594,,9.994954e-06,3.7550926e-06,-5.722046e-06,1.0,-1.815334e-05,-1.4837831e-05,1.8145889e-05,1.0,-1.66893e-06,1.4849007e-05,1.6391277e-06,0.99999994,405,1.235,0,0,0.0,False,1.0466017538240733,1.0507219923782136
1.2465377810003702,11:41:10.357224,11:40:52.252950,0,,0.006875936,0.011706866,0.070858955,-0.6357352,-0.16625401,-0.7537906,-0.4815613,0.84861624,0.21897283,0.6032738,0.50220525,-0.6195568,,0.15390755,-0.034179293,0.046108425,-0.625066,-0.17873505,0.7598333,0.22237659,0.8923173,0.39283416,-0.7482254,0.41451627,-0.5180105,,0.0874716,1.3322499,0.46482903,0.9960419,0.002862191,-0.0888389,-0.05389996,-0.7752971,-0.6292926,-0.0706777,0.63159025,-0.7720741,,-0.048788995,0.24909051,-0.12536252,0.60638446,0.079291455,0.79120845,0.07442198,0.9849892,-0.15574855,-0.7916813,0.1533268,0.59138113,,0.044753756,0.43161485,-0.3737737,0.6925441,-0.01824798,-0.7211447,-0.32445514,0.88497776,-0.33398092,0.64429146,0.46527565,0.6069655,,0.8265332085967524,-0.35657402226869406,0.16341420627000003,0.6389252577973457,-0.24266642358342222,0.5035200425708283,0.8719306250247827,,-0.6686110440517353,-0.5506617448637044,0.14974482822000001,2.137369593937757,0.35785099288568856,0.6492989541186304,0.8755241944797366,,-0.06956664232292899,-0.09922196797587764,0.1150502548,-0.034016912529394594,,9.994954e-06,3.7550926e-06,-5.722046e-06,1.0,-1.815334e-05,-1.4837831e-05,1.8145889e-05,1.0,-1.66893e-06,1.4849007e-05,1.6391277e-06,0.99999994,413,1.26,0,0,0.0,False,1.0469592201351996,1.05014262996886
1.27980193500116,11:41:10.383900,11:40:52.252950,0,,0.006875936,0.011706866,0.070858955,-0.6357352,-0.16625401,-0.7537906,-0.4815613,0.84861624,0.21897283,0.6032738,0.50220525,-0.6195568,,0.15390755,-0.034179293,0.046108425,-0.625066,-0.17873505,0.7598333,0.22237659,0.8923173,0.39283416,-0.7482254,0.41451627,-0.5180105,,0.0874716,1.3322499,0.46482903,0.9960419,0.002862191,-0.0888389,-0.05389996,-0.7752971,-0.6292926,-0.0706777,0.63159025,-0.7720741,,-0.048788995,0.24909051,-0.12536252,0.60638446,0.079291455,0.79120845,0.07442198,0.9849892,-0.15574855,-0.7916813,0.1533268,0.59138113,,0.044753756,0.43161485,-0.3737737,0.6925441,-0.01824798,-0.7211447,-0.32445514,0.88497776,-0.33398092,0.64429146,0.46527565,0.6069655,,0.8265332085967524,-0.35657402226869406,0.16341420627000003,0.6389252577973457,-0.24266642358342222,0.5035200425708283,0.8719306250247827,,-0.6686110440517353,-0.5506617448637044,0.14974482822000001,2.137369593937757,0.35785099288568856,0.6492989541186304,0.8755241944797366,,-0.06956664232292899,-0.09922196797587764,0.1150502548,-0.034016912529394594,,9.994954e-06,3.7550926e-06,-5.722046e-06,1.0,-1.815334e-05,-1.4837831e-05,1.8145889e-05,1.0,-1.66893e-06,1.4849007e-05,1.6391277e-06,0.99999994,438,1.337,0,0,0.0,False,1.0468400646981575,1.050335750771978
1.3064723540010164,11:41:10.458386,11:40:52.252950,0,,0.006875936,0.011706866,0.070858955,-0.6357352,-0.16625401,-0.7537906,-0.4815613,0.84861624,0.21897283,0.6032738,0.50220525,-0.6195568,,0.15390755,-0.034179293,0.046108425,-0.625066,-0.17873505,0.7598333,0.22237659,0.8923173,0.39283416,-0.7482254,0.41451627,-0.5180105,,0.0874716,1.3322499,0.46482903,0.9960419,0.002862191,-0.0888389,-0.05389996,-0.7752971,-0.6292926,-0.0706777,0.63159025,-0.7720741,,-0.048788995,0.24909051,-0.12536252,0.60638446,0.079291455,0.79120845,0.07442198,0.9849892,-0.15574855,-0.7916813,0.1533268,0.59138113,,0.044753756,0.43161485,-0.3737737,0.6925441,-0.01824798,-0.7211447,-0.32445514,0.88497776,-0.33398092,0.64429146,0.46527565,0.6069655,,0.8265332085967524,-0.35657402226869406,0.16341420627000003,0.6389252577973457,-0.24266642358342222,0.5035200425708283,0.8719306250247827,,-0.6686110440517353,-0.5506617448637044,0.14974482822000001,2.137369593937757,0.35785099288568856,0.6492989541186304,0.8755241944797366,,-0.06956664232292899,-0.09922196797587764,0.1150502548,-0.034016912529394594,,9.994954e-06,3.7550926e-06,-5.722046e-06,1.0,-1.815334e-05,-1.4837831e-05,1.8145889e-05,1.0,-1.66893e-06,1.4849007e-05,1.6391277e-06,0.99999994,446,1.362,0,0,0.0,False,1.0463634429499895,1.05014262996886
1.3809532140003284,11:41:10.485463,11:40:52.463643,0,,0.006874969,0.011707291,0.07085934,-0.6357307,-0.16625117,-0.75379497,-0.48156378,0.8486144,0.21897432,0.6032766,0.5022092,-0.6195508,,0.15390755,-0.034179293,0.046108425,-0.625066,-0.17873505,0.7598333,0.22237659,0.8923173,0.39283416,-0.7482254,0.41451627,-0.5180105,,0.0874716,1.3322499,0.46482903,0.9960419,0.002862191,-0.0888389,-0.05389996,-0.7752971,-0.6292926,-0.0706777,0.63159025,-0.7720741,,-0.04878809,0.24909118,-0.12536259,0.6063798,0.07928838,0.79121226,0.07442146,0.9849901,-0.1557432,-0.79168487,0.15332271,0.5913774,,0.044753756,0.43161485,-0.3737737,0.6925441,-0.01824798,-0.7211447,-0.32445514,0.88497776,-0.33398092,0.64429146,0.46527565,0.6069655,,0.8265409313296266,-0.35657402226869406,0.16341420627000003,0.6389252577973457,-0.24266642358342222,0.5035200425708283,0.8719306250247827,,-0.6686110440517353,-0.5506617448637044,0.14974482822000001,2.137369593937757,0.35785099288568856,0.6492989541186304,0.8755241944797366,,-0.06956664232292899,-0.09922196797587764,0.1150502548,-0.034016912529394594,,9.994954e-06,3.7550926e-06,-5.722046e-06,1.0,-1.815334e-05,-1.4837831e-05,1.8145889e-05,1.0,-1.66893e-06,1.4849007e-05,1.6391277e-06,0.99999994,454,1.387,0,0,0.0,False,1.0468400646981575,1.0502874705711984
1.4080374260011013,11:41:10.507181,11:40:52.463643,0,,0.006875936,0.011706866,0.070858955,-0.6357352,-0.16625401,-0.7537906,-0.4815613,0.84861624,0.21897283,0.6032738,0.50220525,-0.6195568,,0.15390673,-0.034179486,0.046108067,-0.6250715,-0.17873402,0.7598289,0.2223731,0.8923181,0.3928341,-0.7482218,0.41451478,-0.51801693,,0.0874716,1.3322499,0.46482903,0.9960419,0.002862191,-0.0888389,-0.05389996,-0.7752971,-0.6292926,-0.0706777,0.63159025,-0.7720741,,-0.048788995,0.24909051,-0.12536252,0.60638446,0.079291455,0.79120845,0.07442198,0.9849892,-0.15574855,-0.7916813,0.1533268,0.59138113,,0.044754643,0.43161458,-0.3737736,0.6925495,-0.0182489,-0.7211395,-0.32445323,0.8849769,-0.33398503,0.64428663,0.4652772,0.6069694,,0.8265332085967524,-0.35657402226869406,0.16341420627000003,0.6389252577973457,-0.24266642358342222,0.5035200425708283,0.8719306250247827,,-0.6686033213188611,-0.5506617448637044,0.14974482822000001,2.137369593937757,0.35785099288568856,0.6492989541186304,0.8755241944797366,,-0.06956664232292899,-0.09922196797587764,0.1150502548,-0.034016912529394594,,9.994954e-06,3.7550926e-06,-5.722046e-06,1.0,-1.815334e-05,-1.4837831e-05,1.8145889e-05,1.0,-1.66893e-06,1.4849007e-05,1.6391277e-06,0.99999994,458,1.399,0,0,0.0,False,1.0469592201351996,1.0502874705711984
1.4297594540003047,11:41:10.535642,11:40:52.463643,0,,0.006874969,0.011707291,0.07085934,-0.6357307,-0.16625117,-0.75379497,-0.48156378,0.8486144,0.21897432,0.6032766,0.5022092,-0.6195508,,0.15390755,-0.034179293,0.046108425,-0.625066,-0.17873505,0.7598333,0.22237659,0.8923173,0.39283416,-0.7482254,0.41451627,-0.5180105,,0.0874716,1.3322499,0.46482903,0.9960419,0.002862191,-0.0888389,-0.05389996,-0.7752971,-0.6292926,-0.0706777,0.63159025,-0.7720741,,-0.04878809,0.24909118,-0.12536259,0.6063798,0.07928838,0.79121226,0.07442146,0.9849901,-0.1557432,-0.79168487,0.15332271,0.5913774,,0.044753756,0.43161485,-0.3737737,0.6925441,-0.01824798,-0.7211447,-0.32445514,0.88497776,-0.33398092,0.64429146,0.46527565,0.6069655,,0.8265409313296266,-0.35657402226869406,0.16341420627000003,0.6389252577973457,-0.24266642358342222,0.5035200425708283,0.8719306250247827,,-0.6686110440517353,-0.5506617448637044,0.14974482822000001,2.137369593937757,0.35785099288568856,0.6492989541186304,0.8755241944797366,,-0.06956664232292899,-0.09922196797587764,0.1150502548,-0.034016912529394594,,9.994954e-06,3.7550926e-06,-5.722046e-06,1.0,-1.815334e-05,-1.4837831e-05,1.8145889e-05,1.0,-1.66893e-06,1.4849007e-05,1.6391277e-06,0.99999994,470,1.436,0,0,0.0,False,1.0464825983870312,1.0504805913743163
1.4582140120000986,11:41:10.567051,11:40:52.463643,0,,0.006875936,0.011706866,0.070858955,-0.6357352,-0.16625401,-0.7537906,-0.4815613,0.84861624,0.21897283,0.6032738,0.50220525,-0.6195568,,0.15390755,-0.034179293,0.046108425,-0.625066,-0.17873505,0.7598333,0.22237659,0.8923173,0.39283416,-0.7482254,0.41451627,-0.5180105,,0.0874716,1.3322499,0.46482903,0.9960419,0.002862191,-0.0888389,-0.05389996,-0.7752971,-0.6292926,-0.0706777,0.63159025,-0.7720741,,-0.048788995,0.24909051,-0.12536252,0.60638446,0.079291455,0.79120845,0.07442198,0.9849892,-0.15574855,-0.7916813,0.1533268,0.59138113,,0.044753756,0.43161485,-0.3737737,0.6925441,-0.01824798,-0.7211447,-0.32445514,0.88497776,-0.33398092,0.64429146,0.46527565,0.6069655,,0.8265332085967524,-0.35657402226869406,0.16341420627000003,0.6389252577973457,-0.24266642358342222,0.5035200425708283,0.8719306250247827,,-0.6686110440517353,-0.5506617448637044,0.14974482822000001,2.137369593937757,0.35785099288568856,0.6492989541186304,0.8755241944797366,,-0.06956664232292899,-0.09922196797587764,0.1150502548,-0.034016912529394594,,9.994954e-06,3.7550926e-06,-5.722046e-06,1.0,-1.815334e-05,-1.4837831e-05,1.8145889e-05,1.0,-1.66893e-06,1.4849007e-05,1.6391277e-06,0.99999994,478,1.46,0,0,0.0,False,1.0468400646981575,1.0502391903704191
1.489624158000879,11:41:10.586546,11:40:52.463643,0,,0.006875936,0.011706866,0.070858955,-0.6357352,-0.16625401,-0.7537906,-0.4815613,0.84861624,0.21897283,0.6032738,0.50220525,-0.6195568,,0.15390755,-0.034179293,0.046108425,-0.625066,-0.17873505,0.7598333,0.22237659,0.8923173,0.39283416,-0.7482254,0.41451627,-0.5180105,,0.0874716,1.3322499,0.46482903,0.9960419,0.002862191,-0.0888389,-0.05389996,-0.7752971,-0.6292926,-0.0706777,0.63159025,-0.7720741,,-0.048788995,0.24909051,-0.12536252,0.60638446,0.079291455,0.79120845,0.07442198,0.9849892,-0.15574855,-0.7916813,0.1533268,0.59138113,,0.044753756,0.43161485,-0.3737737,0.6925441,-0.01824798,-0.7211447,-0.32445514,0.88497776,-0.33398092,0.64429146,0.46527565,0.6069655,,0.8265332085967524,-0.35657402226869406,0.16341420627000003,0.6389252577973457,-0.24266642358342222,0.5035200425708283,0.8719306250247827,,-0.6686110440517353,-0.5506617448637044,0.14974482822000001,2.137369593937757,0.35785099288568856,0.6492989541186304,0.8755241944797366,,-0.06956664232292899,-0.09922196797587764,0.1150502548,-0.034016912529394594,,9.994954e-06,3.7550926e-06,-5.722046e-06,1.0,-1.815334e-05,-1.4837831e-05,1.8145889e-05,1.0,-1.66893e-06,1.4849007e-05,1.6391277e-06,0.99999994,486,1.485,0,0,0.0,False,1.0469592201351996,1.0502874705711984
1.5091197769997962,11:41:10.606024,11:40:52.463643,0,,0.006875936,0.011706866,0.070858955,-0.6357352,-0.16625401,-0.7537906,-0.4815613,0.84861624,0.21897283,0.6032738,0.50220525,-0.6195568,,0.15390755,-0.034179293,0.046108425,-0.625066,-0.17873505,0.7598333,0.22237659,0.8923173,0.39283416,-0.7482254,0.41451627,-0.5180105,,0.0874716,1.3322499,0.46482903,0.9960419,0.002862191,-0.0888389,-0.05389996,-0.7752971,-0.6292926,-0.0706777,0.63159025,-0.7720741,,-0.048788995,0.24909051,-0.12536252,0.60638446,0.079291455,0.79120845,0.07442198,0.9849892,-0.15574855,-0.7916813,0.1533268,0.59138113,,0.044753756,0.43161485,-0.3737737,0.6925441,-0.01824798,-0.7211447,-0.32445514,0.88497776,-0.33398092,0.64429146,0.46527565,0.6069655,,0.8265332085967524,-0.35657402226869406,0.16341420627000003,0.6389252577973457,-0.24266642358342222,0.5035200425708283,0.8719306250247827,,-0.6686110440517353,-0.5506617448637044,0.14974482822000001,2.137369593937757,0.35785099288568856,0.6492989541186304,0.8755241944797366,,-0.06956664232292899,-0.09922196797587764,0.1150502548,-0.034016912529394594,,9.994954e-06,3.7550926e-06,-5.722046e-06,1.0,-1.815334e-05,-1.4837831e-05,1.8145889e-05,1.0,-1.66893e-06,1.4849007e-05,1.6391277e-06,0.99999994,490,1.497,0,0,0.0,False,1.0463634429499895,1.0499012289649627
1.5286025189998327,11:41:10.627989,11:40:52.613166,0,,0.006875936,0.011706866,0.070858955,-0.6357352,-0.16625401,-0.7537906,-0.4815613,0.84861624,0.21897283,0.6032738,0.50220525,-0.6195568,,0.15390755,-0.034179293,0.046108425,-0.625066,-0.17873505,0.7598333,0.22237659,0.8923173,0.39283416,-0.7482254,0.41451627,-0.5180105,,0.0874716,1.3322499,0.46482903,0.9960419,0.002862191,-0.0888389,-0.05389996,-0.7752971,-0.6292926,-0.0706777,0.63159025,-0.7720741,,-0.048788995,0.24909051,-0.12536252,0.60638446,0.079291455,0.79120845,0.07442198,0.9849892,-0.15574855,-0.7916813,0.1533268,0.59138113,,0.044753756,0.43161485,-0.3737737,0.6925441,-0.01824798,-0.7211447,-0.32445514,0.88497776,-0.33398092,0.64429146,0.46527565,0.6069655,,0.8265332085967524,-0.35657402226869406,0.16341420627000003,0.6389252577973457,-0.24266642358342222,0.5035200425708283,0.8719306250247827,,-0.6686110440517353,-0.5506617448637044,0.14974482822000001,2.137369593937757,0.35785099288568856,0.6492989541186304,0.8755241944797366,,-0.06956664232292899,-0.09922196797587764,0.1150502548,-0.034016912529394594,,9.994954e-06,3.7550926e-06,-5.722046e-06,1.0,-1.815334e-05,-1.4837831e-05,1.8145889e-05,1.0,-1.66893e-06,1.4849007e-05,1.6391277e-06,0.99999994,519,1.586,0,0,0.0,False,1.0470783755722417,1.0500943497680806
1.5505420900008176,11:41:10.706419,11:40:52.613166,0,,0.006875936,0.011706866,0.070858955,-0.6357352,-0.16625401,-0.7537906,-0.4815613,0.84861624,0.21897283,0.6032738,0.50220525,-0.6195568,,0.15390673,-0.034179486,0.046108067,-0.6250715,-0.17873402,0.7598289,0.2223731,0.8923181,0.3928341,-0.7482218,0.41451478,-0.51801693,,0.0874716,1.3322499,0.46482903,0.9960419,0.002862191,-0.0888389,-0.05389996,-0.7752971,-0.6292926,-0.0706777,0.63159025,-0.7720741,,-0.048788995,0.24909051,-0.12536252,0.60638446,0.079291455,0.79120845,0.07442198,0.9849892,-0.15574855,-0.7916813,0.1533268,0.59138113,,0.044754643,0.43161458,-0.3737736,0.6925495,-0.0182489,-0.7211395,-0.32445323,0.8849769,-0.33398503,0.64428663,0.4652772,0.6069694,,0.8265332085967524,-0.35657402226869406,0.16341420627000003,0.6389252577973457,-0.24266642358342222,0.5035200425708283,0.8719306250247827,,-0.6686033213188611,-0.5506617448637044,0.14974482822000001,2.137369593937757,0.35785099288568856,0.6492989541186304,0.8755241944797366,,-0.06956664232292899,-0.09922196797587764,0.1150502548,-0.034016912529394594,,9.994954e-06,3.7550926e-06,-5.722046e-06,1.0,-1.815334e-05,-1.4837831e-05,1.8145889e-05,1.0,-1.66893e-06,1.4849007e-05,1.6391277e-06,0.99999994,523,1.6,0,0,0.0,False,1.0466613315425946,1.0501909101696396
1.62899555399963,11:41:10.728522,11:40:52.613166,0,,0.006875936,0.011706866,0.070858955,-0.6357352,-0.16637717,-0.75376344,-0.4815613,0.84865195,0.21883416,0.6032738,0.502104,-0.6196388,,0.15390755,-0.034179293,0.046108425,-0.625066,-0.17873505,0.7598333,0.22237659,0.8923173,0.39283416,-0.7482254,0.41451627,-0.5180105,,0.0874716,1.3322499,0.46482903,0.9960419,0.002862191,-0.0888389,-0.05389996,-0.7752971,-0.6292926,-0.0706777,0.63159025,-0.7720741,,-0.048788995,0.24909051,-0.12536252,0.60638446,0.07942071,0.79119545,0.07442198,0.9849638,-0.15590945,-0.7916813,0.1534234,0.59135604,,0.044753756,0.43161485,-0.3737737,0.6925441,-0.01824798,-0.7211447,-0.32445514,0.88497776,-0.33398092,0.64429146,0.46527565,0.6069655,,0.8265332085967524,-0.35657402226869406,0.16341420627000003,0.6389252577973457,-0.24266642358342222,0.5033566850905471,0.8722573131570512,,-0.6686110440517353,-0.5506617448637044,0.14974482822000001,2.137369593937757,0.35785099288568856,0.6492989541186304,0.8755241944797366,,-0.06956664232292899,-0.09922196797587764,0.1150502548,-0.034016912529394594,,9.994954e-06,3.7550926e-06,-5.722046e-06,1.0,-1.815334e-05,-1.4837831e-05,1.8145889e-05,1.0,-1.66893e-06,1.4849007e-05,1.6391277e-06,0.99999994,531,1.624,0,0,0.0,False,1.0467804869796362,1.049804668563404
1.6510464849998243,11:41:10.750195,11:40:52.746216,0,,0.006874969,0.011707291,0.07085934,-0.6357307,-0.16637431,-0.75376785,-0.48156378,0.84865016,0.21883565,0.6032766,0.502108,-0.61963284,,0.15390755,-0.034179293,0.046108425,-0.625066,-0.17873505,0.7598333,0.22237659,0.8923173,0.39283416,-0.7482254,0.41451627,-0.5180105,,0.0874716,1.3322499,0.46482903,0.9960419,0.002862191,-0.0888389,-0.05389996,-0.7752971,-0.6292926,-0.0706777,0.63159025,-0.7720741,,-0.04878809,0.24909118,-0.12536259,0.6063798,0.07941762,0.7911993,0.07442146,0.98496467,-0.1559041,-0.79168487,0.15341932,0.5913523,,0.044753756,0.43161485,-0.3737737,0.6925441,-0.01824798,-0.7211447,-0.32445514,0.88497776,-0.33398092,0.64429146,0.46527565,0.6069655,,0.8265409313296266,-0.35657402226869406,0.16341420627000003,0.6389252577973457,-0.24266642358342222,0.5033566850905471,0.8722573131570512,,-0.6686110440517353,-0.5506617448637044,0.14974482822000001,2.137369593937757,0.35785099288568856,0.6492989541186304,0.8755241944797366,,-0.06956664232292899,-0.09922196797587764,0.1150502548,-0.034016912529394594,,9.994954e-06,3.7550926e-06,-5.722046e-06,1.0,-1.815334e-05,-1.4837831e-05,1.8145889e-05,1.0,-1.66893e-06,1.4849007e-05,1.6391277e-06,0.99999994,539,1.649,0,0,0.0,False,1.0467209092611154,1.0502874705711984
1.6727708649996202,11:41:10.774705,11:40:52.746216,0,,0.006875936,0.011706866,0.070858955,-0.6357352,-0.16637717,-0.75376344,-0.4815613,0.84865195,0.21883416,0.6032738,0.502104,-0.6196388,,0.15390755,-0.034179293,0.046108425,-0.625066,-0.17873505,0.7598333,0.22237659,0.8923173,0.39283416,-0.7482254,0.41451627,-0.5180105,,0.0874716,1.3322499,0.46482903,0.9960419,0.002862191,-0.0888389,-0.05389996,-0.7752971,-0.6292926,-0.0706777,0.63159025,-0.7720741,,-0.048788995,0.24909051,-0.12536252,0.60638446,0.07942071,0.79119545,0.07442198,0.9849638,-0.15590945,-0.7916813,0.1534234,0.59135604,,0.044753756,0.43161485,-0.3737737,0.6925441,-0.01824798,-0.7211447,-0.32445514,0.88497776,-0.33398092,0.64429146,0.46527565,0.6069655,,0.8265332085967524,-0.35657402226869406,0.16341420627000003,0.6389252577973457,-0.24266642358342222,0.5033566850905471,0.8722573131570512,,-0.6686110440517353,-0.5506617448637044,0.14974482822000001,2.137369593937757,0.35785099288568856,0.6492989541186304,0.8755241944797366,,-0.06956664232292899,-0.09922196797587764,0.1150502548,-0.034016912529394594,,9.994954e-06,3.7550926e-06,-5.722046e-06,1.0,-1.815334e-05,-1.4837831e-05,1.8145889e-05,1.0,-1.66893e-06,1.4849007e-05,1.6391277e-06,0.99999994,547,1.673,0,0,0.0,False,1.0464825983870312,1.050432311173537
1.6972753600002761,11:41:10.799590,11:40:52.746216,0,,0.006874969,0.011707291,0.07085934,-0.6357307,-0.16637431,-0.75376785,-0.48156378,0.84865016,0.21883565,0.6032766,0.502108,-0.61963284,,0.15390755,-0.034179293,0.046108425,-0.625066,-0.17873505,0.7598333,0.22237659,0.8923173,0.39283416,-0.7482254,0.41451627,-0.5180105,,0.0874716,1.3322499,0.46482903,0.9960419,0.002862191,-0.0888389,-0.05389996,-0.7752971,-0.6292926,-0.0706777,0.63159025,-0.7720741,,-0.04878809,0.24909118,-0.12536259,0.6063798,0.07941762,0.7911993,0.07442146,0.98496467,-0.1559041,-0.79168487,0.15341932,0.5913523,,0.044753756,0.43161485,-0.3737737,0.6925441,-0.01824798,-0.7211447,-0.32445514,0.88497776,-0.33398092,0.64429146,0.46527565,0.6069655,,0.8265409313296266,-0.35657402226869406,0.16341420627000003,0.6389252577973457,-0.24266642358342222,0.5033566850905471,0.8722573131570512,,-0.6686110440517353,-0.5506617448637044,0.14974482822000001,2.137369593937757,0.35785099288568856,0.6492989541186304,0.8755241944797366,,-0.06956664232292899,-0.09922196797587764,0.1150502548,-0.034016912529394594,,9.994954e-06,3.7550926e-06,-5.722046e-06,1.0,-1.815334e-05,-1.4837831e-05,1.8145889e-05,1.0,-1.66893e-06,1.4849007e-05,1.6391277e-06,0.99999994,555,1.698,0,0,0.0,False,1.0467209092611154,1.049418426957168
1.7221552099999826,11:41:10.827722,11:40:52.746216,0,,0.006875936,0.011706866,0.070858955,-0.6357352,-0.16637717,-0.75376344,-0.4815613,0.84865195,0.21883416,0.6032738,0.502104,-0.6196388,,0.15390755,-0.034179293,0.046108425,-0.625066,-0.17873505,0.7598333,0.22237659,0.8923173,0.39283416,-0.7482254,0.41451627,-0.5180105,,0.0874716,1.3322499,0.46482903,0.9960419,0.002862191,-0.0888389,-0.05389996,-0.7752971,-0.6292926,-0.0706777,0.63159025,-0.7720741,,-0.048788995,0.24909051,-0.12536252,0.60638446,0.07942071,0.79119545,0.07442198,0.9849638,-0.15590945,-0.7916813,0.1534234,0.59135604,,0.044753756,0.43161485,-0.3737737,0.6925441,-0.01824798,-0.7211447,-0.32445514,0.88497776,-0.33398092,0.64429146,0.46527565,0.6069655,,0.8265332085967524,-0.35657402226869406,0.16341420627000003,0.6389252577973457,-0.24266642358342222,0.5033566850905471,0.8722573131570512,,-0.6686110440517353,-0.5506617448637044,0.14974482822000001,2.137369593937757,0.35785099288568856,0.6492989541186304,0.8755241944797366,,-0.06956664232292899,-0.09922196797587764,0.1150502548,-0.034016912529394594,,9.994954e-06,3.7550926e-06,-5.722046e-06,1.0,-1.815334e-05,-1.4837831e-05,1.8145889e-05,1.0,-1.66893e-06,1.4849007e-05,1.6391277e-06,0.99999994,563,1.723,0,0,0.0,False,1.0464825983870312,1.05014262996886
1.7502981680008816,11:41:10.839404,11:40:52.746216,0,,0.006875936,0.011706866,0.070858955,-0.6357352,-0.16637717,-0.75376344,-0.4815613,0.84865195,0.21883416,0.6032738,0.502104,-0.6196388,,0.15390755,-0.034179293,0.046108425,-0.625066,-0.17873505,0.7598333,0.22237659,0.8923173,0.39283416,-0.7482254,0.41451627,-0.5180105,,0.0874716,1.3322499,0.46482903,0.9960419,0.002862191,-0.0888389,-0.05389996,-0.7752971,-0.6292926,-0.0706777,0.63159025,-0.7720741,,-0.048788995,0.24909051,-0.12536252,0.60638446,0.07942071,0.79119545,0.07442198,0.9849638,-0.15590945,-0.7916813,0.1534234,0.59135604,,0.044753756,0.43161485,-0.3737737,0.6925441,-0.01824798,-0.7211447,-0.32445514,0.88497776,-0.33398092,0.64429146,0.46527565,0.6069655,,0.8265332085967524,-0.35657402226869406,0.16341420627000003,0.6389252577973457,-0.24266642358342222,0.5033566850905471,0.8722573131570512,,-0.6686110440517353,-0.5506617448637044,0.14974482822000001,2.137369593937757,0.35785099288568856,0.6492989541186304,0.8755241944797366,,-0.06956664232292899,-0.09922196797587764,0.1150502548,-0.034016912529394594,,9.994954e-06,3.7550926e-06,-5.722046e-06,1.0,-1.815334e-05,-1.4837831e-05,1.8145889e-05,1.0,-1.66893e-06,1.4849007e-05,1.6391277e-06,0.99999994,596,1.824,0,0,0.0,False,1.0468996424166788,1.049804668563404
1.7619828059996507,11:41:10.941628,11:40:52.746216,0,,0.0068764035,0.011706091,0.070858836,-0.6355278,-0.16667978,-0.75387144,-0.48190683,0.8485022,0.21865407,0.60321635,0.50225675,-0.619571,,0.15390755,-0.034179293,0.046108425,-0.625066,-0.17873505,0.7598333,0.22237659,0.8923173,0.39283416,-0.7482254,0.41451627,-0.5180105,,0.0874716,1.3322499,0.46482903,0.9960419,0.002862191,-0.0888389,-0.05389996,-0.7752971,-0.6292926,-0.0706777,0.63159025,-0.7720741,,-0.04878941,0.24908979,-0.1253629,0.6062007,0.079716645,0.7913065,0.074101366,0.9849745,-0.15599413,-0.79185206,0.15320064,0.59118515,,0.044753756,0.43161485,-0.3737737,0.6925441,-0.01824798,-0.7211447,-0.32445514,0.88497776,-0.33398092,0.64429146,0.46527565,0.6069655,,0.8265332085967524,-0.35657402226869406,0.16341420627000003,0.6385058779103767,-0.24266642358342222,0.5033566850905471,0.8722573131570512,,-0.6686110440517353,-0.5506617448637044,0.14974482822000001,2.137369593937757,0.35785099288568856,0.6492989541186304,0.8755241944797366,,-0.06956664232292899,-0.09922196797587764,0.1150502548,-0.034016912529394594,,9.994954e-06,3.7550926e-06,-5.722046e-06,1.0,-1.815334e-05,-1.4837831e-05,1.8145889e-05,1.0,-1.66893e-06,1.4849007e-05,1.6391277e-06,0.99999994,604,1.85,0,0,0.0,False,1.0469592201351996,1.049804668563404
1.864202994000152,11:41:10.971300,11:40:52.746216,0,,0.0068764035,0.011706091,0.070858836,-0.6355278,-0.16667978,-0.75387144,-0.48190683,0.8485022,0.21865407,0.60321635,0.50225675,-0.619571,,0.15390755,-0.034179293,0.046108425,-0.625066,-0.17873505,0.7598333,0.22237659,0.8923173,0.39283416,-0.7482254,0.41451627,-0.5180105,,0.0874716,1.3322499,0.46482903,0.9960419,0.002862191,-0.0888389,-0.05389996,-0.7752971,-0.6292926,-0.0706777,0.63159025,-0.7720741,,-0.04878941,0.24908979,-0.1253629,0.6062007,0.079716645,0.7913065,0.074101366,0.9849745,-0.15599413,-0.79185206,0.15320064,0.59118515,,0.044753756,0.43161485,-0.3737737,0.6925441,-0.01824798,-0.7211447,-0.32445514,0.88497776,-0.33398092,0.64429146,0.46527565,0.6069655,,0.8265332085967524,-0.35657402226869406,0.16341420627000003,0.6385058779103767,-0.24266642358342222,0.5033566850905471,0.8722573131570512,,-0.6686110440517353,-0.5506617448637044,0.14974482822000001,2.137369593937757,0.35785099288568856,0.6492989541186304,0.8755241944797366,,-0.06956664232292899,-0.09922196797587764,0.1150502548,-0.034016912529394594,,9.994954e-06,3.7550926e-06,-5.722046e-06,1.0,-1.815334e-05,-1.4837831e-05,1.8145889e-05,1.0,-1.66893e-06,1.4849007e-05,1.6391277e-06,0.99999994,612,1.874,0,0,0.0,False,1.0464825983870312,1.049708108161845
1.8938786970011279,11:41:10.992061,11:40:52.746216,0,,0.0068754386,0.011706509,0.07085922,-0.63552326,-0.16667694,-0.75387585,-0.4819094,0.8485004,0.21865557,0.6032192,0.5022606,-0.619565,,0.15390755,-0.034179293,0.046108425,-0.625066,-0.17873505,0.7598333,0.22237659,0.8923173,0.39283416,-0.7482254,0.41451627,-0.5180105,,0.0874716,1.3322499,0.46482903,0.9960419,0.002862191,-0.0888389,-0.05389996,-0.7752971,-0.6292926,-0.0706777,0.63159025,-0.7720741,,-0.048788503,0.24909045,-0.12536298,0.60619605,0.07971357,0.79131037,0.074100845,0.9849754,-0.15598878,-0.7918557,0.15319654,0.5911814,,0.044753756,0.43161485,-0.3737737,0.6925441,-0.01824798,-0.7211447,-0.32445514,0.88497776,-0.33398092,0.64429146,0.46527565,0.6069655,,0.8265409313296266,-0.35657402226869406,0.16341420627000003,0.6385058779103767,-0.24266642358342222,0.5033566850905471,0.8722573131570512,,-0.6686110440517353,-0.5506617448637044,0.14974482822000001,2.137369593937757,0.35785099288568856,0.6492989541186304,0.8755241944797366,,-0.06956664232292899,-0.09922196797587764,0.1150502548,-0.034016912529394594,,9.994954e-06,3.7550926e-06,-5.722046e-06,1.0,-1.815334e-05,-1.4837831e-05,1.8145889e-05,1.0,-1.66893e-06,1.4849007e-05,1.6391277e-06,0.99999994,620,1.899,0,0,0.0,False,1.0467209092611154,1.0496115477602863
1.9146141130004253,11:41:11.022702,11:40:52.746216,0,,0.0068764035,0.011706091,0.070858836,-0.6355278,-0.16667978,-0.75387144,-0.48190683,0.8485022,0.21865407,0.60321635,0.50225675,-0.619571,,0.15390673,-0.034179486,0.046108067,-0.6250715,-0.17873402,0.7598289,0.2223731,0.8923181,0.3928341,-0.7482218,0.41451478,-0.51801693,,0.0874716,1.3322499,0.46482903,0.9960419,0.002862191,-0.0888389,-0.05389996,-0.7752971,-0.6292926,-0.0706777,0.63159025,-0.7720741,,-0.04878941,0.24908979,-0.1253629,0.6062007,0.079716645,0.7913065,0.074101366,0.9849745,-0.15599413,-0.79185206,0.15320064,0.59118515,,0.044754643,0.43161458,-0.3737736,0.6925495,-0.0182489,-0.7211395,-0.32445323,0.8849769,-0.33398503,0.64428663,0.4652772,0.6069694,,0.8265332085967524,-0.35657402226869406,0.16341420627000003,0.6385058779103767,-0.24266642358342222,0.5033566850905471,0.8722573131570512,,-0.6686033213188611,-0.5506617448637044,0.14974482822000001,2.137369593937757,0.35785099288568856,0.6492989541186304,0.8755241944797366,,-0.06956664232292899,-0.09922196797587764,0.1150502548,-0.034016912529394594,,9.994954e-06,3.7550926e-06,-5.722046e-06,1.0,-1.815334e-05,-1.4837831e-05,1.8145889e-05,1.0,-1.66893e-06,1.4849007e-05,1.6391277e-06,0.99999994,628,1.923,0,0,0.0,False,1.0466613315425946,1.050046069567301
1.945223442000497,11:41:11.040719,11:40:52.746216,0,,0.0068764035,0.011706091,0.070858836,-0.6355278,-0.16667978,-0.75387144,-0.48190683,0.8485022,0.21865407,0.60321635,0.50225675,-0.619571,,0.15390755,-0.034179293,0.046108425,-0.625066,-0.17873505,0.7598333,0.22237659,0.8923173,0.39283416,-0.7482254,0.41451627,-0.5180105,,0.0874716,1.3322499,0.46482903,0.9960419,0.002862191,-0.0888389,-0.05389996,-0.7752971,-0.6292926,-0.0706777,0.63159025,-0.7720741,,-0.04878941,0.24908979,-0.1253629,0.6062007,0.079716645,0.7913065,0.074101366,0.9849745,-0.15599413,-0.79185206,0.15320064,0.59118515,,0.044753756,0.43161485,-0.3737737,0.6925441,-0.01824798,-0.7211447,-0.32445514,0.88497776,-0.33398092,0.64429146,0.46527565,0.6069655,,0.8265332085967524,-0.35657402226869406,0.16341420627000003,0.6385058779103767,-0.24266642358342222,0.5033566850905471,0.8722573131570512,,-0.6686110440517353,-0.5506617448637044,0.14974482822000001,2.137369593937757,0.35785099288568856,0.6492989541186304,0.8755241944797366,,-0.06956664232292899,-0.09922196797587764,0.1150502548,-0.034016912529394594,,9.994954e-06,3.7550926e-06,-5.722046e-06,1.0,-1.815334e-05,-1.4837831e-05,1.8145889e-05,1.0,-1.66893e-06,1.4849007e-05,1.6391277e-06,0.99999994,632,1.936,0,0,0.0,False,1.0469592201351996,1.049418426957168
1.9632970840011694,11:41:11.069461,11:40:52.746216,0,,0.0068754386,0.011706509,0.07085922,-0.63552326,-0.16667694,-0.75387585,-0.4819094,0.8485004,0.21865557,0.6032192,0.5022606,-0.619565,,0.15390755,-0.034179293,0.046108425,-0.625066,-0.17873505,0.7598333,0.22237659,0.8923173,0.39283416,-0.7482254,0.41451627,-0.5180105,,0.0874716,1.3322499,0.46482903,0.9960419,0.002862191,-0.0888389,-0.05389996,-0.7752971,-0.6292926,-0.0706777,0.63159025,-0.7720741,,-0.048788503,0.24909045,-0.12536298,0.60619605,0.07971357,0.79131037,0.074100845,0.9849754,-0.15598878,-0.7918557,0.15319654,0.5911814,,0.044753756,0.43161485,-0.3737737,0.6925441,-0.01824798,-0.7211447,-0.32445514,0.88497776,-0.33398092,0.64429146,0.46527565,0.6069655,,0.8265409313296266,-0.35657402226869406,0.16341420627000003,0.6385058779103767,-0.24266642358342222,0.5033566850905471,0.8722573131570512,,-0.6686110440517353,-0.5506617448637044,0.14974482822000001,2.137369593937757,0.35785099288568856,0.6492989541186304,0.8755241944797366,,-0.06956664232292899,-0.09922196797587764,0.1150502548,-0.034016912529394594,,9.994954e-06,3.7550926e-06,-5.722046e-06,1.0,-1.815334e-05,-1.4837831e-05,1.8145889e-05,1.0,-1.66893e-06,1.4849007e-05,1.6391277e-06,0.99999994,644,1.972,0,0,0.0,False,1.0465421761055524,1.0494667071579475
1.991997215000083,11:41:11.099909,11:40:52.746216,0,,0.0068764035,0.011706091,0.070858836,-0.6355278,-0.16667978,-0.75387144,-0.48190683,0.8485022,0.21865407,0.60321635,0.50225675,-0.619571,,0.15390755,-0.034179293,0.046108425,-0.625066,-0.17873505,0.7598333,0.22237659,0.8923173,0.39283416,-0.7482254,0.41451627,-0.5180105,,0.0874716,1.3322499,0.46482903,0.9960419,0.002862191,-0.0888389,-0.05389996,-0.7752971,-0.6292926,-0.0706777,0.63159025,-0.7720741,,-0.04878941,0.24908979,-0.1253629,0.6062007,0.079716645,0.7913065,0.074101366,0.9849745,-0.15599413,-0.79185206,0.15320064,0.59118515,,0.044753756,0.43161485,-0.3737737,0.6925441,-0.01824798,-0.7211447,-0.32445514,0.88497776,-0.33398092,0.64429146,0.46527565,0.6069655,,0.8265332085967524,-0.35657402226869406,0.16341420627000003,0.6385058779103767,-0.24266642358342222,0.5033566850905471,0.8722573131570512,,-0.6686110440517353,-0.5506617448637044,0.14974482822000001,2.137369593937757,0.35785099288568856,0.6492989541186304,0.8755241944797366,,-0.06956664232292899,-0.09922196797587764,0.1150502548,-0.034016912529394594,,9.994954e-06,3.7550926e-06,-5.722046e-06,1.0,-1.815334e-05,-1.4837831e-05,1.8145889e-05,1.0,-1.66893e-06,1.4849007e-05,1.6391277e-06,0.99999994,665,2.037,0,0,0.0,False,1.0467209092611154,1.050046069567301
2.022485625000627,11:41:11.167871,11:40:53.148340,0,,0.0068764035,0.011706091,0.070858836,-0.6355278,-0.16667978,-0.75387144,-0.48190683,0.8485022,0.21865407,0.60321635,0.50225675,-0.619571,,0.15390755,-0.034179293,0.046108425,-0.625066,-0.17873505,0.7598333,0.22237659,0.8923173,0.39283416,-0.7482254,0.41451627,-0.5180105,,0.0874716,1.3322499,0.46482903,0.9960419,0.002862191,-0.0888389,-0.05389996,-0.7752971,-0.6292926,-0.0706777,0.63159025,-0.7720741,,-0.04878941,0.24908979,-0.1253629,0.6062007,0.079716645,0.7913065,0.074101366,0.9849745,-0.15599413,-0.79185206,0.15320064,0.59118515,,0.044753756,0.43161485,-0.3737737,0.6925441,-0.01824798,-0.7211447,-0.32445514,0.88497776,-0.33398092,0.64429146,0.46527565,0.6069655,,0.8265332085967524,-0.35657402226869406,0.16341420627000003,0.6385058779103767,-0.24266642358342222,0.5033566850905471,0.8722573131570512,,-0.6686110440517353,-0.5506617448637044,0.14974482822000001,2.137369593937757,0.35785099288568856,0.6492989541186304,0.8755241944797366,,-0.06956664232292899,-0.09922196797587764,0.1150502548,-0.034016912529394594,,9.994954e-06,3.7550926e-06,-5.722046e-06,1.0,-1.815334e-05,-1.4837831e-05,1.8145889e-05,1.0,-1.66893e-06,1.4849007e-05,1.6391277e-06,0.99999994,673,2.063,0,0,0.0,False,1.0470187978537204,1.0496115477602863
2.0904167759999837,11:41:11.188525,11:40:53.148340,0,,0.0068764035,0.011706091,0.070858836,-0.6355278,-0.16667978,-0.75387144,-0.48190683,0.8485022,0.21865407,0.60321635,0.50225675,-0.619571,,0.15390755,-0.034179293,0.046108425,-0.625066,-0.17873505,0.7598333,0.22237659,0.8923173,0.39283416,-0.7482254,0.41451627,-0.5180105,,0.0874716,1.3322499,0.46482903,0.9960419,0.002862191,-0.0888389,-0.05389996,-0.7752971,-0.6292926,-0.0706777,0.63159025,-0.7720741,,-0.04878941,0.24908979,-0.1253629,0.6062007,0.079716645,0.7913065,0.074101366,0.9849745,-0.15599413,-0.79185206,0.15320064,0.59118515,,0.044753756,0.43161485,-0.3737737,0.6925441,-0.01824798,-0.7211447,-0.32445514,0.88497776,-0.33398092,0.64429146,0.46527565,0.6069655,,0.8265332085967524,-0.35657402226869406,0.16341420627000003,0.6385058779103767,-0.24266642358342222,0.5033566850905471,0.8722573131570512,,-0.6686110440517353,-0.5506617448637044,0.14974482822000001,2.137369593937757,0.35785099288568856,0.6492989541186304,0.8755241944797366,,-0.06956664232292899,-0.09922196797587764,0.1150502548,-0.034016912529394594,,9.994954e-06,3.7550926e-06,-5.722046e-06,1.0,-1.815334e-05,-1.4837831e-05,1.8145889e-05,1.0,-1.66893e-06,1.4849007e-05,1.6391277e-06,0.99999994,681,2.087,0,0,0.0,False,1.0466017538240733,1.049514987358727
2.1110976620002475,11:41:11.215297,11:40:53.148340,0,,0.0068764035,0.011706091,0.070858836,-0.6355278,-0.16667978,-0.75387144,-0.48190683,0.8485022,0.21865407,0.60321635,0.50225675,-0.619571,,0.15390712,-0.034180544,0.046108425,-0.62494135,-0.17842786,0.76000786,0.22274902,0.89230525,0.39265022,-0.74821866,0.41467422,-0.5178937,,0.0874716,1.3322499,0.46482903,0.9960419,0.002862191,-0.0888389,-0.05389996,-0.7752971,-0.6292926,-0.0706777,0.63159025,-0.7720741,,-0.04878941,0.24908979,-0.1253629,0.6062007,0.079716645,0.7913065,0.074101366,0.9849745,-0.15599413,-0.79185206,0.15320064,0.59118515,,0.04475436,0.43161416,-0.37377468,0.6923671,-0.018570578,-0.72130644,-0.32425758,0.88503015,-0.33403388,0.64458114,0.46516314,0.6067441,,0.8265332085967524,-0.35657402226869406,0.16341420627000003,0.6385058779103767,-0.24266642358342222,0.5033566850905471,0.8722573131570512,,-0.6686110440517353,-0.5506617448637044,0.14974482822000001,2.1377889738247258,0.35785099288568856,0.6492989541186304,0.8755241944797366,,-0.06956664232292899,-0.09922196797587764,0.1150502548,-0.034016912529394594,,9.994954e-06,3.7550926e-06,-5.722046e-06,1.0,-1.815334e-05,-1.4837831e-05,1.8145889e-05,1.0,-1.66893e-06,1.4849007e-05,1.6391277e-06,0.99999994,689,2.112,0,0,0.0,False,1.0464825983870312,1.0492253061540504
2.137864291000369,11:41:11.237831,11:40:53.148340,0,,0.0068764035,0.011706091,0.070858836,-0.6355278,-0.16667978,-0.75387144,-0.48190683,0.8485022,0.21865407,0.60321635,0.50225675,-0.619571,,0.15390712,-0.034180544,0.046108425,-0.62494135,-0.17842786,0.76000786,0.22274902,0.89230525,0.39265022,-0.74821866,0.41467422,-0.5178937,,0.0874716,1.3322499,0.46482903,0.9960419,0.002862191,-0.0888389,-0.05389996,-0.7752971,-0.6292926,-0.0706777,0.63159025,-0.7720741,,-0.04878941,0.24908979,-0.1253629,0.6062007,0.079716645,0.7913065,0.074101366,0.9849745,-0.15599413,-0.79185206,0.15320064,0.59118515,,0.04475436,0.43161416,-0.37377468,0.6923671,-0.018570578,-0.72130644,-0.32425758,0.88503015,-0.33403388,0.64458114,0.46516314,0.6067441,,0.8265332085967524,-0.35657402226869406,0.16341420627000003,0.6385058779103767,-0.24266642358342222,0.5033566850905471,0.8722573131570512,,-0.6686110440517353,-0.5506617448637044,0.14974482822000001,2.1377889738247258,0.35785099288568856,0.6492989541186304,0.8755241944797366,,-0.06956664232292899,-0.09922196797587764,0.1150502548,-0.034016912529394594,,9.994954e-06,3.7550926e-06,-5.722046e-06,1.0,-1.815334e-05,-1.4837831e-05,1.8145889e-05,1.0,-1.66893e-06,1.4849007e-05,1.6391277e-06,0.99999994,697,2.136,0,0,0.0,False,1.0471379532907625,1.0495632675595068
2.1603743600007874,11:41:11.262437,11:40:53.148340,0,,0.0069006095,0.011689447,0.070861846,-0.6355093,-0.16670783,-0.7538808,-0.48192105,0.84850305,0.21861967,0.6032247,0.5022459,-0.6195717,,0.15386575,-0.034197353,0.04610187,-0.6249468,-0.17841016,0.7600075,0.22276002,0.8923068,0.39264062,-0.7482109,0.4146787,-0.51790154,,0.08740197,1.3322527,0.4648253,0.9960462,0.0029235356,-0.088789105,-0.053821146,-0.77529687,-0.62929964,-0.0706777,0.63159025,-0.7720741,,-0.048752617,0.24907933,-0.12538342,0.6062173,0.07967759,0.7912977,0.07413552,0.984975,-0.15597501,-0.79183614,0.15321803,0.59120196,,0.044859778,0.43161753,-0.37378567,0.69235724,-0.01866607,-0.7213134,-0.3242052,0.88502705,-0.33409303,0.64461803,0.4651653,0.6067032,,0.8265409313296266,-0.35657402226869406,0.16341420627000003,0.6385058779103767,-0.24266642358342222,0.5033566850905471,0.8722573131570512,,-0.6686110440517353,-0.5506617448637044,0.14974482822000001,2.1377889738247258,0.35785099288568856,0.6492989541186304,0.8755241944797366,,-0.06956664232292899,-0.09922196797587764,0.1150502548,-0.034016912529394594,,-5.924329e-05,-1.1324883e-06,1.5497208e-06,1.0,4.2937696e-05,3.5129488e-05,-4.2945147e-05,1.0,3.9041042e-06,-3.5133213e-05,-3.9339066e-06,1.0,705,2.161,0,0,0.0,False,1.0467209092611154,1.0499977893665218
2.184962119001284,11:41:11.275521,11:40:53.148340,0,,0.006901576,0.011689052,0.07086143,-0.6355138,-0.16671067,-0.7538763,-0.48191857,0.84850484,0.21861818,0.60322183,0.5022419,-0.61957765,,0.15386495,-0.034197606,0.04610145,-0.6249524,-0.17840914,0.76000315,0.2227565,0.8923077,0.3926406,-0.7482072,0.4146772,-0.5179079,,0.08740197,1.3322527,0.4648253,0.9960462,0.0029235356,-0.088789105,-0.053821146,-0.77529687,-0.62929964,-0.0706777,0.63159025,-0.7720741,,-0.048753522,0.24907866,-0.12538335,0.606222,0.07968067,0.7912938,0.07413604,0.9849741,-0.15598036,-0.7918325,0.15322211,0.5912057,,0.044860665,0.43161726,-0.37378561,0.69236267,-0.01866699,-0.7213082,-0.32420325,0.8850262,-0.33409712,0.6446132,0.46516684,0.60670716,,0.8265332085967524,-0.35657402226869406,0.16341420627000003,0.6385058779103767,-0.24266642358342222,0.5033566850905471,0.8722573131570512,,-0.6686033213188611,-0.5506617448637044,0.14974482822000001,2.1377889738247258,0.35785099288568856,0.6492989541186304,0.8755241944797366,,-0.06956664232292899,-0.09922196797587764,0.1150502548,-0.034016912529394594,,-5.924329e-05,-1.1324883e-06,1.5497208e-06,1.0,4.2937696e-05,3.5129488e-05,-4.2945147e-05,1.0,3.9041042e-06,-3.5133213e-05,-3.9339066e-06,1.0,713,2.185,0,0,0.0,False,1.0475549973204097,1.049804668563404
2.198092643000564,11:41:11.307204,11:40:53.148340,0,,0.006901576,0.011689052,0.07086143,-0.6355138,-0.16671067,-0.7538763,-0.48191857,0.84850484,0.21861818,0.60322183,0.5022419,-0.61957765,,0.15386575,-0.034197353,0.04610187,-0.6249468,-0.17841016,0.7600075,0.22276002,0.8923068,0.39264062,-0.7482109,0.4146787,-0.51790154,,0.08740197,1.3322527,0.4648253,0.9960462,0.0029235356,-0.088789105,-0.053821146,-0.77529687,-0.62929964,-0.0706777,0.63159025,-0.7720741,,-0.048753522,0.24907866,-0.12538335,0.606222,0.07968067,0.7912938,0.07413604,0.9849741,-0.15598036,-0.7918325,0.15322211,0.5912057,,0.044859778,0.43161753,-0.37378567,0.69235724,-0.01866607,-0.7213134,-0.3242052,0.88502705,-0.33409303,0.64461803,0.4651653,0.6067032,,0.8265332085967524,-0.35657402226869406,0.16341420627000003,0.6385058779103767,-0.24266642358342222,0.5033566850905471,0.8722573131570512,,-0.6686110440517353,-0.5506617448637044,0.14974482822000001,2.1377889738247258,0.35785099288568856,0.6492989541186304,0.8755241944797366,,-0.06956664232292899,-0.09922196797587764,0.1150502548,-0.034016912529394594,,-5.924329e-05,-1.1324883e-06,1.5497208e-06,1.0,4.2937696e-05,3.5129488e-05,-4.2945147e-05,1.0,3.9041042e-06,-3.5133213e-05,-3.9339066e-06,1.0,738,2.262,0,0,0.0,False,1.047316686446326,1.0494667071579475
