AlexandreBanks6/ExpertPlaybackApp/resources/Motions/PC1/Data_PC1_15.csv
Task Time,PC1 Time,PC2 Time,Gaze Calib,s_T_psm1,Tx,Ty,Tz,R00,R01,R02,R10,R11,R12,R20,R21,R22,s_T_psm3,Tx,Ty,Tz,R00,R01,R02,R10,R11,R12,R20,R21,R22,cart_T_ecm,Tx,Ty,Tz,R00,R01,R02,R10,R11,R12,R20,R21,R22,ecm_T_psm1,Tx,Ty,Tz,R00,R01,R02,R10,R11,R12,R20,R21,R22,ecm_T_psm3,Tx,Ty,Tz,R00,R01,R02,R10,R11,R12,R20,R21,R22,psm1_joints,q1,q2,q3,q4,q5,q6,jaw,psm3_joints,q1,q2,q3,q4,q5,q6,jaw,ecm_joints,q1,q2,q3,q4,ecmi_T_ecm,Tx,Ty,Tz,R00,R01,R02,R10,R11,R12,R20,R21,R22,Sample #,Task Duration (s),Collisions (binary),Collisions (increments),Cumulative Collision Time (s)
""
lci_T_si,,,,,-0.06864096,0.02035466,0.2890472,0.99529886,0.03921753,0.08855573,0.08661883,-0.7694928,-0.6327543,0.04332793,0.6374503,-0.76927227
rci_T_si,,,,,-0.07901237,0.025315365,0.29902348,0.9952708,0.02247406,0.09450371,0.078720324,-0.75660324,-0.64911836,0.056913484,0.6534879,-0.7547943
ecm_T_lc,,,,,-4.4061628e-05,-0.00034663224,-0.01840835,-0.99912,0.030754527,0.028518902,-0.031987965,-0.99852574,-0.043852776,0.027128186,-0.04472645,0.9986309
ecm_T_rc,,,,,-0.0043358393,0.01870579,-0.007592615,-0.99555075,-0.052743673,-0.078081585,0.04863213,-0.9973746,0.053654674,-0.08070653,0.04961868,0.9955021
cart_T_ecmi,,,,,0.089813165,1.3490103,0.4850918,0.99604815,0.0026799869,-0.08877414,-0.053854886,-0.7765921,-0.6276977,-0.07062352,0.629998,-0.7733788
ecmac_T_ecmrep_psm1,,,,,0.08626859,-0.2052861,-0.33370098,0.999004,0.025128257,0.036871605,-0.023534218,0.9987958,-0.04304718,-0.037908904,0.04213656,0.9983924
ecmac_T_ecmrep_psm3,,,,,-0.16209933,-0.49188918,-0.56672233,0.99379694,-0.09876928,0.05111077,0.087427974,0.9779163,0.18983154,-0.068731576,-0.18418549,0.98048544
""
0,10:06:21.814692,NaN,0,,0.027680613,0.049042232,0.07548638,-0.8674267,-0.37024838,-0.33239582,-0.49131292,0.7429295,0.45460686,0.07862924,0.5576485,-0.8263448,,0.13952716,-0.044302505,0.0735102,-0.74222916,-0.61772114,0.259839,-0.44372502,0.7435714,0.5002099,-0.502199,0.2559733,-0.82599866,,0.08981581,1.3490098,0.48510182,0.99604887,0.0026895737,-0.08876639,-0.053842593,-0.7765921,-0.6276988,-0.07062352,0.629998,-0.7733788,,-0.072571136,0.27895126,-0.07626189,0.8813079,0.2831652,0.37830397,-0.24639532,0.95849633,-0.14343669,-0.40321928,0.03319955,0.91450095,,0.055043332,0.44357258,-0.37035105,0.8666139,0.45698258,-0.2003678,-0.498002,0.7670008,-0.40460327,-0.031214392,0.45041838,0.8922718,,0.819814430996177,-0.08604668968460949,0.15336925506000001,0.637038048305985,0.1186004817964023,0.3042501949415263,0.8704605284295741,,-0.6228538517719552,-0.6842186871905431,0.12753419536000002,1.4491671994215478,0.22722649910992745,0.789629468470602,0.8676836793052913,,-0.06956664232292899,-0.10125745821601603,0.0886362022,-0.034016912529394594,,1.963228e-06,6.7949295e-06,-7.6293945e-06,1.0,9.547919e-06,7.778406e-06,-9.547919e-06,1.0,8.940697e-07,-7.774681e-06,-8.34465e-07,1.0,NaN,NaN,NaN,NaN,NaN
0.01844256399999722,10:06:21.831521,NaN,0,,0.027681127,0.049040772,0.07548596,-0.867426,-0.37025207,-0.33239332,-0.4913138,0.74293447,0.454598,0.07863061,0.55763954,-0.8263506,,0.13952766,-0.04430143,0.07351014,-0.7422264,-0.6177229,0.25984243,-0.4437207,0.7435683,0.5002183,-0.50220686,0.25597775,-0.82599247,,0.08981581,1.3490098,0.48510182,0.99604887,0.0026895737,-0.08876639,-0.053842593,-0.7765921,-0.6276988,-0.07062352,0.629998,-0.7733788,,-0.07257154,0.27894983,-0.0762625,0.8813072,0.28316936,0.37830245,-0.24639517,0.9584948,-0.14344744,-0.40322086,0.03320937,0.9144999,,0.055042695,0.44357306,-0.37035018,0.86661184,0.4569841,-0.20037329,-0.4980061,0.7670029,-0.40459427,-0.031206263,0.45041332,0.8922746,,0.8198067082633028,-0.08605441241748371,0.15336925506000001,0.637038048305985,0.1186004817964023,0.3042501949415263,0.8704605284295741,,-0.6228615745048294,-0.6842109644576689,0.12753419536000002,1.4491671994215478,0.22722649910992745,0.789629468470602,0.8676836793052913,,-0.06956664232292899,-0.10125745821601603,0.0886362022,-0.034016912529394594,,1.963228e-06,6.7949295e-06,-7.6293945e-06,1.0,9.547919e-06,7.778406e-06,-9.547919e-06,1.0,8.940697e-07,-7.774681e-06,-8.34465e-07,1.0,NaN,NaN,NaN,NaN,NaN
0.035273482999400585,10:06:21.849540,NaN,0,,0.027680613,0.049042232,0.07548638,-0.8674267,-0.37024838,-0.33239582,-0.49131292,0.7429295,0.45460686,0.07862924,0.5576485,-0.8263448,,0.13952766,-0.04430143,0.07351014,-0.7422264,-0.6177229,0.25984243,-0.4437207,0.7435683,0.5002183,-0.50220686,0.25597775,-0.82599247,,0.08981581,1.3490098,0.48510182,0.99604887,0.0026895737,-0.08876639,-0.053842593,-0.7765921,-0.6276988,-0.07062352,0.629998,-0.7733788,,-0.072571136,0.27895126,-0.07626189,0.8813079,0.2831652,0.37830397,-0.24639532,0.95849633,-0.14343669,-0.40321928,0.03319955,0.91450095,,0.055042695,0.44357306,-0.37035018,0.86661184,0.4569841,-0.20037329,-0.4980061,0.7670029,-0.40459427,-0.031206263,0.45041332,0.8922746,,0.819814430996177,-0.08604668968460949,0.15336925506000001,0.637038048305985,0.1186004817964023,0.3042501949415263,0.8704605284295741,,-0.6228615745048294,-0.6842109644576689,0.12753419536000002,1.4491671994215478,0.22722649910992745,0.789629468470602,0.8676836793052913,,-0.06956664232292899,-0.10125745821601603,0.0886362022,-0.034016912529394594,,1.963228e-06,6.7949295e-06,-7.6293945e-06,1.0,9.547919e-06,7.778406e-06,-9.547919e-06,1.0,8.940697e-07,-7.774681e-06,-8.34465e-07,1.0,NaN,NaN,NaN,NaN,NaN
0.05325766099940665,10:06:21.865902,10:06:03.730581,0,,0.027682569,0.049041368,0.07548562,-0.8674285,-0.37025505,-0.33238366,-0.49131107,0.7429338,0.45460188,0.078620434,0.55763847,-0.8263524,,0.1395278,-0.044302296,0.07351044,-0.7422266,-0.6177213,0.25984564,-0.44372204,0.74357176,0.50021183,-0.5022054,0.25597134,-0.8259953,,0.08981581,1.3490098,0.48510182,0.99604887,0.0026895737,-0.08876639,-0.053842593,-0.7765921,-0.6276988,-0.07062352,0.629998,-0.7733788,,-0.07257297,0.27894992,-0.07626178,0.88131034,0.28317243,0.3782928,-0.24639933,0.9584939,-0.14344646,-0.4032114,0.033209763,0.91450405,,0.055042636,0.4435728,-0.37035105,0.86661196,0.45698306,-0.20037507,-0.49800578,0.76699954,-0.40460095,-0.031208193,0.45041996,0.8922712,,0.8197989855304286,-0.08604668968460949,0.15336925506000001,0.637038048305985,0.1186004817964023,0.3042501949415263,0.8704605284295741,,-0.6228615745048294,-0.6842186871905431,0.12753419536000002,1.4491671994215478,0.22722649910992745,0.789629468470602,0.8676836793052913,,-0.06956664232292899,-0.10125745821601603,0.0886362022,-0.034016912529394594,,1.963228e-06,6.7949295e-06,-7.6293945e-06,1.0,9.547919e-06,7.778406e-06,-9.547919e-06,1.0,8.940697e-07,-7.774681e-06,-8.34465e-07,1.0,NaN,NaN,NaN,NaN,NaN
0.06965759699960472,10:06:21.882717,10:06:03.730581,0,,0.027681585,0.049041785,0.07548599,-0.8674275,-0.37025172,-0.33238977,-0.491312,0.7429316,0.4546044,0.07862486,0.5576434,-0.8263486,,0.13952716,-0.044302505,0.0735102,-0.74222916,-0.61772114,0.259839,-0.44372502,0.7435714,0.5002099,-0.502199,0.2559733,-0.82599866,,0.08981581,1.3490098,0.48510182,0.99604887,0.0026895737,-0.08876639,-0.053842593,-0.7765921,-0.6276988,-0.07062352,0.629998,-0.7733788,,-0.07257205,0.27895057,-0.07626184,0.8813091,0.28316882,0.3782984,-0.24639732,0.9584951,-0.14344157,-0.40321535,0.033204656,0.9145025,,0.055043332,0.44357258,-0.37035105,0.8666139,0.45698258,-0.2003678,-0.498002,0.7670008,-0.40460327,-0.031214392,0.45041838,0.8922718,,0.8198067082633028,-0.08604668968460949,0.15336925506000001,0.637038048305985,0.1186004817964023,0.3042501949415263,0.8704605284295741,,-0.6228538517719552,-0.6842186871905431,0.12753419536000002,1.4491671994215478,0.22722649910992745,0.789629468470602,0.8676836793052913,,-0.06956664232292899,-0.10125745821601603,0.0886362022,-0.034016912529394594,,1.963228e-06,6.7949295e-06,-7.6293945e-06,1.0,9.547919e-06,7.778406e-06,-9.547919e-06,1.0,8.940697e-07,-7.774681e-06,-8.34465e-07,1.0,NaN,NaN,NaN,NaN,NaN
0.0863134679993891,10:06:21.902597,10:06:03.730581,0,,0.027681127,0.049040772,0.07548596,-0.867426,-0.37025207,-0.33239332,-0.4913138,0.74293447,0.454598,0.07863061,0.55763954,-0.8263506,,0.13952702,-0.04430164,0.07350984,-0.74222904,-0.61772263,0.25983578,-0.4437237,0.7435679,0.5002163,-0.5022004,0.25597972,-0.8259958,,0.08981581,1.3490098,0.48510182,0.99604887,0.0026895737,-0.08876639,-0.053842593,-0.7765921,-0.6276988,-0.07062352,0.629998,-0.7733788,,-0.07257154,0.27894983,-0.0762625,0.8813072,0.28316936,0.37830245,-0.24639517,0.9584948,-0.14344744,-0.40322086,0.03320937,0.9144999,,0.05504339,0.44357285,-0.37035015,0.8666138,0.4569836,-0.200366,-0.49800235,0.7670041,-0.4045966,-0.03121246,0.45041174,0.8922752,,0.8198067082633028,-0.08605441241748371,0.15336925506000001,0.637038048305985,0.1186004817964023,0.3042501949415263,0.8704605284295741,,-0.6228538517719552,-0.6842109644576689,0.12753419536000002,1.4491671994215478,0.22722649910992745,0.789629468470602,0.8676836793052913,,-0.06956664232292899,-0.10125745821601603,0.0886362022,-0.034016912529394594,,1.963228e-06,6.7949295e-06,-7.6293945e-06,1.0,9.547919e-06,7.778406e-06,-9.547919e-06,1.0,8.940697e-07,-7.774681e-06,-8.34465e-07,1.0,NaN,NaN,NaN,NaN,NaN
0.1063506039999993,10:06:21.919640,10:06:03.730581,0,,0.027680613,0.049042232,0.07548638,-0.8674267,-0.37024838,-0.33239582,-0.49131292,0.7429295,0.45460686,0.07862924,0.5576485,-0.8263448,,0.13952766,-0.04430143,0.07351014,-0.7422264,-0.6177229,0.25984243,-0.4437207,0.7435683,0.5002183,-0.50220686,0.25597775,-0.82599247,,0.08981581,1.3490098,0.48510182,0.99604887,0.0026895737,-0.08876639,-0.053842593,-0.7765921,-0.6276988,-0.07062352,0.629998,-0.7733788,,-0.072571136,0.27895126,-0.07626189,0.8813079,0.2831652,0.37830397,-0.24639532,0.95849633,-0.14343669,-0.40321928,0.03319955,0.91450095,,0.055042695,0.44357306,-0.37035018,0.86661184,0.4569841,-0.20037329,-0.4980061,0.7670029,-0.40459427,-0.031206263,0.45041332,0.8922746,,0.819814430996177,-0.08604668968460949,0.15336925506000001,0.637038048305985,0.1186004817964023,0.3042501949415263,0.8704605284295741,,-0.6228615745048294,-0.6842109644576689,0.12753419536000002,1.4491671994215478,0.22722649910992745,0.789629468470602,0.8676836793052913,,-0.06956664232292899,-0.10125745821601603,0.0886362022,-0.034016912529394594,,1.963228e-06,6.7949295e-06,-7.6293945e-06,1.0,9.547919e-06,7.778406e-06,-9.547919e-06,1.0,8.940697e-07,-7.774681e-06,-8.34465e-07,1.0,NaN,NaN,NaN,NaN,NaN
0.12339573799999926,10:06:21.935941,10:06:03.730581,0,,0.027680613,0.049042232,0.07548638,-0.8674267,-0.37024838,-0.33239582,-0.49131292,0.7429295,0.45460686,0.07862924,0.5576485,-0.8263448,,0.13952766,-0.04430143,0.07351014,-0.7422264,-0.6177229,0.25984243,-0.4437207,0.7435683,0.5002183,-0.50220686,0.25597775,-0.82599247,,0.08981581,1.3490098,0.48510182,0.99604887,0.0026895737,-0.08876639,-0.053842593,-0.7765921,-0.6276988,-0.07062352,0.629998,-0.7733788,,-0.072571136,0.27895126,-0.07626189,0.8813079,0.2831652,0.37830397,-0.24639532,0.95849633,-0.14343669,-0.40321928,0.03319955,0.91450095,,0.055042695,0.44357306,-0.37035018,0.86661184,0.4569841,-0.20037329,-0.4980061,0.7670029,-0.40459427,-0.031206263,0.45041332,0.8922746,,0.819814430996177,-0.08604668968460949,0.15336925506000001,0.637038048305985,0.1186004817964023,0.3042501949415263,0.8704605284295741,,-0.6228615745048294,-0.6842109644576689,0.12753419536000002,1.4491671994215478,0.22722649910992745,0.789629468470602,0.8676836793052913,,-0.06956664232292899,-0.10125745821601603,0.0886362022,-0.034016912529394594,,1.963228e-06,6.7949295e-06,-7.6293945e-06,1.0,9.547919e-06,7.778406e-06,-9.547919e-06,1.0,8.940697e-07,-7.774681e-06,-8.34465e-07,1.0,NaN,NaN,NaN,NaN,NaN
0.13967914699969697,10:06:21.961151,10:06:03.730581,0,,0.027681127,0.049040772,0.07548596,-0.867426,-0.37025207,-0.33239332,-0.4913138,0.74293447,0.454598,0.07863061,0.55763954,-0.8263506,,0.13952702,-0.04430164,0.07350984,-0.74222904,-0.61772263,0.25983578,-0.4437237,0.7435679,0.5002163,-0.5022004,0.25597972,-0.8259958,,0.08981581,1.3490098,0.48510182,0.99604887,0.0026895737,-0.08876639,-0.053842593,-0.7765921,-0.6276988,-0.07062352,0.629998,-0.7733788,,-0.07257154,0.27894983,-0.0762625,0.8813072,0.28316936,0.37830245,-0.24639517,0.9584948,-0.14344744,-0.40322086,0.03320937,0.9144999,,0.05504339,0.44357285,-0.37035015,0.8666138,0.4569836,-0.200366,-0.49800235,0.7670041,-0.4045966,-0.03121246,0.45041174,0.8922752,,0.8198067082633028,-0.08605441241748371,0.15336925506000001,0.637038048305985,0.1186004817964023,0.3042501949415263,0.8704605284295741,,-0.6228538517719552,-0.6842109644576689,0.12753419536000002,1.4491671994215478,0.22722649910992745,0.789629468470602,0.8676836793052913,,-0.06956664232292899,-0.10125745821601603,0.0886362022,-0.034016912529394594,,1.963228e-06,6.7949295e-06,-7.6293945e-06,1.0,9.547919e-06,7.778406e-06,-9.547919e-06,1.0,8.940697e-07,-7.774681e-06,-8.34465e-07,1.0,NaN,NaN,NaN,NaN,NaN
0.1622983099996418,10:06:21.982286,10:06:03.852343,0,,0.027680613,0.049042232,0.07548638,-0.8674267,-0.37024838,-0.33239582,-0.49131292,0.7429295,0.45460686,0.07862924,0.5576485,-0.8263448,,0.13952766,-0.04430143,0.07351014,-0.7422264,-0.6177229,0.25984243,-0.4437207,0.7435683,0.5002183,-0.50220686,0.25597775,-0.82599247,,0.08981581,1.3490098,0.48510182,0.99604887,0.0026895737,-0.08876639,-0.053842593,-0.7765921,-0.6276988,-0.07062352,0.629998,-0.7733788,,-0.072571136,0.27895126,-0.07626189,0.8813079,0.2831652,0.37830397,-0.24639532,0.95849633,-0.14343669,-0.40321928,0.03319955,0.91450095,,0.055042695,0.44357306,-0.37035018,0.86661184,0.4569841,-0.20037329,-0.4980061,0.7670029,-0.40459427,-0.031206263,0.45041332,0.8922746,,0.819814430996177,-0.08604668968460949,0.15336925506000001,0.637038048305985,0.1186004817964023,0.3042501949415263,0.8704605284295741,,-0.6228615745048294,-0.6842109644576689,0.12753419536000002,1.4491671994215478,0.22722649910992745,0.789629468470602,0.8676836793052913,,-0.06956664232292899,-0.10125745821601603,0.0886362022,-0.034016912529394594,,1.963228e-06,6.7949295e-06,-7.6293945e-06,1.0,9.547919e-06,7.778406e-06,-9.547919e-06,1.0,8.940697e-07,-7.774681e-06,-8.34465e-07,1.0,NaN,NaN,NaN,NaN,NaN
0.18604102499921282,10:06:21.997330,10:06:03.852343,0,,0.027680613,0.049042232,0.07548638,-0.8674267,-0.37024838,-0.33239582,-0.49131292,0.7429295,0.45460686,0.07862924,0.5576485,-0.8263448,,0.13952766,-0.04430143,0.07351014,-0.7422264,-0.6177229,0.25984243,-0.4437207,0.7435683,0.5002183,-0.50220686,0.25597775,-0.82599247,,0.08981581,1.3490098,0.48510182,0.99604887,0.0026895737,-0.08876639,-0.053842593,-0.7765921,-0.6276988,-0.07062352,0.629998,-0.7733788,,-0.072571136,0.27895126,-0.07626189,0.8813079,0.2831652,0.37830397,-0.24639532,0.95849633,-0.14343669,-0.40321928,0.03319955,0.91450095,,0.055042695,0.44357306,-0.37035018,0.86661184,0.4569841,-0.20037329,-0.4980061,0.7670029,-0.40459427,-0.031206263,0.45041332,0.8922746,,0.819814430996177,-0.08604668968460949,0.15336925506000001,0.637038048305985,0.1186004817964023,0.3042501949415263,0.8704605284295741,,-0.6228615745048294,-0.6842109644576689,0.12753419536000002,1.4491671994215478,0.22722649910992745,0.789629468470602,0.8676836793052913,,-0.06956664232292899,-0.10125745821601603,0.0886362022,-0.034016912529394594,,1.963228e-06,6.7949295e-06,-7.6293945e-06,1.0,9.547919e-06,7.778406e-06,-9.547919e-06,1.0,8.940697e-07,-7.774681e-06,-8.34465e-07,1.0,NaN,NaN,NaN,NaN,NaN
0.20108394999988377,10:06:22.015494,10:06:03.852343,0,,0.027680147,0.04904119,0.07548636,-0.8674251,-0.37024873,-0.33239943,-0.49131468,0.7429323,0.45460045,0.07863504,0.55764455,-0.8263468,,0.13952766,-0.04430143,0.07351014,-0.7422264,-0.6177229,0.25984243,-0.4437207,0.7435683,0.5002183,-0.50220686,0.25597775,-0.82599247,,0.08981581,1.3490098,0.48510182,0.99604887,0.0026895737,-0.08876639,-0.053842593,-0.7765921,-0.6276988,-0.07062352,0.629998,-0.7733788,,-0.07257062,0.27895048,-0.076262556,0.88130593,0.28316572,0.37830806,-0.24639316,0.95849603,-0.14344256,-0.4032248,0.03320426,0.9144983,,0.055042695,0.44357306,-0.37035018,0.86661184,0.4569841,-0.20037329,-0.4980061,0.7670029,-0.40459427,-0.031206263,0.45041332,0.8922746,,0.819814430996177,-0.08605441241748371,0.15336925506000001,0.637038048305985,0.1186004817964023,0.3042501949415263,0.8704605284295741,,-0.6228615745048294,-0.6842109644576689,0.12753419536000002,1.4491671994215478,0.22722649910992745,0.789629468470602,0.8676836793052913,,-0.06956664232292899,-0.10125745821601603,0.0886362022,-0.034016912529394594,,1.963228e-06,6.7949295e-06,-7.6293945e-06,1.0,9.547919e-06,7.778406e-06,-9.547919e-06,1.0,8.940697e-07,-7.774681e-06,-8.34465e-07,1.0,NaN,NaN,NaN,NaN,NaN
0.2192383819992756,10:06:22.032057,10:06:03.852343,0,,0.027681127,0.049040772,0.07548596,-0.867426,-0.37025207,-0.33239332,-0.4913138,0.74293447,0.454598,0.07863061,0.55763954,-0.8263506,,0.13947952,-0.044322472,0.07353541,-0.74224156,-0.61767817,0.25990558,-0.44367605,0.7436169,0.5001856,-0.50222385,0.25594467,-0.82599235,,0.08981581,1.3490098,0.48510182,0.99604887,0.0026895737,-0.08876639,-0.053842593,-0.7765921,-0.6276988,-0.07062352,0.629998,-0.7733788,,-0.07257154,0.27894983,-0.0762625,0.8813072,0.28316936,0.37830245,-0.24639517,0.9584948,-0.14344744,-0.40322086,0.03320937,0.9144999,,0.055088945,0.44359046,-0.37038112,0.86662275,0.45693836,-0.20043035,-0.49798998,0.76699626,-0.4046266,-0.031160079,0.45047095,0.89224714,,0.8198067082633028,-0.08605441241748371,0.15336925506000001,0.637038048305985,0.1186004817964023,0.3042501949415263,0.8704605284295741,,-0.6228538517719552,-0.6842109644576689,0.12753419536000002,1.4491671994215478,0.22722649910992745,0.789629468470602,0.8676836793052913,,-0.06956664232292899,-0.10125745821601603,0.0886362022,-0.034016912529394594,,1.963228e-06,6.7949295e-06,-7.6293945e-06,1.0,9.547919e-06,7.778406e-06,-9.547919e-06,1.0,8.940697e-07,-7.774681e-06,-8.34465e-07,1.0,NaN,NaN,NaN,NaN,NaN
0.2358131949995368,10:06:22.047154,10:06:03.928792,0,,0.027582355,0.04908415,0.07548489,-0.86747396,-0.3701638,-0.3323664,-0.4912271,0.7429629,0.45464516,0.07864277,0.5576602,-0.8263355,,0.1395,-0.044316668,0.073524594,-0.7422391,-0.6176783,0.25991228,-0.44367296,0.7436174,0.5001875,-0.5022303,0.2559427,-0.825989,,0.08979642,1.3490115,0.48508865,0.9960488,0.0026894878,-0.088766456,-0.0538427,-0.7765921,-0.6276988,-0.07062352,0.629998,-0.7733788,,-0.07245686,0.27900124,-0.076248005,0.88134944,0.2830784,0.37827206,-0.24631651,0.9585215,-0.14340417,-0.40317652,0.03321454,0.91451925,,0.055088248,0.44359067,-0.37038115,0.86662084,0.45693883,-0.20043764,-0.49799374,0.7669951,-0.40462428,-0.031153882,0.45047253,0.89224654,,0.819814430996177,-0.08604668968460949,0.15336925506000001,0.637038048305985,0.1186004817964023,0.3042501949415263,0.8704605284295741,,-0.6228615745048294,-0.6842109644576689,0.12753419536000002,1.4491671994215478,0.22722649910992745,0.789629468470602,0.8676836793052913,,-0.06956664232292899,-0.10125745821601603,0.0886362022,-0.034016912529394594,,-1.6525388e-05,-2.7418137e-06,3.0994415e-06,0.99999994,9.462237e-06,7.711351e-06,-9.465963e-06,1.0,8.940697e-07,-7.700175e-06,-8.046627e-07,1.0,NaN,NaN,NaN,NaN,NaN
0.2506760070000382,10:06:22.066825,10:06:03.928792,0,,0.027582355,0.04908415,0.07548489,-0.86747396,-0.3701638,-0.3323664,-0.4912271,0.7429629,0.45464516,0.07864277,0.5576602,-0.8263355,,0.1395,-0.044316668,0.073524594,-0.7422391,-0.6176783,0.25991228,-0.44367296,0.7436174,0.5001875,-0.5022303,0.2559427,-0.825989,,0.08979642,1.3490115,0.48508865,0.9960488,0.0026894878,-0.088766456,-0.0538427,-0.7765921,-0.6276988,-0.07062352,0.629998,-0.7733788,,-0.07245686,0.27900124,-0.076248005,0.88134944,0.2830784,0.37827206,-0.24631651,0.9585215,-0.14340417,-0.40317652,0.03321454,0.91451925,,0.055088248,0.44359067,-0.37038115,0.86662084,0.45693883,-0.20043764,-0.49799374,0.7669951,-0.40462428,-0.031153882,0.45047253,0.89224654,,0.819814430996177,-0.08604668968460949,0.15336925506000001,0.637038048305985,0.1186004817964023,0.3042501949415263,0.8704605284295741,,-0.6228615745048294,-0.6842109644576689,0.12753419536000002,1.4491671994215478,0.22722649910992745,0.789629468470602,0.8676836793052913,,-0.06956664232292899,-0.10125745821601603,0.0886362022,-0.034016912529394594,,-1.6525388e-05,-2.7418137e-06,3.0994415e-06,0.99999994,9.462237e-06,7.711351e-06,-9.465963e-06,1.0,8.940697e-07,-7.700175e-06,-8.046627e-07,1.0,NaN,NaN,NaN,NaN,NaN
0.2705766049994054,10:06:22.083850,10:06:03.928792,0,,0.027581885,0.049083106,0.07548486,-0.8674724,-0.37016413,-0.33237,-0.49122885,0.7429656,0.45463884,0.07864854,0.5576563,-0.8263376,,0.1395,-0.044316668,0.073524594,-0.7422391,-0.6176783,0.25991228,-0.44367296,0.7436174,0.5001875,-0.5022303,0.2559427,-0.825989,,0.08979642,1.3490115,0.48508865,0.9960488,0.0026894878,-0.088766456,-0.0538427,-0.7765921,-0.6276988,-0.07062352,0.629998,-0.7733788,,-0.072456345,0.27900046,-0.07624866,0.88134754,0.28307894,0.37827614,-0.24631435,0.9585211,-0.14341004,-0.40318203,0.03321925,0.9145167,,0.055088248,0.44359067,-0.37038115,0.86662084,0.45693883,-0.20043764,-0.49799374,0.7669951,-0.40462428,-0.031153882,0.45047253,0.89224654,,0.819814430996177,-0.08605441241748371,0.15336925506000001,0.637038048305985,0.1186004817964023,0.3042501949415263,0.8704605284295741,,-0.6228615745048294,-0.6842109644576689,0.12753419536000002,1.4491671994215478,0.22722649910992745,0.789629468470602,0.8676836793052913,,-0.06956664232292899,-0.10125745821601603,0.0886362022,-0.034016912529394594,,-1.6525388e-05,-2.7418137e-06,3.0994415e-06,0.99999994,9.462237e-06,7.711351e-06,-9.465963e-06,1.0,8.940697e-07,-7.700175e-06,-8.046627e-07,1.0,NaN,NaN,NaN,NaN,NaN
0.28760325999974157,10:06:22.100886,10:06:03.928792,0,,0.027583327,0.049083732,0.0754845,-0.8674749,-0.37016708,-0.33236036,-0.49122617,0.7429649,0.4546427,0.07863839,0.55765516,-0.82633936,,0.1395,-0.044316668,0.073524594,-0.7422391,-0.6176783,0.25991228,-0.44367296,0.7436174,0.5001875,-0.5022303,0.2559427,-0.825989,,0.08979642,1.3490115,0.48508865,0.9960488,0.0026894878,-0.088766456,-0.0538427,-0.7765921,-0.6276988,-0.07062352,0.629998,-0.7733788,,-0.072457775,0.27900058,-0.076247945,0.8813507,0.283082,0.37826648,-0.24631852,0.95852023,-0.14340907,-0.40317258,0.033219647,0.9145208,,0.055088248,0.44359067,-0.37038115,0.86662084,0.45693883,-0.20043764,-0.49799374,0.7669951,-0.40462428,-0.031153882,0.45047253,0.89224654,,0.8198067082633028,-0.08604668968460949,0.15336925506000001,0.637038048305985,0.1186004817964023,0.3042501949415263,0.8704605284295741,,-0.6228615745048294,-0.6842109644576689,0.12753419536000002,1.4491671994215478,0.22722649910992745,0.789629468470602,0.8676836793052913,,-0.06956664232292899,-0.10125745821601603,0.0886362022,-0.034016912529394594,,-1.6525388e-05,-2.7418137e-06,3.0994415e-06,0.99999994,9.462237e-06,7.711351e-06,-9.465963e-06,1.0,8.940697e-07,-7.700175e-06,-8.046627e-07,1.0,NaN,NaN,NaN,NaN,NaN
0.3046367819997613,10:06:22.116757,10:06:03.928792,0,,0.027582355,0.04908415,0.07548489,-0.86747396,-0.3701638,-0.3323664,-0.4912271,0.7429629,0.45464516,0.07864277,0.5576602,-0.8263355,,0.1395,-0.044316668,0.073524594,-0.7422391,-0.6176783,0.25991228,-0.44367296,0.7436174,0.5001875,-0.5022303,0.2559427,-0.825989,,0.08979642,1.3490115,0.48508865,0.9960488,0.0026894878,-0.088766456,-0.0538427,-0.7765921,-0.6276988,-0.07062352,0.629998,-0.7733788,,-0.07245686,0.27900124,-0.076248005,0.88134944,0.2830784,0.37827206,-0.24631651,0.9585215,-0.14340417,-0.40317652,0.03321454,0.91451925,,0.055088248,0.44359067,-0.37038115,0.86662084,0.45693883,-0.20043764,-0.49799374,0.7669951,-0.40462428,-0.031153882,0.45047253,0.89224654,,0.819814430996177,-0.08604668968460949,0.15336925506000001,0.637038048305985,0.1186004817964023,0.3042501949415263,0.8704605284295741,,-0.6228615745048294,-0.6842109644576689,0.12753419536000002,1.4491671994215478,0.22722649910992745,0.789629468470602,0.8676836793052913,,-0.06956664232292899,-0.10125745821601603,0.0886362022,-0.034016912529394594,,-1.6525388e-05,-2.7418137e-06,3.0994415e-06,0.99999994,9.462237e-06,7.711351e-06,-9.465963e-06,1.0,8.940697e-07,-7.700175e-06,-8.046627e-07,1.0,NaN,NaN,NaN,NaN,NaN
0.3205012179996629,10:06:22.133763,10:06:04.006136,0,,0.027583327,0.049083732,0.0754845,-0.8674749,-0.37016708,-0.33236036,-0.49122617,0.7429649,0.4546427,0.07863839,0.55765516,-0.82633936,,0.1395,-0.044316668,0.073524594,-0.7422391,-0.6176783,0.25991228,-0.44367296,0.7436174,0.5001875,-0.5022303,0.2559427,-0.825989,,0.08979642,1.3490115,0.48508865,0.9960488,0.0026894878,-0.088766456,-0.0538427,-0.7765921,-0.6276988,-0.07062352,0.629998,-0.7733788,,-0.072457775,0.27900058,-0.076247945,0.8813507,0.283082,0.37826648,-0.24631852,0.95852023,-0.14340907,-0.40317258,0.033219647,0.9145208,,0.055088248,0.44359067,-0.37038115,0.86662084,0.45693883,-0.20043764,-0.49799374,0.7669951,-0.40462428,-0.031153882,0.45047253,0.89224654,,0.8198067082633028,-0.08604668968460949,0.15336925506000001,0.637038048305985,0.1186004817964023,0.3042501949415263,0.8704605284295741,,-0.6228615745048294,-0.6842109644576689,0.12753419536000002,1.4491671994215478,0.22722649910992745,0.789629468470602,0.8676836793052913,,-0.06956664232292899,-0.10125745821601603,0.0886362022,-0.034016912529394594,,-1.6525388e-05,-2.7418137e-06,3.0994415e-06,0.99999994,9.462237e-06,7.711351e-06,-9.465963e-06,1.0,8.940697e-07,-7.700175e-06,-8.046627e-07,1.0,NaN,NaN,NaN,NaN,NaN
0.33691025799998897,10:06:22.148674,10:06:04.006136,0,,0.027582869,0.04908269,0.07548447,-0.86747336,-0.37016746,-0.33236393,-0.49122795,0.74296767,0.45463634,0.07864417,0.5576513,-0.8263414,,0.1395,-0.044316668,0.073524594,-0.7422391,-0.6176783,0.25991228,-0.44367296,0.7436174,0.5001875,-0.5022303,0.2559427,-0.825989,,0.08979642,1.3490115,0.48508865,0.9960488,0.0026894878,-0.088766456,-0.0538427,-0.7765921,-0.6276988,-0.07062352,0.629998,-0.7733788,,-0.07245726,0.2789998,-0.07624861,0.8813488,0.28308254,0.37827054,-0.24631636,0.9585199,-0.14341494,-0.40317813,0.03322436,0.9145182,,0.055088248,0.44359067,-0.37038115,0.86662084,0.45693883,-0.20043764,-0.49799374,0.7669951,-0.40462428,-0.031153882,0.45047253,0.89224654,,0.8198067082633028,-0.08605441241748371,0.15336925506000001,0.637038048305985,0.1186004817964023,0.3042501949415263,0.8704605284295741,,-0.6228615745048294,-0.6842109644576689,0.12753419536000002,1.4491671994215478,0.22722649910992745,0.789629468470602,0.8676836793052913,,-0.06956664232292899,-0.10125745821601603,0.0886362022,-0.034016912529394594,,-1.6525388e-05,-2.7418137e-06,3.0994415e-06,0.99999994,9.462237e-06,7.711351e-06,-9.465963e-06,1.0,8.940697e-07,-7.700175e-06,-8.046627e-07,1.0,NaN,NaN,NaN,NaN,NaN
0.35242721599934157,10:06:22.164904,10:06:04.006136,0,,0.027582869,0.04908269,0.07548447,-0.86747336,-0.37016746,-0.33236393,-0.49122795,0.74296767,0.45463634,0.07864417,0.5576513,-0.8263414,,0.1395,-0.044316668,0.073524594,-0.7422391,-0.6176783,0.25991228,-0.44367296,0.7436174,0.5001875,-0.5022303,0.2559427,-0.825989,,0.08979642,1.3490115,0.48508865,0.9960488,0.0026894878,-0.088766456,-0.0538427,-0.7765921,-0.6276988,-0.07062352,0.629998,-0.7733788,,-0.07245726,0.2789998,-0.07624861,0.8813488,0.28308254,0.37827054,-0.24631636,0.9585199,-0.14341494,-0.40317813,0.03322436,0.9145182,,0.055088248,0.44359067,-0.37038115,0.86662084,0.45693883,-0.20043764,-0.49799374,0.7669951,-0.40462428,-0.031153882,0.45047253,0.89224654,,0.8198067082633028,-0.08605441241748371,0.15336925506000001,0.637038048305985,0.1186004817964023,0.3042501949415263,0.8704605284295741,,-0.6228615745048294,-0.6842109644576689,0.12753419536000002,1.4491671994215478,0.22722649910992745,0.789629468470602,0.8676836793052913,,-0.06956664232292899,-0.10125745821601603,0.0886362022,-0.034016912529394594,,-1.6525388e-05,-2.7418137e-06,3.0994415e-06,0.99999994,9.462237e-06,7.711351e-06,-9.465963e-06,1.0,8.940697e-07,-7.700175e-06,-8.046627e-07,1.0,NaN,NaN,NaN,NaN,NaN
0.3686556359998576,10:06:22.182600,10:06:04.006136,0,,0.027582355,0.04908415,0.07548489,-0.86747396,-0.3701638,-0.3323664,-0.4912271,0.7429629,0.45464516,0.07864277,0.5576602,-0.8263355,,0.1395,-0.044316668,0.073524594,-0.7422391,-0.6176783,0.25991228,-0.44367296,0.7436174,0.5001875,-0.5022303,0.2559427,-0.825989,,0.08979642,1.3490115,0.48508865,0.9960488,0.0026894878,-0.088766456,-0.0538427,-0.7765921,-0.6276988,-0.07062352,0.629998,-0.7733788,,-0.07245686,0.27900124,-0.076248005,0.88134944,0.2830784,0.37827206,-0.24631651,0.9585215,-0.14340417,-0.40317652,0.03321454,0.91451925,,0.055088248,0.44359067,-0.37038115,0.86662084,0.45693883,-0.20043764,-0.49799374,0.7669951,-0.40462428,-0.031153882,0.45047253,0.89224654,,0.819814430996177,-0.08604668968460949,0.15336925506000001,0.637038048305985,0.1186004817964023,0.3042501949415263,0.8704605284295741,,-0.6228615745048294,-0.6842109644576689,0.12753419536000002,1.4491671994215478,0.22722649910992745,0.789629468470602,0.8676836793052913,,-0.06956664232292899,-0.10125745821601603,0.0886362022,-0.034016912529394594,,-1.6525388e-05,-2.7418137e-06,3.0994415e-06,0.99999994,9.462237e-06,7.711351e-06,-9.465963e-06,1.0,8.940697e-07,-7.700175e-06,-8.046627e-07,1.0,NaN,NaN,NaN,NaN,NaN
0.3863312359999327,10:06:22.199244,10:06:04.078348,0,,0.027582355,0.04908415,0.07548489,-0.86747396,-0.3701638,-0.3323664,-0.4912271,0.7429629,0.45464516,0.07864277,0.5576602,-0.8263355,,0.1395,-0.044316668,0.073524594,-0.7422391,-0.6176783,0.25991228,-0.44367296,0.7436174,0.5001875,-0.5022303,0.2559427,-0.825989,,0.08979642,1.3490115,0.48508865,0.9960488,0.0026894878,-0.088766456,-0.0538427,-0.7765921,-0.6276988,-0.07062352,0.629998,-0.7733788,,-0.07245686,0.27900124,-0.076248005,0.88134944,0.2830784,0.37827206,-0.24631651,0.9585215,-0.14340417,-0.40317652,0.03321454,0.91451925,,0.055088248,0.44359067,-0.37038115,0.86662084,0.45693883,-0.20043764,-0.49799374,0.7669951,-0.40462428,-0.031153882,0.45047253,0.89224654,,0.819814430996177,-0.08604668968460949,0.15336925506000001,0.637038048305985,0.1186004817964023,0.3042501949415263,0.8704605284295741,,-0.6228615745048294,-0.6842109644576689,0.12753419536000002,1.4491671994215478,0.22722649910992745,0.789629468470602,0.8676836793052913,,-0.06956664232292899,-0.10125745821601603,0.0886362022,-0.034016912529394594,,-1.6525388e-05,-2.7418137e-06,3.0994415e-06,0.99999994,9.462237e-06,7.711351e-06,-9.465963e-06,1.0,8.940697e-07,-7.700175e-06,-8.046627e-07,1.0,NaN,NaN,NaN,NaN,NaN
0.40299408699956984,10:06:22.218576,10:06:04.078348,0,,0.027583327,0.049083732,0.0754845,-0.8674749,-0.37016708,-0.33236036,-0.49122617,0.7429649,0.4546427,0.07863839,0.55765516,-0.82633936,,0.1395,-0.044316668,0.073524594,-0.7422391,-0.6176783,0.25991228,-0.44367296,0.7436174,0.5001875,-0.5022303,0.2559427,-0.825989,,0.08979642,1.3490115,0.48508865,0.9960488,0.0026894878,-0.088766456,-0.0538427,-0.7765921,-0.6276988,-0.07062352,0.629998,-0.7733788,,-0.072457775,0.27900058,-0.076247945,0.8813507,0.283082,0.37826648,-0.24631852,0.95852023,-0.14340907,-0.40317258,0.033219647,0.9145208,,0.055088248,0.44359067,-0.37038115,0.86662084,0.45693883,-0.20043764,-0.49799374,0.7669951,-0.40462428,-0.031153882,0.45047253,0.89224654,,0.8198067082633028,-0.08604668968460949,0.15336925506000001,0.637038048305985,0.1186004817964023,0.3042501949415263,0.8704605284295741,,-0.6228615745048294,-0.6842109644576689,0.12753419536000002,1.4491671994215478,0.22722649910992745,0.789629468470602,0.8676836793052913,,-0.06956664232292899,-0.10125745821601603,0.0886362022,-0.034016912529394594,,-1.6525388e-05,-2.7418137e-06,3.0994415e-06,0.99999994,9.462237e-06,7.711351e-06,-9.465963e-06,1.0,8.940697e-07,-7.700175e-06,-8.046627e-07,1.0,NaN,NaN,NaN,NaN,NaN
0.4221307439993325,10:06:22.233650,10:06:04.078348,0,,0.027581885,0.049083106,0.07548486,-0.8674724,-0.37016413,-0.33237,-0.49122885,0.7429656,0.45463884,0.07864854,0.5576563,-0.8263376,,0.1395,-0.044316668,0.073524594,-0.7422391,-0.6176783,0.25991228,-0.44367296,0.7436174,0.5001875,-0.5022303,0.2559427,-0.825989,,0.08979642,1.3490115,0.48508865,0.9960488,0.0026894878,-0.088766456,-0.0538427,-0.7765921,-0.6276988,-0.07062352,0.629998,-0.7733788,,-0.072456345,0.27900046,-0.07624866,0.88134754,0.28307894,0.37827614,-0.24631435,0.9585211,-0.14341004,-0.40318203,0.03321925,0.9145167,,0.055088248,0.44359067,-0.37038115,0.86662084,0.45693883,-0.20043764,-0.49799374,0.7669951,-0.40462428,-0.031153882,0.45047253,0.89224654,,0.819814430996177,-0.08605441241748371,0.15336925506000001,0.637038048305985,0.1186004817964023,0.3042501949415263,0.8704605284295741,,-0.6228615745048294,-0.6842109644576689,0.12753419536000002,1.4491671994215478,0.22722649910992745,0.789629468470602,0.8676836793052913,,-0.06956664232292899,-0.10125745821601603,0.0886362022,-0.034016912529394594,,-1.6525388e-05,-2.7418137e-06,3.0994415e-06,0.99999994,9.462237e-06,7.711351e-06,-9.465963e-06,1.0,8.940697e-07,-7.700175e-06,-8.046627e-07,1.0,NaN,NaN,NaN,NaN,NaN
0.4374042310000732,10:06:22.249390,10:06:04.078348,0,,0.027582355,0.04908415,0.07548489,-0.86747396,-0.3701638,-0.3323664,-0.4912271,0.7429629,0.45464516,0.07864277,0.5576602,-0.8263355,,0.1395,-0.044316668,0.073524594,-0.7422391,-0.6176783,0.25991228,-0.44367296,0.7436174,0.5001875,-0.5022303,0.2559427,-0.825989,,0.08979642,1.3490115,0.48508865,0.9960488,0.0026894878,-0.088766456,-0.0538427,-0.7765921,-0.6276988,-0.07062352,0.629998,-0.7733788,,-0.07245686,0.27900124,-0.076248005,0.88134944,0.2830784,0.37827206,-0.24631651,0.9585215,-0.14340417,-0.40317652,0.03321454,0.91451925,,0.055088248,0.44359067,-0.37038115,0.86662084,0.45693883,-0.20043764,-0.49799374,0.7669951,-0.40462428,-0.031153882,0.45047253,0.89224654,,0.819814430996177,-0.08604668968460949,0.15336925506000001,0.637038048305985,0.1186004817964023,0.3042501949415263,0.8704605284295741,,-0.6228615745048294,-0.6842109644576689,0.12753419536000002,1.4491671994215478,0.22722649910992745,0.789629468470602,0.8676836793052913,,-0.06956664232292899,-0.10125745821601603,0.0886362022,-0.034016912529394594,,-1.6525388e-05,-2.7418137e-06,3.0994415e-06,0.99999994,9.462237e-06,7.711351e-06,-9.465963e-06,1.0,8.940697e-07,-7.700175e-06,-8.046627e-07,1.0,NaN,NaN,NaN,NaN,NaN
0.4531447039998966,10:06:22.265639,10:06:04.078348,0,,0.027582355,0.04908415,0.07548489,-0.86747396,-0.3701638,-0.3323664,-0.4912271,0.7429629,0.45464516,0.07864277,0.5576602,-0.8263355,,0.1395,-0.044316668,0.073524594,-0.7422391,-0.6176783,0.25991228,-0.44367296,0.7436174,0.5001875,-0.5022303,0.2559427,-0.825989,,0.08979642,1.3490115,0.48508865,0.9960488,0.0026894878,-0.088766456,-0.0538427,-0.7765921,-0.6276988,-0.07062352,0.629998,-0.7733788,,-0.07245686,0.27900124,-0.076248005,0.88134944,0.2830784,0.37827206,-0.24631651,0.9585215,-0.14340417,-0.40317652,0.03321454,0.91451925,,0.055088248,0.44359067,-0.37038115,0.86662084,0.45693883,-0.20043764,-0.49799374,0.7669951,-0.40462428,-0.031153882,0.45047253,0.89224654,,0.819814430996177,-0.08604668968460949,0.15336925506000001,0.637038048305985,0.1186004817964023,0.3042501949415263,0.8704605284295741,,-0.6228615745048294,-0.6842109644576689,0.12753419536000002,1.4491671994215478,0.22722649910992745,0.789629468470602,0.8676836793052913,,-0.06956664232292899,-0.10125745821601603,0.0886362022,-0.034016912529394594,,-1.6525388e-05,-2.7418137e-06,3.0994415e-06,0.99999994,9.462237e-06,7.711351e-06,-9.465963e-06,1.0,8.940697e-07,-7.700175e-06,-8.046627e-07,1.0,NaN,NaN,NaN,NaN,NaN
0.4693948599997384,10:06:22.281537,10:06:04.151067,0,,0.027583327,0.049083732,0.0754845,-0.8674749,-0.37016708,-0.33236036,-0.49122617,0.7429649,0.4546427,0.07863839,0.55765516,-0.82633936,,0.13949937,-0.044316877,0.0735243,-0.74224156,-0.6176781,0.25990564,-0.44367597,0.74361694,0.5001856,-0.50222385,0.25594473,-0.82599235,,0.08979642,1.3490115,0.48508865,0.9960488,0.0026894878,-0.088766456,-0.0538427,-0.7765921,-0.6276988,-0.07062352,0.629998,-0.7733788,,-0.072457775,0.27900058,-0.076247945,0.8813507,0.283082,0.37826648,-0.24631852,0.95852023,-0.14340907,-0.40317258,0.033219647,0.9145208,,0.055088945,0.44359046,-0.37038112,0.86662275,0.45693836,-0.20043035,-0.49798998,0.76699626,-0.4046266,-0.031160079,0.45047095,0.89224714,,0.8198067082633028,-0.08604668968460949,0.15336925506000001,0.637038048305985,0.1186004817964023,0.3042501949415263,0.8704605284295741,,-0.6228538517719552,-0.6842109644576689,0.12753419536000002,1.4491671994215478,0.22722649910992745,0.789629468470602,0.8676836793052913,,-0.06956664232292899,-0.10125745821601603,0.0886362022,-0.034016912529394594,,-1.6525388e-05,-2.7418137e-06,3.0994415e-06,0.99999994,9.462237e-06,7.711351e-06,-9.465963e-06,1.0,8.940697e-07,-7.700175e-06,-8.046627e-07,1.0,NaN,NaN,NaN,NaN,NaN
0.48511042799964343,10:06:22.299374,10:06:04.151067,0,,0.027582869,0.04908269,0.07548447,-0.86747336,-0.37016746,-0.33236393,-0.49122795,0.74296767,0.45463634,0.07864417,0.5576513,-0.8263414,,0.1395,-0.044316668,0.073524594,-0.7422391,-0.6176783,0.25991228,-0.44367296,0.7436174,0.5001875,-0.5022303,0.2559427,-0.825989,,0.08979642,1.3490115,0.48508865,0.9960488,0.0026894878,-0.088766456,-0.0538427,-0.7765921,-0.6276988,-0.07062352,0.629998,-0.7733788,,-0.07245726,0.2789998,-0.07624861,0.8813488,0.28308254,0.37827054,-0.24631636,0.9585199,-0.14341494,-0.40317813,0.03322436,0.9145182,,0.055088248,0.44359067,-0.37038115,0.86662084,0.45693883,-0.20043764,-0.49799374,0.7669951,-0.40462428,-0.031153882,0.45047253,0.89224654,,0.8198067082633028,-0.08605441241748371,0.15336925506000001,0.637038048305985,0.1186004817964023,0.3042501949415263,0.8704605284295741,,-0.6228615745048294,-0.6842109644576689,0.12753419536000002,1.4491671994215478,0.22722649910992745,0.789629468470602,0.8676836793052913,,-0.06956664232292899,-0.10125745821601603,0.0886362022,-0.034016912529394594,,-1.6525388e-05,-2.7418137e-06,3.0994415e-06,0.99999994,9.462237e-06,7.711351e-06,-9.465963e-06,1.0,8.940697e-07,-7.700175e-06,-8.046627e-07,1.0,NaN,NaN,NaN,NaN,NaN
0.5031234539992511,10:06:22.314931,10:06:04.151067,0,,0.027582355,0.04908415,0.07548489,-0.86747396,-0.3701638,-0.3323664,-0.4912271,0.7429629,0.45464516,0.07864277,0.5576602,-0.8263355,,0.1395,-0.044316668,0.073524594,-0.7422391,-0.6176783,0.25991228,-0.44367296,0.7436174,0.5001875,-0.5022303,0.2559427,-0.825989,,0.08979642,1.3490115,0.48508865,0.9960488,0.0026894878,-0.088766456,-0.0538427,-0.7765921,-0.6276988,-0.07062352,0.629998,-0.7733788,,-0.07245686,0.27900124,-0.076248005,0.88134944,0.2830784,0.37827206,-0.24631651,0.9585215,-0.14340417,-0.40317652,0.03321454,0.91451925,,0.055088248,0.44359067,-0.37038115,0.86662084,0.45693883,-0.20043764,-0.49799374,0.7669951,-0.40462428,-0.031153882,0.45047253,0.89224654,,0.819814430996177,-0.08604668968460949,0.15336925506000001,0.637038048305985,0.1186004817964023,0.3042501949415263,0.8704605284295741,,-0.6228615745048294,-0.6842109644576689,0.12753419536000002,1.4491671994215478,0.22722649910992745,0.789629468470602,0.8676836793052913,,-0.06956664232292899,-0.10125745821601603,0.0886362022,-0.034016912529394594,,-1.6525388e-05,-2.7418137e-06,3.0994415e-06,0.99999994,9.462237e-06,7.711351e-06,-9.465963e-06,1.0,8.940697e-07,-7.700175e-06,-8.046627e-07,1.0,NaN,NaN,NaN,NaN,NaN
0.518686045999857,10:06:22.332050,10:06:04.151067,0,,0.027581885,0.049083106,0.07548486,-0.8674724,-0.37016413,-0.33237,-0.49122885,0.7429656,0.45463884,0.07864854,0.5576563,-0.8263376,,0.1395,-0.044316668,0.073524594,-0.7422391,-0.6176783,0.25991228,-0.44367296,0.7436174,0.5001875,-0.5022303,0.2559427,-0.825989,,0.08979642,1.3490115,0.48508865,0.9960488,0.0026894878,-0.088766456,-0.0538427,-0.7765921,-0.6276988,-0.07062352,0.629998,-0.7733788,,-0.072456345,0.27900046,-0.07624866,0.88134754,0.28307894,0.37827614,-0.24631435,0.9585211,-0.14341004,-0.40318203,0.03321925,0.9145167,,0.055088248,0.44359067,-0.37038115,0.86662084,0.45693883,-0.20043764,-0.49799374,0.7669951,-0.40462428,-0.031153882,0.45047253,0.89224654,,0.819814430996177,-0.08605441241748371,0.15336925506000001,0.637038048305985,0.1186004817964023,0.3042501949415263,0.8704605284295741,,-0.6228615745048294,-0.6842109644576689,0.12753419536000002,1.4491671994215478,0.22722649910992745,0.789629468470602,0.8676836793052913,,-0.06956664232292899,-0.10125745821601603,0.0886362022,-0.034016912529394594,,-1.6525388e-05,-2.7418137e-06,3.0994415e-06,0.99999994,9.462237e-06,7.711351e-06,-9.465963e-06,1.0,8.940697e-07,-7.700175e-06,-8.046627e-07,1.0,NaN,NaN,NaN,NaN,NaN
0.535804043999633,10:06:22.347753,10:06:04.151067,0,,0.027582355,0.04908415,0.07548489,-0.86747396,-0.3701638,-0.3323664,-0.4912271,0.7429629,0.45464516,0.07864277,0.5576602,-0.8263355,,0.1395,-0.044316668,0.073524594,-0.7422391,-0.6176783,0.25991228,-0.44367296,0.7436174,0.5001875,-0.5022303,0.2559427,-0.825989,,0.08979642,1.3490115,0.48508865,0.9960488,0.0026894878,-0.088766456,-0.0538427,-0.7765921,-0.6276988,-0.07062352,0.629998,-0.7733788,,-0.07245686,0.27900124,-0.076248005,0.88134944,0.2830784,0.37827206,-0.24631651,0.9585215,-0.14340417,-0.40317652,0.03321454,0.91451925,,0.055088248,0.44359067,-0.37038115,0.86662084,0.45693883,-0.20043764,-0.49799374,0.7669951,-0.40462428,-0.031153882,0.45047253,0.89224654,,0.819814430996177,-0.08604668968460949,0.15336925506000001,0.637038048305985,0.1186004817964023,0.3042501949415263,0.8704605284295741,,-0.6228615745048294,-0.6842109644576689,0.12753419536000002,1.4491671994215478,0.22722649910992745,0.789629468470602,0.8676836793052913,,-0.06956664232292899,-0.10125745821601603,0.0886362022,-0.034016912529394594,,-1.6525388e-05,-2.7418137e-06,3.0994415e-06,0.99999994,9.462237e-06,7.711351e-06,-9.465963e-06,1.0,8.940697e-07,-7.700175e-06,-8.046627e-07,1.0,NaN,NaN,NaN,NaN,NaN
0.5515061119995153,10:06:22.365770,10:06:04.227679,0,,0.027582355,0.04908415,0.07548489,-0.86747396,-0.3701638,-0.3323664,-0.4912271,0.7429629,0.45464516,0.07864277,0.5576602,-0.8263355,,0.1395,-0.044316668,0.073524594,-0.7422391,-0.6176783,0.25991228,-0.44367296,0.7436174,0.5001875,-0.5022303,0.2559427,-0.825989,,0.08979642,1.3490115,0.48508865,0.9960488,0.0026894878,-0.088766456,-0.0538427,-0.7765921,-0.6276988,-0.07062352,0.629998,-0.7733788,,-0.07245686,0.27900124,-0.076248005,0.88134944,0.2830784,0.37827206,-0.24631651,0.9585215,-0.14340417,-0.40317652,0.03321454,0.91451925,,0.055088248,0.44359067,-0.37038115,0.86662084,0.45693883,-0.20043764,-0.49799374,0.7669951,-0.40462428,-0.031153882,0.45047253,0.89224654,,0.819814430996177,-0.08604668968460949,0.15336925506000001,0.637038048305985,0.1186004817964023,0.3042501949415263,0.8704605284295741,,-0.6228615745048294,-0.6842109644576689,0.12753419536000002,1.4491671994215478,0.22722649910992745,0.789629468470602,0.8676836793052913,,-0.06956664232292899,-0.10125745821601603,0.0886362022,-0.034016912529394594,,-1.6525388e-05,-2.7418137e-06,3.0994415e-06,0.99999994,9.462237e-06,7.711351e-06,-9.465963e-06,1.0,8.940697e-07,-7.700175e-06,-8.046627e-07,1.0,NaN,NaN,NaN,NaN,NaN
0.5693379269996512,10:06:22.381549,10:06:04.227679,0,,0.027582355,0.04908415,0.07548489,-0.86747396,-0.3701638,-0.3323664,-0.4912271,0.7429629,0.45464516,0.07864277,0.5576602,-0.8263355,,0.1395,-0.044316668,0.073524594,-0.7422391,-0.6176783,0.25991228,-0.44367296,0.7436174,0.5001875,-0.5022303,0.2559427,-0.825989,,0.08979642,1.3490115,0.48508865,0.9960488,0.0026894878,-0.088766456,-0.0538427,-0.7765921,-0.6276988,-0.07062352,0.629998,-0.7733788,,-0.07245686,0.27900124,-0.076248005,0.88134944,0.2830784,0.37827206,-0.24631651,0.9585215,-0.14340417,-0.40317652,0.03321454,0.91451925,,0.055088248,0.44359067,-0.37038115,0.86662084,0.45693883,-0.20043764,-0.49799374,0.7669951,-0.40462428,-0.031153882,0.45047253,0.89224654,,0.819814430996177,-0.08604668968460949,0.15336925506000001,0.637038048305985,0.1186004817964023,0.3042501949415263,0.8704605284295741,,-0.6228615745048294,-0.6842109644576689,0.12753419536000002,1.4491671994215478,0.22722649910992745,0.789629468470602,0.8676836793052913,,-0.06956664232292899,-0.10125745821601603,0.0886362022,-0.034016912529394594,,-1.6525388e-05,-2.7418137e-06,3.0994415e-06,0.99999994,9.462237e-06,7.711351e-06,-9.465963e-06,1.0,8.940697e-07,-7.700175e-06,-8.046627e-07,1.0,NaN,NaN,NaN,NaN,NaN
0.585297798999818,10:06:22.399725,10:06:04.227679,0,,0.027582869,0.04908269,0.07548447,-0.86747336,-0.37016746,-0.33236393,-0.49122795,0.74296767,0.45463634,0.07864417,0.5576513,-0.8263414,,0.1395,-0.044316668,0.073524594,-0.7422391,-0.6176783,0.25991228,-0.44367296,0.7436174,0.5001875,-0.5022303,0.2559427,-0.825989,,0.08979642,1.3490115,0.48508865,0.9960488,0.0026894878,-0.088766456,-0.0538427,-0.7765921,-0.6276988,-0.07062352,0.629998,-0.7733788,,-0.07245726,0.2789998,-0.07624861,0.8813488,0.28308254,0.37827054,-0.24631636,0.9585199,-0.14341494,-0.40317813,0.03322436,0.9145182,,0.055088248,0.44359067,-0.37038115,0.86662084,0.45693883,-0.20043764,-0.49799374,0.7669951,-0.40462428,-0.031153882,0.45047253,0.89224654,,0.8198067082633028,-0.08605441241748371,0.15336925506000001,0.637038048305985,0.1186004817964023,0.3042501949415263,0.8704605284295741,,-0.6228615745048294,-0.6842109644576689,0.12753419536000002,1.4491671994215478,0.22722649910992745,0.789629468470602,0.8676836793052913,,-0.06956664232292899,-0.10125745821601603,0.0886362022,-0.034016912529394594,,-1.6525388e-05,-2.7418137e-06,3.0994415e-06,0.99999994,9.462237e-06,7.711351e-06,-9.465963e-06,1.0,8.940697e-07,-7.700175e-06,-8.046627e-07,1.0,NaN,NaN,NaN,NaN,NaN
0.6024943029997303,10:06:22.419493,10:06:04.227679,0,,0.027583327,0.049083732,0.0754845,-0.8674749,-0.37016708,-0.33236036,-0.49122617,0.7429649,0.4546427,0.07863839,0.55765516,-0.82633936,,0.1395,-0.044316668,0.073524594,-0.7422391,-0.6176783,0.25991228,-0.44367296,0.7436174,0.5001875,-0.5022303,0.2559427,-0.825989,,0.08979642,1.3490115,0.48508865,0.9960488,0.0026894878,-0.088766456,-0.0538427,-0.7765921,-0.6276988,-0.07062352,0.629998,-0.7733788,,-0.072457775,0.27900058,-0.076247945,0.8813507,0.283082,0.37826648,-0.24631852,0.95852023,-0.14340907,-0.40317258,0.033219647,0.9145208,,0.055088248,0.44359067,-0.37038115,0.86662084,0.45693883,-0.20043764,-0.49799374,0.7669951,-0.40462428,-0.031153882,0.45047253,0.89224654,,0.8198067082633028,-0.08604668968460949,0.15336925506000001,0.637038048305985,0.1186004817964023,0.3042501949415263,0.8704605284295741,,-0.6228615745048294,-0.6842109644576689,0.12753419536000002,1.4491671994215478,0.22722649910992745,0.789629468470602,0.8676836793052913,,-0.06956664232292899,-0.10125745821601603,0.0886362022,-0.034016912529394594,,-1.6525388e-05,-2.7418137e-06,3.0994415e-06,0.99999994,9.462237e-06,7.711351e-06,-9.465963e-06,1.0,8.940697e-07,-7.700175e-06,-8.046627e-07,1.0,NaN,NaN,NaN,NaN,NaN
0.6232456689995161,10:06:22.435519,10:06:04.304447,0,,0.027583327,0.049083732,0.0754845,-0.8674749,-0.37016708,-0.33236036,-0.49122617,0.7429649,0.4546427,0.07863839,0.55765516,-0.82633936,,0.1395,-0.044316668,0.073524594,-0.7422391,-0.6176783,0.25991228,-0.44367296,0.7436174,0.5001875,-0.5022303,0.2559427,-0.825989,,0.08979642,1.3490115,0.48508865,0.9960488,0.0026894878,-0.088766456,-0.0538427,-0.7765921,-0.6276988,-0.07062352,0.629998,-0.7733788,,-0.072457775,0.27900058,-0.076247945,0.8813507,0.283082,0.37826648,-0.24631852,0.95852023,-0.14340907,-0.40317258,0.033219647,0.9145208,,0.055088248,0.44359067,-0.37038115,0.86662084,0.45693883,-0.20043764,-0.49799374,0.7669951,-0.40462428,-0.031153882,0.45047253,0.89224654,,0.8198067082633028,-0.08604668968460949,0.15336925506000001,0.637038048305985,0.1186004817964023,0.3042501949415263,0.8704605284295741,,-0.6228615745048294,-0.6842109644576689,0.12753419536000002,1.4491671994215478,0.22722649910992745,0.789629468470602,0.8676836793052913,,-0.06956664232292899,-0.10125745821601603,0.0886362022,-0.034016912529394594,,-1.6525388e-05,-2.7418137e-06,3.0994415e-06,0.99999994,9.462237e-06,7.711351e-06,-9.465963e-06,1.0,8.940697e-07,-7.700175e-06,-8.046627e-07,1.0,NaN,NaN,NaN,NaN,NaN
0.6392725440000504,10:06:22.454509,10:06:04.304447,0,,0.027582355,0.04908415,0.07548489,-0.86747396,-0.3701638,-0.3323664,-0.4912271,0.7429629,0.45464516,0.07864277,0.5576602,-0.8263355,,0.1395,-0.044316668,0.073524594,-0.7422391,-0.6176783,0.25991228,-0.44367296,0.7436174,0.5001875,-0.5022303,0.2559427,-0.825989,,0.08979642,1.3490115,0.48508865,0.9960488,0.0026894878,-0.088766456,-0.0538427,-0.7765921,-0.6276988,-0.07062352,0.629998,-0.7733788,,-0.07245686,0.27900124,-0.076248005,0.88134944,0.2830784,0.37827206,-0.24631651,0.9585215,-0.14340417,-0.40317652,0.03321454,0.91451925,,0.055088248,0.44359067,-0.37038115,0.86662084,0.45693883,-0.20043764,-0.49799374,0.7669951,-0.40462428,-0.031153882,0.45047253,0.89224654,,0.819814430996177,-0.08604668968460949,0.15336925506000001,0.637038048305985,0.1186004817964023,0.3042501949415263,0.8704605284295741,,-0.6228615745048294,-0.6842109644576689,0.12753419536000002,1.4491671994215478,0.22722649910992745,0.789629468470602,0.8676836793052913,,-0.06956664232292899,-0.10125745821601603,0.0886362022,-0.034016912529394594,,-1.6525388e-05,-2.7418137e-06,3.0994415e-06,0.99999994,9.462237e-06,7.711351e-06,-9.465963e-06,1.0,8.940697e-07,-7.700175e-06,-8.046627e-07,1.0,NaN,NaN,NaN,NaN,NaN
0.6573054479995335,10:06:22.469003,10:06:04.304447,0,,0.027582355,0.04908415,0.07548489,-0.86747396,-0.3701638,-0.3323664,-0.4912271,0.7429629,0.45464516,0.07864277,0.5576602,-0.8263355,,0.1395,-0.044316668,0.073524594,-0.7422391,-0.6176783,0.25991228,-0.44367296,0.7436174,0.5001875,-0.5022303,0.2559427,-0.825989,,0.08979642,1.3490115,0.48508865,0.9960488,0.0026894878,-0.088766456,-0.0538427,-0.7765921,-0.6276988,-0.07062352,0.629998,-0.7733788,,-0.07245686,0.27900124,-0.076248005,0.88134944,0.2830784,0.37827206,-0.24631651,0.9585215,-0.14340417,-0.40317652,0.03321454,0.91451925,,0.055088248,0.44359067,-0.37038115,0.86662084,0.45693883,-0.20043764,-0.49799374,0.7669951,-0.40462428,-0.031153882,0.45047253,0.89224654,,0.819814430996177,-0.08604668968460949,0.15336925506000001,0.637038048305985,0.1186004817964023,0.3042501949415263,0.8704605284295741,,-0.6228615745048294,-0.6842109644576689,0.12753419536000002,1.4491671994215478,0.22722649910992745,0.789629468470602,0.8676836793052913,,-0.06956664232292899,-0.10125745821601603,0.0886362022,-0.034016912529394594,,-1.6525388e-05,-2.7418137e-06,3.0994415e-06,0.99999994,9.462237e-06,7.711351e-06,-9.465963e-06,1.0,8.940697e-07,-7.700175e-06,-8.046627e-07,1.0,NaN,NaN,NaN,NaN,NaN
0.6727576019993649,10:06:22.486285,10:06:04.304447,0,,0.027581885,0.049083106,0.07548486,-0.8674724,-0.37010983,-0.33243045,-0.49122885,0.7428913,0.45476013,0.07864854,0.5577913,-0.82624644,,0.1395,-0.044316668,0.073524594,-0.7422391,-0.6176783,0.25991228,-0.44367296,0.7436174,0.5001875,-0.5022303,0.2559427,-0.825989,,0.08979642,1.3490115,0.48508865,0.9960488,0.0026894878,-0.088766456,-0.0538427,-0.7765921,-0.6276988,-0.07062352,0.629998,-0.7733788,,-0.072456345,0.27900046,-0.07624866,0.88134754,0.28301713,0.37832236,-0.24631435,0.95854455,-0.14325346,-0.40318203,0.033069856,0.91452205,,0.055088248,0.44359067,-0.37038115,0.86662084,0.45693883,-0.20043764,-0.49799374,0.7669951,-0.40462428,-0.031153882,0.45047253,0.89224654,,0.819814430996177,-0.08605441241748371,0.15336925506000001,0.637038048305985,0.1186004817964023,0.30441355242180734,0.8707872165618427,,-0.6228615745048294,-0.6842109644576689,0.12753419536000002,1.4491671994215478,0.22722649910992745,0.789629468470602,0.8676836793052913,,-0.06956664232292899,-0.10125745821601603,0.0886362022,-0.034016912529394594,,-1.6525388e-05,-2.7418137e-06,3.0994415e-06,0.99999994,9.462237e-06,7.711351e-06,-9.465963e-06,1.0,8.940697e-07,-7.700175e-06,-8.046627e-07,1.0,NaN,NaN,NaN,NaN,NaN
0.6900352659995406,10:06:22.500957,10:06:04.304447,0,,0.027581885,0.049083106,0.07548486,-0.8674724,-0.37010983,-0.33243045,-0.49122885,0.7428913,0.45476013,0.07864854,0.5577913,-0.82624644,,0.1395,-0.044316668,0.073524594,-0.7422391,-0.6176783,0.25991228,-0.44367296,0.7436174,0.5001875,-0.5022303,0.2559427,-0.825989,,0.08979642,1.3490115,0.48508865,0.9960488,0.0026894878,-0.088766456,-0.0538427,-0.7765921,-0.6276988,-0.07062352,0.629998,-0.7733788,,-0.072456345,0.27900046,-0.07624866,0.88134754,0.28301713,0.37832236,-0.24631435,0.95854455,-0.14325346,-0.40318203,0.033069856,0.91452205,,0.055088248,0.44359067,-0.37038115,0.86662084,0.45693883,-0.20043764,-0.49799374,0.7669951,-0.40462428,-0.031153882,0.45047253,0.89224654,,0.819814430996177,-0.08605441241748371,0.15336925506000001,0.637038048305985,0.1186004817964023,0.30441355242180734,0.8707872165618427,,-0.6228615745048294,-0.6842109644576689,0.12753419536000002,1.4491671994215478,0.22722649910992745,0.789629468470602,0.8676836793052913,,-0.06956664232292899,-0.10125745821601603,0.0886362022,-0.034016912529394594,,-1.6525388e-05,-2.7418137e-06,3.0994415e-06,0.99999994,9.462237e-06,7.711351e-06,-9.465963e-06,1.0,8.940697e-07,-7.700175e-06,-8.046627e-07,1.0,NaN,NaN,NaN,NaN,NaN
0.704712157999893,10:06:22.520806,10:06:04.386456,0,,0.027582355,0.04908415,0.07548489,-0.86747396,-0.37010947,-0.33242688,-0.4912271,0.74288857,0.4547665,0.07864277,0.55779517,-0.8262444,,0.1395,-0.044316668,0.073524594,-0.7422391,-0.6176783,0.25991228,-0.44367296,0.7436174,0.5001875,-0.5022303,0.2559427,-0.825989,,0.08979642,1.3490115,0.48508865,0.9960488,0.0026894878,-0.088766456,-0.0538427,-0.7765921,-0.6276988,-0.07062352,0.629998,-0.7733788,,-0.07245686,0.27900124,-0.076248005,0.88134944,0.2830166,0.3783183,-0.24631651,0.9585449,-0.14324759,-0.40317652,0.033065144,0.9145247,,0.055088248,0.44359067,-0.37038115,0.86662084,0.45693883,-0.20043764,-0.49799374,0.7669951,-0.40462428,-0.031153882,0.45047253,0.89224654,,0.819814430996177,-0.08604668968460949,0.15336925506000001,0.637038048305985,0.1186004817964023,0.30441355242180734,0.8707872165618427,,-0.6228615745048294,-0.6842109644576689,0.12753419536000002,1.4491671994215478,0.22722649910992745,0.789629468470602,0.8676836793052913,,-0.06956664232292899,-0.10125745821601603,0.0886362022,-0.034016912529394594,,-1.6525388e-05,-2.7418137e-06,3.0994415e-06,0.99999994,9.462237e-06,7.711351e-06,-9.465963e-06,1.0,8.940697e-07,-7.700175e-06,-8.046627e-07,1.0,NaN,NaN,NaN,NaN,NaN
0.7245606529995712,10:06:22.536980,10:06:04.386456,0,,0.027583327,0.049083732,0.0754845,-0.8674749,-0.3701128,-0.3324208,-0.49122617,0.7428907,0.45476407,0.07863839,0.55779016,-0.8262482,,0.1395,-0.044316668,0.073524594,-0.7422391,-0.6176783,0.25991228,-0.44367296,0.7436174,0.5001875,-0.5022303,0.2559427,-0.825989,,0.08979642,1.3490115,0.48508865,0.9960488,0.0026894878,-0.088766456,-0.0538427,-0.7765921,-0.6276988,-0.07062352,0.629998,-0.7733788,,-0.072457775,0.27900058,-0.076247945,0.8813507,0.28302023,0.3783127,-0.24631852,0.95854366,-0.14325249,-0.40317258,0.03307025,0.9145262,,0.055088248,0.44359067,-0.37038115,0.86662084,0.45693883,-0.20043764,-0.49799374,0.7669951,-0.40462428,-0.031153882,0.45047253,0.89224654,,0.8198067082633028,-0.08604668968460949,0.15336925506000001,0.637038048305985,0.1186004817964023,0.30441355242180734,0.8707872165618427,,-0.6228615745048294,-0.6842109644576689,0.12753419536000002,1.4491671994215478,0.22722649910992745,0.789629468470602,0.8676836793052913,,-0.06956664232292899,-0.10125745821601603,0.0886362022,-0.034016912529394594,,-1.6525388e-05,-2.7418137e-06,3.0994415e-06,0.99999994,9.462237e-06,7.711351e-06,-9.465963e-06,1.0,8.940697e-07,-7.700175e-06,-8.046627e-07,1.0,NaN,NaN,NaN,NaN,NaN
0.7407345899991924,10:06:22.556905,10:06:04.386456,0,,0.027582355,0.04908415,0.07548489,-0.86747396,-0.37010947,-0.33242688,-0.4912271,0.74288857,0.4547665,0.07864277,0.55779517,-0.8262444,,0.1395,-0.044316668,0.073524594,-0.7422391,-0.6176783,0.25991228,-0.44367296,0.7436174,0.5001875,-0.5022303,0.2559427,-0.825989,,0.08979642,1.3490115,0.48508865,0.9960488,0.0026894878,-0.088766456,-0.0538427,-0.7765921,-0.6276988,-0.07062352,0.629998,-0.7733788,,-0.07245686,0.27900124,-0.076248005,0.88134944,0.2830166,0.3783183,-0.24631651,0.9585449,-0.14324759,-0.40317652,0.033065144,0.9145247,,0.055088248,0.44359067,-0.37038115,0.86662084,0.45693883,-0.20043764,-0.49799374,0.7669951,-0.40462428,-0.031153882,0.45047253,0.89224654,,0.819814430996177,-0.08604668968460949,0.15336925506000001,0.637038048305985,0.1186004817964023,0.30441355242180734,0.8707872165618427,,-0.6228615745048294,-0.6842109644576689,0.12753419536000002,1.4491671994215478,0.22722649910992745,0.789629468470602,0.8676836793052913,,-0.06956664232292899,-0.10125745821601603,0.0886362022,-0.034016912529394594,,-1.6525388e-05,-2.7418137e-06,3.0994415e-06,0.99999994,9.462237e-06,7.711351e-06,-9.465963e-06,1.0,8.940697e-07,-7.700175e-06,-8.046627e-07,1.0,NaN,NaN,NaN,NaN,NaN
0.7599807549995603,10:06:22.569430,10:06:04.386456,0,,0.027582355,0.04908415,0.07548489,-0.86747396,-0.37010947,-0.33242688,-0.4912271,0.74288857,0.4547665,0.07864277,0.55779517,-0.8262444,,0.1395,-0.044316668,0.073524594,-0.7422391,-0.6176783,0.25991228,-0.44367296,0.7436174,0.5001875,-0.5022303,0.2559427,-0.825989,,0.08979642,1.3490115,0.48508865,0.9960488,0.0026894878,-0.088766456,-0.0538427,-0.7765921,-0.6276988,-0.07062352,0.629998,-0.7733788,,-0.07245686,0.27900124,-0.076248005,0.88134944,0.2830166,0.3783183,-0.24631651,0.9585449,-0.14324759,-0.40317652,0.033065144,0.9145247,,0.055088248,0.44359067,-0.37038115,0.86662084,0.45693883,-0.20043764,-0.49799374,0.7669951,-0.40462428,-0.031153882,0.45047253,0.89224654,,0.819814430996177,-0.08604668968460949,0.15336925506000001,0.637038048305985,0.1186004817964023,0.30441355242180734,0.8707872165618427,,-0.6228615745048294,-0.6842109644576689,0.12753419536000002,1.4491671994215478,0.22722649910992745,0.789629468470602,0.8676836793052913,,-0.06956664232292899,-0.10125745821601603,0.0886362022,-0.034016912529394594,,-1.6525388e-05,-2.7418137e-06,3.0994415e-06,0.99999994,9.462237e-06,7.711351e-06,-9.465963e-06,1.0,8.940697e-07,-7.700175e-06,-8.046627e-07,1.0,NaN,NaN,NaN,NaN,NaN
0.773183895999864,10:06:22.585931,10:06:04.461191,0,,0.027582355,0.04908415,0.07548489,-0.86747396,-0.37010947,-0.33242688,-0.4912271,0.74288857,0.4547665,0.07864277,0.55779517,-0.8262444,,0.1395,-0.044316668,0.073524594,-0.7422391,-0.6176783,0.25991228,-0.44367296,0.7436174,0.5001875,-0.5022303,0.2559427,-0.825989,,0.08979642,1.3490115,0.48508865,0.9960488,0.0026894878,-0.088766456,-0.0538427,-0.7765921,-0.6276988,-0.07062352,0.629998,-0.7733788,,-0.07245686,0.27900124,-0.076248005,0.88134944,0.2830166,0.3783183,-0.24631651,0.9585449,-0.14324759,-0.40317652,0.033065144,0.9145247,,0.055088248,0.44359067,-0.37038115,0.86662084,0.45693883,-0.20043764,-0.49799374,0.7669951,-0.40462428,-0.031153882,0.45047253,0.89224654,,0.819814430996177,-0.08604668968460949,0.15336925506000001,0.637038048305985,0.1186004817964023,0.30441355242180734,0.8707872165618427,,-0.6228615745048294,-0.6842109644576689,0.12753419536000002,1.4491671994215478,0.22722649910992745,0.789629468470602,0.8676836793052913,,-0.06956664232292899,-0.10125745821601603,0.0886362022,-0.034016912529394594,,-1.6525388e-05,-2.7418137e-06,3.0994415e-06,0.99999994,9.462237e-06,7.711351e-06,-9.465963e-06,1.0,8.940697e-07,-7.700175e-06,-8.046627e-07,1.0,NaN,NaN,NaN,NaN,NaN
0.7896863659998417,10:06:22.601805,10:06:04.461191,0,,0.027583327,0.049083732,0.0754845,-0.8674749,-0.3701128,-0.3324208,-0.49122617,0.7428907,0.45476407,0.07863839,0.55779016,-0.8262482,,0.1395,-0.044316668,0.073524594,-0.7422391,-0.6176783,0.25991228,-0.44367296,0.7436174,0.5001875,-0.5022303,0.2559427,-0.825989,,0.08979642,1.3490115,0.48508865,0.9960488,0.0026894878,-0.088766456,-0.0538427,-0.7765921,-0.6276988,-0.07062352,0.629998,-0.7733788,,-0.072457775,0.27900058,-0.076247945,0.8813507,0.28302023,0.3783127,-0.24631852,0.95854366,-0.14325249,-0.40317258,0.03307025,0.9145262,,0.055088248,0.44359067,-0.37038115,0.86662084,0.45693883,-0.20043764,-0.49799374,0.7669951,-0.40462428,-0.031153882,0.45047253,0.89224654,,0.8198067082633028,-0.08604668968460949,0.15336925506000001,0.637038048305985,0.1186004817964023,0.30441355242180734,0.8707872165618427,,-0.6228615745048294,-0.6842109644576689,0.12753419536000002,1.4491671994215478,0.22722649910992745,0.789629468470602,0.8676836793052913,,-0.06956664232292899,-0.10125745821601603,0.0886362022,-0.034016912529394594,,-1.6525388e-05,-2.7418137e-06,3.0994415e-06,0.99999994,9.462237e-06,7.711351e-06,-9.465963e-06,1.0,8.940697e-07,-7.700175e-06,-8.046627e-07,1.0,NaN,NaN,NaN,NaN,NaN
0.8055606190000617,10:06:22.623840,10:06:04.461191,0,,0.027582355,0.04908415,0.07548489,-0.86747396,-0.37010947,-0.33242688,-0.4912271,0.74288857,0.4547665,0.07864277,0.55779517,-0.8262444,,0.1395,-0.044316668,0.073524594,-0.7422391,-0.6176783,0.25991228,-0.44367296,0.7436174,0.5001875,-0.5022303,0.2559427,-0.825989,,0.08979642,1.3490115,0.48508865,0.9960488,0.0026894878,-0.088766456,-0.0538427,-0.7765921,-0.6276988,-0.07062352,0.629998,-0.7733788,,-0.07245686,0.27900124,-0.076248005,0.88134944,0.2830166,0.3783183,-0.24631651,0.9585449,-0.14324759,-0.40317652,0.033065144,0.9145247,,0.055088248,0.44359067,-0.37038115,0.86662084,0.45693883,-0.20043764,-0.49799374,0.7669951,-0.40462428,-0.031153882,0.45047253,0.89224654,,0.819814430996177,-0.08604668968460949,0.15336925506000001,0.637038048305985,0.1186004817964023,0.30441355242180734,0.8707872165618427,,-0.6228615745048294,-0.6842109644576689,0.12753419536000002,1.4491671994215478,0.22722649910992745,0.789629468470602,0.8676836793052913,,-0.06956664232292899,-0.10125745821601603,0.0886362022,-0.034016912529394594,,-1.6525388e-05,-2.7418137e-06,3.0994415e-06,0.99999994,9.462237e-06,7.711351e-06,-9.465963e-06,1.0,8.940697e-07,-7.700175e-06,-8.046627e-07,1.0,NaN,NaN,NaN,NaN,NaN
0.8264356929994392,10:06:22.635181,10:06:04.461191,0,,0.027582355,0.04908415,0.07548489,-0.86747396,-0.37010947,-0.33242688,-0.4912271,0.74288857,0.4547665,0.07864277,0.55779517,-0.8262444,,0.1395,-0.044316668,0.073524594,-0.7422391,-0.6176783,0.25991228,-0.44367296,0.7436174,0.5001875,-0.5022303,0.2559427,-0.825989,,0.08979642,1.3490115,0.48508865,0.9960488,0.0026894878,-0.088766456,-0.0538427,-0.7765921,-0.6276988,-0.07062352,0.629998,-0.7733788,,-0.07245686,0.27900124,-0.076248005,0.88134944,0.2830166,0.3783183,-0.24631651,0.9585449,-0.14324759,-0.40317652,0.033065144,0.9145247,,0.055088248,0.44359067,-0.37038115,0.86662084,0.45693883,-0.20043764,-0.49799374,0.7669951,-0.40462428,-0.031153882,0.45047253,0.89224654,,0.819814430996177,-0.08604668968460949,0.15336925506000001,0.637038048305985,0.1186004817964023,0.30441355242180734,0.8707872165618427,,-0.6228615745048294,-0.6842109644576689,0.12753419536000002,1.4491671994215478,0.22722649910992745,0.789629468470602,0.8676836793052913,,-0.06956664232292899,-0.10125745821601603,0.0886362022,-0.034016912529394594,,-1.6525388e-05,-2.7418137e-06,3.0994415e-06,0.99999994,9.462237e-06,7.711351e-06,-9.465963e-06,1.0,8.940697e-07,-7.700175e-06,-8.046627e-07,1.0,NaN,NaN,NaN,NaN,NaN
0.8389357339992785,10:06:22.652870,10:06:04.461191,0,,0.027581885,0.049083106,0.07548486,-0.8674724,-0.37010983,-0.33243045,-0.49122885,0.7428913,0.45476013,0.07864854,0.5577913,-0.82624644,,0.1395,-0.044316668,0.073524594,-0.7422391,-0.6176783,0.25991228,-0.44367296,0.7436174,0.5001875,-0.5022303,0.2559427,-0.825989,,0.08979642,1.3490115,0.48508865,0.9960488,0.0026894878,-0.088766456,-0.0538427,-0.7765921,-0.6276988,-0.07062352,0.629998,-0.7733788,,-0.072456345,0.27900046,-0.07624866,0.88134754,0.28301713,0.37832236,-0.24631435,0.95854455,-0.14325346,-0.40318203,0.033069856,0.91452205,,0.055088248,0.44359067,-0.37038115,0.86662084,0.45693883,-0.20043764,-0.49799374,0.7669951,-0.40462428,-0.031153882,0.45047253,0.89224654,,0.819814430996177,-0.08605441241748371,0.15336925506000001,0.637038048305985,0.1186004817964023,0.30441355242180734,0.8707872165618427,,-0.6228615745048294,-0.6842109644576689,0.12753419536000002,1.4491671994215478,0.22722649910992745,0.789629468470602,0.8676836793052913,,-0.06956664232292899,-0.10125745821601603,0.0886362022,-0.034016912529394594,,-1.6525388e-05,-2.7418137e-06,3.0994415e-06,0.99999994,9.462237e-06,7.711351e-06,-9.465963e-06,1.0,8.940697e-07,-7.700175e-06,-8.046627e-07,1.0,NaN,NaN,NaN,NaN,NaN
0.8566174339994177,10:06:22.669864,10:06:04.543549,0,,0.027583327,0.049083732,0.0754845,-0.8674749,-0.3701128,-0.3324208,-0.49122617,0.7428907,0.45476407,0.07863839,0.55779016,-0.8262482,,0.1395,-0.044316668,0.073524594,-0.7422391,-0.6176783,0.25991228,-0.44367296,0.7436174,0.5001875,-0.5022303,0.2559427,-0.825989,,0.08979642,1.3490115,0.48508865,0.9960488,0.0026894878,-0.088766456,-0.0538427,-0.7765921,-0.6276988,-0.07062352,0.629998,-0.7733788,,-0.072457775,0.27900058,-0.076247945,0.8813507,0.28302023,0.3783127,-0.24631852,0.95854366,-0.14325249,-0.40317258,0.03307025,0.9145262,,0.055088248,0.44359067,-0.37038115,0.86662084,0.45693883,-0.20043764,-0.49799374,0.7669951,-0.40462428,-0.031153882,0.45047253,0.89224654,,0.8198067082633028,-0.08604668968460949,0.15336925506000001,0.637038048305985,0.1186004817964023,0.30441355242180734,0.8707872165618427,,-0.6228615745048294,-0.6842109644576689,0.12753419536000002,1.4491671994215478,0.22722649910992745,0.789629468470602,0.8676836793052913,,-0.06956664232292899,-0.10125745821601603,0.0886362022,-0.034016912529394594,,-1.6525388e-05,-2.7418137e-06,3.0994415e-06,0.99999994,9.462237e-06,7.711351e-06,-9.465963e-06,1.0,8.940697e-07,-7.700175e-06,-8.046627e-07,1.0,NaN,NaN,NaN,NaN,NaN
0.8736197159996664,10:06:22.688427,10:06:04.543549,0,,0.027582355,0.04908415,0.07548489,-0.86747396,-0.37010947,-0.33242688,-0.4912271,0.74288857,0.4547665,0.07864277,0.55779517,-0.8262444,,0.1395,-0.044316668,0.073524594,-0.7422391,-0.6176783,0.25991228,-0.44367296,0.7436174,0.5001875,-0.5022303,0.2559427,-0.825989,,0.08979642,1.3490115,0.48508865,0.9960488,0.0026894878,-0.088766456,-0.0538427,-0.7765921,-0.6276988,-0.07062352,0.629998,-0.7733788,,-0.07245686,0.27900124,-0.076248005,0.88134944,0.2830166,0.3783183,-0.24631651,0.9585449,-0.14324759,-0.40317652,0.033065144,0.9145247,,0.055088248,0.44359067,-0.37038115,0.86662084,0.45693883,-0.20043764,-0.49799374,0.7669951,-0.40462428,-0.031153882,0.45047253,0.89224654,,0.819814430996177,-0.08604668968460949,0.15336925506000001,0.637038048305985,0.1186004817964023,0.30441355242180734,0.8707872165618427,,-0.6228615745048294,-0.6842109644576689,0.12753419536000002,1.4491671994215478,0.22722649910992745,0.789629468470602,0.8676836793052913,,-0.06956664232292899,-0.10125745821601603,0.0886362022,-0.034016912529394594,,-1.6525388e-05,-2.7418137e-06,3.0994415e-06,0.99999994,9.462237e-06,7.711351e-06,-9.465963e-06,1.0,8.940697e-07,-7.700175e-06,-8.046627e-07,1.0,NaN,NaN,NaN,NaN,NaN
0.8921550639997804,10:06:22.702510,10:06:04.543549,0,,0.027583327,0.049083732,0.0754845,-0.8674749,-0.3701128,-0.3324208,-0.49122617,0.7428907,0.45476407,0.07863839,0.55779016,-0.8262482,,0.1395,-0.044316668,0.073524594,-0.7422391,-0.6176783,0.25991228,-0.44367296,0.7436174,0.5001875,-0.5022303,0.2559427,-0.825989,,0.08979642,1.3490115,0.48508865,0.9960488,0.0026894878,-0.088766456,-0.0538427,-0.7765921,-0.6276988,-0.07062352,0.629998,-0.7733788,,-0.072457775,0.27900058,-0.076247945,0.8813507,0.28302023,0.3783127,-0.24631852,0.95854366,-0.14325249,-0.40317258,0.03307025,0.9145262,,0.055088248,0.44359067,-0.37038115,0.86662084,0.45693883,-0.20043764,-0.49799374,0.7669951,-0.40462428,-0.031153882,0.45047253,0.89224654,,0.8198067082633028,-0.08604668968460949,0.15336925506000001,0.637038048305985,0.1186004817964023,0.30441355242180734,0.8707872165618427,,-0.6228615745048294,-0.6842109644576689,0.12753419536000002,1.4491671994215478,0.22722649910992745,0.789629468470602,0.8676836793052913,,-0.06956664232292899,-0.10125745821601603,0.0886362022,-0.034016912529394594,,-1.6525388e-05,-2.7418137e-06,3.0994415e-06,0.99999994,9.462237e-06,7.711351e-06,-9.465963e-06,1.0,8.940697e-07,-7.700175e-06,-8.046627e-07,1.0,NaN,NaN,NaN,NaN,NaN
0.9062653929995577,10:06:22.719574,10:06:04.543549,0,,0.027582355,0.04908415,0.07548489,-0.86747396,-0.37010947,-0.33242688,-0.4912271,0.74288857,0.4547665,0.07864277,0.55779517,-0.8262444,,0.1395,-0.044316668,0.073524594,-0.7422391,-0.6176783,0.25991228,-0.44367296,0.7436174,0.5001875,-0.5022303,0.2559427,-0.825989,,0.08979642,1.3490115,0.48508865,0.9960488,0.0026894878,-0.088766456,-0.0538427,-0.7765921,-0.6276988,-0.07062352,0.629998,-0.7733788,,-0.07245686,0.27900124,-0.076248005,0.88134944,0.2830166,0.3783183,-0.24631651,0.9585449,-0.14324759,-0.40317652,0.033065144,0.9145247,,0.055088248,0.44359067,-0.37038115,0.86662084,0.45693883,-0.20043764,-0.49799374,0.7669951,-0.40462428,-0.031153882,0.45047253,0.89224654,,0.819814430996177,-0.08604668968460949,0.15336925506000001,0.637038048305985,0.1186004817964023,0.30441355242180734,0.8707872165618427,,-0.6228615745048294,-0.6842109644576689,0.12753419536000002,1.4491671994215478,0.22722649910992745,0.789629468470602,0.8676836793052913,,-0.06956664232292899,-0.10125745821601603,0.0886362022,-0.034016912529394594,,-1.6525388e-05,-2.7418137e-06,3.0994415e-06,0.99999994,9.462237e-06,7.711351e-06,-9.465963e-06,1.0,8.940697e-07,-7.700175e-06,-8.046627e-07,1.0,NaN,NaN,NaN,NaN,NaN
0.9233070359996418,10:06:22.735053,10:06:04.543549,0,,0.027582869,0.04908269,0.07548447,-0.86747336,-0.37011316,-0.3324244,-0.49122795,0.7428934,0.4547577,0.07864417,0.5577863,-0.82625026,,0.1395,-0.044316668,0.073524594,-0.7422391,-0.6176783,0.25991228,-0.44367296,0.7436174,0.5001875,-0.5022303,0.2559427,-0.825989,,0.08979642,1.3490115,0.48508865,0.9960488,0.0026894878,-0.088766456,-0.0538427,-0.7765921,-0.6276988,-0.07062352,0.629998,-0.7733788,,-0.07245726,0.2789998,-0.07624861,0.8813488,0.28302076,0.3783168,-0.24631636,0.9585433,-0.14325836,-0.40317813,0.033074964,0.9145236,,0.055088248,0.44359067,-0.37038115,0.86662084,0.45693883,-0.20043764,-0.49799374,0.7669951,-0.40462428,-0.031153882,0.45047253,0.89224654,,0.8198067082633028,-0.08605441241748371,0.15336925506000001,0.637038048305985,0.1186004817964023,0.30441355242180734,0.8707872165618427,,-0.6228615745048294,-0.6842109644576689,0.12753419536000002,1.4491671994215478,0.22722649910992745,0.789629468470602,0.8676836793052913,,-0.06956664232292899,-0.10125745821601603,0.0886362022,-0.034016912529394594,,-1.6525388e-05,-2.7418137e-06,3.0994415e-06,0.99999994,9.462237e-06,7.711351e-06,-9.465963e-06,1.0,8.940697e-07,-7.700175e-06,-8.046627e-07,1.0,NaN,NaN,NaN,NaN,NaN
0.9388091519995214,10:06:22.752718,10:06:04.617379,0,,0.027582355,0.04908415,0.07548489,-0.86747396,-0.37010947,-0.33242688,-0.4912271,0.74288857,0.4547665,0.07864277,0.55779517,-0.8262444,,0.1395,-0.044316668,0.073524594,-0.7422391,-0.6176783,0.25991228,-0.44367296,0.7436174,0.5001875,-0.5022303,0.2559427,-0.825989,,0.08979642,1.3490115,0.48508865,0.9960488,0.0026894878,-0.088766456,-0.0538427,-0.7765921,-0.6276988,-0.07062352,0.629998,-0.7733788,,-0.07245686,0.27900124,-0.076248005,0.88134944,0.2830166,0.3783183,-0.24631651,0.9585449,-0.14324759,-0.40317652,0.033065144,0.9145247,,0.055088248,0.44359067,-0.37038115,0.86662084,0.45693883,-0.20043764,-0.49799374,0.7669951,-0.40462428,-0.031153882,0.45047253,0.89224654,,0.819814430996177,-0.08604668968460949,0.15336925506000001,0.637038048305985,0.1186004817964023,0.30441355242180734,0.8707872165618427,,-0.6228615745048294,-0.6842109644576689,0.12753419536000002,1.4491671994215478,0.22722649910992745,0.789629468470602,0.8676836793052913,,-0.06956664232292899,-0.10125745821601603,0.0886362022,-0.034016912529394594,,-1.6525388e-05,-2.7418137e-06,3.0994415e-06,0.99999994,9.462237e-06,7.711351e-06,-9.465963e-06,1.0,8.940697e-07,-7.700175e-06,-8.046627e-07,1.0,NaN,NaN,NaN,NaN,NaN
0.9564586249998683,10:06:22.768619,10:06:04.617379,0,,0.027582355,0.04908415,0.07548489,-0.86747396,-0.37010947,-0.33242688,-0.4912271,0.74288857,0.4547665,0.07864277,0.55779517,-0.8262444,,0.1395,-0.044316668,0.073524594,-0.7422391,-0.6176783,0.25991228,-0.44367296,0.7436174,0.5001875,-0.5022303,0.2559427,-0.825989,,0.08979642,1.3490115,0.48508865,0.9960488,0.0026894878,-0.088766456,-0.0538427,-0.7765921,-0.6276988,-0.07062352,0.629998,-0.7733788,,-0.07245686,0.27900124,-0.076248005,0.88134944,0.2830166,0.3783183,-0.24631651,0.9585449,-0.14324759,-0.40317652,0.033065144,0.9145247,,0.055088248,0.44359067,-0.37038115,0.86662084,0.45693883,-0.20043764,-0.49799374,0.7669951,-0.40462428,-0.031153882,0.45047253,0.89224654,,0.819814430996177,-0.08604668968460949,0.15336925506000001,0.637038048305985,0.1186004817964023,0.30441355242180734,0.8707872165618427,,-0.6228615745048294,-0.6842109644576689,0.12753419536000002,1.4491671994215478,0.22722649910992745,0.789629468470602,0.8676836793052913,,-0.06956664232292899,-0.10125745821601603,0.0886362022,-0.034016912529394594,,-1.6525388e-05,-2.7418137e-06,3.0994415e-06,0.99999994,9.462237e-06,7.711351e-06,-9.465963e-06,1.0,8.940697e-07,-7.700175e-06,-8.046627e-07,1.0,NaN,NaN,NaN,NaN,NaN
0.9723745510000299,10:06:22.785852,10:06:04.617379,0,,0.027582355,0.04908415,0.07548489,-0.86747396,-0.37010947,-0.33242688,-0.4912271,0.74288857,0.4547665,0.07864277,0.55779517,-0.8262444,,0.1395,-0.044316668,0.073524594,-0.7422391,-0.6176783,0.25991228,-0.44367296,0.7436174,0.5001875,-0.5022303,0.2559427,-0.825989,,0.08979642,1.3490115,0.48508865,0.9960488,0.0026894878,-0.088766456,-0.0538427,-0.7765921,-0.6276988,-0.07062352,0.629998,-0.7733788,,-0.07245686,0.27900124,-0.076248005,0.88134944,0.2830166,0.3783183,-0.24631651,0.9585449,-0.14324759,-0.40317652,0.033065144,0.9145247,,0.055088248,0.44359067,-0.37038115,0.86662084,0.45693883,-0.20043764,-0.49799374,0.7669951,-0.40462428,-0.031153882,0.45047253,0.89224654,,0.819814430996177,-0.08604668968460949,0.15336925506000001,0.637038048305985,0.1186004817964023,0.30441355242180734,0.8707872165618427,,-0.6228615745048294,-0.6842109644576689,0.12753419536000002,1.4491671994215478,0.22722649910992745,0.789629468470602,0.8676836793052913,,-0.06956664232292899,-0.10125745821601603,0.0886362022,-0.034016912529394594,,-1.6525388e-05,-2.7418137e-06,3.0994415e-06,0.99999994,9.462237e-06,7.711351e-06,-9.465963e-06,1.0,8.940697e-07,-7.700175e-06,-8.046627e-07,1.0,NaN,NaN,NaN,NaN,NaN
0.9892589510000107,10:06:22.802266,10:06:04.617379,0,,0.027582869,0.04908269,0.07548447,-0.86747336,-0.37011316,-0.3324244,-0.49122795,0.7428934,0.4547577,0.07864417,0.5577863,-0.82625026,,0.1395,-0.044316668,0.073524594,-0.7422391,-0.6176783,0.25991228,-0.44367296,0.7436174,0.5001875,-0.5022303,0.2559427,-0.825989,,0.08979642,1.3490115,0.48508865,0.9960488,0.0026894878,-0.088766456,-0.0538427,-0.7765921,-0.6276988,-0.07062352,0.629998,-0.7733788,,-0.07245726,0.2789998,-0.07624861,0.8813488,0.28302076,0.3783168,-0.24631636,0.9585433,-0.14325836,-0.40317813,0.033074964,0.9145236,,0.055088248,0.44359067,-0.37038115,0.86662084,0.45693883,-0.20043764,-0.49799374,0.7669951,-0.40462428,-0.031153882,0.45047253,0.89224654,,0.8198067082633028,-0.08605441241748371,0.15336925506000001,0.637038048305985,0.1186004817964023,0.30441355242180734,0.8707872165618427,,-0.6228615745048294,-0.6842109644576689,0.12753419536000002,1.4491671994215478,0.22722649910992745,0.789629468470602,0.8676836793052913,,-0.06956664232292899,-0.10125745821601603,0.0886362022,-0.034016912529394594,,-1.6525388e-05,-2.7418137e-06,3.0994415e-06,0.99999994,9.462237e-06,7.711351e-06,-9.465963e-06,1.0,8.940697e-07,-7.700175e-06,-8.046627e-07,1.0,NaN,NaN,NaN,NaN,NaN
1.0060208369995962,10:06:22.817874,10:06:04.617379,0,,0.027582869,0.04908269,0.07548447,-0.86747336,-0.37011316,-0.3324244,-0.49122795,0.7428934,0.4547577,0.07864417,0.5577863,-0.82625026,,0.1395,-0.044316668,0.073524594,-0.7422391,-0.6176783,0.25991228,-0.44367296,0.7436174,0.5001875,-0.5022303,0.2559427,-0.825989,,0.08979642,1.3490115,0.48508865,0.9960488,0.0026894878,-0.088766456,-0.0538427,-0.7765921,-0.6276988,-0.07062352,0.629998,-0.7733788,,-0.07245726,0.2789998,-0.07624861,0.8813488,0.28302076,0.3783168,-0.24631636,0.9585433,-0.14325836,-0.40317813,0.033074964,0.9145236,,0.055088248,0.44359067,-0.37038115,0.86662084,0.45693883,-0.20043764,-0.49799374,0.7669951,-0.40462428,-0.031153882,0.45047253,0.89224654,,0.8198067082633028,-0.08605441241748371,0.15336925506000001,0.637038048305985,0.1186004817964023,0.30441355242180734,0.8707872165618427,,-0.6228615745048294,-0.6842109644576689,0.12753419536000002,1.4491671994215478,0.22722649910992745,0.789629468470602,0.8676836793052913,,-0.06956664232292899,-0.10125745821601603,0.0886362022,-0.034016912529394594,,-1.6525388e-05,-2.7418137e-06,3.0994415e-06,0.99999994,9.462237e-06,7.711351e-06,-9.465963e-06,1.0,8.940697e-07,-7.700175e-06,-8.046627e-07,1.0,NaN,NaN,NaN,NaN,NaN
1.021628729999975,10:06:22.834686,10:06:04.617379,0,,0.027582355,0.04908415,0.07548489,-0.86747396,-0.37010947,-0.33242688,-0.4912271,0.74288857,0.4547665,0.07864277,0.55779517,-0.8262444,,0.1395,-0.044316668,0.073524594,-0.7422391,-0.6176783,0.25991228,-0.44367296,0.7436174,0.5001875,-0.5022303,0.2559427,-0.825989,,0.08979642,1.3490115,0.48508865,0.9960488,0.0026894878,-0.088766456,-0.0538427,-0.7765921,-0.6276988,-0.07062352,0.629998,-0.7733788,,-0.07245686,0.27900124,-0.076248005,0.88134944,0.2830166,0.3783183,-0.24631651,0.9585449,-0.14324759,-0.40317652,0.033065144,0.9145247,,0.055088248,0.44359067,-0.37038115,0.86662084,0.45693883,-0.20043764,-0.49799374,0.7669951,-0.40462428,-0.031153882,0.45047253,0.89224654,,0.819814430996177,-0.08604668968460949,0.15336925506000001,0.637038048305985,0.1186004817964023,0.30441355242180734,0.8707872165618427,,-0.6228615745048294,-0.6842109644576689,0.12753419536000002,1.4491671994215478,0.22722649910992745,0.789629468470602,0.8676836793052913,,-0.06956664232292899,-0.10125745821601603,0.0886362022,-0.034016912529394594,,-1.6525388e-05,-2.7418137e-06,3.0994415e-06,0.99999994,9.462237e-06,7.711351e-06,-9.465963e-06,1.0,8.940697e-07,-7.700175e-06,-8.046627e-07,1.0,NaN,NaN,NaN,NaN,NaN
1.0384404099995663,10:06:22.858579,10:06:04.728756,0,,0.027582355,0.04908415,0.07548489,-0.86747396,-0.37010947,-0.33242688,-0.4912271,0.74288857,0.4547665,0.07864277,0.55779517,-0.8262444,,0.1395,-0.044316668,0.073524594,-0.7422391,-0.6176571,0.25996274,-0.44367296,0.7436583,0.50012684,-0.5022303,0.25587523,-0.82601,,0.08979642,1.3490115,0.48508865,0.9960488,0.0026894878,-0.088766456,-0.0538427,-0.7765921,-0.6276988,-0.07062352,0.629998,-0.7733788,,-0.07245686,0.27900124,-0.076248005,0.88134944,0.2830166,0.3783183,-0.24631651,0.9585449,-0.14324759,-0.40317652,0.033065144,0.9145247,,0.055088248,0.44359067,-0.37038115,0.86662084,0.45692247,-0.20047495,-0.49799374,0.766962,-0.40468693,-0.031153882,0.4505454,0.89220977,,0.819814430996177,-0.08604668968460949,0.15336925506000001,0.637038048305985,0.1186004817964023,0.30441355242180734,0.8707872165618427,,-0.6228615745048294,-0.6842109644576689,0.12753419536000002,1.4491671994215478,0.22722649910992745,0.7895477897304615,0.8675203352391572,,-0.06956664232292899,-0.10125745821601603,0.0886362022,-0.034016912529394594,,-1.6525388e-05,-2.7418137e-06,3.0994415e-06,0.99999994,9.462237e-06,7.711351e-06,-9.465963e-06,1.0,8.940697e-07,-7.700175e-06,-8.046627e-07,1.0,NaN,NaN,NaN,NaN,NaN
1.0622929399996792,10:06:22.869738,10:06:04.728756,0,,0.027583327,0.049083732,0.0754845,-0.8674749,-0.3701128,-0.3324208,-0.49122617,0.7428907,0.45476407,0.07863839,0.55779016,-0.8262482,,0.1395,-0.044316668,0.073524594,-0.7422391,-0.6176571,0.25996274,-0.44367296,0.7436583,0.50012684,-0.5022303,0.25587523,-0.82601,,0.08979642,1.3490115,0.48508865,0.9960488,0.0026894878,-0.088766456,-0.0538427,-0.7765921,-0.6276988,-0.07062352,0.629998,-0.7733788,,-0.072457775,0.27900058,-0.076247945,0.8813507,0.28302023,0.3783127,-0.24631852,0.95854366,-0.14325249,-0.40317258,0.03307025,0.9145262,,0.055088248,0.44359067,-0.37038115,0.86662084,0.45692247,-0.20047495,-0.49799374,0.766962,-0.40468693,-0.031153882,0.4505454,0.89220977,,0.8198067082633028,-0.08604668968460949,0.15336925506000001,0.637038048305985,0.1186004817964023,0.30441355242180734,0.8707872165618427,,-0.6228615745048294,-0.6842109644576689,0.12753419536000002,1.4491671994215478,0.22722649910992745,0.7895477897304615,0.8675203352391572,,-0.06956664232292899,-0.10125745821601603,0.0886362022,-0.034016912529394594,,-1.6525388e-05,-2.7418137e-06,3.0994415e-06,0.99999994,9.462237e-06,7.711351e-06,-9.465963e-06,1.0,8.940697e-07,-7.700175e-06,-8.046627e-07,1.0,NaN,NaN,NaN,NaN,NaN
1.0734944099995118,10:06:22.889220,10:06:04.728756,0,,0.027582355,0.04908415,0.07548489,-0.86747396,-0.37010947,-0.33242688,-0.4912271,0.74288857,0.4547665,0.07864277,0.55779517,-0.8262444,,0.1395,-0.044316668,0.073524594,-0.7422391,-0.6176571,0.25996274,-0.44367296,0.7436583,0.50012684,-0.5022303,0.25587523,-0.82601,,0.08979642,1.3490115,0.48508865,0.9960488,0.0026894878,-0.088766456,-0.0538427,-0.7765921,-0.6276988,-0.07062352,0.629998,-0.7733788,,-0.07245686,0.27900124,-0.076248005,0.88134944,0.2830166,0.3783183,-0.24631651,0.9585449,-0.14324759,-0.40317652,0.033065144,0.9145247,,0.055088248,0.44359067,-0.37038115,0.86662084,0.45692247,-0.20047495,-0.49799374,0.766962,-0.40468693,-0.031153882,0.4505454,0.89220977,,0.819814430996177,-0.08604668968460949,0.15336925506000001,0.637038048305985,0.1186004817964023,0.30441355242180734,0.8707872165618427,,-0.6228615745048294,-0.6842109644576689,0.12753419536000002,1.4491671994215478,0.22722649910992745,0.7895477897304615,0.8675203352391572,,-0.06956664232292899,-0.10125745821601603,0.0886362022,-0.034016912529394594,,-1.6525388e-05,-2.7418137e-06,3.0994415e-06,0.99999994,9.462237e-06,7.711351e-06,-9.465963e-06,1.0,8.940697e-07,-7.700175e-06,-8.046627e-07,1.0,NaN,NaN,NaN,NaN,NaN
1.0928991009996025,10:06:22.906726,10:06:04.728756,0,,0.027582355,0.04908415,0.07548489,-0.86747396,-0.37010947,-0.33242688,-0.4912271,0.74288857,0.4547665,0.07864277,0.55779517,-0.8262444,,0.1395,-0.044316668,0.073524594,-0.7422391,-0.61763585,0.26001316,-0.44367296,0.7436991,0.5000661,-0.5022303,0.25580776,-0.82603085,,0.08979642,1.3490115,0.48508865,0.9960488,0.0026894878,-0.088766456,-0.0538427,-0.7765921,-0.6276988,-0.07062352,0.629998,-0.7733788,,-0.07245686,0.27900124,-0.076248005,0.88134944,0.2830166,0.3783183,-0.24631651,0.9585449,-0.14324759,-0.40317652,0.033065144,0.9145247,,0.055088248,0.44359067,-0.37038115,0.86662084,0.45690608,-0.20051228,-0.49799374,0.7669289,-0.40474957,-0.031153882,0.45061827,0.892173,,0.819814430996177,-0.08604668968460949,0.15336925506000001,0.637038048305985,0.1186004817964023,0.30441355242180734,0.8707872165618427,,-0.6228615745048294,-0.6842109644576689,0.12753419536000002,1.4491671994215478,0.22722649910992745,0.7894661109903209,0.8673569911730228,,-0.06956664232292899,-0.10125745821601603,0.0886362022,-0.034016912529394594,,-1.6525388e-05,-2.7418137e-06,3.0994415e-06,0.99999994,9.462237e-06,7.711351e-06,-9.465963e-06,1.0,8.940697e-07,-7.700175e-06,-8.046627e-07,1.0,NaN,NaN,NaN,NaN,NaN
1.1104771669997717,10:06:22.920086,10:06:04.728756,0,,0.027583327,0.049083732,0.0754845,-0.8674749,-0.3701128,-0.3324208,-0.49122617,0.7428907,0.45476407,0.07863839,0.55779016,-0.8262482,,0.1395,-0.044316668,0.073524594,-0.7422391,-0.61763585,0.26001316,-0.44367296,0.7436991,0.5000661,-0.5022303,0.25580776,-0.82603085,,0.08979642,1.3490115,0.48508865,0.9960488,0.0026894878,-0.088766456,-0.0538427,-0.7765921,-0.6276988,-0.07062352,0.629998,-0.7733788,,-0.072457775,0.27900058,-0.076247945,0.8813507,0.28302023,0.3783127,-0.24631852,0.95854366,-0.14325249,-0.40317258,0.03307025,0.9145262,,0.055088248,0.44359067,-0.37038115,0.86662084,0.45690608,-0.20051228,-0.49799374,0.7669289,-0.40474957,-0.031153882,0.45061827,0.892173,,0.8198067082633028,-0.08604668968460949,0.15336925506000001,0.637038048305985,0.1186004817964023,0.30441355242180734,0.8707872165618427,,-0.6228615745048294,-0.6842109644576689,0.12753419536000002,1.4491671994215478,0.22722649910992745,0.7894661109903209,0.8673569911730228,,-0.06956664232292899,-0.10125745821601603,0.0886362022,-0.034016912529394594,,-1.6525388e-05,-2.7418137e-06,3.0994415e-06,0.99999994,9.462237e-06,7.711351e-06,-9.465963e-06,1.0,8.940697e-07,-7.700175e-06,-8.046627e-07,1.0,NaN,NaN,NaN,NaN,NaN
1.1238420919999044,10:06:22.936225,10:06:04.728756,0,,0.027583327,0.049083732,0.0754845,-0.8674749,-0.3701128,-0.3324208,-0.49122617,0.7428907,0.45476407,0.07863839,0.55779016,-0.8262482,,0.1395,-0.044316668,0.073524594,-0.7422391,-0.61763585,0.26001316,-0.44367296,0.7436991,0.5000661,-0.5022303,0.25580776,-0.82603085,,0.08979642,1.3490115,0.48508865,0.9960488,0.0026894878,-0.088766456,-0.0538427,-0.7765921,-0.6276988,-0.07062352,0.629998,-0.7733788,,-0.072457775,0.27900058,-0.076247945,0.8813507,0.28302023,0.3783127,-0.24631852,0.95854366,-0.14325249,-0.40317258,0.03307025,0.9145262,,0.055088248,0.44359067,-0.37038115,0.86662084,0.45690608,-0.20051228,-0.49799374,0.7669289,-0.40474957,-0.031153882,0.45061827,0.892173,,0.8198067082633028,-0.08604668968460949,0.15336925506000001,0.637038048305985,0.1186004817964023,0.30441355242180734,0.8707872165618427,,-0.6228615745048294,-0.6842109644576689,0.12753419536000002,1.4491671994215478,0.22722649910992745,0.7894661109903209,0.8673569911730228,,-0.06956664232292899,-0.10125745821601603,0.0886362022,-0.034016912529394594,,-1.6525388e-05,-2.7418137e-06,3.0994415e-06,0.99999994,9.462237e-06,7.711351e-06,-9.465963e-06,1.0,8.940697e-07,-7.700175e-06,-8.046627e-07,1.0,NaN,NaN,NaN,NaN,NaN
1.139961853999921,10:06:22.953881,10:06:04.728756,0,,0.027583327,0.049083732,0.0754845,-0.8674749,-0.3701128,-0.3324208,-0.49122617,0.7428907,0.45476407,0.07863839,0.55779016,-0.8262482,,0.13949937,-0.044316877,0.0735243,-0.74224156,-0.6176356,0.26000655,-0.44367597,0.74369866,0.5000641,-0.50222385,0.25580978,-0.8260342,,0.08979642,1.3490115,0.48508865,0.9960488,0.0026894878,-0.088766456,-0.0538427,-0.7765921,-0.6276988,-0.07062352,0.629998,-0.7733788,,-0.072457775,0.27900058,-0.076247945,0.8813507,0.28302023,0.3783127,-0.24631852,0.95854366,-0.14325249,-0.40317258,0.03307025,0.9145262,,0.055088945,0.44359046,-0.37038112,0.86662275,0.4569056,-0.200505,-0.49798998,0.76693016,-0.4047519,-0.031160079,0.4506167,0.8921735,,0.8198067082633028,-0.08604668968460949,0.15336925506000001,0.637038048305985,0.1186004817964023,0.30441355242180734,0.8707872165618427,,-0.6228538517719552,-0.6842109644576689,0.12753419536000002,1.4491671994215478,0.22722649910992745,0.7894661109903209,0.8673569911730228,,-0.06956664232292899,-0.10125745821601603,0.0886362022,-0.034016912529394594,,-1.6525388e-05,-2.7418137e-06,3.0994415e-06,0.99999994,9.462237e-06,7.711351e-06,-9.465963e-06,1.0,8.940697e-07,-7.700175e-06,-8.046627e-07,1.0,NaN,NaN,NaN,NaN,NaN
1.1576345789999323,10:06:22.970788,10:06:04.843301,0,,0.027582355,0.04908415,0.07548489,-0.86747396,-0.37010947,-0.33242688,-0.4912271,0.74288857,0.4547665,0.07864277,0.55779517,-0.8262444,,0.1395,-0.044316668,0.073524594,-0.7422391,-0.61763585,0.26001316,-0.44367296,0.7436991,0.5000661,-0.5022303,0.25580776,-0.82603085,,0.08979642,1.3490115,0.48508865,0.9960488,0.0026894878,-0.088766456,-0.0538427,-0.7765921,-0.6276988,-0.07062352,0.629998,-0.7733788,,-0.07245686,0.27900124,-0.076248005,0.88134944,0.2830166,0.3783183,-0.24631651,0.9585449,-0.14324759,-0.40317652,0.033065144,0.9145247,,0.055088248,0.44359067,-0.37038115,0.86662084,0.45690608,-0.20051228,-0.49799374,0.7669289,-0.40474957,-0.031153882,0.45061827,0.892173,,0.819814430996177,-0.08604668968460949,0.15336925506000001,0.637038048305985,0.1186004817964023,0.30441355242180734,0.8707872165618427,,-0.6228615745048294,-0.6842109644576689,0.12753419536000002,1.4491671994215478,0.22722649910992745,0.7894661109903209,0.8673569911730228,,-0.06956664232292899,-0.10125745821601603,0.0886362022,-0.034016912529394594,,-1.6525388e-05,-2.7418137e-06,3.0994415e-06,0.99999994,9.462237e-06,7.711351e-06,-9.465963e-06,1.0,8.940697e-07,-7.700175e-06,-8.046627e-07,1.0,NaN,NaN,NaN,NaN,NaN
1.1745438709995142,10:06:22.987595,10:06:04.843301,0,,0.027582355,0.04908415,0.07548489,-0.86747396,-0.37010947,-0.33242688,-0.4912271,0.74288857,0.4547665,0.07864277,0.55779517,-0.8262444,,0.1395,-0.044316668,0.073524594,-0.7422391,-0.61763585,0.26001316,-0.44367296,0.7436991,0.5000661,-0.5022303,0.25580776,-0.82603085,,0.08979642,1.3490115,0.48508865,0.9960488,0.0026894878,-0.088766456,-0.0538427,-0.7765921,-0.6276988,-0.07062352,0.629998,-0.7733788,,-0.07245686,0.27900124,-0.076248005,0.88134944,0.2830166,0.3783183,-0.24631651,0.9585449,-0.14324759,-0.40317652,0.033065144,0.9145247,,0.055088248,0.44359067,-0.37038115,0.86662084,0.45690608,-0.20051228,-0.49799374,0.7669289,-0.40474957,-0.031153882,0.45061827,0.892173,,0.819814430996177,-0.08604668968460949,0.15336925506000001,0.637038048305985,0.1186004817964023,0.30441355242180734,0.8707872165618427,,-0.6228615745048294,-0.6842109644576689,0.12753419536000002,1.4491671994215478,0.22722649910992745,0.7894661109903209,0.8673569911730228,,-0.06956664232292899,-0.10125745821601603,0.0886362022,-0.034016912529394594,,-1.6525388e-05,-2.7418137e-06,3.0994415e-06,0.99999994,9.462237e-06,7.711351e-06,-9.465963e-06,1.0,8.940697e-07,-7.700175e-06,-8.046627e-07,1.0,NaN,NaN,NaN,NaN,NaN
1.191341435999675,10:06:23.008238,10:06:04.843301,0,,0.027581885,0.049083106,0.07548486,-0.8674724,-0.37010983,-0.33243045,-0.49122885,0.7428913,0.45476013,0.07864854,0.5577913,-0.82624644,,0.1395,-0.044316668,0.073524594,-0.7422391,-0.61763585,0.26001316,-0.44367296,0.7436991,0.5000661,-0.5022303,0.25580776,-0.82603085,,0.08979642,1.3490115,0.48508865,0.9960488,0.0026894878,-0.088766456,-0.0538427,-0.7765921,-0.6276988,-0.07062352,0.629998,-0.7733788,,-0.072456345,0.27900046,-0.07624866,0.88134754,0.28301713,0.37832236,-0.24631435,0.95854455,-0.14325346,-0.40318203,0.033069856,0.91452205,,0.055088248,0.44359067,-0.37038115,0.86662084,0.45690608,-0.20051228,-0.49799374,0.7669289,-0.40474957,-0.031153882,0.45061827,0.892173,,0.819814430996177,-0.08605441241748371,0.15336925506000001,0.637038048305985,0.1186004817964023,0.30441355242180734,0.8707872165618427,,-0.6228615745048294,-0.6842109644576689,0.12753419536000002,1.4491671994215478,0.22722649910992745,0.7894661109903209,0.8673569911730228,,-0.06956664232292899,-0.10125745821601603,0.0886362022,-0.034016912529394594,,-1.6525388e-05,-2.7418137e-06,3.0994415e-06,0.99999994,9.462237e-06,7.711351e-06,-9.465963e-06,1.0,8.940697e-07,-7.700175e-06,-8.046627e-07,1.0,NaN,NaN,NaN,NaN,NaN
1.2119569799997407,10:06:23.023267,10:06:04.843301,0,,0.027582355,0.04908415,0.07548489,-0.86747396,-0.37010947,-0.33242688,-0.4912271,0.74288857,0.4547665,0.07864277,0.55779517,-0.8262444,,0.1395,-0.044316668,0.073524594,-0.7422391,-0.61763585,0.26001316,-0.44367296,0.7436991,0.5000661,-0.5022303,0.25580776,-0.82603085,,0.08979642,1.3490115,0.48508865,0.9960488,0.0026894878,-0.088766456,-0.0538427,-0.7765921,-0.6276988,-0.07062352,0.629998,-0.7733788,,-0.07245686,0.27900124,-0.076248005,0.88134944,0.2830166,0.3783183,-0.24631651,0.9585449,-0.14324759,-0.40317652,0.033065144,0.9145247,,0.055088248,0.44359067,-0.37038115,0.86662084,0.45690608,-0.20051228,-0.49799374,0.7669289,-0.40474957,-0.031153882,0.45061827,0.892173,,0.819814430996177,-0.08604668968460949,0.15336925506000001,0.637038048305985,0.1186004817964023,0.30441355242180734,0.8707872165618427,,-0.6228615745048294,-0.6842109644576689,0.12753419536000002,1.4491671994215478,0.22722649910992745,0.7894661109903209,0.8673569911730228,,-0.06956664232292899,-0.10125745821601603,0.0886362022,-0.034016912529394594,,-1.6525388e-05,-2.7418137e-06,3.0994415e-06,0.99999994,9.462237e-06,7.711351e-06,-9.465963e-06,1.0,8.940697e-07,-7.700175e-06,-8.046627e-07,1.0,NaN,NaN,NaN,NaN,NaN
1.2269900989995222,10:06:23.040257,10:06:04.843301,0,,0.027582355,0.04908415,0.07548489,-0.86747396,-0.37010947,-0.33242688,-0.4912271,0.74288857,0.4547665,0.07864277,0.55779517,-0.8262444,,0.1395,-0.044316668,0.073524594,-0.7422391,-0.61763585,0.26001316,-0.44367296,0.7436991,0.5000661,-0.5022303,0.25580776,-0.82603085,,0.08979642,1.3490115,0.48508865,0.9960488,0.0026894878,-0.088766456,-0.0538427,-0.7765921,-0.6276988,-0.07062352,0.629998,-0.7733788,,-0.07245686,0.27900124,-0.076248005,0.88134944,0.2830166,0.3783183,-0.24631651,0.9585449,-0.14324759,-0.40317652,0.033065144,0.9145247,,0.055088248,0.44359067,-0.37038115,0.86662084,0.45690608,-0.20051228,-0.49799374,0.7669289,-0.40474957,-0.031153882,0.45061827,0.892173,,0.819814430996177,-0.08604668968460949,0.15336925506000001,0.637038048305985,0.1186004817964023,0.30441355242180734,0.8707872165618427,,-0.6228615745048294,-0.6842109644576689,0.12753419536000002,1.4491671994215478,0.22722649910992745,0.7894661109903209,0.8673569911730228,,-0.06956664232292899,-0.10125745821601603,0.0886362022,-0.034016912529394594,,-1.6525388e-05,-2.7418137e-06,3.0994415e-06,0.99999994,9.462237e-06,7.711351e-06,-9.465963e-06,1.0,8.940697e-07,-7.700175e-06,-8.046627e-07,1.0,NaN,NaN,NaN,NaN,NaN
1.243983861999368,10:06:23.055476,10:06:04.843301,0,,0.027582355,0.04908415,0.07548489,-0.86747396,-0.37010947,-0.33242688,-0.4912271,0.74288857,0.4547665,0.07864277,0.55779517,-0.8262444,,0.1395,-0.044316668,0.073524594,-0.7422391,-0.61763585,0.26001316,-0.44367296,0.7436991,0.5000661,-0.5022303,0.25580776,-0.82603085,,0.08979642,1.3490115,0.48508865,0.9960488,0.0026894878,-0.088766456,-0.0538427,-0.7765921,-0.6276988,-0.07062352,0.629998,-0.7733788,,-0.07245686,0.27900124,-0.076248005,0.88134944,0.2830166,0.3783183,-0.24631651,0.9585449,-0.14324759,-0.40317652,0.033065144,0.9145247,,0.055088248,0.44359067,-0.37038115,0.86662084,0.45690608,-0.20051228,-0.49799374,0.7669289,-0.40474957,-0.031153882,0.45061827,0.892173,,0.819814430996177,-0.08604668968460949,0.15336925506000001,0.637038048305985,0.1186004817964023,0.30441355242180734,0.8707872165618427,,-0.6228615745048294,-0.6842109644576689,0.12753419536000002,1.4491671994215478,0.22722649910992745,0.7894661109903209,0.8673569911730228,,-0.06956664232292899,-0.10125745821601603,0.0886362022,-0.034016912529394594,,-1.6525388e-05,-2.7418137e-06,3.0994415e-06,0.99999994,9.462237e-06,7.711351e-06,-9.465963e-06,1.0,8.940697e-07,-7.700175e-06,-8.046627e-07,1.0,NaN,NaN,NaN,NaN,NaN
1.2592034749995946,10:06:23.070584,10:06:04.843301,0,,0.027582869,0.04908269,0.07548447,-0.86747336,-0.37011316,-0.3324244,-0.49122795,0.7428934,0.4547577,0.07864417,0.5577863,-0.82625026,,0.1395,-0.044316668,0.073524594,-0.7422391,-0.61763585,0.26001316,-0.44367296,0.7436991,0.5000661,-0.5022303,0.25580776,-0.82603085,,0.08979642,1.3490115,0.48508865,0.9960488,0.0026894878,-0.088766456,-0.0538427,-0.7765921,-0.6276988,-0.07062352,0.629998,-0.7733788,,-0.07245726,0.2789998,-0.07624861,0.8813488,0.28302076,0.3783168,-0.24631636,0.9585433,-0.14325836,-0.40317813,0.033074964,0.9145236,,0.055088248,0.44359067,-0.37038115,0.86662084,0.45690608,-0.20051228,-0.49799374,0.7669289,-0.40474957,-0.031153882,0.45061827,0.892173,,0.8198067082633028,-0.08605441241748371,0.15336925506000001,0.637038048305985,0.1186004817964023,0.30441355242180734,0.8707872165618427,,-0.6228615745048294,-0.6842109644576689,0.12753419536000002,1.4491671994215478,0.22722649910992745,0.7894661109903209,0.8673569911730228,,-0.06956664232292899,-0.10125745821601603,0.0886362022,-0.034016912529394594,,-1.6525388e-05,-2.7418137e-06,3.0994415e-06,0.99999994,9.462237e-06,7.711351e-06,-9.465963e-06,1.0,8.940697e-07,-7.700175e-06,-8.046627e-07,1.0,NaN,NaN,NaN,NaN,NaN
1.2743370959997264,10:06:23.086868,10:06:04.843301,0,,0.027582869,0.04908269,0.07548447,-0.86747336,-0.37011316,-0.3324244,-0.49122795,0.7428934,0.4547577,0.07864417,0.5577863,-0.82625026,,0.1395,-0.044316668,0.073524594,-0.7422391,-0.61763585,0.26001316,-0.44367296,0.7436991,0.5000661,-0.5022303,0.25580776,-0.82603085,,0.08979642,1.3490115,0.48508865,0.9960488,0.0026894878,-0.088766456,-0.0538427,-0.7765921,-0.6276988,-0.07062352,0.629998,-0.7733788,,-0.07245726,0.2789998,-0.07624861,0.8813488,0.28302076,0.3783168,-0.24631636,0.9585433,-0.14325836,-0.40317813,0.033074964,0.9145236,,0.055088248,0.44359067,-0.37038115,0.86662084,0.45690608,-0.20051228,-0.49799374,0.7669289,-0.40474957,-0.031153882,0.45061827,0.892173,,0.8198067082633028,-0.08605441241748371,0.15336925506000001,0.637038048305985,0.1186004817964023,0.30441355242180734,0.8707872165618427,,-0.6228615745048294,-0.6842109644576689,0.12753419536000002,1.4491671994215478,0.22722649910992745,0.7894661109903209,0.8673569911730228,,-0.06956664232292899,-0.10125745821601603,0.0886362022,-0.034016912529394594,,-1.6525388e-05,-2.7418137e-06,3.0994415e-06,0.99999994,9.462237e-06,7.711351e-06,-9.465963e-06,1.0,8.940697e-07,-7.700175e-06,-8.046627e-07,1.0,NaN,NaN,NaN,NaN,NaN
1.2906234939991919,10:06:23.103404,10:06:04.970588,0,,0.027582355,0.04908415,0.07548489,-0.86747396,-0.37010947,-0.33242688,-0.4912271,0.74288857,0.4547665,0.07864277,0.55779517,-0.8262444,,0.1395,-0.044316668,0.073524594,-0.7422391,-0.61763585,0.26001316,-0.44367296,0.7436991,0.5000661,-0.5022303,0.25580776,-0.82603085,,0.08979642,1.3490115,0.48508865,0.9960488,0.0026894878,-0.088766456,-0.0538427,-0.7765921,-0.6276988,-0.07062352,0.629998,-0.7733788,,-0.07245686,0.27900124,-0.076248005,0.88134944,0.2830166,0.3783183,-0.24631651,0.9585449,-0.14324759,-0.40317652,0.033065144,0.9145247,,0.055088248,0.44359067,-0.37038115,0.86662084,0.45690608,-0.20051228,-0.49799374,0.7669289,-0.40474957,-0.031153882,0.45061827,0.892173,,0.819814430996177,-0.08604668968460949,0.15336925506000001,0.637038048305985,0.1186004817964023,0.30441355242180734,0.8707872165618427,,-0.6228615745048294,-0.6842109644576689,0.12753419536000002,1.4491671994215478,0.22722649910992745,0.7894661109903209,0.8673569911730228,,-0.06956664232292899,-0.10125745821601603,0.0886362022,-0.034016912529394594,,-1.6525388e-05,-2.7418137e-06,3.0994415e-06,0.99999994,9.462237e-06,7.711351e-06,-9.465963e-06,1.0,8.940697e-07,-7.700175e-06,-8.046627e-07,1.0,NaN,NaN,NaN,NaN,NaN
1.3069584830000167,10:06:23.119944,10:06:04.970588,0,,0.027582355,0.04908415,0.07548489,-0.86747396,-0.37010947,-0.33242688,-0.4912271,0.74288857,0.4547665,0.07864277,0.55779517,-0.8262444,,0.13950013,-0.044317532,0.07352495,-0.74223924,-0.61763436,0.2600164,-0.44367436,0.74370265,0.50005966,-0.50222886,0.25580135,-0.8260337,,0.08979642,1.3490115,0.48508865,0.9960488,0.0026894878,-0.088766456,-0.0538427,-0.7765921,-0.6276988,-0.07062352,0.629998,-0.7733788,,-0.07245686,0.27900124,-0.076248005,0.88134944,0.2830166,0.3783183,-0.24631651,0.9585449,-0.14324759,-0.40317652,0.033065144,0.9145247,,0.05508819,0.4435904,-0.370382,0.86662096,0.45690507,-0.20051405,-0.4979934,0.76692563,-0.40475625,-0.031155813,0.4506249,0.89216954,,0.819814430996177,-0.08604668968460949,0.15336925506000001,0.637038048305985,0.1186004817964023,0.30441355242180734,0.8707872165618427,,-0.6228615745048294,-0.6842186871905431,0.12753419536000002,1.4491671994215478,0.22722649910992745,0.7894661109903209,0.8673569911730228,,-0.06956664232292899,-0.10125745821601603,0.0886362022,-0.034016912529394594,,-1.6525388e-05,-2.7418137e-06,3.0994415e-06,0.99999994,9.462237e-06,7.711351e-06,-9.465963e-06,1.0,8.940697e-07,-7.700175e-06,-8.046627e-07,1.0,NaN,NaN,NaN,NaN,NaN
1.3236932889994932,10:06:23.136269,10:06:04.970588,0,,0.027582355,0.04908415,0.07548489,-0.86747396,-0.37010947,-0.33242688,-0.4912271,0.74288857,0.4547665,0.07864277,0.55779517,-0.8262444,,0.1395,-0.044316668,0.073524594,-0.7422391,-0.61763585,0.26001316,-0.44367296,0.7436991,0.5000661,-0.5022303,0.25580776,-0.82603085,,0.08979642,1.3490115,0.48508865,0.9960488,0.0026894878,-0.088766456,-0.0538427,-0.7765921,-0.6276988,-0.07062352,0.629998,-0.7733788,,-0.07245686,0.27900124,-0.076248005,0.88134944,0.2830166,0.3783183,-0.24631651,0.9585449,-0.14324759,-0.40317652,0.033065144,0.9145247,,0.055088248,0.44359067,-0.37038115,0.86662084,0.45690608,-0.20051228,-0.49799374,0.7669289,-0.40474957,-0.031153882,0.45061827,0.892173,,0.819814430996177,-0.08604668968460949,0.15336925506000001,0.637038048305985,0.1186004817964023,0.30441355242180734,0.8707872165618427,,-0.6228615745048294,-0.6842109644576689,0.12753419536000002,1.4491671994215478,0.22722649910992745,0.7894661109903209,0.8673569911730228,,-0.06956664232292899,-0.10125745821601603,0.0886362022,-0.034016912529394594,,-1.6525388e-05,-2.7418137e-06,3.0994415e-06,0.99999994,9.462237e-06,7.711351e-06,-9.465963e-06,1.0,8.940697e-07,-7.700175e-06,-8.046627e-07,1.0,NaN,NaN,NaN,NaN,NaN
