AlexandreBanks6/ExpertPlaybackApp/resources/Motions/PC1/Data_PC1_24.csv
Task Time,PC1 Time,PC2 Time,Gaze Calib,s_T_psm1,Tx,Ty,Tz,R00,R01,R02,R10,R11,R12,R20,R21,R22,s_T_psm3,Tx,Ty,Tz,R00,R01,R02,R10,R11,R12,R20,R21,R22,cart_T_ecm,Tx,Ty,Tz,R00,R01,R02,R10,R11,R12,R20,R21,R22,ecm_T_psm1,Tx,Ty,Tz,R00,R01,R02,R10,R11,R12,R20,R21,R22,ecm_T_psm3,Tx,Ty,Tz,R00,R01,R02,R10,R11,R12,R20,R21,R22,psm1_joints,q1,q2,q3,q4,q5,q6,jaw,psm3_joints,q1,q2,q3,q4,q5,q6,jaw,ecm_joints,q1,q2,q3,q4,ecmi_T_ecm,Tx,Ty,Tz,R00,R01,R02,R10,R11,R12,R20,R21,R22,Sample #,Task Duration (s),Collisions (binary),Collisions (increments),Cumulative Collision Time (s)
""
lci_T_si,,,,,-0.068664014,0.020519255,0.28636807,0.9954953,0.039007954,0.08641474,0.08503123,-0.7704904,-0.6317549,0.04193826,0.636257,-0.77033645
rci_T_si,,,,,-0.07902022,0.025417786,0.29627344,0.9954604,0.022763915,0.092414595,0.07750154,-0.75748605,-0.64823484,0.055246405,0.6524544,-0.7558116
ecm_T_lc,,,,,-4.4061628e-05,-0.00034663224,-0.01840835,-0.99912,0.030754527,0.028518902,-0.031987965,-0.99852574,-0.043852776,0.027128186,-0.04472645,0.9986309
ecm_T_rc,,,,,-0.0043358393,0.01870579,-0.007592615,-0.99555075,-0.052743673,-0.078081585,0.04863213,-0.9973746,0.053654674,-0.08070653,0.04961868,0.9955021
cart_T_ecmi,,,,,0.089606784,1.3473395,0.483065,0.99604636,0.0026808186,-0.08879435,-0.053881247,-0.7764649,-0.6278528,-0.07062885,0.63015485,-0.7732506
ecmac_T_ecmrep_psm1,,,,,0.08626859,-0.2052861,-0.33370098,0.999004,0.025128257,0.036871605,-0.023534218,0.9987958,-0.04304718,-0.037908904,0.04213656,0.9983924
ecmac_T_ecmrep_psm3,,,,,-0.16209933,-0.49188918,-0.56672233,0.99379694,-0.09876928,0.05111077,0.087427974,0.9779163,0.18983154,-0.068731576,-0.18418549,0.98048544
""
0,10:21:00.379508,NaN,0,,0.027866077,0.049327195,0.07537742,-0.86752766,-0.3689103,-0.3336177,-0.4907462,0.74410033,0.45330215,0.08101721,0.5569738,-0.8265691,,0.13984358,-0.04445245,0.07294434,-0.7435494,-0.6165921,0.25874442,-0.44395697,0.744566,0.49852145,-0.5000366,0.25580367,-0.827362,,0.08959063,1.3473397,0.48306146,0.9960475,0.002696947,-0.088781305,-0.053860556,-0.7764648,-0.62785465,-0.07062885,0.63015485,-0.7732506,,-0.0725264,0.278953,-0.078856915,0.8814172,0.2832585,0.3779792,-0.24638106,0.9584563,-0.14372854,-0.40298888,0.033557896,0.91458946,,0.05505785,0.44362366,-0.37296999,0.8667041,0.45663744,-0.20076418,-0.49786198,0.76691294,-0.40494195,-0.030943,0.4509177,0.89202905,,0.8193433442908493,-0.08604668968460949,0.15336666248000003,0.637038048305985,0.1186004817964023,0.3043318736816668,0.8706238724957084,,-0.6228847427034521,-0.6843808645809019,0.12752512133000002,1.4495865793085168,0.22722649910992745,0.7894661109903209,0.8673569911730228,,-0.06956664232292899,-0.10112001353742148,0.09128296528,-0.034016912529394594,,-1.5847385e-05,-2.4437904e-06,3.9339066e-06,1.0,1.6063452e-05,1.3098121e-05,-1.6059726e-05,1.0,1.4603138e-06,-1.309067e-05,-1.4603138e-06,1.0,NaN,NaN,NaN,NaN,NaN
0.015286036999896169,10:21:00.398346,NaN,0,,0.027867045,0.049326763,0.07537706,-0.8675286,-0.36891365,-0.3336116,-0.49074528,0.7441025,0.45329964,0.081012815,0.5569688,-0.82657284,,0.13984345,-0.044451557,0.072943985,-0.7435493,-0.61659366,0.25874123,-0.44395557,0.74456257,0.49852782,-0.50003797,0.25581014,-0.82735914,,0.08959063,1.3473397,0.48306146,0.9960475,0.002696947,-0.088781305,-0.053860556,-0.7764648,-0.62785465,-0.07062885,0.63015485,-0.7732506,,-0.07252732,0.27895233,-0.07885686,0.88141847,0.28326213,0.3779736,-0.24638306,0.958455,-0.14373343,-0.40298495,0.033563003,0.91459095,,0.05505791,0.44362393,-0.3729691,0.866704,0.4566385,-0.2007624,-0.4978623,0.7669163,-0.40493527,-0.030941071,0.45091105,0.89203244,,0.8193356215579751,-0.08604668968460949,0.15336666248000003,0.637038048305985,0.1186004817964023,0.3043318736816668,0.8706238724957084,,-0.6228847427034521,-0.6843731418480276,0.12752512133000002,1.4495865793085168,0.22722649910992745,0.7894661109903209,0.8673569911730228,,-0.06956664232292899,-0.10112001353742148,0.09128296528,-0.034016912529394594,,-1.5847385e-05,-2.4437904e-06,3.9339066e-06,1.0,1.6063452e-05,1.3098121e-05,-1.6059726e-05,1.0,1.4603138e-06,-1.309067e-05,-1.4603138e-06,1.0,NaN,NaN,NaN,NaN,NaN
0.03471315000024333,10:21:00.419344,10:20:42.304570,0,,0.027866077,0.049327195,0.07537742,-0.86752766,-0.3689103,-0.3336177,-0.4907462,0.74410033,0.45330215,0.08101721,0.5569738,-0.8265691,,0.13984358,-0.04445245,0.07294434,-0.7435494,-0.6165921,0.25874442,-0.44395697,0.744566,0.49852145,-0.5000366,0.25580367,-0.827362,,0.08959063,1.3473397,0.48306146,0.9960475,0.002696947,-0.088781305,-0.053860556,-0.7764648,-0.62785465,-0.07062885,0.63015485,-0.7732506,,-0.0725264,0.278953,-0.078856915,0.8814172,0.2832585,0.3779792,-0.24638106,0.9584563,-0.14372854,-0.40298888,0.033557896,0.91458946,,0.05505785,0.44362366,-0.37296999,0.8667041,0.45663744,-0.20076418,-0.49786198,0.76691294,-0.40494195,-0.030943,0.4509177,0.89202905,,0.8193433442908493,-0.08604668968460949,0.15336666248000003,0.637038048305985,0.1186004817964023,0.3043318736816668,0.8706238724957084,,-0.6228847427034521,-0.6843808645809019,0.12752512133000002,1.4495865793085168,0.22722649910992745,0.7894661109903209,0.8673569911730228,,-0.06956664232292899,-0.10112001353742148,0.09128296528,-0.034016912529394594,,-1.5847385e-05,-2.4437904e-06,3.9339066e-06,1.0,1.6063452e-05,1.3098121e-05,-1.6059726e-05,1.0,1.4603138e-06,-1.309067e-05,-1.4603138e-06,1.0,NaN,NaN,NaN,NaN,NaN
0.05577499399987573,10:21:00.439012,10:20:42.304570,0,,0.027865611,0.04932615,0.075377405,-0.8675261,-0.3689107,-0.3336213,-0.49074793,0.744103,0.45329577,0.08102298,0.55697,-0.8265711,,0.13984358,-0.04445245,0.07294434,-0.7435494,-0.6165921,0.25874442,-0.44395697,0.744566,0.49852145,-0.5000366,0.25580367,-0.827362,,0.08959063,1.3473397,0.48306146,0.9960475,0.002696947,-0.088781305,-0.053860556,-0.7764648,-0.62785465,-0.07062885,0.63015485,-0.7732506,,-0.07252589,0.2789522,-0.07885757,0.8814153,0.28325906,0.37798327,-0.2463789,0.958456,-0.14373441,-0.4029944,0.033562608,0.91458684,,0.05505785,0.44362366,-0.37296999,0.8667041,0.45663744,-0.20076418,-0.49786198,0.76691294,-0.40494195,-0.030943,0.4509177,0.89202905,,0.8193433442908493,-0.08605441241748371,0.15336666248000003,0.637038048305985,0.1186004817964023,0.3043318736816668,0.8706238724957084,,-0.6228847427034521,-0.6843808645809019,0.12752512133000002,1.4495865793085168,0.22722649910992745,0.7894661109903209,0.8673569911730228,,-0.06956664232292899,-0.10112001353742148,0.09128296528,-0.034016912529394594,,-1.5847385e-05,-2.4437904e-06,3.9339066e-06,1.0,1.6063452e-05,1.3098121e-05,-1.6059726e-05,1.0,1.4603138e-06,-1.309067e-05,-1.4603138e-06,1.0,NaN,NaN,NaN,NaN,NaN
0.07540374899963354,10:21:00.458983,10:20:42.304570,0,,0.027865611,0.04932615,0.075377405,-0.8675261,-0.3689107,-0.3336213,-0.49074793,0.744103,0.45329577,0.08102298,0.55697,-0.8265711,,0.13984345,-0.044451557,0.072943985,-0.7435493,-0.61659366,0.25874123,-0.44395557,0.74456257,0.49852782,-0.50003797,0.25581014,-0.82735914,,0.08959063,1.3473397,0.48306146,0.9960475,0.002696947,-0.088781305,-0.053860556,-0.7764648,-0.62785465,-0.07062885,0.63015485,-0.7732506,,-0.07252589,0.2789522,-0.07885757,0.8814153,0.28325906,0.37798327,-0.2463789,0.958456,-0.14373441,-0.4029944,0.033562608,0.91458684,,0.05505791,0.44362393,-0.3729691,0.866704,0.4566385,-0.2007624,-0.4978623,0.7669163,-0.40493527,-0.030941071,0.45091105,0.89203244,,0.8193433442908493,-0.08605441241748371,0.15336666248000003,0.637038048305985,0.1186004817964023,0.3043318736816668,0.8706238724957084,,-0.6228847427034521,-0.6843731418480276,0.12752512133000002,1.4495865793085168,0.22722649910992745,0.7894661109903209,0.8673569911730228,,-0.06956664232292899,-0.10112001353742148,0.09128296528,-0.034016912529394594,,-1.5847385e-05,-2.4437904e-06,3.9339066e-06,1.0,1.6063452e-05,1.3098121e-05,-1.6059726e-05,1.0,1.4603138e-06,-1.309067e-05,-1.4603138e-06,1.0,NaN,NaN,NaN,NaN,NaN
0.09538365899970813,10:21:00.479564,10:20:42.304570,0,,0.027866077,0.049327195,0.07537742,-0.86752766,-0.3689103,-0.3336177,-0.4907462,0.74410033,0.45330215,0.08101721,0.5569738,-0.8265691,,0.13984358,-0.04445245,0.07294434,-0.7435494,-0.6165921,0.25874442,-0.44395697,0.744566,0.49852145,-0.5000366,0.25580367,-0.827362,,0.08959063,1.3473397,0.48306146,0.9960475,0.002696947,-0.088781305,-0.053860556,-0.7764648,-0.62785465,-0.07062885,0.63015485,-0.7732506,,-0.0725264,0.278953,-0.078856915,0.8814172,0.2832585,0.3779792,-0.24638106,0.9584563,-0.14372854,-0.40298888,0.033557896,0.91458946,,0.05505785,0.44362366,-0.37296999,0.8667041,0.45663744,-0.20076418,-0.49786198,0.76691294,-0.40494195,-0.030943,0.4509177,0.89202905,,0.8193433442908493,-0.08604668968460949,0.15336666248000003,0.637038048305985,0.1186004817964023,0.3043318736816668,0.8706238724957084,,-0.6228847427034521,-0.6843808645809019,0.12752512133000002,1.4495865793085168,0.22722649910992745,0.7894661109903209,0.8673569911730228,,-0.06956664232292899,-0.10112001353742148,0.09128296528,-0.034016912529394594,,-1.5847385e-05,-2.4437904e-06,3.9339066e-06,1.0,1.6063452e-05,1.3098121e-05,-1.6059726e-05,1.0,1.4603138e-06,-1.309067e-05,-1.4603138e-06,1.0,NaN,NaN,NaN,NaN,NaN
0.11594329000035941,10:21:00.502037,10:20:42.304570,0,,0.027867045,0.049326763,0.07537706,-0.8675286,-0.36891365,-0.3336116,-0.49074528,0.7441025,0.45329964,0.081012815,0.5569688,-0.82657284,,0.13984358,-0.04445245,0.07294434,-0.7435494,-0.6165921,0.25874442,-0.44395697,0.744566,0.49852145,-0.5000366,0.25580367,-0.827362,,0.08959063,1.3473397,0.48306146,0.9960475,0.002696947,-0.088781305,-0.053860556,-0.7764648,-0.62785465,-0.07062885,0.63015485,-0.7732506,,-0.07252732,0.27895233,-0.07885686,0.88141847,0.28326213,0.3779736,-0.24638306,0.958455,-0.14373343,-0.40298495,0.033563003,0.91459095,,0.05505785,0.44362366,-0.37296999,0.8667041,0.45663744,-0.20076418,-0.49786198,0.76691294,-0.40494195,-0.030943,0.4509177,0.89202905,,0.8193356215579751,-0.08604668968460949,0.15336666248000003,0.637038048305985,0.1186004817964023,0.3043318736816668,0.8706238724957084,,-0.6228847427034521,-0.6843808645809019,0.12752512133000002,1.4495865793085168,0.22722649910992745,0.7894661109903209,0.8673569911730228,,-0.06956664232292899,-0.10112001353742148,0.09128296528,-0.034016912529394594,,-1.5847385e-05,-2.4437904e-06,3.9339066e-06,1.0,1.6063452e-05,1.3098121e-05,-1.6059726e-05,1.0,1.4603138e-06,-1.309067e-05,-1.4603138e-06,1.0,NaN,NaN,NaN,NaN,NaN
0.13845295600003737,10:21:00.519367,10:20:42.415621,0,,0.02786658,0.04932572,0.07537703,-0.86752707,-0.368914,-0.33361524,-0.49074703,0.74410516,0.45329332,0.0810186,0.55696493,-0.8265749,,0.13984358,-0.04445245,0.07294434,-0.7435494,-0.6165921,0.25874442,-0.44395697,0.744566,0.49852145,-0.5000366,0.25580367,-0.827362,,0.08959063,1.3473397,0.48306146,0.9960475,0.002696947,-0.088781305,-0.053860556,-0.7764648,-0.62785465,-0.07062885,0.63015485,-0.7732506,,-0.072526805,0.27895156,-0.07885752,0.88141656,0.28326267,0.37797767,-0.2463809,0.9584547,-0.1437393,-0.40299046,0.033567715,0.9145884,,0.05505785,0.44362366,-0.37296999,0.8667041,0.45663744,-0.20076418,-0.49786198,0.76691294,-0.40494195,-0.030943,0.4509177,0.89202905,,0.8193356215579751,-0.08605441241748371,0.15336666248000003,0.637038048305985,0.1186004817964023,0.3043318736816668,0.8706238724957084,,-0.6228847427034521,-0.6843808645809019,0.12752512133000002,1.4495865793085168,0.22722649910992745,0.7894661109903209,0.8673569911730228,,-0.06956664232292899,-0.10112001353742148,0.09128296528,-0.034016912529394594,,-1.5847385e-05,-2.4437904e-06,3.9339066e-06,1.0,1.6063452e-05,1.3098121e-05,-1.6059726e-05,1.0,1.4603138e-06,-1.309067e-05,-1.4603138e-06,1.0,NaN,NaN,NaN,NaN,NaN
0.1557887809995009,10:21:00.544884,10:20:42.415621,0,,0.02786658,0.04932572,0.07537703,-0.86752707,-0.368914,-0.33361524,-0.49074703,0.74410516,0.45329332,0.0810186,0.55696493,-0.8265749,,0.13984358,-0.04445245,0.07294434,-0.7435494,-0.6165921,0.25874442,-0.44395697,0.744566,0.49852145,-0.5000366,0.25580367,-0.827362,,0.08959063,1.3473397,0.48306146,0.9960475,0.002696947,-0.088781305,-0.053860556,-0.7764648,-0.62785465,-0.07062885,0.63015485,-0.7732506,,-0.072526805,0.27895156,-0.07885752,0.88141656,0.28326267,0.37797767,-0.2463809,0.9584547,-0.1437393,-0.40299046,0.033567715,0.9145884,,0.05505785,0.44362366,-0.37296999,0.8667041,0.45663744,-0.20076418,-0.49786198,0.76691294,-0.40494195,-0.030943,0.4509177,0.89202905,,0.8193356215579751,-0.08605441241748371,0.15336666248000003,0.637038048305985,0.1186004817964023,0.3043318736816668,0.8706238724957084,,-0.6228847427034521,-0.6843808645809019,0.12752512133000002,1.4495865793085168,0.22722649910992745,0.7894661109903209,0.8673569911730228,,-0.06956664232292899,-0.10112001353742148,0.09128296528,-0.034016912529394594,,-1.5847385e-05,-2.4437904e-06,3.9339066e-06,1.0,1.6063452e-05,1.3098121e-05,-1.6059726e-05,1.0,1.4603138e-06,-1.309067e-05,-1.4603138e-06,1.0,NaN,NaN,NaN,NaN,NaN
0.18128450800031715,10:21:00.558215,10:20:42.415621,0,,0.027867045,0.049326763,0.07537706,-0.8675286,-0.36891365,-0.3336116,-0.49074528,0.7441025,0.45329964,0.081012815,0.5569688,-0.82657284,,0.13984358,-0.04445245,0.07294434,-0.7435494,-0.6165921,0.25874442,-0.44395697,0.744566,0.49852145,-0.5000366,0.25580367,-0.827362,,0.08959063,1.3473397,0.48306146,0.9960475,0.002696947,-0.088781305,-0.053860556,-0.7764648,-0.62785465,-0.07062885,0.63015485,-0.7732506,,-0.07252732,0.27895233,-0.07885686,0.88141847,0.28326213,0.3779736,-0.24638306,0.958455,-0.14373343,-0.40298495,0.033563003,0.91459095,,0.05505785,0.44362366,-0.37296999,0.8667041,0.45663744,-0.20076418,-0.49786198,0.76691294,-0.40494195,-0.030943,0.4509177,0.89202905,,0.8193356215579751,-0.08604668968460949,0.15336666248000003,0.637038048305985,0.1186004817964023,0.3043318736816668,0.8706238724957084,,-0.6228847427034521,-0.6843808645809019,0.12752512133000002,1.4495865793085168,0.22722649910992745,0.7894661109903209,0.8673569911730228,,-0.06956664232292899,-0.10112001353742148,0.09128296528,-0.034016912529394594,,-1.5847385e-05,-2.4437904e-06,3.9339066e-06,1.0,1.6063452e-05,1.3098121e-05,-1.6059726e-05,1.0,1.4603138e-06,-1.309067e-05,-1.4603138e-06,1.0,NaN,NaN,NaN,NaN,NaN
0.1946285470003204,10:21:00.579583,10:20:42.415621,0,,0.027866077,0.049327195,0.07537742,-0.86752766,-0.3689103,-0.3336177,-0.4907462,0.74410033,0.45330215,0.08101721,0.5569738,-0.8265691,,0.13984293,-0.04445263,0.072944105,-0.74355185,-0.6165919,0.2587378,-0.44395995,0.7445656,0.49851948,-0.50003016,0.2558057,-0.82736516,,0.08959063,1.3473397,0.48306146,0.9960475,0.002696947,-0.088781305,-0.053860556,-0.7764648,-0.62785465,-0.07062885,0.63015485,-0.7732506,,-0.0725264,0.278953,-0.078856915,0.8814172,0.2832585,0.3779792,-0.24638106,0.9584563,-0.14372854,-0.40298888,0.033557896,0.91458946,,0.055058546,0.44362345,-0.37296996,0.866706,0.45663697,-0.20075691,-0.49785823,0.7669142,-0.40494427,-0.030949198,0.4509161,0.8920296,,0.8193433442908493,-0.08604668968460949,0.15336666248000003,0.637038048305985,0.1186004817964023,0.3043318736816668,0.8706238724957084,,-0.6228770199705779,-0.6843808645809019,0.12752512133000002,1.4495865793085168,0.22722649910992745,0.7894661109903209,0.8673569911730228,,-0.06956664232292899,-0.10112001353742148,0.09128296528,-0.034016912529394594,,-1.5847385e-05,-2.4437904e-06,3.9339066e-06,1.0,1.6063452e-05,1.3098121e-05,-1.6059726e-05,1.0,1.4603138e-06,-1.309067e-05,-1.4603138e-06,1.0,NaN,NaN,NaN,NaN,NaN
0.2159787820000929,10:21:00.598465,10:20:42.415621,0,,0.027866077,0.049327195,0.07537742,-0.86752766,-0.3689103,-0.3336177,-0.4907462,0.74410033,0.45330215,0.08101721,0.5569738,-0.8265691,,0.13984345,-0.044451557,0.072943985,-0.7435493,-0.61659366,0.25874123,-0.44395557,0.74456257,0.49852782,-0.50003797,0.25581014,-0.82735914,,0.08959063,1.3473397,0.48306146,0.9960475,0.002696947,-0.088781305,-0.053860556,-0.7764648,-0.62785465,-0.07062885,0.63015485,-0.7732506,,-0.0725264,0.278953,-0.078856915,0.8814172,0.2832585,0.3779792,-0.24638106,0.9584563,-0.14372854,-0.40298888,0.033557896,0.91458946,,0.05505791,0.44362393,-0.3729691,0.866704,0.4566385,-0.2007624,-0.4978623,0.7669163,-0.40493527,-0.030941071,0.45091105,0.89203244,,0.8193433442908493,-0.08604668968460949,0.15336666248000003,0.637038048305985,0.1186004817964023,0.3043318736816668,0.8706238724957084,,-0.6228847427034521,-0.6843731418480276,0.12752512133000002,1.4495865793085168,0.22722649910992745,0.7894661109903209,0.8673569911730228,,-0.06956664232292899,-0.10112001353742148,0.09128296528,-0.034016912529394594,,-1.5847385e-05,-2.4437904e-06,3.9339066e-06,1.0,1.6063452e-05,1.3098121e-05,-1.6059726e-05,1.0,1.4603138e-06,-1.309067e-05,-1.4603138e-06,1.0,NaN,NaN,NaN,NaN,NaN
0.23484947299948544,10:21:00.621039,10:20:42.415621,0,,0.027865611,0.04932615,0.075377405,-0.8675261,-0.3689107,-0.3336213,-0.49074793,0.744103,0.45329577,0.08102298,0.55697,-0.8265711,,0.13984358,-0.04445245,0.07294434,-0.7435494,-0.6165921,0.25874442,-0.44395697,0.744566,0.49852145,-0.5000366,0.25580367,-0.827362,,0.08959063,1.3473397,0.48306146,0.9960475,0.002696947,-0.088781305,-0.053860556,-0.7764648,-0.62785465,-0.07062885,0.63015485,-0.7732506,,-0.07252589,0.2789522,-0.07885757,0.8814153,0.28325906,0.37798327,-0.2463789,0.958456,-0.14373441,-0.4029944,0.033562608,0.91458684,,0.05505785,0.44362366,-0.37296999,0.8667041,0.45663744,-0.20076418,-0.49786198,0.76691294,-0.40494195,-0.030943,0.4509177,0.89202905,,0.8193433442908493,-0.08605441241748371,0.15336666248000003,0.637038048305985,0.1186004817964023,0.3043318736816668,0.8706238724957084,,-0.6228847427034521,-0.6843808645809019,0.12752512133000002,1.4495865793085168,0.22722649910992745,0.7894661109903209,0.8673569911730228,,-0.06956664232292899,-0.10112001353742148,0.09128296528,-0.034016912529394594,,-1.5847385e-05,-2.4437904e-06,3.9339066e-06,1.0,1.6063452e-05,1.3098121e-05,-1.6059726e-05,1.0,1.4603138e-06,-1.309067e-05,-1.4603138e-06,1.0,NaN,NaN,NaN,NaN,NaN
0.25743045000035636,10:21:00.638516,10:20:42.415621,0,,0.02786658,0.04932572,0.07537703,-0.86752707,-0.368914,-0.33361524,-0.49074703,0.74410516,0.45329332,0.0810186,0.55696493,-0.8265749,,0.13984345,-0.044452034,0.072944224,-0.74349815,-0.6167113,0.25860745,-0.44413635,0.7444786,0.49849218,-0.49995342,0.2557708,-0.8274224,,0.08959063,1.3473397,0.48306146,0.9960475,0.002696947,-0.088781305,-0.053860556,-0.7764648,-0.62785465,-0.07062885,0.63015485,-0.7732506,,-0.072526805,0.27895156,-0.07885752,0.88141656,0.28326267,0.37797767,-0.2463809,0.9584547,-0.1437393,-0.40299046,0.033567715,0.9145884,,0.055057928,0.44362378,-0.37296957,0.8666675,0.4567716,-0.2006169,-0.49791357,0.7668604,-0.40497792,-0.03113726,0.45087108,0.8920458,,0.8193356215579751,-0.08605441241748371,0.15336666248000003,0.637038048305985,0.1186004817964023,0.3043318736816668,0.8706238724957084,,-0.6228847427034521,-0.6843808645809019,0.12752512133000002,1.4493768893650323,0.22722649910992745,0.7894661109903209,0.8673569911730228,,-0.06956664232292899,-0.10112001353742148,0.09128296528,-0.034016912529394594,,-1.5847385e-05,-2.4437904e-06,3.9339066e-06,1.0,1.6063452e-05,1.3098121e-05,-1.6059726e-05,1.0,1.4603138e-06,-1.309067e-05,-1.4603138e-06,1.0,NaN,NaN,NaN,NaN,NaN
0.2749476170001799,10:21:00.656746,10:20:42.415621,0,,0.02786658,0.04932572,0.07537703,-0.86752707,-0.368914,-0.33361524,-0.49074703,0.74410516,0.45329332,0.0810186,0.55696493,-0.8265749,,0.13984337,-0.044451706,0.072943985,-0.74344695,-0.61683047,0.25847048,-0.44431576,0.7443911,0.49846295,-0.49987015,0.255738,-0.8274828,,0.08959063,1.3473397,0.48306146,0.9960475,0.002696947,-0.088781305,-0.053860556,-0.7764648,-0.62785465,-0.07062885,0.63015485,-0.7732506,,-0.072526805,0.27895156,-0.07885752,0.88141656,0.28326267,0.37797767,-0.2463809,0.9584547,-0.1437393,-0.40299046,0.033567715,0.9145884,,0.055058002,0.44362387,-0.37296915,0.86663085,0.45690578,-0.20046961,-0.49796516,0.7668079,-0.40501392,-0.031331517,0.45082444,0.8920626,,0.8193356215579751,-0.08605441241748371,0.15336666248000003,0.637038048305985,0.1186004817964023,0.3043318736816668,0.8706238724957084,,-0.6228847427034521,-0.6843808645809019,0.12752512133000002,1.4491671994215478,0.22722649910992745,0.7894661109903209,0.8673569911730228,,-0.06956664232292899,-0.10112001353742148,0.09128296528,-0.034016912529394594,,-1.5847385e-05,-2.4437904e-06,3.9339066e-06,1.0,1.6063452e-05,1.3098121e-05,-1.6059726e-05,1.0,1.4603138e-06,-1.309067e-05,-1.4603138e-06,1.0,NaN,NaN,NaN,NaN,NaN
0.2931368919998931,10:21:00.677425,10:20:42.557717,0,,0.027868025,0.049326345,0.075376675,-0.8675296,-0.368917,-0.33360556,-0.49074438,0.7441046,0.4532972,0.08100842,0.55696386,-0.82657665,,0.13984337,-0.044451706,0.072943985,-0.74344695,-0.61683047,0.25847048,-0.44431576,0.7443911,0.49846295,-0.49987015,0.255738,-0.8274828,,0.08959063,1.3473397,0.48306146,0.9960475,0.002696947,-0.088781305,-0.053860556,-0.7764648,-0.62785465,-0.07062885,0.63015485,-0.7732506,,-0.072528236,0.27895167,-0.0788568,0.8814197,0.28326574,0.377968,-0.24638507,0.95845383,-0.14373831,-0.402981,0.03356811,0.9145925,,0.055058002,0.44362387,-0.37296915,0.86663085,0.45690578,-0.20046961,-0.49796516,0.7668079,-0.40501392,-0.031331517,0.45082444,0.8920626,,0.8193278988251009,-0.08604668968460949,0.15336666248000003,0.637038048305985,0.1186004817964023,0.3043318736816668,0.8706238724957084,,-0.6228847427034521,-0.6843808645809019,0.12752512133000002,1.4491671994215478,0.22722649910992745,0.7894661109903209,0.8673569911730228,,-0.06956664232292899,-0.10112001353742148,0.09128296528,-0.034016912529394594,,-1.5847385e-05,-2.4437904e-06,3.9339066e-06,1.0,1.6063452e-05,1.3098121e-05,-1.6059726e-05,1.0,1.4603138e-06,-1.309067e-05,-1.4603138e-06,1.0,NaN,NaN,NaN,NaN,NaN
0.31384157499996945,10:21:00.696835,10:20:42.557717,0,,0.02786756,0.049325302,0.075376645,-0.867528,-0.36891735,-0.33360913,-0.49074614,0.74410725,0.4532908,0.081014186,0.5569599,-0.82657874,,0.13984337,-0.044451706,0.072943985,-0.74344695,-0.61683047,0.25847048,-0.44431576,0.7443911,0.49846295,-0.49987015,0.255738,-0.8274828,,0.08959063,1.3473397,0.48306146,0.9960475,0.002696947,-0.088781305,-0.053860556,-0.7764648,-0.62785465,-0.07062885,0.63015485,-0.7732506,,-0.07252772,0.2789509,-0.07885747,0.8814178,0.2832663,0.37797207,-0.2463829,0.9584535,-0.14374419,-0.40298653,0.033572823,0.91458994,,0.055058002,0.44362387,-0.37296915,0.86663085,0.45690578,-0.20046961,-0.49796516,0.7668079,-0.40501392,-0.031331517,0.45082444,0.8920626,,0.8193278988251009,-0.08605441241748371,0.15336666248000003,0.637038048305985,0.1186004817964023,0.3043318736816668,0.8706238724957084,,-0.6228847427034521,-0.6843808645809019,0.12752512133000002,1.4491671994215478,0.22722649910992745,0.7894661109903209,0.8673569911730228,,-0.06956664232292899,-0.10112001353742148,0.09128296528,-0.034016912529394594,,-1.5847385e-05,-2.4437904e-06,3.9339066e-06,1.0,1.6063452e-05,1.3098121e-05,-1.6059726e-05,1.0,1.4603138e-06,-1.309067e-05,-1.4603138e-06,1.0,NaN,NaN,NaN,NaN,NaN
0.3332351449998896,10:21:00.716080,10:20:42.557717,0,,0.027865611,0.04932615,0.075377405,-0.8675261,-0.3689107,-0.3336213,-0.49074793,0.744103,0.45329577,0.08102298,0.55697,-0.8265711,,0.13984321,-0.044450812,0.07294369,-0.74344677,-0.61683196,0.2584673,-0.44431442,0.7443876,0.4984693,-0.49987158,0.25574446,-0.82747996,,0.08959063,1.3473397,0.48306146,0.9960475,0.002696947,-0.088781305,-0.053860556,-0.7764648,-0.62785465,-0.07062885,0.63015485,-0.7732506,,-0.07252589,0.2789522,-0.07885757,0.8814153,0.28325906,0.37798327,-0.2463789,0.958456,-0.14373441,-0.4029944,0.033562608,0.91458684,,0.055058062,0.44362417,-0.37296826,0.86663073,0.4569068,-0.20046784,-0.4979655,0.76681125,-0.40500727,-0.031329587,0.4508178,0.892066,,0.8193433442908493,-0.08605441241748371,0.15336666248000003,0.637038048305985,0.1186004817964023,0.3043318736816668,0.8706238724957084,,-0.6228847427034521,-0.6843731418480276,0.12752512133000002,1.4491671994215478,0.22722649910992745,0.7894661109903209,0.8673569911730228,,-0.06956664232292899,-0.10112001353742148,0.09128296528,-0.034016912529394594,,-1.5847385e-05,-2.4437904e-06,3.9339066e-06,1.0,1.6063452e-05,1.3098121e-05,-1.6059726e-05,1.0,1.4603138e-06,-1.309067e-05,-1.4603138e-06,1.0,NaN,NaN,NaN,NaN,NaN
0.352506524999626,10:21:00.733848,10:20:42.557717,0,,0.027865611,0.04932615,0.075377405,-0.8675261,-0.3689107,-0.3336213,-0.49074793,0.744103,0.45329577,0.08102298,0.55697,-0.8265711,,0.13984337,-0.044451706,0.072943985,-0.74344695,-0.61683047,0.25847048,-0.44431576,0.7443911,0.49846295,-0.49987015,0.255738,-0.8274828,,0.08959063,1.3473397,0.48306146,0.9960475,0.002696947,-0.088781305,-0.053860556,-0.7764648,-0.62785465,-0.07062885,0.63015485,-0.7732506,,-0.07252589,0.2789522,-0.07885757,0.8814153,0.28325906,0.37798327,-0.2463789,0.958456,-0.14373441,-0.4029944,0.033562608,0.91458684,,0.055058002,0.44362387,-0.37296915,0.86663085,0.45690578,-0.20046961,-0.49796516,0.7668079,-0.40501392,-0.031331517,0.45082444,0.8920626,,0.8193433442908493,-0.08605441241748371,0.15336666248000003,0.637038048305985,0.1186004817964023,0.3043318736816668,0.8706238724957084,,-0.6228847427034521,-0.6843808645809019,0.12752512133000002,1.4491671994215478,0.22722649910992745,0.7894661109903209,0.8673569911730228,,-0.06956664232292899,-0.10112001353742148,0.09128296528,-0.034016912529394594,,-1.5847385e-05,-2.4437904e-06,3.9339066e-06,1.0,1.6063452e-05,1.3098121e-05,-1.6059726e-05,1.0,1.4603138e-06,-1.309067e-05,-1.4603138e-06,1.0,NaN,NaN,NaN,NaN,NaN
0.3702770429999873,10:21:00.753877,10:20:42.557717,0,,0.027866077,0.049327195,0.07537742,-0.86752766,-0.3689103,-0.3336177,-0.4907462,0.74410033,0.45330215,0.08101721,0.5569738,-0.8265691,,0.13984337,-0.044451706,0.072943985,-0.74344695,-0.61683047,0.25847048,-0.44431576,0.7443911,0.49846295,-0.49987015,0.255738,-0.8274828,,0.08959063,1.3473397,0.48306146,0.9960475,0.002696947,-0.088781305,-0.053860556,-0.7764648,-0.62785465,-0.07062885,0.63015485,-0.7732506,,-0.0725264,0.278953,-0.078856915,0.8814172,0.2832585,0.3779792,-0.24638106,0.9584563,-0.14372854,-0.40298888,0.033557896,0.91458946,,0.055058002,0.44362387,-0.37296915,0.86663085,0.45690578,-0.20046961,-0.49796516,0.7668079,-0.40501392,-0.031331517,0.45082444,0.8920626,,0.8193433442908493,-0.08604668968460949,0.15336666248000003,0.637038048305985,0.1186004817964023,0.3043318736816668,0.8706238724957084,,-0.6228847427034521,-0.6843808645809019,0.12752512133000002,1.4491671994215478,0.22722649910992745,0.7894661109903209,0.8673569911730228,,-0.06956664232292899,-0.10112001353742148,0.09128296528,-0.034016912529394594,,-1.5847385e-05,-2.4437904e-06,3.9339066e-06,1.0,1.6063452e-05,1.3098121e-05,-1.6059726e-05,1.0,1.4603138e-06,-1.309067e-05,-1.4603138e-06,1.0,NaN,NaN,NaN,NaN,NaN
0.39028334300019196,10:21:00.773557,10:20:42.663319,0,,0.027865611,0.04932615,0.075377405,-0.8675261,-0.3689107,-0.3336213,-0.49074793,0.744103,0.45329577,0.08102298,0.55697,-0.8265711,,0.13984337,-0.044451706,0.072943985,-0.74344695,-0.61683047,0.25847048,-0.44431576,0.7443911,0.49846295,-0.49987015,0.255738,-0.8274828,,0.08959063,1.3473397,0.48306146,0.9960475,0.002696947,-0.088781305,-0.053860556,-0.7764648,-0.62785465,-0.07062885,0.63015485,-0.7732506,,-0.07252589,0.2789522,-0.07885757,0.8814153,0.28325906,0.37798327,-0.2463789,0.958456,-0.14373441,-0.4029944,0.033562608,0.91458684,,0.055058002,0.44362387,-0.37296915,0.86663085,0.45690578,-0.20046961,-0.49796516,0.7668079,-0.40501392,-0.031331517,0.45082444,0.8920626,,0.8193433442908493,-0.08605441241748371,0.15336666248000003,0.637038048305985,0.1186004817964023,0.3043318736816668,0.8706238724957084,,-0.6228847427034521,-0.6843808645809019,0.12752512133000002,1.4491671994215478,0.22722649910992745,0.7894661109903209,0.8673569911730228,,-0.06956664232292899,-0.10112001353742148,0.09128296528,-0.034016912529394594,,-1.5847385e-05,-2.4437904e-06,3.9339066e-06,1.0,1.6063452e-05,1.3098121e-05,-1.6059726e-05,1.0,1.4603138e-06,-1.309067e-05,-1.4603138e-06,1.0,NaN,NaN,NaN,NaN,NaN
0.4099649669997234,10:21:00.786703,10:20:42.663319,0,,0.027865611,0.04932615,0.075377405,-0.8675261,-0.3689107,-0.3336213,-0.49074793,0.744103,0.45329577,0.08102298,0.55697,-0.8265711,,0.13984337,-0.044451706,0.072943985,-0.74344695,-0.61683047,0.25847048,-0.44431576,0.7443911,0.49846295,-0.49987015,0.255738,-0.8274828,,0.08959063,1.3473397,0.48306146,0.9960475,0.002696947,-0.088781305,-0.053860556,-0.7764648,-0.62785465,-0.07062885,0.63015485,-0.7732506,,-0.07252589,0.2789522,-0.07885757,0.8814153,0.28325906,0.37798327,-0.2463789,0.958456,-0.14373441,-0.4029944,0.033562608,0.91458684,,0.055058002,0.44362387,-0.37296915,0.86663085,0.45690578,-0.20046961,-0.49796516,0.7668079,-0.40501392,-0.031331517,0.45082444,0.8920626,,0.8193433442908493,-0.08605441241748371,0.15336666248000003,0.637038048305985,0.1186004817964023,0.3043318736816668,0.8706238724957084,,-0.6228847427034521,-0.6843808645809019,0.12752512133000002,1.4491671994215478,0.22722649910992745,0.7894661109903209,0.8673569911730228,,-0.06956664232292899,-0.10112001353742148,0.09128296528,-0.034016912529394594,,-1.5847385e-05,-2.4437904e-06,3.9339066e-06,1.0,1.6063452e-05,1.3098121e-05,-1.6059726e-05,1.0,1.4603138e-06,-1.309067e-05,-1.4603138e-06,1.0,NaN,NaN,NaN,NaN,NaN
0.42312000499987334,10:21:00.801301,10:20:42.663319,0,,0.027865611,0.04932615,0.075377405,-0.8675261,-0.3689107,-0.3336213,-0.49074793,0.744103,0.45329577,0.08102298,0.55697,-0.8265711,,0.13984337,-0.044451706,0.072943985,-0.74344695,-0.61683047,0.25847048,-0.44431576,0.7443911,0.49846295,-0.49987015,0.255738,-0.8274828,,0.08959063,1.3473397,0.48306146,0.9960475,0.002696947,-0.088781305,-0.053860556,-0.7764648,-0.62785465,-0.07062885,0.63015485,-0.7732506,,-0.07252589,0.2789522,-0.07885757,0.8814153,0.28325906,0.37798327,-0.2463789,0.958456,-0.14373441,-0.4029944,0.033562608,0.91458684,,0.055058002,0.44362387,-0.37296915,0.86663085,0.45690578,-0.20046961,-0.49796516,0.7668079,-0.40501392,-0.031331517,0.45082444,0.8920626,,0.8193433442908493,-0.08605441241748371,0.15336666248000003,0.637038048305985,0.1186004817964023,0.3043318736816668,0.8706238724957084,,-0.6228847427034521,-0.6843808645809019,0.12752512133000002,1.4491671994215478,0.22722649910992745,0.7894661109903209,0.8673569911730228,,-0.06956664232292899,-0.10112001353742148,0.09128296528,-0.034016912529394594,,-1.5847385e-05,-2.4437904e-06,3.9339066e-06,1.0,1.6063452e-05,1.3098121e-05,-1.6059726e-05,1.0,1.4603138e-06,-1.309067e-05,-1.4603138e-06,1.0,NaN,NaN,NaN,NaN,NaN
0.43772841000009066,10:21:00.821918,10:20:42.663319,0,,0.027868025,0.049326345,0.075376675,-0.8675296,-0.368917,-0.33360556,-0.49074438,0.7441046,0.4532972,0.08100842,0.55696386,-0.82657665,,0.13984337,-0.044451706,0.072943985,-0.74344695,-0.61683047,0.25847048,-0.44431576,0.7443911,0.49846295,-0.49987015,0.255738,-0.8274828,,0.08959063,1.3473397,0.48306146,0.9960475,0.002696947,-0.088781305,-0.053860556,-0.7764648,-0.62785465,-0.07062885,0.63015485,-0.7732506,,-0.072528236,0.27895167,-0.0788568,0.8814197,0.28326574,0.377968,-0.24638507,0.95845383,-0.14373831,-0.402981,0.03356811,0.9145925,,0.055058002,0.44362387,-0.37296915,0.86663085,0.45690578,-0.20046961,-0.49796516,0.7668079,-0.40501392,-0.031331517,0.45082444,0.8920626,,0.8193278988251009,-0.08604668968460949,0.15336666248000003,0.637038048305985,0.1186004817964023,0.3043318736816668,0.8706238724957084,,-0.6228847427034521,-0.6843808645809019,0.12752512133000002,1.4491671994215478,0.22722649910992745,0.7894661109903209,0.8673569911730228,,-0.06956664232292899,-0.10112001353742148,0.09128296528,-0.034016912529394594,,-1.5847385e-05,-2.4437904e-06,3.9339066e-06,1.0,1.6063452e-05,1.3098121e-05,-1.6059726e-05,1.0,1.4603138e-06,-1.309067e-05,-1.4603138e-06,1.0,NaN,NaN,NaN,NaN,NaN
0.4583464309998817,10:21:00.842182,10:20:42.663319,0,,0.02786756,0.049325302,0.075376645,-0.867528,-0.36891735,-0.33360913,-0.49074614,0.74410725,0.4532908,0.081014186,0.5569599,-0.82657874,,0.13984337,-0.044451706,0.072943985,-0.74344695,-0.61683047,0.25847048,-0.44431576,0.7443911,0.49846295,-0.49987015,0.255738,-0.8274828,,0.08959063,1.3473397,0.48306146,0.9960475,0.002696947,-0.088781305,-0.053860556,-0.7764648,-0.62785465,-0.07062885,0.63015485,-0.7732506,,-0.07252772,0.2789509,-0.07885747,0.8814178,0.2832663,0.37797207,-0.2463829,0.9584535,-0.14374419,-0.40298653,0.033572823,0.91458994,,0.055058002,0.44362387,-0.37296915,0.86663085,0.45690578,-0.20046961,-0.49796516,0.7668079,-0.40501392,-0.031331517,0.45082444,0.8920626,,0.8193278988251009,-0.08605441241748371,0.15336666248000003,0.637038048305985,0.1186004817964023,0.3043318736816668,0.8706238724957084,,-0.6228847427034521,-0.6843808645809019,0.12752512133000002,1.4491671994215478,0.22722649910992745,0.7894661109903209,0.8673569911730228,,-0.06956664232292899,-0.10112001353742148,0.09128296528,-0.034016912529394594,,-1.5847385e-05,-2.4437904e-06,3.9339066e-06,1.0,1.6063452e-05,1.3098121e-05,-1.6059726e-05,1.0,1.4603138e-06,-1.309067e-05,-1.4603138e-06,1.0,NaN,NaN,NaN,NaN,NaN
0.47859823900034826,10:21:00.862592,10:20:42.754772,0,,0.027865611,0.04932615,0.075377405,-0.8675261,-0.3689107,-0.3336213,-0.49074793,0.744103,0.45329577,0.08102298,0.55697,-0.8265711,,0.13984321,-0.044450812,0.07294369,-0.74344677,-0.61683196,0.2584673,-0.44431442,0.7443876,0.4984693,-0.49987158,0.25574446,-0.82747996,,0.08959063,1.3473397,0.48306146,0.9960475,0.002696947,-0.088781305,-0.053860556,-0.7764648,-0.62785465,-0.07062885,0.63015485,-0.7732506,,-0.07252589,0.2789522,-0.07885757,0.8814153,0.28325906,0.37798327,-0.2463789,0.958456,-0.14373441,-0.4029944,0.033562608,0.91458684,,0.055058062,0.44362417,-0.37296826,0.86663073,0.4569068,-0.20046784,-0.4979655,0.76681125,-0.40500727,-0.031329587,0.4508178,0.892066,,0.8193433442908493,-0.08605441241748371,0.15336666248000003,0.637038048305985,0.1186004817964023,0.3043318736816668,0.8706238724957084,,-0.6228847427034521,-0.6843731418480276,0.12752512133000002,1.4491671994215478,0.22722649910992745,0.7894661109903209,0.8673569911730228,,-0.06956664232292899,-0.10112001353742148,0.09128296528,-0.034016912529394594,,-1.5847385e-05,-2.4437904e-06,3.9339066e-06,1.0,1.6063452e-05,1.3098121e-05,-1.6059726e-05,1.0,1.4603138e-06,-1.309067e-05,-1.4603138e-06,1.0,NaN,NaN,NaN,NaN,NaN
0.4990012289999868,10:21:00.880035,10:20:42.754772,0,,0.027866077,0.049327195,0.07537742,-0.86752766,-0.3689103,-0.3336177,-0.4907462,0.74410033,0.45330215,0.08101721,0.5569738,-0.8265691,,0.13984321,-0.044450812,0.07294369,-0.74344677,-0.61683196,0.2584673,-0.44431442,0.7443876,0.4984693,-0.49987158,0.25574446,-0.82747996,,0.08959063,1.3473397,0.48306146,0.9960475,0.002696947,-0.088781305,-0.053860556,-0.7764648,-0.62785465,-0.07062885,0.63015485,-0.7732506,,-0.0725264,0.278953,-0.078856915,0.8814172,0.2832585,0.3779792,-0.24638106,0.9584563,-0.14372854,-0.40298888,0.033557896,0.91458946,,0.055058062,0.44362417,-0.37296826,0.86663073,0.4569068,-0.20046784,-0.4979655,0.76681125,-0.40500727,-0.031329587,0.4508178,0.892066,,0.8193433442908493,-0.08604668968460949,0.15336666248000003,0.637038048305985,0.1186004817964023,0.3043318736816668,0.8706238724957084,,-0.6228847427034521,-0.6843731418480276,0.12752512133000002,1.4491671994215478,0.22722649910992745,0.7894661109903209,0.8673569911730228,,-0.06956664232292899,-0.10112001353742148,0.09128296528,-0.034016912529394594,,-1.5847385e-05,-2.4437904e-06,3.9339066e-06,1.0,1.6063452e-05,1.3098121e-05,-1.6059726e-05,1.0,1.4603138e-06,-1.309067e-05,-1.4603138e-06,1.0,NaN,NaN,NaN,NaN,NaN
0.5164527159995487,10:21:00.900386,10:20:42.754772,0,,0.027867045,0.049326763,0.07537706,-0.8675286,-0.36891365,-0.3336116,-0.49074528,0.7441025,0.45329964,0.081012815,0.5569688,-0.82657284,,0.13984337,-0.044451706,0.072943985,-0.74344695,-0.61683047,0.25847048,-0.44431576,0.7443911,0.49846295,-0.49987015,0.255738,-0.8274828,,0.08959063,1.3473397,0.48306146,0.9960475,0.002696947,-0.088781305,-0.053860556,-0.7764648,-0.62785465,-0.07062885,0.63015485,-0.7732506,,-0.07252732,0.27895233,-0.07885686,0.88141847,0.28326213,0.3779736,-0.24638306,0.958455,-0.14373343,-0.40298495,0.033563003,0.91459095,,0.055058002,0.44362387,-0.37296915,0.86663085,0.45690578,-0.20046961,-0.49796516,0.7668079,-0.40501392,-0.031331517,0.45082444,0.8920626,,0.8193356215579751,-0.08604668968460949,0.15336666248000003,0.637038048305985,0.1186004817964023,0.3043318736816668,0.8706238724957084,,-0.6228847427034521,-0.6843808645809019,0.12752512133000002,1.4491671994215478,0.22722649910992745,0.7894661109903209,0.8673569911730228,,-0.06956664232292899,-0.10112001353742148,0.09128296528,-0.034016912529394594,,-1.5847385e-05,-2.4437904e-06,3.9339066e-06,1.0,1.6063452e-05,1.3098121e-05,-1.6059726e-05,1.0,1.4603138e-06,-1.309067e-05,-1.4603138e-06,1.0,NaN,NaN,NaN,NaN,NaN
0.5368167039996479,10:21:00.917212,10:20:42.754772,0,,0.027867045,0.049326763,0.07537706,-0.8675286,-0.36891365,-0.3336116,-0.49074528,0.7441025,0.45329964,0.081012815,0.5569688,-0.82657284,,0.13984337,-0.044451706,0.072943985,-0.74344695,-0.61683047,0.25847048,-0.44431576,0.7443911,0.49846295,-0.49987015,0.255738,-0.8274828,,0.08959063,1.3473397,0.48306146,0.9960475,0.002696947,-0.088781305,-0.053860556,-0.7764648,-0.62785465,-0.07062885,0.63015485,-0.7732506,,-0.07252732,0.27895233,-0.07885686,0.88141847,0.28326213,0.3779736,-0.24638306,0.958455,-0.14373343,-0.40298495,0.033563003,0.91459095,,0.055058002,0.44362387,-0.37296915,0.86663085,0.45690578,-0.20046961,-0.49796516,0.7668079,-0.40501392,-0.031331517,0.45082444,0.8920626,,0.8193356215579751,-0.08604668968460949,0.15336666248000003,0.637038048305985,0.1186004817964023,0.3043318736816668,0.8706238724957084,,-0.6228847427034521,-0.6843808645809019,0.12752512133000002,1.4491671994215478,0.22722649910992745,0.7894661109903209,0.8673569911730228,,-0.06956664232292899,-0.10112001353742148,0.09128296528,-0.034016912529394594,,-1.5847385e-05,-2.4437904e-06,3.9339066e-06,1.0,1.6063452e-05,1.3098121e-05,-1.6059726e-05,1.0,1.4603138e-06,-1.309067e-05,-1.4603138e-06,1.0,NaN,NaN,NaN,NaN,NaN
0.5536411319999388,10:21:00.937036,10:20:42.754772,0,,0.02786658,0.04932572,0.07537703,-0.86752707,-0.368914,-0.33361524,-0.49074703,0.74410516,0.45329332,0.0810186,0.55696493,-0.8265749,,0.13984337,-0.044451706,0.072943985,-0.74344695,-0.61683047,0.25847048,-0.44431576,0.7443911,0.49846295,-0.49987015,0.255738,-0.8274828,,0.08959063,1.3473397,0.48306146,0.9960475,0.002696947,-0.088781305,-0.053860556,-0.7764648,-0.62785465,-0.07062885,0.63015485,-0.7732506,,-0.072526805,0.27895156,-0.07885752,0.88141656,0.28326267,0.37797767,-0.2463809,0.9584547,-0.1437393,-0.40299046,0.033567715,0.9145884,,0.055058002,0.44362387,-0.37296915,0.86663085,0.45690578,-0.20046961,-0.49796516,0.7668079,-0.40501392,-0.031331517,0.45082444,0.8920626,,0.8193356215579751,-0.08605441241748371,0.15336666248000003,0.637038048305985,0.1186004817964023,0.3043318736816668,0.8706238724957084,,-0.6228847427034521,-0.6843808645809019,0.12752512133000002,1.4491671994215478,0.22722649910992745,0.7894661109903209,0.8673569911730228,,-0.06956664232292899,-0.10112001353742148,0.09128296528,-0.034016912529394594,,-1.5847385e-05,-2.4437904e-06,3.9339066e-06,1.0,1.6063452e-05,1.3098121e-05,-1.6059726e-05,1.0,1.4603138e-06,-1.309067e-05,-1.4603138e-06,1.0,NaN,NaN,NaN,NaN,NaN
0.5734659809995719,10:21:00.958293,10:20:42.851787,0,,0.02786658,0.04932572,0.07537703,-0.86752707,-0.368914,-0.33361524,-0.49074703,0.74410516,0.45329332,0.0810186,0.55696493,-0.8265749,,0.13984337,-0.044451706,0.072943985,-0.74344695,-0.61683047,0.25847048,-0.44431576,0.7443911,0.49846295,-0.49987015,0.255738,-0.8274828,,0.08959063,1.3473397,0.48306146,0.9960475,0.002696947,-0.088781305,-0.053860556,-0.7764648,-0.62785465,-0.07062885,0.63015485,-0.7732506,,-0.072526805,0.27895156,-0.07885752,0.88141656,0.28326267,0.37797767,-0.2463809,0.9584547,-0.1437393,-0.40299046,0.033567715,0.9145884,,0.055058002,0.44362387,-0.37296915,0.86663085,0.45690578,-0.20046961,-0.49796516,0.7668079,-0.40501392,-0.031331517,0.45082444,0.8920626,,0.8193356215579751,-0.08605441241748371,0.15336666248000003,0.637038048305985,0.1186004817964023,0.3043318736816668,0.8706238724957084,,-0.6228847427034521,-0.6843808645809019,0.12752512133000002,1.4491671994215478,0.22722649910992745,0.7894661109903209,0.8673569911730228,,-0.06956664232292899,-0.10112001353742148,0.09128296528,-0.034016912529394594,,-1.5847385e-05,-2.4437904e-06,3.9339066e-06,1.0,1.6063452e-05,1.3098121e-05,-1.6059726e-05,1.0,1.4603138e-06,-1.309067e-05,-1.4603138e-06,1.0,NaN,NaN,NaN,NaN,NaN
0.5947234919995026,10:21:00.977799,10:20:42.851787,0,,0.027868025,0.049326345,0.075376675,-0.8675296,-0.368917,-0.33360556,-0.49074438,0.7441046,0.4532972,0.08100842,0.55696386,-0.82657665,,0.13984337,-0.044451706,0.072943985,-0.74344695,-0.61683047,0.25847048,-0.44431576,0.7443911,0.49846295,-0.49987015,0.255738,-0.8274828,,0.08959063,1.3473397,0.48306146,0.9960475,0.002696947,-0.088781305,-0.053860556,-0.7764648,-0.62785465,-0.07062885,0.63015485,-0.7732506,,-0.072528236,0.27895167,-0.0788568,0.8814197,0.28326574,0.377968,-0.24638507,0.95845383,-0.14373831,-0.402981,0.03356811,0.9145925,,0.055058002,0.44362387,-0.37296915,0.86663085,0.45690578,-0.20046961,-0.49796516,0.7668079,-0.40501392,-0.031331517,0.45082444,0.8920626,,0.8193278988251009,-0.08604668968460949,0.15336666248000003,0.637038048305985,0.1186004817964023,0.3043318736816668,0.8706238724957084,,-0.6228847427034521,-0.6843808645809019,0.12752512133000002,1.4491671994215478,0.22722649910992745,0.7894661109903209,0.8673569911730228,,-0.06956664232292899,-0.10112001353742148,0.09128296528,-0.034016912529394594,,-1.5847385e-05,-2.4437904e-06,3.9339066e-06,1.0,1.6063452e-05,1.3098121e-05,-1.6059726e-05,1.0,1.4603138e-06,-1.309067e-05,-1.4603138e-06,1.0,NaN,NaN,NaN,NaN,NaN
0.6142263370002183,10:21:00.997739,10:20:42.851787,0,,0.02786756,0.049325302,0.075376645,-0.867528,-0.36891735,-0.33360913,-0.49074614,0.74410725,0.4532908,0.081014186,0.5569599,-0.82657874,,0.13984337,-0.044451706,0.072943985,-0.74344695,-0.61683047,0.25847048,-0.44431576,0.7443911,0.49846295,-0.49987015,0.255738,-0.8274828,,0.08959063,1.3473397,0.48306146,0.9960475,0.002696947,-0.088781305,-0.053860556,-0.7764648,-0.62785465,-0.07062885,0.63015485,-0.7732506,,-0.07252772,0.2789509,-0.07885747,0.8814178,0.2832663,0.37797207,-0.2463829,0.9584535,-0.14374419,-0.40298653,0.033572823,0.91458994,,0.055058002,0.44362387,-0.37296915,0.86663085,0.45690578,-0.20046961,-0.49796516,0.7668079,-0.40501392,-0.031331517,0.45082444,0.8920626,,0.8193278988251009,-0.08605441241748371,0.15336666248000003,0.637038048305985,0.1186004817964023,0.3043318736816668,0.8706238724957084,,-0.6228847427034521,-0.6843808645809019,0.12752512133000002,1.4491671994215478,0.22722649910992745,0.7894661109903209,0.8673569911730228,,-0.06956664232292899,-0.10112001353742148,0.09128296528,-0.034016912529394594,,-1.5847385e-05,-2.4437904e-06,3.9339066e-06,1.0,1.6063452e-05,1.3098121e-05,-1.6059726e-05,1.0,1.4603138e-06,-1.309067e-05,-1.4603138e-06,1.0,NaN,NaN,NaN,NaN,NaN
0.6341667280003094,10:21:01.018277,10:20:42.851787,0,,0.027865611,0.04932615,0.075377405,-0.8675261,-0.3689107,-0.3336213,-0.49074793,0.744103,0.45329577,0.08102298,0.55697,-0.8265711,,0.13984337,-0.044451706,0.072943985,-0.74344695,-0.61683047,0.25847048,-0.44431576,0.7443911,0.49846295,-0.49987015,0.255738,-0.8274828,,0.08959063,1.3473397,0.48306146,0.9960475,0.002696947,-0.088781305,-0.053860556,-0.7764648,-0.62785465,-0.07062885,0.63015485,-0.7732506,,-0.07252589,0.2789522,-0.07885757,0.8814153,0.28325906,0.37798327,-0.2463789,0.958456,-0.14373441,-0.4029944,0.033562608,0.91458684,,0.055058002,0.44362387,-0.37296915,0.86663085,0.45690578,-0.20046961,-0.49796516,0.7668079,-0.40501392,-0.031331517,0.45082444,0.8920626,,0.8193433442908493,-0.08605441241748371,0.15336666248000003,0.637038048305985,0.1186004817964023,0.3043318736816668,0.8706238724957084,,-0.6228847427034521,-0.6843808645809019,0.12752512133000002,1.4491671994215478,0.22722649910992745,0.7894661109903209,0.8673569911730228,,-0.06956664232292899,-0.10112001353742148,0.09128296528,-0.034016912529394594,,-1.5847385e-05,-2.4437904e-06,3.9339066e-06,1.0,1.6063452e-05,1.3098121e-05,-1.6059726e-05,1.0,1.4603138e-06,-1.309067e-05,-1.4603138e-06,1.0,NaN,NaN,NaN,NaN,NaN
0.6547050910003236,10:21:01.037721,10:20:42.851787,0,,0.027866077,0.049327195,0.07537742,-0.86752766,-0.3689103,-0.3336177,-0.4907462,0.74410033,0.45330215,0.08101721,0.5569738,-0.8265691,,0.13984337,-0.044451706,0.072943985,-0.74344695,-0.61683047,0.25847048,-0.44431576,0.7443911,0.49846295,-0.49987015,0.255738,-0.8274828,,0.08959063,1.3473397,0.48306146,0.9960475,0.002696947,-0.088781305,-0.053860556,-0.7764648,-0.62785465,-0.07062885,0.63015485,-0.7732506,,-0.0725264,0.278953,-0.078856915,0.8814172,0.2832585,0.3779792,-0.24638106,0.9584563,-0.14372854,-0.40298888,0.033557896,0.91458946,,0.055058002,0.44362387,-0.37296915,0.86663085,0.45690578,-0.20046961,-0.49796516,0.7668079,-0.40501392,-0.031331517,0.45082444,0.8920626,,0.8193433442908493,-0.08604668968460949,0.15336666248000003,0.637038048305985,0.1186004817964023,0.3043318736816668,0.8706238724957084,,-0.6228847427034521,-0.6843808645809019,0.12752512133000002,1.4491671994215478,0.22722649910992745,0.7894661109903209,0.8673569911730228,,-0.06956664232292899,-0.10112001353742148,0.09128296528,-0.034016912529394594,,-1.5847385e-05,-2.4437904e-06,3.9339066e-06,1.0,1.6063452e-05,1.3098121e-05,-1.6059726e-05,1.0,1.4603138e-06,-1.309067e-05,-1.4603138e-06,1.0,NaN,NaN,NaN,NaN,NaN
0.6741520340001443,10:21:01.055608,10:20:42.952497,0,,0.027867045,0.049326763,0.07537706,-0.8675286,-0.36891365,-0.3336116,-0.49074528,0.7441025,0.45329964,0.081012815,0.5569688,-0.82657284,,0.13984337,-0.044451706,0.072943985,-0.74344695,-0.61683047,0.25847048,-0.44431576,0.7443911,0.49846295,-0.49987015,0.255738,-0.8274828,,0.08959063,1.3473397,0.48306146,0.9960475,0.002696947,-0.088781305,-0.053860556,-0.7764648,-0.62785465,-0.07062885,0.63015485,-0.7732506,,-0.07252732,0.27895233,-0.07885686,0.88141847,0.28326213,0.3779736,-0.24638306,0.958455,-0.14373343,-0.40298495,0.033563003,0.91459095,,0.055058002,0.44362387,-0.37296915,0.86663085,0.45690578,-0.20046961,-0.49796516,0.7668079,-0.40501392,-0.031331517,0.45082444,0.8920626,,0.8193356215579751,-0.08604668968460949,0.15336666248000003,0.637038048305985,0.1186004817964023,0.3043318736816668,0.8706238724957084,,-0.6228847427034521,-0.6843808645809019,0.12752512133000002,1.4491671994215478,0.22722649910992745,0.7894661109903209,0.8673569911730228,,-0.06956664232292899,-0.10112001353742148,0.09128296528,-0.034016912529394594,,-1.5847385e-05,-2.4437904e-06,3.9339066e-06,1.0,1.6063452e-05,1.3098121e-05,-1.6059726e-05,1.0,1.4603138e-06,-1.309067e-05,-1.4603138e-06,1.0,NaN,NaN,NaN,NaN,NaN
0.6920340110000325,10:21:01.076345,10:20:42.952497,0,,0.027866077,0.049327195,0.07537742,-0.86752766,-0.3689103,-0.3336177,-0.4907462,0.74410033,0.45330215,0.08101721,0.5569738,-0.8265691,,0.13984337,-0.044451706,0.072943985,-0.74344695,-0.61683047,0.25847048,-0.44431576,0.7443911,0.49846295,-0.49987015,0.255738,-0.8274828,,0.08959063,1.3473397,0.48306146,0.9960475,0.002696947,-0.088781305,-0.053860556,-0.7764648,-0.62785465,-0.07062885,0.63015485,-0.7732506,,-0.0725264,0.278953,-0.078856915,0.8814172,0.2832585,0.3779792,-0.24638106,0.9584563,-0.14372854,-0.40298888,0.033557896,0.91458946,,0.055058002,0.44362387,-0.37296915,0.86663085,0.45690578,-0.20046961,-0.49796516,0.7668079,-0.40501392,-0.031331517,0.45082444,0.8920626,,0.8193433442908493,-0.08604668968460949,0.15336666248000003,0.637038048305985,0.1186004817964023,0.3043318736816668,0.8706238724957084,,-0.6228847427034521,-0.6843808645809019,0.12752512133000002,1.4491671994215478,0.22722649910992745,0.7894661109903209,0.8673569911730228,,-0.06956664232292899,-0.10112001353742148,0.09128296528,-0.034016912529394594,,-1.5847385e-05,-2.4437904e-06,3.9339066e-06,1.0,1.6063452e-05,1.3098121e-05,-1.6059726e-05,1.0,1.4603138e-06,-1.309067e-05,-1.4603138e-06,1.0,NaN,NaN,NaN,NaN,NaN
0.712772873999711,10:21:01.089233,10:20:42.952497,0,,0.027866077,0.049327195,0.07537742,-0.86752766,-0.3689103,-0.3336177,-0.4907462,0.74410033,0.45330215,0.08101721,0.5569738,-0.8265691,,0.13984337,-0.044451706,0.072943985,-0.74344695,-0.61683047,0.25847048,-0.44431576,0.7443911,0.49846295,-0.49987015,0.255738,-0.8274828,,0.08959063,1.3473397,0.48306146,0.9960475,0.002696947,-0.088781305,-0.053860556,-0.7764648,-0.62785465,-0.07062885,0.63015485,-0.7732506,,-0.0725264,0.278953,-0.078856915,0.8814172,0.2832585,0.3779792,-0.24638106,0.9584563,-0.14372854,-0.40298888,0.033557896,0.91458946,,0.055058002,0.44362387,-0.37296915,0.86663085,0.45690578,-0.20046961,-0.49796516,0.7668079,-0.40501392,-0.031331517,0.45082444,0.8920626,,0.8193433442908493,-0.08604668968460949,0.15336666248000003,0.637038048305985,0.1186004817964023,0.3043318736816668,0.8706238724957084,,-0.6228847427034521,-0.6843808645809019,0.12752512133000002,1.4491671994215478,0.22722649910992745,0.7894661109903209,0.8673569911730228,,-0.06956664232292899,-0.10112001353742148,0.09128296528,-0.034016912529394594,,-1.5847385e-05,-2.4437904e-06,3.9339066e-06,1.0,1.6063452e-05,1.3098121e-05,-1.6059726e-05,1.0,1.4603138e-06,-1.309067e-05,-1.4603138e-06,1.0,NaN,NaN,NaN,NaN,NaN
0.7256608979996599,10:21:01.112664,10:20:42.952497,0,,0.02786658,0.04932572,0.07537703,-0.86752707,-0.368914,-0.33361524,-0.49074703,0.74410516,0.45329332,0.0810186,0.55696493,-0.8265749,,0.13984337,-0.044451706,0.072943985,-0.74344695,-0.61683047,0.25847048,-0.44431576,0.7443911,0.49846295,-0.49987015,0.255738,-0.8274828,,0.08959063,1.3473397,0.48306146,0.9960475,0.002696947,-0.088781305,-0.053860556,-0.7764648,-0.62785465,-0.07062885,0.63015485,-0.7732506,,-0.072526805,0.27895156,-0.07885752,0.88141656,0.28326267,0.37797767,-0.2463809,0.9584547,-0.1437393,-0.40299046,0.033567715,0.9145884,,0.055058002,0.44362387,-0.37296915,0.86663085,0.45690578,-0.20046961,-0.49796516,0.7668079,-0.40501392,-0.031331517,0.45082444,0.8920626,,0.8193356215579751,-0.08605441241748371,0.15336666248000003,0.637038048305985,0.1186004817964023,0.3043318736816668,0.8706238724957084,,-0.6228847427034521,-0.6843808645809019,0.12752512133000002,1.4491671994215478,0.22722649910992745,0.7894661109903209,0.8673569911730228,,-0.06956664232292899,-0.10112001353742148,0.09128296528,-0.034016912529394594,,-1.5847385e-05,-2.4437904e-06,3.9339066e-06,1.0,1.6063452e-05,1.3098121e-05,-1.6059726e-05,1.0,1.4603138e-06,-1.309067e-05,-1.4603138e-06,1.0,NaN,NaN,NaN,NaN,NaN
0.7490592630001629,10:21:01.134388,10:20:42.952497,0,,0.027894193,0.04932271,0.07538673,-0.86751413,-0.36893973,-0.3336205,-0.49077034,0.7441011,0.45327473,0.08101633,0.5569533,-0.8265829,,0.13994676,-0.044405587,0.0729658,-0.74338984,-0.61691165,0.25844082,-0.44438457,0.744326,0.49849865,-0.49989378,0.25573155,-0.82747054,,0.08957677,1.3473417,0.48306936,0.9960471,0.0026914,-0.08878579,-0.05386767,-0.7764648,-0.627854,-0.07062885,0.63015485,-0.7732506,,-0.07253929,0.2789498,-0.078859776,0.88140184,0.2832949,0.37798783,-0.2464065,0.9584451,-0.14375976,-0.403007,0.033571452,0.91458094,,0.054962173,0.4436427,-0.37294266,0.86658573,0.45700184,-0.20044588,-0.49804088,0.76677907,-0.4049755,-0.03137684,0.45077622,0.8920854,,0.8193356215579751,-0.08604668968460949,0.15336666248000003,0.637038048305985,0.1186004817964023,0.3043318736816668,0.8706238724957084,,-0.6228847427034521,-0.6843731418480276,0.12752512133000002,1.4491671994215478,0.22722649910992745,0.7894661109903209,0.8673569911730228,,-0.06956664232292899,-0.10112001353742148,0.09128296528,-0.034016912529394594,,-3.0308962e-05,9.536743e-07,-2.1457672e-06,0.99999994,1.0538846e-05,8.590519e-06,-1.0535121e-05,1.0,9.23872e-07,-8.586794e-06,-9.834766e-07,1.0,NaN,NaN,NaN,NaN,NaN
0.7707970869996643,10:21:01.153714,10:20:43.050245,0,,0.027895166,0.049322277,0.075386345,-0.8675151,-0.36894307,-0.33361444,-0.49076942,0.7441032,0.45327228,0.08101192,0.55694824,-0.8265867,,0.1399469,-0.04440645,0.07296616,-0.74338996,-0.6169101,0.25844407,-0.4443859,0.7443295,0.49849224,-0.49989238,0.25572512,-0.8274734,,0.08957677,1.3473417,0.48306936,0.9960471,0.0026914,-0.08878579,-0.05386767,-0.7764648,-0.627854,-0.07062885,0.63015485,-0.7732506,,-0.07254021,0.27894914,-0.078859724,0.8814031,0.2832985,0.37798226,-0.2464085,0.9584438,-0.14376464,-0.40300307,0.03357656,0.9145825,,0.054962113,0.44364244,-0.37294355,0.86658585,0.4570008,-0.20044766,-0.49804053,0.7667758,-0.40498218,-0.03137877,0.45078287,0.8920819,,0.8193278988251009,-0.08604668968460949,0.15336666248000003,0.637038048305985,0.1186004817964023,0.3043318736816668,0.8706238724957084,,-0.6228847427034521,-0.6843808645809019,0.12752512133000002,1.4491671994215478,0.22722649910992745,0.7894661109903209,0.8673569911730228,,-0.06956664232292899,-0.10112001353742148,0.09128296528,-0.034016912529394594,,-3.0308962e-05,9.536743e-07,-2.1457672e-06,0.99999994,1.0538846e-05,8.590519e-06,-1.0535121e-05,1.0,9.23872e-07,-8.586794e-06,-9.834766e-07,1.0,NaN,NaN,NaN,NaN,NaN
0.790144990999579,10:21:01.172140,10:20:43.050245,0,,0.027892763,0.049322084,0.075387076,-0.8675117,-0.36893675,-0.33363017,-0.490773,0.74410164,0.45327085,0.081026495,0.5569545,-0.8265812,,0.1399469,-0.04440645,0.07296616,-0.74338996,-0.6169101,0.25844407,-0.4443859,0.7443295,0.49849224,-0.49989238,0.25572512,-0.8274734,,0.08957677,1.3473417,0.48306936,0.9960471,0.0026914,-0.08878579,-0.05386767,-0.7764648,-0.627854,-0.07062885,0.63015485,-0.7732506,,-0.07253786,0.27894968,-0.07886049,0.8813987,0.2832918,0.37799752,-0.24640234,0.958446,-0.14376074,-0.40301645,0.033571053,0.9145768,,0.054962113,0.44364244,-0.37294355,0.86658585,0.4570008,-0.20044766,-0.49804053,0.7667758,-0.40498218,-0.03137877,0.45078287,0.8920819,,0.8193433442908493,-0.08605441241748371,0.15336666248000003,0.637038048305985,0.1186004817964023,0.3043318736816668,0.8706238724957084,,-0.6228847427034521,-0.6843808645809019,0.12752512133000002,1.4491671994215478,0.22722649910992745,0.7894661109903209,0.8673569911730228,,-0.06956664232292899,-0.10112001353742148,0.09128296528,-0.034016912529394594,,-3.0308962e-05,9.536743e-07,-2.1457672e-06,0.99999994,1.0538846e-05,8.590519e-06,-1.0535121e-05,1.0,9.23872e-07,-8.586794e-06,-9.834766e-07,1.0,NaN,NaN,NaN,NaN,NaN
0.8085715910001454,10:21:01.189291,10:20:43.050245,0,,0.027893731,0.049321666,0.0753867,-0.86751264,-0.3689401,-0.3336241,-0.49077207,0.7441038,0.45326835,0.08102211,0.5569495,-0.82658494,,0.1399469,-0.04440645,0.07296616,-0.74338996,-0.6169101,0.25844407,-0.4443859,0.7443295,0.49849224,-0.49989238,0.25572512,-0.8274734,,0.08957677,1.3473417,0.48306936,0.9960471,0.0026914,-0.08878579,-0.05386767,-0.7764648,-0.627854,-0.07062885,0.63015485,-0.7732506,,-0.07253878,0.27894902,-0.07886044,0.8813999,0.28329542,0.3779919,-0.24640433,0.9584448,-0.14376563,-0.4030125,0.033576164,0.9145783,,0.054962113,0.44364244,-0.37294355,0.86658585,0.4570008,-0.20044766,-0.49804053,0.7667758,-0.40498218,-0.03137877,0.45078287,0.8920819,,0.8193356215579751,-0.08605441241748371,0.15336666248000003,0.637038048305985,0.1186004817964023,0.3043318736816668,0.8706238724957084,,-0.6228847427034521,-0.6843808645809019,0.12752512133000002,1.4491671994215478,0.22722649910992745,0.7894661109903209,0.8673569911730228,,-0.06956664232292899,-0.10112001353742148,0.09128296528,-0.034016912529394594,,-3.0308962e-05,9.536743e-07,-2.1457672e-06,0.99999994,1.0538846e-05,8.590519e-06,-1.0535121e-05,1.0,9.23872e-07,-8.586794e-06,-9.834766e-07,1.0,NaN,NaN,NaN,NaN,NaN
0.8257210689998828,10:21:01.212384,10:20:43.050245,0,,0.027892763,0.049322084,0.075387076,-0.8675117,-0.36893675,-0.33363017,-0.490773,0.74410164,0.45327085,0.081026495,0.5569545,-0.8265812,,0.1399469,-0.04440645,0.07296616,-0.74338996,-0.6169101,0.25844407,-0.4443859,0.7443295,0.49849224,-0.49989238,0.25572512,-0.8274734,,0.08957677,1.3473417,0.48306936,0.9960471,0.0026914,-0.08878579,-0.05386767,-0.7764648,-0.627854,-0.07062885,0.63015485,-0.7732506,,-0.07253786,0.27894968,-0.07886049,0.8813987,0.2832918,0.37799752,-0.24640234,0.958446,-0.14376074,-0.40301645,0.033571053,0.9145768,,0.054962113,0.44364244,-0.37294355,0.86658585,0.4570008,-0.20044766,-0.49804053,0.7667758,-0.40498218,-0.03137877,0.45078287,0.8920819,,0.8193433442908493,-0.08605441241748371,0.15336666248000003,0.637038048305985,0.1186004817964023,0.3043318736816668,0.8706238724957084,,-0.6228847427034521,-0.6843808645809019,0.12752512133000002,1.4491671994215478,0.22722649910992745,0.7894661109903209,0.8673569911730228,,-0.06956664232292899,-0.10112001353742148,0.09128296528,-0.034016912529394594,,-3.0308962e-05,9.536743e-07,-2.1457672e-06,0.99999994,1.0538846e-05,8.590519e-06,-1.0535121e-05,1.0,9.23872e-07,-8.586794e-06,-9.834766e-07,1.0,NaN,NaN,NaN,NaN,NaN
0.8487456630000452,10:21:01.230246,10:20:43.050245,0,,0.027893225,0.049323127,0.075387105,-0.8675132,-0.36893642,-0.33362657,-0.4907712,0.74409896,0.45327723,0.08102071,0.5569583,-0.8265791,,0.1399469,-0.04440645,0.07296616,-0.74338996,-0.6169101,0.25844407,-0.4443859,0.7443295,0.49849224,-0.49989238,0.25572512,-0.8274734,,0.08957677,1.3473417,0.48306936,0.9960471,0.0026914,-0.08878579,-0.05386767,-0.7764648,-0.627854,-0.07062885,0.63015485,-0.7732506,,-0.072538376,0.27895045,-0.078859836,0.8814006,0.28329125,0.37799343,-0.2464045,0.9584463,-0.14375487,-0.4030109,0.03356634,0.9145794,,0.054962113,0.44364244,-0.37294355,0.86658585,0.4570008,-0.20044766,-0.49804053,0.7667758,-0.40498218,-0.03137877,0.45078287,0.8920819,,0.8193433442908493,-0.08604668968460949,0.15336666248000003,0.637038048305985,0.1186004817964023,0.3043318736816668,0.8706238724957084,,-0.6228847427034521,-0.6843808645809019,0.12752512133000002,1.4491671994215478,0.22722649910992745,0.7894661109903209,0.8673569911730228,,-0.06956664232292899,-0.10112001353742148,0.09128296528,-0.034016912529394594,,-3.0308962e-05,9.536743e-07,-2.1457672e-06,0.99999994,1.0538846e-05,8.590519e-06,-1.0535121e-05,1.0,9.23872e-07,-8.586794e-06,-9.834766e-07,1.0,NaN,NaN,NaN,NaN,NaN
0.8666661669994937,10:21:01.249748,10:20:43.146430,0,,0.027893225,0.049323127,0.075387105,-0.8675132,-0.36893642,-0.33362657,-0.4907712,0.74409896,0.45327723,0.08102071,0.5569583,-0.8265791,,0.1399469,-0.04440645,0.07296616,-0.74338996,-0.6169101,0.25844407,-0.4443859,0.7443295,0.49849224,-0.49989238,0.25572512,-0.8274734,,0.08957677,1.3473417,0.48306936,0.9960471,0.0026914,-0.08878579,-0.05386767,-0.7764648,-0.627854,-0.07062885,0.63015485,-0.7732506,,-0.072538376,0.27895045,-0.078859836,0.8814006,0.28329125,0.37799343,-0.2464045,0.9584463,-0.14375487,-0.4030109,0.03356634,0.9145794,,0.054962113,0.44364244,-0.37294355,0.86658585,0.4570008,-0.20044766,-0.49804053,0.7667758,-0.40498218,-0.03137877,0.45078287,0.8920819,,0.8193433442908493,-0.08604668968460949,0.15336666248000003,0.637038048305985,0.1186004817964023,0.3043318736816668,0.8706238724957084,,-0.6228847427034521,-0.6843808645809019,0.12752512133000002,1.4491671994215478,0.22722649910992745,0.7894661109903209,0.8673569911730228,,-0.06956664232292899,-0.10112001353742148,0.09128296528,-0.034016912529394594,,-3.0308962e-05,9.536743e-07,-2.1457672e-06,0.99999994,1.0538846e-05,8.590519e-06,-1.0535121e-05,1.0,9.23872e-07,-8.586794e-06,-9.834766e-07,1.0,NaN,NaN,NaN,NaN,NaN
0.8861800909999147,10:21:01.267377,10:20:43.146430,0,,0.027892763,0.049322084,0.075387076,-0.8675117,-0.36893675,-0.33363017,-0.490773,0.74410164,0.45327085,0.081026495,0.5569545,-0.8265812,,0.1399469,-0.04440645,0.07296616,-0.74338996,-0.6169101,0.25844407,-0.4443859,0.7443295,0.49849224,-0.49989238,0.25572512,-0.8274734,,0.08957677,1.3473417,0.48306936,0.9960471,0.0026914,-0.08878579,-0.05386767,-0.7764648,-0.627854,-0.07062885,0.63015485,-0.7732506,,-0.07253786,0.27894968,-0.07886049,0.8813987,0.2832918,0.37799752,-0.24640234,0.958446,-0.14376074,-0.40301645,0.033571053,0.9145768,,0.054962113,0.44364244,-0.37294355,0.86658585,0.4570008,-0.20044766,-0.49804053,0.7667758,-0.40498218,-0.03137877,0.45078287,0.8920819,,0.8193433442908493,-0.08605441241748371,0.15336666248000003,0.637038048305985,0.1186004817964023,0.3043318736816668,0.8706238724957084,,-0.6228847427034521,-0.6843808645809019,0.12752512133000002,1.4491671994215478,0.22722649910992745,0.7894661109903209,0.8673569911730228,,-0.06956664232292899,-0.10112001353742148,0.09128296528,-0.034016912529394594,,-3.0308962e-05,9.536743e-07,-2.1457672e-06,0.99999994,1.0538846e-05,8.590519e-06,-1.0535121e-05,1.0,9.23872e-07,-8.586794e-06,-9.834766e-07,1.0,NaN,NaN,NaN,NaN,NaN
0.9038068640002166,10:21:01.282069,10:20:43.146430,0,,0.027893731,0.049321666,0.0753867,-0.86751264,-0.3689401,-0.3336241,-0.49077207,0.7441038,0.45326835,0.08102211,0.5569495,-0.82658494,,0.1399469,-0.04440645,0.07296616,-0.74338996,-0.6169101,0.25844407,-0.4443859,0.7443295,0.49849224,-0.49989238,0.25572512,-0.8274734,,0.08957677,1.3473417,0.48306936,0.9960471,0.0026914,-0.08878579,-0.05386767,-0.7764648,-0.627854,-0.07062885,0.63015485,-0.7732506,,-0.07253878,0.27894902,-0.07886044,0.8813999,0.28329542,0.3779919,-0.24640433,0.9584448,-0.14376563,-0.4030125,0.033576164,0.9145783,,0.054962113,0.44364244,-0.37294355,0.86658585,0.4570008,-0.20044766,-0.49804053,0.7667758,-0.40498218,-0.03137877,0.45078287,0.8920819,,0.8193356215579751,-0.08605441241748371,0.15336666248000003,0.637038048305985,0.1186004817964023,0.3043318736816668,0.8706238724957084,,-0.6228847427034521,-0.6843808645809019,0.12752512133000002,1.4491671994215478,0.22722649910992745,0.7894661109903209,0.8673569911730228,,-0.06956664232292899,-0.10112001353742148,0.09128296528,-0.034016912529394594,,-3.0308962e-05,9.536743e-07,-2.1457672e-06,0.99999994,1.0538846e-05,8.590519e-06,-1.0535121e-05,1.0,9.23872e-07,-8.586794e-06,-9.834766e-07,1.0,NaN,NaN,NaN,NaN,NaN
0.9184789509999973,10:21:01.300988,10:20:43.146430,0,,0.027894193,0.04932271,0.07538673,-0.86751413,-0.368967,-0.33359033,-0.49077034,0.7441381,0.453214,0.08101633,0.55688584,-0.8266284,,0.1399469,-0.04440645,0.07296616,-0.74338996,-0.6169101,0.25844407,-0.4443859,0.7443295,0.49849224,-0.49989238,0.25572512,-0.8274734,,0.08957677,1.3473417,0.48306936,0.9960471,0.0026914,-0.08878579,-0.05386767,-0.7764648,-0.627854,-0.07062885,0.63015485,-0.7732506,,-0.07253929,0.2789498,-0.078859776,0.88140184,0.28332576,0.3779647,-0.2464065,0.95843333,-0.14383803,-0.403007,0.03364615,0.9145782,,0.054962113,0.44364244,-0.37294355,0.86658585,0.4570008,-0.20044766,-0.49804053,0.7667758,-0.40498218,-0.03137877,0.45078287,0.8920819,,0.8193356215579751,-0.08604668968460949,0.15336666248000003,0.637038048305985,0.1186004817964023,0.3042501949415263,0.8704605284295741,,-0.6228847427034521,-0.6843808645809019,0.12752512133000002,1.4491671994215478,0.22722649910992745,0.7894661109903209,0.8673569911730228,,-0.06956664232292899,-0.10112001353742148,0.09128296528,-0.034016912529394594,,-3.0308962e-05,9.536743e-07,-2.1457672e-06,0.99999994,1.0538846e-05,8.590519e-06,-1.0535121e-05,1.0,9.23872e-07,-8.586794e-06,-9.834766e-07,1.0,NaN,NaN,NaN,NaN,NaN
0.9374097290001373,10:21:01.321539,10:20:43.146430,0,,0.027894711,0.049321234,0.07538633,-0.86751354,-0.3689979,-0.33355775,-0.49077117,0.7441799,0.4531443,0.0810177,0.55680937,-0.8266797,,0.1399469,-0.04440645,0.07296616,-0.74338996,-0.6169101,0.25844407,-0.4443859,0.7443295,0.49849224,-0.49989238,0.25572512,-0.8274734,,0.08957677,1.3473417,0.48306936,0.9960471,0.0026914,-0.08878579,-0.05386767,-0.7764648,-0.627854,-0.07062885,0.63015485,-0.7732506,,-0.072539695,0.27894837,-0.07886038,0.8814011,0.28336078,0.37794003,-0.24640635,0.95842,-0.14392708,-0.40300858,0.033730675,0.9145744,,0.054962113,0.44364244,-0.37294355,0.86658585,0.4570008,-0.20044766,-0.49804053,0.7667758,-0.40498218,-0.03137877,0.45078287,0.8920819,,0.8193278988251009,-0.08605441241748371,0.15336666248000003,0.637038048305985,0.1186004817964023,0.30416851620138563,0.8702971843634397,,-0.6228847427034521,-0.6843808645809019,0.12752512133000002,1.4491671994215478,0.22722649910992745,0.7894661109903209,0.8673569911730228,,-0.06956664232292899,-0.10112001353742148,0.09128296528,-0.034016912529394594,,-3.0308962e-05,9.536743e-07,-2.1457672e-06,0.99999994,1.0538846e-05,8.590519e-06,-1.0535121e-05,1.0,9.23872e-07,-8.586794e-06,-9.834766e-07,1.0,NaN,NaN,NaN,NaN,NaN
0.9579677519996039,10:21:01.339119,10:20:43.146430,0,,0.027893225,0.049323127,0.075387105,-0.8675132,-0.3689909,-0.33356628,-0.4907712,0.74417305,0.45315567,0.08102071,0.5568234,-0.82667005,,0.13994686,-0.044406004,0.07296598,-0.74344116,-0.61679244,0.25857776,-0.44420516,0.7444135,0.49852794,-0.49997705,0.2557644,-0.82741016,,0.08957677,1.3473417,0.48306936,0.9960471,0.0026914,-0.08878579,-0.05386767,-0.7764648,-0.627854,-0.07062885,0.63015485,-0.7732506,,-0.072538376,0.27895045,-0.078859836,0.8814006,0.283353,0.37794715,-0.2464045,0.95842284,-0.14391144,-0.4030109,0.033715747,0.9145739,,0.054962095,0.4436426,-0.37294307,0.8666224,0.45686767,-0.20059316,-0.4979893,0.7668316,-0.40493947,-0.031182585,0.45082286,0.8920686,,0.8193433442908493,-0.08604668968460949,0.15336666248000003,0.637038048305985,0.1186004817964023,0.30416851620138563,0.8702971843634397,,-0.6228847427034521,-0.6843731418480276,0.12752512133000002,1.4493768893650323,0.22722649910992745,0.7894661109903209,0.8673569911730228,,-0.06956664232292899,-0.10112001353742148,0.09128296528,-0.034016912529394594,,-3.0308962e-05,9.536743e-07,-2.1457672e-06,0.99999994,1.0538846e-05,8.590519e-06,-1.0535121e-05,1.0,9.23872e-07,-8.586794e-06,-9.834766e-07,1.0,NaN,NaN,NaN,NaN,NaN
0.9755498009999428,10:21:01.361321,10:20:43.146430,0,,0.027893225,0.049323127,0.075387105,-0.8675132,-0.3689909,-0.33356628,-0.4907712,0.74417305,0.45315567,0.08102071,0.5568234,-0.82667005,,0.1399471,-0.044407226,0.07296646,-0.7434924,-0.61667174,0.25871798,-0.44402704,0.74450445,0.49855083,-0.50005877,0.2557908,-0.8273526,,0.08957677,1.3473417,0.48306936,0.9960471,0.0026914,-0.08878579,-0.05386767,-0.7764648,-0.627854,-0.07062885,0.63015485,-0.7732506,,-0.072538376,0.27895045,-0.078859836,0.8814006,0.283353,0.37794715,-0.2464045,0.95842284,-0.14391144,-0.4030109,0.033715747,0.9145739,,0.05496196,0.44364223,-0.37294438,0.8666591,0.45673248,-0.20074223,-0.49793735,0.7668808,-0.40491015,-0.03099026,0.45087612,0.8920484,,0.8193433442908493,-0.08604668968460949,0.15336666248000003,0.637038048305985,0.1186004817964023,0.30416851620138563,0.8702971843634397,,-0.6228847427034521,-0.6843808645809019,0.12752512133000002,1.4495865793085168,0.22722649910992745,0.7894661109903209,0.8673569911730228,,-0.06956664232292899,-0.10112001353742148,0.09128296528,-0.034016912529394594,,-3.0308962e-05,9.536743e-07,-2.1457672e-06,0.99999994,1.0538846e-05,8.590519e-06,-1.0535121e-05,1.0,9.23872e-07,-8.586794e-06,-9.834766e-07,1.0,NaN,NaN,NaN,NaN,NaN
0.9977212040002996,10:21:01.375566,10:20:43.146430,0,,0.027893731,0.049321666,0.0753867,-0.86751264,-0.36899456,-0.3335638,-0.49077207,0.7441778,0.45314682,0.08102211,0.55681443,-0.8266759,,0.1399471,-0.044407226,0.07296646,-0.7434924,-0.61667174,0.25871798,-0.44402704,0.74450445,0.49855083,-0.50005877,0.2557908,-0.8273526,,0.08957677,1.3473417,0.48306936,0.9960471,0.0026914,-0.08878579,-0.05386767,-0.7764648,-0.627854,-0.07062885,0.63015485,-0.7732506,,-0.07253878,0.27894902,-0.07886044,0.8813999,0.28335717,0.37794563,-0.24640433,0.95842123,-0.1439222,-0.4030125,0.033725567,0.91457283,,0.05496196,0.44364223,-0.37294438,0.8666591,0.45673248,-0.20074223,-0.49793735,0.7668808,-0.40491015,-0.03099026,0.45087612,0.8920484,,0.8193356215579751,-0.08605441241748371,0.15336666248000003,0.637038048305985,0.1186004817964023,0.30416851620138563,0.8702971843634397,,-0.6228847427034521,-0.6843808645809019,0.12752512133000002,1.4495865793085168,0.22722649910992745,0.7894661109903209,0.8673569911730228,,-0.06956664232292899,-0.10112001353742148,0.09128296528,-0.034016912529394594,,-3.0308962e-05,9.536743e-07,-2.1457672e-06,0.99999994,1.0538846e-05,8.590519e-06,-1.0535121e-05,1.0,9.23872e-07,-8.586794e-06,-9.834766e-07,1.0,NaN,NaN,NaN,NaN,NaN
1.0119766389998404,10:21:01.396157,10:20:43.146430,0,,0.027893731,0.049321666,0.0753867,-0.86751264,-0.36899456,-0.3335638,-0.49077207,0.7441778,0.45314682,0.08102211,0.55681443,-0.8266759,,0.13994697,-0.044406362,0.07296616,-0.7434923,-0.61667323,0.25871477,-0.44402573,0.7445009,0.4985572,-0.50006026,0.2557973,-0.82734966,,0.08957677,1.3473417,0.48306936,0.9960471,0.0026914,-0.08878579,-0.05386767,-0.7764648,-0.627854,-0.07062885,0.63015485,-0.7732506,,-0.07253878,0.27894902,-0.07886044,0.8813999,0.28335717,0.37794563,-0.24640433,0.95842123,-0.1439222,-0.4030125,0.033725567,0.91457283,,0.05496202,0.4436425,-0.3729435,0.866659,0.4567335,-0.20074044,-0.49793768,0.7668841,-0.40490347,-0.03098833,0.45086947,0.8920518,,0.8193356215579751,-0.08605441241748371,0.15336666248000003,0.637038048305985,0.1186004817964023,0.30416851620138563,0.8702971843634397,,-0.6228847427034521,-0.6843731418480276,0.12752512133000002,1.4495865793085168,0.22722649910992745,0.7894661109903209,0.8673569911730228,,-0.06956664232292899,-0.10112001353742148,0.09128296528,-0.034016912529394594,,-3.0308962e-05,9.536743e-07,-2.1457672e-06,0.99999994,1.0538846e-05,8.590519e-06,-1.0535121e-05,1.0,9.23872e-07,-8.586794e-06,-9.834766e-07,1.0,NaN,NaN,NaN,NaN,NaN
1.032565806999628,10:21:01.419791,10:20:43.309627,0,,0.027892763,0.049322084,0.075387076,-0.8675117,-0.36899126,-0.33356988,-0.490773,0.74417573,0.4531493,0.081026495,0.55681944,-0.8266721,,0.1399471,-0.044407226,0.07296646,-0.7434924,-0.61667174,0.25871798,-0.44402704,0.74450445,0.49855083,-0.50005877,0.2557908,-0.8273526,,0.08957677,1.3473417,0.48306936,0.9960471,0.0026914,-0.08878579,-0.05386767,-0.7764648,-0.627854,-0.07062885,0.63015485,-0.7732506,,-0.07253786,0.27894968,-0.07886049,0.8813987,0.28335354,0.37795123,-0.24640234,0.9584225,-0.1439173,-0.40301645,0.033720456,0.9145713,,0.05496196,0.44364223,-0.37294438,0.8666591,0.45673248,-0.20074223,-0.49793735,0.7668808,-0.40491015,-0.03099026,0.45087612,0.8920484,,0.8193433442908493,-0.08605441241748371,0.15336666248000003,0.637038048305985,0.1186004817964023,0.30416851620138563,0.8702971843634397,,-0.6228847427034521,-0.6843808645809019,0.12752512133000002,1.4495865793085168,0.22722649910992745,0.7894661109903209,0.8673569911730228,,-0.06956664232292899,-0.10112001353742148,0.09128296528,-0.034016912529394594,,-3.0308962e-05,9.536743e-07,-2.1457672e-06,0.99999994,1.0538846e-05,8.590519e-06,-1.0535121e-05,1.0,9.23872e-07,-8.586794e-06,-9.834766e-07,1.0,NaN,NaN,NaN,NaN,NaN
1.0562223779998021,10:21:01.437910,10:20:43.309627,0,,0.027893731,0.049321666,0.0753867,-0.86751264,-0.36899456,-0.3335638,-0.49077207,0.7441778,0.45314682,0.08102211,0.55681443,-0.8266759,,0.13994697,-0.044406362,0.07296616,-0.7434923,-0.61667323,0.25871477,-0.44402573,0.7445009,0.4985572,-0.50006026,0.2557973,-0.82734966,,0.08957677,1.3473417,0.48306936,0.9960471,0.0026914,-0.08878579,-0.05386767,-0.7764648,-0.627854,-0.07062885,0.63015485,-0.7732506,,-0.07253878,0.27894902,-0.07886044,0.8813999,0.28335717,0.37794563,-0.24640433,0.95842123,-0.1439222,-0.4030125,0.033725567,0.91457283,,0.05496202,0.4436425,-0.3729435,0.866659,0.4567335,-0.20074044,-0.49793768,0.7668841,-0.40490347,-0.03098833,0.45086947,0.8920518,,0.8193356215579751,-0.08605441241748371,0.15336666248000003,0.637038048305985,0.1186004817964023,0.30416851620138563,0.8702971843634397,,-0.6228847427034521,-0.6843731418480276,0.12752512133000002,1.4495865793085168,0.22722649910992745,0.7894661109903209,0.8673569911730228,,-0.06956664232292899,-0.10112001353742148,0.09128296528,-0.034016912529394594,,-3.0308962e-05,9.536743e-07,-2.1457672e-06,0.99999994,1.0538846e-05,8.590519e-06,-1.0535121e-05,1.0,9.23872e-07,-8.586794e-06,-9.834766e-07,1.0,NaN,NaN,NaN,NaN,NaN
1.0743397249998452,10:21:01.456012,10:20:43.309627,0,,0.027894711,0.049321234,0.07538633,-0.86751354,-0.3689979,-0.33355775,-0.49077117,0.7441799,0.4531443,0.0810177,0.55680937,-0.8266797,,0.13994697,-0.044406362,0.07296616,-0.7434923,-0.61667323,0.25871477,-0.44402573,0.7445009,0.4985572,-0.50006026,0.2557973,-0.82734966,,0.08957677,1.3473417,0.48306936,0.9960471,0.0026914,-0.08878579,-0.05386767,-0.7764648,-0.627854,-0.07062885,0.63015485,-0.7732506,,-0.072539695,0.27894837,-0.07886038,0.8814011,0.28336078,0.37794003,-0.24640635,0.95842,-0.14392708,-0.40300858,0.033730675,0.9145744,,0.05496202,0.4436425,-0.3729435,0.866659,0.4567335,-0.20074044,-0.49793768,0.7668841,-0.40490347,-0.03098833,0.45086947,0.8920518,,0.8193278988251009,-0.08605441241748371,0.15336666248000003,0.637038048305985,0.1186004817964023,0.30416851620138563,0.8702971843634397,,-0.6228847427034521,-0.6843731418480276,0.12752512133000002,1.4495865793085168,0.22722649910992745,0.7894661109903209,0.8673569911730228,,-0.06956664232292899,-0.10112001353742148,0.09128296528,-0.034016912529394594,,-3.0308962e-05,9.536743e-07,-2.1457672e-06,0.99999994,1.0538846e-05,8.590519e-06,-1.0535121e-05,1.0,9.23872e-07,-8.586794e-06,-9.834766e-07,1.0,NaN,NaN,NaN,NaN,NaN
1.0924386260003303,10:21:01.478984,10:20:43.309627,0,,0.027895166,0.049322277,0.075386345,-0.8675151,-0.36899754,-0.33355418,-0.49076942,0.7441772,0.4531507,0.08101192,0.5568133,-0.8266777,,0.1399471,-0.044407226,0.07296646,-0.7434924,-0.61667174,0.25871798,-0.44402704,0.74450445,0.49855083,-0.50005877,0.2557908,-0.8273526,,0.08957677,1.3473417,0.48306936,0.9960471,0.0026914,-0.08878579,-0.05386767,-0.7764648,-0.627854,-0.07062885,0.63015485,-0.7732506,,-0.07254021,0.27894914,-0.078859724,0.8814031,0.28336024,0.37793598,-0.2464085,0.95842034,-0.14392121,-0.40300307,0.033725962,0.914577,,0.05496196,0.44364223,-0.37294438,0.8666591,0.45673248,-0.20074223,-0.49793735,0.7668808,-0.40491015,-0.03099026,0.45087612,0.8920484,,0.8193278988251009,-0.08604668968460949,0.15336666248000003,0.637038048305985,0.1186004817964023,0.30416851620138563,0.8702971843634397,,-0.6228847427034521,-0.6843808645809019,0.12752512133000002,1.4495865793085168,0.22722649910992745,0.7894661109903209,0.8673569911730228,,-0.06956664232292899,-0.10112001353742148,0.09128296528,-0.034016912529394594,,-3.0308962e-05,9.536743e-07,-2.1457672e-06,0.99999994,1.0538846e-05,8.590519e-06,-1.0535121e-05,1.0,9.23872e-07,-8.586794e-06,-9.834766e-07,1.0,NaN,NaN,NaN,NaN,NaN
1.1154023580002104,10:21:01.496943,10:20:43.309627,0,,0.027895166,0.049322277,0.075386345,-0.8675151,-0.36899754,-0.33355418,-0.49076942,0.7441772,0.4531507,0.08101192,0.5568133,-0.8266777,,0.1399471,-0.044407226,0.07296646,-0.7434924,-0.61667174,0.25871798,-0.44402704,0.74450445,0.49855083,-0.50005877,0.2557908,-0.8273526,,0.08957677,1.3473417,0.48306936,0.9960471,0.0026914,-0.08878579,-0.05386767,-0.7764648,-0.627854,-0.07062885,0.63015485,-0.7732506,,-0.07254021,0.27894914,-0.078859724,0.8814031,0.28336024,0.37793598,-0.2464085,0.95842034,-0.14392121,-0.40300307,0.033725962,0.914577,,0.05496196,0.44364223,-0.37294438,0.8666591,0.45673248,-0.20074223,-0.49793735,0.7668808,-0.40491015,-0.03099026,0.45087612,0.8920484,,0.8193278988251009,-0.08604668968460949,0.15336666248000003,0.637038048305985,0.1186004817964023,0.30416851620138563,0.8702971843634397,,-0.6228847427034521,-0.6843808645809019,0.12752512133000002,1.4495865793085168,0.22722649910992745,0.7894661109903209,0.8673569911730228,,-0.06956664232292899,-0.10112001353742148,0.09128296528,-0.034016912529394594,,-3.0308962e-05,9.536743e-07,-2.1457672e-06,0.99999994,1.0538846e-05,8.590519e-06,-1.0535121e-05,1.0,9.23872e-07,-8.586794e-06,-9.834766e-07,1.0,NaN,NaN,NaN,NaN,NaN
1.1333491479999793,10:21:01.520007,10:20:43.404281,0,,0.027893731,0.049321666,0.0753867,-0.86751264,-0.36899456,-0.3335638,-0.49077207,0.7441778,0.45314682,0.08102211,0.55681443,-0.8266759,,0.1399471,-0.044407226,0.07296646,-0.7434924,-0.61667174,0.25871798,-0.44402704,0.74450445,0.49855083,-0.50005877,0.2557908,-0.8273526,,0.08957677,1.3473417,0.48306936,0.9960471,0.0026914,-0.08878579,-0.05386767,-0.7764648,-0.627854,-0.07062885,0.63015485,-0.7732506,,-0.07253878,0.27894902,-0.07886044,0.8813999,0.28335717,0.37794563,-0.24640433,0.95842123,-0.1439222,-0.4030125,0.033725567,0.91457283,,0.05496196,0.44364223,-0.37294438,0.8666591,0.45673248,-0.20074223,-0.49793735,0.7668808,-0.40491015,-0.03099026,0.45087612,0.8920484,,0.8193356215579751,-0.08605441241748371,0.15336666248000003,0.637038048305985,0.1186004817964023,0.30416851620138563,0.8702971843634397,,-0.6228847427034521,-0.6843808645809019,0.12752512133000002,1.4495865793085168,0.22722649910992745,0.7894661109903209,0.8673569911730228,,-0.06956664232292899,-0.10112001353742148,0.09128296528,-0.034016912529394594,,-3.0308962e-05,9.536743e-07,-2.1457672e-06,0.99999994,1.0538846e-05,8.590519e-06,-1.0535121e-05,1.0,9.23872e-07,-8.586794e-06,-9.834766e-07,1.0,NaN,NaN,NaN,NaN,NaN
1.1564374560002761,10:21:01.538602,10:20:43.404281,0,,0.027893731,0.049321666,0.0753867,-0.86751264,-0.36899456,-0.3335638,-0.49077207,0.7441778,0.45314682,0.08102211,0.55681443,-0.8266759,,0.1399471,-0.044407226,0.07296646,-0.7434924,-0.61667174,0.25871798,-0.44402704,0.74450445,0.49855083,-0.50005877,0.2557908,-0.8273526,,0.08957677,1.3473417,0.48306936,0.9960471,0.0026914,-0.08878579,-0.05386767,-0.7764648,-0.627854,-0.07062885,0.63015485,-0.7732506,,-0.07253878,0.27894902,-0.07886044,0.8813999,0.28335717,0.37794563,-0.24640433,0.95842123,-0.1439222,-0.4030125,0.033725567,0.91457283,,0.05496196,0.44364223,-0.37294438,0.8666591,0.45673248,-0.20074223,-0.49793735,0.7668808,-0.40491015,-0.03099026,0.45087612,0.8920484,,0.8193356215579751,-0.08605441241748371,0.15336666248000003,0.637038048305985,0.1186004817964023,0.30416851620138563,0.8702971843634397,,-0.6228847427034521,-0.6843808645809019,0.12752512133000002,1.4495865793085168,0.22722649910992745,0.7894661109903209,0.8673569911730228,,-0.06956664232292899,-0.10112001353742148,0.09128296528,-0.034016912529394594,,-3.0308962e-05,9.536743e-07,-2.1457672e-06,0.99999994,1.0538846e-05,8.590519e-06,-1.0535121e-05,1.0,9.23872e-07,-8.586794e-06,-9.834766e-07,1.0,NaN,NaN,NaN,NaN,NaN
1.1750315749995934,10:21:01.556272,10:20:43.404281,0,,0.027893225,0.049323127,0.075387105,-0.8675132,-0.3689909,-0.33356628,-0.4907712,0.74417305,0.45315567,0.08102071,0.5568234,-0.82667005,,0.13994697,-0.044406362,0.07296616,-0.7434923,-0.61667323,0.25871477,-0.44402573,0.7445009,0.4985572,-0.50006026,0.2557973,-0.82734966,,0.08957677,1.3473417,0.48306936,0.9960471,0.0026914,-0.08878579,-0.05386767,-0.7764648,-0.627854,-0.07062885,0.63015485,-0.7732506,,-0.072538376,0.27895045,-0.078859836,0.8814006,0.283353,0.37794715,-0.2464045,0.95842284,-0.14391144,-0.4030109,0.033715747,0.9145739,,0.05496202,0.4436425,-0.3729435,0.866659,0.4567335,-0.20074044,-0.49793768,0.7668841,-0.40490347,-0.03098833,0.45086947,0.8920518,,0.8193433442908493,-0.08604668968460949,0.15336666248000003,0.637038048305985,0.1186004817964023,0.30416851620138563,0.8702971843634397,,-0.6228847427034521,-0.6843731418480276,0.12752512133000002,1.4495865793085168,0.22722649910992745,0.7894661109903209,0.8673569911730228,,-0.06956664232292899,-0.10112001353742148,0.09128296528,-0.034016912529394594,,-3.0308962e-05,9.536743e-07,-2.1457672e-06,0.99999994,1.0538846e-05,8.590519e-06,-1.0535121e-05,1.0,9.23872e-07,-8.586794e-06,-9.834766e-07,1.0,NaN,NaN,NaN,NaN,NaN
1.192699213999731,10:21:01.576741,10:20:43.404281,0,,0.027892763,0.049322084,0.075387076,-0.8675117,-0.36899126,-0.33356988,-0.490773,0.74417573,0.4531493,0.081026495,0.55681944,-0.8266721,,0.1399471,-0.044407226,0.07296646,-0.7434924,-0.61667174,0.25871798,-0.44402704,0.74450445,0.49855083,-0.50005877,0.2557908,-0.8273526,,0.08957677,1.3473417,0.48306936,0.9960471,0.0026914,-0.08878579,-0.05386767,-0.7764648,-0.627854,-0.07062885,0.63015485,-0.7732506,,-0.07253786,0.27894968,-0.07886049,0.8813987,0.28335354,0.37795123,-0.24640234,0.9584225,-0.1439173,-0.40301645,0.033720456,0.9145713,,0.05496196,0.44364223,-0.37294438,0.8666591,0.45673248,-0.20074223,-0.49793735,0.7668808,-0.40491015,-0.03099026,0.45087612,0.8920484,,0.8193433442908493,-0.08605441241748371,0.15336666248000003,0.637038048305985,0.1186004817964023,0.30416851620138563,0.8702971843634397,,-0.6228847427034521,-0.6843808645809019,0.12752512133000002,1.4495865793085168,0.22722649910992745,0.7894661109903209,0.8673569911730228,,-0.06956664232292899,-0.10112001353742148,0.09128296528,-0.034016912529394594,,-3.0308962e-05,9.536743e-07,-2.1457672e-06,0.99999994,1.0538846e-05,8.590519e-06,-1.0535121e-05,1.0,9.23872e-07,-8.586794e-06,-9.834766e-07,1.0,NaN,NaN,NaN,NaN,NaN
1.213137362999987,10:21:01.598844,10:20:43.404281,0,,0.027893731,0.049321666,0.0753867,-0.86751264,-0.36899456,-0.3335638,-0.49077207,0.7441778,0.45314682,0.08102211,0.55681443,-0.8266759,,0.1399471,-0.044407226,0.07296646,-0.7434924,-0.61667174,0.25871798,-0.44402704,0.74450445,0.49855083,-0.50005877,0.2557908,-0.8273526,,0.08957677,1.3473417,0.48306936,0.9960471,0.0026914,-0.08878579,-0.05386767,-0.7764648,-0.627854,-0.07062885,0.63015485,-0.7732506,,-0.07253878,0.27894902,-0.07886044,0.8813999,0.28335717,0.37794563,-0.24640433,0.95842123,-0.1439222,-0.4030125,0.033725567,0.91457283,,0.05496196,0.44364223,-0.37294438,0.8666591,0.45673248,-0.20074223,-0.49793735,0.7668808,-0.40491015,-0.03099026,0.45087612,0.8920484,,0.8193356215579751,-0.08605441241748371,0.15336666248000003,0.637038048305985,0.1186004817964023,0.30416851620138563,0.8702971843634397,,-0.6228847427034521,-0.6843808645809019,0.12752512133000002,1.4495865793085168,0.22722649910992745,0.7894661109903209,0.8673569911730228,,-0.06956664232292899,-0.10112001353742148,0.09128296528,-0.034016912529394594,,-3.0308962e-05,9.536743e-07,-2.1457672e-06,0.99999994,1.0538846e-05,8.590519e-06,-1.0535121e-05,1.0,9.23872e-07,-8.586794e-06,-9.834766e-07,1.0,NaN,NaN,NaN,NaN,NaN
1.2352503419997447,10:21:01.617857,10:20:43.500525,0,,0.027894193,0.04932271,0.07538673,-0.86751413,-0.3689942,-0.3335602,-0.49077034,0.7441751,0.4531532,0.08101633,0.5568183,-0.82667387,,0.1399457,-0.04440675,0.07296562,-0.74349743,-0.6166727,0.25870147,-0.4440317,0.7445,0.4985533,-0.50004745,0.25580123,-0.8273562,,0.08957677,1.3473417,0.48306936,0.9960471,0.0026914,-0.08878579,-0.05386767,-0.7764648,-0.627854,-0.07062885,0.63015485,-0.7732506,,-0.07253929,0.2789498,-0.078859776,0.88140184,0.28335664,0.37794155,-0.2464065,0.9584216,-0.14391632,-0.403007,0.033720855,0.91457546,,0.05496341,0.44364208,-0.37294343,0.86666286,0.4567325,-0.2007259,-0.49793017,0.76688653,-0.40490812,-0.031000726,0.4508663,0.892053,,0.8193356215579751,-0.08604668968460949,0.15336666248000003,0.637038048305985,0.1186004817964023,0.30416851620138563,0.8702971843634397,,-0.6228692972377036,-0.6843731418480276,0.12752512133000002,1.4495865793085168,0.22722649910992745,0.7894661109903209,0.8673569911730228,,-0.06956664232292899,-0.10112001353742148,0.09128296528,-0.034016912529394594,,-3.0308962e-05,9.536743e-07,-2.1457672e-06,0.99999994,1.0538846e-05,8.590519e-06,-1.0535121e-05,1.0,9.23872e-07,-8.586794e-06,-9.834766e-07,1.0,NaN,NaN,NaN,NaN,NaN
1.2542838429999392,10:21:01.635468,10:20:43.500525,0,,0.027894711,0.049321234,0.07538633,-0.86751354,-0.3689979,-0.33355775,-0.49077117,0.7441799,0.4531443,0.0810177,0.55680937,-0.8266797,,0.13994648,-0.044407405,0.07296622,-0.74349505,-0.61667144,0.25871134,-0.44403005,0.74450386,0.4985488,-0.5000524,0.25579274,-0.82735574,,0.08957677,1.3473417,0.48306936,0.9960471,0.0026914,-0.08878579,-0.05386767,-0.7764648,-0.627854,-0.07062885,0.63015485,-0.7732506,,-0.072539695,0.27894837,-0.07886038,0.8814011,0.28336078,0.37794003,-0.24640635,0.95842,-0.14392708,-0.40300858,0.033730675,0.9145744,,0.054962654,0.44364202,-0.37294436,0.8666611,0.456732,-0.20073494,-0.4979336,0.766882,-0.40491247,-0.030996457,0.45087454,0.89204895,,0.8193278988251009,-0.08605441241748371,0.15336666248000003,0.637038048305985,0.1186004817964023,0.30416851620138563,0.8702971843634397,,-0.6228770199705779,-0.6843808645809019,0.12752512133000002,1.4495865793085168,0.22722649910992745,0.7894661109903209,0.8673569911730228,,-0.06956664232292899,-0.10112001353742148,0.09128296528,-0.034016912529394594,,-3.0308962e-05,9.536743e-07,-2.1457672e-06,0.99999994,1.0538846e-05,8.590519e-06,-1.0535121e-05,1.0,9.23872e-07,-8.586794e-06,-9.834766e-07,1.0,NaN,NaN,NaN,NaN,NaN
1.2718975930001761,10:21:01.651219,10:20:43.500525,0,,0.027893731,0.049321666,0.0753867,-0.86751264,-0.36899456,-0.3335638,-0.49077207,0.7441778,0.45314682,0.08102211,0.55681443,-0.8266759,,0.1399471,-0.044407226,0.07296646,-0.7434924,-0.61667174,0.25871798,-0.44402704,0.74450445,0.49855083,-0.50005877,0.2557908,-0.8273526,,0.08957677,1.3473417,0.48306936,0.9960471,0.0026914,-0.08878579,-0.05386767,-0.7764648,-0.627854,-0.07062885,0.63015485,-0.7732506,,-0.07253878,0.27894902,-0.07886044,0.8813999,0.28335717,0.37794563,-0.24640433,0.95842123,-0.1439222,-0.4030125,0.033725567,0.91457283,,0.05496196,0.44364223,-0.37294438,0.8666591,0.45673248,-0.20074223,-0.49793735,0.7668808,-0.40491015,-0.03099026,0.45087612,0.8920484,,0.8193356215579751,-0.08605441241748371,0.15336666248000003,0.637038048305985,0.1186004817964023,0.30416851620138563,0.8702971843634397,,-0.6228847427034521,-0.6843808645809019,0.12752512133000002,1.4495865793085168,0.22722649910992745,0.7894661109903209,0.8673569911730228,,-0.06956664232292899,-0.10112001353742148,0.09128296528,-0.034016912529394594,,-3.0308962e-05,9.536743e-07,-2.1457672e-06,0.99999994,1.0538846e-05,8.590519e-06,-1.0535121e-05,1.0,9.23872e-07,-8.586794e-06,-9.834766e-07,1.0,NaN,NaN,NaN,NaN,NaN
1.2876397829995767,10:21:01.671749,10:20:43.500525,0,,0.027893731,0.049321666,0.0753867,-0.86751264,-0.36899456,-0.3335638,-0.49077207,0.7441778,0.45314682,0.08102211,0.55681443,-0.8266759,,0.1399471,-0.044407226,0.07296646,-0.7434924,-0.61667174,0.25871798,-0.44402704,0.74450445,0.49855083,-0.50005877,0.2557908,-0.8273526,,0.08957677,1.3473417,0.48306936,0.9960471,0.0026914,-0.08878579,-0.05386767,-0.7764648,-0.627854,-0.07062885,0.63015485,-0.7732506,,-0.07253878,0.27894902,-0.07886044,0.8813999,0.28335717,0.37794563,-0.24640433,0.95842123,-0.1439222,-0.4030125,0.033725567,0.91457283,,0.05496196,0.44364223,-0.37294438,0.8666591,0.45673248,-0.20074223,-0.49793735,0.7668808,-0.40491015,-0.03099026,0.45087612,0.8920484,,0.8193356215579751,-0.08605441241748371,0.15336666248000003,0.637038048305985,0.1186004817964023,0.30416851620138563,0.8702971843634397,,-0.6228847427034521,-0.6843808645809019,0.12752512133000002,1.4495865793085168,0.22722649910992745,0.7894661109903209,0.8673569911730228,,-0.06956664232292899,-0.10112001353742148,0.09128296528,-0.034016912529394594,,-3.0308962e-05,9.536743e-07,-2.1457672e-06,0.99999994,1.0538846e-05,8.590519e-06,-1.0535121e-05,1.0,9.23872e-07,-8.586794e-06,-9.834766e-07,1.0,NaN,NaN,NaN,NaN,NaN
1.3079415619995416,10:21:01.689631,10:20:43.500525,0,,0.027893225,0.049323127,0.075387105,-0.8675132,-0.3689909,-0.33356628,-0.4907712,0.74417305,0.45315567,0.08102071,0.5568234,-0.82667005,,0.1399471,-0.044407226,0.07296646,-0.7434924,-0.61667174,0.25871798,-0.44402704,0.74450445,0.49855083,-0.50005877,0.2557908,-0.8273526,,0.08957677,1.3473417,0.48306936,0.9960471,0.0026914,-0.08878579,-0.05386767,-0.7764648,-0.627854,-0.07062885,0.63015485,-0.7732506,,-0.072538376,0.27895045,-0.078859836,0.8814006,0.283353,0.37794715,-0.2464045,0.95842284,-0.14391144,-0.4030109,0.033715747,0.9145739,,0.05496196,0.44364223,-0.37294438,0.8666591,0.45673248,-0.20074223,-0.49793735,0.7668808,-0.40491015,-0.03099026,0.45087612,0.8920484,,0.8193433442908493,-0.08604668968460949,0.15336666248000003,0.637038048305985,0.1186004817964023,0.30416851620138563,0.8702971843634397,,-0.6228847427034521,-0.6843808645809019,0.12752512133000002,1.4495865793085168,0.22722649910992745,0.7894661109903209,0.8673569911730228,,-0.06956664232292899,-0.10112001353742148,0.09128296528,-0.034016912529394594,,-3.0308962e-05,9.536743e-07,-2.1457672e-06,0.99999994,1.0538846e-05,8.590519e-06,-1.0535121e-05,1.0,9.23872e-07,-8.586794e-06,-9.834766e-07,1.0,NaN,NaN,NaN,NaN,NaN
1.3260605879995637,10:21:01.711284,10:20:43.592484,0,,0.027894193,0.04932271,0.07538673,-0.86751413,-0.3689942,-0.3335602,-0.49077034,0.7441751,0.4531532,0.08101633,0.5568183,-0.82667387,,0.13994697,-0.044406362,0.07296616,-0.7434923,-0.61667323,0.25871477,-0.44402573,0.7445009,0.4985572,-0.50006026,0.2557973,-0.82734966,,0.08957677,1.3473417,0.48306936,0.9960471,0.0026914,-0.08878579,-0.05386767,-0.7764648,-0.627854,-0.07062885,0.63015485,-0.7732506,,-0.07253929,0.2789498,-0.078859776,0.88140184,0.28335664,0.37794155,-0.2464065,0.9584216,-0.14391632,-0.403007,0.033720855,0.91457546,,0.05496202,0.4436425,-0.3729435,0.866659,0.4567335,-0.20074044,-0.49793768,0.7668841,-0.40490347,-0.03098833,0.45086947,0.8920518,,0.8193356215579751,-0.08604668968460949,0.15336666248000003,0.637038048305985,0.1186004817964023,0.30416851620138563,0.8702971843634397,,-0.6228847427034521,-0.6843731418480276,0.12752512133000002,1.4495865793085168,0.22722649910992745,0.7894661109903209,0.8673569911730228,,-0.06956664232292899,-0.10112001353742148,0.09128296528,-0.034016912529394594,,-3.0308962e-05,9.536743e-07,-2.1457672e-06,0.99999994,1.0538846e-05,8.590519e-06,-1.0535121e-05,1.0,9.23872e-07,-8.586794e-06,-9.834766e-07,1.0,NaN,NaN,NaN,NaN,NaN
1.3476371480001035,10:21:01.731222,10:20:43.592484,0,,0.027892763,0.049322084,0.075387076,-0.8675117,-0.36899126,-0.33356988,-0.490773,0.74417573,0.4531493,0.081026495,0.55681944,-0.8266721,,0.1399471,-0.044407226,0.07296646,-0.7434924,-0.61667174,0.25871798,-0.44402704,0.74450445,0.49855083,-0.50005877,0.2557908,-0.8273526,,0.08957677,1.3473417,0.48306936,0.9960471,0.0026914,-0.08878579,-0.05386767,-0.7764648,-0.627854,-0.07062885,0.63015485,-0.7732506,,-0.07253786,0.27894968,-0.07886049,0.8813987,0.28335354,0.37795123,-0.24640234,0.9584225,-0.1439173,-0.40301645,0.033720456,0.9145713,,0.05496196,0.44364223,-0.37294438,0.8666591,0.45673248,-0.20074223,-0.49793735,0.7668808,-0.40491015,-0.03099026,0.45087612,0.8920484,,0.8193433442908493,-0.08605441241748371,0.15336666248000003,0.637038048305985,0.1186004817964023,0.30416851620138563,0.8702971843634397,,-0.6228847427034521,-0.6843808645809019,0.12752512133000002,1.4495865793085168,0.22722649910992745,0.7894661109903209,0.8673569911730228,,-0.06956664232292899,-0.10112001353742148,0.09128296528,-0.034016912529394594,,-3.0308962e-05,9.536743e-07,-2.1457672e-06,0.99999994,1.0538846e-05,8.590519e-06,-1.0535121e-05,1.0,9.23872e-07,-8.586794e-06,-9.834766e-07,1.0,NaN,NaN,NaN,NaN,NaN
1.3676462329995047,10:21:01.749300,10:20:43.592484,0,,0.027892763,0.049322084,0.075387076,-0.8675117,-0.36899126,-0.33356988,-0.490773,0.74417573,0.4531493,0.081026495,0.55681944,-0.8266721,,0.1399471,-0.044407226,0.07296646,-0.7434924,-0.61667174,0.25871798,-0.44402704,0.74450445,0.49855083,-0.50005877,0.2557908,-0.8273526,,0.08957677,1.3473417,0.48306936,0.9960471,0.0026914,-0.08878579,-0.05386767,-0.7764648,-0.627854,-0.07062885,0.63015485,-0.7732506,,-0.07253786,0.27894968,-0.07886049,0.8813987,0.28335354,0.37795123,-0.24640234,0.9584225,-0.1439173,-0.40301645,0.033720456,0.9145713,,0.05496196,0.44364223,-0.37294438,0.8666591,0.45673248,-0.20074223,-0.49793735,0.7668808,-0.40491015,-0.03099026,0.45087612,0.8920484,,0.8193433442908493,-0.08605441241748371,0.15336666248000003,0.637038048305985,0.1186004817964023,0.30416851620138563,0.8702971843634397,,-0.6228847427034521,-0.6843808645809019,0.12752512133000002,1.4495865793085168,0.22722649910992745,0.7894661109903209,0.8673569911730228,,-0.06956664232292899,-0.10112001353742148,0.09128296528,-0.034016912529394594,,-3.0308962e-05,9.536743e-07,-2.1457672e-06,0.99999994,1.0538846e-05,8.590519e-06,-1.0535121e-05,1.0,9.23872e-07,-8.586794e-06,-9.834766e-07,1.0,NaN,NaN,NaN,NaN,NaN
1.3857307950001996,10:21:01.768113,10:20:43.592484,0,,0.027893225,0.049323127,0.075387105,-0.8675132,-0.3689909,-0.33356628,-0.4907712,0.74417305,0.45315567,0.08102071,0.5568234,-0.82667005,,0.1399471,-0.044407226,0.07296646,-0.7434924,-0.61667174,0.25871798,-0.44402704,0.74450445,0.49855083,-0.50005877,0.2557908,-0.8273526,,0.08957677,1.3473417,0.48306936,0.9960471,0.0026914,-0.08878579,-0.05386767,-0.7764648,-0.627854,-0.07062885,0.63015485,-0.7732506,,-0.072538376,0.27895045,-0.078859836,0.8814006,0.283353,0.37794715,-0.2464045,0.95842284,-0.14391144,-0.4030109,0.033715747,0.9145739,,0.05496196,0.44364223,-0.37294438,0.8666591,0.45673248,-0.20074223,-0.49793735,0.7668808,-0.40491015,-0.03099026,0.45087612,0.8920484,,0.8193433442908493,-0.08604668968460949,0.15336666248000003,0.637038048305985,0.1186004817964023,0.30416851620138563,0.8702971843634397,,-0.6228847427034521,-0.6843808645809019,0.12752512133000002,1.4495865793085168,0.22722649910992745,0.7894661109903209,0.8673569911730228,,-0.06956664232292899,-0.10112001353742148,0.09128296528,-0.034016912529394594,,-3.0308962e-05,9.536743e-07,-2.1457672e-06,0.99999994,1.0538846e-05,8.590519e-06,-1.0535121e-05,1.0,9.23872e-07,-8.586794e-06,-9.834766e-07,1.0,NaN,NaN,NaN,NaN,NaN
1.404540100000304,10:21:01.787402,10:20:43.592484,0,,0.027893225,0.049323127,0.075387105,-0.8675132,-0.3689909,-0.33356628,-0.4907712,0.74417305,0.45315567,0.08102071,0.5568234,-0.82667005,,0.1399471,-0.044407226,0.07296646,-0.7434924,-0.61667174,0.25871798,-0.44402704,0.74450445,0.49855083,-0.50005877,0.2557908,-0.8273526,,0.08957677,1.3473417,0.48306936,0.9960471,0.0026914,-0.08878579,-0.05386767,-0.7764648,-0.627854,-0.07062885,0.63015485,-0.7732506,,-0.072538376,0.27895045,-0.078859836,0.8814006,0.283353,0.37794715,-0.2464045,0.95842284,-0.14391144,-0.4030109,0.033715747,0.9145739,,0.05496196,0.44364223,-0.37294438,0.8666591,0.45673248,-0.20074223,-0.49793735,0.7668808,-0.40491015,-0.03099026,0.45087612,0.8920484,,0.8193433442908493,-0.08604668968460949,0.15336666248000003,0.637038048305985,0.1186004817964023,0.30416851620138563,0.8702971843634397,,-0.6228847427034521,-0.6843808645809019,0.12752512133000002,1.4495865793085168,0.22722649910992745,0.7894661109903209,0.8673569911730228,,-0.06956664232292899,-0.10112001353742148,0.09128296528,-0.034016912529394594,,-3.0308962e-05,9.536743e-07,-2.1457672e-06,0.99999994,1.0538846e-05,8.590519e-06,-1.0535121e-05,1.0,9.23872e-07,-8.586794e-06,-9.834766e-07,1.0,NaN,NaN,NaN,NaN,NaN
1.423833095000191,10:21:01.805783,10:20:43.705684,0,,0.027893225,0.049323127,0.075387105,-0.8675132,-0.3689909,-0.33356628,-0.4907712,0.74417305,0.45315567,0.08102071,0.5568234,-0.82667005,,0.13994697,-0.044406362,0.07296616,-0.7434923,-0.61667323,0.25871477,-0.44402573,0.7445009,0.4985572,-0.50006026,0.2557973,-0.82734966,,0.08957677,1.3473417,0.48306936,0.9960471,0.0026914,-0.08878579,-0.05386767,-0.7764648,-0.627854,-0.07062885,0.63015485,-0.7732506,,-0.072538376,0.27895045,-0.078859836,0.8814006,0.283353,0.37794715,-0.2464045,0.95842284,-0.14391144,-0.4030109,0.033715747,0.9145739,,0.05496202,0.4436425,-0.3729435,0.866659,0.4567335,-0.20074044,-0.49793768,0.7668841,-0.40490347,-0.03098833,0.45086947,0.8920518,,0.8193433442908493,-0.08604668968460949,0.15336666248000003,0.637038048305985,0.1186004817964023,0.30416851620138563,0.8702971843634397,,-0.6228847427034521,-0.6843731418480276,0.12752512133000002,1.4495865793085168,0.22722649910992745,0.7894661109903209,0.8673569911730228,,-0.06956664232292899,-0.10112001353742148,0.09128296528,-0.034016912529394594,,-3.0308962e-05,9.536743e-07,-2.1457672e-06,0.99999994,1.0538846e-05,8.590519e-06,-1.0535121e-05,1.0,9.23872e-07,-8.586794e-06,-9.834766e-07,1.0,NaN,NaN,NaN,NaN,NaN
1.4422146599999905,10:21:01.824725,10:20:43.705684,0,,0.027892763,0.049322084,0.075387076,-0.8675117,-0.36899126,-0.33356988,-0.490773,0.74417573,0.4531493,0.081026495,0.55681944,-0.8266721,,0.1399471,-0.044407226,0.07296646,-0.7434924,-0.61667174,0.25871798,-0.44402704,0.74450445,0.49855083,-0.50005877,0.2557908,-0.8273526,,0.08957677,1.3473417,0.48306936,0.9960471,0.0026914,-0.08878579,-0.05386767,-0.7764648,-0.627854,-0.07062885,0.63015485,-0.7732506,,-0.07253786,0.27894968,-0.07886049,0.8813987,0.28335354,0.37795123,-0.24640234,0.9584225,-0.1439173,-0.40301645,0.033720456,0.9145713,,0.05496196,0.44364223,-0.37294438,0.8666591,0.45673248,-0.20074223,-0.49793735,0.7668808,-0.40491015,-0.03099026,0.45087612,0.8920484,,0.8193433442908493,-0.08605441241748371,0.15336666248000003,0.637038048305985,0.1186004817964023,0.30416851620138563,0.8702971843634397,,-0.6228847427034521,-0.6843808645809019,0.12752512133000002,1.4495865793085168,0.22722649910992745,0.7894661109903209,0.8673569911730228,,-0.06956664232292899,-0.10112001353742148,0.09128296528,-0.034016912529394594,,-3.0308962e-05,9.536743e-07,-2.1457672e-06,0.99999994,1.0538846e-05,8.590519e-06,-1.0535121e-05,1.0,9.23872e-07,-8.586794e-06,-9.834766e-07,1.0,NaN,NaN,NaN,NaN,NaN
1.4611255350000647,10:21:01.848161,10:20:43.705684,0,,0.027892763,0.049322084,0.075387076,-0.8675117,-0.36899126,-0.33356988,-0.490773,0.74417573,0.4531493,0.081026495,0.55681944,-0.8266721,,0.1399471,-0.044407226,0.07296646,-0.7434924,-0.61667174,0.25871798,-0.44402704,0.74450445,0.49855083,-0.50005877,0.2557908,-0.8273526,,0.08957677,1.3473417,0.48306936,0.9960471,0.0026914,-0.08878579,-0.05386767,-0.7764648,-0.627854,-0.07062885,0.63015485,-0.7732506,,-0.07253786,0.27894968,-0.07886049,0.8813987,0.28335354,0.37795123,-0.24640234,0.9584225,-0.1439173,-0.40301645,0.033720456,0.9145713,,0.05496196,0.44364223,-0.37294438,0.8666591,0.45673248,-0.20074223,-0.49793735,0.7668808,-0.40491015,-0.03099026,0.45087612,0.8920484,,0.8193433442908493,-0.08605441241748371,0.15336666248000003,0.637038048305985,0.1186004817964023,0.30416851620138563,0.8702971843634397,,-0.6228847427034521,-0.6843808645809019,0.12752512133000002,1.4495865793085168,0.22722649910992745,0.7894661109903209,0.8673569911730228,,-0.06956664232292899,-0.10112001353742148,0.09128296528,-0.034016912529394594,,-3.0308962e-05,9.536743e-07,-2.1457672e-06,0.99999994,1.0538846e-05,8.590519e-06,-1.0535121e-05,1.0,9.23872e-07,-8.586794e-06,-9.834766e-07,1.0,NaN,NaN,NaN,NaN,NaN
1.4845837760003633,10:21:01.867967,10:20:43.705684,0,,0.027893731,0.049321666,0.0753867,-0.86751264,-0.36899456,-0.3335638,-0.49077207,0.7441778,0.45314682,0.08102211,0.55681443,-0.8266759,,0.1399471,-0.044407226,0.07296646,-0.7434924,-0.61667174,0.25871798,-0.44402704,0.74450445,0.49855083,-0.50005877,0.2557908,-0.8273526,,0.08957677,1.3473417,0.48306936,0.9960471,0.0026914,-0.08878579,-0.05386767,-0.7764648,-0.627854,-0.07062885,0.63015485,-0.7732506,,-0.07253878,0.27894902,-0.07886044,0.8813999,0.28335717,0.37794563,-0.24640433,0.95842123,-0.1439222,-0.4030125,0.033725567,0.91457283,,0.05496196,0.44364223,-0.37294438,0.8666591,0.45673248,-0.20074223,-0.49793735,0.7668808,-0.40491015,-0.03099026,0.45087612,0.8920484,,0.8193356215579751,-0.08605441241748371,0.15336666248000003,0.637038048305985,0.1186004817964023,0.30416851620138563,0.8702971843634397,,-0.6228847427034521,-0.6843808645809019,0.12752512133000002,1.4495865793085168,0.22722649910992745,0.7894661109903209,0.8673569911730228,,-0.06956664232292899,-0.10112001353742148,0.09128296528,-0.034016912529394594,,-3.0308962e-05,9.536743e-07,-2.1457672e-06,0.99999994,1.0538846e-05,8.590519e-06,-1.0535121e-05,1.0,9.23872e-07,-8.586794e-06,-9.834766e-07,1.0,NaN,NaN,NaN,NaN,NaN
