AlexandreBanks6/ExpertPlaybackApp/resources/Motions/PC1/Data_PC1_4.csv
Task Time,PC1 Time,PC2 Time,Gaze Calib,s_T_psm1,Tx,Ty,Tz,R00,R01,R02,R10,R11,R12,R20,R21,R22,s_T_psm3,Tx,Ty,Tz,R00,R01,R02,R10,R11,R12,R20,R21,R22,cart_T_ecm,Tx,Ty,Tz,R00,R01,R02,R10,R11,R12,R20,R21,R22,ecm_T_psm1,Tx,Ty,Tz,R00,R01,R02,R10,R11,R12,R20,R21,R22,ecm_T_psm3,Tx,Ty,Tz,R00,R01,R02,R10,R11,R12,R20,R21,R22,psm1_joints,q1,q2,q3,q4,q5,q6,jaw,psm3_joints,q1,q2,q3,q4,q5,q6,jaw,ecm_joints,q1,q2,q3,q4,ecmi_T_ecm,Tx,Ty,Tz,R00,R01,R02,R10,R11,R12,R20,R21,R22
""
lci_T_si,,,,,-0.078313835,0.004632165,0.33913392,0.9952971,-0.046535395,0.08495999,-0.009692032,-0.92049146,-0.3906425,0.096383646,0.3879819,-0.91661346
rci_T_si,,,,,-0.08938656,0.00993351,0.35041684,0.99110633,-0.060265772,0.11864345,-0.0065818597,-0.91268086,-0.40862006,0.1329094,0.40420502,-0.90496045
ecm_T_lc,,,,,-4.4071905e-05,-0.000346569,-0.018408367,-0.99912006,0.03075457,0.028518898,-0.03198801,-0.99852574,-0.04385276,0.027128182,-0.044726435,0.9986309
ecm_T_rc,,,,,0.00057554984,0.029174112,-0.0048684436,-0.9955508,-0.052743625,-0.07808159,0.04863208,-0.9973746,0.053654663,-0.080706544,0.04961867,0.9955021
cart_T_ecmi,,,,,0.20684277,1.3429976,0.5593735,0.99420035,-0.047303233,-0.096581995,-0.0800619,-0.92516553,-0.371024,-0.0718037,0.37660474,-0.9235871
ecmac_T_ecmrep_psm1,,,,,0.023358302,-0.14379282,-0.3755157,0.9999625,0.00411225,0.007622192,-0.0040185633,0.9999167,-0.01226611,-0.007671999,0.012235019,0.9998957
ecmac_T_ecmrep_psm3,,,,,-0.013221607,-0.27445275,-0.65629,0.99739635,-0.07101346,0.012556174,0.0696691,0.9938116,0.08651434,-0.018622153,-0.085414305,0.9961715
""
0,09:40:24.275354,09:40:17.391682,0,,0.13852254,-0.0097487345,0.029299803,0.5864904,-0.7462989,0.31474894,0.47238943,-0.0004886389,-0.8813898,0.65793407,0.66561073,0.3522572,,0.008542284,-0.014675744,0.11181411,0.5251435,-0.2845373,0.8020367,-0.8007778,-0.48422876,0.3525301,0.2880613,-0.82738197,-0.48214066,,0.20685576,1.3429925,0.5593748,0.99420136,-0.047291636,-0.09657735,-0.08004943,-0.92516613,-0.37102523,-0.0718037,0.37660474,-0.9235871,,-0.09436491,0.14615595,-0.06352804,-0.643582,0.66500884,-0.37890032,0.69140166,0.29280713,-0.6604754,-0.32827723,-0.68704236,-0.6482336,,0.04707434,0.3039336,-0.42907554,-0.5297565,0.4158015,-0.73923415,-0.601468,-0.7986892,-0.018214218,-0.5979919,0.4349766,0.6732021,,0.3708224644216383,-0.41120463462095824,0.18634039121,3.6186193547124366,-0.7426193762251688,1.7027468228982228,0.16383409833268203,,-0.8533079234716887,-0.6702868770854421,0.09926081417,-0.5145791213110228,0.3705581873638745,-0.5382169138309197,1.396265077315819,,-0.12960378692996893,-0.40630610487958496,0.08492501888,0.05233371158368399,,1.3228506e-05,4.529953e-06,-5.9604645e-07,1.0,1.158379e-05,4.7162175e-06,-1.1572614e-05,1.0,9.23872e-07,-4.7162175e-06,-8.6426735e-07,1.0
0.011913392052520066,09:40:24.324052,09:40:17.480908,0,,0.13852254,-0.0097487345,0.029299803,0.5864904,-0.7462989,0.31474894,0.47238943,-0.0004886389,-0.8813898,0.65793407,0.66561073,0.3522572,,0.008542284,-0.014675744,0.11181411,0.5251435,-0.2845373,0.8020367,-0.8007778,-0.48422876,0.3525301,0.2880613,-0.82738197,-0.48214066,,0.20685576,1.3429925,0.5593748,0.99420136,-0.047291636,-0.09657735,-0.08004943,-0.92516613,-0.37102523,-0.0718037,0.37660474,-0.9235871,,-0.09436491,0.14615595,-0.06352804,-0.643582,0.66500884,-0.37890032,0.69140166,0.29280713,-0.6604754,-0.32827723,-0.68704236,-0.6482336,,0.04707434,0.3039336,-0.42907554,-0.5297565,0.4158015,-0.73923415,-0.601468,-0.7986892,-0.018214218,-0.5979919,0.4349766,0.6732021,,0.37081474168876405,-0.411196911888084,0.18634039121,3.6211356340342506,-0.742346103225638,1.7033407744922355,0.16514085086175623,,-0.8533002007388145,-0.6702868770854421,0.09926081417,-0.5145791213110228,0.3705581873638745,-0.5382169138309197,1.396265077315819,,-0.12960378692996893,-0.40630610487958496,0.08492501888,0.05233371158368399,,1.3228506e-05,4.529953e-06,-5.9604645e-07,1.0,1.158379e-05,4.7162175e-06,-1.1572614e-05,1.0,9.23872e-07,-4.7162175e-06,-8.6426735e-07,1.0
0.060573465016204864,09:40:24.357893,09:40:17.480908,0,,0.13852254,-0.0097487345,0.029299803,0.5864904,-0.7462989,0.31474894,0.47238943,-0.0004886389,-0.8813898,0.65793407,0.66561073,0.3522572,,0.008542284,-0.014675744,0.11181411,0.5251435,-0.2845373,0.8020367,-0.8007778,-0.48422876,0.3525301,0.2880613,-0.82738197,-0.48214066,,0.20685576,1.3429925,0.5593748,0.99420136,-0.047291636,-0.09657735,-0.08004943,-0.92516613,-0.37102523,-0.0718037,0.37660474,-0.9235871,,-0.09436491,0.14615595,-0.06352804,-0.643582,0.66500884,-0.37890032,0.69140166,0.29280713,-0.6604754,-0.32827723,-0.68704236,-0.6482336,,0.04707434,0.3039336,-0.42907554,-0.5297565,0.4158015,-0.73923415,-0.601468,-0.7986892,-0.018214218,-0.5979919,0.4349766,0.6732021,,0.37081474168876405,-0.4111891891552098,0.18634039121,3.620716254147282,-0.741116374727749,1.7034815157209358,0.16383409833268203,,-0.8533079234716887,-0.6702868770854421,0.09926081417,-0.5145791213110228,0.3705581873638745,-0.5382169138309197,1.396265077315819,,-0.12960378692996893,-0.40630610487958496,0.08492501888,0.05233371158368399,,1.3228506e-05,4.529953e-06,-5.9604645e-07,1.0,1.158379e-05,4.7162175e-06,-1.1572614e-05,1.0,9.23872e-07,-4.7162175e-06,-8.6426735e-07,1.0
0.09441132500069216,09:40:24.377704,09:40:17.480908,0,,0.13852254,-0.0097487345,0.029299803,0.5864904,-0.7462989,0.31474894,0.47238943,-0.0004886389,-0.8813898,0.65793407,0.66561073,0.3522572,,0.008542284,-0.014675744,0.11181411,0.5251435,-0.2845373,0.8020367,-0.8007778,-0.48422876,0.3525301,0.2880613,-0.82738197,-0.48214066,,0.20685576,1.3429925,0.5593748,0.99420136,-0.047291636,-0.09657735,-0.08004943,-0.92516613,-0.37102523,-0.0718037,0.37660474,-0.9235871,,-0.09436491,0.14615595,-0.06352804,-0.643582,0.66500884,-0.37890032,0.69140166,0.29280713,-0.6604754,-0.32827723,-0.68704236,-0.6482336,,0.04707434,0.3039336,-0.42907554,-0.5297565,0.4158015,-0.73923415,-0.601468,-0.7986892,-0.018214218,-0.5979919,0.4349766,0.6732021,,0.37081474168876405,-0.4111891891552098,0.18634039121,3.620716254147282,-0.741116374727749,1.7042166243822008,0.1653041949278904,,-0.8533002007388145,-0.6702868770854421,0.09926081417,-0.5145791213110228,0.3705581873638745,-0.5382169138309197,1.396265077315819,,-0.12960378692996893,-0.40630610487958496,0.08492501888,0.05233371158368399,,1.3228506e-05,4.529953e-06,-5.9604645e-07,1.0,1.158379e-05,4.7162175e-06,-1.1572614e-05,1.0,9.23872e-07,-4.7162175e-06,-8.6426735e-07,1.0
0.11424710502615198,09:40:24.397981,09:40:17.480908,0,,0.13852254,-0.0097487345,0.029299803,0.5864904,-0.7462989,0.31474894,0.47238943,-0.0004886389,-0.8813898,0.65793407,0.66561073,0.3522572,,0.008542284,-0.014675744,0.11181411,0.5251435,-0.2845373,0.8020367,-0.8007778,-0.48422876,0.3525301,0.2880613,-0.82738197,-0.48214066,,0.20685576,1.3429925,0.5593748,0.99420136,-0.047291636,-0.09657735,-0.08004943,-0.92516613,-0.37102523,-0.0718037,0.37660474,-0.9235871,,-0.09436491,0.14615595,-0.06352804,-0.643582,0.66500884,-0.37890032,0.69140166,0.29280713,-0.6604754,-0.32827723,-0.68704236,-0.6482336,,0.04707434,0.3039336,-0.42907554,-0.5297565,0.4158015,-0.73923415,-0.601468,-0.7986892,-0.018214218,-0.5979919,0.4349766,0.6732021,,0.3708224644216383,-0.4111891891552098,0.18634039121,3.620716254147282,-0.741116374727749,1.7047883755631847,0.16448747459721935,,-0.8533002007388145,-0.6702868770854421,0.09926081417,-0.5145791213110228,0.3705581873638745,-0.5382169138309197,1.396265077315819,,-0.12960378692996893,-0.40630610487958496,0.08492501888,0.05233371158368399,,1.3228506e-05,4.529953e-06,-5.9604645e-07,1.0,1.158379e-05,4.7162175e-06,-1.1572614e-05,1.0,9.23872e-07,-4.7162175e-06,-8.6426735e-07,1.0
0.13452638301532716,09:40:24.418557,09:40:17.480908,0,,0.13852254,-0.0097487345,0.029299803,0.5864904,-0.7462989,0.31474894,0.47238943,-0.0004886389,-0.8813898,0.65793407,0.66561073,0.3522572,,0.008542284,-0.014675744,0.11181411,0.5251435,-0.2845373,0.8020367,-0.8007778,-0.48422876,0.3525301,0.2880613,-0.82738197,-0.48214066,,0.20685576,1.3429925,0.5593748,0.99420136,-0.047291636,-0.09657735,-0.08004943,-0.92516613,-0.37102523,-0.0718037,0.37660474,-0.9235871,,-0.09436491,0.14615595,-0.06352804,-0.643582,0.66500884,-0.37890032,0.69140166,0.29280713,-0.6604754,-0.32827723,-0.68704236,-0.6482336,,0.04707434,0.3039336,-0.42907554,-0.5297565,0.4158015,-0.73923415,-0.601468,-0.7986892,-0.018214218,-0.5979919,0.4349766,0.6732021,,0.3708224644216383,-0.4111891891552098,0.18634039121,3.620716254147282,-0.7409797382279836,1.7047586363996288,0.16432413053108497,,-0.8533079234716887,-0.6702868770854421,0.09926081417,-0.5145791213110228,0.3705581873638745,-0.5382169138309197,1.396265077315819,,-0.12960378692996893,-0.40630610487958496,0.08492501888,0.05233371158368399,,1.3228506e-05,4.529953e-06,-5.9604645e-07,1.0,1.158379e-05,4.7162175e-06,-1.1572614e-05,1.0,9.23872e-07,-4.7162175e-06,-8.6426735e-07,1.0
0.15508574503473938,09:40:24.440525,09:40:17.480908,0,,0.13852254,-0.0097487345,0.029299803,0.5864904,-0.7462989,0.31474894,0.47238943,-0.0004886389,-0.8813898,0.65793407,0.66561073,0.3522572,,0.008542284,-0.014675744,0.11181411,0.5251435,-0.2845373,0.8020367,-0.8007778,-0.48422876,0.3525301,0.2880613,-0.82738197,-0.48214066,,0.20685576,1.3429925,0.5593748,0.99420136,-0.047291636,-0.09657735,-0.08004943,-0.92516613,-0.37102523,-0.0718037,0.37660474,-0.9235871,,-0.09436491,0.14615595,-0.06352804,-0.643582,0.66500884,-0.37890032,0.69140166,0.29280713,-0.6604754,-0.32827723,-0.68704236,-0.6482336,,0.04707434,0.3039336,-0.42907554,-0.5297565,0.4158015,-0.73923415,-0.601468,-0.7986892,-0.018214218,-0.5979919,0.4349766,0.6732021,,0.3708224644216383,-0.4111891891552098,0.18634039121,3.620716254147282,-0.7409797382279836,1.7047586363996288,0.16432413053108497,,-0.8533079234716887,-0.6702868770854421,0.09926081417,-0.5145791213110228,0.3705581873638745,-0.5382169138309197,1.396265077315819,,-0.12960378692996893,-0.40630610487958496,0.08492501888,0.05233371158368399,,1.3228506e-05,4.529953e-06,-5.9604645e-07,1.0,1.158379e-05,4.7162175e-06,-1.1572614e-05,1.0,9.23872e-07,-4.7162175e-06,-8.6426735e-07,1.0
0.1770587920327671,09:40:24.456744,09:40:17.480908,0,,0.13852254,-0.0097487345,0.029299803,0.5864904,-0.7462989,0.31474894,0.47238943,-0.0004886389,-0.8813898,0.65793407,0.66561073,0.3522572,,0.008542284,-0.014675744,0.11181411,0.5251435,-0.2845373,0.8020367,-0.8007778,-0.48422876,0.3525301,0.2880613,-0.82738197,-0.48214066,,0.20685576,1.3429925,0.5593748,0.99420136,-0.047291636,-0.09657735,-0.08004943,-0.92516613,-0.37102523,-0.0718037,0.37660474,-0.9235871,,-0.09436491,0.14615595,-0.06352804,-0.643582,0.66500884,-0.37890032,0.69140166,0.29280713,-0.6604754,-0.32827723,-0.68704236,-0.6482336,,0.04707434,0.3039336,-0.42907554,-0.5297565,0.4158015,-0.73923415,-0.601468,-0.7986892,-0.018214218,-0.5979919,0.4349766,0.6732021,,0.37081474168876405,-0.4111891891552098,0.18634039121,3.620716254147282,-0.7409797382279836,1.7047586363996288,0.16432413053108497,,-0.8533002007388145,-0.6702868770854421,0.09926081417,-0.5145791213110228,0.3705581873638745,-0.5382169138309197,1.396265077315819,,-0.12960378692996893,-0.40630610487958496,0.08492501888,0.05233371158368399,,1.3228506e-05,4.529953e-06,-5.9604645e-07,1.0,1.158379e-05,4.7162175e-06,-1.1572614e-05,1.0,9.23872e-07,-4.7162175e-06,-8.6426735e-07,1.0
0.19330335402628407,09:40:24.472141,09:40:17.480908,0,,0.13852254,-0.0097487345,0.029299803,0.5864904,-0.7462989,0.31474894,0.47238943,-0.0004886389,-0.8813898,0.65793407,0.66561073,0.3522572,,0.008542284,-0.014675744,0.11181411,0.5251435,-0.2845373,0.8020367,-0.8007778,-0.48422876,0.3525301,0.2880613,-0.82738197,-0.48214066,,0.20685576,1.3429925,0.5593748,0.99420136,-0.047291636,-0.09657735,-0.08004943,-0.92516613,-0.37102523,-0.0718037,0.37660474,-0.9235871,,-0.09436491,0.14615595,-0.06352804,-0.643582,0.66500884,-0.37890032,0.69140166,0.29280713,-0.6604754,-0.32827723,-0.68704236,-0.6482336,,0.04707434,0.3039336,-0.42907554,-0.5297565,0.4158015,-0.73923415,-0.601468,-0.7986892,-0.018214218,-0.5979919,0.4349766,0.6732021,,0.37081474168876405,-0.4111891891552098,0.18634039121,3.620716254147282,-0.7409797382279836,1.7047586363996288,0.16432413053108497,,-0.8533002007388145,-0.6702868770854421,0.09926081417,-0.5145791213110228,0.3705581873638745,-0.5382169138309197,1.396265077315819,,-0.12960378692996893,-0.40630610487958496,0.08492501888,0.05233371158368399,,1.3228506e-05,4.529953e-06,-5.9604645e-07,1.0,1.158379e-05,4.7162175e-06,-1.1572614e-05,1.0,9.23872e-07,-4.7162175e-06,-8.6426735e-07,1.0
0.20796914101811126,09:40:24.489102,09:40:17.653966,0,,0.13852254,-0.0097487345,0.029299803,0.5864904,-0.7462989,0.31474894,0.47238943,-0.0004886389,-0.8813898,0.65793407,0.66561073,0.3522572,,0.008542284,-0.014675744,0.11181411,0.5251435,-0.2845373,0.8020367,-0.8007778,-0.48422876,0.3525301,0.2880613,-0.82738197,-0.48214066,,0.20685576,1.3429925,0.5593748,0.99420136,-0.047291636,-0.09657735,-0.08004943,-0.92516613,-0.37102523,-0.0718037,0.37660474,-0.9235871,,-0.09436491,0.14615595,-0.06352804,-0.643582,0.66500884,-0.37890032,0.69140166,0.29280713,-0.6604754,-0.32827723,-0.68704236,-0.6482336,,0.04707434,0.3039336,-0.42907554,-0.5297565,0.4158015,-0.73923415,-0.601468,-0.7986892,-0.018214218,-0.5979919,0.4349766,0.6732021,,0.37081474168876405,-0.4111891891552098,0.18634039121,3.620716254147282,-0.7409797382279836,1.7047586363996288,0.16432413053108497,,-0.8533079234716887,-0.6702945998183163,0.09926081417,-0.5145791213110228,0.3705581873638745,-0.5382169138309197,1.396265077315819,,-0.12960378692996893,-0.40630610487958496,0.08492501888,0.05233371158368399,,1.3228506e-05,4.529953e-06,-5.9604645e-07,1.0,1.158379e-05,4.7162175e-06,-1.1572614e-05,1.0,9.23872e-07,-4.7162175e-06,-8.6426735e-07,1.0
0.22564752504695207,09:40:24.506816,09:40:17.653966,0,,0.13852254,-0.0097487345,0.029299803,0.5864904,-0.7462989,0.31474894,0.47238943,-0.0004886389,-0.8813898,0.65793407,0.66561073,0.3522572,,0.008542284,-0.014675744,0.11181411,0.5251435,-0.2845373,0.8020367,-0.8007778,-0.48422876,0.3525301,0.2880613,-0.82738197,-0.48214066,,0.20685576,1.3429925,0.5593748,0.99420136,-0.047291636,-0.09657735,-0.08004943,-0.92516613,-0.37102523,-0.0718037,0.37660474,-0.9235871,,-0.09436491,0.14615595,-0.06352804,-0.643582,0.66500884,-0.37890032,0.69140166,0.29280713,-0.6604754,-0.32827723,-0.68704236,-0.6482336,,0.04707434,0.3039336,-0.42907554,-0.5297565,0.4158015,-0.73923415,-0.601468,-0.7986892,-0.018214218,-0.5979919,0.4349766,0.6732021,,0.3708224644216383,-0.4111891891552098,0.18634039121,3.620716254147282,-0.7409797382279836,1.7047586363996288,0.16432413053108497,,-0.8533079234716887,-0.6702868770854421,0.09926081417,-0.5145791213110228,0.3705581873638745,-0.5382169138309197,1.396265077315819,,-0.12960378692996893,-0.40630610487958496,0.08492501888,0.05233371158368399,,1.3228506e-05,4.529953e-06,-5.9604645e-07,1.0,1.158379e-05,4.7162175e-06,-1.1572614e-05,1.0,9.23872e-07,-4.7162175e-06,-8.6426735e-07,1.0
0.24335045099724084,09:40:24.525371,09:40:17.653966,0,,0.13852254,-0.0097487345,0.029299803,0.5864904,-0.7462989,0.31474894,0.47238943,-0.0004886389,-0.8813898,0.65793407,0.66561073,0.3522572,,0.008542284,-0.014675744,0.11181411,0.5251435,-0.2845373,0.8020367,-0.8007778,-0.48422876,0.3525301,0.2880613,-0.82738197,-0.48214066,,0.20685576,1.3429925,0.5593748,0.99420136,-0.047291636,-0.09657735,-0.08004943,-0.92516613,-0.37102523,-0.0718037,0.37660474,-0.9235871,,-0.09436491,0.14615595,-0.06352804,-0.643582,0.66500884,-0.37890032,0.69140166,0.29280713,-0.6604754,-0.32827723,-0.68704236,-0.6482336,,0.04707434,0.3039336,-0.42907554,-0.5297565,0.4158015,-0.73923415,-0.601468,-0.7986892,-0.018214218,-0.5979919,0.4349766,0.6732021,,0.3708224644216383,-0.4111891891552098,0.18634039121,3.620716254147282,-0.7409797382279836,1.7046769576594882,0.16448747459721935,,-0.8533079234716887,-0.6702868770854421,0.09926081417,-0.5145791213110228,0.3705581873638745,-0.5382169138309197,1.396265077315819,,-0.12960378692996893,-0.40630610487958496,0.08492501888,0.05233371158368399,,1.3228506e-05,4.529953e-06,-5.9604645e-07,1.0,1.158379e-05,4.7162175e-06,-1.1572614e-05,1.0,9.23872e-07,-4.7162175e-06,-8.6426735e-07,1.0
0.2619305410189554,09:40:24.542998,09:40:17.653966,0,,0.13852254,-0.0097487345,0.029299803,0.5864904,-0.7462989,0.31474894,0.47238943,-0.0004886389,-0.8813898,0.65793407,0.66561073,0.3522572,,0.008542284,-0.014675744,0.11181411,0.5251435,-0.2845373,0.8020367,-0.8007778,-0.48422876,0.3525301,0.2880613,-0.82738197,-0.48214066,,0.20685576,1.3429925,0.5593748,0.99420136,-0.047291636,-0.09657735,-0.08004943,-0.92516613,-0.37102523,-0.0718037,0.37660474,-0.9235871,,-0.09436491,0.14615595,-0.06352804,-0.643582,0.66500884,-0.37890032,0.69140166,0.29280713,-0.6604754,-0.32827723,-0.68704236,-0.6482336,,0.04707434,0.3039336,-0.42907554,-0.5297565,0.4158015,-0.73923415,-0.601468,-0.7986892,-0.018214218,-0.5979919,0.4349766,0.6732021,,0.3708224644216383,-0.4111891891552098,0.18634039121,3.620716254147282,-0.7409797382279836,1.7045952789193475,0.16465081866335352,,-0.8533002007388145,-0.6702868770854421,0.09926081417,-0.5145791213110228,0.3705581873638745,-0.5382169138309197,1.396265077315819,,-0.12960378692996893,-0.40630610487958496,0.08492501888,0.05233371158368399,,1.3228506e-05,4.529953e-06,-5.9604645e-07,1.0,1.158379e-05,4.7162175e-06,-1.1572614e-05,1.0,9.23872e-07,-4.7162175e-06,-8.6426735e-07,1.0
0.2795044520171359,09:40:24.565768,09:40:17.653966,0,,0.13852254,-0.0097487345,0.029299803,0.5864904,-0.7462989,0.31474894,0.47238943,-0.0004886389,-0.8813898,0.65793407,0.66561073,0.3522572,,0.008542284,-0.014675744,0.11181411,0.5251435,-0.2845373,0.8020367,-0.8007778,-0.48422876,0.3525301,0.2880613,-0.82738197,-0.48214066,,0.20685576,1.3429925,0.5593748,0.99420136,-0.047291636,-0.09657735,-0.08004943,-0.92516613,-0.37102523,-0.0718037,0.37660474,-0.9235871,,-0.09436491,0.14615595,-0.06352804,-0.643582,0.66500884,-0.37890032,0.69140166,0.29280713,-0.6604754,-0.32827723,-0.68704236,-0.6482336,,0.04707434,0.3039336,-0.42907554,-0.5297565,0.4158015,-0.73923415,-0.601468,-0.7986892,-0.018214218,-0.5979919,0.4349766,0.6732021,,0.3708224644216383,-0.4111891891552098,0.18634039121,3.620716254147282,-0.7409797382279836,1.7045952789193475,0.16465081866335352,,-0.8533002007388145,-0.6702868770854421,0.09926081417,-0.5145791213110228,0.3705581873638745,-0.5382169138309197,1.396265077315819,,-0.12960378692996893,-0.40630610487958496,0.08492501888,0.05233371158368399,,1.3228506e-05,4.529953e-06,-5.9604645e-07,1.0,1.158379e-05,4.7162175e-06,-1.1572614e-05,1.0,9.23872e-07,-4.7162175e-06,-8.6426735e-07,1.0
0.3022986550349742,09:40:24.586316,09:40:17.653966,0,,0.13852254,-0.0097487345,0.029299803,0.5864904,-0.7462989,0.31474894,0.47238943,-0.0004886389,-0.8813898,0.65793407,0.66561073,0.3522572,,0.008542284,-0.014675744,0.11181411,0.5251435,-0.2845373,0.8020367,-0.8007778,-0.48422876,0.3525301,0.2880613,-0.82738197,-0.48214066,,0.20685576,1.3429925,0.5593748,0.99420136,-0.047291636,-0.09657735,-0.08004943,-0.92516613,-0.37102523,-0.0718037,0.37660474,-0.9235871,,-0.09436491,0.14615595,-0.06352804,-0.643582,0.66500884,-0.37890032,0.69140166,0.29280713,-0.6604754,-0.32827723,-0.68704236,-0.6482336,,0.04707434,0.3039336,-0.42907554,-0.5297565,0.4158015,-0.73923415,-0.601468,-0.7986892,-0.018214218,-0.5979919,0.4349766,0.6732021,,0.3708224644216383,-0.4111891891552098,0.18634039121,3.620716254147282,-0.7409797382279836,1.7045952789193475,0.16465081866335352,,-0.8533079234716887,-0.6702868770854421,0.09926081417,-0.5145791213110228,0.3705581873638745,-0.5382169138309197,1.396265077315819,,-0.12960378692996893,-0.40630610487958496,0.08492501888,0.05233371158368399,,1.3228506e-05,4.529953e-06,-5.9604645e-07,1.0,1.158379e-05,4.7162175e-06,-1.1572614e-05,1.0,9.23872e-07,-4.7162175e-06,-8.6426735e-07,1.0
0.3228703150525689,09:40:24.603170,09:40:17.775753,0,,0.13852254,-0.0097487345,0.029299803,0.5864904,-0.7462989,0.31474894,0.47238943,-0.0004886389,-0.8813898,0.65793407,0.66561073,0.3522572,,0.008542284,-0.014675744,0.11181411,0.5251435,-0.2845373,0.8020367,-0.8007778,-0.48422876,0.3525301,0.2880613,-0.82738197,-0.48214066,,0.20685576,1.3429925,0.5593748,0.99420136,-0.047291636,-0.09657735,-0.08004943,-0.92516613,-0.37102523,-0.0718037,0.37660474,-0.9235871,,-0.09436491,0.14615595,-0.06352804,-0.643582,0.66500884,-0.37890032,0.69140166,0.29280713,-0.6604754,-0.32827723,-0.68704236,-0.6482336,,0.04707434,0.3039336,-0.42907554,-0.5297565,0.4158015,-0.73923415,-0.601468,-0.7986892,-0.018214218,-0.5979919,0.4349766,0.6732021,,0.3708224644216383,-0.4111891891552098,0.18634039121,3.620716254147282,-0.7409797382279836,1.7045952789193475,0.16465081866335352,,-0.8533079234716887,-0.6702868770854421,0.09926081417,-0.5145791213110228,0.3705581873638745,-0.5382169138309197,1.396265077315819,,-0.12960378692996893,-0.40630610487958496,0.08492501888,0.05233371158368399,,1.3228506e-05,4.529953e-06,-5.9604645e-07,1.0,1.158379e-05,4.7162175e-06,-1.1572614e-05,1.0,9.23872e-07,-4.7162175e-06,-8.6426735e-07,1.0
0.33972952305339277,09:40:24.618610,09:40:17.775753,0,,0.13852254,-0.0097487345,0.029299803,0.5864904,-0.7462989,0.31474894,0.47238943,-0.0004886389,-0.8813898,0.65793407,0.66561073,0.3522572,,0.008542284,-0.014675744,0.11181411,0.5251435,-0.2845373,0.8020367,-0.8007778,-0.48422876,0.3525301,0.2880613,-0.82738197,-0.48214066,,0.20685576,1.3429925,0.5593748,0.99420136,-0.047291636,-0.09657735,-0.08004943,-0.92516613,-0.37102523,-0.0718037,0.37660474,-0.9235871,,-0.09436491,0.14615595,-0.06352804,-0.643582,0.66500884,-0.37890032,0.69140166,0.29280713,-0.6604754,-0.32827723,-0.68704236,-0.6482336,,0.04707434,0.3039336,-0.42907554,-0.5297565,0.4158015,-0.73923415,-0.601468,-0.7986892,-0.018214218,-0.5979919,0.4349766,0.6732021,,0.37081474168876405,-0.4111891891552098,0.18634039121,3.620716254147282,-0.7409797382279836,1.7045952789193475,0.16465081866335352,,-0.8533079234716887,-0.6702868770854421,0.09926081417,-0.5145791213110228,0.3705581873638745,-0.5382169138309197,1.396265077315819,,-0.12960378692996893,-0.40630610487958496,0.08492501888,0.05233371158368399,,1.3228506e-05,4.529953e-06,-5.9604645e-07,1.0,1.158379e-05,4.7162175e-06,-1.1572614e-05,1.0,9.23872e-07,-4.7162175e-06,-8.6426735e-07,1.0
0.355118093022611,09:40:24.633932,09:40:17.775753,0,,0.13852254,-0.0097487345,0.029299803,0.5864904,-0.7462989,0.31474894,0.47238943,-0.0004886389,-0.8813898,0.65793407,0.66561073,0.3522572,,0.008542284,-0.014675744,0.11181411,0.5251435,-0.2845373,0.8020367,-0.8007778,-0.48422876,0.3525301,0.2880613,-0.82738197,-0.48214066,,0.20685576,1.3429925,0.5593748,0.99420136,-0.047291636,-0.09657735,-0.08004943,-0.92516613,-0.37102523,-0.0718037,0.37660474,-0.9235871,,-0.09436491,0.14615595,-0.06352804,-0.643582,0.66500884,-0.37890032,0.69140166,0.29280713,-0.6604754,-0.32827723,-0.68704236,-0.6482336,,0.04707434,0.3039336,-0.42907554,-0.5297565,0.4158015,-0.73923415,-0.601468,-0.7986892,-0.018214218,-0.5979919,0.4349766,0.6732021,,0.37081474168876405,-0.4111891891552098,0.18634039121,3.620716254147282,-0.7409797382279836,1.7045952789193475,0.16465081866335352,,-0.8533002007388145,-0.6702868770854421,0.09926081417,-0.5145791213110228,0.3705581873638745,-0.5382169138309197,1.396265077315819,,-0.12960378692996893,-0.40630610487958496,0.08492501888,0.05233371158368399,,1.3228506e-05,4.529953e-06,-5.9604645e-07,1.0,1.158379e-05,4.7162175e-06,-1.1572614e-05,1.0,9.23872e-07,-4.7162175e-06,-8.6426735e-07,1.0
0.37043393100611866,09:40:24.657703,09:40:17.775753,0,,0.13852254,-0.0097487345,0.029299803,0.5864904,-0.7462989,0.31474894,0.47238943,-0.0004886389,-0.8813898,0.65793407,0.66561073,0.3522572,,0.008542284,-0.014675744,0.11181411,0.5251435,-0.2845373,0.8020367,-0.8007778,-0.48422876,0.3525301,0.2880613,-0.82738197,-0.48214066,,0.20685576,1.3429925,0.5593748,0.99420136,-0.047291636,-0.09657735,-0.08004943,-0.92516613,-0.37102523,-0.0718037,0.37660474,-0.9235871,,-0.09436491,0.14615595,-0.06352804,-0.643582,0.66500884,-0.37890032,0.69140166,0.29280713,-0.6604754,-0.32827723,-0.68704236,-0.6482336,,0.04707434,0.3039336,-0.42907554,-0.5297565,0.4158015,-0.73923415,-0.601468,-0.7986892,-0.018214218,-0.5979919,0.4349766,0.6732021,,0.37081474168876405,-0.4111891891552098,0.18634039121,3.6205065642037977,-0.7409797382279836,1.7045952789193475,0.16465081866335352,,-0.8533079234716887,-0.6702868770854421,0.09926081417,-0.5145791213110228,0.3705581873638745,-0.5382169138309197,1.396265077315819,,-0.12960378692996893,-0.40630610487958496,0.08492501888,0.05233371158368399,,1.3228506e-05,4.529953e-06,-5.9604645e-07,1.0,1.158379e-05,4.7162175e-06,-1.1572614e-05,1.0,9.23872e-07,-4.7162175e-06,-8.6426735e-07,1.0
0.394219599023927,09:40:24.673540,09:40:17.775753,0,,0.13852254,-0.0097487345,0.029299803,0.5864904,-0.7462989,0.31474894,0.47238943,-0.0004886389,-0.8813898,0.65793407,0.66561073,0.3522572,,0.008542284,-0.014675744,0.11181411,0.5251435,-0.2845373,0.8020367,-0.8007778,-0.48422876,0.3525301,0.2880613,-0.82738197,-0.48214066,,0.20685576,1.3429925,0.5593748,0.99420136,-0.047291636,-0.09657735,-0.08004943,-0.92516613,-0.37102523,-0.0718037,0.37660474,-0.9235871,,-0.09436491,0.14615595,-0.06352804,-0.643582,0.66500884,-0.37890032,0.69140166,0.29280713,-0.6604754,-0.32827723,-0.68704236,-0.6482336,,0.04707434,0.3039336,-0.42907554,-0.5297565,0.4158015,-0.73923415,-0.601468,-0.7986892,-0.018214218,-0.5979919,0.4349766,0.6732021,,0.3708224644216383,-0.4111891891552098,0.18634039121,3.6205065642037977,-0.7409797382279836,1.7045952789193475,0.16465081866335352,,-0.8533079234716887,-0.6702868770854421,0.09926081417,-0.5145791213110228,0.3705581873638745,-0.5382169138309197,1.396265077315819,,-0.12960378692996893,-0.40630610487958496,0.08492501888,0.05233371158368399,,1.3228506e-05,4.529953e-06,-5.9604645e-07,1.0,1.158379e-05,4.7162175e-06,-1.1572614e-05,1.0,9.23872e-07,-4.7162175e-06,-8.6426735e-07,1.0
0.4100957729970105,09:40:24.693472,09:40:17.851984,0,,0.13852254,-0.0097487345,0.029299803,0.5864904,-0.7462989,0.31474894,0.47238943,-0.0004886389,-0.8813898,0.65793407,0.66561073,0.3522572,,0.008542284,-0.014675744,0.11181411,0.5251435,-0.2845373,0.8020367,-0.8007778,-0.48422876,0.3525301,0.2880613,-0.82738197,-0.48214066,,0.20685576,1.3429925,0.5593748,0.99420136,-0.047291636,-0.09657735,-0.08004943,-0.92516613,-0.37102523,-0.0718037,0.37660474,-0.9235871,,-0.09436491,0.14615595,-0.06352804,-0.643582,0.66500884,-0.37890032,0.69140166,0.29280713,-0.6604754,-0.32827723,-0.68704236,-0.6482336,,0.04707434,0.3039336,-0.42907554,-0.5297565,0.4158015,-0.73923415,-0.601468,-0.7986892,-0.018214218,-0.5979919,0.4349766,0.6732021,,0.3708224644216383,-0.4111891891552098,0.18634039121,3.6205065642037977,-0.7409797382279836,1.7045952789193475,0.16465081866335352,,-0.8533079234716887,-0.6702868770854421,0.09926081417,-0.5145791213110228,0.3705581873638745,-0.5382169138309197,1.396265077315819,,-0.12960378692996893,-0.40630610487958496,0.08492501888,0.05233371158368399,,1.3228506e-05,4.529953e-06,-5.9604645e-07,1.0,1.158379e-05,4.7162175e-06,-1.1572614e-05,1.0,9.23872e-07,-4.7162175e-06,-8.6426735e-07,1.0
0.42924392403801903,09:40:24.716162,09:40:17.851984,0,,0.13852254,-0.0097487345,0.029299803,0.5864904,-0.7462989,0.31474894,0.47238943,-0.0004886389,-0.8813898,0.65793407,0.66561073,0.3522572,,0.008542284,-0.014675744,0.11181411,0.5251435,-0.2845373,0.8020367,-0.8007778,-0.48422876,0.3525301,0.2880613,-0.82738197,-0.48214066,,0.20685576,1.3429925,0.5593748,0.99420136,-0.047291636,-0.09657735,-0.08004943,-0.92516613,-0.37102523,-0.0718037,0.37660474,-0.9235871,,-0.09436491,0.14615595,-0.06352804,-0.643582,0.66500884,-0.37890032,0.69140166,0.29280713,-0.6604754,-0.32827723,-0.68704236,-0.6482336,,0.04707434,0.3039336,-0.42907554,-0.5297565,0.4158015,-0.73923415,-0.601468,-0.7986892,-0.018214218,-0.5979919,0.4349766,0.6732021,,0.3708224644216383,-0.4111891891552098,0.18634039121,3.6205065642037977,-0.7409797382279836,1.7045952789193475,0.16465081866335352,,-0.8533079234716887,-0.6702868770854421,0.09926081417,-0.5145791213110228,0.3705581873638745,-0.5382169138309197,1.396265077315819,,-0.12960378692996893,-0.40630610487958496,0.08492501888,0.05233371158368399,,1.3228506e-05,4.529953e-06,-5.9604645e-07,1.0,1.158379e-05,4.7162175e-06,-1.1572614e-05,1.0,9.23872e-07,-4.7162175e-06,-8.6426735e-07,1.0
0.4526008640532382,09:40:24.732690,09:40:17.851984,0,,0.13852254,-0.0097487345,0.029299803,0.5864904,-0.7462989,0.31474894,0.47238943,-0.0004886389,-0.8813898,0.65793407,0.66561073,0.3522572,,0.008542284,-0.014675744,0.11181411,0.5251435,-0.2845373,0.8020367,-0.8007778,-0.48422876,0.3525301,0.2880613,-0.82738197,-0.48214066,,0.20685576,1.3429925,0.5593748,0.99420136,-0.047291636,-0.09657735,-0.08004943,-0.92516613,-0.37102523,-0.0718037,0.37660474,-0.9235871,,-0.09436491,0.14615595,-0.06352804,-0.643582,0.66500884,-0.37890032,0.69140166,0.29280713,-0.6604754,-0.32827723,-0.68704236,-0.6482336,,0.04707434,0.3039336,-0.42907554,-0.5297565,0.4158015,-0.73923415,-0.601468,-0.7986892,-0.018214218,-0.5979919,0.4349766,0.6732021,,0.37081474168876405,-0.4111891891552098,0.18634039121,3.6205065642037977,-0.7409797382279836,1.7045952789193475,0.16465081866335352,,-0.8533079234716887,-0.6702868770854421,0.09926081417,-0.5145791213110228,0.3705581873638745,-0.5382169138309197,1.396265077315819,,-0.12960378692996893,-0.40630610487958496,0.08492501888,0.05233371158368399,,1.3228506e-05,4.529953e-06,-5.9604645e-07,1.0,1.158379e-05,4.7162175e-06,-1.1572614e-05,1.0,9.23872e-07,-4.7162175e-06,-8.6426735e-07,1.0
0.4691608319990337,09:40:24.755795,09:40:17.929384,0,,0.13852254,-0.0097487345,0.029299803,0.5864904,-0.7462989,0.31474894,0.47238943,-0.0004886389,-0.8813898,0.65793407,0.66561073,0.3522572,,0.008542284,-0.014675744,0.11181411,0.5251435,-0.2845373,0.8020367,-0.8007778,-0.48422876,0.3525301,0.2880613,-0.82738197,-0.48214066,,0.20685576,1.3429925,0.5593748,0.99420136,-0.047291636,-0.09657735,-0.08004943,-0.92516613,-0.37102523,-0.0718037,0.37660474,-0.9235871,,-0.09436491,0.14615595,-0.06352804,-0.643582,0.66500884,-0.37890032,0.69140166,0.29280713,-0.6604754,-0.32827723,-0.68704236,-0.6482336,,0.04707434,0.3039336,-0.42907554,-0.5297565,0.4158015,-0.73923415,-0.601468,-0.7986892,-0.018214218,-0.5979919,0.4349766,0.6732021,,0.3708224644216383,-0.4111891891552098,0.18634039121,3.6205065642037977,-0.7409797382279836,1.7045952789193475,0.16465081866335352,,-0.8533002007388145,-0.6702868770854421,0.09926081417,-0.5145791213110228,0.3705581873638745,-0.5382169138309197,1.396265077315819,,-0.12960378692996893,-0.40630610487958496,0.08492501888,0.05233371158368399,,1.3228506e-05,4.529953e-06,-5.9604645e-07,1.0,1.158379e-05,4.7162175e-06,-1.1572614e-05,1.0,9.23872e-07,-4.7162175e-06,-8.6426735e-07,1.0
0.4911757630179636,09:40:24.775565,09:40:17.929384,0,,0.13852254,-0.0097487345,0.029299803,0.5864904,-0.7462989,0.31474894,0.47238943,-0.0004886389,-0.8813898,0.65793407,0.66561073,0.3522572,,0.008542284,-0.014675744,0.11181411,0.5251435,-0.2845373,0.8020367,-0.8007778,-0.48422876,0.3525301,0.2880613,-0.82738197,-0.48214066,,0.20685576,1.3429925,0.5593748,0.99420136,-0.047291636,-0.09657735,-0.08004943,-0.92516613,-0.37102523,-0.0718037,0.37660474,-0.9235871,,-0.09436491,0.14615595,-0.06352804,-0.643582,0.66500884,-0.37890032,0.69140166,0.29280713,-0.6604754,-0.32827723,-0.68704236,-0.6482336,,0.04707434,0.3039336,-0.42907554,-0.5297565,0.4158015,-0.73923415,-0.601468,-0.7986892,-0.018214218,-0.5979919,0.4349766,0.6732021,,0.3708224644216383,-0.4111891891552098,0.18634039121,3.6205065642037977,-0.7409797382279836,1.7045952789193475,0.16465081866335352,,-0.8533002007388145,-0.6702868770854421,0.09926081417,-0.5145791213110228,0.3705581873638745,-0.5382169138309197,1.396265077315819,,-0.12960378692996893,-0.40630610487958496,0.08492501888,0.05233371158368399,,1.3228506e-05,4.529953e-06,-5.9604645e-07,1.0,1.158379e-05,4.7162175e-06,-1.1572614e-05,1.0,9.23872e-07,-4.7162175e-06,-8.6426735e-07,1.0
0.5121146950405091,09:40:24.802495,09:40:17.929384,0,,0.13852254,-0.0097487345,0.029299803,0.5864904,-0.7462989,0.31474894,0.47238943,-0.0004886389,-0.8813898,0.65793407,0.66561073,0.3522572,,0.008542284,-0.014675744,0.11181411,0.5251435,-0.2845373,0.8020367,-0.8007778,-0.48422876,0.3525301,0.2880613,-0.82738197,-0.48214066,,0.20685576,1.3429925,0.5593748,0.99420136,-0.047291636,-0.09657735,-0.08004943,-0.92516613,-0.37102523,-0.0718037,0.37660474,-0.9235871,,-0.09436491,0.14615595,-0.06352804,-0.643582,0.66500884,-0.37890032,0.69140166,0.29280713,-0.6604754,-0.32827723,-0.68704236,-0.6482336,,0.04707434,0.3039336,-0.42907554,-0.5297565,0.4158015,-0.73923415,-0.601468,-0.7986892,-0.018214218,-0.5979919,0.4349766,0.6732021,,0.3708224644216383,-0.4111891891552098,0.18634039121,3.6205065642037977,-0.7409797382279836,1.7045952789193475,0.16465081866335352,,-0.8533079234716887,-0.6702868770854421,0.09926081417,-0.5145791213110228,0.3705581873638745,-0.5382169138309197,1.396265077315819,,-0.12960378692996893,-0.40630610487958496,0.08492501888,0.05233371158368399,,1.3228506e-05,4.529953e-06,-5.9604645e-07,1.0,1.158379e-05,4.7162175e-06,-1.1572614e-05,1.0,9.23872e-07,-4.7162175e-06,-8.6426735e-07,1.0
0.5389975330326706,09:40:24.828736,09:40:17.929384,0,,0.13852254,-0.0097487345,0.029299803,0.5864904,-0.7462989,0.31474894,0.47238943,-0.0004886389,-0.8813898,0.65793407,0.66561073,0.3522572,,0.008542284,-0.014675744,0.11181411,0.5251435,-0.2845373,0.8020367,-0.8007778,-0.48422876,0.3525301,0.2880613,-0.82738197,-0.48214066,,0.20685576,1.3429925,0.5593748,0.99420136,-0.047291636,-0.09657735,-0.08004943,-0.92516613,-0.37102523,-0.0718037,0.37660474,-0.9235871,,-0.09436491,0.14615595,-0.06352804,-0.643582,0.66500884,-0.37890032,0.69140166,0.29280713,-0.6604754,-0.32827723,-0.68704236,-0.6482336,,0.04707434,0.3039336,-0.42907554,-0.5297565,0.4158015,-0.73923415,-0.601468,-0.7986892,-0.018214218,-0.5979919,0.4349766,0.6732021,,0.37081474168876405,-0.4111891891552098,0.18634039121,3.6205065642037977,-0.7409797382279836,1.7044319214390664,0.16432413053108497,,-0.8533002007388145,-0.6702868770854421,0.09926081417,-0.5145791213110228,0.3705581873638745,-0.5382169138309197,1.396265077315819,,-0.12960378692996893,-0.40630610487958496,0.08492501888,0.05233371158368399,,1.3228506e-05,4.529953e-06,-5.9604645e-07,1.0,1.158379e-05,4.7162175e-06,-1.1572614e-05,1.0,9.23872e-07,-4.7162175e-06,-8.6426735e-07,1.0
0.5652663300279528,09:40:24.855340,09:40:18.007242,0,,0.13852254,-0.0097487345,0.029299803,0.5864904,-0.7462989,0.31474894,0.47238943,-0.0004886389,-0.8813898,0.65793407,0.66561073,0.3522572,,0.008542284,-0.014675744,0.11181411,0.5251435,-0.2845373,0.8020367,-0.8007778,-0.48422876,0.3525301,0.2880613,-0.82738197,-0.48214066,,0.20685576,1.3429925,0.5593748,0.99420136,-0.047291636,-0.09657735,-0.08004943,-0.92516613,-0.37102523,-0.0718037,0.37660474,-0.9235871,,-0.09436491,0.14615595,-0.06352804,-0.643582,0.66500884,-0.37890032,0.69140166,0.29280713,-0.6604754,-0.32827723,-0.68704236,-0.6482336,,0.04707434,0.3039336,-0.42907554,-0.5297565,0.4158015,-0.73923415,-0.601468,-0.7986892,-0.018214218,-0.5979919,0.4349766,0.6732021,,0.3708224644216383,-0.4111891891552098,0.18634039121,3.6205065642037977,-0.7409797382279836,1.7044319214390664,0.16432413053108497,,-0.8533002007388145,-0.6702868770854421,0.09926081417,-0.5145791213110228,0.3705581873638745,-0.5382169138309197,1.396265077315819,,-0.12960378692996893,-0.40630610487958496,0.08492501888,0.05233371158368399,,1.3228506e-05,4.529953e-06,-5.9604645e-07,1.0,1.158379e-05,4.7162175e-06,-1.1572614e-05,1.0,9.23872e-07,-4.7162175e-06,-8.6426735e-07,1.0
0.5918955950182863,09:40:24.890192,09:40:18.007242,0,,0.13852254,-0.0097487345,0.029299803,0.5864904,-0.7462989,0.31474894,0.47238943,-0.0004886389,-0.8813898,0.65793407,0.66561073,0.3522572,,0.008542284,-0.014675744,0.11181411,0.5251435,-0.2845373,0.8020367,-0.8007778,-0.48422876,0.3525301,0.2880613,-0.82738197,-0.48214066,,0.20685576,1.3429925,0.5593748,0.99420136,-0.047291636,-0.09657735,-0.08004943,-0.92516613,-0.37102523,-0.0718037,0.37660474,-0.9235871,,-0.09436491,0.14615595,-0.06352804,-0.643582,0.66500884,-0.37890032,0.69140166,0.29280713,-0.6604754,-0.32827723,-0.68704236,-0.6482336,,0.04707434,0.3039336,-0.42907554,-0.5297565,0.4158015,-0.73923415,-0.601468,-0.7986892,-0.018214218,-0.5979919,0.4349766,0.6732021,,0.3708224644216383,-0.4111891891552098,0.18634039121,3.6205065642037977,-0.7409797382279836,1.7044319214390664,0.16432413053108497,,-0.8533002007388145,-0.6702868770854421,0.09926081417,-0.5145791213110228,0.3705581873638745,-0.5382169138309197,1.396265077315819,,-0.12960378692996893,-0.40630610487958496,0.08492501888,0.05233371158368399,,1.3228506e-05,4.529953e-06,-5.9604645e-07,1.0,1.158379e-05,4.7162175e-06,-1.1572614e-05,1.0,9.23872e-07,-4.7162175e-06,-8.6426735e-07,1.0
0.6267011890304275,09:40:24.925880,09:40:18.081200,0,,0.13852254,-0.0097487345,0.029299803,0.5864904,-0.7462989,0.31474894,0.47238943,-0.0004886389,-0.8813898,0.65793407,0.66561073,0.3522572,,0.008542284,-0.014675744,0.11181411,0.5251435,-0.2845373,0.8020367,-0.8007778,-0.48422876,0.3525301,0.2880613,-0.82738197,-0.48214066,,0.20685576,1.3429925,0.5593748,0.99420136,-0.047291636,-0.09657735,-0.08004943,-0.92516613,-0.37102523,-0.0718037,0.37660474,-0.9235871,,-0.09436491,0.14615595,-0.06352804,-0.643582,0.66500884,-0.37890032,0.69140166,0.29280713,-0.6604754,-0.32827723,-0.68704236,-0.6482336,,0.04707434,0.3039336,-0.42907554,-0.5297565,0.4158015,-0.73923415,-0.601468,-0.7986892,-0.018214218,-0.5979919,0.4349766,0.6732021,,0.3708224644216383,-0.4111891891552098,0.18634039121,3.620296874260313,-0.7409797382279836,1.7044319214390664,0.16432413053108497,,-0.8533079234716887,-0.6702868770854421,0.09926081417,-0.5145791213110228,0.3705581873638745,-0.5382169138309197,1.396265077315819,,-0.12960378692996893,-0.40630610487958496,0.08492501888,0.05233371158368399,,1.3228506e-05,4.529953e-06,-5.9604645e-07,1.0,1.158379e-05,4.7162175e-06,-1.1572614e-05,1.0,9.23872e-07,-4.7162175e-06,-8.6426735e-07,1.0
0.6623731560539454,09:40:24.958113,09:40:18.081200,0,,0.13852254,-0.0097487345,0.029299803,0.5864904,-0.7462989,0.31474894,0.47238943,-0.0004886389,-0.8813898,0.65793407,0.66561073,0.3522572,,0.008542284,-0.014675744,0.11181411,0.5251435,-0.2845373,0.8020367,-0.8007778,-0.48422876,0.3525301,0.2880613,-0.82738197,-0.48214066,,0.20685576,1.3429925,0.5593748,0.99420136,-0.047291636,-0.09657735,-0.08004943,-0.92516613,-0.37102523,-0.0718037,0.37660474,-0.9235871,,-0.09436491,0.14615595,-0.06352804,-0.643582,0.66500884,-0.37890032,0.69140166,0.29280713,-0.6604754,-0.32827723,-0.68704236,-0.6482336,,0.04707434,0.3039336,-0.42907554,-0.5297565,0.4158015,-0.73923415,-0.601468,-0.7986892,-0.018214218,-0.5979919,0.4349766,0.6732021,,0.37081474168876405,-0.4111891891552098,0.18634039121,3.620296874260313,-0.7409797382279836,1.7044319214390664,0.16432413053108497,,-0.8533002007388145,-0.6702868770854421,0.09926081417,-0.5145791213110228,0.3705581873638745,-0.5382169138309197,1.396265077315819,,-0.12960378692996893,-0.40630610487958496,0.08492501888,0.05233371158368399,,1.3228506e-05,4.529953e-06,-5.9604645e-07,1.0,1.158379e-05,4.7162175e-06,-1.1572614e-05,1.0,9.23872e-07,-4.7162175e-06,-8.6426735e-07,1.0
0.6946378850261681,09:40:24.988274,09:40:18.081200,0,,0.13852254,-0.0097487345,0.029299803,0.5864904,-0.7462989,0.31474894,0.47238943,-0.0004886389,-0.8813898,0.65793407,0.66561073,0.3522572,,0.008542284,-0.014675744,0.11181411,0.5251435,-0.2845373,0.8020367,-0.8007778,-0.48422876,0.3525301,0.2880613,-0.82738197,-0.48214066,,0.20685576,1.3429925,0.5593748,0.99420136,-0.047291636,-0.09657735,-0.08004943,-0.92516613,-0.37102523,-0.0718037,0.37660474,-0.9235871,,-0.09436491,0.14615595,-0.06352804,-0.643582,0.66500884,-0.37890032,0.69140166,0.29280713,-0.6604754,-0.32827723,-0.68704236,-0.6482336,,0.04707434,0.3039336,-0.42907554,-0.5297565,0.4158015,-0.73923415,-0.601468,-0.7986892,-0.018214218,-0.5979919,0.4349766,0.6732021,,0.3708224644216383,-0.4111891891552098,0.18634039121,3.6200871843168283,-0.7409797382279836,1.7044319214390664,0.16432413053108497,,-0.8533079234716887,-0.6702868770854421,0.09926081417,-0.5145791213110228,0.3705581873638745,-0.5382169138309197,1.396265077315819,,-0.12960378692996893,-0.40630610487958496,0.08492501888,0.05233371158368399,,1.3228506e-05,4.529953e-06,-5.9604645e-07,1.0,1.158379e-05,4.7162175e-06,-1.1572614e-05,1.0,9.23872e-07,-4.7162175e-06,-8.6426735e-07,1.0
0.7248321530059911,09:40:25.017032,09:40:18.171180,0,,0.1385103,-0.00974109,0.029294536,0.58649474,-0.7462918,0.31475776,0.4723894,-0.0004962981,-0.88138986,0.65793025,0.6656188,0.35224932,,0.008602083,-0.014658917,0.111816436,0.5251895,-0.28449196,0.8020227,-0.80074424,-0.48424697,0.35258117,0.28807062,-0.8273869,-0.48212674,,0.20682946,1.3429974,0.55937505,0.9942028,-0.047275092,-0.096570715,-0.080031656,-0.92516696,-0.37102696,-0.0718037,0.37660474,-0.9235871,,-0.09432736,0.1461627,-0.06352243,-0.6435951,0.6650004,-0.3788929,0.69138974,0.29281524,-0.6604843,-0.3282767,-0.6870471,-0.6482289,,0.047038633,0.30394763,-0.42906263,-0.52979064,0.41576827,-0.7392284,-0.6014472,-0.79870576,-0.018174887,-0.5979825,0.434978,0.6732095,,0.3708224644216383,-0.4111891891552098,0.18634039121,3.6200871843168283,-0.7409797382279836,1.7044319214390664,0.16432413053108497,,-0.8533002007388145,-0.6702868770854421,0.09926081417,-0.5145791213110228,0.3705581873638745,-0.5382169138309197,1.396265077315819,,-0.12960378692996893,-0.40630610487958496,0.08492501888,0.05233371158368399,,-1.3329089e-05,1.3113022e-06,-1.1920929e-07,1.0,2.8098002e-05,1.1451542e-05,-2.8090551e-05,1.0,2.2053719e-06,-1.1451542e-05,-2.1755695e-06,1.0
0.7535504450206645,09:40:25.057179,09:40:18.171180,0,,0.1385103,-0.00974109,0.029294536,0.58649474,-0.7462918,0.31475776,0.4723894,-0.0004962981,-0.88138986,0.65793025,0.6656188,0.35224932,,0.008602083,-0.014658917,0.111816436,0.5251895,-0.28449196,0.8020227,-0.80074424,-0.48424697,0.35258117,0.28807062,-0.8273869,-0.48212674,,0.20682946,1.3429974,0.55937505,0.9942028,-0.047275092,-0.096570715,-0.080031656,-0.92516696,-0.37102696,-0.0718037,0.37660474,-0.9235871,,-0.09432736,0.1461627,-0.06352243,-0.6435951,0.6650004,-0.3788929,0.69138974,0.29281524,-0.6604843,-0.3282767,-0.6870471,-0.6482289,,0.047038633,0.30394763,-0.42906263,-0.52979064,0.41576827,-0.7392284,-0.6014472,-0.79870576,-0.018174887,-0.5979825,0.434978,0.6732095,,0.37081474168876405,-0.4111891891552098,0.18634039121,3.6200871843168283,-0.7409797382279836,1.7044319214390664,0.16432413053108497,,-0.8533079234716887,-0.6702868770854421,0.09926081417,-0.5145791213110228,0.3705581873638745,-0.5382169138309197,1.396265077315819,,-0.12960378692996893,-0.40630610487958496,0.08492501888,0.05233371158368399,,-1.3329089e-05,1.3113022e-06,-1.1920929e-07,1.0,2.8098002e-05,1.1451542e-05,-2.8090551e-05,1.0,2.2053719e-06,-1.1451542e-05,-2.1755695e-06,1.0
0.7936870190314949,09:40:25.093563,09:40:18.250232,0,,0.1385103,-0.00974109,0.029294536,0.58649474,-0.7462918,0.31475776,0.4723894,-0.0004962981,-0.88138986,0.65793025,0.6656188,0.35224932,,0.008602083,-0.014658917,0.111816436,0.5251895,-0.28449196,0.8020227,-0.80074424,-0.48424697,0.35258117,0.28807062,-0.8273869,-0.48212674,,0.20682946,1.3429974,0.55937505,0.9942028,-0.047275092,-0.096570715,-0.080031656,-0.92516696,-0.37102696,-0.0718037,0.37660474,-0.9235871,,-0.09432736,0.1461627,-0.06352243,-0.6435951,0.6650004,-0.3788929,0.69138974,0.29281524,-0.6604843,-0.3282767,-0.6870471,-0.6482289,,0.047038633,0.30394763,-0.42906263,-0.52979064,0.41576827,-0.7392284,-0.6014472,-0.79870576,-0.018174887,-0.5979825,0.434978,0.6732095,,0.3708224644216383,-0.4111891891552098,0.18634039121,3.6200871843168283,-0.7409797382279836,1.7044319214390664,0.16432413053108497,,-0.8533002007388145,-0.6702868770854421,0.09926081417,-0.5145791213110228,0.3705581873638745,-0.5382169138309197,1.396265077315819,,-0.12960378692996893,-0.40630610487958496,0.08492501888,0.05233371158368399,,-1.3329089e-05,1.3113022e-06,-1.1920929e-07,1.0,2.8098002e-05,1.1451542e-05,-2.8090551e-05,1.0,2.2053719e-06,-1.1451542e-05,-2.1755695e-06,1.0
0.8300862530013546,09:40:25.125671,09:40:18.250232,0,,0.1385103,-0.00974109,0.029294536,0.58649474,-0.7462918,0.31475776,0.4723894,-0.0004962981,-0.88138986,0.65793025,0.6656188,0.35224932,,0.008602083,-0.014658917,0.111816436,0.5251895,-0.28449196,0.8020227,-0.80074424,-0.48424697,0.35258117,0.28807062,-0.8273869,-0.48212674,,0.20682946,1.3429974,0.55937505,0.9942028,-0.047275092,-0.096570715,-0.080031656,-0.92516696,-0.37102696,-0.0718037,0.37660474,-0.9235871,,-0.09432736,0.1461627,-0.06352243,-0.6435951,0.6650004,-0.3788929,0.69138974,0.29281524,-0.6604843,-0.3282767,-0.6870471,-0.6482289,,0.047038633,0.30394763,-0.42906263,-0.52979064,0.41576827,-0.7392284,-0.6014472,-0.79870576,-0.018174887,-0.5979825,0.434978,0.6732095,,0.37081474168876405,-0.4111891891552098,0.18634039121,3.6200871843168283,-0.7409797382279836,1.7044319214390664,0.16432413053108497,,-0.8533002007388145,-0.6702945998183163,0.09926081417,-0.5145791213110228,0.3705581873638745,-0.5382169138309197,1.396265077315819,,-0.12960378692996893,-0.40630610487958496,0.08492501888,0.05233371158368399,,-1.3329089e-05,1.3113022e-06,-1.1920929e-07,1.0,2.8098002e-05,1.1451542e-05,-2.8090551e-05,1.0,2.2053719e-06,-1.1451542e-05,-2.1755695e-06,1.0
0.8622302240110002,09:40:25.156834,09:40:18.250232,0,,0.1385103,-0.00974109,0.029294536,0.58649474,-0.7462918,0.31475776,0.4723894,-0.0004962981,-0.88138986,0.65793025,0.6656188,0.35224932,,0.008602083,-0.014658917,0.111816436,0.5251895,-0.28449196,0.8020227,-0.80074424,-0.48424697,0.35258117,0.28807062,-0.8273869,-0.48212674,,0.20682946,1.3429974,0.55937505,0.9942028,-0.047275092,-0.096570715,-0.080031656,-0.92516696,-0.37102696,-0.0718037,0.37660474,-0.9235871,,-0.09432736,0.1461627,-0.06352243,-0.6435951,0.6650004,-0.3788929,0.69138974,0.29281524,-0.6604843,-0.3282767,-0.6870471,-0.6482289,,0.047038633,0.30394763,-0.42906263,-0.52979064,0.41576827,-0.7392284,-0.6014472,-0.79870576,-0.018174887,-0.5979825,0.434978,0.6732095,,0.3708224644216383,-0.4111891891552098,0.18634039121,3.6200871843168283,-0.7409797382279836,1.7044319214390664,0.16432413053108497,,-0.8533079234716887,-0.6702868770854421,0.09926081417,-0.5145791213110228,0.3705581873638745,-0.5382169138309197,1.396265077315819,,-0.12960378692996893,-0.40630610487958496,0.08492501888,0.05233371158368399,,-1.3329089e-05,1.3113022e-06,-1.1920929e-07,1.0,2.8098002e-05,1.1451542e-05,-2.8090551e-05,1.0,2.2053719e-06,-1.1451542e-05,-2.1755695e-06,1.0
0.893375919025857,09:40:25.190584,09:40:18.250232,0,,0.1385103,-0.00974109,0.029294536,0.58649474,-0.7462918,0.31475776,0.4723894,-0.0004962981,-0.88138986,0.65793025,0.6656188,0.35224932,,0.008602083,-0.014658917,0.111816436,0.5251895,-0.28449196,0.8020227,-0.80074424,-0.48424697,0.35258117,0.28807062,-0.8273869,-0.48212674,,0.20682946,1.3429974,0.55937505,0.9942028,-0.047275092,-0.096570715,-0.080031656,-0.92516696,-0.37102696,-0.0718037,0.37660474,-0.9235871,,-0.09432736,0.1461627,-0.06352243,-0.6435951,0.6650004,-0.3788929,0.69138974,0.29281524,-0.6604843,-0.3282767,-0.6870471,-0.6482289,,0.047038633,0.30394763,-0.42906263,-0.52979064,0.41576827,-0.7392284,-0.6014472,-0.79870576,-0.018174887,-0.5979825,0.434978,0.6732095,,0.37081474168876405,-0.4111891891552098,0.18634039121,3.6200871843168283,-0.7409797382279836,1.7044319214390664,0.16432413053108497,,-0.8533079234716887,-0.6702945998183163,0.09926081417,-0.5145791213110228,0.3705581873638745,-0.5382169138309197,1.396265077315819,,-0.12960378692996893,-0.40630610487958496,0.08492501888,0.05233371158368399,,-1.3329089e-05,1.3113022e-06,-1.1920929e-07,1.0,2.8098002e-05,1.1451542e-05,-2.8090551e-05,1.0,2.2053719e-06,-1.1451542e-05,-2.1755695e-06,1.0
0.9271064270287752,09:40:25.240306,09:40:18.394007,0,,0.1385103,-0.00974109,0.029294536,0.58649474,-0.7462918,0.31475776,0.4723894,-0.0004962981,-0.88138986,0.65793025,0.6656188,0.35224932,,0.008602083,-0.014658917,0.111816436,0.5251895,-0.28449196,0.8020227,-0.80074424,-0.48424697,0.35258117,0.28807062,-0.8273869,-0.48212674,,0.20682946,1.3429974,0.55937505,0.9942028,-0.047275092,-0.096570715,-0.080031656,-0.92516696,-0.37102696,-0.0718037,0.37660474,-0.9235871,,-0.09432736,0.1461627,-0.06352243,-0.6435951,0.6650004,-0.3788929,0.69138974,0.29281524,-0.6604843,-0.3282767,-0.6870471,-0.6482289,,0.047038633,0.30394763,-0.42906263,-0.52979064,0.41576827,-0.7392284,-0.6014472,-0.79870576,-0.018174887,-0.5979825,0.434978,0.6732095,,0.37081474168876405,-0.4111891891552098,0.18634039121,3.6200871843168283,-0.7409797382279836,1.7044319214390664,0.16432413053108497,,-0.8533002007388145,-0.6702868770854421,0.09926081417,-0.5145791213110228,0.3705581873638745,-0.5382169138309197,1.396265077315819,,-0.12960378692996893,-0.40630610487958496,0.08492501888,0.05233371158368399,,-1.3329089e-05,1.3113022e-06,-1.1920929e-07,1.0,2.8098002e-05,1.1451542e-05,-2.8090551e-05,1.0,2.2053719e-06,-1.1451542e-05,-2.1755695e-06,1.0
0.9767951210378669,09:40:25.269625,09:40:18.394007,0,,0.1385103,-0.00974109,0.029294536,0.58649474,-0.7462918,0.31475776,0.4723894,-0.0004962981,-0.88138986,0.65793025,0.6656188,0.35224932,,0.008602083,-0.014658917,0.111816436,0.5251895,-0.28449196,0.8020227,-0.80074424,-0.48424697,0.35258117,0.28807062,-0.8273869,-0.48212674,,0.20682946,1.3429974,0.55937505,0.9942028,-0.047275092,-0.096570715,-0.080031656,-0.92516696,-0.37102696,-0.0718037,0.37660474,-0.9235871,,-0.09432736,0.1461627,-0.06352243,-0.6435951,0.6650004,-0.3788929,0.69138974,0.29281524,-0.6604843,-0.3282767,-0.6870471,-0.6482289,,0.047038633,0.30394763,-0.42906263,-0.52979064,0.41576827,-0.7392284,-0.6014472,-0.79870576,-0.018174887,-0.5979825,0.434978,0.6732095,,0.3708224644216383,-0.4111891891552098,0.18634039121,3.6200871843168283,-0.7409797382279836,1.7044319214390664,0.16432413053108497,,-0.8533079234716887,-0.6702945998183163,0.09926081417,-0.5145791213110228,0.3705581873638745,-0.5382169138309197,1.396265077315819,,-0.12960378692996893,-0.40630610487958496,0.08492501888,0.05233371158368399,,-1.3329089e-05,1.3113022e-06,-1.1920929e-07,1.0,2.8098002e-05,1.1451542e-05,-2.8090551e-05,1.0,2.2053719e-06,-1.1451542e-05,-2.1755695e-06,1.0
1.00614063302055,09:40:25.308477,09:40:18.473574,0,,0.1385103,-0.00974109,0.029294536,0.58649474,-0.7462918,0.31475776,0.4723894,-0.0004962981,-0.88138986,0.65793025,0.6656188,0.35224932,,0.008602083,-0.014658917,0.111816436,0.5251895,-0.28449196,0.8020227,-0.80074424,-0.48424697,0.35258117,0.28807062,-0.8273869,-0.48212674,,0.20682946,1.3429974,0.55937505,0.9942028,-0.047275092,-0.096570715,-0.080031656,-0.92516696,-0.37102696,-0.0718037,0.37660474,-0.9235871,,-0.09432736,0.1461627,-0.06352243,-0.6435951,0.6650004,-0.3788929,0.69138974,0.29281524,-0.6604843,-0.3282767,-0.6870471,-0.6482289,,0.047038633,0.30394763,-0.42906263,-0.52979064,0.41576827,-0.7392284,-0.6014472,-0.79870576,-0.018174887,-0.5979825,0.434978,0.6732095,,0.37081474168876405,-0.4111891891552098,0.18634039121,3.6200871843168283,-0.7409797382279836,1.7044319214390664,0.16432413053108497,,-0.8533002007388145,-0.6702868770854421,0.09926081417,-0.5145791213110228,0.3705581873638745,-0.5382169138309197,1.396265077315819,,-0.12960378692996893,-0.40630610487958496,0.08492501888,0.05233371158368399,,-1.3329089e-05,1.3113022e-06,-1.1920929e-07,1.0,2.8098002e-05,1.1451542e-05,-2.8090551e-05,1.0,2.2053719e-06,-1.1451542e-05,-2.1755695e-06,1.0
1.045006827043835,09:40:25.348973,09:40:18.473574,0,,0.1385103,-0.00974109,0.029294536,0.58649474,-0.7462918,0.31475776,0.4723894,-0.0004962981,-0.88138986,0.65793025,0.6656188,0.35224932,,0.008602083,-0.014658917,0.111816436,0.5251895,-0.28449196,0.8020227,-0.80074424,-0.48424697,0.35258117,0.28807062,-0.8273869,-0.48212674,,0.20682946,1.3429974,0.55937505,0.9942028,-0.047275092,-0.096570715,-0.080031656,-0.92516696,-0.37102696,-0.0718037,0.37660474,-0.9235871,,-0.09432736,0.1461627,-0.06352243,-0.6435951,0.6650004,-0.3788929,0.69138974,0.29281524,-0.6604843,-0.3282767,-0.6870471,-0.6482289,,0.047038633,0.30394763,-0.42906263,-0.52979064,0.41576827,-0.7392284,-0.6014472,-0.79870576,-0.018174887,-0.5979825,0.434978,0.6732095,,0.3708224644216383,-0.4111891891552098,0.18634039121,3.6200871843168283,-0.7409797382279836,1.7044319214390664,0.16432413053108497,,-0.8533079234716887,-0.6702868770854421,0.09926081417,-0.5143694313675382,0.3705581873638745,-0.5382169138309197,1.396265077315819,,-0.12960378692996893,-0.40630610487958496,0.08492501888,0.05233371158368399,,-1.3329089e-05,1.3113022e-06,-1.1920929e-07,1.0,2.8098002e-05,1.1451542e-05,-2.8090551e-05,1.0,2.2053719e-06,-1.1451542e-05,-2.1755695e-06,1.0
1.085515811049845,09:40:25.379675,09:40:18.554227,0,,0.1385103,-0.00974109,0.029294536,0.58649474,-0.7462918,0.31475776,0.4723894,-0.0004962981,-0.88138986,0.65793025,0.6656188,0.35224932,,0.008602083,-0.014658917,0.111816436,0.5251895,-0.28449196,0.8020227,-0.80074424,-0.48424697,0.35258117,0.28807062,-0.8273869,-0.48212674,,0.20682946,1.3429974,0.55937505,0.9942028,-0.047275092,-0.096570715,-0.080031656,-0.92516696,-0.37102696,-0.0718037,0.37660474,-0.9235871,,-0.09432736,0.1461627,-0.06352243,-0.6435951,0.6650004,-0.3788929,0.69138974,0.29281524,-0.6604843,-0.3282767,-0.6870471,-0.6482289,,0.047038633,0.30394763,-0.42906263,-0.52979064,0.41576827,-0.7392284,-0.6014472,-0.79870576,-0.018174887,-0.5979825,0.434978,0.6732095,,0.3708224644216383,-0.4111891891552098,0.18634039121,3.6200871843168283,-0.7409797382279836,1.7044319214390664,0.16432413053108497,,-0.8533002007388145,-0.6702868770854421,0.09926081417,-0.5141597414240537,0.3705581873638745,-0.5382169138309197,1.396265077315819,,-0.12960378692996893,-0.40630610487958496,0.08492501888,0.05233371158368399,,-1.3329089e-05,1.3113022e-06,-1.1920929e-07,1.0,2.8098002e-05,1.1451542e-05,-2.8090551e-05,1.0,2.2053719e-06,-1.1451542e-05,-2.1755695e-06,1.0
1.1162183770211414,09:40:25.412307,09:40:18.554227,0,,0.1385103,-0.00974109,0.029294536,0.58649474,-0.7462918,0.31475776,0.4723894,-0.0004962981,-0.88138986,0.65793025,0.6656188,0.35224932,,0.008602083,-0.014658917,0.111816436,0.5251895,-0.28449196,0.8020227,-0.80074424,-0.48424697,0.35258117,0.28807062,-0.8273869,-0.48212674,,0.20682946,1.3429974,0.55937505,0.9942028,-0.047275092,-0.096570715,-0.080031656,-0.92516696,-0.37102696,-0.0718037,0.37660474,-0.9235871,,-0.09432736,0.1461627,-0.06352243,-0.6435951,0.6650004,-0.3788929,0.69138974,0.29281524,-0.6604843,-0.3282767,-0.6870471,-0.6482289,,0.047038633,0.30394763,-0.42906263,-0.52979064,0.41576827,-0.7392284,-0.6014472,-0.79870576,-0.018174887,-0.5979825,0.434978,0.6732095,,0.3708224644216383,-0.4111891891552098,0.18634039121,3.6200871843168283,-0.7409797382279836,1.704513600179207,0.16448747459721913,,-0.8533079234716887,-0.6702868770854421,0.09926081417,-0.5141597414240537,0.3705581873638745,-0.5382169138309197,1.396265077315819,,-0.12960378692996893,-0.40630610487958496,0.08492501888,0.05233371158368399,,-1.3329089e-05,1.3113022e-06,-1.1920929e-07,1.0,2.8098002e-05,1.1451542e-05,-2.8090551e-05,1.0,2.2053719e-06,-1.1451542e-05,-2.1755695e-06,1.0
1.1488054940127768,09:40:25.452007,09:40:18.554227,0,,0.1385103,-0.00974109,0.029294536,0.58649474,-0.7462918,0.31475776,0.4723894,-0.0004962981,-0.88138986,0.65793025,0.6656188,0.35224932,,0.008602083,-0.014658917,0.111816436,0.5251895,-0.28449196,0.8020227,-0.80074424,-0.48424697,0.35258117,0.28807062,-0.8273869,-0.48212674,,0.20682946,1.3429974,0.55937505,0.9942028,-0.047275092,-0.096570715,-0.080031656,-0.92516696,-0.37102696,-0.0718037,0.37660474,-0.9235871,,-0.09432736,0.1461627,-0.06352243,-0.6435951,0.6650004,-0.3788929,0.69138974,0.29281524,-0.6604843,-0.3282767,-0.6870471,-0.6482289,,0.047038633,0.30394763,-0.42906263,-0.52979064,0.41576827,-0.7392284,-0.6014472,-0.79870576,-0.018174887,-0.5979825,0.434978,0.6732095,,0.3708224644216383,-0.4111891891552098,0.18634039121,3.619877494373344,-0.7409797382279836,1.7044319214390664,0.16432413053108497,,-0.8533002007388145,-0.6702868770854421,0.09926081417,-0.5141597414240537,0.3705581873638745,-0.5382169138309197,1.396265077315819,,-0.12960378692996893,-0.40630610487958496,0.08492501888,0.05233371158368399,,-1.3329089e-05,1.3113022e-06,-1.1920929e-07,1.0,2.8098002e-05,1.1451542e-05,-2.8090551e-05,1.0,2.2053719e-06,-1.1451542e-05,-2.1755695e-06,1.0
1.1884844000451267,09:40:25.491388,09:40:18.641765,0,,0.1385103,-0.00974109,0.029294536,0.58649474,-0.7462918,0.31475776,0.4723894,-0.0004962981,-0.88138986,0.65793025,0.6656188,0.35224932,,0.008602083,-0.014658917,0.111816436,0.5251895,-0.28449196,0.8020227,-0.80074424,-0.48424697,0.35258117,0.28807062,-0.8273869,-0.48212674,,0.20682946,1.3429974,0.55937505,0.9942028,-0.047275092,-0.096570715,-0.080031656,-0.92516696,-0.37102696,-0.0718037,0.37660474,-0.9235871,,-0.09432736,0.1461627,-0.06352243,-0.6435951,0.6650004,-0.3788929,0.69138974,0.29281524,-0.6604843,-0.3282767,-0.6870471,-0.6482289,,0.047038633,0.30394763,-0.42906263,-0.52979064,0.41576827,-0.7392284,-0.6014472,-0.79870576,-0.018174887,-0.5979825,0.434978,0.6732095,,0.3708224644216383,-0.4111891891552098,0.18634039121,3.6196678044298594,-0.7409797382279836,1.7044319214390664,0.16432413053108497,,-0.8533079234716887,-0.6702868770854421,0.09926081417,-0.5141597414240537,0.3705581873638745,-0.5382169138309197,1.396265077315819,,-0.12960378692996893,-0.40630610487958496,0.08492501888,0.05233371158368399,,-1.3329089e-05,1.3113022e-06,-1.1920929e-07,1.0,2.8098002e-05,1.1451542e-05,-2.8090551e-05,1.0,2.2053719e-06,-1.1451542e-05,-2.1755695e-06,1.0
1.2278490210301243,09:40:25.517013,09:40:18.641765,0,,0.1385103,-0.00974109,0.029294536,0.58649474,-0.7462918,0.31475776,0.4723894,-0.0004962981,-0.88138986,0.65793025,0.6656188,0.35224932,,0.008602083,-0.014658917,0.111816436,0.5251895,-0.28449196,0.8020227,-0.80074424,-0.48424697,0.35258117,0.28807062,-0.8273869,-0.48212674,,0.20682946,1.3429974,0.55937505,0.9942028,-0.047275092,-0.096570715,-0.080031656,-0.92516696,-0.37102696,-0.0718037,0.37660474,-0.9235871,,-0.09432736,0.1461627,-0.06352243,-0.6435951,0.6650004,-0.3788929,0.69138974,0.29281524,-0.6604843,-0.3282767,-0.6870471,-0.6482289,,0.047038633,0.30394763,-0.42906263,-0.52979064,0.41576827,-0.7392284,-0.6014472,-0.79870576,-0.018174887,-0.5979825,0.434978,0.6732095,,0.37081474168876405,-0.4111891891552098,0.18634039121,3.6196678044298594,-0.7409797382279836,1.7044319214390664,0.16432413053108497,,-0.8533079234716887,-0.6702945998183163,0.09926081417,-0.5141597414240537,0.3705581873638745,-0.5382169138309197,1.396265077315819,,-0.12960378692996893,-0.40630610487958496,0.08492501888,0.05233371158368399,,-1.3329089e-05,1.3113022e-06,-1.1920929e-07,1.0,2.8098002e-05,1.1451542e-05,-2.8090551e-05,1.0,2.2053719e-06,-1.1451542e-05,-2.1755695e-06,1.0
1.25352579401806,09:40:25.558710,09:40:18.718932,0,,0.1385103,-0.00974109,0.029294536,0.58649474,-0.7462918,0.31475776,0.4723894,-0.0004962981,-0.88138986,0.65793025,0.6656188,0.35224932,,0.008602083,-0.014658917,0.111816436,0.5251895,-0.28449196,0.8020227,-0.80074424,-0.48424697,0.35258117,0.28807062,-0.8273869,-0.48212674,,0.20682946,1.3429974,0.55937505,0.9942028,-0.047275092,-0.096570715,-0.080031656,-0.92516696,-0.37102696,-0.0718037,0.37660474,-0.9235871,,-0.09432736,0.1461627,-0.06352243,-0.6435951,0.6650004,-0.3788929,0.69138974,0.29281524,-0.6604843,-0.3282767,-0.6870471,-0.6482289,,0.047038633,0.30394763,-0.42906263,-0.52979064,0.41576827,-0.7392284,-0.6014472,-0.79870576,-0.018174887,-0.5979825,0.434978,0.6732095,,0.37081474168876405,-0.4111891891552098,0.18634039121,3.6196678044298594,-0.7409797382279836,1.7044319214390664,0.1641607864649508,,-0.8533002007388145,-0.6702868770854421,0.09926081417,-0.5141597414240537,0.3705581873638745,-0.5382169138309197,1.396265077315819,,-0.12960378692996893,-0.40630610487958496,0.08492501888,0.05233371158368399,,-1.3329089e-05,1.3113022e-06,-1.1920929e-07,1.0,2.8098002e-05,1.1451542e-05,-2.8090551e-05,1.0,2.2053719e-06,-1.1451542e-05,-2.1755695e-06,1.0
1.2952278800075874,09:40:25.594252,09:40:18.718932,0,,0.1385103,-0.00974109,0.029294536,0.58649474,-0.7462918,0.31475776,0.4723894,-0.0004962981,-0.88138986,0.65793025,0.6656188,0.35224932,,0.008602083,-0.014658917,0.111816436,0.5251895,-0.28449196,0.8020227,-0.80074424,-0.48424697,0.35258117,0.28807062,-0.8273869,-0.48212674,,0.20682946,1.3429974,0.55937505,0.9942028,-0.047275092,-0.096570715,-0.080031656,-0.92516696,-0.37102696,-0.0718037,0.37660474,-0.9235871,,-0.09432736,0.1461627,-0.06352243,-0.6435951,0.6650004,-0.3788929,0.69138974,0.29281524,-0.6604843,-0.3282767,-0.6870471,-0.6482289,,0.047038633,0.30394763,-0.42906263,-0.52979064,0.41576827,-0.7392284,-0.6014472,-0.79870576,-0.018174887,-0.5979825,0.434978,0.6732095,,0.3708224644216383,-0.4111891891552098,0.18634039121,3.6196678044298594,-0.7409797382279836,1.704350242698926,0.16448747459721913,,-0.8533079234716887,-0.6702945998183163,0.09926081417,-0.5141597414240537,0.3705581873638745,-0.5382169138309197,1.396265077315819,,-0.12960378692996893,-0.40630610487958496,0.08492501888,0.05233371158368399,,-1.3329089e-05,1.3113022e-06,-1.1920929e-07,1.0,2.8098002e-05,1.1451542e-05,-2.8090551e-05,1.0,2.2053719e-06,-1.1451542e-05,-2.1755695e-06,1.0
1.3307510540471412,09:40:25.625834,09:40:18.718932,0,,0.1385103,-0.00974109,0.029294536,0.58649474,-0.7462918,0.31475776,0.4723894,-0.0004962981,-0.88138986,0.65793025,0.6656188,0.35224932,,0.008602083,-0.014658917,0.111816436,0.5251895,-0.28449196,0.8020227,-0.80074424,-0.48424697,0.35258117,0.28807062,-0.8273869,-0.48212674,,0.20682946,1.3429974,0.55937505,0.9942028,-0.047275092,-0.096570715,-0.080031656,-0.92516696,-0.37102696,-0.0718037,0.37660474,-0.9235871,,-0.09432736,0.1461627,-0.06352243,-0.6435951,0.6650004,-0.3788929,0.69138974,0.29281524,-0.6604843,-0.3282767,-0.6870471,-0.6482289,,0.047038633,0.30394763,-0.42906263,-0.52979064,0.41576827,-0.7392284,-0.6014472,-0.79870576,-0.018174887,-0.5979825,0.434978,0.6732095,,0.3708224644216383,-0.4111891891552098,0.18634039121,3.6196678044298594,-0.7409797382279836,1.7042685639587856,0.16432413053108497,,-0.8533079234716887,-0.6702868770854421,0.09926081417,-0.5141597414240537,0.3705581873638745,-0.5382169138309197,1.396265077315819,,-0.12960378692996893,-0.40630610487958496,0.08492501888,0.05233371158368399,,-1.3329089e-05,1.3113022e-06,-1.1920929e-07,1.0,2.8098002e-05,1.1451542e-05,-2.8090551e-05,1.0,2.2053719e-06,-1.1451542e-05,-2.1755695e-06,1.0
1.3623685730271973,09:40:25.649810,09:40:18.718932,0,,0.1385103,-0.00974109,0.029294536,0.58649474,-0.7462918,0.31475776,0.4723894,-0.0004962981,-0.88138986,0.65793025,0.6656188,0.35224932,,0.008602083,-0.014658917,0.111816436,0.5251895,-0.28449196,0.8020227,-0.80074424,-0.48424697,0.35258117,0.28807062,-0.8273869,-0.48212674,,0.20682946,1.3429974,0.55937505,0.9942028,-0.047275092,-0.096570715,-0.080031656,-0.92516696,-0.37102696,-0.0718037,0.37660474,-0.9235871,,-0.09432736,0.1461627,-0.06352243,-0.6435951,0.6650004,-0.3788929,0.69138974,0.29281524,-0.6604843,-0.3282767,-0.6870471,-0.6482289,,0.047038633,0.30394763,-0.42906263,-0.52979064,0.41576827,-0.7392284,-0.6014472,-0.79870576,-0.018174887,-0.5979825,0.434978,0.6732095,,0.37081474168876405,-0.4111891891552098,0.18634039121,3.6196678044298594,-0.7408431017282181,1.704157146055089,0.16432413053108497,,-0.8533079234716887,-0.6702945998183163,0.09926081417,-0.5141597414240537,0.3705581873638745,-0.5382169138309197,1.396265077315819,,-0.12960378692996893,-0.40630610487958496,0.08492501888,0.05233371158368399,,-1.3329089e-05,1.3113022e-06,-1.1920929e-07,1.0,2.8098002e-05,1.1451542e-05,-2.8090551e-05,1.0,2.2053719e-06,-1.1451542e-05,-2.1755695e-06,1.0
1.3862966040032916,09:40:25.672936,09:40:18.842340,0,,0.1385103,-0.00974109,0.029294536,0.58649474,-0.7462918,0.31475776,0.4723894,-0.0004962981,-0.88138986,0.65793025,0.6656188,0.35224932,,0.008602083,-0.014658917,0.111816436,0.5251895,-0.28449196,0.8020227,-0.80074424,-0.48424697,0.35258117,0.28807062,-0.8273869,-0.48212674,,0.20682946,1.3429974,0.55937505,0.9942028,-0.047275092,-0.096570715,-0.080031656,-0.92516696,-0.37102696,-0.0718037,0.37660474,-0.9235871,,-0.09432736,0.1461627,-0.06352243,-0.6435951,0.6650004,-0.3788929,0.69138974,0.29281524,-0.6604843,-0.3282767,-0.6870471,-0.6482289,,0.047038633,0.30394763,-0.42906263,-0.52979064,0.41576827,-0.7392284,-0.6014472,-0.79870576,-0.018174887,-0.5979825,0.434978,0.6732095,,0.3708224644216383,-0.4111891891552098,0.18634039121,3.6196678044298594,-0.7408431017282181,1.704157146055089,0.16432413053108497,,-0.8533079234716887,-0.6702868770854421,0.09926081417,-0.5141597414240537,0.3705581873638745,-0.5382169138309197,1.396265077315819,,-0.12960378692996893,-0.40630610487958496,0.08492501888,0.05233371158368399,,-1.3329089e-05,1.3113022e-06,-1.1920929e-07,1.0,2.8098002e-05,1.1451542e-05,-2.8090551e-05,1.0,2.2053719e-06,-1.1451542e-05,-2.1755695e-06,1.0
1.4094746360206045,09:40:25.692953,09:40:18.842340,0,,0.1385103,-0.00974109,0.029294536,0.58649474,-0.7462918,0.31475776,0.4723894,-0.0004962981,-0.88138986,0.65793025,0.6656188,0.35224932,,0.008602083,-0.014658917,0.111816436,0.5251895,-0.28449196,0.8020227,-0.80074424,-0.48424697,0.35258117,0.28807062,-0.8273869,-0.48212674,,0.20682946,1.3429974,0.55937505,0.9942028,-0.047275092,-0.096570715,-0.080031656,-0.92516696,-0.37102696,-0.0718037,0.37660474,-0.9235871,,-0.09432736,0.1461627,-0.06352243,-0.6435951,0.6650004,-0.3788929,0.69138974,0.29281524,-0.6604843,-0.3282767,-0.6870471,-0.6482289,,0.047038633,0.30394763,-0.42906263,-0.52979064,0.41576827,-0.7392284,-0.6014472,-0.79870576,-0.018174887,-0.5979825,0.434978,0.6732095,,0.3708224644216383,-0.4111891891552098,0.18634039121,3.6196678044298594,-0.7408431017282181,1.704157146055089,0.16432413053108497,,-0.8533002007388145,-0.6702868770854421,0.09926081417,-0.5141597414240537,0.3705581873638745,-0.5382169138309197,1.396265077315819,,-0.12960378692996893,-0.40630610487958496,0.08492501888,0.05233371158368399,,-1.3329089e-05,1.3113022e-06,-1.1920929e-07,1.0,2.8098002e-05,1.1451542e-05,-2.8090551e-05,1.0,2.2053719e-06,-1.1451542e-05,-2.1755695e-06,1.0
1.429464792017825,09:40:25.710199,09:40:18.842340,0,,0.1385103,-0.00974109,0.029294536,0.58649474,-0.7462918,0.31475776,0.4723894,-0.0004962981,-0.88138986,0.65793025,0.6656188,0.35224932,,0.008602083,-0.014658917,0.111816436,0.5251895,-0.28449196,0.8020227,-0.80074424,-0.48424697,0.35258117,0.28807062,-0.8273869,-0.48212674,,0.20682946,1.3429974,0.55937505,0.9942028,-0.047275092,-0.096570715,-0.080031656,-0.92516696,-0.37102696,-0.0718037,0.37660474,-0.9235871,,-0.09432736,0.1461627,-0.06352243,-0.6435951,0.6650004,-0.3788929,0.69138974,0.29281524,-0.6604843,-0.3282767,-0.6870471,-0.6482289,,0.047038633,0.30394763,-0.42906263,-0.52979064,0.41576827,-0.7392284,-0.6014472,-0.79870576,-0.018174887,-0.5979825,0.434978,0.6732095,,0.37081474168876405,-0.4111891891552098,0.18634039121,3.6196678044298594,-0.7408431017282181,1.704157146055089,0.16432413053108497,,-0.8533002007388145,-0.6702868770854421,0.09926081417,-0.5141597414240537,0.3705581873638745,-0.5382169138309197,1.396265077315819,,-0.12960378692996893,-0.40630610487958496,0.08492501888,0.05233371158368399,,-1.3329089e-05,1.3113022e-06,-1.1920929e-07,1.0,2.8098002e-05,1.1451542e-05,-2.8090551e-05,1.0,2.2053719e-06,-1.1451542e-05,-2.1755695e-06,1.0
1.4467563580255955,09:40:25.733975,09:40:18.842340,0,,0.1385103,-0.00974109,0.029294536,0.58649474,-0.7462918,0.31475776,0.4723894,-0.0004962981,-0.88138986,0.65793025,0.6656188,0.35224932,,0.008602083,-0.014658917,0.111816436,0.5251895,-0.28449196,0.8020227,-0.80074424,-0.48424697,0.35258117,0.28807062,-0.8273869,-0.48212674,,0.20682946,1.3429974,0.55937505,0.9942028,-0.047275092,-0.096570715,-0.080031656,-0.92516696,-0.37102696,-0.0718037,0.37660474,-0.9235871,,-0.09432736,0.1461627,-0.06352243,-0.6435951,0.6650004,-0.3788929,0.69138974,0.29281524,-0.6604843,-0.3282767,-0.6870471,-0.6482289,,0.047038633,0.30394763,-0.42906263,-0.52979064,0.41576827,-0.7392284,-0.6014472,-0.79870576,-0.018174887,-0.5979825,0.434978,0.6732095,,0.37081474168876405,-0.4111891891552098,0.18634039121,3.6196678044298594,-0.7408431017282181,1.704157146055089,0.16432413053108497,,-0.8533079234716887,-0.6702945998183163,0.09926081417,-0.5141597414240537,0.3705581873638745,-0.5382169138309197,1.396265077315819,,-0.12960378692996893,-0.40630610487958496,0.08492501888,0.05233371158368399,,-1.3329089e-05,1.3113022e-06,-1.1920929e-07,1.0,2.8098002e-05,1.1451542e-05,-2.8090551e-05,1.0,2.2053719e-06,-1.1451542e-05,-2.1755695e-06,1.0
1.4705243920325302,09:40:25.750474,09:40:18.842340,0,,0.1385103,-0.00974109,0.029294536,0.58649474,-0.7462918,0.31475776,0.4723894,-0.0004962981,-0.88138986,0.65793025,0.6656188,0.35224932,,0.008602083,-0.014658917,0.111816436,0.5251895,-0.28449196,0.8020227,-0.80074424,-0.48424697,0.35258117,0.28807062,-0.8273869,-0.48212674,,0.20682946,1.3429974,0.55937505,0.9942028,-0.047275092,-0.096570715,-0.080031656,-0.92516696,-0.37102696,-0.0718037,0.37660474,-0.9235871,,-0.09432736,0.1461627,-0.06352243,-0.6435951,0.6650004,-0.3788929,0.69138974,0.29281524,-0.6604843,-0.3282767,-0.6870471,-0.6482289,,0.047038633,0.30394763,-0.42906263,-0.52979064,0.41576827,-0.7392284,-0.6014472,-0.79870576,-0.018174887,-0.5979825,0.434978,0.6732095,,0.3708224644216383,-0.4111891891552098,0.18634039121,3.6196678044298594,-0.7408431017282181,1.704157146055089,0.16432413053108497,,-0.8533079234716887,-0.6702868770854421,0.09926081417,-0.5141597414240537,0.3705581873638745,-0.5382169138309197,1.396265077315819,,-0.12960378692996893,-0.40630610487958496,0.08492501888,0.05233371158368399,,-1.3329089e-05,1.3113022e-06,-1.1920929e-07,1.0,2.8098002e-05,1.1451542e-05,-2.8090551e-05,1.0,2.2053719e-06,-1.1451542e-05,-2.1755695e-06,1.0
1.487002547015436,09:40:25.766280,09:40:18.842340,0,,0.1385103,-0.00974109,0.029294536,0.58649474,-0.7462918,0.31475776,0.4723894,-0.0004962981,-0.88138986,0.65793025,0.6656188,0.35224932,,0.008602083,-0.014658917,0.111816436,0.5251895,-0.28449196,0.8020227,-0.80074424,-0.48424697,0.35258117,0.28807062,-0.8273869,-0.48212674,,0.20682946,1.3429974,0.55937505,0.9942028,-0.047275092,-0.096570715,-0.080031656,-0.92516696,-0.37102696,-0.0718037,0.37660474,-0.9235871,,-0.09432736,0.1461627,-0.06352243,-0.6435951,0.6650004,-0.3788929,0.69138974,0.29281524,-0.6604843,-0.3282767,-0.6870471,-0.6482289,,0.047038633,0.30394763,-0.42906263,-0.52979064,0.41576827,-0.7392284,-0.6014472,-0.79870576,-0.018174887,-0.5979825,0.434978,0.6732095,,0.3708224644216383,-0.4111891891552098,0.18634039121,3.6196678044298594,-0.7408431017282181,1.704157146055089,0.16432413053108497,,-0.8533002007388145,-0.6702868770854421,0.09926081417,-0.5141597414240537,0.3705581873638745,-0.5382169138309197,1.396265077315819,,-0.12960378692996893,-0.40630610487958496,0.08492501888,0.05233371158368399,,-1.3329089e-05,1.3113022e-06,-1.1920929e-07,1.0,2.8098002e-05,1.1451542e-05,-2.8090551e-05,1.0,2.2053719e-06,-1.1451542e-05,-2.1755695e-06,1.0
1.5017064459971152,09:40:25.787033,09:40:18.957417,0,,0.1385103,-0.00974109,0.029294536,0.58649474,-0.7462918,0.31475776,0.4723894,-0.0004962981,-0.88138986,0.65793025,0.6656188,0.35224932,,0.008602083,-0.014658917,0.111816436,0.5251895,-0.28449196,0.8020227,-0.80074424,-0.48424697,0.35258117,0.28807062,-0.8273869,-0.48212674,,0.20682946,1.3429974,0.55937505,0.9942028,-0.047275092,-0.096570715,-0.080031656,-0.92516696,-0.37102696,-0.0718037,0.37660474,-0.9235871,,-0.09432736,0.1461627,-0.06352243,-0.6435951,0.6650004,-0.3788929,0.69138974,0.29281524,-0.6604843,-0.3282767,-0.6870471,-0.6482289,,0.047038633,0.30394763,-0.42906263,-0.52979064,0.41576827,-0.7392284,-0.6014472,-0.79870576,-0.018174887,-0.5979825,0.434978,0.6732095,,0.3708224644216383,-0.4111891891552098,0.18634039121,3.6196678044298594,-0.7408431017282181,1.704157146055089,0.16432413053108497,,-0.8533002007388145,-0.6702868770854421,0.09926081417,-0.5141597414240537,0.3705581873638745,-0.5382169138309197,1.396265077315819,,-0.12960378692996893,-0.40630610487958496,0.08492501888,0.05233371158368399,,-1.3329089e-05,1.3113022e-06,-1.1920929e-07,1.0,2.8098002e-05,1.1451542e-05,-2.8090551e-05,1.0,2.2053719e-06,-1.1451542e-05,-2.1755695e-06,1.0
1.523586827039253,09:40:25.807335,09:40:18.957417,0,,0.1385103,-0.00974109,0.029294536,0.58649474,-0.7462918,0.31475776,0.4723894,-0.0004962981,-0.88138986,0.65793025,0.6656188,0.35224932,,0.008602083,-0.014658917,0.111816436,0.5251895,-0.28449196,0.8020227,-0.80074424,-0.48424697,0.35258117,0.28807062,-0.8273869,-0.48212674,,0.20682946,1.3429974,0.55937505,0.9942028,-0.047275092,-0.096570715,-0.080031656,-0.92516696,-0.37102696,-0.0718037,0.37660474,-0.9235871,,-0.09432736,0.1461627,-0.06352243,-0.6435951,0.6650004,-0.3788929,0.69138974,0.29281524,-0.6604843,-0.3282767,-0.6870471,-0.6482289,,0.047038633,0.30394763,-0.42906263,-0.52979064,0.41576827,-0.7392284,-0.6014472,-0.79870576,-0.018174887,-0.5979825,0.434978,0.6732095,,0.3708224644216383,-0.4111891891552098,0.18634039121,3.6196678044298594,-0.7408431017282181,1.704157146055089,0.16432413053108497,,-0.8533079234716887,-0.6702868770854421,0.09926081417,-0.5141597414240537,0.3705581873638745,-0.5382169138309197,1.396265077315819,,-0.12960378692996893,-0.40630610487958496,0.08492501888,0.05233371158368399,,-1.3329089e-05,1.3113022e-06,-1.1920929e-07,1.0,2.8098002e-05,1.1451542e-05,-2.8090551e-05,1.0,2.2053719e-06,-1.1451542e-05,-2.1755695e-06,1.0
1.543895026028622,09:40:25.826288,09:40:18.957417,0,,0.1385103,-0.00974109,0.029294536,0.58649474,-0.7462918,0.31475776,0.4723894,-0.0004962981,-0.88138986,0.65793025,0.6656188,0.35224932,,0.008602083,-0.014658917,0.111816436,0.5251895,-0.28449196,0.8020227,-0.80074424,-0.48424697,0.35258117,0.28807062,-0.8273869,-0.48212674,,0.20682946,1.3429974,0.55937505,0.9942028,-0.047275092,-0.096570715,-0.080031656,-0.92516696,-0.37102696,-0.0718037,0.37660474,-0.9235871,,-0.09432736,0.1461627,-0.06352243,-0.6435951,0.6650004,-0.3788929,0.69138974,0.29281524,-0.6604843,-0.3282767,-0.6870471,-0.6482289,,0.047038633,0.30394763,-0.42906263,-0.52979064,0.41576827,-0.7392284,-0.6014472,-0.79870576,-0.018174887,-0.5979825,0.434978,0.6732095,,0.37081474168876405,-0.4111891891552098,0.18634039121,3.6196678044298594,-0.7408431017282181,1.704157146055089,0.16432413053108497,,-0.8533079234716887,-0.6702945998183163,0.09926081417,-0.5141597414240537,0.3705581873638745,-0.5382169138309197,1.396265077315819,,-0.12960378692996893,-0.40630610487958496,0.08492501888,0.05233371158368399,,-1.3329089e-05,1.3113022e-06,-1.1920929e-07,1.0,2.8098002e-05,1.1451542e-05,-2.8090551e-05,1.0,2.2053719e-06,-1.1451542e-05,-2.1755695e-06,1.0
1.5628466960042715,09:40:25.845181,09:40:18.957417,0,,0.1385103,-0.00974109,0.029294536,0.58649474,-0.7462918,0.31475776,0.4723894,-0.0004962981,-0.88138986,0.65793025,0.6656188,0.35224932,,0.008602083,-0.014658917,0.111816436,0.5251895,-0.28449196,0.8020227,-0.80074424,-0.48424697,0.35258117,0.28807062,-0.8273869,-0.48212674,,0.20682946,1.3429974,0.55937505,0.9942028,-0.047275092,-0.096570715,-0.080031656,-0.92516696,-0.37102696,-0.0718037,0.37660474,-0.9235871,,-0.09432736,0.1461627,-0.06352243,-0.6435951,0.6650004,-0.3788929,0.69138974,0.29281524,-0.6604843,-0.3282767,-0.6870471,-0.6482289,,0.047038633,0.30394763,-0.42906263,-0.52979064,0.41576827,-0.7392284,-0.6014472,-0.79870576,-0.018174887,-0.5979825,0.434978,0.6732095,,0.3708224644216383,-0.4111891891552098,0.18634039121,3.6196678044298594,-0.7408431017282181,1.704157146055089,0.16432413053108497,,-0.8533002007388145,-0.6702868770854421,0.09926081417,-0.5145791213110228,0.3705581873638745,-0.5382169138309197,1.396265077315819,,-0.12960378692996893,-0.40630610487958496,0.08492501888,0.05233371158368399,,-1.3329089e-05,1.3113022e-06,-1.1920929e-07,1.0,2.8098002e-05,1.1451542e-05,-2.8090551e-05,1.0,2.2053719e-06,-1.1451542e-05,-2.1755695e-06,1.0
1.5817376220365986,09:40:25.866083,09:40:19.031382,0,,0.1385103,-0.00974109,0.029294536,0.58649474,-0.7462918,0.31475776,0.4723894,-0.0004962981,-0.88138986,0.65793025,0.6656188,0.35224932,,0.008602083,-0.014658917,0.111816436,0.5251895,-0.28449196,0.8020227,-0.80074424,-0.48424697,0.35258117,0.28807062,-0.8273869,-0.48212674,,0.20682946,1.3429974,0.55937505,0.9942028,-0.047275092,-0.096570715,-0.080031656,-0.92516696,-0.37102696,-0.0718037,0.37660474,-0.9235871,,-0.09432736,0.1461627,-0.06352243,-0.6435951,0.6650004,-0.3788929,0.69138974,0.29281524,-0.6604843,-0.3282767,-0.6870471,-0.6482289,,0.047038633,0.30394763,-0.42906263,-0.52979064,0.41576827,-0.7392284,-0.6014472,-0.79870576,-0.018174887,-0.5979825,0.434978,0.6732095,,0.3708224644216383,-0.4111891891552098,0.18634039121,3.6196678044298594,-0.7408431017282181,1.704157146055089,0.16432413053108497,,-0.8533002007388145,-0.6702868770854421,0.09926081417,-0.5145791213110228,0.3705581873638745,-0.5382169138309197,1.396265077315819,,-0.12960378692996893,-0.40630610487958496,0.08492501888,0.05233371158368399,,-1.3329089e-05,1.3113022e-06,-1.1920929e-07,1.0,2.8098002e-05,1.1451542e-05,-2.8090551e-05,1.0,2.2053719e-06,-1.1451542e-05,-2.1755695e-06,1.0
1.6026147020165808,09:40:25.886422,09:40:19.031382,0,,0.1385103,-0.00974109,0.029294536,0.58649474,-0.7462918,0.31475776,0.4723894,-0.0004962981,-0.88138986,0.65793025,0.6656188,0.35224932,,0.008602083,-0.014658917,0.111816436,0.5251895,-0.28449196,0.8020227,-0.80074424,-0.48424697,0.35258117,0.28807062,-0.8273869,-0.48212674,,0.20682946,1.3429974,0.55937505,0.9942028,-0.047275092,-0.096570715,-0.080031656,-0.92516696,-0.37102696,-0.0718037,0.37660474,-0.9235871,,-0.09432736,0.1461627,-0.06352243,-0.6435951,0.6650004,-0.3788929,0.69138974,0.29281524,-0.6604843,-0.3282767,-0.6870471,-0.6482289,,0.047038633,0.30394763,-0.42906263,-0.52979064,0.41576827,-0.7392284,-0.6014472,-0.79870576,-0.018174887,-0.5979825,0.434978,0.6732095,,0.37081474168876405,-0.4111891891552098,0.18634039121,3.6196678044298594,-0.7408431017282181,1.704157146055089,0.16432413053108497,,-0.8533079234716887,-0.6702868770854421,0.09926081417,-0.5145791213110228,0.3705581873638745,-0.5382169138309197,1.396265077315819,,-0.12960378692996893,-0.40630610487958496,0.08492501888,0.05233371158368399,,-1.3329089e-05,1.3113022e-06,-1.1920929e-07,1.0,2.8098002e-05,1.1451542e-05,-2.8090551e-05,1.0,2.2053719e-06,-1.1451542e-05,-2.1755695e-06,1.0
1.6229128240374848,09:40:25.905607,09:40:19.031382,0,,0.1385103,-0.00974109,0.029294536,0.58649474,-0.7462918,0.31475776,0.4723894,-0.0004962981,-0.88138986,0.65793025,0.6656188,0.35224932,,0.008602083,-0.014658917,0.111816436,0.5251895,-0.28449196,0.8020227,-0.80074424,-0.48424697,0.35258117,0.28807062,-0.8273869,-0.48212674,,0.20682946,1.3429974,0.55937505,0.9942028,-0.047275092,-0.096570715,-0.080031656,-0.92516696,-0.37102696,-0.0718037,0.37660474,-0.9235871,,-0.09432736,0.1461627,-0.06352243,-0.6435951,0.6650004,-0.3788929,0.69138974,0.29281524,-0.6604843,-0.3282767,-0.6870471,-0.6482289,,0.047038633,0.30394763,-0.42906263,-0.52979064,0.41576827,-0.7392284,-0.6014472,-0.79870576,-0.018174887,-0.5979825,0.434978,0.6732095,,0.37081474168876405,-0.4111891891552098,0.18634039121,3.6196678044298594,-0.7408431017282181,1.704157146055089,0.16432413053108497,,-0.8533002007388145,-0.6702945998183163,0.09926081417,-0.5145791213110228,0.3705581873638745,-0.5382169138309197,1.396265077315819,,-0.12960378692996893,-0.40630610487958496,0.08492501888,0.05233371158368399,,-1.3329089e-05,1.3113022e-06,-1.1920929e-07,1.0,2.8098002e-05,1.1451542e-05,-2.8090551e-05,1.0,2.2053719e-06,-1.1451542e-05,-2.1755695e-06,1.0
1.6421628890093416,09:40:25.922013,09:40:19.031382,0,,0.1385103,-0.00974109,0.029294536,0.58649474,-0.7462918,0.31475776,0.4723894,-0.0004962981,-0.88138986,0.65793025,0.6656188,0.35224932,,0.008602083,-0.014658917,0.111816436,0.5251895,-0.28449196,0.8020227,-0.80074424,-0.48424697,0.35258117,0.28807062,-0.8273869,-0.48212674,,0.20682946,1.3429974,0.55937505,0.9942028,-0.047275092,-0.096570715,-0.080031656,-0.92516696,-0.37102696,-0.0718037,0.37660474,-0.9235871,,-0.09432736,0.1461627,-0.06352243,-0.6435951,0.6650004,-0.3788929,0.69138974,0.29281524,-0.6604843,-0.3282767,-0.6870471,-0.6482289,,0.047038633,0.30394763,-0.42906263,-0.52979064,0.41576827,-0.7392284,-0.6014472,-0.79870576,-0.018174887,-0.5979825,0.434978,0.6732095,,0.3708224644216383,-0.4111891891552098,0.18634039121,3.6196678044298594,-0.7408431017282181,1.704157146055089,0.16432413053108497,,-0.8533079234716887,-0.6702868770854421,0.09926081417,-0.5145791213110228,0.3705581873638745,-0.5382169138309197,1.396265077315819,,-0.12960378692996893,-0.40630610487958496,0.08492501888,0.05233371158368399,,-1.3329089e-05,1.3113022e-06,-1.1920929e-07,1.0,2.8098002e-05,1.1451542e-05,-2.8090551e-05,1.0,2.2053719e-06,-1.1451542e-05,-2.1755695e-06,1.0
1.6585390340187587,09:40:25.945365,09:40:19.112642,0,,0.1385103,-0.00974109,0.029294536,0.58649474,-0.7462918,0.31475776,0.4723894,-0.0004962981,-0.88138986,0.65793025,0.6656188,0.35224932,,0.008602083,-0.014658917,0.111816436,0.5251895,-0.28449196,0.8020227,-0.80074424,-0.48424697,0.35258117,0.28807062,-0.8273869,-0.48212674,,0.20682946,1.3429974,0.55937505,0.9942028,-0.047275092,-0.096570715,-0.080031656,-0.92516696,-0.37102696,-0.0718037,0.37660474,-0.9235871,,-0.09432736,0.1461627,-0.06352243,-0.6435951,0.6650004,-0.3788929,0.69138974,0.29281524,-0.6604843,-0.3282767,-0.6870471,-0.6482289,,0.047038633,0.30394763,-0.42906263,-0.52979064,0.41576827,-0.7392284,-0.6014472,-0.79870576,-0.018174887,-0.5979825,0.434978,0.6732095,,0.3708224644216383,-0.4111891891552098,0.18634039121,3.6196678044298594,-0.7408431017282181,1.704157146055089,0.16432413053108497,,-0.8533002007388145,-0.6702868770854421,0.09926081417,-0.5145791213110228,0.3705581873638745,-0.5382169138309197,1.396265077315819,,-0.12960378692996893,-0.40630610487958496,0.08492501888,0.05233371158368399,,-1.3329089e-05,1.3113022e-06,-1.1920929e-07,1.0,2.8098002e-05,1.1451542e-05,-2.8090551e-05,1.0,2.2053719e-06,-1.1451542e-05,-2.1755695e-06,1.0
1.6809909990406595,09:40:25.959289,09:40:19.112642,0,,0.1385103,-0.00974109,0.029294536,0.58649474,-0.7462918,0.31475776,0.4723894,-0.0004962981,-0.88138986,0.65793025,0.6656188,0.35224932,,0.008602083,-0.014658917,0.111816436,0.5251895,-0.28449196,0.8020227,-0.80074424,-0.48424697,0.35258117,0.28807062,-0.8273869,-0.48212674,,0.20682946,1.3429974,0.55937505,0.9942028,-0.047275092,-0.096570715,-0.080031656,-0.92516696,-0.37102696,-0.0718037,0.37660474,-0.9235871,,-0.09432736,0.1461627,-0.06352243,-0.6435951,0.6650004,-0.3788929,0.69138974,0.29281524,-0.6604843,-0.3282767,-0.6870471,-0.6482289,,0.047038633,0.30394763,-0.42906263,-0.52979064,0.41576827,-0.7392284,-0.6014472,-0.79870576,-0.018174887,-0.5979825,0.434978,0.6732095,,0.3708224644216383,-0.4111891891552098,0.18634039121,3.6196678044298594,-0.7408431017282181,1.704157146055089,0.16432413053108497,,-0.8533002007388145,-0.6702868770854421,0.09926081417,-0.5145791213110228,0.3705581873638745,-0.5382169138309197,1.396265077315819,,-0.12960378692996893,-0.40630610487958496,0.08492501888,0.05233371158368399,,-1.3329089e-05,1.3113022e-06,-1.1920929e-07,1.0,2.8098002e-05,1.1451542e-05,-2.8090551e-05,1.0,2.2053719e-06,-1.1451542e-05,-2.1755695e-06,1.0
1.6958391820080578,09:40:25.980026,09:40:19.112642,0,,0.1385103,-0.00974109,0.029294536,0.58649474,-0.7462918,0.31475776,0.4723894,-0.0004962981,-0.88138986,0.65793025,0.6656188,0.35224932,,0.008602083,-0.014658917,0.111816436,0.5251895,-0.28449196,0.8020227,-0.80074424,-0.48424697,0.35258117,0.28807062,-0.8273869,-0.48212674,,0.20682946,1.3429974,0.55937505,0.9942028,-0.047275092,-0.096570715,-0.080031656,-0.92516696,-0.37102696,-0.0718037,0.37660474,-0.9235871,,-0.09432736,0.1461627,-0.06352243,-0.6435951,0.6650004,-0.3788929,0.69138974,0.29281524,-0.6604843,-0.3282767,-0.6870471,-0.6482289,,0.047038633,0.30394763,-0.42906263,-0.52979064,0.41576827,-0.7392284,-0.6014472,-0.79870576,-0.018174887,-0.5979825,0.434978,0.6732095,,0.3708224644216383,-0.4111891891552098,0.18634039121,3.6196678044298594,-0.741116374727749,1.704379981862482,0.16432413053108497,,-0.8533079234716887,-0.6702945998183163,0.09926081417,-0.5145791213110228,0.3705581873638745,-0.5382169138309197,1.396265077315819,,-0.12960378692996893,-0.40630610487958496,0.08492501888,0.05233371158368399,,-1.3329089e-05,1.3113022e-06,-1.1920929e-07,1.0,2.8098002e-05,1.1451542e-05,-2.8090551e-05,1.0,2.2053719e-06,-1.1451542e-05,-2.1755695e-06,1.0
1.716555250051897,09:40:26.000327,09:40:19.112642,0,,0.1385103,-0.00974109,0.029294536,0.58649474,-0.7462918,0.31475776,0.4723894,-0.0004962981,-0.88138986,0.65793025,0.6656188,0.35224932,,0.008602083,-0.014658917,0.111816436,0.5251895,-0.28449196,0.8020227,-0.80074424,-0.48424697,0.35258117,0.28807062,-0.8273869,-0.48212674,,0.20682946,1.3429974,0.55937505,0.9942028,-0.047275092,-0.096570715,-0.080031656,-0.92516696,-0.37102696,-0.0718037,0.37660474,-0.9235871,,-0.09432736,0.1461627,-0.06352243,-0.6435951,0.6650004,-0.3788929,0.69138974,0.29281524,-0.6604843,-0.3282767,-0.6870471,-0.6482289,,0.047038633,0.30394763,-0.42906263,-0.52979064,0.41576827,-0.7392284,-0.6014472,-0.79870576,-0.018174887,-0.5979825,0.434978,0.6732095,,0.3708224644216383,-0.4111891891552098,0.18634039121,3.6196678044298594,-0.741116374727749,1.7042983031223415,0.16416078646495058,,-0.8533079234716887,-0.6702868770854421,0.09926081417,-0.5145791213110228,0.3705581873638745,-0.5382169138309197,1.396265077315819,,-0.12960378692996893,-0.40630610487958496,0.08492501888,0.05233371158368399,,-1.3329089e-05,1.3113022e-06,-1.1920929e-07,1.0,2.8098002e-05,1.1451542e-05,-2.8090551e-05,1.0,2.2053719e-06,-1.1451542e-05,-2.1755695e-06,1.0
1.7368734910269268,09:40:26.018632,09:40:19.112642,0,,0.1385103,-0.00974109,0.029294536,0.58649474,-0.7462918,0.31475776,0.4723894,-0.0004962981,-0.88138986,0.65793025,0.6656188,0.35224932,,0.008602083,-0.014658917,0.111816436,0.5251895,-0.28449196,0.8020227,-0.80074424,-0.48424697,0.35258117,0.28807062,-0.8273869,-0.48212674,,0.20682946,1.3429974,0.55937505,0.9942028,-0.047275092,-0.096570715,-0.080031656,-0.92516696,-0.37102696,-0.0718037,0.37660474,-0.9235871,,-0.09432736,0.1461627,-0.06352243,-0.6435951,0.6650004,-0.3788929,0.69138974,0.29281524,-0.6604843,-0.3282767,-0.6870471,-0.6482289,,0.047038633,0.30394763,-0.42906263,-0.52979064,0.41576827,-0.7392284,-0.6014472,-0.79870576,-0.018174887,-0.5979825,0.434978,0.6732095,,0.3708224644216383,-0.4111891891552098,0.18634039121,3.6196678044298594,-0.741116374727749,1.7042983031223415,0.16416078646495058,,-0.8533079234716887,-0.6702868770854421,0.09926081417,-0.5145791213110228,0.3705581873638745,-0.5382169138309197,1.396265077315819,,-0.12960378692996893,-0.40630610487958496,0.08492501888,0.05233371158368399,,-1.3329089e-05,1.3113022e-06,-1.1920929e-07,1.0,2.8098002e-05,1.1451542e-05,-2.8090551e-05,1.0,2.2053719e-06,-1.1451542e-05,-2.1755695e-06,1.0
1.7551552630029619,09:40:26.036054,09:40:19.112642,0,,0.1385103,-0.00974109,0.029294536,0.58649474,-0.7462918,0.31475776,0.4723894,-0.0004962981,-0.88138986,0.65793025,0.6656188,0.35224932,,0.008602083,-0.014658917,0.111816436,0.5251895,-0.28449196,0.8020227,-0.80074424,-0.48424697,0.35258117,0.28807062,-0.8273869,-0.48212674,,0.20682946,1.3429974,0.55937505,0.9942028,-0.047275092,-0.096570715,-0.080031656,-0.92516696,-0.37102696,-0.0718037,0.37660474,-0.9235871,,-0.09432736,0.1461627,-0.06352243,-0.6435951,0.6650004,-0.3788929,0.69138974,0.29281524,-0.6604843,-0.3282767,-0.6870471,-0.6482289,,0.047038633,0.30394763,-0.42906263,-0.52979064,0.41576827,-0.7392284,-0.6014472,-0.79870576,-0.018174887,-0.5979825,0.434978,0.6732095,,0.3708224644216383,-0.4111891891552098,0.18634039121,3.6196678044298594,-0.741116374727749,1.7042166243822008,0.16432413053108497,,-0.8533002007388145,-0.6702868770854421,0.09926081417,-0.5145791213110228,0.3705581873638745,-0.5382169138309197,1.396265077315819,,-0.12960378692996893,-0.40630610487958496,0.08492501888,0.05233371158368399,,-1.3329089e-05,1.3113022e-06,-1.1920929e-07,1.0,2.8098002e-05,1.1451542e-05,-2.8090551e-05,1.0,2.2053719e-06,-1.1451542e-05,-2.1755695e-06,1.0
1.7726009309990332,09:40:26.057104,09:40:19.229351,0,,0.1385103,-0.00974109,0.029294536,0.58649474,-0.7462918,0.31475776,0.4723894,-0.0004962981,-0.88138986,0.65793025,0.6656188,0.35224932,,0.008602083,-0.014658917,0.111816436,0.5251895,-0.28449196,0.8020227,-0.80074424,-0.48424697,0.35258117,0.28807062,-0.8273869,-0.48212674,,0.20682946,1.3429974,0.55937505,0.9942028,-0.047275092,-0.096570715,-0.080031656,-0.92516696,-0.37102696,-0.0718037,0.37660474,-0.9235871,,-0.09432736,0.1461627,-0.06352243,-0.6435951,0.6650004,-0.3788929,0.69138974,0.29281524,-0.6604843,-0.3282767,-0.6870471,-0.6482289,,0.047038633,0.30394763,-0.42906263,-0.52979064,0.41576827,-0.7392284,-0.6014472,-0.79870576,-0.018174887,-0.5979825,0.434978,0.6732095,,0.3708224644216383,-0.4111891891552098,0.18634039121,3.6196678044298594,-0.741116374727749,1.7042166243822008,0.16432413053108497,,-0.8533079234716887,-0.6702868770854421,0.09926081417,-0.5145791213110228,0.3705581873638745,-0.5382169138309197,1.396265077315819,,-0.12960378692996893,-0.40630610487958496,0.08492501888,0.05233371158368399,,-1.3329089e-05,1.3113022e-06,-1.1920929e-07,1.0,2.8098002e-05,1.1451542e-05,-2.8090551e-05,1.0,2.2053719e-06,-1.1451542e-05,-2.1755695e-06,1.0
1.793645412020851,09:40:26.075967,09:40:19.229351,0,,0.1385103,-0.00974109,0.029294536,0.58649474,-0.7462918,0.31475776,0.4723894,-0.0004962981,-0.88138986,0.65793025,0.6656188,0.35224932,,0.008602083,-0.014658917,0.111816436,0.5251895,-0.28449196,0.8020227,-0.80074424,-0.48424697,0.35258117,0.28807062,-0.8273869,-0.48212674,,0.20682946,1.3429974,0.55937505,0.9942028,-0.047275092,-0.096570715,-0.080031656,-0.92516696,-0.37102696,-0.0718037,0.37660474,-0.9235871,,-0.09432736,0.1461627,-0.06352243,-0.6435951,0.6650004,-0.3788929,0.69138974,0.29281524,-0.6604843,-0.3282767,-0.6870471,-0.6482289,,0.047038633,0.30394763,-0.42906263,-0.52979064,0.41576827,-0.7392284,-0.6014472,-0.79870576,-0.018174887,-0.5979825,0.434978,0.6732095,,0.3708224644216383,-0.4111891891552098,0.18634039121,3.6196678044298594,-0.741116374727749,1.7042166243822008,0.16432413053108497,,-0.8533002007388145,-0.6702868770854421,0.09926081417,-0.5145791213110228,0.3705581873638745,-0.5382169138309197,1.396265077315819,,-0.12960378692996893,-0.40630610487958496,0.08492501888,0.05233371158368399,,-1.3329089e-05,1.3113022e-06,-1.1920929e-07,1.0,2.8098002e-05,1.1451542e-05,-2.8090551e-05,1.0,2.2053719e-06,-1.1451542e-05,-2.1755695e-06,1.0
1.812506773043424,09:40:26.101025,09:40:19.229351,0,,0.1385103,-0.00974109,0.029294536,0.58649474,-0.7462918,0.31475776,0.4723894,-0.0004962981,-0.88138986,0.65793025,0.6656188,0.35224932,,0.008602083,-0.014658917,0.111816436,0.5251895,-0.28449196,0.8020227,-0.80074424,-0.48424697,0.35258117,0.28807062,-0.8273869,-0.48212674,,0.20682946,1.3429974,0.55937505,0.9942028,-0.047275092,-0.096570715,-0.080031656,-0.92516696,-0.37102696,-0.0718037,0.37660474,-0.9235871,,-0.09432736,0.1461627,-0.06352243,-0.6435951,0.6650004,-0.3788929,0.69138974,0.29281524,-0.6604843,-0.3282767,-0.6870471,-0.6482289,,0.047038633,0.30394763,-0.42906263,-0.52979064,0.41576827,-0.7392284,-0.6014472,-0.79870576,-0.018174887,-0.5979825,0.434978,0.6732095,,0.37081474168876405,-0.4111891891552098,0.18634039121,3.6196678044298594,-0.741116374727749,1.70413494564206,0.16416078646495058,,-0.8533079234716887,-0.6702945998183163,0.09926081417,-0.5145791213110228,0.3705581873638745,-0.5382169138309197,1.396265077315819,,-0.12960378692996893,-0.40630610487958496,0.08492501888,0.05233371158368399,,-1.3329089e-05,1.3113022e-06,-1.1920929e-07,1.0,2.8098002e-05,1.1451542e-05,-2.8090551e-05,1.0,2.2053719e-06,-1.1451542e-05,-2.1755695e-06,1.0
1.8375503930146806,09:40:26.119517,09:40:19.229351,0,,0.1385103,-0.00974109,0.029294536,0.58649474,-0.7462918,0.31475776,0.4723894,-0.0004962981,-0.88138986,0.65793025,0.6656188,0.35224932,,0.008602083,-0.014658917,0.111816436,0.5251895,-0.28449196,0.8020227,-0.80074424,-0.48424697,0.35258117,0.28807062,-0.8273869,-0.48212674,,0.20682946,1.3429974,0.55937505,0.9942028,-0.047275092,-0.096570715,-0.080031656,-0.92516696,-0.37102696,-0.0718037,0.37660474,-0.9235871,,-0.09432736,0.1461627,-0.06352243,-0.6435951,0.6650004,-0.3788929,0.69138974,0.29281524,-0.6604843,-0.3282767,-0.6870471,-0.6482289,,0.047038633,0.30394763,-0.42906263,-0.52979064,0.41576827,-0.7392284,-0.6014472,-0.79870576,-0.018174887,-0.5979825,0.434978,0.6732095,,0.3708224644216383,-0.4111891891552098,0.18634039121,3.6196678044298594,-0.741116374727749,1.70413494564206,0.16416078646495058,,-0.8533002007388145,-0.6702945998183163,0.09926081417,-0.5145791213110228,0.3705581873638745,-0.5382169138309197,1.396265077315819,,-0.12960378692996893,-0.40630610487958496,0.08492501888,0.05233371158368399,,-1.3329089e-05,1.3113022e-06,-1.1920929e-07,1.0,2.8098002e-05,1.1451542e-05,-2.8090551e-05,1.0,2.2053719e-06,-1.1451542e-05,-2.1755695e-06,1.0
1.8560708240256645,09:40:26.139280,09:40:19.310515,0,,0.1385103,-0.00974109,0.029294536,0.58649474,-0.7462918,0.31475776,0.4723894,-0.0004962981,-0.88138986,0.65793025,0.6656188,0.35224932,,0.008602083,-0.014658917,0.111816436,0.5251895,-0.28449196,0.8020227,-0.80074424,-0.48424697,0.35258117,0.28807062,-0.8273869,-0.48212674,,0.20682946,1.3429974,0.55937505,0.9942028,-0.047275092,-0.096570715,-0.080031656,-0.92516696,-0.37102696,-0.0718037,0.37660474,-0.9235871,,-0.09432736,0.1461627,-0.06352243,-0.6435951,0.6650004,-0.3788929,0.69138974,0.29281524,-0.6604843,-0.3282767,-0.6870471,-0.6482289,,0.047038633,0.30394763,-0.42906263,-0.52979064,0.41576827,-0.7392284,-0.6014472,-0.79870576,-0.018174887,-0.5979825,0.434978,0.6732095,,0.3708224644216383,-0.4111891891552098,0.18634039121,3.6196678044298594,-0.741116374727749,1.7040532669019197,0.16432413053108497,,-0.8533002007388145,-0.6702868770854421,0.09926081417,-0.5145791213110228,0.3705581873638745,-0.5382169138309197,1.396265077315819,,-0.12960378692996893,-0.40630610487958496,0.08492501888,0.05233371158368399,,-1.3329089e-05,1.3113022e-06,-1.1920929e-07,1.0,2.8098002e-05,1.1451542e-05,-2.8090551e-05,1.0,2.2053719e-06,-1.1451542e-05,-2.1755695e-06,1.0
1.8758065050351433,09:40:26.158279,09:40:19.310515,0,,0.13848612,-0.009723201,0.02929528,0.5865226,-0.7462716,0.31475386,0.4723686,-0.0004952252,-0.881401,0.6579204,0.66564137,0.3522248,,0.008549005,-0.014659114,0.111804634,0.5251385,-0.2845658,0.80202997,-0.80078673,-0.48422164,0.35251942,0.2880453,-0.82737637,-0.48215994,,0.20683847,1.3429945,0.5593711,0.99420273,-0.047275823,-0.096571006,-0.08003244,-0.92516696,-0.37102687,-0.0718037,0.37660474,-0.9235871,,-0.094312295,0.146179,-0.06352226,-0.6436218,0.6649778,-0.3788872,0.69136655,0.29282472,-0.66050434,-0.32827318,-0.68706495,-0.6482118,,0.047083415,0.3039462,-0.4290619,-0.5297356,0.41583842,-0.73922837,-0.60149086,-0.7986713,-0.018244779,-0.59798735,0.4349742,0.6732077,,0.37081474168876405,-0.4111891891552098,0.18634039121,3.6196678044298594,-0.741116374727749,1.7040532669019197,0.16432413053108497,,-0.8533079234716887,-0.6702868770854421,0.09926081417,-0.5145791213110228,0.3705581873638745,-0.5382169138309197,1.396265077315819,,-0.12960378692996893,-0.40630610487958496,0.08492501888,0.05233371158368399,,-3.837049e-06,2.1457672e-06,3.695488e-06,1.0,2.7375296e-05,1.1153519e-05,-2.736412e-05,1.0,2.1457672e-06,-1.116097e-05,-2.115965e-06,1.0
1.8948100310517475,09:40:26.174191,09:40:19.310515,0,,0.13848612,-0.009723201,0.02929528,0.5865226,-0.7462716,0.31475386,0.4723686,-0.0004952252,-0.881401,0.6579204,0.66564137,0.3522248,,0.008549005,-0.014659114,0.111804634,0.5251385,-0.2845658,0.80202997,-0.80078673,-0.48422164,0.35251942,0.2880453,-0.82737637,-0.48215994,,0.20683847,1.3429945,0.5593711,0.99420273,-0.047275823,-0.096571006,-0.08003244,-0.92516696,-0.37102687,-0.0718037,0.37660474,-0.9235871,,-0.094312295,0.146179,-0.06352226,-0.6436218,0.6649778,-0.3788872,0.69136655,0.29282472,-0.66050434,-0.32827318,-0.68706495,-0.6482118,,0.047083415,0.3039462,-0.4290619,-0.5297356,0.41583842,-0.73922837,-0.60149086,-0.7986713,-0.018244779,-0.59798735,0.4349742,0.6732077,,0.3708224644216383,-0.4111891891552098,0.18634039121,3.6196678044298594,-0.741116374727749,1.703971588161779,0.16448747459721913,,-0.8533079234716887,-0.6702868770854421,0.09926081417,-0.5145791213110228,0.3705581873638745,-0.5382169138309197,1.396265077315819,,-0.12960378692996893,-0.40630610487958496,0.08492501888,0.05233371158368399,,-3.837049e-06,2.1457672e-06,3.695488e-06,1.0,2.7375296e-05,1.1153519e-05,-2.736412e-05,1.0,2.1457672e-06,-1.116097e-05,-2.115965e-06,1.0
1.9107510350295343,09:40:26.195964,09:40:19.310515,0,,0.13848612,-0.009723201,0.02929528,0.5865226,-0.7462716,0.31475386,0.4723686,-0.0004952252,-0.881401,0.6579204,0.66564137,0.3522248,,0.008549005,-0.014659114,0.111804634,0.5251385,-0.2845658,0.80202997,-0.80078673,-0.48422164,0.35251942,0.2880453,-0.82737637,-0.48215994,,0.20683847,1.3429945,0.5593711,0.99420273,-0.047275823,-0.096571006,-0.08003244,-0.92516696,-0.37102687,-0.0718037,0.37660474,-0.9235871,,-0.094312295,0.146179,-0.06352226,-0.6436218,0.6649778,-0.3788872,0.69136655,0.29282472,-0.66050434,-0.32827318,-0.68706495,-0.6482118,,0.047083415,0.3039462,-0.4290619,-0.5297356,0.41583842,-0.73922837,-0.60149086,-0.7986713,-0.018244779,-0.59798735,0.4349742,0.6732077,,0.3708224644216383,-0.4111891891552098,0.18634039121,3.6196678044298594,-0.741116374727749,1.703971588161779,0.16448747459721913,,-0.8533079234716887,-0.6702868770854421,0.09926081417,-0.5145791213110228,0.3705581873638745,-0.5382169138309197,1.396265077315819,,-0.12960378692996893,-0.40630610487958496,0.08492501888,0.05233371158368399,,-3.837049e-06,2.1457672e-06,3.695488e-06,1.0,2.7375296e-05,1.1153519e-05,-2.736412e-05,1.0,2.1457672e-06,-1.116097e-05,-2.115965e-06,1.0
1.929050698003266,09:40:26.213875,09:40:19.384332,0,,0.13848612,-0.009723201,0.02929528,0.5865226,-0.7462716,0.31475386,0.4723686,-0.0004952252,-0.881401,0.6579204,0.66564137,0.3522248,,0.008549005,-0.014659114,0.111804634,0.5251385,-0.2845658,0.80202997,-0.80078673,-0.48422164,0.35251942,0.2880453,-0.82737637,-0.48215994,,0.20683847,1.3429945,0.5593711,0.99420273,-0.047275823,-0.096571006,-0.08003244,-0.92516696,-0.37102687,-0.0718037,0.37660474,-0.9235871,,-0.094312295,0.146179,-0.06352226,-0.6436218,0.6649778,-0.3788872,0.69136655,0.29282472,-0.66050434,-0.32827318,-0.68706495,-0.6482118,,0.047083415,0.3039462,-0.4290619,-0.5297356,0.41583842,-0.73922837,-0.60149086,-0.7986713,-0.018244779,-0.59798735,0.4349742,0.6732077,,0.37081474168876405,-0.4111891891552098,0.18634039121,3.6196678044298594,-0.741116374727749,1.7038899094216386,0.16432413053108497,,-0.8533002007388145,-0.6702868770854421,0.09926081417,-0.5145791213110228,0.3705581873638745,-0.5382169138309197,1.396265077315819,,-0.12960378692996893,-0.40630610487958496,0.08492501888,0.05233371158368399,,-3.837049e-06,2.1457672e-06,3.695488e-06,1.0,2.7375296e-05,1.1153519e-05,-2.736412e-05,1.0,2.1457672e-06,-1.116097e-05,-2.115965e-06,1.0
