AlexandreBanks6/ExpertPlaybackApp/resources/Motions/PC1/Data_PC1_16.csv
Task Time,PC1 Time,PC2 Time,Gaze Calib,s_T_psm1,Tx,Ty,Tz,R00,R01,R02,R10,R11,R12,R20,R21,R22,s_T_psm3,Tx,Ty,Tz,R00,R01,R02,R10,R11,R12,R20,R21,R22,cart_T_ecm,Tx,Ty,Tz,R00,R01,R02,R10,R11,R12,R20,R21,R22,ecm_T_psm1,Tx,Ty,Tz,R00,R01,R02,R10,R11,R12,R20,R21,R22,ecm_T_psm3,Tx,Ty,Tz,R00,R01,R02,R10,R11,R12,R20,R21,R22,psm1_joints,q1,q2,q3,q4,q5,q6,jaw,psm3_joints,q1,q2,q3,q4,q5,q6,jaw,ecm_joints,q1,q2,q3,q4,ecmi_T_ecm,Tx,Ty,Tz,R00,R01,R02,R10,R11,R12,R20,R21,R22,Sample #,Task Duration (s),Collisions (binary),Collisions (increments),Cumulative Collision Time (s)
""
lci_T_si,,,,,-0.06863493,0.020407699,0.28920695,0.99557364,0.04005153,0.08502373,0.08490418,-0.77122074,-0.63088024,0.04030434,0.6353066,-0.7712076
rci_T_si,,,,,-0.07903458,0.025130104,0.29910687,0.9951181,0.021802366,0.096252985,0.07944793,-0.7555692,-0.65023315,0.05854917,0.6547059,-0.75361276
ecm_T_lc,,,,,-4.4061628e-05,-0.00034663224,-0.01840835,-0.99912,0.030754527,0.028518902,-0.031987965,-0.99852574,-0.043852776,0.027128186,-0.04472645,0.9986309
ecm_T_rc,,,,,-0.0043358393,0.01870579,-0.007592615,-0.99555075,-0.052743673,-0.078081585,0.04863213,-0.9973746,0.053654674,-0.08070653,0.04961868,0.9955021
cart_T_ecmi,,,,,0.08974457,1.3490142,0.48509386,0.9960522,0.0027382267,-0.088727064,-0.05378019,-0.7765919,-0.6277043,-0.07062352,0.629998,-0.7733788
ecmac_T_ecmrep_psm1,,,,,0.08626859,-0.2052861,-0.33370098,0.999004,0.025128257,0.036871605,-0.023534218,0.9987958,-0.04304718,-0.037908904,0.04213656,0.9983924
ecmac_T_ecmrep_psm3,,,,,-0.16209933,-0.49188918,-0.56672233,0.99379694,-0.09876928,0.05111077,0.087427974,0.9779163,0.18983154,-0.068731576,-0.18418549,0.98048544
""
0,10:09:29.772872,NaN,0,,0.027781967,0.049220018,0.075406104,-0.8669153,-0.3686775,-0.33546218,-0.49149558,0.7443251,0.45211992,0.08300643,0.55682784,-0.8264699,,0.1397415,-0.04406889,0.07331449,-0.743724,-0.61719024,0.25680935,-0.44553238,0.7440445,0.49789405,-0.49837294,0.25587887,-0.82834196,,0.08977013,1.3490126,0.48509157,0.9960515,0.0027281076,-0.088735245,-0.05379317,-0.7765919,-0.6277032,-0.07062352,0.629998,-0.7733788,,-0.0724799,0.27897578,-0.076264486,0.8813472,0.28308567,0.3782719,-0.24631955,0.95851904,-0.14341524,-0.40317965,0.033222858,0.9145176,,0.05506686,0.44359353,-0.3703578,0.8666326,0.45691583,-0.20043924,-0.49796999,0.76694816,-0.40474242,-0.031206707,0.45057568,0.8921926,,0.8198067082633028,-0.08604668968460949,0.15336925506000001,0.637038048305985,0.1186004817964023,0.3042501949415263,0.8704605284295741,,-0.6228615745048294,-0.6842109644576689,0.12753419536000002,1.4491671994215478,0.22722649910992745,0.7894661109903209,0.8673569911730228,,-0.06956664232292899,-0.10125745821601603,0.0886362022,-0.034016912529394594,,2.5704503e-05,-1.1920929e-07,4.7683716e-07,1.0,-1.007691e-05,-8.2068145e-06,1.007691e-05,1.0,-8.940697e-07,8.214265e-06,9.23872e-07,0.99999994,NaN,NaN,NaN,NaN,NaN
0.017982810999455978,10:09:29.787131,10:09:11.658693,0,,0.027781967,0.049220018,0.075406104,-0.8669153,-0.3686775,-0.33546218,-0.49149558,0.7443251,0.45211992,0.08300643,0.55682784,-0.8264699,,0.1397415,-0.04406889,0.07331449,-0.743724,-0.61719024,0.25680935,-0.44553238,0.7440445,0.49789405,-0.49837294,0.25587887,-0.82834196,,0.08977013,1.3490126,0.48509157,0.9960515,0.0027281076,-0.088735245,-0.05379317,-0.7765919,-0.6277032,-0.07062352,0.629998,-0.7733788,,-0.0724799,0.27897578,-0.076264486,0.8813472,0.28308567,0.3782719,-0.24631955,0.95851904,-0.14341524,-0.40317965,0.033222858,0.9145176,,0.05506686,0.44359353,-0.3703578,0.8666326,0.45691583,-0.20043924,-0.49796999,0.76694816,-0.40474242,-0.031206707,0.45057568,0.8921926,,0.8198067082633028,-0.08604668968460949,0.15336925506000001,0.637038048305985,0.1186004817964023,0.3042501949415263,0.8704605284295741,,-0.6228615745048294,-0.6842109644576689,0.12753419536000002,1.4491671994215478,0.22722649910992745,0.7894661109903209,0.8673569911730228,,-0.06956664232292899,-0.10125745821601603,0.0886362022,-0.034016912529394594,,2.5704503e-05,-1.1920929e-07,4.7683716e-07,1.0,-1.007691e-05,-8.2068145e-06,1.007691e-05,1.0,-8.940697e-07,8.214265e-06,9.23872e-07,0.99999994,NaN,NaN,NaN,NaN,NaN
0.032242690000202856,10:09:29.806078,10:09:11.658693,0,,0.027780998,0.049220435,0.07540648,-0.86691433,-0.36867416,-0.33546823,-0.49149647,0.74432296,0.45212245,0.08301081,0.55683285,-0.8264661,,0.1397415,-0.04406889,0.07331449,-0.743724,-0.61719024,0.25680935,-0.44553238,0.7440445,0.49789405,-0.49837294,0.25587887,-0.82834196,,0.08977013,1.3490126,0.48509157,0.9960515,0.0027281076,-0.088735245,-0.05379317,-0.7765919,-0.6277032,-0.07062352,0.629998,-0.7733788,,-0.07247899,0.27897644,-0.07626454,0.8813459,0.28308204,0.3782775,-0.24631754,0.9585203,-0.14341035,-0.40318355,0.03321775,0.91451603,,0.05506686,0.44359353,-0.3703578,0.8666326,0.45691583,-0.20043924,-0.49796999,0.76694816,-0.40474242,-0.031206707,0.45057568,0.8921926,,0.819814430996177,-0.08604668968460949,0.15336925506000001,0.637038048305985,0.1186004817964023,0.3042501949415263,0.8704605284295741,,-0.6228615745048294,-0.6842109644576689,0.12753419536000002,1.4491671994215478,0.22722649910992745,0.7894661109903209,0.8673569911730228,,-0.06956664232292899,-0.10125745821601603,0.0886362022,-0.034016912529394594,,2.5704503e-05,-1.1920929e-07,4.7683716e-07,1.0,-1.007691e-05,-8.2068145e-06,1.007691e-05,1.0,-8.940697e-07,8.214265e-06,9.23872e-07,0.99999994,NaN,NaN,NaN,NaN,NaN
0.05118564500025968,10:09:29.822232,10:09:11.658693,0,,0.027780533,0.049219407,0.07540646,-0.8669128,-0.3686745,-0.33547184,-0.49149823,0.7443257,0.45211604,0.083016604,0.5568289,-0.82646817,,0.1397415,-0.04406889,0.07331449,-0.743724,-0.61719024,0.25680935,-0.44553238,0.7440445,0.49789405,-0.49837294,0.25587887,-0.82834196,,0.08977013,1.3490126,0.48509157,0.9960515,0.0027281076,-0.088735245,-0.05379317,-0.7765919,-0.6277032,-0.07062352,0.629998,-0.7733788,,-0.07247847,0.27897567,-0.0762652,0.881344,0.28308257,0.3782816,-0.24631537,0.95851994,-0.14341623,-0.4031891,0.033222463,0.91451347,,0.05506686,0.44359353,-0.3703578,0.8666326,0.45691583,-0.20043924,-0.49796999,0.76694816,-0.40474242,-0.031206707,0.45057568,0.8921926,,0.819814430996177,-0.08605441241748371,0.15336925506000001,0.637038048305985,0.1186004817964023,0.3042501949415263,0.8704605284295741,,-0.6228615745048294,-0.6842109644576689,0.12753419536000002,1.4491671994215478,0.22722649910992745,0.7894661109903209,0.8673569911730228,,-0.06956664232292899,-0.10125745821601603,0.0886362022,-0.034016912529394594,,2.5704503e-05,-1.1920929e-07,4.7683716e-07,1.0,-1.007691e-05,-8.2068145e-06,1.007691e-05,1.0,-8.940697e-07,8.214265e-06,9.23872e-07,0.99999994,NaN,NaN,NaN,NaN,NaN
0.06734246599990001,10:09:29.842568,10:09:11.658693,0,,0.027780533,0.049219407,0.07540646,-0.8669128,-0.3686745,-0.33547184,-0.49149823,0.7443257,0.45211604,0.083016604,0.5568289,-0.82646817,,0.1397415,-0.04406889,0.07331449,-0.743724,-0.61719024,0.25680935,-0.44553238,0.7440445,0.49789405,-0.49837294,0.25587887,-0.82834196,,0.08977013,1.3490126,0.48509157,0.9960515,0.0027281076,-0.088735245,-0.05379317,-0.7765919,-0.6277032,-0.07062352,0.629998,-0.7733788,,-0.07247847,0.27897567,-0.0762652,0.881344,0.28308257,0.3782816,-0.24631537,0.95851994,-0.14341623,-0.4031891,0.033222463,0.91451347,,0.05506686,0.44359353,-0.3703578,0.8666326,0.45691583,-0.20043924,-0.49796999,0.76694816,-0.40474242,-0.031206707,0.45057568,0.8921926,,0.819814430996177,-0.08605441241748371,0.15336925506000001,0.637038048305985,0.1186004817964023,0.3042501949415263,0.8704605284295741,,-0.6228615745048294,-0.6842109644576689,0.12753419536000002,1.4491671994215478,0.22722649910992745,0.7894661109903209,0.8673569911730228,,-0.06956664232292899,-0.10125745821601603,0.0886362022,-0.034016912529394594,,2.5704503e-05,-1.1920929e-07,4.7683716e-07,1.0,-1.007691e-05,-8.2068145e-06,1.007691e-05,1.0,-8.940697e-07,8.214265e-06,9.23872e-07,0.99999994,NaN,NaN,NaN,NaN,NaN
0.0835109449999436,10:09:29.855721,10:09:11.729177,0,,0.027781505,0.049218975,0.075406075,-0.86691374,-0.36867785,-0.3354658,-0.49149734,0.7443278,0.4521135,0.08301219,0.55682397,-0.826472,,0.1397415,-0.04406889,0.07331449,-0.743724,-0.61719024,0.25680935,-0.44553238,0.7440445,0.49789405,-0.49837294,0.25587887,-0.82834196,,0.08977013,1.3490126,0.48509157,0.9960515,0.0027281076,-0.088735245,-0.05379317,-0.7765919,-0.6277032,-0.07062352,0.629998,-0.7733788,,-0.07247939,0.278975,-0.07626514,0.8813453,0.2830862,0.378276,-0.24631739,0.95851874,-0.14342111,-0.40318516,0.03322757,0.91451496,,0.05506686,0.44359353,-0.3703578,0.8666326,0.45691583,-0.20043924,-0.49796999,0.76694816,-0.40474242,-0.031206707,0.45057568,0.8921926,,0.8198067082633028,-0.08605441241748371,0.15336925506000001,0.637038048305985,0.1186004817964023,0.3042501949415263,0.8704605284295741,,-0.6228615745048294,-0.6842109644576689,0.12753419536000002,1.4491671994215478,0.22722649910992745,0.7894661109903209,0.8673569911730228,,-0.06956664232292899,-0.10125745821601603,0.0886362022,-0.034016912529394594,,2.5704503e-05,-1.1920929e-07,4.7683716e-07,1.0,-1.007691e-05,-8.2068145e-06,1.007691e-05,1.0,-8.940697e-07,8.214265e-06,9.23872e-07,0.99999994,NaN,NaN,NaN,NaN,NaN
0.10083055599989166,10:09:29.874931,10:09:11.729177,0,,0.027780998,0.049220435,0.07540648,-0.86691433,-0.36867416,-0.33546823,-0.49149647,0.74432296,0.45212245,0.08301081,0.55683285,-0.8264661,,0.1397415,-0.04406889,0.07331449,-0.743724,-0.61719024,0.25680935,-0.44553238,0.7440445,0.49789405,-0.49837294,0.25587887,-0.82834196,,0.08977013,1.3490126,0.48509157,0.9960515,0.0027281076,-0.088735245,-0.05379317,-0.7765919,-0.6277032,-0.07062352,0.629998,-0.7733788,,-0.07247899,0.27897644,-0.07626454,0.8813459,0.28308204,0.3782775,-0.24631754,0.9585203,-0.14341035,-0.40318355,0.03321775,0.91451603,,0.05506686,0.44359353,-0.3703578,0.8666326,0.45691583,-0.20043924,-0.49796999,0.76694816,-0.40474242,-0.031206707,0.45057568,0.8921926,,0.819814430996177,-0.08604668968460949,0.15336925506000001,0.637038048305985,0.1186004817964023,0.3042501949415263,0.8704605284295741,,-0.6228615745048294,-0.6842109644576689,0.12753419536000002,1.4491671994215478,0.22722649910992745,0.7894661109903209,0.8673569911730228,,-0.06956664232292899,-0.10125745821601603,0.0886362022,-0.034016912529394594,,2.5704503e-05,-1.1920929e-07,4.7683716e-07,1.0,-1.007691e-05,-8.2068145e-06,1.007691e-05,1.0,-8.940697e-07,8.214265e-06,9.23872e-07,0.99999994,NaN,NaN,NaN,NaN,NaN
0.11986058999991656,10:09:29.893578,10:09:11.729177,0,,0.027780998,0.049220435,0.07540648,-0.86691433,-0.36867416,-0.33546823,-0.49149647,0.74432296,0.45212245,0.08301081,0.55683285,-0.8264661,,0.1397415,-0.04406889,0.07331449,-0.743724,-0.61719024,0.25680935,-0.44553238,0.7440445,0.49789405,-0.49837294,0.25587887,-0.82834196,,0.08977013,1.3490126,0.48509157,0.9960515,0.0027281076,-0.088735245,-0.05379317,-0.7765919,-0.6277032,-0.07062352,0.629998,-0.7733788,,-0.07247899,0.27897644,-0.07626454,0.8813459,0.28308204,0.3782775,-0.24631754,0.9585203,-0.14341035,-0.40318355,0.03321775,0.91451603,,0.05506686,0.44359353,-0.3703578,0.8666326,0.45691583,-0.20043924,-0.49796999,0.76694816,-0.40474242,-0.031206707,0.45057568,0.8921926,,0.819814430996177,-0.08604668968460949,0.15336925506000001,0.637038048305985,0.1186004817964023,0.3042501949415263,0.8704605284295741,,-0.6228615745048294,-0.6842109644576689,0.12753419536000002,1.4491671994215478,0.22722649910992745,0.7894661109903209,0.8673569911730228,,-0.06956664232292899,-0.10125745821601603,0.0886362022,-0.034016912529394594,,2.5704503e-05,-1.1920929e-07,4.7683716e-07,1.0,-1.007691e-05,-8.2068145e-06,1.007691e-05,1.0,-8.940697e-07,8.214265e-06,9.23872e-07,0.99999994,NaN,NaN,NaN,NaN,NaN
0.1386657759994705,10:09:29.913126,10:09:11.729177,0,,0.027780533,0.049219407,0.07540646,-0.8669128,-0.3686745,-0.33547184,-0.49149823,0.7443257,0.45211604,0.083016604,0.5568289,-0.82646817,,0.1397415,-0.04406889,0.07331449,-0.743724,-0.61719024,0.25680935,-0.44553238,0.7440445,0.49789405,-0.49837294,0.25587887,-0.82834196,,0.08977013,1.3490126,0.48509157,0.9960515,0.0027281076,-0.088735245,-0.05379317,-0.7765919,-0.6277032,-0.07062352,0.629998,-0.7733788,,-0.07247847,0.27897567,-0.0762652,0.881344,0.28308257,0.3782816,-0.24631537,0.95851994,-0.14341623,-0.4031891,0.033222463,0.91451347,,0.05506686,0.44359353,-0.3703578,0.8666326,0.45691583,-0.20043924,-0.49796999,0.76694816,-0.40474242,-0.031206707,0.45057568,0.8921926,,0.819814430996177,-0.08605441241748371,0.15336925506000001,0.637038048305985,0.1186004817964023,0.3042501949415263,0.8704605284295741,,-0.6228615745048294,-0.6842109644576689,0.12753419536000002,1.4491671994215478,0.22722649910992745,0.7894661109903209,0.8673569911730228,,-0.06956664232292899,-0.10125745821601603,0.0886362022,-0.034016912529394594,,2.5704503e-05,-1.1920929e-07,4.7683716e-07,1.0,-1.007691e-05,-8.2068145e-06,1.007691e-05,1.0,-8.940697e-07,8.214265e-06,9.23872e-07,0.99999994,NaN,NaN,NaN,NaN,NaN
0.15821404100006475,10:09:29.944604,10:09:11.800310,0,,0.027780998,0.049220435,0.07540648,-0.86691433,-0.36867416,-0.33546823,-0.49149647,0.74432296,0.45212245,0.08301081,0.55683285,-0.8264661,,0.1397415,-0.04406889,0.07331449,-0.743724,-0.61719024,0.25680935,-0.44553238,0.7440445,0.49789405,-0.49837294,0.25587887,-0.82834196,,0.08977013,1.3490126,0.48509157,0.9960515,0.0027281076,-0.088735245,-0.05379317,-0.7765919,-0.6277032,-0.07062352,0.629998,-0.7733788,,-0.07247899,0.27897644,-0.07626454,0.8813459,0.28308204,0.3782775,-0.24631754,0.9585203,-0.14341035,-0.40318355,0.03321775,0.91451603,,0.05506686,0.44359353,-0.3703578,0.8666326,0.45691583,-0.20043924,-0.49796999,0.76694816,-0.40474242,-0.031206707,0.45057568,0.8921926,,0.819814430996177,-0.08604668968460949,0.15336925506000001,0.637038048305985,0.1186004817964023,0.3042501949415263,0.8704605284295741,,-0.6228615745048294,-0.6842109644576689,0.12753419536000002,1.4491671994215478,0.22722649910992745,0.7894661109903209,0.8673569911730228,,-0.06956664232292899,-0.10125745821601603,0.0886362022,-0.034016912529394594,,2.5704503e-05,-1.1920929e-07,4.7683716e-07,1.0,-1.007691e-05,-8.2068145e-06,1.007691e-05,1.0,-8.940697e-07,8.214265e-06,9.23872e-07,0.99999994,NaN,NaN,NaN,NaN,NaN
0.18968035200032318,10:09:29.957795,10:09:11.800310,0,,0.027780998,0.049220435,0.07540648,-0.86691433,-0.36867416,-0.33546823,-0.49149647,0.74432296,0.45212245,0.08301081,0.55683285,-0.8264661,,0.1397415,-0.04406889,0.07331449,-0.743724,-0.61719024,0.25680935,-0.44553238,0.7440445,0.49789405,-0.49837294,0.25587887,-0.82834196,,0.08977013,1.3490126,0.48509157,0.9960515,0.0027281076,-0.088735245,-0.05379317,-0.7765919,-0.6277032,-0.07062352,0.629998,-0.7733788,,-0.07247899,0.27897644,-0.07626454,0.8813459,0.28308204,0.3782775,-0.24631754,0.9585203,-0.14341035,-0.40318355,0.03321775,0.91451603,,0.05506686,0.44359353,-0.3703578,0.8666326,0.45691583,-0.20043924,-0.49796999,0.76694816,-0.40474242,-0.031206707,0.45057568,0.8921926,,0.819814430996177,-0.08604668968460949,0.15336925506000001,0.637038048305985,0.1186004817964023,0.3042501949415263,0.8704605284295741,,-0.6228615745048294,-0.6842109644576689,0.12753419536000002,1.4491671994215478,0.22722649910992745,0.7894661109903209,0.8673569911730228,,-0.06956664232292899,-0.10125745821601603,0.0886362022,-0.034016912529394594,,2.5704503e-05,-1.1920929e-07,4.7683716e-07,1.0,-1.007691e-05,-8.2068145e-06,1.007691e-05,1.0,-8.940697e-07,8.214265e-06,9.23872e-07,0.99999994,NaN,NaN,NaN,NaN,NaN
0.20290519399986806,10:09:29.978466,10:09:11.800310,0,,0.027780998,0.049220435,0.07540648,-0.86691433,-0.36867416,-0.33546823,-0.49149647,0.74432296,0.45212245,0.08301081,0.55683285,-0.8264661,,0.1397415,-0.04406889,0.07331449,-0.743724,-0.61719024,0.25680935,-0.44553238,0.7440445,0.49789405,-0.49837294,0.25587887,-0.82834196,,0.08977013,1.3490126,0.48509157,0.9960515,0.0027281076,-0.088735245,-0.05379317,-0.7765919,-0.6277032,-0.07062352,0.629998,-0.7733788,,-0.07247899,0.27897644,-0.07626454,0.8813459,0.28308204,0.3782775,-0.24631754,0.9585203,-0.14341035,-0.40318355,0.03321775,0.91451603,,0.05506686,0.44359353,-0.3703578,0.8666326,0.45691583,-0.20043924,-0.49796999,0.76694816,-0.40474242,-0.031206707,0.45057568,0.8921926,,0.819814430996177,-0.08604668968460949,0.15336925506000001,0.637038048305985,0.1186004817964023,0.3042501949415263,0.8704605284295741,,-0.6228615745048294,-0.6842109644576689,0.12753419536000002,1.4491671994215478,0.22722649910992745,0.7894661109903209,0.8673569911730228,,-0.06956664232292899,-0.10125745821601603,0.0886362022,-0.034016912529394594,,2.5704503e-05,-1.1920929e-07,4.7683716e-07,1.0,-1.007691e-05,-8.2068145e-06,1.007691e-05,1.0,-8.940697e-07,8.214265e-06,9.23872e-07,0.99999994,NaN,NaN,NaN,NaN,NaN
0.22355983099987498,10:09:29.989774,10:09:11.874788,0,,0.027781967,0.049220018,0.075406104,-0.8669153,-0.3686775,-0.33546218,-0.49149558,0.7443251,0.45211992,0.08300643,0.55682784,-0.8264699,,0.1397415,-0.04406889,0.07331449,-0.743724,-0.61719024,0.25680935,-0.44553238,0.7440445,0.49789405,-0.49837294,0.25587887,-0.82834196,,0.08977013,1.3490126,0.48509157,0.9960515,0.0027281076,-0.088735245,-0.05379317,-0.7765919,-0.6277032,-0.07062352,0.629998,-0.7733788,,-0.0724799,0.27897578,-0.076264486,0.8813472,0.28308567,0.3782719,-0.24631955,0.95851904,-0.14341524,-0.40317965,0.033222858,0.9145176,,0.05506686,0.44359353,-0.3703578,0.8666326,0.45691583,-0.20043924,-0.49796999,0.76694816,-0.40474242,-0.031206707,0.45057568,0.8921926,,0.8198067082633028,-0.08604668968460949,0.15336925506000001,0.637038048305985,0.1186004817964023,0.3042501949415263,0.8704605284295741,,-0.6228615745048294,-0.6842109644576689,0.12753419536000002,1.4491671994215478,0.22722649910992745,0.7894661109903209,0.8673569911730228,,-0.06956664232292899,-0.10125745821601603,0.0886362022,-0.034016912529394594,,2.5704503e-05,-1.1920929e-07,4.7683716e-07,1.0,-1.007691e-05,-8.2068145e-06,1.007691e-05,1.0,-8.940697e-07,8.214265e-06,9.23872e-07,0.99999994,NaN,NaN,NaN,NaN,NaN
0.23488449700016645,10:09:30.010479,10:09:11.874788,0,,0.027780998,0.049220435,0.07540648,-0.86691433,-0.36867416,-0.33546823,-0.49149647,0.74432296,0.45212245,0.08301081,0.55683285,-0.8264661,,0.1397415,-0.04406889,0.07331449,-0.743724,-0.61719024,0.25680935,-0.44553238,0.7440445,0.49789405,-0.49837294,0.25587887,-0.82834196,,0.08977013,1.3490126,0.48509157,0.9960515,0.0027281076,-0.088735245,-0.05379317,-0.7765919,-0.6277032,-0.07062352,0.629998,-0.7733788,,-0.07247899,0.27897644,-0.07626454,0.8813459,0.28308204,0.3782775,-0.24631754,0.9585203,-0.14341035,-0.40318355,0.03321775,0.91451603,,0.05506686,0.44359353,-0.3703578,0.8666326,0.45691583,-0.20043924,-0.49796999,0.76694816,-0.40474242,-0.031206707,0.45057568,0.8921926,,0.819814430996177,-0.08604668968460949,0.15336925506000001,0.637038048305985,0.1186004817964023,0.3042501949415263,0.8704605284295741,,-0.6228615745048294,-0.6842109644576689,0.12753419536000002,1.4491671994215478,0.22722649910992745,0.7894661109903209,0.8673569911730228,,-0.06956664232292899,-0.10125745821601603,0.0886362022,-0.034016912529394594,,2.5704503e-05,-1.1920929e-07,4.7683716e-07,1.0,-1.007691e-05,-8.2068145e-06,1.007691e-05,1.0,-8.940697e-07,8.214265e-06,9.23872e-07,0.99999994,NaN,NaN,NaN,NaN,NaN
0.25558015200022055,10:09:30.028617,10:09:11.874788,0,,0.027780533,0.049219407,0.07540646,-0.8669128,-0.3686745,-0.33547184,-0.49149823,0.7443257,0.45211604,0.083016604,0.5568289,-0.82646817,,0.1397415,-0.04406889,0.07331449,-0.743724,-0.61719024,0.25680935,-0.44553238,0.7440445,0.49789405,-0.49837294,0.25587887,-0.82834196,,0.08977013,1.3490126,0.48509157,0.9960515,0.0027281076,-0.088735245,-0.05379317,-0.7765919,-0.6277032,-0.07062352,0.629998,-0.7733788,,-0.07247847,0.27897567,-0.0762652,0.881344,0.28308257,0.3782816,-0.24631537,0.95851994,-0.14341623,-0.4031891,0.033222463,0.91451347,,0.05506686,0.44359353,-0.3703578,0.8666326,0.45691583,-0.20043924,-0.49796999,0.76694816,-0.40474242,-0.031206707,0.45057568,0.8921926,,0.819814430996177,-0.08605441241748371,0.15336925506000001,0.637038048305985,0.1186004817964023,0.3042501949415263,0.8704605284295741,,-0.6228615745048294,-0.6842109644576689,0.12753419536000002,1.4491671994215478,0.22722649910992745,0.7894661109903209,0.8673569911730228,,-0.06956664232292899,-0.10125745821601603,0.0886362022,-0.034016912529394594,,2.5704503e-05,-1.1920929e-07,4.7683716e-07,1.0,-1.007691e-05,-8.2068145e-06,1.007691e-05,1.0,-8.940697e-07,8.214265e-06,9.23872e-07,0.99999994,NaN,NaN,NaN,NaN,NaN
0.2737176840000757,10:09:30.040053,10:09:11.874788,0,,0.027780533,0.049219407,0.07540646,-0.8669128,-0.3686745,-0.33547184,-0.49149823,0.7443257,0.45211604,0.083016604,0.5568289,-0.82646817,,0.1397415,-0.04406889,0.07331449,-0.743724,-0.61719024,0.25680935,-0.44553238,0.7440445,0.49789405,-0.49837294,0.25587887,-0.82834196,,0.08977013,1.3490126,0.48509157,0.9960515,0.0027281076,-0.088735245,-0.05379317,-0.7765919,-0.6277032,-0.07062352,0.629998,-0.7733788,,-0.07247847,0.27897567,-0.0762652,0.881344,0.28308257,0.3782816,-0.24631537,0.95851994,-0.14341623,-0.4031891,0.033222463,0.91451347,,0.05506686,0.44359353,-0.3703578,0.8666326,0.45691583,-0.20043924,-0.49796999,0.76694816,-0.40474242,-0.031206707,0.45057568,0.8921926,,0.819814430996177,-0.08605441241748371,0.15336925506000001,0.637038048305985,0.1186004817964023,0.3042501949415263,0.8704605284295741,,-0.6228615745048294,-0.6842109644576689,0.12753419536000002,1.4491671994215478,0.22722649910992745,0.7894661109903209,0.8673569911730228,,-0.06956664232292899,-0.10125745821601603,0.0886362022,-0.034016912529394594,,2.5704503e-05,-1.1920929e-07,4.7683716e-07,1.0,-1.007691e-05,-8.2068145e-06,1.007691e-05,1.0,-8.940697e-07,8.214265e-06,9.23872e-07,0.99999994,NaN,NaN,NaN,NaN,NaN
0.2851630099994509,10:09:30.058240,10:09:11.874788,0,,0.027780533,0.049219407,0.07540646,-0.8669128,-0.3686745,-0.33547184,-0.49149823,0.7443257,0.45211604,0.083016604,0.5568289,-0.82646817,,0.1397415,-0.04406889,0.07331449,-0.743724,-0.61719024,0.25680935,-0.44553238,0.7440445,0.49789405,-0.49837294,0.25587887,-0.82834196,,0.08977013,1.3490126,0.48509157,0.9960515,0.0027281076,-0.088735245,-0.05379317,-0.7765919,-0.6277032,-0.07062352,0.629998,-0.7733788,,-0.07247847,0.27897567,-0.0762652,0.881344,0.28308257,0.3782816,-0.24631537,0.95851994,-0.14341623,-0.4031891,0.033222463,0.91451347,,0.05506686,0.44359353,-0.3703578,0.8666326,0.45691583,-0.20043924,-0.49796999,0.76694816,-0.40474242,-0.031206707,0.45057568,0.8921926,,0.819814430996177,-0.08605441241748371,0.15336925506000001,0.637038048305985,0.1186004817964023,0.3042501949415263,0.8704605284295741,,-0.6228615745048294,-0.6842109644576689,0.12753419536000002,1.4491671994215478,0.22722649910992745,0.7894661109903209,0.8673569911730228,,-0.06956664232292899,-0.10125745821601603,0.0886362022,-0.034016912529394594,,2.5704503e-05,-1.1920929e-07,4.7683716e-07,1.0,-1.007691e-05,-8.2068145e-06,1.007691e-05,1.0,-8.940697e-07,8.214265e-06,9.23872e-07,0.99999994,NaN,NaN,NaN,NaN,NaN
0.30334538999977667,10:09:30.075493,10:09:11.950247,0,,0.027780998,0.049220435,0.07540648,-0.86691433,-0.36867416,-0.33546823,-0.49149647,0.74432296,0.45212245,0.08301081,0.55683285,-0.8264661,,0.1397415,-0.04406889,0.07331449,-0.743724,-0.61719024,0.25680935,-0.44553238,0.7440445,0.49789405,-0.49837294,0.25587887,-0.82834196,,0.08977013,1.3490126,0.48509157,0.9960515,0.0027281076,-0.088735245,-0.05379317,-0.7765919,-0.6277032,-0.07062352,0.629998,-0.7733788,,-0.07247899,0.27897644,-0.07626454,0.8813459,0.28308204,0.3782775,-0.24631754,0.9585203,-0.14341035,-0.40318355,0.03321775,0.91451603,,0.05506686,0.44359353,-0.3703578,0.8666326,0.45691583,-0.20043924,-0.49796999,0.76694816,-0.40474242,-0.031206707,0.45057568,0.8921926,,0.819814430996177,-0.08604668968460949,0.15336925506000001,0.637038048305985,0.1186004817964023,0.3042501949415263,0.8704605284295741,,-0.6228615745048294,-0.6842109644576689,0.12753419536000002,1.4491671994215478,0.22722649910992745,0.7894661109903209,0.8673569911730228,,-0.06956664232292899,-0.10125745821601603,0.0886362022,-0.034016912529394594,,2.5704503e-05,-1.1920929e-07,4.7683716e-07,1.0,-1.007691e-05,-8.2068145e-06,1.007691e-05,1.0,-8.940697e-07,8.214265e-06,9.23872e-07,0.99999994,NaN,NaN,NaN,NaN,NaN
0.3205459319997317,10:09:30.090571,10:09:11.950247,0,,0.027780998,0.049220435,0.07540648,-0.86691433,-0.36867416,-0.33546823,-0.49149647,0.74432296,0.45212245,0.08301081,0.55683285,-0.8264661,,0.1397415,-0.04406889,0.07331449,-0.743724,-0.61719024,0.25680935,-0.44553238,0.7440445,0.49789405,-0.49837294,0.25587887,-0.82834196,,0.08977013,1.3490126,0.48509157,0.9960515,0.0027281076,-0.088735245,-0.05379317,-0.7765919,-0.6277032,-0.07062352,0.629998,-0.7733788,,-0.07247899,0.27897644,-0.07626454,0.8813459,0.28308204,0.3782775,-0.24631754,0.9585203,-0.14341035,-0.40318355,0.03321775,0.91451603,,0.05506686,0.44359353,-0.3703578,0.8666326,0.45691583,-0.20043924,-0.49796999,0.76694816,-0.40474242,-0.031206707,0.45057568,0.8921926,,0.819814430996177,-0.08604668968460949,0.15336925506000001,0.637038048305985,0.1186004817964023,0.3042501949415263,0.8704605284295741,,-0.6228615745048294,-0.6842109644576689,0.12753419536000002,1.4491671994215478,0.22722649910992745,0.7894661109903209,0.8673569911730228,,-0.06956664232292899,-0.10125745821601603,0.0886362022,-0.034016912529394594,,2.5704503e-05,-1.1920929e-07,4.7683716e-07,1.0,-1.007691e-05,-8.2068145e-06,1.007691e-05,1.0,-8.940697e-07,8.214265e-06,9.23872e-07,0.99999994,NaN,NaN,NaN,NaN,NaN
0.33568005899996933,10:09:30.109215,10:09:11.950247,0,,0.027781967,0.049220018,0.075406104,-0.8669153,-0.3686775,-0.33546218,-0.49149558,0.7443251,0.45211992,0.08300643,0.55682784,-0.8264699,,0.1397415,-0.04406889,0.07331449,-0.743724,-0.61719024,0.25680935,-0.44553238,0.7440445,0.49789405,-0.49837294,0.25587887,-0.82834196,,0.08977013,1.3490126,0.48509157,0.9960515,0.0027281076,-0.088735245,-0.05379317,-0.7765919,-0.6277032,-0.07062352,0.629998,-0.7733788,,-0.0724799,0.27897578,-0.076264486,0.8813472,0.28308567,0.3782719,-0.24631955,0.95851904,-0.14341524,-0.40317965,0.033222858,0.9145176,,0.05506686,0.44359353,-0.3703578,0.8666326,0.45691583,-0.20043924,-0.49796999,0.76694816,-0.40474242,-0.031206707,0.45057568,0.8921926,,0.8198067082633028,-0.08604668968460949,0.15336925506000001,0.637038048305985,0.1186004817964023,0.3042501949415263,0.8704605284295741,,-0.6228615745048294,-0.6842109644576689,0.12753419536000002,1.4491671994215478,0.22722649910992745,0.7894661109903209,0.8673569911730228,,-0.06956664232292899,-0.10125745821601603,0.0886362022,-0.034016912529394594,,2.5704503e-05,-1.1920929e-07,4.7683716e-07,1.0,-1.007691e-05,-8.2068145e-06,1.007691e-05,1.0,-8.940697e-07,8.214265e-06,9.23872e-07,0.99999994,NaN,NaN,NaN,NaN,NaN
0.3542810349999854,10:09:30.126581,10:09:11.950247,0,,0.027781505,0.049218975,0.075406075,-0.86691374,-0.36867785,-0.3354658,-0.49149734,0.7443278,0.4521135,0.08301219,0.55682397,-0.826472,,0.1397415,-0.04406889,0.07331449,-0.743724,-0.61719024,0.25680935,-0.44553238,0.7440445,0.49789405,-0.49837294,0.25587887,-0.82834196,,0.08977013,1.3490126,0.48509157,0.9960515,0.0027281076,-0.088735245,-0.05379317,-0.7765919,-0.6277032,-0.07062352,0.629998,-0.7733788,,-0.07247939,0.278975,-0.07626514,0.8813453,0.2830862,0.378276,-0.24631739,0.95851874,-0.14342111,-0.40318516,0.03322757,0.91451496,,0.05506686,0.44359353,-0.3703578,0.8666326,0.45691583,-0.20043924,-0.49796999,0.76694816,-0.40474242,-0.031206707,0.45057568,0.8921926,,0.8198067082633028,-0.08605441241748371,0.15336925506000001,0.637038048305985,0.1186004817964023,0.3042501949415263,0.8704605284295741,,-0.6228615745048294,-0.6842109644576689,0.12753419536000002,1.4491671994215478,0.22722649910992745,0.7894661109903209,0.8673569911730228,,-0.06956664232292899,-0.10125745821601603,0.0886362022,-0.034016912529394594,,2.5704503e-05,-1.1920929e-07,4.7683716e-07,1.0,-1.007691e-05,-8.2068145e-06,1.007691e-05,1.0,-8.940697e-07,8.214265e-06,9.23872e-07,0.99999994,NaN,NaN,NaN,NaN,NaN
0.3716906600002403,10:09:30.139713,10:09:11.950247,0,,0.027781505,0.049218975,0.075406075,-0.86691374,-0.36867785,-0.3354658,-0.49149734,0.7443278,0.4521135,0.08301219,0.55682397,-0.826472,,0.1397415,-0.04406889,0.07331449,-0.743724,-0.61719024,0.25680935,-0.44553238,0.7440445,0.49789405,-0.49837294,0.25587887,-0.82834196,,0.08977013,1.3490126,0.48509157,0.9960515,0.0027281076,-0.088735245,-0.05379317,-0.7765919,-0.6277032,-0.07062352,0.629998,-0.7733788,,-0.07247939,0.278975,-0.07626514,0.8813453,0.2830862,0.378276,-0.24631739,0.95851874,-0.14342111,-0.40318516,0.03322757,0.91451496,,0.05506686,0.44359353,-0.3703578,0.8666326,0.45691583,-0.20043924,-0.49796999,0.76694816,-0.40474242,-0.031206707,0.45057568,0.8921926,,0.8198067082633028,-0.08605441241748371,0.15336925506000001,0.637038048305985,0.1186004817964023,0.3042501949415263,0.8704605284295741,,-0.6228615745048294,-0.6842109644576689,0.12753419536000002,1.4491671994215478,0.22722649910992745,0.7894661109903209,0.8673569911730228,,-0.06956664232292899,-0.10125745821601603,0.0886362022,-0.034016912529394594,,2.5704503e-05,-1.1920929e-07,4.7683716e-07,1.0,-1.007691e-05,-8.2068145e-06,1.007691e-05,1.0,-8.940697e-07,8.214265e-06,9.23872e-07,0.99999994,NaN,NaN,NaN,NaN,NaN
0.38482051299979503,10:09:30.159793,10:09:12.030764,0,,0.027780533,0.049219407,0.07540646,-0.8669128,-0.3686745,-0.33547184,-0.49149823,0.7443257,0.45211604,0.083016604,0.5568289,-0.82646817,,0.1397415,-0.04406889,0.07331449,-0.743724,-0.61719024,0.25680935,-0.44553238,0.7440445,0.49789405,-0.49837294,0.25587887,-0.82834196,,0.08977013,1.3490126,0.48509157,0.9960515,0.0027281076,-0.088735245,-0.05379317,-0.7765919,-0.6277032,-0.07062352,0.629998,-0.7733788,,-0.07247847,0.27897567,-0.0762652,0.881344,0.28308257,0.3782816,-0.24631537,0.95851994,-0.14341623,-0.4031891,0.033222463,0.91451347,,0.05506686,0.44359353,-0.3703578,0.8666326,0.45691583,-0.20043924,-0.49796999,0.76694816,-0.40474242,-0.031206707,0.45057568,0.8921926,,0.819814430996177,-0.08605441241748371,0.15336925506000001,0.637038048305985,0.1186004817964023,0.3042501949415263,0.8704605284295741,,-0.6228615745048294,-0.6842109644576689,0.12753419536000002,1.4491671994215478,0.22722649910992745,0.7894661109903209,0.8673569911730228,,-0.06956664232292899,-0.10125745821601603,0.0886362022,-0.034016912529394594,,2.5704503e-05,-1.1920929e-07,4.7683716e-07,1.0,-1.007691e-05,-8.2068145e-06,1.007691e-05,1.0,-8.940697e-07,8.214265e-06,9.23872e-07,0.99999994,NaN,NaN,NaN,NaN,NaN
0.4048660150001524,10:09:30.178840,10:09:12.030764,0,,0.027780533,0.049219407,0.07540646,-0.8669128,-0.3686745,-0.33547184,-0.49149823,0.7443257,0.45211604,0.083016604,0.5568289,-0.82646817,,0.1397415,-0.04406889,0.07331449,-0.743724,-0.61719024,0.25680935,-0.44553238,0.7440445,0.49789405,-0.49837294,0.25587887,-0.82834196,,0.08977013,1.3490126,0.48509157,0.9960515,0.0027281076,-0.088735245,-0.05379317,-0.7765919,-0.6277032,-0.07062352,0.629998,-0.7733788,,-0.07247847,0.27897567,-0.0762652,0.881344,0.28308257,0.3782816,-0.24631537,0.95851994,-0.14341623,-0.4031891,0.033222463,0.91451347,,0.05506686,0.44359353,-0.3703578,0.8666326,0.45691583,-0.20043924,-0.49796999,0.76694816,-0.40474242,-0.031206707,0.45057568,0.8921926,,0.819814430996177,-0.08605441241748371,0.15336925506000001,0.637038048305985,0.1186004817964023,0.3042501949415263,0.8704605284295741,,-0.6228615745048294,-0.6842109644576689,0.12753419536000002,1.4491671994215478,0.22722649910992745,0.7894661109903209,0.8673569911730228,,-0.06956664232292899,-0.10125745821601603,0.0886362022,-0.034016912529394594,,2.5704503e-05,-1.1920929e-07,4.7683716e-07,1.0,-1.007691e-05,-8.2068145e-06,1.007691e-05,1.0,-8.940697e-07,8.214265e-06,9.23872e-07,0.99999994,NaN,NaN,NaN,NaN,NaN
0.4239070289995652,10:09:30.198113,10:09:12.030764,0,,0.027780998,0.049220435,0.07540648,-0.86691433,-0.36867416,-0.33546823,-0.49149647,0.74432296,0.45212245,0.08301081,0.55683285,-0.8264661,,0.1397415,-0.04406889,0.07331449,-0.743724,-0.61719024,0.25680935,-0.44553238,0.7440445,0.49789405,-0.49837294,0.25587887,-0.82834196,,0.08977013,1.3490126,0.48509157,0.9960515,0.0027281076,-0.088735245,-0.05379317,-0.7765919,-0.6277032,-0.07062352,0.629998,-0.7733788,,-0.07247899,0.27897644,-0.07626454,0.8813459,0.28308204,0.3782775,-0.24631754,0.9585203,-0.14341035,-0.40318355,0.03321775,0.91451603,,0.05506686,0.44359353,-0.3703578,0.8666326,0.45691583,-0.20043924,-0.49796999,0.76694816,-0.40474242,-0.031206707,0.45057568,0.8921926,,0.819814430996177,-0.08604668968460949,0.15336925506000001,0.637038048305985,0.1186004817964023,0.3042501949415263,0.8704605284295741,,-0.6228615745048294,-0.6842109644576689,0.12753419536000002,1.4491671994215478,0.22722649910992745,0.7894661109903209,0.8673569911730228,,-0.06956664232292899,-0.10125745821601603,0.0886362022,-0.034016912529394594,,2.5704503e-05,-1.1920929e-07,4.7683716e-07,1.0,-1.007691e-05,-8.2068145e-06,1.007691e-05,1.0,-8.940697e-07,8.214265e-06,9.23872e-07,0.99999994,NaN,NaN,NaN,NaN,NaN
0.4432166970000253,10:09:30.211708,10:09:12.030764,0,,0.027780998,0.049220435,0.07540648,-0.86691433,-0.36867416,-0.33546823,-0.49149647,0.74432296,0.45212245,0.08301081,0.55683285,-0.8264661,,0.1397415,-0.04406889,0.07331449,-0.743724,-0.61719024,0.25680935,-0.44553238,0.7440445,0.49789405,-0.49837294,0.25587887,-0.82834196,,0.08977013,1.3490126,0.48509157,0.9960515,0.0027281076,-0.088735245,-0.05379317,-0.7765919,-0.6277032,-0.07062352,0.629998,-0.7733788,,-0.07247899,0.27897644,-0.07626454,0.8813459,0.28308204,0.3782775,-0.24631754,0.9585203,-0.14341035,-0.40318355,0.03321775,0.91451603,,0.05506686,0.44359353,-0.3703578,0.8666326,0.45691583,-0.20043924,-0.49796999,0.76694816,-0.40474242,-0.031206707,0.45057568,0.8921926,,0.819814430996177,-0.08604668968460949,0.15336925506000001,0.637038048305985,0.1186004817964023,0.3042501949415263,0.8704605284295741,,-0.6228615745048294,-0.6842109644576689,0.12753419536000002,1.4491671994215478,0.22722649910992745,0.7894661109903209,0.8673569911730228,,-0.06956664232292899,-0.10125745821601603,0.0886362022,-0.034016912529394594,,2.5704503e-05,-1.1920929e-07,4.7683716e-07,1.0,-1.007691e-05,-8.2068145e-06,1.007691e-05,1.0,-8.940697e-07,8.214265e-06,9.23872e-07,0.99999994,NaN,NaN,NaN,NaN,NaN
0.4567310809998162,10:09:30.235054,10:09:12.104964,0,,0.027780998,0.049220435,0.07540648,-0.86691433,-0.36867416,-0.33546823,-0.49149647,0.74432296,0.45212245,0.08301081,0.55683285,-0.8264661,,0.1397415,-0.04406889,0.07331449,-0.743724,-0.61719024,0.25680935,-0.44553238,0.7440445,0.49789405,-0.49837294,0.25587887,-0.82834196,,0.08977013,1.3490126,0.48509157,0.9960515,0.0027281076,-0.088735245,-0.05379317,-0.7765919,-0.6277032,-0.07062352,0.629998,-0.7733788,,-0.07247899,0.27897644,-0.07626454,0.8813459,0.28308204,0.3782775,-0.24631754,0.9585203,-0.14341035,-0.40318355,0.03321775,0.91451603,,0.05506686,0.44359353,-0.3703578,0.8666326,0.45691583,-0.20043924,-0.49796999,0.76694816,-0.40474242,-0.031206707,0.45057568,0.8921926,,0.819814430996177,-0.08604668968460949,0.15336925506000001,0.637038048305985,0.1186004817964023,0.3042501949415263,0.8704605284295741,,-0.6228615745048294,-0.6842109644576689,0.12753419536000002,1.4491671994215478,0.22722649910992745,0.7894661109903209,0.8673569911730228,,-0.06956664232292899,-0.10125745821601603,0.0886362022,-0.034016912529394594,,2.5704503e-05,-1.1920929e-07,4.7683716e-07,1.0,-1.007691e-05,-8.2068145e-06,1.007691e-05,1.0,-8.940697e-07,8.214265e-06,9.23872e-07,0.99999994,NaN,NaN,NaN,NaN,NaN
0.4801647710000907,10:09:30.251185,10:09:12.104964,0,,0.027780998,0.049220435,0.07540648,-0.86691433,-0.36867416,-0.33546823,-0.49149647,0.74432296,0.45212245,0.08301081,0.55683285,-0.8264661,,0.1397415,-0.04406889,0.07331449,-0.743724,-0.61719024,0.25680935,-0.44553238,0.7440445,0.49789405,-0.49837294,0.25587887,-0.82834196,,0.08977013,1.3490126,0.48509157,0.9960515,0.0027281076,-0.088735245,-0.05379317,-0.7765919,-0.6277032,-0.07062352,0.629998,-0.7733788,,-0.07247899,0.27897644,-0.07626454,0.8813459,0.28308204,0.3782775,-0.24631754,0.9585203,-0.14341035,-0.40318355,0.03321775,0.91451603,,0.05506686,0.44359353,-0.3703578,0.8666326,0.45691583,-0.20043924,-0.49796999,0.76694816,-0.40474242,-0.031206707,0.45057568,0.8921926,,0.819814430996177,-0.08604668968460949,0.15336925506000001,0.637038048305985,0.1186004817964023,0.3042501949415263,0.8704605284295741,,-0.6228615745048294,-0.6842109644576689,0.12753419536000002,1.4491671994215478,0.22722649910992745,0.7894661109903209,0.8673569911730228,,-0.06956664232292899,-0.10125745821601603,0.0886362022,-0.034016912529394594,,2.5704503e-05,-1.1920929e-07,4.7683716e-07,1.0,-1.007691e-05,-8.2068145e-06,1.007691e-05,1.0,-8.940697e-07,8.214265e-06,9.23872e-07,0.99999994,NaN,NaN,NaN,NaN,NaN
0.4962905310003407,10:09:30.270349,10:09:12.104964,0,,0.027780533,0.049219407,0.07540646,-0.8669128,-0.3686745,-0.33547184,-0.49149823,0.7443257,0.45211604,0.083016604,0.5568289,-0.82646817,,0.13974087,-0.0440691,0.07331425,-0.7437265,-0.61718994,0.25680268,-0.44553533,0.744044,0.49789208,-0.49836648,0.25588083,-0.8283452,,0.08977013,1.3490126,0.48509157,0.9960515,0.0027281076,-0.088735245,-0.05379317,-0.7765919,-0.6277032,-0.07062352,0.629998,-0.7733788,,-0.07247847,0.27897567,-0.0762652,0.881344,0.28308257,0.3782816,-0.24631537,0.95851994,-0.14341623,-0.4031891,0.033222463,0.91451347,,0.055067558,0.44359332,-0.37035778,0.86663455,0.45691532,-0.20043196,-0.4979662,0.76694936,-0.40474474,-0.031212904,0.4505741,0.8921932,,0.819814430996177,-0.08605441241748371,0.15336925506000001,0.637038048305985,0.1186004817964023,0.3042501949415263,0.8704605284295741,,-0.6228538517719552,-0.6842109644576689,0.12753419536000002,1.4491671994215478,0.22722649910992745,0.7894661109903209,0.8673569911730228,,-0.06956664232292899,-0.10125745821601603,0.0886362022,-0.034016912529394594,,2.5704503e-05,-1.1920929e-07,4.7683716e-07,1.0,-1.007691e-05,-8.2068145e-06,1.007691e-05,1.0,-8.940697e-07,8.214265e-06,9.23872e-07,0.99999994,NaN,NaN,NaN,NaN,NaN
0.5152813459999379,10:09:30.286105,10:09:12.104964,0,,0.027780998,0.049220435,0.07540648,-0.86691433,-0.36867416,-0.33546823,-0.49149647,0.74432296,0.45212245,0.08301081,0.55683285,-0.8264661,,0.1397415,-0.04406889,0.07331449,-0.743724,-0.61719024,0.25680935,-0.44553238,0.7440445,0.49789405,-0.49837294,0.25587887,-0.82834196,,0.08977013,1.3490126,0.48509157,0.9960515,0.0027281076,-0.088735245,-0.05379317,-0.7765919,-0.6277032,-0.07062352,0.629998,-0.7733788,,-0.07247899,0.27897644,-0.07626454,0.8813459,0.28308204,0.3782775,-0.24631754,0.9585203,-0.14341035,-0.40318355,0.03321775,0.91451603,,0.05506686,0.44359353,-0.3703578,0.8666326,0.45691583,-0.20043924,-0.49796999,0.76694816,-0.40474242,-0.031206707,0.45057568,0.8921926,,0.819814430996177,-0.08604668968460949,0.15336925506000001,0.637038048305985,0.1186004817964023,0.3042501949415263,0.8704605284295741,,-0.6228615745048294,-0.6842109644576689,0.12753419536000002,1.4491671994215478,0.22722649910992745,0.7894661109903209,0.8673569911730228,,-0.06956664232292899,-0.10125745821601603,0.0886362022,-0.034016912529394594,,2.5704503e-05,-1.1920929e-07,4.7683716e-07,1.0,-1.007691e-05,-8.2068145e-06,1.007691e-05,1.0,-8.940697e-07,8.214265e-06,9.23872e-07,0.99999994,NaN,NaN,NaN,NaN,NaN
0.5312093689999529,10:09:30.305131,10:09:12.184797,0,,0.027780998,0.049220435,0.07540648,-0.86691433,-0.36867416,-0.33546823,-0.49149647,0.74432296,0.45212245,0.08301081,0.55683285,-0.8264661,,0.1397415,-0.04406889,0.07331449,-0.743724,-0.61719024,0.25680935,-0.44553238,0.7440445,0.49789405,-0.49837294,0.25587887,-0.82834196,,0.08977013,1.3490126,0.48509157,0.9960515,0.0027281076,-0.088735245,-0.05379317,-0.7765919,-0.6277032,-0.07062352,0.629998,-0.7733788,,-0.07247899,0.27897644,-0.07626454,0.8813459,0.28308204,0.3782775,-0.24631754,0.9585203,-0.14341035,-0.40318355,0.03321775,0.91451603,,0.05506686,0.44359353,-0.3703578,0.8666326,0.45691583,-0.20043924,-0.49796999,0.76694816,-0.40474242,-0.031206707,0.45057568,0.8921926,,0.819814430996177,-0.08604668968460949,0.15336925506000001,0.637038048305985,0.1186004817964023,0.3042501949415263,0.8704605284295741,,-0.6228615745048294,-0.6842109644576689,0.12753419536000002,1.4491671994215478,0.22722649910992745,0.7894661109903209,0.8673569911730228,,-0.06956664232292899,-0.10125745821601603,0.0886362022,-0.034016912529394594,,2.5704503e-05,-1.1920929e-07,4.7683716e-07,1.0,-1.007691e-05,-8.2068145e-06,1.007691e-05,1.0,-8.940697e-07,8.214265e-06,9.23872e-07,0.99999994,NaN,NaN,NaN,NaN,NaN
0.5476166039998134,10:09:30.319649,10:09:12.184797,0,,0.027781967,0.049220018,0.075406104,-0.8669153,-0.3686775,-0.33546218,-0.49149558,0.7443251,0.45211992,0.08300643,0.55682784,-0.8264699,,0.1397415,-0.04406889,0.07331449,-0.743724,-0.61719024,0.25680935,-0.44553238,0.7440445,0.49789405,-0.49837294,0.25587887,-0.82834196,,0.08977013,1.3490126,0.48509157,0.9960515,0.0027281076,-0.088735245,-0.05379317,-0.7765919,-0.6277032,-0.07062352,0.629998,-0.7733788,,-0.0724799,0.27897578,-0.076264486,0.8813472,0.28308567,0.3782719,-0.24631955,0.95851904,-0.14341524,-0.40317965,0.033222858,0.9145176,,0.05506686,0.44359353,-0.3703578,0.8666326,0.45691583,-0.20043924,-0.49796999,0.76694816,-0.40474242,-0.031206707,0.45057568,0.8921926,,0.8198067082633028,-0.08604668968460949,0.15336925506000001,0.637038048305985,0.1186004817964023,0.3042501949415263,0.8704605284295741,,-0.6228615745048294,-0.6842109644576689,0.12753419536000002,1.4491671994215478,0.22722649910992745,0.7894661109903209,0.8673569911730228,,-0.06956664232292899,-0.10125745821601603,0.0886362022,-0.034016912529394594,,2.5704503e-05,-1.1920929e-07,4.7683716e-07,1.0,-1.007691e-05,-8.2068145e-06,1.007691e-05,1.0,-8.940697e-07,8.214265e-06,9.23872e-07,0.99999994,NaN,NaN,NaN,NaN,NaN
0.5647556220001206,10:09:30.336695,10:09:12.184797,0,,0.027781967,0.049220018,0.075406104,-0.8669153,-0.3686775,-0.33546218,-0.49149558,0.7443251,0.45211992,0.08300643,0.55682784,-0.8264699,,0.1397415,-0.04406889,0.07331449,-0.743724,-0.61719024,0.25680935,-0.44553238,0.7440445,0.49789405,-0.49837294,0.25587887,-0.82834196,,0.08977013,1.3490126,0.48509157,0.9960515,0.0027281076,-0.088735245,-0.05379317,-0.7765919,-0.6277032,-0.07062352,0.629998,-0.7733788,,-0.0724799,0.27897578,-0.076264486,0.8813472,0.28308567,0.3782719,-0.24631955,0.95851904,-0.14341524,-0.40317965,0.033222858,0.9145176,,0.05506686,0.44359353,-0.3703578,0.8666326,0.45691583,-0.20043924,-0.49796999,0.76694816,-0.40474242,-0.031206707,0.45057568,0.8921926,,0.8198067082633028,-0.08604668968460949,0.15336925506000001,0.637038048305985,0.1186004817964023,0.3042501949415263,0.8704605284295741,,-0.6228615745048294,-0.6842109644576689,0.12753419536000002,1.4491671994215478,0.22722649910992745,0.7894661109903209,0.8673569911730228,,-0.06956664232292899,-0.10125745821601603,0.0886362022,-0.034016912529394594,,2.5704503e-05,-1.1920929e-07,4.7683716e-07,1.0,-1.007691e-05,-8.2068145e-06,1.007691e-05,1.0,-8.940697e-07,8.214265e-06,9.23872e-07,0.99999994,NaN,NaN,NaN,NaN,NaN
0.5817884640000557,10:09:30.352540,10:09:12.184797,0,,0.027780998,0.049220435,0.07540648,-0.86691433,-0.36867416,-0.33546823,-0.49149647,0.74432296,0.45212245,0.08301081,0.55683285,-0.8264661,,0.1397415,-0.04406889,0.07331449,-0.743724,-0.61719024,0.25680935,-0.44553238,0.7440445,0.49789405,-0.49837294,0.25587887,-0.82834196,,0.08977013,1.3490126,0.48509157,0.9960515,0.0027281076,-0.088735245,-0.05379317,-0.7765919,-0.6277032,-0.07062352,0.629998,-0.7733788,,-0.07247899,0.27897644,-0.07626454,0.8813459,0.28308204,0.3782775,-0.24631754,0.9585203,-0.14341035,-0.40318355,0.03321775,0.91451603,,0.05506686,0.44359353,-0.3703578,0.8666326,0.45691583,-0.20043924,-0.49796999,0.76694816,-0.40474242,-0.031206707,0.45057568,0.8921926,,0.819814430996177,-0.08604668968460949,0.15336925506000001,0.637038048305985,0.1186004817964023,0.3042501949415263,0.8704605284295741,,-0.6228615745048294,-0.6842109644576689,0.12753419536000002,1.4491671994215478,0.22722649910992745,0.7894661109903209,0.8673569911730228,,-0.06956664232292899,-0.10125745821601603,0.0886362022,-0.034016912529394594,,2.5704503e-05,-1.1920929e-07,4.7683716e-07,1.0,-1.007691e-05,-8.2068145e-06,1.007691e-05,1.0,-8.940697e-07,8.214265e-06,9.23872e-07,0.99999994,NaN,NaN,NaN,NaN,NaN
0.5976479099999779,10:09:30.371135,10:09:12.184797,0,,0.027780998,0.049220435,0.07540648,-0.86691433,-0.36867416,-0.33546823,-0.49149647,0.74432296,0.45212245,0.08301081,0.55683285,-0.8264661,,0.1397415,-0.04406889,0.07331449,-0.743724,-0.61719024,0.25680935,-0.44553238,0.7440445,0.49789405,-0.49837294,0.25587887,-0.82834196,,0.08977013,1.3490126,0.48509157,0.9960515,0.0027281076,-0.088735245,-0.05379317,-0.7765919,-0.6277032,-0.07062352,0.629998,-0.7733788,,-0.07247899,0.27897644,-0.07626454,0.8813459,0.28308204,0.3782775,-0.24631754,0.9585203,-0.14341035,-0.40318355,0.03321775,0.91451603,,0.05506686,0.44359353,-0.3703578,0.8666326,0.45691583,-0.20043924,-0.49796999,0.76694816,-0.40474242,-0.031206707,0.45057568,0.8921926,,0.819814430996177,-0.08604668968460949,0.15336925506000001,0.637038048305985,0.1186004817964023,0.3042501949415263,0.8704605284295741,,-0.6228615745048294,-0.6842109644576689,0.12753419536000002,1.4491671994215478,0.22722649910992745,0.7894661109903209,0.8673569911730228,,-0.06956664232292899,-0.10125745821601603,0.0886362022,-0.034016912529394594,,2.5704503e-05,-1.1920929e-07,4.7683716e-07,1.0,-1.007691e-05,-8.2068145e-06,1.007691e-05,1.0,-8.940697e-07,8.214265e-06,9.23872e-07,0.99999994,NaN,NaN,NaN,NaN,NaN
0.616053963000013,10:09:30.386699,10:09:12.184797,0,,0.027780533,0.049219407,0.07540646,-0.8669128,-0.3686745,-0.33547184,-0.49149823,0.7443257,0.45211604,0.083016604,0.5568289,-0.82646817,,0.1397415,-0.04406889,0.07331449,-0.743724,-0.61719024,0.25680935,-0.44553238,0.7440445,0.49789405,-0.49837294,0.25587887,-0.82834196,,0.08977013,1.3490126,0.48509157,0.9960515,0.0027281076,-0.088735245,-0.05379317,-0.7765919,-0.6277032,-0.07062352,0.629998,-0.7733788,,-0.07247847,0.27897567,-0.0762652,0.881344,0.28308257,0.3782816,-0.24631537,0.95851994,-0.14341623,-0.4031891,0.033222463,0.91451347,,0.05506686,0.44359353,-0.3703578,0.8666326,0.45691583,-0.20043924,-0.49796999,0.76694816,-0.40474242,-0.031206707,0.45057568,0.8921926,,0.819814430996177,-0.08605441241748371,0.15336925506000001,0.637038048305985,0.1186004817964023,0.3042501949415263,0.8704605284295741,,-0.6228615745048294,-0.6842109644576689,0.12753419536000002,1.4491671994215478,0.22722649910992745,0.7894661109903209,0.8673569911730228,,-0.06956664232292899,-0.10125745821601603,0.0886362022,-0.034016912529394594,,2.5704503e-05,-1.1920929e-07,4.7683716e-07,1.0,-1.007691e-05,-8.2068145e-06,1.007691e-05,1.0,-8.940697e-07,8.214265e-06,9.23872e-07,0.99999994,NaN,NaN,NaN,NaN,NaN
0.631803850000324,10:09:30.406086,10:09:12.184797,0,,0.027780998,0.049220435,0.07540648,-0.86691433,-0.36867416,-0.33546823,-0.49149647,0.74432296,0.45212245,0.08301081,0.55683285,-0.8264661,,0.1397415,-0.04406889,0.07331449,-0.743724,-0.61719024,0.25680935,-0.44553238,0.7440445,0.49789405,-0.49837294,0.25587887,-0.82834196,,0.08977013,1.3490126,0.48509157,0.9960515,0.0027281076,-0.088735245,-0.05379317,-0.7765919,-0.6277032,-0.07062352,0.629998,-0.7733788,,-0.07247899,0.27897644,-0.07626454,0.8813459,0.28308204,0.3782775,-0.24631754,0.9585203,-0.14341035,-0.40318355,0.03321775,0.91451603,,0.05506686,0.44359353,-0.3703578,0.8666326,0.45691583,-0.20043924,-0.49796999,0.76694816,-0.40474242,-0.031206707,0.45057568,0.8921926,,0.819814430996177,-0.08604668968460949,0.15336925506000001,0.637038048305985,0.1186004817964023,0.3042501949415263,0.8704605284295741,,-0.6228615745048294,-0.6842109644576689,0.12753419536000002,1.4491671994215478,0.22722649910992745,0.7894661109903209,0.8673569911730228,,-0.06956664232292899,-0.10125745821601603,0.0886362022,-0.034016912529394594,,2.5704503e-05,-1.1920929e-07,4.7683716e-07,1.0,-1.007691e-05,-8.2068145e-06,1.007691e-05,1.0,-8.940697e-07,8.214265e-06,9.23872e-07,0.99999994,NaN,NaN,NaN,NaN,NaN
0.648671414999626,10:09:30.419857,10:09:12.294825,0,,0.027780998,0.049220435,0.07540648,-0.86691433,-0.36867416,-0.33546823,-0.49149647,0.74432296,0.45212245,0.08301081,0.55683285,-0.8264661,,0.1397415,-0.04406889,0.07331449,-0.743724,-0.61719024,0.25680935,-0.44553238,0.7440445,0.49789405,-0.49837294,0.25587887,-0.82834196,,0.08977013,1.3490126,0.48509157,0.9960515,0.0027281076,-0.088735245,-0.05379317,-0.7765919,-0.6277032,-0.07062352,0.629998,-0.7733788,,-0.07247899,0.27897644,-0.07626454,0.8813459,0.28308204,0.3782775,-0.24631754,0.9585203,-0.14341035,-0.40318355,0.03321775,0.91451603,,0.05506686,0.44359353,-0.3703578,0.8666326,0.45691583,-0.20043924,-0.49796999,0.76694816,-0.40474242,-0.031206707,0.45057568,0.8921926,,0.819814430996177,-0.08604668968460949,0.15336925506000001,0.637038048305985,0.1186004817964023,0.3042501949415263,0.8704605284295741,,-0.6228615745048294,-0.6842109644576689,0.12753419536000002,1.4491671994215478,0.22722649910992745,0.7894661109903209,0.8673569911730228,,-0.06956664232292899,-0.10125745821601603,0.0886362022,-0.034016912529394594,,2.5704503e-05,-1.1920929e-07,4.7683716e-07,1.0,-1.007691e-05,-8.2068145e-06,1.007691e-05,1.0,-8.940697e-07,8.214265e-06,9.23872e-07,0.99999994,NaN,NaN,NaN,NaN,NaN
0.6649654570001076,10:09:30.437309,10:09:12.294825,0,,0.027780998,0.049220435,0.07540648,-0.86691433,-0.36867416,-0.33546823,-0.49149647,0.74432296,0.45212245,0.08301081,0.55683285,-0.8264661,,0.1397415,-0.04406889,0.07331449,-0.743724,-0.61719024,0.25680935,-0.44553238,0.7440445,0.49789405,-0.49837294,0.25587887,-0.82834196,,0.08977013,1.3490126,0.48509157,0.9960515,0.0027281076,-0.088735245,-0.05379317,-0.7765919,-0.6277032,-0.07062352,0.629998,-0.7733788,,-0.07247899,0.27897644,-0.07626454,0.8813459,0.28308204,0.3782775,-0.24631754,0.9585203,-0.14341035,-0.40318355,0.03321775,0.91451603,,0.05506686,0.44359353,-0.3703578,0.8666326,0.45691583,-0.20043924,-0.49796999,0.76694816,-0.40474242,-0.031206707,0.45057568,0.8921926,,0.819814430996177,-0.08604668968460949,0.15336925506000001,0.637038048305985,0.1186004817964023,0.3042501949415263,0.8704605284295741,,-0.6228615745048294,-0.6842109644576689,0.12753419536000002,1.4491671994215478,0.22722649910992745,0.7894661109903209,0.8673569911730228,,-0.06956664232292899,-0.10125745821601603,0.0886362022,-0.034016912529394594,,2.5704503e-05,-1.1920929e-07,4.7683716e-07,1.0,-1.007691e-05,-8.2068145e-06,1.007691e-05,1.0,-8.940697e-07,8.214265e-06,9.23872e-07,0.99999994,NaN,NaN,NaN,NaN,NaN
0.6820694030002414,10:09:30.452169,10:09:12.294825,0,,0.027780998,0.049220435,0.07540648,-0.86691433,-0.36867416,-0.33546823,-0.49149647,0.74432296,0.45212245,0.08301081,0.55683285,-0.8264661,,0.1397415,-0.04406889,0.07331449,-0.743724,-0.61719024,0.25680935,-0.44553238,0.7440445,0.49789405,-0.49837294,0.25587887,-0.82834196,,0.08977013,1.3490126,0.48509157,0.9960515,0.0027281076,-0.088735245,-0.05379317,-0.7765919,-0.6277032,-0.07062352,0.629998,-0.7733788,,-0.07247899,0.27897644,-0.07626454,0.8813459,0.28308204,0.3782775,-0.24631754,0.9585203,-0.14341035,-0.40318355,0.03321775,0.91451603,,0.05506686,0.44359353,-0.3703578,0.8666326,0.45691583,-0.20043924,-0.49796999,0.76694816,-0.40474242,-0.031206707,0.45057568,0.8921926,,0.819814430996177,-0.08604668968460949,0.15336925506000001,0.637038048305985,0.1186004817964023,0.3042501949415263,0.8704605284295741,,-0.6228615745048294,-0.6842109644576689,0.12753419536000002,1.4491671994215478,0.22722649910992745,0.7894661109903209,0.8673569911730228,,-0.06956664232292899,-0.10125745821601603,0.0886362022,-0.034016912529394594,,2.5704503e-05,-1.1920929e-07,4.7683716e-07,1.0,-1.007691e-05,-8.2068145e-06,1.007691e-05,1.0,-8.940697e-07,8.214265e-06,9.23872e-07,0.99999994,NaN,NaN,NaN,NaN,NaN
0.6972719870000219,10:09:30.469961,10:09:12.294825,0,,0.027781967,0.049220018,0.075406104,-0.8669153,-0.3686775,-0.33546218,-0.49149558,0.7443251,0.45211992,0.08300643,0.55682784,-0.8264699,,0.1397415,-0.04406889,0.07331449,-0.743724,-0.61719024,0.25680935,-0.44553238,0.7440445,0.49789405,-0.49837294,0.25587887,-0.82834196,,0.08977013,1.3490126,0.48509157,0.9960515,0.0027281076,-0.088735245,-0.05379317,-0.7765919,-0.6277032,-0.07062352,0.629998,-0.7733788,,-0.0724799,0.27897578,-0.076264486,0.8813472,0.28308567,0.3782719,-0.24631955,0.95851904,-0.14341524,-0.40317965,0.033222858,0.9145176,,0.05506686,0.44359353,-0.3703578,0.8666326,0.45691583,-0.20043924,-0.49796999,0.76694816,-0.40474242,-0.031206707,0.45057568,0.8921926,,0.8198067082633028,-0.08604668968460949,0.15336925506000001,0.637038048305985,0.1186004817964023,0.3042501949415263,0.8704605284295741,,-0.6228615745048294,-0.6842109644576689,0.12753419536000002,1.4491671994215478,0.22722649910992745,0.7894661109903209,0.8673569911730228,,-0.06956664232292899,-0.10125745821601603,0.0886362022,-0.034016912529394594,,2.5704503e-05,-1.1920929e-07,4.7683716e-07,1.0,-1.007691e-05,-8.2068145e-06,1.007691e-05,1.0,-8.940697e-07,8.214265e-06,9.23872e-07,0.99999994,NaN,NaN,NaN,NaN,NaN
0.7150641890002589,10:09:30.486465,10:09:12.294825,0,,0.027780998,0.049220435,0.07540648,-0.86691433,-0.36867416,-0.33546823,-0.49149647,0.74432296,0.45212245,0.08301081,0.55683285,-0.8264661,,0.1397415,-0.04406889,0.07331449,-0.743724,-0.61719024,0.25680935,-0.44553238,0.7440445,0.49789405,-0.49837294,0.25587887,-0.82834196,,0.08977013,1.3490126,0.48509157,0.9960515,0.0027281076,-0.088735245,-0.05379317,-0.7765919,-0.6277032,-0.07062352,0.629998,-0.7733788,,-0.07247899,0.27897644,-0.07626454,0.8813459,0.28308204,0.3782775,-0.24631754,0.9585203,-0.14341035,-0.40318355,0.03321775,0.91451603,,0.05506686,0.44359353,-0.3703578,0.8666326,0.45691583,-0.20043924,-0.49796999,0.76694816,-0.40474242,-0.031206707,0.45057568,0.8921926,,0.819814430996177,-0.08604668968460949,0.15336925506000001,0.637038048305985,0.1186004817964023,0.3042501949415263,0.8704605284295741,,-0.6228615745048294,-0.6842109644576689,0.12753419536000002,1.4491671994215478,0.22722649910992745,0.7894661109903209,0.8673569911730228,,-0.06956664232292899,-0.10125745821601603,0.0886362022,-0.034016912529394594,,2.5704503e-05,-1.1920929e-07,4.7683716e-07,1.0,-1.007691e-05,-8.2068145e-06,1.007691e-05,1.0,-8.940697e-07,8.214265e-06,9.23872e-07,0.99999994,NaN,NaN,NaN,NaN,NaN
0.7315726599999834,10:09:30.502186,10:09:12.375805,0,,0.027780998,0.049220435,0.07540648,-0.86691433,-0.36867416,-0.33546823,-0.49149647,0.74432296,0.45212245,0.08301081,0.55683285,-0.8264661,,0.1397415,-0.04406889,0.07331449,-0.743724,-0.61721116,0.25675893,-0.44553238,0.74400383,0.4979549,-0.49837294,0.25594655,-0.828321,,0.08977013,1.3490126,0.48509157,0.9960515,0.0027281076,-0.088735245,-0.05379317,-0.7765919,-0.6277032,-0.07062352,0.629998,-0.7733788,,-0.07247899,0.27897644,-0.07626454,0.8813459,0.28308204,0.3782775,-0.24631754,0.9585203,-0.14341035,-0.40318355,0.03321775,0.91451603,,0.05506686,0.44359353,-0.3703578,0.8666326,0.4569322,-0.20040192,-0.49796999,0.76698124,-0.40467978,-0.031206707,0.4505028,0.89222944,,0.819814430996177,-0.08604668968460949,0.15336925506000001,0.637038048305985,0.1186004817964023,0.3042501949415263,0.8704605284295741,,-0.6228615745048294,-0.6842109644576689,0.12753419536000002,1.4491671994215478,0.22722649910992745,0.7895477897304615,0.8675203352391572,,-0.06956664232292899,-0.10125745821601603,0.0886362022,-0.034016912529394594,,2.5704503e-05,-1.1920929e-07,4.7683716e-07,1.0,-1.007691e-05,-8.2068145e-06,1.007691e-05,1.0,-8.940697e-07,8.214265e-06,9.23872e-07,0.99999994,NaN,NaN,NaN,NaN,NaN
0.7470425239998804,10:09:30.520288,10:09:12.375805,0,,0.027780998,0.049220435,0.07540648,-0.86691433,-0.36867416,-0.33546823,-0.49149647,0.74432296,0.45212245,0.08301081,0.55683285,-0.8264661,,0.1397415,-0.04406889,0.07331449,-0.743724,-0.61721116,0.25675893,-0.44553238,0.74400383,0.4979549,-0.49837294,0.25594655,-0.828321,,0.08977013,1.3490126,0.48509157,0.9960515,0.0027281076,-0.088735245,-0.05379317,-0.7765919,-0.6277032,-0.07062352,0.629998,-0.7733788,,-0.07247899,0.27897644,-0.07626454,0.8813459,0.28308204,0.3782775,-0.24631754,0.9585203,-0.14341035,-0.40318355,0.03321775,0.91451603,,0.05506686,0.44359353,-0.3703578,0.8666326,0.4569322,-0.20040192,-0.49796999,0.76698124,-0.40467978,-0.031206707,0.4505028,0.89222944,,0.819814430996177,-0.08604668968460949,0.15336925506000001,0.637038048305985,0.1186004817964023,0.3042501949415263,0.8704605284295741,,-0.6228615745048294,-0.6842109644576689,0.12753419536000002,1.4491671994215478,0.22722649910992745,0.7895477897304615,0.8675203352391572,,-0.06956664232292899,-0.10125745821601603,0.0886362022,-0.034016912529394594,,2.5704503e-05,-1.1920929e-07,4.7683716e-07,1.0,-1.007691e-05,-8.2068145e-06,1.007691e-05,1.0,-8.940697e-07,8.214265e-06,9.23872e-07,0.99999994,NaN,NaN,NaN,NaN,NaN
0.7653926329994647,10:09:30.538092,10:09:12.375805,0,,0.027780533,0.049219407,0.07540646,-0.8669128,-0.36861968,-0.33553207,-0.49149823,0.7442518,0.45223758,0.083016604,0.5569639,-0.82637715,,0.1397415,-0.04406889,0.07331449,-0.743724,-0.61721116,0.25675893,-0.44553238,0.74400383,0.4979549,-0.49837294,0.25594655,-0.828321,,0.08977013,1.3490126,0.48509157,0.9960515,0.0027281076,-0.088735245,-0.05379317,-0.7765919,-0.6277032,-0.07062352,0.629998,-0.7733788,,-0.07247847,0.27897567,-0.0762652,0.881344,0.2830208,0.37832782,-0.24631537,0.95854336,-0.14325964,-0.4031891,0.033073068,0.91451883,,0.05506686,0.44359353,-0.3703578,0.8666326,0.4569322,-0.20040192,-0.49796999,0.76698124,-0.40467978,-0.031206707,0.4505028,0.89222944,,0.819814430996177,-0.08605441241748371,0.15336925506000001,0.637038048305985,0.1186004817964023,0.30441355242180734,0.8707872165618427,,-0.6228615745048294,-0.6842109644576689,0.12753419536000002,1.4491671994215478,0.22722649910992745,0.7895477897304615,0.8675203352391572,,-0.06956664232292899,-0.10125745821601603,0.0886362022,-0.034016912529394594,,2.5704503e-05,-1.1920929e-07,4.7683716e-07,1.0,-1.007691e-05,-8.2068145e-06,1.007691e-05,1.0,-8.940697e-07,8.214265e-06,9.23872e-07,0.99999994,NaN,NaN,NaN,NaN,NaN
0.7832016510001267,10:09:30.554337,10:09:12.375805,0,,0.027780998,0.049220435,0.07540648,-0.86691433,-0.36861932,-0.33552843,-0.49149647,0.7442491,0.45224398,0.08301081,0.55696785,-0.8263751,,0.1397415,-0.04406889,0.07331449,-0.743724,-0.61723214,0.25670853,-0.44553238,0.7439631,0.4980156,-0.49837294,0.25601417,-0.8283001,,0.08977013,1.3490126,0.48509157,0.9960515,0.0027281076,-0.088735245,-0.05379317,-0.7765919,-0.6277032,-0.07062352,0.629998,-0.7733788,,-0.07247899,0.27897644,-0.07626454,0.8813459,0.28302023,0.37832373,-0.24631754,0.9585437,-0.14325377,-0.40318355,0.033068355,0.91452146,,0.05506686,0.44359353,-0.3703578,0.8666326,0.45694855,-0.2003646,-0.49796999,0.76701427,-0.40461713,-0.031206707,0.45042995,0.8922662,,0.819814430996177,-0.08604668968460949,0.15336925506000001,0.637038048305985,0.1186004817964023,0.30441355242180734,0.8707872165618427,,-0.6228615745048294,-0.6842109644576689,0.12753419536000002,1.4491671994215478,0.22722649910992745,0.789629468470602,0.8676836793052913,,-0.06956664232292899,-0.10125745821601603,0.0886362022,-0.034016912529394594,,2.5704503e-05,-1.1920929e-07,4.7683716e-07,1.0,-1.007691e-05,-8.2068145e-06,1.007691e-05,1.0,-8.940697e-07,8.214265e-06,9.23872e-07,0.99999994,NaN,NaN,NaN,NaN,NaN
0.7994422849997136,10:09:30.571607,10:09:12.375805,0,,0.02778295,0.049219586,0.07540569,-0.86691624,-0.368626,-0.33551633,-0.4914947,0.7442533,0.45223904,0.083002016,0.5569578,-0.8263828,,0.1397415,-0.04406889,0.07331449,-0.743724,-0.61723214,0.25670853,-0.44553238,0.7439631,0.4980156,-0.49837294,0.25601417,-0.8283001,,0.08977013,1.3490126,0.48509157,0.9960515,0.0027281076,-0.088735245,-0.05379317,-0.7765919,-0.6277032,-0.07062352,0.629998,-0.7733788,,-0.07248082,0.2789751,-0.076264426,0.88134843,0.2830275,0.37831256,-0.24632154,0.9585412,-0.14326355,-0.4031757,0.03307857,0.91452456,,0.05506686,0.44359353,-0.3703578,0.8666326,0.45694855,-0.2003646,-0.49796999,0.76701427,-0.40461713,-0.031206707,0.45042995,0.8922662,,0.8197989855304286,-0.08604668968460949,0.15336925506000001,0.637038048305985,0.1186004817964023,0.30441355242180734,0.8707872165618427,,-0.6228615745048294,-0.6842109644576689,0.12753419536000002,1.4491671994215478,0.22722649910992745,0.789629468470602,0.8676836793052913,,-0.06956664232292899,-0.10125745821601603,0.0886362022,-0.034016912529394594,,2.5704503e-05,-1.1920929e-07,4.7683716e-07,1.0,-1.007691e-05,-8.2068145e-06,1.007691e-05,1.0,-8.940697e-07,8.214265e-06,9.23872e-07,0.99999994,NaN,NaN,NaN,NaN,NaN
0.8165378869998676,10:09:30.588926,10:09:12.375805,0,,0.02778295,0.049219586,0.07540569,-0.86691624,-0.368626,-0.33551633,-0.4914947,0.7442533,0.45223904,0.083002016,0.5569578,-0.8263828,,0.1397415,-0.04406889,0.07331449,-0.743724,-0.61723214,0.25670853,-0.44553238,0.7439631,0.4980156,-0.49837294,0.25601417,-0.8283001,,0.08977013,1.3490126,0.48509157,0.9960515,0.0027281076,-0.088735245,-0.05379317,-0.7765919,-0.6277032,-0.07062352,0.629998,-0.7733788,,-0.07248082,0.2789751,-0.076264426,0.88134843,0.2830275,0.37831256,-0.24632154,0.9585412,-0.14326355,-0.4031757,0.03307857,0.91452456,,0.05506686,0.44359353,-0.3703578,0.8666326,0.45694855,-0.2003646,-0.49796999,0.76701427,-0.40461713,-0.031206707,0.45042995,0.8922662,,0.8197989855304286,-0.08604668968460949,0.15336925506000001,0.637038048305985,0.1186004817964023,0.30441355242180734,0.8707872165618427,,-0.6228615745048294,-0.6842109644576689,0.12753419536000002,1.4491671994215478,0.22722649910992745,0.789629468470602,0.8676836793052913,,-0.06956664232292899,-0.10125745821601603,0.0886362022,-0.034016912529394594,,2.5704503e-05,-1.1920929e-07,4.7683716e-07,1.0,-1.007691e-05,-8.2068145e-06,1.007691e-05,1.0,-8.940697e-07,8.214265e-06,9.23872e-07,0.99999994,NaN,NaN,NaN,NaN,NaN
0.8340350070002387,10:09:30.607829,10:09:12.375805,0,,0.027781505,0.049218975,0.075406075,-0.86691374,-0.36862305,-0.33552602,-0.49149734,0.74425393,0.4522351,0.08301219,0.5569589,-0.82638097,,0.1397415,-0.04406889,0.07331449,-0.743724,-0.61723214,0.25670853,-0.44553238,0.7439631,0.4980156,-0.49837294,0.25601417,-0.8283001,,0.08977013,1.3490126,0.48509157,0.9960515,0.0027281076,-0.088735245,-0.05379317,-0.7765919,-0.6277032,-0.07062352,0.629998,-0.7733788,,-0.07247939,0.278975,-0.07626514,0.8813453,0.2830244,0.37832224,-0.24631739,0.9585421,-0.14326453,-0.40318516,0.033078175,0.9145204,,0.05506686,0.44359353,-0.3703578,0.8666326,0.45694855,-0.2003646,-0.49796999,0.76701427,-0.40461713,-0.031206707,0.45042995,0.8922662,,0.8198067082633028,-0.08605441241748371,0.15336925506000001,0.637038048305985,0.1186004817964023,0.30441355242180734,0.8707872165618427,,-0.6228615745048294,-0.6842109644576689,0.12753419536000002,1.4491671994215478,0.22722649910992745,0.789629468470602,0.8676836793052913,,-0.06956664232292899,-0.10125745821601603,0.0886362022,-0.034016912529394594,,2.5704503e-05,-1.1920929e-07,4.7683716e-07,1.0,-1.007691e-05,-8.2068145e-06,1.007691e-05,1.0,-8.940697e-07,8.214265e-06,9.23872e-07,0.99999994,NaN,NaN,NaN,NaN,NaN
0.8529339619999519,10:09:30.630631,10:09:12.502712,0,,0.027781505,0.049218975,0.075406075,-0.86691374,-0.36862305,-0.33552602,-0.49149734,0.74425393,0.4522351,0.08301219,0.5569589,-0.82638097,,0.1397415,-0.04406889,0.07331449,-0.743724,-0.61723214,0.25670853,-0.44553238,0.7439631,0.4980156,-0.49837294,0.25601417,-0.8283001,,0.08977013,1.3490126,0.48509157,0.9960515,0.0027281076,-0.088735245,-0.05379317,-0.7765919,-0.6277032,-0.07062352,0.629998,-0.7733788,,-0.07247939,0.278975,-0.07626514,0.8813453,0.2830244,0.37832224,-0.24631739,0.9585421,-0.14326453,-0.40318516,0.033078175,0.9145204,,0.05506686,0.44359353,-0.3703578,0.8666326,0.45694855,-0.2003646,-0.49796999,0.76701427,-0.40461713,-0.031206707,0.45042995,0.8922662,,0.8198067082633028,-0.08605441241748371,0.15336925506000001,0.637038048305985,0.1186004817964023,0.30441355242180734,0.8707872165618427,,-0.6228615745048294,-0.6842109644576689,0.12753419536000002,1.4491671994215478,0.22722649910992745,0.789629468470602,0.8676836793052913,,-0.06956664232292899,-0.10125745821601603,0.0886362022,-0.034016912529394594,,2.5704503e-05,-1.1920929e-07,4.7683716e-07,1.0,-1.007691e-05,-8.2068145e-06,1.007691e-05,1.0,-8.940697e-07,8.214265e-06,9.23872e-07,0.99999994,NaN,NaN,NaN,NaN,NaN
0.875734692000151,10:09:30.640845,10:09:12.502712,0,,0.027780533,0.049219407,0.07540646,-0.8669128,-0.36861968,-0.33553207,-0.49149823,0.7442518,0.45223758,0.083016604,0.5569639,-0.82637715,,0.1397415,-0.04406889,0.07331449,-0.743724,-0.61723214,0.25670853,-0.44553238,0.7439631,0.4980156,-0.49837294,0.25601417,-0.8283001,,0.08977013,1.3490126,0.48509157,0.9960515,0.0027281076,-0.088735245,-0.05379317,-0.7765919,-0.6277032,-0.07062352,0.629998,-0.7733788,,-0.07247847,0.27897567,-0.0762652,0.881344,0.2830208,0.37832782,-0.24631537,0.95854336,-0.14325964,-0.4031891,0.033073068,0.91451883,,0.05506686,0.44359353,-0.3703578,0.8666326,0.45694855,-0.2003646,-0.49796999,0.76701427,-0.40461713,-0.031206707,0.45042995,0.8922662,,0.819814430996177,-0.08605441241748371,0.15336925506000001,0.637038048305985,0.1186004817964023,0.30441355242180734,0.8707872165618427,,-0.6228615745048294,-0.6842109644576689,0.12753419536000002,1.4491671994215478,0.22722649910992745,0.789629468470602,0.8676836793052913,,-0.06956664232292899,-0.10125745821601603,0.0886362022,-0.034016912529394594,,2.5704503e-05,-1.1920929e-07,4.7683716e-07,1.0,-1.007691e-05,-8.2068145e-06,1.007691e-05,1.0,-8.940697e-07,8.214265e-06,9.23872e-07,0.99999994,NaN,NaN,NaN,NaN,NaN
0.8859547359998032,10:09:30.660704,10:09:12.502712,0,,0.02770655,0.04924146,0.07540123,-0.8669497,-0.36855173,-0.3355111,-0.4914325,0.744267,0.45228416,0.08301966,0.55698866,-0.8263602,,0.13975762,-0.044032045,0.07331085,-0.74373525,-0.6172275,0.25668702,-0.44553798,0.74396384,0.49800974,-0.49835116,0.25602356,-0.8283104,,0.089872204,1.3490074,0.48508525,0.99604553,0.002641826,-0.08880498,-0.053903833,-0.7765922,-0.6276933,-0.07062352,0.629998,-0.7733788,,-0.072489314,0.27900138,-0.076245666,0.8813278,0.28303504,0.3783549,-0.24633832,0.9585404,-0.14324039,-0.4032105,0.033038426,0.91451067,,0.054956064,0.4436012,-0.37033328,0.8665962,0.45703998,-0.20031348,-0.49802867,0.76698524,-0.40459993,-0.031280868,0.4503866,0.8922855,,0.819814430996177,-0.08604668968460949,0.15336925506000001,0.637038048305985,0.1186004817964023,0.30441355242180734,0.8707872165618427,,-0.6228615745048294,-0.6842109644576689,0.12753419536000002,1.4491671994215478,0.22722649910992745,0.789629468470602,0.8676836793052913,,-0.06956664232292899,-0.10125745821601603,0.0886362022,-0.034016912529394594,,0.00012810528,2.3841858e-07,-3.5762787e-07,0.99999994,-9.6004456e-05,-7.819757e-05,9.600073e-05,1.0,-8.7320805e-06,7.820502e-05,8.761883e-06,0.99999994,NaN,NaN,NaN,NaN,NaN
0.9058129939994615,10:09:30.673172,10:09:12.502712,0,,0.02770655,0.04924146,0.07540123,-0.8669497,-0.36855173,-0.3355111,-0.4914325,0.744267,0.45228416,0.08301966,0.55698866,-0.8263602,,0.13975762,-0.044032045,0.07331085,-0.74373525,-0.6172275,0.25668702,-0.44553798,0.74396384,0.49800974,-0.49835116,0.25602356,-0.8283104,,0.089872204,1.3490074,0.48508525,0.99604553,0.002641826,-0.08880498,-0.053903833,-0.7765922,-0.6276933,-0.07062352,0.629998,-0.7733788,,-0.072489314,0.27900138,-0.076245666,0.8813278,0.28303504,0.3783549,-0.24633832,0.9585404,-0.14324039,-0.4032105,0.033038426,0.91451067,,0.054956064,0.4436012,-0.37033328,0.8665962,0.45703998,-0.20031348,-0.49802867,0.76698524,-0.40459993,-0.031280868,0.4503866,0.8922855,,0.819814430996177,-0.08604668968460949,0.15336925506000001,0.637038048305985,0.1186004817964023,0.30441355242180734,0.8707872165618427,,-0.6228615745048294,-0.6842109644576689,0.12753419536000002,1.4491671994215478,0.22722649910992745,0.789629468470602,0.8676836793052913,,-0.06956664232292899,-0.10125745821601603,0.0886362022,-0.034016912529394594,,0.00012810528,2.3841858e-07,-3.5762787e-07,0.99999994,-9.6004456e-05,-7.819757e-05,9.600073e-05,1.0,-8.7320805e-06,7.820502e-05,8.761883e-06,0.99999994,NaN,NaN,NaN,NaN,NaN
0.9182813540001007,10:09:30.691685,10:09:12.502712,0,,0.027707534,0.049241014,0.07540083,-0.86695063,-0.36855507,-0.33550507,-0.49143156,0.74426913,0.45228162,0.08301528,0.55698365,-0.82636404,,0.13975762,-0.044032045,0.07331085,-0.74373525,-0.6172275,0.25668702,-0.44553798,0.74396384,0.49800974,-0.49835116,0.25602356,-0.8283104,,0.089872204,1.3490074,0.48508525,0.99604553,0.002641826,-0.08880498,-0.053903833,-0.7765922,-0.6276933,-0.07062352,0.629998,-0.7733788,,-0.07249023,0.2790007,-0.07624561,0.88132906,0.28303868,0.37834933,-0.24634032,0.9585391,-0.14324528,-0.4032066,0.033043534,0.9145122,,0.054956064,0.4436012,-0.37033328,0.8665962,0.45703998,-0.20031348,-0.49802867,0.76698524,-0.40459993,-0.031280868,0.4503866,0.8922855,,0.8198067082633028,-0.08604668968460949,0.15336925506000001,0.637038048305985,0.1186004817964023,0.30441355242180734,0.8707872165618427,,-0.6228615745048294,-0.6842109644576689,0.12753419536000002,1.4491671994215478,0.22722649910992745,0.789629468470602,0.8676836793052913,,-0.06956664232292899,-0.10125745821601603,0.0886362022,-0.034016912529394594,,0.00012810528,2.3841858e-07,-3.5762787e-07,0.99999994,-9.6004456e-05,-7.819757e-05,9.600073e-05,1.0,-8.7320805e-06,7.820502e-05,8.761883e-06,0.99999994,NaN,NaN,NaN,NaN,NaN
0.9367943779998313,10:09:30.706061,10:09:12.585659,0,,0.027706096,0.049240418,0.07540122,-0.8669482,-0.36855215,-0.33551472,-0.49143422,0.74426967,0.45227772,0.08302544,0.5569847,-0.82636225,,0.13975762,-0.044032045,0.07331085,-0.74373525,-0.6172275,0.25668702,-0.44553798,0.74396384,0.49800974,-0.49835116,0.25602356,-0.8283104,,0.089872204,1.3490074,0.48508525,0.99604553,0.002641826,-0.08880498,-0.053903833,-0.7765922,-0.6276933,-0.07062352,0.629998,-0.7733788,,-0.0724888,0.2790006,-0.07624633,0.8813259,0.2830356,0.378359,-0.24633616,0.95854,-0.14324626,-0.40321603,0.03304314,0.91450804,,0.054956064,0.4436012,-0.37033328,0.8665962,0.45703998,-0.20031348,-0.49802867,0.76698524,-0.40459993,-0.031280868,0.4503866,0.8922855,,0.819814430996177,-0.08605441241748371,0.15336925506000001,0.637038048305985,0.1186004817964023,0.30441355242180734,0.8707872165618427,,-0.6228615745048294,-0.6842109644576689,0.12753419536000002,1.4491671994215478,0.22722649910992745,0.789629468470602,0.8676836793052913,,-0.06956664232292899,-0.10125745821601603,0.0886362022,-0.034016912529394594,,0.00012810528,2.3841858e-07,-3.5762787e-07,0.99999994,-9.6004456e-05,-7.819757e-05,9.600073e-05,1.0,-8.7320805e-06,7.820502e-05,8.761883e-06,0.99999994,NaN,NaN,NaN,NaN,NaN
0.9511710629994923,10:09:30.724423,10:09:12.585659,0,,0.027708037,0.049239554,0.07540044,-0.86695,-0.3685588,-0.33550262,-0.49143243,0.74427384,0.45227277,0.083016664,0.5569747,-0.8263699,,0.13975762,-0.044032045,0.07331085,-0.74373525,-0.6172275,0.25668702,-0.44553798,0.74396384,0.49800974,-0.49835116,0.25602356,-0.8283104,,0.089872204,1.3490074,0.48508525,0.99604553,0.002641826,-0.08880498,-0.053903833,-0.7765922,-0.6276933,-0.07062352,0.629998,-0.7733788,,-0.07249063,0.2789993,-0.07624622,0.88132834,0.28304285,0.3783478,-0.24634017,0.9585375,-0.14325604,-0.40320817,0.033053353,0.91451114,,0.054956064,0.4436012,-0.37033328,0.8665962,0.45703998,-0.20031348,-0.49802867,0.76698524,-0.40459993,-0.031280868,0.4503866,0.8922855,,0.8197989855304286,-0.08605441241748371,0.15336925506000001,0.637038048305985,0.1186004817964023,0.30441355242180734,0.8707872165618427,,-0.6228615745048294,-0.6842109644576689,0.12753419536000002,1.4491671994215478,0.22722649910992745,0.789629468470602,0.8676836793052913,,-0.06956664232292899,-0.10125745821601603,0.0886362022,-0.034016912529394594,,0.00012810528,2.3841858e-07,-3.5762787e-07,0.99999994,-9.6004456e-05,-7.819757e-05,9.600073e-05,1.0,-8.7320805e-06,7.820502e-05,8.761883e-06,0.99999994,NaN,NaN,NaN,NaN,NaN
0.9695288470002197,10:09:30.741561,10:09:12.585659,0,,0.027708502,0.049240597,0.07540044,-0.8669516,-0.3685584,-0.335499,-0.49143067,0.7442712,0.45227915,0.08301087,0.55697864,-0.82636786,,0.13975762,-0.044032045,0.07331085,-0.74373525,-0.6172275,0.25668702,-0.44553798,0.74396384,0.49800974,-0.49835116,0.25602356,-0.8283104,,0.089872204,1.3490074,0.48508525,0.99604553,0.002641826,-0.08880498,-0.053903833,-0.7765922,-0.6276933,-0.07062352,0.629998,-0.7733788,,-0.07249115,0.27900004,-0.076245554,0.8813303,0.28304228,0.37834373,-0.24634233,0.9585379,-0.14325017,-0.40320265,0.03304864,0.91451377,,0.054956064,0.4436012,-0.37033328,0.8665962,0.45703998,-0.20031348,-0.49802867,0.76698524,-0.40459993,-0.031280868,0.4503866,0.8922855,,0.8197989855304286,-0.08604668968460949,0.15336925506000001,0.637038048305985,0.1186004817964023,0.30441355242180734,0.8707872165618427,,-0.6228615745048294,-0.6842109644576689,0.12753419536000002,1.4491671994215478,0.22722649910992745,0.789629468470602,0.8676836793052913,,-0.06956664232292899,-0.10125745821601603,0.0886362022,-0.034016912529394594,,0.00012810528,2.3841858e-07,-3.5762787e-07,0.99999994,-9.6004456e-05,-7.819757e-05,9.600073e-05,1.0,-8.7320805e-06,7.820502e-05,8.761883e-06,0.99999994,NaN,NaN,NaN,NaN,NaN
0.9866725219999353,10:09:30.756833,10:09:12.585659,0,,0.027707068,0.049239986,0.075400814,-0.8669491,-0.36855543,-0.33550864,-0.49143332,0.7442718,0.45227522,0.083021075,0.5569797,-0.82636607,,0.13975762,-0.044032045,0.07331085,-0.74373525,-0.6172275,0.25668702,-0.44553798,0.74396384,0.49800974,-0.49835116,0.25602356,-0.8283104,,0.089872204,1.3490074,0.48508525,0.99604553,0.002641826,-0.08880498,-0.053903833,-0.7765922,-0.6276933,-0.07062352,0.629998,-0.7733788,,-0.072489716,0.27899995,-0.07624627,0.88132715,0.2830392,0.3783534,-0.24633816,0.9585388,-0.14325115,-0.4032121,0.033048246,0.9145096,,0.054956064,0.4436012,-0.37033328,0.8665962,0.45703998,-0.20031348,-0.49802867,0.76698524,-0.40459993,-0.031280868,0.4503866,0.8922855,,0.8198067082633028,-0.08605441241748371,0.15336925506000001,0.637038048305985,0.1186004817964023,0.30441355242180734,0.8707872165618427,,-0.6228615745048294,-0.6842109644576689,0.12753419536000002,1.4491671994215478,0.22722649910992745,0.789629468470602,0.8676836793052913,,-0.06956664232292899,-0.10125745821601603,0.0886362022,-0.034016912529394594,,0.00012810528,2.3841858e-07,-3.5762787e-07,0.99999994,-9.6004456e-05,-7.819757e-05,9.600073e-05,1.0,-8.7320805e-06,7.820502e-05,8.761883e-06,0.99999994,NaN,NaN,NaN,NaN,NaN
1.0019209209995097,10:09:30.776188,10:09:12.585659,0,,0.02770655,0.04924146,0.07540123,-0.8669497,-0.36855173,-0.3355111,-0.4914325,0.744267,0.45228416,0.08301966,0.55698866,-0.8263602,,0.13975762,-0.044032045,0.07331085,-0.74373525,-0.6172275,0.25668702,-0.44553798,0.74396384,0.49800974,-0.49835116,0.25602356,-0.8283104,,0.089872204,1.3490074,0.48508525,0.99604553,0.002641826,-0.08880498,-0.053903833,-0.7765922,-0.6276933,-0.07062352,0.629998,-0.7733788,,-0.072489314,0.27900138,-0.076245666,0.8813278,0.28303504,0.3783549,-0.24633832,0.9585404,-0.14324039,-0.4032105,0.033038426,0.91451067,,0.054956064,0.4436012,-0.37033328,0.8665962,0.45703998,-0.20031348,-0.49802867,0.76698524,-0.40459993,-0.031280868,0.4503866,0.8922855,,0.819814430996177,-0.08604668968460949,0.15336925506000001,0.637038048305985,0.1186004817964023,0.30441355242180734,0.8707872165618427,,-0.6228615745048294,-0.6842109644576689,0.12753419536000002,1.4491671994215478,0.22722649910992745,0.789629468470602,0.8676836793052913,,-0.06956664232292899,-0.10125745821601603,0.0886362022,-0.034016912529394594,,0.00012810528,2.3841858e-07,-3.5762787e-07,0.99999994,-9.6004456e-05,-7.819757e-05,9.600073e-05,1.0,-8.7320805e-06,7.820502e-05,8.761883e-06,0.99999994,NaN,NaN,NaN,NaN,NaN
1.0212315339995257,10:09:30.794261,10:09:12.585659,0,,0.02770655,0.04924146,0.07540123,-0.8669497,-0.36855173,-0.3355111,-0.4914325,0.744267,0.45228416,0.08301966,0.55698866,-0.8263602,,0.13975762,-0.044032045,0.07331085,-0.74373525,-0.6172275,0.25668702,-0.44553798,0.74396384,0.49800974,-0.49835116,0.25602356,-0.8283104,,0.089872204,1.3490074,0.48508525,0.99604553,0.002641826,-0.08880498,-0.053903833,-0.7765922,-0.6276933,-0.07062352,0.629998,-0.7733788,,-0.072489314,0.27900138,-0.076245666,0.8813278,0.28303504,0.3783549,-0.24633832,0.9585404,-0.14324039,-0.4032105,0.033038426,0.91451067,,0.054956064,0.4436012,-0.37033328,0.8665962,0.45703998,-0.20031348,-0.49802867,0.76698524,-0.40459993,-0.031280868,0.4503866,0.8922855,,0.819814430996177,-0.08604668968460949,0.15336925506000001,0.637038048305985,0.1186004817964023,0.30441355242180734,0.8707872165618427,,-0.6228615745048294,-0.6842109644576689,0.12753419536000002,1.4491671994215478,0.22722649910992745,0.789629468470602,0.8676836793052913,,-0.06956664232292899,-0.10125745821601603,0.0886362022,-0.034016912529394594,,0.00012810528,2.3841858e-07,-3.5762787e-07,0.99999994,-9.6004456e-05,-7.819757e-05,9.600073e-05,1.0,-8.7320805e-06,7.820502e-05,8.761883e-06,0.99999994,NaN,NaN,NaN,NaN,NaN
1.039368308000121,10:09:30.812430,10:09:12.585659,0,,0.027707534,0.049241014,0.07540083,-0.86695063,-0.36855507,-0.33550507,-0.49143156,0.74426913,0.45228162,0.08301528,0.55698365,-0.82636404,,0.13975762,-0.044032045,0.07331085,-0.74373525,-0.6172275,0.25668702,-0.44553798,0.74396384,0.49800974,-0.49835116,0.25602356,-0.8283104,,0.089872204,1.3490074,0.48508525,0.99604553,0.002641826,-0.08880498,-0.053903833,-0.7765922,-0.6276933,-0.07062352,0.629998,-0.7733788,,-0.07249023,0.2790007,-0.07624561,0.88132906,0.28303868,0.37834933,-0.24634032,0.9585391,-0.14324528,-0.4032066,0.033043534,0.9145122,,0.054956064,0.4436012,-0.37033328,0.8665962,0.45703998,-0.20031348,-0.49802867,0.76698524,-0.40459993,-0.031280868,0.4503866,0.8922855,,0.8198067082633028,-0.08604668968460949,0.15336925506000001,0.637038048305985,0.1186004817964023,0.30441355242180734,0.8707872165618427,,-0.6228615745048294,-0.6842109644576689,0.12753419536000002,1.4491671994215478,0.22722649910992745,0.789629468470602,0.8676836793052913,,-0.06956664232292899,-0.10125745821601603,0.0886362022,-0.034016912529394594,,0.00012810528,2.3841858e-07,-3.5762787e-07,0.99999994,-9.6004456e-05,-7.819757e-05,9.600073e-05,1.0,-8.7320805e-06,7.820502e-05,8.761883e-06,0.99999994,NaN,NaN,NaN,NaN,NaN
1.0574193610000293,10:09:30.832993,10:09:12.701376,0,,0.02770655,0.04924146,0.07540123,-0.8669497,-0.36855173,-0.3355111,-0.4914325,0.744267,0.45228416,0.08301966,0.55698866,-0.8263602,,0.13975762,-0.044032045,0.07331085,-0.74373525,-0.6172275,0.25668702,-0.44553798,0.74396384,0.49800974,-0.49835116,0.25602356,-0.8283104,,0.089872204,1.3490074,0.48508525,0.99604553,0.002641826,-0.08880498,-0.053903833,-0.7765922,-0.6276933,-0.07062352,0.629998,-0.7733788,,-0.072489314,0.27900138,-0.076245666,0.8813278,0.28303504,0.3783549,-0.24633832,0.9585404,-0.14324039,-0.4032105,0.033038426,0.91451067,,0.054956064,0.4436012,-0.37033328,0.8665962,0.45703998,-0.20031348,-0.49802867,0.76698524,-0.40459993,-0.031280868,0.4503866,0.8922855,,0.819814430996177,-0.08604668968460949,0.15336925506000001,0.637038048305985,0.1186004817964023,0.30441355242180734,0.8707872165618427,,-0.6228615745048294,-0.6842109644576689,0.12753419536000002,1.4491671994215478,0.22722649910992745,0.789629468470602,0.8676836793052913,,-0.06956664232292899,-0.10125745821601603,0.0886362022,-0.034016912529394594,,0.00012810528,2.3841858e-07,-3.5762787e-07,0.99999994,-9.6004456e-05,-7.819757e-05,9.600073e-05,1.0,-8.7320805e-06,7.820502e-05,8.761883e-06,0.99999994,NaN,NaN,NaN,NaN,NaN
1.0780935820002924,10:09:30.846005,10:09:12.701376,0,,0.02770655,0.04924146,0.07540123,-0.8669497,-0.36855173,-0.3355111,-0.4914325,0.744267,0.45228416,0.08301966,0.55698866,-0.8263602,,0.13975762,-0.044032045,0.07331085,-0.74373525,-0.6172275,0.25668702,-0.44553798,0.74396384,0.49800974,-0.49835116,0.25602356,-0.8283104,,0.089872204,1.3490074,0.48508525,0.99604553,0.002641826,-0.08880498,-0.053903833,-0.7765922,-0.6276933,-0.07062352,0.629998,-0.7733788,,-0.072489314,0.27900138,-0.076245666,0.8813278,0.28303504,0.3783549,-0.24633832,0.9585404,-0.14324039,-0.4032105,0.033038426,0.91451067,,0.054956064,0.4436012,-0.37033328,0.8665962,0.45703998,-0.20031348,-0.49802867,0.76698524,-0.40459993,-0.031280868,0.4503866,0.8922855,,0.819814430996177,-0.08605441241748371,0.15336925506000001,0.637038048305985,0.1186004817964023,0.30441355242180734,0.8707872165618427,,-0.6228615745048294,-0.6842109644576689,0.12753419536000002,1.4491671994215478,0.22722649910992745,0.789629468470602,0.8676836793052913,,-0.06956664232292899,-0.10125745821601603,0.0886362022,-0.034016912529394594,,0.00012810528,2.3841858e-07,-3.5762787e-07,0.99999994,-9.6004456e-05,-7.819757e-05,9.600073e-05,1.0,-8.7320805e-06,7.820502e-05,8.761883e-06,0.99999994,NaN,NaN,NaN,NaN,NaN
1.091041187999508,10:09:30.868466,10:09:12.701376,0,,0.027708037,0.049239554,0.07540044,-0.86695,-0.3685588,-0.33550262,-0.49143243,0.74427384,0.45227277,0.083016664,0.5569747,-0.8263699,,0.13975762,-0.044032045,0.07331085,-0.74373525,-0.6172275,0.25668702,-0.44553798,0.74396384,0.49800974,-0.49835116,0.25602356,-0.8283104,,0.089872204,1.3490074,0.48508525,0.99604553,0.002641826,-0.08880498,-0.053903833,-0.7765922,-0.6276933,-0.07062352,0.629998,-0.7733788,,-0.07249063,0.2789993,-0.07624622,0.88132834,0.28304285,0.3783478,-0.24634017,0.9585375,-0.14325604,-0.40320817,0.033053353,0.91451114,,0.054956064,0.4436012,-0.37033328,0.8665962,0.45703998,-0.20031348,-0.49802867,0.76698524,-0.40459993,-0.031280868,0.4503866,0.8922855,,0.8197989855304286,-0.08605441241748371,0.15336925506000001,0.637038048305985,0.1186004817964023,0.30441355242180734,0.8707872165618427,,-0.6228615745048294,-0.6842109644576689,0.12753419536000002,1.4491671994215478,0.22722649910992745,0.789629468470602,0.8676836793052913,,-0.06956664232292899,-0.10125745821601603,0.0886362022,-0.034016912529394594,,0.00012810528,2.3841858e-07,-3.5762787e-07,0.99999994,-9.6004456e-05,-7.819757e-05,9.600073e-05,1.0,-8.7320805e-06,7.820502e-05,8.761883e-06,0.99999994,NaN,NaN,NaN,NaN,NaN
1.113571138000225,10:09:30.885818,10:09:12.701376,0,,0.027708502,0.049240597,0.07540044,-0.8669516,-0.3685584,-0.335499,-0.49143067,0.7442712,0.45227915,0.08301087,0.55697864,-0.82636786,,0.13975762,-0.044032045,0.07331085,-0.74373525,-0.6172275,0.25668702,-0.44553798,0.74396384,0.49800974,-0.49835116,0.25602356,-0.8283104,,0.089872204,1.3490074,0.48508525,0.99604553,0.002641826,-0.08880498,-0.053903833,-0.7765922,-0.6276933,-0.07062352,0.629998,-0.7733788,,-0.07249115,0.27900004,-0.076245554,0.8813303,0.28304228,0.37834373,-0.24634233,0.9585379,-0.14325017,-0.40320265,0.03304864,0.91451377,,0.054956064,0.4436012,-0.37033328,0.8665962,0.45703998,-0.20031348,-0.49802867,0.76698524,-0.40459993,-0.031280868,0.4503866,0.8922855,,0.8197989855304286,-0.08604668968460949,0.15336925506000001,0.637038048305985,0.1186004817964023,0.30441355242180734,0.8707872165618427,,-0.6228615745048294,-0.6842109644576689,0.12753419536000002,1.4491671994215478,0.22722649910992745,0.789629468470602,0.8676836793052913,,-0.06956664232292899,-0.10125745821601603,0.0886362022,-0.034016912529394594,,0.00012810528,2.3841858e-07,-3.5762787e-07,0.99999994,-9.6004456e-05,-7.819757e-05,9.600073e-05,1.0,-8.7320805e-06,7.820502e-05,8.761883e-06,0.99999994,NaN,NaN,NaN,NaN,NaN
1.1309283049995429,10:09:30.903006,10:09:12.774713,0,,0.02770655,0.04924146,0.07540123,-0.8669497,-0.36855173,-0.3355111,-0.4914325,0.744267,0.45228416,0.08301966,0.55698866,-0.8263602,,0.13975762,-0.044032045,0.07331085,-0.74373525,-0.6172275,0.25668702,-0.44553798,0.74396384,0.49800974,-0.49835116,0.25602356,-0.8283104,,0.089872204,1.3490074,0.48508525,0.99604553,0.002641826,-0.08880498,-0.053903833,-0.7765922,-0.6276933,-0.07062352,0.629998,-0.7733788,,-0.072489314,0.27900138,-0.076245666,0.8813278,0.28303504,0.3783549,-0.24633832,0.9585404,-0.14324039,-0.4032105,0.033038426,0.91451067,,0.054956064,0.4436012,-0.37033328,0.8665962,0.45703998,-0.20031348,-0.49802867,0.76698524,-0.40459993,-0.031280868,0.4503866,0.8922855,,0.819814430996177,-0.08604668968460949,0.15336925506000001,0.637038048305985,0.1186004817964023,0.30441355242180734,0.8707872165618427,,-0.6228615745048294,-0.6842109644576689,0.12753419536000002,1.4491671994215478,0.22722649910992745,0.789629468470602,0.8676836793052913,,-0.06956664232292899,-0.10125745821601603,0.0886362022,-0.034016912529394594,,0.00012810528,2.3841858e-07,-3.5762787e-07,0.99999994,-9.6004456e-05,-7.819757e-05,9.600073e-05,1.0,-8.7320805e-06,7.820502e-05,8.761883e-06,0.99999994,NaN,NaN,NaN,NaN,NaN
1.1481041589995584,10:09:30.921476,10:09:12.774713,0,,0.027707534,0.049241014,0.07540083,-0.86695063,-0.36855507,-0.33550507,-0.49143156,0.74426913,0.45228162,0.08301528,0.55698365,-0.82636404,,0.13975762,-0.044032045,0.07331085,-0.74373525,-0.6172275,0.25668702,-0.44553798,0.74396384,0.49800974,-0.49835116,0.25602356,-0.8283104,,0.089872204,1.3490074,0.48508525,0.99604553,0.002641826,-0.08880498,-0.053903833,-0.7765922,-0.6276933,-0.07062352,0.629998,-0.7733788,,-0.07249023,0.2790007,-0.07624561,0.88132906,0.28303868,0.37834933,-0.24634032,0.9585391,-0.14324528,-0.4032066,0.033043534,0.9145122,,0.054956064,0.4436012,-0.37033328,0.8665962,0.45703998,-0.20031348,-0.49802867,0.76698524,-0.40459993,-0.031280868,0.4503866,0.8922855,,0.8198067082633028,-0.08604668968460949,0.15336925506000001,0.637038048305985,0.1186004817964023,0.30441355242180734,0.8707872165618427,,-0.6228615745048294,-0.6842109644576689,0.12753419536000002,1.4491671994215478,0.22722649910992745,0.789629468470602,0.8676836793052913,,-0.06956664232292899,-0.10125745821601603,0.0886362022,-0.034016912529394594,,0.00012810528,2.3841858e-07,-3.5762787e-07,0.99999994,-9.6004456e-05,-7.819757e-05,9.600073e-05,1.0,-8.7320805e-06,7.820502e-05,8.761883e-06,0.99999994,NaN,NaN,NaN,NaN,NaN
1.1665853599997718,10:09:30.937040,10:09:12.774713,0,,0.027706096,0.049240418,0.07540122,-0.8669482,-0.36855215,-0.33551472,-0.49143422,0.74426967,0.45227772,0.08302544,0.5569847,-0.82636225,,0.13975762,-0.044032045,0.07331085,-0.74373525,-0.6172275,0.25668702,-0.44553798,0.74396384,0.49800974,-0.49835116,0.25602356,-0.8283104,,0.089872204,1.3490074,0.48508525,0.99604553,0.002641826,-0.08880498,-0.053903833,-0.7765922,-0.6276933,-0.07062352,0.629998,-0.7733788,,-0.0724888,0.2790006,-0.07624633,0.8813259,0.2830356,0.378359,-0.24633616,0.95854,-0.14324626,-0.40321603,0.03304314,0.91450804,,0.054956064,0.4436012,-0.37033328,0.8665962,0.45703998,-0.20031348,-0.49802867,0.76698524,-0.40459993,-0.031280868,0.4503866,0.8922855,,0.819814430996177,-0.08605441241748371,0.15336925506000001,0.637038048305985,0.1186004817964023,0.30441355242180734,0.8707872165618427,,-0.6228615745048294,-0.6842109644576689,0.12753419536000002,1.4491671994215478,0.22722649910992745,0.789629468470602,0.8676836793052913,,-0.06956664232292899,-0.10125745821601603,0.0886362022,-0.034016912529394594,,0.00012810528,2.3841858e-07,-3.5762787e-07,0.99999994,-9.6004456e-05,-7.819757e-05,9.600073e-05,1.0,-8.7320805e-06,7.820502e-05,8.761883e-06,0.99999994,NaN,NaN,NaN,NaN,NaN
1.1821444589995735,10:09:30.954915,10:09:12.774713,0,,0.027707068,0.049239986,0.075400814,-0.8669491,-0.36855543,-0.33550864,-0.49143332,0.7442718,0.45227522,0.083021075,0.5569797,-0.82636607,,0.13975698,-0.044032224,0.07331061,-0.7437377,-0.61722726,0.2566803,-0.44554093,0.74396336,0.49800777,-0.4983447,0.25602552,-0.8283136,,0.089872204,1.3490074,0.48508525,0.99604553,0.002641826,-0.08880498,-0.053903833,-0.7765922,-0.6276933,-0.07062352,0.629998,-0.7733788,,-0.072489716,0.27899995,-0.07624627,0.88132715,0.2830392,0.3783534,-0.24633816,0.9585388,-0.14325115,-0.4032121,0.033048246,0.9145096,,0.05495676,0.44360098,-0.37033325,0.8665981,0.4570395,-0.20030619,-0.49802488,0.7669865,-0.40460223,-0.031287063,0.45038503,0.89228606,,0.8198067082633028,-0.08605441241748371,0.15336925506000001,0.637038048305985,0.1186004817964023,0.30441355242180734,0.8707872165618427,,-0.6228538517719552,-0.6842109644576689,0.12753419536000002,1.4491671994215478,0.22722649910992745,0.789629468470602,0.8676836793052913,,-0.06956664232292899,-0.10125745821601603,0.0886362022,-0.034016912529394594,,0.00012810528,2.3841858e-07,-3.5762787e-07,0.99999994,-9.6004456e-05,-7.819757e-05,9.600073e-05,1.0,-8.7320805e-06,7.820502e-05,8.761883e-06,0.99999994,NaN,NaN,NaN,NaN,NaN
1.200025299999652,10:09:30.974928,10:09:12.851600,0,,0.027706096,0.049240418,0.07540122,-0.8669482,-0.36855215,-0.33551472,-0.49143422,0.74426967,0.45227772,0.08302544,0.5569847,-0.82636225,,0.13975762,-0.044032045,0.07331085,-0.74373525,-0.6172275,0.25668702,-0.44553798,0.74396384,0.49800974,-0.49835116,0.25602356,-0.8283104,,0.089872204,1.3490074,0.48508525,0.99604553,0.002641826,-0.08880498,-0.053903833,-0.7765922,-0.6276933,-0.07062352,0.629998,-0.7733788,,-0.0724888,0.2790006,-0.07624633,0.8813259,0.2830356,0.378359,-0.24633616,0.95854,-0.14324626,-0.40321603,0.03304314,0.91450804,,0.054956064,0.4436012,-0.37033328,0.8665962,0.45703998,-0.20031348,-0.49802867,0.76698524,-0.40459993,-0.031280868,0.4503866,0.8922855,,0.819814430996177,-0.08605441241748371,0.15336925506000001,0.637038048305985,0.1186004817964023,0.30441355242180734,0.8707872165618427,,-0.6228615745048294,-0.6842109644576689,0.12753419536000002,1.4491671994215478,0.22722649910992745,0.789629468470602,0.8676836793052913,,-0.06956664232292899,-0.10125745821601603,0.0886362022,-0.034016912529394594,,0.00012810528,2.3841858e-07,-3.5762787e-07,0.99999994,-9.6004456e-05,-7.819757e-05,9.600073e-05,1.0,-8.7320805e-06,7.820502e-05,8.761883e-06,0.99999994,NaN,NaN,NaN,NaN,NaN
1.2200379169998996,10:09:30.995260,10:09:12.851600,0,,0.02770655,0.04924146,0.07540123,-0.8669497,-0.36855173,-0.3355111,-0.4914325,0.744267,0.45228416,0.08301966,0.55698866,-0.8263602,,0.13975762,-0.044032045,0.07331085,-0.74373525,-0.6172275,0.25668702,-0.44553798,0.74396384,0.49800974,-0.49835116,0.25602356,-0.8283104,,0.089872204,1.3490074,0.48508525,0.99604553,0.002641826,-0.08880498,-0.053903833,-0.7765922,-0.6276933,-0.07062352,0.629998,-0.7733788,,-0.072489314,0.27900138,-0.076245666,0.8813278,0.28303504,0.3783549,-0.24633832,0.9585404,-0.14324039,-0.4032105,0.033038426,0.91451067,,0.054956064,0.4436012,-0.37033328,0.8665962,0.45703998,-0.20031348,-0.49802867,0.76698524,-0.40459993,-0.031280868,0.4503866,0.8922855,,0.819814430996177,-0.08604668968460949,0.15336925506000001,0.637038048305985,0.1186004817964023,0.30441355242180734,0.8707872165618427,,-0.6228615745048294,-0.6842109644576689,0.12753419536000002,1.4491671994215478,0.22722649910992745,0.789629468470602,0.8676836793052913,,-0.06956664232292899,-0.10125745821601603,0.0886362022,-0.034016912529394594,,0.00012810528,2.3841858e-07,-3.5762787e-07,0.99999994,-9.6004456e-05,-7.819757e-05,9.600073e-05,1.0,-8.7320805e-06,7.820502e-05,8.761883e-06,0.99999994,NaN,NaN,NaN,NaN,NaN
1.2403467340000134,10:09:31.015235,10:09:12.851600,0,,0.02770655,0.04924146,0.07540123,-0.8669497,-0.36855173,-0.3355111,-0.4914325,0.744267,0.45228416,0.08301966,0.55698866,-0.8263602,,0.13975762,-0.044032045,0.07331085,-0.74373525,-0.6172275,0.25668702,-0.44553798,0.74396384,0.49800974,-0.49835116,0.25602356,-0.8283104,,0.089872204,1.3490074,0.48508525,0.99604553,0.002641826,-0.08880498,-0.053903833,-0.7765922,-0.6276933,-0.07062352,0.629998,-0.7733788,,-0.072489314,0.27900138,-0.076245666,0.8813278,0.28303504,0.3783549,-0.24633832,0.9585404,-0.14324039,-0.4032105,0.033038426,0.91451067,,0.054956064,0.4436012,-0.37033328,0.8665962,0.45703998,-0.20031348,-0.49802867,0.76698524,-0.40459993,-0.031280868,0.4503866,0.8922855,,0.819814430996177,-0.08604668968460949,0.15336925506000001,0.637038048305985,0.1186004817964023,0.30441355242180734,0.8707872165618427,,-0.6228615745048294,-0.6842109644576689,0.12753419536000002,1.4491671994215478,0.22722649910992745,0.789629468470602,0.8676836793052913,,-0.06956664232292899,-0.10125745821601603,0.0886362022,-0.034016912529394594,,0.00012810528,2.3841858e-07,-3.5762787e-07,0.99999994,-9.6004456e-05,-7.819757e-05,9.600073e-05,1.0,-8.7320805e-06,7.820502e-05,8.761883e-06,0.99999994,NaN,NaN,NaN,NaN,NaN
1.2603380219998144,10:09:31.024952,10:09:12.851600,0,,0.02770655,0.04924146,0.07540123,-0.8669497,-0.36855173,-0.3355111,-0.4914325,0.744267,0.45228416,0.08301966,0.55698866,-0.8263602,,0.13975762,-0.044032045,0.07331085,-0.74373525,-0.6172275,0.25668702,-0.44553798,0.74396384,0.49800974,-0.49835116,0.25602356,-0.8283104,,0.089872204,1.3490074,0.48508525,0.99604553,0.002641826,-0.08880498,-0.053903833,-0.7765922,-0.6276933,-0.07062352,0.629998,-0.7733788,,-0.072489314,0.27900138,-0.076245666,0.8813278,0.28303504,0.3783549,-0.24633832,0.9585404,-0.14324039,-0.4032105,0.033038426,0.91451067,,0.054956064,0.4436012,-0.37033328,0.8665962,0.45703998,-0.20031348,-0.49802867,0.76698524,-0.40459993,-0.031280868,0.4503866,0.8922855,,0.819814430996177,-0.08604668968460949,0.15336925506000001,0.637038048305985,0.1186004817964023,0.30441355242180734,0.8707872165618427,,-0.6228615745048294,-0.6842109644576689,0.12753419536000002,1.4491671994215478,0.22722649910992745,0.789629468470602,0.8676836793052913,,-0.06956664232292899,-0.10125745821601603,0.0886362022,-0.034016912529394594,,0.00012810528,2.3841858e-07,-3.5762787e-07,0.99999994,-9.6004456e-05,-7.819757e-05,9.600073e-05,1.0,-8.7320805e-06,7.820502e-05,8.761883e-06,0.99999994,NaN,NaN,NaN,NaN,NaN
1.2700451579994478,10:09:31.047473,10:09:12.851600,0,,0.027706096,0.049240418,0.07540122,-0.8669482,-0.36855215,-0.33551472,-0.49143422,0.74426967,0.45227772,0.08302544,0.5569847,-0.82636225,,0.13975762,-0.044032045,0.07331085,-0.74373525,-0.6172275,0.25668702,-0.44553798,0.74396384,0.49800974,-0.49835116,0.25602356,-0.8283104,,0.089872204,1.3490074,0.48508525,0.99604553,0.002641826,-0.08880498,-0.053903833,-0.7765922,-0.6276933,-0.07062352,0.629998,-0.7733788,,-0.0724888,0.2790006,-0.07624633,0.8813259,0.2830356,0.378359,-0.24633616,0.95854,-0.14324626,-0.40321603,0.03304314,0.91450804,,0.054956064,0.4436012,-0.37033328,0.8665962,0.45703998,-0.20031348,-0.49802867,0.76698524,-0.40459993,-0.031280868,0.4503866,0.8922855,,0.819814430996177,-0.08605441241748371,0.15336925506000001,0.637038048305985,0.1186004817964023,0.30441355242180734,0.8707872165618427,,-0.6228615745048294,-0.6842109644576689,0.12753419536000002,1.4491671994215478,0.22722649910992745,0.789629468470602,0.8676836793052913,,-0.06956664232292899,-0.10125745821601603,0.0886362022,-0.034016912529394594,,0.00012810528,2.3841858e-07,-3.5762787e-07,0.99999994,-9.6004456e-05,-7.819757e-05,9.600073e-05,1.0,-8.7320805e-06,7.820502e-05,8.761883e-06,0.99999994,NaN,NaN,NaN,NaN,NaN
1.2925639380000575,10:09:31.058059,10:09:12.851600,0,,0.027706096,0.049240418,0.07540122,-0.8669482,-0.36855215,-0.33551472,-0.49143422,0.74426967,0.45227772,0.08302544,0.5569847,-0.82636225,,0.13975762,-0.044032045,0.07331085,-0.74373525,-0.6172275,0.25668702,-0.44553798,0.74396384,0.49800974,-0.49835116,0.25602356,-0.8283104,,0.089872204,1.3490074,0.48508525,0.99604553,0.002641826,-0.08880498,-0.053903833,-0.7765922,-0.6276933,-0.07062352,0.629998,-0.7733788,,-0.0724888,0.2790006,-0.07624633,0.8813259,0.2830356,0.378359,-0.24633616,0.95854,-0.14324626,-0.40321603,0.03304314,0.91450804,,0.054956064,0.4436012,-0.37033328,0.8665962,0.45703998,-0.20031348,-0.49802867,0.76698524,-0.40459993,-0.031280868,0.4503866,0.8922855,,0.819814430996177,-0.08605441241748371,0.15336925506000001,0.637038048305985,0.1186004817964023,0.30441355242180734,0.8707872165618427,,-0.6228615745048294,-0.6842109644576689,0.12753419536000002,1.4491671994215478,0.22722649910992745,0.789629468470602,0.8676836793052913,,-0.06956664232292899,-0.10125745821601603,0.0886362022,-0.034016912529394594,,0.00012810528,2.3841858e-07,-3.5762787e-07,0.99999994,-9.6004456e-05,-7.819757e-05,9.600073e-05,1.0,-8.7320805e-06,7.820502e-05,8.761883e-06,0.99999994,NaN,NaN,NaN,NaN,NaN
1.3031690609996076,10:09:31.078408,10:09:12.851600,0,,0.02770655,0.04924146,0.07540123,-0.8669497,-0.36855173,-0.3355111,-0.4914325,0.744267,0.45228416,0.08301966,0.55698866,-0.8263602,,0.13975762,-0.044032045,0.07331085,-0.74373525,-0.6172275,0.25668702,-0.44553798,0.74396384,0.49800974,-0.49835116,0.25602356,-0.8283104,,0.089872204,1.3490074,0.48508525,0.99604553,0.002641826,-0.08880498,-0.053903833,-0.7765922,-0.6276933,-0.07062352,0.629998,-0.7733788,,-0.072489314,0.27900138,-0.076245666,0.8813278,0.28303504,0.3783549,-0.24633832,0.9585404,-0.14324039,-0.4032105,0.033038426,0.91451067,,0.054956064,0.4436012,-0.37033328,0.8665962,0.45703998,-0.20031348,-0.49802867,0.76698524,-0.40459993,-0.031280868,0.4503866,0.8922855,,0.819814430996177,-0.08604668968460949,0.15336925506000001,0.637038048305985,0.1186004817964023,0.30441355242180734,0.8707872165618427,,-0.6228615745048294,-0.6842109644576689,0.12753419536000002,1.4491671994215478,0.22722649910992745,0.789629468470602,0.8676836793052913,,-0.06956664232292899,-0.10125745821601603,0.0886362022,-0.034016912529394594,,0.00012810528,2.3841858e-07,-3.5762787e-07,0.99999994,-9.6004456e-05,-7.819757e-05,9.600073e-05,1.0,-8.7320805e-06,7.820502e-05,8.761883e-06,0.99999994,NaN,NaN,NaN,NaN,NaN
1.3234808600000179,10:09:31.090615,10:09:12.968141,0,,0.02770655,0.04924146,0.07540123,-0.8669497,-0.36855173,-0.3355111,-0.4914325,0.744267,0.45228416,0.08301966,0.55698866,-0.8263602,,0.13975762,-0.044032045,0.07331085,-0.74373525,-0.6172275,0.25668702,-0.44553798,0.74396384,0.49800974,-0.49835116,0.25602356,-0.8283104,,0.089872204,1.3490074,0.48508525,0.99604553,0.002641826,-0.08880498,-0.053903833,-0.7765922,-0.6276933,-0.07062352,0.629998,-0.7733788,,-0.072489314,0.27900138,-0.076245666,0.8813278,0.28303504,0.3783549,-0.24633832,0.9585404,-0.14324039,-0.4032105,0.033038426,0.91451067,,0.054956064,0.4436012,-0.37033328,0.8665962,0.45703998,-0.20031348,-0.49802867,0.76698524,-0.40459993,-0.031280868,0.4503866,0.8922855,,0.819814430996177,-0.08604668968460949,0.15336925506000001,0.637038048305985,0.1186004817964023,0.30441355242180734,0.8707872165618427,,-0.6228615745048294,-0.6842109644576689,0.12753419536000002,1.4491671994215478,0.22722649910992745,0.789629468470602,0.8676836793052913,,-0.06956664232292899,-0.10125745821601603,0.0886362022,-0.034016912529394594,,0.00012810528,2.3841858e-07,-3.5762787e-07,0.99999994,-9.6004456e-05,-7.819757e-05,9.600073e-05,1.0,-8.7320805e-06,7.820502e-05,8.761883e-06,0.99999994,NaN,NaN,NaN,NaN,NaN
1.3357232319995092,10:09:31.109191,10:09:12.968141,0,,0.02770655,0.04924146,0.07540123,-0.8669497,-0.36855173,-0.3355111,-0.4914325,0.744267,0.45228416,0.08301966,0.55698866,-0.8263602,,0.13975762,-0.044032045,0.07331085,-0.74373525,-0.6172275,0.25668702,-0.44553798,0.74396384,0.49800974,-0.49835116,0.25602356,-0.8283104,,0.089872204,1.3490074,0.48508525,0.99604553,0.002641826,-0.08880498,-0.053903833,-0.7765922,-0.6276933,-0.07062352,0.629998,-0.7733788,,-0.072489314,0.27900138,-0.076245666,0.8813278,0.28303504,0.3783549,-0.24633832,0.9585404,-0.14324039,-0.4032105,0.033038426,0.91451067,,0.054956064,0.4436012,-0.37033328,0.8665962,0.45703998,-0.20031348,-0.49802867,0.76698524,-0.40459993,-0.031280868,0.4503866,0.8922855,,0.819814430996177,-0.08604668968460949,0.15336925506000001,0.637038048305985,0.1186004817964023,0.30441355242180734,0.8707872165618427,,-0.6228615745048294,-0.6842109644576689,0.12753419536000002,1.4491671994215478,0.22722649910992745,0.789629468470602,0.8676836793052913,,-0.06956664232292899,-0.10125745821601603,0.0886362022,-0.034016912529394594,,0.00012810528,2.3841858e-07,-3.5762787e-07,0.99999994,-9.6004456e-05,-7.819757e-05,9.600073e-05,1.0,-8.7320805e-06,7.820502e-05,8.761883e-06,0.99999994,NaN,NaN,NaN,NaN,NaN
