AlexandreBanks6/ExpertPlaybackApp/resources/Motions/PC1/Data_PC1_5.csv
Task Time,PC1 Time,PC2 Time,Gaze Calib,s_T_psm1,Tx,Ty,Tz,R00,R01,R02,R10,R11,R12,R20,R21,R22,s_T_psm3,Tx,Ty,Tz,R00,R01,R02,R10,R11,R12,R20,R21,R22,cart_T_ecm,Tx,Ty,Tz,R00,R01,R02,R10,R11,R12,R20,R21,R22,ecm_T_psm1,Tx,Ty,Tz,R00,R01,R02,R10,R11,R12,R20,R21,R22,ecm_T_psm3,Tx,Ty,Tz,R00,R01,R02,R10,R11,R12,R20,R21,R22,psm1_joints,q1,q2,q3,q4,q5,q6,jaw,psm3_joints,q1,q2,q3,q4,q5,q6,jaw,ecm_joints,q1,q2,q3,q4
""
lci_T_si,,,,,-0.059236065,0.057601415,0.5188856,0.9971449,-0.02143976,0.072404765,0.01649481,-0.87384844,-0.48591852,0.07368877,0.48572546,-0.8709999
rci_T_si,,,,,-0.050650105,0.038439915,0.684983,0.99999166,-0.0032185032,0.0025062414,-0.0015426836,-0.8671455,-0.4980525,0.0037762597,0.4980445,-0.8671433
ecm_T_lc,,,,,-0.010503502,0.0353613,-0.35674977,-0.9933329,0.103684954,0.050389625,-0.112544216,-0.96688193,-0.22907005,0.024969695,-0.2332139,0.9721048
ecm_T_rc,,,,,-0.045470465,0.07002666,-0.40169618,-0.98767287,0.15394595,0.028337218,-0.15650986,-0.96815085,-0.19541891,-0.0026492458,-0.19744499,0.9803104
cart_T_ecmi,,,,,0.17632411,1.3281168,0.5574625,0.99227977,-0.056559253,-0.110371575,-0.10150093,-0.8817396,-0.46068734,-0.07126285,0.46833354,-0.8806732
ecmac_T_ecmrep_psm1,,,,,-0.040727746,0.23137592,-0.21310239,0.98627466,0.1643199,0.016164957,-0.16233762,0.9471621,0.2766415,0.03014687,-0.27546868,0.96083724
ecmac_T_ecmrep_psm3,,,,,-0.03207139,0.39064074,-0.46404764,0.9917923,0.12441902,0.029460106,-0.1278581,0.9641174,0.23265849,0.00054414105,-0.23451562,0.9721122
""
0,11:15:44.261699,NaN,0,,0.053758096,-0.0007119253,0.07020545,-0.31163302,0.39135936,-0.86586535,0.5950651,-0.6300441,-0.49894083,-0.74079853,-0.6707326,-0.036541745,,0.03187465,0.04465133,0.04956308,0.04356257,-0.6217303,0.782019,0.16842943,-0.7669874,-0.61916214,0.9847506,0.1586873,0.07130575,,0.17627832,1.3281277,0.557476,0.99228454,-0.056515496,-0.110351406,-0.10144742,-0.8817787,-0.46062428,-0.07127311,0.4682652,-0.8807087,,-0.03854914,0.16646844,-0.11253586,0.39222163,-0.41425398,0.8213135,0.142508,-0.8547135,-0.49915555,0.9087649,0.31282336,-0.27620262,,0.0011849285,0.3488403,-0.32786644,-0.111645825,0.55533236,-0.82410026,0.65972877,-0.57875234,-0.4793784,-0.74316424,-0.59720325,-0.30175346,,1.3102388594409302,-0.5456110775639617,0.15559498499000002,2.7387603518513726,0.6296209909191496,-0.7976557159222665,-0.1261016190556636,,-0.9284115006735221,-0.31779045777433856,0.18932185821000003,-1.2946257110734534,-1.2342375023812235,1.0198332374728267,0.02188810486199342,,-0.15580336066396883,-0.3093683365622549,0.088225436,0.08275268144170031
0.02747471898328513,11:15:44.296971,NaN,0,,0.053758096,-0.0007119253,0.07020545,-0.31163302,0.39135936,-0.86586535,0.5950651,-0.6300441,-0.49894083,-0.74079853,-0.6707326,-0.036541745,,0.03187366,0.044650555,0.049562722,0.043568283,-0.62172866,0.7820199,0.16843423,-0.76698714,-0.6191611,0.98474956,0.15869474,0.07130408,,0.17627832,1.3281277,0.557476,0.99228454,-0.056515496,-0.110351406,-0.10144742,-0.8817787,-0.46062428,-0.07127311,0.4682652,-0.8807087,,-0.03854914,0.16646844,-0.11253586,0.39222163,-0.41425398,0.8213135,0.142508,-0.8547135,-0.49915555,0.9087649,0.31282336,-0.27620262,,0.0011858909,0.34883946,-0.32786667,-0.1116511,0.55533016,-0.824101,0.6597324,-0.5787482,-0.4793784,-0.74316025,-0.5972093,-0.30175143,,1.3102388594409302,-0.5456110775639617,0.15559498499000002,2.7387603518513726,0.6296209909191496,-0.7976557159222665,-0.1261016190556636,,-0.9284037779406479,-0.31779045777433856,0.18932185821000003,-1.2946257110734534,-1.2342375023812235,1.0198332374728267,0.02188810486199342,,-0.15580336066396883,-0.3093683365622549,0.088225436,0.08275268144170031
0.06273820798378438,11:15:44.328834,NaN,0,,0.053758096,-0.0007119253,0.07020545,-0.31163302,0.39135936,-0.86586535,0.5950651,-0.6300441,-0.49894083,-0.74079853,-0.6707326,-0.036541745,,0.03187366,0.044650555,0.049562722,0.043568283,-0.62172866,0.7820199,0.16843423,-0.76698714,-0.6191611,0.98474956,0.15869474,0.07130408,,0.17627832,1.3281277,0.557476,0.99228454,-0.056515496,-0.110351406,-0.10144742,-0.8817787,-0.46062428,-0.07127311,0.4682652,-0.8807087,,-0.03854914,0.16646844,-0.11253586,0.39222163,-0.41425398,0.8213135,0.142508,-0.8547135,-0.49915555,0.9087649,0.31282336,-0.27620262,,0.0011858909,0.34883946,-0.32786667,-0.1116511,0.55533016,-0.824101,0.6597324,-0.5787482,-0.4793784,-0.74316025,-0.5972093,-0.30175143,,1.3102388594409302,-0.5456110775639617,0.15559498499000002,2.7387603518513726,0.6296209909191496,-0.7976557159222665,-0.1261016190556636,,-0.9284037779406479,-0.31779045777433856,0.18932185821000003,-1.2946257110734534,-1.2342375023812235,1.0198332374728267,0.02188810486199342,,-0.15580336066396883,-0.3093683365622549,0.088225436,0.08275268144170031
0.09460644700448029,11:15:44.353799,NaN,0,,0.053758096,-0.0007119253,0.07020545,-0.31163302,0.39135936,-0.86586535,0.5950651,-0.6300441,-0.49894083,-0.74079853,-0.6707326,-0.036541745,,0.03187465,0.04465133,0.04956308,0.04356257,-0.6217303,0.782019,0.16842943,-0.7669874,-0.61916214,0.9847506,0.1586873,0.07130575,,0.17627832,1.3281277,0.557476,0.99228454,-0.056515496,-0.110351406,-0.10144742,-0.8817787,-0.46062428,-0.07127311,0.4682652,-0.8807087,,-0.03854914,0.16646844,-0.11253586,0.39222163,-0.41425398,0.8213135,0.142508,-0.8547135,-0.49915555,0.9087649,0.31282336,-0.27620262,,0.0011849285,0.3488403,-0.32786644,-0.111645825,0.55533236,-0.82410026,0.65972877,-0.57875234,-0.4793784,-0.74316424,-0.59720325,-0.30175346,,1.3102388594409302,-0.5456110775639617,0.15559498499000002,2.7387603518513726,0.6296209909191496,-0.7976557159222665,-0.1261016190556636,,-0.9284115006735221,-0.31779045777433856,0.18932185821000003,-1.2946257110734534,-1.2342375023812235,1.0198332374728267,0.02188810486199342,,-0.15580336066396883,-0.3093683365622549,0.088225436,0.08275268144170031
0.11957285300013609,11:15:44.381189,11:15:43.249376,0,,0.053707607,-0.0006127879,0.07020888,-0.31124762,0.39199123,-0.86571807,0.59410584,-0.63074803,-0.4991945,-0.7417299,-0.6697013,-0.036565408,,0.03182795,0.044720516,0.04949674,0.04281798,-0.6216577,0.7821177,0.16961381,-0.76694876,-0.6188866,0.9845799,0.15915748,0.07260254,,0.17627832,1.3281277,0.557476,0.99228454,-0.056515496,-0.110351406,-0.10144742,-0.8817787,-0.46062428,-0.07127311,0.4682652,-0.8807087,,-0.03854914,0.16646844,-0.11253586,0.39222163,-0.41425398,0.8213135,0.142508,-0.8547135,-0.49915555,0.9087649,0.31282336,-0.27620262,,0.0011849285,0.3488403,-0.32786644,-0.111645825,0.55533236,-0.82410026,0.65972877,-0.57875234,-0.4793784,-0.74316424,-0.59720325,-0.30175346,,1.3102388594409302,-0.5456110775639617,0.15559498499000002,2.7387603518513726,0.6296209909191496,-0.7976557159222665,-0.1261016190556636,,-0.9284115006735221,-0.31779045777433856,0.18932185821000003,-1.2946257110734534,-1.2342375023812235,1.0198332374728267,0.02188810486199342,,-0.15580336066396883,-0.3093683365622549,0.088225436,0.08275268144170031
0.14687821798725054,11:15:44.409907,11:15:43.249376,0,,0.053707607,-0.0006127879,0.07020888,-0.31124762,0.39199123,-0.86571807,0.59410584,-0.63074803,-0.4991945,-0.7417299,-0.6697013,-0.036565408,,0.03182795,0.044720516,0.04949674,0.04281798,-0.6216577,0.7821177,0.16961381,-0.76694876,-0.6188866,0.9845799,0.15915748,0.07260254,,0.17627832,1.3281277,0.557476,0.99228454,-0.056515496,-0.110351406,-0.10144742,-0.8817787,-0.46062428,-0.07127311,0.4682652,-0.8807087,,-0.03854914,0.16646844,-0.11253586,0.39222163,-0.41425398,0.8213135,0.142508,-0.8547135,-0.49915555,0.9087649,0.31282336,-0.27620262,,0.0011849285,0.3488403,-0.32786644,-0.111645825,0.55533236,-0.82410026,0.65972877,-0.57875234,-0.4793784,-0.74316424,-0.59720325,-0.30175346,,1.3102388594409302,-0.5456110775639617,0.15559498499000002,2.7387603518513726,0.6296209909191496,-0.7976557159222665,-0.1261016190556636,,-0.9284115006735221,-0.31779045777433856,0.18932185821000003,-1.2946257110734534,-1.2342375023812235,1.0198332374728267,0.02188810486199342,,-0.15580336066396883,-0.3093683365622549,0.088225436,0.08275268144170031
0.1756094649899751,11:15:44.429626,11:15:43.249376,0,,0.053707607,-0.0006127879,0.07020888,-0.31124762,0.39199123,-0.86571807,0.59410584,-0.63074803,-0.4991945,-0.7417299,-0.6697013,-0.036565408,,0.03182795,0.044720516,0.04949674,0.04281798,-0.6216577,0.7821177,0.16961381,-0.76694876,-0.6188866,0.9845799,0.15915748,0.07260254,,0.17627832,1.3281277,0.557476,0.99228454,-0.056515496,-0.110351406,-0.10144742,-0.8817787,-0.46062428,-0.07127311,0.4682652,-0.8807087,,-0.03854914,0.16646844,-0.11253586,0.39222163,-0.41425398,0.8213135,0.142508,-0.8547135,-0.49915555,0.9087649,0.31282336,-0.27620262,,0.0011849285,0.3488403,-0.32786644,-0.111645825,0.55533236,-0.82410026,0.65972877,-0.57875234,-0.4793784,-0.74316424,-0.59720325,-0.30175346,,1.3102388594409302,-0.5456110775639617,0.15559498499000002,2.7387603518513726,0.6296209909191496,-0.7976557159222665,-0.1261016190556636,,-0.9284115006735221,-0.31779045777433856,0.18932185821000003,-1.2946257110734534,-1.2342375023812235,1.0198332374728267,0.02188810486199342,,-0.15580336066396883,-0.3093683365622549,0.088225436,0.08275268144170031
0.1953983829880599,11:15:44.455425,11:15:43.249376,0,,0.053707607,-0.0006127879,0.07020888,-0.31124762,0.39199123,-0.86571807,0.59410584,-0.63074803,-0.4991945,-0.7417299,-0.6697013,-0.036565408,,0.03182795,0.044720516,0.04949674,0.04281798,-0.6216577,0.7821177,0.16961381,-0.76694876,-0.6188866,0.9845799,0.15915748,0.07260254,,0.17627832,1.3281277,0.557476,0.99228454,-0.056515496,-0.110351406,-0.10144742,-0.8817787,-0.46062428,-0.07127311,0.4682652,-0.8807087,,-0.03854914,0.16646844,-0.11253586,0.39222163,-0.41425398,0.8213135,0.142508,-0.8547135,-0.49915555,0.9087649,0.31282336,-0.27620262,,0.0011849285,0.3488403,-0.32786644,-0.111645825,0.55533236,-0.82410026,0.65972877,-0.57875234,-0.4793784,-0.74316424,-0.59720325,-0.30175346,,1.3102388594409302,-0.5456110775639617,0.15559498499000002,2.7387603518513726,0.6296209909191496,-0.7976557159222665,-0.1261016190556636,,-0.9284115006735221,-0.31779045777433856,0.18932185821000003,-1.2946257110734534,-1.2342375023812235,1.0198332374728267,0.02188810486199342,,-0.15580336066396883,-0.3093683365622549,0.088225436,0.08275268144170031
0.2211993880046066,11:15:44.480244,11:15:43.249376,0,,0.053707607,-0.0006127879,0.07020888,-0.31124762,0.39199123,-0.86571807,0.59410584,-0.63074803,-0.4991945,-0.7417299,-0.6697013,-0.036565408,,0.03182795,0.044720516,0.04949674,0.04281798,-0.6216577,0.7821177,0.16961381,-0.76694876,-0.6188866,0.9845799,0.15915748,0.07260254,,0.17627832,1.3281277,0.557476,0.99228454,-0.056515496,-0.110351406,-0.10144742,-0.8817787,-0.46062428,-0.07127311,0.4682652,-0.8807087,,-0.03854914,0.16646844,-0.11253586,0.39222163,-0.41425398,0.8213135,0.142508,-0.8547135,-0.49915555,0.9087649,0.31282336,-0.27620262,,0.0011849285,0.3488403,-0.32786644,-0.111645825,0.55533236,-0.82410026,0.65972877,-0.57875234,-0.4793784,-0.74316424,-0.59720325,-0.30175346,,1.3102388594409302,-0.5456110775639617,0.15559498499000002,2.7387603518513726,0.6296209909191496,-0.7976557159222665,-0.1261016190556636,,-0.9284115006735221,-0.31779045777433856,0.18932185821000003,-1.2946257110734534,-1.2342375023812235,1.0198332374728267,0.02188810486199342,,-0.15580336066396883,-0.3093683365622549,0.088225436,0.08275268144170031
0.24598837600206025,11:15:44.498749,11:15:43.249376,0,,0.053707607,-0.0006127879,0.07020888,-0.31124762,0.39199123,-0.86571807,0.59410584,-0.63074803,-0.4991945,-0.7417299,-0.6697013,-0.036565408,,0.03182795,0.044720516,0.04949674,0.04281798,-0.6216577,0.7821177,0.16961381,-0.76694876,-0.6188866,0.9845799,0.15915748,0.07260254,,0.17627832,1.3281277,0.557476,0.99228454,-0.056515496,-0.110351406,-0.10144742,-0.8817787,-0.46062428,-0.07127311,0.4682652,-0.8807087,,-0.03854914,0.16646844,-0.11253586,0.39222163,-0.41425398,0.8213135,0.142508,-0.8547135,-0.49915555,0.9087649,0.31282336,-0.27620262,,0.0011849285,0.3488403,-0.32786644,-0.111645825,0.55533236,-0.82410026,0.65972877,-0.57875234,-0.4793784,-0.74316424,-0.59720325,-0.30175346,,1.3102388594409302,-0.5456110775639617,0.15559498499000002,2.7387603518513726,0.6296209909191496,-0.7976557159222665,-0.1261016190556636,,-0.9284115006735221,-0.31779045777433856,0.18932185821000003,-1.2946257110734534,-1.2342375023812235,1.0198332374728267,0.02188810486199342,,-0.15580336066396883,-0.3093683365622549,0.088225436,0.08275268144170031
0.26450952398590744,11:15:44.525610,11:15:43.249376,0,,0.053709228,-0.0006136596,0.070208356,-0.31123713,0.39199975,-0.86571795,0.59410053,-0.6307534,-0.49919406,-0.74173856,-0.66969126,-0.03657338,,0.03182795,0.044720516,0.04949674,0.04281798,-0.6216577,0.7821177,0.16961381,-0.76694876,-0.6188866,0.9845799,0.15915748,0.07260254,,0.17627832,1.3281277,0.557476,0.99228454,-0.056515496,-0.110351406,-0.10144742,-0.8817787,-0.46062428,-0.07127311,0.4682652,-0.8807087,,-0.0385508,0.16646752,-0.11253569,0.3922111,-0.41426334,0.8213138,0.14249976,-0.85471284,-0.49915904,0.90877074,0.31281275,-0.27619544,,0.0011849285,0.3488403,-0.32786644,-0.111645825,0.55533236,-0.82410026,0.65972877,-0.57875234,-0.4793784,-0.74316424,-0.59720325,-0.30175346,,1.3102234139751818,-0.5456110775639617,0.15559498499000002,2.7387603518513726,0.6296209909191496,-0.7976557159222665,-0.1261016190556636,,-0.9284115006735221,-0.31779045777433856,0.18932185821000003,-1.2946257110734534,-1.2342375023812235,1.0198332374728267,0.02188810486199342,,-0.15580336066396883,-0.3093683365622549,0.088225436,0.08275268144170031
0.29133528599049896,11:15:44.550351,11:15:43.412241,0,,0.053708415,-0.00061322004,0.070208624,-0.3112424,0.39199546,-0.865718,0.59410316,-0.6307507,-0.49919426,-0.74173427,-0.6696963,-0.0365694,,0.03182795,0.044720516,0.04949674,0.04281798,-0.6216577,0.7821177,0.16961381,-0.76694876,-0.6188866,0.9845799,0.15915748,0.07260254,,0.17627832,1.3281277,0.557476,0.99228454,-0.056515496,-0.110351406,-0.10144742,-0.8817787,-0.46062428,-0.07127311,0.4682652,-0.8807087,,-0.03854997,0.16646798,-0.112535775,0.39221638,-0.41425866,0.8213136,0.14250387,-0.8547132,-0.4991573,0.9087678,0.31281805,-0.27619904,,0.0011849285,0.3488403,-0.32786644,-0.111645825,0.55533236,-0.82410026,0.65972877,-0.57875234,-0.4793784,-0.74316424,-0.59720325,-0.30175346,,1.3102311367080561,-0.5456110775639617,0.15559498499000002,2.7387603518513726,0.6296209909191496,-0.7976557159222665,-0.1261016190556636,,-0.9284115006735221,-0.31779045777433856,0.18932185821000003,-1.2946257110734534,-1.2342375023812235,1.0198332374728267,0.02188810486199342,,-0.15580336066396883,-0.3093683365622549,0.088225436,0.08275268144170031
0.3160989519965369,11:15:44.575122,11:15:43.412241,0,,0.053707607,-0.0006127879,0.07020888,-0.31124762,0.39199123,-0.86571807,0.59410584,-0.63074803,-0.4991945,-0.7417299,-0.6697013,-0.036565408,,0.031825963,0.044718996,0.049496144,0.0428294,-0.6216545,0.78211963,0.16962343,-0.7669483,-0.61888456,0.98457783,0.15917227,0.07259928,,0.17627832,1.3281277,0.557476,0.99228454,-0.056515496,-0.110351406,-0.10144742,-0.8817787,-0.46062428,-0.07127311,0.4682652,-0.8807087,,-0.03854914,0.16646844,-0.11253586,0.39222163,-0.41425398,0.8213135,0.142508,-0.8547135,-0.49915555,0.9087649,0.31282336,-0.27620262,,0.0011868533,0.34883863,-0.3278669,-0.11165638,0.555328,-0.82410175,0.65973604,-0.5787441,-0.47937837,-0.74315625,-0.59721524,-0.30174944,,1.3102388594409302,-0.5456110775639617,0.15559498499000002,2.7387603518513726,0.6296209909191496,-0.7976557159222665,-0.1261016190556636,,-0.9283960552077737,-0.31779045777433856,0.18932185821000003,-1.2946257110734534,-1.2342375023812235,1.0198332374728267,0.02188810486199342,,-0.15580336066396883,-0.3093683365622549,0.088225436,0.08275268144170031
0.34084978900500573,11:15:44.595624,11:15:43.412241,0,,0.053708415,-0.00061322004,0.070208624,-0.3112424,0.39199546,-0.865718,0.59410316,-0.6307507,-0.49919426,-0.74173427,-0.6696963,-0.0365694,,0.03182695,0.04471974,0.049496442,0.042823687,-0.6216561,0.7821186,0.1696186,-0.7669486,-0.6188856,0.98457885,0.15916488,0.0726009,,0.17627832,1.3281277,0.557476,0.99228454,-0.056515496,-0.110351406,-0.10144742,-0.8817787,-0.46062428,-0.07127311,0.4682652,-0.8807087,,-0.03854997,0.16646798,-0.112535775,0.39221638,-0.41425866,0.8213136,0.14250387,-0.8547132,-0.4991573,0.9087678,0.31281805,-0.27619904,,0.0011858909,0.34883946,-0.32786667,-0.1116511,0.55533016,-0.824101,0.6597324,-0.5787482,-0.4793784,-0.74316025,-0.5972093,-0.30175143,,1.3102311367080561,-0.5456110775639617,0.15559498499000002,2.7387603518513726,0.6296209909191496,-0.7976557159222665,-0.1261016190556636,,-0.9284037779406479,-0.31779045777433856,0.18932185821000003,-1.2946257110734534,-1.2342375023812235,1.0198332374728267,0.02188810486199342,,-0.15580336066396883,-0.3093683365622549,0.088225436,0.08275268144170031
0.36139871398336254,11:15:44.623190,11:15:43.412241,0,,0.053708415,-0.00061322004,0.070208624,-0.3112424,0.39199546,-0.865718,0.59410316,-0.6307507,-0.49919426,-0.74173427,-0.6696963,-0.0365694,,0.03182795,0.044720516,0.04949674,0.04281798,-0.6216577,0.7821177,0.16961381,-0.76694876,-0.6188866,0.9845799,0.15915748,0.07260254,,0.17627832,1.3281277,0.557476,0.99228454,-0.056515496,-0.110351406,-0.10144742,-0.8817787,-0.46062428,-0.07127311,0.4682652,-0.8807087,,-0.03854997,0.16646798,-0.112535775,0.39221638,-0.41425866,0.8213136,0.14250387,-0.8547132,-0.4991573,0.9087678,0.31281805,-0.27619904,,0.0011849285,0.3488403,-0.32786644,-0.111645825,0.55533236,-0.82410026,0.65972877,-0.57875234,-0.4793784,-0.74316424,-0.59720325,-0.30175346,,1.3102311367080561,-0.5456110775639617,0.15559498499000002,2.7387603518513726,0.6296209909191496,-0.7976557159222665,-0.1261016190556636,,-0.9284115006735221,-0.31779045777433856,0.18932185821000003,-1.2946257110734534,-1.2342375023812235,1.0198332374728267,0.02188810486199342,,-0.15580336066396883,-0.3093683365622549,0.088225436,0.08275268144170031
0.38892772898543626,11:15:44.644884,11:15:43.412241,0,,0.053707607,-0.0006127879,0.07020888,-0.31124762,0.39199123,-0.86571807,0.59410584,-0.63074803,-0.4991945,-0.7417299,-0.6697013,-0.036565408,,0.03182695,0.04471974,0.049496442,0.042823687,-0.6216561,0.7821186,0.1696186,-0.7669486,-0.6188856,0.98457885,0.15916488,0.0726009,,0.17627832,1.3281277,0.557476,0.99228454,-0.056515496,-0.110351406,-0.10144742,-0.8817787,-0.46062428,-0.07127311,0.4682652,-0.8807087,,-0.03854914,0.16646844,-0.11253586,0.39222163,-0.41425398,0.8213135,0.142508,-0.8547135,-0.49915555,0.9087649,0.31282336,-0.27620262,,0.0011858909,0.34883946,-0.32786667,-0.1116511,0.55533016,-0.824101,0.6597324,-0.5787482,-0.4793784,-0.74316025,-0.5972093,-0.30175143,,1.3102388594409302,-0.5456110775639617,0.15559498499000002,2.7387603518513726,0.6296209909191496,-0.7976557159222665,-0.1261016190556636,,-0.9284037779406479,-0.31779045777433856,0.18932185821000003,-1.2946257110734534,-1.2342375023812235,1.0198332374728267,0.02188810486199342,,-0.15580336066396883,-0.3093683365622549,0.088225436,0.08275268144170031
0.4106483829964418,11:15:44.663980,11:15:43.412241,0,,0.053707607,-0.0006127879,0.07020888,-0.31124762,0.39199123,-0.86571807,0.59410584,-0.63074803,-0.4991945,-0.7417299,-0.6697013,-0.036565408,,0.031825963,0.044718996,0.049496144,0.0428294,-0.6216545,0.78211963,0.16962343,-0.7669483,-0.61888456,0.98457783,0.15917227,0.07259928,,0.17627832,1.3281277,0.557476,0.99228454,-0.056515496,-0.110351406,-0.10144742,-0.8817787,-0.46062428,-0.07127311,0.4682652,-0.8807087,,-0.03854914,0.16646844,-0.11253586,0.39222163,-0.41425398,0.8213135,0.142508,-0.8547135,-0.49915555,0.9087649,0.31282336,-0.27620262,,0.0011868533,0.34883863,-0.3278669,-0.11165638,0.555328,-0.82410175,0.65973604,-0.5787441,-0.47937837,-0.74315625,-0.59721524,-0.30174944,,1.3102388594409302,-0.5456110775639617,0.15559498499000002,2.7387603518513726,0.6296209909191496,-0.7976557159222665,-0.1261016190556636,,-0.9283960552077737,-0.31779045777433856,0.18932185821000003,-1.2946257110734534,-1.2342375023812235,1.0198332374728267,0.02188810486199342,,-0.15580336066396883,-0.3093683365622549,0.088225436,0.08275268144170031
0.42975381400901824,11:15:44.692550,11:15:43.560470,0,,0.05345974,-0.000645265,0.07046935,-0.30948675,0.39311767,-0.8658386,0.5945944,-0.63057375,-0.49883285,-0.74207515,-0.66920483,-0.038591325,,0.0317736,0.04461716,0.049761385,0.040903404,-0.6221793,0.7818054,0.16920918,-0.76684487,-0.6191262,0.98473096,0.15761301,0.073911905,,0.1763024,1.3281245,0.5574647,0.9922813,-0.05654353,-0.110366054,-0.101478964,-0.8817769,-0.4606208,-0.07127311,0.4682652,-0.8807087,,-0.038421188,0.1665253,-0.112495825,0.392142,-0.41420415,0.8213766,0.1425528,-0.85474503,-0.4990888,0.90879226,0.3128032,-0.27613547,,0.0011661121,0.34884143,-0.3278801,-0.11167635,0.5553059,-0.8241139,0.65978754,-0.57870626,-0.4793532,-0.74310756,-0.5972725,-0.30175608,,1.3102311367080561,-0.5456110775639617,0.15559498499000002,2.7387603518513726,0.6296209909191496,-0.7976557159222665,-0.1261016190556636,,-0.9283960552077737,-0.31779045777433856,0.18932185821000003,-1.2946257110734534,-1.2342375023812235,1.0198332374728267,0.02188810486199342,,-0.15580336066396883,-0.3093683365622549,0.088225436,0.08275268144170031
0.4583060439908877,11:15:44.712920,11:15:43.560470,0,,0.05345893,-0.00064483285,0.0704696,-0.309492,0.3931134,-0.86583865,0.59459704,-0.6305711,-0.49883306,-0.74207085,-0.66920984,-0.03858733,,0.0317736,0.04461716,0.049761385,0.040903404,-0.6221793,0.7818054,0.16920918,-0.76684487,-0.6191262,0.98473096,0.15761301,0.073911905,,0.1763024,1.3281245,0.5574647,0.9922813,-0.05654353,-0.110366054,-0.101478964,-0.8817769,-0.4606208,-0.07127311,0.4682652,-0.8807087,,-0.038420357,0.16652577,-0.11249591,0.39214724,-0.41419944,0.8213765,0.14255692,-0.8547454,-0.49908704,0.90878934,0.3128085,-0.27613905,,0.0011661121,0.34884143,-0.3278801,-0.11167635,0.5553059,-0.8241139,0.65978754,-0.57870626,-0.4793532,-0.74310756,-0.5972725,-0.30175608,,1.3102388594409302,-0.5456110775639617,0.15559498499000002,2.7387603518513726,0.6296209909191496,-0.7976557159222665,-0.1261016190556636,,-0.9283960552077737,-0.31779045777433856,0.18932185821000003,-1.2946257110734534,-1.2342375023812235,1.0198332374728267,0.02188810486199342,,-0.15580336066396883,-0.3093683365622549,0.088225436,0.08275268144170031
0.47862055600853637,11:15:44.732004,11:15:43.560470,0,,0.05346055,-0.0006456971,0.07046908,-0.30948144,0.39312193,-0.8658385,0.59459174,-0.6305765,-0.49883264,-0.74207944,-0.6691998,-0.038595334,,0.031772375,0.044620484,0.04976085,0.040856227,-0.6218668,0.78205645,0.16933784,-0.76707757,-0.61880267,0.9847108,0.15771365,0.073965654,,0.1763024,1.3281245,0.5574647,0.9922813,-0.05654353,-0.110366054,-0.101478964,-0.8817769,-0.4606208,-0.07127311,0.4682652,-0.8807087,,-0.03842202,0.16652484,-0.11249574,0.39213672,-0.41420883,0.8213768,0.14254868,-0.85474473,-0.49909052,0.9087952,0.3127979,-0.27613187,,0.0011675949,0.348844,-0.32787806,-0.11161934,0.5549715,-0.82434684,0.65988606,-0.5788481,-0.47904623,-0.74302864,-0.5974458,-0.3016073,,1.3102234139751818,-0.5456110775639617,0.15559498499000002,2.7387603518513726,0.6296209909191496,-0.7976557159222665,-0.1261016190556636,,-0.9283960552077737,-0.31779045777433856,0.18932185821000003,-1.2950450909604225,-1.2342375023812235,1.0198332374728267,0.02188810486199342,,-0.15580336066396883,-0.3093683365622549,0.088225436,0.08275268144170031
0.49777950200950727,11:15:44.759492,11:15:43.560470,0,,0.05345974,-0.000645265,0.07046935,-0.30948675,0.39311767,-0.8658386,0.5945944,-0.63057375,-0.49883285,-0.74207515,-0.66920483,-0.038591325,,0.031774364,0.044622034,0.049761444,0.040844798,-0.6218699,0.78205454,0.16932815,-0.76707816,-0.61880463,0.98471296,0.15769887,0.07396895,,0.1763024,1.3281245,0.5574647,0.9922813,-0.05654353,-0.110366054,-0.101478964,-0.8817769,-0.4606208,-0.07127311,0.4682652,-0.8807087,,-0.038421188,0.1665253,-0.112495825,0.392142,-0.41420415,0.8213766,0.1425528,-0.85474503,-0.4990888,0.90879226,0.3128032,-0.27613547,,0.0011656702,0.34884563,-0.32787755,-0.11160878,0.5549758,-0.82434535,0.6598788,-0.57885635,-0.47904623,-0.7430366,-0.5974338,-0.30161133,,1.3102311367080561,-0.5456110775639617,0.15559498499000002,2.7387603518513726,0.6296209909191496,-0.7976557159222665,-0.1261016190556636,,-0.9284115006735221,-0.31779045777433856,0.18932185821000003,-1.2950450909604225,-1.2342375023812235,1.0198332374728267,0.02188810486199342,,-0.15580336066396883,-0.3093683365622549,0.088225436,0.08275268144170031
0.5252681669953745,11:15:44.781912,11:15:43.560470,0,,0.05345893,-0.00064483285,0.0704696,-0.309492,0.3931134,-0.86583865,0.59459704,-0.6305711,-0.49883306,-0.74207085,-0.66920984,-0.03858733,,0.031774364,0.044622034,0.049761444,0.040844798,-0.6218699,0.78205454,0.16932815,-0.76707816,-0.61880463,0.98471296,0.15769887,0.07396895,,0.1763024,1.3281245,0.5574647,0.9922813,-0.05654353,-0.110366054,-0.101478964,-0.8817769,-0.4606208,-0.07127311,0.4682652,-0.8807087,,-0.038420357,0.16652577,-0.11249591,0.39214724,-0.41419944,0.8213765,0.14255692,-0.8547454,-0.49908704,0.90878934,0.3128085,-0.27613905,,0.0011656702,0.34884563,-0.32787755,-0.11160878,0.5549758,-0.82434535,0.6598788,-0.57885635,-0.47904623,-0.7430366,-0.5974338,-0.30161133,,1.3102388594409302,-0.5456110775639617,0.15559498499000002,2.7387603518513726,0.6296209909191496,-0.7976557159222665,-0.1261016190556636,,-0.9284115006735221,-0.31779045777433856,0.18932185821000003,-1.2950450909604225,-1.2342375023812235,1.0198332374728267,0.02188810486199342,,-0.15580336066396883,-0.3093683365622549,0.088225436,0.08275268144170031
0.5476870400016196,11:15:44.807158,11:15:43.560470,0,,0.05345893,-0.00064483285,0.0704696,-0.309492,0.3931134,-0.86583865,0.59459704,-0.6305711,-0.49883306,-0.74207085,-0.66920984,-0.03858733,,0.031774364,0.044622034,0.049761444,0.040844798,-0.6218699,0.78205454,0.16932815,-0.76707816,-0.61880463,0.98471296,0.15769887,0.07396895,,0.1763024,1.3281245,0.5574647,0.9922813,-0.05654353,-0.110366054,-0.101478964,-0.8817769,-0.4606208,-0.07127311,0.4682652,-0.8807087,,-0.038420357,0.16652577,-0.11249591,0.39214724,-0.41419944,0.8213765,0.14255692,-0.8547454,-0.49908704,0.90878934,0.3128085,-0.27613905,,0.0011656702,0.34884563,-0.32787755,-0.11160878,0.5549758,-0.82434535,0.6598788,-0.57885635,-0.47904623,-0.7430366,-0.5974338,-0.30161133,,1.3102388594409302,-0.5456110775639617,0.15559498499000002,2.7387603518513726,0.6296209909191496,-0.7976557159222665,-0.1261016190556636,,-0.9284115006735221,-0.31779045777433856,0.18932185821000003,-1.2950450909604225,-1.2342375023812235,1.0198332374728267,0.02188810486199342,,-0.15580336066396883,-0.3093683365622549,0.088225436,0.08275268144170031
0.5729132540000137,11:15:44.829118,11:15:43.701845,0,,0.053459935,-0.00064492226,0.07046911,-0.30964354,0.3931837,-0.8657526,0.59461117,-0.63043916,-0.49898306,-0.74199635,-0.6692929,-0.03857994,,0.031774364,0.044622034,0.049761444,0.040844798,-0.6218699,0.78205454,0.16932815,-0.76707816,-0.61880463,0.98471296,0.15769887,0.07396895,,0.1763024,1.3281245,0.5574647,0.9922813,-0.05654353,-0.110366054,-0.101478964,-0.8817769,-0.4606208,-0.07127311,0.4682652,-0.8807087,,-0.038421344,0.1665255,-0.11249544,0.3922959,-0.41425446,0.8212778,0.14259753,-0.8546669,-0.49920988,0.9087188,0.31295016,-0.27621067,,0.0011656702,0.34884563,-0.32787755,-0.11160878,0.5549758,-0.82434535,0.6598788,-0.57885635,-0.47904623,-0.7430366,-0.5974338,-0.30161133,,1.3102388594409302,-0.5456110775639617,0.15559498499000002,2.738550661907888,0.6296209909191496,-0.7976557159222665,-0.1261016190556636,,-0.9284115006735221,-0.31779045777433856,0.18932185821000003,-1.2950450909604225,-1.2342375023812235,1.0198332374728267,0.02188810486199342,,-0.15580336066396883,-0.3093683365622549,0.088225436,0.08275268144170031
0.5948484530090354,11:15:44.857393,11:15:43.701845,0,,0.05335175,-0.000647977,0.07091737,-0.30862632,0.39430094,-0.8656077,0.5926979,-0.6320431,-0.49923003,-0.7439483,-0.6671193,-0.03863612,,0.03169599,0.044563636,0.050058216,0.039310955,-0.6221181,0.7819359,0.17189324,-0.7666646,-0.6186098,0.9843309,0.15872762,0.07679959,,0.1763024,1.3281245,0.5574647,0.9922813,-0.05654353,-0.110366054,-0.101478964,-0.8817769,-0.4606208,-0.07127311,0.4682652,-0.8807087,,-0.038422327,0.16652523,-0.112494975,0.39244455,-0.4143094,0.82117903,0.14263813,-0.8545883,-0.4993327,0.90864825,0.31309184,-0.27628222,,0.0011675949,0.348844,-0.32787806,-0.11161934,0.5549715,-0.82434684,0.65988606,-0.5788481,-0.47904623,-0.74302864,-0.5974458,-0.3016073,,1.3102388594409302,-0.5456110775639617,0.15559498499000002,2.7383409719644036,0.6296209909191496,-0.7976557159222665,-0.1261016190556636,,-0.9283960552077737,-0.31779045777433856,0.18932185821000003,-1.2950450909604225,-1.2342375023812235,1.0198332374728267,0.02188810486199342,,-0.15580336066396883,-0.3093683365622549,0.088225436,0.08275268144170031
0.623153683001874,11:15:44.879495,11:15:43.701845,0,,0.05335175,-0.000647977,0.07091737,-0.30862632,0.39430094,-0.8656077,0.5926979,-0.6320431,-0.49923003,-0.7439483,-0.6671193,-0.03863612,,0.03169599,0.044563636,0.050058216,0.039310955,-0.6221181,0.7819359,0.17189324,-0.7666646,-0.6186098,0.9843309,0.15872762,0.07679959,,0.1763024,1.3281245,0.5574647,0.9922813,-0.05654353,-0.110366054,-0.101478964,-0.8817769,-0.4606208,-0.07127311,0.4682652,-0.8807087,,-0.038422327,0.16652523,-0.112494975,0.39244455,-0.4143094,0.82117903,0.14263813,-0.8545883,-0.4993327,0.90864825,0.31309184,-0.27628222,,0.0011675949,0.348844,-0.32787806,-0.11161934,0.5549715,-0.82434684,0.65988606,-0.5788481,-0.47904623,-0.74302864,-0.5974458,-0.3016073,,1.3102388594409302,-0.5456110775639617,0.15559498499000002,2.7383409719644036,0.6296209909191496,-0.7976557159222665,-0.1261016190556636,,-0.9283960552077737,-0.31779045777433856,0.18932185821000003,-1.2950450909604225,-1.2342375023812235,1.0198332374728267,0.02188810486199342,,-0.15580336066396883,-0.3093683365622549,0.088225436,0.08275268144170031
0.645269559987355,11:15:44.905356,11:15:43.701845,0,,0.05335256,-0.0006484091,0.070917115,-0.30862108,0.39430517,-0.8656076,0.59269524,-0.63204575,-0.49922985,-0.7439525,-0.6671144,-0.03864011,,0.03169599,0.044563636,0.050058216,0.039310955,-0.6221181,0.7819359,0.17189324,-0.7666646,-0.6186098,0.9843309,0.15872762,0.07679959,,0.1763024,1.3281245,0.5574647,0.9922813,-0.05654353,-0.110366054,-0.101478964,-0.8817769,-0.4606208,-0.07127311,0.4682652,-0.8807087,,-0.03842316,0.16652477,-0.11249489,0.3924393,-0.4143141,0.82117915,0.142634,-0.85458803,-0.49933442,0.9086512,0.31308654,-0.27627864,,0.0011675949,0.348844,-0.32787806,-0.11161934,0.5549715,-0.82434684,0.65988606,-0.5788481,-0.47904623,-0.74302864,-0.5974458,-0.3016073,,1.3102311367080561,-0.5456110775639617,0.15559498499000002,2.7383409719644036,0.6296209909191496,-0.7976557159222665,-0.1261016190556636,,-0.9283960552077737,-0.31779045777433856,0.18932185821000003,-1.2950450909604225,-1.2342375023812235,1.0198332374728267,0.02188810486199342,,-0.15580336066396883,-0.3093683365622549,0.088225436,0.08275268144170031
0.6710877050063573,11:15:44.928377,11:15:43.701845,0,,0.05335175,-0.000647977,0.07091737,-0.30862632,0.39430094,-0.8656077,0.5926979,-0.6320431,-0.49923003,-0.7439483,-0.6671193,-0.03863612,,0.03169599,0.044563636,0.050058216,0.039310955,-0.6221181,0.7819359,0.17189324,-0.7666646,-0.6186098,0.9843309,0.15872762,0.07679959,,0.1763024,1.3281245,0.5574647,0.9922813,-0.05654353,-0.110366054,-0.101478964,-0.8817769,-0.4606208,-0.07127311,0.4682652,-0.8807087,,-0.038422327,0.16652523,-0.112494975,0.39244455,-0.4143094,0.82117903,0.14263813,-0.8545883,-0.4993327,0.90864825,0.31309184,-0.27628222,,0.0011675949,0.348844,-0.32787806,-0.11161934,0.5549715,-0.82434684,0.65988606,-0.5788481,-0.47904623,-0.74302864,-0.5974458,-0.3016073,,1.3102388594409302,-0.5456110775639617,0.15559498499000002,2.7383409719644036,0.6296209909191496,-0.7976557159222665,-0.1261016190556636,,-0.9283960552077737,-0.31779045777433856,0.18932185821000003,-1.2950450909604225,-1.2342375023812235,1.0198332374728267,0.02188810486199342,,-0.15580336066396883,-0.3093683365622549,0.088225436,0.08275268144170031
0.6941433379834052,11:15:44.948218,11:15:43.701845,0,,0.053353373,-0.0006488487,0.07091686,-0.3086158,0.3943094,-0.86560756,0.5926926,-0.6320484,-0.4992296,-0.7439568,-0.66710925,-0.038644075,,0.03169599,0.044563636,0.050058216,0.039310955,-0.6221181,0.7819359,0.17189324,-0.7666646,-0.6186098,0.9843309,0.15872762,0.07679959,,0.1763024,1.3281245,0.5574647,0.9922813,-0.05654353,-0.110366054,-0.101478964,-0.8817769,-0.4606208,-0.07127311,0.4682652,-0.8807087,,-0.038423993,0.1665243,-0.112494804,0.39243403,-0.41431877,0.82117933,0.14262989,-0.8545877,-0.49933618,0.9086541,0.31308123,-0.27627507,,0.0011675949,0.348844,-0.32787806,-0.11161934,0.5549715,-0.82434684,0.65988606,-0.5788481,-0.47904623,-0.74302864,-0.5974458,-0.3016073,,1.3102234139751818,-0.5456110775639617,0.15559498499000002,2.7383409719644036,0.6296209909191496,-0.7976557159222665,-0.1261016190556636,,-0.9283960552077737,-0.31779045777433856,0.18932185821000003,-1.2950450909604225,-1.2342375023812235,1.0198332374728267,0.02188810486199342,,-0.15580336066396883,-0.3093683365622549,0.088225436,0.08275268144170031
0.7139935669838451,11:15:44.976748,11:15:43.701845,0,,0.05335175,-0.000647977,0.07091737,-0.30862632,0.39430094,-0.8656077,0.5926979,-0.6320431,-0.49923003,-0.7439483,-0.6671193,-0.03863612,,0.03169599,0.044563636,0.050058216,0.039310955,-0.6221181,0.7819359,0.17189324,-0.7666646,-0.6186098,0.9843309,0.15872762,0.07679959,,0.1763024,1.3281245,0.5574647,0.9922813,-0.05654353,-0.110366054,-0.101478964,-0.8817769,-0.4606208,-0.07127311,0.4682652,-0.8807087,,-0.038422327,0.16652523,-0.112494975,0.39244455,-0.4143094,0.82117903,0.14263813,-0.8545883,-0.4993327,0.90864825,0.31309184,-0.27628222,,0.0011675949,0.348844,-0.32787806,-0.11161934,0.5549715,-0.82434684,0.65988606,-0.5788481,-0.47904623,-0.74302864,-0.5974458,-0.3016073,,1.3102388594409302,-0.5456110775639617,0.15559498499000002,2.7383409719644036,0.6296209909191496,-0.7976557159222665,-0.1261016190556636,,-0.9283960552077737,-0.31779045777433856,0.18932185821000003,-1.2950450909604225,-1.2342375023812235,1.0198332374728267,0.02188810486199342,,-0.15580336066396883,-0.3093683365622549,0.088225436,0.08275268144170031
0.7424348249915056,11:15:45.000137,11:15:43.856021,0,,0.05335056,-0.00058305264,0.07109989,-0.30873024,0.39449668,-0.8654813,0.5910613,-0.63334143,-0.49952495,-0.7452062,-0.665771,-0.037640065,,0.031683814,0.044579938,0.050145358,0.03921756,-0.62193555,0.78208584,0.17396113,-0.7664858,-0.61825323,0.98397124,0.16029888,0.0781329,,0.1763024,1.3281245,0.5574647,0.9922813,-0.05654353,-0.110366054,-0.101478964,-0.8817769,-0.4606208,-0.07127311,0.4682652,-0.8807087,,-0.03842316,0.16652477,-0.11249489,0.3924393,-0.4143141,0.82117915,0.142634,-0.85458803,-0.49933442,0.9086512,0.31308654,-0.27627864,,0.0011675949,0.348844,-0.32787806,-0.11161934,0.5549715,-0.82434684,0.65988606,-0.5788481,-0.47904623,-0.74302864,-0.5974458,-0.3016073,,1.3102311367080561,-0.5456110775639617,0.15559498499000002,2.7383409719644036,0.6296209909191496,-0.7976557159222665,-0.1261016190556636,,-0.9283960552077737,-0.31779045777433856,0.18932185821000003,-1.2950450909604225,-1.2342375023812235,1.0198332374728267,0.02188810486199342,,-0.15580336066396883,-0.3093683365622549,0.088225436,0.08275268144170031
0.7659078529977705,11:15:45.025933,11:15:43.856021,0,,0.05335056,-0.00058305264,0.07109989,-0.30873024,0.39449668,-0.8654813,0.5910613,-0.63334143,-0.49952495,-0.7452062,-0.665771,-0.037640065,,0.031683814,0.044579938,0.050145358,0.03921756,-0.62193555,0.78208584,0.17396113,-0.7664858,-0.61825323,0.98397124,0.16029888,0.0781329,,0.1763024,1.3281245,0.5574647,0.9922813,-0.05654353,-0.110366054,-0.101478964,-0.8817769,-0.4606208,-0.07127311,0.4682652,-0.8807087,,-0.03842316,0.16652477,-0.11249489,0.3924393,-0.4143141,0.82117915,0.142634,-0.85458803,-0.49933442,0.9086512,0.31308654,-0.27627864,,0.0011675949,0.348844,-0.32787806,-0.11161934,0.5549715,-0.82434684,0.65988606,-0.5788481,-0.47904623,-0.74302864,-0.5974458,-0.3016073,,1.3102311367080561,-0.5456110775639617,0.15559498499000002,2.7383409719644036,0.6296209909191496,-0.7976557159222665,-0.1261016190556636,,-0.9283960552077737,-0.31779045777433856,0.18932185821000003,-1.2950450909604225,-1.2342375023812235,1.0198332374728267,0.02188810486199342,,-0.15580336066396883,-0.3093683365622549,0.088225436,0.08275268144170031
0.7917024070047773,11:15:45.046093,11:15:43.856021,0,,0.05334975,-0.0005826354,0.071100146,-0.30873552,0.39449242,-0.86548144,0.591064,-0.63333875,-0.49952513,-0.7452018,-0.665776,-0.03763607,,0.03168481,0.044580728,0.050145656,0.039211847,-0.6219371,0.7820849,0.17395633,-0.76648605,-0.61825424,0.9839723,0.16029152,0.07813457,,0.1763024,1.3281245,0.5574647,0.9922813,-0.05654353,-0.110366054,-0.101478964,-0.8817769,-0.4606208,-0.07127311,0.4682652,-0.8807087,,-0.038422327,0.16652523,-0.112494975,0.39244455,-0.4143094,0.82117903,0.14263813,-0.8545883,-0.4993327,0.90864825,0.31309184,-0.27628222,,0.0011666326,0.34884483,-0.3278778,-0.111614056,0.55497366,-0.8243461,0.6598824,-0.57885224,-0.47904623,-0.74303263,-0.5974398,-0.30160934,,1.3102388594409302,-0.5456110775639617,0.15559498499000002,2.7383409719644036,0.6296209909191496,-0.7976557159222665,-0.1261016190556636,,-0.9284037779406479,-0.31779045777433856,0.18932185821000003,-1.2950450909604225,-1.2342375023812235,1.0198332374728267,0.02188810486199342,,-0.15580336066396883,-0.3093683365622549,0.088225436,0.08275268144170031
0.811825113982195,11:15:45.070652,11:15:43.856021,0,,0.05334975,-0.0005826354,0.071100146,-0.30873552,0.39449242,-0.86548144,0.591064,-0.63333875,-0.49952513,-0.7452018,-0.665776,-0.03763607,,0.03168481,0.044580728,0.050145656,0.039211847,-0.6219371,0.7820849,0.17395633,-0.76648605,-0.61825424,0.9839723,0.16029152,0.07813457,,0.1763024,1.3281245,0.5574647,0.9922813,-0.05654353,-0.110366054,-0.101478964,-0.8817769,-0.4606208,-0.07127311,0.4682652,-0.8807087,,-0.038422327,0.16652523,-0.112494975,0.39244455,-0.4143094,0.82117903,0.14263813,-0.8545883,-0.4993327,0.90864825,0.31309184,-0.27628222,,0.0011666326,0.34884483,-0.3278778,-0.111614056,0.55497366,-0.8243461,0.6598824,-0.57885224,-0.47904623,-0.74303263,-0.5974398,-0.30160934,,1.3102388594409302,-0.5456110775639617,0.15559498499000002,2.7383409719644036,0.6296209909191496,-0.7976557159222665,-0.1261016190556636,,-0.9284037779406479,-0.31779045777433856,0.18932185821000003,-1.2950450909604225,-1.2342375023812235,1.0198332374728267,0.02188810486199342,,-0.15580336066396883,-0.3093683365622549,0.088225436,0.08275268144170031
0.8364021889865398,11:15:45.095046,11:15:43.856021,0,,0.05335056,-0.00058305264,0.07109989,-0.30873024,0.39449668,-0.8654813,0.5910613,-0.63334143,-0.49952495,-0.7452062,-0.665771,-0.037640065,,0.0316858,0.044581488,0.050145954,0.03920614,-0.62193865,0.7820839,0.17395154,-0.76648635,-0.61825526,0.9839734,0.16028407,0.078136206,,0.1763024,1.3281245,0.5574647,0.9922813,-0.05654353,-0.110366054,-0.101478964,-0.8817769,-0.4606208,-0.07127311,0.4682652,-0.8807087,,-0.03842316,0.16652477,-0.11249489,0.3924393,-0.4143141,0.82117915,0.142634,-0.85458803,-0.49933442,0.9086512,0.31308654,-0.27627864,,0.0011656702,0.34884563,-0.32787755,-0.11160878,0.5549758,-0.82434535,0.6598788,-0.57885635,-0.47904623,-0.7430366,-0.5974338,-0.30161133,,1.3102311367080561,-0.5456110775639617,0.15559498499000002,2.7383409719644036,0.6296209909191496,-0.7976557159222665,-0.1261016190556636,,-0.9284115006735221,-0.31779045777433856,0.18932185821000003,-1.2950450909604225,-1.2342375023812235,1.0198332374728267,0.02188810486199342,,-0.15580336066396883,-0.3093683365622549,0.088225436,0.08275268144170031
0.8608214179985225,11:15:45.116611,11:15:43.856021,0,,0.05334975,-0.0005826354,0.071100146,-0.30873552,0.39449242,-0.86548144,0.591064,-0.63333875,-0.49952513,-0.7452018,-0.665776,-0.03763607,,0.03168481,0.044580728,0.050145656,0.039211847,-0.6219371,0.7820849,0.17395633,-0.76648605,-0.61825424,0.9839723,0.16029152,0.07813457,,0.1763024,1.3281245,0.5574647,0.9922813,-0.05654353,-0.110366054,-0.101478964,-0.8817769,-0.4606208,-0.07127311,0.4682652,-0.8807087,,-0.038422327,0.16652523,-0.112494975,0.39244455,-0.4143094,0.82117903,0.14263813,-0.8545883,-0.4993327,0.90864825,0.31309184,-0.27628222,,0.0011666326,0.34884483,-0.3278778,-0.111614056,0.55497366,-0.8243461,0.6598824,-0.57885224,-0.47904623,-0.74303263,-0.5974398,-0.30160934,,1.3102388594409302,-0.5456110775639617,0.15559498499000002,2.7383409719644036,0.6296209909191496,-0.7976557159222665,-0.1261016190556636,,-0.9284037779406479,-0.31779045777433856,0.18932185821000003,-1.2950450909604225,-1.2342375023812235,1.0198332374728267,0.02188810486199342,,-0.15580336066396883,-0.3093683365622549,0.088225436,0.08275268144170031
0.8823873229848687,11:15:45.141396,11:15:43.994337,0,,0.053491343,-0.0005330369,0.07096413,-0.3107624,0.39343944,-0.86523527,0.59075105,-0.6331798,-0.5000965,-0.7446073,-0.6665499,-0.035656244,,0.03174884,0.044613972,0.050051868,0.041278057,-0.6210782,0.7826607,0.17412111,-0.76687026,-0.6177311,0.9838587,0.16177654,0.07648796,,0.1763024,1.3281245,0.5574647,0.9922813,-0.05654353,-0.110366054,-0.101478964,-0.8817769,-0.4606208,-0.07127311,0.4682652,-0.8807087,,-0.038423993,0.1665243,-0.112494804,0.39243403,-0.41431877,0.82117933,0.14262989,-0.8545877,-0.49933618,0.9086541,0.31308123,-0.27627507,,0.0011666326,0.34884483,-0.3278778,-0.111614056,0.55497366,-0.8243461,0.6598824,-0.57885224,-0.47904623,-0.74303263,-0.5974398,-0.30160934,,1.3102234139751818,-0.5456110775639617,0.15559498499000002,2.7383409719644036,0.6296209909191496,-0.7976557159222665,-0.1261016190556636,,-0.9284037779406479,-0.31779045777433856,0.18932185821000003,-1.2950450909604225,-1.2342375023812235,1.0198332374728267,0.02188810486199342,,-0.15580336066396883,-0.3093683365622549,0.088225436,0.08275268144170031
0.9071709839918185,11:15:45.164506,11:15:43.994337,0,,0.05349053,-0.00053260475,0.070964396,-0.31076768,0.3934352,-0.8652353,0.5907537,-0.63317716,-0.5000967,-0.74460304,-0.6665549,-0.03565228,,0.03174983,0.044614717,0.050052166,0.041272357,-0.6210798,0.78265977,0.17411625,-0.7668706,-0.61773205,0.9838598,0.16176912,0.07648958,,0.1763024,1.3281245,0.5574647,0.9922813,-0.05654353,-0.110366054,-0.101478964,-0.8817769,-0.4606208,-0.07127311,0.4682652,-0.8807087,,-0.03842316,0.16652477,-0.11249489,0.3924393,-0.4143141,0.82117915,0.142634,-0.85458803,-0.49933442,0.9086512,0.31308654,-0.27627864,,0.0011656702,0.34884563,-0.32787755,-0.11160878,0.5549758,-0.82434535,0.6598788,-0.57885635,-0.47904623,-0.7430366,-0.5974338,-0.30161133,,1.3102311367080561,-0.5456110775639617,0.15559498499000002,2.7383409719644036,0.6296209909191496,-0.7976557159222665,-0.1261016190556636,,-0.9284115006735221,-0.31779045777433856,0.18932185821000003,-1.2950450909604225,-1.2342375023812235,1.0198332374728267,0.02188810486199342,,-0.15580336066396883,-0.3093683365622549,0.088225436,0.08275268144170031
0.9302807819913141,11:15:45.191589,11:15:43.994337,0,,0.05349053,-0.00053260475,0.070964396,-0.31076768,0.3934352,-0.8652353,0.5907537,-0.63317716,-0.5000967,-0.74460304,-0.6665549,-0.03565228,,0.031750068,0.04461065,0.050052404,0.041325353,-0.621391,0.78240997,0.1739926,-0.76663834,-0.61805516,0.98387945,0.16167492,0.076435864,,0.1763024,1.3281245,0.5574647,0.9922813,-0.05654353,-0.110366054,-0.101478964,-0.8817769,-0.4606208,-0.07127311,0.4682652,-0.8807087,,-0.03842316,0.16652477,-0.11249489,0.3924393,-0.4143141,0.82117915,0.142634,-0.85458803,-0.49933442,0.9086512,0.31308654,-0.27627864,,0.0011651497,0.34884226,-0.32787985,-0.11167107,0.55530804,-0.8241132,0.6597839,-0.5787104,-0.47935322,-0.74311155,-0.5972665,-0.3017581,,1.3102311367080561,-0.5456110775639617,0.15559498499000002,2.7383409719644036,0.6296209909191496,-0.7976557159222665,-0.1261016190556636,,-0.9284037779406479,-0.31779045777433856,0.18932185821000003,-1.2946257110734534,-1.2342375023812235,1.0198332374728267,0.02188810486199342,,-0.15580336066396883,-0.3093683365622549,0.088225436,0.08275268144170031
0.9573259250028059,11:15:45.217349,11:15:43.994337,0,,0.053491343,-0.0005330369,0.07096413,-0.3107624,0.39343944,-0.86523527,0.59075105,-0.6331798,-0.5000965,-0.7446073,-0.6665499,-0.035656244,,0.031750068,0.04461065,0.050052404,0.041325353,-0.621391,0.78240997,0.1739926,-0.76663834,-0.61805516,0.98387945,0.16167492,0.076435864,,0.1763024,1.3281245,0.5574647,0.9922813,-0.05654353,-0.110366054,-0.101478964,-0.8817769,-0.4606208,-0.07127311,0.4682652,-0.8807087,,-0.038423993,0.1665243,-0.112494804,0.39243403,-0.41431877,0.82117933,0.14262989,-0.8545877,-0.49933618,0.9086541,0.31308123,-0.27627507,,0.0011651497,0.34884226,-0.32787985,-0.11167107,0.55530804,-0.8241132,0.6597839,-0.5787104,-0.47935322,-0.74311155,-0.5972665,-0.3017581,,1.3102234139751818,-0.5456110775639617,0.15559498499000002,2.7383409719644036,0.6296209909191496,-0.7976557159222665,-0.1261016190556636,,-0.9284037779406479,-0.31779045777433856,0.18932185821000003,-1.2946257110734534,-1.2342375023812235,1.0198332374728267,0.02188810486199342,,-0.15580336066396883,-0.3093683365622549,0.088225436,0.08275268144170031
0.9830741210025735,11:15:45.241655,11:15:43.994337,0,,0.05348972,-0.0005321577,0.070964664,-0.31077293,0.39343095,-0.8652353,0.59075636,-0.63317454,-0.5000969,-0.7445987,-0.66655993,-0.035648316,,0.031750068,0.04461065,0.050052404,0.041325353,-0.621391,0.78240997,0.1739926,-0.76663834,-0.61805516,0.98387945,0.16167492,0.076435864,,0.1763024,1.3281245,0.5574647,0.9922813,-0.05654353,-0.110366054,-0.101478964,-0.8817769,-0.4606208,-0.07127311,0.4682652,-0.8807087,,-0.038422327,0.16652523,-0.112494975,0.39244455,-0.4143094,0.82117903,0.14263813,-0.8545883,-0.4993327,0.90864825,0.31309184,-0.27628222,,0.0011651497,0.34884226,-0.32787985,-0.11167107,0.55530804,-0.8241132,0.6597839,-0.5787104,-0.47935322,-0.74311155,-0.5972665,-0.3017581,,1.3102388594409302,-0.5456110775639617,0.15559498499000002,2.7383409719644036,0.6296209909191496,-0.7976557159222665,-0.1261016190556636,,-0.9284037779406479,-0.31779045777433856,0.18932185821000003,-1.2946257110734534,-1.2342375023812235,1.0198332374728267,0.02188810486199342,,-0.15580336066396883,-0.3093683365622549,0.088225436,0.08275268144170031
1.0074209150043316,11:15:45.266258,11:15:43.994337,0,,0.05348972,-0.0005321577,0.070964664,-0.31077293,0.39343095,-0.8652353,0.59075636,-0.63317454,-0.5000969,-0.7445987,-0.66655993,-0.035648316,,0.031749073,0.04460986,0.050052106,0.041331068,-0.62138945,0.78241086,0.1739974,-0.76663804,-0.61805415,0.9838784,0.16168237,0.076434225,,0.1763024,1.3281245,0.5574647,0.9922813,-0.05654353,-0.110366054,-0.101478964,-0.8817769,-0.4606208,-0.07127311,0.4682652,-0.8807087,,-0.038422327,0.16652523,-0.112494975,0.39244455,-0.4143094,0.82117903,0.14263813,-0.8545883,-0.4993327,0.90864825,0.31309184,-0.27628222,,0.0011661121,0.34884143,-0.3278801,-0.11167635,0.5553059,-0.8241139,0.65978754,-0.57870626,-0.4793532,-0.74310756,-0.5972725,-0.30175608,,1.3102388594409302,-0.5456110775639617,0.15559498499000002,2.7383409719644036,0.6296209909191496,-0.7976557159222665,-0.1261016190556636,,-0.9283960552077737,-0.31779045777433856,0.18932185821000003,-1.2946257110734534,-1.2342375023812235,1.0198332374728267,0.02188810486199342,,-0.15580336066396883,-0.3093683365622549,0.088225436,0.08275268144170031
1.0320235420076642,11:15:45.293547,11:15:44.153243,0,,0.05353007,-0.00055229664,0.07073939,-0.31127316,0.39298695,-0.86525726,0.5919542,-0.6320977,-0.5000427,-0.74343747,-0.6678426,-0.03587517,,0.0317763,0.044625312,0.049915344,0.041984037,-0.62128025,0.7824629,0.17239851,-0.76690185,-0.618175,0.9841321,0.16084889,0.07491015,,0.1763024,1.3281245,0.5574647,0.9922813,-0.05654353,-0.110366054,-0.101478964,-0.8817769,-0.4606208,-0.07127311,0.4682652,-0.8807087,,-0.03842316,0.16652477,-0.11249489,0.3924393,-0.4143141,0.82117915,0.142634,-0.85458803,-0.49933442,0.9086512,0.31308654,-0.27627864,,0.0011641874,0.34884307,-0.3278796,-0.111665785,0.5553102,-0.8241125,0.65978026,-0.5787145,-0.47935322,-0.74311554,-0.59726053,-0.3017601,,1.3102311367080561,-0.5456110775639617,0.15559498499000002,2.7383409719644036,0.6296209909191496,-0.7976557159222665,-0.1261016190556636,,-0.9284115006735221,-0.31779045777433856,0.18932185821000003,-1.2946257110734534,-1.2342375023812235,1.0198332374728267,0.02188810486199342,,-0.15580336066396883,-0.3093683365622549,0.088225436,0.08275268144170031
1.0593212810053956,11:15:45.317165,11:15:44.153243,0,,0.053529263,-0.00055185705,0.07073966,-0.3112784,0.3929827,-0.8652574,0.59195685,-0.6320951,-0.50004286,-0.74343324,-0.6678476,-0.035871208,,0.03177531,0.044624567,0.049915045,0.04198975,-0.62127876,0.7824638,0.17240337,-0.7669015,-0.618174,0.98413104,0.16085628,0.07490851,,0.1763024,1.3281245,0.5574647,0.9922813,-0.05654353,-0.110366054,-0.101478964,-0.8817769,-0.4606208,-0.07127311,0.4682652,-0.8807087,,-0.038422327,0.16652523,-0.112494975,0.39244455,-0.4143094,0.82117903,0.14263813,-0.8545883,-0.4993327,0.90864825,0.31309184,-0.27628222,,0.0011651497,0.34884226,-0.32787985,-0.11167107,0.55530804,-0.8241132,0.6597839,-0.5787104,-0.47935322,-0.74311155,-0.5972665,-0.3017581,,1.3102388594409302,-0.5456110775639617,0.15559498499000002,2.7383409719644036,0.6296209909191496,-0.7976557159222665,-0.1261016190556636,,-0.9284037779406479,-0.31779045777433856,0.18932185821000003,-1.2946257110734534,-1.2342375023812235,1.0198332374728267,0.02188810486199342,,-0.15580336066396883,-0.3093683365622549,0.088225436,0.08275268144170031
1.0829175100079738,11:15:45.342589,11:15:44.153243,0,,0.053530887,-0.0005527288,0.07073912,-0.31126785,0.3929912,-0.8652573,0.59195155,-0.6321004,-0.50004244,-0.7434418,-0.6678376,-0.035879165,,0.03177531,0.044624567,0.049915045,0.04198975,-0.62127876,0.7824638,0.17240337,-0.7669015,-0.618174,0.98413104,0.16085628,0.07490851,,0.1763024,1.3281245,0.5574647,0.9922813,-0.05654353,-0.110366054,-0.101478964,-0.8817769,-0.4606208,-0.07127311,0.4682652,-0.8807087,,-0.038423993,0.1665243,-0.112494804,0.39243403,-0.41431877,0.82117933,0.14262989,-0.8545877,-0.49933618,0.9086541,0.31308123,-0.27627507,,0.0011651497,0.34884226,-0.32787985,-0.11167107,0.55530804,-0.8241132,0.6597839,-0.5787104,-0.47935322,-0.74311155,-0.5972665,-0.3017581,,1.3102234139751818,-0.5456110775639617,0.15559498499000002,2.7383409719644036,0.6296209909191496,-0.7976557159222665,-0.1261016190556636,,-0.9284037779406479,-0.31779045777433856,0.18932185821000003,-1.2946257110734534,-1.2342375023812235,1.0198332374728267,0.02188810486199342,,-0.15580336066396883,-0.3093683365622549,0.088225436,0.08275268144170031
1.1083102819975466,11:15:45.366259,11:15:44.153243,0,,0.05353007,-0.00055229664,0.07073939,-0.31127316,0.39298695,-0.86525726,0.5919542,-0.6320977,-0.5000427,-0.74343747,-0.6678426,-0.03587517,,0.0317763,0.044625312,0.049915344,0.041984037,-0.62128025,0.7824629,0.17239851,-0.76690185,-0.618175,0.9841321,0.16084889,0.07491015,,0.1763024,1.3281245,0.5574647,0.9922813,-0.05654353,-0.110366054,-0.101478964,-0.8817769,-0.4606208,-0.07127311,0.4682652,-0.8807087,,-0.03842316,0.16652477,-0.11249489,0.3924393,-0.4143141,0.82117915,0.142634,-0.85458803,-0.49933442,0.9086512,0.31308654,-0.27627864,,0.0011641874,0.34884307,-0.3278796,-0.111665785,0.5553102,-0.8241125,0.65978026,-0.5787145,-0.47935322,-0.74311554,-0.59726053,-0.3017601,,1.3102311367080561,-0.5456110775639617,0.15559498499000002,2.7383409719644036,0.6296209909191496,-0.7976557159222665,-0.1261016190556636,,-0.9284115006735221,-0.31779045777433856,0.18932185821000003,-1.2946257110734534,-1.2342375023812235,1.0198332374728267,0.02188810486199342,,-0.15580336066396883,-0.3093683365622549,0.088225436,0.08275268144170031
1.1320305480039679,11:15:45.391790,11:15:44.153243,0,,0.053529263,-0.00055185705,0.07073966,-0.3112784,0.3929827,-0.8652574,0.59195685,-0.6320951,-0.50004286,-0.74343324,-0.6678476,-0.035871208,,0.03177531,0.044624567,0.049915045,0.04198975,-0.62127876,0.7824638,0.17240337,-0.7669015,-0.618174,0.98413104,0.16085628,0.07490851,,0.1763024,1.3281245,0.5574647,0.9922813,-0.05654353,-0.110366054,-0.101478964,-0.8817769,-0.4606208,-0.07127311,0.4682652,-0.8807087,,-0.038422327,0.16652523,-0.112494975,0.39244455,-0.4143094,0.82117903,0.14263813,-0.8545883,-0.4993327,0.90864825,0.31309184,-0.27628222,,0.0011651497,0.34884226,-0.32787985,-0.11167107,0.55530804,-0.8241132,0.6597839,-0.5787104,-0.47935322,-0.74311155,-0.5972665,-0.3017581,,1.3102388594409302,-0.5456110775639617,0.15559498499000002,2.7383409719644036,0.6296209909191496,-0.7976557159222665,-0.1261016190556636,,-0.9284037779406479,-0.31779045777433856,0.18932185821000003,-1.2946257110734534,-1.2342375023812235,1.0198332374728267,0.02188810486199342,,-0.15580336066396883,-0.3093683365622549,0.088225436,0.08275268144170031
1.1575497729936615,11:15:45.413237,11:15:44.153243,0,,0.05353007,-0.00055229664,0.07073939,-0.31127316,0.39298695,-0.86525726,0.5919542,-0.6320977,-0.5000427,-0.74343747,-0.6678426,-0.03587517,,0.03177531,0.044624567,0.049915045,0.04198975,-0.62127876,0.7824638,0.17240337,-0.7669015,-0.618174,0.98413104,0.16085628,0.07490851,,0.1763024,1.3281245,0.5574647,0.9922813,-0.05654353,-0.110366054,-0.101478964,-0.8817769,-0.4606208,-0.07127311,0.4682652,-0.8807087,,-0.03842316,0.16652477,-0.11249489,0.3924393,-0.4143141,0.82117915,0.142634,-0.85458803,-0.49933442,0.9086512,0.31308654,-0.27627864,,0.0011651497,0.34884226,-0.32787985,-0.11167107,0.55530804,-0.8241132,0.6597839,-0.5787104,-0.47935322,-0.74311155,-0.5972665,-0.3017581,,1.3102311367080561,-0.5456110775639617,0.15559498499000002,2.7383409719644036,0.6296209909191496,-0.7976557159222665,-0.1261016190556636,,-0.9284037779406479,-0.31779045777433856,0.18932185821000003,-1.2946257110734534,-1.2342375023812235,1.0198332374728267,0.02188810486199342,,-0.15580336066396883,-0.3093683365622549,0.088225436,0.08275268144170031
1.1789361749833915,11:15:45.435436,11:15:44.153243,0,,0.05353007,-0.00055229664,0.07073939,-0.31127316,0.39298695,-0.86525726,0.5919542,-0.6320977,-0.5000427,-0.74343747,-0.6678426,-0.03587517,,0.0317763,0.044625312,0.049915344,0.041984037,-0.62128025,0.7824629,0.17239851,-0.76690185,-0.618175,0.9841321,0.16084889,0.07491015,,0.1763024,1.3281245,0.5574647,0.9922813,-0.05654353,-0.110366054,-0.101478964,-0.8817769,-0.4606208,-0.07127311,0.4682652,-0.8807087,,-0.03842316,0.16652477,-0.11249489,0.3924393,-0.4143141,0.82117915,0.142634,-0.85458803,-0.49933442,0.9086512,0.31308654,-0.27627864,,0.0011641874,0.34884307,-0.3278796,-0.111665785,0.5553102,-0.8241125,0.65978026,-0.5787145,-0.47935322,-0.74311554,-0.59726053,-0.3017601,,1.3102311367080561,-0.5456110775639617,0.15559498499000002,2.7383409719644036,0.6296209909191496,-0.7976557159222665,-0.1261016190556636,,-0.9284115006735221,-0.31779045777433856,0.18932185821000003,-1.2946257110734534,-1.2342375023812235,1.0198332374728267,0.02188810486199342,,-0.15580336066396883,-0.3093683365622549,0.088225436,0.08275268144170031
1.2011225860042032,11:15:45.463104,11:15:44.313299,0,,0.05359564,-0.00052434206,0.07078141,-0.31235588,0.39254263,-0.86506903,0.5912583,-0.6324175,-0.5004616,-0.7435371,-0.66780114,-0.03455478,,0.03179902,0.044627756,0.049946368,0.0429793,-0.62075746,0.78282374,0.17315352,-0.7670618,-0.6177654,0.98395663,0.16209975,0.07451852,,0.1763024,1.3281245,0.5574647,0.9922813,-0.05654353,-0.110366054,-0.101478964,-0.8817769,-0.4606208,-0.07127311,0.4682652,-0.8807087,,-0.038422115,0.16652465,-0.11249593,0.3924481,-0.4143089,0.8211776,0.14263172,-0.8545901,-0.4993315,0.9086477,0.31308767,-0.27628866,,0.0011651497,0.34884226,-0.32787985,-0.11167107,0.55530804,-0.8241132,0.6597839,-0.5787104,-0.47935322,-0.74311155,-0.5972665,-0.3017581,,1.3102388594409302,-0.5456188002968358,0.15559498499000002,2.7383409719644036,0.6296209909191496,-0.7976557159222665,-0.1261016190556636,,-0.9284037779406479,-0.31779045777433856,0.18932185821000003,-1.2946257110734534,-1.2342375023812235,1.0198332374728267,0.02188810486199342,,-0.15580336066396883,-0.3093683365622549,0.088225436,0.08275268144170031
1.228875094995601,11:15:45.482204,11:15:44.313299,0,,0.053597577,-0.00052425265,0.07078034,-0.31234145,0.39255205,-0.8650699,0.5912586,-0.6324192,-0.5004591,-0.743543,-0.667794,-0.034568995,,0.031798027,0.044626966,0.04994607,0.042985015,-0.6207559,0.7828247,0.17315838,-0.76706153,-0.61776435,0.9839555,0.1621072,0.07451686,,0.1763024,1.3281245,0.5574647,0.9922813,-0.05654353,-0.110366054,-0.101478964,-0.8817769,-0.4606208,-0.07127311,0.4682652,-0.8807087,,-0.038423993,0.1665243,-0.112494804,0.39243403,-0.41431877,0.82117933,0.14262989,-0.8545877,-0.49933618,0.9086541,0.31308123,-0.27627507,,0.0011661121,0.34884143,-0.3278801,-0.11167635,0.5553059,-0.8241139,0.65978754,-0.57870626,-0.4793532,-0.74310756,-0.5972725,-0.30175608,,1.3102234139751818,-0.5456110775639617,0.15559498499000002,2.7383409719644036,0.6296209909191496,-0.7976557159222665,-0.1261016190556636,,-0.9283960552077737,-0.31779045777433856,0.18932185821000003,-1.2946257110734534,-1.2342375023812235,1.0198332374728267,0.02188810486199342,,-0.15580336066396883,-0.3093683365622549,0.088225436,0.08275268144170031
1.2479798469867092,11:15:45.505304,11:15:44.313299,0,,0.053596765,-0.0005238354,0.070780605,-0.31234673,0.3925478,-0.86506987,0.5912612,-0.6324167,-0.50045925,-0.74353874,-0.667799,-0.034565,,0.031800013,0.044628516,0.049946666,0.042973593,-0.62075907,0.78282285,0.17314872,-0.7670621,-0.6177664,0.98395765,0.16209236,0.074520156,,0.1763024,1.3281245,0.5574647,0.9922813,-0.05654353,-0.110366054,-0.101478964,-0.8817769,-0.4606208,-0.07127311,0.4682652,-0.8807087,,-0.03842316,0.16652477,-0.11249489,0.3924393,-0.4143141,0.82117915,0.142634,-0.85458803,-0.49933442,0.9086512,0.31308654,-0.27627864,,0.0011641874,0.34884307,-0.3278796,-0.111665785,0.5553102,-0.8241125,0.65978026,-0.5787145,-0.47935322,-0.74311554,-0.59726053,-0.3017601,,1.3102311367080561,-0.5456110775639617,0.15559498499000002,2.7383409719644036,0.6296209909191496,-0.7976557159222665,-0.1261016190556636,,-0.9284115006735221,-0.31779045777433856,0.18932185821000003,-1.2946257110734534,-1.2342375023812235,1.0198332374728267,0.02188810486199342,,-0.15580336066396883,-0.3093683365622549,0.088225436,0.08275268144170031
1.2710084459977224,11:15:45.529912,11:15:44.313299,0,,0.053595956,-0.00052339584,0.07078086,-0.31235194,0.39254355,-0.86507,0.5912639,-0.632414,-0.50045943,-0.7435344,-0.667804,-0.034561038,,0.03179902,0.044627756,0.049946368,0.0429793,-0.62075746,0.78282374,0.17315352,-0.7670618,-0.6177654,0.98395663,0.16209975,0.07451852,,0.1763024,1.3281245,0.5574647,0.9922813,-0.05654353,-0.110366054,-0.101478964,-0.8817769,-0.4606208,-0.07127311,0.4682652,-0.8807087,,-0.038422327,0.16652523,-0.112494975,0.39244455,-0.4143094,0.82117903,0.14263813,-0.8545883,-0.4993327,0.90864825,0.31309184,-0.27628222,,0.0011651497,0.34884226,-0.32787985,-0.11167107,0.55530804,-0.8241132,0.6597839,-0.5787104,-0.47935322,-0.74311155,-0.5972665,-0.3017581,,1.3102388594409302,-0.5456110775639617,0.15559498499000002,2.7383409719644036,0.6296209909191496,-0.7976557159222665,-0.1261016190556636,,-0.9284037779406479,-0.31779045777433856,0.18932185821000003,-1.2946257110734534,-1.2342375023812235,1.0198332374728267,0.02188810486199342,,-0.15580336066396883,-0.3093683365622549,0.088225436,0.08275268144170031
1.2956859089899808,11:15:45.550190,11:15:44.313299,0,,0.053596765,-0.0005238354,0.070780605,-0.31234673,0.3925478,-0.86506987,0.5912612,-0.6324167,-0.50045925,-0.74353874,-0.667799,-0.034565,,0.031798027,0.044626966,0.04994607,0.042985015,-0.6207559,0.7828247,0.17315838,-0.76706153,-0.61776435,0.9839555,0.1621072,0.07451686,,0.1763024,1.3281245,0.5574647,0.9922813,-0.05654353,-0.110366054,-0.101478964,-0.8817769,-0.4606208,-0.07127311,0.4682652,-0.8807087,,-0.03842316,0.16652477,-0.11249489,0.3924393,-0.4143141,0.82117915,0.142634,-0.85458803,-0.49933442,0.9086512,0.31308654,-0.27627864,,0.0011661121,0.34884143,-0.3278801,-0.11167635,0.5553059,-0.8241139,0.65978754,-0.57870626,-0.4793532,-0.74310756,-0.5972725,-0.30175608,,1.3102311367080561,-0.5456110775639617,0.15559498499000002,2.7383409719644036,0.6296209909191496,-0.7976557159222665,-0.1261016190556636,,-0.9283960552077737,-0.31779045777433856,0.18932185821000003,-1.2946257110734534,-1.2342375023812235,1.0198332374728267,0.02188810486199342,,-0.15580336066396883,-0.3093683365622549,0.088225436,0.08275268144170031
1.3159515319857746,11:15:45.575327,11:15:44.313299,0,,0.05359476,-0.0005236566,0.07078159,-0.3120439,0.39240807,-0.86524254,0.59123284,-0.6326802,-0.5001596,-0.74368834,-0.66763145,-0.03458053,,0.031798027,0.044626966,0.04994607,0.042985015,-0.6207559,0.7828247,0.17315838,-0.76706153,-0.61776435,0.9839555,0.1621072,0.07451686,,0.1763024,1.3281245,0.5574647,0.9922813,-0.05654353,-0.110366054,-0.101478964,-0.8817769,-0.4606208,-0.07127311,0.4682652,-0.8807087,,-0.038421188,0.1665253,-0.112495825,0.392142,-0.41420415,0.8213766,0.1425528,-0.85474503,-0.4990888,0.90879226,0.3128032,-0.27613547,,0.0011661121,0.34884143,-0.3278801,-0.11167635,0.5553059,-0.8241139,0.65978754,-0.57870626,-0.4793532,-0.74310756,-0.5972725,-0.30175608,,1.3102311367080561,-0.5456110775639617,0.15559498499000002,2.7387603518513726,0.6296209909191496,-0.7976557159222665,-0.1261016190556636,,-0.9283960552077737,-0.31779045777433856,0.18932185821000003,-1.2946257110734534,-1.2342375023812235,1.0198332374728267,0.02188810486199342,,-0.15580336066396883,-0.3093683365622549,0.088225436,0.08275268144170031
1.3410630349826533,11:15:45.599401,11:15:44.462746,0,,0.0536734,-0.00045752525,0.07058206,-0.3131154,0.3917258,-0.86516446,0.5911797,-0.63256574,-0.50036705,-0.7432801,-0.66814035,-0.03351429,,0.031840727,0.044687957,0.049774587,0.044166252,-0.6203693,0.7830652,0.17314309,-0.7672151,-0.6175779,0.9839059,0.16285837,0.073527604,,0.1763024,1.3281245,0.5574647,0.9922813,-0.05654353,-0.110366054,-0.101478964,-0.8817769,-0.4606208,-0.07127311,0.4682652,-0.8807087,,-0.038420357,0.16652577,-0.11249591,0.39214724,-0.41419944,0.8213765,0.14255692,-0.8547454,-0.49908704,0.90878934,0.3128085,-0.27613905,,0.0011661121,0.34884143,-0.3278801,-0.11167635,0.5553059,-0.8241139,0.65978754,-0.57870626,-0.4793532,-0.74310756,-0.5972725,-0.30175608,,1.3102388594409302,-0.5456110775639617,0.15559498499000002,2.7387603518513726,0.6296209909191496,-0.7976557159222665,-0.1261016190556636,,-0.9283960552077737,-0.31779045777433856,0.18932185821000003,-1.2946257110734534,-1.2342375023812235,1.0198332374728267,0.02188810486199342,,-0.15580336066396883,-0.3093683365622549,0.088225436,0.08275268144170031
1.3651772369921673,11:15:45.624249,11:15:44.462746,0,,0.053674206,-0.00045796484,0.07058181,-0.31311017,0.39173013,-0.8651644,0.59117705,-0.6325684,-0.50036687,-0.74328446,-0.66813534,-0.033518285,,0.031840727,0.044687957,0.049774587,0.044166252,-0.6203693,0.7830652,0.17314309,-0.7672151,-0.6175779,0.9839059,0.16285837,0.073527604,,0.1763024,1.3281245,0.5574647,0.9922813,-0.05654353,-0.110366054,-0.101478964,-0.8817769,-0.4606208,-0.07127311,0.4682652,-0.8807087,,-0.038421188,0.1665253,-0.112495825,0.392142,-0.41420415,0.8213766,0.1425528,-0.85474503,-0.4990888,0.90879226,0.3128032,-0.27613547,,0.0011661121,0.34884143,-0.3278801,-0.11167635,0.5553059,-0.8241139,0.65978754,-0.57870626,-0.4793532,-0.74310756,-0.5972725,-0.30175608,,1.3102311367080561,-0.5456110775639617,0.15559498499000002,2.7387603518513726,0.6296209909191496,-0.7976557159222665,-0.1261016190556636,,-0.9283960552077737,-0.31779045777433856,0.18932185821000003,-1.2946257110734534,-1.2342375023812235,1.0198332374728267,0.02188810486199342,,-0.15580336066396883,-0.3093683365622549,0.088225436,0.08275268144170031
1.3900088189984672,11:15:45.648305,11:15:44.462746,0,,0.053674206,-0.00045796484,0.07058181,-0.31311017,0.39173013,-0.8651644,0.59117705,-0.6325684,-0.50036687,-0.74328446,-0.66813534,-0.033518285,,0.031839494,0.04469128,0.04977405,0.0441188,-0.62005615,0.7833159,0.1732716,-0.7674469,-0.6172538,0.9838854,0.1629588,0.07357922,,0.1763024,1.3281245,0.5574647,0.9922813,-0.05654353,-0.110366054,-0.101478964,-0.8817769,-0.4606208,-0.07127311,0.4682652,-0.8807087,,-0.038421188,0.1665253,-0.112495825,0.392142,-0.41420415,0.8213766,0.1425528,-0.85474503,-0.4990888,0.90879226,0.3128032,-0.27613547,,0.0011675949,0.348844,-0.32787806,-0.11161934,0.5549715,-0.82434684,0.65988606,-0.5788481,-0.47904623,-0.74302864,-0.5974458,-0.3016073,,1.3102311367080561,-0.5456110775639617,0.15559498499000002,2.7387603518513726,0.6296209909191496,-0.7976557159222665,-0.1261016190556636,,-0.9283960552077737,-0.31779045777433856,0.18932185821000003,-1.2950450909604225,-1.2342375023812235,1.0198332374728267,0.02188810486199342,,-0.15580336066396883,-0.3093683365622549,0.088225436,0.08275268144170031
1.4140748789941426,11:15:45.671136,11:15:44.462746,0,,0.0536734,-0.00045752525,0.07058206,-0.3131154,0.3917258,-0.86516446,0.5911797,-0.63256574,-0.50036705,-0.7432801,-0.66814035,-0.03351429,,0.031839494,0.04469128,0.04977405,0.0441188,-0.62005615,0.7833159,0.1732716,-0.7674469,-0.6172538,0.9838854,0.1629588,0.07357922,,0.1763024,1.3281245,0.5574647,0.9922813,-0.05654353,-0.110366054,-0.101478964,-0.8817769,-0.4606208,-0.07127311,0.4682652,-0.8807087,,-0.038420357,0.16652577,-0.11249591,0.39214724,-0.41419944,0.8213765,0.14255692,-0.8547454,-0.49908704,0.90878934,0.3128085,-0.27613905,,0.0011675949,0.348844,-0.32787806,-0.11161934,0.5549715,-0.82434684,0.65988606,-0.5788481,-0.47904623,-0.74302864,-0.5974458,-0.3016073,,1.3102388594409302,-0.5456110775639617,0.15559498499000002,2.7387603518513726,0.6296209909191496,-0.7976557159222665,-0.1261016190556636,,-0.9283960552077737,-0.31779045777433856,0.18932185821000003,-1.2950450909604225,-1.2342375023812235,1.0198332374728267,0.02188810486199342,,-0.15580336066396883,-0.3093683365622549,0.088225436,0.08275268144170031
1.4369064680067822,11:15:45.694667,11:15:44.462746,0,,0.0536734,-0.00045752525,0.07058206,-0.3131154,0.3917258,-0.86516446,0.5911797,-0.63256574,-0.50036705,-0.7432801,-0.66814035,-0.03351429,,0.031839494,0.04469128,0.04977405,0.0441188,-0.62005615,0.7833159,0.1732716,-0.7674469,-0.6172538,0.9838854,0.1629588,0.07357922,,0.1763024,1.3281245,0.5574647,0.9922813,-0.05654353,-0.110366054,-0.101478964,-0.8817769,-0.4606208,-0.07127311,0.4682652,-0.8807087,,-0.038420357,0.16652577,-0.11249591,0.39214724,-0.41419944,0.8213765,0.14255692,-0.8547454,-0.49908704,0.90878934,0.3128085,-0.27613905,,0.0011675949,0.348844,-0.32787806,-0.11161934,0.5549715,-0.82434684,0.65988606,-0.5788481,-0.47904623,-0.74302864,-0.5974458,-0.3016073,,1.3102388594409302,-0.5456110775639617,0.15559498499000002,2.7387603518513726,0.6296209909191496,-0.7976557159222665,-0.1261016190556636,,-0.9283960552077737,-0.31779045777433856,0.18932185821000003,-1.2950450909604225,-1.2342375023812235,1.0198332374728267,0.02188810486199342,,-0.15580336066396883,-0.3093683365622549,0.088225436,0.08275268144170031
1.460422258998733,11:15:45.720546,11:15:44.462746,0,,0.053674206,-0.00045796484,0.07058181,-0.31311017,0.39173013,-0.8651644,0.59117705,-0.6325684,-0.50036687,-0.74328446,-0.66813534,-0.033518285,,0.031839494,0.04469128,0.04977405,0.0441188,-0.62005615,0.7833159,0.1732716,-0.7674469,-0.6172538,0.9838854,0.1629588,0.07357922,,0.1763024,1.3281245,0.5574647,0.9922813,-0.05654353,-0.110366054,-0.101478964,-0.8817769,-0.4606208,-0.07127311,0.4682652,-0.8807087,,-0.038421188,0.1665253,-0.112495825,0.392142,-0.41420415,0.8213766,0.1425528,-0.85474503,-0.4990888,0.90879226,0.3128032,-0.27613547,,0.0011675949,0.348844,-0.32787806,-0.11161934,0.5549715,-0.82434684,0.65988606,-0.5788481,-0.47904623,-0.74302864,-0.5974458,-0.3016073,,1.3102311367080561,-0.5456110775639617,0.15559498499000002,2.7387603518513726,0.6296209909191496,-0.7976557159222665,-0.1261016190556636,,-0.9283960552077737,-0.31779045777433856,0.18932185821000003,-1.2950450909604225,-1.2342375023812235,1.0198332374728267,0.02188810486199342,,-0.15580336066396883,-0.3093683365622549,0.088225436,0.08275268144170031
1.4863155499915592,11:15:45.738123,11:15:44.462746,0,,0.0536734,-0.00045752525,0.07058206,-0.3131154,0.3917258,-0.86516446,0.5911797,-0.63256574,-0.50036705,-0.7432801,-0.66814035,-0.03351429,,0.031839494,0.04469128,0.04977405,0.0441188,-0.62005615,0.7833159,0.1732716,-0.7674469,-0.6172538,0.9838854,0.1629588,0.07357922,,0.1763024,1.3281245,0.5574647,0.9922813,-0.05654353,-0.110366054,-0.101478964,-0.8817769,-0.4606208,-0.07127311,0.4682652,-0.8807087,,-0.038420357,0.16652577,-0.11249591,0.39214724,-0.41419944,0.8213765,0.14255692,-0.8547454,-0.49908704,0.90878934,0.3128085,-0.27613905,,0.0011675949,0.348844,-0.32787806,-0.11161934,0.5549715,-0.82434684,0.65988606,-0.5788481,-0.47904623,-0.74302864,-0.5974458,-0.3016073,,1.3102388594409302,-0.5456110775639617,0.15559498499000002,2.7387603518513726,0.6296209909191496,-0.7976557159222665,-0.1261016190556636,,-0.9283960552077737,-0.31779045777433856,0.18932185821000003,-1.2950450909604225,-1.2342375023812235,1.0198332374728267,0.02188810486199342,,-0.15580336066396883,-0.3093683365622549,0.088225436,0.08275268144170031
1.5038389549881686,11:15:45.765828,11:15:44.627035,0,,0.05365759,-0.00043699145,0.07048729,-0.3131122,0.39196417,-0.8650578,0.591499,-0.63214236,-0.5005246,-0.74302745,-0.668401,-0.03391485,,0.031816058,0.044719085,0.04970011,0.043934405,-0.619925,0.78343004,0.17276669,-0.7676577,-0.6171331,0.98398244,0.16246396,0.07337576,,0.1763024,1.3281245,0.5574647,0.9922813,-0.05654353,-0.110366054,-0.101478964,-0.8817769,-0.4606208,-0.07127311,0.4682652,-0.8807087,,-0.03842202,0.16652484,-0.11249574,0.39213672,-0.41420883,0.8213768,0.14254868,-0.85474473,-0.49909052,0.9087952,0.3127979,-0.27613187,,0.0011675949,0.348844,-0.32787806,-0.11161934,0.5549715,-0.82434684,0.65988606,-0.5788481,-0.47904623,-0.74302864,-0.5974458,-0.3016073,,1.3102234139751818,-0.5456110775639617,0.15559498499000002,2.7387603518513726,0.6296209909191496,-0.7976557159222665,-0.1261016190556636,,-0.9283960552077737,-0.31779045777433856,0.18932185821000003,-1.2950450909604225,-1.2342375023812235,1.0198332374728267,0.02188810486199342,,-0.15580336066396883,-0.3093683365622549,0.088225436,0.08275268144170031
1.5315560190065298,11:15:45.792510,11:15:44.627035,0,,0.05365597,-0.00043611974,0.07048783,-0.3131227,0.3919556,-0.86505795,0.5915043,-0.6321371,-0.500525,-0.74301875,-0.6684111,-0.033906862,,0.031816058,0.044719085,0.04970011,0.043934405,-0.619925,0.78343004,0.17276669,-0.7676577,-0.6171331,0.98398244,0.16246396,0.07337576,,0.1763024,1.3281245,0.5574647,0.9922813,-0.05654353,-0.110366054,-0.101478964,-0.8817769,-0.4606208,-0.07127311,0.4682652,-0.8807087,,-0.038420357,0.16652577,-0.11249591,0.39214724,-0.41419944,0.8213765,0.14255692,-0.8547454,-0.49908704,0.90878934,0.3128085,-0.27613905,,0.0011675949,0.348844,-0.32787806,-0.11161934,0.5549715,-0.82434684,0.65988606,-0.5788481,-0.47904623,-0.74302864,-0.5974458,-0.3016073,,1.3102388594409302,-0.5456110775639617,0.15559498499000002,2.7387603518513726,0.6296209909191496,-0.7976557159222665,-0.1261016190556636,,-0.9283960552077737,-0.31779045777433856,0.18932185821000003,-1.2950450909604225,-1.2342375023812235,1.0198332374728267,0.02188810486199342,,-0.15580336066396883,-0.3093683365622549,0.088225436,0.08275268144170031
1.5582623759983107,11:15:45.815291,11:15:44.627035,0,,0.05365597,-0.00043611974,0.07048783,-0.3131227,0.3919556,-0.86505795,0.5915043,-0.6321371,-0.500525,-0.74301875,-0.6684111,-0.033906862,,0.031816058,0.044719085,0.04970011,0.043934405,-0.619925,0.78343004,0.17276669,-0.7676577,-0.6171331,0.98398244,0.16246396,0.07337576,,0.1763047,1.3281251,0.5574693,0.9922804,-0.056551155,-0.11037003,-0.10148754,-0.8817764,-0.46061984,-0.07127311,0.4682652,-0.8807087,,-0.038420357,0.16652577,-0.11249591,0.39214724,-0.41419944,0.8213765,0.14255692,-0.8547454,-0.49908704,0.90878934,0.3128085,-0.27613905,,0.0011675949,0.348844,-0.32787806,-0.11161934,0.5549715,-0.82434684,0.65988606,-0.5788481,-0.47904623,-0.74302864,-0.5974458,-0.3016073,,1.3102388594409302,-0.5456110775639617,0.15559498499000002,2.7387603518513726,0.6296209909191496,-0.7976557159222665,-0.1261016190556636,,-0.9283960552077737,-0.31779045777433856,0.18932185821000003,-1.2950450909604225,-1.2342375023812235,1.0198332374728267,0.02188810486199342,,-0.15580336066396883,-0.3093683365622549,0.088225436,0.08275268144170031
1.5810534239863046,11:15:45.841308,11:15:44.627035,0,,0.0536555,-0.000433892,0.07048994,-0.31313184,0.3919535,-0.86505556,0.59150565,-0.6321324,-0.5005294,-0.7430138,-0.66841686,-0.03390193,,0.03182164,0.04474777,0.049702376,0.04388748,-0.61990577,0.7834479,0.17271706,-0.7676872,-0.6171103,0.9839932,0.16239831,0.07337642,,0.1763047,1.3281251,0.5574693,0.9922804,-0.056551155,-0.11037003,-0.10148754,-0.8817764,-0.46061984,-0.07127311,0.4682652,-0.8807087,,-0.03841979,0.16652872,-0.112496726,0.39215624,-0.4141967,0.8213736,0.14256008,-0.8547441,-0.49908838,0.908785,0.3128157,-0.2761453,,0.0011636851,0.34886974,-0.3278646,-0.11157667,0.5549557,-0.8243633,0.65984875,-0.5789072,-0.47902617,-0.74306816,-0.5974032,-0.3015943,,1.3102311367080561,-0.5456110775639617,0.15559498499000002,2.7387603518513726,0.6296209909191496,-0.7976557159222665,-0.1261016190556636,,-0.9283960552077737,-0.31779045777433856,0.18932185821000003,-1.2950450909604225,-1.2342375023812235,1.0198332374728267,0.02188810486199342,,-0.15580336066396883,-0.3093683365622549,0.088225436,0.08275268144170031
1.6070597479993012,11:15:45.862764,11:15:44.627035,0,,0.05365469,-0.00043346733,0.07049018,-0.31313705,0.39194924,-0.86505556,0.5915083,-0.63212967,-0.5005295,-0.7430095,-0.6684218,-0.033897936,,0.03182164,0.04474777,0.049702376,0.04388748,-0.61990577,0.7834479,0.17271706,-0.7676872,-0.6171103,0.9839932,0.16239831,0.07337642,,0.1763047,1.3281251,0.5574693,0.9922804,-0.056551155,-0.11037003,-0.10148754,-0.8817764,-0.46061984,-0.07127311,0.4682652,-0.8807087,,-0.03841896,0.16652916,-0.11249681,0.3921615,-0.41419202,0.82137346,0.1425642,-0.8547444,-0.49908662,0.90878206,0.312821,-0.2761489,,0.0011636851,0.34886974,-0.3278646,-0.11157667,0.5549557,-0.8243633,0.65984875,-0.5789072,-0.47902617,-0.74306816,-0.5974032,-0.3015943,,1.3102388594409302,-0.5456110775639617,0.15559498499000002,2.7387603518513726,0.6296209909191496,-0.7976557159222665,-0.1261016190556636,,-0.9283960552077737,-0.31779045777433856,0.18932185821000003,-1.2950450909604225,-1.2342375023812235,1.0198332374728267,0.02188810486199342,,-0.15580336066396883,-0.3093683365622549,0.088225436,0.08275268144170031
1.6285247500054538,11:15:45.886527,11:15:44.627035,0,,0.05365469,-0.00043346733,0.07049018,-0.31313705,0.39194924,-0.86505556,0.5915083,-0.63212967,-0.5005295,-0.7430095,-0.6684218,-0.033897936,,0.03182164,0.04474777,0.049702376,0.04388748,-0.61990577,0.7834479,0.17271706,-0.7676872,-0.6171103,0.9839932,0.16239831,0.07337642,,0.1763047,1.3281251,0.5574693,0.9922804,-0.056551155,-0.11037003,-0.10148754,-0.8817764,-0.46061984,-0.07127311,0.4682652,-0.8807087,,-0.03841896,0.16652916,-0.11249681,0.3921615,-0.41419202,0.82137346,0.1425642,-0.8547444,-0.49908662,0.90878206,0.312821,-0.2761489,,0.0011636851,0.34886974,-0.3278646,-0.11157667,0.5549557,-0.8243633,0.65984875,-0.5789072,-0.47902617,-0.74306816,-0.5974032,-0.3015943,,1.3102388594409302,-0.5456110775639617,0.15559498499000002,2.7387603518513726,0.6296209909191496,-0.7976557159222665,-0.1261016190556636,,-0.9283960552077737,-0.31779045777433856,0.18932185821000003,-1.2950450909604225,-1.2342375023812235,1.0198332374728267,0.02188810486199342,,-0.15580336066396883,-0.3093683365622549,0.088225436,0.08275268144170031
1.6522433969948906,11:15:45.913539,11:15:44.627035,0,,0.05365469,-0.00043346733,0.07049018,-0.31313705,0.39194924,-0.86505556,0.5915083,-0.63212967,-0.5005295,-0.7430095,-0.6684218,-0.033897936,,0.03182164,0.04474777,0.049702376,0.04388748,-0.61990577,0.7834479,0.17271706,-0.7676872,-0.6171103,0.9839932,0.16239831,0.07337642,,0.1763047,1.3281251,0.5574693,0.9922804,-0.056551155,-0.11037003,-0.10148754,-0.8817764,-0.46061984,-0.07127311,0.4682652,-0.8807087,,-0.03841896,0.16652916,-0.11249681,0.3921615,-0.41419202,0.82137346,0.1425642,-0.8547444,-0.49908662,0.90878206,0.312821,-0.2761489,,0.0011636851,0.34886974,-0.3278646,-0.11157667,0.5549557,-0.8243633,0.65984875,-0.5789072,-0.47902617,-0.74306816,-0.5974032,-0.3015943,,1.3102388594409302,-0.5456110775639617,0.15559498499000002,2.7387603518513726,0.6296209909191496,-0.7976557159222665,-0.1261016190556636,,-0.9283960552077737,-0.31779045777433856,0.18932185821000003,-1.2950450909604225,-1.2342375023812235,1.0198332374728267,0.02188810486199342,,-0.15580336066396883,-0.3093683365622549,0.088225436,0.08275268144170031
1.6793138409848325,11:15:45.933313,11:15:44.792605,0,,0.053647608,-0.00047705323,0.070513055,-0.31303233,0.39200118,-0.86506987,0.5919477,-0.6317588,-0.50047857,-0.74270356,-0.66874206,-0.03428331,,0.031818524,0.044717044,0.04974881,0.0437835,-0.6199518,0.7834174,0.17214859,-0.76775813,-0.61718094,0.9840975,0.1618864,0.0731086,,0.1763047,1.3281251,0.5574693,0.9922804,-0.056551155,-0.11037003,-0.10148754,-0.8817764,-0.46061984,-0.07127311,0.4682652,-0.8807087,,-0.03841896,0.16652916,-0.11249681,0.3921615,-0.41419202,0.82137346,0.1425642,-0.8547444,-0.49908662,0.90878206,0.312821,-0.2761489,,0.0011636851,0.34886974,-0.3278646,-0.11157667,0.5549557,-0.8243633,0.65984875,-0.5789072,-0.47902617,-0.74306816,-0.5974032,-0.3015943,,1.3102388594409302,-0.5456110775639617,0.15559498499000002,2.7387603518513726,0.6296209909191496,-0.7976557159222665,-0.1261016190556636,,-0.9283960552077737,-0.31779045777433856,0.18932185821000003,-1.2950450909604225,-1.2342375023812235,1.0198332374728267,0.02188810486199342,,-0.15580336066396883,-0.3093683365622549,0.088225436,0.08275268144170031
1.6990581979916897,11:15:45.959726,11:15:44.792605,0,,0.053647608,-0.00047705323,0.070513055,-0.31303233,0.39200118,-0.86506987,0.5919477,-0.6317588,-0.50047857,-0.74270356,-0.66874206,-0.03428331,,0.031818524,0.044717044,0.04974881,0.0437835,-0.6199518,0.7834174,0.17214859,-0.76775813,-0.61718094,0.9840975,0.1618864,0.0731086,,0.1763047,1.3281251,0.5574693,0.9922804,-0.056551155,-0.11037003,-0.10148754,-0.8817764,-0.46061984,-0.07127311,0.4682652,-0.8807087,,-0.03841896,0.16652916,-0.11249681,0.3921615,-0.41419202,0.82137346,0.1425642,-0.8547444,-0.49908662,0.90878206,0.312821,-0.2761489,,0.0011636851,0.34886974,-0.3278646,-0.11157667,0.5549557,-0.8243633,0.65984875,-0.5789072,-0.47902617,-0.74306816,-0.5974032,-0.3015943,,1.3102388594409302,-0.5456110775639617,0.15559498499000002,2.7387603518513726,0.6296209909191496,-0.7976557159222665,-0.1261016190556636,,-0.9283960552077737,-0.31779045777433856,0.18932185821000003,-1.2950450909604225,-1.2342375023812235,1.0198332374728267,0.02188810486199342,,-0.15580336066396883,-0.3093683365622549,0.088225436,0.08275268144170031
1.7255018939904403,11:15:45.983802,11:15:44.792605,0,,0.053647608,-0.00047705323,0.070513055,-0.31303233,0.39200118,-0.86506987,0.5919477,-0.6317588,-0.50047857,-0.74270356,-0.66874206,-0.03428331,,0.031818524,0.044717044,0.04974881,0.0437835,-0.6199518,0.7834174,0.17214859,-0.76775813,-0.61718094,0.9840975,0.1618864,0.0731086,,0.1763047,1.3281251,0.5574693,0.9922804,-0.056551155,-0.11037003,-0.10148754,-0.8817764,-0.46061984,-0.07127311,0.4682652,-0.8807087,,-0.03841896,0.16652916,-0.11249681,0.3921615,-0.41419202,0.82137346,0.1425642,-0.8547444,-0.49908662,0.90878206,0.312821,-0.2761489,,0.0011636851,0.34886974,-0.3278646,-0.11157667,0.5549557,-0.8243633,0.65984875,-0.5789072,-0.47902617,-0.74306816,-0.5974032,-0.3015943,,1.3102388594409302,-0.5456110775639617,0.15559498499000002,2.7387603518513726,0.6296209909191496,-0.7976557159222665,-0.1261016190556636,,-0.9283960552077737,-0.31779045777433856,0.18932185821000003,-1.2950450909604225,-1.2342375023812235,1.0198332374728267,0.02188810486199342,,-0.15580336066396883,-0.3093683365622549,0.088225436,0.08275268144170031
1.7495529020088725,11:15:46.008405,11:15:44.792605,0,,0.053647608,-0.00047705323,0.070513055,-0.31303233,0.39200118,-0.86506987,0.5919477,-0.6317588,-0.50047857,-0.74270356,-0.66874206,-0.03428331,,0.031818524,0.044717044,0.04974881,0.0437835,-0.6199518,0.7834174,0.17214859,-0.76775813,-0.61718094,0.9840975,0.1618864,0.0731086,,0.1763047,1.3281251,0.5574693,0.9922804,-0.056551155,-0.11037003,-0.10148754,-0.8817764,-0.46061984,-0.07127311,0.4682652,-0.8807087,,-0.03841896,0.16652916,-0.11249681,0.3921615,-0.41419202,0.82137346,0.1425642,-0.8547444,-0.49908662,0.90878206,0.312821,-0.2761489,,0.0011636851,0.34886974,-0.3278646,-0.11157667,0.5549557,-0.8243633,0.65984875,-0.5789072,-0.47902617,-0.74306816,-0.5974032,-0.3015943,,1.3102388594409302,-0.5456110775639617,0.15559498499000002,2.7387603518513726,0.6296209909191496,-0.7976557159222665,-0.1261016190556636,,-0.9283960552077737,-0.31779045777433856,0.18932185821000003,-1.2950450909604225,-1.2342375023812235,1.0198332374728267,0.02188810486199342,,-0.15580336066396883,-0.3093683365622549,0.088225436,0.08275268144170031
1.7741487360035535,11:15:46.029920,11:15:44.792605,0,,0.053647608,-0.00047705323,0.070513055,-0.31303233,0.39200118,-0.86506987,0.5919477,-0.6317588,-0.50047857,-0.74270356,-0.66874206,-0.03428331,,0.031818524,0.044717044,0.04974881,0.0437835,-0.6199518,0.7834174,0.17214859,-0.76775813,-0.61718094,0.9840975,0.1618864,0.0731086,,0.1763047,1.3281251,0.5574693,0.9922804,-0.056551155,-0.11037003,-0.10148754,-0.8817764,-0.46061984,-0.07127311,0.4682652,-0.8807087,,-0.03841896,0.16652916,-0.11249681,0.3921615,-0.41419202,0.82137346,0.1425642,-0.8547444,-0.49908662,0.90878206,0.312821,-0.2761489,,0.0011636851,0.34886974,-0.3278646,-0.11157667,0.5549557,-0.8243633,0.65984875,-0.5789072,-0.47902617,-0.74306816,-0.5974032,-0.3015943,,1.3102388594409302,-0.5456110775639617,0.15559498499000002,2.7387603518513726,0.6296209909191496,-0.7976557159222665,-0.1261016190556636,,-0.9283960552077737,-0.31779045777433856,0.18932185821000003,-1.2950450909604225,-1.2342375023812235,1.0198332374728267,0.02188810486199342,,-0.15580336066396883,-0.3093683365622549,0.088225436,0.08275268144170031
1.7956970290106256,11:15:46.056942,11:15:44.792605,0,,0.05364842,-0.000477463,0.0705128,-0.31302708,0.3920054,-0.8650698,0.59194505,-0.6317615,-0.5004784,-0.7427079,-0.66873705,-0.034287274,,0.031818524,0.044717044,0.04974881,0.0437835,-0.6199518,0.7834174,0.17214859,-0.76775813,-0.61718094,0.9840975,0.1618864,0.0731086,,0.1763047,1.3281251,0.5574693,0.9922804,-0.056551155,-0.11037003,-0.10148754,-0.8817764,-0.46061984,-0.07127311,0.4682652,-0.8807087,,-0.03841979,0.16652872,-0.112496726,0.39215624,-0.4141967,0.8213736,0.14256008,-0.8547441,-0.49908838,0.908785,0.3128157,-0.2761453,,0.0011636851,0.34886974,-0.3278646,-0.11157667,0.5549557,-0.8243633,0.65984875,-0.5789072,-0.47902617,-0.74306816,-0.5974032,-0.3015943,,1.3102311367080561,-0.5456110775639617,0.15559498499000002,2.7387603518513726,0.6296209909191496,-0.7976557159222665,-0.1261016190556636,,-0.9283960552077737,-0.31779045777433856,0.18932185821000003,-1.2950450909604225,-1.2342375023812235,1.0198332374728267,0.02188810486199342,,-0.15580336066396883,-0.3093683365622549,0.088225436,0.08275268144170031
1.8226726959983353,11:15:46.083550,11:15:44.950939,0,,0.05362734,-0.0005225688,0.07054852,-0.3124145,0.39202854,-0.86528075,0.59228724,-0.63175887,-0.5000766,-0.74269307,-0.66872585,-0.034822896,,0.03182757,0.044687346,0.049786597,0.04340572,-0.62037486,0.78310347,0.17186332,-0.76752037,-0.617556,0.98416406,0.16139221,0.07330486,,0.1763047,1.3281251,0.5574693,0.9922804,-0.056551155,-0.11037003,-0.10148754,-0.8817764,-0.46061984,-0.07127311,0.4682652,-0.8807087,,-0.03841979,0.16652872,-0.112496726,0.39215624,-0.4141967,0.8213736,0.14256008,-0.8547441,-0.49908838,0.908785,0.3128157,-0.2761453,,0.0011636851,0.34886974,-0.3278646,-0.11157667,0.5549557,-0.8243633,0.65984875,-0.5789072,-0.47902617,-0.74306816,-0.5974032,-0.3015943,,1.3102311367080561,-0.5456110775639617,0.15559498499000002,2.7387603518513726,0.6296209909191496,-0.7976557159222665,-0.1261016190556636,,-0.9283960552077737,-0.31779045777433856,0.18932185821000003,-1.2950450909604225,-1.2342375023812235,1.0198332374728267,0.02188810486199342,,-0.15580336066396883,-0.3093683365622549,0.088225436,0.08275268144170031
1.8493162579834461,11:15:46.105699,11:15:44.950939,0,,0.05362815,-0.00052301586,0.070548266,-0.31240928,0.39203283,-0.86528075,0.5922846,-0.63176143,-0.5000764,-0.74269736,-0.6687209,-0.03482686,,0.031828187,0.04468569,0.049786836,0.043429427,-0.62053144,0.782978,0.17179897,-0.7674043,-0.617718,0.98417425,0.16134194,0.073278755,,0.1763047,1.3281251,0.5574693,0.9922804,-0.056551155,-0.11037003,-0.10148754,-0.8817764,-0.46061984,-0.07127311,0.4682652,-0.8807087,,-0.03842062,0.16652825,-0.112496644,0.39215097,-0.41420138,0.82137376,0.14255597,-0.8547437,-0.4990901,0.9087879,0.3128104,-0.27614173,,0.0011629435,0.34886846,-0.3278656,-0.11160518,0.5551229,-0.8242468,0.65979946,-0.5788363,-0.47917968,-0.7431076,-0.59731656,-0.30166867,,1.3102234139751818,-0.5456110775639617,0.15559498499000002,2.7387603518513726,0.6296209909191496,-0.7976557159222665,-0.1261016190556636,,-0.9283960552077737,-0.31779045777433856,0.18932185821000003,-1.2948354010169378,-1.2342375023812235,1.0198332374728267,0.02188810486199342,,-0.15580336066396883,-0.3093683365622549,0.088225436,0.08275268144170031
1.8714331579976715,11:15:46.129546,11:15:44.950939,0,,0.05362815,-0.00052301586,0.070548266,-0.31240928,0.39203283,-0.86528075,0.5922846,-0.63176143,-0.5000764,-0.74269736,-0.6687209,-0.03482686,,0.0318288,0.044684023,0.049787074,0.043453105,-0.620688,0.78285265,0.17173478,-0.7672883,-0.61788,0.98418444,0.16129172,0.07325259,,0.1763047,1.3281251,0.5574693,0.9922804,-0.056551155,-0.11037003,-0.10148754,-0.8817764,-0.46061984,-0.07127311,0.4682652,-0.8807087,,-0.03842062,0.16652825,-0.112496644,0.39215097,-0.41420138,0.82137376,0.14255597,-0.8547437,-0.4990901,0.9087879,0.3128104,-0.27614173,,0.0011622022,0.34886718,-0.32786664,-0.11163368,0.5552901,-0.82413036,0.6597502,-0.5787654,-0.47933316,-0.7431471,-0.5972299,-0.30174303,,1.3102234139751818,-0.5456110775639617,0.15559498499000002,2.7387603518513726,0.6296209909191496,-0.7976557159222665,-0.1261016190556636,,-0.9283960552077737,-0.31779045777433856,0.18932185821000003,-1.2946257110734534,-1.2342375023812235,1.0198332374728267,0.02188810486199342,,-0.15580336066396883,-0.3093683365622549,0.088225436,0.08275268144170031
1.8953004679933656,11:15:46.150490,11:15:44.950939,0,,0.05362653,-0.0005221665,0.07054877,-0.31241974,0.3920243,-0.86528087,0.5922899,-0.6317561,-0.5000768,-0.7426887,-0.66873085,-0.034818903,,0.0318288,0.044684023,0.049787074,0.043453105,-0.620688,0.78285265,0.17173478,-0.7672883,-0.61788,0.98418444,0.16129172,0.07325259,,0.1763047,1.3281251,0.5574693,0.9922804,-0.056551155,-0.11037003,-0.10148754,-0.8817764,-0.46061984,-0.07127311,0.4682652,-0.8807087,,-0.03841896,0.16652916,-0.11249681,0.3921615,-0.41419202,0.82137346,0.1425642,-0.8547444,-0.49908662,0.90878206,0.312821,-0.2761489,,0.0011622022,0.34886718,-0.32786664,-0.11163368,0.5552901,-0.82413036,0.6597502,-0.5787654,-0.47933316,-0.7431471,-0.5972299,-0.30174303,,1.3102388594409302,-0.5456110775639617,0.15559498499000002,2.7387603518513726,0.6296209909191496,-0.7976557159222665,-0.1261016190556636,,-0.9283960552077737,-0.31779045777433856,0.18932185821000003,-1.2946257110734534,-1.2342375023812235,1.0198332374728267,0.02188810486199342,,-0.15580336066396883,-0.3093683365622549,0.088225436,0.08275268144170031
1.916250518988818,11:15:46.175864,11:15:44.950939,0,,0.05362734,-0.0005225688,0.07054852,-0.3124145,0.39202854,-0.86528075,0.59228724,-0.63175887,-0.5000766,-0.74269307,-0.66872585,-0.034822896,,0.0318288,0.044684023,0.049787074,0.043453105,-0.620688,0.78285265,0.17173478,-0.7672883,-0.61788,0.98418444,0.16129172,0.07325259,,0.1763047,1.3281251,0.5574693,0.9922804,-0.056551155,-0.11037003,-0.10148754,-0.8817764,-0.46061984,-0.07127311,0.4682652,-0.8807087,,-0.03841979,0.16652872,-0.112496726,0.39215624,-0.4141967,0.8213736,0.14256008,-0.8547441,-0.49908838,0.908785,0.3128157,-0.2761453,,0.0011622022,0.34886718,-0.32786664,-0.11163368,0.5552901,-0.82413036,0.6597502,-0.5787654,-0.47933316,-0.7431471,-0.5972299,-0.30174303,,1.3102311367080561,-0.5456110775639617,0.15559498499000002,2.7387603518513726,0.6296209909191496,-0.7976557159222665,-0.1261016190556636,,-0.9283960552077737,-0.31779045777433856,0.18932185821000003,-1.2946257110734534,-1.2342375023812235,1.0198332374728267,0.02188810486199342,,-0.15580336066396883,-0.3093683365622549,0.088225436,0.08275268144170031
1.9416387770033907,11:15:46.198719,11:15:44.950939,0,,0.05362653,-0.0005221665,0.07054877,-0.31241974,0.3920243,-0.86528087,0.5922899,-0.6317561,-0.5000768,-0.7426887,-0.66873085,-0.034818903,,0.0318288,0.044684023,0.049787074,0.043453105,-0.620688,0.78285265,0.17173478,-0.7672883,-0.61788,0.98418444,0.16129172,0.07325259,,0.1763047,1.3281251,0.5574693,0.9922804,-0.056551155,-0.11037003,-0.10148754,-0.8817764,-0.46061984,-0.07127311,0.4682652,-0.8807087,,-0.03841896,0.16652916,-0.11249681,0.3921615,-0.41419202,0.82137346,0.1425642,-0.8547444,-0.49908662,0.90878206,0.312821,-0.2761489,,0.0011622022,0.34886718,-0.32786664,-0.11163368,0.5552901,-0.82413036,0.6597502,-0.5787654,-0.47933316,-0.7431471,-0.5972299,-0.30174303,,1.3102388594409302,-0.5456110775639617,0.15559498499000002,2.7387603518513726,0.6296209909191496,-0.7976557159222665,-0.1261016190556636,,-0.9283960552077737,-0.31779045777433856,0.18932185821000003,-1.2946257110734534,-1.2342375023812235,1.0198332374728267,0.02188810486199342,,-0.15580336066396883,-0.3093683365622549,0.088225436,0.08275268144170031
1.964495096995961,11:15:46.222181,11:15:44.950939,0,,0.05362653,-0.0005221665,0.07054877,-0.31241974,0.3920243,-0.86528087,0.5922899,-0.6317561,-0.5000768,-0.7426887,-0.66873085,-0.034818903,,0.0318288,0.044684023,0.049787074,0.043453105,-0.620688,0.78285265,0.17173478,-0.7672883,-0.61788,0.98418444,0.16129172,0.07325259,,0.1763047,1.3281251,0.5574693,0.9922804,-0.056551155,-0.11037003,-0.10148754,-0.8817764,-0.46061984,-0.07127311,0.4682652,-0.8807087,,-0.03841896,0.16652916,-0.11249681,0.3921615,-0.41419202,0.82137346,0.1425642,-0.8547444,-0.49908662,0.90878206,0.312821,-0.2761489,,0.0011622022,0.34886718,-0.32786664,-0.11163368,0.5552901,-0.82413036,0.6597502,-0.5787654,-0.47933316,-0.7431471,-0.5972299,-0.30174303,,1.3102388594409302,-0.5456110775639617,0.15559498499000002,2.7387603518513726,0.6296209909191496,-0.7976557159222665,-0.1261016190556636,,-0.9283960552077737,-0.31779045777433856,0.18932185821000003,-1.2946257110734534,-1.2342375023812235,1.0198332374728267,0.02188810486199342,,-0.15580336066396883,-0.3093683365622549,0.088225436,0.08275268144170031
1.9879067720030434,11:15:46.246372,11:15:45.096833,0,,0.053487588,-0.00057275593,0.07068445,-0.3103845,0.39308935,-0.86553,0.5925989,-0.6319205,-0.49950284,-0.74329543,-0.6679501,-0.036805972,,0.03176563,0.044650614,0.049880892,0.0413858,-0.6215478,0.7822821,0.17156869,-0.76690257,-0.6184049,0.98430246,0.15980834,0.074899286,,0.1763047,1.3281251,0.5574693,0.9922804,-0.056551155,-0.11037003,-0.10148754,-0.8817764,-0.46061984,-0.07127311,0.4682652,-0.8807087,,-0.03841896,0.16652916,-0.11249681,0.3921615,-0.41419202,0.82137346,0.1425642,-0.8547444,-0.49908662,0.90878206,0.312821,-0.2761489,,0.0011622022,0.34886718,-0.32786664,-0.11163368,0.5552901,-0.82413036,0.6597502,-0.5787654,-0.47933316,-0.7431471,-0.5972299,-0.30174303,,1.3102388594409302,-0.5456110775639617,0.15559498499000002,2.7387603518513726,0.6296209909191496,-0.7976557159222665,-0.1261016190556636,,-0.9283960552077737,-0.31779045777433856,0.18932185821000003,-1.2946257110734534,-1.2342375023812235,1.0198332374728267,0.02188810486199342,,-0.15580336066396883,-0.3093683365622549,0.088225436,0.08275268144170031
2.012113415985368,11:15:46.268172,11:15:45.096833,0,,0.053488396,-0.0005731806,0.070684195,-0.31037924,0.3930936,-0.8655299,0.5925963,-0.6319232,-0.49950266,-0.7432997,-0.6679451,-0.036809966,,0.03176563,0.044650614,0.049880892,0.0413858,-0.6215478,0.7822821,0.17156869,-0.76690257,-0.6184049,0.98430246,0.15980834,0.074899286,,0.1763047,1.3281251,0.5574693,0.9922804,-0.056551155,-0.11037003,-0.10148754,-0.8817764,-0.46061984,-0.07127311,0.4682652,-0.8807087,,-0.03841979,0.16652872,-0.112496726,0.39215624,-0.4141967,0.8213736,0.14256008,-0.8547441,-0.49908838,0.908785,0.3128157,-0.2761453,,0.0011622022,0.34886718,-0.32786664,-0.11163368,0.5552901,-0.82413036,0.6597502,-0.5787654,-0.47933316,-0.7431471,-0.5972299,-0.30174303,,1.3102388594409302,-0.5456110775639617,0.15559498499000002,2.738550661907888,0.6296209909191496,-0.7976557159222665,-0.1261016190556636,,-0.9283960552077737,-0.31779045777433856,0.18932185821000003,-1.2946257110734534,-1.2342375023812235,1.0198332374728267,0.02188810486199342,,-0.15580336066396883,-0.3093683365622549,0.088225436,0.08275268144170031
2.033847307000542,11:15:46.296034,11:15:45.096833,0,,0.0534896,-0.0005729422,0.07068345,-0.3106875,0.39322954,-0.8653576,0.5926272,-0.6316569,-0.49980265,-0.7431462,-0.6681169,-0.036790624,,0.03176563,0.044650614,0.049880892,0.0413858,-0.6215478,0.7822821,0.17156869,-0.76690257,-0.6184049,0.98430246,0.15980834,0.074899286,,0.1763047,1.3281251,0.5574693,0.9922804,-0.056551155,-0.11037003,-0.10148754,-0.8817764,-0.46061984,-0.07127311,0.4682652,-0.8807087,,-0.03842093,0.16652863,-0.11249587,0.3924588,-0.41430196,0.821176,0.14264542,-0.8545874,-0.49933228,0.9086409,0.31310433,-0.27629206,,0.0011622022,0.34886718,-0.32786664,-0.11163368,0.5552901,-0.82413036,0.6597502,-0.5787654,-0.47933316,-0.7431471,-0.5972299,-0.30174303,,1.3102388594409302,-0.5456110775639617,0.15559498499000002,2.7383409719644036,0.6296209909191496,-0.7976557159222665,-0.1261016190556636,,-0.9283960552077737,-0.31779045777433856,0.18932185821000003,-1.2946257110734534,-1.2342375023812235,1.0198332374728267,0.02188810486199342,,-0.15580336066396883,-0.3093683365622549,0.088225436,0.08275268144170031
2.0617837350000627,11:15:46.320830,11:15:45.096833,0,,0.0534896,-0.0005729422,0.07068345,-0.3106875,0.39322954,-0.8653576,0.5926272,-0.6316569,-0.49980265,-0.7431462,-0.6681169,-0.036790624,,0.03176563,0.044650614,0.049880892,0.0413858,-0.6215478,0.7822821,0.17156869,-0.76690257,-0.6184049,0.98430246,0.15980834,0.074899286,,0.1763047,1.3281251,0.5574693,0.9922804,-0.056551155,-0.11037003,-0.10148754,-0.8817764,-0.46061984,-0.07127311,0.4682652,-0.8807087,,-0.03842093,0.16652863,-0.11249587,0.3924588,-0.41430196,0.821176,0.14264542,-0.8545874,-0.49933228,0.9086409,0.31310433,-0.27629206,,0.0011622022,0.34886718,-0.32786664,-0.11163368,0.5552901,-0.82413036,0.6597502,-0.5787654,-0.47933316,-0.7431471,-0.5972299,-0.30174303,,1.3102388594409302,-0.5456110775639617,0.15559498499000002,2.7383409719644036,0.6296209909191496,-0.7976557159222665,-0.1261016190556636,,-0.9283960552077737,-0.31779045777433856,0.18932185821000003,-1.2946257110734534,-1.2342375023812235,1.0198332374728267,0.02188810486199342,,-0.15580336066396883,-0.3093683365622549,0.088225436,0.08275268144170031
2.0865963749820367,11:15:46.346365,11:15:45.096833,0,,0.0534896,-0.0005729422,0.07068345,-0.3106875,0.39322954,-0.8653576,0.5926272,-0.6316569,-0.49980265,-0.7431462,-0.6681169,-0.036790624,,0.03176563,0.044650614,0.049880892,0.0413858,-0.6215478,0.7822821,0.17156869,-0.76690257,-0.6184049,0.98430246,0.15980834,0.074899286,,0.1763047,1.3281251,0.5574693,0.9922804,-0.056551155,-0.11037003,-0.10148754,-0.8817764,-0.46061984,-0.07127311,0.4682652,-0.8807087,,-0.03842093,0.16652863,-0.11249587,0.3924588,-0.41430196,0.821176,0.14264542,-0.8545874,-0.49933228,0.9086409,0.31310433,-0.27629206,,0.0011622022,0.34886718,-0.32786664,-0.11163368,0.5552901,-0.82413036,0.6597502,-0.5787654,-0.47933316,-0.7431471,-0.5972299,-0.30174303,,1.3102388594409302,-0.5456110775639617,0.15559498499000002,2.7383409719644036,0.6296209909191496,-0.7976557159222665,-0.1261016190556636,,-0.9283960552077737,-0.31779045777433856,0.18932185821000003,-1.2946257110734534,-1.2342375023812235,1.0198332374728267,0.02188810486199342,,-0.15580336066396883,-0.3093683365622549,0.088225436,0.08275268144170031
2.112124885985395,11:15:46.367298,11:15:45.096833,0,,0.0534896,-0.0005729422,0.07068345,-0.3106875,0.39322954,-0.8653576,0.5926272,-0.6316569,-0.49980265,-0.7431462,-0.6681169,-0.036790624,,0.03176563,0.044650614,0.049880892,0.0413858,-0.6215478,0.7822821,0.17156869,-0.76690257,-0.6184049,0.98430246,0.15980834,0.074899286,,0.1763047,1.3281251,0.5574693,0.9922804,-0.056551155,-0.11037003,-0.10148754,-0.8817764,-0.46061984,-0.07127311,0.4682652,-0.8807087,,-0.03842093,0.16652863,-0.11249587,0.3924588,-0.41430196,0.821176,0.14264542,-0.8545874,-0.49933228,0.9086409,0.31310433,-0.27629206,,0.0011622022,0.34886718,-0.32786664,-0.11163368,0.5552901,-0.82413036,0.6597502,-0.5787654,-0.47933316,-0.7431471,-0.5972299,-0.30174303,,1.3102388594409302,-0.5456110775639617,0.15559498499000002,2.7383409719644036,0.6296209909191496,-0.7976557159222665,-0.1261016190556636,,-0.9283960552077737,-0.31779045777433856,0.18932185821000003,-1.2946257110734534,-1.2342375023812235,1.0198332374728267,0.02188810486199342,,-0.15580336066396883,-0.3093683365622549,0.088225436,0.08275268144170031
2.13304230599897,11:15:46.392730,11:15:45.241882,0,,0.0534896,-0.0005729422,0.07068345,-0.3106875,0.39322954,-0.8653576,0.5926272,-0.6316569,-0.49980265,-0.7431462,-0.6681169,-0.036790624,,0.03176563,0.044650614,0.049880892,0.0413858,-0.6215478,0.7822821,0.17156869,-0.76690257,-0.6184049,0.98430246,0.15980834,0.074899286,,0.1763047,1.3281251,0.5574693,0.9922804,-0.056551155,-0.11037003,-0.10148754,-0.8817764,-0.46061984,-0.07127311,0.4682652,-0.8807087,,-0.03842093,0.16652863,-0.11249587,0.3924588,-0.41430196,0.821176,0.14264542,-0.8545874,-0.49933228,0.9086409,0.31310433,-0.27629206,,0.0011622022,0.34886718,-0.32786664,-0.11163368,0.5552901,-0.82413036,0.6597502,-0.5787654,-0.47933316,-0.7431471,-0.5972299,-0.30174303,,1.3102388594409302,-0.5456110775639617,0.15559498499000002,2.7383409719644036,0.6296209909191496,-0.7976557159222665,-0.1261016190556636,,-0.9283960552077737,-0.31779045777433856,0.18932185821000003,-1.2946257110734534,-1.2342375023812235,1.0198332374728267,0.02188810486199342,,-0.15580336066396883,-0.3093683365622549,0.088225436,0.08275268144170031
2.1585060939833056,11:15:46.416592,11:15:45.241882,0,,0.0534896,-0.0005729422,0.07068345,-0.3106875,0.39322954,-0.8653576,0.5926272,-0.6316569,-0.49980265,-0.7431462,-0.6681169,-0.036790624,,0.03176563,0.044650614,0.049880892,0.0413858,-0.6215478,0.7822821,0.17156869,-0.76690257,-0.6184049,0.98430246,0.15980834,0.074899286,,0.1763047,1.3281251,0.5574693,0.9922804,-0.056551155,-0.11037003,-0.10148754,-0.8817764,-0.46061984,-0.07127311,0.4682652,-0.8807087,,-0.03842093,0.16652863,-0.11249587,0.3924588,-0.41430196,0.821176,0.14264542,-0.8545874,-0.49933228,0.9086409,0.31310433,-0.27629206,,0.0011622022,0.34886718,-0.32786664,-0.11163368,0.5552901,-0.82413036,0.6597502,-0.5787654,-0.47933316,-0.7431471,-0.5972299,-0.30174303,,1.3102388594409302,-0.5456110775639617,0.15559498499000002,2.7383409719644036,0.6296209909191496,-0.7976557159222665,-0.1261016190556636,,-0.9283960552077737,-0.31779045777433856,0.18932185821000003,-1.2946257110734534,-1.2342375023812235,1.0198332374728267,0.02188810486199342,,-0.15580336066396883,-0.3093683365622549,0.088225436,0.08275268144170031
