AlexandreBanks6/ExpertPlaybackApp/resources/Motions/PC1/Data_PC1_28.csv
Task Time,PC1 Time,PC2 Time,Gaze Calib,s_T_psm1,Tx,Ty,Tz,R00,R01,R02,R10,R11,R12,R20,R21,R22,s_T_psm3,Tx,Ty,Tz,R00,R01,R02,R10,R11,R12,R20,R21,R22,cart_T_ecm,Tx,Ty,Tz,R00,R01,R02,R10,R11,R12,R20,R21,R22,ecm_T_psm1,Tx,Ty,Tz,R00,R01,R02,R10,R11,R12,R20,R21,R22,ecm_T_psm3,Tx,Ty,Tz,R00,R01,R02,R10,R11,R12,R20,R21,R22,psm1_joints,q1,q2,q3,q4,q5,q6,jaw,psm3_joints,q1,q2,q3,q4,q5,q6,jaw,ecm_joints,q1,q2,q3,q4,ecmi_T_ecm,Tx,Ty,Tz,R00,R01,R02,R10,R11,R12,R20,R21,R22,Sample #,Task Duration (s),Collisions (binary),Collisions (increments),Cumulative Collision Time (s)
""
lci_T_si,,,,,-0.06880011,0.020626148,0.27794594,0.9954897,0.03900029,0.08648253,0.0850841,-0.7702518,-0.63203865,0.041963633,0.63654625,-0.77009606
rci_T_si,,,,,-0.07890684,0.025389686,0.28766447,0.99529153,0.022240384,0.094340354,0.07838338,-0.75722647,-0.648432,0.05701564,0.6527736,-0.7554044
ecm_T_lc,,,,,-4.4061628e-05,-0.00034663224,-0.01840835,-0.99912,0.030754527,0.028518902,-0.031987965,-0.99852574,-0.043852776,0.027128186,-0.04472645,0.9986309
ecm_T_rc,,,,,-0.0043358393,0.01870579,-0.007592615,-0.99555075,-0.052743673,-0.078081585,0.04863213,-0.9973746,0.053654674,-0.08070653,0.04961868,0.9955021
cart_T_ecmi,,,,,0.08886551,1.342326,0.47697437,0.9960477,0.002766163,-0.088777184,-0.053839885,-0.7761484,-0.62824756,-0.0706421,0.63054425,-0.7729319
ecmac_T_ecmrep_psm1,,,,,0.08626859,-0.2052861,-0.33370098,0.999004,0.025128257,0.036871605,-0.023534218,0.9987958,-0.04304718,-0.037908904,0.04213656,0.9983924
ecmac_T_ecmrep_psm3,,,,,-0.16209933,-0.49188918,-0.56672233,0.99379694,-0.09876928,0.05111077,0.087427974,0.9779163,0.18983154,-0.068731576,-0.18418549,0.98048544
""
0,10:41:32.192850,10:41:14.113300,0,,0.028178537,0.04973405,0.07493533,-0.8676564,-0.36933896,-0.33280757,-0.49059218,0.7445384,0.4527493,0.0805701,0.55610365,-0.82719845,,0.14044592,-0.045065556,0.071412235,-0.74337393,-0.61686766,0.25859085,-0.4445621,0.7445169,0.49805516,-0.49975955,0.25528163,-0.82769084,,0.088903226,1.3423249,0.47697058,0.9960438,0.00271071,-0.08882207,-0.05391105,-0.77614856,-0.6282412,-0.0706421,0.63054425,-0.7729319,,-0.07264638,0.27887955,-0.08662881,0.8815199,0.28376848,0.3773567,-0.24641317,0.9582608,-0.14497182,-0.40274456,0.03480988,0.91465026,,0.05503026,0.4438394,-0.3807359,0.8665716,0.45706314,-0.200367,-0.4980321,0.76637113,-0.40575776,-0.031901423,0.45140734,0.89174753,,0.8185247346061816,-0.08605441241748371,0.15336277361,0.637038048305985,0.1186004817964023,0.3040868374612451,0.8701338402973056,,-0.6229079109020748,-0.6847515557588646,0.12743308474,1.4489575094780633,0.22722649910992745,0.7895477897304615,0.8678470233714256,,-0.06956664232292899,-0.10060295974651816,0.09920539512,-0.034016912529394594,,3.7893653e-05,-1.4305115e-06,3.5762787e-07,0.99999994,-5.5223703e-05,-4.504621e-05,5.522743e-05,1.0,-5.066395e-06,4.505366e-05,5.0365925e-06,1.0,0,0.001,0,0,0.0
0.022183400000358233,10:41:32.210514,10:41:14.113300,0,,0.028177558,0.049734466,0.07493572,-0.86765546,-0.36933568,-0.33281365,-0.49059308,0.74453634,0.4527518,0.08057451,0.55610865,-0.82719463,,0.14044528,-0.045065735,0.07141188,-0.7433765,-0.6168674,0.2585842,-0.44456506,0.7445164,0.49805322,-0.49975312,0.25528353,-0.82769406,,0.088903226,1.3423249,0.47697058,0.9960438,0.00271071,-0.08882207,-0.05391105,-0.77614856,-0.6282412,-0.0706421,0.63054425,-0.7729319,,-0.07264546,0.2788802,-0.08662886,0.88151866,0.28376487,0.3773623,-0.24641116,0.958262,-0.14496692,-0.4027485,0.03480477,0.9146487,,0.055030953,0.4438392,-0.38073587,0.8665736,0.45706266,-0.20035973,-0.4980283,0.7663723,-0.40576008,-0.03190762,0.45140576,0.89174813,,0.8185324573390558,-0.08605441241748371,0.15336277361,0.637038048305985,0.1186004817964023,0.3040868374612451,0.8701338402973056,,-0.6229001881692005,-0.6847515557588646,0.12743308474,1.4489575094780633,0.22722649910992745,0.7895477897304615,0.8678470233714256,,-0.06956664232292899,-0.10060295974651816,0.09920539512,-0.034016912529394594,,3.7893653e-05,-1.4305115e-06,3.5762787e-07,0.99999994,-5.5223703e-05,-4.504621e-05,5.522743e-05,1.0,-5.066395e-06,4.505366e-05,5.0365925e-06,1.0,1,0.003,0,0,0.0
0.03985114999977668,10:41:32.229282,10:41:14.113300,0,,0.028177558,0.049734466,0.07493572,-0.86765546,-0.36933568,-0.33281365,-0.49059308,0.74453634,0.4527518,0.08057451,0.55610865,-0.82719463,,0.14044528,-0.045065735,0.07141188,-0.7433765,-0.6168674,0.2585842,-0.44456506,0.7445164,0.49805322,-0.49975312,0.25528353,-0.82769406,,0.088903226,1.3423249,0.47697058,0.9960438,0.00271071,-0.08882207,-0.05391105,-0.77614856,-0.6282412,-0.0706421,0.63054425,-0.7729319,,-0.07264546,0.2788802,-0.08662886,0.88151866,0.28376487,0.3773623,-0.24641116,0.958262,-0.14496692,-0.4027485,0.03480477,0.9146487,,0.055030953,0.4438392,-0.38073587,0.8665736,0.45706266,-0.20035973,-0.4980283,0.7663723,-0.40576008,-0.03190762,0.45140576,0.89174813,,0.8185324573390558,-0.08605441241748371,0.15336277361,0.637038048305985,0.1186004817964023,0.3040868374612451,0.8701338402973056,,-0.6229001881692005,-0.6847515557588646,0.12743308474,1.4489575094780633,0.22722649910992745,0.7895477897304615,0.8678470233714256,,-0.06956664232292899,-0.10060295974651816,0.09920539512,-0.034016912529394594,,3.7893653e-05,-1.4305115e-06,3.5762787e-07,0.99999994,-5.5223703e-05,-4.504621e-05,5.522743e-05,1.0,-5.066395e-06,4.505366e-05,5.0365925e-06,1.0,2,0.006,0,0,0.0
0.058619915999770456,10:41:32.249140,10:41:14.113300,0,,0.028178537,0.04973405,0.07493533,-0.8676564,-0.36933896,-0.33280757,-0.49059218,0.7445384,0.4527493,0.0805701,0.55610365,-0.82719845,,0.14044528,-0.045065735,0.07141188,-0.7433765,-0.6168674,0.2585842,-0.44456506,0.7445164,0.49805322,-0.49975312,0.25528353,-0.82769406,,0.088903226,1.3423249,0.47697058,0.9960438,0.00271071,-0.08882207,-0.05391105,-0.77614856,-0.6282412,-0.0706421,0.63054425,-0.7729319,,-0.07264638,0.27887955,-0.08662881,0.8815199,0.28376848,0.3773567,-0.24641317,0.9582608,-0.14497182,-0.40274456,0.03480988,0.91465026,,0.055030953,0.4438392,-0.38073587,0.8665736,0.45706266,-0.20035973,-0.4980283,0.7663723,-0.40576008,-0.03190762,0.45140576,0.89174813,,0.8185247346061816,-0.08605441241748371,0.15336277361,0.637038048305985,0.1186004817964023,0.3040868374612451,0.8701338402973056,,-0.6229001881692005,-0.6847515557588646,0.12743308474,1.4489575094780633,0.22722649910992745,0.7895477897304615,0.8678470233714256,,-0.06956664232292899,-0.10060295974651816,0.09920539512,-0.034016912529394594,,3.7893653e-05,-1.4305115e-06,3.5762787e-07,0.99999994,-5.5223703e-05,-4.504621e-05,5.522743e-05,1.0,-5.066395e-06,4.505366e-05,5.0365925e-06,1.0,3,0.01,0,0,0.0
0.07847132100050658,10:41:32.270373,10:41:14.113300,0,,0.028179506,0.049733616,0.074934945,-0.86765736,-0.3693423,-0.33280152,-0.4905913,0.7445406,0.4527468,0.08056572,0.55609864,-0.82720226,,0.14044592,-0.045065556,0.071412235,-0.74337393,-0.61686766,0.25859085,-0.4445621,0.7445169,0.49805516,-0.49975955,0.25528163,-0.82769084,,0.088903226,1.3423249,0.47697058,0.9960438,0.00271071,-0.08882207,-0.05391105,-0.77614856,-0.6282412,-0.0706421,0.63054425,-0.7729319,,-0.072647296,0.2788789,-0.08662876,0.88152117,0.28377208,0.3773511,-0.24641518,0.9582595,-0.1449767,-0.40274063,0.034814987,0.9146518,,0.05503026,0.4438394,-0.3807359,0.8665716,0.45706314,-0.200367,-0.4980321,0.76637113,-0.40575776,-0.031901423,0.45140734,0.89174753,,0.8185170118733074,-0.08605441241748371,0.15336277361,0.637038048305985,0.1186004817964023,0.3040868374612451,0.8701338402973056,,-0.6229079109020748,-0.6847515557588646,0.12743308474,1.4489575094780633,0.22722649910992745,0.7895477897304615,0.8678470233714256,,-0.06956664232292899,-0.10060295974651816,0.09920539512,-0.034016912529394594,,3.7893653e-05,-1.4305115e-06,3.5762787e-07,0.99999994,-5.5223703e-05,-4.504621e-05,5.522743e-05,1.0,-5.066395e-06,4.505366e-05,5.0365925e-06,1.0,4,0.013,0,0,0.0
0.09965802199985774,10:41:32.291813,10:41:14.113300,0,,0.028179506,0.049733616,0.074934945,-0.86765736,-0.3693423,-0.33280152,-0.4905913,0.7445406,0.4527468,0.08056572,0.55609864,-0.82720226,,0.14044592,-0.045065556,0.071412235,-0.74337393,-0.61686766,0.25859085,-0.4445621,0.7445169,0.49805516,-0.49975955,0.25528163,-0.82769084,,0.088903226,1.3423249,0.47697058,0.9960438,0.00271071,-0.08882207,-0.05391105,-0.77614856,-0.6282412,-0.0706421,0.63054425,-0.7729319,,-0.072647296,0.2788789,-0.08662876,0.88152117,0.28377208,0.3773511,-0.24641518,0.9582595,-0.1449767,-0.40274063,0.034814987,0.9146518,,0.05503026,0.4438394,-0.3807359,0.8665716,0.45706314,-0.200367,-0.4980321,0.76637113,-0.40575776,-0.031901423,0.45140734,0.89174753,,0.8185170118733074,-0.08605441241748371,0.15336277361,0.637038048305985,0.1186004817964023,0.3040868374612451,0.8701338402973056,,-0.6229079109020748,-0.6847515557588646,0.12743308474,1.4489575094780633,0.22722649910992745,0.7895477897304615,0.8678470233714256,,-0.06956664232292899,-0.10060295974651816,0.09920539512,-0.034016912529394594,,3.7893653e-05,-1.4305115e-06,3.5762787e-07,0.99999994,-5.5223703e-05,-4.504621e-05,5.522743e-05,1.0,-5.066395e-06,4.505366e-05,5.0365925e-06,1.0,5,0.016,0,0,0.0
0.12107133500012424,10:41:32.311474,10:41:14.113300,0,,0.028179506,0.049733616,0.074934945,-0.86765736,-0.3693423,-0.33280152,-0.4905913,0.7445406,0.4527468,0.08056572,0.55609864,-0.82720226,,0.14044528,-0.045065735,0.07141188,-0.7433765,-0.6168674,0.2585842,-0.44456506,0.7445164,0.49805322,-0.49975312,0.25528353,-0.82769406,,0.088903226,1.3423249,0.47697058,0.9960438,0.00271071,-0.08882207,-0.05391105,-0.77614856,-0.6282412,-0.0706421,0.63054425,-0.7729319,,-0.072647296,0.2788789,-0.08662876,0.88152117,0.28377208,0.3773511,-0.24641518,0.9582595,-0.1449767,-0.40274063,0.034814987,0.9146518,,0.055030953,0.4438392,-0.38073587,0.8665736,0.45706266,-0.20035973,-0.4980283,0.7663723,-0.40576008,-0.03190762,0.45140576,0.89174813,,0.8185170118733074,-0.08605441241748371,0.15336277361,0.637038048305985,0.1186004817964023,0.3040868374612451,0.8701338402973056,,-0.6229001881692005,-0.6847515557588646,0.12743308474,1.4489575094780633,0.22722649910992745,0.7895477897304615,0.8678470233714256,,-0.06956664232292899,-0.10060295974651816,0.09920539512,-0.034016912529394594,,3.7893653e-05,-1.4305115e-06,3.5762787e-07,0.99999994,-5.5223703e-05,-4.504621e-05,5.522743e-05,1.0,-5.066395e-06,4.505366e-05,5.0365925e-06,1.0,6,0.019,0,0,0.0
0.14081014700059313,10:41:32.330701,10:41:14.113300,0,,0.028178537,0.04973405,0.07493533,-0.8676564,-0.36933896,-0.33280757,-0.49059218,0.7445384,0.4527493,0.0805701,0.55610365,-0.82719845,,0.14044592,-0.045065556,0.071412235,-0.74337393,-0.61686766,0.25859085,-0.4445621,0.7445169,0.49805516,-0.49975955,0.25528163,-0.82769084,,0.088903226,1.3423249,0.47697058,0.9960438,0.00271071,-0.08882207,-0.05391105,-0.77614856,-0.6282412,-0.0706421,0.63054425,-0.7729319,,-0.07264638,0.27887955,-0.08662881,0.8815199,0.28376848,0.3773567,-0.24641317,0.9582608,-0.14497182,-0.40274456,0.03480988,0.91465026,,0.05503026,0.4438394,-0.3807359,0.8665716,0.45706314,-0.200367,-0.4980321,0.76637113,-0.40575776,-0.031901423,0.45140734,0.89174753,,0.8185247346061816,-0.08605441241748371,0.15336277361,0.637038048305985,0.1186004817964023,0.3040868374612451,0.8701338402973056,,-0.6229079109020748,-0.6847515557588646,0.12743308474,1.4489575094780633,0.22722649910992745,0.7895477897304615,0.8678470233714256,,-0.06956664232292899,-0.10060295974651816,0.09920539512,-0.034016912529394594,,3.7893653e-05,-1.4305115e-06,3.5762787e-07,0.99999994,-5.5223703e-05,-4.504621e-05,5.522743e-05,1.0,-5.066395e-06,4.505366e-05,5.0365925e-06,1.0,7,0.022,0,0,0.0
0.1600251970003228,10:41:32.349744,10:41:14.113300,0,,0.028178537,0.04973405,0.07493533,-0.8676564,-0.36933896,-0.33280757,-0.49059218,0.7445384,0.4527493,0.0805701,0.55610365,-0.82719845,,0.14044592,-0.045065556,0.071412235,-0.74337393,-0.61686766,0.25859085,-0.4445621,0.7445169,0.49805516,-0.49975955,0.25528163,-0.82769084,,0.088903226,1.3423249,0.47697058,0.9960438,0.00271071,-0.08882207,-0.05391105,-0.77614856,-0.6282412,-0.0706421,0.63054425,-0.7729319,,-0.07264638,0.27887955,-0.08662881,0.8815199,0.28376848,0.3773567,-0.24641317,0.9582608,-0.14497182,-0.40274456,0.03480988,0.91465026,,0.05503026,0.4438394,-0.3807359,0.8665716,0.45706314,-0.200367,-0.4980321,0.76637113,-0.40575776,-0.031901423,0.45140734,0.89174753,,0.8185247346061816,-0.08605441241748371,0.15336277361,0.637038048305985,0.1186004817964023,0.3040868374612451,0.8701338402973056,,-0.6229079109020748,-0.6847515557588646,0.12743308474,1.4489575094780633,0.22722649910992745,0.7895477897304615,0.8678470233714256,,-0.06956664232292899,-0.10060295974651816,0.09920539512,-0.034016912529394594,,3.7893653e-05,-1.4305115e-06,3.5762787e-07,0.99999994,-5.5223703e-05,-4.504621e-05,5.522743e-05,1.0,-5.066395e-06,4.505366e-05,5.0365925e-06,1.0,8,0.025,0,0,0.0
0.1790543710003476,10:41:32.374473,10:41:14.113300,0,,0.028177558,0.049734466,0.07493572,-0.86765546,-0.36933568,-0.33281365,-0.49059308,0.74453634,0.4527518,0.08057451,0.55610865,-0.82719463,,0.14044592,-0.045065556,0.071412235,-0.74337393,-0.61686766,0.25859085,-0.4445621,0.7445169,0.49805516,-0.49975955,0.25528163,-0.82769084,,0.088903226,1.3423249,0.47697058,0.9960438,0.00271071,-0.08882207,-0.05391105,-0.77614856,-0.6282412,-0.0706421,0.63054425,-0.7729319,,-0.07264546,0.2788802,-0.08662886,0.88151866,0.28376487,0.3773623,-0.24641116,0.958262,-0.14496692,-0.4027485,0.03480477,0.9146487,,0.05503026,0.4438394,-0.3807359,0.8665716,0.45706314,-0.200367,-0.4980321,0.76637113,-0.40575776,-0.031901423,0.45140734,0.89174753,,0.8185324573390558,-0.08605441241748371,0.15336277361,0.637038048305985,0.1186004817964023,0.3040868374612451,0.8701338402973056,,-0.6229079109020748,-0.6847515557588646,0.12743308474,1.4489575094780633,0.22722649910992745,0.7895477897304615,0.8678470233714256,,-0.06956664232292899,-0.10060295974651816,0.09920539512,-0.034016912529394594,,3.7893653e-05,-1.4305115e-06,3.5762787e-07,0.99999994,-5.5223703e-05,-4.504621e-05,5.522743e-05,1.0,-5.066395e-06,4.505366e-05,5.0365925e-06,1.0,9,0.028,0,0,0.0
0.20375081000020145,10:41:32.399471,10:41:14.113300,0,,0.028177558,0.049734466,0.07493572,-0.86765546,-0.36933568,-0.33281365,-0.49059308,0.74453634,0.4527518,0.08057451,0.55610865,-0.82719463,,0.14044592,-0.045065556,0.071412235,-0.74337393,-0.61686766,0.25859085,-0.4445621,0.7445169,0.49805516,-0.49975955,0.25528163,-0.82769084,,0.088903226,1.3423249,0.47697058,0.9960438,0.00271071,-0.08882207,-0.05391105,-0.77614856,-0.6282412,-0.0706421,0.63054425,-0.7729319,,-0.07264546,0.2788802,-0.08662886,0.88151866,0.28376487,0.3773623,-0.24641116,0.958262,-0.14496692,-0.4027485,0.03480477,0.9146487,,0.05503026,0.4438394,-0.3807359,0.8665716,0.45706314,-0.200367,-0.4980321,0.76637113,-0.40575776,-0.031901423,0.45140734,0.89174753,,0.8185324573390558,-0.08605441241748371,0.15336277361,0.637038048305985,0.1186004817964023,0.3040868374612451,0.8701338402973056,,-0.6229079109020748,-0.6847515557588646,0.12743308474,1.4489575094780633,0.22722649910992745,0.7895477897304615,0.8678470233714256,,-0.06956664232292899,-0.10060295974651816,0.09920539512,-0.034016912529394594,,3.7893653e-05,-1.4305115e-06,3.5762787e-07,0.99999994,-5.5223703e-05,-4.504621e-05,5.522743e-05,1.0,-5.066395e-06,4.505366e-05,5.0365925e-06,1.0,10,0.031,0,0,0.0
0.22877507700013666,10:41:32.419022,10:41:14.113300,0,,0.028177558,0.049734466,0.07493572,-0.86765546,-0.36933568,-0.33281365,-0.49059308,0.74453634,0.4527518,0.08057451,0.55610865,-0.82719463,,0.14044528,-0.045065735,0.07141188,-0.7433765,-0.6168674,0.2585842,-0.44456506,0.7445164,0.49805322,-0.49975312,0.25528353,-0.82769406,,0.088903226,1.3423249,0.47697058,0.9960438,0.00271071,-0.08882207,-0.05391105,-0.77614856,-0.6282412,-0.0706421,0.63054425,-0.7729319,,-0.07264546,0.2788802,-0.08662886,0.88151866,0.28376487,0.3773623,-0.24641116,0.958262,-0.14496692,-0.4027485,0.03480477,0.9146487,,0.055030953,0.4438392,-0.38073587,0.8665736,0.45706266,-0.20035973,-0.4980283,0.7663723,-0.40576008,-0.03190762,0.45140576,0.89174813,,0.8185324573390558,-0.08605441241748371,0.15336277361,0.637038048305985,0.1186004817964023,0.3040868374612451,0.8701338402973056,,-0.6229001881692005,-0.6847515557588646,0.12743308474,1.4489575094780633,0.22722649910992745,0.7895477897304615,0.8678470233714256,,-0.06956664232292899,-0.10060295974651816,0.09920539512,-0.034016912529394594,,3.7893653e-05,-1.4305115e-06,3.5762787e-07,0.99999994,-5.5223703e-05,-4.504621e-05,5.522743e-05,1.0,-5.066395e-06,4.505366e-05,5.0365925e-06,1.0,11,0.034,0,0,0.0
0.24834249100058514,10:41:32.440432,10:41:14.113300,0,,0.028177558,0.049734466,0.07493572,-0.86765546,-0.36933568,-0.33281365,-0.49059308,0.74453634,0.4527518,0.08057451,0.55610865,-0.82719463,,0.14044592,-0.045065556,0.071412235,-0.74337393,-0.61686766,0.25859085,-0.4445621,0.7445169,0.49805516,-0.49975955,0.25528163,-0.82769084,,0.088903226,1.3423249,0.47697058,0.9960438,0.00271071,-0.08882207,-0.05391105,-0.77614856,-0.6282412,-0.0706421,0.63054425,-0.7729319,,-0.07264546,0.2788802,-0.08662886,0.88151866,0.28376487,0.3773623,-0.24641116,0.958262,-0.14496692,-0.4027485,0.03480477,0.9146487,,0.05503026,0.4438394,-0.3807359,0.8665716,0.45706314,-0.200367,-0.4980321,0.76637113,-0.40575776,-0.031901423,0.45140734,0.89174753,,0.8185324573390558,-0.08605441241748371,0.15336277361,0.637038048305985,0.1186004817964023,0.3040868374612451,0.8701338402973056,,-0.6229079109020748,-0.6847515557588646,0.12743308474,1.4489575094780633,0.22722649910992745,0.7895477897304615,0.8678470233714256,,-0.06956664232292899,-0.10060295974651816,0.09920539512,-0.034016912529394594,,3.7893653e-05,-1.4305115e-06,3.5762787e-07,0.99999994,-5.5223703e-05,-4.504621e-05,5.522743e-05,1.0,-5.066395e-06,4.505366e-05,5.0365925e-06,1.0,12,0.037,0,0,0.0
0.269715766000445,10:41:32.454527,10:41:14.113300,0,,0.028177558,0.049734466,0.07493572,-0.86765546,-0.36933568,-0.33281365,-0.49059308,0.74453634,0.4527518,0.08057451,0.55610865,-0.82719463,,0.14044592,-0.045065556,0.071412235,-0.74337393,-0.61686766,0.25859085,-0.4445621,0.7445169,0.49805516,-0.49975955,0.25528163,-0.82769084,,0.088903226,1.3423249,0.47697058,0.9960438,0.00271071,-0.08882207,-0.05391105,-0.77614856,-0.6282412,-0.0706421,0.63054425,-0.7729319,,-0.07264546,0.2788802,-0.08662886,0.88151866,0.28376487,0.3773623,-0.24641116,0.958262,-0.14496692,-0.4027485,0.03480477,0.9146487,,0.05503026,0.4438394,-0.3807359,0.8665716,0.45706314,-0.200367,-0.4980321,0.76637113,-0.40575776,-0.031901423,0.45140734,0.89174753,,0.8185324573390558,-0.08605441241748371,0.15336277361,0.637038048305985,0.1186004817964023,0.3040868374612451,0.8701338402973056,,-0.6229079109020748,-0.6847515557588646,0.12743308474,1.4489575094780633,0.22722649910992745,0.7895477897304615,0.8678470233714256,,-0.06956664232292899,-0.10060295974651816,0.09920539512,-0.034016912529394594,,3.7893653e-05,-1.4305115e-06,3.5762787e-07,0.99999994,-5.5223703e-05,-4.504621e-05,5.522743e-05,1.0,-5.066395e-06,4.505366e-05,5.0365925e-06,1.0,13,0.04,0,0,0.0
0.2838123199999245,10:41:32.478531,10:41:14.113300,0,,0.028177558,0.049734466,0.07493572,-0.86765546,-0.36933568,-0.33281365,-0.49059308,0.74453634,0.4527518,0.08057451,0.55610865,-0.82719463,,0.14044592,-0.045065556,0.071412235,-0.74337393,-0.61686766,0.25859085,-0.4445621,0.7445169,0.49805516,-0.49975955,0.25528163,-0.82769084,,0.088903226,1.3423249,0.47697058,0.9960438,0.00271071,-0.08882207,-0.05391105,-0.77614856,-0.6282412,-0.0706421,0.63054425,-0.7729319,,-0.07264546,0.2788802,-0.08662886,0.88151866,0.28376487,0.3773623,-0.24641116,0.958262,-0.14496692,-0.4027485,0.03480477,0.9146487,,0.05503026,0.4438394,-0.3807359,0.8665716,0.45706314,-0.200367,-0.4980321,0.76637113,-0.40575776,-0.031901423,0.45140734,0.89174753,,0.8185324573390558,-0.08605441241748371,0.15336277361,0.637038048305985,0.1186004817964023,0.3040868374612451,0.8701338402973056,,-0.6229079109020748,-0.6847515557588646,0.12743308474,1.4489575094780633,0.22722649910992745,0.7895477897304615,0.8678470233714256,,-0.06956664232292899,-0.10060295974651816,0.09920539512,-0.034016912529394594,,3.7893653e-05,-1.4305115e-06,3.5762787e-07,0.99999994,-5.5223703e-05,-4.504621e-05,5.522743e-05,1.0,-5.066395e-06,4.505366e-05,5.0365925e-06,1.0,14,0.043,0,0,0.0
0.30786791700029426,10:41:32.495733,10:41:14.113300,0,,0.028177558,0.049734466,0.07493572,-0.86765546,-0.36933568,-0.33281365,-0.49059308,0.74453634,0.4527518,0.08057451,0.55610865,-0.82719463,,0.14044528,-0.045065735,0.07141188,-0.7433765,-0.6168674,0.2585842,-0.44456506,0.7445164,0.49805322,-0.49975312,0.25528353,-0.82769406,,0.088903226,1.3423249,0.47697058,0.9960438,0.00271071,-0.08882207,-0.05391105,-0.77614856,-0.6282412,-0.0706421,0.63054425,-0.7729319,,-0.07264546,0.2788802,-0.08662886,0.88151866,0.28376487,0.3773623,-0.24641116,0.958262,-0.14496692,-0.4027485,0.03480477,0.9146487,,0.055030953,0.4438392,-0.38073587,0.8665736,0.45706266,-0.20035973,-0.4980283,0.7663723,-0.40576008,-0.03190762,0.45140576,0.89174813,,0.8185324573390558,-0.08605441241748371,0.15336277361,0.637038048305985,0.1186004817964023,0.3040868374612451,0.8701338402973056,,-0.6229001881692005,-0.6847515557588646,0.12743308474,1.4489575094780633,0.22722649910992745,0.7895477897304615,0.8678470233714256,,-0.06956664232292899,-0.10060295974651816,0.09920539512,-0.034016912529394594,,3.7893653e-05,-1.4305115e-06,3.5762787e-07,0.99999994,-5.5223703e-05,-4.504621e-05,5.522743e-05,1.0,-5.066395e-06,4.505366e-05,5.0365925e-06,1.0,15,0.045,0,0,0.0
0.32503004600039276,10:41:32.514726,10:41:14.113300,0,,0.028177558,0.049734466,0.07493572,-0.86765546,-0.36933568,-0.33281365,-0.49059308,0.74453634,0.4527518,0.08057451,0.55610865,-0.82719463,,0.14044592,-0.045065556,0.071412235,-0.74337393,-0.61686766,0.25859085,-0.4445621,0.7445169,0.49805516,-0.49975955,0.25528163,-0.82769084,,0.088903226,1.3423249,0.47697058,0.9960438,0.00271071,-0.08882207,-0.05391105,-0.77614856,-0.6282412,-0.0706421,0.63054425,-0.7729319,,-0.07264546,0.2788802,-0.08662886,0.88151866,0.28376487,0.3773623,-0.24641116,0.958262,-0.14496692,-0.4027485,0.03480477,0.9146487,,0.05503026,0.4438394,-0.3807359,0.8665716,0.45706314,-0.200367,-0.4980321,0.76637113,-0.40575776,-0.031901423,0.45140734,0.89174753,,0.8185324573390558,-0.08605441241748371,0.15336277361,0.637038048305985,0.1186004817964023,0.3040868374612451,0.8701338402973056,,-0.6229079109020748,-0.6847515557588646,0.12743308474,1.4489575094780633,0.22722649910992745,0.7895477897304615,0.8678470233714256,,-0.06956664232292899,-0.10060295974651816,0.09920539512,-0.034016912529394594,,3.7893653e-05,-1.4305115e-06,3.5762787e-07,0.99999994,-5.5223703e-05,-4.504621e-05,5.522743e-05,1.0,-5.066395e-06,4.505366e-05,5.0365925e-06,1.0,16,0.048,0,0,0.0
0.3440648140003759,10:41:32.532335,10:41:14.113300,0,,0.028177558,0.049734466,0.07493572,-0.86765546,-0.36933568,-0.33281365,-0.49059308,0.74453634,0.4527518,0.08057451,0.55610865,-0.82719463,,0.14044592,-0.045065556,0.071412235,-0.74337393,-0.61686766,0.25859085,-0.4445621,0.7445169,0.49805516,-0.49975955,0.25528163,-0.82769084,,0.088903226,1.3423249,0.47697058,0.9960438,0.00271071,-0.08882207,-0.05391105,-0.77614856,-0.6282412,-0.0706421,0.63054425,-0.7729319,,-0.07264546,0.2788802,-0.08662886,0.88151866,0.28376487,0.3773623,-0.24641116,0.958262,-0.14496692,-0.4027485,0.03480477,0.9146487,,0.05503026,0.4438394,-0.3807359,0.8665716,0.45706314,-0.200367,-0.4980321,0.76637113,-0.40575776,-0.031901423,0.45140734,0.89174753,,0.8185324573390558,-0.08605441241748371,0.15336277361,0.637038048305985,0.1186004817964023,0.3040868374612451,0.8701338402973056,,-0.6229079109020748,-0.6847515557588646,0.12743308474,1.4489575094780633,0.22722649910992745,0.7895477897304615,0.8678470233714256,,-0.06956664232292899,-0.10060295974651816,0.09920539512,-0.034016912529394594,,3.7893653e-05,-1.4305115e-06,3.5762787e-07,0.99999994,-5.5223703e-05,-4.504621e-05,5.522743e-05,1.0,-5.066395e-06,4.505366e-05,5.0365925e-06,1.0,17,0.052,0,0,0.0
0.3616546940002081,10:41:32.553167,10:41:14.113300,0,,0.028177558,0.049734466,0.07493572,-0.86765546,-0.36930847,-0.33284378,-0.49059308,0.7444993,0.4528126,0.08057451,0.55617625,-0.8271492,,0.14044592,-0.045065556,0.071412235,-0.74337393,-0.61686766,0.25859085,-0.4445621,0.7445169,0.49805516,-0.49975955,0.25528163,-0.82769084,,0.088903226,1.3423249,0.47697058,0.9960438,0.00271071,-0.08882207,-0.05391105,-0.77614856,-0.6282412,-0.0706421,0.63054425,-0.7729319,,-0.07264546,0.2788802,-0.08662886,0.88151866,0.28373402,0.37738547,-0.24641116,0.9582739,-0.14488865,-0.4027485,0.034730062,0.9146516,,0.05503026,0.4438394,-0.3807359,0.8665716,0.45706314,-0.200367,-0.4980321,0.76637113,-0.40575776,-0.031901423,0.45140734,0.89174753,,0.8185324573390558,-0.08605441241748371,0.15336277361,0.637038048305985,0.1186004817964023,0.30416851620138563,0.8702971843634397,,-0.6229079109020748,-0.6847515557588646,0.12743308474,1.4489575094780633,0.22722649910992745,0.7895477897304615,0.8678470233714256,,-0.06956664232292899,-0.10060295974651816,0.09920539512,-0.034016912529394594,,3.7893653e-05,-1.4305115e-06,3.5762787e-07,0.99999994,-5.5223703e-05,-4.504621e-05,5.522743e-05,1.0,-5.066395e-06,4.505366e-05,5.0365925e-06,1.0,18,0.055,0,0,0.0
0.3824599480003599,10:41:32.572292,10:41:14.113300,0,,0.028178023,0.04973551,0.07493575,-0.86765707,-0.36928093,-0.33287036,-0.4905913,0.7444597,0.45287982,0.08056873,0.55624765,-0.8271017,,0.14044592,-0.045065556,0.071412235,-0.74337393,-0.61686766,0.25859085,-0.4445621,0.7445169,0.49805516,-0.49975955,0.25528163,-0.82769084,,0.088903226,1.3423249,0.47697058,0.9960438,0.00271071,-0.08882207,-0.05391105,-0.77614856,-0.6282412,-0.0706421,0.63054425,-0.7729319,,-0.07264598,0.27888098,-0.086628206,0.8815206,0.28370267,0.37740457,-0.24641332,0.95828605,-0.14480451,-0.40274295,0.034650642,0.914657,,0.05503026,0.4438394,-0.3807359,0.8665716,0.45706314,-0.200367,-0.4980321,0.76637113,-0.40575776,-0.031901423,0.45140734,0.89174753,,0.8185324573390558,-0.08604668968460949,0.15336277361,0.637038048305985,0.1186004817964023,0.3042501949415263,0.8704605284295741,,-0.6229079109020748,-0.6847515557588646,0.12743308474,1.4489575094780633,0.22722649910992745,0.7895477897304615,0.8678470233714256,,-0.06956664232292899,-0.10060295974651816,0.09920539512,-0.034016912529394594,,3.7893653e-05,-1.4305115e-06,3.5762787e-07,0.99999994,-5.5223703e-05,-4.504621e-05,5.522743e-05,1.0,-5.066395e-06,4.505366e-05,5.0365925e-06,1.0,19,0.058,0,0,0.0
0.4015786179998031,10:41:32.596246,10:41:14.113300,0,,0.028177558,0.049734466,0.07493572,-0.86765546,-0.3692813,-0.332874,-0.49059308,0.7444623,0.4528734,0.08057451,0.5562437,-0.82710373,,0.14044528,-0.045065735,0.07141188,-0.7433765,-0.6168674,0.2585842,-0.44456506,0.7445164,0.49805322,-0.49975312,0.25528353,-0.82769406,,0.088903226,1.3423249,0.47697058,0.9960438,0.00271071,-0.08882207,-0.05391105,-0.77614856,-0.6282412,-0.0706421,0.63054425,-0.7729319,,-0.07264546,0.2788802,-0.08662886,0.88151866,0.2837032,0.37740865,-0.24641116,0.9582857,-0.14481038,-0.4027485,0.034655355,0.9146544,,0.055030953,0.4438392,-0.38073587,0.8665736,0.45706266,-0.20035973,-0.4980283,0.7663723,-0.40576008,-0.03190762,0.45140576,0.89174813,,0.8185324573390558,-0.08605441241748371,0.15336277361,0.637038048305985,0.1186004817964023,0.3042501949415263,0.8704605284295741,,-0.6229001881692005,-0.6847515557588646,0.12743308474,1.4489575094780633,0.22722649910992745,0.7895477897304615,0.8678470233714256,,-0.06956664232292899,-0.10060295974651816,0.09920539512,-0.034016912529394594,,3.7893653e-05,-1.4305115e-06,3.5762787e-07,0.99999994,-5.5223703e-05,-4.504621e-05,5.522743e-05,1.0,-5.066395e-06,4.505366e-05,5.0365925e-06,1.0,20,0.061,0,0,0.0
0.4255846100004419,10:41:32.614561,10:41:14.113300,0,,0.028177558,0.049734466,0.07493572,-0.86765546,-0.3692813,-0.332874,-0.49059308,0.7444623,0.4528734,0.08057451,0.5562437,-0.82710373,,0.14044528,-0.045065735,0.07141188,-0.7433765,-0.6168674,0.2585842,-0.44456506,0.7445164,0.49805322,-0.49975312,0.25528353,-0.82769406,,0.088903226,1.3423249,0.47697058,0.9960438,0.00271071,-0.08882207,-0.05391105,-0.77614856,-0.6282412,-0.0706421,0.63054425,-0.7729319,,-0.07264546,0.2788802,-0.08662886,0.88151866,0.2837032,0.37740865,-0.24641116,0.9582857,-0.14481038,-0.4027485,0.034655355,0.9146544,,0.055030953,0.4438392,-0.38073587,0.8665736,0.45706266,-0.20035973,-0.4980283,0.7663723,-0.40576008,-0.03190762,0.45140576,0.89174813,,0.8185324573390558,-0.08605441241748371,0.15336277361,0.637038048305985,0.1186004817964023,0.3042501949415263,0.8704605284295741,,-0.6229001881692005,-0.6847515557588646,0.12743308474,1.4489575094780633,0.22722649910992745,0.7895477897304615,0.8678470233714256,,-0.06956664232292899,-0.10060295974651816,0.09920539512,-0.034016912529394594,,3.7893653e-05,-1.4305115e-06,3.5762787e-07,0.99999994,-5.5223703e-05,-4.504621e-05,5.522743e-05,1.0,-5.066395e-06,4.505366e-05,5.0365925e-06,1.0,21,0.064,0,0,0.0
0.44388815599995723,10:41:32.633709,10:41:14.113300,0,,0.028177558,0.049734466,0.07493572,-0.86765546,-0.3692813,-0.332874,-0.49059308,0.7444623,0.4528734,0.08057451,0.5562437,-0.82710373,,0.14044592,-0.045065556,0.071412235,-0.74337393,-0.61686766,0.25859085,-0.4445621,0.7445169,0.49805516,-0.49975955,0.25528163,-0.82769084,,0.088903226,1.3423249,0.47697058,0.9960438,0.00271071,-0.08882207,-0.05391105,-0.77614856,-0.6282412,-0.0706421,0.63054425,-0.7729319,,-0.07264546,0.2788802,-0.08662886,0.88151866,0.2837032,0.37740865,-0.24641116,0.9582857,-0.14481038,-0.4027485,0.034655355,0.9146544,,0.05503026,0.4438394,-0.3807359,0.8665716,0.45706314,-0.200367,-0.4980321,0.76637113,-0.40575776,-0.031901423,0.45140734,0.89174753,,0.8185324573390558,-0.08605441241748371,0.15336277361,0.637038048305985,0.1186004817964023,0.3042501949415263,0.8704605284295741,,-0.6229079109020748,-0.6847515557588646,0.12743308474,1.4489575094780633,0.22722649910992745,0.7895477897304615,0.8678470233714256,,-0.06956664232292899,-0.10060295974651816,0.09920539512,-0.034016912529394594,,3.7893653e-05,-1.4305115e-06,3.5762787e-07,0.99999994,-5.5223703e-05,-4.504621e-05,5.522743e-05,1.0,-5.066395e-06,4.505366e-05,5.0365925e-06,1.0,22,0.067,0,0,0.0
0.4630082960002255,10:41:32.652928,10:41:14.113300,0,,0.028177558,0.049734466,0.07493572,-0.86765546,-0.3692813,-0.332874,-0.49059308,0.7444623,0.4528734,0.08057451,0.5562437,-0.82710373,,0.14044592,-0.045065556,0.071412235,-0.74337393,-0.61686766,0.25859085,-0.4445621,0.7445169,0.49805516,-0.49975955,0.25528163,-0.82769084,,0.088903226,1.3423249,0.47697058,0.9960438,0.00271071,-0.08882207,-0.05391105,-0.77614856,-0.6282412,-0.0706421,0.63054425,-0.7729319,,-0.07264546,0.2788802,-0.08662886,0.88151866,0.2837032,0.37740865,-0.24641116,0.9582857,-0.14481038,-0.4027485,0.034655355,0.9146544,,0.05503026,0.4438394,-0.3807359,0.8665716,0.45706314,-0.200367,-0.4980321,0.76637113,-0.40575776,-0.031901423,0.45140734,0.89174753,,0.8185324573390558,-0.08605441241748371,0.15336277361,0.637038048305985,0.1186004817964023,0.3042501949415263,0.8704605284295741,,-0.6229079109020748,-0.6847515557588646,0.12743308474,1.4489575094780633,0.22722649910992745,0.7895477897304615,0.8678470233714256,,-0.06956664232292899,-0.10060295974651816,0.09920539512,-0.034016912529394594,,3.7893653e-05,-1.4305115e-06,3.5762787e-07,0.99999994,-5.5223703e-05,-4.504621e-05,5.522743e-05,1.0,-5.066395e-06,4.505366e-05,5.0365925e-06,1.0,23,0.07,0,0,0.0
0.4822336400002314,10:41:32.672308,10:41:14.113300,0,,0.028178537,0.04973405,0.07493533,-0.8676564,-0.3692846,-0.3328679,-0.49059218,0.74446446,0.4528709,0.0805701,0.5562387,-0.82710755,,0.14044592,-0.045065556,0.071412235,-0.74337393,-0.61686766,0.25859085,-0.4445621,0.7445169,0.49805516,-0.49975955,0.25528163,-0.82769084,,0.088903226,1.3423249,0.47697058,0.9960438,0.00271071,-0.08882207,-0.05391105,-0.77614856,-0.6282412,-0.0706421,0.63054425,-0.7729319,,-0.07264638,0.27887955,-0.08662881,0.8815199,0.2837068,0.37740305,-0.24641317,0.95828444,-0.14481527,-0.40274456,0.034660462,0.9146559,,0.05503026,0.4438394,-0.3807359,0.8665716,0.45706314,-0.200367,-0.4980321,0.76637113,-0.40575776,-0.031901423,0.45140734,0.89174753,,0.8185247346061816,-0.08605441241748371,0.15336277361,0.637038048305985,0.1186004817964023,0.3042501949415263,0.8704605284295741,,-0.6229079109020748,-0.6847515557588646,0.12743308474,1.4489575094780633,0.22722649910992745,0.7895477897304615,0.8678470233714256,,-0.06956664232292899,-0.10060295974651816,0.09920539512,-0.034016912529394594,,3.7893653e-05,-1.4305115e-06,3.5762787e-07,0.99999994,-5.5223703e-05,-4.504621e-05,5.522743e-05,1.0,-5.066395e-06,4.505366e-05,5.0365925e-06,1.0,24,0.073,0,0,0.0
0.5015966320006555,10:41:32.693694,10:41:14.113300,0,,0.028177558,0.049734466,0.07493572,-0.86765546,-0.3692813,-0.332874,-0.49059308,0.7444623,0.4528734,0.08057451,0.5562437,-0.82710373,,0.14044528,-0.045065735,0.07141188,-0.7433765,-0.6168674,0.2585842,-0.44456506,0.7445164,0.49805322,-0.49975312,0.25528353,-0.82769406,,0.088903226,1.3423249,0.47697058,0.9960438,0.00271071,-0.08882207,-0.05391105,-0.77614856,-0.6282412,-0.0706421,0.63054425,-0.7729319,,-0.07264546,0.2788802,-0.08662886,0.88151866,0.2837032,0.37740865,-0.24641116,0.9582857,-0.14481038,-0.4027485,0.034655355,0.9146544,,0.055030953,0.4438392,-0.38073587,0.8665736,0.45706266,-0.20035973,-0.4980283,0.7663723,-0.40576008,-0.03190762,0.45140576,0.89174813,,0.8185324573390558,-0.08605441241748371,0.15336277361,0.637038048305985,0.1186004817964023,0.3042501949415263,0.8704605284295741,,-0.6229001881692005,-0.6847515557588646,0.12743308474,1.4489575094780633,0.22722649910992745,0.7895477897304615,0.8678470233714256,,-0.06956664232292899,-0.10060295974651816,0.09920539512,-0.034016912529394594,,3.7893653e-05,-1.4305115e-06,3.5762787e-07,0.99999994,-5.5223703e-05,-4.504621e-05,5.522743e-05,1.0,-5.066395e-06,4.505366e-05,5.0365925e-06,1.0,25,0.076,0,0,0.0
0.52302412500012,10:41:32.711976,10:41:14.113300,0,,0.028177558,0.049734466,0.07493572,-0.86765546,-0.3692813,-0.332874,-0.49059308,0.7444623,0.4528734,0.08057451,0.5562437,-0.82710373,,0.14044592,-0.045065556,0.071412235,-0.74337393,-0.61686766,0.25859085,-0.4445621,0.7445169,0.49805516,-0.49975955,0.25528163,-0.82769084,,0.088903226,1.3423249,0.47697058,0.9960438,0.00271071,-0.08882207,-0.05391105,-0.77614856,-0.6282412,-0.0706421,0.63054425,-0.7729319,,-0.07264546,0.2788802,-0.08662886,0.88151866,0.2837032,0.37740865,-0.24641116,0.9582857,-0.14481038,-0.4027485,0.034655355,0.9146544,,0.05503026,0.4438394,-0.3807359,0.8665716,0.45706314,-0.200367,-0.4980321,0.76637113,-0.40575776,-0.031901423,0.45140734,0.89174753,,0.8185324573390558,-0.08605441241748371,0.15336277361,0.637038048305985,0.1186004817964023,0.3042501949415263,0.8704605284295741,,-0.6229079109020748,-0.6847515557588646,0.12743308474,1.4489575094780633,0.22722649910992745,0.7895477897304615,0.8678470233714256,,-0.06956664232292899,-0.10060295974651816,0.09920539512,-0.034016912529394594,,3.7893653e-05,-1.4305115e-06,3.5762787e-07,0.99999994,-5.5223703e-05,-4.504621e-05,5.522743e-05,1.0,-5.066395e-06,4.505366e-05,5.0365925e-06,1.0,26,0.079,0,0,0.0
0.5413150280000991,10:41:32.731421,10:41:14.113300,0,,0.028177558,0.049734466,0.07493572,-0.86765546,-0.3692813,-0.332874,-0.49059308,0.7444623,0.4528734,0.08057451,0.5562437,-0.82710373,,0.14044528,-0.045065735,0.07141188,-0.7433765,-0.6168674,0.2585842,-0.44456506,0.7445164,0.49805322,-0.49975312,0.25528353,-0.82769406,,0.088903226,1.3423249,0.47697058,0.9960438,0.00271071,-0.08882207,-0.05391105,-0.77614856,-0.6282412,-0.0706421,0.63054425,-0.7729319,,-0.07264546,0.2788802,-0.08662886,0.88151866,0.2837032,0.37740865,-0.24641116,0.9582857,-0.14481038,-0.4027485,0.034655355,0.9146544,,0.055030953,0.4438392,-0.38073587,0.8665736,0.45706266,-0.20035973,-0.4980283,0.7663723,-0.40576008,-0.03190762,0.45140576,0.89174813,,0.8185324573390558,-0.08605441241748371,0.15336277361,0.637038048305985,0.1186004817964023,0.3042501949415263,0.8704605284295741,,-0.6229001881692005,-0.6847515557588646,0.12743308474,1.4489575094780633,0.22722649910992745,0.7895477897304615,0.8678470233714256,,-0.06956664232292899,-0.10060295974651816,0.09920539512,-0.034016912529394594,,3.7893653e-05,-1.4305115e-06,3.5762787e-07,0.99999994,-5.5223703e-05,-4.504621e-05,5.522743e-05,1.0,-5.066395e-06,4.505366e-05,5.0365925e-06,1.0,27,0.081,0,0,0.0
0.5607371169999169,10:41:32.747106,10:41:14.113300,0,,0.028177558,0.049734466,0.07493572,-0.86765546,-0.3692813,-0.332874,-0.49059308,0.7444623,0.4528734,0.08057451,0.5562437,-0.82710373,,0.14044592,-0.045065556,0.071412235,-0.74337393,-0.61686766,0.25859085,-0.4445621,0.7445169,0.49805516,-0.49975955,0.25528163,-0.82769084,,0.088903226,1.3423249,0.47697058,0.9960438,0.00271071,-0.08882207,-0.05391105,-0.77614856,-0.6282412,-0.0706421,0.63054425,-0.7729319,,-0.07264546,0.2788802,-0.08662886,0.88151866,0.2837032,0.37740865,-0.24641116,0.9582857,-0.14481038,-0.4027485,0.034655355,0.9146544,,0.05503026,0.4438394,-0.3807359,0.8665716,0.45706314,-0.200367,-0.4980321,0.76637113,-0.40575776,-0.031901423,0.45140734,0.89174753,,0.8185324573390558,-0.08605441241748371,0.15336277361,0.637038048305985,0.1186004817964023,0.3042501949415263,0.8704605284295741,,-0.6229079109020748,-0.6847515557588646,0.12743308474,1.4489575094780633,0.22722649910992745,0.7895477897304615,0.8678470233714256,,-0.06956664232292899,-0.10060295974651816,0.09920539512,-0.034016912529394594,,3.7893653e-05,-1.4305115e-06,3.5762787e-07,0.99999994,-5.5223703e-05,-4.504621e-05,5.522743e-05,1.0,-5.066395e-06,4.505366e-05,5.0365925e-06,1.0,28,0.084,0,0,0.0
0.5764407560000109,10:41:32.765099,10:41:14.113300,0,,0.028177558,0.049734466,0.07493572,-0.86765546,-0.3692813,-0.332874,-0.49059308,0.7444623,0.4528734,0.08057451,0.5562437,-0.82710373,,0.14044592,-0.045065556,0.071412235,-0.74337393,-0.61686766,0.25859085,-0.4445621,0.7445169,0.49805516,-0.49975955,0.25528163,-0.82769084,,0.088903226,1.3423249,0.47697058,0.9960438,0.00271071,-0.08882207,-0.05391105,-0.77614856,-0.6282412,-0.0706421,0.63054425,-0.7729319,,-0.07264546,0.2788802,-0.08662886,0.88151866,0.2837032,0.37740865,-0.24641116,0.9582857,-0.14481038,-0.4027485,0.034655355,0.9146544,,0.05503026,0.4438394,-0.3807359,0.8665716,0.45706314,-0.200367,-0.4980321,0.76637113,-0.40575776,-0.031901423,0.45140734,0.89174753,,0.8185324573390558,-0.08605441241748371,0.15336277361,0.637038048305985,0.1186004817964023,0.3042501949415263,0.8704605284295741,,-0.6229079109020748,-0.6847515557588646,0.12743308474,1.4489575094780633,0.22722649910992745,0.7895477897304615,0.8678470233714256,,-0.06956664232292899,-0.10060295974651816,0.09920539512,-0.034016912529394594,,3.7893653e-05,-1.4305115e-06,3.5762787e-07,0.99999994,-5.5223703e-05,-4.504621e-05,5.522743e-05,1.0,-5.066395e-06,4.505366e-05,5.0365925e-06,1.0,29,0.087,0,0,0.0
0.5939739360001113,10:41:32.781461,10:41:14.113300,0,,0.028179506,0.049733616,0.074934945,-0.86765736,-0.3692879,-0.3328618,-0.4905913,0.7444666,0.45286843,0.08056572,0.5562337,-0.82711136,,0.14044592,-0.045065556,0.071412235,-0.74337393,-0.61686766,0.25859085,-0.4445621,0.7445169,0.49805516,-0.49975955,0.25528163,-0.82769084,,0.088903226,1.3423249,0.47697058,0.9960438,0.00271071,-0.08882207,-0.05391105,-0.77614856,-0.6282412,-0.0706421,0.63054425,-0.7729319,,-0.072647296,0.2788789,-0.08662876,0.88152117,0.28371045,0.37739745,-0.24641518,0.9582832,-0.14482015,-0.40274063,0.034665573,0.9146575,,0.05503026,0.4438394,-0.3807359,0.8665716,0.45706314,-0.200367,-0.4980321,0.76637113,-0.40575776,-0.031901423,0.45140734,0.89174753,,0.8185170118733074,-0.08605441241748371,0.15336277361,0.637038048305985,0.1186004817964023,0.3042501949415263,0.8704605284295741,,-0.6229079109020748,-0.6847515557588646,0.12743308474,1.4489575094780633,0.22722649910992745,0.7895477897304615,0.8678470233714256,,-0.06956664232292899,-0.10060295974651816,0.09920539512,-0.034016912529394594,,3.7893653e-05,-1.4305115e-06,3.5762787e-07,0.99999994,-5.5223703e-05,-4.504621e-05,5.522743e-05,1.0,-5.066395e-06,4.505366e-05,5.0365925e-06,1.0,30,0.09,0,0,0.0
0.6107989070005715,10:41:32.798501,10:41:14.113300,0,,0.028179506,0.049733616,0.074934945,-0.86765736,-0.3692879,-0.3328618,-0.4905913,0.7444666,0.45286843,0.08056572,0.5562337,-0.82711136,,0.14044592,-0.045065556,0.071412235,-0.74337393,-0.61686766,0.25859085,-0.4445621,0.7445169,0.49805516,-0.49975955,0.25528163,-0.82769084,,0.088903226,1.3423249,0.47697058,0.9960438,0.00271071,-0.08882207,-0.05391105,-0.77614856,-0.6282412,-0.0706421,0.63054425,-0.7729319,,-0.072647296,0.2788789,-0.08662876,0.88152117,0.28371045,0.37739745,-0.24641518,0.9582832,-0.14482015,-0.40274063,0.034665573,0.9146575,,0.05503026,0.4438394,-0.3807359,0.8665716,0.45706314,-0.200367,-0.4980321,0.76637113,-0.40575776,-0.031901423,0.45140734,0.89174753,,0.8185170118733074,-0.08605441241748371,0.15336277361,0.637038048305985,0.1186004817964023,0.3042501949415263,0.8704605284295741,,-0.6229079109020748,-0.6847515557588646,0.12743308474,1.4489575094780633,0.22722649910992745,0.7895477897304615,0.8678470233714256,,-0.06956664232292899,-0.10060295974651816,0.09920539512,-0.034016912529394594,,3.7893653e-05,-1.4305115e-06,3.5762787e-07,0.99999994,-5.5223703e-05,-4.504621e-05,5.522743e-05,1.0,-5.066395e-06,4.505366e-05,5.0365925e-06,1.0,31,0.093,0,0,0.0
0.6278299149998929,10:41:32.819801,10:41:14.113300,0,,0.028178023,0.04973551,0.07493575,-0.86765707,-0.36928093,-0.33287036,-0.4905913,0.7444597,0.45287982,0.08056873,0.55624765,-0.8271017,,0.14044592,-0.045065556,0.071412235,-0.74337393,-0.61686766,0.25859085,-0.4445621,0.7445169,0.49805516,-0.49975955,0.25528163,-0.82769084,,0.088903226,1.3423249,0.47697058,0.9960438,0.00271071,-0.08882207,-0.05391105,-0.77614856,-0.6282412,-0.0706421,0.63054425,-0.7729319,,-0.07264598,0.27888098,-0.086628206,0.8815206,0.28370267,0.37740457,-0.24641332,0.95828605,-0.14480451,-0.40274295,0.034650642,0.914657,,0.05503026,0.4438394,-0.3807359,0.8665716,0.45706314,-0.200367,-0.4980321,0.76637113,-0.40575776,-0.031901423,0.45140734,0.89174753,,0.8185324573390558,-0.08604668968460949,0.15336277361,0.637038048305985,0.1186004817964023,0.3042501949415263,0.8704605284295741,,-0.6229079109020748,-0.6847515557588646,0.12743308474,1.4489575094780633,0.22722649910992745,0.7895477897304615,0.8678470233714256,,-0.06956664232292899,-0.10060295974651816,0.09920539512,-0.034016912529394594,,3.7893653e-05,-1.4305115e-06,3.5762787e-07,0.99999994,-5.5223703e-05,-4.504621e-05,5.522743e-05,1.0,-5.066395e-06,4.505366e-05,5.0365925e-06,1.0,32,0.097,0,0,0.0
0.6491116060005879,10:41:32.839103,10:41:14.113300,0,,0.028178023,0.04973551,0.07493575,-0.86765707,-0.36928093,-0.33287036,-0.4905913,0.7444597,0.45287982,0.08056873,0.55624765,-0.8271017,,0.14044528,-0.045065735,0.07141188,-0.7433765,-0.6168885,0.2585338,-0.44456506,0.7444757,0.4981141,-0.49975312,0.25535116,-0.82767326,,0.088903226,1.3423249,0.47697058,0.9960438,0.00271071,-0.08882207,-0.05391105,-0.77614856,-0.6282412,-0.0706421,0.63054425,-0.7729319,,-0.07264598,0.27888098,-0.086628206,0.8815206,0.28370267,0.37740457,-0.24641332,0.95828605,-0.14480451,-0.40274295,0.034650642,0.914657,,0.055030953,0.4438392,-0.38073587,0.8665736,0.45707902,-0.2003224,-0.4980283,0.76640546,-0.40569746,-0.03190762,0.45133293,0.891785,,0.8185324573390558,-0.08604668968460949,0.15336277361,0.637038048305985,0.1186004817964023,0.3042501949415263,0.8704605284295741,,-0.6229001881692005,-0.6847515557588646,0.12743308474,1.4489575094780633,0.22722649910992745,0.789629468470602,0.8676836793052913,,-0.06956664232292899,-0.10060295974651816,0.09920539512,-0.034016912529394594,,3.7893653e-05,-1.4305115e-06,3.5762787e-07,0.99999994,-5.5223703e-05,-4.504621e-05,5.522743e-05,1.0,-5.066395e-06,4.505366e-05,5.0365925e-06,1.0,33,0.1,0,0,0.0
0.668410302000666,10:41:32.863437,10:41:14.113300,0,,0.028178537,0.04973405,0.07493533,-0.8676564,-0.3692846,-0.3328679,-0.49059218,0.74446446,0.4528709,0.0805701,0.5562387,-0.82710755,,0.14044528,-0.045065735,0.07141188,-0.7433765,-0.6169097,0.25848344,-0.44456506,0.7444351,0.49817482,-0.49975312,0.25541875,-0.8276524,,0.088903226,1.3423249,0.47697058,0.9960438,0.00271071,-0.08882207,-0.05391105,-0.77614856,-0.6282412,-0.0706421,0.63054425,-0.7729319,,-0.07264638,0.27887955,-0.08662881,0.8815199,0.2837068,0.37740305,-0.24641317,0.95828444,-0.14481527,-0.40274456,0.034660462,0.9146559,,0.055030953,0.4438392,-0.38073587,0.8665736,0.45709538,-0.20028506,-0.4980283,0.7664386,-0.40563488,-0.03190762,0.4512601,0.89182186,,0.8185247346061816,-0.08605441241748371,0.15336277361,0.637038048305985,0.1186004817964023,0.3042501949415263,0.8704605284295741,,-0.6229001881692005,-0.6847515557588646,0.12743308474,1.4489575094780633,0.22722649910992745,0.7897111472107425,0.8675203352391571,,-0.06956664232292899,-0.10060295974651816,0.09920539512,-0.034016912529394594,,3.7893653e-05,-1.4305115e-06,3.5762787e-07,0.99999994,-5.5223703e-05,-4.504621e-05,5.522743e-05,1.0,-5.066395e-06,4.505366e-05,5.0365925e-06,1.0,34,0.103,0,0,0.0
0.6927754759999516,10:41:32.878570,10:41:14.113300,0,,0.028177558,0.049734466,0.07493572,-0.86765546,-0.3692813,-0.332874,-0.49059308,0.7444623,0.4528734,0.08057451,0.5562437,-0.82710373,,0.14044528,-0.045065735,0.07141188,-0.7433765,-0.6169097,0.25848344,-0.44456506,0.7444351,0.49817482,-0.49975312,0.25541875,-0.8276524,,0.088903226,1.3423249,0.47697058,0.9960438,0.00271071,-0.08882207,-0.05391105,-0.77614856,-0.6282412,-0.0706421,0.63054425,-0.7729319,,-0.07264546,0.2788802,-0.08662886,0.88151866,0.2837032,0.37740865,-0.24641116,0.9582857,-0.14481038,-0.4027485,0.034655355,0.9146544,,0.055030953,0.4438392,-0.38073587,0.8665736,0.45709538,-0.20028506,-0.4980283,0.7664386,-0.40563488,-0.03190762,0.4512601,0.89182186,,0.8185324573390558,-0.08605441241748371,0.15336277361,0.637038048305985,0.1186004817964023,0.3042501949415263,0.8704605284295741,,-0.6229001881692005,-0.6847515557588646,0.12743308474,1.4489575094780633,0.22722649910992745,0.7897111472107425,0.8675203352391571,,-0.06956664232292899,-0.10060295974651816,0.09920539512,-0.034016912529394594,,3.7893653e-05,-1.4305115e-06,3.5762787e-07,0.99999994,-5.5223703e-05,-4.504621e-05,5.522743e-05,1.0,-5.066395e-06,4.505366e-05,5.0365925e-06,1.0,35,0.106,0,0,0.0
0.7078974590003781,10:41:32.896984,10:41:14.113300,0,,0.028178537,0.04973405,0.07493533,-0.8676564,-0.3692846,-0.3328679,-0.49059218,0.74446446,0.4528709,0.0805701,0.5562387,-0.82710755,,0.14044592,-0.045065556,0.071412235,-0.74337393,-0.6169099,0.2584901,-0.4445621,0.74443555,0.4981768,-0.49975955,0.2554168,-0.8276491,,0.088903226,1.3423249,0.47697058,0.9960438,0.00271071,-0.08882207,-0.05391105,-0.77614856,-0.6282412,-0.0706421,0.63054425,-0.7729319,,-0.07264638,0.27887955,-0.08662881,0.8815199,0.2837068,0.37740305,-0.24641317,0.95828444,-0.14481527,-0.40274456,0.034660462,0.9146559,,0.05503026,0.4438394,-0.3807359,0.8665716,0.45709586,-0.20029235,-0.4980321,0.7664374,-0.40563256,-0.031901423,0.45126167,0.89182127,,0.8185247346061816,-0.08605441241748371,0.15336277361,0.637038048305985,0.1186004817964023,0.3042501949415263,0.8704605284295741,,-0.6229079109020748,-0.6847515557588646,0.12743308474,1.4489575094780633,0.22722649910992745,0.7897111472107425,0.8675203352391571,,-0.06956664232292899,-0.10060295974651816,0.09920539512,-0.034016912529394594,,3.7893653e-05,-1.4305115e-06,3.5762787e-07,0.99999994,-5.5223703e-05,-4.504621e-05,5.522743e-05,1.0,-5.066395e-06,4.505366e-05,5.0365925e-06,1.0,36,0.109,0,0,0.0
0.7262995340006455,10:41:32.914759,10:41:14.113300,0,,0.028179972,0.04973463,0.074934974,-0.86765885,-0.36928758,-0.33285826,-0.49058956,0.74446386,0.45287484,0.080559924,0.55623764,-0.82710934,,0.14044592,-0.045065556,0.071412235,-0.74337393,-0.6169099,0.2584901,-0.4445621,0.74443555,0.4981768,-0.49975955,0.2554168,-0.8276491,,0.088903226,1.3423249,0.47697058,0.9960438,0.00271071,-0.08882207,-0.05391105,-0.77614856,-0.6282412,-0.0706421,0.63054425,-0.7729319,,-0.07264781,0.27887964,-0.086628094,0.8815231,0.2837099,0.3773934,-0.24641734,0.95828354,-0.14481428,-0.4027351,0.03466086,0.9146601,,0.05503026,0.4438394,-0.3807359,0.8665716,0.45709586,-0.20029235,-0.4980321,0.7664374,-0.40563256,-0.031901423,0.45126167,0.89182127,,0.8185170118733074,-0.08604668968460949,0.15336277361,0.637038048305985,0.1186004817964023,0.3042501949415263,0.8704605284295741,,-0.6229079109020748,-0.6847515557588646,0.12743308474,1.4489575094780633,0.22722649910992745,0.7897111472107425,0.8675203352391571,,-0.06956664232292899,-0.10060295974651816,0.09920539512,-0.034016912529394594,,3.7893653e-05,-1.4305115e-06,3.5762787e-07,0.99999994,-5.5223703e-05,-4.504621e-05,5.522743e-05,1.0,-5.066395e-06,4.505366e-05,5.0365925e-06,1.0,37,0.112,0,0,0.0
0.7440843410004163,10:41:32.933054,10:41:14.113300,0,,0.028179506,0.049733616,0.074934945,-0.86765736,-0.3692879,-0.3328618,-0.4905913,0.7444666,0.45286843,0.08056572,0.5562337,-0.82711136,,0.14044592,-0.045065556,0.071412235,-0.74337393,-0.6169099,0.2584901,-0.4445621,0.74443555,0.4981768,-0.49975955,0.2554168,-0.8276491,,0.088903226,1.3423249,0.47697058,0.9960438,0.00271071,-0.08882207,-0.05391105,-0.77614856,-0.6282412,-0.0706421,0.63054425,-0.7729319,,-0.072647296,0.2788789,-0.08662876,0.88152117,0.28371045,0.37739745,-0.24641518,0.9582832,-0.14482015,-0.40274063,0.034665573,0.9146575,,0.05503026,0.4438394,-0.3807359,0.8665716,0.45709586,-0.20029235,-0.4980321,0.7664374,-0.40563256,-0.031901423,0.45126167,0.89182127,,0.8185170118733074,-0.08605441241748371,0.15336277361,0.637038048305985,0.1186004817964023,0.3042501949415263,0.8704605284295741,,-0.6229079109020748,-0.6847515557588646,0.12743308474,1.4489575094780633,0.22722649910992745,0.7897111472107425,0.8675203352391571,,-0.06956664232292899,-0.10060295974651816,0.09920539512,-0.034016912529394594,,3.7893653e-05,-1.4305115e-06,3.5762787e-07,0.99999994,-5.5223703e-05,-4.504621e-05,5.522743e-05,1.0,-5.066395e-06,4.505366e-05,5.0365925e-06,1.0,38,0.115,0,0,0.0
0.7623908470004608,10:41:32.948647,10:41:14.113300,0,,0.028177558,0.049734466,0.07493572,-0.86765546,-0.3692813,-0.332874,-0.49059308,0.7444623,0.4528734,0.08057451,0.5562437,-0.82710373,,0.14044592,-0.045065556,0.071412235,-0.74337393,-0.6169099,0.2584901,-0.4445621,0.74443555,0.4981768,-0.49975955,0.2554168,-0.8276491,,0.088903226,1.3423249,0.47697058,0.9960438,0.00271071,-0.08882207,-0.05391105,-0.77614856,-0.6282412,-0.0706421,0.63054425,-0.7729319,,-0.07264546,0.2788802,-0.08662886,0.88151866,0.2837032,0.37740865,-0.24641116,0.9582857,-0.14481038,-0.4027485,0.034655355,0.9146544,,0.05503026,0.4438394,-0.3807359,0.8665716,0.45709586,-0.20029235,-0.4980321,0.7664374,-0.40563256,-0.031901423,0.45126167,0.89182127,,0.8185324573390558,-0.08605441241748371,0.15336277361,0.637038048305985,0.1186004817964023,0.3042501949415263,0.8704605284295741,,-0.6229079109020748,-0.6847515557588646,0.12743308474,1.4489575094780633,0.22722649910992745,0.7897111472107425,0.8675203352391571,,-0.06956664232292899,-0.10060295974651816,0.09920539512,-0.034016912529394594,,3.7893653e-05,-1.4305115e-06,3.5762787e-07,0.99999994,-5.5223703e-05,-4.504621e-05,5.522743e-05,1.0,-5.066395e-06,4.505366e-05,5.0365925e-06,1.0,39,0.118,0,0,0.0
0.7779853510000976,10:41:32.969723,10:41:14.113300,0,,0.028177558,0.049734466,0.07493572,-0.86765546,-0.3692813,-0.332874,-0.49059308,0.7444623,0.4528734,0.08057451,0.5562437,-0.82710373,,0.14044592,-0.045065556,0.071412235,-0.74337393,-0.6169099,0.2584901,-0.4445621,0.74443555,0.4981768,-0.49975955,0.2554168,-0.8276491,,0.088903226,1.3423249,0.47697058,0.9960438,0.00271071,-0.08882207,-0.05391105,-0.77614856,-0.6282412,-0.0706421,0.63054425,-0.7729319,,-0.07264546,0.2788802,-0.08662886,0.88151866,0.2837032,0.37740865,-0.24641116,0.9582857,-0.14481038,-0.4027485,0.034655355,0.9146544,,0.05503026,0.4438394,-0.3807359,0.8665716,0.45709586,-0.20029235,-0.4980321,0.7664374,-0.40563256,-0.031901423,0.45126167,0.89182127,,0.8185324573390558,-0.08605441241748371,0.15336277361,0.637038048305985,0.1186004817964023,0.3042501949415263,0.8704605284295741,,-0.6229079109020748,-0.6847515557588646,0.12743308474,1.4489575094780633,0.22722649910992745,0.7897111472107425,0.8675203352391571,,-0.06956664232292899,-0.10060295974651816,0.09920539512,-0.034016912529394594,,3.7893653e-05,-1.4305115e-06,3.5762787e-07,0.99999994,-5.5223703e-05,-4.504621e-05,5.522743e-05,1.0,-5.066395e-06,4.505366e-05,5.0365925e-06,1.0,40,0.121,0,0,0.0
0.7989790810006525,10:41:32.989755,10:41:14.113300,0,,0.028178537,0.04973405,0.07493533,-0.8676564,-0.3692846,-0.3328679,-0.49059218,0.74446446,0.4528709,0.0805701,0.5562387,-0.82710755,,0.14044592,-0.045065556,0.071412235,-0.74337393,-0.6169099,0.2584901,-0.4445621,0.74443555,0.4981768,-0.49975955,0.2554168,-0.8276491,,0.088903226,1.3423249,0.47697058,0.9960438,0.00271071,-0.08882207,-0.05391105,-0.77614856,-0.6282412,-0.0706421,0.63054425,-0.7729319,,-0.07264638,0.27887955,-0.08662881,0.8815199,0.2837068,0.37740305,-0.24641317,0.95828444,-0.14481527,-0.40274456,0.034660462,0.9146559,,0.05503026,0.4438394,-0.3807359,0.8665716,0.45709586,-0.20029235,-0.4980321,0.7664374,-0.40563256,-0.031901423,0.45126167,0.89182127,,0.8185247346061816,-0.08605441241748371,0.15336277361,0.637038048305985,0.1186004817964023,0.3042501949415263,0.8704605284295741,,-0.6229079109020748,-0.6847515557588646,0.12743308474,1.4489575094780633,0.22722649910992745,0.7897111472107425,0.8675203352391571,,-0.06956664232292899,-0.10060295974651816,0.09920539512,-0.034016912529394594,,3.7893653e-05,-1.4305115e-06,3.5762787e-07,0.99999994,-5.5223703e-05,-4.504621e-05,5.522743e-05,1.0,-5.066395e-06,4.505366e-05,5.0365925e-06,1.0,41,0.124,0,0,0.0
0.8190739190004024,10:41:33.011423,10:41:14.113300,0,,0.028178537,0.04973405,0.07493533,-0.8676564,-0.3692846,-0.3328679,-0.49059218,0.74446446,0.4528709,0.0805701,0.5562387,-0.82710755,,0.14044592,-0.045065556,0.071412235,-0.74337393,-0.6169099,0.2584901,-0.4445621,0.74443555,0.4981768,-0.49975955,0.2554168,-0.8276491,,0.088903226,1.3423249,0.47697058,0.9960438,0.00271071,-0.08882207,-0.05391105,-0.77614856,-0.6282412,-0.0706421,0.63054425,-0.7729319,,-0.07264638,0.27887955,-0.08662881,0.8815199,0.2837068,0.37740305,-0.24641317,0.95828444,-0.14481527,-0.40274456,0.034660462,0.9146559,,0.05503026,0.4438394,-0.3807359,0.8665716,0.45709586,-0.20029235,-0.4980321,0.7664374,-0.40563256,-0.031901423,0.45126167,0.89182127,,0.8185247346061816,-0.08605441241748371,0.15336277361,0.637038048305985,0.1186004817964023,0.3042501949415263,0.8704605284295741,,-0.6229079109020748,-0.6847515557588646,0.12743308474,1.4489575094780633,0.22722649910992745,0.7897111472107425,0.8675203352391571,,-0.06956664232292899,-0.10060295974651816,0.09920539512,-0.034016912529394594,,3.7893653e-05,-1.4305115e-06,3.5762787e-07,0.99999994,-5.5223703e-05,-4.504621e-05,5.522743e-05,1.0,-5.066395e-06,4.505366e-05,5.0365925e-06,1.0,42,0.127,0,0,0.0
0.8407479859997693,10:41:33.031843,10:41:14.113300,0,,0.028178992,0.04973509,0.07493536,-0.86765796,-0.36928424,-0.3328643,-0.49059045,0.7444618,0.45287728,0.08056435,0.55624264,-0.8271055,,0.14044592,-0.045065556,0.071412235,-0.74337393,-0.6169099,0.2584901,-0.4445621,0.74443555,0.4981768,-0.49975955,0.2554168,-0.8276491,,0.088903226,1.3423249,0.47697058,0.9960438,0.00271071,-0.08882207,-0.05391105,-0.77614856,-0.6282412,-0.0706421,0.63054425,-0.7729319,,-0.07264689,0.27888033,-0.086628154,0.8815218,0.28370628,0.377399,-0.24641533,0.9582848,-0.1448094,-0.40273905,0.03465575,0.91465855,,0.05503026,0.4438394,-0.3807359,0.8665716,0.45709586,-0.20029235,-0.4980321,0.7664374,-0.40563256,-0.031901423,0.45126167,0.89182127,,0.8185247346061816,-0.08605441241748371,0.15336277361,0.637038048305985,0.1186004817964023,0.3042501949415263,0.8704605284295741,,-0.6229079109020748,-0.6847515557588646,0.12743308474,1.4489575094780633,0.22722649910992745,0.7897111472107425,0.8675203352391571,,-0.06956664232292899,-0.10060295974651816,0.09920539512,-0.034016912529394594,,3.7893653e-05,-1.4305115e-06,3.5762787e-07,0.99999994,-5.5223703e-05,-4.504621e-05,5.522743e-05,1.0,-5.066395e-06,4.505366e-05,5.0365925e-06,1.0,43,0.13,0,0,0.0
0.8611455740001475,10:41:33.056607,10:41:14.113300,0,,0.028179506,0.049733616,0.074934945,-0.86765736,-0.3692879,-0.3328618,-0.4905913,0.7444666,0.45286843,0.08056572,0.5562337,-0.82711136,,0.14044592,-0.045065556,0.071412235,-0.74337393,-0.6169099,0.2584901,-0.4445621,0.74443555,0.4981768,-0.49975955,0.2554168,-0.8276491,,0.088903226,1.3423249,0.47697058,0.9960438,0.00271071,-0.08882207,-0.05391105,-0.77614856,-0.6282412,-0.0706421,0.63054425,-0.7729319,,-0.072647296,0.2788789,-0.08662876,0.88152117,0.28371045,0.37739745,-0.24641518,0.9582832,-0.14482015,-0.40274063,0.034665573,0.9146575,,0.05503026,0.4438394,-0.3807359,0.8665716,0.45709586,-0.20029235,-0.4980321,0.7664374,-0.40563256,-0.031901423,0.45126167,0.89182127,,0.8185170118733074,-0.08605441241748371,0.15336277361,0.637038048305985,0.1186004817964023,0.3042501949415263,0.8704605284295741,,-0.6229079109020748,-0.6847515557588646,0.12743308474,1.4489575094780633,0.22722649910992745,0.7897111472107425,0.8675203352391571,,-0.06956664232292899,-0.10060295974651816,0.09920539512,-0.034016912529394594,,3.7893653e-05,-1.4305115e-06,3.5762787e-07,0.99999994,-5.5223703e-05,-4.504621e-05,5.522743e-05,1.0,-5.066395e-06,4.505366e-05,5.0365925e-06,1.0,44,0.133,0,0,0.0
0.8858776349998152,10:41:33.070465,10:41:14.113300,0,,0.028179506,0.049733616,0.074934945,-0.86765736,-0.3692879,-0.3328618,-0.4905913,0.7444666,0.45286843,0.08056572,0.5562337,-0.82711136,,0.14044592,-0.045065556,0.071412235,-0.74337393,-0.6169099,0.2584901,-0.4445621,0.74443555,0.4981768,-0.49975955,0.2554168,-0.8276491,,0.088903226,1.3423249,0.47697058,0.9960438,0.00271071,-0.08882207,-0.05391105,-0.77614856,-0.6282412,-0.0706421,0.63054425,-0.7729319,,-0.072647296,0.2788789,-0.08662876,0.88152117,0.28371045,0.37739745,-0.24641518,0.9582832,-0.14482015,-0.40274063,0.034665573,0.9146575,,0.05503026,0.4438394,-0.3807359,0.8665716,0.45709586,-0.20029235,-0.4980321,0.7664374,-0.40563256,-0.031901423,0.45126167,0.89182127,,0.8185170118733074,-0.08605441241748371,0.15336277361,0.637038048305985,0.1186004817964023,0.3042501949415263,0.8704605284295741,,-0.6229079109020748,-0.6847515557588646,0.12743308474,1.4489575094780633,0.22722649910992745,0.7897111472107425,0.8675203352391571,,-0.06956664232292899,-0.10060295974651816,0.09920539512,-0.034016912529394594,,3.7893653e-05,-1.4305115e-06,3.5762787e-07,0.99999994,-5.5223703e-05,-4.504621e-05,5.522743e-05,1.0,-5.066395e-06,4.505366e-05,5.0365925e-06,1.0,45,0.136,0,0,0.0
0.8997666180002852,10:41:33.085709,10:41:14.113300,0,,0.028179506,0.049733616,0.074934945,-0.86765736,-0.3692879,-0.3328618,-0.4905913,0.7444666,0.45286843,0.08056572,0.5562337,-0.82711136,,0.14044592,-0.045065556,0.071412235,-0.74337393,-0.6169099,0.2584901,-0.4445621,0.74443555,0.4981768,-0.49975955,0.2554168,-0.8276491,,0.088903226,1.3423249,0.47697058,0.9960438,0.00271071,-0.08882207,-0.05391105,-0.77614856,-0.6282412,-0.0706421,0.63054425,-0.7729319,,-0.072647296,0.2788789,-0.08662876,0.88152117,0.28371045,0.37739745,-0.24641518,0.9582832,-0.14482015,-0.40274063,0.034665573,0.9146575,,0.05503026,0.4438394,-0.3807359,0.8665716,0.45709586,-0.20029235,-0.4980321,0.7664374,-0.40563256,-0.031901423,0.45126167,0.89182127,,0.8185170118733074,-0.08605441241748371,0.15336277361,0.637038048305985,0.1186004817964023,0.3042501949415263,0.8704605284295741,,-0.6229079109020748,-0.6847515557588646,0.12743308474,1.4489575094780633,0.22722649910992745,0.7897111472107425,0.8675203352391571,,-0.06956664232292899,-0.10060295974651816,0.09920539512,-0.034016912529394594,,3.7893653e-05,-1.4305115e-06,3.5762787e-07,0.99999994,-5.5223703e-05,-4.504621e-05,5.522743e-05,1.0,-5.066395e-06,4.505366e-05,5.0365925e-06,1.0,46,0.139,0,0,0.0
0.9149662290001288,10:41:33.108467,10:41:14.113300,0,,0.028179506,0.049733616,0.074934945,-0.86765736,-0.3692879,-0.3328618,-0.4905913,0.7444666,0.45286843,0.08056572,0.5562337,-0.82711136,,0.14044592,-0.045065556,0.071412235,-0.74337393,-0.6169099,0.2584901,-0.4445621,0.74443555,0.4981768,-0.49975955,0.2554168,-0.8276491,,0.088903226,1.3423249,0.47697058,0.9960438,0.00271071,-0.08882207,-0.05391105,-0.77614856,-0.6282412,-0.0706421,0.63054425,-0.7729319,,-0.072647296,0.2788789,-0.08662876,0.88152117,0.28371045,0.37739745,-0.24641518,0.9582832,-0.14482015,-0.40274063,0.034665573,0.9146575,,0.05503026,0.4438394,-0.3807359,0.8665716,0.45709586,-0.20029235,-0.4980321,0.7664374,-0.40563256,-0.031901423,0.45126167,0.89182127,,0.8185170118733074,-0.08605441241748371,0.15336277361,0.637038048305985,0.1186004817964023,0.3042501949415263,0.8704605284295741,,-0.6229079109020748,-0.6847515557588646,0.12743308474,1.4489575094780633,0.22722649910992745,0.7897111472107425,0.8675203352391571,,-0.06956664232292899,-0.10060295974651816,0.09920539512,-0.034016912529394594,,3.7893653e-05,-1.4305115e-06,3.5762787e-07,0.99999994,-5.5223703e-05,-4.504621e-05,5.522743e-05,1.0,-5.066395e-06,4.505366e-05,5.0365925e-06,1.0,47,0.142,0,0,0.0
0.9377542649999668,10:41:33.122038,10:41:14.113300,0,,0.028178537,0.04973405,0.07493533,-0.8676564,-0.3692846,-0.3328679,-0.49059218,0.74446446,0.4528709,0.0805701,0.5562387,-0.82710755,,0.14044592,-0.045065556,0.071412235,-0.74337393,-0.6169099,0.2584901,-0.4445621,0.74443555,0.4981768,-0.49975955,0.2554168,-0.8276491,,0.088903226,1.3423249,0.47697058,0.9960438,0.00271071,-0.08882207,-0.05391105,-0.77614856,-0.6282412,-0.0706421,0.63054425,-0.7729319,,-0.07264638,0.27887955,-0.08662881,0.8815199,0.2837068,0.37740305,-0.24641317,0.95828444,-0.14481527,-0.40274456,0.034660462,0.9146559,,0.05503026,0.4438394,-0.3807359,0.8665716,0.45709586,-0.20029235,-0.4980321,0.7664374,-0.40563256,-0.031901423,0.45126167,0.89182127,,0.8185247346061816,-0.08605441241748371,0.15336277361,0.637038048305985,0.1186004817964023,0.3042501949415263,0.8704605284295741,,-0.6229079109020748,-0.6847515557588646,0.12743308474,1.4489575094780633,0.22722649910992745,0.7897111472107425,0.8675203352391571,,-0.06956664232292899,-0.10060295974651816,0.09920539512,-0.034016912529394594,,3.7893653e-05,-1.4305115e-06,3.5762787e-07,0.99999994,-5.5223703e-05,-4.504621e-05,5.522743e-05,1.0,-5.066395e-06,4.505366e-05,5.0365925e-06,1.0,48,0.145,0,0,0.0
0.9513245220005047,10:41:33.140671,10:41:14.113300,0,,0.028178537,0.04973405,0.07493533,-0.8676564,-0.3692846,-0.3328679,-0.49059218,0.74446446,0.4528709,0.0805701,0.5562387,-0.82710755,,0.14044592,-0.045065556,0.071412235,-0.74337393,-0.6169099,0.2584901,-0.4445621,0.74443555,0.4981768,-0.49975955,0.2554168,-0.8276491,,0.088903226,1.3423249,0.47697058,0.9960438,0.00271071,-0.08882207,-0.05391105,-0.77614856,-0.6282412,-0.0706421,0.63054425,-0.7729319,,-0.07264638,0.27887955,-0.08662881,0.8815199,0.2837068,0.37740305,-0.24641317,0.95828444,-0.14481527,-0.40274456,0.034660462,0.9146559,,0.05503026,0.4438394,-0.3807359,0.8665716,0.45709586,-0.20029235,-0.4980321,0.7664374,-0.40563256,-0.031901423,0.45126167,0.89182127,,0.8185247346061816,-0.08605441241748371,0.15336277361,0.637038048305985,0.1186004817964023,0.3042501949415263,0.8704605284295741,,-0.6229079109020748,-0.6847515557588646,0.12743308474,1.4489575094780633,0.22722649910992745,0.7897111472107425,0.8675203352391571,,-0.06956664232292899,-0.10060295974651816,0.09920539512,-0.034016912529394594,,3.7893653e-05,-1.4305115e-06,3.5762787e-07,0.99999994,-5.5223703e-05,-4.504621e-05,5.522743e-05,1.0,-5.066395e-06,4.505366e-05,5.0365925e-06,1.0,49,0.148,0,0,0.0
0.9699744240006112,10:41:33.161151,10:41:14.113300,0,,0.028177558,0.049734466,0.07493572,-0.86765546,-0.3692813,-0.332874,-0.49059308,0.7444623,0.4528734,0.08057451,0.5562437,-0.82710373,,0.14044592,-0.045065556,0.071412235,-0.74337393,-0.6169099,0.2584901,-0.4445621,0.74443555,0.4981768,-0.49975955,0.2554168,-0.8276491,,0.088903226,1.3423249,0.47697058,0.9960438,0.00271071,-0.08882207,-0.05391105,-0.77614856,-0.6282412,-0.0706421,0.63054425,-0.7729319,,-0.07264546,0.2788802,-0.08662886,0.88151866,0.2837032,0.37740865,-0.24641116,0.9582857,-0.14481038,-0.4027485,0.034655355,0.9146544,,0.05503026,0.4438394,-0.3807359,0.8665716,0.45709586,-0.20029235,-0.4980321,0.7664374,-0.40563256,-0.031901423,0.45126167,0.89182127,,0.8185324573390558,-0.08605441241748371,0.15336277361,0.637038048305985,0.1186004817964023,0.3042501949415263,0.8704605284295741,,-0.6229079109020748,-0.6847515557588646,0.12743308474,1.4489575094780633,0.22722649910992745,0.7897111472107425,0.8675203352391571,,-0.06956664232292899,-0.10060295974651816,0.09920539512,-0.034016912529394594,,3.7893653e-05,-1.4305115e-06,3.5762787e-07,0.99999994,-5.5223703e-05,-4.504621e-05,5.522743e-05,1.0,-5.066395e-06,4.505366e-05,5.0365925e-06,1.0,50,0.151,0,0,0.0
0.9904752910006209,10:41:33.180082,10:41:14.113300,0,,0.028177558,0.049734466,0.07493572,-0.86765546,-0.36933568,-0.33281365,-0.49059308,0.74453634,0.4527518,0.08057451,0.55610865,-0.82719463,,0.14044592,-0.045065556,0.071412235,-0.74337393,-0.6169099,0.2584901,-0.4445621,0.74443555,0.4981768,-0.49975955,0.2554168,-0.8276491,,0.088903226,1.3423249,0.47697058,0.9960438,0.00271071,-0.08882207,-0.05391105,-0.77614856,-0.6282412,-0.0706421,0.63054425,-0.7729319,,-0.07264546,0.2788802,-0.08662886,0.88151866,0.28376487,0.3773623,-0.24641116,0.958262,-0.14496692,-0.4027485,0.03480477,0.9146487,,0.05503026,0.4438394,-0.3807359,0.8665716,0.45709586,-0.20029235,-0.4980321,0.7664374,-0.40563256,-0.031901423,0.45126167,0.89182127,,0.8185324573390558,-0.08605441241748371,0.15336277361,0.637038048305985,0.1186004817964023,0.3040868374612451,0.8701338402973056,,-0.6229079109020748,-0.6847515557588646,0.12743308474,1.4489575094780633,0.22722649910992745,0.7897111472107425,0.8675203352391571,,-0.06956664232292899,-0.10060295974651816,0.09920539512,-0.034016912529394594,,3.7893653e-05,-1.4305115e-06,3.5762787e-07,0.99999994,-5.5223703e-05,-4.504621e-05,5.522743e-05,1.0,-5.066395e-06,4.505366e-05,5.0365925e-06,1.0,51,0.154,0,0,0.0
1.0094079039999997,10:41:33.199055,10:41:14.113300,0,,0.02823836,0.049696505,0.07494293,-0.8676108,-0.36940512,-0.33285317,-0.49067008,0.7445189,0.45269692,0.080586925,0.55608577,-0.8272088,,0.14048378,-0.045030426,0.07140979,-0.7433313,-0.61697006,0.2584695,-0.4446048,0.7443836,0.49821627,-0.499785,0.255423,-0.8276318,,0.08884664,1.3423269,0.47697234,0.9960477,0.002766066,-0.08877726,-0.05384001,-0.7761484,-0.6282475,-0.0706421,0.63054425,-0.7729319,,-0.072659545,0.27884704,-0.086660914,0.8815087,0.28378236,0.3773724,-0.24641596,0.95825607,-0.14499824,-0.40276733,0.034826636,0.9146396,,0.05503773,0.44385597,-0.38070518,0.8665688,0.45709863,-0.20029825,-0.49803808,0.766447,-0.405607,-0.031884424,0.45124254,0.8918316,,0.8185324573390558,-0.08605441241748371,0.15336277361,0.637038048305985,0.1186004817964023,0.3040868374612451,0.8701338402973056,,-0.6229001881692005,-0.6847515557588646,0.12743308474,1.4489575094780633,0.22722649910992745,0.7897111472107425,0.8675203352391571,,-0.06956664232292899,-0.10060295974651816,0.09920539512,-0.034016912529394594,,-1.8697232e-05,-2.026558e-06,2.7418137e-06,1.0,-9.313226e-08,-7.8231096e-08,9.685755e-08,1.0,-2.9802322e-08,8.195639e-08,0.0,1.0,52,0.157,0,0,0.0
1.028392979000273,10:41:33.219977,10:41:14.113300,0,,0.02823836,0.049696505,0.07494293,-0.8676108,-0.36940512,-0.33285317,-0.49067008,0.7445189,0.45269692,0.080586925,0.55608577,-0.8272088,,0.14048378,-0.045030426,0.07140979,-0.7433313,-0.61697006,0.2584695,-0.4446048,0.7443836,0.49821627,-0.499785,0.255423,-0.8276318,,0.08884664,1.3423269,0.47697234,0.9960477,0.002766066,-0.08877726,-0.05384001,-0.7761484,-0.6282475,-0.0706421,0.63054425,-0.7729319,,-0.072659545,0.27884704,-0.086660914,0.8815087,0.28378236,0.3773724,-0.24641596,0.95825607,-0.14499824,-0.40276733,0.034826636,0.9146396,,0.05503773,0.44385597,-0.38070518,0.8665688,0.45709863,-0.20029825,-0.49803808,0.766447,-0.405607,-0.031884424,0.45124254,0.8918316,,0.8185324573390558,-0.08605441241748371,0.15336277361,0.637038048305985,0.1186004817964023,0.3040868374612451,0.8701338402973056,,-0.6229001881692005,-0.6847515557588646,0.12743308474,1.4489575094780633,0.22722649910992745,0.7897111472107425,0.8675203352391571,,-0.06956664232292899,-0.10060295974651816,0.09920539512,-0.034016912529394594,,-1.8697232e-05,-2.026558e-06,2.7418137e-06,1.0,-9.313226e-08,-7.8231096e-08,9.685755e-08,1.0,-2.9802322e-08,8.195639e-08,0.0,1.0,53,0.16,0,0,0.0
1.0492921300001399,10:41:33.239851,10:41:14.113300,0,,0.02823836,0.049696505,0.07494293,-0.8676108,-0.36940512,-0.33285317,-0.49067008,0.7445189,0.45269692,0.080586925,0.55608577,-0.8272088,,0.14048442,-0.045030218,0.07141003,-0.7433288,-0.6169703,0.25847614,-0.4446018,0.74438405,0.49821824,-0.49979144,0.25542095,-0.8276285,,0.08884664,1.3423269,0.47697234,0.9960477,0.002766066,-0.08877726,-0.05384001,-0.7761484,-0.6282475,-0.0706421,0.63054425,-0.7729319,,-0.072659545,0.27884704,-0.086660914,0.8815087,0.28378236,0.3773724,-0.24641596,0.95825607,-0.14499824,-0.40276733,0.034826636,0.9146396,,0.055037037,0.44385618,-0.38070518,0.86656684,0.45709914,-0.20030552,-0.49804187,0.76644576,-0.4056047,-0.03187823,0.45124412,0.891831,,0.8185324573390558,-0.08605441241748371,0.15336277361,0.637038048305985,0.1186004817964023,0.3040868374612451,0.8701338402973056,,-0.6229079109020748,-0.6847515557588646,0.12743308474,1.4489575094780633,0.22722649910992745,0.7897111472107425,0.8675203352391571,,-0.06956664232292899,-0.10060295974651816,0.09920539512,-0.034016912529394594,,-1.8697232e-05,-2.026558e-06,2.7418137e-06,1.0,-9.313226e-08,-7.8231096e-08,9.685755e-08,1.0,-2.9802322e-08,8.195639e-08,0.0,1.0,54,0.163,0,0,0.0
1.0691316760003247,10:41:33.258623,10:41:14.113300,0,,0.02823836,0.049696505,0.07494293,-0.8676108,-0.36940512,-0.33285317,-0.49067008,0.7445189,0.45269692,0.080586925,0.55608577,-0.8272088,,0.14048378,-0.045030426,0.07140979,-0.7433313,-0.61697006,0.2584695,-0.4446048,0.7443836,0.49821627,-0.499785,0.255423,-0.8276318,,0.08884664,1.3423269,0.47697234,0.9960477,0.002766066,-0.08877726,-0.05384001,-0.7761484,-0.6282475,-0.0706421,0.63054425,-0.7729319,,-0.072659545,0.27884704,-0.086660914,0.8815087,0.28378236,0.3773724,-0.24641596,0.95825607,-0.14499824,-0.40276733,0.034826636,0.9146396,,0.05503773,0.44385597,-0.38070518,0.8665688,0.45709863,-0.20029825,-0.49803808,0.766447,-0.405607,-0.031884424,0.45124254,0.8918316,,0.8185324573390558,-0.08605441241748371,0.15336277361,0.637038048305985,0.1186004817964023,0.3040868374612451,0.8701338402973056,,-0.6229001881692005,-0.6847515557588646,0.12743308474,1.4489575094780633,0.22722649910992745,0.7897111472107425,0.8675203352391571,,-0.06956664232292899,-0.10060295974651816,0.09920539512,-0.034016912529394594,,-1.8697232e-05,-2.026558e-06,2.7418137e-06,1.0,-9.313226e-08,-7.8231096e-08,9.685755e-08,1.0,-2.9802322e-08,8.195639e-08,0.0,1.0,55,0.166,0,0,0.0
1.0879518339997958,10:41:33.272891,10:41:14.113300,0,,0.02823836,0.049696505,0.07494293,-0.8676108,-0.36940512,-0.33285317,-0.49067008,0.7445189,0.45269692,0.080586925,0.55608577,-0.8272088,,0.14048442,-0.045030218,0.07141003,-0.7433288,-0.6169703,0.25847614,-0.4446018,0.74438405,0.49821824,-0.49979144,0.25542095,-0.8276285,,0.08884664,1.3423269,0.47697234,0.9960477,0.002766066,-0.08877726,-0.05384001,-0.7761484,-0.6282475,-0.0706421,0.63054425,-0.7729319,,-0.072659545,0.27884704,-0.086660914,0.8815087,0.28378236,0.3773724,-0.24641596,0.95825607,-0.14499824,-0.40276733,0.034826636,0.9146396,,0.055037037,0.44385618,-0.38070518,0.86656684,0.45709914,-0.20030552,-0.49804187,0.76644576,-0.4056047,-0.03187823,0.45124412,0.891831,,0.8185324573390558,-0.08605441241748371,0.15336277361,0.637038048305985,0.1186004817964023,0.3040868374612451,0.8701338402973056,,-0.6229079109020748,-0.6847515557588646,0.12743308474,1.4489575094780633,0.22722649910992745,0.7897111472107425,0.8675203352391571,,-0.06956664232292899,-0.10060295974651816,0.09920539512,-0.034016912529394594,,-1.8697232e-05,-2.026558e-06,2.7418137e-06,1.0,-9.313226e-08,-7.8231096e-08,9.685755e-08,1.0,-2.9802322e-08,8.195639e-08,0.0,1.0,56,0.169,0,0,0.0
1.1021991400002662,10:41:33.298674,10:41:14.113300,0,,0.02823836,0.049696505,0.07494293,-0.8676108,-0.36940512,-0.33285317,-0.49067008,0.7445189,0.45269692,0.080586925,0.55608577,-0.8272088,,0.14048442,-0.045030218,0.07141003,-0.7433288,-0.6169703,0.25847614,-0.4446018,0.74438405,0.49821824,-0.49979144,0.25542095,-0.8276285,,0.08884664,1.3423269,0.47697234,0.9960477,0.002766066,-0.08877726,-0.05384001,-0.7761484,-0.6282475,-0.0706421,0.63054425,-0.7729319,,-0.072659545,0.27884704,-0.086660914,0.8815087,0.28378236,0.3773724,-0.24641596,0.95825607,-0.14499824,-0.40276733,0.034826636,0.9146396,,0.055037037,0.44385618,-0.38070518,0.86656684,0.45709914,-0.20030552,-0.49804187,0.76644576,-0.4056047,-0.03187823,0.45124412,0.891831,,0.8185324573390558,-0.08605441241748371,0.15336277361,0.637038048305985,0.1186004817964023,0.3040868374612451,0.8701338402973056,,-0.6229079109020748,-0.6847515557588646,0.12743308474,1.4489575094780633,0.22722649910992745,0.7897111472107425,0.8675203352391571,,-0.06956664232292899,-0.10060295974651816,0.09920539512,-0.034016912529394594,,-1.8697232e-05,-2.026558e-06,2.7418137e-06,1.0,-9.313226e-08,-7.8231096e-08,9.685755e-08,1.0,-2.9802322e-08,8.195639e-08,0.0,1.0,57,0.172,0,0,0.0
1.127994770999976,10:41:33.319442,10:41:14.113300,0,,0.028239332,0.049696073,0.07494256,-0.86761177,-0.36940843,-0.3328471,-0.49066916,0.744521,0.45269442,0.08058253,0.55608076,-0.82721263,,0.14048442,-0.045030218,0.07141003,-0.7433288,-0.6169703,0.25847614,-0.4446018,0.74438405,0.49821824,-0.49979144,0.25542095,-0.8276285,,0.08884664,1.3423269,0.47697234,0.9960477,0.002766066,-0.08877726,-0.05384001,-0.7761484,-0.6282475,-0.0706421,0.63054425,-0.7729319,,-0.07266046,0.27884638,-0.08666086,0.88150996,0.28378597,0.3773668,-0.24641797,0.9582548,-0.14500314,-0.4027634,0.034831744,0.91464114,,0.055037037,0.44385618,-0.38070518,0.86656684,0.45709914,-0.20030552,-0.49804187,0.76644576,-0.4056047,-0.03187823,0.45124412,0.891831,,0.8185247346061816,-0.08605441241748371,0.15336277361,0.637038048305985,0.1186004817964023,0.3040868374612451,0.8701338402973056,,-0.6229079109020748,-0.6847515557588646,0.12743308474,1.4489575094780633,0.22722649910992745,0.7897111472107425,0.8675203352391571,,-0.06956664232292899,-0.10060295974651816,0.09920539512,-0.034016912529394594,,-1.8697232e-05,-2.026558e-06,2.7418137e-06,1.0,-9.313226e-08,-7.8231096e-08,9.685755e-08,1.0,-2.9802322e-08,8.195639e-08,0.0,1.0,58,0.175,0,0,0.0
1.1487596810002287,10:41:33.338281,10:41:14.113300,0,,0.02823836,0.049696505,0.07494293,-0.8676108,-0.36940512,-0.33285317,-0.49067008,0.7445189,0.45269692,0.080586925,0.55608577,-0.8272088,,0.14048442,-0.045030218,0.07141003,-0.7433288,-0.6169703,0.25847614,-0.4446018,0.74438405,0.49821824,-0.49979144,0.25542095,-0.8276285,,0.08884664,1.3423269,0.47697234,0.9960477,0.002766066,-0.08877726,-0.05384001,-0.7761484,-0.6282475,-0.0706421,0.63054425,-0.7729319,,-0.072659545,0.27884704,-0.086660914,0.8815087,0.28378236,0.3773724,-0.24641596,0.95825607,-0.14499824,-0.40276733,0.034826636,0.9146396,,0.055037037,0.44385618,-0.38070518,0.86656684,0.45709914,-0.20030552,-0.49804187,0.76644576,-0.4056047,-0.03187823,0.45124412,0.891831,,0.8185324573390558,-0.08605441241748371,0.15336277361,0.637038048305985,0.1186004817964023,0.3040868374612451,0.8701338402973056,,-0.6229079109020748,-0.6847515557588646,0.12743308474,1.4489575094780633,0.22722649910992745,0.7897111472107425,0.8675203352391571,,-0.06956664232292899,-0.10060295974651816,0.09920539512,-0.034016912529394594,,-1.8697232e-05,-2.026558e-06,2.7418137e-06,1.0,-9.313226e-08,-7.8231096e-08,9.685755e-08,1.0,-2.9802322e-08,8.195639e-08,0.0,1.0,59,0.178,0,0,0.0
1.1675909619998492,10:41:33.354134,10:41:14.113300,0,,0.02823836,0.049696505,0.07494293,-0.8676108,-0.36940512,-0.33285317,-0.49067008,0.7445189,0.45269692,0.080586925,0.55608577,-0.8272088,,0.14048378,-0.045030426,0.07140979,-0.7433313,-0.61697006,0.2584695,-0.4446048,0.7443836,0.49821627,-0.499785,0.255423,-0.8276318,,0.08884664,1.3423269,0.47697234,0.9960477,0.002766066,-0.08877726,-0.05384001,-0.7761484,-0.6282475,-0.0706421,0.63054425,-0.7729319,,-0.072659545,0.27884704,-0.086660914,0.8815087,0.28378236,0.3773724,-0.24641596,0.95825607,-0.14499824,-0.40276733,0.034826636,0.9146396,,0.05503773,0.44385597,-0.38070518,0.8665688,0.45709863,-0.20029825,-0.49803808,0.766447,-0.405607,-0.031884424,0.45124254,0.8918316,,0.8185324573390558,-0.08605441241748371,0.15336277361,0.637038048305985,0.1186004817964023,0.3040868374612451,0.8701338402973056,,-0.6229001881692005,-0.6847515557588646,0.12743308474,1.4489575094780633,0.22722649910992745,0.7897111472107425,0.8675203352391571,,-0.06956664232292899,-0.10060295974651816,0.09920539512,-0.034016912529394594,,-1.8697232e-05,-2.026558e-06,2.7418137e-06,1.0,-9.313226e-08,-7.8231096e-08,9.685755e-08,1.0,-2.9802322e-08,8.195639e-08,0.0,1.0,60,0.182,0,0,0.0
1.1833854240003348,10:41:33.378116,10:41:14.113300,0,,0.02823836,0.049696505,0.07494293,-0.8676108,-0.36940512,-0.33285317,-0.49067008,0.7445189,0.45269692,0.080586925,0.55608577,-0.8272088,,0.14048378,-0.045030426,0.07140979,-0.7433313,-0.61697006,0.2584695,-0.4446048,0.7443836,0.49821627,-0.499785,0.255423,-0.8276318,,0.08884664,1.3423269,0.47697234,0.9960477,0.002766066,-0.08877726,-0.05384001,-0.7761484,-0.6282475,-0.0706421,0.63054425,-0.7729319,,-0.072659545,0.27884704,-0.086660914,0.8815087,0.28378236,0.3773724,-0.24641596,0.95825607,-0.14499824,-0.40276733,0.034826636,0.9146396,,0.05503773,0.44385597,-0.38070518,0.8665688,0.45709863,-0.20029825,-0.49803808,0.766447,-0.405607,-0.031884424,0.45124254,0.8918316,,0.8185324573390558,-0.08605441241748371,0.15336277361,0.637038048305985,0.1186004817964023,0.3040868374612451,0.8701338402973056,,-0.6229001881692005,-0.6847515557588646,0.12743308474,1.4489575094780633,0.22722649910992745,0.7897111472107425,0.8675203352391571,,-0.06956664232292899,-0.10060295974651816,0.09920539512,-0.034016912529394594,,-1.8697232e-05,-2.026558e-06,2.7418137e-06,1.0,-9.313226e-08,-7.8231096e-08,9.685755e-08,1.0,-2.9802322e-08,8.195639e-08,0.0,1.0,61,0.185,0,0,0.0
1.205235141999765,10:41:33.395542,10:41:14.113300,0,,0.02823836,0.049696505,0.07494293,-0.8676108,-0.36940512,-0.33285317,-0.49067008,0.7445189,0.45269692,0.080586925,0.55608577,-0.8272088,,0.14048442,-0.045030218,0.07141003,-0.7433288,-0.6169703,0.25847614,-0.4446018,0.74438405,0.49821824,-0.49979144,0.25542095,-0.8276285,,0.08884664,1.3423269,0.47697234,0.9960477,0.002766066,-0.08877726,-0.05384001,-0.7761484,-0.6282475,-0.0706421,0.63054425,-0.7729319,,-0.072659545,0.27884704,-0.086660914,0.8815087,0.28378236,0.3773724,-0.24641596,0.95825607,-0.14499824,-0.40276733,0.034826636,0.9146396,,0.055037037,0.44385618,-0.38070518,0.86656684,0.45709914,-0.20030552,-0.49804187,0.76644576,-0.4056047,-0.03187823,0.45124412,0.891831,,0.8185324573390558,-0.08605441241748371,0.15336277361,0.637038048305985,0.1186004817964023,0.3040868374612451,0.8701338402973056,,-0.6229079109020748,-0.6847515557588646,0.12743308474,1.4489575094780633,0.22722649910992745,0.7897111472107425,0.8675203352391571,,-0.06956664232292899,-0.10060295974651816,0.09920539512,-0.034016912529394594,,-1.8697232e-05,-2.026558e-06,2.7418137e-06,1.0,-9.313226e-08,-7.8231096e-08,9.685755e-08,1.0,-2.9802322e-08,8.195639e-08,0.0,1.0,62,0.188,0,0,0.0
1.2248472800001764,10:41:33.413615,10:41:14.113300,0,,0.02823836,0.049696505,0.07494293,-0.8676108,-0.36940512,-0.33285317,-0.49067008,0.7445189,0.45269692,0.080586925,0.55608577,-0.8272088,,0.14048442,-0.045030218,0.07141003,-0.7433288,-0.6169703,0.25847614,-0.4446018,0.74438405,0.49821824,-0.49979144,0.25542095,-0.8276285,,0.08884664,1.3423269,0.47697234,0.9960477,0.002766066,-0.08877726,-0.05384001,-0.7761484,-0.6282475,-0.0706421,0.63054425,-0.7729319,,-0.072659545,0.27884704,-0.086660914,0.8815087,0.28378236,0.3773724,-0.24641596,0.95825607,-0.14499824,-0.40276733,0.034826636,0.9146396,,0.055037037,0.44385618,-0.38070518,0.86656684,0.45709914,-0.20030552,-0.49804187,0.76644576,-0.4056047,-0.03187823,0.45124412,0.891831,,0.8185324573390558,-0.08605441241748371,0.15336277361,0.637038048305985,0.1186004817964023,0.3040868374612451,0.8701338402973056,,-0.6229079109020748,-0.6847515557588646,0.12743308474,1.4489575094780633,0.22722649910992745,0.7897111472107425,0.8675203352391571,,-0.06956664232292899,-0.10060295974651816,0.09920539512,-0.034016912529394594,,-1.8697232e-05,-2.026558e-06,2.7418137e-06,1.0,-9.313226e-08,-7.8231096e-08,9.685755e-08,1.0,-2.9802322e-08,8.195639e-08,0.0,1.0,63,0.191,0,0,0.0
1.24292633999994,10:41:33.431729,10:41:14.113300,0,,0.02823836,0.049696505,0.07494293,-0.8676108,-0.36940512,-0.33285317,-0.49067008,0.7445189,0.45269692,0.080586925,0.55608577,-0.8272088,,0.14048378,-0.045030426,0.07140979,-0.7433313,-0.61697006,0.2584695,-0.4446048,0.7443836,0.49821627,-0.499785,0.255423,-0.8276318,,0.08884664,1.3423269,0.47697234,0.9960477,0.002766066,-0.08877726,-0.05384001,-0.7761484,-0.6282475,-0.0706421,0.63054425,-0.7729319,,-0.072659545,0.27884704,-0.086660914,0.8815087,0.28378236,0.3773724,-0.24641596,0.95825607,-0.14499824,-0.40276733,0.034826636,0.9146396,,0.05503773,0.44385597,-0.38070518,0.8665688,0.45709863,-0.20029825,-0.49803808,0.766447,-0.405607,-0.031884424,0.45124254,0.8918316,,0.8185324573390558,-0.08605441241748371,0.15336277361,0.637038048305985,0.1186004817964023,0.3040868374612451,0.8701338402973056,,-0.6229001881692005,-0.6847515557588646,0.12743308474,1.4489575094780633,0.22722649910992745,0.7897111472107425,0.8675203352391571,,-0.06956664232292899,-0.10060295974651816,0.09920539512,-0.034016912529394594,,-1.8697232e-05,-2.026558e-06,2.7418137e-06,1.0,-9.313226e-08,-7.8231096e-08,9.685755e-08,1.0,-2.9802322e-08,8.195639e-08,0.0,1.0,64,0.194,0,0,0.0
1.2610611280006196,10:41:33.449147,10:41:14.113300,0,,0.02823836,0.049696505,0.07494293,-0.8676108,-0.36940512,-0.33285317,-0.49067008,0.7445189,0.45269692,0.080586925,0.55608577,-0.8272088,,0.14048442,-0.045030218,0.07141003,-0.7433288,-0.6169703,0.25847614,-0.4446018,0.74438405,0.49821824,-0.49979144,0.25542095,-0.8276285,,0.08884664,1.3423269,0.47697234,0.9960477,0.002766066,-0.08877726,-0.05384001,-0.7761484,-0.6282475,-0.0706421,0.63054425,-0.7729319,,-0.072659545,0.27884704,-0.086660914,0.8815087,0.28378236,0.3773724,-0.24641596,0.95825607,-0.14499824,-0.40276733,0.034826636,0.9146396,,0.055037037,0.44385618,-0.38070518,0.86656684,0.45709914,-0.20030552,-0.49804187,0.76644576,-0.4056047,-0.03187823,0.45124412,0.891831,,0.8185324573390558,-0.08605441241748371,0.15336277361,0.637038048305985,0.1186004817964023,0.3040868374612451,0.8701338402973056,,-0.6229079109020748,-0.6847515557588646,0.12743308474,1.4489575094780633,0.22722649910992745,0.7897111472107425,0.8675203352391571,,-0.06956664232292899,-0.10060295974651816,0.09920539512,-0.034016912529394594,,-1.8697232e-05,-2.026558e-06,2.7418137e-06,1.0,-9.313226e-08,-7.8231096e-08,9.685755e-08,1.0,-2.9802322e-08,8.195639e-08,0.0,1.0,65,0.197,0,0,0.0
1.2784864870000092,10:41:33.469524,10:41:14.113300,0,,0.02823836,0.049696505,0.07494293,-0.8676108,-0.36940512,-0.33285317,-0.49067008,0.7445189,0.45269692,0.080586925,0.55608577,-0.8272088,,0.14048378,-0.045030426,0.07140979,-0.7433313,-0.61697006,0.2584695,-0.4446048,0.7443836,0.49821627,-0.499785,0.255423,-0.8276318,,0.08884664,1.3423269,0.47697234,0.9960477,0.002766066,-0.08877726,-0.05384001,-0.7761484,-0.6282475,-0.0706421,0.63054425,-0.7729319,,-0.072659545,0.27884704,-0.086660914,0.8815087,0.28378236,0.3773724,-0.24641596,0.95825607,-0.14499824,-0.40276733,0.034826636,0.9146396,,0.05503773,0.44385597,-0.38070518,0.8665688,0.45709863,-0.20029825,-0.49803808,0.766447,-0.405607,-0.031884424,0.45124254,0.8918316,,0.8185324573390558,-0.08605441241748371,0.15336277361,0.637038048305985,0.1186004817964023,0.3040868374612451,0.8701338402973056,,-0.6229001881692005,-0.6847515557588646,0.12743308474,1.4489575094780633,0.22722649910992745,0.7897111472107425,0.8675203352391571,,-0.06956664232292899,-0.10060295974651816,0.09920539512,-0.034016912529394594,,-1.8697232e-05,-2.026558e-06,2.7418137e-06,1.0,-9.313226e-08,-7.8231096e-08,9.685755e-08,1.0,-2.9802322e-08,8.195639e-08,0.0,1.0,66,0.2,0,0,0.0
1.2988332120003179,10:41:33.491656,10:41:14.113300,0,,0.02823836,0.049696505,0.07494293,-0.8676108,-0.36940512,-0.33285317,-0.49067008,0.7445189,0.45269692,0.080586925,0.55608577,-0.8272088,,0.14048378,-0.045030426,0.07140979,-0.7433313,-0.61697006,0.2584695,-0.4446048,0.7443836,0.49821627,-0.499785,0.255423,-0.8276318,,0.08884664,1.3423269,0.47697234,0.9960477,0.002766066,-0.08877726,-0.05384001,-0.7761484,-0.6282475,-0.0706421,0.63054425,-0.7729319,,-0.072659545,0.27884704,-0.086660914,0.8815087,0.28378236,0.3773724,-0.24641596,0.95825607,-0.14499824,-0.40276733,0.034826636,0.9146396,,0.05503773,0.44385597,-0.38070518,0.8665688,0.45709863,-0.20029825,-0.49803808,0.766447,-0.405607,-0.031884424,0.45124254,0.8918316,,0.8185324573390558,-0.08605441241748371,0.15336277361,0.637038048305985,0.1186004817964023,0.3040868374612451,0.8701338402973056,,-0.6229001881692005,-0.6847515557588646,0.12743308474,1.4489575094780633,0.22722649910992745,0.7897111472107425,0.8675203352391571,,-0.06956664232292899,-0.10060295974651816,0.09920539512,-0.034016912529394594,,-1.8697232e-05,-2.026558e-06,2.7418137e-06,1.0,-9.313226e-08,-7.8231096e-08,9.685755e-08,1.0,-2.9802322e-08,8.195639e-08,0.0,1.0,67,0.203,0,0,0.0
1.3209781249997832,10:41:33.506154,10:41:14.113300,0,,0.02823836,0.049696505,0.07494293,-0.8676108,-0.36940512,-0.33285317,-0.49067008,0.7445189,0.45269692,0.080586925,0.55608577,-0.8272088,,0.14048378,-0.045030426,0.07140979,-0.7433313,-0.61697006,0.2584695,-0.4446048,0.7443836,0.49821627,-0.499785,0.255423,-0.8276318,,0.08884664,1.3423269,0.47697234,0.9960477,0.002766066,-0.08877726,-0.05384001,-0.7761484,-0.6282475,-0.0706421,0.63054425,-0.7729319,,-0.072659545,0.27884704,-0.086660914,0.8815087,0.28378236,0.3773724,-0.24641596,0.95825607,-0.14499824,-0.40276733,0.034826636,0.9146396,,0.05503773,0.44385597,-0.38070518,0.8665688,0.45709863,-0.20029825,-0.49803808,0.766447,-0.405607,-0.031884424,0.45124254,0.8918316,,0.8185324573390558,-0.08605441241748371,0.15336277361,0.637038048305985,0.1186004817964023,0.3040868374612451,0.8701338402973056,,-0.6229001881692005,-0.6847515557588646,0.12743308474,1.4489575094780633,0.22722649910992745,0.7897111472107425,0.8675203352391571,,-0.06956664232292899,-0.10060295974651816,0.09920539512,-0.034016912529394594,,-1.8697232e-05,-2.026558e-06,2.7418137e-06,1.0,-9.313226e-08,-7.8231096e-08,9.685755e-08,1.0,-2.9802322e-08,8.195639e-08,0.0,1.0,68,0.206,0,0,0.0
1.3354627550006626,10:41:33.525638,10:41:14.113300,0,,0.02823836,0.049696505,0.07494293,-0.8676108,-0.36940512,-0.33285317,-0.49067008,0.7445189,0.45269692,0.080586925,0.55608577,-0.8272088,,0.14048378,-0.045030426,0.07140979,-0.7433313,-0.61697006,0.2584695,-0.4446048,0.7443836,0.49821627,-0.499785,0.255423,-0.8276318,,0.08884664,1.3423269,0.47697234,0.9960477,0.002766066,-0.08877726,-0.05384001,-0.7761484,-0.6282475,-0.0706421,0.63054425,-0.7729319,,-0.072659545,0.27884704,-0.086660914,0.8815087,0.28378236,0.3773724,-0.24641596,0.95825607,-0.14499824,-0.40276733,0.034826636,0.9146396,,0.05503773,0.44385597,-0.38070518,0.8665688,0.45709863,-0.20029825,-0.49803808,0.766447,-0.405607,-0.031884424,0.45124254,0.8918316,,0.8185324573390558,-0.08605441241748371,0.15336277361,0.637038048305985,0.1186004817964023,0.3040868374612451,0.8701338402973056,,-0.6229001881692005,-0.6847515557588646,0.12743308474,1.4489575094780633,0.22722649910992745,0.7897111472107425,0.8675203352391571,,-0.06956664232292899,-0.10060295974651816,0.09920539512,-0.034016912529394594,,-1.8697232e-05,-2.026558e-06,2.7418137e-06,1.0,-9.313226e-08,-7.8231096e-08,9.685755e-08,1.0,-2.9802322e-08,8.195639e-08,0.0,1.0,69,0.209,0,0,0.0
1.354933765000169,10:41:33.545283,10:41:14.113300,0,,0.02823836,0.049696505,0.07494293,-0.8676108,-0.36940512,-0.33285317,-0.49067008,0.7445189,0.45269692,0.080586925,0.55608577,-0.8272088,,0.14048442,-0.045030218,0.07141003,-0.7433288,-0.6169703,0.25847614,-0.4446018,0.74438405,0.49821824,-0.49979144,0.25542095,-0.8276285,,0.08884664,1.3423269,0.47697234,0.9960477,0.002766066,-0.08877726,-0.05384001,-0.7761484,-0.6282475,-0.0706421,0.63054425,-0.7729319,,-0.072659545,0.27884704,-0.086660914,0.8815087,0.28378236,0.3773724,-0.24641596,0.95825607,-0.14499824,-0.40276733,0.034826636,0.9146396,,0.055037037,0.44385618,-0.38070518,0.86656684,0.45709914,-0.20030552,-0.49804187,0.76644576,-0.4056047,-0.03187823,0.45124412,0.891831,,0.8185324573390558,-0.08605441241748371,0.15336277361,0.637038048305985,0.1186004817964023,0.3040868374612451,0.8701338402973056,,-0.6229079109020748,-0.6847515557588646,0.12743308474,1.4489575094780633,0.22722649910992745,0.7897111472107425,0.8675203352391571,,-0.06956664232292899,-0.10060295974651816,0.09920539512,-0.034016912529394594,,-1.8697232e-05,-2.026558e-06,2.7418137e-06,1.0,-9.313226e-08,-7.8231096e-08,9.685755e-08,1.0,-2.9802322e-08,8.195639e-08,0.0,1.0,70,0.212,0,0,0.0
1.3746062959999108,10:41:33.569560,10:41:14.113300,0,,0.02823836,0.049696505,0.07494293,-0.8676108,-0.36940512,-0.33285317,-0.49067008,0.7445189,0.45269692,0.080586925,0.55608577,-0.8272088,,0.14048378,-0.045030426,0.07140979,-0.7433313,-0.61697006,0.2584695,-0.4446048,0.7443836,0.49821627,-0.499785,0.255423,-0.8276318,,0.08884664,1.3423269,0.47697234,0.9960477,0.002766066,-0.08877726,-0.05384001,-0.7761484,-0.6282475,-0.0706421,0.63054425,-0.7729319,,-0.072659545,0.27884704,-0.086660914,0.8815087,0.28378236,0.3773724,-0.24641596,0.95825607,-0.14499824,-0.40276733,0.034826636,0.9146396,,0.05503773,0.44385597,-0.38070518,0.8665688,0.45709863,-0.20029825,-0.49803808,0.766447,-0.405607,-0.031884424,0.45124254,0.8918316,,0.8185324573390558,-0.08605441241748371,0.15336277361,0.637038048305985,0.1186004817964023,0.3040868374612451,0.8701338402973056,,-0.6229001881692005,-0.6847515557588646,0.12743308474,1.4489575094780633,0.22722649910992745,0.7897111472107425,0.8675203352391571,,-0.06956664232292899,-0.10060295974651816,0.09920539512,-0.034016912529394594,,-1.8697232e-05,-2.026558e-06,2.7418137e-06,1.0,-9.313226e-08,-7.8231096e-08,9.685755e-08,1.0,-2.9802322e-08,8.195639e-08,0.0,1.0,71,0.215,0,0,0.0
1.3988233879999825,10:41:33.586456,10:41:14.113300,0,,0.02823836,0.049696505,0.07494293,-0.8676108,-0.36940512,-0.33285317,-0.49067008,0.7445189,0.45269692,0.080586925,0.55608577,-0.8272088,,0.14048442,-0.045030218,0.07141003,-0.7433288,-0.6169703,0.25847614,-0.4446018,0.74438405,0.49821824,-0.49979144,0.25542095,-0.8276285,,0.08884664,1.3423269,0.47697234,0.9960477,0.002766066,-0.08877726,-0.05384001,-0.7761484,-0.6282475,-0.0706421,0.63054425,-0.7729319,,-0.072659545,0.27884704,-0.086660914,0.8815087,0.28378236,0.3773724,-0.24641596,0.95825607,-0.14499824,-0.40276733,0.034826636,0.9146396,,0.055037037,0.44385618,-0.38070518,0.86656684,0.45709914,-0.20030552,-0.49804187,0.76644576,-0.4056047,-0.03187823,0.45124412,0.891831,,0.8185324573390558,-0.08605441241748371,0.15336277361,0.637038048305985,0.1186004817964023,0.3040868374612451,0.8701338402973056,,-0.6229079109020748,-0.6847515557588646,0.12743308474,1.4489575094780633,0.22722649910992745,0.7897111472107425,0.8675203352391571,,-0.06956664232292899,-0.10060295974651816,0.09920539512,-0.034016912529394594,,-1.8697232e-05,-2.026558e-06,2.7418137e-06,1.0,-9.313226e-08,-7.8231096e-08,9.685755e-08,1.0,-2.9802322e-08,8.195639e-08,0.0,1.0,72,0.218,0,0,0.0
1.4157549250003285,10:41:33.604570,10:41:14.113300,0,,0.028239332,0.049696073,0.07494256,-0.86761177,-0.36940843,-0.3328471,-0.49066916,0.744521,0.45269442,0.08058253,0.55608076,-0.82721263,,0.14048442,-0.045030218,0.07141003,-0.7433288,-0.6169703,0.25847614,-0.4446018,0.74438405,0.49821824,-0.49979144,0.25542095,-0.8276285,,0.08884664,1.3423269,0.47697234,0.9960477,0.002766066,-0.08877726,-0.05384001,-0.7761484,-0.6282475,-0.0706421,0.63054425,-0.7729319,,-0.07266046,0.27884638,-0.08666086,0.88150996,0.28378597,0.3773668,-0.24641797,0.9582548,-0.14500314,-0.4027634,0.034831744,0.91464114,,0.055037037,0.44385618,-0.38070518,0.86656684,0.45709914,-0.20030552,-0.49804187,0.76644576,-0.4056047,-0.03187823,0.45124412,0.891831,,0.8185247346061816,-0.08605441241748371,0.15336277361,0.637038048305985,0.1186004817964023,0.3040868374612451,0.8701338402973056,,-0.6229079109020748,-0.6847515557588646,0.12743308474,1.4489575094780633,0.22722649910992745,0.7897111472107425,0.8675203352391571,,-0.06956664232292899,-0.10060295974651816,0.09920539512,-0.034016912529394594,,-1.8697232e-05,-2.026558e-06,2.7418137e-06,1.0,-9.313226e-08,-7.8231096e-08,9.685755e-08,1.0,-2.9802322e-08,8.195639e-08,0.0,1.0,73,0.22,0,0,0.0
1.4338784170004146,10:41:33.630271,10:41:14.113300,0,,0.028239332,0.049696073,0.07494256,-0.86761177,-0.36940843,-0.3328471,-0.49066916,0.744521,0.45269442,0.08058253,0.55608076,-0.82721263,,0.14048442,-0.045030218,0.07141003,-0.7433288,-0.6169703,0.25847614,-0.4446018,0.74438405,0.49821824,-0.49979144,0.25542095,-0.8276285,,0.08884664,1.3423269,0.47697234,0.9960477,0.002766066,-0.08877726,-0.05384001,-0.7761484,-0.6282475,-0.0706421,0.63054425,-0.7729319,,-0.07266046,0.27884638,-0.08666086,0.88150996,0.28378597,0.3773668,-0.24641797,0.9582548,-0.14500314,-0.4027634,0.034831744,0.91464114,,0.055037037,0.44385618,-0.38070518,0.86656684,0.45709914,-0.20030552,-0.49804187,0.76644576,-0.4056047,-0.03187823,0.45124412,0.891831,,0.8185247346061816,-0.08605441241748371,0.15336277361,0.637038048305985,0.1186004817964023,0.3040868374612451,0.8701338402973056,,-0.6229079109020748,-0.6847515557588646,0.12743308474,1.4489575094780633,0.22722649910992745,0.7897111472107425,0.8675203352391571,,-0.06956664232292899,-0.10060295974651816,0.09920539512,-0.034016912529394594,,-1.8697232e-05,-2.026558e-06,2.7418137e-06,1.0,-9.313226e-08,-7.8231096e-08,9.685755e-08,1.0,-2.9802322e-08,8.195639e-08,0.0,1.0,74,0.224,0,0,0.0
1.4596009480001157,10:41:33.646266,10:41:14.113300,0,,0.02823836,0.049696505,0.07494293,-0.8676108,-0.36940512,-0.33285317,-0.49067008,0.7445189,0.45269692,0.080586925,0.55608577,-0.8272088,,0.14048442,-0.045030218,0.07141003,-0.7433288,-0.6169703,0.25847614,-0.4446018,0.74438405,0.49821824,-0.49979144,0.25542095,-0.8276285,,0.08884664,1.3423269,0.47697234,0.9960477,0.002766066,-0.08877726,-0.05384001,-0.7761484,-0.6282475,-0.0706421,0.63054425,-0.7729319,,-0.072659545,0.27884704,-0.086660914,0.8815087,0.28378236,0.3773724,-0.24641596,0.95825607,-0.14499824,-0.40276733,0.034826636,0.9146396,,0.055037037,0.44385618,-0.38070518,0.86656684,0.45709914,-0.20030552,-0.49804187,0.76644576,-0.4056047,-0.03187823,0.45124412,0.891831,,0.8185324573390558,-0.08605441241748371,0.15336277361,0.637038048305985,0.1186004817964023,0.3040868374612451,0.8701338402973056,,-0.6229079109020748,-0.6847515557588646,0.12743308474,1.4489575094780633,0.22722649910992745,0.7897111472107425,0.8675203352391571,,-0.06956664232292899,-0.10060295974651816,0.09920539512,-0.034016912529394594,,-1.8697232e-05,-2.026558e-06,2.7418137e-06,1.0,-9.313226e-08,-7.8231096e-08,9.685755e-08,1.0,-2.9802322e-08,8.195639e-08,0.0,1.0,75,0.227,0,0,0.0
1.4756042180006261,10:41:33.664492,10:41:14.113300,0,,0.02823836,0.049696505,0.07494293,-0.8676108,-0.36940512,-0.33285317,-0.49067008,0.7445189,0.45269692,0.080586925,0.55608577,-0.8272088,,0.14048442,-0.045030218,0.07141003,-0.7433288,-0.6169703,0.25847614,-0.4446018,0.74438405,0.49821824,-0.49979144,0.25542095,-0.8276285,,0.08884664,1.3423269,0.47697234,0.9960477,0.002766066,-0.08877726,-0.05384001,-0.7761484,-0.6282475,-0.0706421,0.63054425,-0.7729319,,-0.072659545,0.27884704,-0.086660914,0.8815087,0.28378236,0.3773724,-0.24641596,0.95825607,-0.14499824,-0.40276733,0.034826636,0.9146396,,0.055037037,0.44385618,-0.38070518,0.86656684,0.45709914,-0.20030552,-0.49804187,0.76644576,-0.4056047,-0.03187823,0.45124412,0.891831,,0.8185324573390558,-0.08605441241748371,0.15336277361,0.637038048305985,0.1186004817964023,0.3040868374612451,0.8701338402973056,,-0.6229079109020748,-0.6847515557588646,0.12743308474,1.4489575094780633,0.22722649910992745,0.7897111472107425,0.8675203352391571,,-0.06956664232292899,-0.10060295974651816,0.09920539512,-0.034016912529394594,,-1.8697232e-05,-2.026558e-06,2.7418137e-06,1.0,-9.313226e-08,-7.8231096e-08,9.685755e-08,1.0,-2.9802322e-08,8.195639e-08,0.0,1.0,76,0.23,0,0,0.0
1.4930394920002072,10:41:33.687274,10:41:14.113300,0,,0.028239332,0.049696073,0.07494256,-0.86761177,-0.36940843,-0.3328471,-0.49066916,0.744521,0.45269442,0.08058253,0.55608076,-0.82721263,,0.14048442,-0.045030218,0.07141003,-0.7433288,-0.6169703,0.25847614,-0.4446018,0.74438405,0.49821824,-0.49979144,0.25542095,-0.8276285,,0.08884664,1.3423269,0.47697234,0.9960477,0.002766066,-0.08877726,-0.05384001,-0.7761484,-0.6282475,-0.0706421,0.63054425,-0.7729319,,-0.07266046,0.27884638,-0.08666086,0.88150996,0.28378597,0.3773668,-0.24641797,0.9582548,-0.14500314,-0.4027634,0.034831744,0.91464114,,0.055037037,0.44385618,-0.38070518,0.86656684,0.45709914,-0.20030552,-0.49804187,0.76644576,-0.4056047,-0.03187823,0.45124412,0.891831,,0.8185247346061816,-0.08605441241748371,0.15336277361,0.637038048305985,0.1186004817964023,0.3040868374612451,0.8701338402973056,,-0.6229079109020748,-0.6847515557588646,0.12743308474,1.4489575094780633,0.22722649910992745,0.7897111472107425,0.8675203352391571,,-0.06956664232292899,-0.10060295974651816,0.09920539512,-0.034016912529394594,,-1.8697232e-05,-2.026558e-06,2.7418137e-06,1.0,-9.313226e-08,-7.8231096e-08,9.685755e-08,1.0,-2.9802322e-08,8.195639e-08,0.0,1.0,77,0.233,0,0,0.0
1.5165650360004292,10:41:33.706732,10:41:14.113300,0,,0.02823836,0.049696505,0.07494293,-0.8676108,-0.36940512,-0.33285317,-0.49067008,0.7445189,0.45269692,0.080586925,0.55608577,-0.8272088,,0.14048442,-0.045030218,0.07141003,-0.7433288,-0.6169703,0.25847614,-0.4446018,0.74438405,0.49821824,-0.49979144,0.25542095,-0.8276285,,0.08884664,1.3423269,0.47697234,0.9960477,0.002766066,-0.08877726,-0.05384001,-0.7761484,-0.6282475,-0.0706421,0.63054425,-0.7729319,,-0.072659545,0.27884704,-0.086660914,0.8815087,0.28378236,0.3773724,-0.24641596,0.95825607,-0.14499824,-0.40276733,0.034826636,0.9146396,,0.055037037,0.44385618,-0.38070518,0.86656684,0.45709914,-0.20030552,-0.49804187,0.76644576,-0.4056047,-0.03187823,0.45124412,0.891831,,0.8185324573390558,-0.08605441241748371,0.15336277361,0.637038048305985,0.1186004817964023,0.3040868374612451,0.8701338402973056,,-0.6229079109020748,-0.6847515557588646,0.12743308474,1.4489575094780633,0.22722649910992745,0.7897111472107425,0.8675203352391571,,-0.06956664232292899,-0.10060295974651816,0.09920539512,-0.034016912529394594,,-1.8697232e-05,-2.026558e-06,2.7418137e-06,1.0,-9.313226e-08,-7.8231096e-08,9.685755e-08,1.0,-2.9802322e-08,8.195639e-08,0.0,1.0,78,0.236,0,0,0.0
1.5360379920002742,10:41:33.723614,10:41:14.113300,0,,0.02823836,0.049696505,0.07494293,-0.8676108,-0.36940512,-0.33285317,-0.49067008,0.7445189,0.45269692,0.080586925,0.55608577,-0.8272088,,0.14048378,-0.045030426,0.07140979,-0.7433313,-0.61697006,0.2584695,-0.4446048,0.7443836,0.49821627,-0.499785,0.255423,-0.8276318,,0.08884664,1.3423269,0.47697234,0.9960477,0.002766066,-0.08877726,-0.05384001,-0.7761484,-0.6282475,-0.0706421,0.63054425,-0.7729319,,-0.072659545,0.27884704,-0.086660914,0.8815087,0.28378236,0.3773724,-0.24641596,0.95825607,-0.14499824,-0.40276733,0.034826636,0.9146396,,0.05503773,0.44385597,-0.38070518,0.8665688,0.45709863,-0.20029825,-0.49803808,0.766447,-0.405607,-0.031884424,0.45124254,0.8918316,,0.8185324573390558,-0.08605441241748371,0.15336277361,0.637038048305985,0.1186004817964023,0.3040868374612451,0.8701338402973056,,-0.6229001881692005,-0.6847515557588646,0.12743308474,1.4489575094780633,0.22722649910992745,0.7897111472107425,0.8675203352391571,,-0.06956664232292899,-0.10060295974651816,0.09920539512,-0.034016912529394594,,-1.8697232e-05,-2.026558e-06,2.7418137e-06,1.0,-9.313226e-08,-7.8231096e-08,9.685755e-08,1.0,-2.9802322e-08,8.195639e-08,0.0,1.0,79,0.239,0,0,0.0
